chaoyuefei/paper-gmrm-data/robot_logs/onetime_s2_dq_gmrm_xz_max_0.30_log_20260314_181141.csv
# time_ms,q_0,q_1,q_2,q_3,q_4,q_5,q_6,dq_0,dq_1,dq_2,dq_3,dq_4,dq_5,dq_6,tau_J_0,tau_J_1,tau_J_2,tau_J_3,tau_J_4,tau_J_5,tau_J_6,O_dP_EE_c_0,O_dP_EE_c_1,O_dP_EE_c_2,O_dP_EE_c_3,O_dP_EE_c_4,O_dP_EE_c_5
14564548.000000,-0.344606,0.543979,0.451018,-1.426921,-0.241960,1.916018,0.131423,-0.000066,0.000074,-0.000550,0.000098,0.000232,0.000048,0.000411,-0.044818,-38.267170,6.143295,19.439268,0.207303,1.988631,0.048385,0.000000,0.000000,0.000000,0.000000,0.000000,0.000000
14564549.000000,-0.344604,0.543979,0.451017,-1.426921,-0.241960,1.916019,0.131420,0.000513,0.000049,-0.000367,0.000065,0.000155,0.000303,-0.000709,-0.068621,-38.267170,6.143295,19.439268,0.207303,1.981307,0.074935,0.000000,0.000000,0.000000,0.000000,0.000000,0.000000
14564550.000000,-0.344606,0.543981,0.451020,-1.426923,-0.241957,1.916018,0.131425,-0.000215,0.000590,0.000869,-0.000513,0.000307,-0.000306,0.001257,-0.044818,-38.290974,6.095688,19.463072,0.201810,1.995040,0.028243,0.000000,0.000000,0.000000,0.000000,0.000000,0.000000
14564551.000000,-0.344604,0.543978,0.451018,-1.426921,-0.241955,1.916021,0.131424,0.000414,-0.000720,0.000023,0.000215,0.000442,-0.000204,0.000329,-0.068621,-38.243366,6.119492,19.439268,0.195402,1.995040,0.041976,0.000000,0.000000,0.000000,0.000000,0.000000,0.000000
14564552.000000,-0.344623,0.543986,0.451017,-1.426924,-0.241956,1.916021,0.131427,-0.018079,0.013716,-0.015221,-0.006149,0.002939,0.000610,0.003716,-0.465350,-37.727619,5.556137,19.169493,0.123990,1.974899,0.074935,0.000000,0.000000,0.000000,0.000000,0.000000,0.000000
14564553.000000,-0.344642,0.543977,0.450998,-1.426922,-0.241943,1.916023,0.131445,-0.024721,0.016225,-0.024076,-0.011773,0.000630,-0.001141,0.012253,-1.901507,-35.474201,4.032700,18.106260,-0.222994,1.890670,0.074935,0.000000,0.000000,0.000000,0.000000,0.000000,0.000000
14564554.000000,-0.344644,0.543986,0.450930,-1.426945,-0.241943,1.916023,0.131479,-0.015578,0.014818,-0.042877,-0.021115,-0.000215,0.000783,0.021878,-4.178729,-32.121845,2.239486,16.376524,-0.616671,1.838485,0.107894,0.000000,0.000000,0.000000,0.000000,0.000000,0.000000
14564555.000000,-0.344660,0.544032,0.450840,-1.426968,-0.241998,1.916020,0.131534,-0.004273,0.021586,-0.051872,-0.022297,-0.020607,0.008162,0.036696,-6.257586,-28.646503,0.180466,13.877134,-0.629489,1.877853,0.074935,0.000000,0.000000,0.000000,0.000000,0.000000,0.000000
14564556.000000,-0.344680,0.544119,0.450714,-1.427027,-0.242061,1.916026,0.131587,0.000127,0.028337,-0.069209,-0.028177,-0.034674,0.005884,0.044308,-7.963519,-25.512348,-1.366776,11.457090,-0.658785,2.007858,0.127120,0.000000,0.000000,0.000000,0.000000,0.000000,0.000000
14564557.000000,-0.344709,0.544225,0.450598,-1.427105,-0.242153,1.916090,0.131655,-0.000008,0.043284,-0.073410,-0.034767,-0.053365,0.027129,0.053713,-8.879962,-22.941547,-2.668045,9.207640,-0.580966,1.656295,0.087753,0.000000,0.000000,0.000000,0.000000,0.000000,0.000000
14564558.000000,-0.344737,0.544343,0.450490,-1.427186,-0.242272,1.916239,0.131714,-0.003144,0.058804,-0.072756,-0.044381,-0.078074,0.071011,0.056583,-9.078326,-20.961872,-3.330582,7.081175,-0.330111,0.771896,0.153671,0.000000,0.000000,0.000000,0.000000,0.000000,0.000000
14564559.000000,-0.344756,0.544477,0.450393,-1.427289,-0.242392,1.916411,0.131777,-0.006101,0.081428,-0.076980,-0.055927,-0.086862,0.104255,0.059048,-8.756976,-19.466206,-3.330582,5.399046,-0.187289,-0.053910,0.219589,0.000000,0.000000,0.000000,0.000000,0.000000,0.000000
14564560.000000,-0.344778,0.544589,0.450337,-1.427383,-0.242515,1.916580,0.131848,-0.011611,0.086851,-0.067085,-0.064412,-0.096519,0.127981,0.058803,-7.915911,-18.045918,-3.255203,3.867674,-0.085665,-0.378922,0.219589,0.000000,0.000000,0.000000,0.000000,0.000000,0.000000
14564561.000000,-0.344790,0.544690,0.450301,-1.427492,-0.242615,1.916742,0.131928,-0.014060,0.091038,-0.055378,-0.075837,-0.100295,0.142295,0.064769,-6.900286,-16.748615,-2.890213,2.852049,-0.204684,-0.209550,0.173812,0.000000,0.000000,0.000000,0.000000,0.000000,0.000000
14564562.000000,-0.344781,0.544779,0.450270,-1.427613,-0.242722,1.916929,0.132011,-0.012300,0.090312,-0.047048,-0.089108,-0.093558,0.154666,0.074441,-6.083025,-15.403706,-2.299088,2.114134,-0.336520,0.089828,0.114303,0.000000,0.000000,0.000000,0.000000,0.000000,0.000000
14564563.000000,-0.344784,0.544839,0.450249,-1.427761,-0.242815,1.917163,0.132087,-0.013337,0.078666,-0.043691,-0.109938,-0.089779,0.178183,0.073477,-5.118975,-13.812824,-1.660355,1.939574,-0.580966,0.291244,0.140853,0.000000,0.000000,0.000000,0.000000,0.000000,0.000000
14564564.000000,-0.344791,0.544887,0.450225,-1.427933,-0.242900,1.917428,0.132173,-0.013954,0.066514,-0.040492,-0.133345,-0.082363,0.213233,0.076680,-4.127154,-12.122761,-0.997818,2.137938,-0.838229,0.394698,0.067611,0.000000,0.000000,0.000000,0.000000,0.000000,0.000000
14564565.000000,-0.344795,0.544924,0.450193,-1.428134,-0.243002,1.917711,0.132250,-0.013183,0.054814,-0.041546,-0.159724,-0.086781,0.234856,0.075159,-3.286089,-10.436665,-0.287674,2.681456,-0.838229,0.551253,0.094161,0.000000,0.000000,0.000000,0.000000,0.000000,0.000000
14564566.000000,-0.344808,0.544962,0.450150,-1.428336,-0.243121,1.918009,0.132333,-0.016079,0.049687,-0.046069,-0.179572,-0.098151,0.252010,0.076529,-2.421221,-8.964802,0.474045,3.173399,-0.611178,0.811263,0.054794,0.000000,0.000000,0.000000,0.000000,0.000000,0.000000
14564567.000000,-0.344844,0.545022,0.450099,-1.428545,-0.243248,1.918336,0.132403,-0.022932,0.055237,-0.053463,-0.191374,-0.102698,0.272728,0.067980,-1.354022,-7.842060,1.160385,3.470946,-0.330111,0.889083,0.147262,0.000000,0.000000,0.000000,0.000000,0.000000,0.000000
14564568.000000,-0.344888,0.545104,0.450058,-1.428766,-0.243360,1.918680,0.132488,-0.030530,0.062391,-0.052468,-0.202216,-0.109409,0.289899,0.071225,-0.290789,-7.104145,1.576950,3.720885,-0.180880,0.901900,0.114303,0.000000,0.000000,0.000000,0.000000,0.000000,0.000000
14564569.000000,-0.344925,0.545205,0.450025,-1.428997,-0.243469,1.919060,0.132564,-0.033375,0.075564,-0.050211,-0.210092,-0.115150,0.323654,0.070861,0.526471,-6.663776,1.775314,3.843870,-0.150668,0.869857,0.153671,0.000000,0.000000,0.000000,0.000000,0.000000,0.000000
14564570.000000,-0.344939,0.545337,0.449989,-1.429229,-0.243561,1.919466,0.132650,-0.025925,0.093164,-0.044837,-0.216986,-0.108062,0.347248,0.079285,0.923200,-6.616169,1.922104,3.744688,-0.306307,0.739852,0.087753,0.000000,0.000000,0.000000,0.000000,0.000000,0.000000
14564571.000000,-0.344960,0.545476,0.449961,-1.429463,-0.243646,1.919900,0.132735,-0.021145,0.109776,-0.037373,-0.220843,-0.101157,0.371752,0.078527,1.315961,-6.739155,1.898300,3.423338,-0.527865,0.511886,0.074935,0.000000,0.000000,0.000000,0.000000,0.000000,0.000000
14564572.000000,-0.344982,0.545612,0.449933,-1.429704,-0.243730,1.920339,0.132805,-0.020945,0.121336,-0.033634,-0.225129,-0.100738,0.393563,0.078909,1.688886,-6.691547,1.922104,3.002806,-0.760409,0.453292,0.153671,0.000000,0.000000,0.000000,0.000000,0.000000,0.000000
14564573.000000,-0.344998,0.545746,0.449895,-1.429957,-0.243835,1.920785,0.132894,-0.017753,0.129463,-0.032911,-0.231081,-0.098735,0.403728,0.080885,1.911054,-6.516987,2.021286,2.657652,-0.802523,0.564071,0.081344,0.000000,0.000000,0.000000,0.000000,0.000000,0.000000
14564574.000000,-0.345013,0.545869,0.449853,-1.430233,-0.243962,1.921250,0.132971,-0.021107,0.126321,-0.036040,-0.243722,-0.105346,0.418095,0.077938,2.085615,-6.029011,2.144272,2.506895,-0.623080,0.622665,0.120712,0.000000,0.000000,0.000000,0.000000,0.000000,0.000000
14564575.000000,-0.345028,0.545990,0.449805,-1.430531,-0.244087,1.921742,0.133049,-0.020380,0.123186,-0.043248,-0.258858,-0.117989,0.440449,0.077140,2.232404,-5.418049,2.338669,2.506895,-0.455538,0.635482,0.120712,0.000000,0.000000,0.000000,0.000000,0.000000,0.000000
14564576.000000,-0.345047,0.546095,0.449764,-1.430842,-0.244214,1.922275,0.133128,-0.020339,0.113992,-0.042180,-0.276595,-0.117629,0.466617,0.076154,2.383161,-4.561115,2.390243,2.629881,-0.294406,0.511886,0.133529,0.000000,0.000000,0.000000,0.000000,0.000000,0.000000
14564577.000000,-0.345061,0.546211,0.449727,-1.431165,-0.244338,1.922830,0.133214,-0.018083,0.115897,-0.041326,-0.290861,-0.119487,0.498027,0.082245,2.430768,-3.850971,2.314865,2.681456,-0.192782,0.323287,0.094161,0.000000,0.000000,0.000000,0.000000,0.000000,0.000000
14564578.000000,-0.345070,0.546347,0.449696,-1.431497,-0.244452,1.923387,0.133294,-0.011431,0.122220,-0.036632,-0.301117,-0.115982,0.517989,0.079977,2.383161,-3.335224,2.168075,2.729063,-0.222994,0.362655,0.100570,0.000000,0.000000,0.000000,0.000000,0.000000,0.000000
14564579.000000,-0.345073,0.546498,0.449665,-1.431809,-0.244558,1.923951,0.133377,-0.006782,0.125488,-0.030925,-0.304549,-0.111529,0.534978,0.078168,2.331586,-3.212239,2.045089,2.459288,-0.312716,0.597030,0.114303,0.000000,0.000000,0.000000,0.000000,0.000000,0.000000
14564580.000000,-0.345072,0.546675,0.449638,-1.432125,-0.244663,1.924531,0.133460,-0.003683,0.138351,-0.031816,-0.305051,-0.106139,0.549525,0.078704,2.283979,-3.874775,1.997482,2.360106,-0.461947,0.824081,0.081344,0.000000,0.000000,0.000000,0.000000,0.000000,0.000000
14564581.000000,-0.345074,0.546860,0.449616,-1.432433,-0.244759,1.925165,0.133544,-0.003775,0.153786,-0.028378,-0.312910,-0.102452,0.576861,0.077852,2.331586,-5.100666,2.045089,2.383909,-0.623080,0.843307,0.081344,0.000000,0.000000,0.000000,0.000000,0.000000,0.000000
14564582.000000,-0.345074,0.547045,0.449597,-1.432763,-0.244860,1.925832,0.133627,-0.001924,0.166648,-0.024259,-0.319276,-0.102527,0.621374,0.077289,2.430768,-6.639973,2.168075,2.756834,-0.718295,0.609847,0.074935,0.000000,0.000000,0.000000,0.000000,0.000000,0.000000
14564583.000000,-0.345073,0.547231,0.449569,-1.433101,-0.244976,1.926538,0.133701,-0.001467,0.176511,-0.025444,-0.324774,-0.108824,0.649329,0.075132,2.581525,-8.282429,2.485458,3.201170,-0.646884,0.232650,0.120712,0.000000,0.000000,0.000000,0.000000,0.000000,0.000000
14564584.000000,-0.345068,0.547407,0.449540,-1.433448,-0.245102,1.927240,0.133785,0.000828,0.181953,-0.025215,-0.338906,-0.117139,0.659472,0.081126,2.652936,-9.750324,2.779037,3.693114,-0.461947,-0.008134,0.087753,0.000000,0.000000,0.000000,0.000000,0.000000,0.000000
14564585.000000,-0.345070,0.547579,0.449516,-1.433805,-0.245244,1.927914,0.133857,0.001248,0.180939,-0.026208,-0.344345,-0.125580,0.662091,0.081884,2.779890,-10.948444,3.001205,4.014464,-0.192782,0.031234,0.140853,0.000000,0.000000,0.000000,0.000000,0.000000,0.000000
14564586.000000,-0.345067,0.547756,0.449488,-1.434159,-0.245373,1.928577,0.133940,0.001496,0.180813,-0.028758,-0.348429,-0.126627,0.660355,0.081369,2.779890,-12.174335,3.171798,4.312010,-0.037142,0.161239,0.114303,0.000000,0.000000,0.000000,0.000000,0.000000,0.000000
14564587.000000,-0.345052,0.547929,0.449461,-1.434538,-0.245498,1.929258,0.134023,0.006019,0.178087,-0.025890,-0.353903,-0.123908,0.664059,0.081365,2.454572,-13.543049,3.270981,4.978514,0.010465,0.316879,0.074935,0.000000,0.000000,0.000000,0.000000,0.000000,0.000000
14564588.000000,-0.345042,0.548096,0.449437,-1.434913,-0.245607,1.929932,0.134097,0.004085,0.172819,-0.024797,-0.356790,-0.116624,0.667734,0.077839,2.061811,-15.038715,3.270981,5.918761,-0.085665,0.459701,0.127120,0.000000,0.000000,0.000000,0.000000,0.000000,0.000000
14564589.000000,-0.345040,0.548268,0.449415,-1.435291,-0.245701,1.930623,0.134183,0.003931,0.172009,-0.019436,-0.364492,-0.112580,0.671968,0.084585,1.712690,-16.800190,3.199569,7.255736,-0.294406,0.538436,0.054794,0.000000,0.000000,0.000000,0.000000,0.000000,0.000000
14564590.000000,-0.345042,0.548441,0.449384,-1.435663,-0.245808,1.931301,0.134252,0.002284,0.174279,-0.022272,-0.365402,-0.110183,0.679453,0.079477,1.415143,-18.609272,3.270981,8.588743,-0.372225,0.674850,0.127120,0.000000,0.000000,0.000000,0.000000,0.000000,0.000000
14564591.000000,-0.345046,0.548623,0.449347,-1.436038,-0.245928,1.931958,0.134332,0.001699,0.177144,-0.027952,-0.368903,-0.114238,0.667164,0.079654,1.216779,-20.493732,3.370163,10.072508,-0.300814,1.045638,0.100570,0.000000,0.000000,0.000000,0.000000,0.000000,0.000000
14564592.000000,-0.345053,0.548819,0.449310,-1.436402,-0.246048,1.932622,0.134412,0.000763,0.185227,-0.031534,-0.372522,-0.113669,0.658801,0.078499,1.046186,-22.382160,3.445541,11.357908,-0.187289,1.416427,0.100570,0.000000,0.000000,0.000000,0.000000,0.000000,0.000000
14564593.000000,-0.345074,0.549015,0.449266,-1.436782,-0.246171,1.933285,0.134494,-0.007496,0.191920,-0.036030,-0.376473,-0.117729,0.654625,0.077029,1.069990,-24.092060,3.592331,12.619505,-0.060946,1.481429,0.120712,0.000000,0.000000,0.000000,0.000000,0.000000,0.000000
14564594.000000,-0.345083,0.549234,0.449225,-1.437153,-0.246284,1.933971,0.134578,-0.006110,0.200199,-0.038057,-0.378246,-0.117204,0.659767,0.081714,0.923200,-25.905109,3.687546,13.654966,-0.031649,1.396285,0.107894,0.000000,0.000000,0.000000,0.000000,0.000000,0.000000
14564595.000000,-0.345084,0.549466,0.449177,-1.437529,-0.246403,1.934639,0.134660,-0.006345,0.214271,-0.040618,-0.379819,-0.121166,0.667023,0.079442,0.697065,-27.718159,3.838302,14.420652,-0.013339,1.240646,0.127120,0.000000,0.000000,0.000000,0.000000,0.000000,0.000000
14564596.000000,-0.345087,0.549708,0.449123,-1.437914,-0.246523,1.935293,0.134745,-0.007495,0.223578,-0.043179,-0.379812,-0.122972,0.660987,0.078999,0.502668,-29.356647,4.008896,15.091124,-0.031649,1.253463,0.114303,0.000000,0.000000,0.000000,0.000000,0.000000,0.000000
14564597.000000,-0.345087,0.549952,0.449065,-1.438290,-0.246647,1.935919,0.134827,-0.002014,0.230113,-0.048043,-0.380485,-0.125491,0.650873,0.078171,0.304304,-30.776936,4.179489,15.507689,-0.025240,1.409103,0.107894,0.000000,0.000000,0.000000,0.000000,0.000000,0.000000
14564598.000000,-0.345094,0.550201,0.448998,-1.438680,-0.246770,1.936531,0.134909,-0.001380,0.238219,-0.054076,-0.381746,-0.127360,0.637843,0.078460,0.252729,-31.998859,4.449265,15.805235,-0.007845,1.591293,0.081344,0.000000,0.000000,0.000000,0.000000,0.000000,0.000000
14564599.000000,-0.345108,0.550435,0.448931,-1.439077,-0.246898,1.937159,0.134987,-0.006200,0.234731,-0.060168,-0.392614,-0.126232,0.636905,0.075908,0.304304,-32.855793,4.671432,16.150389,0.058073,1.643478,0.127120,0.000000,0.000000,0.000000,0.000000,0.000000,0.000000
14564600.000000,-0.345121,0.550667,0.448855,-1.439493,-0.247022,1.937789,0.135074,-0.008745,0.231392,-0.069737,-0.398323,-0.127765,0.638005,0.082084,0.328107,-33.542133,4.965012,16.547117,0.064481,1.552840,0.087753,0.000000,0.000000,0.000000,0.000000,0.000000,0.000000
14564601.000000,-0.345135,0.550896,0.448781,-1.439923,-0.247144,1.938413,0.135150,-0.011060,0.228675,-0.070716,-0.408045,-0.127978,0.636502,0.083262,0.375715,-34.057880,5.135605,17.043028,0.046171,1.500655,0.133529,0.000000,0.000000,0.000000,0.000000,0.000000,0.000000
14564602.000000,-0.345163,0.551120,0.448706,-1.440343,-0.247272,1.939033,0.135237,-0.016765,0.223893,-0.071679,-0.410002,-0.125429,0.627019,0.087687,0.601850,-34.446674,5.310165,17.289000,0.076383,1.519881,0.087753,0.000000,0.000000,0.000000,0.000000,0.000000,0.000000
14564603.000000,-0.345186,0.551361,0.448622,-1.440767,-0.247398,1.939628,0.135319,-0.018728,0.229984,-0.077815,-0.411058,-0.121525,0.620239,0.089560,0.748639,-34.914814,5.579941,17.534971,0.064481,1.682845,0.081344,0.000000,0.000000,0.000000,0.000000,0.000000,0.000000
14564604.000000,-0.345199,0.551606,0.448542,-1.441189,-0.247527,1.940217,0.135393,-0.017726,0.234483,-0.079202,-0.412469,-0.125232,0.609151,0.083622,0.796247,-35.474201,5.726730,17.757139,0.093778,1.877853,0.147262,0.000000,0.000000,0.000000,0.000000,0.000000,0.000000
14564605.000000,-0.345213,0.551849,0.448455,-1.441621,-0.247655,1.940813,0.135482,-0.016588,0.233016,-0.082982,-0.414745,-0.125747,0.606665,0.088944,0.824018,-35.890766,5.972702,18.030882,0.064481,1.936446,0.081344,0.000000,0.000000,0.000000,0.000000,0.000000,0.000000
14564606.000000,-0.345226,0.552099,0.448366,-1.442067,-0.247789,1.941418,0.135559,-0.015246,0.238320,-0.084991,-0.419717,-0.126288,0.603591,0.083826,0.824018,-36.259724,6.190903,18.328428,0.040677,1.897079,0.127120,0.000000,0.000000,0.000000,0.000000,0.000000,0.000000
14564607.000000,-0.345242,0.552354,0.448281,-1.442502,-0.247920,1.942026,0.135649,-0.016036,0.243301,-0.086835,-0.423969,-0.127661,0.601056,0.088355,0.895429,-36.700092,6.290085,18.625975,0.034269,1.819259,0.074935,0.000000,0.000000,0.000000,0.000000,0.000000,0.000000
14564608.000000,-0.345252,0.552614,0.448182,-1.442944,-0.248053,1.942613,0.135733,-0.014284,0.246446,-0.089296,-0.427195,-0.125810,0.595332,0.088152,0.871625,-37.188068,6.559860,18.796568,0.081876,1.871444,0.120712,0.000000,0.000000,0.000000,0.000000,0.000000,0.000000
14564609.000000,-0.345259,0.552875,0.448088,-1.443388,-0.248187,1.943198,0.135822,-0.012607,0.252342,-0.090935,-0.431827,-0.124549,0.589163,0.086745,0.824018,-37.580830,6.706650,18.919554,0.135892,1.981307,0.074935,0.000000,0.000000,0.000000,0.000000,0.000000,0.000000
14564610.000000,-0.345273,0.553129,0.447994,-1.443828,-0.248318,1.943807,0.135907,-0.010003,0.250261,-0.092560,-0.434892,-0.128076,0.592422,0.082595,0.847822,-37.850605,6.853439,18.994932,0.183500,2.001449,0.107894,0.000000,0.000000,0.000000,0.000000,0.000000,0.000000
14564611.000000,-0.345286,0.553381,0.447904,-1.444281,-0.248449,1.944414,0.136000,-0.011740,0.250445,-0.092115,-0.437661,-0.128375,0.602677,0.086445,0.895429,-38.021198,6.928818,19.141722,0.178007,1.942855,0.054794,0.000000,0.000000,0.000000,0.000000,0.000000,0.000000
14564612.000000,-0.345293,0.553630,0.447815,-1.444733,-0.248573,1.945031,0.136075,-0.010149,0.248969,-0.091208,-0.445053,-0.132684,0.600285,0.085279,0.824018,-38.144184,6.976425,19.316282,0.147794,1.871444,0.133529,0.000000,0.000000,0.000000,0.000000,0.000000,0.000000
14564613.000000,-0.345298,0.553883,0.447723,-1.445189,-0.248699,1.945630,0.136165,-0.006460,0.253735,-0.087750,-0.452281,-0.127163,0.602149,0.084621,0.772443,-38.215595,7.028000,19.439268,0.129484,1.844894,0.087753,0.000000,0.000000,0.000000,0.000000,0.000000,0.000000
14564614.000000,-0.345309,0.554142,0.447639,-1.445636,-0.248831,1.946235,0.136243,-0.008115,0.254882,-0.082864,-0.447454,-0.128275,0.604571,0.085272,0.772443,-38.290974,6.976425,19.415464,0.123990,1.923629,0.127120,0.000000,0.000000,0.000000,0.000000,0.000000,0.000000
14564615.000000,-0.345318,0.554391,0.447562,-1.446089,-0.248963,1.946835,0.136334,-0.008779,0.251889,-0.078339,-0.451197,-0.129820,0.600027,0.083503,0.748639,-38.338581,6.881210,19.538450,0.135892,2.047225,0.107894,0.000000,0.000000,0.000000,0.000000,0.000000,0.000000
14564616.000000,-0.345321,0.554648,0.447482,-1.446538,-0.249099,1.947437,0.136420,-0.006942,0.250558,-0.079664,-0.448673,-0.130112,0.599880,0.082252,0.625654,-38.390156,6.829636,19.613829,0.135892,2.098495,0.087753,0.000000,0.000000,0.000000,0.000000,0.000000,0.000000
14564617.000000,-0.345318,0.554894,0.447403,-1.446986,-0.249226,1.948044,0.136502,-0.000878,0.250318,-0.076882,-0.453858,-0.130155,0.602037,0.079314,0.427289,-38.338581,6.758224,19.637632,0.123990,2.053634,0.120712,0.000000,0.000000,0.000000,0.000000,0.000000,0.000000
14564618.000000,-0.345314,0.555149,0.447322,-1.447434,-0.249352,1.948663,0.136591,0.001625,0.253613,-0.079930,-0.447901,-0.126044,0.608743,0.078999,0.304304,-38.413960,6.758224,19.685240,0.123990,2.027084,0.094161,0.000000,0.000000,0.000000,0.000000,0.000000,0.000000
14564619.000000,-0.345312,0.555407,0.447246,-1.447879,-0.249480,1.949273,0.136672,0.000352,0.254277,-0.080686,-0.442903,-0.127399,0.609588,0.077621,0.177350,-38.437763,6.706650,19.590025,0.117582,1.981307,0.107894,0.000000,0.000000,0.000000,0.000000,0.000000,0.000000
14564620.000000,-0.345302,0.555666,0.447178,-1.448309,-0.249604,1.949882,0.136759,0.004789,0.252086,-0.078781,-0.441349,-0.129331,0.607096,0.077417,-0.044818,-38.485371,6.536057,19.415464,0.135892,1.988631,0.094161,0.000000,0.000000,0.000000,0.000000,0.000000,0.000000
14564621.000000,-0.345288,0.555924,0.447109,-1.448745,-0.249732,1.950484,0.136839,0.009022,0.251853,-0.075935,-0.436074,-0.130827,0.605916,0.080386,-0.314593,-38.584553,6.436874,19.193296,0.166105,2.001449,0.114303,0.000000,0.000000,0.000000,0.000000,0.000000,0.000000
14564622.000000,-0.345275,0.556184,0.447044,-1.449180,-0.249853,1.951105,0.136930,0.010294,0.256045,-0.071656,-0.436962,-0.129242,0.609668,0.084702,-0.512957,-38.731342,6.242477,19.141722,0.135892,2.014266,0.094161,0.000000,0.000000,0.000000,0.000000,0.000000,0.000000
14564623.000000,-0.345263,0.556447,0.446981,-1.449604,-0.249976,1.951740,0.137021,0.010675,0.259496,-0.069942,-0.433755,-0.124835,0.616545,0.088539,-0.687518,-38.830524,6.095688,18.947325,0.123990,1.936446,0.054794,0.000000,0.000000,0.000000,0.000000,0.000000,0.000000
14564624.000000,-0.345251,0.556707,0.446919,-1.450039,-0.250104,1.952376,0.137099,0.009790,0.257126,-0.066083,-0.435895,-0.126828,0.622707,0.085934,-0.810504,-38.925739,5.972702,18.971128,0.129484,1.800033,0.160079,0.000000,0.000000,0.000000,0.000000,0.000000,0.000000
14564625.000000,-0.345243,0.556958,0.446859,-1.450454,-0.250236,1.952999,0.137193,0.010091,0.255456,-0.062847,-0.431364,-0.128092,0.622111,0.085692,-0.834307,-38.925739,5.849716,18.848143,0.123990,1.767074,0.100570,0.000000,0.000000,0.000000,0.000000,0.000000,0.000000
14564626.000000,-0.345231,0.557227,0.446806,-1.450881,-0.250364,1.953620,0.137281,0.008082,0.258473,-0.059636,-0.431417,-0.129462,0.620347,0.088376,-0.885882,-39.072529,5.679123,18.871946,0.135892,1.806442,0.087753,0.000000,0.000000,0.000000,0.000000,0.000000,0.000000
14564627.000000,-0.345213,0.557498,0.446746,-1.451287,-0.250491,1.954239,0.137362,0.011014,0.257584,-0.056304,-0.419900,-0.130796,0.623309,0.088855,-0.985064,-39.219318,5.603745,18.673582,0.147794,1.877853,0.114303,0.000000,0.000000,0.000000,0.000000,0.000000,0.000000
14564628.000000,-0.345192,0.557763,0.446691,-1.451690,-0.250613,1.954867,0.137443,0.010570,0.260543,-0.052626,-0.415678,-0.130339,0.619978,0.083222,-1.108050,-39.417683,5.480759,18.499022,0.123990,1.851302,0.173812,0.000000,0.000000,0.000000,0.000000,0.000000,0.000000
14564629.000000,-0.345174,0.558028,0.446641,-1.452097,-0.250734,1.955482,0.137539,0.010743,0.263535,-0.051942,-0.409501,-0.128099,0.617746,0.084232,-1.254840,-39.512897,5.310165,18.376036,0.058073,1.806442,0.100570,0.000000,0.000000,0.000000,0.000000,0.000000,0.000000
14564630.000000,-0.345155,0.558293,0.446591,-1.452495,-0.250850,1.956114,0.137621,0.012883,0.261944,-0.052487,-0.409614,-0.127221,0.621100,0.080450,-1.354022,-39.612080,5.187180,18.276854,-0.001437,1.721298,0.140853,0.000000,0.000000,0.000000,0.000000,0.000000,0.000000
14564631.000000,-0.345138,0.558560,0.446541,-1.452892,-0.250974,1.956736,0.137714,0.013841,0.263060,-0.052522,-0.404892,-0.124341,0.638644,0.081537,-1.429400,-39.758869,5.064194,18.130064,0.004056,1.670028,0.081344,0.000000,0.000000,0.000000,0.000000,0.000000,0.000000
14564632.000000,-0.345119,0.558832,0.446490,-1.453294,-0.251101,1.957354,0.137794,0.015831,0.268031,-0.054682,-0.406373,-0.123612,0.629056,0.082637,-1.552386,-39.834248,5.012619,18.030882,0.052579,1.695663,0.133529,0.000000,0.000000,0.000000,0.000000,0.000000,0.000000
14564633.000000,-0.345110,0.559105,0.446439,-1.453686,-0.251226,1.957975,0.137880,0.010686,0.265410,-0.051758,-0.402374,-0.127331,0.622431,0.080724,-1.528582,-39.905659,4.917404,18.007078,0.093778,1.708480,0.133529,0.000000,0.000000,0.000000,0.000000,0.000000,0.000000
14564634.000000,-0.345102,0.559375,0.446388,-1.454083,-0.251354,1.958599,0.137966,0.009631,0.264148,-0.051395,-0.402765,-0.124033,0.623222,0.080414,-1.480975,-39.981037,4.893600,18.030882,0.105680,1.702071,0.107894,0.000000,0.000000,0.000000,0.000000,0.000000,0.000000
14564635.000000,-0.345097,0.559646,0.446336,-1.454472,-0.251482,1.959228,0.138047,0.008434,0.266626,-0.050846,-0.402549,-0.120623,0.628349,0.082425,-1.405596,-40.076252,4.865829,18.106260,0.105680,1.649886,0.147262,0.000000,0.000000,0.000000,0.000000,0.000000,0.000000
14564636.000000,-0.345085,0.559926,0.446282,-1.454857,-0.251609,1.959858,0.138140,0.009438,0.269514,-0.051065,-0.400210,-0.122592,0.624705,0.086712,-1.405596,-40.199238,4.865829,18.130064,0.081876,1.591293,0.114303,0.000000,0.000000,0.000000,0.000000,0.000000,0.000000
14564637.000000,-0.345085,0.560204,0.446229,-1.455251,-0.251735,1.960459,0.138224,0.006668,0.271760,-0.050473,-0.396427,-0.119408,0.620995,0.087216,-1.254840,-40.346027,4.842026,18.229246,0.058073,1.670028,0.147262,0.000000,0.000000,0.000000,0.000000,0.000000,0.000000
14564638.000000,-0.345082,0.560484,0.446177,-1.455630,-0.251853,1.961073,0.138320,0.006237,0.270506,-0.050117,-0.391674,-0.116269,0.611017,0.086433,-1.159625,-40.516621,4.818222,18.229246,0.010465,1.806442,0.087753,0.000000,0.000000,0.000000,0.000000,0.000000,0.000000
14564639.000000,-0.345083,0.560773,0.446121,-1.456019,-0.251977,1.961687,0.138402,0.004698,0.276141,-0.050914,-0.393137,-0.119118,0.614475,0.086119,-1.008868,-40.714985,4.842026,18.328428,-0.019747,1.819259,0.133529,0.000000,0.000000,0.000000,0.000000,0.000000,0.000000
14564640.000000,-0.345082,0.561061,0.446060,-1.456407,-0.252098,1.962310,0.138488,0.004374,0.280078,-0.055063,-0.393261,-0.116426,0.619431,0.082070,-0.885882,-41.008564,4.893600,18.499022,-0.060946,1.767074,0.173812,0.000000,0.000000,0.000000,0.000000,0.000000,0.000000
14564641.000000,-0.345081,0.561342,0.445999,-1.456804,-0.252225,1.962927,0.138584,0.004125,0.278798,-0.058921,-0.394403,-0.121325,0.621646,0.083485,-0.762896,-41.179157,4.988815,18.598204,-0.043551,1.741439,0.094161,0.000000,0.000000,0.000000,0.000000,0.000000,0.000000
14564642.000000,-0.345085,0.561634,0.445927,-1.457197,-0.252352,1.963542,0.138670,-0.000899,0.283674,-0.063200,-0.391137,-0.124882,0.621130,0.085937,-0.564532,-41.448933,5.135605,18.673582,-0.019747,1.767074,0.100570,0.000000,0.000000,0.000000,0.000000,0.000000,0.000000
14564643.000000,-0.345083,0.561909,0.445853,-1.457584,-0.252486,1.964162,0.138752,-0.002177,0.280765,-0.067074,-0.390194,-0.128758,0.620679,0.081660,-0.465350,-41.595722,5.333969,18.673582,0.034269,1.747848,0.140853,0.000000,0.000000,0.000000,0.000000,0.000000,0.000000
14564644.000000,-0.345087,0.562192,0.445775,-1.457984,-0.252620,1.964775,0.138839,-0.004977,0.281299,-0.071102,-0.392610,-0.130145,0.616730,0.083945,-0.290789,-41.694904,5.579941,18.796568,0.052579,1.735030,0.166488,0.000000,0.000000,0.000000,0.000000,0.000000,0.000000
14564645.000000,-0.345093,0.562478,0.445699,-1.458385,-0.252761,1.965392,0.138933,-0.006983,0.280037,-0.068297,-0.393299,-0.136905,0.619541,0.089072,-0.116229,-41.718708,5.726730,18.871946,0.093778,1.702071,0.100570,0.000000,0.000000,0.000000,0.000000,0.000000,0.000000
14564646.000000,-0.345097,0.562760,0.445619,-1.458782,-0.252900,1.966020,0.139015,-0.007776,0.276426,-0.073837,-0.394494,-0.136654,0.620990,0.088454,0.030561,-41.865498,5.921127,18.971128,0.123990,1.682845,0.147262,0.000000,0.000000,0.000000,0.000000,0.000000,0.000000
14564647.000000,-0.345108,0.563043,0.445533,-1.459184,-0.253028,1.966618,0.139106,-0.010146,0.280807,-0.078408,-0.396694,-0.133906,0.613418,0.086666,0.252729,-41.936909,6.143295,19.042540,0.093778,1.773483,0.107894,0.000000,0.000000,0.000000,0.000000,0.000000,0.000000
14564648.000000,-0.345113,0.563328,0.445448,-1.459572,-0.253158,1.967226,0.139188,-0.009464,0.277952,-0.082983,-0.391495,-0.137082,0.607955,0.082296,0.375715,-42.036091,6.290085,19.042540,0.064481,1.838485,0.147262,0.000000,0.000000,0.000000,0.000000,0.000000,0.000000
14564649.000000,-0.345121,0.563614,0.445361,-1.459970,-0.253292,1.967826,0.139281,-0.008497,0.280941,-0.083373,-0.393660,-0.139813,0.622300,0.086698,0.474897,-42.182880,6.436874,19.018736,0.040677,1.851302,0.114303,0.000000,0.000000,0.000000,0.000000,0.000000,0.000000
14564650.000000,-0.345135,0.563900,0.445268,-1.460378,-0.253419,1.968441,0.139369,-0.008535,0.279570,-0.084520,-0.396303,-0.135040,0.621470,0.083796,0.601850,-42.182880,6.611435,19.169493,-0.037142,1.890670,0.107894,0.000000,0.000000,0.000000,0.000000,0.000000,0.000000
14564651.000000,-0.345147,0.564188,0.445179,-1.460775,-0.253547,1.969060,0.139455,-0.010982,0.280467,-0.083978,-0.399405,-0.134980,0.622146,0.085006,0.697065,-42.258259,6.734421,19.240904,-0.031649,1.884261,0.140853,0.000000,0.000000,0.000000,0.000000,0.000000,0.000000
14564652.000000,-0.345159,0.564469,0.445087,-1.461173,-0.253683,1.969671,0.139549,-0.011891,0.280141,-0.088101,-0.398473,-0.135364,0.624479,0.083849,0.748639,-42.282063,6.905014,19.217100,-0.001437,1.838485,0.107894,0.000000,0.000000,0.000000,0.000000,0.000000,0.000000
14564653.000000,-0.345171,0.564758,0.444988,-1.461577,-0.253825,1.970276,0.139636,-0.009459,0.282976,-0.092032,-0.408873,-0.140299,0.621061,0.084986,0.796247,-42.305866,7.127182,19.316282,0.046171,1.890670,0.147262,0.000000,0.000000,0.000000,0.000000,0.000000,0.000000
14564654.000000,-0.345190,0.565033,0.444895,-1.461976,-0.253974,1.970893,0.139729,-0.012738,0.283465,-0.091686,-0.403814,-0.140618,0.620503,0.088721,0.923200,-42.230488,7.198593,19.316282,0.112089,1.936446,0.100570,0.000000,0.000000,0.000000,0.000000,0.000000,0.000000
14564655.000000,-0.345197,0.565312,0.444796,-1.462384,-0.254116,1.971508,0.139814,-0.012057,0.282069,-0.090753,-0.405471,-0.138733,0.623250,0.089508,0.923200,-42.230488,7.369186,19.439268,0.129484,1.890670,0.114303,0.000000,0.000000,0.000000,0.000000,0.000000,0.000000
14564656.000000,-0.345204,0.565590,0.444697,-1.462780,-0.254252,1.972127,0.139905,-0.008666,0.279613,-0.095705,-0.403401,-0.136990,0.619448,0.086079,0.923200,-42.182880,7.515976,19.514647,0.129484,1.838485,0.107894,0.000000,0.000000,0.000000,0.000000,0.000000,0.000000
14564657.000000,-0.345209,0.565871,0.444603,-1.463186,-0.254385,1.972727,0.139987,-0.008201,0.278789,-0.094712,-0.404778,-0.134702,0.618675,0.085872,0.871625,-42.159077,7.591354,19.613829,0.112089,1.871444,0.153671,0.000000,0.000000,0.000000,0.000000,0.000000,0.000000
14564658.000000,-0.345217,0.566149,0.444506,-1.463589,-0.254517,1.973339,0.140084,-0.008704,0.279005,-0.096394,-0.404399,-0.132315,0.618340,0.090587,0.847822,-42.159077,7.638962,19.760618,0.064481,1.909896,0.087753,0.000000,0.000000,0.000000,0.000000,0.000000,0.000000
14564659.000000,-0.345217,0.566424,0.444404,-1.463992,-0.254653,1.973944,0.140170,-0.003653,0.275446,-0.099196,-0.403963,-0.131520,0.617460,0.089915,0.724836,-42.159077,7.761948,19.911375,0.040677,1.968490,0.127120,0.000000,0.000000,0.000000,0.000000,0.000000,0.000000
14564660.000000,-0.345225,0.566695,0.444311,-1.464398,-0.254794,1.974532,0.140252,-0.006148,0.270949,-0.095772,-0.402267,-0.133321,0.611387,0.085383,0.724836,-42.059895,7.761948,20.058165,0.088285,2.047225,0.153671,0.000000,0.000000,0.000000,0.000000,0.000000,0.000000
14564661.000000,-0.345228,0.566967,0.444217,-1.464794,-0.254930,1.975127,0.140347,-0.003565,0.271690,-0.096808,-0.404103,-0.138368,0.608547,0.089655,0.673261,-42.036091,7.789719,20.157347,0.105680,2.053634,0.100570,0.000000,0.000000,0.000000,0.000000,0.000000,0.000000
14564662.000000,-0.345236,0.567243,0.444131,-1.465202,-0.255076,1.975718,0.140430,-0.003438,0.274119,-0.095220,-0.403761,-0.141837,0.606527,0.089559,0.697065,-41.936909,7.690536,20.327940,0.117582,2.085677,0.133529,0.000000,0.000000,0.000000,0.000000,0.000000,0.000000
14564663.000000,-0.345232,0.567521,0.444036,-1.465612,-0.255223,1.976316,0.140525,0.000206,0.274258,-0.093277,-0.404743,-0.146453,0.607268,0.092485,0.574079,-41.889301,7.690536,20.554075,0.178007,2.053634,0.087753,0.000000,0.000000,0.000000,0.000000,0.000000,0.000000
14564664.000000,-0.345230,0.567796,0.443944,-1.466010,-0.255361,1.976917,0.140611,-0.001634,0.274778,-0.091443,-0.402433,-0.147140,0.602909,0.090913,0.502668,-41.865498,7.666733,20.649290,0.166105,2.020675,0.133529,0.000000,0.000000,0.000000,0.000000,0.000000,0.000000
14564665.000000,-0.345229,0.568075,0.443859,-1.466414,-0.255499,1.977498,0.140706,-0.001566,0.276892,-0.088633,-0.403769,-0.147169,0.601696,0.088629,0.502668,-41.790119,7.591354,20.776243,0.154203,2.060043,0.094161,0.000000,0.000000,0.000000,0.000000,0.000000,0.000000
14564666.000000,-0.345224,0.568347,0.443774,-1.466819,-0.255641,1.978097,0.140795,0.000362,0.275675,-0.086224,-0.414671,-0.144332,0.594946,0.089409,0.427289,-41.694904,7.492172,20.970640,0.178007,2.112228,0.107894,0.000000,0.000000,0.000000,0.000000,0.000000,0.000000
14564667.000000,-0.345211,0.568621,0.443687,-1.467216,-0.255777,1.978679,0.140887,0.005949,0.278158,-0.085688,-0.406899,-0.145177,0.606061,0.090917,0.304304,-41.619526,7.444565,21.069822,0.154203,2.163497,0.100570,0.000000,0.000000,0.000000,0.000000,0.000000,0.000000
14564668.000000,-0.345199,0.568900,0.443605,-1.467623,-0.255917,1.979273,0.140976,0.008340,0.278657,-0.084762,-0.402716,-0.146840,0.599933,0.091933,0.252729,-41.496540,7.369186,21.244383,0.159696,2.209274,0.094161,0.000000,0.000000,0.000000,0.000000,0.000000,0.000000
14564669.000000,-0.345190,0.569170,0.443526,-1.468031,-0.256050,1.979859,0.141061,0.005306,0.270763,-0.082888,-0.405701,-0.142340,0.590030,0.085844,0.276533,-41.401325,7.246201,21.541929,0.135892,2.242233,0.140853,0.000000,0.000000,0.000000,0.000000,0.000000,0.000000
14564670.000000,-0.345176,0.569444,0.443451,-1.468442,-0.256192,1.980455,0.141151,0.008000,0.271703,-0.079336,-0.405164,-0.143700,0.594728,0.089046,0.228925,-41.349751,7.150986,21.764097,0.117582,2.215682,0.114303,0.000000,0.000000,0.000000,0.000000,0.000000,0.000000
14564671.000000,-0.345158,0.569726,0.443377,-1.468841,-0.256342,1.981049,0.141243,0.011753,0.275021,-0.078825,-0.404427,-0.146651,0.591875,0.086359,0.105939,-41.401325,7.028000,21.934690,0.166105,2.209274,0.094161,0.000000,0.000000,0.000000,0.000000,0.000000,0.000000
14564672.000000,-0.345143,0.569988,0.443300,-1.469247,-0.256491,1.981643,0.141328,0.013283,0.267036,-0.078047,-0.400347,-0.148344,0.588471,0.087296,0.030561,-41.302143,7.004196,22.085447,0.183500,2.267867,0.120712,0.000000,0.000000,0.000000,0.000000,0.000000,0.000000
14564673.000000,-0.345132,0.570260,0.443233,-1.469643,-0.256637,1.982225,0.141415,0.013190,0.272107,-0.071172,-0.393399,-0.149237,0.586376,0.083403,0.006757,-41.278339,6.853439,22.109251,0.195402,2.313644,0.147262,0.000000,0.000000,0.000000,0.000000,0.000000,0.000000
14564674.000000,-0.345117,0.570525,0.443168,-1.470047,-0.256785,1.982826,0.141510,0.014508,0.270592,-0.068821,-0.397530,-0.146110,0.589374,0.088525,-0.068621,-41.155354,6.682846,22.208433,0.225614,2.320052,0.081344,0.000000,0.000000,0.000000,0.000000,0.000000,0.000000
14564675.000000,-0.345102,0.570790,0.443104,-1.470451,-0.256928,1.983421,0.141591,0.015431,0.268046,-0.068393,-0.396377,-0.142065,0.585263,0.087458,-0.144000,-41.079975,6.559860,22.283812,0.219205,2.280685,0.133529,0.000000,0.000000,0.000000,0.000000,0.000000,0.000000
14564676.000000,-0.345085,0.571046,0.443043,-1.470854,-0.257069,1.984032,0.141682,0.016025,0.265764,-0.064215,-0.396349,-0.138670,0.588222,0.085055,-0.215411,-40.861774,6.413071,22.355223,0.195402,2.202865,0.120712,0.000000,0.000000,0.000000,0.000000,0.000000,0.000000
14564677.000000,-0.345071,0.571309,0.442981,-1.471253,-0.257208,1.984628,0.141773,0.015363,0.264063,-0.067431,-0.393817,-0.141371,0.586838,0.087566,-0.243182,-40.762592,6.290085,22.331419,0.183500,2.215682,0.114303,0.000000,0.000000,0.000000,0.000000,0.000000,0.000000
14564678.000000,-0.345055,0.571576,0.442922,-1.471656,-0.257356,1.985218,0.141864,0.015438,0.264930,-0.067344,-0.393559,-0.144223,0.589568,0.089310,-0.290789,-40.738789,6.167099,22.256041,0.201810,2.261459,0.114303,0.000000,0.000000,0.000000,0.000000,0.000000,0.000000
14564679.000000,-0.345041,0.571834,0.442863,-1.472049,-0.257503,1.985812,0.141960,0.015611,0.261896,-0.064354,-0.388363,-0.145481,0.586126,0.090988,-0.342364,-40.615803,6.067917,22.208433,0.189908,2.300826,0.100570,0.000000,0.000000,0.000000,0.000000,0.000000,0.000000
14564680.000000,-0.345027,0.572098,0.442806,-1.472435,-0.257657,1.986403,0.142048,0.015592,0.265582,-0.063024,-0.387951,-0.146956,0.586876,0.085833,-0.389971,-40.445210,5.996506,22.033873,0.189908,2.280685,0.133529,0.000000,0.000000,0.000000,0.000000,0.000000,0.000000
14564681.000000,-0.345016,0.572366,0.442757,-1.472823,-0.257810,1.987003,0.142140,0.014534,0.264637,-0.060080,-0.383241,-0.147893,0.593680,0.089221,-0.389971,-40.369831,5.849716,21.934690,0.183500,2.215682,0.100570,0.000000,0.000000,0.000000,0.000000,0.000000,0.000000
14564682.000000,-0.345001,0.572620,0.442696,-1.473209,-0.257958,1.987611,0.142226,0.014460,0.261736,-0.058840,-0.383782,-0.144329,0.597643,0.088865,-0.413775,-40.199238,5.873520,21.863279,0.189908,2.177230,0.140853,0.000000,0.000000,0.000000,0.000000,0.000000,0.000000
14564683.000000,-0.344990,0.572885,0.442642,-1.473586,-0.258108,1.988203,0.142322,0.013276,0.263177,-0.058448,-0.380447,-0.146114,0.598298,0.095597,-0.389971,-40.076252,5.798141,21.664915,0.201810,2.196456,0.094161,0.000000,0.000000,0.000000,0.000000,0.000000,0.000000
14564684.000000,-0.344979,0.573143,0.442587,-1.473953,-0.258252,1.988807,0.142406,0.015622,0.259415,-0.057648,-0.386869,-0.148094,0.595133,0.092964,-0.366168,-39.957233,5.702927,21.490355,0.219205,2.163497,0.153671,0.000000,0.000000,0.000000,0.000000,0.000000,0.000000
14564685.000000,-0.344965,0.573402,0.442525,-1.474320,-0.258397,1.989399,0.142493,0.015959,0.259488,-0.060082,-0.376572,-0.148542,0.591930,0.093285,-0.413775,-39.834248,5.750534,21.244383,0.207303,2.177230,0.160079,0.000000,0.000000,0.000000,0.000000,0.000000,0.000000
14564686.000000,-0.344960,0.573669,0.442475,-1.474684,-0.258534,1.990004,0.142585,0.012777,0.262381,-0.055006,-0.371801,-0.142988,0.598230,0.093246,-0.314593,-39.735065,5.627548,20.998411,0.166105,2.222091,0.140853,0.000000,0.000000,0.000000,0.000000,0.000000,0.000000
14564687.000000,-0.344950,0.573932,0.442419,-1.475039,-0.258669,1.990623,0.142678,0.009713,0.256558,-0.053144,-0.365511,-0.147558,0.601529,0.090431,-0.314593,-39.687458,5.579941,20.748472,0.100187,2.163497,0.094161,0.000000,0.000000,0.000000,0.000000,0.000000,0.000000
14564688.000000,-0.344936,0.574198,0.442357,-1.475396,-0.258814,1.991239,0.142768,0.011155,0.259530,-0.060182,-0.362987,-0.143110,0.611151,0.090761,-0.342364,-39.687458,5.627548,20.601683,0.081876,2.047225,0.094161,0.000000,0.000000,0.000000,0.000000,0.000000,0.000000
14564689.000000,-0.344932,0.574453,0.442294,-1.475746,-0.258957,1.991857,0.142850,0.008508,0.256842,-0.058954,-0.360590,-0.145112,0.611372,0.088983,-0.215411,-39.489094,5.679123,20.427122,0.093778,1.981307,0.166488,0.000000,0.000000,0.000000,0.000000,0.000000,0.000000
14564690.000000,-0.344925,0.574709,0.442234,-1.476103,-0.259102,1.992474,0.142949,0.008137,0.251574,-0.060506,-0.355450,-0.143598,0.618288,0.092786,-0.144000,-39.417683,5.702927,20.379515,0.135892,1.995040,0.100570,0.000000,0.000000,0.000000,0.000000,0.000000,0.000000
14564691.000000,-0.344925,0.574964,0.442169,-1.476457,-0.259246,1.993080,0.143035,0.009155,0.255521,-0.062443,-0.351806,-0.142173,0.618112,0.091382,0.006757,-39.294697,5.774338,20.256529,0.178007,2.020675,0.147262,0.000000,0.000000,0.000000,0.000000,0.000000,0.000000
14564692.000000,-0.344918,0.575222,0.442099,-1.476792,-0.259383,1.993693,0.143133,0.008823,0.252500,-0.064157,-0.345116,-0.144765,0.614660,0.093489,0.078168,-39.171711,5.849716,20.058165,0.189908,1.988631,0.107894,0.000000,0.000000,0.000000,0.000000,0.000000,0.000000
14564693.000000,-0.344912,0.575486,0.442035,-1.477132,-0.259518,1.994298,0.143225,0.008477,0.252296,-0.060782,-0.341635,-0.139358,0.612753,0.092458,0.153547,-39.124104,5.873520,19.935179,0.135892,1.962081,0.140853,0.000000,0.000000,0.000000,0.000000,0.000000,0.000000
14564694.000000,-0.344908,0.575749,0.441968,-1.477467,-0.259652,1.994908,0.143322,0.005056,0.255590,-0.062113,-0.339362,-0.140445,0.616267,0.094519,0.228925,-39.100300,5.921127,19.812193,0.081876,1.936446,0.100570,0.000000,0.000000,0.000000,0.000000,0.000000,0.000000
14564695.000000,-0.344903,0.576010,0.441901,-1.477787,-0.259784,1.995517,0.143414,0.002483,0.254127,-0.063309,-0.332660,-0.140918,0.607992,0.093548,0.304304,-39.048725,5.972702,19.613829,0.015958,1.955673,0.120712,0.000000,0.000000,0.000000,0.000000,0.000000,0.000000
14564696.000000,-0.344897,0.576278,0.441828,-1.478109,-0.259929,1.996109,0.143504,0.003742,0.256343,-0.065208,-0.329253,-0.143433,0.606684,0.092799,0.375715,-39.001118,6.067917,19.363890,0.015958,1.968490,0.147262,0.000000,0.000000,0.000000,0.000000,0.000000,0.000000
14564697.000000,-0.344893,0.576534,0.441756,-1.478425,-0.260077,1.996712,0.143601,0.004064,0.260268,-0.068207,-0.323462,-0.141120,0.600821,0.095188,0.474897,-38.901936,6.119492,19.217100,0.022367,1.949264,0.094161,0.000000,0.000000,0.000000,0.000000,0.000000,0.000000
14564698.000000,-0.344896,0.576790,0.441681,-1.478741,-0.260230,1.997305,0.143688,0.002548,0.259796,-0.068912,-0.321379,-0.145182,0.603012,0.092459,0.649457,-38.659931,6.218674,19.042540,0.058073,1.916305,0.160079,0.000000,0.000000,0.000000,0.000000,0.000000,0.000000
14564699.000000,-0.344893,0.577054,0.441599,-1.479066,-0.260386,1.997918,0.143788,0.003422,0.258493,-0.073521,-0.323203,-0.149074,0.605645,0.094551,0.748639,-38.513142,6.365463,19.018736,0.123990,1.851302,0.120712,0.000000,0.000000,0.000000,0.000000,0.000000,0.000000
14564700.000000,-0.344889,0.577312,0.441525,-1.479373,-0.260534,1.998529,0.143882,0.001439,0.258307,-0.070897,-0.319138,-0.150265,0.608179,0.099407,0.824018,-38.390156,6.389267,18.895750,0.147794,1.773483,0.107894,0.000000,0.000000,0.000000,0.000000,0.000000,0.000000
14564701.000000,-0.344886,0.577575,0.441450,-1.479685,-0.260680,1.999118,0.143974,0.003115,0.260805,-0.072123,-0.314430,-0.148659,0.600377,0.093611,0.895429,-38.267170,6.413071,18.748960,0.112089,1.812850,0.100570,0.000000,0.000000,0.000000,0.000000,0.000000,0.000000
14564702.000000,-0.344879,0.577843,0.441372,-1.479990,-0.260822,1.999706,0.144058,0.004867,0.261957,-0.075535,-0.317497,-0.143260,0.596531,0.086351,0.947004,-38.215595,6.413071,18.649778,0.076383,1.890670,0.166488,0.000000,0.000000,0.000000,0.000000,0.000000,0.000000
14564703.000000,-0.344872,0.578105,0.441292,-1.480287,-0.260965,2.000310,0.144157,0.006085,0.266605,-0.078980,-0.309750,-0.138815,0.607290,0.091038,0.994611,-38.191792,6.460678,18.451414,0.027860,1.930038,0.100570,0.000000,0.000000,0.000000,0.000000,0.000000,0.000000
14564704.000000,-0.344861,0.578372,0.441208,-1.480594,-0.261111,2.000903,0.144252,0.008609,0.268342,-0.077080,-0.303957,-0.140397,0.608078,0.092018,0.970807,-38.144184,6.559860,18.399839,-0.019747,1.903487,0.094161,0.000000,0.000000,0.000000,0.000000,0.000000,0.000000
14564705.000000,-0.344855,0.578634,0.441130,-1.480888,-0.261260,2.001509,0.144343,0.009247,0.262580,-0.076913,-0.299707,-0.143280,0.607776,0.090502,0.994611,-38.045002,6.583664,18.328428,-0.025240,1.865035,0.133529,0.000000,0.000000,0.000000,0.000000,0.000000,0.000000
14564706.000000,-0.344853,0.578894,0.441053,-1.481196,-0.261414,2.002105,0.144444,0.007943,0.262143,-0.076928,-0.300955,-0.141134,0.608807,0.096566,1.093793,-37.973591,6.611435,18.352232,-0.007845,1.819259,0.107894,0.000000,0.000000,0.000000,0.000000,0.000000,0.000000
14564707.000000,-0.344842,0.579153,0.440969,-1.481493,-0.261572,2.002710,0.144538,0.009415,0.260064,-0.077072,-0.297513,-0.146425,0.610584,0.095005,1.093793,-37.826801,6.659042,18.304625,0.064481,1.858627,0.133529,0.000000,0.000000,0.000000,0.000000,0.000000,0.000000
14564708.000000,-0.344833,0.579422,0.440886,-1.481786,-0.261728,2.003319,0.144638,0.009703,0.257960,-0.077614,-0.294174,-0.150915,0.605345,0.096054,1.121564,-37.802998,6.706650,18.229246,0.159696,1.825668,0.100570,0.000000,0.000000,0.000000,0.000000,0.000000,0.000000
14564709.000000,-0.344820,0.579680,0.440802,-1.482075,-0.261873,2.003923,0.144725,0.011840,0.258009,-0.077210,-0.292555,-0.149178,0.606604,0.093318,1.069990,-37.703815,6.734421,18.078489,0.129484,1.773483,0.153671,0.000000,0.000000,0.000000,0.000000,0.000000,0.000000
14564710.000000,-0.344809,0.579946,0.440725,-1.482367,-0.262013,2.004532,0.144829,0.010024,0.258503,-0.074747,-0.294869,-0.148007,0.607068,0.095582,1.022382,-37.656208,6.659042,18.054686,0.088285,1.714889,0.100570,0.000000,0.000000,0.000000,0.000000,0.000000,0.000000
14564711.000000,-0.344793,0.580220,0.440647,-1.482660,-0.262156,2.005132,0.144921,0.012317,0.262469,-0.076975,-0.298738,-0.141193,0.604752,0.089002,0.947004,-37.604633,6.611435,17.983274,0.015958,1.741439,0.140853,0.000000,0.000000,0.000000,0.000000,0.000000,0.000000
14564712.000000,-0.344772,0.580509,0.440567,-1.482949,-0.262304,2.005728,0.145015,0.015734,0.272291,-0.079071,-0.293971,-0.142657,0.598597,0.090727,0.796247,-37.850605,6.583664,17.733335,-0.019747,1.779891,0.133529,0.000000,0.000000,0.000000,0.000000,0.000000,0.000000
14564713.000000,-0.344751,0.580784,0.440485,-1.483235,-0.262456,2.006336,0.145117,0.017410,0.267878,-0.080143,-0.289584,-0.144746,0.600157,0.092908,0.673261,-37.874409,6.536057,17.562742,-0.031649,1.767074,0.094161,0.000000,0.000000,0.000000,0.000000,0.000000,0.000000
14564714.000000,-0.344739,0.581058,0.440409,-1.483531,-0.262614,2.006927,0.145209,0.016238,0.268324,-0.077359,-0.291646,-0.146727,0.597355,0.092748,0.649457,-37.802998,6.460678,17.511168,-0.019747,1.741439,0.107894,0.000000,0.000000,0.000000,0.000000,0.000000,0.000000
14564715.000000,-0.344722,0.581331,0.440328,-1.483816,-0.262767,2.007541,0.145301,0.016714,0.271468,-0.076840,-0.291962,-0.145060,0.595280,0.092186,0.574079,-37.826801,6.460678,17.388182,0.027860,1.670028,0.133529,0.000000,0.000000,0.000000,0.000000,0.000000,0.000000
14564716.000000,-0.344705,0.581604,0.440250,-1.484109,-0.262923,2.008134,0.145399,0.016899,0.271180,-0.076730,-0.290310,-0.148970,0.588816,0.093510,0.502668,-37.727619,6.460678,17.312803,0.093778,1.649886,0.114303,0.000000,0.000000,0.000000,0.000000,0.000000,0.000000
14564717.000000,-0.344685,0.581891,0.440176,-1.484410,-0.263077,2.008739,0.145497,0.017716,0.273295,-0.074802,-0.289524,-0.150091,0.592724,0.098928,0.403486,-37.751423,6.389267,17.265196,0.117582,1.637069,0.100570,0.000000,0.000000,0.000000,0.000000,0.000000,0.000000
14564718.000000,-0.344663,0.582176,0.440102,-1.484690,-0.263223,2.009338,0.145588,0.019009,0.274746,-0.074117,-0.289174,-0.150007,0.585364,0.095169,0.276533,-37.898212,6.341660,17.090635,0.112089,1.649886,0.166488,0.000000,0.000000,0.000000,0.000000,0.000000,0.000000
14564719.000000,-0.344644,0.582463,0.440030,-1.484979,-0.263368,2.009938,0.145696,0.019148,0.277216,-0.072380,-0.287567,-0.147583,0.588949,0.101126,0.177350,-37.997395,6.242477,17.019224,0.052579,1.676437,0.100570,0.000000,0.000000,0.000000,0.000000,0.000000,0.000000
14564720.000000,-0.344618,0.582748,0.439959,-1.485267,-0.263506,2.010542,0.145789,0.020364,0.277724,-0.071023,-0.292350,-0.148632,0.587132,0.099018,0.030561,-38.021198,6.143295,16.991453,-0.049044,1.670028,0.107894,0.000000,0.000000,0.000000,0.000000,0.000000,0.000000
14564721.000000,-0.344599,0.583029,0.439890,-1.485554,-0.263656,2.011146,0.145886,0.021406,0.279890,-0.070322,-0.287426,-0.149306,0.592989,0.097418,0.006757,-38.096577,6.067917,16.920042,-0.060946,1.643478,0.120712,0.000000,0.000000,0.000000,0.000000,0.000000,0.000000
14564722.000000,-0.344577,0.583318,0.439815,-1.485842,-0.263809,2.011745,0.145983,0.023757,0.283235,-0.071478,-0.290124,-0.149956,0.586703,0.095809,-0.068621,-38.167988,6.044113,16.868467,-0.060946,1.649886,0.114303,0.000000,0.000000,0.000000,0.000000,0.000000,0.000000
14564723.000000,-0.344565,0.583605,0.439742,-1.486135,-0.263959,2.012356,0.146078,0.019271,0.279657,-0.071727,-0.290317,-0.147753,0.586085,0.094816,-0.017047,-38.243366,5.996506,16.868467,-0.007845,1.637069,0.127120,0.000000,0.000000,0.000000,0.000000,0.000000,0.000000
14564724.000000,-0.344546,0.583895,0.439670,-1.486430,-0.264109,2.012949,0.146179,0.016814,0.281368,-0.072972,-0.288295,-0.149382,0.586745,0.100373,0.006757,-38.362385,5.996506,16.920042,0.022367,1.630660,0.087753,0.000000,0.000000,0.000000,0.000000,0.000000,0.000000
14564725.000000,-0.344525,0.584186,0.439598,-1.486717,-0.264261,2.013547,0.146265,0.016885,0.286650,-0.073177,-0.291917,-0.150804,0.583123,0.096862,-0.044818,-38.413960,5.972702,16.920042,0.052579,1.591293,0.140853,0.000000,0.000000,0.000000,0.000000,0.000000,0.000000
14564726.000000,-0.344508,0.584480,0.439532,-1.487011,-0.264408,2.014142,0.146362,0.015019,0.283390,-0.071811,-0.288267,-0.146696,0.583547,0.092196,-0.017047,-38.536945,5.897324,16.920042,0.069974,1.591293,0.120712,0.000000,0.000000,0.000000,0.000000,0.000000,0.000000
14564727.000000,-0.344486,0.584773,0.439461,-1.487307,-0.264547,2.014730,0.146450,0.015548,0.287878,-0.069052,-0.288646,-0.145708,0.582763,0.091332,-0.068621,-38.584553,5.873520,16.943846,0.022367,1.617843,0.160079,0.000000,0.000000,0.000000,0.000000,0.000000,0.000000
14564728.000000,-0.344468,0.585074,0.439388,-1.487603,-0.264689,2.015321,0.146546,0.017266,0.293597,-0.070855,-0.291526,-0.145379,0.582610,0.093270,-0.044818,-38.683735,5.873520,16.920042,-0.025240,1.605026,0.127120,0.000000,0.000000,0.000000,0.000000,0.000000,0.000000
14564729.000000,-0.344449,0.585367,0.439320,-1.487912,-0.264838,2.015905,0.146637,0.015999,0.287937,-0.070390,-0.296883,-0.146159,0.586982,0.092501,-0.044818,-38.632160,5.798141,17.019224,-0.043551,1.630660,0.153671,0.000000,0.000000,0.000000,0.000000,0.000000,0.000000
14564730.000000,-0.344430,0.585661,0.439252,-1.488205,-0.264994,2.016492,0.146736,0.018498,0.289523,-0.070685,-0.293962,-0.147660,0.586072,0.095233,-0.044818,-38.584553,5.750534,16.967649,-0.043551,1.643478,0.094161,0.000000,0.000000,0.000000,0.000000,0.000000,0.000000
14564731.000000,-0.344416,0.585953,0.439176,-1.488506,-0.265146,2.017079,0.146824,0.017798,0.290565,-0.070838,-0.297344,-0.149200,0.584476,0.092488,0.054365,-38.513142,5.825912,17.019224,-0.031649,1.695663,0.153671,0.000000,0.000000,0.000000,0.000000,0.000000,0.000000
14564732.000000,-0.344403,0.586239,0.439107,-1.488799,-0.265300,2.017663,0.146924,0.014375,0.289976,-0.070838,-0.293515,-0.146363,0.584535,0.094751,0.153547,-38.390156,5.774338,16.967649,0.010465,1.695663,0.107894,0.000000,0.000000,0.000000,0.000000,0.000000,0.000000
14564733.000000,-0.344385,0.586531,0.439030,-1.489101,-0.265453,2.018253,0.147015,0.016813,0.292648,-0.073173,-0.302995,-0.148658,0.585009,0.089140,0.177350,-38.362385,5.825912,17.090635,0.040677,1.649886,0.127120,0.000000,0.000000,0.000000,0.000000,0.000000,0.000000
14564734.000000,-0.344371,0.586827,0.438953,-1.489404,-0.265600,2.018830,0.147107,0.014249,0.290923,-0.071760,-0.303703,-0.147860,0.595114,0.090697,0.252729,-38.290974,5.873520,17.142210,0.004056,1.662704,0.120712,0.000000,0.000000,0.000000,0.000000,0.000000,0.000000
14564735.000000,-0.344354,0.587128,0.438878,-1.489711,-0.265755,2.019417,0.147198,0.017271,0.296236,-0.072566,-0.302629,-0.149151,0.599431,0.086905,0.252729,-38.413960,5.873520,17.265196,0.015958,1.617843,0.120712,0.000000,0.000000,0.000000,0.000000,0.000000,0.000000
14564736.000000,-0.344344,0.587420,0.438805,-1.490015,-0.265903,2.020002,0.147286,0.013978,0.292113,-0.069585,-0.305623,-0.148085,0.595591,0.087329,0.351911,-38.437763,5.849716,17.411985,-0.025240,1.611434,0.153671,0.000000,0.000000,0.000000,0.000000,0.000000,0.000000
14564737.000000,-0.344335,0.587712,0.438730,-1.490320,-0.266060,2.020569,0.147386,0.008498,0.289938,-0.072199,-0.302192,-0.148858,0.589783,0.092091,0.451093,-38.390156,5.897324,17.487364,-0.019747,1.689254,0.074935,0.000000,0.000000,0.000000,0.000000,0.000000,0.000000
14564738.000000,-0.344324,0.588012,0.438650,-1.490621,-0.266225,2.021145,0.147471,0.010886,0.291598,-0.074540,-0.306124,-0.154566,0.585194,0.088941,0.550275,-38.461567,5.972702,17.610350,0.010465,1.767074,0.153671,0.000000,0.000000,0.000000,0.000000,0.000000,0.000000
14564739.000000,-0.344313,0.588305,0.438569,-1.490930,-0.266384,2.021726,0.147572,0.013625,0.293622,-0.076313,-0.306186,-0.158528,0.581184,0.096943,0.601850,-38.413960,6.067917,17.685728,0.015958,1.773483,0.107894,0.000000,0.000000,0.000000,0.000000,0.000000,0.000000
14564740.000000,-0.344304,0.588598,0.438490,-1.491254,-0.266543,2.022309,0.147662,0.011499,0.291870,-0.077059,-0.310678,-0.161348,0.583753,0.095547,0.697065,-38.390156,6.119492,17.955503,0.015958,1.747848,0.127120,0.000000,0.000000,0.000000,0.000000,0.000000,0.000000
14564741.000000,-0.344285,0.588886,0.438406,-1.491558,-0.266706,2.022893,0.147755,0.012739,0.286493,-0.081142,-0.309392,-0.160791,0.579815,0.090709,0.673261,-38.338581,6.190903,18.030882,0.064481,1.708480,0.114303,0.000000,0.000000,0.000000,0.000000,0.000000,0.000000
14564742.000000,-0.344277,0.589184,0.438320,-1.491878,-0.266863,2.023470,0.147849,0.010608,0.290163,-0.084855,-0.311244,-0.157508,0.579891,0.095521,0.772443,-38.338581,6.290085,18.229246,0.052579,1.741439,0.120712,0.000000,0.000000,0.000000,0.000000,0.000000,0.000000
14564743.000000,-0.344269,0.589481,0.438237,-1.492191,-0.267027,2.024041,0.147947,0.012264,0.292625,-0.083446,-0.311114,-0.156774,0.573250,0.095004,0.871625,-38.338581,6.365463,18.352232,0.076383,1.825668,0.127120,0.000000,0.000000,0.000000,0.000000,0.000000,0.000000
14564744.000000,-0.344255,0.589778,0.438154,-1.492496,-0.267186,2.024624,0.148046,0.015344,0.291383,-0.084280,-0.308571,-0.154938,0.569682,0.095745,0.895429,-38.338581,6.389267,18.376036,0.069974,1.884261,0.100570,0.000000,0.000000,0.000000,0.000000,0.000000,0.000000
14564745.000000,-0.344246,0.590084,0.438063,-1.492817,-0.267346,2.025196,0.148142,0.016356,0.293246,-0.086905,-0.309331,-0.156660,0.565561,0.090426,0.970807,-38.338581,6.488449,18.526793,0.027860,1.865035,0.100570,0.000000,0.000000,0.000000,0.000000,0.000000,0.000000
14564746.000000,-0.344231,0.590378,0.437977,-1.493125,-0.267515,2.025784,0.148235,0.015827,0.297895,-0.084187,-0.309397,-0.160852,0.571940,0.090328,0.970807,-38.314777,6.512253,18.625975,0.046171,1.800033,0.127120,0.000000,0.000000,0.000000,0.000000,0.000000,0.000000
14564747.000000,-0.344219,0.590676,0.437885,-1.493439,-0.267681,2.026355,0.148336,0.011562,0.297771,-0.084327,-0.312760,-0.159055,0.570903,0.091899,0.994611,-38.267170,6.635239,18.748960,0.064481,1.793624,0.114303,0.000000,0.000000,0.000000,0.000000,0.000000,0.000000
14564748.000000,-0.344205,0.590977,0.437797,-1.493750,-0.267848,2.026931,0.148434,0.010812,0.294915,-0.086403,-0.311956,-0.163811,0.572882,0.093105,1.046186,-38.243366,6.706650,18.848143,0.117582,1.832076,0.100570,0.000000,0.000000,0.000000,0.000000,0.000000,0.000000
14564749.000000,-0.344194,0.591273,0.437707,-1.494052,-0.268011,2.027502,0.148525,0.009746,0.293869,-0.087954,-0.310824,-0.162073,0.568859,0.095901,1.121564,-38.267170,6.782028,18.919554,0.159696,1.909896,0.153671,0.000000,0.000000,0.000000,0.000000,0.000000,0.000000
14564750.000000,-0.344174,0.591578,0.437615,-1.494369,-0.268173,2.028068,0.148627,0.015096,0.297950,-0.088683,-0.313051,-0.159044,0.572855,0.097684,1.069990,-38.267170,6.829636,19.018736,0.166105,1.923629,0.100570,0.000000,0.000000,0.000000,0.000000,0.000000,0.000000
14564751.000000,-0.344157,0.591875,0.437525,-1.494678,-0.268329,2.028644,0.148721,0.015690,0.294685,-0.088994,-0.316667,-0.160409,0.574151,0.095061,1.022382,-38.215595,6.881210,19.117918,0.135892,1.949264,0.147262,0.000000,0.000000,0.000000,0.000000,0.000000,0.000000
14564752.000000,-0.344142,0.592176,0.437438,-1.494989,-0.268483,2.029214,0.148820,0.014817,0.301702,-0.090935,-0.315515,-0.164970,0.578030,0.100479,1.022382,-38.290974,6.853439,19.240904,0.064481,1.949264,0.127120,0.000000,0.000000,0.000000,0.000000,0.000000,0.000000
14564753.000000,-0.344126,0.592476,0.437347,-1.495310,-0.268647,2.029790,0.148918,0.014230,0.302518,-0.090630,-0.314836,-0.164804,0.573995,0.099708,1.022382,-38.243366,6.881210,19.391661,0.022367,1.981307,0.107894,0.000000,0.000000,0.000000,0.000000,0.000000,0.000000
14564754.000000,-0.344104,0.592772,0.437261,-1.495619,-0.268813,2.030367,0.149013,0.018259,0.296514,-0.091866,-0.312125,-0.162735,0.575339,0.102706,0.970807,-38.267170,6.829636,19.439268,0.052579,2.007858,0.114303,0.000000,0.000000,0.000000,0.000000,0.000000,0.000000
14564755.000000,-0.344082,0.593074,0.437170,-1.495930,-0.268978,2.030941,0.149108,0.017855,0.298643,-0.094216,-0.310535,-0.161658,0.572902,0.100143,0.923200,-38.215595,6.853439,19.391661,0.105680,2.033492,0.127120,0.000000,0.000000,0.000000,0.000000,0.000000,0.000000
14564756.000000,-0.344063,0.593385,0.437075,-1.496251,-0.269136,2.031515,0.149207,0.020176,0.301049,-0.091015,-0.314386,-0.159051,0.570878,0.097799,0.895429,-38.191792,6.928818,19.514647,0.129484,2.027084,0.153671,0.000000,0.000000,0.000000,0.000000,0.000000,0.000000
14564757.000000,-0.344043,0.593685,0.436992,-1.496565,-0.269302,2.032105,0.149314,0.021748,0.300178,-0.089056,-0.311302,-0.158983,0.577896,0.098940,0.871625,-38.167988,6.905014,19.538450,0.183500,1.942855,0.100570,0.000000,0.000000,0.000000,0.000000,0.000000,0.000000
14564758.000000,-0.344023,0.593990,0.436904,-1.496877,-0.269463,2.032674,0.149408,0.019905,0.303946,-0.088752,-0.309654,-0.160777,0.572702,0.096218,0.847822,-38.096577,6.905014,19.463072,0.171598,1.871444,0.140853,0.000000,0.000000,0.000000,0.000000,0.000000,0.000000
14564759.000000,-0.344004,0.594288,0.436816,-1.497186,-0.269618,2.033246,0.149510,0.021090,0.301641,-0.087801,-0.309516,-0.157715,0.574167,0.096606,0.847822,-37.997395,6.881210,19.415464,0.154203,1.884261,0.114303,0.000000,0.000000,0.000000,0.000000,0.000000,0.000000
14564760.000000,-0.343975,0.594598,0.436738,-1.497489,-0.269778,2.033799,0.149606,0.024256,0.303463,-0.085003,-0.306709,-0.159602,0.565533,0.094190,0.748639,-37.949787,6.758224,19.240904,0.123990,1.936446,0.153671,0.000000,0.000000,0.000000,0.000000,0.000000,0.000000
14564761.000000,-0.343953,0.594908,0.436649,-1.497796,-0.269943,2.034366,0.149711,0.021100,0.303018,-0.085840,-0.304383,-0.155945,0.563813,0.096901,0.748639,-37.850605,6.758224,19.169493,0.081876,1.988631,0.087753,0.000000,0.000000,0.000000,0.000000,0.000000,0.000000
14564762.000000,-0.343927,0.595212,0.436569,-1.498100,-0.270106,2.034940,0.149799,0.020064,0.297168,-0.084297,-0.300643,-0.159929,0.565418,0.093301,0.697065,-37.874409,6.659042,19.141722,0.088285,1.968490,0.160079,0.000000,0.000000,0.000000,0.000000,0.000000,0.000000
14564763.000000,-0.343909,0.595514,0.436490,-1.498399,-0.270263,2.035505,0.149903,0.020452,0.299072,-0.080521,-0.298474,-0.161541,0.567287,0.096200,0.724836,-37.802998,6.583664,19.042540,0.069974,1.930038,0.094161,0.000000,0.000000,0.000000,0.000000,0.000000,0.000000
14564764.000000,-0.343880,0.595818,0.436404,-1.498705,-0.270421,2.036076,0.149998,0.020145,0.298558,-0.082674,-0.301375,-0.159795,0.566517,0.094738,0.649457,-37.727619,6.583664,19.117918,0.088285,1.923629,0.100570,0.000000,0.000000,0.000000,0.000000,0.000000,0.000000
14564765.000000,-0.343854,0.596120,0.436325,-1.499005,-0.270582,2.036645,0.150092,0.022224,0.303051,-0.081811,-0.299074,-0.164499,0.582912,0.093083,0.601850,-37.751423,6.512253,19.141722,0.147794,1.884261,0.140853,0.000000,0.000000,0.000000,0.000000,0.000000,0.000000
14564766.000000,-0.343829,0.596430,0.436244,-1.499308,-0.270736,2.037217,0.150190,0.023673,0.307367,-0.083035,-0.298521,-0.160280,0.578477,0.089994,0.574079,-37.727619,6.488449,19.094114,0.129484,1.903487,0.107894,0.000000,0.000000,0.000000,0.000000,0.000000,0.000000
14564767.000000,-0.343803,0.596735,0.436167,-1.499604,-0.270892,2.037792,0.150281,0.021241,0.297777,-0.078854,-0.296514,-0.162018,0.575251,0.094144,0.550275,-37.775227,6.389267,19.094114,0.112089,1.903487,0.147262,0.000000,0.000000,0.000000,0.000000,0.000000,0.000000
14564768.000000,-0.343773,0.597039,0.436093,-1.499899,-0.271051,2.038359,0.150381,0.023789,0.300465,-0.079198,-0.296849,-0.163044,0.572382,0.096022,0.474897,-37.751423,6.290085,19.070311,0.093778,1.923629,0.100570,0.000000,0.000000,0.000000,0.000000,0.000000,0.000000
14564769.000000,-0.343744,0.597351,0.436014,-1.500190,-0.271205,2.038927,0.150478,0.025531,0.303859,-0.079779,-0.301544,-0.163062,0.573673,0.094786,0.403486,-37.775227,6.218674,19.018736,0.046171,1.942855,0.120712,0.000000,0.000000,0.000000,0.000000,0.000000,0.000000
14564770.000000,-0.343719,0.597657,0.435934,-1.500489,-0.271364,2.039490,0.150578,0.027770,0.304429,-0.078501,-0.301975,-0.160582,0.581320,0.094769,0.427289,-37.802998,6.190903,19.018736,0.052579,1.974899,0.120712,0.000000,0.000000,0.000000,0.000000,0.000000,0.000000
14564771.000000,-0.343689,0.597967,0.435859,-1.500782,-0.271516,2.040070,0.150679,0.027995,0.305685,-0.079460,-0.298863,-0.158163,0.585037,0.094973,0.375715,-37.802998,6.119492,18.895750,0.046171,1.909896,0.114303,0.000000,0.000000,0.000000,0.000000,0.000000,0.000000
14564772.000000,-0.343658,0.598277,0.435778,-1.501077,-0.271670,2.040655,0.150775,0.031317,0.300350,-0.081464,-0.296323,-0.156204,0.587169,0.097617,0.328107,-37.775227,6.095688,18.871946,0.034269,1.844894,0.160079,0.000000,0.000000,0.000000,0.000000,0.000000,0.000000
14564773.000000,-0.343630,0.598587,0.435707,-1.501364,-0.271831,2.041225,0.150874,0.029504,0.301817,-0.077636,-0.286507,-0.156664,0.578702,0.097448,0.328107,-37.727619,5.996506,18.796568,0.088285,1.812850,0.147262,0.000000,0.000000,0.000000,0.000000,0.000000,0.000000
14564774.000000,-0.343600,0.598902,0.435624,-1.501646,-0.271984,2.041803,0.150975,0.029585,0.303476,-0.077876,-0.282879,-0.159717,0.574079,0.097988,0.276533,-37.703815,6.020309,18.721189,0.081876,1.844894,0.100570,0.000000,0.000000,0.000000,0.000000,0.000000,0.000000
14564775.000000,-0.343570,0.599209,0.435548,-1.501927,-0.272144,2.042378,0.151075,0.028793,0.299162,-0.078391,-0.279462,-0.162485,0.566268,0.097227,0.252729,-37.680012,5.948898,18.625975,0.088285,1.865035,0.094161,0.000000,0.000000,0.000000,0.000000,0.000000,0.000000
14564776.000000,-0.343540,0.599526,0.435474,-1.502200,-0.272312,2.042953,0.151166,0.031374,0.305539,-0.073668,-0.274649,-0.163920,0.570658,0.099006,0.228925,-37.703815,5.897324,18.451414,0.081876,1.877853,0.153671,0.000000,0.000000,0.000000,0.000000,0.000000,0.000000
14564777.000000,-0.343506,0.599844,0.435393,-1.502479,-0.272469,2.043536,0.151267,0.028281,0.310560,-0.074642,-0.275279,-0.158280,0.565235,0.099119,0.153547,-37.703815,5.921127,18.427610,0.015958,1.838485,0.107894,0.000000,0.000000,0.000000,0.000000,0.000000,0.000000
14564778.000000,-0.343477,0.600165,0.435323,-1.502761,-0.272633,2.044115,0.151363,0.027251,0.314333,-0.073391,-0.277507,-0.156656,0.571967,0.096669,0.153547,-37.850605,5.849716,18.475218,0.015958,1.786300,0.140853,0.000000,0.000000,0.000000,0.000000,0.000000,0.000000
14564779.000000,-0.343446,0.600484,0.435242,-1.503034,-0.272796,2.044699,0.151462,0.029703,0.316402,-0.077176,-0.273873,-0.160212,0.571844,0.097941,0.153547,-37.874409,5.849716,18.451414,0.015958,1.754256,0.094161,0.000000,0.000000,0.000000,0.000000,0.000000,0.000000
14564780.000000,-0.343415,0.600803,0.435161,-1.503299,-0.272963,2.045287,0.151559,0.028998,0.311547,-0.078043,-0.272637,-0.164227,0.575883,0.101211,0.129743,-37.973591,5.897324,18.352232,0.052579,1.741439,0.100570,0.000000,0.000000,0.000000,0.000000,0.000000,0.000000
14564781.000000,-0.343382,0.601125,0.435081,-1.503570,-0.273130,2.045855,0.151651,0.029085,0.314741,-0.077354,-0.272658,-0.166464,0.571605,0.097213,0.078168,-38.021198,5.897324,18.328428,0.088285,1.786300,0.140853,0.000000,0.000000,0.000000,0.000000,0.000000,0.000000
14564782.000000,-0.343353,0.601449,0.435004,-1.503830,-0.273295,2.046433,0.151757,0.030612,0.316978,-0.076847,-0.269257,-0.167649,0.573883,0.097537,0.105939,-38.021198,5.897324,18.253050,0.100187,1.779891,0.114303,0.000000,0.000000,0.000000,0.000000,0.000000,0.000000
14564783.000000,-0.343320,0.601767,0.434925,-1.504106,-0.273460,2.047006,0.151855,0.032836,0.319789,-0.078932,-0.271489,-0.166875,0.571771,0.095482,0.078168,-38.068806,5.897324,18.253050,0.064481,1.786300,0.147262,0.000000,0.000000,0.000000,0.000000,0.000000,0.000000
14564784.000000,-0.343292,0.602091,0.434843,-1.504368,-0.273633,2.047582,0.151957,0.033324,0.320283,-0.078576,-0.266738,-0.171978,0.575452,0.101489,0.105939,-38.096577,5.921127,18.130064,0.052579,1.800033,0.107894,0.000000,0.000000,0.000000,0.000000,0.000000,0.000000
14564785.000000,-0.343263,0.602405,0.434760,-1.504623,-0.273798,2.048168,0.152054,0.033847,0.312634,-0.081200,-0.262045,-0.170580,0.578358,0.098537,0.129743,-37.997395,5.948898,18.078489,0.027860,1.793624,0.133529,0.000000,0.000000,0.000000,0.000000,0.000000,0.000000
14564786.000000,-0.343231,0.602723,0.434681,-1.504883,-0.273963,2.048735,0.152153,0.031686,0.312899,-0.079670,-0.263293,-0.175366,0.578481,0.098263,0.129743,-37.922016,5.948898,17.983274,0.040677,1.844894,0.114303,0.000000,0.000000,0.000000,0.000000,0.000000,0.000000
14564787.000000,-0.343199,0.603046,0.434600,-1.505140,-0.274125,2.049316,0.152255,0.033206,0.315865,-0.078837,-0.263914,-0.168810,0.578505,0.097349,0.129743,-37.826801,5.972702,17.907896,0.022367,1.865035,0.114303,0.000000,0.000000,0.000000,0.000000,0.000000,0.000000
14564788.000000,-0.343169,0.603360,0.434517,-1.505393,-0.274292,2.049903,0.152354,0.030585,0.317222,-0.079011,-0.258395,-0.164716,0.577249,0.100435,0.153547,-37.751423,6.020309,17.784910,0.027860,1.819259,0.140853,0.000000,0.000000,0.000000,0.000000,0.000000,0.000000
14564789.000000,-0.343137,0.603689,0.434435,-1.505652,-0.274450,2.050485,0.152456,0.032199,0.319785,-0.080681,-0.258254,-0.160517,0.581383,0.099272,0.153547,-37.802998,6.020309,17.709532,0.004056,1.773483,0.133529,0.000000,0.000000,0.000000,0.000000,0.000000,0.000000
14564790.000000,-0.343105,0.604019,0.434349,-1.505905,-0.274615,2.051067,0.152557,0.030566,0.324471,-0.083511,-0.253424,-0.162877,0.574429,0.099165,0.153547,-37.922016,6.067917,17.685728,-0.001437,1.714889,0.100570,0.000000,0.000000,0.000000,0.000000,0.000000,0.000000
14564791.000000,-0.343076,0.604352,0.434266,-1.506144,-0.274786,2.051643,0.152654,0.027999,0.327303,-0.081144,-0.245364,-0.161169,0.568617,0.101151,0.205121,-38.068806,6.067917,17.487364,0.040677,1.689254,0.120712,0.000000,0.000000,0.000000,0.000000,0.000000,0.000000
14564792.000000,-0.343043,0.604694,0.434181,-1.506390,-0.274953,2.052216,0.152748,0.031720,0.331203,-0.083204,-0.247768,-0.164041,0.562496,0.103258,0.153547,-38.191792,6.095688,17.487364,0.058073,1.695663,0.147262,0.000000,0.000000,0.000000,0.000000,0.000000,0.000000
14564793.000000,-0.343020,0.605024,0.434098,-1.506634,-0.275117,2.052794,0.152858,0.027122,0.328555,-0.083746,-0.245417,-0.160916,0.563998,0.103141,0.276533,-38.314777,6.095688,17.463560,0.064481,1.695663,0.087753,0.000000,0.000000,0.000000,0.000000,0.000000,0.000000
14564794.000000,-0.342984,0.605357,0.434011,-1.506875,-0.275282,2.053355,0.152952,0.031795,0.327103,-0.082211,-0.242581,-0.162481,0.559075,0.103115,0.205121,-38.362385,6.119492,17.411985,0.052579,1.721298,0.153671,0.000000,0.000000,0.000000,0.000000,0.000000,0.000000
14564795.000000,-0.342953,0.605679,0.433921,-1.507115,-0.275445,2.053928,0.153061,0.029597,0.324513,-0.083701,-0.243350,-0.159298,0.560254,0.103603,0.228925,-38.290974,6.143295,17.463560,0.040677,1.708480,0.081344,0.000000,0.000000,0.000000,0.000000,0.000000,0.000000
14564796.000000,-0.342922,0.606013,0.433839,-1.507361,-0.275606,2.054485,0.153162,0.032147,0.327659,-0.084760,-0.244773,-0.160494,0.557308,0.104844,0.205121,-38.314777,6.143295,17.435789,-0.001437,1.708480,0.100570,0.000000,0.000000,0.000000,0.000000,0.000000,0.000000
14564797.000000,-0.342894,0.606348,0.433754,-1.507610,-0.275773,2.055045,0.153259,0.029258,0.327727,-0.086019,-0.242606,-0.162619,0.562330,0.100400,0.252729,-38.267170,6.167099,17.534971,-0.013339,1.767074,0.147262,0.000000,0.000000,0.000000,0.000000,0.000000,0.000000
14564798.000000,-0.342864,0.606680,0.433671,-1.507847,-0.275939,2.055613,0.153367,0.027224,0.324692,-0.085895,-0.236802,-0.164168,0.562180,0.101042,0.304304,-38.314777,6.143295,17.586546,-0.025240,1.806442,0.087753,0.000000,0.000000,0.000000,0.000000,0.000000,0.000000
14564799.000000,-0.342833,0.607024,0.433583,-1.508091,-0.276112,2.056162,0.153464,0.029427,0.328780,-0.086665,-0.240575,-0.166181,0.561199,0.098050,0.328107,-38.413960,6.167099,17.610350,-0.001437,1.865035,0.120712,0.000000,0.000000,0.000000,0.000000,0.000000,0.000000
14564800.000000,-0.342799,0.607364,0.433497,-1.508336,-0.276279,2.056729,0.153569,0.032220,0.330895,-0.086814,-0.242406,-0.162883,0.561048,0.102564,0.304304,-38.437763,6.167099,17.709532,0.010465,1.877853,0.081344,0.000000,0.000000,0.000000,0.000000,0.000000,0.000000
14564801.000000,-0.342769,0.607697,0.433410,-1.508580,-0.276446,2.057289,0.153664,0.033009,0.334737,-0.088775,-0.241296,-0.164486,0.571073,0.098521,0.328107,-38.413960,6.143295,17.709532,0.004056,1.825668,0.133529,0.000000,0.000000,0.000000,0.000000,0.000000,0.000000
14564802.000000,-0.342737,0.608048,0.433320,-1.508818,-0.276611,2.057855,0.153768,0.031266,0.338473,-0.089741,-0.244574,-0.160531,0.570632,0.098832,0.328107,-38.485371,6.190903,17.610350,-0.013339,1.812850,0.100570,0.000000,0.000000,0.000000,0.000000,0.000000,0.000000
14564803.000000,-0.342699,0.608387,0.433229,-1.509065,-0.276777,2.058420,0.153864,0.031003,0.336746,-0.089784,-0.245898,-0.158675,0.562126,0.096976,0.276533,-38.584553,6.218674,17.586546,-0.001437,1.754256,0.114303,0.000000,0.000000,0.000000,0.000000,0.000000,0.000000
14564804.000000,-0.342666,0.608736,0.433142,-1.509304,-0.276943,2.058979,0.153963,0.032575,0.341628,-0.089295,-0.241771,-0.160822,0.563885,0.102027,0.276533,-38.731342,6.218674,17.487364,-0.013339,1.741439,0.087753,0.000000,0.000000,0.000000,0.000000,0.000000,0.000000
14564805.000000,-0.342627,0.609086,0.433051,-1.509539,-0.277110,2.059543,0.154057,0.036154,0.339075,-0.088571,-0.244638,-0.166874,0.559361,0.098408,0.177350,-38.854328,6.218674,17.411985,-0.013339,1.727706,0.133529,0.000000,0.000000,0.000000,0.000000,0.000000,0.000000
14564806.000000,-0.342597,0.609423,0.432962,-1.509782,-0.277288,2.060115,0.154165,0.032014,0.341692,-0.088992,-0.245662,-0.169009,0.565681,0.098668,0.228925,-38.854328,6.242477,17.364378,0.022367,1.721298,0.100570,0.000000,0.000000,0.000000,0.000000,0.000000,0.000000
14564807.000000,-0.342560,0.609770,0.432882,-1.510026,-0.277460,2.060669,0.154264,0.034390,0.341924,-0.086272,-0.243433,-0.168683,0.559670,0.096846,0.177350,-38.878132,6.143295,17.340574,0.015958,1.754256,0.120712,0.000000,0.000000,0.000000,0.000000,0.000000,0.000000
14564808.000000,-0.342526,0.610104,0.432790,-1.510268,-0.277629,2.061240,0.154365,0.031952,0.343557,-0.087907,-0.242662,-0.165286,0.562011,0.100774,0.177350,-38.878132,6.190903,17.340574,0.040677,1.714889,0.120712,0.000000,0.000000,0.000000,0.000000,0.000000,0.000000
14564809.000000,-0.342491,0.610441,0.432703,-1.510518,-0.277800,2.061805,0.154466,0.030109,0.344424,-0.086887,-0.245729,-0.166072,0.559698,0.099968,0.177350,-38.778950,6.190903,17.388182,0.040677,1.689254,0.087753,0.000000,0.000000,0.000000,0.000000,0.000000,0.000000
14564810.000000,-0.342453,0.610781,0.432614,-1.510771,-0.277968,2.062371,0.154557,0.030766,0.338770,-0.090137,-0.247362,-0.166825,0.560245,0.095067,0.105939,-38.778950,6.190903,17.511168,0.034269,1.708480,0.166488,0.000000,0.000000,0.000000,0.000000,0.000000,0.000000
14564811.000000,-0.342419,0.611119,0.432528,-1.511014,-0.278131,2.062944,0.154667,0.032279,0.336773,-0.091058,-0.241964,-0.167247,0.565531,0.098420,0.105939,-38.731342,6.143295,17.511168,0.022367,1.735030,0.074935,0.000000,0.000000,0.000000,0.000000,0.000000,0.000000
14564812.000000,-0.342376,0.611468,0.432435,-1.511261,-0.278297,2.063501,0.154765,0.032145,0.339995,-0.090891,-0.241876,-0.166070,0.564990,0.101103,0.030561,-38.778950,6.167099,17.562742,-0.019747,1.760665,0.100570,0.000000,0.000000,0.000000,0.000000,0.000000,0.000000
14564813.000000,-0.342339,0.611813,0.432348,-1.511498,-0.278468,2.064067,0.154864,0.030702,0.340896,-0.088181,-0.239305,-0.167219,0.559757,0.098076,0.006757,-38.731342,6.095688,17.487364,-0.019747,1.760665,0.120712,0.000000,0.000000,0.000000,0.000000,0.000000,0.000000
14564814.000000,-0.342300,0.612156,0.432260,-1.511747,-0.278643,2.064623,0.154965,0.033455,0.339839,-0.087714,-0.241023,-0.168649,0.557794,0.097469,-0.044818,-38.731342,6.067917,17.562742,-0.001437,1.741439,0.114303,0.000000,0.000000,0.000000,0.000000,0.000000,0.000000
14564815.000000,-0.342265,0.612500,0.432171,-1.511988,-0.278814,2.065190,0.155063,0.031188,0.340137,-0.087274,-0.239607,-0.169717,0.560307,0.096933,-0.044818,-38.707539,6.044113,17.534971,0.015958,1.721298,0.107894,0.000000,0.000000,0.000000,0.000000,0.000000,0.000000
14564816.000000,-0.342229,0.612850,0.432084,-1.512233,-0.278982,2.065745,0.155167,0.028854,0.340557,-0.087105,-0.241957,-0.169763,0.551761,0.097620,-0.017047,-38.778950,6.020309,17.511168,0.015958,1.721298,0.067611,0.000000,0.000000,0.000000,0.000000,0.000000,0.000000
14564817.000000,-0.342187,0.613203,0.431988,-1.512478,-0.279152,2.066299,0.155259,0.033349,0.341695,-0.088373,-0.240280,-0.170209,0.554130,0.094923,-0.116229,-38.925739,6.067917,17.487364,0.034269,1.741439,0.114303,0.000000,0.000000,0.000000,0.000000,0.000000,0.000000
14564818.000000,-0.342151,0.613560,0.431898,-1.512714,-0.279318,2.066858,0.155362,0.037045,0.346201,-0.088158,-0.236268,-0.169475,0.546630,0.095059,-0.092425,-39.072529,6.067917,17.463560,0.015958,1.747848,0.107894,0.000000,0.000000,0.000000,0.000000,0.000000,0.000000
14564819.000000,-0.342113,0.613906,0.431811,-1.512964,-0.279491,2.067414,0.155466,0.037579,0.345467,-0.087385,-0.240004,-0.172920,0.562466,0.094738,-0.116229,-39.147907,6.067917,17.586546,-0.025240,1.760665,0.114303,0.000000,0.000000,0.000000,0.000000,0.000000,0.000000
14564820.000000,-0.342081,0.614249,0.431723,-1.513215,-0.279671,2.067982,0.155572,0.032694,0.346703,-0.086456,-0.241652,-0.172057,0.564746,0.100556,-0.044818,-39.124104,6.020309,17.685728,-0.031649,1.741439,0.081344,0.000000,0.000000,0.000000,0.000000,0.000000,0.000000
14564821.000000,-0.342046,0.614597,0.431630,-1.513465,-0.279853,2.068546,0.155671,0.032766,0.343817,-0.087813,-0.243453,-0.177855,0.564362,0.097086,0.006757,-39.147907,6.067917,17.808714,0.004056,1.754256,0.127120,0.000000,0.000000,0.000000,0.000000,0.000000,0.000000
14564822.000000,-0.342012,0.614937,0.431540,-1.513715,-0.280032,2.069100,0.155777,0.033557,0.342575,-0.087293,-0.246449,-0.175869,0.562436,0.097767,0.030561,-39.100300,6.044113,17.884092,0.015958,1.832076,0.094161,0.000000,0.000000,0.000000,0.000000,0.000000,0.000000
14564823.000000,-0.341977,0.615286,0.431448,-1.513967,-0.280215,2.069661,0.155878,0.033622,0.342001,-0.087732,-0.246502,-0.179929,0.562217,0.095953,0.078168,-39.072529,6.067917,17.983274,0.064481,1.858627,0.120712,0.000000,0.000000,0.000000,0.000000,0.000000,0.000000
14564824.000000,-0.341941,0.615634,0.431354,-1.514229,-0.280391,2.070232,0.155982,0.034077,0.340230,-0.088985,-0.249258,-0.181529,0.564055,0.095364,0.105939,-39.147907,6.119492,18.205442,0.052579,1.838485,0.127120,0.000000,0.000000,0.000000,0.000000,0.000000,0.000000
14564825.000000,-0.341901,0.615985,0.431263,-1.514480,-0.280569,2.070793,0.156089,0.036114,0.343736,-0.088889,-0.247898,-0.178430,0.562258,0.101480,0.054365,-39.147907,6.143295,18.304625,0.052579,1.773483,0.087753,0.000000,0.000000,0.000000,0.000000,0.000000,0.000000
14564826.000000,-0.341867,0.616336,0.431170,-1.514728,-0.280744,2.071356,0.156187,0.035517,0.345461,-0.089097,-0.252642,-0.175730,0.561656,0.101951,0.105939,-39.171711,6.167099,18.352232,0.034269,1.793624,0.147262,0.000000,0.000000,0.000000,0.000000,0.000000,0.000000
14564827.000000,-0.341833,0.616694,0.431080,-1.514978,-0.280927,2.071900,0.156299,0.035514,0.350618,-0.088532,-0.249248,-0.178496,0.551517,0.102098,0.129743,-39.270893,6.167099,18.376036,0.027860,1.838485,0.081344,0.000000,0.000000,0.000000,0.000000,0.000000,0.000000
14564828.000000,-0.341799,0.617056,0.430986,-1.515226,-0.281113,2.072456,0.156400,0.035060,0.353819,-0.091850,-0.247126,-0.177533,0.549146,0.099829,0.177350,-39.366108,6.190903,18.399839,0.058073,1.877853,0.087753,0.000000,0.000000,0.000000,0.000000,0.000000,0.000000
14564829.000000,-0.341767,0.617402,0.430895,-1.515476,-0.281289,2.073005,0.156501,0.034656,0.349258,-0.092775,-0.249622,-0.175606,0.548268,0.096942,0.228925,-39.393879,6.167099,18.475218,0.058073,1.897079,0.120712,0.000000,0.000000,0.000000,0.000000,0.000000,0.000000
14564830.000000,-0.341731,0.617761,0.430804,-1.515728,-0.281466,2.073553,0.156609,0.035733,0.351305,-0.094149,-0.250990,-0.178575,0.545551,0.102036,0.228925,-39.441486,6.143295,18.550596,0.058073,1.838485,0.094161,0.000000,0.000000,0.000000,0.000000,0.000000,0.000000
14564831.000000,-0.341696,0.618119,0.430708,-1.515979,-0.281642,2.074110,0.156717,0.036356,0.351549,-0.096073,-0.250264,-0.176203,0.546461,0.100680,0.228925,-39.512897,6.167099,18.673582,0.052579,1.793624,0.074935,0.000000,0.000000,0.000000,0.000000,0.000000,0.000000
14564832.000000,-0.341666,0.618471,0.430609,-1.516225,-0.281822,2.074648,0.156821,0.034946,0.354135,-0.095891,-0.248104,-0.180090,0.550226,0.098345,0.304304,-39.540668,6.242477,18.721189,0.069974,1.819259,0.087753,0.000000,0.000000,0.000000,0.000000,0.000000,0.000000
14564833.000000,-0.341634,0.618828,0.430515,-1.516477,-0.282000,2.075192,0.156918,0.034745,0.354363,-0.094271,-0.247835,-0.181441,0.542001,0.100411,0.351911,-39.564472,6.266281,18.820372,0.052579,1.890670,0.133529,0.000000,0.000000,0.000000,0.000000,0.000000,0.000000
14564834.000000,-0.341603,0.619176,0.430417,-1.516726,-0.282182,2.075730,0.157023,0.034713,0.352261,-0.094340,-0.247677,-0.179740,0.541390,0.100246,0.403486,-39.564472,6.341660,18.919554,0.081876,1.949264,0.094161,0.000000,0.000000,0.000000,0.000000,0.000000,0.000000
14564835.000000,-0.341562,0.619525,0.430319,-1.516979,-0.282362,2.076274,0.157122,0.036961,0.349089,-0.093476,-0.245008,-0.177369,0.542721,0.098001,0.351911,-39.417683,6.389267,19.070311,0.100187,1.968490,0.114303,0.000000,0.000000,0.000000,0.000000,0.000000,0.000000
14564836.000000,-0.341530,0.619877,0.430220,-1.517236,-0.282535,2.076819,0.157227,0.036639,0.350647,-0.092755,-0.246442,-0.174887,0.539123,0.102715,0.375715,-39.393879,6.436874,19.217100,0.088285,1.955673,0.074935,0.000000,0.000000,0.000000,0.000000,0.000000,0.000000
14564837.000000,-0.341495,0.620229,0.430127,-1.517486,-0.282709,2.077372,0.157326,0.036236,0.353966,-0.095618,-0.245121,-0.172942,0.542378,0.103599,0.403486,-39.294697,6.389267,19.268675,0.069974,1.942855,0.120712,0.000000,0.000000,0.000000,0.000000,0.000000,0.000000
14564838.000000,-0.341463,0.620582,0.430026,-1.517732,-0.282884,2.077904,0.157432,0.035731,0.350611,-0.095337,-0.243593,-0.172517,0.538078,0.102871,0.451093,-39.247089,6.460678,19.292479,0.076383,1.974899,0.081344,0.000000,0.000000,0.000000,0.000000,0.000000,0.000000
14564839.000000,-0.341429,0.620930,0.429925,-1.517971,-0.283055,2.078440,0.157531,0.036388,0.354135,-0.094180,-0.245355,-0.172456,0.538117,0.104544,0.451093,-39.147907,6.512253,19.292479,0.088285,2.033492,0.100570,0.000000,0.000000,0.000000,0.000000,0.000000,0.000000
14564840.000000,-0.341391,0.621290,0.429817,-1.518213,-0.283227,2.078973,0.157628,0.034204,0.351480,-0.098459,-0.239762,-0.170708,0.538573,0.104889,0.427289,-39.124104,6.635239,19.268675,0.069974,2.085677,0.133529,0.000000,0.000000,0.000000,0.000000,0.000000,0.000000
14564841.000000,-0.341359,0.621645,0.429719,-1.518454,-0.283405,2.079523,0.157736,0.033985,0.351978,-0.098969,-0.239516,-0.171147,0.547002,0.108631,0.474897,-39.100300,6.659042,19.268675,0.081876,2.027084,0.094161,0.000000,0.000000,0.000000,0.000000,0.000000,0.000000
14564842.000000,-0.341322,0.622000,0.429624,-1.518696,-0.283582,2.080083,0.157839,0.036331,0.356506,-0.095373,-0.240009,-0.170920,0.545161,0.103298,0.427289,-39.100300,6.635239,19.292479,0.081876,1.962081,0.140853,0.000000,0.000000,0.000000,0.000000,0.000000,0.000000
14564843.000000,-0.341291,0.622349,0.429525,-1.518940,-0.283758,2.080621,0.157954,0.034666,0.352679,-0.096733,-0.239431,-0.175420,0.546513,0.108857,0.502668,-39.072529,6.659042,19.292479,0.093778,1.936446,0.061202,0.000000,0.000000,0.000000,0.000000,0.000000,0.000000
14564844.000000,-0.341257,0.622718,0.429423,-1.519174,-0.283930,2.081171,0.158057,0.034971,0.360434,-0.095618,-0.236750,-0.174861,0.544954,0.108617,0.526471,-39.195515,6.706650,19.316282,0.117582,1.955673,0.087753,0.000000,0.000000,0.000000,0.000000,0.000000,0.000000
14564845.000000,-0.341223,0.623064,0.429327,-1.519407,-0.284100,2.081709,0.158162,0.035190,0.356289,-0.095553,-0.234829,-0.178718,0.539435,0.105807,0.550275,-39.171711,6.659042,19.340086,0.129484,1.995040,0.067611,0.000000,0.000000,0.000000,0.000000,0.000000,0.000000
14564846.000000,-0.341184,0.623421,0.429226,-1.519646,-0.284269,2.082265,0.158257,0.037050,0.357922,-0.097175,-0.235109,-0.175948,0.540911,0.104214,0.526471,-39.147907,6.682846,19.439268,0.112089,2.014266,0.147262,0.000000,0.000000,0.000000,0.000000,0.000000,0.000000
14564847.000000,-0.341143,0.623775,0.429123,-1.519880,-0.284434,2.082821,0.158369,0.038466,0.349654,-0.098290,-0.231374,-0.171976,0.542872,0.103109,0.474897,-39.171711,6.706650,19.514647,0.040677,2.014266,0.114303,0.000000,0.000000,0.000000,0.000000,0.000000,0.000000
14564848.000000,-0.341105,0.624138,0.429024,-1.520115,-0.284617,2.083371,0.158479,0.038759,0.352546,-0.098831,-0.231257,-0.171692,0.549846,0.101976,0.451093,-39.247089,6.706650,19.590025,0.052579,1.988631,0.087753,0.000000,0.000000,0.000000,0.000000,0.000000,0.000000
14564849.000000,-0.341066,0.624498,0.428924,-1.520346,-0.284795,2.083924,0.158585,0.035817,0.352837,-0.098233,-0.228392,-0.172074,0.548366,0.098558,0.427289,-39.219318,6.682846,19.661436,0.069974,1.981307,0.114303,0.000000,0.000000,0.000000,0.000000,0.000000,0.000000
14564850.000000,-0.341026,0.624849,0.428827,-1.520579,-0.284977,2.084462,0.158695,0.036801,0.356928,-0.093127,-0.227511,-0.173476,0.557400,0.098780,0.403486,-39.195515,6.706650,19.661436,0.117582,2.027084,0.081344,0.000000,0.000000,0.000000,0.000000,0.000000,0.000000
14564851.000000,-0.340989,0.625216,0.428732,-1.520808,-0.285159,2.085017,0.158797,0.039445,0.359497,-0.094325,-0.226398,-0.179065,0.551673,0.096149,0.427289,-39.219318,6.682846,19.637632,0.166105,1.995040,0.120712,0.000000,0.000000,0.000000,0.000000,0.000000,0.000000
14564852.000000,-0.340951,0.625570,0.428636,-1.521030,-0.285332,2.085565,0.158905,0.042676,0.353108,-0.094756,-0.226296,-0.181851,0.547328,0.101233,0.403486,-39.219318,6.635239,19.637632,0.183500,1.962081,0.094161,0.000000,0.000000,0.000000,0.000000,0.000000,0.000000
14564853.000000,-0.340910,0.625936,0.428538,-1.521252,-0.285505,2.086104,0.159015,0.042532,0.360254,-0.096270,-0.227922,-0.182138,0.545892,0.107123,0.351911,-39.270893,6.635239,19.590025,0.159696,2.001449,0.107894,0.000000,0.000000,0.000000,0.000000,0.000000,0.000000
14564854.000000,-0.340870,0.626319,0.428440,-1.521465,-0.285671,2.086645,0.159129,0.042256,0.365372,-0.097233,-0.229148,-0.180261,0.537882,0.109685,0.328107,-39.540668,6.635239,19.439268,0.064481,2.066451,0.081344,0.000000,0.000000,0.000000,0.000000,0.000000,0.000000
14564855.000000,-0.340828,0.626687,0.428347,-1.521683,-0.285845,2.087198,0.159240,0.041418,0.370296,-0.099134,-0.222891,-0.175971,0.535861,0.110497,0.304304,-39.687458,6.583664,19.316282,0.010465,2.066451,0.081344,0.000000,0.000000,0.000000,0.000000,0.000000,0.000000
14564856.000000,-0.340789,0.627060,0.428250,-1.521898,-0.286025,2.087744,0.159345,0.043182,0.368232,-0.099113,-0.221744,-0.179047,0.540436,0.109430,0.304304,-39.810444,6.559860,19.217100,-0.001437,2.039901,0.127120,0.000000,0.000000,0.000000,0.000000,0.000000,0.000000
14564857.000000,-0.340745,0.627420,0.428156,-1.522120,-0.286199,2.088303,0.159458,0.046047,0.369062,-0.094836,-0.223029,-0.177660,0.543871,0.107561,0.252729,-39.834248,6.488449,19.193296,0.010465,1.968490,0.074935,0.000000,0.000000,0.000000,0.000000,0.000000,0.000000
14564858.000000,-0.340707,0.627795,0.428060,-1.522338,-0.286381,2.088855,0.159559,0.042581,0.370087,-0.097050,-0.222284,-0.177655,0.545477,0.106652,0.304304,-39.905659,6.512253,19.117918,0.064481,1.936446,0.120712,0.000000,0.000000,0.000000,0.000000,0.000000,0.000000
14564859.000000,-0.340664,0.628165,0.427961,-1.522552,-0.286560,2.089417,0.159672,0.042007,0.366898,-0.095342,-0.219425,-0.182207,0.550509,0.109873,0.276533,-39.957233,6.536057,19.070311,0.112089,1.916305,0.081344,0.000000,0.000000,0.000000,0.000000,0.000000,0.000000
14564860.000000,-0.340621,0.628533,0.427870,-1.522766,-0.286735,2.089979,0.159782,0.041891,0.361277,-0.095575,-0.217351,-0.184610,0.550161,0.106086,0.228925,-39.957233,6.488449,19.018736,0.135892,1.903487,0.074935,0.000000,0.000000,0.000000,0.000000,0.000000,0.000000
14564861.000000,-0.340574,0.628896,0.427771,-1.522978,-0.286913,2.090520,0.159883,0.041922,0.361415,-0.097211,-0.217057,-0.178934,0.548401,0.106869,0.177350,-39.929462,6.512253,18.919554,0.093778,1.936446,0.100570,0.000000,0.000000,0.000000,0.000000,0.000000,0.000000
14564862.000000,-0.340524,0.629263,0.427676,-1.523185,-0.287096,2.091076,0.159987,0.046980,0.363965,-0.097516,-0.214586,-0.180903,0.547178,0.107845,0.054365,-39.810444,6.488449,18.820372,0.076383,1.936446,0.114303,0.000000,0.000000,0.000000,0.000000,0.000000,0.000000
14564863.000000,-0.340480,0.629620,0.427582,-1.523396,-0.287273,2.091617,0.160096,0.047854,0.362974,-0.094289,-0.213685,-0.175896,0.541772,0.110567,0.030561,-39.687458,6.460678,18.772764,0.015958,1.955673,0.081344,0.000000,0.000000,0.000000,0.000000,0.000000,0.000000
14564864.000000,-0.340437,0.629996,0.427487,-1.523604,-0.287454,2.092167,0.160206,0.044997,0.363628,-0.094642,-0.213213,-0.178961,0.538385,0.111646,0.030561,-39.687458,6.413071,18.721189,0.004056,1.968490,0.067611,0.000000,0.000000,0.000000,0.000000,0.000000,0.000000
14564865.000000,-0.340391,0.630365,0.427386,-1.523809,-0.287635,2.092713,0.160305,0.046646,0.357578,-0.096346,-0.211589,-0.182361,0.536449,0.109232,0.006757,-39.735065,6.413071,18.625975,0.022367,1.962081,0.133529,0.000000,0.000000,0.000000,0.000000,0.000000,0.000000
14564866.000000,-0.340344,0.630746,0.427290,-1.524014,-0.287820,2.093254,0.160421,0.044878,0.366140,-0.093889,-0.210826,-0.184930,0.538699,0.112803,-0.017047,-39.881855,6.389267,18.574400,0.052579,1.974899,0.067611,0.000000,0.000000,0.000000,0.000000,0.000000,0.000000
14564867.000000,-0.340296,0.631125,0.427193,-1.524206,-0.287996,2.093808,0.160525,0.046695,0.366903,-0.096647,-0.203450,-0.186397,0.541584,0.110894,-0.044818,-39.929462,6.436874,18.475218,0.064481,1.923629,0.120712,0.000000,0.000000,0.000000,0.000000,0.000000,0.000000
14564868.000000,-0.340252,0.631497,0.427099,-1.524409,-0.288177,2.094356,0.160633,0.046679,0.371186,-0.093994,-0.207059,-0.186404,0.555705,0.106957,-0.017047,-40.052448,6.413071,18.499022,0.046171,1.865035,0.114303,0.000000,0.000000,0.000000,0.000000,0.000000,0.000000
14564869.000000,-0.340200,0.631876,0.427001,-1.524605,-0.288366,2.094904,0.160738,0.049267,0.369890,-0.092454,-0.203506,-0.187843,0.549420,0.109621,-0.092425,-40.076252,6.413071,18.399839,0.069974,1.858627,0.087753,0.000000,0.000000,0.000000,0.000000,0.000000,0.000000
14564870.000000,-0.340152,0.632235,0.426901,-1.524807,-0.288546,2.095449,0.160841,0.050321,0.371666,-0.095089,-0.203978,-0.183594,0.548095,0.108531,-0.116229,-40.004841,6.436874,18.427610,0.076383,1.877853,0.133529,0.000000,0.000000,0.000000,0.000000,0.000000,0.000000
14564871.000000,-0.340103,0.632602,0.426806,-1.525000,-0.288724,2.095990,0.160950,0.050742,0.372466,-0.095750,-0.198391,-0.183126,0.546675,0.107030,-0.144000,-39.858051,6.413071,18.352232,0.040677,1.923629,0.081344,0.000000,0.000000,0.000000,0.000000,0.000000,0.000000
14564872.000000,-0.340060,0.632977,0.426709,-1.525200,-0.288900,2.096535,0.161053,0.046656,0.373496,-0.096262,-0.202745,-0.183617,0.545653,0.107672,-0.116229,-39.834248,6.389267,18.399839,0.046171,1.936446,0.094161,0.000000,0.000000,0.000000,0.000000,0.000000,0.000000
14564873.000000,-0.340011,0.633345,0.426614,-1.525395,-0.289078,2.097089,0.161157,0.048608,0.370312,-0.093768,-0.200793,-0.184185,0.547913,0.103833,-0.167803,-39.735065,6.365463,18.328428,0.027860,1.903487,0.107894,0.000000,0.000000,0.000000,0.000000,0.000000,0.000000
14564874.000000,-0.339964,0.633711,0.426512,-1.525594,-0.289256,2.097626,0.161258,0.045911,0.365509,-0.096140,-0.200453,-0.185067,0.539828,0.101111,-0.167803,-39.588276,6.389267,18.304625,0.022367,1.877853,0.120712,0.000000,0.000000,0.000000,0.000000,0.000000,0.000000
14564875.000000,-0.339918,0.634087,0.426413,-1.525790,-0.289435,2.098176,0.161371,0.046314,0.368644,-0.094686,-0.198874,-0.185847,0.541837,0.105911,-0.144000,-39.512897,6.413071,18.352232,0.010465,1.844894,0.067611,0.000000,0.000000,0.000000,0.000000,0.000000,0.000000
14564876.000000,-0.339876,0.634457,0.426319,-1.525978,-0.289620,2.098712,0.161474,0.045467,0.365871,-0.099317,-0.194456,-0.187542,0.538321,0.110454,-0.068621,-39.489094,6.413071,18.276854,0.040677,1.851302,0.100570,0.000000,0.000000,0.000000,0.000000,0.000000,0.000000
14564877.000000,-0.339826,0.634836,0.426225,-1.526166,-0.289806,2.099252,0.161578,0.047353,0.369807,-0.097992,-0.194082,-0.189126,0.537750,0.110694,-0.092425,-39.540668,6.365463,18.177671,0.076383,1.909896,0.114303,0.000000,0.000000,0.000000,0.000000,0.000000,0.000000
14564880.000000,-0.339694,0.635951,0.425934,-1.526722,-0.290330,2.100892,0.161902,0.047220,0.366969,-0.097198,-0.185638,-0.180468,0.537152,0.109156,0.030561,-39.465290,6.341660,17.808714,0.010465,1.767074,0.087753,0.000000,0.000000,0.000000,0.000000,0.000000,0.000000
14564881.000000,-0.339650,0.636320,0.425836,-1.526915,-0.290504,2.101433,0.162005,0.044379,0.371547,-0.100240,-0.186324,-0.181775,0.540816,0.108460,0.054365,-39.489094,6.341660,17.784910,-0.013339,1.735030,0.133529,0.000000,0.000000,0.000000,0.000000,0.000000,0.000000
14564882.000000,-0.339606,0.636691,0.425740,-1.527103,-0.290683,2.101980,0.162120,0.045428,0.371298,-0.099592,-0.185586,-0.183507,0.540220,0.112473,0.105939,-39.417683,6.313889,17.709532,-0.019747,1.786300,0.061202,0.000000,0.000000,0.000000,0.000000,0.000000,0.000000
14564883.000000,-0.339559,0.637057,0.425643,-1.527278,-0.290865,2.102526,0.162223,0.046821,0.364228,-0.096548,-0.180773,-0.181547,0.535165,0.105750,0.105939,-39.393879,6.313889,17.586546,0.010465,1.838485,0.114303,0.000000,0.000000,0.000000,0.000000,0.000000,0.000000
14564884.000000,-0.339514,0.637425,0.425545,-1.527455,-0.291049,2.103070,0.162327,0.046689,0.364359,-0.098887,-0.177983,-0.179512,0.538431,0.105857,0.153547,-39.247089,6.365463,17.511168,0.040677,1.844894,0.140853,0.000000,0.000000,0.000000,0.000000,0.000000,0.000000
14564885.000000,-0.339468,0.637794,0.425454,-1.527637,-0.291219,2.103626,0.162440,0.047223,0.362434,-0.097712,-0.178744,-0.181108,0.541879,0.110316,0.177350,-39.124104,6.313889,17.534971,0.022367,1.786300,0.074935,0.000000,0.000000,0.000000,0.000000,0.000000,0.000000
14564886.000000,-0.339428,0.638162,0.425353,-1.527817,-0.291397,2.104174,0.162541,0.046507,0.366555,-0.100321,-0.180415,-0.177937,0.556673,0.109252,0.252729,-39.048725,6.389267,17.487364,0.010465,1.721298,0.120712,0.000000,0.000000,0.000000,0.000000,0.000000,0.000000
14564887.000000,-0.339380,0.638529,0.425259,-1.527989,-0.291571,2.104720,0.162647,0.044552,0.363572,-0.096585,-0.173109,-0.175740,0.549943,0.110357,0.252729,-38.925739,6.365463,17.340574,0.004056,1.714889,0.114303,0.000000,0.000000,0.000000,0.000000,0.000000,0.000000
14564888.000000,-0.339335,0.638906,0.425166,-1.528162,-0.291753,2.105257,0.162758,0.046142,0.371579,-0.097008,-0.169487,-0.179024,0.547095,0.110612,0.252729,-39.024921,6.341660,17.265196,-0.001437,1.760665,0.120712,0.000000,0.000000,0.000000,0.000000,0.000000,0.000000
14564889.000000,-0.339290,0.639285,0.425071,-1.528332,-0.291941,2.105797,0.162871,0.047251,0.368074,-0.096925,-0.168728,-0.180847,0.545147,0.108217,0.252729,-39.048725,6.313889,17.166014,-0.007845,1.812850,0.074935,0.000000,0.000000,0.000000,0.000000,0.000000,0.000000
14564890.000000,-0.339242,0.639670,0.424975,-1.528501,-0.292129,2.106338,0.162972,0.046567,0.370909,-0.097740,-0.168971,-0.186897,0.539913,0.107756,0.205121,-39.195515,6.313889,17.066832,-0.001437,1.825668,0.120712,0.000000,0.000000,0.000000,0.000000,0.000000,0.000000
14564891.000000,-0.339197,0.640041,0.424877,-1.528675,-0.292311,2.106893,0.163085,0.047282,0.370251,-0.098441,-0.167596,-0.186575,0.539421,0.105871,0.205121,-39.171711,6.341660,17.043028,-0.025240,1.767074,0.081344,0.000000,0.000000,0.000000,0.000000,0.000000,0.000000
14564892.000000,-0.339157,0.640419,0.424776,-1.528857,-0.292496,2.107435,0.163189,0.045398,0.370286,-0.100738,-0.169596,-0.186851,0.539085,0.106679,0.304304,-39.247089,6.413071,17.166014,-0.031649,1.702071,0.107894,0.000000,0.000000,0.000000,0.000000,0.000000,0.000000
14564893.000000,-0.339113,0.640799,0.424683,-1.529031,-0.292678,2.107982,0.163297,0.043090,0.372760,-0.099228,-0.170487,-0.188218,0.537918,0.108902,0.328107,-39.247089,6.365463,17.265196,-0.013339,1.741439,0.087753,0.000000,0.000000,0.000000,0.000000,0.000000,0.000000
14564894.000000,-0.339066,0.641172,0.424584,-1.529196,-0.292861,2.108522,0.163401,0.042625,0.376463,-0.100773,-0.170310,-0.185090,0.538861,0.108833,0.304304,-39.318501,6.413071,17.213621,0.027860,1.786300,0.100570,0.000000,0.000000,0.000000,0.000000,0.000000,0.000000
14564895.000000,-0.339019,0.641555,0.424488,-1.529367,-0.293052,2.109080,0.163506,0.044570,0.377835,-0.099625,-0.169379,-0.186090,0.545246,0.105201,0.304304,-39.393879,6.389267,17.241392,0.034269,1.800033,0.100570,0.000000,0.000000,0.000000,0.000000,0.000000,0.000000
14564896.000000,-0.338974,0.641928,0.424389,-1.529545,-0.293240,2.109636,0.163613,0.045935,0.373057,-0.102437,-0.170201,-0.190221,0.546942,0.107578,0.304304,-39.417683,6.389267,17.340574,-0.001437,1.754256,0.087753,0.000000,0.000000,0.000000,0.000000,0.000000,0.000000
14564897.000000,-0.338927,0.642309,0.424291,-1.529722,-0.293429,2.110177,0.163713,0.047058,0.376979,-0.102343,-0.173211,-0.189889,0.550393,0.107003,0.304304,-39.441486,6.413071,17.435789,0.010465,1.670028,0.140853,0.000000,0.000000,0.000000,0.000000,0.000000,0.000000
14564898.000000,-0.338883,0.642693,0.424190,-1.529893,-0.293615,2.110717,0.163826,0.045008,0.375004,-0.105027,-0.174823,-0.190137,0.543254,0.106335,0.304304,-39.465290,6.413071,17.487364,0.022367,1.682845,0.074935,0.000000,0.000000,0.000000,0.000000,0.000000,0.000000
14564899.000000,-0.338835,0.643078,0.424087,-1.530057,-0.293800,2.111242,0.163928,0.043786,0.379101,-0.107030,-0.172502,-0.190674,0.537640,0.105748,0.276533,-39.564472,6.460678,17.388182,0.046171,1.741439,0.133529,0.000000,0.000000,0.000000,0.000000,0.000000,0.000000
14564900.000000,-0.338791,0.643469,0.423981,-1.530230,-0.293982,2.111775,0.164035,0.047302,0.377881,-0.106909,-0.169153,-0.184936,0.533694,0.107951,0.328107,-39.687458,6.536057,17.340574,0.034269,1.793624,0.127120,0.000000,0.000000,0.000000,0.000000,0.000000,0.000000
14564901.000000,-0.338745,0.643849,0.423881,-1.530401,-0.294161,2.112299,0.164148,0.047539,0.382297,-0.101745,-0.168478,-0.185274,0.526595,0.110413,0.351911,-39.711262,6.536057,17.364378,0.010465,1.832076,0.087753,0.000000,0.000000,0.000000,0.000000,0.000000,0.000000
14564902.000000,-0.338699,0.644238,0.423782,-1.530577,-0.294348,2.112827,0.164260,0.047874,0.377228,-0.099623,-0.169359,-0.190274,0.533308,0.111474,0.375715,-39.810444,6.460678,17.463560,-0.001437,1.800033,0.074935,0.000000,0.000000,0.000000,0.000000,0.000000,0.000000
14564903.000000,-0.338648,0.644626,0.423674,-1.530740,-0.294536,2.113357,0.164361,0.050243,0.381253,-0.101219,-0.169444,-0.188918,0.532698,0.105471,0.304304,-39.881855,6.536057,17.435789,-0.031649,1.760665,0.120712,0.000000,0.000000,0.000000,0.000000,0.000000,0.000000
14564904.000000,-0.338602,0.645007,0.423572,-1.530912,-0.294725,2.113883,0.164472,0.048983,0.381357,-0.101016,-0.169230,-0.186048,0.544528,0.107920,0.351911,-39.881855,6.536057,17.487364,0.010465,1.714889,0.107894,0.000000,0.000000,0.000000,0.000000,0.000000,0.000000
14564905.000000,-0.338561,0.645390,0.423468,-1.531090,-0.294915,2.114408,0.164580,0.047311,0.380120,-0.104581,-0.169421,-0.187805,0.539258,0.105053,0.427289,-39.905659,6.559860,17.562742,0.040677,1.747848,0.094161,0.000000,0.000000,0.000000,0.000000,0.000000,0.000000
14564906.000000,-0.338514,0.645778,0.423360,-1.531263,-0.295097,2.114930,0.164686,0.045379,0.385168,-0.107840,-0.171462,-0.189571,0.529945,0.105937,0.427289,-39.957233,6.611435,17.586546,0.081876,1.793624,0.120712,0.000000,0.000000,0.000000,0.000000,0.000000,0.000000
14564907.000000,-0.338468,0.646164,0.423257,-1.531443,-0.295277,2.115453,0.164797,0.046693,0.382572,-0.102683,-0.174936,-0.183846,0.528353,0.109254,0.427289,-39.929462,6.611435,17.709532,0.076383,1.832076,0.081344,0.000000,0.000000,0.000000,0.000000,0.000000,0.000000
14564908.000000,-0.338421,0.646546,0.423147,-1.531616,-0.295454,2.115987,0.164899,0.044526,0.378987,-0.103494,-0.174065,-0.178750,0.524442,0.103687,0.427289,-39.735065,6.682846,17.808714,0.034269,1.800033,0.120712,0.000000,0.000000,0.000000,0.000000,0.000000,0.000000
14564909.000000,-0.338380,0.646930,0.423045,-1.531787,-0.295643,2.116526,0.165011,0.043560,0.384669,-0.105625,-0.173493,-0.180631,0.531904,0.102389,0.526471,-39.711262,6.706650,17.784910,0.015958,1.760665,0.094161,0.000000,0.000000,0.000000,0.000000,0.000000,0.000000
14564910.000000,-0.338336,0.647319,0.422943,-1.531973,-0.295830,2.117040,0.165119,0.044585,0.386433,-0.107370,-0.176654,-0.181975,0.523948,0.099830,0.574079,-39.635883,6.706650,17.907896,-0.001437,1.819259,0.107894,0.000000,0.000000,0.000000,0.000000,0.000000,0.000000
14564911.000000,-0.338291,0.647705,0.422835,-1.532144,-0.296016,2.117553,0.165237,0.045031,0.384625,-0.106570,-0.173670,-0.184641,0.516671,0.104518,0.625654,-39.612080,6.758224,17.931700,0.015958,1.897079,0.067611,0.000000,0.000000,0.000000,0.000000,0.000000,0.000000
14564912.000000,-0.338249,0.648093,0.422728,-1.532323,-0.296205,2.118070,0.165350,0.044906,0.388331,-0.102364,-0.176389,-0.186708,0.518029,0.106289,0.697065,-39.659687,6.782028,18.030882,0.046171,1.949264,0.074935,0.000000,0.000000,0.000000,0.000000,0.000000,0.000000
14564913.000000,-0.338205,0.648483,0.422621,-1.532488,-0.296391,2.118604,0.165455,0.045910,0.386406,-0.105301,-0.173440,-0.183260,0.523945,0.105607,0.724836,-39.711262,6.805832,18.054686,0.064481,1.871444,0.140853,0.000000,0.000000,0.000000,0.000000,0.000000,0.000000
14564914.000000,-0.338159,0.648870,0.422513,-1.532665,-0.296569,2.119145,0.165577,0.046664,0.385609,-0.107690,-0.173065,-0.182973,0.523437,0.110260,0.748639,-39.758869,6.853439,18.153868,0.022367,1.800033,0.067611,0.000000,0.000000,0.000000,0.000000,0.000000,0.000000
14564915.000000,-0.338115,0.649256,0.422399,-1.532841,-0.296759,2.119665,0.165678,0.044073,0.383110,-0.109617,-0.174947,-0.187953,0.520070,0.108761,0.772443,-39.758869,6.905014,18.229246,0.004056,1.800033,0.127120,0.000000,0.000000,0.000000,0.000000,0.000000,0.000000
14564916.000000,-0.338072,0.649651,0.422291,-1.533013,-0.296955,2.120185,0.165794,0.042112,0.386381,-0.107596,-0.172803,-0.188660,0.519044,0.111796,0.796247,-39.810444,6.928818,18.276854,0.015958,1.871444,0.074935,0.000000,0.000000,0.000000,0.000000,0.000000,0.000000
14564917.000000,-0.338032,0.650041,0.422185,-1.533185,-0.297149,2.120702,0.165900,0.041853,0.385040,-0.111317,-0.174520,-0.190379,0.519012,0.106182,0.895429,-39.929462,6.952621,18.328428,0.058073,1.936446,0.107894,0.000000,0.000000,0.000000,0.000000,0.000000,0.000000
14564918.000000,-0.337993,0.650430,0.422075,-1.533359,-0.297344,2.121231,0.166009,0.039206,0.385115,-0.110119,-0.173146,-0.186332,0.526784,0.103971,0.994611,-39.929462,7.028000,18.399839,0.088285,1.936446,0.087753,0.000000,0.000000,0.000000,0.000000,0.000000,0.000000
14564919.000000,-0.337953,0.650815,0.421966,-1.533541,-0.297533,2.121765,0.166110,0.040059,0.382712,-0.110621,-0.178128,-0.186933,0.528452,0.104367,1.093793,-39.858051,7.051804,18.598204,0.093778,1.916305,0.133529,0.000000,0.000000,0.000000,0.000000,0.000000,0.000000
14564920.000000,-0.337904,0.651203,0.421862,-1.533722,-0.297722,2.122292,0.166220,0.040477,0.382590,-0.107898,-0.177245,-0.182809,0.526772,0.111381,1.069990,-39.782673,7.051804,18.748960,0.112089,1.844894,0.100570,0.000000,0.000000,0.000000,0.000000,0.000000,0.000000
