chaoyuefei/paper-gmrm-data/robot_logs/onetime_s2_dq_gmrm_xz_max_0.50_log_20260314_180936.csv
# time_ms,q_0,q_1,q_2,q_3,q_4,q_5,q_6,dq_0,dq_1,dq_2,dq_3,dq_4,dq_5,dq_6,tau_J_0,tau_J_1,tau_J_2,tau_J_3,tau_J_4,tau_J_5,tau_J_6,O_dP_EE_c_0,O_dP_EE_c_1,O_dP_EE_c_2,O_dP_EE_c_3,O_dP_EE_c_4,O_dP_EE_c_5
14439647.000000,-0.258952,0.525400,0.336325,-1.429457,-0.177216,1.925365,0.096744,0.000214,0.000657,-0.000057,-0.000092,0.000032,0.000082,-0.000143,-0.044818,-38.878132,4.647629,19.637632,0.237516,1.955673,0.061202,0.000000,0.000000,0.000000,0.000000,0.000000,0.000000
14439648.000000,-0.258954,0.525399,0.336323,-1.429455,-0.177216,1.925365,0.096746,-0.000507,-0.000119,-0.000595,0.000496,0.000021,0.000055,0.000617,-0.017047,-38.854328,4.671432,19.613829,0.237516,1.955673,0.041976,0.000000,0.000000,0.000000,0.000000,0.000000,0.000000
14439649.000000,-0.258958,0.525399,0.336325,-1.429455,-0.177216,1.925364,0.096739,-0.000895,-0.000079,0.000160,0.000331,-0.000189,-0.000201,-0.002030,0.006757,-38.854328,4.647629,19.613829,0.243009,1.962081,0.107894,0.000000,0.000000,0.000000,0.000000,0.000000,0.000000
14439650.000000,-0.258957,0.525399,0.336325,-1.429460,-0.177214,1.925364,0.096746,-0.000040,-0.000610,0.000107,-0.001450,0.000755,-0.000134,0.000851,-0.017047,-38.830524,4.647629,19.685240,0.219205,1.962081,0.048385,0.000000,0.000000,0.000000,0.000000,0.000000,0.000000
14439651.000000,-0.258975,0.525411,0.336325,-1.429453,-0.177213,1.925368,0.096742,-0.020433,0.012687,-0.012103,-0.001866,-0.006716,0.001098,0.007820,-0.489153,-38.314777,3.957321,19.316282,0.159696,1.930038,0.107894,0.000000,0.000000,0.000000,0.000000,0.000000,0.000000
14439652.000000,-0.259002,0.525405,0.336310,-1.429460,-0.177200,1.925368,0.096762,-0.041263,0.020180,-0.031041,-0.008439,-0.000945,0.002902,0.015454,-2.619586,-36.160542,1.874496,18.376036,-0.211093,1.871444,0.107894,0.000000,0.000000,0.000000,0.000000,0.000000,0.000000
14439653.000000,-0.259019,0.525432,0.336221,-1.429480,-0.177183,1.925368,0.096802,-0.033601,0.025422,-0.051603,-0.017648,0.004275,0.003630,0.025761,-6.380572,-33.054157,-0.874832,16.622496,-0.760409,1.825668,0.100570,0.000000,0.000000,0.000000,0.000000,0.000000,0.000000
14439654.000000,-0.259075,0.525482,0.336093,-1.429498,-0.177227,1.925367,0.096856,-0.021986,0.028841,-0.064081,-0.015737,-0.010395,0.010133,0.037571,-9.649615,-29.574848,-3.524979,14.099302,-0.844637,1.871444,0.107894,0.000000,0.000000,0.000000,0.000000,0.000000,0.000000
14439655.000000,-0.259148,0.525568,0.335950,-1.429564,-0.177306,1.925370,0.096927,-0.015555,0.032825,-0.070215,-0.028970,-0.034867,0.007190,0.051524,-11.728473,-26.539875,-5.464981,11.802244,-0.670687,2.007858,0.114303,0.000000,0.000000,0.000000,0.000000,0.000000,0.000000
14439656.000000,-0.259227,0.525659,0.335822,-1.429658,-0.177420,1.925432,0.097012,-0.020976,0.042814,-0.069041,-0.045037,-0.068030,0.026724,0.062009,-12.422748,-23.873859,-6.448868,9.675779,-0.306307,1.702071,0.120712,0.000000,0.000000,0.000000,0.000000,0.000000,0.000000
14439657.000000,-0.259294,0.525762,0.335720,-1.429767,-0.177548,1.925585,0.097091,-0.031579,0.056949,-0.068324,-0.061952,-0.090841,0.077070,0.065174,-12.172809,-21.743427,-6.544083,7.723876,0.022367,0.778304,0.232406,0.000000,0.000000,0.000000,0.000000,0.000000,0.000000
14439658.000000,-0.259342,0.525879,0.335658,-1.429881,-0.177681,1.925785,0.097189,-0.036964,0.067886,-0.065612,-0.072167,-0.103646,0.125724,0.072776,-11.331744,-20.081135,-6.202896,5.942564,0.135892,-0.261735,0.232406,0.000000,0.000000,0.000000,0.000000,0.000000,0.000000
14439659.000000,-0.259386,0.525974,0.335635,-1.429984,-0.177802,1.925961,0.097291,-0.043418,0.082330,-0.052834,-0.079117,-0.106869,0.146658,0.082871,-10.093951,-18.514057,-5.663345,4.264403,-0.060946,-0.671891,0.239730,0.000000,0.000000,0.000000,0.000000,0.000000,0.000000
14439660.000000,-0.259402,0.526077,0.335627,-1.430095,-0.177922,1.926102,0.097403,-0.041669,0.087729,-0.039347,-0.083956,-0.107815,0.145208,0.094088,-9.006915,-17.117573,-4.925430,2.852049,-0.443636,-0.345963,0.147262,0.000000,0.000000,0.000000,0.000000,0.000000,0.000000
14439661.000000,-0.259410,0.526167,0.335636,-1.430216,-0.178050,1.926255,0.097506,-0.036104,0.088317,-0.029826,-0.091203,-0.113887,0.141999,0.098285,-7.991290,-15.625874,-4.215286,1.765013,-0.724703,0.226241,0.153671,0.000000,0.000000,0.000000,0.000000,0.000000,0.000000
14439662.000000,-0.259425,0.526227,0.335635,-1.430357,-0.178175,1.926452,0.097620,-0.033152,0.079543,-0.026182,-0.105309,-0.119077,0.157482,0.103709,-6.900286,-13.888203,-3.306778,1.221495,-0.999362,0.648299,0.107894,0.000000,0.000000,0.000000,0.000000,0.000000,0.000000
14439663.000000,-0.259448,0.526250,0.335614,-1.430545,-0.178316,1.926717,0.097734,-0.034286,0.058945,-0.030142,-0.132319,-0.125432,0.183286,0.106365,-5.761675,-11.829182,-2.199906,1.471434,-1.083590,0.694076,0.094161,0.000000,0.000000,0.000000,0.000000,0.000000,0.000000
14439664.000000,-0.259481,0.526266,0.335585,-1.430762,-0.178479,1.927024,0.097849,-0.038198,0.045085,-0.031407,-0.161030,-0.136101,0.221707,0.108188,-4.599261,-9.797932,-1.120804,2.185545,-0.880343,0.492660,0.087753,0.000000,0.000000,0.000000,0.000000,0.000000,0.000000
14439665.000000,-0.259527,0.526305,0.335546,-1.430994,-0.178664,1.927336,0.097961,-0.041395,0.041681,-0.040250,-0.189746,-0.155470,0.248608,0.109356,-3.409075,-8.183247,-0.065506,2.927428,-0.467440,0.440475,0.087753,0.000000,0.000000,0.000000,0.000000,0.000000,0.000000
14439666.000000,-0.259592,0.526360,0.335503,-1.431214,-0.178856,1.927658,0.098063,-0.049971,0.046940,-0.044945,-0.200634,-0.167576,0.271177,0.110810,-2.072100,-6.933552,0.791427,3.300352,-0.079257,0.564071,0.193038,0.000000,0.000000,0.000000,0.000000,0.000000,0.000000
14439667.000000,-0.259656,0.526457,0.335480,-1.431435,-0.179040,1.927982,0.098181,-0.055361,0.066113,-0.038350,-0.208255,-0.173994,0.284698,0.109121,-0.885882,-6.370197,1.211960,3.522520,0.129484,0.804855,0.133529,0.000000,0.000000,0.000000,0.000000,0.000000,0.000000
14439668.000000,-0.259708,0.526570,0.335456,-1.431657,-0.179200,1.928347,0.098295,-0.053839,0.081558,-0.033260,-0.211261,-0.166260,0.306825,0.110151,-0.068621,-6.076618,1.453964,3.522520,0.015958,0.850631,0.133529,0.000000,0.000000,0.000000,0.000000,0.000000,0.000000
14439669.000000,-0.259745,0.526696,0.335443,-1.431894,-0.179334,1.928749,0.098413,-0.048463,0.099655,-0.023646,-0.221479,-0.153643,0.334900,0.110723,0.403486,-6.005207,1.406357,3.423338,-0.324618,0.727035,0.133529,0.000000,0.000000,0.000000,0.000000,0.000000,0.000000
14439670.000000,-0.259776,0.526835,0.335432,-1.432129,-0.179459,1.929181,0.098530,-0.040760,0.112130,-0.016989,-0.226110,-0.142161,0.366142,0.112799,0.673261,-5.957600,1.330978,3.173399,-0.754916,0.564071,0.094161,0.000000,0.000000,0.000000,0.000000,0.000000,0.000000
14439671.000000,-0.259806,0.526973,0.335406,-1.432370,-0.179597,1.929619,0.098643,-0.035029,0.119604,-0.016910,-0.227228,-0.137467,0.381560,0.112313,0.895429,-5.759235,1.430160,2.828245,-0.981967,0.570480,0.100570,0.000000,0.000000,0.000000,0.000000,0.000000,0.000000
14439672.000000,-0.259850,0.527105,0.335374,-1.432633,-0.179752,1.930061,0.098761,-0.038252,0.128548,-0.022565,-0.239730,-0.144150,0.404242,0.117393,1.268354,-5.441853,1.628525,2.657652,-0.939852,0.694076,0.074935,0.000000,0.000000,0.000000,0.000000,0.000000,0.000000
14439673.000000,-0.259886,0.527228,0.335337,-1.432916,-0.179936,1.930532,0.098873,-0.035472,0.123134,-0.024730,-0.250711,-0.158258,0.422788,0.114060,1.542096,-4.878498,1.874496,2.558470,-0.623080,0.785628,0.133529,0.000000,0.000000,0.000000,0.000000,0.000000,0.000000
14439674.000000,-0.259920,0.527336,0.335299,-1.433220,-0.180132,1.931044,0.098993,-0.035719,0.114854,-0.028732,-0.266502,-0.179280,0.450985,0.119058,1.764264,-4.120747,2.092697,2.657652,-0.252291,0.641891,0.120712,0.000000,0.000000,0.000000,0.000000,0.000000,0.000000
14439675.000000,-0.259951,0.527442,0.335274,-1.433544,-0.180324,1.931591,0.099108,-0.031905,0.112428,-0.029754,-0.283403,-0.185003,0.485034,0.115973,1.934858,-3.359028,2.092697,2.852049,0.004056,0.375472,0.166488,0.000000,0.000000,0.000000,0.000000,0.000000,0.000000
14439676.000000,-0.259983,0.527561,0.335251,-1.433871,-0.180504,1.932160,0.099231,-0.032050,0.115688,-0.026045,-0.297514,-0.186037,0.505291,0.115830,2.085615,-2.676655,2.021286,2.879820,0.064481,0.193282,0.133529,0.000000,0.000000,0.000000,0.000000,0.000000,0.000000
14439677.000000,-0.260001,0.527702,0.335234,-1.434188,-0.180663,1.932725,0.099352,-0.027874,0.127581,-0.023355,-0.304934,-0.180720,0.517761,0.121325,2.034040,-2.283894,1.799118,2.606077,-0.060946,0.239059,0.094161,0.000000,0.000000,0.000000,0.000000,0.000000,0.000000
14439678.000000,-0.260020,0.527855,0.335223,-1.434508,-0.180806,1.933280,0.099467,-0.025166,0.137151,-0.017094,-0.306364,-0.166468,0.523066,0.123680,1.986432,-2.037922,1.505539,2.137938,-0.353915,0.544845,0.100570,0.000000,0.000000,0.000000,0.000000,0.000000,0.000000
14439679.000000,-0.260027,0.528029,0.335214,-1.434828,-0.180947,1.933855,0.099588,-0.019500,0.150046,-0.016628,-0.312636,-0.151379,0.536245,0.121509,1.764264,-2.061726,1.235763,1.594420,-0.670687,0.882674,0.081344,0.000000,0.000000,0.000000,0.000000,0.000000,0.000000
14439680.000000,-0.260033,0.528212,0.335190,-1.435150,-0.181089,1.934471,0.099703,-0.015850,0.162140,-0.020588,-0.314328,-0.149528,0.561200,0.118876,1.542096,-2.089497,1.136581,1.023131,-0.880343,0.850631,0.094161,0.000000,0.000000,0.000000,0.000000,0.000000,0.000000
14439681.000000,-0.260052,0.528408,0.335172,-1.435501,-0.181250,1.935140,0.099819,-0.014319,0.173348,-0.019641,-0.325386,-0.153872,0.594063,0.117923,1.490522,-2.113301,1.013595,0.753355,-0.927950,0.499068,0.081344,0.000000,0.000000,0.000000,0.000000,0.000000,0.000000
14439682.000000,-0.260067,0.528620,0.335147,-1.435848,-0.181430,1.935820,0.099932,-0.015680,0.183901,-0.021146,-0.338606,-0.160502,0.626489,0.115686,1.415143,-2.236286,0.989792,0.356627,-0.760409,0.206100,0.107894,0.000000,0.000000,0.000000,0.000000,0.000000,0.000000
14439683.000000,-0.260083,0.528839,0.335127,-1.436205,-0.181627,1.936504,0.100041,-0.014750,0.192444,-0.020964,-0.342391,-0.170179,0.644973,0.113271,1.391340,-2.406880,0.914413,0.011473,-0.443636,0.044051,0.160079,0.000000,0.000000,0.000000,0.000000,0.000000,0.000000
14439684.000000,-0.260100,0.529074,0.335101,-1.436566,-0.181819,1.937214,0.100164,-0.013912,0.206199,-0.022550,-0.346120,-0.179046,0.669797,0.114910,1.367536,-2.652851,0.914413,-0.409059,-0.180880,-0.060319,0.114303,0.000000,0.000000,0.000000,0.000000,0.000000,0.000000
14439685.000000,-0.260108,0.529312,0.335082,-1.436926,-0.181997,1.937936,0.100280,-0.011007,0.217151,-0.020130,-0.350237,-0.178218,0.688736,0.114233,1.244550,-2.799641,0.767624,-0.805788,-0.103060,-0.144547,0.120712,0.000000,0.000000,0.000000,0.000000,0.000000,0.000000
14439686.000000,-0.260105,0.529551,0.335058,-1.437312,-0.182155,1.938687,0.100398,-0.005429,0.220865,-0.020751,-0.361387,-0.168885,0.709793,0.113304,0.970807,-2.748066,0.720016,-1.099367,-0.252291,-0.196732,0.127120,0.000000,0.000000,0.000000,0.000000,0.000000,0.000000
14439687.000000,-0.260095,0.529796,0.335042,-1.437711,-0.182298,1.939458,0.100514,0.000054,0.230679,-0.021434,-0.372243,-0.157990,0.724206,0.114324,0.625654,-2.724262,0.549423,-1.297731,-0.521456,-0.183915,0.100570,0.000000,0.000000,0.000000,0.000000,0.000000,0.000000
14439688.000000,-0.260096,0.530043,0.335017,-1.438120,-0.182450,1.940227,0.100629,0.002908,0.238631,-0.021779,-0.382632,-0.153347,0.735614,0.114301,0.451093,-2.577473,0.497848,-1.396913,-0.743014,-0.033768,0.094161,0.000000,0.000000,0.000000,0.000000,0.000000,0.000000
14439689.000000,-0.260101,0.530302,0.334989,-1.438543,-0.182615,1.941016,0.100743,-0.000379,0.244040,-0.023667,-0.390332,-0.159516,0.756871,0.113291,0.375715,-2.406880,0.521652,-1.448488,-0.844637,0.109054,0.094161,0.000000,0.000000,0.000000,0.000000,0.000000,0.000000
14439690.000000,-0.260116,0.530566,0.334959,-1.438985,-0.182800,1.941824,0.100855,-0.006095,0.250930,-0.024991,-0.405966,-0.167844,0.774289,0.116235,0.451093,-2.331501,0.549423,-1.373109,-0.718295,0.167648,0.120712,0.000000,0.000000,0.000000,0.000000,0.000000,0.000000
14439691.000000,-0.260144,0.530841,0.334934,-1.439456,-0.182988,1.942669,0.100975,-0.012771,0.258831,-0.023965,-0.427848,-0.175579,0.790127,0.116991,0.649457,-2.236286,0.497848,-1.099367,-0.521456,0.154830,0.081344,0.000000,0.000000,0.000000,0.000000,0.000000,0.000000
14439692.000000,-0.260170,0.531129,0.334901,-1.439945,-0.183172,1.943544,0.101079,-0.019875,0.266351,-0.028169,-0.443228,-0.178305,0.820066,0.113182,0.824018,-2.212483,0.521652,-0.829591,-0.396029,0.017501,0.153671,0.000000,0.000000,0.000000,0.000000,0.000000,0.000000
14439693.000000,-0.260195,0.531433,0.334866,-1.440434,-0.183355,1.944435,0.101197,-0.021662,0.277710,-0.031864,-0.464975,-0.183799,0.840363,0.114559,0.994611,-2.430683,0.573227,-0.655031,-0.294406,-0.190324,0.114303,0.000000,0.000000,0.000000,0.000000,0.000000,0.000000
14439694.000000,-0.260211,0.531762,0.334832,-1.440934,-0.183525,1.945345,0.101312,-0.020071,0.293490,-0.033787,-0.472855,-0.178278,0.851969,0.118860,1.046186,-2.748066,0.597031,-0.655031,-0.318209,-0.248917,0.114303,0.000000,0.000000,0.000000,0.000000,0.000000,0.000000
14439695.000000,-0.260231,0.532098,0.334791,-1.441450,-0.183685,1.946244,0.101425,-0.020017,0.311752,-0.037041,-0.488397,-0.175323,0.861003,0.115993,1.145368,-3.140827,0.696213,-0.583620,-0.455538,-0.138139,0.153671,0.000000,0.000000,0.000000,0.000000,0.000000,0.000000
14439696.000000,-0.260247,0.532439,0.334760,-1.441985,-0.183860,1.947176,0.101549,-0.018735,0.321921,-0.035776,-0.503878,-0.169857,0.880887,0.117915,1.192975,-3.458210,0.644638,-0.583620,-0.563571,0.017501,0.087753,0.000000,0.000000,0.000000,0.000000,0.000000,0.000000
14439697.000000,-0.260267,0.532787,0.334720,-1.442546,-0.184037,1.948125,0.101665,-0.019181,0.326178,-0.037429,-0.517966,-0.172920,0.898876,0.115592,1.292158,-3.656574,0.696213,-0.508241,-0.616671,0.076095,0.107894,0.000000,0.000000,0.000000,0.000000,0.000000,0.000000
14439698.000000,-0.260299,0.533118,0.334670,-1.443126,-0.184210,1.949093,0.101781,-0.026593,0.328525,-0.041344,-0.537924,-0.172581,0.917243,0.114997,1.565900,-3.656574,0.866806,-0.286073,-0.616671,0.037643,0.107894,0.000000,0.000000,0.000000,0.000000,0.000000,0.000000
14439699.000000,-0.260334,0.533462,0.334620,-1.443734,-0.184395,1.950095,0.101901,-0.029214,0.333230,-0.042291,-0.559176,-0.180439,0.939054,0.114845,1.863447,-3.533589,0.965988,-0.012331,-0.509554,-0.047501,0.100570,0.000000,0.000000,0.000000,0.000000,0.000000,0.000000
14439700.000000,-0.260371,0.533814,0.334568,-1.444350,-0.184580,1.951092,0.102016,-0.033382,0.334913,-0.046981,-0.578196,-0.181795,0.962794,0.112979,2.133222,-3.410603,1.112778,0.332823,-0.396029,-0.001725,0.140853,0.000000,0.000000,0.000000,0.000000,0.000000,0.000000
14439701.000000,-0.260414,0.534163,0.334512,-1.444991,-0.184766,1.952119,0.102134,-0.038230,0.341993,-0.047547,-0.595545,-0.181689,0.978112,0.114643,2.482343,-3.263813,1.259567,0.578795,-0.306307,0.121871,0.100570,0.000000,0.000000,0.000000,0.000000,0.000000,0.000000
14439702.000000,-0.260453,0.534531,0.334454,-1.445649,-0.184945,1.953165,0.102250,-0.039011,0.345207,-0.050974,-0.610581,-0.182513,0.994600,0.113685,2.728315,-3.164631,1.406357,0.701781,-0.312716,0.147506,0.107894,0.000000,0.000000,0.000000,0.000000,0.000000,0.000000
14439703.000000,-0.260485,0.534904,0.334397,-1.446298,-0.185120,1.954209,0.102365,-0.036891,0.353001,-0.049232,-0.620864,-0.179229,1.006809,0.114049,2.851301,-3.263813,1.505539,0.701781,-0.431735,0.115462,0.094161,0.000000,0.000000,0.000000,0.000000,0.000000,0.000000
14439704.000000,-0.260526,0.535295,0.334349,-1.446967,-0.185295,1.955264,0.102475,-0.038724,0.356341,-0.048714,-0.628533,-0.178335,1.013508,0.112441,2.978254,-3.950154,1.505539,1.122313,-0.509554,0.128280,0.133529,0.000000,0.000000,0.000000,0.000000,0.000000,0.000000
14439705.000000,-0.260560,0.535688,0.334293,-1.447625,-0.185466,1.956337,0.102600,-0.037433,0.362339,-0.049548,-0.625427,-0.174846,1.027846,0.118583,2.978254,-5.513264,1.676132,1.840392,-0.527865,0.167648,0.094161,0.000000,0.000000,0.000000,0.000000,0.000000,0.000000
14439706.000000,-0.260604,0.536078,0.334244,-1.448267,-0.185643,1.957409,0.102717,-0.037812,0.372409,-0.048855,-0.623146,-0.171541,1.041733,0.117187,3.025861,-7.695271,1.799118,3.125792,-0.461947,0.141097,0.094161,0.000000,0.000000,0.000000,0.000000,0.000000,0.000000
14439707.000000,-0.260653,0.536457,0.334183,-1.448914,-0.185826,1.958500,0.102834,-0.042149,0.378518,-0.049647,-0.627834,-0.176641,1.047077,0.119911,3.101240,-10.091511,2.116501,4.954710,-0.306307,0.174056,0.114303,0.000000,0.000000,0.000000,0.000000,0.000000,0.000000
14439708.000000,-0.260698,0.536811,0.334125,-1.449545,-0.186015,1.959573,0.102954,-0.040038,0.375191,-0.052025,-0.631513,-0.183174,1.055037,0.117918,3.073469,-12.368732,2.390243,6.981993,-0.072848,0.297652,0.107894,0.000000,0.000000,0.000000,0.000000,0.000000,0.000000
14439709.000000,-0.260733,0.537164,0.334061,-1.450182,-0.186199,1.960628,0.103064,-0.035119,0.373248,-0.058913,-0.636120,-0.183120,1.055904,0.114607,2.902875,-14.594379,2.755234,9.156065,0.052579,0.706893,0.166488,0.000000,0.000000,0.000000,0.000000,0.000000,0.000000
14439710.000000,-0.260765,0.537515,0.334005,-1.450804,-0.186380,1.961681,0.103189,-0.031245,0.372069,-0.059914,-0.631750,-0.184409,1.050530,0.120932,2.704511,-16.601826,2.953598,11.084166,0.081876,1.175643,0.114303,0.000000,0.000000,0.000000,0.000000,0.000000,0.000000
14439711.000000,-0.260788,0.537872,0.333941,-1.451418,-0.186561,1.962735,0.103307,-0.026940,0.370933,-0.061840,-0.631286,-0.184470,1.057918,0.118596,2.430768,-18.462482,3.199569,12.714720,0.081876,1.331283,0.127120,0.000000,0.000000,0.000000,0.000000,0.000000,0.000000
14439712.000000,-0.260812,0.538235,0.333878,-1.452029,-0.186732,1.963794,0.103424,-0.024251,0.366774,-0.062553,-0.627019,-0.180896,1.046981,0.116245,2.160993,-20.200153,3.417770,13.976316,-0.013339,1.487838,0.147262,0.000000,0.000000,0.000000,0.000000,0.000000,0.000000
14439713.000000,-0.260828,0.538605,0.333818,-1.452640,-0.186901,1.964818,0.103551,-0.018598,0.376622,-0.060998,-0.624250,-0.174640,1.051794,0.117791,1.863447,-21.842609,3.540756,15.015745,-0.103060,1.714889,0.087753,0.000000,0.000000,0.000000,0.000000,0.000000,0.000000
14439714.000000,-0.260843,0.539003,0.333752,-1.453260,-0.187081,1.965865,0.103664,-0.014518,0.383230,-0.060616,-0.623515,-0.173063,1.043945,0.120188,1.565900,-23.504902,3.687546,15.805235,-0.114962,1.793624,0.114303,0.000000,0.000000,0.000000,0.000000,0.000000,0.000000
14439715.000000,-0.260857,0.539407,0.333676,-1.453861,-0.187274,1.966904,0.103796,-0.015690,0.388736,-0.063315,-0.616785,-0.176145,1.033703,0.125081,1.315961,-25.048176,3.957321,16.027403,-0.013339,1.819259,0.054794,0.000000,0.000000,0.000000,0.000000,0.000000,0.000000
14439716.000000,-0.260876,0.539832,0.333596,-1.454452,-0.187473,1.967931,0.103908,-0.016212,0.404534,-0.068375,-0.608836,-0.183735,1.039518,0.123174,1.169172,-26.662861,4.227097,16.178160,0.112089,1.747848,0.147262,0.000000,0.000000,0.000000,0.000000,0.000000,0.000000
14439717.000000,-0.260885,0.540271,0.333515,-1.455051,-0.187678,1.968971,0.104039,-0.011346,0.414045,-0.070701,-0.601200,-0.187043,1.037422,0.122244,0.947004,-28.059345,4.449265,16.102781,0.195402,1.649886,0.107894,0.000000,0.000000,0.000000,0.000000,0.000000,0.000000
14439718.000000,-0.260889,0.540720,0.333436,-1.455650,-0.187881,1.970013,0.104166,-0.009654,0.423510,-0.077202,-0.601198,-0.188990,1.033619,0.125283,0.673261,-29.380451,4.596054,16.150389,0.255826,1.494247,0.094161,0.000000,0.000000,0.000000,0.000000,0.000000,0.000000
14439719.000000,-0.260882,0.541176,0.333362,-1.456252,-0.188085,1.971039,0.104289,-0.005545,0.435590,-0.076841,-0.602891,-0.188394,1.027544,0.121763,0.276533,-30.630146,4.647629,16.126585,0.261320,1.422836,0.107894,0.000000,0.000000,0.000000,0.000000,0.000000,0.000000
14439720.000000,-0.260879,0.541639,0.333287,-1.456848,-0.188283,1.972074,0.104415,-0.002130,0.442168,-0.076656,-0.593004,-0.191233,1.025067,0.123677,-0.017047,-31.780659,4.695236,15.928221,0.225614,1.377059,0.120712,0.000000,0.000000,0.000000,0.000000,0.000000,0.000000
14439721.000000,-0.260868,0.542106,0.333221,-1.457445,-0.188470,1.973090,0.104541,0.004310,0.450881,-0.073983,-0.594140,-0.186885,1.021299,0.121228,-0.342364,-32.760578,4.619858,15.856810,0.129484,1.454879,0.120712,0.000000,0.000000,0.000000,0.000000,0.000000,0.000000
14439722.000000,-0.260849,0.542568,0.333150,-1.458062,-0.188672,1.974105,0.104669,0.007534,0.450326,-0.073396,-0.598927,-0.191028,1.010562,0.119812,-0.735125,-33.542133,4.596054,15.955992,0.112089,1.578475,0.094161,0.000000,0.000000,0.000000,0.000000,0.000000,0.000000
14439723.000000,-0.260824,0.543042,0.333082,-1.458690,-0.188874,1.975123,0.104792,0.014193,0.456824,-0.072176,-0.606893,-0.197960,1.015033,0.117353,-1.183428,-34.323689,4.524643,16.249571,0.088285,1.682845,0.114303,0.000000,0.000000,0.000000,0.000000,0.000000,0.000000
14439724.000000,-0.260817,0.543514,0.333010,-1.459299,-0.189080,1.976135,0.104922,0.013114,0.459357,-0.072492,-0.604150,-0.196616,1.014511,0.122911,-1.381793,-35.109211,4.500839,16.447935,0.112089,1.643478,0.067611,0.000000,0.000000,0.000000,0.000000,0.000000,0.000000
14439725.000000,-0.260813,0.544006,0.332939,-1.459930,-0.189287,1.977158,0.105043,0.010879,0.466851,-0.072502,-0.608703,-0.196061,1.010748,0.122191,-1.504779,-35.890766,4.473068,16.721678,0.159696,1.591293,0.127120,0.000000,0.000000,0.000000,0.000000,0.000000,0.000000
14439726.000000,-0.260809,0.544495,0.332876,-1.460556,-0.189488,1.978166,0.105172,0.009017,0.473762,-0.067383,-0.617224,-0.196049,1.012275,0.129901,-1.603961,-36.676289,4.350082,17.043028,0.213712,1.611434,0.120712,0.000000,0.000000,0.000000,0.000000,0.000000,0.000000
14439727.000000,-0.260805,0.545004,0.332819,-1.461178,-0.189693,1.979174,0.105296,0.006708,0.481216,-0.065759,-0.614995,-0.196602,1.007089,0.129688,-1.651568,-37.557026,4.179489,17.142210,0.291532,1.695663,0.140853,0.000000,0.000000,0.000000,0.000000,0.000000,0.000000
14439728.000000,-0.260796,0.545537,0.332763,-1.461812,-0.189887,1.980191,0.105425,0.012842,0.495139,-0.064229,-0.616641,-0.197437,1.004113,0.130296,-1.750750,-38.659931,3.985092,17.364378,0.249418,1.721298,0.140853,0.000000,0.000000,0.000000,0.000000,0.000000,0.000000
14439729.000000,-0.260798,0.546072,0.332713,-1.462425,-0.190075,1.981209,0.105556,0.006537,0.502414,-0.059457,-0.615863,-0.195424,1.009616,0.136127,-1.651568,-39.659687,3.762924,17.388182,0.129484,1.572067,0.087753,0.000000,0.000000,0.000000,0.000000,0.000000,0.000000
14439730.000000,-0.260788,0.546609,0.332662,-1.463067,-0.190271,1.982230,0.105675,0.008351,0.509501,-0.052811,-0.621003,-0.195263,1.003434,0.131788,-1.679339,-40.516621,3.540756,17.685728,0.052579,1.481429,0.173812,0.000000,0.000000,0.000000,0.000000,0.000000,0.000000
14439731.000000,-0.260778,0.547130,0.332608,-1.463698,-0.190463,1.983242,0.105809,0.009130,0.521079,-0.056221,-0.625776,-0.192808,1.021141,0.129995,-1.679339,-41.155354,3.417770,17.955503,0.022367,1.448470,0.100570,0.000000,0.000000,0.000000,0.000000,0.000000,0.000000
14439732.000000,-0.260778,0.547672,0.332556,-1.464336,-0.190660,1.984254,0.105928,0.006815,0.527096,-0.057211,-0.625545,-0.193134,1.017064,0.128599,-1.552386,-41.790119,3.346359,18.253050,0.052579,1.546432,0.153671,0.000000,0.000000,0.000000,0.000000,0.000000,0.000000
14439733.000000,-0.260782,0.548208,0.332498,-1.464980,-0.190860,1.985264,0.106059,0.000599,0.525329,-0.059419,-0.628125,-0.195773,1.012136,0.126654,-1.354022,-42.329670,3.346359,18.526793,0.154203,1.682845,0.100570,0.000000,0.000000,0.000000,0.000000,0.000000,0.000000
14439734.000000,-0.260785,0.548728,0.332439,-1.465616,-0.191053,1.986271,0.106177,0.000625,0.522260,-0.058274,-0.631596,-0.195581,1.014262,0.125754,-1.207232,-42.722431,3.370163,18.848143,0.201810,1.702071,0.160079,0.000000,0.000000,0.000000,0.000000,0.000000,0.000000
14439735.000000,-0.260791,0.549252,0.332389,-1.466269,-0.191248,1.987285,0.106313,-0.003014,0.522741,-0.057867,-0.639147,-0.197257,1.010858,0.124452,-1.032672,-42.964436,3.294784,19.316282,0.189908,1.676437,0.114303,0.000000,0.000000,0.000000,0.000000,0.000000,0.000000
14439736.000000,-0.260800,0.549783,0.332332,-1.466914,-0.191446,1.988304,0.106442,-0.006160,0.521422,-0.059569,-0.638885,-0.195412,1.004032,0.125082,-0.834307,-43.234211,3.294784,19.760618,0.201810,1.662704,0.153671,0.000000,0.000000,0.000000,0.000000,0.000000,0.000000
14439737.000000,-0.260811,0.550318,0.332273,-1.467564,-0.191638,1.989300,0.106574,-0.008380,0.523965,-0.058134,-0.643228,-0.192042,1.002729,0.128443,-0.635943,-43.626972,3.322555,20.157347,0.159696,1.708480,0.114303,0.000000,0.000000,0.000000,0.000000,0.000000,0.000000
14439738.000000,-0.260827,0.550856,0.332212,-1.468214,-0.191834,1.990295,0.106703,-0.010508,0.529998,-0.057313,-0.640237,-0.195193,1.000774,0.123626,-0.413775,-43.968159,3.370163,20.454893,0.147794,1.942855,0.133529,0.000000,0.000000,0.000000,0.000000,0.000000,0.000000
14439739.000000,-0.260840,0.551387,0.332153,-1.468851,-0.192022,1.991271,0.106833,-0.016527,0.527515,-0.056113,-0.642627,-0.192078,0.994691,0.125861,-0.266986,-44.237934,3.393966,20.748472,0.105680,2.144271,0.114303,0.000000,0.000000,0.000000,0.000000,0.000000,0.000000
14439740.000000,-0.260849,0.551929,0.332087,-1.469486,-0.192208,1.992268,0.106961,-0.015738,0.531701,-0.060582,-0.635428,-0.188657,0.999560,0.122437,-0.215411,-44.483906,3.516952,20.946836,0.046171,2.202865,0.120712,0.000000,0.000000,0.000000,0.000000,0.000000,0.000000
14439741.000000,-0.260860,0.552461,0.332015,-1.470142,-0.192400,1.993280,0.107084,-0.015280,0.529445,-0.061201,-0.638999,-0.190424,0.997529,0.117359,-0.167803,-44.630695,3.663742,21.244383,-0.007845,2.150680,0.173812,0.000000,0.000000,0.000000,0.000000,0.000000,0.000000
14439742.000000,-0.260874,0.552994,0.331942,-1.470777,-0.192599,1.994273,0.107216,-0.015742,0.528674,-0.065255,-0.638666,-0.195366,0.998064,0.124140,-0.092425,-44.801289,3.838302,21.418943,0.004056,2.066451,0.094161,0.000000,0.000000,0.000000,0.000000,0.000000,0.000000
14439743.000000,-0.260889,0.553528,0.331857,-1.471421,-0.192805,1.995280,0.107335,-0.016145,0.529287,-0.072154,-0.640220,-0.196941,0.998713,0.124120,-0.017047,-44.924274,4.056503,21.565733,0.093778,2.001449,0.140853,0.000000,0.000000,0.000000,0.000000,0.000000,0.000000
14439744.000000,-0.260903,0.554055,0.331768,-1.472049,-0.193012,1.996256,0.107461,-0.013821,0.531188,-0.075854,-0.635075,-0.200313,0.994573,0.125749,0.078168,-45.047260,4.350082,21.641111,0.243009,2.020675,0.147262,0.000000,0.000000,0.000000,0.000000,0.000000,0.000000
14439745.000000,-0.260921,0.554590,0.331676,-1.472674,-0.193221,1.997244,0.107593,-0.015936,0.530182,-0.080967,-0.629753,-0.200240,0.994044,0.128113,0.205121,-45.071064,4.619858,21.514158,0.344633,2.079269,0.127120,0.000000,0.000000,0.000000,0.000000,0.000000,0.000000
14439746.000000,-0.260926,0.555133,0.331585,-1.473311,-0.193417,1.998245,0.107717,-0.013833,0.530290,-0.084063,-0.628994,-0.199714,0.993054,0.123638,0.177350,-45.146442,4.865829,21.514158,0.303434,2.027084,0.140853,0.000000,0.000000,0.000000,0.000000,0.000000,0.000000
14439747.000000,-0.260933,0.555643,0.331486,-1.473921,-0.193612,1.999226,0.107838,-0.010029,0.527234,-0.090650,-0.625075,-0.203136,0.983245,0.120863,0.177350,-44.924274,5.163376,21.343565,0.225614,1.974899,0.147262,0.000000,0.000000,0.000000,0.000000,0.000000,0.000000
14439748.000000,-0.260933,0.556167,0.331386,-1.474530,-0.193815,2.000212,0.107963,-0.007565,0.522847,-0.094006,-0.616313,-0.200533,0.977524,0.123551,0.054365,-44.753681,5.405380,21.121397,0.141385,2.060043,0.140853,0.000000,0.000000,0.000000,0.000000,0.000000,0.000000
14439749.000000,-0.260940,0.556683,0.331280,-1.475115,-0.194019,2.001191,0.108096,-0.005760,0.533252,-0.097565,-0.616744,-0.200436,1.000792,0.127728,0.054365,-44.583088,5.702927,20.724669,0.081876,2.079269,0.087753,0.000000,0.000000,0.000000,0.000000,0.000000,0.000000
14439750.000000,-0.260948,0.557200,0.331184,-1.475713,-0.194226,2.002185,0.108213,-0.004934,0.528424,-0.095420,-0.608938,-0.207895,1.006253,0.122253,0.078168,-44.408527,5.774338,20.478697,0.100187,2.085677,0.133529,0.000000,0.000000,0.000000,0.000000,0.000000,0.000000
14439751.000000,-0.260964,0.557723,0.331075,-1.476313,-0.194436,2.003183,0.108342,-0.006662,0.521435,-0.097575,-0.604560,-0.208414,0.999543,0.121249,0.205121,-44.237934,5.996506,20.304136,0.112089,2.072860,0.094161,0.000000,0.000000,0.000000,0.000000,0.000000,0.000000
14439752.000000,-0.260970,0.558232,0.330966,-1.476887,-0.194649,2.004183,0.108457,-0.007931,0.520226,-0.101761,-0.594626,-0.211349,0.996462,0.122850,0.205121,-44.067341,6.190903,20.081968,0.195402,1.923629,0.120712,0.000000,0.000000,0.000000,0.000000,0.000000,0.000000
14439753.000000,-0.260980,0.558751,0.330855,-1.477455,-0.194870,2.005210,0.108585,-0.006893,0.516572,-0.103669,-0.584546,-0.217385,1.003421,0.125902,0.252729,-44.043537,6.341660,19.784422,0.279630,1.735030,0.100570,0.000000,0.000000,0.000000,0.000000,0.000000,0.000000
14439754.000000,-0.260986,0.559280,0.330748,-1.478018,-0.195086,2.006220,0.108707,-0.006171,0.518358,-0.107174,-0.574009,-0.217576,1.001527,0.125412,0.304304,-43.968159,6.460678,19.463072,0.267728,1.727706,0.153671,0.000000,0.000000,0.000000,0.000000,0.000000,0.000000
14439755.000000,-0.260993,0.559796,0.330648,-1.478574,-0.195305,2.007209,0.108837,-0.006061,0.519883,-0.104612,-0.570634,-0.214456,1.005614,0.124042,0.375715,-43.896748,6.460678,19.316282,0.261320,1.747848,0.114303,0.000000,0.000000,0.000000,0.000000,0.000000,0.000000
14439756.000000,-0.260993,0.560311,0.330542,-1.479116,-0.195519,2.008218,0.108970,-0.003135,0.514994,-0.104575,-0.557550,-0.212454,1.006370,0.127277,0.328107,-43.749958,6.536057,19.042540,0.261320,1.741439,0.074935,0.000000,0.000000,0.000000,0.000000,0.000000,0.000000
14439757.000000,-0.260998,0.560828,0.330435,-1.479659,-0.195722,2.009213,0.109090,-0.006496,0.520160,-0.104171,-0.555260,-0.203387,1.004880,0.129334,0.375715,-43.650776,6.583664,18.919554,0.178007,1.741439,0.153671,0.000000,0.000000,0.000000,0.000000,0.000000,0.000000
14439758.000000,-0.261005,0.561351,0.330337,-1.480197,-0.195929,2.010222,0.109224,-0.006472,0.522344,-0.097935,-0.550354,-0.207423,0.996786,0.131721,0.451093,-43.626972,6.512253,18.796568,0.141385,1.793624,0.107894,0.000000,0.000000,0.000000,0.000000,0.000000,0.000000
14439759.000000,-0.261002,0.561876,0.330241,-1.480740,-0.196137,2.011241,0.109353,-0.004041,0.519265,-0.093044,-0.544390,-0.210112,1.001701,0.130491,0.427289,-43.674580,6.413071,18.848143,0.112089,1.825668,0.140853,0.000000,0.000000,0.000000,0.000000,0.000000,0.000000
14439760.000000,-0.261005,0.562405,0.330151,-1.481269,-0.196345,2.012244,0.109483,-0.004021,0.525476,-0.091583,-0.538774,-0.208780,1.005910,0.132083,0.474897,-43.821369,6.266281,18.871946,0.088285,1.844894,0.114303,0.000000,0.000000,0.000000,0.000000,0.000000,0.000000
14439761.000000,-0.261014,0.562949,0.330052,-1.481810,-0.196558,2.013252,0.109609,-0.005810,0.531407,-0.093937,-0.537361,-0.208957,1.005838,0.130335,0.601850,-44.091145,6.266281,19.094114,0.105680,1.890670,0.140853,0.000000,0.000000,0.000000,0.000000,0.000000,0.000000
14439762.000000,-0.261015,0.563484,0.329959,-1.482341,-0.196766,2.014247,0.109747,-0.005106,0.539350,-0.095317,-0.534350,-0.205105,1.007456,0.132833,0.649457,-44.337116,6.242477,19.340086,0.135892,1.838485,0.087753,0.000000,0.000000,0.000000,0.000000,0.000000,0.000000
14439763.000000,-0.261019,0.564028,0.329869,-1.482894,-0.196975,2.015255,0.109870,-0.005814,0.543395,-0.092541,-0.541765,-0.206776,1.003012,0.129838,0.748639,-44.531513,6.190903,19.736814,0.171598,1.806442,0.160079,0.000000,0.000000,0.000000,0.000000,0.000000,0.000000
14439764.000000,-0.261018,0.564568,0.329783,-1.483444,-0.197184,2.016255,0.110005,-0.003943,0.537796,-0.089517,-0.542886,-0.207765,0.989948,0.131091,0.748639,-44.630695,6.095688,20.105772,0.195402,1.884261,0.140853,0.000000,0.000000,0.000000,0.000000,0.000000,0.000000
14439765.000000,-0.261023,0.565107,0.329701,-1.483991,-0.197398,2.017235,0.110138,-0.004443,0.538575,-0.089769,-0.548831,-0.208209,0.988429,0.131095,0.824018,-44.777485,5.972702,20.427122,0.213712,1.988631,0.120712,0.000000,0.000000,0.000000,0.000000,0.000000,0.000000
14439766.000000,-0.261020,0.565650,0.329619,-1.484546,-0.197609,2.018219,0.110269,-0.001793,0.540866,-0.086756,-0.551126,-0.205893,0.981850,0.131830,0.772443,-44.900471,5.849716,20.724669,0.178007,2.092086,0.107894,0.000000,0.000000,0.000000,0.000000,0.000000,0.000000
14439767.000000,-0.261016,0.566202,0.329541,-1.485091,-0.197817,2.019177,0.110398,-0.000110,0.542691,-0.084884,-0.556583,-0.204930,0.982816,0.131664,0.724836,-45.118671,5.750534,20.998411,0.141385,2.235824,0.114303,0.000000,0.000000,0.000000,0.000000,0.000000,0.000000
14439768.000000,-0.261010,0.566748,0.329464,-1.485649,-0.198023,2.020165,0.110524,0.001112,0.546241,-0.083445,-0.557889,-0.203675,0.971968,0.130874,0.673261,-45.317036,5.627548,21.291990,0.088285,2.163497,0.140853,0.000000,0.000000,0.000000,0.000000,0.000000,0.000000
14439769.000000,-0.260999,0.567296,0.329390,-1.486212,-0.198228,2.021158,0.110658,0.003602,0.549833,-0.082246,-0.557904,-0.202975,0.971598,0.132193,0.550275,-45.463825,5.504562,21.565733,0.040677,2.092086,0.107894,0.000000,0.000000,0.000000,0.000000,0.000000,0.000000
14439770.000000,-0.260998,0.567837,0.329309,-1.486767,-0.198441,2.022132,0.110779,0.001833,0.546112,-0.083875,-0.556571,-0.206151,0.970995,0.130645,0.574079,-45.559040,5.480759,21.887083,0.088285,2.060043,0.147262,0.000000,0.000000,0.000000,0.000000,0.000000,0.000000
14439771.000000,-0.260985,0.568388,0.329227,-1.487325,-0.198667,2.023112,0.110915,0.006675,0.548346,-0.082721,-0.555415,-0.213833,0.973137,0.128781,0.474897,-45.610615,5.504562,22.085447,0.171598,2.072860,0.081344,0.000000,0.000000,0.000000,0.000000,0.000000,0.000000
14439772.000000,-0.260977,0.568925,0.329143,-1.487889,-0.198897,2.024089,0.111042,0.007870,0.545443,-0.081732,-0.557577,-0.220430,0.973336,0.127745,0.474897,-45.440022,5.528366,22.256041,0.303434,2.150680,0.127120,0.000000,0.000000,0.000000,0.000000,0.000000,0.000000
14439773.000000,-0.260973,0.569447,0.329066,-1.488445,-0.199126,2.025047,0.111167,0.007048,0.534887,-0.077140,-0.553842,-0.224379,0.964640,0.127086,0.550275,-45.170246,5.528366,22.454405,0.386747,2.209274,0.173812,0.000000,0.000000,0.000000,0.000000,0.000000,0.000000
14439774.000000,-0.260956,0.569974,0.328989,-1.489003,-0.199342,2.026033,0.111312,0.010225,0.529427,-0.076190,-0.550997,-0.222931,0.963930,0.130958,0.474897,-44.900471,5.504562,22.577391,0.356534,2.157089,0.100570,0.000000,0.000000,0.000000,0.000000,0.000000,0.000000
14439775.000000,-0.260931,0.570499,0.328910,-1.489551,-0.199552,2.027003,0.111438,0.012727,0.533748,-0.079287,-0.552572,-0.220842,0.964582,0.133085,0.252729,-44.777485,5.504562,22.652769,0.285123,2.144271,0.153671,0.000000,0.000000,0.000000,0.000000,0.000000,0.000000
14439776.000000,-0.260912,0.571026,0.328835,-1.490095,-0.199767,2.027976,0.111576,0.015002,0.528068,-0.076719,-0.545355,-0.213494,0.968764,0.134667,0.129743,-44.555317,5.433151,22.628965,0.189908,2.163497,0.107894,0.000000,0.000000,0.000000,0.000000,0.000000,0.000000
14439777.000000,-0.260887,0.571559,0.328757,-1.490639,-0.199985,2.028944,0.111711,0.018986,0.528573,-0.075893,-0.543043,-0.216630,0.969519,0.133137,-0.092425,-44.384724,5.405380,22.605162,0.093778,2.248641,0.100570,0.000000,0.000000,0.000000,0.000000,0.000000,0.000000
14439778.000000,-0.260871,0.572089,0.328677,-1.491173,-0.200213,2.029892,0.111842,0.020230,0.535235,-0.076624,-0.542359,-0.217652,0.962729,0.133042,-0.116229,-44.360920,5.433151,22.605162,0.171598,2.397872,0.094161,0.000000,0.000000,0.000000,0.000000,0.000000,0.000000
14439779.000000,-0.260853,0.572611,0.328596,-1.491717,-0.200440,2.030867,0.111969,0.019466,0.523902,-0.079904,-0.537277,-0.221674,0.960178,0.130430,-0.191607,-44.091145,5.456955,22.728148,0.231107,2.443649,0.153671,0.000000,0.000000,0.000000,0.000000,0.000000,0.000000
14439780.000000,-0.260833,0.573130,0.328511,-1.492259,-0.200664,2.031841,0.112108,0.019550,0.535947,-0.083099,-0.537182,-0.224648,0.983383,0.131909,-0.290789,-43.849140,5.504562,22.950315,0.285123,2.339278,0.107894,0.000000,0.000000,0.000000,0.000000,0.000000,0.000000
14439781.000000,-0.260813,0.573651,0.328434,-1.492798,-0.200888,2.032826,0.112236,0.019537,0.533339,-0.080050,-0.538463,-0.226306,0.988989,0.131039,-0.389971,-43.626972,5.456955,23.120909,0.327238,2.196456,0.133529,0.000000,0.000000,0.000000,0.000000,0.000000,0.000000
14439782.000000,-0.260791,0.574195,0.328354,-1.493328,-0.201122,2.033800,0.112369,0.022680,0.529742,-0.078936,-0.529649,-0.231026,0.978548,0.130968,-0.489153,-43.626972,5.456955,23.172483,0.339139,2.157089,0.133529,0.000000,0.000000,0.000000,0.000000,0.000000,0.000000
14439783.000000,-0.260766,0.574738,0.328283,-1.493850,-0.201357,2.034745,0.112505,0.026132,0.536970,-0.075221,-0.525175,-0.234574,0.970000,0.131984,-0.635943,-43.773762,5.333969,23.271666,0.344633,2.274276,0.114303,0.000000,0.000000,0.000000,0.000000,0.000000,0.000000
14439784.000000,-0.260750,0.575280,0.328214,-1.494363,-0.201588,2.035701,0.112637,0.022078,0.539832,-0.069451,-0.520620,-0.235007,0.962428,0.130641,-0.635943,-43.872944,5.210983,23.247862,0.308927,2.391464,0.133529,0.000000,0.000000,0.000000,0.000000,0.000000,0.000000
14439785.000000,-0.260722,0.575827,0.328136,-1.494870,-0.201818,2.036650,0.112775,0.021605,0.535974,-0.074056,-0.526439,-0.232348,0.957512,0.132553,-0.735125,-43.968159,5.187180,23.271666,0.297025,2.417098,0.094161,0.000000,0.000000,0.000000,0.000000,0.000000,0.000000
14439786.000000,-0.260698,0.576367,0.328063,-1.495384,-0.202048,2.037624,0.112903,0.023696,0.541034,-0.075584,-0.523267,-0.230659,0.962436,0.130114,-0.810504,-43.995930,5.087997,23.394651,0.291532,2.345687,0.153671,0.000000,0.000000,0.000000,0.000000,0.000000,0.000000
14439787.000000,-0.260683,0.576901,0.327989,-1.495897,-0.202280,2.038595,0.113048,0.021104,0.541635,-0.074774,-0.517632,-0.232664,0.953571,0.132928,-0.711321,-43.944355,5.040390,23.541441,0.249418,2.293502,0.087753,0.000000,0.000000,0.000000,0.000000,0.000000,0.000000
14439788.000000,-0.260662,0.577425,0.327916,-1.496414,-0.202515,2.039540,0.113184,0.022610,0.533680,-0.074084,-0.514559,-0.232423,0.949638,0.136724,-0.735125,-43.726154,4.988815,23.716002,0.279630,2.345687,0.081344,0.000000,0.000000,0.000000,0.000000,0.000000,0.000000
14439789.000000,-0.260646,0.577968,0.327845,-1.496915,-0.202756,2.040510,0.113310,0.018835,0.537465,-0.071794,-0.509832,-0.233625,0.954817,0.132790,-0.687518,-43.650776,4.865829,23.668394,0.369352,2.307235,0.153671,0.000000,0.000000,0.000000,0.000000,0.000000,0.000000
14439790.000000,-0.260629,0.578508,0.327764,-1.497417,-0.202988,2.041477,0.113451,0.018641,0.539850,-0.073197,-0.506517,-0.239849,0.959923,0.135045,-0.612139,-43.555561,4.865829,23.593016,0.381254,2.339278,0.094161,0.000000,0.000000,0.000000,0.000000,0.000000,0.000000
14439791.000000,-0.260618,0.579047,0.327697,-1.497901,-0.203217,2.042416,0.113589,0.014368,0.536418,-0.070088,-0.500309,-0.235875,0.956368,0.134402,-0.489153,-43.503986,4.695236,23.370848,0.374845,2.462875,0.094161,0.000000,0.000000,0.000000,0.000000,0.000000,0.000000
14439792.000000,-0.260597,0.579588,0.327625,-1.498387,-0.203445,2.043388,0.113728,0.014285,0.536875,-0.072584,-0.490783,-0.231216,0.949731,0.138478,-0.489153,-43.357197,4.596054,23.220091,0.320829,2.385055,0.087753,0.000000,0.000000,0.000000,0.000000,0.000000,0.000000
14439793.000000,-0.260584,0.580114,0.327554,-1.498857,-0.203666,2.044360,0.113862,0.014908,0.534238,-0.072219,-0.482569,-0.226771,0.958616,0.135208,-0.389971,-43.186604,4.524643,22.974119,0.231107,2.222091,0.133529,0.000000,0.000000,0.000000,0.000000,0.000000,0.000000
14439794.000000,-0.260576,0.580652,0.327484,-1.499332,-0.203888,2.045344,0.114008,0.010534,0.529250,-0.072364,-0.483841,-0.224759,0.960734,0.135932,-0.215411,-43.016010,4.473068,22.751951,0.183500,2.072860,0.094161,0.000000,0.000000,0.000000,0.000000,0.000000,0.000000
14439795.000000,-0.260562,0.581196,0.327406,-1.499803,-0.204115,2.046320,0.114143,0.009969,0.532197,-0.074320,-0.475715,-0.225685,0.965997,0.133067,-0.144000,-42.845417,4.500839,22.553587,0.189908,2.053634,0.140853,0.000000,0.000000,0.000000,0.000000,0.000000,0.000000
14439796.000000,-0.260554,0.581712,0.327332,-1.500255,-0.204346,2.047270,0.114280,0.007707,0.529494,-0.074212,-0.470575,-0.224393,0.961614,0.136544,0.006757,-42.452656,4.473068,22.256041,0.273221,2.150680,0.133529,0.000000,0.000000,0.000000,0.000000,0.000000,0.000000
14439797.000000,-0.260545,0.582234,0.327258,-1.500707,-0.204576,2.048229,0.114420,0.006120,0.522948,-0.073429,-0.463428,-0.227277,0.954766,0.140870,0.153547,-42.036091,4.425461,21.986265,0.351041,2.293502,0.114303,0.000000,0.000000,0.000000,0.000000,0.000000,0.000000
14439798.000000,-0.260538,0.582757,0.327180,-1.501149,-0.204801,2.049197,0.114556,0.005568,0.524608,-0.074732,-0.456756,-0.225033,0.975625,0.137659,0.276533,-41.694904,4.449265,21.613340,0.303434,2.287093,0.140853,0.000000,0.000000,0.000000,0.000000,0.000000,0.000000
14439799.000000,-0.260523,0.583270,0.327105,-1.501598,-0.205028,2.050190,0.114694,0.007376,0.520456,-0.074546,-0.453203,-0.227619,0.978057,0.142040,0.304304,-41.254536,4.425461,21.418943,0.243009,2.150680,0.094161,0.000000,0.000000,0.000000,0.000000,0.000000,0.000000
14439800.000000,-0.260510,0.583788,0.327035,-1.502037,-0.205243,2.051188,0.114830,0.008588,0.514504,-0.072585,-0.448846,-0.218357,0.987282,0.138005,0.328107,-40.861774,4.326279,21.169004,0.129484,2.027084,0.127120,0.000000,0.000000,0.000000,0.000000,0.000000,0.000000
14439801.000000,-0.260491,0.584305,0.326946,-1.502458,-0.205453,2.052159,0.114969,0.010530,0.517092,-0.077111,-0.441625,-0.212953,0.978098,0.137550,0.304304,-40.591999,4.473068,20.871458,0.046171,1.968490,0.100570,0.000000,0.000000,0.000000,0.000000,0.000000,0.000000
14439804.000000,-0.260454,0.585830,0.326694,-1.503692,-0.206132,2.055059,0.115386,0.014078,0.505259,-0.086909,-0.418806,-0.221999,0.966564,0.134687,0.474897,-39.247089,4.647629,20.133543,0.195402,2.150680,0.094161,0.000000,0.000000,0.000000,0.000000,0.000000,0.000000
14439805.000000,-0.260436,0.586324,0.326606,-1.504094,-0.206365,2.056035,0.115524,0.013888,0.501672,-0.089021,-0.415761,-0.224050,0.961612,0.133464,0.474897,-38.632160,4.742844,19.883604,0.225614,2.092086,0.100570,0.000000,0.000000,0.000000,0.000000,0.000000,0.000000
14439806.000000,-0.260416,0.586834,0.326517,-1.504481,-0.206580,2.056996,0.115663,0.017950,0.500548,-0.089638,-0.407791,-0.221608,0.960439,0.137971,0.427289,-38.290974,4.794418,19.613829,0.147794,2.014266,0.074935,0.000000,0.000000,0.000000,0.000000,0.000000,0.000000
14439807.000000,-0.260397,0.587347,0.326435,-1.504869,-0.206800,2.057970,0.115793,0.019738,0.503557,-0.087468,-0.402654,-0.220933,0.961249,0.133981,0.427289,-38.021198,4.742844,19.391661,0.105680,2.007858,0.140853,0.000000,0.000000,0.000000,0.000000,0.000000,0.000000
14439808.000000,-0.260371,0.587876,0.326344,-1.505252,-0.207024,2.058948,0.115936,0.023470,0.506367,-0.089230,-0.397252,-0.230030,0.964763,0.139663,0.328107,-38.045002,4.818222,19.070311,0.093778,1.930038,0.107894,0.000000,0.000000,0.000000,0.000000,0.000000,0.000000
14439809.000000,-0.260349,0.588398,0.326258,-1.505629,-0.207246,2.059911,0.116080,0.021099,0.511800,-0.086727,-0.394501,-0.228154,0.971119,0.138487,0.304304,-38.096577,4.865829,18.820372,0.064481,1.865035,0.087753,0.000000,0.000000,0.000000,0.000000,0.000000,0.000000
14439810.000000,-0.260327,0.588917,0.326177,-1.506009,-0.207480,2.060874,0.116224,0.021941,0.511309,-0.084887,-0.386175,-0.223721,0.964461,0.140522,0.304304,-38.045002,4.794418,18.625975,0.088285,1.909896,0.107894,0.000000,0.000000,0.000000,0.000000,0.000000,0.000000
14439811.000000,-0.260304,0.589429,0.326078,-1.506384,-0.207706,2.061840,0.116372,0.023281,0.511038,-0.089158,-0.387526,-0.225987,0.958524,0.139433,0.276533,-37.949787,4.941208,18.574400,0.129484,1.806442,0.081344,0.000000,0.000000,0.000000,0.000000,0.000000,0.000000
14439812.000000,-0.260283,0.589949,0.325985,-1.506751,-0.207935,2.062827,0.116507,0.023539,0.514215,-0.089748,-0.379523,-0.227571,0.961961,0.135626,0.276533,-37.727619,4.988815,18.427610,0.183500,1.721298,0.133529,0.000000,0.000000,0.000000,0.000000,0.000000,0.000000
14439813.000000,-0.260256,0.590468,0.325892,-1.507120,-0.208166,2.063800,0.116652,0.025513,0.516643,-0.090336,-0.379572,-0.223080,0.956944,0.139081,0.205121,-37.509418,5.040390,18.399839,0.207303,1.727706,0.114303,0.000000,0.000000,0.000000,0.000000,0.000000,0.000000
14439814.000000,-0.260233,0.590983,0.325808,-1.507481,-0.208394,2.064764,0.116797,0.025230,0.517528,-0.090838,-0.373406,-0.222916,0.959647,0.137917,0.205121,-37.362629,4.965012,18.253050,0.189908,1.702071,0.100570,0.000000,0.000000,0.000000,0.000000,0.000000,0.000000
14439815.000000,-0.260202,0.591519,0.325721,-1.507850,-0.208626,2.065720,0.116941,0.024243,0.522166,-0.087550,-0.366877,-0.220799,0.946594,0.136686,0.105939,-37.311054,4.865829,18.328428,0.129484,1.760665,0.094161,0.000000,0.000000,0.000000,0.000000,0.000000,0.000000
14439816.000000,-0.260172,0.592054,0.325637,-1.508201,-0.208861,2.066666,0.117083,0.026526,0.537455,-0.088228,-0.368632,-0.222680,0.957438,0.135596,0.006757,-37.457844,4.770615,18.229246,0.141385,1.825668,0.087753,0.000000,0.000000,0.000000,0.000000,0.000000,0.000000
14439817.000000,-0.260149,0.592599,0.325541,-1.508556,-0.209091,2.067633,0.117218,0.025183,0.536233,-0.089135,-0.366561,-0.221106,0.958648,0.133286,0.030561,-37.628437,4.794418,18.153868,0.076383,1.851302,0.127120,0.000000,0.000000,0.000000,0.000000,0.000000,0.000000
14439818.000000,-0.260120,0.593157,0.325460,-1.508914,-0.209322,2.068594,0.117371,0.026110,0.543642,-0.088733,-0.368156,-0.221854,0.958118,0.139785,-0.017047,-37.802998,4.647629,18.078489,0.058073,1.897079,0.061202,0.000000,0.000000,0.000000,0.000000,0.000000,0.000000
14439819.000000,-0.260094,0.593704,0.325377,-1.509265,-0.209552,2.069540,0.117506,0.025099,0.545435,-0.089255,-0.362326,-0.222176,0.957981,0.135712,0.006757,-37.922016,4.524643,17.983274,0.027860,1.949264,0.114303,0.000000,0.000000,0.000000,0.000000,0.000000,0.000000
14439820.000000,-0.260061,0.594255,0.325283,-1.509615,-0.209789,2.070507,0.117653,0.026737,0.544251,-0.089894,-0.358057,-0.222304,0.947990,0.135729,-0.068621,-37.949787,4.548447,17.907896,0.015958,1.851302,0.081344,0.000000,0.000000,0.000000,0.000000,0.000000,0.000000
14439821.000000,-0.260037,0.594816,0.325192,-1.509956,-0.210030,2.071487,0.117794,0.024333,0.548905,-0.092349,-0.361909,-0.229899,0.952091,0.134057,0.006757,-37.922016,4.548447,17.709532,0.064481,1.708480,0.100570,0.000000,0.000000,0.000000,0.000000,0.000000,0.000000
14439822.000000,-0.260014,0.595378,0.325111,-1.510306,-0.210272,2.072440,0.117934,0.022828,0.554869,-0.089186,-0.357669,-0.231145,0.956229,0.133282,0.078168,-38.120380,4.449265,17.610350,0.123990,1.662704,0.107894,0.000000,0.000000,0.000000,0.000000,0.000000,0.000000
14439823.000000,-0.259991,0.595945,0.325030,-1.510654,-0.210510,2.073397,0.118075,0.022322,0.557137,-0.087447,-0.352411,-0.230448,0.955318,0.137113,0.129743,-38.290974,4.377853,17.435789,0.147794,1.670028,0.120712,0.000000,0.000000,0.000000,0.000000,0.000000,0.000000
14439824.000000,-0.259964,0.596513,0.324948,-1.511002,-0.210742,2.074333,0.118211,0.022726,0.562269,-0.085442,-0.349039,-0.234097,0.947888,0.139592,0.153547,-38.437763,4.302475,17.388182,0.154203,1.676437,0.127120,0.000000,0.000000,0.000000,0.000000,0.000000,0.000000
14439825.000000,-0.259936,0.597084,0.324862,-1.511344,-0.210977,2.075296,0.118353,0.023441,0.563280,-0.085840,-0.347039,-0.237872,0.944751,0.138704,0.153547,-38.608356,4.278671,17.241392,0.076383,1.597701,0.100570,0.000000,0.000000,0.000000,0.000000,0.000000,0.000000
14439826.000000,-0.259907,0.597658,0.324774,-1.511684,-0.211208,2.076259,0.118489,0.027114,0.566180,-0.086090,-0.343669,-0.240761,0.946548,0.139840,0.153547,-38.731342,4.254868,17.142210,0.015958,1.546432,0.147262,0.000000,0.000000,0.000000,0.000000,0.000000,0.000000
14439827.000000,-0.259880,0.598237,0.324691,-1.512022,-0.211439,2.077199,0.118642,0.029210,0.570229,-0.083041,-0.345179,-0.240546,0.949378,0.146048,0.177350,-38.925739,4.227097,17.090635,-0.025240,1.565658,0.061202,0.000000,0.000000,0.000000,0.000000,0.000000,0.000000
14439828.000000,-0.259858,0.598817,0.324603,-1.512368,-0.211675,2.078137,0.118785,0.026022,0.569037,-0.084322,-0.344598,-0.237124,0.947220,0.145621,0.276533,-39.001118,4.227097,16.991453,-0.019747,1.649886,0.094161,0.000000,0.000000,0.000000,0.000000,0.000000,0.000000
14439829.000000,-0.259831,0.599390,0.324510,-1.512710,-0.211905,2.079062,0.118930,0.024873,0.572712,-0.086675,-0.341891,-0.239762,0.940242,0.146050,0.328107,-39.072529,4.278671,17.043028,-0.007845,1.708480,0.120712,0.000000,0.000000,0.000000,0.000000,0.000000,0.000000
14439830.000000,-0.259805,0.599984,0.324416,-1.513042,-0.212152,2.080020,0.119077,0.027142,0.574705,-0.088717,-0.336927,-0.243743,0.945062,0.147823,0.375715,-39.247089,4.350082,16.844664,0.064481,1.611434,0.107894,0.000000,0.000000,0.000000,0.000000,0.000000,0.000000
14439831.000000,-0.259778,0.600590,0.324323,-1.513388,-0.212392,2.080971,0.119223,0.026254,0.585524,-0.089118,-0.339305,-0.242779,0.945307,0.143258,0.403486,-39.564472,4.377853,16.892271,0.034269,1.584884,0.120712,0.000000,0.000000,0.000000,0.000000,0.000000,0.000000
14439832.000000,-0.259748,0.601174,0.324233,-1.513727,-0.212627,2.081908,0.119374,0.028750,0.589343,-0.089328,-0.342192,-0.238937,0.950151,0.144867,0.427289,-39.711262,4.401657,16.868467,0.046171,1.584884,0.094161,0.000000,0.000000,0.000000,0.000000,0.000000,0.000000
14439833.000000,-0.259722,0.601772,0.324135,-1.514067,-0.212864,2.082858,0.119516,0.026904,0.589174,-0.093522,-0.340182,-0.235735,0.939293,0.141298,0.474897,-39.881855,4.473068,16.820860,0.064481,1.532699,0.100570,0.000000,0.000000,0.000000,0.000000,0.000000,0.000000
14439834.000000,-0.259697,0.602367,0.324035,-1.514400,-0.213086,2.083802,0.119664,0.025490,0.589744,-0.094263,-0.345362,-0.235898,0.961929,0.139829,0.526471,-40.052448,4.572250,16.844664,0.004056,1.454879,0.081344,0.000000,0.000000,0.000000,0.000000,0.000000,0.000000
14439835.000000,-0.259668,0.602961,0.323935,-1.514736,-0.213329,2.084745,0.119808,0.028156,0.592916,-0.097347,-0.339147,-0.237733,0.952069,0.141133,0.550275,-40.076252,4.647629,16.769285,-0.013339,1.494247,0.114303,0.000000,0.000000,0.000000,0.000000,0.000000,0.000000
14439836.000000,-0.259640,0.603559,0.323828,-1.515074,-0.213574,2.085690,0.119960,0.030315,0.589974,-0.097558,-0.337318,-0.239716,0.953730,0.144560,0.574079,-40.052448,4.770615,16.820860,-0.013339,1.494247,0.081344,0.000000,0.000000,0.000000,0.000000,0.000000,0.000000
14439837.000000,-0.259611,0.604149,0.323721,-1.515403,-0.213818,2.086613,0.120104,0.028539,0.586829,-0.100769,-0.338774,-0.237433,0.944049,0.139598,0.601850,-40.052448,4.893600,16.721678,0.010465,1.578475,0.127120,0.000000,0.000000,0.000000,0.000000,0.000000,0.000000
14439838.000000,-0.259581,0.604758,0.323610,-1.515743,-0.214062,2.087540,0.120257,0.027256,0.592541,-0.106560,-0.337992,-0.238792,0.933124,0.139284,0.625654,-40.127827,5.040390,16.820860,0.015958,1.727706,0.087753,0.000000,0.000000,0.000000,0.000000,0.000000,0.000000
14439839.000000,-0.259552,0.605358,0.323504,-1.516069,-0.214306,2.088488,0.120400,0.026366,0.592019,-0.105646,-0.336036,-0.242405,0.937882,0.135296,0.649457,-40.127827,5.087997,16.844664,0.069974,1.689254,0.133529,0.000000,0.000000,0.000000,0.000000,0.000000,0.000000
14439840.000000,-0.259523,0.605943,0.323393,-1.516408,-0.214554,2.089426,0.120546,0.028870,0.592534,-0.105681,-0.332730,-0.246304,0.938404,0.134921,0.673261,-40.028645,5.187180,16.943846,0.034269,1.597701,0.127120,0.000000,0.000000,0.000000,0.000000,0.000000,0.000000
14439841.000000,-0.259491,0.606546,0.323285,-1.516748,-0.214812,2.090361,0.120700,0.028064,0.590472,-0.108598,-0.330951,-0.245466,0.932324,0.140549,0.673261,-39.981037,5.258591,17.090635,0.022367,1.605026,0.074935,0.000000,0.000000,0.000000,0.000000,0.000000,0.000000
14439842.000000,-0.259463,0.607150,0.323175,-1.517076,-0.215056,2.091284,0.120840,0.029395,0.598070,-0.107952,-0.331767,-0.244558,0.925204,0.145465,0.724836,-40.004841,5.333969,17.043028,-0.001437,1.630660,0.114303,0.000000,0.000000,0.000000,0.000000,0.000000,0.000000
14439843.000000,-0.259433,0.607748,0.323061,-1.517411,-0.215301,2.092207,0.120991,0.031021,0.595982,-0.111110,-0.332688,-0.239608,0.922014,0.147922,0.748639,-39.858051,5.433151,17.142210,-0.001437,1.735030,0.087753,0.000000,0.000000,0.000000,0.000000,0.000000,0.000000
14439844.000000,-0.259400,0.608345,0.322944,-1.517739,-0.215553,2.093135,0.121139,0.029210,0.593602,-0.113242,-0.331976,-0.248034,0.921314,0.147511,0.772443,-39.659687,5.528366,17.166014,0.064481,1.773483,0.114303,0.000000,0.000000,0.000000,0.000000,0.000000,0.000000
14439845.000000,-0.259366,0.608940,0.322826,-1.518068,-0.215800,2.094048,0.121293,0.031995,0.592811,-0.115002,-0.329654,-0.251451,0.922978,0.149887,0.748639,-39.489094,5.627548,17.265196,0.058073,1.779891,0.074935,0.000000,0.000000,0.000000,0.000000,0.000000,0.000000
14439846.000000,-0.259332,0.609538,0.322714,-1.518400,-0.216055,2.094970,0.121439,0.030299,0.592667,-0.113211,-0.329890,-0.249427,0.916589,0.149028,0.748639,-39.270893,5.603745,17.340574,0.058073,1.779891,0.100570,0.000000,0.000000,0.000000,0.000000,0.000000,0.000000
14439847.000000,-0.259301,0.610129,0.322596,-1.518730,-0.216306,2.095885,0.121592,0.028513,0.593282,-0.114055,-0.329864,-0.253899,0.919213,0.150873,0.772443,-39.124104,5.651352,17.388182,0.081876,1.779891,0.067611,0.000000,0.000000,0.000000,0.000000,0.000000,0.000000
14439848.000000,-0.259265,0.610727,0.322485,-1.519066,-0.216551,2.096806,0.121734,0.031384,0.591489,-0.113083,-0.329738,-0.250979,0.917050,0.145123,0.748639,-39.024921,5.627548,17.562742,0.076383,1.779891,0.094161,0.000000,0.000000,0.000000,0.000000,0.000000,0.000000
14439849.000000,-0.259233,0.611331,0.322370,-1.519392,-0.216798,2.097726,0.121876,0.028709,0.591563,-0.112984,-0.327071,-0.250258,0.919681,0.145538,0.796247,-38.878132,5.627548,17.634153,0.100187,1.760665,0.114303,0.000000,0.000000,0.000000,0.000000,0.000000,0.000000
14439850.000000,-0.259202,0.611924,0.322256,-1.519726,-0.217049,2.098637,0.122019,0.029853,0.593556,-0.113530,-0.328712,-0.248645,0.918826,0.141759,0.847822,-38.659931,5.651352,17.856321,0.093778,1.721298,0.127120,0.000000,0.000000,0.000000,0.000000,0.000000,0.000000
14439851.000000,-0.259166,0.612509,0.322143,-1.520056,-0.217306,2.099549,0.122171,0.031946,0.590832,-0.112534,-0.326989,-0.243962,0.916102,0.144936,0.847822,-38.290974,5.627548,17.983274,0.135892,1.786300,0.081344,0.000000,0.000000,0.000000,0.000000,0.000000,0.000000
14439852.000000,-0.259135,0.613096,0.322030,-1.520386,-0.217556,2.100440,0.122319,0.032950,0.590477,-0.114615,-0.337741,-0.243806,0.933675,0.145234,0.871625,-38.068806,5.603745,18.130064,0.129484,1.871444,0.114303,0.000000,0.000000,0.000000,0.000000,0.000000,0.000000
14439853.000000,-0.259102,0.613700,0.321921,-1.520714,-0.217801,2.101350,0.122463,0.033635,0.590576,-0.112534,-0.332202,-0.243329,0.925980,0.141515,0.895429,-38.021198,5.528366,18.177671,0.112089,1.909896,0.127120,0.000000,0.000000,0.000000,0.000000,0.000000,0.000000
14439854.000000,-0.259067,0.614313,0.321811,-1.521039,-0.218040,2.102266,0.122618,0.037000,0.598304,-0.107993,-0.330015,-0.246313,0.914713,0.141078,0.923200,-38.068806,5.456955,18.304625,0.058073,1.930038,0.067611,0.000000,0.000000,0.000000,0.000000,0.000000,0.000000
14439855.000000,-0.259026,0.614916,0.321704,-1.521359,-0.218288,2.103178,0.122760,0.039052,0.602421,-0.105944,-0.326445,-0.250073,0.916645,0.141391,0.847822,-38.144184,5.433151,18.328428,0.034269,1.851302,0.120712,0.000000,0.000000,0.000000,0.000000,0.000000,0.000000
14439856.000000,-0.258996,0.615532,0.321598,-1.521686,-0.218545,2.104108,0.122915,0.036308,0.603727,-0.102878,-0.324907,-0.248370,0.921957,0.141021,0.947004,-38.290974,5.357773,18.427610,0.034269,1.747848,0.067611,0.000000,0.000000,0.000000,0.000000,0.000000,0.000000
14439857.000000,-0.258960,0.616157,0.321496,-1.522015,-0.218802,2.105025,0.123060,0.036821,0.605937,-0.103545,-0.326023,-0.257464,0.915120,0.142501,0.947004,-38.362385,5.258591,18.475218,0.088285,1.708480,0.094161,0.000000,0.000000,0.000000,0.000000,0.000000,0.000000
14439858.000000,-0.258924,0.616759,0.321387,-1.522340,-0.219062,2.105925,0.123200,0.036517,0.606974,-0.106362,-0.323897,-0.257351,0.909609,0.138627,0.970807,-38.290974,5.258591,18.526793,0.171598,1.786300,0.114303,0.000000,0.000000,0.000000,0.000000,0.000000,0.000000
14439859.000000,-0.258880,0.617367,0.321278,-1.522657,-0.219321,2.106832,0.123350,0.038675,0.606846,-0.107579,-0.319535,-0.260728,0.903475,0.137775,0.895429,-38.215595,5.234787,18.475218,0.231107,1.871444,0.087753,0.000000,0.000000,0.000000,0.000000,0.000000,0.000000
14439860.000000,-0.258841,0.617971,0.321174,-1.522975,-0.219574,2.107726,0.123494,0.039682,0.602056,-0.108139,-0.317638,-0.258980,0.906313,0.139966,0.847822,-38.167988,5.187180,18.451414,0.171598,1.955673,0.120712,0.000000,0.000000,0.000000,0.000000,0.000000,0.000000
14439861.000000,-0.258800,0.618587,0.321069,-1.523300,-0.219824,2.108642,0.123651,0.039536,0.605468,-0.105274,-0.317893,-0.256095,0.906594,0.144710,0.824018,-38.144184,5.135605,18.499022,0.081876,1.968490,0.067611,0.000000,0.000000,0.000000,0.000000,0.000000,0.000000
14439862.000000,-0.258752,0.619216,0.320971,-1.523618,-0.220076,2.109572,0.123794,0.041965,0.610525,-0.098393,-0.321648,-0.257191,0.900444,0.138852,0.697065,-38.243366,5.012619,18.427610,0.052579,1.871444,0.133529,0.000000,0.000000,0.000000,0.000000,0.000000,0.000000
14439863.000000,-0.258708,0.619834,0.320866,-1.523941,-0.220318,2.110488,0.123951,0.041707,0.615078,-0.102451,-0.318520,-0.252299,0.906196,0.144839,0.649457,-38.362385,5.012619,18.499022,-0.001437,1.767074,0.061202,0.000000,0.000000,0.000000,0.000000,0.000000,0.000000
14439864.000000,-0.258670,0.620453,0.320763,-1.524252,-0.220571,2.111402,0.124092,0.042347,0.610029,-0.104052,-0.313082,-0.250501,0.907098,0.143698,0.697065,-38.314777,4.965012,18.475218,0.004056,1.806442,0.127120,0.000000,0.000000,0.000000,0.000000,0.000000,0.000000
14439865.000000,-0.258625,0.621069,0.320662,-1.524561,-0.220839,2.112287,0.124249,0.041657,0.609469,-0.102946,-0.312936,-0.257847,0.914011,0.148441,0.673261,-38.215595,4.941208,18.451414,0.105680,1.858627,0.048385,0.000000,0.000000,0.000000,0.000000,0.000000,0.000000
14439866.000000,-0.258574,0.621697,0.320557,-1.524865,-0.221108,2.113186,0.124387,0.043277,0.614329,-0.102617,-0.307536,-0.256589,0.909542,0.141409,0.550275,-38.191792,4.941208,18.328428,0.171598,1.936446,0.120712,0.000000,0.000000,0.000000,0.000000,0.000000,0.000000
14439867.000000,-0.258528,0.622324,0.320452,-1.525171,-0.221367,2.114100,0.124538,0.045225,0.616863,-0.105445,-0.307699,-0.257710,0.905254,0.144838,0.526471,-38.144184,4.941208,18.253050,0.166105,1.897079,0.087753,0.000000,0.000000,0.000000,0.000000,0.000000,0.000000
14439868.000000,-0.258473,0.622950,0.320347,-1.525475,-0.221614,2.114997,0.124689,0.049127,0.619282,-0.104675,-0.303258,-0.256312,0.914098,0.149230,0.403486,-38.215595,4.965012,18.253050,0.088285,1.812850,0.094161,0.000000,0.000000,0.000000,0.000000,0.000000,0.000000
14439869.000000,-0.258419,0.623598,0.320243,-1.525771,-0.221877,2.115911,0.124838,0.048144,0.620612,-0.099277,-0.297694,-0.261882,0.903957,0.149668,0.304304,-38.461567,4.917404,18.177671,0.076383,1.714889,0.094161,0.000000,0.000000,0.000000,0.000000,0.000000,0.000000
14439870.000000,-0.258367,0.624256,0.320143,-1.526064,-0.222145,2.116811,0.124993,0.049439,0.631113,-0.101640,-0.302988,-0.258272,0.906059,0.151061,0.252729,-38.707539,4.893600,18.153868,0.088285,1.676437,0.067611,0.000000,0.000000,0.000000,0.000000,0.000000,0.000000
14439871.000000,-0.258314,0.624899,0.320043,-1.526359,-0.222409,2.117708,0.125135,0.050894,0.636970,-0.100310,-0.298704,-0.259253,0.900278,0.153703,0.177350,-38.878132,4.842026,18.106260,0.076383,1.721298,0.107894,0.000000,0.000000,0.000000,0.000000,0.000000,0.000000
14439872.000000,-0.258266,0.625533,0.319931,-1.526656,-0.222676,2.118610,0.125290,0.050497,0.634575,-0.106016,-0.293683,-0.259033,0.902835,0.153831,0.177350,-38.806721,4.941208,18.130064,0.166105,1.773483,0.081344,0.000000,0.000000,0.000000,0.000000,0.000000,0.000000
14439873.000000,-0.258214,0.626165,0.319827,-1.526954,-0.222935,2.119503,0.125436,0.050698,0.629382,-0.107329,-0.296475,-0.265876,0.900366,0.155945,0.153547,-38.778950,4.917404,18.153868,0.195402,1.754256,0.107894,0.000000,0.000000,0.000000,0.000000,0.000000,0.000000
14439874.000000,-0.258162,0.626814,0.319725,-1.527259,-0.223198,2.120405,0.125593,0.050875,0.633218,-0.108059,-0.298751,-0.262971,0.899334,0.156573,0.129743,-38.806721,4.893600,18.328428,0.154203,1.806442,0.061202,0.000000,0.000000,0.000000,0.000000,0.000000,0.000000
14439875.000000,-0.258109,0.627463,0.319615,-1.527551,-0.223462,2.121322,0.125737,0.050563,0.635455,-0.107440,-0.294362,-0.266151,0.902952,0.157485,0.129743,-38.830524,4.941208,18.399839,0.154203,1.767074,0.114303,0.000000,0.000000,0.000000,0.000000,0.000000,0.000000
14439876.000000,-0.258052,0.628109,0.319505,-1.527848,-0.223724,2.122210,0.125889,0.052119,0.640723,-0.106192,-0.295525,-0.263745,0.904983,0.155811,0.054365,-39.001118,4.965012,18.526793,0.105680,1.747848,0.120712,0.000000,0.000000,0.000000,0.000000,0.000000,0.000000
14439877.000000,-0.257998,0.628756,0.319400,-1.528142,-0.223987,2.123115,0.126052,0.054581,0.640271,-0.105861,-0.294689,-0.264141,0.902758,0.160191,0.054365,-39.048725,4.893600,18.598204,0.117582,1.754256,0.087753,0.000000,0.000000,0.000000,0.000000,0.000000,0.000000
14439878.000000,-0.257950,0.629388,0.319295,-1.528435,-0.224252,2.124007,0.126205,0.052145,0.636953,-0.104034,-0.296388,-0.266090,0.898585,0.157236,0.105939,-38.901936,4.865829,18.748960,0.166105,1.767074,0.107894,0.000000,0.000000,0.000000,0.000000,0.000000,0.000000
14439879.000000,-0.257900,0.630037,0.319190,-1.528726,-0.224526,2.124906,0.126359,0.053601,0.639203,-0.105281,-0.295084,-0.267562,0.901273,0.155799,0.153547,-38.806721,4.818222,18.796568,0.237516,1.760665,0.107894,0.000000,0.000000,0.000000,0.000000,0.000000,0.000000
14439880.000000,-0.257846,0.630687,0.319077,-1.529015,-0.224797,2.125802,0.126514,0.053505,0.640521,-0.107398,-0.291412,-0.262781,0.895586,0.158636,0.129743,-38.707539,4.818222,18.871946,0.267728,1.832076,0.120712,0.000000,0.000000,0.000000,0.000000,0.000000,0.000000
14439881.000000,-0.257800,0.631327,0.318969,-1.529287,-0.225052,2.126682,0.126672,0.050421,0.640498,-0.108408,-0.289356,-0.261577,0.889795,0.157766,0.228925,-38.659931,4.794418,18.820372,0.237516,1.942855,0.094161,0.000000,0.000000,0.000000,0.000000,0.000000,0.000000
14439882.000000,-0.257742,0.631980,0.318859,-1.529570,-0.225298,2.127583,0.126823,0.051818,0.639572,-0.109031,-0.286415,-0.253331,0.892597,0.156207,0.177350,-38.659931,4.770615,18.871946,0.147794,1.949264,0.087753,0.000000,0.000000,0.000000,0.000000,0.000000,0.000000
14439883.000000,-0.257687,0.632623,0.318748,-1.529838,-0.225546,2.128479,0.126979,0.053989,0.635906,-0.110213,-0.279950,-0.253128,0.920931,0.156047,0.205121,-38.584553,4.770615,18.848143,0.064481,1.903487,0.054794,0.000000,0.000000,0.000000,0.000000,0.000000,0.000000
14439884.000000,-0.257636,0.633283,0.318643,-1.530104,-0.225806,2.129376,0.127123,0.051858,0.643100,-0.108797,-0.270874,-0.255704,0.904372,0.152879,0.252729,-38.536945,4.671432,18.772764,0.052579,1.884261,0.107894,0.000000,0.000000,0.000000,0.000000,0.000000,0.000000
14439885.000000,-0.257587,0.633930,0.318530,-1.530376,-0.226073,2.130280,0.127281,0.052646,0.642183,-0.111278,-0.268673,-0.255654,0.903839,0.152819,0.328107,-38.267170,4.719040,18.748960,0.117582,1.903487,0.087753,0.000000,0.000000,0.000000,0.000000,0.000000,0.000000
14439886.000000,-0.257543,0.634566,0.318426,-1.530631,-0.226336,2.131161,0.127428,0.052549,0.640540,-0.110792,-0.265079,-0.260944,0.899622,0.152145,0.451093,-38.021198,4.671432,18.625975,0.201810,1.923629,0.094161,0.000000,0.000000,0.000000,0.000000,0.000000,0.000000
14439887.000000,-0.257498,0.635202,0.318316,-1.530884,-0.226591,2.132050,0.127584,0.052603,0.633453,-0.108168,-0.259935,-0.256806,0.891929,0.152962,0.574079,-37.680012,4.671432,18.550596,0.219205,1.897079,0.054794,0.000000,0.000000,0.000000,0.000000,0.000000,0.000000
14439888.000000,-0.257446,0.635848,0.318208,-1.531132,-0.226847,2.132949,0.127729,0.052499,0.628606,-0.110757,-0.260234,-0.256754,0.887289,0.150975,0.574079,-37.457844,4.619858,18.427610,0.178007,1.871444,0.094161,0.000000,0.000000,0.000000,0.000000,0.000000,0.000000
14439889.000000,-0.257387,0.636492,0.318097,-1.531379,-0.227108,2.133829,0.127873,0.053845,0.633627,-0.112187,-0.255678,-0.256132,0.882442,0.150520,0.502668,-37.334858,4.647629,18.304625,0.112089,1.871444,0.107894,0.000000,0.000000,0.000000,0.000000,0.000000,0.000000
14439890.000000,-0.257333,0.637137,0.317984,-1.531625,-0.227366,2.134706,0.128027,0.055824,0.634381,-0.116172,-0.249897,-0.255622,0.880459,0.147509,0.502668,-37.140461,4.671432,18.229246,0.040677,1.909896,0.054794,0.000000,0.000000,0.000000,0.000000,0.000000,0.000000
14439891.000000,-0.257281,0.637769,0.317872,-1.531863,-0.227618,2.135578,0.128164,0.057048,0.634243,-0.111830,-0.244737,-0.252418,0.876783,0.144832,0.526471,-36.846882,4.647629,18.106260,0.015958,1.936446,0.127120,0.000000,0.000000,0.000000,0.000000,0.000000,0.000000
14439892.000000,-0.257235,0.638397,0.317758,-1.532098,-0.227879,2.136469,0.128318,0.052445,0.629638,-0.112716,-0.237725,-0.252478,0.875176,0.147832,0.649457,-36.382710,4.671432,17.983274,0.076383,1.923629,0.094161,0.000000,0.000000,0.000000,0.000000,0.000000,0.000000
14439893.000000,-0.257183,0.639036,0.317646,-1.532326,-0.228148,2.137358,0.128474,0.052180,0.626078,-0.112958,-0.232574,-0.264004,0.879299,0.148710,0.649457,-36.037556,4.671432,17.856321,0.100187,1.884261,0.087753,0.000000,0.000000,0.000000,0.000000,0.000000,0.000000
14439894.000000,-0.257131,0.639684,0.317534,-1.532538,-0.228414,2.138234,0.128631,0.054430,0.634378,-0.112923,-0.227149,-0.264073,0.882706,0.148454,0.673261,-35.989948,4.671432,17.661924,0.105680,1.858627,0.067611,0.000000,0.000000,0.000000,0.000000,0.000000,0.000000
14439895.000000,-0.257077,0.640354,0.317419,-1.532758,-0.228685,2.139118,0.128775,0.056711,0.644265,-0.116947,-0.225254,-0.260357,0.872879,0.151336,0.673261,-36.184345,4.719040,17.562742,0.141385,1.844894,0.127120,0.000000,0.000000,0.000000,0.000000,0.000000,0.000000
14439896.000000,-0.257021,0.641018,0.317307,-1.532967,-0.228940,2.140003,0.128931,0.056520,0.653152,-0.115940,-0.219714,-0.255427,0.874728,0.153008,0.625654,-36.430317,4.719040,17.411985,0.112089,1.767074,0.087753,0.000000,0.000000,0.000000,0.000000,0.000000,0.000000
14439897.000000,-0.256967,0.641685,0.317193,-1.533178,-0.229199,2.140899,0.129085,0.054242,0.653358,-0.118384,-0.217910,-0.255958,0.880433,0.152727,0.649457,-36.577106,4.719040,17.364378,0.081876,1.708480,0.081344,0.000000,0.000000,0.000000,0.000000,0.000000,0.000000
14439898.000000,-0.256907,0.642367,0.317069,-1.533382,-0.229466,2.141791,0.129239,0.054387,0.658140,-0.119375,-0.214007,-0.258581,0.879283,0.150962,0.601850,-36.799274,4.818222,17.213621,0.093778,1.662704,0.107894,0.000000,0.000000,0.000000,0.000000,0.000000,0.000000
14439899.000000,-0.256854,0.643029,0.316955,-1.533586,-0.229726,2.142674,0.129391,0.052710,0.657095,-0.114536,-0.210612,-0.254711,0.885923,0.151535,0.625654,-36.823078,4.818222,17.166014,0.076383,1.649886,0.094161,0.000000,0.000000,0.000000,0.000000,0.000000,0.000000
14439900.000000,-0.256797,0.643699,0.316845,-1.533790,-0.229991,2.143562,0.129547,0.055372,0.661452,-0.113304,-0.207908,-0.257295,0.878031,0.151249,0.625654,-36.846882,4.794418,17.142210,0.100187,1.676437,0.094161,0.000000,0.000000,0.000000,0.000000,0.000000,0.000000
14439901.000000,-0.256739,0.644365,0.316732,-1.533979,-0.230244,2.144431,0.129708,0.054143,0.677099,-0.112715,-0.201256,-0.255078,0.897752,0.152242,0.625654,-36.969868,4.770615,17.043028,0.123990,1.702071,0.067611,0.000000,0.000000,0.000000,0.000000,0.000000,0.000000
14439902.000000,-0.256682,0.645057,0.316609,-1.534170,-0.230508,2.145309,0.129856,0.053050,0.679493,-0.115809,-0.199669,-0.257452,0.888996,0.149644,0.625654,-37.334858,4.893600,16.943846,0.129484,1.767074,0.127120,0.000000,0.000000,0.000000,0.000000,0.000000,0.000000
14439903.000000,-0.256620,0.645740,0.316498,-1.534365,-0.230769,2.146203,0.130012,0.057812,0.673882,-0.110547,-0.195610,-0.252438,0.893393,0.151410,0.526471,-37.434040,4.842026,16.868467,0.081876,1.754256,0.081344,0.000000,0.000000,0.000000,0.000000,0.000000,0.000000
14439904.000000,-0.256562,0.646423,0.316384,-1.534555,-0.231020,2.147080,0.130166,0.058647,0.675220,-0.110424,-0.197333,-0.252921,0.892716,0.154953,0.550275,-37.580830,4.818222,16.844664,0.015958,1.747848,0.067611,0.000000,0.000000,0.000000,0.000000,0.000000,0.000000
14439905.000000,-0.256497,0.647113,0.316262,-1.534741,-0.231272,2.147966,0.130310,0.061345,0.679444,-0.112016,-0.195632,-0.248396,0.885622,0.152216,0.474897,-37.628437,4.865829,16.721678,-0.043551,1.747848,0.114303,0.000000,0.000000,0.000000,0.000000,0.000000,0.000000
14439906.000000,-0.256433,0.647809,0.316139,-1.534912,-0.231529,2.148863,0.130465,0.062625,0.683968,-0.113428,-0.191435,-0.256325,0.887223,0.153868,0.427289,-37.727619,4.917404,16.499510,-0.025240,1.714889,0.067611,0.000000,0.000000,0.000000,0.000000,0.000000,0.000000
14439908.000000,-0.256312,0.649222,0.315907,-1.535277,-0.232059,2.150621,0.130758,0.064613,0.698661,-0.113947,-0.185670,-0.261540,0.885037,0.148176,0.427289,-38.390156,4.865829,16.225767,0.027860,1.727706,0.094161,0.000000,0.000000,0.000000,0.000000,0.000000,0.000000
14439909.000000,-0.256248,0.649937,0.315788,-1.535451,-0.232321,2.151492,0.130907,0.068397,0.700772,-0.116963,-0.181774,-0.258889,0.875695,0.152358,0.375715,-38.854328,4.865829,16.126585,0.069974,1.630660,0.100570,0.000000,0.000000,0.000000,0.000000,0.000000,0.000000
14439910.000000,-0.256188,0.650658,0.315666,-1.535627,-0.232575,2.152388,0.131061,0.065552,0.705341,-0.116609,-0.176769,-0.259176,0.883299,0.152949,0.427289,-39.219318,4.893600,16.078978,0.064481,1.500655,0.074935,0.000000,0.000000,0.000000,0.000000,0.000000,0.000000
14439911.000000,-0.256125,0.651393,0.315543,-1.535806,-0.232826,2.153280,0.131208,0.065432,0.715264,-0.118885,-0.180392,-0.260067,0.881835,0.150442,0.403486,-39.588276,4.893600,16.078978,-0.025240,1.429244,0.100570,0.000000,0.000000,0.000000,0.000000,0.000000,0.000000
14439912.000000,-0.256058,0.652116,0.315418,-1.535979,-0.233095,2.154134,0.131359,0.065459,0.721711,-0.118996,-0.175999,-0.265861,0.872960,0.151460,0.375715,-39.905659,4.965012,16.055174,-0.025240,1.467696,0.081344,0.000000,0.000000,0.000000,0.000000,0.000000,0.000000
14439913.000000,-0.255996,0.652851,0.315293,-1.536158,-0.233367,2.155007,0.131506,0.064055,0.726811,-0.117684,-0.176496,-0.266343,0.866126,0.144655,0.403486,-40.298420,4.988815,16.078978,0.004056,1.584884,0.127120,0.000000,0.000000,0.000000,0.000000,0.000000,0.000000
14439914.000000,-0.255935,0.653573,0.315173,-1.536344,-0.233626,2.155864,0.131664,0.065778,0.730369,-0.117033,-0.180464,-0.269688,0.863942,0.148083,0.451093,-40.615803,5.012619,16.249571,-0.019747,1.656295,0.081344,0.000000,0.000000,0.000000,0.000000,0.000000,0.000000
14439915.000000,-0.255875,0.654310,0.315049,-1.536535,-0.233893,2.156739,0.131810,0.063780,0.729653,-0.119802,-0.184450,-0.269337,0.868404,0.148230,0.502668,-40.933186,5.040390,16.471739,0.010465,1.578475,0.094161,0.000000,0.000000,0.000000,0.000000,0.000000,0.000000
14439916.000000,-0.255807,0.655035,0.314918,-1.536733,-0.234170,2.157615,0.131959,0.065416,0.726169,-0.125982,-0.187493,-0.272987,0.864198,0.148147,0.451093,-41.008564,5.111801,16.721678,0.022367,1.559249,0.107894,0.000000,0.000000,0.000000,0.000000,0.000000,0.000000
14439917.000000,-0.255743,0.655752,0.314797,-1.536920,-0.234446,2.158469,0.132117,0.061628,0.720118,-0.128316,-0.187327,-0.271044,0.859269,0.149530,0.451093,-41.032368,5.087997,16.868467,0.034269,1.611434,0.094161,0.000000,0.000000,0.000000,0.000000,0.000000,0.000000
14439918.000000,-0.255674,0.656483,0.314669,-1.537111,-0.234722,2.159322,0.132265,0.063705,0.715853,-0.127904,-0.184432,-0.269016,0.859022,0.152792,0.375715,-41.107746,5.111801,17.043028,0.052579,1.747848,0.147262,0.000000,0.000000,0.000000,0.000000,0.000000,0.000000
14439919.000000,-0.255608,0.657209,0.314534,-1.537297,-0.234987,2.160164,0.132431,0.066466,0.717932,-0.132141,-0.187543,-0.267295,0.872296,0.155390,0.375715,-41.202961,5.187180,17.213621,0.040677,1.865035,0.067611,0.000000,0.000000,0.000000,0.000000,0.000000,0.000000
14439920.000000,-0.255547,0.657947,0.314410,-1.537479,-0.235254,2.161030,0.132582,0.067137,0.726622,-0.126671,-0.187435,-0.270755,0.872513,0.153034,0.427289,-41.349751,5.163376,17.241392,0.034269,1.871444,0.100570,0.000000,0.000000,0.000000,0.000000,0.000000,0.000000
14439921.000000,-0.255481,0.658685,0.314279,-1.537674,-0.235529,2.161912,0.132739,0.065726,0.731064,-0.126892,-0.187981,-0.271772,0.871954,0.152520,0.427289,-41.425129,5.187180,17.411985,-0.019747,1.714889,0.094161,0.000000,0.000000,0.000000,0.000000,0.000000,0.000000
14439922.000000,-0.255414,0.659422,0.314146,-1.537858,-0.235803,2.162778,0.132889,0.065604,0.736511,-0.123904,-0.186146,-0.270284,0.872748,0.151305,0.403486,-41.548115,5.210983,17.487364,-0.007845,1.546432,0.114303,0.000000,0.000000,0.000000,0.000000,0.000000,0.000000
14439923.000000,-0.255353,0.660161,0.314014,-1.538036,-0.236092,2.163633,0.133047,0.066275,0.735606,-0.124596,-0.185845,-0.272022,0.859850,0.151299,0.474897,-41.643330,5.234787,17.487364,0.100187,1.565658,0.094161,0.000000,0.000000,0.000000,0.000000,0.000000,0.000000
14439924.000000,-0.255290,0.660895,0.313877,-1.538207,-0.236368,2.164485,0.133206,0.065286,0.730652,-0.131433,-0.181954,-0.275853,0.856911,0.151763,0.526471,-41.520344,5.286362,17.435789,0.178007,1.682845,0.081344,0.000000,0.000000,0.000000,0.000000,0.000000,0.000000
14439925.000000,-0.255222,0.661620,0.313738,-1.538388,-0.236647,2.165316,0.133364,0.064169,0.728241,-0.134753,-0.179693,-0.282344,0.855071,0.151783,0.550275,-41.425129,5.357773,17.411985,0.189908,1.825668,0.074935,0.000000,0.000000,0.000000,0.000000,0.000000,0.000000
14439926.000000,-0.255153,0.662341,0.313601,-1.538569,-0.236924,2.166172,0.133518,0.067682,0.717744,-0.137028,-0.176566,-0.275829,0.848114,0.148905,0.526471,-41.155354,5.433151,17.463560,0.147794,1.812850,0.114303,0.000000,0.000000,0.000000,0.000000,0.000000,0.000000
14439927.000000,-0.255078,0.663055,0.313472,-1.538751,-0.237189,2.167030,0.133674,0.068837,0.710965,-0.133931,-0.176988,-0.270225,0.855783,0.153894,0.427289,-40.956989,5.433151,17.634153,0.076383,1.741439,0.100570,0.000000,0.000000,0.000000,0.000000,0.000000,0.000000
14439928.000000,-0.255010,0.663773,0.313339,-1.538926,-0.237444,2.167897,0.133836,0.067659,0.707054,-0.134832,-0.174817,-0.263499,0.861440,0.159349,0.403486,-40.691181,5.433151,17.709532,-0.049044,1.695663,0.061202,0.000000,0.000000,0.000000,0.000000,0.000000,0.000000
14439929.000000,-0.254944,0.664490,0.313206,-1.539097,-0.237721,2.168750,0.133989,0.065763,0.708893,-0.131888,-0.175179,-0.265526,0.851940,0.155302,0.427289,-40.322224,5.405380,17.733335,-0.013339,1.754256,0.107894,0.000000,0.000000,0.000000,0.000000,0.000000,0.000000
14439930.000000,-0.254878,0.665188,0.313073,-1.539274,-0.238003,2.169581,0.134148,0.063800,0.708539,-0.133460,-0.176065,-0.273148,0.849993,0.154373,0.474897,-39.881855,5.405380,17.784910,0.069974,1.949264,0.067611,0.000000,0.000000,0.000000,0.000000,0.000000,0.000000
14439931.000000,-0.254814,0.665893,0.312938,-1.539443,-0.238280,2.170426,0.134291,0.065585,0.708751,-0.130141,-0.171522,-0.271750,0.845975,0.146159,0.526471,-39.512897,5.357773,17.757139,0.112089,2.014266,0.133529,0.000000,0.000000,0.000000,0.000000,0.000000,0.000000
14439932.000000,-0.254747,0.666601,0.312794,-1.539611,-0.238548,2.171263,0.134453,0.068392,0.724593,-0.134531,-0.169794,-0.273641,0.844904,0.149410,0.526471,-39.393879,5.456955,17.784910,0.093778,1.962081,0.081344,0.000000,0.000000,0.000000,0.000000,0.000000,0.000000
14439933.000000,-0.254676,0.667329,0.312660,-1.539782,-0.238815,2.172121,0.134606,0.068133,0.724794,-0.134918,-0.166472,-0.269863,0.845395,0.149259,0.474897,-39.417683,5.433151,17.856321,0.069974,1.877853,0.094161,0.000000,0.000000,0.000000,0.000000,0.000000,0.000000
14439934.000000,-0.254607,0.668070,0.312523,-1.539950,-0.239087,2.172976,0.134764,0.070442,0.728661,-0.135183,-0.165895,-0.272345,0.842843,0.149919,0.451093,-39.635883,5.405380,17.884092,0.046171,1.819259,0.081344,0.000000,0.000000,0.000000,0.000000,0.000000,0.000000
14439935.000000,-0.254543,0.668810,0.312389,-1.540114,-0.239363,2.173813,0.134915,0.069872,0.729960,-0.135532,-0.164533,-0.271004,0.846242,0.145441,0.526471,-39.929462,5.381577,17.856321,0.064481,1.786300,0.081344,0.000000,0.000000,0.000000,0.000000,0.000000,0.000000
14439936.000000,-0.254473,0.669547,0.312252,-1.540278,-0.239638,2.174663,0.135066,0.068232,0.721891,-0.132877,-0.161618,-0.270118,0.839735,0.145096,0.526471,-40.028645,5.381577,17.884092,0.105680,1.812850,0.127120,0.000000,0.000000,0.000000,0.000000,0.000000,0.000000
14439937.000000,-0.254410,0.670271,0.312115,-1.540438,-0.239907,2.175487,0.135225,0.064654,0.721191,-0.136650,-0.164657,-0.269432,0.829740,0.148200,0.625654,-40.052448,5.381577,17.907896,0.135892,1.897079,0.087753,0.000000,0.000000,0.000000,0.000000,0.000000,0.000000
14439938.000000,-0.254341,0.671012,0.311981,-1.540595,-0.240176,2.176328,0.135371,0.066769,0.724886,-0.132845,-0.158484,-0.272111,0.834875,0.147701,0.649457,-40.127827,5.333969,17.931700,0.123990,1.897079,0.120712,0.000000,0.000000,0.000000,0.000000,0.000000,0.000000
14439939.000000,-0.254273,0.671752,0.311848,-1.540755,-0.240451,2.177182,0.135529,0.071229,0.729351,-0.131248,-0.159465,-0.272131,0.834524,0.150958,0.673261,-40.175434,5.333969,18.054686,0.058073,1.851302,0.048385,0.000000,0.000000,0.000000,0.000000,0.000000,0.000000
14439940.000000,-0.254203,0.672485,0.311717,-1.540913,-0.240723,2.178010,0.135677,0.070122,0.733407,-0.130562,-0.161756,-0.273552,0.827287,0.150333,0.649457,-40.223042,5.357773,18.130064,0.015958,1.890670,0.140853,0.000000,0.000000,0.000000,0.000000,0.000000,0.000000
14439941.000000,-0.254137,0.673223,0.311586,-1.541079,-0.240999,2.178846,0.135839,0.070883,0.737676,-0.128681,-0.159590,-0.265605,0.831715,0.152802,0.673261,-40.199238,5.333969,18.304625,0.004056,1.930038,0.081344,0.000000,0.000000,0.000000,0.000000,0.000000,0.000000
14439942.000000,-0.254071,0.673962,0.311454,-1.541230,-0.241275,2.179691,0.135999,0.067775,0.740550,-0.131809,-0.153840,-0.273411,0.827933,0.157957,0.724836,-40.151630,5.357773,18.304625,0.015958,1.903487,0.054794,0.000000,0.000000,0.000000,0.000000,0.000000,0.000000
14439943.000000,-0.254006,0.674696,0.311314,-1.541373,-0.241562,2.180525,0.136150,0.064938,0.741523,-0.135232,-0.148357,-0.279446,0.834535,0.154710,0.796247,-40.151630,5.433151,18.253050,0.112089,1.903487,0.081344,0.000000,0.000000,0.000000,0.000000,0.000000,0.000000
14439944.000000,-0.253938,0.675444,0.311182,-1.541513,-0.241852,2.181361,0.136309,0.064013,0.742066,-0.131891,-0.145079,-0.281366,0.834933,0.152982,0.824018,-40.223042,5.405380,18.229246,0.159696,1.942855,0.094161,0.000000,0.000000,0.000000,0.000000,0.000000,0.000000
14439945.000000,-0.253870,0.676196,0.311048,-1.541649,-0.242128,2.182191,0.136465,0.067106,0.742481,-0.131619,-0.144767,-0.276882,0.830468,0.152807,0.824018,-40.516621,5.456955,18.153868,0.159696,1.909896,0.087753,0.000000,0.000000,0.000000,0.000000,0.000000,0.000000
14439946.000000,-0.253802,0.676975,0.310915,-1.541792,-0.242395,2.183042,0.136621,0.066003,0.746211,-0.132609,-0.143345,-0.270060,0.828081,0.151932,0.824018,-40.984760,5.433151,18.153868,0.088285,1.851302,0.100570,0.000000,0.000000,0.000000,0.000000,0.000000,0.000000
14439947.000000,-0.253731,0.677744,0.310779,-1.541928,-0.242668,2.183891,0.136776,0.069111,0.748977,-0.131453,-0.138431,-0.270732,0.834990,0.149818,0.796247,-41.202961,5.456955,18.130064,0.022367,1.806442,0.127120,0.000000,0.000000,0.000000,0.000000,0.000000,0.000000
14439948.000000,-0.253654,0.678512,0.310640,-1.542060,-0.242946,2.184718,0.136940,0.072909,0.755848,-0.134798,-0.135858,-0.272873,0.829450,0.153126,0.724836,-41.496540,5.528366,18.153868,-0.007845,1.806442,0.048385,0.000000,0.000000,0.000000,0.000000,0.000000,0.000000
14439949.000000,-0.253583,0.679293,0.310497,-1.542189,-0.243230,2.185555,0.137092,0.072802,0.759958,-0.136566,-0.136301,-0.271920,0.825984,0.149319,0.748639,-41.813923,5.579941,18.153868,0.034269,1.851302,0.127120,0.000000,0.000000,0.000000,0.000000,0.000000,0.000000
14439950.000000,-0.253513,0.680067,0.310360,-1.542322,-0.243508,2.186377,0.137253,0.069776,0.783090,-0.137325,-0.136577,-0.275349,0.841367,0.155375,0.772443,-42.135273,5.603745,18.276854,0.052579,1.955673,0.107894,0.000000,0.000000,0.000000,0.000000,0.000000,0.000000
14439951.000000,-0.253439,0.680841,0.310224,-1.542459,-0.243789,2.187220,0.137410,0.071541,0.781609,-0.134860,-0.137159,-0.274931,0.834354,0.153984,0.748639,-42.305866,5.627548,18.427610,0.123990,1.962081,0.114303,0.000000,0.000000,0.000000,0.000000,0.000000,0.000000
14439952.000000,-0.253366,0.681601,0.310076,-1.542602,-0.244075,2.188079,0.137572,0.073311,0.775172,-0.135367,-0.138964,-0.277581,0.842316,0.157891,0.697065,-42.258259,5.750534,18.649778,0.147794,1.851302,0.107894,0.000000,0.000000,0.000000,0.000000,0.000000,0.000000
14439953.000000,-0.253290,0.682351,0.309939,-1.542743,-0.244354,2.188916,0.137730,0.071090,0.770606,-0.135778,-0.140708,-0.273775,0.846079,0.156684,0.673261,-42.159077,5.750534,18.895750,0.141385,1.800033,0.094161,0.000000,0.000000,0.000000,0.000000,0.000000,0.000000
14439954.000000,-0.253212,0.683108,0.309797,-1.542873,-0.244632,2.189744,0.137880,0.070539,0.768580,-0.139667,-0.138867,-0.270204,0.837378,0.152889,0.601850,-42.012287,5.774338,19.018736,0.135892,1.884261,0.160079,0.000000,0.000000,0.000000,0.000000,0.000000,0.000000
14439955.000000,-0.253131,0.683873,0.309657,-1.543002,-0.244902,2.190546,0.138047,0.073890,0.766718,-0.144692,-0.136502,-0.269027,0.825546,0.155557,0.502668,-41.913105,5.774338,19.117918,0.147794,2.060043,0.081344,0.000000,0.000000,0.000000,0.000000,0.000000,0.000000
14439956.000000,-0.253050,0.684624,0.309512,-1.543129,-0.245179,2.191366,0.138208,0.075669,0.762084,-0.145663,-0.131161,-0.271128,0.824329,0.158847,0.427289,-41.841694,5.774338,19.169493,0.112089,2.150680,0.087753,0.000000,0.000000,0.000000,0.000000,0.000000,0.000000
14439957.000000,-0.252970,0.685396,0.309370,-1.543257,-0.245459,2.192199,0.138370,0.075980,0.762330,-0.143658,-0.130337,-0.271847,0.823205,0.156485,0.375715,-41.841694,5.774338,19.217100,0.058073,2.092086,0.087753,0.000000,0.000000,0.000000,0.000000,0.000000,0.000000
14439958.000000,-0.252890,0.686152,0.309227,-1.543374,-0.245734,2.193022,0.138528,0.076557,0.759529,-0.146065,-0.127490,-0.275063,0.825080,0.158406,0.328107,-41.790119,5.798141,19.169493,0.064481,1.968490,0.100570,0.000000,0.000000,0.000000,0.000000,0.000000,0.000000
14439959.000000,-0.252808,0.686921,0.309088,-1.543499,-0.246009,2.193844,0.138690,0.077070,0.756314,-0.142731,-0.124083,-0.275763,0.820881,0.161124,0.276533,-41.694904,5.750534,19.193296,0.052579,1.974899,0.100570,0.000000,0.000000,0.000000,0.000000,0.000000,0.000000
14439960.000000,-0.252730,0.687685,0.308944,-1.543616,-0.246291,2.194665,0.138853,0.075673,0.749400,-0.144968,-0.121697,-0.282151,0.818532,0.162377,0.304304,-41.520344,5.750534,19.217100,0.093778,1.968490,0.127120,0.000000,0.000000,0.000000,0.000000,0.000000,0.000000
14439961.000000,-0.252648,0.688430,0.308799,-1.543724,-0.246582,2.195475,0.139019,0.076055,0.742308,-0.144503,-0.117522,-0.286463,0.818146,0.166041,0.276533,-41.254536,5.798141,19.141722,0.207303,1.949264,0.081344,0.000000,0.000000,0.000000,0.000000,0.000000,0.000000
14439962.000000,-0.252569,0.689191,0.308658,-1.543829,-0.246866,2.196283,0.139170,0.076270,0.739422,-0.139524,-0.114539,-0.281066,0.806332,0.158577,0.252729,-41.131550,5.798141,19.070311,0.231107,2.039901,0.147262,0.000000,0.000000,0.000000,0.000000,0.000000,0.000000
14439963.000000,-0.252492,0.689935,0.308530,-1.543931,-0.247132,2.197089,0.139336,0.075354,0.741940,-0.138939,-0.111714,-0.279198,0.807584,0.163944,0.276533,-40.885578,5.651352,19.094114,0.178007,2.047225,0.087753,0.000000,0.000000,0.000000,0.000000,0.000000,0.000000
14439964.000000,-0.252408,0.690682,0.308391,-1.544035,-0.247401,2.197923,0.139498,0.078777,0.743387,-0.137817,-0.109419,-0.272308,0.808942,0.165772,0.252729,-40.492817,5.603745,19.117918,0.105680,1.936446,0.074935,0.000000,0.000000,0.000000,0.000000,0.000000,0.000000
14439965.000000,-0.252324,0.691422,0.308256,-1.544129,-0.247684,2.198752,0.139653,0.082731,0.741533,-0.140247,-0.105529,-0.275225,0.809851,0.159054,0.177350,-39.957233,5.556137,19.042540,0.105680,1.923629,0.147262,0.000000,0.000000,0.000000,0.000000,0.000000,0.000000
14439966.000000,-0.252246,0.692156,0.308122,-1.544218,-0.247964,2.199548,0.139817,0.079456,0.741404,-0.138927,-0.101568,-0.277148,0.807059,0.164158,0.228925,-39.564472,5.504562,18.919554,0.100187,2.007858,0.074935,0.000000,0.000000,0.000000,0.000000,0.000000,0.000000
14439967.000000,-0.252166,0.692914,0.307988,-1.544302,-0.248246,2.200362,0.139970,0.081531,0.743961,-0.132784,-0.094366,-0.272366,0.804811,0.163682,0.228925,-39.489094,5.381577,18.748960,0.076383,2.079269,0.120712,0.000000,0.000000,0.000000,0.000000,0.000000,0.000000
14439968.000000,-0.252093,0.693667,0.307858,-1.544390,-0.248521,2.201175,0.140135,0.081133,0.752812,-0.132439,-0.092813,-0.275300,0.813042,0.161857,0.328107,-39.512897,5.286362,18.748960,0.081876,2.060043,0.087753,0.000000,0.000000,0.000000,0.000000,0.000000,0.000000
14439969.000000,-0.252007,0.694435,0.307719,-1.544474,-0.248803,2.202001,0.140288,0.080211,0.757501,-0.134968,-0.088840,-0.282966,0.817335,0.158368,0.304304,-39.635883,5.310165,18.748960,0.105680,1.942855,0.107894,0.000000,0.000000,0.000000,0.000000,0.000000,0.000000
14439970.000000,-0.251924,0.695208,0.307580,-1.544549,-0.249089,2.202837,0.140444,0.082909,0.758486,-0.136024,-0.083388,-0.283136,0.820219,0.155722,0.276533,-39.735065,5.310165,18.649778,0.112089,1.806442,0.120712,0.000000,0.000000,0.000000,0.000000,0.000000,0.000000
14439971.000000,-0.251847,0.695968,0.307447,-1.544621,-0.249373,2.203660,0.140600,0.082338,0.759591,-0.132402,-0.080385,-0.280576,0.825487,0.153866,0.351911,-39.810444,5.258591,18.598204,0.171598,1.727706,0.140853,0.000000,0.000000,0.000000,0.000000,0.000000,0.000000
14439972.000000,-0.251772,0.696740,0.307316,-1.544687,-0.249658,2.204472,0.140765,0.077837,0.759263,-0.132112,-0.073938,-0.277953,0.821238,0.154485,0.474897,-39.881855,5.187180,18.499022,0.237516,1.832076,0.107894,0.000000,0.000000,0.000000,0.000000,0.000000,0.000000
14439973.000000,-0.251697,0.697517,0.307185,-1.544745,-0.249925,2.205286,0.140928,0.079561,0.758389,-0.133358,-0.070308,-0.272555,0.812806,0.153654,0.526471,-40.028645,5.064194,18.328428,0.195402,1.981307,0.107894,0.000000,0.000000,0.000000,0.000000,0.000000,0.000000
14439974.000000,-0.251615,0.698284,0.307057,-1.544808,-0.250202,2.206104,0.141083,0.078708,0.760276,-0.130622,-0.067785,-0.277058,0.817590,0.152671,0.526471,-40.151630,5.012619,18.276854,0.123990,1.981307,0.114303,0.000000,0.000000,0.000000,0.000000,0.000000,0.000000
14439975.000000,-0.251531,0.699057,0.306927,-1.544867,-0.250481,2.206937,0.141244,0.079314,0.757898,-0.128611,-0.065840,-0.271000,0.821679,0.157666,0.474897,-40.151630,4.965012,18.229246,0.052579,1.909896,0.087753,0.000000,0.000000,0.000000,0.000000,0.000000,0.000000
14439976.000000,-0.251455,0.699814,0.306797,-1.544923,-0.250747,2.207756,0.141396,0.080594,0.753113,-0.130947,-0.064229,-0.266694,0.821027,0.157793,0.526471,-39.981037,4.941208,18.177671,-0.025240,1.871444,0.140853,0.000000,0.000000,0.000000,0.000000,0.000000,0.000000
14439977.000000,-0.251378,0.700578,0.306663,-1.544974,-0.251025,2.208578,0.141556,0.080635,0.746419,-0.132858,-0.061754,-0.267163,0.817420,0.158026,0.601850,-39.810444,4.941208,18.078489,0.010465,1.897079,0.094161,0.000000,0.000000,0.000000,0.000000,0.000000,0.000000
14439978.000000,-0.251301,0.701376,0.306527,-1.545017,-0.251368,2.209690,0.141745,0.081587,0.754828,-0.134455,-0.055889,-0.295010,0.914258,0.165881,0.649457,-40.052448,4.941208,17.931700,0.578092,-0.632523,-0.196061,0.000000,0.000000,0.000000,0.000000,0.000000,0.000000
14439979.000000,-0.251220,0.702152,0.306380,-1.545062,-0.251876,2.210820,0.141973,0.082816,0.763147,-0.139094,-0.053281,-0.372965,0.999050,0.188255,0.673261,-40.151630,5.087997,17.856321,2.562040,-3.187760,-0.795731,0.000000,0.000000,0.000000,0.000000,0.000000,0.000000
14439980.000000,-0.251153,0.702955,0.306265,-1.545051,-0.252128,2.211982,0.142019,0.076077,0.773222,-0.128462,-0.030770,-0.330323,1.059258,0.139991,0.895429,-40.469013,4.794418,17.043028,1.976102,-5.327348,0.312057,0.000000,0.000000,0.000000,0.000000,0.000000,0.000000
14439981.000000,-0.251042,0.703787,0.306162,-1.544949,-0.252475,2.213021,0.142232,0.088828,0.793477,-0.117959,0.011834,-0.336416,1.055411,0.164879,0.502668,-41.302143,4.350082,15.063353,2.161954,-5.899552,-0.122819,0.000000,0.000000,0.000000,0.000000,0.000000,0.000000
14439982.000000,-0.250873,0.704593,0.305910,-1.544779,-0.252858,2.214037,0.142417,0.116893,0.799566,-0.163350,0.067290,-0.354158,1.043968,0.173362,-0.735125,-41.548115,6.020309,12.345762,2.448514,-5.639543,-0.320573,0.000000,0.000000,0.000000,0.000000,0.000000,0.000000
14439983.000000,-0.250844,0.705340,0.305813,-1.544621,-0.253200,2.215142,0.142556,0.087917,0.782731,-0.143514,0.099572,-0.344385,1.064617,0.162137,0.078168,-40.861774,5.405380,10.143919,2.227872,-5.808915,-0.070634,0.000000,0.000000,0.000000,0.000000,0.000000,0.000000
14439984.000000,-0.250833,0.706070,0.305799,-1.544481,-0.253479,2.216133,0.142659,0.059464,0.770654,-0.098659,0.113868,-0.321168,1.032583,0.145077,1.169172,-40.104023,3.564560,8.564939,1.540311,-4.943742,0.450301,0.000000,0.000000,0.000000,0.000000,0.000000,0.000000
14439985.000000,-0.250682,0.706764,0.305643,-1.544205,-0.253892,2.217220,0.142845,0.090010,0.745266,-0.114158,0.171414,-0.352356,1.032676,0.157323,0.252729,-38.755146,3.810531,5.399046,2.119840,-4.872331,0.180221,0.000000,0.000000,0.000000,0.000000,0.000000,0.000000
14439986.000000,-0.250622,0.707361,0.305584,-1.543966,-0.254337,2.218174,0.143053,0.080895,0.700468,-0.092678,0.198505,-0.378800,1.015407,0.173009,0.601850,-36.283527,2.830612,3.173399,2.950223,-3.910111,-0.274796,0.000000,0.000000,0.000000,0.000000,0.000000,0.000000
14439987.000000,-0.250648,0.707858,0.305639,-1.543745,-0.254583,2.219127,0.143161,0.043904,0.630898,-0.042385,0.206706,-0.330084,0.981780,0.149734,2.133222,-32.415424,0.327255,1.618224,1.982511,-3.032120,0.173812,0.000000,0.000000,0.000000,0.000000,0.000000,0.000000
14439988.000000,-0.250516,0.708303,0.305555,-1.543517,-0.254828,2.220081,0.143368,0.073681,0.563198,-0.053846,0.214224,-0.298286,0.962518,0.165410,1.343732,-28.130756,0.033676,0.332823,1.164030,-2.544144,-0.235429,0.000000,0.000000,0.000000,0.000000,0.000000,0.000000
14439989.000000,-0.250353,0.708662,0.305452,-1.543290,-0.255198,2.220866,0.143529,0.106271,0.491755,-0.071016,0.219274,-0.323133,0.899988,0.166340,0.129743,-23.139912,0.180466,-0.607423,1.594327,-1.114091,-0.254655,0.000000,0.000000,0.000000,0.000000,0.000000,0.000000
14439990.000000,-0.250305,0.708970,0.305395,-1.543057,-0.255494,2.221541,0.143665,0.087587,0.422261,-0.068569,0.218197,-0.308702,0.810340,0.158225,0.649457,-17.827717,-0.236099,-1.273927,1.474393,0.876266,-0.023942,0.000000,0.000000,0.000000,0.000000,0.000000,0.000000
14439991.000000,-0.250257,0.709257,0.305323,-1.542799,-0.255727,2.222295,0.143840,0.072625,0.373705,-0.071838,0.227779,-0.283745,0.784559,0.165591,1.145368,-12.638508,-0.410660,-2.039613,0.948881,1.494247,-0.136552,0.000000,0.000000,0.000000,0.000000,0.000000,0.000000
14439992.000000,-0.250205,0.709524,0.305287,-1.542540,-0.256100,2.223016,0.144012,0.064340,0.338762,-0.059333,0.234377,-0.312061,0.771314,0.165781,1.565900,-7.814289,-1.073197,-2.757692,1.791166,1.649886,-0.241837,0.000000,0.000000,0.000000,0.000000,0.000000,0.000000
14439993.000000,-0.250153,0.709740,0.305248,-1.542326,-0.256407,2.223630,0.144135,0.062940,0.298059,-0.051791,0.224266,-0.313058,0.714732,0.154100,1.934858,-2.799641,-1.684158,-2.658510,2.048429,2.443649,0.081344,0.000000,0.000000,0.000000,0.000000,0.000000,0.000000
14439994.000000,-0.250127,0.709936,0.305223,-1.542066,-0.256595,2.224278,0.144321,0.048274,0.264441,-0.044670,0.232504,-0.267920,0.696842,0.166204,2.629133,2.024578,-2.374466,-3.154421,1.205228,2.372237,-0.142960,0.000000,0.000000,0.000000,0.000000,0.000000,0.000000
14439995.000000,-0.250109,0.710163,0.305231,-1.541794,-0.256846,2.224957,0.144509,0.036222,0.254307,-0.023640,0.240617,-0.261881,0.693563,0.168783,3.398786,5.940289,-3.477371,-3.721742,1.044096,1.832076,-0.340714,0.000000,0.000000,0.000000,0.000000,0.000000,0.000000
14439996.000000,-0.250063,0.710322,0.305194,-1.541530,-0.257062,2.225548,0.144636,0.040565,0.219347,-0.026490,0.242402,-0.243398,0.668039,0.154999,3.668561,10.395550,-3.822525,-4.213686,0.620206,1.974899,0.015426,0.000000,0.000000,0.000000,0.000000,0.000000,0.000000
14439997.000000,-0.250003,0.710419,0.305127,-1.541289,-0.257209,2.226037,0.144822,0.048132,0.180553,-0.043324,0.243278,-0.209029,0.615919,0.167509,3.692365,15.267376,-3.647965,-4.439821,-0.252291,2.982894,-0.202470,0.000000,0.000000,0.000000,0.000000,0.000000,0.000000
14439998.000000,-0.249944,0.710505,0.305081,-1.541046,-0.257393,2.226571,0.145001,0.049791,0.144472,-0.047260,0.239638,-0.201417,0.592905,0.167298,3.720136,19.893230,-3.770951,-4.586610,-0.677096,3.458053,-0.327897,0.000000,0.000000,0.000000,0.000000,0.000000,0.000000
14439999.000000,-0.249909,0.710565,0.305025,-1.540820,-0.257602,2.227111,0.145147,0.043091,0.116921,-0.049682,0.231414,-0.204021,0.579536,0.155553,4.065290,24.447674,-3.770951,-4.610414,-0.760409,3.757430,-0.136552,0.000000,0.000000,0.000000,0.000000,0.000000,0.000000
14440000.000000,-0.249887,0.710579,0.304981,-1.540615,-0.257790,2.227708,0.145313,0.036693,0.083243,-0.048850,0.219057,-0.197896,0.588276,0.160878,4.608808,29.291729,-3.993119,-4.340639,-0.897738,3.523055,-0.182328,0.000000,0.000000,0.000000,0.000000,0.000000,0.000000
14440001.000000,-0.249854,0.710574,0.304932,-1.540426,-0.257981,2.228383,0.145466,0.037792,0.055405,-0.048967,0.206512,-0.196404,0.619469,0.153813,4.930158,33.992962,-4.187515,-3.892336,-0.939852,2.703658,-0.064225,0.000000,0.000000,0.000000,0.000000,0.000000,0.000000
14440002.000000,-0.249804,0.710589,0.304886,-1.540234,-0.258186,2.229071,0.145660,0.041174,0.043176,-0.048220,0.199190,-0.202505,0.648764,0.168932,5.005537,38.055462,-4.409683,-3.622560,-0.772311,1.793624,-0.281205,0.000000,0.000000,0.000000,0.000000,0.000000,0.000000
14440003.000000,-0.249760,0.710622,0.304851,-1.540018,-0.258361,2.229790,0.145784,0.041379,0.034139,-0.044380,0.202343,-0.190448,0.675095,0.155100,5.156293,41.507000,-4.778641,-3.844728,-0.880343,1.031905,0.087753,0.000000,0.000000,0.000000,0.000000,0.000000,0.000000
14440004.000000,-0.249699,0.710694,0.304782,-1.539772,-0.258561,2.230516,0.145963,0.051113,0.050073,-0.055592,0.219995,-0.192965,0.712674,0.164553,5.029340,44.053997,-4.679459,-4.661989,-0.819918,0.564071,-0.044083,0.000000,0.000000,0.000000,0.000000,0.000000,0.000000
14440005.000000,-0.249611,0.710807,0.304687,-1.539494,-0.258785,2.231246,0.146123,0.062871,0.071776,-0.071192,0.241064,-0.206845,0.722329,0.162357,4.537397,45.914654,-4.262894,-5.971193,-0.682589,0.336105,-0.070634,0.000000,0.000000,0.000000,0.000000,0.000000,0.000000
14440008.000000,-0.249383,0.711322,0.304467,-1.538532,-0.259469,2.233663,0.146562,0.074455,0.150688,-0.069482,0.301182,-0.220937,0.783273,0.148880,3.890729,48.628277,-4.362076,-11.037416,-0.503146,-0.496110,0.074935,0.000000,0.000000,0.000000,0.000000,0.000000,0.000000
14440009.000000,-0.249327,0.711543,0.304422,-1.538184,-0.259697,2.234579,0.146705,0.067196,0.174067,-0.062900,0.318614,-0.231635,0.824111,0.142208,4.041486,49.068645,-4.854019,-12.667971,-0.580966,-1.217545,0.147262,0.000000,0.000000,0.000000,0.000000,0.000000,0.000000
14440010.000000,-0.249258,0.711773,0.304363,-1.537814,-0.259931,2.235483,0.146869,0.069391,0.193187,-0.062980,0.335294,-0.235032,0.846302,0.149391,4.017683,49.366192,-5.147598,-14.350100,-0.831820,-1.757706,0.021835,0.000000,0.000000,0.000000,0.000000,0.000000,0.000000
14440011.000000,-0.249184,0.712033,0.304291,-1.537433,-0.260179,2.236390,0.147009,0.069334,0.219071,-0.067541,0.351186,-0.235723,0.860716,0.146732,3.942304,49.485210,-5.270584,-15.933046,-1.023165,-1.919755,0.094161,0.000000,0.000000,0.000000,0.000000,0.000000,0.000000
14440012.000000,-0.249110,0.712318,0.304215,-1.537041,-0.260430,2.237276,0.147155,0.072048,0.241996,-0.072678,0.370394,-0.240289,0.871341,0.148351,3.890729,49.413799,-5.318192,-17.512026,-1.124789,-1.854752,0.061202,0.000000,0.000000,0.000000,0.000000,0.000000,0.000000
14440013.000000,-0.249040,0.712624,0.304128,-1.536630,-0.260680,2.238170,0.147294,0.071806,0.264978,-0.079641,0.382786,-0.242444,0.874427,0.147216,3.918500,49.167828,-5.219009,-19.047365,-1.238314,-1.634110,0.107894,0.000000,0.000000,0.000000,0.000000,0.000000,0.000000
14440014.000000,-0.248951,0.712966,0.304037,-1.536205,-0.260949,2.239082,0.147430,0.077870,0.291657,-0.084369,0.395565,-0.248675,0.876101,0.145628,3.692365,48.727459,-5.123795,-20.578737,-1.244723,-1.536149,0.173812,0.000000,0.000000,0.000000,0.000000,0.000000,0.000000
14440015.000000,-0.248859,0.713343,0.303946,-1.535788,-0.261236,2.240016,0.147580,0.081172,0.321494,-0.087187,0.403049,-0.258862,0.891995,0.145672,3.497968,48.092693,-5.048416,-21.764956,-1.089083,-1.770524,0.087753,0.000000,0.000000,0.000000,0.000000,0.000000,0.000000
14440016.000000,-0.248780,0.713768,0.303873,-1.535358,-0.261505,2.240971,0.147718,0.079161,0.357463,-0.080879,0.410245,-0.258780,0.906783,0.145326,3.497968,47.065166,-5.318192,-22.875795,-1.112887,-2.147721,0.127120,0.000000,0.000000,0.000000,0.000000,0.000000,0.000000
14440017.000000,-0.248698,0.714231,0.303801,-1.534932,-0.261767,2.241895,0.147863,0.079511,0.399616,-0.076262,0.421054,-0.258682,0.919065,0.147953,3.422590,45.791668,-5.611771,-23.867617,-1.148592,-2.401322,0.087753,0.000000,0.000000,0.000000,0.000000,0.000000,0.000000
14440018.000000,-0.248603,0.714735,0.303717,-1.534494,-0.262032,2.242814,0.148009,0.083077,0.435431,-0.077275,0.421179,-0.257865,0.909274,0.143947,3.200422,44.248394,-5.734756,-24.803896,-1.202609,-2.518510,0.087753,0.000000,0.000000,0.000000,0.000000,0.000000,0.000000
14440019.000000,-0.248516,0.715276,0.303626,-1.534065,-0.262295,2.243702,0.148166,0.085317,0.468119,-0.080260,0.422600,-0.257875,0.891241,0.147393,3.125043,42.657513,-5.758560,-25.474367,-1.375643,-2.355546,0.034652,0.000000,0.000000,0.000000,0.000000,0.000000,0.000000
14440020.000000,-0.248423,0.715839,0.303529,-1.533654,-0.262540,2.244548,0.148313,0.089240,0.503383,-0.083119,0.412738,-0.249999,0.872811,0.147265,2.978254,40.967449,-5.734756,-25.819521,-1.651217,-2.024125,0.054794,0.000000,0.000000,0.000000,0.000000,0.000000,0.000000
14440021.000000,-0.248320,0.716429,0.303416,-1.533256,-0.262798,2.245407,0.148464,0.090906,0.524951,-0.092784,0.404793,-0.249494,0.866205,0.152927,2.728315,39.281353,-5.516556,-25.942507,-1.776644,-1.894120,0.034652,0.000000,0.000000,0.000000,0.000000,0.000000,0.000000
14440022.000000,-0.248230,0.717041,0.303302,-1.532893,-0.263065,2.246246,0.148638,0.088440,0.551552,-0.102299,0.392943,-0.257155,0.853414,0.158725,2.629133,37.686504,-5.294388,-25.597353,-1.704318,-1.764115,-0.136552,0.000000,0.000000,0.000000,0.000000,0.000000,0.000000
