chaoyuefei/paper-gmrm-data/robot_logs/onetime_s2_dq_gmrm_xz_min_0.50_log_20260314_181454.csv
# time_ms,q_0,q_1,q_2,q_3,q_4,q_5,q_6,dq_0,dq_1,dq_2,dq_3,dq_4,dq_5,dq_6,tau_J_0,tau_J_1,tau_J_2,tau_J_3,tau_J_4,tau_J_5,tau_J_6,O_dP_EE_c_0,O_dP_EE_c_1,O_dP_EE_c_2,O_dP_EE_c_3,O_dP_EE_c_4,O_dP_EE_c_5
14759104.000000,-2.415597,-1.662649,1.042757,-1.356106,1.795379,1.081439,-0.548334,-0.000807,0.000549,-0.000022,0.000691,-0.000105,-0.000224,-0.001115,-0.044818,41.384014,-20.782669,-5.721254,0.966276,1.318465,-0.142960,0.000000,0.000000,0.000000,0.000000,0.000000,0.000000
14759105.000000,-2.415594,-1.662651,1.042756,-1.356107,1.795379,1.081442,-0.548332,0.000019,-0.000191,0.000542,-0.000096,-0.000070,0.000563,0.000002,-0.068621,41.407818,-20.806473,-5.697450,0.966276,1.299239,-0.163102,0.000000,0.000000,0.000000,0.000000,0.000000,0.000000
14759106.000000,-2.415596,-1.662651,1.042754,-1.356102,1.795382,1.081439,-0.548330,0.000013,0.000429,-0.000845,0.001142,0.001038,-0.000337,0.000714,-0.068621,41.384014,-20.754898,-5.749025,0.936979,1.318465,-0.182328,0.000000,0.000000,0.000000,0.000000,0.000000,0.000000
14759107.000000,-2.415592,-1.662657,1.042753,-1.356108,1.795378,1.081440,-0.548334,0.000565,-0.001477,-0.001120,-0.001002,-0.000834,0.000013,-0.000982,-0.092425,41.459393,-20.731094,-5.673646,0.978177,1.312057,-0.142960,0.000000,0.000000,0.000000,0.000000,0.000000,0.000000
14759108.000000,-2.415589,-1.662655,1.042757,-1.356103,1.795378,1.081438,-0.548330,0.005810,-0.001830,0.000460,0.002498,0.000767,-0.001687,-0.001356,0.205121,41.360210,-20.782669,-5.673646,0.942472,1.357833,-0.235429,0.000000,0.000000,0.000000,0.000000,0.000000,0.000000
14759109.000000,-2.415580,-1.662658,1.042761,-1.356105,1.795383,1.081434,-0.548350,0.012136,-0.003287,0.002850,0.002958,0.000026,0.001993,-0.012844,1.244550,41.165813,-20.754898,-5.451478,0.828947,1.519881,-0.254655,0.000000,0.000000,0.000000,0.000000,0.000000,0.000000
14759110.000000,-2.415549,-1.662657,1.042771,-1.356098,1.795382,1.081433,-0.548392,0.022822,-0.003135,0.004301,0.003776,0.005391,-0.001612,-0.023588,2.779890,40.773052,-20.707291,-5.229311,0.673307,1.741439,-0.221696,0.000000,0.000000,0.000000,0.000000,0.000000,0.000000
14759111.000000,-2.415505,-1.662661,1.042788,-1.356108,1.795372,1.081450,-0.548447,0.030349,-0.003973,0.009767,-0.003163,0.001460,0.004680,-0.032339,4.660383,40.404095,-20.707291,-4.808778,0.596403,1.865035,-0.274796,0.000000,0.000000,0.000000,0.000000,0.000000,0.000000
14759112.000000,-2.415447,-1.662658,1.042809,-1.356114,1.795347,1.081499,-0.548533,0.034071,0.000783,0.015736,-0.004963,-0.005315,0.020848,-0.051653,6.616254,39.916119,-20.659683,-4.511232,0.620206,1.800033,-0.208878,0.000000,0.000000,0.000000,0.000000,0.000000,0.000000
14759113.000000,-2.415361,-1.662655,1.042837,-1.356140,1.795312,1.081576,-0.548627,0.043431,0.003358,0.017528,-0.012101,-0.015430,0.042319,-0.065877,8.223004,39.451946,-20.631912,-4.090700,0.667814,1.578475,-0.254655,0.000000,0.000000,0.000000,0.000000,0.000000,0.000000
14759114.000000,-2.415253,-1.662651,1.042872,-1.356181,1.795269,1.081663,-0.548747,0.059072,0.004313,0.024026,-0.026493,-0.026103,0.054645,-0.085436,9.611554,39.011578,-20.536697,-3.670168,0.673307,1.442062,-0.281205,0.000000,0.000000,0.000000,0.000000,0.000000,0.000000
14759115.000000,-2.415138,-1.662646,1.042919,-1.356227,1.795204,1.081766,-0.548900,0.074785,0.008196,0.035469,-0.034057,-0.040833,0.074539,-0.108492,10.825543,38.571209,-20.461319,-3.376589,0.733732,1.396285,-0.215287,0.000000,0.000000,0.000000,0.000000,0.000000,0.000000
14759116.000000,-2.415005,-1.662644,1.042977,-1.356292,1.795128,1.081890,-0.549063,0.089474,0.005625,0.045651,-0.047418,-0.053689,0.092733,-0.124829,11.888776,38.226055,-20.437515,-3.027467,0.721830,1.402694,-0.281205,0.000000,0.000000,0.000000,0.000000,0.000000,0.000000
14759117.000000,-2.414873,-1.662632,1.043047,-1.356356,1.795047,1.082036,-0.549256,0.103841,0.008649,0.052242,-0.053332,-0.063484,0.111377,-0.147607,12.928205,37.809490,-20.389908,-2.856874,0.584501,1.500655,-0.261979,0.000000,0.000000,0.000000,0.000000,0.000000,0.000000
14759118.000000,-2.414716,-1.662617,1.043131,-1.356438,1.794942,1.082208,-0.549470,0.118810,0.010640,0.065081,-0.064836,-0.077452,0.129326,-0.168852,13.769269,37.392925,-20.413712,-2.658510,0.500272,1.605026,-0.261979,0.000000,0.000000,0.000000,0.000000,0.000000,0.000000
14759119.000000,-2.414550,-1.662600,1.043238,-1.356532,1.794822,1.082407,-0.549719,0.134617,0.015269,0.081226,-0.074558,-0.091435,0.148406,-0.195372,14.511151,36.980328,-20.584305,-2.559328,0.369352,1.624252,-0.215287,0.000000,0.000000,0.000000,0.000000,0.000000,0.000000
14759120.000000,-2.414364,-1.662578,1.043348,-1.356646,1.794670,1.082642,-0.549978,0.150482,0.018260,0.089444,-0.086428,-0.110273,0.172448,-0.218655,15.058637,36.587566,-20.608109,-2.412538,0.327238,1.611434,-0.254655,0.000000,0.000000,0.000000,0.000000,0.000000,0.000000
14759121.000000,-2.414158,-1.662554,1.043479,-1.356782,1.794492,1.082896,-0.550271,0.169888,0.022201,0.103185,-0.100014,-0.136233,0.197830,-0.239984,15.502973,36.123394,-20.806473,-2.214174,0.362943,1.552840,-0.221696,0.000000,0.000000,0.000000,0.000000,0.000000,0.000000
14759122.000000,-2.413936,-1.662531,1.043623,-1.356924,1.794287,1.083185,-0.550572,0.191356,0.023365,0.114538,-0.116064,-0.156523,0.223485,-0.262911,15.824323,35.730633,-20.929459,-2.162599,0.422452,1.500655,-0.196061,0.000000,0.000000,0.000000,0.000000,0.000000,0.000000
14759123.000000,-2.413697,-1.662511,1.043779,-1.357094,1.794047,1.083501,-0.550875,0.207635,0.020157,0.129285,-0.132240,-0.181758,0.254945,-0.271865,16.046492,35.385479,-21.052444,-2.063417,0.524076,1.461288,-0.202470,0.000000,0.000000,0.000000,0.000000,0.000000,0.000000
14759124.000000,-2.413447,-1.662491,1.043944,-1.357268,1.793798,1.083830,-0.551183,0.221500,0.019053,0.142848,-0.145023,-0.207376,0.279843,-0.284203,16.296431,35.119671,-21.123856,-2.091188,0.584501,1.481429,-0.175919,0.000000,0.000000,0.000000,0.000000,0.000000,0.000000
14759125.000000,-2.413174,-1.662474,1.044119,-1.357457,1.793539,1.084186,-0.551487,0.241597,0.019504,0.153631,-0.158120,-0.220704,0.302542,-0.290894,16.391645,34.945110,-21.123856,-2.114992,0.571683,1.481429,-0.175919,0.000000,0.000000,0.000000,0.000000,0.000000,0.000000
14759126.000000,-2.412886,-1.662460,1.044304,-1.357665,1.793259,1.084565,-0.551785,0.256543,0.015712,0.163673,-0.172432,-0.238816,0.330713,-0.291134,16.467024,34.826092,-21.175430,-2.091188,0.530485,1.584884,-0.215287,0.000000,0.000000,0.000000,0.000000,0.000000,0.000000
14759127.000000,-2.412578,-1.662447,1.044499,-1.357899,1.792966,1.084956,-0.552099,0.275444,0.012739,0.171435,-0.191223,-0.260973,0.344269,-0.299174,16.467024,34.726910,-21.123856,-1.992006,0.446256,1.689254,-0.136552,0.000000,0.000000,0.000000,0.000000,0.000000,0.000000
14759128.000000,-2.412258,-1.662443,1.044704,-1.358145,1.792652,1.085376,-0.552387,0.292805,0.008450,0.180830,-0.204797,-0.277833,0.369067,-0.292316,16.443220,34.726910,-21.052444,-1.892824,0.374845,1.760665,-0.215287,0.000000,0.000000,0.000000,0.000000,0.000000,0.000000
14759129.000000,-2.411918,-1.662439,1.044915,-1.358410,1.792322,1.085826,-0.552684,0.303352,0.005602,0.191930,-0.227960,-0.297236,0.396751,-0.290002,16.419416,34.726910,-21.000870,-1.718263,0.344633,1.727706,-0.215287,0.000000,0.000000,0.000000,0.000000,0.000000,0.000000
14759130.000000,-2.411570,-1.662436,1.045140,-1.358694,1.791977,1.086309,-0.552983,0.317499,0.003711,0.203211,-0.248613,-0.312545,0.416684,-0.295437,16.367842,34.726910,-20.953262,-1.595277,0.344633,1.624252,-0.136552,0.000000,0.000000,0.000000,0.000000,0.000000,0.000000
14759131.000000,-2.411200,-1.662432,1.045377,-1.358995,1.791606,1.086809,-0.553256,0.334120,0.003570,0.214740,-0.264302,-0.328070,0.449490,-0.285447,16.320234,34.679302,-20.905655,-1.448488,0.351041,1.552840,-0.196061,0.000000,0.000000,0.000000,0.000000,0.000000,0.000000
14759132.000000,-2.410831,-1.662429,1.045623,-1.359292,1.791226,1.087324,-0.553536,0.340000,0.002367,0.223622,-0.273069,-0.346297,0.468684,-0.288239,16.542402,34.679302,-20.806473,-1.448488,0.381254,1.532699,-0.182328,0.000000,0.000000,0.000000,0.000000,0.000000,0.000000
14759133.000000,-2.410448,-1.662433,1.045874,-1.359614,1.790824,1.087865,-0.553805,0.354085,-0.000103,0.228264,-0.286399,-0.367404,0.486433,-0.282319,16.641584,34.750713,-20.683487,-1.420717,0.488370,1.513473,-0.202470,0.000000,0.000000,0.000000,0.000000,0.000000,0.000000
14759134.000000,-2.410049,-1.662431,1.046136,-1.359946,1.790406,1.088422,-0.554073,0.362835,0.003649,0.239730,-0.297794,-0.377416,0.505492,-0.275680,16.788374,34.726910,-20.608109,-1.496095,0.458158,1.532699,-0.188737,0.000000,0.000000,0.000000,0.000000,0.000000,0.000000
14759135.000000,-2.409644,-1.662431,1.046408,-1.360300,1.789978,1.088995,-0.554340,0.383258,0.002134,0.249995,-0.316317,-0.386765,0.516200,-0.271849,16.939131,34.750713,-20.512894,-1.420717,0.464567,1.532699,-0.196061,0.000000,0.000000,0.000000,0.000000,0.000000,0.000000
14759136.000000,-2.409222,-1.662430,1.046687,-1.360666,1.789535,1.089598,-0.554603,0.395006,0.001617,0.263578,-0.329122,-0.405326,0.546745,-0.270670,17.109724,34.750713,-20.461319,-1.349306,0.434354,1.507064,-0.188737,0.000000,0.000000,0.000000,0.000000,0.000000,0.000000
14759137.000000,-2.408785,-1.662430,1.046984,-1.361040,1.789081,1.090209,-0.554873,0.404725,0.001223,0.277696,-0.346903,-0.426878,0.568274,-0.270873,17.359663,34.750713,-20.413712,-1.226320,0.393156,1.435653,-0.155778,0.000000,0.000000,0.000000,0.000000,0.000000,0.000000
14759138.000000,-2.408343,-1.662424,1.047286,-1.361442,1.788610,1.090852,-0.555131,0.419138,0.005085,0.282612,-0.362426,-0.437473,0.581655,-0.266452,17.581831,34.703106,-20.314529,-1.000185,0.374845,1.370651,-0.182328,0.000000,0.000000,0.000000,0.000000,0.000000,0.000000
14759139.000000,-2.407878,-1.662423,1.047589,-1.361866,1.788118,1.091489,-0.555392,0.432086,0.003726,0.290082,-0.381840,-0.453807,0.601475,-0.262493,17.803999,34.703106,-20.215347,-0.706606,0.339139,1.364242,-0.169511,0.000000,0.000000,0.000000,0.000000,0.000000,0.000000
14759140.000000,-2.407403,-1.662418,1.047910,-1.362295,1.787613,1.092162,-0.555647,0.444260,0.003942,0.298668,-0.394447,-0.469529,0.619444,-0.260751,18.125349,34.651531,-20.191544,-0.484438,0.374845,1.331283,-0.182328,0.000000,0.000000,0.000000,0.000000,0.000000,0.000000
14759141.000000,-2.406922,-1.662410,1.048229,-1.362737,1.787090,1.092857,-0.555903,0.452744,0.004487,0.302004,-0.408010,-0.489213,0.651153,-0.255125,18.399092,34.580120,-20.143936,-0.309877,0.416959,1.312057,-0.196061,0.000000,0.000000,0.000000,0.000000,0.000000,0.000000
14759142.000000,-2.406425,-1.662396,1.048572,-1.363187,1.786553,1.093561,-0.556162,0.462041,0.009662,0.318606,-0.421657,-0.509495,0.667297,-0.257083,18.720442,34.433331,-20.092361,-0.163088,0.410551,1.318465,-0.163102,0.000000,0.000000,0.000000,0.000000,0.000000,0.000000
14759143.000000,-2.405917,-1.662391,1.048932,-1.363656,1.786006,1.094291,-0.556411,0.484894,0.007362,0.332709,-0.439407,-0.521847,0.683973,-0.252120,18.966413,34.409527,-20.143936,-0.087709,0.506681,1.344100,-0.182328,0.000000,0.000000,0.000000,0.000000,0.000000,0.000000
14759144.000000,-2.405400,-1.662381,1.049296,-1.364138,1.785437,1.095040,-0.556653,0.491506,0.007501,0.338088,-0.450006,-0.531347,0.709192,-0.245565,19.339338,34.310345,-20.215347,-0.012331,0.506681,1.377059,-0.221696,0.000000,0.000000,0.000000,0.000000,0.000000,0.000000
14759145.000000,-2.404858,-1.662371,1.049671,-1.364634,1.784864,1.095805,-0.556907,0.502351,0.007526,0.349151,-0.464957,-0.546164,0.723297,-0.251365,19.613081,34.211163,-20.239151,0.086851,0.559781,1.383468,-0.175919,0.000000,0.000000,0.000000,0.000000,0.000000,0.000000
14759146.000000,-2.404317,-1.662359,1.050061,-1.365152,1.784269,1.096598,-0.557148,0.519084,0.010534,0.365841,-0.482372,-0.553567,0.743005,-0.246592,19.934431,34.115948,-20.290726,0.233641,0.530485,1.337692,-0.221696,0.000000,0.000000,0.000000,0.000000,0.000000,0.000000
14759147.000000,-2.403753,-1.662353,1.050472,-1.365673,1.783668,1.097396,-0.557395,0.524111,0.007399,0.384541,-0.491856,-0.562677,0.759950,-0.249075,20.231977,34.115948,-20.512894,0.285216,0.464567,1.331283,-0.229020,0.000000,0.000000,0.000000,0.000000,0.000000,0.000000
14759148.000000,-2.403189,-1.662341,1.050893,-1.366214,1.783052,1.098237,-0.557641,0.537893,0.006978,0.393840,-0.505979,-0.579746,0.774906,-0.243846,20.577131,34.040569,-20.631912,0.380431,0.393156,1.266280,-0.196061,0.000000,0.000000,0.000000,0.000000,0.000000,0.000000
14759149.000000,-2.402598,-1.662323,1.051319,-1.366761,1.782425,1.099106,-0.557878,0.556323,0.011445,0.405745,-0.518743,-0.585756,0.817220,-0.240637,20.874678,33.893780,-20.782669,0.332823,0.308927,1.214095,-0.202470,0.000000,0.000000,0.000000,0.000000,0.000000,0.000000
14759150.000000,-2.401988,-1.662308,1.051763,-1.367317,1.781780,1.099964,-0.558127,0.574700,0.012885,0.424046,-0.530994,-0.603897,0.827697,-0.248455,21.096846,33.822369,-20.953262,0.356627,0.291532,1.259872,-0.136552,0.000000,0.000000,0.000000,0.000000,0.000000,0.000000
14759151.000000,-2.401378,-1.662292,1.052222,-1.367885,1.781109,1.100856,-0.558353,0.586785,0.015196,0.435714,-0.539619,-0.624104,0.836291,-0.239008,21.394392,33.699383,-21.100052,0.257445,0.327238,1.312057,-0.208878,0.000000,0.000000,0.000000,0.000000,0.000000,0.000000
14759152.000000,-2.400748,-1.662276,1.052688,-1.368472,1.780409,1.101763,-0.558593,0.595051,0.015756,0.447047,-0.551471,-0.645065,0.861188,-0.240990,21.668135,33.624004,-21.270645,0.209837,0.405057,1.253463,-0.188737,0.000000,0.000000,0.000000,0.000000,0.000000,0.000000
14759153.000000,-2.400101,-1.662254,1.053159,-1.369053,1.779713,1.102703,-0.558833,0.626469,0.015281,0.452591,-0.556854,-0.665436,0.879948,-0.238970,21.814924,33.453411,-21.393631,0.134459,0.482877,1.220504,-0.122819,0.000000,0.000000,0.000000,0.000000,0.000000,0.000000
14759154.000000,-2.399421,-1.662243,1.053643,-1.369668,1.778996,1.103657,-0.559053,0.642558,0.011891,0.462996,-0.570217,-0.673963,0.909832,-0.233771,21.890303,33.405804,-21.540421,0.257445,0.673307,1.188461,-0.221696,0.000000,0.000000,0.000000,0.000000,0.000000,0.000000
14759155.000000,-2.398725,-1.662229,1.054137,-1.370284,1.778291,1.104618,-0.559288,0.658509,0.013180,0.475951,-0.581869,-0.696833,0.922049,-0.229966,22.037092,33.330425,-21.687210,0.408202,0.757535,1.201278,-0.215287,0.000000,0.000000,0.000000,0.000000,0.000000,0.000000
14759156.000000,-2.398023,-1.662218,1.054638,-1.370911,1.777585,1.105612,-0.559519,0.678018,0.009373,0.483531,-0.596954,-0.691228,0.934280,-0.229539,22.187849,33.330425,-21.786392,0.554991,0.882963,1.272689,-0.182328,0.000000,0.000000,0.000000,0.000000,0.000000,0.000000
14759157.000000,-2.397307,-1.662212,1.055155,-1.371546,1.776883,1.106610,-0.559748,0.685773,0.007532,0.496308,-0.603562,-0.687037,0.958737,-0.224425,22.410017,33.429607,-22.008560,0.654173,0.894864,1.312057,-0.221696,0.000000,0.000000,0.000000,0.000000,0.000000,0.000000
14759158.000000,-2.396577,-1.662205,1.055673,-1.372188,1.776205,1.107652,-0.559979,0.682020,0.006991,0.501103,-0.620330,-0.684491,0.985250,-0.224324,22.187849,33.501019,-21.909378,0.578795,0.900358,1.318465,-0.215287,0.000000,0.000000,0.000000,0.000000,0.000000,0.000000
14759159.000000,-2.395849,-1.662200,1.056217,-1.372859,1.775510,1.108707,-0.560203,0.684937,0.004417,0.516976,-0.639249,-0.683399,1.024585,-0.219662,20.922285,33.675579,-21.762589,0.158263,0.840848,1.429244,-0.221696,0.000000,0.000000,0.000000,0.000000,0.000000,0.000000
14759160.000000,-2.395123,-1.662189,1.056771,-1.373538,1.774809,1.109761,-0.560428,0.690155,0.002617,0.535195,-0.669057,-0.690184,1.038798,-0.220666,18.768049,33.723186,-21.294449,-0.583620,0.811552,1.552840,-0.215287,0.000000,0.000000,0.000000,0.000000,0.000000,0.000000
14759161.000000,-2.394388,-1.662188,1.057359,-1.374239,1.774125,1.110851,-0.560646,0.709862,0.001220,0.557400,-0.675490,-0.684506,1.040271,-0.221027,15.947309,33.770794,-20.659683,-1.448488,0.745634,1.591293,-0.221696,0.000000,0.000000,0.000000,0.000000,0.000000,0.000000
14759162.000000,-2.393665,-1.662179,1.057949,-1.374967,1.773432,1.111959,-0.560869,0.719156,0.003194,0.567186,-0.685183,-0.687774,1.069360,-0.215232,13.074994,33.552593,-19.774979,-2.138796,0.649503,1.689254,-0.229020,0.000000,0.000000,0.000000,0.000000,0.000000,0.000000
14759163.000000,-2.392936,-1.662184,1.058582,-1.375691,1.772769,1.113064,-0.561093,0.727436,-0.000038,0.586341,-0.698569,-0.674116,1.070855,-0.219278,10.301862,33.382000,-18.989456,-2.583132,0.452665,1.773483,-0.175919,0.000000,0.000000,0.000000,0.000000,0.000000,0.000000
14759164.000000,-2.392218,-1.662184,1.059237,-1.376413,1.772103,1.114228,-0.561306,0.728841,-0.000346,0.602388,-0.702407,-0.667726,1.089337,-0.215032,7.830244,33.112225,-18.251541,-3.102846,0.249418,1.605026,-0.208878,0.000000,0.000000,0.000000,0.000000,0.000000,0.000000
14759165.000000,-2.391491,-1.662189,1.059894,-1.377130,1.771448,1.115403,-0.561518,0.726370,-0.000101,0.615393,-0.709450,-0.655871,1.118383,-0.212604,5.648237,32.937664,-17.541397,-3.376589,0.076383,1.370651,-0.208878,0.000000,0.000000,0.000000,0.000000,0.000000,0.000000
14759166.000000,-2.390782,-1.662210,1.060558,-1.377843,1.770802,1.116583,-0.561736,0.725794,-0.005774,0.621084,-0.710103,-0.645529,1.131024,-0.213736,3.819318,33.013042,-16.831253,-3.670168,-0.007845,1.383468,-0.155778,0.000000,0.000000,0.000000,0.000000,0.000000,0.000000
14759167.000000,-2.390060,-1.662235,1.061213,-1.378563,1.770154,1.117785,-0.561949,0.724530,-0.013980,0.632729,-0.706198,-0.637759,1.163840,-0.211616,2.184797,33.136028,-16.117142,-3.697939,0.081876,1.474105,-0.221696,0.000000,0.000000,0.000000,0.000000,0.000000,0.000000
14759168.000000,-2.389346,-1.662265,1.061890,-1.379257,1.769516,1.118978,-0.562174,0.716594,-0.020862,0.649706,-0.701993,-0.635172,1.173512,-0.220116,0.895429,33.306622,-15.553787,-3.797121,0.237516,1.617843,-0.182328,0.000000,0.000000,0.000000,0.000000,0.000000,0.000000
14759169.000000,-2.388633,-1.662296,1.062567,-1.379960,1.768870,1.120227,-0.562394,0.717366,-0.023322,0.657677,-0.698327,-0.635493,1.185348,-0.220499,-0.215411,33.382000,-14.990433,-3.745546,0.470060,1.487838,-0.188737,0.000000,0.000000,0.000000,0.000000,0.000000,0.000000
14759170.000000,-2.387901,-1.662332,1.063254,-1.380666,1.768227,1.121475,-0.562604,0.717988,-0.028324,0.665625,-0.696108,-0.635139,1.207282,-0.214769,-1.354022,33.453411,-14.645279,-3.547182,0.571683,1.175643,-0.254655,0.000000,0.000000,0.000000,0.000000,0.000000,0.000000
14759171.000000,-2.387183,-1.662360,1.063948,-1.381370,1.767609,1.122735,-0.562822,0.734336,-0.030427,0.666684,-0.700977,-0.628063,1.203750,-0.218736,-2.298235,33.330425,-14.327896,-3.178224,0.620206,0.954086,-0.208878,0.000000,0.000000,0.000000,0.000000,0.000000,0.000000
14759172.000000,-2.386460,-1.662396,1.064637,-1.382071,1.766989,1.123976,-0.563039,0.731326,-0.031128,0.692053,-0.701921,-0.624263,1.226723,-0.215120,-3.063921,33.282818,-13.958939,-2.833071,0.620206,0.915633,-0.215287,0.000000,0.000000,0.000000,0.000000,0.000000,0.000000
14759173.000000,-2.385736,-1.662434,1.065327,-1.382755,1.766390,1.125183,-0.563254,0.723557,-0.031818,0.691887,-0.695790,-0.626480,1.220530,-0.216628,-3.706622,33.235210,-13.542374,-2.535524,0.554288,1.039230,-0.229020,0.000000,0.000000,0.000000,0.000000,0.000000,0.000000
14759174.000000,-2.385027,-1.662458,1.066018,-1.383436,1.765781,1.126385,-0.563465,0.718956,-0.027649,0.694039,-0.687869,-0.612176,1.205055,-0.213201,-4.178729,32.989239,-13.026627,-2.384767,0.452665,1.331283,-0.248246,0.000000,0.000000,0.000000,0.000000,0.000000,0.000000
14759175.000000,-2.384326,-1.662474,1.066711,-1.384098,1.765194,1.127592,-0.563684,0.711612,-0.022063,0.702093,-0.674999,-0.603315,1.208440,-0.212037,-4.377093,32.620281,-12.606094,-2.511720,0.279630,1.532699,-0.182328,0.000000,0.000000,0.000000,0.000000,0.000000,0.000000
14759176.000000,-2.383626,-1.662483,1.067425,-1.384744,1.764617,1.128800,-0.563883,0.704987,-0.016300,0.708019,-0.668584,-0.593548,1.199556,-0.204085,-4.547686,32.156109,-12.336319,-2.682314,0.117582,1.481429,-0.235429,0.000000,0.000000,0.000000,0.000000,0.000000,0.000000
14759177.000000,-2.382940,-1.662475,1.068140,-1.385392,1.764038,1.130026,-0.564094,0.700417,-0.008296,0.710745,-0.659981,-0.584486,1.217362,-0.201128,-4.623065,31.521343,-11.971329,-2.833071,0.058073,1.357833,-0.208878,0.000000,0.000000,0.000000,0.000000,0.000000,0.000000
14759178.000000,-2.382240,-1.662466,1.068849,-1.386032,1.763441,1.131228,-0.564305,0.694349,-0.003451,0.714328,-0.666448,-0.583721,1.218659,-0.202495,-4.869036,30.906414,-11.725357,-2.880678,0.141385,1.253463,-0.202470,0.000000,0.000000,0.000000,0.000000,0.000000,0.000000
14759179.000000,-2.381540,-1.662449,1.069567,-1.386683,1.762859,1.132451,-0.564506,0.702426,0.005786,0.711079,-0.658075,-0.585568,1.212384,-0.197891,-5.067400,30.295452,-11.380203,-2.856874,0.308927,1.129867,-0.235429,0.000000,0.000000,0.000000,0.000000,0.000000,0.000000
14759180.000000,-2.380856,-1.662432,1.070287,-1.387322,1.762276,1.133671,-0.564721,0.693874,0.008722,0.706607,-0.648695,-0.586247,1.228024,-0.200111,-5.166583,29.708294,-11.185806,-2.928285,0.381254,1.045638,-0.182328,0.000000,0.000000,0.000000,0.000000,0.000000,0.000000
14759181.000000,-2.380173,-1.662403,1.071025,-1.387951,1.761711,1.134882,-0.564924,0.688954,0.015169,0.714760,-0.645994,-0.579581,1.219824,-0.203379,-5.142779,29.073528,-10.939835,-2.979860,0.351041,0.915633,-0.215287,0.000000,0.000000,0.000000,0.000000,0.000000,0.000000
14759182.000000,-2.379501,-1.662381,1.071773,-1.388567,1.761148,1.136101,-0.565123,0.684480,0.016511,0.721059,-0.636963,-0.575610,1.214304,-0.199654,-5.067400,28.581585,-10.741470,-3.154421,0.231107,0.811263,-0.221696,0.000000,0.000000,0.000000,0.000000,0.000000,0.000000
14759183.000000,-2.378831,-1.662354,1.072509,-1.389186,1.760581,1.137298,-0.565322,0.675877,0.020052,0.729664,-0.625866,-0.570327,1.211502,-0.196945,-4.896807,28.117413,-10.400284,-3.301210,0.154203,0.824081,-0.215287,0.000000,0.000000,0.000000,0.000000,0.000000,0.000000
14759184.000000,-2.378165,-1.662326,1.073255,-1.389797,1.760027,1.138499,-0.565520,0.675278,0.020263,0.732252,-0.620702,-0.567593,1.197086,-0.195831,-4.797625,27.629436,-10.031326,-3.448000,0.100187,0.941268,-0.202470,0.000000,0.000000,0.000000,0.000000,0.000000,0.000000
14759185.000000,-2.377486,-1.662310,1.073995,-1.390415,1.759485,1.139711,-0.565712,0.671901,0.018536,0.734628,-0.619143,-0.557627,1.206962,-0.191973,-4.845232,27.359661,-9.662369,-3.448000,-0.001437,1.096908,-0.215287,0.000000,0.000000,0.000000,0.000000,0.000000,0.000000
14759186.000000,-2.376791,-1.662292,1.074756,-1.391026,1.758940,1.140925,-0.565906,0.678860,0.016592,0.745996,-0.619127,-0.559814,1.210953,-0.190669,-5.067400,27.137493,-9.368790,-3.448000,-0.007845,1.019088,-0.229020,0.000000,0.000000,0.000000,0.000000,0.000000,0.000000
14759187.000000,-2.376096,-1.662281,1.075532,-1.391641,1.758380,1.142171,-0.566100,0.688154,0.013216,0.753813,-0.610998,-0.554734,1.213762,-0.190508,-5.440325,27.014507,-9.122818,-3.376589,0.058073,0.759078,-0.221696,0.000000,0.000000,0.000000,0.000000,0.000000,0.000000
14759188.000000,-2.375395,-1.662269,1.076305,-1.392259,1.757828,1.143406,-0.566292,0.689296,0.010497,0.748748,-0.611765,-0.551017,1.226987,-0.190278,-5.813250,26.919292,-8.924454,-3.277406,0.141385,0.486251,-0.196061,0.000000,0.000000,0.000000,0.000000,0.000000,0.000000
14759189.000000,-2.374709,-1.662263,1.077108,-1.392855,1.757285,1.144649,-0.566474,0.705973,0.006592,0.758585,-0.608927,-0.549533,1.213298,-0.189159,-6.035418,26.919292,-8.900650,-3.325014,0.129484,0.356246,-0.215287,0.000000,0.000000,0.000000,0.000000,0.000000,0.000000
14759190.000000,-2.374025,-1.662257,1.077908,-1.393434,1.756739,1.145878,-0.566665,0.697254,0.007229,0.777049,-0.596684,-0.539103,1.231494,-0.189553,-6.134600,26.919292,-8.876846,-3.598757,0.159696,0.434066,-0.202470,0.000000,0.000000,0.000000,0.000000,0.000000,0.000000
14759191.000000,-2.373338,-1.662258,1.078717,-1.393996,1.756185,1.147076,-0.566853,0.690253,0.006344,0.791743,-0.585753,-0.550850,1.225723,-0.188366,-6.233782,26.990704,-8.706253,-4.019289,0.147794,0.674850,-0.229020,0.000000,0.000000,0.000000,0.000000,0.000000,0.000000
14759192.000000,-2.372665,-1.662258,1.079547,-1.394564,1.755648,1.148285,-0.567044,0.685252,0.003311,0.799882,-0.578197,-0.541309,1.211003,-0.189482,-6.281390,27.042278,-8.706253,-4.439821,0.178007,0.941268,-0.202470,0.000000,0.000000,0.000000,0.000000,0.000000,0.000000
14759193.000000,-2.371972,-1.662259,1.080373,-1.395131,1.755116,1.149476,-0.567236,0.686474,0.001867,0.810559,-0.571505,-0.539663,1.203816,-0.187148,-6.578936,27.066082,-8.682449,-4.784975,0.117582,1.162826,-0.215287,0.000000,0.000000,0.000000,0.000000,0.000000,0.000000
14759194.000000,-2.371266,-1.662251,1.081220,-1.395700,1.754595,1.150700,-0.567421,0.687470,0.003727,0.815292,-0.570481,-0.529941,1.205702,-0.187047,-6.975665,26.966900,-8.682449,-4.832582,0.058073,1.123458,-0.229020,0.000000,0.000000,0.000000,0.000000,0.000000,0.000000
14759195.000000,-2.370562,-1.662240,1.082087,-1.396283,1.754074,1.151949,-0.567609,0.690951,0.005483,0.827601,-0.569030,-0.522923,1.233994,-0.188111,-7.495379,26.843914,-8.753860,-4.709596,0.022367,0.901900,-0.215287,0.000000,0.000000,0.000000,0.000000,0.000000,0.000000
14759196.000000,-2.369847,-1.662237,1.082940,-1.396842,1.753544,1.153173,-0.567791,0.693594,0.005417,0.839148,-0.579272,-0.519027,1.235411,-0.187427,-8.015094,26.772503,-8.706253,-4.661989,0.004056,0.700484,-0.229020,0.000000,0.000000,0.000000,0.000000,0.000000,0.000000
14759197.000000,-2.369130,-1.662226,1.083815,-1.397411,1.753034,1.154394,-0.567983,0.705848,0.006557,0.852638,-0.576180,-0.507132,1.216031,-0.189838,-8.582416,26.649517,-8.607071,-4.535036,-0.001437,0.668441,-0.175919,0.000000,0.000000,0.000000,0.000000,0.000000,0.000000
14759198.000000,-2.368419,-1.662218,1.084672,-1.397980,1.752513,1.155597,-0.568162,0.710167,0.006186,0.841531,-0.569336,-0.512403,1.226622,-0.182179,-9.177508,26.574139,-8.337296,-4.439821,0.022367,0.804855,-0.215287,0.000000,0.000000,0.000000,0.000000,0.000000,0.000000
14759199.000000,-2.367712,-1.662207,1.085561,-1.398521,1.752004,1.156787,-0.568343,0.706141,0.006390,0.859258,-0.568137,-0.508394,1.216843,-0.186538,-9.574237,26.478924,-8.166702,-4.586610,0.064481,0.915633,-0.229020,0.000000,0.000000,0.000000,0.000000,0.000000,0.000000
14759200.000000,-2.367008,-1.662195,1.086462,-1.399062,1.751497,1.157990,-0.568528,0.707880,0.009088,0.866361,-0.555328,-0.508230,1.206026,-0.183931,-10.046344,26.403545,-8.043716,-4.808778,0.058073,0.966903,-0.208878,0.000000,0.000000,0.000000,0.000000,0.000000,0.000000
14759201.000000,-2.366294,-1.662192,1.087373,-1.399608,1.750991,1.159188,-0.568704,0.706249,0.008393,0.879456,-0.548650,-0.502660,1.209191,-0.183874,-10.466876,26.451153,-8.019913,-4.955568,0.040677,0.915633,-0.235429,0.000000,0.000000,0.000000,0.000000,0.000000,0.000000
14759202.000000,-2.365586,-1.662184,1.088303,-1.400147,1.750501,1.160392,-0.568882,0.702601,0.009224,0.898129,-0.550037,-0.500129,1.200190,-0.179315,-10.958819,26.451153,-8.043716,-4.983339,0.058073,0.901900,-0.202470,0.000000,0.000000,0.000000,0.000000,0.000000,0.000000
14759203.000000,-2.364863,-1.662183,1.089246,-1.400698,1.750000,1.161599,-0.569054,0.706347,0.007035,0.914963,-0.547888,-0.490368,1.216922,-0.177647,-11.478534,26.574139,-8.238113,-4.832582,0.022367,0.960494,-0.268388,0.000000,0.000000,0.000000,0.000000,0.000000,0.000000
14759204.000000,-2.364140,-1.662192,1.090207,-1.401247,1.749508,1.162785,-0.569247,0.707784,0.000217,0.931982,-0.546543,-0.490408,1.215026,-0.184142,-11.926837,26.796307,-8.412674,-4.685792,0.027860,0.934859,-0.169511,0.000000,0.000000,0.000000,0.000000,0.000000,0.000000
14759205.000000,-2.363436,-1.662187,1.091178,-1.401790,1.749015,1.163989,-0.569421,0.702960,0.000131,0.941438,-0.546076,-0.493080,1.207361,-0.180401,-12.271991,26.820110,-8.531693,-4.634218,-0.031649,0.901900,-0.182328,0.000000,0.000000,0.000000,0.000000,0.000000,0.000000
14759206.000000,-2.362726,-1.662198,1.092143,-1.402323,1.748524,1.165169,-0.569592,0.702841,-0.004702,0.934801,-0.538775,-0.485629,1.207826,-0.175429,-12.545733,27.042278,-8.583267,-4.733400,-0.072848,0.901900,-0.235429,0.000000,0.000000,0.000000,0.000000,0.000000,0.000000
14759207.000000,-2.362014,-1.662200,1.093129,-1.402842,1.748044,1.166353,-0.569771,0.705170,-0.003943,0.947101,-0.531837,-0.483584,1.198626,-0.180808,-12.843280,27.089886,-8.654678,-4.931764,-0.031649,1.064864,-0.182328,0.000000,0.000000,0.000000,0.000000,0.000000,0.000000
14759208.000000,-2.361326,-1.662201,1.094108,-1.403362,1.747558,1.167540,-0.569940,0.702581,-0.002956,0.957348,-0.527921,-0.482630,1.207778,-0.176088,-12.966266,27.113689,-8.436478,-5.153932,-0.072848,1.201278,-0.248246,0.000000,0.000000,0.000000,0.000000,0.000000,0.000000
14759209.000000,-2.360619,-1.662211,1.095084,-1.403880,1.747072,1.168718,-0.570109,0.699167,-0.004676,0.971252,-0.525614,-0.489443,1.201135,-0.171252,-13.287616,27.236675,-8.238113,-5.276918,0.010465,1.259872,-0.235429,0.000000,0.000000,0.000000,0.000000,0.000000,0.000000
14759210.000000,-2.359928,-1.662219,1.096072,-1.404414,1.746583,1.169896,-0.570276,0.701299,-0.007713,0.973031,-0.528129,-0.492809,1.187231,-0.171235,-13.509784,27.308086,-7.944534,-5.229311,0.105680,1.279098,-0.241837,0.000000,0.000000,0.000000,0.000000,0.000000,0.000000
14759211.000000,-2.359231,-1.662226,1.097072,-1.404946,1.746098,1.171072,-0.570441,0.695798,-0.009678,0.978745,-0.529691,-0.481088,1.180754,-0.164764,-13.731952,27.359661,-7.773941,-5.177736,0.100187,1.227828,-0.268388,0.000000,0.000000,0.000000,0.000000,0.000000,0.000000
14759212.000000,-2.358531,-1.662232,1.098085,-1.405458,1.745630,1.172277,-0.570615,0.694338,-0.008505,0.998126,-0.521187,-0.474937,1.176378,-0.165536,-14.029498,27.431072,-7.476395,-5.253114,0.129484,0.974227,-0.182328,0.000000,0.000000,0.000000,0.000000,0.000000,0.000000
14759213.000000,-2.357865,-1.662232,1.099115,-1.405975,1.745164,1.173495,-0.570773,0.684601,-0.009097,1.000390,-0.516251,-0.469000,1.172070,-0.164925,-13.954120,27.431072,-7.281998,-5.376100,0.022367,0.700484,-0.235429,0.000000,0.000000,0.000000,0.000000,0.000000,0.000000
14759214.000000,-2.357192,-1.662238,1.100139,-1.406459,1.744700,1.174675,-0.570938,0.675113,-0.008305,1.009097,-0.517266,-0.462209,1.168160,-0.162026,-13.954120,27.506451,-7.111404,-5.749025,-0.055453,0.603439,-0.241837,0.000000,0.000000,0.000000,0.000000,0.000000,0.000000
14759215.000000,-2.356539,-1.662241,1.101180,-1.406962,1.744252,1.175856,-0.571103,0.668365,-0.006451,1.018610,-0.508415,-0.462087,1.154178,-0.161524,-13.807330,27.530254,-6.913040,-6.018800,-0.121371,0.727035,-0.208878,0.000000,0.000000,0.000000,0.000000,0.000000,0.000000
14759216.000000,-2.355876,-1.662242,1.102220,-1.407461,1.743798,1.177040,-0.571260,0.661652,-0.004569,1.009339,-0.501158,-0.456376,1.161818,-0.157669,-13.660541,27.530254,-6.766251,-6.292543,-0.187289,0.850631,-0.229020,0.000000,0.000000,0.000000,0.000000,0.000000,0.000000
14759217.000000,-2.355218,-1.662238,1.103292,-1.407940,1.743352,1.178220,-0.571418,0.658741,-0.000927,1.031789,-0.492847,-0.451537,1.167745,-0.161391,-13.585162,27.431072,-6.694839,-6.590089,-0.174471,0.863448,-0.202470,0.000000,0.000000,0.000000,0.000000,0.000000,0.000000
14759218.000000,-2.354566,-1.662230,1.104378,-1.408416,1.742909,1.179427,-0.571569,0.656915,0.002108,1.049472,-0.485322,-0.452310,1.166485,-0.161995,-13.533587,27.308086,-6.667068,-6.935243,-0.168978,0.739852,-0.254655,0.000000,0.000000,0.000000,0.000000,0.000000,0.000000
14759219.000000,-2.353913,-1.662222,1.105465,-1.408900,1.742456,1.180633,-0.571733,0.649237,0.004726,1.059887,-0.483222,-0.447950,1.178987,-0.161006,-13.561358,27.161297,-6.790054,-7.157411,-0.150668,0.544845,-0.229020,0.000000,0.000000,0.000000,0.000000,0.000000,0.000000
14759220.000000,-2.353261,-1.662207,1.106562,-1.409376,1.742023,1.181838,-0.571894,0.663110,0.008170,1.065565,-0.479275,-0.443944,1.168216,-0.157984,-13.684344,26.943096,-6.742447,-7.205019,-0.162570,0.466109,-0.188737,0.000000,0.000000,0.000000,0.000000,0.000000,0.000000
14759221.000000,-2.352605,-1.662200,1.107655,-1.409852,1.741573,1.183053,-0.572044,0.662055,0.007146,1.099453,-0.474201,-0.450089,1.187535,-0.155330,-13.731952,26.867718,-6.643265,-7.280397,-0.150668,0.401107,-0.229020,0.000000,0.000000,0.000000,0.000000,0.000000,0.000000
14759222.000000,-2.351953,-1.662191,1.108761,-1.410314,1.741133,1.184237,-0.572203,0.654782,0.007500,1.101277,-0.467958,-0.457732,1.183677,-0.156286,-13.783526,26.748699,-6.397293,-7.355775,-0.150668,0.466109,-0.202470,0.000000,0.000000,0.000000,0.000000,0.000000,0.000000
14759223.000000,-2.351313,-1.662179,1.109886,-1.410783,1.740705,1.185429,-0.572350,0.651433,0.009048,1.104010,-0.465736,-0.444186,1.176157,-0.150072,-13.783526,26.574139,-6.202896,-7.454957,-0.216586,0.622665,-0.241837,0.000000,0.000000,0.000000,0.000000,0.000000,0.000000
14759224.000000,-2.350675,-1.662166,1.111000,-1.411237,1.740271,1.186613,-0.572505,0.640366,0.009439,1.113228,-0.464675,-0.439015,1.176855,-0.147888,-13.731952,26.427349,-5.980728,-7.649354,-0.282504,0.694076,-0.196061,0.000000,0.000000,0.000000,0.000000,0.000000,0.000000
14759225.000000,-2.350033,-1.662152,1.112150,-1.411682,1.739843,1.187814,-0.572649,0.637067,0.010820,1.124608,-0.456738,-0.435653,1.180317,-0.144698,-13.731952,26.232952,-5.980728,-7.899293,-0.348422,0.739852,-0.208878,0.000000,0.000000,0.000000,0.000000,0.000000,0.000000
14759226.000000,-2.349403,-1.662141,1.113304,-1.412140,1.739424,1.189029,-0.572793,0.633911,0.010632,1.139972,-0.456672,-0.427402,1.199257,-0.144929,-13.684344,26.086163,-6.056107,-7.998476,-0.407931,0.648299,-0.268388,0.000000,0.000000,0.000000,0.000000,0.000000,0.000000
14759227.000000,-2.348757,-1.662127,1.114507,-1.412592,1.738985,1.190219,-0.572952,0.638928,0.011067,1.161542,-0.453069,-0.438230,1.197241,-0.146362,-13.858905,25.915569,-6.448868,-8.022280,-0.353915,0.622665,-0.182328,0.000000,0.000000,0.000000,0.000000,0.000000,0.000000
14759228.000000,-2.348133,-1.662119,1.115721,-1.413056,1.738564,1.191407,-0.573091,0.633171,0.009133,1.171522,-0.455825,-0.429456,1.175669,-0.141824,-13.882709,25.840191,-6.813858,-7.923097,-0.306307,0.681258,-0.241837,0.000000,0.000000,0.000000,0.000000,0.000000,0.000000
14759229.000000,-2.347497,-1.662116,1.116931,-1.413520,1.738153,1.192599,-0.573240,0.629995,0.009132,1.186241,-0.451826,-0.425195,1.183634,-0.144102,-13.930316,25.840191,-7.234390,-7.800111,-0.300814,0.733443,-0.229020,0.000000,0.000000,0.000000,0.000000,0.000000,0.000000
14759230.000000,-2.346864,-1.662111,1.118166,-1.413978,1.737733,1.193767,-0.573384,0.630092,0.006894,1.200349,-0.452612,-0.425283,1.175784,-0.146389,-13.954120,25.816387,-7.575577,-7.776308,-0.228488,0.798446,-0.215287,0.000000,0.000000,0.000000,0.000000,0.000000,0.000000
14759231.000000,-2.346243,-1.662119,1.119420,-1.414431,1.737320,1.194943,-0.573529,0.630170,0.001906,1.215664,-0.451053,-0.417865,1.168477,-0.147809,-13.981891,25.939373,-7.845352,-7.800111,-0.216586,0.908309,-0.229020,0.000000,0.000000,0.000000,0.000000,0.000000,0.000000
14759232.000000,-2.345619,-1.662120,1.120657,-1.414882,1.736915,1.196108,-0.573672,0.626397,0.000854,1.225469,-0.460825,-0.415422,1.168945,-0.145843,-14.029498,25.963177,-8.019913,-7.823915,-0.252291,0.915633,-0.208878,0.000000,0.000000,0.000000,0.000000,0.000000,0.000000
14759233.000000,-2.344991,-1.662123,1.121918,-1.415339,1.736502,1.197280,-0.573805,0.633914,-0.000439,1.224037,-0.461861,-0.415375,1.162908,-0.142108,-14.152484,26.010784,-8.043716,-7.823915,-0.240389,0.966903,-0.248246,0.000000,0.000000,0.000000,0.000000,0.000000,0.000000
14759234.000000,-2.344372,-1.662135,1.123163,-1.415813,1.736092,1.198461,-0.573950,0.633788,-0.002376,1.210443,-0.463016,-0.409981,1.182783,-0.141085,-14.204059,26.232952,-8.067520,-7.649354,-0.228488,0.980636,-0.215287,0.000000,0.000000,0.000000,0.000000,0.000000,0.000000
14759235.000000,-2.343751,-1.662157,1.124412,-1.416277,1.735700,1.199615,-0.574089,0.631712,-0.005968,1.221014,-0.467872,-0.406402,1.186194,-0.142100,-14.180255,26.843914,-8.166702,-7.478761,-0.228488,1.045638,-0.274796,0.000000,0.000000,0.000000,0.000000,0.000000,0.000000
14759236.000000,-2.343145,-1.662177,1.125651,-1.416749,1.735293,1.200797,-0.574240,0.627652,-0.008443,1.226119,-0.470000,-0.404542,1.178555,-0.144499,-13.906512,27.748455,-8.583267,-7.328004,-0.211093,1.077682,-0.188737,0.000000,0.000000,0.000000,0.000000,0.000000,0.000000
14759237.000000,-2.342540,-1.662206,1.126867,-1.417223,1.734894,1.201981,-0.574382,0.611387,-0.017151,1.222775,-0.470409,-0.401394,1.185965,-0.141855,-13.410602,28.998150,-9.344986,-7.256593,-0.228488,0.941268,-0.202470,0.000000,0.000000,0.000000,0.000000,0.000000,0.000000
14759238.000000,-2.341942,-1.662223,1.128092,-1.417675,1.734515,1.203187,-0.574521,0.619863,-0.015746,1.219255,-0.458088,-0.394103,1.192236,-0.143717,-12.867084,30.247845,-10.348709,-7.304201,-0.258700,0.843307,-0.241837,0.000000,0.000000,0.000000,0.000000,0.000000,0.000000
14759239.000000,-2.341341,-1.662239,1.129310,-1.418132,1.734116,1.204362,-0.574670,0.612625,-0.021295,1.248559,-0.456256,-0.387164,1.188635,-0.143768,-12.248187,31.545147,-11.578568,-7.403383,-0.174471,0.922042,-0.196061,0.000000,0.000000,0.000000,0.000000,0.000000,0.000000
14759240.000000,-2.340742,-1.662248,1.130524,-1.418579,1.733723,1.205543,-0.574810,0.605053,-0.021009,1.242139,-0.454965,-0.396831,1.183946,-0.140838,-11.676898,32.695660,-12.558487,-7.554140,-0.025240,1.182052,-0.229020,0.000000,0.000000,0.000000,0.000000,0.000000,0.000000
14759241.000000,-2.340150,-1.662248,1.131757,-1.419040,1.733332,1.206730,-0.574947,0.599951,-0.012833,1.234233,-0.453205,-0.393188,1.169451,-0.139738,-11.208758,33.647808,-13.613785,-7.625551,0.154203,1.409103,-0.235429,0.000000,0.000000,0.000000,0.000000,0.000000,0.000000
14759242.000000,-2.339547,-1.662245,1.132973,-1.419489,1.732946,1.207927,-0.575088,0.598825,-0.012470,1.239025,-0.449876,-0.395396,1.180290,-0.138144,-10.887408,34.433331,-14.597672,-7.776308,0.237516,1.572067,-0.235429,0.000000,0.000000,0.000000,0.000000,0.000000,0.000000
14759243.000000,-2.338943,-1.662235,1.134204,-1.419940,1.732572,1.209104,-0.575224,0.603745,-0.004287,1.234121,-0.450108,-0.390146,1.173536,-0.141974,-10.788226,34.996685,-15.430801,-7.823915,0.237516,1.649886,-0.241837,0.000000,0.000000,0.000000,0.000000,0.000000,0.000000
14759244.000000,-2.338339,-1.662231,1.135444,-1.420405,1.732192,1.210304,-0.575370,0.601886,-0.005415,1.239767,-0.452547,-0.381393,1.190819,-0.142236,-10.637469,35.560040,-16.117142,-7.724733,0.255826,1.565658,-0.202470,0.000000,0.000000,0.000000,0.000000,0.000000,0.000000
14759245.000000,-2.337737,-1.662230,1.136660,-1.420846,1.731810,1.211477,-0.575503,0.595746,-0.005546,1.232621,-0.447976,-0.379989,1.182778,-0.142616,-10.589862,36.071819,-16.509903,-7.800111,0.261320,1.513473,-0.268388,0.000000,0.000000,0.000000,0.000000,0.000000,0.000000
14759246.000000,-2.337154,-1.662228,1.137904,-1.421296,1.731450,1.212646,-0.575642,0.591461,-0.003705,1.237457,-0.445225,-0.374624,1.158989,-0.138091,-10.391498,36.488384,-16.978043,-7.847719,0.147794,1.624252,-0.241837,0.000000,0.000000,0.000000,0.000000,0.000000,0.000000
14759247.000000,-2.336569,-1.662232,1.139145,-1.421737,1.731093,1.213824,-0.575780,0.587476,-0.003487,1.242786,-0.441118,-0.361453,1.164995,-0.136671,-10.169330,36.928753,-17.517593,-7.970705,0.052579,1.643478,-0.241837,0.000000,0.000000,0.000000,0.000000,0.000000,0.000000
14759248.000000,-2.336002,-1.662245,1.140415,-1.422156,1.730749,1.214987,-0.575917,0.579536,-0.004019,1.255736,-0.433255,-0.357128,1.156398,-0.138099,-9.772601,37.392925,-18.080948,-8.319826,-0.055453,1.617843,-0.221696,0.000000,0.000000,0.000000,0.000000,0.000000,0.000000
14759249.000000,-2.335455,-1.662269,1.141706,-1.422561,1.730383,1.216164,-0.576052,0.569279,-0.013209,1.263178,-0.421031,-0.361881,1.150839,-0.137786,-9.276690,37.956280,-18.767288,-8.787966,-0.067355,1.526290,-0.221696,0.000000,0.000000,0.000000,0.000000,0.000000,0.000000
14759250.000000,-2.334902,-1.662300,1.142991,-1.422952,1.730021,1.217299,-0.576182,0.556266,-0.019441,1.279353,-0.408563,-0.359930,1.149176,-0.136890,-8.832355,38.495831,-19.552811,-9.331484,-0.097567,1.708480,-0.235429,0.000000,0.000000,0.000000,0.000000,0.000000,0.000000
14759251.000000,-2.334368,-1.662334,1.144292,-1.423352,1.729658,1.218443,-0.576311,0.550055,-0.025205,1.282366,-0.404352,-0.357735,1.131704,-0.137998,-8.388019,39.082989,-20.314529,-9.676638,-0.031649,1.903487,-0.208878,0.000000,0.000000,0.000000,0.000000,0.000000,0.000000
14759252.000000,-2.333836,-1.662386,1.145579,-1.423745,1.729284,1.219611,-0.576440,0.539320,-0.032855,1.269035,-0.399120,-0.361504,1.154841,-0.132052,-7.915911,39.816936,-20.953262,-10.073366,0.088285,1.903487,-0.241837,0.000000,0.000000,0.000000,0.000000,0.000000,0.000000
14759253.000000,-2.333300,-1.662431,1.146867,-1.424135,1.728914,1.220761,-0.576573,0.533142,-0.037964,1.268158,-0.395521,-0.363319,1.150972,-0.134648,-7.519183,40.404095,-21.294449,-10.220156,0.171598,1.819259,-0.208878,0.000000,0.000000,0.000000,0.000000,0.000000,0.000000
14759254.000000,-2.332772,-1.662480,1.148176,-1.424530,1.728554,1.221930,-0.576700,0.535974,-0.041834,1.282114,-0.392625,-0.358025,1.148213,-0.131450,-7.297015,40.991253,-21.786392,-10.347109,0.201810,1.708480,-0.208878,0.000000,0.000000,0.000000,0.000000,0.000000,0.000000
14759255.000000,-2.332244,-1.662524,1.149440,-1.424925,1.728199,1.223067,-0.576824,0.528293,-0.044396,1.277789,-0.392847,-0.356735,1.143936,-0.126055,-7.051043,41.431622,-21.885574,-10.370913,0.178007,1.702071,-0.248246,0.000000,0.000000,0.000000,0.000000,0.000000,0.000000
14759256.000000,-2.331732,-1.662578,1.150731,-1.425321,1.727840,1.224214,-0.576954,0.534383,-0.047537,1.271020,-0.394514,-0.356800,1.140568,-0.131421,-6.678118,42.046551,-22.008560,-10.319338,0.171598,1.779891,-0.182328,0.000000,0.000000,0.000000,0.000000,0.000000,0.000000
14759257.000000,-2.331220,-1.662627,1.152002,-1.425721,1.727482,1.225368,-0.577074,0.528161,-0.050034,1.287775,-0.390740,-0.355582,1.157539,-0.125934,-6.380572,42.534527,-21.762589,-10.148745,0.159696,1.877853,-0.248246,0.000000,0.000000,0.000000,0.000000,0.000000,0.000000
14759260.000000,-2.329723,-1.662733,1.155853,-1.426938,1.726445,1.228825,-0.577436,0.504031,-0.040455,1.296607,-0.396582,-0.352261,1.166785,-0.118817,-5.364947,43.292278,-22.353714,-9.553652,-0.001437,1.871444,-0.235429,0.000000,0.000000,0.000000,0.000000,0.000000,0.000000
14759261.000000,-2.329241,-1.662765,1.157158,-1.427349,1.726103,1.229971,-0.577554,0.494660,-0.037184,1.299523,-0.398678,-0.348751,1.157767,-0.120201,-4.896807,43.391460,-22.694901,-9.232302,0.100187,1.806442,-0.208878,0.000000,0.000000,0.000000,0.000000,0.000000,0.000000
14759262.000000,-2.328760,-1.662793,1.158464,-1.427762,1.725757,1.231119,-0.577667,0.488723,-0.036925,1.298350,-0.399609,-0.349502,1.142111,-0.114428,-4.575457,43.439068,-23.016251,-9.010134,0.207303,1.858627,-0.254655,0.000000,0.000000,0.000000,0.000000,0.000000,0.000000
14759263.000000,-2.328284,-1.662811,1.159760,-1.428174,1.725403,1.232242,-0.577794,0.478921,-0.030058,1.304358,-0.405263,-0.354449,1.132734,-0.118257,-4.226336,43.320049,-23.480423,-8.764162,0.297025,2.027084,-0.188737,0.000000,0.000000,0.000000,0.000000,0.000000,0.000000
14759264.000000,-2.327821,-1.662835,1.161053,-1.428603,1.725054,1.233376,-0.577905,0.477649,-0.024156,1.300605,-0.413487,-0.354570,1.114903,-0.116923,-3.805804,43.268475,-23.678787,-8.466616,0.416959,2.177230,-0.235429,0.000000,0.000000,0.000000,0.000000,0.000000,0.000000
14759265.000000,-2.327349,-1.662867,1.162333,-1.429032,1.724710,1.234540,-0.578022,0.476655,-0.024681,1.295503,-0.414066,-0.347189,1.131164,-0.113170,-3.361468,43.292278,-23.849380,-8.244448,0.494779,2.079269,-0.221696,0.000000,0.000000,0.000000,0.000000,0.000000,0.000000
14759266.000000,-2.326880,-1.662885,1.163626,-1.429463,1.724376,1.235693,-0.578135,0.467293,-0.019999,1.299646,-0.416667,-0.347605,1.135691,-0.114110,-2.917132,43.097881,-23.948563,-7.946901,0.452665,1.930038,-0.248246,0.000000,0.000000,0.000000,0.000000,0.000000,0.000000
14759267.000000,-2.326416,-1.662897,1.164917,-1.429923,1.724041,1.236852,-0.578250,0.464639,-0.015901,1.291818,-0.425053,-0.342115,1.129602,-0.115570,-2.568011,42.851910,-23.948563,-7.355775,0.374845,1.865035,-0.248246,0.000000,0.000000,0.000000,0.000000,0.000000,0.000000
14759268.000000,-2.325951,-1.662926,1.166201,-1.430378,1.723708,1.237988,-0.578374,0.460886,-0.022622,1.299984,-0.432955,-0.339728,1.134121,-0.114250,-2.199053,42.875713,-24.142960,-6.836061,0.332731,1.884261,-0.196061,0.000000,0.000000,0.000000,0.000000,0.000000,0.000000
14759269.000000,-2.325493,-1.662961,1.167497,-1.430842,1.723385,1.239135,-0.578482,0.467102,-0.026117,1.290438,-0.437913,-0.334814,1.124417,-0.113146,-1.901507,42.974895,-24.313553,-6.340150,0.332731,1.936446,-0.261979,0.000000,0.000000,0.000000,0.000000,0.000000,0.000000
14759270.000000,-2.325044,-1.662987,1.168794,-1.431310,1.723037,1.240295,-0.578603,0.460259,-0.029068,1.278428,-0.445638,-0.337287,1.140219,-0.112413,-1.528582,42.974895,-24.734085,-5.895814,0.386747,1.909896,-0.215287,0.000000,0.000000,0.000000,0.000000,0.000000,0.000000
14759271.000000,-2.324597,-1.663009,1.170109,-1.431756,1.722704,1.241428,-0.578717,0.458497,-0.027499,1.284641,-0.445781,-0.333891,1.141298,-0.113774,-1.159625,42.951092,-25.249832,-5.721254,0.410551,1.974899,-0.229020,0.000000,0.000000,0.000000,0.000000,0.000000,0.000000
14759272.000000,-2.324155,-1.663033,1.171433,-1.432215,1.722360,1.242565,-0.578827,0.452651,-0.023192,1.293111,-0.445537,-0.334426,1.132954,-0.115551,-0.862078,42.927288,-25.836990,-5.574464,0.524076,2.092086,-0.241837,0.000000,0.000000,0.000000,0.000000,0.000000,0.000000
14759273.000000,-2.323735,-1.663054,1.172724,-1.432668,1.722020,1.243681,-0.578949,0.437597,-0.026430,1.299188,-0.447651,-0.336823,1.135007,-0.117160,-0.342364,42.903484,-26.182144,-5.499086,0.578092,2.287093,-0.202470,0.000000,0.000000,0.000000,0.000000,0.000000,0.000000
14759274.000000,-2.323309,-1.663080,1.174013,-1.433121,1.721672,1.244814,-0.579055,0.442507,-0.028052,1.291943,-0.449375,-0.337708,1.136223,-0.112356,0.006757,42.974895,-26.229752,-5.427675,0.721830,2.462875,-0.261979,0.000000,0.000000,0.000000,0.000000,0.000000,0.000000
14759275.000000,-2.322881,-1.663101,1.175296,-1.433594,1.721337,1.245965,-0.579171,0.436560,-0.027248,1.314829,-0.457958,-0.332929,1.149823,-0.115116,0.328107,42.974895,-26.451920,-5.153932,0.757535,2.443649,-0.241837,0.000000,0.000000,0.000000,0.000000,0.000000,0.000000
14759276.000000,-2.322449,-1.663118,1.176583,-1.434063,1.721024,1.247096,-0.579286,0.432980,-0.028643,1.308672,-0.458521,-0.332792,1.148213,-0.116392,0.601850,42.927288,-26.499527,-4.884157,0.655912,2.404281,-0.241837,0.000000,0.000000,0.000000,0.000000,0.000000,0.000000
14759277.000000,-2.322027,-1.663138,1.177879,-1.434543,1.720700,1.248246,-0.579401,0.432368,-0.027186,1.306778,-0.465375,-0.333923,1.132808,-0.118575,0.796247,42.903484,-26.547134,-4.487428,0.644010,2.255050,-0.208878,0.000000,0.000000,0.000000,0.000000,0.000000,0.000000
14759278.000000,-2.321599,-1.663155,1.179135,-1.435020,1.720382,1.249404,-0.579514,0.432719,-0.024922,1.293005,-0.465994,-0.326303,1.146899,-0.113867,0.947004,42.828106,-26.376541,-4.118471,0.542386,2.079269,-0.221696,0.000000,0.000000,0.000000,0.000000,0.000000,0.000000
14759279.000000,-2.321177,-1.663180,1.180418,-1.435494,1.720063,1.250543,-0.579625,0.429811,-0.023711,1.287200,-0.470315,-0.321023,1.139483,-0.110794,1.216779,42.903484,-26.400345,-3.721742,0.559781,1.974899,-0.229020,0.000000,0.000000,0.000000,0.000000,0.000000,0.000000
14759280.000000,-2.320765,-1.663191,1.181682,-1.435954,1.719755,1.251659,-0.579736,0.426743,-0.021053,1.272151,-0.460323,-0.319903,1.155704,-0.109143,1.415143,42.780499,-26.082962,-3.570986,0.542386,2.072860,-0.221696,0.000000,0.000000,0.000000,0.000000,0.000000,0.000000
14759281.000000,-2.320350,-1.663212,1.182940,-1.436405,1.719436,1.252798,-0.579840,0.420523,-0.022758,1.271641,-0.462593,-0.316018,1.148939,-0.106544,1.589704,42.804302,-26.031387,-3.499574,0.554288,2.104903,-0.248246,0.000000,0.000000,0.000000,0.000000,0.000000,0.000000
14759282.000000,-2.319944,-1.663229,1.184204,-1.436854,1.719115,1.253947,-0.579944,0.418918,-0.020221,1.266380,-0.456328,-0.317254,1.135243,-0.105949,1.811872,42.804302,-25.936172,-3.475771,0.679716,2.092086,-0.241837,0.000000,0.000000,0.000000,0.000000,0.000000,0.000000
14759283.000000,-2.319532,-1.663242,1.185445,-1.437305,1.718793,1.255107,-0.580043,0.418075,-0.019682,1.256095,-0.451216,-0.312404,1.150198,-0.103416,2.010236,42.728924,-25.813187,-3.475771,0.811552,1.995040,-0.287614,0.000000,0.000000,0.000000,0.000000,0.000000,0.000000
14759284.000000,-2.319110,-1.663265,1.186697,-1.437756,1.718494,1.256238,-0.580154,0.419921,-0.023171,1.259325,-0.451498,-0.305005,1.146793,-0.105896,2.034040,42.804302,-25.690201,-3.325014,0.828947,2.027084,-0.235429,0.000000,0.000000,0.000000,0.000000,0.000000,0.000000
14759285.000000,-2.318697,-1.663284,1.187949,-1.438204,1.718178,1.257385,-0.580262,0.420239,-0.021507,1.254984,-0.448920,-0.310311,1.143623,-0.105773,2.010236,42.851910,-25.614822,-3.249635,0.882963,2.033492,-0.215287,0.000000,0.000000,0.000000,0.000000,0.000000,0.000000
14759286.000000,-2.318278,-1.663297,1.189172,-1.438663,1.717867,1.258534,-0.580358,0.418895,-0.017521,1.253156,-0.452208,-0.307100,1.150294,-0.103229,2.010236,42.780499,-25.468033,-3.003664,0.876554,1.897079,-0.268388,0.000000,0.000000,0.000000,0.000000,0.000000,0.000000
14759287.000000,-2.317857,-1.663308,1.190392,-1.439103,1.717576,1.259707,-0.580468,0.424670,-0.015167,1.235930,-0.447530,-0.297393,1.158900,-0.104990,1.962629,42.728924,-25.126846,-2.904482,0.786832,1.708480,-0.221696,0.000000,0.000000,0.000000,0.000000,0.000000,0.000000
14759288.000000,-2.317443,-1.663315,1.191615,-1.439538,1.717283,1.260853,-0.580564,0.424335,-0.012440,1.261238,-0.441274,-0.291160,1.163557,-0.103560,1.887250,42.633709,-25.075272,-2.880678,0.733732,1.630660,-0.241837,0.000000,0.000000,0.000000,0.000000,0.000000,0.000000
14759289.000000,-2.317036,-1.663321,1.192855,-1.439955,1.716999,1.262014,-0.580673,0.418156,-0.009901,1.254191,-0.432307,-0.288438,1.169509,-0.105063,1.911054,42.510723,-25.150650,-2.956056,0.632108,1.617843,-0.196061,0.000000,0.000000,0.000000,0.000000,0.000000,0.000000
14759290.000000,-2.316633,-1.663335,1.194100,-1.440376,1.716705,1.263171,-0.580767,0.413332,-0.007855,1.254607,-0.426169,-0.286774,1.156582,-0.103645,1.962629,42.510723,-25.273636,-3.027467,0.613798,1.695663,-0.229020,0.000000,0.000000,0.000000,0.000000,0.000000,0.000000
14759291.000000,-2.316228,-1.663337,1.195326,-1.440793,1.716412,1.264301,-0.580872,0.407129,-0.006469,1.244060,-0.419355,-0.288803,1.149038,-0.099938,2.061811,42.387737,-25.444229,-3.079042,0.691617,1.871444,-0.188737,0.000000,0.000000,0.000000,0.000000,0.000000,0.000000
14759292.000000,-2.315827,-1.663348,1.196572,-1.441196,1.716132,1.265443,-0.580960,0.402424,-0.007772,1.251841,-0.415054,-0.284761,1.139291,-0.097693,2.109418,42.363934,-25.666397,-3.225832,0.751127,2.085677,-0.268388,0.000000,0.000000,0.000000,0.000000,0.000000,0.000000
14759293.000000,-2.315417,-1.663353,1.197819,-1.441610,1.715851,1.266579,-0.581056,0.404721,-0.006875,1.252875,-0.411845,-0.283978,1.135468,-0.099262,2.034040,42.264751,-26.205948,-3.202028,0.763029,2.183639,-0.268388,0.000000,0.000000,0.000000,0.000000,0.000000,0.000000
14759294.000000,-2.315008,-1.663359,1.199053,-1.442011,1.715567,1.267736,-0.581161,0.405956,-0.006953,1.248456,-0.411139,-0.278364,1.132992,-0.102250,2.085615,42.193340,-26.352737,-3.277406,0.751127,2.137862,-0.215287,0.000000,0.000000,0.000000,0.000000,0.000000,0.000000
14759295.000000,-2.314599,-1.663367,1.200293,-1.442419,1.715291,1.268895,-0.581254,0.406745,-0.005074,1.240007,-0.409373,-0.274493,1.121953,-0.100838,2.034040,42.169537,-26.523331,-3.277406,0.745634,2.092086,-0.254655,0.000000,0.000000,0.000000,0.000000,0.000000,0.000000
14759296.000000,-2.314187,-1.663377,1.201498,-1.442834,1.715015,1.270042,-0.581356,0.408707,-0.006646,1.237223,-0.411012,-0.276398,1.130872,-0.107194,1.911054,42.141766,-26.451920,-3.126650,0.757535,2.131454,-0.202470,0.000000,0.000000,0.000000,0.000000,0.000000,0.000000
14759297.000000,-2.313778,-1.663386,1.202726,-1.443230,1.714753,1.271161,-0.581453,0.408990,-0.004697,1.231733,-0.406147,-0.271628,1.124528,-0.105398,1.835676,42.117962,-26.451920,-3.102846,0.709928,2.248641,-0.221696,0.000000,0.000000,0.000000,0.000000,0.000000,0.000000
14759298.000000,-2.313379,-1.663394,1.203939,-1.443641,1.714483,1.272291,-0.581546,0.409065,-0.006333,1.224054,-0.404472,-0.272606,1.116487,-0.103379,1.887250,42.094158,-26.182144,-2.956056,0.667814,2.320052,-0.261979,0.000000,0.000000,0.000000,0.000000,0.000000,0.000000
14759299.000000,-2.312974,-1.663401,1.205132,-1.444024,1.714221,1.273417,-0.581652,0.403119,-0.009574,1.210753,-0.396591,-0.263092,1.122196,-0.101281,1.887250,42.022747,-25.884598,-3.003664,0.596403,2.274276,-0.202470,0.000000,0.000000,0.000000,0.000000,0.000000,0.000000
14759300.000000,-2.312587,-1.663400,1.206361,-1.444416,1.713962,1.274581,-0.581740,0.396256,-0.004574,1.209781,-0.399511,-0.258265,1.124284,-0.099843,2.034040,41.899761,-25.936172,-2.928285,0.584501,2.001449,-0.248246,0.000000,0.000000,0.000000,0.000000,0.000000,0.000000
14759301.000000,-2.312201,-1.663399,1.207546,-1.444801,1.713707,1.275733,-0.581840,0.391639,-0.000417,1.201290,-0.392578,-0.253409,1.142442,-0.100684,2.184797,41.752972,-25.690201,-2.956056,0.554288,1.884261,-0.241837,0.000000,0.000000,0.000000,0.000000,0.000000,0.000000
14759302.000000,-2.311806,-1.663394,1.208765,-1.445179,1.713455,1.276855,-0.581937,0.388704,0.003204,1.208253,-0.391932,-0.256905,1.141671,-0.097584,2.260175,41.578411,-25.714005,-2.956056,0.571683,1.936446,-0.235429,0.000000,0.000000,0.000000,0.000000,0.000000,0.000000
14759303.000000,-2.311428,-1.663401,1.209971,-1.445554,1.713180,1.277986,-0.582032,0.383046,0.002242,1.206446,-0.383187,-0.263179,1.138443,-0.099574,2.454572,41.554607,-25.519608,-3.027467,0.691617,1.981307,-0.215287,0.000000,0.000000,0.000000,0.000000,0.000000,0.000000
14759304.000000,-2.311045,-1.663400,1.211159,-1.445928,1.712912,1.279122,-0.582126,0.382003,0.000872,1.203885,-0.377994,-0.266793,1.141255,-0.095418,2.553754,41.431622,-25.396622,-3.055238,0.793241,1.865035,-0.229020,0.000000,0.000000,0.000000,0.000000,0.000000,0.000000
14759305.000000,-2.310661,-1.663393,1.212360,-1.446291,1.712662,1.280265,-0.582219,0.389720,0.004611,1.199489,-0.372679,-0.260540,1.128337,-0.093274,2.605329,41.237225,-25.345047,-3.154421,0.781339,1.825668,-0.221696,0.000000,0.000000,0.000000,0.000000,0.000000,0.000000
14759306.000000,-2.310280,-1.663391,1.213533,-1.446654,1.712418,1.281403,-0.582306,0.389420,0.005563,1.197682,-0.366180,-0.252501,1.130808,-0.091071,2.629133,41.114239,-25.174454,-3.202028,0.691617,1.871444,-0.229020,0.000000,0.000000,0.000000,0.000000,0.000000,0.000000
14759307.000000,-2.309894,-1.663386,1.214720,-1.447017,1.712173,1.282525,-0.582394,0.389065,0.006295,1.186836,-0.362431,-0.257894,1.125416,-0.093250,2.652936,40.991253,-24.976089,-3.225832,0.673307,1.909896,-0.248246,0.000000,0.000000,0.000000,0.000000,0.000000,0.000000
14759308.000000,-2.309514,-1.663386,1.215885,-1.447380,1.711929,1.283659,-0.582485,0.387526,0.004535,1.173858,-0.356626,-0.252152,1.117072,-0.093084,2.629133,40.967449,-24.488113,-3.249635,0.601896,1.981307,-0.215287,0.000000,0.000000,0.000000,0.000000,0.000000,0.000000
14759309.000000,-2.309129,-1.663378,1.217041,-1.447742,1.711682,1.284818,-0.582572,0.381624,0.005737,1.174509,-0.359320,-0.249295,1.134509,-0.089441,2.529951,40.844463,-24.190567,-3.225832,0.571683,1.936446,-0.241837,0.000000,0.000000,0.000000,0.000000,0.000000,0.000000
14759310.000000,-2.308754,-1.663362,1.218216,-1.448088,1.711451,1.285956,-0.582661,0.377615,0.008249,1.166358,-0.354051,-0.242168,1.133966,-0.089517,2.529951,40.650066,-24.019974,-3.249635,0.524076,1.884261,-0.235429,0.000000,0.000000,0.000000,0.000000,0.000000,0.000000
14759311.000000,-2.308369,-1.663352,1.219414,-1.448438,1.711220,1.287091,-0.582748,0.374960,0.008841,1.174044,-0.350974,-0.236348,1.158717,-0.087859,2.506147,40.503277,-24.119156,-3.202028,0.482877,1.800033,-0.254655,0.000000,0.000000,0.000000,0.000000,0.000000,0.000000
14759312.000000,-2.307980,-1.663344,1.220596,-1.448777,1.710977,1.288241,-0.582837,0.377720,0.007588,1.184726,-0.347481,-0.235748,1.151176,-0.087621,2.383161,40.427898,-24.289749,-3.225832,0.518583,1.702071,-0.248246,0.000000,0.000000,0.000000,0.000000,0.000000,0.000000
14759313.000000,-2.307610,-1.663338,1.221789,-1.449113,1.710736,1.289400,-0.582930,0.374044,0.006121,1.182550,-0.341651,-0.239733,1.143725,-0.089360,2.383161,40.380291,-24.535721,-3.249635,0.566190,1.617843,-0.188737,0.000000,0.000000,0.000000,0.000000,0.000000,0.000000
14759314.000000,-2.307237,-1.663328,1.222977,-1.449439,1.710494,1.290517,-0.583007,0.374782,0.006918,1.187359,-0.333360,-0.238059,1.135592,-0.085571,2.383161,40.257305,-24.976089,-3.448000,0.625699,1.747848,-0.248246,0.000000,0.000000,0.000000,0.000000,0.000000,0.000000
14759315.000000,-2.306859,-1.663323,1.224176,-1.449757,1.710263,1.291639,-0.583094,0.372383,0.006254,1.186384,-0.329440,-0.239422,1.128920,-0.086486,2.383161,40.185894,-25.297440,-3.570986,0.625699,1.942855,-0.229020,0.000000,0.000000,0.000000,0.000000,0.000000,0.000000
14759316.000000,-2.306488,-1.663320,1.225366,-1.450074,1.710032,1.292768,-0.583173,0.373758,0.004147,1.186382,-0.323992,-0.235573,1.127727,-0.081764,2.383161,40.185894,-25.345047,-3.769350,0.620206,2.027084,-0.235429,0.000000,0.000000,0.000000,0.000000,0.000000,0.000000
14759317.000000,-2.306119,-1.663320,1.226536,-1.450397,1.709799,1.293886,-0.583256,0.370543,0.002748,1.180475,-0.322687,-0.238925,1.129684,-0.082499,2.406965,40.185894,-25.396622,-3.769350,0.649503,2.027084,-0.241837,0.000000,0.000000,0.000000,0.000000,0.000000,0.000000
14759318.000000,-2.305752,-1.663319,1.227712,-1.450710,1.709573,1.295015,-0.583338,0.370871,0.001820,1.177064,-0.313751,-0.237933,1.116368,-0.083082,2.331586,40.185894,-25.249832,-3.820925,0.584501,1.981307,-0.248246,0.000000,0.000000,0.000000,0.000000,0.000000,0.000000
14759319.000000,-2.305370,-1.663320,1.228879,-1.451040,1.709348,1.296125,-0.583418,0.376374,0.000091,1.177948,-0.319362,-0.231247,1.110946,-0.079847,2.160993,40.233501,-25.222061,-3.721742,0.494779,2.001449,-0.235429,0.000000,0.000000,0.000000,0.000000,0.000000,0.000000
14759320.000000,-2.304983,-1.663319,1.230039,-1.451359,1.709122,1.297255,-0.583497,0.377491,0.002663,1.176756,-0.317349,-0.230503,1.103755,-0.082352,1.962629,40.257305,-24.880875,-3.622560,0.506681,1.962081,-0.215287,0.000000,0.000000,0.000000,0.000000,0.000000,0.000000
14759321.000000,-2.304604,-1.663318,1.231199,-1.451677,1.708892,1.298407,-0.583571,0.374228,0.002034,1.163895,-0.318132,-0.231018,1.107609,-0.077848,1.764264,40.257305,-24.488113,-3.547182,0.547880,1.786300,-0.241837,0.000000,0.000000,0.000000,0.000000,0.000000,0.000000
14759322.000000,-2.304229,-1.663320,1.232364,-1.452001,1.708667,1.299539,-0.583652,0.370805,0.004153,1.167737,-0.319767,-0.226002,1.113000,-0.080288,1.613508,40.281109,-24.464310,-3.424196,0.571683,1.670028,-0.208878,0.000000,0.000000,0.000000,0.000000,0.000000,0.000000
14759323.000000,-2.303853,-1.663317,1.233524,-1.452304,1.708455,1.300671,-0.583722,0.376961,0.003177,1.161781,-0.311120,-0.223214,1.116096,-0.079434,1.466718,40.281109,-24.218338,-3.448000,0.494779,1.656295,-0.268388,0.000000,0.000000,0.000000,0.000000,0.000000,0.000000
14759324.000000,-2.303481,-1.663313,1.234674,-1.452609,1.708225,1.301795,-0.583808,0.375850,0.003538,1.161262,-0.306538,-0.223610,1.114528,-0.079078,1.343732,40.233501,-24.119156,-3.499574,0.494779,1.656295,-0.208878,0.000000,0.000000,0.000000,0.000000,0.000000,0.000000
14759325.000000,-2.303111,-1.663313,1.235828,-1.452903,1.708001,1.302927,-0.583891,0.372801,0.002589,1.154302,-0.303929,-0.229634,1.122022,-0.081050,1.292158,40.233501,-23.825577,-3.570986,0.547880,1.689254,-0.196061,0.000000,0.000000,0.000000,0.000000,0.000000,0.000000
14759326.000000,-2.302748,-1.663310,1.237003,-1.453197,1.707781,1.304059,-0.583957,0.369028,0.003012,1.160124,-0.296714,-0.229054,1.111284,-0.075124,1.216779,40.185894,-23.849380,-3.598757,0.554288,1.812850,-0.274796,0.000000,0.000000,0.000000,0.000000,0.000000,0.000000
14759327.000000,-2.302375,-1.663309,1.238154,-1.453500,1.707565,1.305168,-0.584042,0.366088,0.001581,1.160388,-0.298755,-0.222996,1.116371,-0.075990,1.046186,40.209698,-23.849380,-3.570986,0.547880,1.968490,-0.196061,0.000000,0.000000,0.000000,0.000000,0.000000,0.000000
14759328.000000,-2.301991,-1.663297,1.239311,-1.453797,1.707355,1.306309,-0.584112,0.371162,0.005141,1.159558,-0.297576,-0.223170,1.119357,-0.076457,0.796247,40.039104,-23.750198,-3.523378,0.524076,1.949264,-0.248246,0.000000,0.000000,0.000000,0.000000,0.000000,0.000000
14759329.000000,-2.301618,-1.663291,1.240468,-1.454088,1.707131,1.307444,-0.584188,0.369087,0.004707,1.153143,-0.296365,-0.225705,1.151060,-0.073993,0.625654,39.987530,-23.627213,-3.475771,0.578092,1.800033,-0.261979,0.000000,0.000000,0.000000,0.000000,0.000000,0.000000
14759330.000000,-2.301226,-1.663279,1.241597,-1.454392,1.706913,1.308584,-0.584269,0.375241,0.005976,1.155635,-0.297627,-0.225024,1.149731,-0.075419,0.252729,39.868511,-23.409012,-3.277406,0.559781,1.741439,-0.188737,0.000000,0.000000,0.000000,0.000000,0.000000,0.000000
14759331.000000,-2.300852,-1.663266,1.242737,-1.454686,1.706706,1.309712,-0.584340,0.373136,0.007459,1.140111,-0.296258,-0.219610,1.132252,-0.072071,0.054365,39.721722,-23.186844,-3.225832,0.530485,1.800033,-0.229020,0.000000,0.000000,0.000000,0.000000,0.000000,0.000000
14759332.000000,-2.300468,-1.663255,1.243870,-1.454975,1.706491,1.310829,-0.584416,0.373611,0.006767,1.142769,-0.290799,-0.217234,1.127079,-0.072145,-0.243182,39.646343,-23.040054,-3.225832,0.559781,1.825668,-0.208878,0.000000,0.000000,0.000000,0.000000,0.000000,0.000000
14759333.000000,-2.300090,-1.663242,1.245016,-1.455252,1.706291,1.311952,-0.584486,0.371017,0.010020,1.138921,-0.283545,-0.213298,1.120489,-0.073336,-0.413775,39.547161,-22.940872,-3.376589,0.524076,1.865035,-0.254655,0.000000,0.000000,0.000000,0.000000,0.000000,0.000000
14759334.000000,-2.299722,-1.663231,1.246182,-1.455536,1.706087,1.313077,-0.584566,0.370693,0.008074,1.148919,-0.280445,-0.205348,1.118836,-0.078634,-0.512957,39.499554,-23.135269,-3.424196,0.476469,1.773483,-0.196061,0.000000,0.000000,0.000000,0.000000,0.000000,0.000000
14759335.000000,-2.299351,-1.663216,1.247338,-1.455811,1.705877,1.314214,-0.584632,0.370550,0.007264,1.151598,-0.280829,-0.208581,1.119416,-0.074002,-0.635943,39.428143,-23.409012,-3.523378,0.422452,1.721298,-0.248246,0.000000,0.000000,0.000000,0.000000,0.000000,0.000000
14759336.000000,-2.298985,-1.663202,1.248519,-1.456094,1.705668,1.315336,-0.584707,0.371795,0.006764,1.159300,-0.280123,-0.208307,1.112255,-0.073833,-0.786700,39.352764,-23.849380,-3.523378,0.416959,1.812850,-0.221696,0.000000,0.000000,0.000000,0.000000,0.000000,0.000000
14759337.000000,-2.298620,-1.663192,1.249684,-1.456367,1.705452,1.316437,-0.584779,0.373407,0.004628,1.170955,-0.276263,-0.210662,1.107484,-0.073364,-0.834307,39.352764,-24.242142,-3.646364,0.494779,1.936446,-0.196061,0.000000,0.000000,0.000000,0.000000,0.000000,0.000000
14759338.000000,-2.298250,-1.663185,1.250847,-1.456635,1.705249,1.317550,-0.584842,0.369114,0.003174,1.169256,-0.274450,-0.209574,1.107420,-0.070723,-0.933489,39.352764,-24.412735,-3.745546,0.524076,1.995040,-0.235429,0.000000,0.000000,0.000000,0.000000,0.000000,0.000000
14759339.000000,-2.297888,-1.663176,1.252016,-1.456905,1.705044,1.318685,-0.584916,0.365306,0.005232,1.165881,-0.270342,-0.205301,1.115401,-0.071513,-0.985064,39.352764,-24.559525,-3.820925,0.554288,1.955673,-0.202470,0.000000,0.000000,0.000000,0.000000,0.000000,0.000000
14759340.000000,-2.297531,-1.663167,1.253157,-1.457165,1.704843,1.319785,-0.584980,0.357621,0.007387,1.166727,-0.266458,-0.204576,1.114439,-0.067496,-0.985064,39.328960,-24.559525,-3.943910,0.530485,1.981307,-0.274796,0.000000,0.000000,0.000000,0.000000,0.000000,0.000000
14759341.000000,-2.297177,-1.663156,1.254300,-1.457426,1.704647,1.320892,-0.585052,0.362626,0.009132,1.154762,-0.267123,-0.202916,1.108638,-0.069138,-0.961260,39.305157,-24.388931,-3.920107,0.470060,2.053634,-0.241837,0.000000,0.000000,0.000000,0.000000,0.000000,0.000000
14759342.000000,-2.296826,-1.663152,1.255426,-1.457686,1.704444,1.321979,-0.585123,0.359054,0.008294,1.148287,-0.262494,-0.203062,1.103494,-0.070279,-0.933489,39.376568,-24.043777,-3.943910,0.452665,2.118636,-0.208878,0.000000,0.000000,0.000000,0.000000,0.000000,0.000000
14759343.000000,-2.296471,-1.663141,1.256563,-1.457950,1.704242,1.323097,-0.585188,0.357346,0.009992,1.139730,-0.263164,-0.205030,1.098290,-0.072093,-0.961260,39.352764,-23.702591,-3.820925,0.500272,2.092086,-0.261979,0.000000,0.000000,0.000000,0.000000,0.000000,0.000000
14759344.000000,-2.296135,-1.663130,1.257708,-1.458216,1.704059,1.324230,-0.585260,0.350320,0.011203,1.135126,-0.267108,-0.198759,1.100669,-0.072815,-0.834307,39.328960,-23.456619,-3.670168,0.446256,2.007858,-0.221696,0.000000,0.000000,0.000000,0.000000,0.000000,0.000000
14759345.000000,-2.295799,-1.663113,1.258848,-1.458476,1.703876,1.325346,-0.585325,0.341908,0.010667,1.134963,-0.262248,-0.192857,1.103244,-0.071056,-0.735125,39.229778,-23.432816,-3.697939,0.362943,1.890670,-0.221696,0.000000,0.000000,0.000000,0.000000,0.000000,0.000000
14759346.000000,-2.295468,-1.663097,1.259981,-1.458735,1.703693,1.326474,-0.585390,0.337379,0.013258,1.133156,-0.261098,-0.191289,1.101232,-0.070417,-0.540728,39.130596,-23.163040,-3.622560,0.344633,1.773483,-0.229020,0.000000,0.000000,0.000000,0.000000,0.000000,0.000000
14759347.000000,-2.295137,-1.663082,1.261133,-1.458983,1.703495,1.327586,-0.585449,0.333295,0.011823,1.139076,-0.253216,-0.197389,1.108079,-0.068508,-0.441546,39.035381,-23.111465,-3.697939,0.398649,1.670028,-0.268388,0.000000,0.000000,0.000000,0.000000,0.000000,0.000000
14759348.000000,-2.294813,-1.663065,1.262256,-1.459230,1.703299,1.328704,-0.585522,0.331156,0.014305,1.141339,-0.256555,-0.195453,1.102744,-0.066545,-0.266986,38.912395,-22.940872,-3.745546,0.405057,1.702071,-0.208878,0.000000,0.000000,0.000000,0.000000,0.000000,0.000000
14759349.000000,-2.294503,-1.663049,1.263407,-1.459475,1.703106,1.329814,-0.585585,0.325200,0.015575,1.139548,-0.253227,-0.194531,1.105248,-0.067028,-0.044818,38.813213,-23.016251,-3.844728,0.428861,1.773483,-0.208878,0.000000,0.000000,0.000000,0.000000,0.000000,0.000000
14759350.000000,-2.294184,-1.663034,1.264530,-1.459716,1.702920,1.330924,-0.585648,0.322073,0.015970,1.137677,-0.247541,-0.192097,1.112826,-0.061936,0.030561,38.741802,-22.988480,-3.943910,0.416959,1.754256,-0.241837,0.000000,0.000000,0.000000,0.000000,0.000000,0.000000
14759351.000000,-2.293876,-1.663017,1.265659,-1.459964,1.702728,1.332047,-0.585710,0.317833,0.016412,1.127731,-0.249725,-0.193674,1.114658,-0.064124,0.304304,38.666424,-22.865494,-3.920107,0.482877,1.670028,-0.221696,0.000000,0.000000,0.000000,0.000000,0.000000,0.000000
14759352.000000,-2.293562,-1.663000,1.266799,-1.460214,1.702546,1.333168,-0.585767,0.316927,0.014057,1.133335,-0.248688,-0.187146,1.117685,-0.063481,0.351911,38.571209,-22.742508,-3.844728,0.476469,1.714889,-0.268388,0.000000,0.000000,0.000000,0.000000,0.000000,0.000000
14759353.000000,-2.293246,-1.662986,1.267910,-1.460460,1.702364,1.334269,-0.585829,0.314655,0.012358,1.128798,-0.244903,-0.184826,1.109110,-0.061707,0.427289,38.472027,-22.500504,-3.769350,0.416959,1.741439,-0.235429,0.000000,0.000000,0.000000,0.000000,0.000000,0.000000
14759354.000000,-2.292937,-1.662966,1.269033,-1.460704,1.702179,1.335393,-0.585893,0.310846,0.014774,1.123519,-0.247135,-0.185112,1.100829,-0.064183,0.502668,38.349041,-22.353714,-3.598757,0.398649,1.689254,-0.215287,0.000000,0.000000,0.000000,0.000000,0.000000,0.000000
14759355.000000,-2.292634,-1.662949,1.270141,-1.460948,1.701988,1.336513,-0.585948,0.307859,0.012808,1.120352,-0.243410,-0.185824,1.104248,-0.063961,0.574079,38.249859,-22.179153,-3.499574,0.405057,1.559249,-0.248246,0.000000,0.000000,0.000000,0.000000,0.000000,0.000000
14759356.000000,-2.292332,-1.662931,1.271283,-1.461187,1.701818,1.337655,-0.586007,0.302762,0.014967,1.131486,-0.241754,-0.183431,1.111783,-0.061379,0.748639,38.130840,-22.278336,-3.376589,0.351041,1.409103,-0.235429,0.000000,0.000000,0.000000,0.000000,0.000000,0.000000
14759357.000000,-2.292035,-1.662905,1.272440,-1.461420,1.701637,1.338781,-0.586065,0.299811,0.018402,1.139122,-0.238423,-0.180430,1.104402,-0.063459,0.895429,37.932476,-22.548111,-3.325014,0.362943,1.435653,-0.229020,0.000000,0.000000,0.000000,0.000000,0.000000,0.000000
14759358.000000,-2.291745,-1.662888,1.273579,-1.461660,1.701457,1.339888,-0.586128,0.296032,0.018492,1.140279,-0.239896,-0.179446,1.109109,-0.060515,1.069990,37.833294,-22.794083,-3.249635,0.410551,1.507064,-0.215287,0.000000,0.000000,0.000000,0.000000,0.000000,0.000000
14759360.000000,-2.291177,-1.662857,1.275876,-1.462126,1.701103,1.342101,-0.586244,0.283594,0.016431,1.151285,-0.235144,-0.177444,1.106084,-0.061404,1.442914,37.738079,-23.480423,-3.126650,0.488370,1.793624,-0.215287,0.000000,0.000000,0.000000,0.000000,0.000000,0.000000
14759361.000000,-2.290900,-1.662844,1.277032,-1.462359,1.700922,1.343217,-0.586305,0.280266,0.011860,1.148704,-0.236168,-0.178259,1.108782,-0.059842,1.641279,37.738079,-23.750198,-2.979860,0.470060,1.903487,-0.188737,0.000000,0.000000,0.000000,0.000000,0.000000,0.000000
14759362.000000,-2.290619,-1.662832,1.278189,-1.462597,1.700747,1.344338,-0.586357,0.280248,0.012309,1.142918,-0.233530,-0.176770,1.113035,-0.055879,1.788068,37.714275,-23.849380,-2.833071,0.488370,1.955673,-0.235429,0.000000,0.000000,0.000000,0.000000,0.000000,0.000000
14759363.000000,-2.290331,-1.662811,1.279322,-1.462838,1.700573,1.345440,-0.586414,0.280262,0.015145,1.142776,-0.232275,-0.173780,1.111543,-0.054450,1.788068,37.591290,-23.873184,-2.634706,0.470060,2.007858,-0.241837,0.000000,0.000000,0.000000,0.000000,0.000000,0.000000
14759364.000000,-2.290046,-1.662797,1.280457,-1.463076,1.700408,1.346553,-0.586470,0.278915,0.014557,1.138513,-0.232599,-0.172168,1.112801,-0.053471,1.835676,37.567486,-23.750198,-2.384767,0.452665,1.955673,-0.254655,0.000000,0.000000,0.000000,0.000000,0.000000,0.000000
14759365.000000,-2.289759,-1.662778,1.281596,-1.463326,1.700228,1.347660,-0.586530,0.281124,0.016503,1.130503,-0.236418,-0.174433,1.107330,-0.054783,1.811872,37.444500,-23.528030,-2.091188,0.530485,1.871444,-0.208878,0.000000,0.000000,0.000000,0.000000,0.000000,0.000000
14759366.000000,-2.289474,-1.662765,1.282719,-1.463573,1.700060,1.348772,-0.586579,0.276197,0.014907,1.136273,-0.244199,-0.169108,1.097468,-0.055931,1.835676,37.444500,-23.357437,-1.817445,0.554288,1.806442,-0.268388,0.000000,0.000000,0.000000,0.000000,0.000000,0.000000
14759367.000000,-2.289204,-1.662748,1.283852,-1.463814,1.699899,1.349880,-0.586636,0.275034,0.015922,1.130272,-0.242368,-0.167006,1.091926,-0.059950,2.034040,37.369122,-23.186844,-1.642885,0.506681,1.871444,-0.248246,0.000000,0.000000,0.000000,0.000000,0.000000,0.000000
14759368.000000,-2.288929,-1.662729,1.284971,-1.464047,1.699725,1.350971,-0.586691,0.273194,0.015743,1.109737,-0.237899,-0.167334,1.094987,-0.062705,2.160993,37.321514,-23.063858,-1.595277,0.506681,1.936446,-0.229020,0.000000,0.000000,0.000000,0.000000,0.000000,0.000000
14759369.000000,-2.288658,-1.662725,1.286098,-1.464283,1.699556,1.352086,-0.586740,0.268836,0.011770,1.110906,-0.238471,-0.167418,1.098202,-0.058720,2.283979,37.444500,-22.841690,-1.547670,0.494779,1.832076,-0.261979,0.000000,0.000000,0.000000,0.000000,0.000000,0.000000
14759370.000000,-2.288390,-1.662714,1.287248,-1.464511,1.699393,1.353220,-0.586797,0.268725,0.008851,1.122121,-0.232919,-0.168262,1.105269,-0.058473,2.406965,37.444500,-22.893265,-1.619081,0.500272,1.643478,-0.221696,0.000000,0.000000,0.000000,0.000000,0.000000,0.000000
14759371.000000,-2.288117,-1.662693,1.288382,-1.464737,1.699234,1.354315,-0.586846,0.268689,0.012703,1.125243,-0.229166,-0.162688,1.106876,-0.055328,2.383161,37.321514,-23.016251,-1.694460,0.470060,1.649886,-0.254655,0.000000,0.000000,0.000000,0.000000,0.000000,0.000000
14759372.000000,-2.287850,-1.662682,1.289518,-1.464961,1.699074,1.355433,-0.586905,0.274128,0.008741,1.122216,-0.231222,-0.159970,1.105759,-0.056342,2.331586,37.345318,-22.964676,-1.718263,0.470060,1.670028,-0.202470,0.000000,0.000000,0.000000,0.000000,0.000000,0.000000
14759373.000000,-2.287584,-1.662677,1.290640,-1.465193,1.698906,1.356531,-0.586951,0.274204,0.007824,1.149762,-0.228280,-0.164912,1.109007,-0.052707,2.359357,37.420696,-22.940872,-1.642885,0.554288,1.617843,-0.261979,0.000000,0.000000,0.000000,0.000000,0.000000,0.000000
14759374.000000,-2.287313,-1.662668,1.291770,-1.465413,1.698747,1.357648,-0.587005,0.272202,0.004831,1.143542,-0.228149,-0.170975,1.110605,-0.052813,2.331586,37.468304,-22.893265,-1.619081,0.589994,1.597701,-0.254655,0.000000,0.000000,0.000000,0.000000,0.000000,0.000000
14759375.000000,-2.287044,-1.662658,1.292903,-1.465630,1.698593,1.358752,-0.587056,0.269060,0.007053,1.140078,-0.221917,-0.168214,1.094307,-0.052972,2.232404,37.468304,-22.794083,-1.595277,0.530485,1.676437,-0.241837,0.000000,0.000000,0.000000,0.000000,0.000000,0.000000
14759376.000000,-2.286770,-1.662646,1.294007,-1.465845,1.698431,1.359850,-0.587103,0.270552,0.008984,1.116895,-0.222291,-0.163835,1.093050,-0.052192,2.085615,37.444500,-22.571915,-1.619081,0.535978,1.727706,-0.248246,0.000000,0.000000,0.000000,0.000000,0.000000,0.000000
14759377.000000,-2.286500,-1.662636,1.295119,-1.466051,1.698271,1.360980,-0.587155,0.267734,0.009368,1.108484,-0.218387,-0.165714,1.089454,-0.053265,1.986432,37.468304,-22.353714,-1.694460,0.542386,1.597701,-0.215287,0.000000,0.000000,0.000000,0.000000,0.000000,0.000000
14759378.000000,-2.286237,-1.662622,1.296240,-1.466258,1.698120,1.362093,-0.587194,0.268791,0.007641,1.110889,-0.216234,-0.165610,1.118851,-0.045610,1.887250,37.444500,-22.131546,-1.718263,0.524076,1.539108,-0.294938,0.000000,0.000000,0.000000,0.000000,0.000000,0.000000
14759379.000000,-2.285965,-1.662610,1.297359,-1.466461,1.697969,1.363201,-0.587256,0.268703,0.006929,1.112836,-0.213112,-0.161369,1.108401,-0.050718,1.740461,37.392925,-22.179153,-1.694460,0.506681,1.649886,-0.202470,0.000000,0.000000,0.000000,0.000000,0.000000,0.000000
14759380.000000,-2.285696,-1.662593,1.298494,-1.466667,1.697815,1.364318,-0.587296,0.269951,0.009925,1.122025,-0.210264,-0.159167,1.106324,-0.048863,1.613508,37.321514,-22.353714,-1.694460,0.518583,1.714889,-0.254655,0.000000,0.000000,0.000000,0.000000,0.000000,0.000000
14759381.000000,-2.285424,-1.662580,1.299630,-1.466871,1.697672,1.365421,-0.587344,0.268438,0.011517,1.131384,-0.205409,-0.155410,1.104277,-0.044495,1.466718,37.273907,-22.718704,-1.670656,0.482877,1.714889,-0.274796,0.000000,0.000000,0.000000,0.000000,0.000000,0.000000
14759382.000000,-2.285159,-1.662565,1.300781,-1.467063,1.697526,1.366536,-0.587397,0.265331,0.013456,1.143221,-0.200135,-0.153412,1.106250,-0.048772,1.391340,37.198528,-23.087662,-1.718263,0.458158,1.662704,-0.208878,0.000000,0.000000,0.000000,0.000000,0.000000,0.000000
14759383.000000,-2.284897,-1.662551,1.301942,-1.467251,1.697375,1.367654,-0.587440,0.261728,0.010347,1.155138,-0.195821,-0.152747,1.108422,-0.047861,1.315961,37.174725,-23.480423,-1.769838,0.458158,1.656295,-0.248246,0.000000,0.000000,0.000000,0.000000,0.000000,0.000000
14759384.000000,-2.284631,-1.662543,1.303086,-1.467429,1.697222,1.368736,-0.587492,0.261585,0.010119,1.152988,-0.195977,-0.147536,1.101743,-0.050559,1.169172,37.198528,-23.896988,-1.916628,0.452665,1.741439,-0.202470,0.000000,0.000000,0.000000,0.000000,0.000000,0.000000
14759385.000000,-2.284374,-1.662535,1.304227,-1.467611,1.697067,1.369827,-0.587536,0.263307,0.009959,1.143866,-0.192240,-0.150343,1.087882,-0.049183,1.093793,37.222332,-24.019974,-2.015810,0.500272,1.903487,-0.241837,0.000000,0.000000,0.000000,0.000000,0.000000,0.000000
14759386.000000,-2.284106,-1.662530,1.305335,-1.467790,1.696909,1.370899,-0.587583,0.266021,0.008703,1.123893,-0.186646,-0.152997,1.077095,-0.045219,0.970807,37.297710,-23.873184,-2.091188,0.584501,1.995040,-0.248246,0.000000,0.000000,0.000000,0.000000,0.000000,0.000000
14759387.000000,-2.283840,-1.662532,1.306462,-1.467960,1.696765,1.371991,-0.587630,0.266925,0.005826,1.119751,-0.182315,-0.151660,1.080420,-0.043256,0.895429,37.468304,-23.774002,-2.190370,0.571683,2.053634,-0.229020,0.000000,0.000000,0.000000,0.000000,0.000000,0.000000
14759388.000000,-2.283574,-1.662528,1.307602,-1.468138,1.696618,1.373103,-0.587676,0.268071,0.006836,1.119714,-0.181790,-0.151032,1.091462,-0.045976,0.673261,37.515911,-23.702591,-2.162599,0.566190,1.903487,-0.208878,0.000000,0.000000,0.000000,0.000000,0.000000,0.000000
14759389.000000,-2.283311,-1.662527,1.308712,-1.468311,1.696477,1.374202,-0.587720,0.265590,0.003734,1.119361,-0.175749,-0.148178,1.096706,-0.041937,0.550275,37.591290,-23.456619,-2.237978,0.494779,1.767074,-0.229020,0.000000,0.000000,0.000000,0.000000,0.000000,0.000000
14759390.000000,-2.283050,-1.662527,1.309827,-1.468481,1.696338,1.375307,-0.587759,0.270331,0.003363,1.110540,-0.176037,-0.143604,1.096228,-0.042641,0.375715,37.714275,-23.163040,-2.237978,0.470060,1.695663,-0.274796,0.000000,0.000000,0.000000,0.000000,0.000000,0.000000
14759391.000000,-2.282800,-1.662530,1.310945,-1.468643,1.696196,1.376396,-0.587807,0.262699,0.002057,1.137403,-0.170886,-0.139171,1.101429,-0.043137,0.328107,37.884869,-23.087662,-2.313356,0.434354,1.656295,-0.208878,0.000000,0.000000,0.000000,0.000000,0.000000,0.000000
14759392.000000,-2.282551,-1.662536,1.312063,-1.468798,1.696048,1.377506,-0.587846,0.258259,-0.001780,1.133101,-0.167054,-0.146361,1.106555,-0.038864,0.351911,38.055462,-22.893265,-2.412538,0.434354,1.591293,-0.261979,0.000000,0.000000,0.000000,0.000000,0.000000,0.000000
14759393.000000,-2.282303,-1.662534,1.313195,-1.468940,1.695898,1.378613,-0.587892,0.257102,-0.001671,1.130315,-0.157077,-0.149192,1.102641,-0.039314,0.328107,38.103069,-22.893265,-2.682314,0.476469,1.578475,-0.221696,0.000000,0.000000,0.000000,0.000000,0.000000,0.000000
14759394.000000,-2.282056,-1.662526,1.314310,-1.469081,1.695761,1.379713,-0.587927,0.251472,0.003633,1.129666,-0.153252,-0.144432,1.097274,-0.036857,0.328107,38.055462,-22.841690,-2.956056,0.470060,1.519881,-0.254655,0.000000,0.000000,0.000000,0.000000,0.000000,0.000000
14759395.000000,-2.281806,-1.662524,1.315446,-1.469220,1.695618,1.380824,-0.587971,0.250046,0.002482,1.128794,-0.146528,-0.143599,1.089405,-0.041283,0.252729,38.079266,-22.940872,-3.126650,0.530485,1.507064,-0.235429,0.000000,0.000000,0.000000,0.000000,0.000000,0.000000
14759396.000000,-2.281552,-1.662522,1.316562,-1.469351,1.695484,1.381922,-0.588013,0.248421,0.002675,1.124174,-0.140079,-0.140239,1.106007,-0.040275,0.054365,38.055462,-22.817886,-3.348818,0.530485,1.572067,-0.215287,0.000000,0.000000,0.000000,0.000000,0.000000,0.000000
14759397.000000,-2.281299,-1.662519,1.317666,-1.469491,1.695353,1.383025,-0.588047,0.246222,0.002687,1.119247,-0.141313,-0.136881,1.096752,-0.037226,-0.144000,38.031658,-22.770279,-3.325014,0.500272,1.714889,-0.254655,0.000000,0.000000,0.000000,0.000000,0.000000,0.000000
14759398.000000,-2.281055,-1.662521,1.318786,-1.469623,1.695225,1.384137,-0.588090,0.243950,0.002052,1.114122,-0.137588,-0.130014,1.096252,-0.038013,-0.290789,38.031658,-22.742508,-3.348818,0.470060,1.851302,-0.215287,0.000000,0.000000,0.000000,0.000000,0.000000,0.000000
14759399.000000,-2.280798,-1.662519,1.319877,-1.469753,1.695105,1.385240,-0.588123,0.247411,0.002677,1.111704,-0.137045,-0.122196,1.098262,-0.035229,-0.512957,37.984051,-22.524307,-3.400392,0.381254,1.812850,-0.261979,0.000000,0.000000,0.000000,0.000000,0.000000,0.000000
14759400.000000,-2.280544,-1.662512,1.320983,-1.469885,1.694984,1.386365,-0.588168,0.245964,0.004251,1.112046,-0.137909,-0.121299,1.101753,-0.037423,-0.711321,37.884869,-22.377518,-3.400392,0.279630,1.676437,-0.202470,0.000000,0.000000,0.000000,0.000000,0.000000,0.000000
14759401.000000,-2.280294,-1.662505,1.322106,-1.470009,1.694851,1.387492,-0.588204,0.247888,0.004707,1.110623,-0.130831,-0.125117,1.104044,-0.036768,-0.909686,37.809490,-22.353714,-3.448000,0.297025,1.572067,-0.196061,0.000000,0.000000,0.000000,0.000000,0.000000,0.000000
14759402.000000,-2.280047,-1.662499,1.323215,-1.470135,1.694719,1.388585,-0.588232,0.244613,0.004891,1.118224,-0.131009,-0.127806,1.108695,-0.033100,-1.060443,37.738079,-22.401321,-3.400392,0.315336,1.611434,-0.274796,0.000000,0.000000,0.000000,0.000000,0.000000,0.000000
14759403.000000,-2.279806,-1.662499,1.324332,-1.470250,1.694588,1.389681,-0.588267,0.241458,0.003322,1.112366,-0.124838,-0.131788,1.103345,-0.033310,-1.159625,37.738079,-22.448929,-3.475771,0.386747,1.735030,-0.281205,0.000000,0.000000,0.000000,0.000000,0.000000,0.000000
14759404.000000,-2.279564,-1.662497,1.325466,-1.470359,1.694451,1.390756,-0.588311,0.239052,0.002818,1.102103,-0.118465,-0.135522,1.093964,-0.037082,-1.254840,37.714275,-22.841690,-3.622560,0.500272,1.832076,-0.188737,0.000000,0.000000,0.000000,0.000000,0.000000,0.000000
14759405.000000,-2.279334,-1.662493,1.326614,-1.470462,1.694331,1.391868,-0.588345,0.231921,0.003120,1.120156,-0.114756,-0.132261,1.092650,-0.035271,-1.254840,37.662701,-23.286026,-3.745546,0.464567,1.754256,-0.215287,0.000000,0.000000,0.000000,0.000000,0.000000,0.000000
14759406.000000,-2.279100,-1.662495,1.327768,-1.470569,1.694215,1.392976,-0.588370,0.230848,0.001549,1.124238,-0.112589,-0.124380,1.090372,-0.033004,-1.282611,37.686504,-23.801773,-3.844728,0.386747,1.714889,-0.268388,0.000000,0.000000,0.000000,0.000000,0.000000,0.000000
14759407.000000,-2.278865,-1.662497,1.328905,-1.470676,1.694089,1.394056,-0.588411,0.232857,0.000403,1.127154,-0.108448,-0.126589,1.088281,-0.035809,-1.306414,37.714275,-24.218338,-3.920107,0.393156,1.800033,-0.196061,0.000000,0.000000,0.000000,0.000000,0.000000,0.000000
14759408.000000,-2.278628,-1.662504,1.330047,-1.470784,1.693972,1.395139,-0.588439,0.234803,-0.001944,1.128186,-0.107644,-0.121057,1.077990,-0.033388,-1.453204,37.809490,-24.388931,-3.892336,0.327238,1.936446,-0.248246,0.000000,0.000000,0.000000,0.000000,0.000000,0.000000
14759409.000000,-2.278390,-1.662518,1.331166,-1.470895,1.693849,1.396207,-0.588474,0.233499,-0.005925,1.129214,-0.107679,-0.124318,1.077861,-0.034155,-1.651568,38.007854,-24.436539,-3.820925,0.344633,2.066451,-0.235429,0.000000,0.000000,0.000000,0.000000,0.000000,0.000000
14759411.000000,-2.277925,-1.662523,1.333412,-1.471099,1.693599,1.398403,-0.588534,0.234003,-0.003921,1.120598,-0.102634,-0.130609,1.081585,-0.037200,-1.949114,38.079266,-24.071548,-3.797121,0.327238,1.995040,-0.261979,0.000000,0.000000,0.000000,0.000000,0.000000,0.000000
14759412.000000,-2.277696,-1.662532,1.334525,-1.471200,1.693466,1.399495,-0.588569,0.230422,-0.004929,1.118123,-0.102331,-0.132479,1.090920,-0.038691,-2.099871,38.178448,-23.996170,-3.797121,0.369352,1.838485,-0.208878,0.000000,0.000000,0.000000,0.000000,0.000000,0.000000
14759413.000000,-2.277476,-1.662539,1.335641,-1.471297,1.693339,1.400594,-0.588596,0.231263,-0.005603,1.114907,-0.101492,-0.134897,1.088324,-0.035556,-2.072100,38.277630,-23.726395,-3.820925,0.434354,1.735030,-0.261979,0.000000,0.000000,0.000000,0.000000,0.000000,0.000000
14759414.000000,-2.277259,-1.662548,1.336757,-1.471400,1.693212,1.401661,-0.588630,0.225827,-0.006517,1.113471,-0.102397,-0.136416,1.080630,-0.036634,-2.048296,38.396648,-23.456619,-3.769350,0.500272,1.858627,-0.229020,0.000000,0.000000,0.000000,0.000000,0.000000,0.000000
14759415.000000,-2.277039,-1.662558,1.337859,-1.471496,1.693087,1.402744,-0.588658,0.220923,-0.007776,1.112571,-0.103176,-0.130981,1.074335,-0.030283,-2.000689,38.543438,-23.286026,-3.820925,0.518583,1.974899,-0.268388,0.000000,0.000000,0.000000,0.000000,0.000000,0.000000
14759416.000000,-2.276835,-1.662564,1.338985,-1.471585,1.692976,1.403852,-0.588693,0.214603,-0.006389,1.111886,-0.097251,-0.123282,1.074024,-0.033119,-1.802325,38.595013,-23.333633,-3.920107,0.434354,1.962081,-0.221696,0.000000,0.000000,0.000000,0.000000,0.000000,0.000000
14759417.000000,-2.276612,-1.662563,1.340095,-1.471679,1.692865,1.404953,-0.588723,0.215417,-0.003052,1.111680,-0.095875,-0.117302,1.085839,-0.032711,-1.826129,38.543438,-23.309830,-3.892336,0.351041,1.786300,-0.235429,0.000000,0.000000,0.000000,0.000000,0.000000,0.000000
14759418.000000,-2.276397,-1.662575,1.341225,-1.471766,1.692759,1.406063,-0.588751,0.214113,-0.008072,1.120366,-0.092273,-0.113110,1.083338,-0.032574,-1.802325,38.666424,-23.409012,-3.967714,0.255826,1.630660,-0.254655,0.000000,0.000000,0.000000,0.000000,0.000000,0.000000
14759419.000000,-2.276190,-1.662576,1.342357,-1.471852,1.692644,1.407173,-0.588780,0.211119,-0.005644,1.122583,-0.089617,-0.113494,1.088442,-0.033061,-1.802325,38.666424,-23.528030,-4.043092,0.249418,1.559249,-0.254655,0.000000,0.000000,0.000000,0.000000,0.000000,0.000000
14759420.000000,-2.275980,-1.662582,1.343465,-1.471938,1.692526,1.408243,-0.588813,0.209675,-0.005723,1.113935,-0.089047,-0.114474,1.087972,-0.034602,-1.849932,38.741802,-23.528030,-4.066896,0.267728,1.702071,-0.221696,0.000000,0.000000,0.000000,0.000000,0.000000,0.000000
14759421.000000,-2.275771,-1.662592,1.344571,-1.472019,1.692400,1.409334,-0.588846,0.212113,-0.007397,1.111579,-0.084708,-0.118433,1.088261,-0.035933,-1.901507,38.888592,-23.309830,-4.118471,0.374845,1.793624,-0.182328,0.000000,0.000000,0.000000,0.000000,0.000000,0.000000
14759422.000000,-2.275559,-1.662601,1.345661,-1.472098,1.692272,1.410405,-0.588866,0.211191,-0.007270,1.084002,-0.083484,-0.120625,1.088406,-0.032364,-1.972918,38.983807,-23.163040,-4.213686,0.488370,1.865035,-0.261979,0.000000,0.000000,0.000000,0.000000,0.000000,0.000000
14759423.000000,-2.275348,-1.662601,1.346768,-1.472176,1.692157,1.411498,-0.588898,0.210119,-0.003816,1.085923,-0.083284,-0.122297,1.081580,-0.030691,-2.048296,38.936199,-23.087662,-4.289064,0.482877,1.858627,-0.208878,0.000000,0.000000,0.000000,0.000000,0.000000,0.000000
14759424.000000,-2.275139,-1.662597,1.347884,-1.472256,1.692048,1.412621,-0.588918,0.207924,-0.000286,1.092997,-0.080489,-0.117766,1.085466,-0.029071,-2.199053,38.837017,-23.016251,-4.340639,0.428861,1.605026,-0.274796,0.000000,0.000000,0.000000,0.000000,0.000000,0.000000
14759425.000000,-2.274932,-1.662600,1.348982,-1.472337,1.691942,1.413730,-0.588946,0.207757,-0.000238,1.094924,-0.079674,-0.114394,1.097941,-0.031443,-2.298235,38.837017,-23.016251,-4.340639,0.374845,1.442062,-0.248246,0.000000,0.000000,0.000000,0.000000,0.000000,0.000000
14759426.000000,-2.274725,-1.662598,1.350102,-1.472422,1.691834,1.414823,-0.588972,0.211659,0.000920,1.098070,-0.078718,-0.113526,1.088125,-0.028336,-2.468829,38.789410,-23.111465,-4.213686,0.351041,1.552840,-0.235429,0.000000,0.000000,0.000000,0.000000,0.000000,0.000000
14759427.000000,-2.274529,-1.662602,1.351227,-1.472505,1.691725,1.415893,-0.588992,0.208861,0.000030,1.110642,-0.080592,-0.116754,1.083233,-0.024277,-2.492632,38.813213,-23.504227,-4.090700,0.315336,1.735030,-0.268388,0.000000,0.000000,0.000000,0.000000,0.000000,0.000000
14759428.000000,-2.274331,-1.662597,1.352362,-1.472575,1.691616,1.416987,-0.589025,0.204911,0.001671,1.116645,-0.074698,-0.115321,1.084330,-0.025501,-2.568011,38.741802,-23.825577,-4.142274,0.291532,1.806442,-0.188737,0.000000,0.000000,0.000000,0.000000,0.000000,0.000000
14759429.000000,-2.274143,-1.662594,1.353518,-1.472644,1.691505,1.418102,-0.589046,0.201656,0.002306,1.124654,-0.073160,-0.110286,1.090289,-0.022211,-2.445025,38.690228,-24.341324,-4.213686,0.291532,1.721298,-0.215287,0.000000,0.000000,0.000000,0.000000,0.000000,0.000000
14759430.000000,-2.273957,-1.662594,1.354652,-1.472699,1.691395,1.419192,-0.589067,0.197049,0.001526,1.132539,-0.068522,-0.110896,1.097368,-0.019726,-2.397418,38.690228,-24.734085,-4.439821,0.291532,1.695663,-0.248246,0.000000,0.000000,0.000000,0.000000,0.000000,0.000000
14759431.000000,-2.273768,-1.662594,1.355793,-1.472768,1.691277,1.420274,-0.589088,0.195143,0.001009,1.129184,-0.067715,-0.118923,1.092188,-0.019382,-2.397418,38.690228,-25.075272,-4.439821,0.356534,1.871444,-0.241837,0.000000,0.000000,0.000000,0.000000,0.000000,0.000000
14759432.000000,-2.273583,-1.662598,1.356918,-1.472837,1.691151,1.421336,-0.589116,0.191666,0.000017,1.129164,-0.071047,-0.115828,1.081282,-0.020522,-2.445025,38.717999,-25.027664,-4.388246,0.446256,2.085677,-0.196061,0.000000,0.000000,0.000000,0.000000,0.000000,0.000000
14759433.000000,-2.273399,-1.662607,1.358029,-1.472910,1.691029,1.422411,-0.589133,0.187839,-0.002778,1.122994,-0.072358,-0.116715,1.074829,-0.018302,-2.468829,38.837017,-25.027664,-4.241457,0.500272,2.255050,-0.229020,0.000000,0.000000,0.000000,0.000000,0.000000,0.000000
14759434.000000,-2.273215,-1.662612,1.359140,-1.472984,1.690920,1.423511,-0.589152,0.186210,-0.005659,1.114466,-0.076485,-0.114795,1.073321,-0.016788,-2.520403,38.864788,-24.829300,-4.090700,0.476469,2.274276,-0.261979,0.000000,0.000000,0.000000,0.000000,0.000000,0.000000
14759435.000000,-2.273029,-1.662614,1.360244,-1.473061,1.690816,1.424607,-0.589178,0.185756,-0.004595,1.112110,-0.073955,-0.110624,1.081573,-0.018682,-2.643389,38.888592,-24.658707,-3.892336,0.386747,2.104903,-0.215287,0.000000,0.000000,0.000000,0.000000,0.000000,0.000000
14759436.000000,-2.272850,-1.662613,1.361364,-1.473128,1.690716,1.425721,-0.589192,0.184172,-0.002056,1.115076,-0.072345,-0.107538,1.089570,-0.016536,-2.690997,38.837017,-24.535721,-3.820925,0.279630,1.844894,-0.261979,0.000000,0.000000,0.000000,0.000000,0.000000,0.000000
14759437.000000,-2.272682,-1.662622,1.362482,-1.473198,1.690608,1.426823,-0.589219,0.180771,-0.002726,1.113778,-0.072213,-0.108508,1.083328,-0.018261,-2.643389,38.888592,-24.365128,-3.697939,0.255826,1.760665,-0.221696,0.000000,0.000000,0.000000,0.000000,0.000000,0.000000
14759438.000000,-2.272515,-1.662627,1.363583,-1.473271,1.690494,1.427885,-0.589238,0.175638,-0.005536,1.117946,-0.072801,-0.112323,1.080050,-0.017370,-2.492632,38.912395,-24.242142,-3.547182,0.320829,1.903487,-0.235429,0.000000,0.000000,0.000000,0.000000,0.000000,0.000000
14759439.000000,-2.272360,-1.662632,1.364688,-1.473323,1.690387,1.428951,-0.589259,0.170574,-0.004586,1.111435,-0.067832,-0.113137,1.071981,-0.017805,-2.298235,38.936199,-23.996170,-3.622560,0.327238,2.125045,-0.221696,0.000000,0.000000,0.000000,0.000000,0.000000,0.000000
14759440.000000,-2.272204,-1.662636,1.365805,-1.473372,1.690269,1.430021,-0.589274,0.164137,-0.003311,1.122904,-0.062649,-0.115858,1.073232,-0.016400,-2.072100,38.936199,-24.166763,-3.769350,0.405057,2.150680,-0.254655,0.000000,0.000000,0.000000,0.000000,0.000000,0.000000
14759441.000000,-2.272050,-1.662636,1.366925,-1.473422,1.690164,1.431136,-0.589291,0.160699,-0.000727,1.117714,-0.057292,-0.114734,1.074356,-0.015943,-1.901507,38.864788,-24.190567,-3.868532,0.393156,1.897079,-0.274796,0.000000,0.000000,0.000000,0.000000,0.000000,0.000000
14759442.000000,-2.271898,-1.662633,1.368055,-1.473469,1.690062,1.432248,-0.589321,0.160375,0.002250,1.118621,-0.054018,-0.107350,1.076669,-0.019764,-1.826129,38.741802,-24.365128,-3.943910,0.332731,1.702071,-0.182328,0.000000,0.000000,0.000000,0.000000,0.000000,0.000000
14759443.000000,-2.271744,-1.662638,1.369160,-1.473529,1.689953,1.433337,-0.589333,0.157416,-0.001208,1.119562,-0.056118,-0.109341,1.081847,-0.012171,-1.778521,38.717999,-24.412735,-3.820925,0.351041,1.670028,-0.248246,0.000000,0.000000,0.000000,0.000000,0.000000,0.000000
14759444.000000,-2.271590,-1.662649,1.370268,-1.473583,1.689837,1.434423,-0.589352,0.152756,-0.005985,1.113321,-0.056927,-0.112889,1.077776,-0.010175,-1.750750,38.789410,-24.341324,-3.721742,0.416959,1.800033,-0.221696,0.000000,0.000000,0.000000,0.000000,0.000000,0.000000
14759445.000000,-2.271439,-1.662650,1.371360,-1.473643,1.689721,1.435489,-0.589365,0.152828,-0.003398,1.100618,-0.059424,-0.114678,1.092961,-0.010419,-1.750750,38.741802,-23.996170,-3.523378,0.470060,1.955673,-0.261979,0.000000,0.000000,0.000000,0.000000,0.000000,0.000000
14759446.000000,-2.271291,-1.662654,1.372453,-1.473688,1.689620,1.436584,-0.589382,0.151709,-0.001450,1.106198,-0.056718,-0.108369,1.089412,-0.012695,-1.726946,38.690228,-23.873184,-3.523378,0.440763,1.955673,-0.248246,0.000000,0.000000,0.000000,0.000000,0.000000,0.000000
14759447.000000,-2.271153,-1.662652,1.373545,-1.473727,1.689530,1.437705,-0.589394,0.145695,0.000968,1.094953,-0.049921,-0.101094,1.101871,-0.012876,-1.603961,38.595013,-23.678787,-3.598757,0.339139,1.773483,-0.274796,0.000000,0.000000,0.000000,0.000000,0.000000,0.000000
14759448.000000,-2.271017,-1.662651,1.374631,-1.473774,1.689435,1.438807,-0.589409,0.143660,-0.000534,1.092427,-0.048036,-0.101960,1.111413,-0.014309,-1.480975,38.495831,-23.579605,-3.547182,0.285123,1.597701,-0.268388,0.000000,0.000000,0.000000,0.000000,0.000000,0.000000
14759449.000000,-2.270877,-1.662652,1.375732,-1.473812,1.689334,1.439908,-0.589429,0.141079,0.000320,1.098139,-0.047210,-0.100457,1.105914,-0.016735,-1.405596,38.448223,-23.504227,-3.598757,0.285123,1.552840,-0.221696,0.000000,0.000000,0.000000,0.000000,0.000000,0.000000
14759450.000000,-2.270749,-1.662655,1.376846,-1.473860,1.689228,1.440987,-0.589441,0.137023,-0.003251,1.102259,-0.047711,-0.102047,1.088410,-0.015766,-1.231036,38.448223,-23.627213,-3.475771,0.362943,1.806442,-0.248246,0.000000,0.000000,0.000000,0.000000,0.000000,0.000000
14759451.000000,-2.270615,-1.662657,1.377953,-1.473908,1.689124,1.442056,-0.589460,0.132327,-0.002119,1.101974,-0.047693,-0.102239,1.078138,-0.017783,-1.159625,38.424419,-23.825577,-3.348818,0.428861,2.001449,-0.202470,0.000000,0.000000,0.000000,0.000000,0.000000,0.000000
14759452.000000,-2.270490,-1.662653,1.379084,-1.473949,1.689030,1.443162,-0.589468,0.131434,-0.000030,1.111332,-0.042807,-0.099640,1.077540,-0.010996,-1.032672,38.349041,-24.242142,-3.301210,0.416959,1.995040,-0.261979,0.000000,0.000000,0.000000,0.000000,0.000000,0.000000
14759453.000000,-2.270366,-1.662657,1.380205,-1.473984,1.688943,1.444261,-0.589482,0.129084,-0.001419,1.118098,-0.040634,-0.094885,1.082640,-0.009323,-0.961260,38.396648,-24.757889,-3.325014,0.332731,1.865035,-0.235429,0.000000,0.000000,0.000000,0.000000,0.000000,0.000000
14759454.000000,-2.270243,-1.662657,1.381337,-1.474012,1.688852,1.445371,-0.589496,0.127342,-0.001160,1.125441,-0.034741,-0.093382,1.089699,-0.011587,-0.885882,38.396648,-25.126846,-3.400392,0.291532,1.741439,-0.229020,0.000000,0.000000,0.000000,0.000000,0.000000,0.000000
14759455.000000,-2.270124,-1.662657,1.382466,-1.474048,1.688747,1.446467,-0.589505,0.124546,-0.001584,1.127750,-0.036638,-0.090922,1.094597,-0.007944,-0.786700,38.424419,-25.321243,-3.348818,0.339139,1.754256,-0.248246,0.000000,0.000000,0.000000,0.000000,0.000000,0.000000
14759456.000000,-2.270003,-1.662665,1.383558,-1.474085,1.688642,1.447522,-0.589522,0.121978,-0.003404,1.119335,-0.035968,-0.088967,1.091206,-0.011702,-0.786700,38.519634,-25.198257,-3.249635,0.386747,1.995040,-0.208878,0.000000,0.000000,0.000000,0.000000,0.000000,0.000000
14759457.000000,-2.269881,-1.662670,1.384667,-1.474124,1.688538,1.448598,-0.589528,0.123796,-0.004123,1.110861,-0.037059,-0.097274,1.083182,-0.006984,-0.834307,38.595013,-25.075272,-3.079042,0.446256,2.137862,-0.254655,0.000000,0.000000,0.000000,0.000000,0.000000,0.000000
14759458.000000,-2.269762,-1.662681,1.385753,-1.474161,1.688438,1.449666,-0.589539,0.121502,-0.005693,1.112091,-0.036984,-0.097090,1.084000,-0.005552,-0.834307,38.717999,-24.829300,-2.928285,0.476469,2.104903,-0.248246,0.000000,0.000000,0.000000,0.000000,0.000000,0.000000
14759459.000000,-2.269642,-1.662680,1.386852,-1.474191,1.688341,1.450761,-0.589552,0.119946,-0.003197,1.103313,-0.032510,-0.100784,1.079215,-0.008512,-0.862078,38.690228,-24.634903,-2.833071,0.488370,1.936446,-0.248246,0.000000,0.000000,0.000000,0.000000,0.000000,0.000000
14759460.000000,-2.269530,-1.662689,1.387958,-1.474220,1.688248,1.451874,-0.589564,0.115726,-0.005046,1.098127,-0.028159,-0.100625,1.083443,-0.011433,-0.885882,38.813213,-24.412735,-2.781496,0.405057,1.682845,-0.229020,0.000000,0.000000,0.000000,0.000000,0.000000,0.000000
14759461.000000,-2.269426,-1.662691,1.389056,-1.474250,1.688155,1.452961,-0.589575,0.115188,-0.003393,1.101843,-0.028814,-0.102041,1.086477,-0.011804,-0.762896,38.813213,-24.412735,-2.706117,0.362943,1.624252,-0.254655,0.000000,0.000000,0.000000,0.000000,0.000000,0.000000
14759462.000000,-2.269315,-1.662703,1.390150,-1.474277,1.688059,1.454043,-0.589587,0.113670,-0.005160,1.100157,-0.028470,-0.099961,1.080986,-0.013648,-0.711321,38.936199,-24.190567,-2.658510,0.351041,1.741439,-0.241837,0.000000,0.000000,0.000000,0.000000,0.000000,0.000000
14759463.000000,-2.269217,-1.662704,1.391251,-1.474296,1.687953,1.455124,-0.589600,0.107415,-0.003456,1.099697,-0.025990,-0.102003,1.105220,-0.010229,-0.564532,38.936199,-24.019974,-2.706117,0.440763,1.773483,-0.241837,0.000000,0.000000,0.000000,0.000000,0.000000,0.000000
14759464.000000,-2.269112,-1.662708,1.392346,-1.474311,1.687854,1.456218,-0.589612,0.108703,-0.005413,1.106548,-0.023762,-0.099994,1.101020,-0.012414,-0.540728,38.936199,-24.043777,-2.781496,0.440763,1.793624,-0.229020,0.000000,0.000000,0.000000,0.000000,0.000000,0.000000
14759465.000000,-2.269013,-1.662707,1.393462,-1.474319,1.687770,1.457332,-0.589624,0.104974,-0.005366,1.103731,-0.020626,-0.095335,1.103283,-0.014049,-0.465350,38.864788,-24.242142,-2.928285,0.351041,1.643478,-0.215287,0.000000,0.000000,0.000000,0.000000,0.000000,0.000000
14759466.000000,-2.268918,-1.662705,1.394555,-1.474324,1.687672,1.458437,-0.589628,0.104521,-0.002278,1.105652,-0.016500,-0.095094,1.112312,-0.008737,-0.366168,38.789410,-24.265945,-3.027467,0.351041,1.461288,-0.261979,0.000000,0.000000,0.000000,0.000000,0.000000,0.000000
14759467.000000,-2.268814,-1.662708,1.395658,-1.474332,1.687567,1.459533,-0.589644,0.102423,-0.001866,1.100293,-0.015293,-0.097831,1.108527,-0.013036,-0.441546,38.789410,-24.289749,-3.055238,0.422452,1.494247,-0.202470,0.000000,0.000000,0.000000,0.000000,0.000000,0.000000
14759468.000000,-2.268714,-1.662713,1.396748,-1.474349,1.687464,1.460619,-0.589649,0.103464,-0.002062,1.089475,-0.018346,-0.102793,1.091447,-0.007963,-0.489153,38.813213,-24.119156,-2.904482,0.458158,1.721298,-0.248246,0.000000,0.000000,0.000000,0.000000,0.000000,0.000000
14759469.000000,-2.268611,-1.662716,1.397824,-1.474349,1.687362,1.461682,-0.589656,0.104885,-0.001570,1.086571,-0.012470,-0.100969,1.076602,-0.009593,-0.588336,38.813213,-23.920792,-2.956056,0.476469,2.020675,-0.268388,0.000000,0.000000,0.000000,0.000000,0.000000,0.000000
14759470.000000,-2.268516,-1.662716,1.398909,-1.474347,1.687272,1.462788,-0.589673,0.104336,-0.003129,1.083152,-0.007728,-0.096699,1.079245,-0.009502,-0.612139,38.765606,-23.774002,-3.027467,0.405057,2.027084,-0.208878,0.000000,0.000000,0.000000,0.000000,0.000000,0.000000
14759471.000000,-2.268417,-1.662714,1.399973,-1.474349,1.687181,1.463908,-0.589676,0.101388,-0.004598,1.078482,-0.005316,-0.094270,1.088511,-0.009055,-0.663714,38.717999,-23.528030,-3.055238,0.362943,1.735030,-0.268388,0.000000,0.000000,0.000000,0.000000,0.000000,0.000000
14759472.000000,-2.268319,-1.662706,1.401076,-1.474348,1.687092,1.465033,-0.589694,0.100178,-0.000176,1.088444,-0.004154,-0.088710,1.094183,-0.014199,-0.762896,38.571209,-23.603409,-3.055238,0.327238,1.494247,-0.188737,0.000000,0.000000,0.000000,0.000000,0.000000,0.000000
14759473.000000,-2.268225,-1.662700,1.402180,-1.474349,1.687007,1.466133,-0.589699,0.098133,0.001794,1.089689,-0.004434,-0.083407,1.091209,-0.008983,-0.834307,38.472027,-23.702591,-3.003664,0.267728,1.552840,-0.229020,0.000000,0.000000,0.000000,0.000000,0.000000,0.000000
