chaoyuefei/paper-gmrm-data/robot_logs/onetime_s2_dq_mrm_max_0.30_log_20260314_182443.csv
# time_ms,q_0,q_1,q_2,q_3,q_4,q_5,q_6,dq_0,dq_1,dq_2,dq_3,dq_4,dq_5,dq_6,tau_J_0,tau_J_1,tau_J_2,tau_J_3,tau_J_4,tau_J_5,tau_J_6,O_dP_EE_c_0,O_dP_EE_c_1,O_dP_EE_c_2,O_dP_EE_c_3,O_dP_EE_c_4,O_dP_EE_c_5
15347498.000000,2.313455,-0.961425,-1.822603,-1.385937,-0.923308,1.666450,0.445877,-0.000418,0.000571,0.001113,-0.000090,-0.000089,0.000408,-0.000555,0.304304,34.921307,19.397995,12.222776,0.261320,1.981307,0.081344,0.000000,0.000000,0.000000,0.000000,0.000000,0.000000
15347499.000000,2.313452,-0.961425,-1.822604,-1.385933,-0.923309,1.666449,0.445879,-0.001392,0.000381,0.000185,0.001146,0.000619,-0.000237,-0.000370,0.351911,34.921307,19.421799,12.171202,0.243009,1.995040,0.081344,0.000000,0.000000,0.000000,0.000000,0.000000,0.000000
15347500.000000,2.313453,-0.961429,-1.822606,-1.385935,-0.923313,1.666452,0.445885,-0.000371,-0.000953,-0.000434,0.000114,-0.000503,0.000079,0.001211,0.328107,34.972881,19.445602,12.198973,0.267728,1.988631,0.041976,0.000000,0.000000,0.000000,0.000000,0.000000,0.000000
15347501.000000,2.313453,-0.961425,-1.822606,-1.385937,-0.923311,1.666453,0.445877,-0.000248,0.000571,-0.000289,-0.001037,0.000343,-0.000184,-0.000888,0.328107,34.921307,19.445602,12.246580,0.249418,1.995040,0.087753,0.000000,0.000000,0.000000,0.000000,0.000000,0.000000
15347502.000000,2.313453,-0.961427,-1.822602,-1.385934,-0.923313,1.666452,0.445879,-0.000165,-0.000176,0.000364,-0.000135,-0.000212,-0.000360,0.000391,0.328107,34.945110,19.421799,12.222776,0.261320,2.001449,0.061202,0.000000,0.000000,0.000000,0.000000,0.000000,0.000000
15347503.000000,2.313457,-0.961427,-1.822605,-1.385934,-0.923312,1.666451,0.445881,0.001096,-0.000117,-0.000314,0.000467,-0.001023,0.000235,0.001244,0.276533,34.945110,19.445602,12.198973,0.285123,1.988631,0.034652,0.000000,0.000000,0.000000,0.000000,0.000000,0.000000
15347504.000000,2.313446,-0.961431,-1.822604,-1.385938,-0.923308,1.666453,0.445878,-0.011335,-0.010577,-0.008849,-0.001359,-0.001029,0.001140,-0.002358,-0.144000,34.457134,18.882248,12.270384,0.166105,1.962081,0.120712,0.000000,0.000000,0.000000,0.000000,0.000000,0.000000
15347505.000000,2.313435,-0.961412,-1.822618,-1.385938,-0.923297,1.666455,0.445904,-0.028458,-0.011475,-0.024936,0.000452,-0.001791,0.003642,0.004622,-2.024493,32.279095,17.065231,12.345762,-0.216586,1.884261,0.081344,0.000000,0.000000,0.000000,0.000000,0.000000,0.000000
15347506.000000,2.313419,-0.961364,-1.822678,-1.385937,-0.923288,1.666448,0.445946,-0.027067,0.004222,-0.043671,-0.001759,0.003167,0.003140,0.014135,-5.464129,28.434795,14.192917,12.444944,-0.766818,1.865035,0.048385,0.000000,0.000000,0.000000,0.000000,0.000000,0.000000
15347507.000000,2.313388,-0.961357,-1.822788,-1.385923,-0.923321,1.666439,0.445992,-0.018211,0.009314,-0.062493,0.003663,-0.007872,-0.001026,0.026161,-9.574237,24.249310,10.804855,12.246580,-1.083590,1.949264,0.133529,0.000000,0.000000,0.000000,0.000000,0.000000,0.000000
15347508.000000,2.313308,-0.961404,-1.822924,-1.385917,-0.923409,1.666443,0.446072,-0.027633,-0.004855,-0.076392,0.006671,-0.033136,0.002045,0.044956,-13.240008,20.579571,7.369186,12.072020,-0.958163,2.001449,0.094161,0.000000,0.000000,0.000000,0.000000,0.000000,0.000000
15347509.000000,2.313219,-0.961490,-1.823083,-1.385920,-0.923523,1.666489,0.446164,-0.029402,-0.019907,-0.086662,0.002227,-0.058697,0.013435,0.058825,-16.655840,17.568401,4.131882,11.901426,-0.730197,1.819259,0.180221,0.000000,0.000000,0.000000,0.000000,0.000000,0.000000
15347510.000000,2.313119,-0.961621,-1.823238,-1.385928,-0.923675,1.666594,0.446291,-0.037261,-0.044806,-0.097069,-0.002862,-0.088733,0.045379,0.083891,-19.103655,15.437969,1.529343,11.405516,-0.312716,1.234237,0.147262,0.000000,0.000000,0.000000,0.000000,0.000000,0.000000
15347511.000000,2.313022,-0.961783,-1.823391,-1.385955,-0.923835,1.666757,0.446432,-0.042376,-0.076441,-0.100017,-0.016922,-0.115748,0.089494,0.099782,-20.270037,14.311260,-0.263870,10.663633,0.004056,0.434066,0.173812,0.000000,0.000000,0.000000,0.000000,0.000000,0.000000
15347512.000000,2.312945,-0.961961,-1.823528,-1.386015,-0.923995,1.666936,0.446587,-0.046101,-0.105057,-0.100739,-0.033881,-0.126623,0.123591,0.116960,-20.369219,13.946270,-1.366776,9.727354,0.088285,-0.177506,0.180221,0.000000,0.000000,0.000000,0.000000,0.000000,0.000000
15347513.000000,2.312884,-0.962141,-1.823637,-1.386086,-0.924150,1.667130,0.446753,-0.050005,-0.129447,-0.097885,-0.043466,-0.134602,0.149444,0.136652,-19.698748,13.970074,-1.981705,8.342772,-0.007845,-0.437516,0.140853,0.000000,0.000000,0.000000,0.000000,0.000000,0.000000
15347514.000000,2.312840,-0.962306,-1.823746,-1.386176,-0.924295,1.667320,0.446925,-0.050137,-0.141695,-0.103004,-0.060286,-0.135787,0.163399,0.145338,-18.560137,13.894695,-2.029312,6.759825,-0.348422,-0.268143,0.133529,0.000000,0.000000,0.000000,0.000000,0.000000,0.000000
15347515.000000,2.312792,-0.962443,-1.823852,-1.386298,-0.924432,1.667524,0.447098,-0.059555,-0.140317,-0.105325,-0.076601,-0.132845,0.177523,0.152502,-17.000994,13.553509,-1.759537,5.176878,-0.838229,0.102645,0.100570,0.000000,0.000000,0.000000,0.000000,0.000000,0.000000
15347516.000000,2.312730,-0.962537,-1.823953,-1.386464,-0.924581,1.667772,0.447268,-0.066635,-0.125839,-0.110002,-0.105774,-0.135552,0.196074,0.157525,-15.168109,12.696575,-1.390579,4.042235,-1.226412,0.414840,0.081344,0.000000,0.000000,0.000000,0.000000,0.000000,0.000000
15347517.000000,2.312660,-0.962597,-1.824057,-1.386681,-0.924754,1.668054,0.447439,-0.073472,-0.102886,-0.112565,-0.138508,-0.145823,0.222396,0.164740,-13.263812,11.423077,-0.974014,3.593931,-1.393954,0.570480,0.087753,0.000000,0.000000,0.000000,0.000000,0.000000,0.000000
15347518.000000,2.312556,-0.962639,-1.824171,-1.386929,-0.924965,1.668369,0.447609,-0.090154,-0.083483,-0.118231,-0.173056,-0.164471,0.247500,0.169014,-11.058002,10.002789,-0.482071,3.399534,-1.304232,0.583297,0.107894,0.000000,0.000000,0.000000,0.000000,0.000000,0.000000
15347519.000000,2.312427,-0.962680,-1.824297,-1.387193,-0.925223,1.668720,0.447786,-0.107139,-0.070732,-0.123355,-0.199817,-0.192060,0.281005,0.165983,-8.709369,8.610271,-0.041702,3.399534,-0.916049,0.564071,0.067611,0.000000,0.000000,0.000000,0.000000,0.000000,0.000000
15347520.000000,2.312291,-0.962726,-1.824427,-1.387483,-0.925503,1.669081,0.447953,-0.118274,-0.061699,-0.128969,-0.228217,-0.221014,0.305510,0.163996,-6.503558,7.360577,0.228073,3.693114,-0.389620,0.570480,0.140853,0.000000,0.000000,0.000000,0.000000,0.000000,0.000000
15347521.000000,2.312144,-0.962796,-1.824568,-1.387786,-0.925781,1.669468,0.448129,-0.129238,-0.063938,-0.132391,-0.250574,-0.243393,0.323062,0.167331,-4.424700,6.602825,0.474045,3.943053,0.015958,0.564071,0.094161,0.000000,0.000000,0.000000,0.000000,0.000000,0.000000
15347522.000000,2.312004,-0.962890,-1.824706,-1.388082,-0.926041,1.669883,0.448300,-0.132130,-0.076948,-0.133834,-0.265339,-0.246228,0.360719,0.167324,-2.690997,6.233868,0.549423,4.014464,0.129484,0.486251,0.100570,0.000000,0.000000,0.000000,0.000000,0.000000,0.000000
15347523.000000,2.311875,-0.963006,-1.824848,-1.388367,-0.926277,1.670315,0.448466,-0.130956,-0.091176,-0.136474,-0.272284,-0.246870,0.385371,0.162399,-1.254840,6.380657,0.696213,3.693114,-0.097567,0.440475,0.127120,0.000000,0.000000,0.000000,0.000000,0.000000,0.000000
15347524.000000,2.311769,-0.963164,-1.824996,-1.388647,-0.926514,1.670755,0.448643,-0.121762,-0.113008,-0.136270,-0.274387,-0.245971,0.397532,0.170811,-0.092425,7.360577,1.112778,3.173399,-0.389620,0.544845,0.081344,0.000000,0.000000,0.000000,0.000000,0.000000,0.000000
15347525.000000,2.311675,-0.963341,-1.825129,-1.388920,-0.926750,1.671213,0.448808,-0.111598,-0.137823,-0.133939,-0.268584,-0.244650,0.419405,0.167864,1.022382,8.828472,1.723740,2.435484,-0.599276,0.720626,0.140853,0.000000,0.000000,0.000000,0.000000,0.000000,0.000000
15347526.000000,2.311576,-0.963524,-1.825265,-1.389198,-0.926974,1.671702,0.448980,-0.107716,-0.157038,-0.136576,-0.269748,-0.231649,0.437105,0.170545,2.260175,10.443157,2.683822,1.642027,-0.796115,0.850631,0.087753,0.000000,0.000000,0.000000,0.000000,0.000000,0.000000
15347527.000000,2.311479,-0.963708,-1.825400,-1.389481,-0.927208,1.672240,0.449148,-0.104869,-0.171525,-0.140623,-0.276524,-0.231994,0.469344,0.170639,3.497968,12.010235,3.786728,0.927916,-0.814425,0.746261,0.081344,0.000000,0.000000,0.000000,0.000000,0.000000,0.000000
15347528.000000,2.311389,-0.963872,-1.825528,-1.389792,-0.927469,1.672808,0.449316,-0.101567,-0.172376,-0.140496,-0.287858,-0.240393,0.495851,0.171301,4.537397,13.089336,4.794418,0.507384,-0.611178,0.427657,0.081344,0.000000,0.000000,0.000000,0.000000,0.000000,0.000000
15347529.000000,2.311290,-0.964012,-1.825661,-1.390117,-0.927726,1.673386,0.449474,-0.103503,-0.163151,-0.141778,-0.307046,-0.250084,0.518340,0.165150,5.600629,13.601116,5.750534,0.209837,-0.419833,0.109054,0.107894,0.000000,0.000000,0.000000,0.000000,0.000000,0.000000
15347530.000000,2.311192,-0.964142,-1.825792,-1.390468,-0.927984,1.673942,0.449637,-0.101370,-0.153045,-0.142869,-0.322308,-0.256007,0.526505,0.161669,6.517072,13.676495,6.460678,0.134459,-0.240389,0.037643,0.100570,0.000000,0.000000,0.000000,0.000000,0.000000,0.000000
15347531.000000,2.311111,-0.964255,-1.825924,-1.390821,-0.928255,1.674482,0.449803,-0.095666,-0.140378,-0.139570,-0.331914,-0.260982,0.521218,0.164786,7.084394,13.307537,6.976425,-0.111513,0.040677,0.154830,0.074935,0.000000,0.000000,0.000000,0.000000,0.000000,0.000000
15347532.000000,2.311046,-0.964359,-1.826062,-1.391183,-0.928513,1.675021,0.449975,-0.085289,-0.126063,-0.140924,-0.344528,-0.265138,0.520520,0.170684,7.358137,12.672771,7.369186,-0.262270,0.123990,0.329696,0.074935,0.000000,0.000000,0.000000,0.000000,0.000000,0.000000
15347533.000000,2.310985,-0.964468,-1.826205,-1.391558,-0.928771,1.675541,0.450144,-0.075747,-0.118391,-0.142891,-0.351454,-0.262810,0.516764,0.174876,7.504926,11.938824,7.638962,-0.484438,0.058073,0.492660,0.081344,0.000000,0.000000,0.000000,0.000000,0.000000,0.000000
15347534.000000,2.310933,-0.964592,-1.826347,-1.391942,-0.929021,1.676069,0.450308,-0.066183,-0.119875,-0.141583,-0.358634,-0.258463,0.516156,0.172312,7.481122,11.323895,7.761948,-0.655031,-0.103060,0.576888,0.120712,0.000000,0.000000,0.000000,0.000000,0.000000,0.000000
15347535.000000,2.310894,-0.964736,-1.826507,-1.392328,-0.929275,1.676585,0.450486,-0.054237,-0.124230,-0.146418,-0.364840,-0.255195,0.518575,0.174030,7.235151,10.958904,7.984116,-0.904970,-0.258700,0.616256,0.054794,0.000000,0.000000,0.000000,0.000000,0.000000,0.000000
15347536.000000,2.310862,-0.964914,-1.826669,-1.392719,-0.929528,1.677096,0.450652,-0.048110,-0.139714,-0.152736,-0.369845,-0.249319,0.519561,0.175413,6.913801,10.982708,8.154709,-1.250124,-0.312716,0.662032,0.087753,0.000000,0.000000,0.000000,0.000000,0.000000,0.000000
15347537.000000,2.310831,-0.965112,-1.826840,-1.393110,-0.929798,1.677614,0.450821,-0.046432,-0.155082,-0.152154,-0.368705,-0.257687,0.512887,0.169862,6.417890,11.323895,8.353073,-1.571474,-0.246798,0.654708,0.074935,0.000000,0.000000,0.000000,0.000000,0.000000,0.000000
15347538.000000,2.310798,-0.965344,-1.827014,-1.393495,-0.930093,1.678119,0.450996,-0.047504,-0.181501,-0.161282,-0.365158,-0.267433,0.509851,0.174369,5.699811,12.109417,8.547470,-1.595277,-0.079257,0.589706,0.074935,0.000000,0.000000,0.000000,0.000000,0.000000,0.000000
15347539.000000,2.310751,-0.965592,-1.827181,-1.393878,-0.930390,1.678642,0.451164,-0.050083,-0.203770,-0.164316,-0.364625,-0.267347,0.513822,0.171841,4.882551,13.037762,8.575241,-1.250124,0.123990,0.453292,0.114303,0.000000,0.000000,0.000000,0.000000,0.000000,0.000000
15347540.000000,2.310698,-0.965854,-1.827348,-1.394255,-0.930674,1.679161,0.451345,-0.051659,-0.219871,-0.160316,-0.366131,-0.273104,0.517227,0.178540,3.890729,14.140667,8.599045,-0.508241,0.166105,0.329696,0.041976,0.000000,0.000000,0.000000,0.000000,0.000000,0.000000
15347541.000000,2.310638,-0.966129,-1.827514,-1.394625,-0.930952,1.679690,0.451514,-0.056621,-0.237183,-0.164786,-0.366031,-0.272788,0.524280,0.178480,2.902875,15.513348,8.694260,0.531187,0.189908,0.193282,0.107894,0.000000,0.000000,0.000000,0.000000,0.000000,0.000000
15347542.000000,2.310570,-0.966402,-1.827673,-1.394997,-0.931242,1.680215,0.451682,-0.058125,-0.247494,-0.159401,-0.369447,-0.282335,0.521184,0.176336,2.034040,17.104229,8.916428,1.765013,0.213712,0.258285,0.127120,0.000000,0.000000,0.000000,0.000000,0.000000,0.000000
15347543.000000,2.310486,-0.966675,-1.827819,-1.395375,-0.931519,1.680712,0.451859,-0.063403,-0.255289,-0.151327,-0.373495,-0.275357,0.511086,0.176168,1.466718,18.766521,9.237778,3.248778,0.123990,0.453292,0.081344,0.000000,0.000000,0.000000,0.000000,0.000000,0.000000
15347544.000000,2.310389,-0.966942,-1.827954,-1.395765,-0.931784,1.681223,0.452030,-0.073650,-0.257794,-0.146573,-0.382673,-0.264601,0.506570,0.175053,1.192975,20.456585,9.630539,4.930907,-0.049044,0.694076,0.067611,0.000000,0.000000,0.000000,0.000000,0.000000,0.000000
15347545.000000,2.310287,-0.967204,-1.828094,-1.396165,-0.932047,1.681741,0.452190,-0.081237,-0.261047,-0.143395,-0.391980,-0.261925,0.503359,0.171055,1.093793,22.095074,10.193893,6.636839,-0.174471,0.836898,0.140853,0.000000,0.000000,0.000000,0.000000,0.000000,0.000000
15347546.000000,2.310190,-0.967457,-1.828238,-1.396574,-0.932309,1.682258,0.452367,-0.085692,-0.261293,-0.145523,-0.399786,-0.266696,0.506388,0.172044,0.994611,23.515362,10.832626,8.192015,-0.258700,0.954086,0.114303,0.000000,0.000000,0.000000,0.000000,0.000000,0.000000
15347547.000000,2.310083,-0.967699,-1.828383,-1.396994,-0.932580,1.682757,0.452540,-0.092803,-0.259437,-0.147584,-0.418173,-0.269142,0.498620,0.171590,1.069990,24.713482,11.518967,9.675779,-0.246798,1.182052,0.114303,0.000000,0.000000,0.000000,0.000000,0.000000,0.000000
15347548.000000,2.309973,-0.967956,-1.828534,-1.397417,-0.932856,1.683236,0.452714,-0.098215,-0.259857,-0.148018,-0.423075,-0.268017,0.496673,0.175917,1.192975,25.863995,12.181503,10.814390,-0.150668,1.467696,0.107894,0.000000,0.000000,0.000000,0.000000,0.000000,0.000000
15347549.000000,2.309869,-0.968219,-1.828702,-1.397838,-0.933123,1.683726,0.452888,-0.101568,-0.267690,-0.153125,-0.423616,-0.264600,0.494236,0.175270,1.216779,26.919292,12.919418,11.679258,-0.037142,1.670028,0.087753,0.000000,0.000000,0.000000,0.000000,0.000000,0.000000
15347550.000000,2.309759,-0.968491,-1.828879,-1.398257,-0.933392,1.684218,0.453059,-0.105451,-0.266138,-0.163917,-0.421903,-0.264685,0.494325,0.172275,1.391340,27.895245,13.700974,12.270384,0.064481,1.682845,0.133529,0.000000,0.000000,0.000000,0.000000,0.000000,0.000000
15347551.000000,2.309646,-0.968782,-1.829054,-1.398672,-0.933663,1.684716,0.453237,-0.107952,-0.274247,-0.170315,-0.417216,-0.266477,0.493541,0.173219,1.565900,28.950542,14.292099,12.567930,0.088285,1.584884,0.094161,0.000000,0.000000,0.000000,0.000000,0.000000,0.000000
15347552.000000,2.309536,-0.969085,-1.829233,-1.399088,-0.933927,1.685203,0.453398,-0.109264,-0.284031,-0.173805,-0.412586,-0.269561,0.484606,0.170315,1.712690,30.025677,14.807846,12.591734,0.022367,1.539108,0.147262,0.000000,0.000000,0.000000,0.000000,0.000000,0.000000
15347553.000000,2.309412,-0.969405,-1.829427,-1.399487,-0.934195,1.685661,0.453578,-0.110774,-0.293676,-0.179960,-0.406474,-0.267720,0.486295,0.176907,2.034040,31.080975,15.347397,12.444944,-0.019747,1.597701,0.094161,0.000000,0.000000,0.000000,0.000000,0.000000,0.000000
15347554.000000,2.309295,-0.969740,-1.829624,-1.399890,-0.934460,1.686128,0.453749,-0.113305,-0.305023,-0.187819,-0.398053,-0.265070,0.479368,0.174701,2.283979,32.156109,15.740158,12.123594,-0.031649,1.689254,0.107894,0.000000,0.000000,0.000000,0.000000,0.000000,0.000000
15347555.000000,2.309169,-0.970067,-1.829828,-1.400280,-0.934723,1.686596,0.453916,-0.116459,-0.315465,-0.191079,-0.391942,-0.269087,0.472423,0.172844,2.605329,33.036846,16.132919,11.703062,-0.103060,1.702071,0.127120,0.000000,0.000000,0.000000,0.000000,0.000000,0.000000
15347556.000000,2.309039,-0.970389,-1.830038,-1.400677,-0.935006,1.687072,0.454088,-0.118880,-0.314613,-0.199344,-0.389632,-0.273851,0.474811,0.168657,2.950483,33.576397,16.501877,11.357908,-0.126864,1.637069,0.094161,0.000000,0.000000,0.000000,0.000000,0.000000,0.000000
15347557.000000,2.308917,-0.970696,-1.830252,-1.401069,-0.935282,1.687557,0.454260,-0.118752,-0.310911,-0.203281,-0.385855,-0.274975,0.477969,0.170087,3.200422,33.893780,16.894638,11.036558,-0.138766,1.507064,0.061202,0.000000,0.000000,0.000000,0.000000,0.000000,0.000000
15347558.000000,2.308797,-0.971008,-1.830496,-1.401450,-0.935569,1.688017,0.454423,-0.120139,-0.308163,-0.217823,-0.384707,-0.281584,0.472641,0.164647,3.398786,34.040569,17.533371,10.762815,-0.055453,1.481429,0.074935,0.000000,0.000000,0.000000,0.000000,0.000000,0.000000
15347559.000000,2.308681,-0.971314,-1.830729,-1.401825,-0.935856,1.688483,0.454584,-0.122175,-0.302855,-0.223591,-0.375638,-0.285624,0.469170,0.160247,3.521772,33.992962,17.997543,10.441465,0.117582,1.559249,0.100570,0.000000,0.000000,0.000000,0.000000,0.000000,0.000000
15347560.000000,2.308570,-0.971602,-1.830976,-1.402200,-0.936146,1.688949,0.454751,-0.116792,-0.297941,-0.228406,-0.372792,-0.284993,0.466016,0.163107,3.569379,33.869976,18.560898,10.243101,0.219205,1.637069,0.094161,0.000000,0.000000,0.000000,0.000000,0.000000,0.000000
15347561.000000,2.308457,-0.971887,-1.831224,-1.402576,-0.936434,1.689412,0.454921,-0.116197,-0.291031,-0.233156,-0.369506,-0.280671,0.465177,0.164514,3.620954,33.600201,19.052841,10.143919,0.225614,1.714889,0.094161,0.000000,0.000000,0.000000,0.000000,0.000000,0.000000
15347562.000000,2.308353,-0.972177,-1.831474,-1.402954,-0.936720,1.689889,0.455091,-0.114907,-0.291969,-0.238861,-0.370235,-0.284315,0.467033,0.166407,3.620954,33.477215,19.497177,10.072508,0.213712,1.708480,0.081344,0.000000,0.000000,0.000000,0.000000,0.000000,0.000000
15347563.000000,2.308253,-0.972466,-1.831733,-1.403318,-0.936995,1.690357,0.455257,-0.111426,-0.292667,-0.243215,-0.363643,-0.282489,0.463428,0.166244,3.521772,33.382000,19.961349,9.949522,0.129484,1.714889,0.107894,0.000000,0.000000,0.000000,0.000000,0.000000,0.000000
15347564.000000,2.308145,-0.972776,-1.831996,-1.403693,-0.937286,1.690810,0.455429,-0.108730,-0.297834,-0.248385,-0.364898,-0.290867,0.461123,0.169473,3.521772,33.501019,20.354111,9.874144,0.166105,1.838485,0.067611,0.000000,0.000000,0.000000,0.000000,0.000000,0.000000
15347565.000000,2.308049,-0.973080,-1.832254,-1.404056,-0.937584,1.691265,0.455588,-0.103555,-0.299836,-0.250619,-0.369813,-0.298286,0.454113,0.167764,3.398786,33.675579,20.671494,9.751158,0.231107,1.962081,0.114303,0.000000,0.000000,0.000000,0.000000,0.000000,0.000000
15347566.000000,2.307957,-0.973391,-1.832532,-1.404436,-0.937878,1.691721,0.455753,-0.098875,-0.303773,-0.255173,-0.373897,-0.297436,0.459289,0.168710,3.248029,33.893780,21.115829,9.822569,0.285123,1.968490,0.107894,0.000000,0.000000,0.000000,0.000000,0.000000,0.000000
15347567.000000,2.307864,-0.973698,-1.832793,-1.404811,-0.938170,1.692193,0.455923,-0.092932,-0.310670,-0.258257,-0.373132,-0.294836,0.460778,0.170524,3.101240,34.040569,21.385605,9.774961,0.351041,1.903487,0.067611,0.000000,0.000000,0.000000,0.000000,0.000000,0.000000
15347568.000000,2.307782,-0.974008,-1.833050,-1.405186,-0.938460,1.692666,0.456083,-0.089675,-0.306692,-0.257878,-0.377843,-0.294608,0.458740,0.167944,2.879072,34.163555,21.532394,9.798765,0.381254,1.779891,0.133529,0.000000,0.000000,0.000000,0.000000,0.000000,0.000000
15347569.000000,2.307701,-0.974329,-1.833321,-1.405571,-0.938753,1.693125,0.456262,-0.084550,-0.308636,-0.259746,-0.379501,-0.291778,0.462772,0.171282,2.652936,34.334148,21.754562,9.897947,0.339139,1.754256,0.061202,0.000000,0.000000,0.000000,0.000000,0.000000,0.000000
15347570.000000,2.307634,-0.974645,-1.833570,-1.405958,-0.939048,1.693583,0.456425,-0.078943,-0.309009,-0.255659,-0.381085,-0.285073,0.458668,0.171398,2.331586,34.457134,21.726791,9.997129,0.381254,1.884261,0.061202,0.000000,0.000000,0.000000,0.000000,0.000000,0.000000
15347571.000000,2.307574,-0.974956,-1.833826,-1.406337,-0.939335,1.694032,0.456591,-0.072313,-0.310266,-0.253026,-0.381330,-0.289985,0.465075,0.170857,1.911054,34.504742,21.726791,10.072508,0.369352,1.988631,0.054794,0.000000,0.000000,0.000000,0.000000,0.000000,0.000000
15347572.000000,2.307520,-0.975275,-1.834089,-1.406725,-0.939612,1.694505,0.456746,-0.066172,-0.312085,-0.257376,-0.382279,-0.292459,0.462455,0.167720,1.442914,34.556316,21.825974,10.219297,0.291532,1.988631,0.107894,0.000000,0.000000,0.000000,0.000000,0.000000,0.000000
15347573.000000,2.307464,-0.975577,-1.834334,-1.407122,-0.939911,1.694976,0.456911,-0.062439,-0.306944,-0.252407,-0.385672,-0.296941,0.459802,0.169426,1.093793,34.457134,21.702988,10.441465,0.291532,1.988631,0.081344,0.000000,0.000000,0.000000,0.000000,0.000000,0.000000
15347574.000000,2.307419,-0.975889,-1.834585,-1.407521,-0.940200,1.695436,0.457077,-0.056896,-0.305072,-0.248284,-0.384391,-0.292991,0.463677,0.169278,0.625654,34.357952,21.679184,10.663633,0.237516,1.968490,0.081344,0.000000,0.000000,0.000000,0.000000,0.000000,0.000000
15347575.000000,2.307381,-0.976204,-1.834830,-1.407923,-0.940494,1.695914,0.457240,-0.049001,-0.307853,-0.244580,-0.391390,-0.290806,0.465877,0.169995,0.153547,34.357952,21.631577,10.814390,0.273221,1.942855,0.067611,0.000000,0.000000,0.000000,0.000000,0.000000,0.000000
15347576.000000,2.307342,-0.976512,-1.835072,-1.408324,-0.940786,1.696388,0.457404,-0.045197,-0.305462,-0.240320,-0.391528,-0.293002,0.462429,0.163710,-0.266986,34.310345,21.532394,11.012754,0.339139,1.949264,0.107894,0.000000,0.000000,0.000000,0.000000,0.000000,0.000000
15347577.000000,2.307309,-0.976832,-1.835307,-1.408733,-0.941082,1.696857,0.457577,-0.042255,-0.309078,-0.241412,-0.392962,-0.297338,0.462768,0.161226,-0.687518,34.357952,21.385605,11.183348,0.332731,1.995040,0.094161,0.000000,0.000000,0.000000,0.000000,0.000000,0.000000
15347578.000000,2.307275,-0.977151,-1.835541,-1.409135,-0.941385,1.697329,0.457748,-0.041131,-0.313385,-0.239588,-0.399248,-0.296727,0.464078,0.169925,-1.060443,34.480938,21.187241,11.357908,0.356534,1.995040,0.048385,0.000000,0.000000,0.000000,0.000000,0.000000,0.000000
15347579.000000,2.307247,-0.977479,-1.835777,-1.409555,-0.941682,1.697795,0.457910,-0.039933,-0.317959,-0.236351,-0.404663,-0.293967,0.468239,0.167017,-1.453204,34.703106,21.040451,11.627684,0.344633,1.942855,0.114303,0.000000,0.000000,0.000000,0.000000,0.000000,0.000000
15347580.000000,2.307217,-0.977809,-1.835993,-1.409962,-0.941969,1.698274,0.458086,-0.037784,-0.324669,-0.228939,-0.401032,-0.284858,0.465884,0.170076,-1.750750,34.921307,20.794479,11.703062,0.339139,1.890670,0.054794,0.000000,0.000000,0.000000,0.000000,0.000000,0.000000
15347581.000000,2.307187,-0.978153,-1.836205,-1.410375,-0.942263,1.698749,0.458246,-0.036720,-0.327401,-0.220224,-0.404425,-0.289620,0.468353,0.167409,-2.024493,35.314068,20.552475,11.877623,0.308927,1.851302,0.120712,0.000000,0.000000,0.000000,0.000000,0.000000,0.000000
15347582.000000,2.307164,-0.978498,-1.836422,-1.410785,-0.942559,1.699213,0.458417,-0.031518,-0.332950,-0.216796,-0.404760,-0.293650,0.469168,0.168693,-2.345843,35.607647,20.429489,12.000608,0.273221,1.851302,0.127120,0.000000,0.000000,0.000000,0.000000,0.000000,0.000000
15347583.000000,2.307140,-0.978849,-1.836626,-1.411205,-0.942854,1.699684,0.458591,-0.031379,-0.339426,-0.209219,-0.415264,-0.293306,0.463555,0.170899,-2.619586,36.000408,20.231125,12.222776,0.273221,1.851302,0.081344,0.000000,0.000000,0.000000,0.000000,0.000000,0.000000
15347584.000000,2.307114,-0.979198,-1.836830,-1.411606,-0.943144,1.700146,0.458761,-0.030033,-0.340620,-0.203890,-0.408926,-0.291771,0.462105,0.174599,-2.817950,36.317791,20.060532,12.270384,0.267728,1.812850,0.120712,0.000000,0.000000,0.000000,0.000000,0.000000,0.000000
15347585.000000,2.307082,-0.979551,-1.837033,-1.412027,-0.943426,1.700622,0.458930,-0.030836,-0.344570,-0.205539,-0.410483,-0.286359,0.465568,0.181685,-2.940936,36.563763,19.985153,12.468748,0.207303,1.779891,0.127120,0.000000,0.000000,0.000000,0.000000,0.000000,0.000000
15347586.000000,2.307051,-0.979908,-1.837234,-1.412438,-0.943724,1.701097,0.459101,-0.030967,-0.345205,-0.201946,-0.409121,-0.289421,0.467504,0.184307,-3.063921,36.881145,19.838364,12.690916,0.243009,1.760665,0.107894,0.000000,0.000000,0.000000,0.000000,0.000000,0.000000
15347587.000000,2.307018,-0.980273,-1.837433,-1.412851,-0.944014,1.701563,0.459278,-0.035025,-0.351816,-0.199483,-0.408645,-0.288789,0.472188,0.182592,-3.139300,37.174725,19.715378,12.813902,0.219205,1.779891,0.054794,0.000000,0.000000,0.000000,0.000000,0.000000,0.000000
15347588.000000,2.306981,-0.980624,-1.837635,-1.413267,-0.944296,1.702039,0.459440,-0.036785,-0.351240,-0.198787,-0.406506,-0.284821,0.469888,0.178878,-3.139300,37.392925,19.766953,12.964659,0.178007,1.806442,0.087753,0.000000,0.000000,0.000000,0.000000,0.000000,0.000000
15347589.000000,2.306941,-0.980981,-1.837832,-1.413677,-0.944580,1.702501,0.459610,-0.039047,-0.353617,-0.195152,-0.410948,-0.290774,0.472071,0.176133,-3.063921,37.567486,19.715378,13.111448,0.178007,1.819259,0.094161,0.000000,0.000000,0.000000,0.000000,0.000000,0.000000
15347590.000000,2.306889,-0.981341,-1.838030,-1.414088,-0.944869,1.702976,0.459783,-0.046342,-0.350408,-0.196532,-0.407801,-0.291891,0.470808,0.173943,-2.865557,37.686504,19.691574,13.286009,0.141385,1.838485,0.107894,0.000000,0.000000,0.000000,0.000000,0.000000,0.000000
15347591.000000,2.306846,-0.981692,-1.838237,-1.414500,-0.945157,1.703453,0.459961,-0.042652,-0.347861,-0.199725,-0.411618,-0.290558,0.469792,0.174590,-2.790179,37.861065,19.766953,13.555784,0.100187,1.851302,0.067611,0.000000,0.000000,0.000000,0.000000,0.000000,0.000000
15347592.000000,2.306792,-0.982056,-1.838443,-1.414908,-0.945449,1.703920,0.460131,-0.046285,-0.349180,-0.200468,-0.407558,-0.291404,0.470558,0.171159,-2.568011,38.103069,19.790756,13.678770,0.129484,1.844894,0.120712,0.000000,0.000000,0.000000,0.000000,0.000000,0.000000
15347593.000000,2.306738,-0.982411,-1.838652,-1.415317,-0.945727,1.704387,0.460308,-0.047873,-0.347843,-0.205989,-0.407494,-0.283162,0.463878,0.173285,-2.369647,38.325237,19.885971,13.777952,0.123990,1.890670,0.061202,0.000000,0.000000,0.000000,0.000000,0.000000,0.000000
15347594.000000,2.306673,-0.982778,-1.838863,-1.415716,-0.946020,1.704856,0.460480,-0.051390,-0.355340,-0.209149,-0.403907,-0.290325,0.461975,0.176593,-2.072100,38.543438,19.961349,13.853331,0.141385,1.871444,0.061202,0.000000,0.000000,0.000000,0.000000,0.000000,0.000000
15347595.000000,2.306615,-0.983150,-1.839081,-1.416117,-0.946314,1.705316,0.460641,-0.054541,-0.360340,-0.212230,-0.402870,-0.292977,0.465866,0.172172,-1.873736,38.837017,20.108139,13.904905,0.189908,1.838485,0.133529,0.000000,0.000000,0.000000,0.000000,0.000000,0.000000
15347596.000000,2.306551,-0.983511,-1.839298,-1.416497,-0.946603,1.705778,0.460815,-0.057950,-0.363695,-0.212989,-0.401669,-0.296499,0.465375,0.174358,-1.627764,39.035381,20.278732,13.730345,0.166105,1.865035,0.081344,0.000000,0.000000,0.000000,0.000000,0.000000,0.000000
15347597.000000,2.306485,-0.983891,-1.839514,-1.416884,-0.946888,1.706231,0.460983,-0.057547,-0.365343,-0.211974,-0.397711,-0.293311,0.461257,0.171562,-1.381793,39.328960,20.401718,13.555784,0.135892,1.890670,0.114303,0.000000,0.000000,0.000000,0.000000,0.000000,0.000000
15347598.000000,2.306415,-0.984256,-1.839737,-1.417268,-0.947184,1.706698,0.461155,-0.064015,-0.368504,-0.216349,-0.393435,-0.295377,0.463473,0.172317,-1.108050,39.523357,20.600082,13.333616,0.147794,1.897079,0.087753,0.000000,0.000000,0.000000,0.000000,0.000000,0.000000
15347599.000000,2.306339,-0.984643,-1.839963,-1.417642,-0.947484,1.707158,0.461315,-0.069855,-0.373578,-0.219061,-0.387597,-0.293598,0.460993,0.170286,-0.786700,39.816936,20.794479,13.111448,0.123990,1.897079,0.127120,0.000000,0.000000,0.000000,0.000000,0.000000,0.000000
15347600.000000,2.306264,-0.985017,-1.840189,-1.418017,-0.947782,1.707609,0.461486,-0.070059,-0.368305,-0.220843,-0.381149,-0.297815,0.461083,0.173197,-0.489153,39.939922,20.969040,12.813902,0.117582,1.838485,0.067611,0.000000,0.000000,0.000000,0.000000,0.000000,0.000000
15347601.000000,2.306186,-0.985380,-1.840427,-1.418393,-0.948074,1.708071,0.461640,-0.074394,-0.365107,-0.225450,-0.375826,-0.298376,0.458074,0.165803,-0.144000,40.015301,21.286423,12.591734,0.117582,1.832076,0.114303,0.000000,0.000000,0.000000,0.000000,0.000000,0.000000
15347602.000000,2.306098,-0.985742,-1.840665,-1.418763,-0.948383,1.708522,0.461809,-0.079455,-0.357252,-0.228206,-0.373082,-0.302013,0.455478,0.168813,0.276533,40.039104,21.457016,12.421141,0.159696,1.858627,0.054794,0.000000,0.000000,0.000000,0.000000,0.000000,0.000000
15347603.000000,2.306011,-0.986093,-1.840900,-1.419128,-0.948689,1.708985,0.461960,-0.081479,-0.357016,-0.229050,-0.369800,-0.297235,0.463415,0.162601,0.625654,39.963726,21.702988,12.222776,0.183500,1.871444,0.100570,0.000000,0.000000,0.000000,0.000000,0.000000,0.000000
15347604.000000,2.305918,-0.986440,-1.841148,-1.419492,-0.949005,1.709446,0.462127,-0.084100,-0.351319,-0.232617,-0.369802,-0.303188,0.459050,0.165376,1.022382,39.816936,22.071945,12.099791,0.249418,1.909896,0.074935,0.000000,0.000000,0.000000,0.000000,0.000000,0.000000
15347605.000000,2.305825,-0.986785,-1.841387,-1.419851,-0.949311,1.709896,0.462288,-0.084735,-0.348871,-0.233964,-0.363894,-0.299236,0.457476,0.164714,1.367536,39.721722,22.270309,11.877623,0.237516,1.923629,0.120712,0.000000,0.000000,0.000000,0.000000,0.000000,0.000000
15347606.000000,2.305740,-0.987128,-1.841632,-1.420218,-0.949615,1.710356,0.462455,-0.085456,-0.347166,-0.240196,-0.362228,-0.297003,0.455308,0.164156,1.589704,39.598736,22.540085,11.750669,0.178007,1.930038,0.094161,0.000000,0.000000,0.000000,0.000000,0.000000,0.000000
15347607.000000,2.305652,-0.987463,-1.841877,-1.420562,-0.949935,1.710819,0.462625,-0.082729,-0.340689,-0.242287,-0.354669,-0.305315,0.454761,0.161651,1.811872,39.400372,22.734482,11.504698,0.201810,1.936446,0.067611,0.000000,0.000000,0.000000,0.000000,0.000000,0.000000
15347608.000000,2.305570,-0.987802,-1.842123,-1.420910,-0.950249,1.711270,0.462783,-0.084944,-0.336787,-0.242108,-0.354999,-0.312276,0.454658,0.161691,1.934858,39.130596,22.956650,11.282530,0.207303,1.942855,0.120712,0.000000,0.000000,0.000000,0.000000,0.000000,0.000000
15347609.000000,2.305481,-0.988139,-1.842384,-1.421249,-0.950565,1.711722,0.462952,-0.089112,-0.334744,-0.247479,-0.352125,-0.313456,0.445804,0.160851,2.133222,38.960003,23.274033,11.012754,0.243009,2.020675,0.074935,0.000000,0.000000,0.000000,0.000000,0.000000,0.000000
15347610.000000,2.305392,-0.988474,-1.842640,-1.421586,-0.950896,1.712167,0.463113,-0.088143,-0.333394,-0.246160,-0.346092,-0.320085,0.447520,0.162288,2.283979,38.741802,23.520004,10.715208,0.332731,2.039901,0.087753,0.000000,0.000000,0.000000,0.000000,0.000000,0.000000
15347611.000000,2.305310,-0.988806,-1.842885,-1.421926,-0.951219,1.712620,0.463279,-0.086319,-0.330779,-0.243726,-0.339713,-0.316293,0.449760,0.160533,2.383161,38.519634,23.690598,10.465269,0.374845,2.014266,0.061202,0.000000,0.000000,0.000000,0.000000,0.000000,0.000000
15347612.000000,2.305228,-0.989145,-1.843137,-1.422257,-0.951543,1.713077,0.463444,-0.084137,-0.335237,-0.245435,-0.337119,-0.320268,0.452171,0.162717,2.454572,38.424419,23.888962,10.294676,0.405057,1.981307,0.074935,0.000000,0.000000,0.000000,0.000000,0.000000,0.000000
15347613.000000,2.305148,-0.989484,-1.843389,-1.422590,-0.951862,1.713528,0.463615,-0.083097,-0.336562,-0.250068,-0.332709,-0.323335,0.448527,0.164734,2.529951,38.249859,24.011948,10.072508,0.422452,1.955673,0.067611,0.000000,0.000000,0.000000,0.000000,0.000000,0.000000
15347614.000000,2.305067,-0.989820,-1.843635,-1.422925,-0.952184,1.713979,0.463775,-0.081607,-0.334128,-0.247646,-0.341973,-0.324576,0.447568,0.160583,2.581525,38.202251,24.083359,10.020933,0.410551,1.974899,0.087753,0.000000,0.000000,0.000000,0.000000,0.000000,0.000000
15347615.000000,2.304997,-0.990158,-1.843877,-1.423256,-0.952506,1.714426,0.463946,-0.077034,-0.333854,-0.244383,-0.343791,-0.323690,0.448381,0.159436,2.482343,38.130840,24.083359,9.949522,0.386747,1.988631,0.048385,0.000000,0.000000,0.000000,0.000000,0.000000,0.000000
15347616.000000,2.304926,-0.990489,-1.844127,-1.423590,-0.952822,1.714873,0.464105,-0.075437,-0.338211,-0.247192,-0.339524,-0.316127,0.443924,0.155672,2.430768,38.055462,24.158737,9.921751,0.356534,2.014266,0.094161,0.000000,0.000000,0.000000,0.000000,0.000000,0.000000
15347617.000000,2.304853,-0.990814,-1.844370,-1.423919,-0.953138,1.715325,0.464269,-0.075024,-0.335751,-0.245048,-0.339278,-0.314392,0.448581,0.159701,2.406965,37.908672,24.182541,10.020933,0.339139,2.079269,0.081344,0.000000,0.000000,0.000000,0.000000,0.000000,0.000000
15347618.000000,2.304783,-0.991144,-1.844606,-1.424259,-0.953467,1.715778,0.464435,-0.070565,-0.329741,-0.239456,-0.338447,-0.318871,0.450821,0.159036,2.359357,37.761883,24.158737,10.143919,0.339139,2.060043,0.054794,0.000000,0.000000,0.000000,0.000000,0.000000,0.000000
15347619.000000,2.304726,-0.991454,-1.844837,-1.424601,-0.953782,1.716239,0.464593,-0.064632,-0.322346,-0.238396,-0.339919,-0.309217,0.456281,0.160033,2.184797,37.567486,24.134933,10.342283,0.339139,2.020675,0.100570,0.000000,0.000000,0.000000,0.000000,0.000000,0.000000
15347620.000000,2.304667,-0.991776,-1.845071,-1.424942,-0.954100,1.716688,0.464768,-0.063979,-0.323024,-0.234302,-0.340770,-0.309675,0.461899,0.160146,2.034040,37.392925,24.111130,10.540648,0.362943,2.027084,0.048385,0.000000,0.000000,0.000000,0.000000,0.000000,0.000000
15347621.000000,2.304602,-0.992090,-1.845296,-1.425283,-0.954414,1.717132,0.464928,-0.063191,-0.318748,-0.229924,-0.339257,-0.308777,0.453879,0.164338,1.986432,37.127117,24.011948,10.691404,0.405057,2.053634,0.100570,0.000000,0.000000,0.000000,0.000000,0.000000,0.000000
15347622.000000,2.304548,-0.992404,-1.845519,-1.425620,-0.954743,1.717577,0.465107,-0.062236,-0.317953,-0.228934,-0.342492,-0.314940,0.452329,0.164075,1.788068,36.952557,23.865158,10.861998,0.422452,2.098495,0.021835,0.000000,0.000000,0.000000,0.000000,0.000000,0.000000
15347623.000000,2.304496,-0.992719,-1.845739,-1.425972,-0.955069,1.718014,0.465270,-0.059386,-0.315102,-0.224533,-0.342593,-0.318833,0.446900,0.163522,1.641279,36.710552,23.690598,11.084166,0.446256,2.125045,0.067611,0.000000,0.000000,0.000000,0.000000,0.000000,0.000000
15347624.000000,2.304447,-0.993041,-1.845955,-1.426322,-0.955380,1.718455,0.465439,-0.054230,-0.316052,-0.220202,-0.342128,-0.312516,0.438294,0.165822,1.490522,36.734356,23.595383,11.282530,0.405057,2.131454,0.061202,0.000000,0.000000,0.000000,0.000000,0.000000,0.000000
15347625.000000,2.304399,-0.993364,-1.846152,-1.426670,-0.955693,1.718895,0.465604,-0.053413,-0.317151,-0.211210,-0.347029,-0.314624,0.438652,0.161100,1.343732,36.635174,23.274033,11.429319,0.351041,2.104903,0.087753,0.000000,0.000000,0.000000,0.000000,0.000000,0.000000
15347626.000000,2.304354,-0.993688,-1.846348,-1.427026,-0.956011,1.719336,0.465772,-0.052130,-0.315689,-0.208903,-0.348288,-0.317308,0.433995,0.163495,1.169172,36.587566,23.028061,11.655455,0.297025,2.066451,0.087753,0.000000,0.000000,0.000000,0.000000,0.000000,0.000000
15347627.000000,2.304306,-0.994011,-1.846544,-1.427373,-0.956334,1.719771,0.465944,-0.049256,-0.323712,-0.204390,-0.348807,-0.320598,0.433721,0.166994,1.022382,36.635174,22.734482,11.826048,0.279630,2.053634,0.041976,0.000000,0.000000,0.000000,0.000000,0.000000,0.000000
15347628.000000,2.304270,-0.994343,-1.846739,-1.427728,-0.956654,1.720200,0.466106,-0.044052,-0.324595,-0.201654,-0.348866,-0.317791,0.431759,0.160484,0.748639,36.682781,22.464706,11.976805,0.285123,2.112228,0.100570,0.000000,0.000000,0.000000,0.000000,0.000000,0.000000
15347629.000000,2.304234,-0.994668,-1.846930,-1.428080,-0.956969,1.720637,0.466271,-0.041993,-0.325180,-0.197147,-0.349485,-0.318603,0.431535,0.167915,0.550275,36.805767,22.218735,12.147398,0.291532,2.131454,0.094161,0.000000,0.000000,0.000000,0.000000,0.000000,0.000000
15347630.000000,2.304195,-0.995003,-1.847121,-1.428439,-0.957292,1.721080,0.466443,-0.040903,-0.327821,-0.196566,-0.354149,-0.322045,0.434591,0.165068,0.375715,36.928753,21.972763,12.369566,0.303434,2.072860,0.048385,0.000000,0.000000,0.000000,0.000000,0.000000,0.000000
15347631.000000,2.304164,-0.995333,-1.847311,-1.428803,-0.957615,1.721529,0.466607,-0.039027,-0.325606,-0.190406,-0.354593,-0.324758,0.437009,0.160197,0.153547,36.980328,21.726791,12.643309,0.308927,1.995040,0.081344,0.000000,0.000000,0.000000,0.000000,0.000000,0.000000
15347632.000000,2.304136,-0.995659,-1.847493,-1.429162,-0.957925,1.721976,0.466769,-0.034846,-0.326331,-0.186283,-0.366637,-0.320829,0.437099,0.158023,-0.068621,37.004131,21.508591,12.813902,0.297025,1.936446,0.100570,0.000000,0.000000,0.000000,0.000000,0.000000,0.000000
15347633.000000,2.304102,-0.995983,-1.847675,-1.429522,-0.958242,1.722416,0.466941,-0.036720,-0.323107,-0.183362,-0.363188,-0.320486,0.441163,0.162772,-0.215411,36.904949,21.310226,13.012266,0.261320,1.916305,0.048385,0.000000,0.000000,0.000000,0.000000,0.000000,0.000000
15347634.000000,2.304070,-0.996299,-1.847849,-1.429887,-0.958558,1.722859,0.467100,-0.034499,-0.324967,-0.179495,-0.363913,-0.310292,0.445530,0.166188,-0.366168,36.758160,21.040451,13.234434,0.267728,2.001449,0.100570,0.000000,0.000000,0.000000,0.000000,0.000000,0.000000
15347635.000000,2.304036,-0.996611,-1.848028,-1.430255,-0.958870,1.723301,0.467272,-0.034766,-0.320635,-0.177989,-0.363782,-0.314641,0.435784,0.172829,-0.441546,36.535992,20.822250,13.408995,0.237516,2.053634,0.074935,0.000000,0.000000,0.000000,0.000000,0.000000,0.000000
15347636.000000,2.304002,-0.996929,-1.848204,-1.430628,-0.959178,1.723749,0.467440,-0.034857,-0.314162,-0.177339,-0.363652,-0.316017,0.440723,0.172719,-0.512957,36.341595,20.623886,13.607359,0.166105,2.039901,0.081344,0.000000,0.000000,0.000000,0.000000,0.000000,0.000000
15347637.000000,2.303968,-0.997238,-1.848374,-1.431003,-0.959490,1.724200,0.467612,-0.035667,-0.317249,-0.176266,-0.366340,-0.312138,0.439608,0.173274,-0.540728,36.147198,20.401718,13.754148,0.154203,1.995040,0.048385,0.000000,0.000000,0.000000,0.000000,0.000000,0.000000
15347638.000000,2.303935,-0.997554,-1.848542,-1.431375,-0.959809,1.724634,0.467771,-0.035273,-0.318292,-0.171421,-0.368700,-0.315986,0.433793,0.170247,-0.588336,35.925030,20.159714,13.928709,0.154203,1.995040,0.094161,0.000000,0.000000,0.000000,0.000000,0.000000,0.000000
15347639.000000,2.303906,-0.997871,-1.848720,-1.431751,-0.960121,1.725073,0.467932,-0.034286,-0.313273,-0.174673,-0.368367,-0.315775,0.436766,0.164634,-0.663714,35.829815,20.060532,14.051695,0.166105,2.039901,0.120712,0.000000,0.000000,0.000000,0.000000,0.000000,0.000000
15347640.000000,2.303865,-0.998190,-1.848898,-1.432113,-0.960437,1.725524,0.468102,-0.037458,-0.314227,-0.171766,-0.365745,-0.320412,0.435233,0.168591,-0.588336,35.829815,20.008957,14.027891,0.178007,2.053634,0.054794,0.000000,0.000000,0.000000,0.000000,0.000000,0.000000
15347641.000000,2.303828,-0.998511,-1.849070,-1.432484,-0.960762,1.725968,0.468263,-0.038416,-0.314130,-0.171838,-0.369668,-0.327178,0.442255,0.161994,-0.564532,35.829815,19.937546,14.099302,0.183500,1.995040,0.107894,0.000000,0.000000,0.000000,0.000000,0.000000,0.000000
15347642.000000,2.303791,-0.998826,-1.849235,-1.432851,-0.961079,1.726421,0.468431,-0.039048,-0.315842,-0.171245,-0.367132,-0.319292,0.441608,0.165632,-0.540728,35.877422,19.838364,14.075499,0.154203,1.936446,0.074935,0.000000,0.000000,0.000000,0.000000,0.000000,0.000000
15347643.000000,2.303756,-0.999147,-1.849412,-1.433204,-0.961395,1.726866,0.468593,-0.038368,-0.318376,-0.172707,-0.363903,-0.315712,0.440446,0.165097,-0.540728,35.877422,19.838364,13.976316,0.117582,1.916305,0.114303,0.000000,0.000000,0.000000,0.000000,0.000000,0.000000
15347644.000000,2.303719,-0.999469,-1.849581,-1.433564,-0.961713,1.727295,0.468760,-0.038656,-0.312059,-0.176857,-0.360736,-0.319316,0.442214,0.168562,-0.512957,35.925030,19.739182,13.877134,0.093778,1.949264,0.061202,0.000000,0.000000,0.000000,0.000000,0.000000,0.000000
15347645.000000,2.303682,-0.999781,-1.849754,-1.433904,-0.962044,1.727737,0.468913,-0.039148,-0.317513,-0.175839,-0.350631,-0.328969,0.437487,0.166894,-0.489153,35.853619,19.691574,13.678770,0.123990,2.001449,0.114303,0.000000,0.000000,0.000000,0.000000,0.000000,0.000000
15347646.000000,2.303647,-1.000092,-1.849926,-1.434255,-0.962371,1.728177,0.469080,-0.038855,-0.314763,-0.177495,-0.348434,-0.329546,0.433143,0.169303,-0.489153,35.655254,19.616196,13.555784,0.154203,1.968490,0.067611,0.000000,0.000000,0.000000,0.000000,0.000000,0.000000
15347647.000000,2.303605,-1.000390,-1.850101,-1.434602,-0.962694,1.728622,0.469237,-0.040823,-0.312014,-0.174429,-0.344252,-0.322563,0.433701,0.163888,-0.389971,35.385479,19.616196,13.456602,0.166105,1.949264,0.087753,0.000000,0.000000,0.000000,0.000000,0.000000,0.000000
15347648.000000,2.303560,-1.000699,-1.850284,-1.434943,-0.963019,1.729072,0.469402,-0.042928,-0.309507,-0.179029,-0.346621,-0.324641,0.431566,0.166753,-0.243182,35.091900,19.667770,13.333616,0.166105,1.877853,0.061202,0.000000,0.000000,0.000000,0.000000,0.000000,0.000000
15347649.000000,2.303519,-1.001014,-1.850461,-1.435282,-0.963357,1.729507,0.469564,-0.043174,-0.308379,-0.177820,-0.341297,-0.327591,0.428344,0.166421,-0.167803,34.945110,19.643967,13.186827,0.195402,1.844894,0.087753,0.000000,0.000000,0.000000,0.000000,0.000000,0.000000
15347650.000000,2.303478,-1.001328,-1.850638,-1.435608,-0.963684,1.729953,0.469731,-0.043347,-0.312564,-0.178057,-0.341554,-0.320884,0.432692,0.168167,-0.092425,34.873699,19.667770,13.012266,0.207303,1.858627,0.067611,0.000000,0.000000,0.000000,0.000000,0.000000,0.000000
15347651.000000,2.303429,-1.001640,-1.850812,-1.435936,-0.964010,1.730391,0.469898,-0.045049,-0.311914,-0.176135,-0.333902,-0.320935,0.437736,0.168635,0.054365,34.679302,19.616196,12.813902,0.178007,1.871444,0.054794,0.000000,0.000000,0.000000,0.000000,0.000000,0.000000
15347652.000000,2.303389,-1.001951,-1.850983,-1.436258,-0.964334,1.730827,0.470057,-0.047120,-0.313806,-0.178216,-0.324718,-0.323682,0.440536,0.166950,0.105939,34.556316,19.568588,12.619505,0.123990,1.890670,0.107894,0.000000,0.000000,0.000000,0.000000,0.000000,0.000000
15347653.000000,2.303348,-1.002272,-1.851164,-1.436574,-0.964668,1.731271,0.470229,-0.045361,-0.318812,-0.180870,-0.320886,-0.324103,0.437871,0.174540,0.153547,34.457134,19.568588,12.393370,0.064481,1.909896,0.054794,0.000000,0.000000,0.000000,0.000000,0.000000,0.000000
15347654.000000,2.303306,-1.002583,-1.851347,-1.436882,-0.965011,1.731711,0.470391,-0.044446,-0.313521,-0.179157,-0.313892,-0.326587,0.439459,0.171226,0.205121,34.286541,19.544785,12.147398,0.088285,1.844894,0.100570,0.000000,0.000000,0.000000,0.000000,0.000000,0.000000
15347655.000000,2.303265,-1.002894,-1.851528,-1.437190,-0.965340,1.732146,0.470559,-0.043385,-0.316359,-0.184687,-0.311134,-0.325811,0.442821,0.171936,0.276533,34.211163,19.544785,11.976805,0.100187,1.819259,0.074935,0.000000,0.000000,0.000000,0.000000,0.000000,0.000000
15347656.000000,2.303225,-1.003211,-1.851712,-1.437485,-0.965686,1.732576,0.470725,-0.042120,-0.317993,-0.181747,-0.304529,-0.332382,0.446030,0.171334,0.304304,34.139751,19.520981,11.750669,0.135892,1.858627,0.081344,0.000000,0.000000,0.000000,0.000000,0.000000,0.000000
15347657.000000,2.303185,-1.003531,-1.851896,-1.437781,-0.966028,1.733020,0.470893,-0.041016,-0.318587,-0.182873,-0.300260,-0.331896,0.443800,0.171351,0.328107,34.163555,19.497177,11.580076,0.201810,1.844894,0.074935,0.000000,0.000000,0.000000,0.000000,0.000000,0.000000
15347658.000000,2.303149,-1.003847,-1.852088,-1.438070,-0.966367,1.733473,0.471058,-0.039306,-0.318649,-0.182886,-0.299994,-0.332140,0.448163,0.165344,0.304304,34.088177,19.568588,11.381712,0.207303,1.767074,0.100570,0.000000,0.000000,0.000000,0.000000,0.000000,0.000000
15347659.000000,2.303105,-1.004165,-1.852265,-1.438365,-0.966705,1.733916,0.471225,-0.040159,-0.315430,-0.178708,-0.298499,-0.334928,0.450311,0.166096,0.375715,34.016766,19.469406,11.258726,0.189908,1.735030,0.107894,0.000000,0.000000,0.000000,0.000000,0.000000,0.000000
15347660.000000,2.303069,-1.004474,-1.852444,-1.438655,-0.967040,1.734360,0.471393,-0.038976,-0.320060,-0.180885,-0.291959,-0.329980,0.440407,0.163792,0.351911,33.917583,19.445602,11.183348,0.147794,1.735030,0.074935,0.000000,0.000000,0.000000,0.000000,0.000000,0.000000
15347661.000000,2.303033,-1.004799,-1.852621,-1.438940,-0.967383,1.734803,0.471559,-0.038223,-0.324895,-0.177045,-0.289429,-0.339383,0.441936,0.165249,0.351911,33.893780,19.346420,11.084166,0.135892,1.779891,0.074935,0.000000,0.000000,0.000000,0.000000,0.000000,0.000000
15347662.000000,2.303000,-1.005120,-1.852809,-1.439222,-0.967723,1.735247,0.471725,-0.036239,-0.321362,-0.186496,-0.283986,-0.342257,0.443784,0.166699,0.276533,33.846172,19.397995,10.984983,0.123990,1.800033,0.067611,0.000000,0.000000,0.000000,0.000000,0.000000,0.000000
15347663.000000,2.302970,-1.005442,-1.852989,-1.439494,-0.968063,1.735695,0.471883,-0.035565,-0.321334,-0.182046,-0.277790,-0.348593,0.437195,0.165900,0.228925,33.770794,19.322617,10.838194,0.088285,1.760665,0.107894,0.000000,0.000000,0.000000,0.000000,0.000000,0.000000
15347664.000000,2.302942,-1.005761,-1.853175,-1.439780,-0.968413,1.736141,0.472057,-0.033864,-0.318320,-0.183708,-0.277339,-0.347725,0.441789,0.168201,0.129743,33.624004,19.322617,10.814390,0.081876,1.741439,0.067611,0.000000,0.000000,0.000000,0.000000,0.000000,0.000000
15347665.000000,2.302914,-1.006085,-1.853358,-1.440059,-0.968762,1.736587,0.472223,-0.033572,-0.321833,-0.181916,-0.273695,-0.343856,0.440578,0.166713,0.054365,33.647808,19.322617,10.786619,0.154203,1.714889,0.120712,0.000000,0.000000,0.000000,0.000000,0.000000,0.000000
15347666.000000,2.302888,-1.006410,-1.853543,-1.440332,-0.969107,1.737028,0.472405,-0.028968,-0.320807,-0.179797,-0.274803,-0.351111,0.441110,0.170421,-0.068621,33.528790,19.298813,10.786619,0.171598,1.656295,0.034652,0.000000,0.000000,0.000000,0.000000,0.000000,0.000000
15347667.000000,2.302866,-1.006747,-1.853727,-1.440607,-0.969467,1.737466,0.472578,-0.024862,-0.325638,-0.178399,-0.273630,-0.352453,0.439641,0.169448,-0.215411,33.647808,19.275009,10.739012,0.219205,1.643478,0.054794,0.000000,0.000000,0.000000,0.000000,0.000000,0.000000
15347668.000000,2.302848,-1.007078,-1.853907,-1.440870,-0.969811,1.737902,0.472744,-0.024815,-0.331968,-0.177478,-0.273761,-0.345157,0.431466,0.168209,-0.389971,33.647808,19.251205,10.639830,0.237516,1.670028,0.100570,0.000000,0.000000,0.000000,0.000000,0.000000,0.000000
15347669.000000,2.302828,-1.007417,-1.854089,-1.441139,-0.970150,1.738321,0.472921,-0.025777,-0.329517,-0.176339,-0.271058,-0.344448,0.431147,0.170095,-0.512957,33.746990,19.223434,10.616026,0.225614,1.689254,0.054794,0.000000,0.000000,0.000000,0.000000,0.000000,0.000000
15347670.000000,2.302810,-1.007757,-1.854264,-1.441411,-0.970488,1.738755,0.473089,-0.023538,-0.335386,-0.177871,-0.270114,-0.345313,0.428358,0.172356,-0.635943,33.893780,19.152023,10.540648,0.141385,1.662704,0.087753,0.000000,0.000000,0.000000,0.000000,0.000000,0.000000
15347671.000000,2.302796,-1.008090,-1.854447,-1.441681,-0.970837,1.739183,0.473268,-0.020647,-0.336848,-0.176416,-0.268328,-0.346323,0.424718,0.172810,-0.810504,33.917583,19.104416,10.516844,0.112089,1.662704,0.061202,0.000000,0.000000,0.000000,0.000000,0.000000,0.000000
15347672.000000,2.302781,-1.008428,-1.854635,-1.441954,-0.971184,1.739598,0.473441,-0.016085,-0.337719,-0.176489,-0.268230,-0.343109,0.422456,0.171305,-0.961260,33.992962,19.104416,10.564451,0.135892,1.662704,0.094161,0.000000,0.000000,0.000000,0.000000,0.000000,0.000000
15347673.000000,2.302766,-1.008762,-1.854819,-1.442225,-0.971514,1.740024,0.473615,-0.016701,-0.338084,-0.179724,-0.267980,-0.336179,0.418854,0.172277,-1.060443,33.992962,19.104416,10.465269,0.088285,1.689254,0.061202,0.000000,0.000000,0.000000,0.000000,0.000000,0.000000
15347674.000000,2.302749,-1.009101,-1.855001,-1.442496,-0.971858,1.740446,0.473781,-0.017651,-0.335375,-0.182582,-0.267155,-0.339024,0.424271,0.170033,-1.131854,34.016766,19.005234,10.465269,0.081876,1.708480,0.094161,0.000000,0.000000,0.000000,0.000000,0.000000,0.000000
15347675.000000,2.302734,-1.009442,-1.855190,-1.442770,-0.972205,1.740875,0.473956,-0.014945,-0.336511,-0.184260,-0.268758,-0.346286,0.432464,0.171530,-1.207232,34.016766,19.005234,10.465269,0.183500,1.676437,0.054794,0.000000,0.000000,0.000000,0.000000,0.000000,0.000000
15347676.000000,2.302724,-1.009786,-1.855384,-1.443048,-0.972542,1.741309,0.474118,-0.015018,-0.338235,-0.186709,-0.271421,-0.342371,0.429084,0.164908,-1.330218,34.088177,19.052841,10.493040,0.171598,1.637069,0.094161,0.000000,0.000000,0.000000,0.000000,0.000000,0.000000
15347677.000000,2.302704,-1.010131,-1.855567,-1.443328,-0.972887,1.741727,0.474293,-0.014932,-0.338854,-0.182905,-0.271973,-0.348829,0.425386,0.167638,-1.330218,34.139751,19.005234,10.465269,0.189908,1.637069,0.048385,0.000000,0.000000,0.000000,0.000000,0.000000,0.000000
15347678.000000,2.302694,-1.010488,-1.855748,-1.443606,-0.973230,1.742148,0.474456,-0.012581,-0.346272,-0.179594,-0.272356,-0.340996,0.425688,0.166175,-1.429400,34.310345,18.929855,10.441465,0.171598,1.662704,0.100570,0.000000,0.000000,0.000000,0.000000,0.000000,0.000000
15347679.000000,2.302683,-1.010840,-1.855940,-1.443881,-0.973574,1.742586,0.474632,-0.013878,-0.344513,-0.182090,-0.271806,-0.342168,0.433442,0.168016,-1.528582,34.457134,18.953659,10.370054,0.141385,1.643478,0.081344,0.000000,0.000000,0.000000,0.000000,0.000000,0.000000
15347680.000000,2.302667,-1.011204,-1.856129,-1.444162,-0.973910,1.743012,0.474809,-0.016707,-0.350697,-0.188440,-0.271796,-0.342578,0.424700,0.170427,-1.552386,34.679302,18.929855,10.342283,0.076383,1.617843,0.048385,0.000000,0.000000,0.000000,0.000000,0.000000,0.000000
15347681.000000,2.302653,-1.011554,-1.856317,-1.444444,-0.974258,1.743444,0.474968,-0.015294,-0.349553,-0.187906,-0.281598,-0.341375,0.426167,0.167555,-1.580157,34.774517,18.906052,10.370054,0.046171,1.611434,0.120712,0.000000,0.000000,0.000000,0.000000,0.000000,0.000000
15347682.000000,2.302637,-1.011917,-1.856511,-1.444723,-0.974613,1.743875,0.475142,-0.015232,-0.352973,-0.189129,-0.282229,-0.349349,0.425221,0.175535,-1.552386,34.972881,18.953659,10.318480,0.093778,1.559249,0.061202,0.000000,0.000000,0.000000,0.000000,0.000000,0.000000
15347683.000000,2.302617,-1.012277,-1.856700,-1.445009,-0.974962,1.744300,0.475305,-0.016544,-0.353473,-0.189578,-0.284346,-0.344116,0.419376,0.173656,-1.480975,35.167278,18.981430,10.342283,0.141385,1.513473,0.074935,0.000000,0.000000,0.000000,0.000000,0.000000,0.000000
15347684.000000,2.302588,-1.012633,-1.856898,-1.445288,-0.975316,1.744726,0.475470,-0.019179,-0.354995,-0.190947,-0.286624,-0.352049,0.426959,0.167761,-1.330218,35.337872,19.052841,10.393858,0.171598,1.526290,0.081344,0.000000,0.000000,0.000000,0.000000,0.000000,0.000000
15347685.000000,2.302563,-1.012993,-1.857093,-1.445574,-0.975680,1.745143,0.475641,-0.020230,-0.355216,-0.191905,-0.283903,-0.357571,0.427548,0.168375,-1.207232,35.413250,19.128220,10.417662,0.201810,1.559249,0.081344,0.000000,0.000000,0.000000,0.000000,0.000000,0.000000
15347686.000000,2.302536,-1.013340,-1.857284,-1.445864,-0.976034,1.745570,0.475810,-0.023933,-0.348102,-0.192407,-0.284967,-0.349973,0.423996,0.174347,-1.084246,35.361675,19.199631,10.540648,0.243009,1.539108,0.081344,0.000000,0.000000,0.000000,0.000000,0.000000,0.000000
15347687.000000,2.302511,-1.013697,-1.857479,-1.446140,-0.976380,1.745985,0.475980,-0.023546,-0.349428,-0.193205,-0.284890,-0.352441,0.431770,0.168910,-0.961260,35.290264,19.298813,10.516844,0.207303,1.578475,0.061202,0.000000,0.000000,0.000000,0.000000,0.000000,0.000000
15347688.000000,2.302479,-1.014044,-1.857670,-1.446426,-0.976729,1.746397,0.476143,-0.028050,-0.346778,-0.194833,-0.281842,-0.347291,0.429514,0.172110,-0.762896,35.143475,19.298813,10.516844,0.141385,1.656295,0.081344,0.000000,0.000000,0.000000,0.000000,0.000000,0.000000
15347689.000000,2.302452,-1.014390,-1.857869,-1.446710,-0.977083,1.746807,0.476310,-0.028362,-0.346951,-0.198033,-0.281997,-0.348470,0.420516,0.171885,-0.687518,34.945110,19.374191,10.592222,0.129484,1.676437,0.074935,0.000000,0.000000,0.000000,0.000000,0.000000,0.000000
15347690.000000,2.302422,-1.014747,-1.858070,-1.446993,-0.977434,1.747219,0.476474,-0.029805,-0.344650,-0.200124,-0.285664,-0.352938,0.422905,0.166453,-0.564532,34.798321,19.445602,10.564451,0.117582,1.708480,0.081344,0.000000,0.000000,0.000000,0.000000,0.000000,0.000000
15347691.000000,2.302380,-1.015095,-1.858278,-1.447277,-0.977779,1.747636,0.476637,-0.034403,-0.346955,-0.200857,-0.284740,-0.349464,0.419564,0.168448,-0.290789,34.651531,19.616196,10.493040,0.100187,1.727706,0.054794,0.000000,0.000000,0.000000,0.000000,0.000000,0.000000
15347692.000000,2.302342,-1.015461,-1.858477,-1.447556,-0.978140,1.748053,0.476798,-0.035916,-0.350626,-0.199975,-0.281760,-0.351041,0.425144,0.166966,-0.068621,34.603924,19.616196,10.465269,0.147794,1.741439,0.094161,0.000000,0.000000,0.000000,0.000000,0.000000,0.000000
15347693.000000,2.302307,-1.015820,-1.858682,-1.447842,-0.978491,1.748469,0.476972,-0.038155,-0.354951,-0.202813,-0.282451,-0.354395,0.427803,0.169231,0.054365,34.603924,19.739182,10.441465,0.225614,1.727706,0.054794,0.000000,0.000000,0.000000,0.000000,0.000000,0.000000
15347694.000000,2.302266,-1.016184,-1.858885,-1.448121,-0.978837,1.748885,0.477136,-0.039190,-0.355188,-0.203735,-0.281860,-0.354329,0.421916,0.167939,0.276533,34.679302,19.814560,10.342283,0.243009,1.662704,0.094161,0.000000,0.000000,0.000000,0.000000,0.000000,0.000000
15347695.000000,2.302226,-1.016540,-1.859090,-1.448404,-0.979192,1.749290,0.477304,-0.038907,-0.353122,-0.201089,-0.280308,-0.361133,0.420923,0.167900,0.474897,34.651531,19.885971,10.318480,0.225614,1.637069,0.100570,0.000000,0.000000,0.000000,0.000000,0.000000,0.000000
15347696.000000,2.302186,-1.016902,-1.859295,-1.448679,-0.979543,1.749698,0.477474,-0.038498,-0.363618,-0.201844,-0.277256,-0.355395,0.422162,0.165738,0.649457,34.703106,19.937546,10.219297,0.207303,1.670028,0.048385,0.000000,0.000000,0.000000,0.000000,0.000000,0.000000
15347697.000000,2.302149,-1.017265,-1.859505,-1.448957,-0.979892,1.750112,0.477638,-0.039451,-0.362970,-0.202494,-0.276766,-0.357376,0.415124,0.164713,0.748639,34.774517,20.008957,10.195494,0.166105,1.682845,0.100570,0.000000,0.000000,0.000000,0.000000,0.000000,0.000000
15347698.000000,2.302105,-1.017621,-1.859714,-1.449230,-0.980245,1.750511,0.477809,-0.039103,-0.361868,-0.207263,-0.272059,-0.363493,0.409651,0.163847,0.923200,34.750713,20.036728,10.143919,0.093778,1.702071,0.048385,0.000000,0.000000,0.000000,0.000000,0.000000,0.000000
15347699.000000,2.302067,-1.017968,-1.859916,-1.449502,-0.980601,1.750918,0.477972,-0.037279,-0.359862,-0.204111,-0.277277,-0.353230,0.404040,0.163847,1.046186,34.627728,19.985153,10.120115,0.088285,1.741439,0.087753,0.000000,0.000000,0.000000,0.000000,0.000000,0.000000
15347700.000000,2.302026,-1.018319,-1.860125,-1.449781,-0.980962,1.751316,0.478144,-0.035714,-0.360167,-0.206238,-0.278930,-0.352270,0.401292,0.166239,1.145368,34.504742,19.985153,10.195494,0.112089,1.754256,0.074935,0.000000,0.000000,0.000000,0.000000,0.000000,0.000000
15347701.000000,2.301984,-1.018673,-1.860333,-1.450057,-0.981315,1.751711,0.478311,-0.039630,-0.366735,-0.204896,-0.276693,-0.350753,0.394044,0.166520,1.315961,34.409527,19.985153,10.270872,0.135892,1.786300,0.094161,0.000000,0.000000,0.000000,0.000000,0.000000,0.000000
15347702.000000,2.301942,-1.019022,-1.860544,-1.450328,-0.981683,1.752115,0.478484,-0.041215,-0.357848,-0.208183,-0.276855,-0.359136,0.398069,0.169116,1.442914,34.310345,20.036728,10.294676,0.219205,1.819259,0.048385,0.000000,0.000000,0.000000,0.000000,0.000000,0.000000
15347703.000000,2.301904,-1.019375,-1.860752,-1.450598,-0.982048,1.752519,0.478649,-0.038117,-0.354062,-0.203670,-0.273044,-0.363365,0.402742,0.167224,1.514325,34.187359,20.060532,10.294676,0.267728,1.812850,0.100570,0.000000,0.000000,0.000000,0.000000,0.000000,0.000000
15347704.000000,2.301868,-1.019720,-1.860959,-1.450875,-0.982394,1.752928,0.478818,-0.038211,-0.350205,-0.205521,-0.277706,-0.356066,0.402269,0.170040,1.542096,34.040569,20.036728,10.393858,0.225614,1.760665,0.067611,0.000000,0.000000,0.000000,0.000000,0.000000,0.000000
15347705.000000,2.301828,-1.020074,-1.861168,-1.451140,-0.982752,1.753344,0.478985,-0.036347,-0.352251,-0.204019,-0.278342,-0.357469,0.419144,0.169394,1.613508,33.969158,20.036728,10.318480,0.183500,1.708480,0.074935,0.000000,0.000000,0.000000,0.000000,0.000000,0.000000
15347706.000000,2.301798,-1.020433,-1.861374,-1.451408,-0.983108,1.753747,0.479148,-0.035081,-0.351172,-0.208939,-0.273008,-0.357317,0.411523,0.173060,1.565900,33.941387,20.008957,10.270872,0.147794,1.754256,0.081344,0.000000,0.000000,0.000000,0.000000,0.000000,0.000000
15347707.000000,2.301762,-1.020793,-1.861587,-1.451664,-0.983467,1.754145,0.479320,-0.036278,-0.356145,-0.207664,-0.268416,-0.360091,0.409276,0.172879,1.589704,34.115948,20.036728,10.171690,0.105680,1.832076,0.067611,0.000000,0.000000,0.000000,0.000000,0.000000,0.000000
15347708.000000,2.301729,-1.021157,-1.861799,-1.451928,-0.983827,1.754544,0.479490,-0.036659,-0.355435,-0.208265,-0.268856,-0.361983,0.408042,0.175214,1.589704,34.187359,20.008957,10.096312,0.100187,1.916305,0.107894,0.000000,0.000000,0.000000,0.000000,0.000000,0.000000
15347709.000000,2.301697,-1.021519,-1.862008,-1.452195,-0.984183,1.754963,0.479666,-0.036555,-0.358339,-0.207813,-0.267194,-0.361150,0.411339,0.172319,1.589704,34.334148,20.060532,10.072508,0.064481,1.865035,0.028243,0.000000,0.000000,0.000000,0.000000,0.000000,0.000000
15347710.000000,2.301667,-1.021887,-1.862216,-1.452458,-0.984548,1.755382,0.479828,-0.032938,-0.357747,-0.203658,-0.267134,-0.365408,0.413331,0.168453,1.565900,34.385723,20.108139,10.096312,0.112089,1.721298,0.107894,0.000000,0.000000,0.000000,0.000000,0.000000,0.000000
15347711.000000,2.301643,-1.022251,-1.862425,-1.452726,-0.984906,1.755801,0.480003,-0.029663,-0.356825,-0.207704,-0.269314,-0.370581,0.415360,0.169942,1.514325,34.409527,20.231125,10.120115,0.183500,1.662704,0.081344,0.000000,0.000000,0.000000,0.000000,0.000000,0.000000
15347712.000000,2.301618,-1.022609,-1.862630,-1.452986,-0.985274,1.756213,0.480168,-0.027559,-0.357509,-0.208848,-0.264714,-0.377763,0.413657,0.169714,1.466718,34.385723,20.231125,10.120115,0.231107,1.670028,0.087753,0.000000,0.000000,0.000000,0.000000,0.000000,0.000000
15347713.000000,2.301593,-1.022965,-1.862848,-1.453245,-0.985640,1.756612,0.480334,-0.025817,-0.355633,-0.210201,-0.261251,-0.375021,0.407943,0.165437,1.415143,34.262737,20.377914,10.120115,0.255826,1.702071,0.067611,0.000000,0.000000,0.000000,0.000000,0.000000,0.000000
15347714.000000,2.301573,-1.023324,-1.863052,-1.453512,-0.985999,1.757019,0.480501,-0.026391,-0.366328,-0.211317,-0.264630,-0.362964,0.407342,0.166538,1.315961,34.211163,20.401718,10.243101,0.291532,1.754256,0.067611,0.000000,0.000000,0.000000,0.000000,0.000000,0.000000
15347715.000000,2.301556,-1.023680,-1.863263,-1.453775,-0.986354,1.757424,0.480669,-0.023554,-0.365620,-0.208626,-0.264808,-0.366633,0.407042,0.167550,1.192975,34.040569,20.429489,10.393858,0.207303,1.812850,0.061202,0.000000,0.000000,0.000000,0.000000,0.000000,0.000000
15347716.000000,2.301537,-1.024034,-1.863465,-1.454038,-0.986723,1.757823,0.480838,-0.019103,-0.359479,-0.210369,-0.259994,-0.369920,0.399487,0.163597,1.093793,33.941387,20.377914,10.516844,0.135892,1.819259,0.048385,0.000000,0.000000,0.000000,0.000000,0.000000,0.000000
15347717.000000,2.301524,-1.024390,-1.863674,-1.454294,-0.987087,1.758220,0.480997,-0.015198,-0.359643,-0.208426,-0.264203,-0.367156,0.396327,0.159685,0.970807,33.869976,20.401718,10.616026,0.100187,1.865035,0.067611,0.000000,0.000000,0.000000,0.000000,0.000000,0.000000
15347718.000000,2.301507,-1.024758,-1.863883,-1.454568,-0.987462,1.758603,0.481158,-0.012909,-0.360273,-0.210770,-0.264215,-0.373883,0.389228,0.162069,0.871625,33.992962,20.453293,10.786619,0.154203,1.923629,0.081344,0.000000,0.000000,0.000000,0.000000,0.000000,0.000000
15347719.000000,2.301494,-1.025123,-1.864082,-1.454838,-0.987835,1.758988,0.481315,-0.011549,-0.367797,-0.207628,-0.264231,-0.372105,0.380735,0.162376,0.796247,34.088177,20.429489,10.961180,0.183500,1.955673,0.100570,0.000000,0.000000,0.000000,0.000000,0.000000,0.000000
15347720.000000,2.301481,-1.025487,-1.864294,-1.455099,-0.988216,1.759389,0.481478,-0.009366,-0.365542,-0.210660,-0.266132,-0.379368,0.390393,0.161131,0.673261,34.211163,20.500900,11.084166,0.237516,1.930038,0.061202,0.000000,0.000000,0.000000,0.000000,0.000000,0.000000
15347721.000000,2.301470,-1.025854,-1.864511,-1.455374,-0.988594,1.759784,0.481630,-0.011649,-0.366578,-0.210467,-0.265133,-0.383601,0.394690,0.160934,0.574079,34.286541,20.600082,11.258726,0.297025,1.865035,0.120712,0.000000,0.000000,0.000000,0.000000,0.000000,0.000000
15347722.000000,2.301464,-1.026208,-1.864717,-1.455647,-0.988968,1.760187,0.481800,-0.009187,-0.359959,-0.207313,-0.264141,-0.372214,0.396814,0.161904,0.427289,34.211163,20.576279,11.405516,0.273221,1.793624,0.041976,0.000000,0.000000,0.000000,0.000000,0.000000,0.000000
15347723.000000,2.301459,-1.026573,-1.864922,-1.455916,-0.989337,1.760576,0.481964,-0.004692,-0.363726,-0.203519,-0.266078,-0.374307,0.407587,0.161910,0.304304,34.211163,20.500900,11.528502,0.231107,1.806442,0.087753,0.000000,0.000000,0.000000,0.000000,0.000000,0.000000
15347724.000000,2.301454,-1.026943,-1.865129,-1.456191,-0.989704,1.760957,0.482127,-0.003970,-0.362310,-0.202298,-0.268504,-0.377640,0.404676,0.163368,0.153547,34.211163,20.477097,11.580076,0.189908,1.930038,0.081344,0.000000,0.000000,0.000000,0.000000,0.000000,0.000000
15347725.000000,2.301451,-1.027309,-1.865332,-1.456466,-0.990080,1.761338,0.482294,-0.004142,-0.364880,-0.200801,-0.271643,-0.381702,0.393344,0.160751,0.030561,34.286541,20.429489,11.655455,0.189908,2.047225,0.067611,0.000000,0.000000,0.000000,0.000000,0.000000,0.000000
15347726.000000,2.301446,-1.027679,-1.865531,-1.456735,-0.990460,1.761724,0.482458,-0.004903,-0.365513,-0.199293,-0.268970,-0.382594,0.399207,0.161851,-0.044818,34.262737,20.354111,11.655455,0.178007,2.060043,0.094161,0.000000,0.000000,0.000000,0.000000,0.000000,0.000000
15347727.000000,2.301445,-1.028039,-1.865731,-1.457013,-0.990828,1.762126,0.482627,-0.004731,-0.364106,-0.195826,-0.271341,-0.376888,0.400478,0.165412,-0.167803,34.211163,20.306503,11.703062,0.166105,1.988631,0.054794,0.000000,0.000000,0.000000,0.000000,0.000000,0.000000
15347728.000000,2.301437,-1.028415,-1.865940,-1.457286,-0.991200,1.762539,0.482786,-0.006058,-0.366428,-0.197984,-0.269668,-0.384700,0.400172,0.169923,-0.215411,34.163555,20.354111,11.726866,0.159696,1.844894,0.087753,0.000000,0.000000,0.000000,0.000000,0.000000,0.000000
15347729.000000,2.301428,-1.028787,-1.866132,-1.457562,-0.991586,1.762931,0.482952,-0.006796,-0.362150,-0.200388,-0.272074,-0.394017,0.401470,0.164958,-0.266986,34.139751,20.207321,11.802244,0.213712,1.773483,0.094161,0.000000,0.000000,0.000000,0.000000,0.000000,0.000000
15347730.000000,2.301428,-1.029160,-1.866331,-1.457834,-0.991965,1.763319,0.483125,-0.005178,-0.367082,-0.199200,-0.277313,-0.388068,0.391294,0.166989,-0.413775,34.187359,20.131943,11.802244,0.273221,1.851302,0.074935,0.000000,0.000000,0.000000,0.000000,0.000000,0.000000
15347731.000000,2.301418,-1.029540,-1.866534,-1.458109,-0.992341,1.763699,0.483296,-0.005033,-0.368092,-0.199570,-0.277464,-0.382587,0.389653,0.168072,-0.389971,34.286541,20.108139,11.826048,0.291532,1.923629,0.054794,0.000000,0.000000,0.000000,0.000000,0.000000,0.000000
15347732.000000,2.301414,-1.029913,-1.866731,-1.458382,-0.992718,1.764086,0.483452,-0.001803,-0.380606,-0.195599,-0.272310,-0.381581,0.390646,0.162120,-0.489153,34.310345,20.036728,11.901426,0.267728,1.936446,0.100570,0.000000,0.000000,0.000000,0.000000,0.000000,0.000000
15347733.000000,2.301407,-1.030286,-1.866929,-1.458655,-0.993091,1.764482,0.483623,-0.003614,-0.376257,-0.193337,-0.270623,-0.377033,0.391176,0.165739,-0.540728,34.286541,20.008957,11.925230,0.207303,1.955673,0.054794,0.000000,0.000000,0.000000,0.000000,0.000000,0.000000
15347734.000000,2.301398,-1.030666,-1.867128,-1.458923,-0.993453,1.764882,0.483783,-0.003095,-0.377421,-0.194999,-0.265517,-0.368465,0.394306,0.160240,-0.540728,34.334148,19.985153,11.949034,0.141385,1.903487,0.087753,0.000000,0.000000,0.000000,0.000000,0.000000,0.000000
15347735.000000,2.301395,-1.031037,-1.867312,-1.459185,-0.993818,1.765280,0.483943,-0.003894,-0.376487,-0.190697,-0.266566,-0.360826,0.391887,0.157831,-0.612139,34.286541,19.862167,11.949034,0.105680,1.832076,0.094161,0.000000,0.000000,0.000000,0.000000,0.000000,0.000000
15347736.000000,2.301392,-1.031419,-1.867510,-1.459463,-0.994197,1.765665,0.484107,-0.001467,-0.379506,-0.190326,-0.270644,-0.363523,0.390396,0.157052,-0.687518,34.334148,19.862167,12.024412,0.135892,1.897079,0.074935,0.000000,0.000000,0.000000,0.000000,0.000000,0.000000
15347737.000000,2.301384,-1.031796,-1.867703,-1.459729,-0.994570,1.766057,0.484270,-0.004743,-0.384428,-0.188950,-0.269402,-0.364858,0.390397,0.160372,-0.687518,34.262737,19.814560,11.949034,0.178007,1.936446,0.074935,0.000000,0.000000,0.000000,0.000000,0.000000,0.000000
15347738.000000,2.301383,-1.032171,-1.867888,-1.459990,-0.994939,1.766450,0.484438,-0.002030,-0.380208,-0.188207,-0.264900,-0.377046,0.391652,0.162466,-0.762896,34.211163,19.643967,11.949034,0.183500,1.942855,0.081344,0.000000,0.000000,0.000000,0.000000,0.000000,0.000000
15347739.000000,2.301374,-1.032552,-1.868082,-1.460256,-0.995323,1.766851,0.484597,-0.005120,-0.377719,-0.188073,-0.264247,-0.380517,0.399319,0.162449,-0.762896,34.139751,19.616196,11.949034,0.201810,1.903487,0.133529,0.000000,0.000000,0.000000,0.000000,0.000000,0.000000
15347740.000000,2.301368,-1.032926,-1.868272,-1.460520,-0.995699,1.767261,0.484767,-0.005988,-0.383373,-0.190633,-0.263383,-0.377026,0.405030,0.168108,-0.810504,34.115948,19.568588,11.925230,0.225614,1.819259,0.054794,0.000000,0.000000,0.000000,0.000000,0.000000,0.000000
15347741.000000,2.301361,-1.033317,-1.868465,-1.460773,-0.996063,1.767658,0.484928,-0.007743,-0.385856,-0.189635,-0.260710,-0.377368,0.407410,0.166716,-0.810504,34.163555,19.544785,11.802244,0.171598,1.754256,0.094161,0.000000,0.000000,0.000000,0.000000,0.000000,0.000000
15347742.000000,2.301354,-1.033715,-1.868651,-1.461027,-0.996442,1.768057,0.485088,-0.009179,-0.385540,-0.189083,-0.258515,-0.381627,0.402497,0.167596,-0.810504,34.409527,19.520981,11.703062,0.171598,1.800033,0.067611,0.000000,0.000000,0.000000,0.000000,0.000000,0.000000
15347743.000000,2.301350,-1.034108,-1.868846,-1.461273,-0.996821,1.768454,0.485249,-0.010040,-0.392023,-0.189735,-0.253083,-0.377236,0.399597,0.163419,-0.810504,34.651531,19.544785,11.528502,0.171598,1.825668,0.067611,0.000000,0.000000,0.000000,0.000000,0.000000,0.000000
15347744.000000,2.301350,-1.034498,-1.869034,-1.461519,-0.997193,1.768848,0.485408,-0.006391,-0.385470,-0.189060,-0.249488,-0.378142,0.395838,0.163612,-0.862078,34.750713,19.520981,11.381712,0.135892,1.779891,0.100570,0.000000,0.000000,0.000000,0.000000,0.000000,0.000000
15347745.000000,2.301343,-1.034888,-1.869220,-1.461769,-0.997571,1.769256,0.485572,-0.006702,-0.388851,-0.190232,-0.249930,-0.374680,0.401813,0.160057,-0.786700,34.873699,19.445602,11.357908,0.135892,1.721298,0.114303,0.000000,0.000000,0.000000,0.000000,0.000000,0.000000
15347746.000000,2.301336,-1.035276,-1.869415,-1.461999,-0.997951,1.769665,0.485743,-0.007297,-0.386524,-0.190293,-0.245442,-0.378341,0.405872,0.160002,-0.687518,34.921307,19.469406,11.135740,0.123990,1.695663,0.054794,0.000000,0.000000,0.000000,0.000000,0.000000,0.000000
15347747.000000,2.301339,-1.035671,-1.869611,-1.462241,-0.998316,1.770057,0.485903,-0.004132,-0.389226,-0.196280,-0.242667,-0.376956,0.399180,0.156559,-0.735125,35.020489,19.520981,11.084166,0.112089,1.682845,0.081344,0.000000,0.000000,0.000000,0.000000,0.000000,0.000000
15347748.000000,2.301338,-1.036057,-1.869804,-1.462474,-0.998700,1.770454,0.486064,-0.003598,-0.387853,-0.193048,-0.238118,-0.375898,0.397709,0.159283,-0.711321,34.972881,19.469406,11.036558,0.166105,1.670028,0.100570,0.000000,0.000000,0.000000,0.000000,0.000000,0.000000
15347749.000000,2.301334,-1.036457,-1.870005,-1.462712,-0.999082,1.770840,0.486228,-0.003727,-0.391599,-0.196270,-0.237581,-0.376945,0.396497,0.161770,-0.663714,35.020489,19.520981,10.984983,0.141385,1.682845,0.094161,0.000000,0.000000,0.000000,0.000000,0.000000,0.000000
15347750.000000,2.301336,-1.036846,-1.870205,-1.462944,-0.999463,1.771225,0.486382,-0.002645,-0.395988,-0.197255,-0.232433,-0.374599,0.389649,0.163126,-0.663714,34.945110,19.643967,10.885801,0.166105,1.735030,0.114303,0.000000,0.000000,0.000000,0.000000,0.000000,0.000000
15347751.000000,2.301335,-1.037237,-1.870397,-1.463173,-0.999845,1.771618,0.486548,-0.002534,-0.394720,-0.197612,-0.231591,-0.384062,0.394998,0.161674,-0.635943,34.945110,19.643967,10.885801,0.171598,1.760665,0.074935,0.000000,0.000000,0.000000,0.000000,0.000000,0.000000
15347752.000000,2.301335,-1.037637,-1.870592,-1.463401,-1.000229,1.772012,0.486707,-0.001780,-0.390162,-0.195734,-0.228904,-0.378792,0.395583,0.161526,-0.635943,34.996685,19.667770,10.838194,0.129484,1.760665,0.127120,0.000000,0.000000,0.000000,0.000000,0.000000,0.000000
15347753.000000,2.301336,-1.038026,-1.870790,-1.463633,-1.000609,1.772407,0.486877,-0.001254,-0.391195,-0.197944,-0.230863,-0.375653,0.390907,0.160988,-0.635943,35.044292,19.715378,10.861998,0.135892,1.741439,0.074935,0.000000,0.000000,0.000000,0.000000,0.000000,0.000000
15347754.000000,2.301336,-1.038433,-1.870990,-1.463850,-1.000983,1.772792,0.487038,-0.000887,-0.394971,-0.196762,-0.227385,-0.381968,0.391660,0.156534,-0.635943,35.238689,19.790756,10.762815,0.093778,1.760665,0.120712,0.000000,0.000000,0.000000,0.000000,0.000000,0.000000
15347755.000000,2.301338,-1.038825,-1.871184,-1.464072,-1.001368,1.773192,0.487203,0.000020,-0.397862,-0.196871,-0.223291,-0.382338,0.393278,0.163872,-0.663714,35.413250,19.766953,10.739012,0.088285,1.741439,0.114303,0.000000,0.000000,0.000000,0.000000,0.000000,0.000000
15347756.000000,2.301341,-1.039223,-1.871384,-1.464295,-1.001759,1.773588,0.487372,0.000541,-0.397151,-0.198861,-0.223272,-0.392007,0.389717,0.166144,-0.687518,35.508465,19.814560,10.691404,0.123990,1.727706,0.094161,0.000000,0.000000,0.000000,0.000000,0.000000,0.000000
15347757.000000,2.301349,-1.039619,-1.871598,-1.464516,-1.002143,1.773979,0.487533,0.002660,-0.398196,-0.206209,-0.222748,-0.386965,0.392176,0.165978,-0.786700,35.536236,19.985153,10.639830,0.147794,1.695663,0.120712,0.000000,0.000000,0.000000,0.000000,0.000000,0.000000
15347758.000000,2.301353,-1.040013,-1.871801,-1.464737,-1.002533,1.774378,0.487696,0.005599,-0.402974,-0.202629,-0.220572,-0.387321,0.392851,0.164741,-0.810504,35.484661,20.036728,10.639830,0.178007,1.676437,0.067611,0.000000,0.000000,0.000000,0.000000,0.000000,0.000000
15347759.000000,2.301356,-1.040398,-1.871998,-1.464949,-1.002928,1.774779,0.487857,0.004551,-0.395376,-0.200878,-0.217832,-0.394272,0.400557,0.160064,-0.834307,35.314068,20.008957,10.592222,0.219205,1.676437,0.094161,0.000000,0.000000,0.000000,0.000000,0.000000,0.000000
15347760.000000,2.301364,-1.040791,-1.872203,-1.465167,-1.003302,1.775163,0.488021,0.004437,-0.392653,-0.203498,-0.218969,-0.388683,0.397292,0.162454,-0.885882,35.143475,20.131943,10.564451,0.201810,1.727706,0.094161,0.000000,0.000000,0.000000,0.000000,0.000000,0.000000
15347761.000000,2.301373,-1.041178,-1.872401,-1.465381,-1.003689,1.775554,0.488179,0.004868,-0.392028,-0.201501,-0.217705,-0.386125,0.390468,0.159067,-0.961260,34.996685,20.084335,10.564451,0.166105,1.760665,0.107894,0.000000,0.000000,0.000000,0.000000,0.000000,0.000000
15347762.000000,2.301374,-1.041576,-1.872599,-1.465593,-1.004084,1.775934,0.488343,0.005423,-0.394044,-0.199535,-0.215137,-0.390855,0.386357,0.157559,-0.909686,34.873699,20.008957,10.493040,0.166105,1.793624,0.087753,0.000000,0.000000,0.000000,0.000000,0.000000,0.000000
15347763.000000,2.301384,-1.041963,-1.872807,-1.465806,-1.004462,1.776314,0.488498,0.008417,-0.392137,-0.204859,-0.214203,-0.387370,0.383589,0.159285,-0.961260,34.798321,20.084335,10.465269,0.105680,1.800033,0.127120,0.000000,0.000000,0.000000,0.000000,0.000000,0.000000
15347764.000000,2.301391,-1.042363,-1.873012,-1.466015,-1.004852,1.776705,0.488667,0.008767,-0.391314,-0.203466,-0.209922,-0.393532,0.383082,0.164124,-0.933489,34.826092,20.084335,10.417662,0.100187,1.779891,0.067611,0.000000,0.000000,0.000000,0.000000,0.000000,0.000000
15347765.000000,2.301396,-1.042760,-1.873214,-1.466224,-1.005247,1.777084,0.488819,0.008460,-0.388777,-0.207083,-0.206959,-0.394429,0.381622,0.163058,-0.885882,34.849895,20.060532,10.393858,0.129484,1.779891,0.133529,0.000000,0.000000,0.000000,0.000000,0.000000,0.000000
15347766.000000,2.301405,-1.043159,-1.873427,-1.466428,-1.005632,1.777463,0.488981,0.006958,-0.392169,-0.207861,-0.211161,-0.388827,0.376115,0.161435,-0.909686,34.897503,20.159714,10.417662,0.178007,1.754256,0.100570,0.000000,0.000000,0.000000,0.000000,0.000000,0.000000
15347767.000000,2.301415,-1.043558,-1.873632,-1.466636,-1.006023,1.777838,0.489149,0.007916,-0.389920,-0.206013,-0.209290,-0.394707,0.377665,0.163167,-0.885882,34.996685,20.159714,10.441465,0.225614,1.714889,0.100570,0.000000,0.000000,0.000000,0.000000,0.000000,0.000000
15347768.000000,2.301416,-1.043954,-1.873834,-1.466847,-1.006410,1.778213,0.489317,0.006712,-0.400480,-0.204870,-0.208108,-0.391542,0.377028,0.165209,-0.786700,35.044292,20.159714,10.493040,0.219205,1.727706,0.094161,0.000000,0.000000,0.000000,0.000000,0.000000,0.000000
15347769.000000,2.301426,-1.044355,-1.874037,-1.467055,-1.006796,1.778581,0.489485,0.005811,-0.398958,-0.205568,-0.207875,-0.394589,0.369987,0.166065,-0.810504,35.091900,20.108139,10.564451,0.147794,1.786300,0.100570,0.000000,0.000000,0.000000,0.000000,0.000000,0.000000
15347770.000000,2.301429,-1.044763,-1.874244,-1.467259,-1.007189,1.778943,0.489651,0.005941,-0.399416,-0.207583,-0.202529,-0.396699,0.369985,0.166399,-0.735125,35.143475,20.108139,10.564451,0.117582,1.838485,0.114303,0.000000,0.000000,0.000000,0.000000,0.000000,0.000000
15347771.000000,2.301433,-1.045167,-1.874445,-1.467472,-1.007584,1.779323,0.489824,0.007167,-0.396591,-0.208619,-0.208333,-0.392851,0.367052,0.169000,-0.711321,35.266460,20.084335,10.616026,0.093778,1.825668,0.067611,0.000000,0.000000,0.000000,0.000000,0.000000,0.000000
15347772.000000,2.301437,-1.045569,-1.874650,-1.467677,-1.007978,1.779698,0.489983,0.007059,-0.397230,-0.209037,-0.209446,-0.391478,0.370739,0.166530,-0.635943,35.266460,20.060532,10.616026,0.088285,1.800033,0.140853,0.000000,0.000000,0.000000,0.000000,0.000000,0.000000
15347773.000000,2.301436,-1.045977,-1.874854,-1.467899,-1.008367,1.780069,0.490152,0.005192,-0.399393,-0.209793,-0.211443,-0.390510,0.371070,0.173903,-0.489153,35.314068,20.036728,10.814390,0.105680,1.825668,0.100570,0.000000,0.000000,0.000000,0.000000,0.000000,0.000000
15347774.000000,2.301438,-1.046380,-1.875064,-1.468101,-1.008771,1.780443,0.490321,0.005655,-0.402533,-0.208841,-0.208983,-0.397489,0.371866,0.172385,-0.413775,35.337872,20.084335,10.838194,0.129484,1.844894,0.114303,0.000000,0.000000,0.000000,0.000000,0.000000,0.000000
15347775.000000,2.301434,-1.046798,-1.875270,-1.468307,-1.009182,1.780823,0.490491,0.004326,-0.400581,-0.208510,-0.208968,-0.403105,0.376186,0.171197,-0.266986,35.560040,20.159714,10.814390,0.213712,1.773483,0.127120,0.000000,0.000000,0.000000,0.000000,0.000000,0.000000
15347776.000000,2.301431,-1.047216,-1.875474,-1.468523,-1.009576,1.781194,0.490657,0.001516,-0.410341,-0.205059,-0.211203,-0.398592,0.375788,0.170368,-0.167803,35.877422,20.231125,10.861998,0.225614,1.767074,0.153671,0.000000,0.000000,0.000000,0.000000,0.000000,0.000000
15347777.000000,2.301428,-1.047638,-1.875672,-1.468728,-1.009977,1.781564,0.490835,-0.000038,-0.409659,-0.204230,-0.210967,-0.399575,0.373327,0.173361,-0.092425,36.123394,20.131943,10.838194,0.178007,1.844894,0.067611,0.000000,0.000000,0.000000,0.000000,0.000000,0.000000
15347778.000000,2.301426,-1.048062,-1.875880,-1.468941,-1.010367,1.781950,0.490995,-0.000046,-0.412390,-0.204860,-0.212096,-0.396883,0.375723,0.164919,-0.068621,36.293987,20.183517,10.885801,0.141385,1.812850,0.140853,0.000000,0.000000,0.000000,0.000000,0.000000,0.000000
15347779.000000,2.301428,-1.048474,-1.876088,-1.469143,-1.010755,1.782338,0.491162,0.000928,-0.412020,-0.208515,-0.211993,-0.387126,0.374969,0.167045,-0.092425,36.416973,20.254929,10.739012,0.093778,1.708480,0.120712,0.000000,0.000000,0.000000,0.000000,0.000000,0.000000
15347780.000000,2.301421,-1.048893,-1.876294,-1.469357,-1.011154,1.782713,0.491327,-0.007157,-0.413538,-0.203379,-0.212087,-0.391782,0.376439,0.163309,-0.017047,36.512188,20.254929,10.715208,0.088285,1.676437,0.107894,0.000000,0.000000,0.000000,0.000000,0.000000,0.000000
15347781.000000,2.301418,-1.049297,-1.876503,-1.469567,-1.011547,1.783078,0.491488,-0.005071,-0.412372,-0.208124,-0.210624,-0.386953,0.372729,0.159560,-0.017047,36.464581,20.354111,10.639830,0.129484,1.773483,0.127120,0.000000,0.000000,0.000000,0.000000,0.000000,0.000000
15347782.000000,2.301414,-1.049709,-1.876717,-1.469776,-1.011941,1.783446,0.491661,-0.004720,-0.409775,-0.208173,-0.212797,-0.390078,0.367941,0.158960,0.030561,36.416973,20.453293,10.691404,0.171598,1.812850,0.087753,0.000000,0.000000,0.000000,0.000000,0.000000,0.000000
15347783.000000,2.301410,-1.050128,-1.876926,-1.469984,-1.012350,1.783820,0.491822,-0.004429,-0.405329,-0.210205,-0.210764,-0.401718,0.368332,0.159088,0.078168,36.440777,20.552475,10.616026,0.213712,1.741439,0.153671,0.000000,0.000000,0.000000,0.000000,0.000000,0.000000
15347784.000000,2.301397,-1.050540,-1.877128,-1.470198,-1.012743,1.784196,0.491993,-0.006606,-0.412450,-0.211087,-0.217168,-0.392182,0.365075,0.163945,0.228925,36.512188,20.576279,10.639830,0.213712,1.735030,0.100570,0.000000,0.000000,0.000000,0.000000,0.000000,0.000000
15347785.000000,2.301397,-1.050953,-1.877345,-1.470414,-1.013129,1.784558,0.492158,-0.004499,-0.409240,-0.214553,-0.218280,-0.384460,0.361311,0.164225,0.228925,36.535992,20.723068,10.715208,0.171598,1.786300,0.120712,0.000000,0.000000,0.000000,0.000000,0.000000,0.000000
15347786.000000,2.301389,-1.051368,-1.877558,-1.470625,-1.013523,1.784921,0.492325,-0.005390,-0.420468,-0.213035,-0.217344,-0.383169,0.358996,0.167675,0.328107,36.682781,20.822250,10.739012,0.135892,1.832076,0.067611,0.000000,0.000000,0.000000,0.000000,0.000000,0.000000
15347787.000000,2.301384,-1.051785,-1.877775,-1.470830,-1.013930,1.785286,0.492481,-0.005410,-0.415295,-0.212333,-0.214481,-0.394825,0.357311,0.165142,0.403486,36.805767,20.945236,10.663633,0.100187,1.871444,0.147262,0.000000,0.000000,0.000000,0.000000,0.000000,0.000000
15347788.000000,2.301384,-1.052198,-1.877999,-1.471038,-1.014334,1.785647,0.492641,-0.003647,-0.416987,-0.216606,-0.210781,-0.399496,0.362030,0.165724,0.403486,36.833538,21.139633,10.663633,0.117582,1.884261,0.153671,0.000000,0.000000,0.000000,0.000000,0.000000,0.000000
15347789.000000,2.301382,-1.052595,-1.878226,-1.471253,-1.014738,1.786012,0.492806,-0.003018,-0.409957,-0.220389,-0.210871,-0.397820,0.356182,0.163070,0.427289,36.682781,21.361801,10.762815,0.159696,1.871444,0.127120,0.000000,0.000000,0.000000,0.000000,0.000000,0.000000
15347790.000000,2.301379,-1.052998,-1.878451,-1.471460,-1.015148,1.786381,0.492977,-0.003148,-0.406769,-0.218390,-0.210608,-0.403218,0.355510,0.166668,0.474897,36.512188,21.532394,10.861998,0.231107,1.858627,0.081344,0.000000,0.000000,0.000000,0.000000,0.000000,0.000000
15347791.000000,2.301375,-1.053412,-1.878672,-1.471670,-1.015542,1.786747,0.493134,-0.003322,-0.404507,-0.220235,-0.211948,-0.393971,0.355236,0.165085,0.526471,36.464581,21.702988,10.913572,0.243009,1.884261,0.120712,0.000000,0.000000,0.000000,0.000000,0.000000,0.000000
15347792.000000,2.301375,-1.053816,-1.878892,-1.471881,-1.015950,1.787115,0.493294,-0.001671,-0.404692,-0.219927,-0.210666,-0.405811,0.359260,0.160933,0.502668,36.389202,21.802170,10.984983,0.297025,1.923629,0.140853,0.000000,0.000000,0.000000,0.000000,0.000000,0.000000
15347793.000000,2.301369,-1.054225,-1.879119,-1.472089,-1.016359,1.787467,0.493463,-0.003443,-0.401500,-0.219819,-0.208330,-0.406186,0.355762,0.160557,0.601850,36.293987,21.901352,11.012754,0.320829,2.020675,0.081344,0.000000,0.000000,0.000000,0.000000,0.000000,0.000000
15347794.000000,2.301366,-1.054635,-1.879338,-1.472296,-1.016745,1.787833,0.493616,-0.002859,-0.407447,-0.221959,-0.209784,-0.392297,0.354549,0.155867,0.625654,36.242413,21.948959,11.036558,0.225614,2.066451,0.147262,0.000000,0.000000,0.000000,0.000000,0.000000,0.000000
15347795.000000,2.301368,-1.055041,-1.879561,-1.472502,-1.017144,1.788203,0.493781,-0.001912,-0.404059,-0.216827,-0.210211,-0.396565,0.357081,0.156957,0.625654,36.147198,22.000534,11.012754,0.207303,2.033492,0.087753,0.000000,0.000000,0.000000,0.000000,0.000000,0.000000
15347796.000000,2.301368,-1.055447,-1.879787,-1.472709,-1.017542,1.788566,0.493938,-0.001278,-0.403803,-0.223946,-0.206764,-0.397514,0.355602,0.158603,0.625654,36.024212,22.147324,10.984983,0.249418,1.962081,0.127120,0.000000,0.000000,0.000000,0.000000,0.000000,0.000000
15347797.000000,2.301372,-1.055853,-1.880011,-1.472920,-1.017931,1.788932,0.494103,0.000351,-0.404177,-0.221916,-0.207630,-0.393043,0.354680,0.162510,0.574079,36.024212,22.194931,11.084166,0.219205,1.981307,0.100570,0.000000,0.000000,0.000000,0.000000,0.000000,0.000000
15347798.000000,2.301361,-1.056266,-1.880229,-1.473121,-1.018329,1.789287,0.494269,-0.003295,-0.404534,-0.219908,-0.207789,-0.396872,0.354506,0.159035,0.724836,36.000408,22.218735,11.036558,0.231107,2.014266,0.107894,0.000000,0.000000,0.000000,0.000000,0.000000,0.000000
15347799.000000,2.301366,-1.056667,-1.880441,-1.473332,-1.018736,1.789643,0.494429,-0.001549,-0.400174,-0.216832,-0.209070,-0.391373,0.350537,0.160621,0.697065,35.948833,22.171127,11.036558,0.297025,2.020675,0.140853,0.000000,0.000000,0.000000,0.000000,0.000000,0.000000
15347800.000000,2.301371,-1.057074,-1.880658,-1.473542,-1.019138,1.790006,0.494602,0.000637,-0.404721,-0.217238,-0.205592,-0.401914,0.353247,0.160620,0.625654,35.877422,22.242538,11.107969,0.297025,2.001449,0.081344,0.000000,0.000000,0.000000,0.000000,0.000000,0.000000
15347801.000000,2.301370,-1.057485,-1.880869,-1.473749,-1.019543,1.790357,0.494763,-0.000690,-0.403351,-0.213852,-0.203149,-0.402478,0.353575,0.160540,0.673261,35.829815,22.147324,11.084166,0.261320,2.033492,0.140853,0.000000,0.000000,0.000000,0.000000,0.000000,0.000000
15347802.000000,2.301368,-1.057897,-1.881072,-1.473947,-1.019945,1.790709,0.494933,-0.001667,-0.409182,-0.210814,-0.206595,-0.397158,0.347219,0.160064,0.724836,35.754436,22.024338,11.036558,0.231107,2.085677,0.094161,0.000000,0.000000,0.000000,0.000000,0.000000,0.000000
15347803.000000,2.301373,-1.058288,-1.881293,-1.474159,-1.020349,1.791055,0.495087,0.000651,-0.399136,-0.212027,-0.205931,-0.394380,0.353991,0.160206,0.649457,35.560040,22.048141,11.060362,0.213712,2.112228,0.147262,0.000000,0.000000,0.000000,0.000000,0.000000,0.000000
15347804.000000,2.301382,-1.058697,-1.881505,-1.474364,-1.020753,1.791420,0.495258,0.002754,-0.407556,-0.212005,-0.206932,-0.393148,0.356269,0.163748,0.550275,35.484661,22.024338,11.036558,0.243009,2.085677,0.094161,0.000000,0.000000,0.000000,0.000000,0.000000,0.000000
15347805.000000,2.301379,-1.059097,-1.881707,-1.474561,-1.021164,1.791785,0.495415,-0.001041,-0.404735,-0.205226,-0.201868,-0.396483,0.357740,0.163027,0.673261,35.385479,21.849777,11.012754,0.237516,2.053634,0.153671,0.000000,0.000000,0.000000,0.000000,0.000000,0.000000
15347806.000000,2.301382,-1.059510,-1.881915,-1.474762,-1.021577,1.792140,0.495583,0.002584,-0.402708,-0.204162,-0.199447,-0.404273,0.354932,0.164914,0.673261,35.361675,21.825974,11.060362,0.243009,2.007858,0.140853,0.000000,0.000000,0.000000,0.000000,0.000000,0.000000
15347807.000000,2.301384,-1.059918,-1.882114,-1.474970,-1.021991,1.792506,0.495745,0.004077,-0.401202,-0.205242,-0.198416,-0.402885,0.360459,0.163033,0.724836,35.413250,21.754562,11.135740,0.320829,1.981307,0.100570,0.000000,0.000000,0.000000,0.000000,0.000000,0.000000
15347808.000000,2.301390,-1.060334,-1.882312,-1.475169,-1.022397,1.792861,0.495909,0.006461,-0.406459,-0.204142,-0.196248,-0.403219,0.366380,0.164601,0.724836,35.508465,21.607773,11.159544,0.285123,1.995040,0.107894,0.000000,0.000000,0.000000,0.000000,0.000000,0.000000
15347809.000000,2.301395,-1.060753,-1.882508,-1.475363,-1.022794,1.793221,0.496068,0.007673,-0.404641,-0.197274,-0.196330,-0.400566,0.363024,0.165443,0.748639,35.607647,21.457016,11.135740,0.267728,2.020675,0.120712,0.000000,0.000000,0.000000,0.000000,0.000000,0.000000
15347810.000000,2.301404,-1.061166,-1.882702,-1.475554,-1.023197,1.793587,0.496228,0.009161,-0.407915,-0.196905,-0.194352,-0.396202,0.361258,0.162365,0.748639,35.683025,21.361801,11.135740,0.249418,2.027084,0.107894,0.000000,0.000000,0.000000,0.000000,0.000000,0.000000
15347811.000000,2.301415,-1.061581,-1.882901,-1.475746,-1.023601,1.793958,0.496393,0.010230,-0.404675,-0.200423,-0.191516,-0.396131,0.361450,0.165271,0.748639,35.778240,21.310226,11.084166,0.171598,2.001449,0.074935,0.000000,0.000000,0.000000,0.000000,0.000000,0.000000
15347812.000000,2.301425,-1.061995,-1.883092,-1.475942,-1.023996,1.794335,0.496549,0.010776,-0.414399,-0.195805,-0.190692,-0.393259,0.357259,0.160949,0.748639,35.853619,21.215012,11.084166,0.154203,1.955673,0.140853,0.000000,0.000000,0.000000,0.000000,0.000000,0.000000
15347813.000000,2.301440,-1.062416,-1.883292,-1.476129,-1.024399,1.794708,0.496720,0.010434,-0.412059,-0.197879,-0.189678,-0.404342,0.359588,0.164878,0.649457,35.901226,21.238815,11.060362,0.178007,1.897079,0.094161,0.000000,0.000000,0.000000,0.000000,0.000000,0.000000
15347814.000000,2.301451,-1.062842,-1.883480,-1.476317,-1.024809,1.795077,0.496881,0.010471,-0.415272,-0.199641,-0.186363,-0.406411,0.364844,0.164137,0.649457,35.948833,21.187241,11.084166,0.189908,1.865035,0.147262,0.000000,0.000000,0.000000,0.000000,0.000000,0.000000
15347815.000000,2.301463,-1.063253,-1.883667,-1.476499,-1.025211,1.795447,0.497051,0.011580,-0.412757,-0.194937,-0.188300,-0.404038,0.362667,0.167428,0.625654,35.976604,21.092026,11.060362,0.255826,1.851302,0.100570,0.000000,0.000000,0.000000,0.000000,0.000000,0.000000
15347816.000000,2.301476,-1.063675,-1.883854,-1.476689,-1.025604,1.795797,0.497216,0.012809,-0.414957,-0.195084,-0.186488,-0.403227,0.355263,0.163498,0.574079,36.000408,21.016647,11.107969,0.225614,1.897079,0.087753,0.000000,0.000000,0.000000,0.000000,0.000000,0.000000
15347817.000000,2.301491,-1.064078,-1.884038,-1.476873,-1.026009,1.796163,0.497379,0.014150,-0.406841,-0.191009,-0.186031,-0.399030,0.356013,0.165050,0.502668,35.925030,20.893661,11.084166,0.231107,1.890670,0.087753,0.000000,0.000000,0.000000,0.000000,0.000000,0.000000
15347818.000000,2.301509,-1.064499,-1.884226,-1.477051,-1.026417,1.796525,0.497531,0.015718,-0.408125,-0.190009,-0.185664,-0.402389,0.361209,0.163799,0.403486,35.976604,20.869858,11.036558,0.219205,1.884261,0.153671,0.000000,0.000000,0.000000,0.000000,0.000000,0.000000
15347819.000000,2.301531,-1.064909,-1.884412,-1.477227,-1.026816,1.796879,0.497699,0.020670,-0.402842,-0.187759,-0.181659,-0.405208,0.356336,0.166349,0.276533,35.948833,20.770676,10.984983,0.105680,1.877853,0.127120,0.000000,0.000000,0.000000,0.000000,0.000000,0.000000
15347820.000000,2.301543,-1.065324,-1.884600,-1.477406,-1.027225,1.797237,0.497865,0.018584,-0.412516,-0.191469,-0.183913,-0.400980,0.357413,0.163270,0.252729,36.024212,20.770676,10.913572,0.112089,1.844894,0.107894,0.000000,0.000000,0.000000,0.000000,0.000000,0.000000
15347821.000000,2.301564,-1.065734,-1.884790,-1.477584,-1.027636,1.797589,0.498032,0.016440,-0.407546,-0.189074,-0.184591,-0.404121,0.353025,0.164506,0.129743,35.948833,20.699265,10.885801,0.141385,1.844894,0.107894,0.000000,0.000000,0.000000,0.000000,0.000000,0.000000
15347822.000000,2.301585,-1.066151,-1.884972,-1.477756,-1.028036,1.797942,0.498192,0.017766,-0.409631,-0.188700,-0.180834,-0.404161,0.354381,0.169556,0.006757,35.877422,20.671494,10.814390,0.123990,1.844894,0.107894,0.000000,0.000000,0.000000,0.000000,0.000000,0.000000
15347823.000000,2.301601,-1.066541,-1.885158,-1.477922,-1.028457,1.798291,0.498350,0.017018,-0.401593,-0.187748,-0.174492,-0.401024,0.349695,0.163548,-0.044818,35.607647,20.623886,10.715208,0.147794,1.865035,0.147262,0.000000,0.000000,0.000000,0.000000,0.000000,0.000000
15347824.000000,2.301622,-1.066951,-1.885341,-1.478090,-1.028877,1.798640,0.498519,0.021283,-0.403278,-0.184077,-0.170676,-0.409568,0.355316,0.162062,-0.167803,35.437054,20.576279,10.663633,0.207303,1.903487,0.094161,0.000000,0.000000,0.000000,0.000000,0.000000,0.000000
15347825.000000,2.301644,-1.067348,-1.885528,-1.478263,-1.029282,1.798995,0.498675,0.020776,-0.398014,-0.187486,-0.171802,-0.406836,0.355493,0.157987,-0.266986,35.167278,20.524704,10.639830,0.159696,1.903487,0.127120,0.000000,0.000000,0.000000,0.000000,0.000000,0.000000
15347826.000000,2.301663,-1.067760,-1.885717,-1.478424,-1.029702,1.799353,0.498844,0.019079,-0.398710,-0.187125,-0.166978,-0.408857,0.365507,0.163177,-0.314593,34.972881,20.500900,10.516844,0.183500,1.844894,0.067611,0.000000,0.000000,0.000000,0.000000,0.000000,0.000000
15347827.000000,2.301684,-1.068158,-1.885901,-1.478589,-1.030117,1.799706,0.499004,0.018891,-0.391963,-0.183329,-0.164864,-0.411079,0.363768,0.158248,-0.389971,34.726910,20.453293,10.465269,0.213712,1.844894,0.114303,0.000000,0.000000,0.000000,0.000000,0.000000,0.000000
15347828.000000,2.301706,-1.068571,-1.886097,-1.478743,-1.030532,1.800066,0.499169,0.021260,-0.396680,-0.186165,-0.162676,-0.414915,0.356935,0.160530,-0.441546,34.703106,20.500900,10.370054,0.219205,1.858627,0.133529,0.000000,0.000000,0.000000,0.000000,0.000000,0.000000
15347829.000000,2.301728,-1.068979,-1.886280,-1.478903,-1.030958,1.800420,0.499337,0.022760,-0.396510,-0.183915,-0.161063,-0.417431,0.358564,0.159249,-0.489153,34.627728,20.377914,10.270872,0.219205,1.825668,0.100570,0.000000,0.000000,0.000000,0.000000,0.000000,0.000000
15347830.000000,2.301747,-1.069385,-1.886467,-1.479067,-1.031366,1.800773,0.499498,0.022819,-0.402758,-0.180742,-0.158329,-0.412394,0.353931,0.161650,-0.489153,34.556316,20.306503,10.243101,0.166105,1.800033,0.120712,0.000000,0.000000,0.000000,0.000000,0.000000,0.000000
15347831.000000,2.301770,-1.069797,-1.886653,-1.479223,-1.031789,1.801139,0.499665,0.024362,-0.402278,-0.181463,-0.156321,-0.418200,0.360135,0.163761,-0.540728,34.627728,20.254929,10.219297,0.171598,1.793624,0.120712,0.000000,0.000000,0.000000,0.000000,0.000000,0.000000
15347832.000000,2.301784,-1.070217,-1.886837,-1.479379,-1.032213,1.801500,0.499827,0.022369,-0.405972,-0.187092,-0.154294,-0.421276,0.360145,0.164604,-0.465350,34.703106,20.183517,10.195494,0.159696,1.773483,0.140853,0.000000,0.000000,0.000000,0.000000,0.000000,0.000000
15347833.000000,2.301801,-1.070624,-1.887026,-1.479536,-1.032621,1.801855,0.499988,0.022537,-0.406054,-0.187135,-0.156156,-0.412482,0.353831,0.162833,-0.441546,34.726910,20.159714,10.294676,0.147794,1.779891,0.100570,0.000000,0.000000,0.000000,0.000000,0.000000,0.000000
15347834.000000,2.301826,-1.071045,-1.887222,-1.479687,-1.033041,1.802201,0.500150,0.021314,-0.410820,-0.187653,-0.154356,-0.416608,0.354215,0.159907,-0.489153,34.774517,20.159714,10.270872,0.166105,1.806442,0.094161,0.000000,0.000000,0.000000,0.000000,0.000000,0.000000
15347835.000000,2.301847,-1.071454,-1.887407,-1.479837,-1.033467,1.802561,0.500310,0.019291,-0.413056,-0.186926,-0.151502,-0.415214,0.351979,0.162911,-0.512957,34.826092,20.108139,10.195494,0.207303,1.773483,0.081344,0.000000,0.000000,0.000000,0.000000,0.000000,0.000000
15347836.000000,2.301862,-1.071876,-1.887600,-1.479992,-1.033885,1.802917,0.500465,0.015674,-0.413044,-0.187275,-0.155790,-0.419109,0.354102,0.157512,-0.441546,34.873699,20.108139,10.243101,0.178007,1.760665,0.147262,0.000000,0.000000,0.000000,0.000000,0.000000,0.000000
15347837.000000,2.301878,-1.072294,-1.887789,-1.480146,-1.034315,1.803262,0.500629,0.016894,-0.414445,-0.183523,-0.155536,-0.426163,0.350261,0.162635,-0.389971,34.921307,20.060532,10.294676,0.171598,1.767074,0.100570,0.000000,0.000000,0.000000,0.000000,0.000000,0.000000
15347838.000000,2.301895,-1.072711,-1.887979,-1.480293,-1.034735,1.803620,0.500780,0.015556,-0.416793,-0.184446,-0.155781,-0.421916,0.351491,0.162996,-0.366168,34.945110,20.036728,10.270872,0.183500,1.767074,0.140853,0.000000,0.000000,0.000000,0.000000,0.000000,0.000000
15347839.000000,2.301911,-1.073138,-1.888168,-1.480445,-1.035151,1.803969,0.500936,0.013607,-0.419825,-0.179060,-0.155950,-0.423288,0.353313,0.160412,-0.314593,35.143475,20.036728,10.342283,0.171598,1.767074,0.120712,0.000000,0.000000,0.000000,0.000000,0.000000,0.000000
15347840.000000,2.301925,-1.073568,-1.888346,-1.480599,-1.035573,1.804325,0.501088,0.014839,-0.419454,-0.179259,-0.154300,-0.419039,0.355569,0.157778,-0.243182,35.266460,19.937546,10.342283,0.178007,1.741439,0.107894,0.000000,0.000000,0.000000,0.000000,0.000000,0.000000
15347841.000000,2.301939,-1.073997,-1.888535,-1.480750,-1.035993,1.804676,0.501240,0.015751,-0.419460,-0.179034,-0.153480,-0.415913,0.351050,0.159547,-0.167803,35.460857,19.961349,10.342283,0.171598,1.741439,0.140853,0.000000,0.000000,0.000000,0.000000,0.000000,0.000000
15347842.000000,2.301956,-1.074436,-1.888723,-1.480899,-1.036411,1.805021,0.501403,0.017918,-0.424329,-0.181485,-0.151915,-0.417765,0.352273,0.164911,-0.144000,35.683025,19.961349,10.318480,0.166105,1.760665,0.061202,0.000000,0.000000,0.000000,0.000000,0.000000,0.000000
15347843.000000,2.301970,-1.074866,-1.888913,-1.481044,-1.036831,1.805375,0.501553,0.014952,-0.425768,-0.183761,-0.146006,-0.414817,0.349858,0.163841,-0.068621,35.877422,19.985153,10.219297,0.159696,1.714889,0.120712,0.000000,0.000000,0.000000,0.000000,0.000000,0.000000
15347844.000000,2.301989,-1.075303,-1.889103,-1.481189,-1.037249,1.805720,0.501713,0.014797,-0.424665,-0.182696,-0.146835,-0.418601,0.353638,0.161385,-0.068621,36.000408,20.036728,10.195494,0.154203,1.670028,0.107894,0.000000,0.000000,0.000000,0.000000,0.000000,0.000000
15347845.000000,2.302005,-1.075732,-1.889292,-1.481337,-1.037655,1.806075,0.501865,0.013742,-0.427074,-0.185657,-0.146970,-0.416609,0.354065,0.162864,-0.044818,35.976604,20.108139,10.171690,0.135892,1.682845,0.127120,0.000000,0.000000,0.000000,0.000000,0.000000,0.000000
15347846.000000,2.302021,-1.076166,-1.889484,-1.481483,-1.038076,1.806422,0.502023,0.013141,-0.423642,-0.187936,-0.147068,-0.419679,0.348110,0.165866,-0.017047,36.048016,20.183517,10.120115,0.141385,1.727706,0.094161,0.000000,0.000000,0.000000,0.000000,0.000000,0.000000
15347847.000000,2.302044,-1.076603,-1.889685,-1.481626,-1.038498,1.806767,0.502175,0.017559,-0.428821,-0.190716,-0.145766,-0.422194,0.346487,0.160363,-0.068621,36.147198,20.306503,10.020933,0.154203,1.714889,0.133529,0.000000,0.000000,0.000000,0.000000,0.000000,0.000000
15347848.000000,2.302061,-1.077039,-1.889876,-1.481771,-1.038907,1.807111,0.502336,0.018984,-0.439558,-0.188367,-0.146060,-0.412792,0.348626,0.161980,-0.044818,36.270184,20.377914,9.973326,0.147794,1.727706,0.074935,0.000000,0.000000,0.000000,0.000000,0.000000,0.000000
15347849.000000,2.302077,-1.077472,-1.890074,-1.481914,-1.039329,1.807459,0.502482,0.019387,-0.440447,-0.190382,-0.146907,-0.422797,0.345223,0.156326,0.006757,36.317791,20.500900,9.949522,0.135892,1.760665,0.147262,0.000000,0.000000,0.000000,0.000000,0.000000,0.000000
15347850.000000,2.302093,-1.077913,-1.890268,-1.482059,-1.039754,1.807804,0.502647,0.016629,-0.436149,-0.196718,-0.146838,-0.425395,0.344287,0.162635,0.054365,36.464581,20.600082,9.921751,0.154203,1.747848,0.074935,0.000000,0.000000,0.000000,0.000000,0.000000,0.000000
15347851.000000,2.302113,-1.078343,-1.890472,-1.482204,-1.040163,1.808150,0.502802,0.016505,-0.435227,-0.200608,-0.147489,-0.421025,0.338241,0.158944,0.030561,36.535992,20.746872,9.897947,0.154203,1.735030,0.094161,0.000000,0.000000,0.000000,0.000000,0.000000,0.000000
15347852.000000,2.302138,-1.078771,-1.890678,-1.482353,-1.040588,1.808499,0.502958,0.020108,-0.429902,-0.196595,-0.148579,-0.422865,0.344723,0.155817,-0.017047,36.488384,20.869858,9.897947,0.159696,1.702071,0.114303,0.000000,0.000000,0.000000,0.000000,0.000000,0.000000
15347853.000000,2.302156,-1.079197,-1.890884,-1.482497,-1.041004,1.808843,0.503112,0.020834,-0.431415,-0.199928,-0.148040,-0.418822,0.342009,0.155478,0.006757,36.440777,20.992844,9.850340,0.159696,1.741439,0.094161,0.000000,0.000000,0.000000,0.000000,0.000000,0.000000
15347854.000000,2.302180,-1.079623,-1.891088,-1.482646,-1.041427,1.809188,0.503261,0.022386,-0.423938,-0.199954,-0.150135,-0.417570,0.340746,0.157415,-0.017047,36.365398,21.016647,9.897947,0.189908,1.754256,0.127120,0.000000,0.000000,0.000000,0.000000,0.000000,0.000000
15347855.000000,2.302201,-1.080059,-1.891300,-1.482786,-1.041858,1.809517,0.503418,0.023732,-0.423808,-0.202614,-0.146993,-0.421082,0.334695,0.157157,-0.044818,36.317791,21.139633,9.897947,0.213712,1.779891,0.094161,0.000000,0.000000,0.000000,0.000000,0.000000,0.000000
15347856.000000,2.302224,-1.080482,-1.891506,-1.482930,-1.042278,1.809857,0.503567,0.024392,-0.418675,-0.203483,-0.144993,-0.418685,0.328872,0.150654,-0.068621,36.218609,21.215012,9.897947,0.237516,1.825668,0.107894,0.000000,0.000000,0.000000,0.000000,0.000000,0.000000
15347857.000000,2.302244,-1.080920,-1.891717,-1.483076,-1.042695,1.810187,0.503727,0.024153,-0.419316,-0.202357,-0.147006,-0.420221,0.326401,0.152333,-0.068621,36.171001,21.361801,9.921751,0.213712,1.844894,0.061202,0.000000,0.000000,0.000000,0.000000,0.000000,0.000000
15347858.000000,2.302268,-1.081354,-1.891920,-1.483224,-1.043121,1.810522,0.503873,0.024957,-0.419791,-0.201901,-0.145605,-0.415325,0.320900,0.153788,-0.092425,36.123394,21.385605,9.973326,0.166105,1.832076,0.140853,0.000000,0.000000,0.000000,0.000000,0.000000,0.000000
15347859.000000,2.302290,-1.081784,-1.892127,-1.483367,-1.043551,1.810855,0.504035,0.021908,-0.420330,-0.204267,-0.144152,-0.413382,0.320161,0.155110,-0.092425,36.048016,21.385605,9.997129,0.159696,1.851302,0.094161,0.000000,0.000000,0.000000,0.000000,0.000000,0.000000
15347860.000000,2.302311,-1.082224,-1.892344,-1.483509,-1.043981,1.811186,0.504195,0.022409,-0.423685,-0.202911,-0.144840,-0.421349,0.317729,0.155527,-0.068621,36.123394,21.508591,9.973326,0.147794,1.923629,0.074935,0.000000,0.000000,0.000000,0.000000,0.000000,0.000000
15347861.000000,2.302331,-1.082658,-1.892553,-1.483655,-1.044415,1.811520,0.504349,0.022798,-0.425743,-0.205730,-0.144794,-0.418756,0.316310,0.154132,-0.044818,36.147198,21.532394,10.048704,0.166105,1.974899,0.081344,0.000000,0.000000,0.000000,0.000000,0.000000,0.000000
15347862.000000,2.302348,-1.083097,-1.892763,-1.483801,-1.044846,1.811856,0.504497,0.021663,-0.431758,-0.204217,-0.144746,-0.423838,0.324863,0.151275,0.030561,36.242413,21.556198,10.120115,0.195402,1.923629,0.133529,0.000000,0.000000,0.000000,0.000000,0.000000,0.000000
15347863.000000,2.302365,-1.083537,-1.892979,-1.483953,-1.045272,1.812208,0.504654,0.017653,-0.433268,-0.214109,-0.144820,-0.431589,0.326643,0.151626,0.105939,36.218609,21.679184,10.219297,0.207303,1.851302,0.127120,0.000000,0.000000,0.000000,0.000000,0.000000,0.000000
15347864.000000,2.302379,-1.083973,-1.893185,-1.484106,-1.045713,1.812553,0.504806,0.013449,-0.433859,-0.209876,-0.149544,-0.431244,0.330137,0.152807,0.228925,36.194805,21.655380,10.370054,0.231107,1.819259,0.094161,0.000000,0.000000,0.000000,0.000000,0.000000,0.000000
15347865.000000,2.302396,-1.084408,-1.893394,-1.484248,-1.046151,1.812885,0.504956,0.014828,-0.429042,-0.208657,-0.146846,-0.435099,0.330829,0.146813,0.304304,36.095623,21.702988,10.393858,0.237516,1.865035,0.107894,0.000000,0.000000,0.000000,0.000000,0.000000,0.000000
