chaoyuefei/paper-gmrm-data/robot_logs/onetime_s2_dq_gmrm_xz_min_0.30_log_20260314_181341.csv
# time_ms,q_0,q_1,q_2,q_3,q_4,q_5,q_6,dq_0,dq_1,dq_2,dq_3,dq_4,dq_5,dq_6,tau_J_0,tau_J_1,tau_J_2,tau_J_3,tau_J_4,tau_J_5,tau_J_6,O_dP_EE_c_0,O_dP_EE_c_1,O_dP_EE_c_2,O_dP_EE_c_3,O_dP_EE_c_4,O_dP_EE_c_5
14685909.000000,-2.415895,-1.662628,1.042147,-1.355853,1.795707,1.080895,-0.548248,-0.000185,0.000491,-0.000096,0.000116,0.000313,-0.000036,-0.000535,-0.144000,41.360210,-20.707291,-5.697450,0.936979,1.299239,-0.142960,0.000000,0.000000,0.000000,0.000000,0.000000,0.000000
14685910.000000,-2.415895,-1.662628,1.042147,-1.355855,1.795709,1.080894,-0.548246,-0.000123,0.000327,-0.000064,-0.000480,0.000650,-0.000261,0.000390,-0.144000,41.360210,-20.707291,-5.673646,0.925077,1.305648,-0.163102,0.000000,0.000000,0.000000,0.000000,0.000000,0.000000
14685911.000000,-2.415893,-1.662630,1.042147,-1.355850,1.795705,1.080895,-0.548245,0.000475,-0.000338,-0.000043,0.001443,-0.000008,0.009446,0.000497,-0.167803,41.384014,-20.707291,-5.749025,0.936979,1.299239,-0.169511,0.000000,0.000000,0.000000,0.000000,0.000000,0.000000
14685912.000000,-2.415891,-1.662628,1.042147,-1.355855,1.795708,1.080894,-0.548251,0.000873,0.000331,-0.000028,-0.000801,0.000436,0.006605,-0.001635,-0.191607,41.360210,-20.707291,-5.673646,0.925077,1.312057,-0.116410,0.000000,0.000000,0.000000,0.000000,0.000000,0.000000
14685913.000000,-2.415889,-1.662631,1.042148,-1.355853,1.795708,1.080895,-0.548247,0.009295,-0.001947,-0.000576,0.001972,0.000969,0.004277,-0.002370,0.105939,41.312603,-20.683487,-5.649843,0.906766,1.331283,-0.208878,0.000000,0.000000,0.000000,0.000000,0.000000,0.000000
14685914.000000,-2.415883,-1.662634,1.042151,-1.355854,1.795708,1.080890,-0.548269,0.016355,-0.003255,0.002212,0.000095,-0.000494,0.001679,-0.012776,1.192975,41.114239,-20.659683,-5.451478,0.811552,1.500655,-0.175919,0.000000,0.000000,0.000000,0.000000,0.000000,0.000000
14685915.000000,-2.415851,-1.662639,1.042161,-1.355851,1.795712,1.080888,-0.548306,0.024038,-0.005091,0.007434,-0.002198,-0.003477,0.002932,-0.024013,2.680707,40.796856,-20.631912,-5.205507,0.632108,1.727706,-0.182328,0.000000,0.000000,0.000000,0.000000,0.000000,0.000000
14685916.000000,-2.415806,-1.662635,1.042180,-1.355855,1.795698,1.080906,-0.548356,0.028454,-0.002596,0.011849,-0.003378,-0.006519,0.008468,-0.034595,4.561201,40.308880,-20.631912,-4.832582,0.589994,1.844894,-0.254655,0.000000,0.000000,0.000000,0.000000,0.000000,0.000000
14685917.000000,-2.415746,-1.662637,1.042202,-1.355863,1.795676,1.080954,-0.548437,0.033436,-0.002948,0.017817,-0.006080,-0.010483,0.023664,-0.050399,6.493268,39.892315,-20.608109,-4.487428,0.596403,1.786300,-0.235429,0.000000,0.000000,0.000000,0.000000,0.000000,0.000000
14685918.000000,-2.415657,-1.662637,1.042225,-1.355886,1.795639,1.081028,-0.548534,0.046460,0.000458,0.020598,-0.011688,-0.018765,0.043466,-0.067384,8.076215,39.428143,-20.512894,-4.118471,0.625699,1.617843,-0.241837,0.000000,0.000000,0.000000,0.000000,0.000000,0.000000
14685919.000000,-2.415555,-1.662631,1.042262,-1.355929,1.795592,1.081120,-0.548660,0.059689,0.002957,0.027644,-0.024314,-0.030023,0.061532,-0.085018,9.512372,38.960003,-20.485123,-3.646364,0.667814,1.481429,-0.202470,0.000000,0.000000,0.000000,0.000000,0.000000,0.000000
14685920.000000,-2.415440,-1.662628,1.042307,-1.355969,1.795531,1.081219,-0.548801,0.077747,0.003282,0.031837,-0.030237,-0.043188,0.079970,-0.104633,10.750165,38.543438,-20.413712,-3.448000,0.715421,1.448470,-0.248246,0.000000,0.000000,0.000000,0.000000,0.000000,0.000000
14685921.000000,-2.415316,-1.662623,1.042366,-1.356034,1.795451,1.081349,-0.548969,0.089289,0.002800,0.042504,-0.042128,-0.055778,0.098020,-0.122591,11.912580,38.154644,-20.389908,-3.079042,0.715421,1.429244,-0.208878,0.000000,0.000000,0.000000,0.000000,0.000000,0.000000
14685922.000000,-2.415172,-1.662613,1.042436,-1.356107,1.795360,1.081493,-0.549144,0.108495,0.005788,0.053602,-0.051195,-0.065998,0.113170,-0.133805,12.876630,37.761883,-20.362137,-2.833071,0.608304,1.494247,-0.221696,0.000000,0.000000,0.000000,0.000000,0.000000,0.000000
14685923.000000,-2.415021,-1.662600,1.042517,-1.356189,1.795251,1.081657,-0.549326,0.122957,0.011203,0.062533,-0.059026,-0.079138,0.128374,-0.148375,13.693891,37.369122,-20.362137,-2.682314,0.506681,1.591293,-0.229020,0.000000,0.000000,0.000000,0.000000,0.000000,0.000000
14685924.000000,-2.414849,-1.662580,1.042618,-1.356287,1.795123,1.081856,-0.549527,0.138506,0.012700,0.073843,-0.071356,-0.093504,0.146768,-0.160919,14.388165,36.952557,-20.437515,-2.535524,0.398649,1.624252,-0.182328,0.000000,0.000000,0.000000,0.000000,0.000000,0.000000
14685925.000000,-2.414671,-1.662558,1.042731,-1.356405,1.794974,1.082085,-0.549724,0.148489,0.016913,0.089144,-0.088100,-0.115001,0.183996,-0.167023,15.007062,36.535992,-20.536697,-2.337160,0.344633,1.630660,-0.202470,0.000000,0.000000,0.000000,0.000000,0.000000,0.000000
14685926.000000,-2.414465,-1.662539,1.042865,-1.356530,1.794792,1.082342,-0.549923,0.166161,0.015690,0.102672,-0.103751,-0.134915,0.210443,-0.170454,15.427594,36.171001,-20.731094,-2.261781,0.369352,1.591293,-0.182328,0.000000,0.000000,0.000000,0.000000,0.000000,0.000000
14685927.000000,-2.414243,-1.662514,1.043010,-1.356679,1.794593,1.082632,-0.550124,0.187227,0.019212,0.114492,-0.116996,-0.154759,0.235347,-0.178516,15.748944,35.754436,-20.877884,-2.162599,0.410551,1.526290,-0.208878,0.000000,0.000000,0.000000,0.000000,0.000000,0.000000
14685928.000000,-2.414008,-1.662495,1.043161,-1.356835,1.794365,1.082934,-0.550326,0.200461,0.019488,0.128611,-0.127114,-0.181134,0.259096,-0.182623,16.022688,35.437054,-20.977066,-2.190370,0.506681,1.467696,-0.175919,0.000000,0.000000,0.000000,0.000000,0.000000,0.000000
14685929.000000,-2.413753,-1.662470,1.043326,-1.357021,1.794108,1.083266,-0.550521,0.217398,0.020508,0.141240,-0.147528,-0.203151,0.282638,-0.184384,16.197248,35.091900,-21.052444,-2.091188,0.554288,1.494247,-0.169511,0.000000,0.000000,0.000000,0.000000,0.000000,0.000000
14685930.000000,-2.413482,-1.662456,1.043499,-1.357215,1.793846,1.083623,-0.550713,0.237810,0.023452,0.155809,-0.163306,-0.218592,0.305791,-0.184012,16.367842,34.921307,-21.100052,-2.091188,0.571683,1.526290,-0.202470,0.000000,0.000000,0.000000,0.000000,0.000000,0.000000
14685931.000000,-2.413201,-1.662444,1.043685,-1.357431,1.793562,1.083989,-0.550906,0.250693,0.018066,0.167342,-0.177951,-0.234180,0.326258,-0.186271,16.443220,34.826092,-21.123856,-1.992006,0.566190,1.584884,-0.175919,0.000000,0.000000,0.000000,0.000000,0.000000,0.000000
14685932.000000,-2.412896,-1.662433,1.043880,-1.357652,1.793271,1.084379,-0.551092,0.269662,0.017111,0.177212,-0.190194,-0.251209,0.348677,-0.186528,16.490828,34.750713,-21.076248,-1.964235,0.458158,1.695663,-0.196061,0.000000,0.000000,0.000000,0.000000,0.000000,0.000000
14685933.000000,-2.412576,-1.662427,1.044089,-1.357902,1.792955,1.084796,-0.551280,0.285162,0.012341,0.189592,-0.210827,-0.270889,0.367994,-0.187362,16.490828,34.726910,-21.076248,-1.841249,0.381254,1.767074,-0.182328,0.000000,0.000000,0.000000,0.000000,0.000000,0.000000
14685934.000000,-2.412235,-1.662423,1.044300,-1.358169,1.792622,1.085247,-0.551464,0.303667,0.011075,0.195977,-0.227859,-0.287030,0.387337,-0.187835,16.443220,34.750713,-20.977066,-1.670656,0.339139,1.714889,-0.182328,0.000000,0.000000,0.000000,0.000000,0.000000,0.000000
14685935.000000,-2.411886,-1.662419,1.044526,-1.358451,1.792269,1.085731,-0.551638,0.318751,0.007855,0.205163,-0.243751,-0.301681,0.416788,-0.177867,16.467024,34.750713,-20.905655,-1.496095,0.369352,1.630660,-0.202470,0.000000,0.000000,0.000000,0.000000,0.000000,0.000000
14685936.000000,-2.411523,-1.662419,1.044757,-1.358753,1.791903,1.086222,-0.551820,0.334492,0.005034,0.212589,-0.263775,-0.327052,0.446111,-0.182498,16.443220,34.774517,-20.854080,-1.373109,0.405057,1.597701,-0.155778,0.000000,0.000000,0.000000,0.000000,0.000000,0.000000
14685937.000000,-2.411151,-1.662415,1.045000,-1.359054,1.791518,1.086738,-0.551993,0.344611,0.004735,0.220953,-0.276496,-0.344102,0.470582,-0.177730,16.566206,34.726910,-20.806473,-1.349306,0.416959,1.578475,-0.196061,0.000000,0.000000,0.000000,0.000000,0.000000,0.000000
14685938.000000,-2.410772,-1.662415,1.045254,-1.359368,1.791117,1.087277,-0.552175,0.352092,0.005966,0.233464,-0.287346,-0.364931,0.506042,-0.181853,16.740767,34.750713,-20.731094,-1.373109,0.494779,1.552840,-0.188737,0.000000,0.000000,0.000000,0.000000,0.000000,0.000000
14685939.000000,-2.410373,-1.662422,1.045517,-1.359693,1.790694,1.087842,-0.552353,0.365516,0.002627,0.241732,-0.301474,-0.383332,0.527034,-0.177712,16.863752,34.826092,-20.608109,-1.448488,0.530485,1.519881,-0.155778,0.000000,0.000000,0.000000,0.000000,0.000000,0.000000
14685940.000000,-2.409967,-1.662418,1.045792,-1.360037,1.790263,1.088432,-0.552524,0.376495,0.002711,0.251801,-0.309958,-0.399077,0.536764,-0.172606,17.085920,34.798321,-20.512894,-1.496095,0.482877,1.519881,-0.208878,0.000000,0.000000,0.000000,0.000000,0.000000,0.000000
14685941.000000,-2.409550,-1.662416,1.046076,-1.360412,1.789826,1.089024,-0.552702,0.389144,0.002597,0.264460,-0.326633,-0.406795,0.553896,-0.174555,17.260481,34.774517,-20.485123,-1.373109,0.458158,1.507064,-0.142960,0.000000,0.000000,0.000000,0.000000,0.000000,0.000000
14685942.000000,-2.409114,-1.662414,1.046369,-1.360792,1.789367,1.089647,-0.552865,0.403891,0.002462,0.275260,-0.343075,-0.420100,0.572123,-0.167634,17.435041,34.750713,-20.413712,-1.198549,0.393156,1.461288,-0.196061,0.000000,0.000000,0.000000,0.000000,0.000000,0.000000
14685943.000000,-2.408671,-1.662410,1.046662,-1.361188,1.788897,1.090281,-0.553034,0.424701,0.005488,0.282697,-0.360858,-0.444244,0.592484,-0.168636,17.657209,34.726910,-20.290726,-1.027956,0.374845,1.377059,-0.188737,0.000000,0.000000,0.000000,0.000000,0.000000,0.000000
14685944.000000,-2.408217,-1.662408,1.046975,-1.361602,1.788412,1.090940,-0.553204,0.434558,0.004577,0.292307,-0.384203,-0.456657,0.609677,-0.167907,17.978559,34.703106,-20.191544,-0.754213,0.393156,1.350509,-0.142960,0.000000,0.000000,0.000000,0.000000,0.000000,0.000000
14685945.000000,-2.407740,-1.662395,1.047301,-1.362038,1.787903,1.091614,-0.553363,0.442924,0.006756,0.301506,-0.400376,-0.466894,0.631228,-0.165606,18.276106,34.556316,-20.191544,-0.484438,0.446256,1.337692,-0.208878,0.000000,0.000000,0.000000,0.000000,0.000000,0.000000
14685946.000000,-2.407253,-1.662388,1.047626,-1.362476,1.787398,1.092302,-0.553532,0.448021,0.007870,0.312416,-0.410543,-0.476964,0.649707,-0.168549,18.224531,34.556316,-20.092361,-0.409059,0.547880,1.299239,-0.196061,0.000000,0.000000,0.000000,0.000000,0.000000,0.000000
14685947.000000,-2.406771,-1.662375,1.047963,-1.362935,1.786872,1.093029,-0.553696,0.446120,0.006869,0.322064,-0.428574,-0.493687,0.677932,-0.168807,17.681013,34.504742,-19.822586,-0.456667,0.667814,1.240646,-0.202470,0.000000,0.000000,0.000000,0.000000,0.000000,0.000000
14685948.000000,-2.406290,-1.662362,1.048322,-1.363413,1.786346,1.093759,-0.553860,0.457691,0.008325,0.338545,-0.445945,-0.500117,0.689959,-0.165031,16.344038,34.357952,-19.481400,-0.730409,0.757535,1.318465,-0.196061,0.000000,0.000000,0.000000,0.000000,0.000000,0.000000
14685949.000000,-2.405814,-1.662343,1.048714,-1.363912,1.785822,1.094497,-0.554020,0.463002,0.013208,0.356994,-0.458440,-0.506156,0.702229,-0.161507,14.586530,34.040569,-18.989456,-1.099367,0.876554,1.435653,-0.196061,0.000000,0.000000,0.000000,0.000000,0.000000,0.000000
14685950.000000,-2.405346,-1.662326,1.049139,-1.364408,1.785302,1.095268,-0.554174,0.468425,0.012949,0.378944,-0.469232,-0.502496,0.722538,-0.157194,12.654462,33.600201,-18.449905,-1.571474,0.799650,1.467696,-0.241837,0.000000,0.000000,0.000000,0.000000,0.000000,0.000000
14685951.000000,-2.404893,-1.662320,1.049573,-1.364907,1.784807,1.096048,-0.554344,0.468489,0.010560,0.396915,-0.474297,-0.493919,0.736049,-0.164530,10.825543,33.235210,-17.787369,-2.138796,0.655912,1.344100,-0.163102,0.000000,0.000000,0.000000,0.000000,0.000000,0.000000
14685952.000000,-2.404442,-1.662319,1.050044,-1.365423,1.784307,1.096839,-0.554501,0.468172,0.007613,0.414319,-0.480792,-0.494744,0.751970,-0.164786,9.091840,32.913860,-17.172440,-2.384767,0.428861,1.182052,-0.215287,0.000000,0.000000,0.000000,0.000000,0.000000,0.000000
14685953.000000,-2.403988,-1.662316,1.050540,-1.365929,1.783818,1.097630,-0.554668,0.465471,0.005152,0.436665,-0.486964,-0.480351,0.765492,-0.162627,7.580305,32.596478,-16.632889,-2.706117,0.171598,1.071273,-0.175919,0.000000,0.000000,0.000000,0.000000,0.000000,0.000000
14685954.000000,-2.403543,-1.662315,1.051028,-1.366437,1.783334,1.098412,-0.554832,0.458858,0.005902,0.451643,-0.487633,-0.483436,0.767124,-0.164872,6.267133,32.302898,-16.017960,-2.928285,0.015958,0.941268,-0.169511,0.000000,0.000000,0.000000,0.000000,0.000000,0.000000
14685955.000000,-2.403095,-1.662328,1.051526,-1.366929,1.782850,1.099189,-0.555000,0.453969,0.002504,0.456965,-0.487133,-0.482626,0.764350,-0.166627,5.203901,32.179913,-15.331619,-3.202028,-0.067355,0.889083,-0.149369,0.000000,0.000000,0.000000,0.000000,0.000000,0.000000
14685956.000000,-2.402651,-1.662331,1.052022,-1.367405,1.782366,1.099950,-0.555170,0.452137,0.002402,0.470901,-0.478771,-0.480539,0.775348,-0.168485,4.263654,31.961712,-14.716690,-3.622560,0.046171,0.895492,-0.122819,0.000000,0.000000,0.000000,0.000000,0.000000,0.000000
14685957.000000,-2.402201,-1.662337,1.052527,-1.367869,1.781869,1.100718,-0.555320,0.451883,-0.001115,0.479804,-0.475225,-0.484754,0.768442,-0.166087,3.446393,31.763348,-14.177139,-3.991518,0.207303,0.928451,-0.196061,0.000000,0.000000,0.000000,0.000000,0.000000,0.000000
14685958.000000,-2.401744,-1.662342,1.053037,-1.368343,1.781380,1.101485,-0.555482,0.454158,-0.003260,0.484120,-0.472065,-0.485398,0.764318,-0.162695,2.680707,31.545147,-13.689163,-4.241457,0.315336,0.934859,-0.188737,0.000000,0.000000,0.000000,0.000000,0.000000,0.000000
14685959.000000,-2.401285,-1.662349,1.053531,-1.368820,1.780902,1.102255,-0.555648,0.456352,-0.003468,0.485316,-0.468991,-0.486029,0.766060,-0.167159,1.934858,31.398357,-13.121841,-4.241457,0.428861,0.830489,-0.188737,0.000000,0.000000,0.000000,0.000000,0.000000,0.000000
14685960.000000,-2.400823,-1.662350,1.054041,-1.369305,1.780423,1.103024,-0.555812,0.454767,-0.004380,0.489431,-0.475519,-0.481663,0.763191,-0.169611,1.292158,31.152386,-12.756851,-3.991518,0.440763,0.811263,-0.155778,0.000000,0.000000,0.000000,0.000000,0.000000,0.000000
14685961.000000,-2.400352,-1.662351,1.054547,-1.369795,1.779966,1.103764,-0.555964,0.467321,-0.006198,0.490690,-0.479827,-0.483479,0.754871,-0.162398,0.574079,30.957989,-12.387894,-3.670168,0.381254,0.850631,-0.221696,0.000000,0.000000,0.000000,0.000000,0.000000,0.000000
14685962.000000,-2.399874,-1.662346,1.055061,-1.370281,1.779507,1.104519,-0.556124,0.467776,-0.002155,0.494456,-0.488867,-0.474396,0.752227,-0.161949,-0.044818,30.664410,-12.018936,-3.277406,0.225614,0.922042,-0.182328,0.000000,0.000000,0.000000,0.000000,0.000000,0.000000
14685963.000000,-2.399397,-1.662337,1.055593,-1.370760,1.779049,1.105286,-0.556290,0.465664,0.003873,0.501499,-0.490854,-0.465160,0.757016,-0.160950,-0.564532,30.370831,-11.848343,-3.027467,0.123990,0.915633,-0.130143,0.000000,0.000000,0.000000,0.000000,0.000000,0.000000
14685964.000000,-2.398939,-1.662321,1.056115,-1.371226,1.778607,1.106034,-0.556436,0.463492,0.006994,0.507522,-0.481323,-0.459263,0.747376,-0.155331,-0.909686,30.001873,-11.602371,-2.956056,0.022367,0.908309,-0.215287,0.000000,0.000000,0.000000,0.000000,0.000000,0.000000
14685965.000000,-2.398467,-1.662304,1.056660,-1.371679,1.778152,1.106785,-0.556594,0.464958,0.009586,0.518321,-0.474809,-0.456850,0.746421,-0.161678,-1.254840,29.609112,-11.526993,-3.027467,-0.007845,0.993453,-0.149369,0.000000,0.000000,0.000000,0.000000,0.000000,0.000000
14685966.000000,-2.398001,-1.662282,1.057206,-1.372132,1.777693,1.107539,-0.556741,0.460716,0.011765,0.525929,-0.464605,-0.454866,0.745935,-0.156834,-1.453204,29.196514,-11.404007,-3.055238,0.069974,1.084090,-0.202470,0.000000,0.000000,0.000000,0.000000,0.000000,0.000000
14685967.000000,-2.397531,-1.662267,1.057750,-1.372581,1.777243,1.108292,-0.556897,0.465877,0.011664,0.532659,-0.455072,-0.454437,0.748755,-0.155352,-1.726946,28.851360,-11.209610,-3.225832,0.189908,1.096908,-0.208878,0.000000,0.000000,0.000000,0.000000,0.000000,0.000000
14685968.000000,-2.397055,-1.662246,1.058313,-1.373021,1.776783,1.109050,-0.557060,0.466939,0.015229,0.541972,-0.452723,-0.457558,0.750016,-0.156181,-2.024493,28.486370,-11.086624,-3.325014,0.308927,1.077682,-0.155778,0.000000,0.000000,0.000000,0.000000,0.000000,0.000000
14685969.000000,-2.396577,-1.662231,1.058872,-1.373469,1.776343,1.109804,-0.557209,0.469675,0.015649,0.546214,-0.446503,-0.454885,0.751150,-0.152561,-2.369647,28.216595,-10.963638,-3.448000,0.398649,0.960494,-0.208878,0.000000,0.000000,0.000000,0.000000,0.000000,0.000000
14685970.000000,-2.396085,-1.662218,1.059449,-1.373904,1.775905,1.110575,-0.557361,0.475924,0.013813,0.554972,-0.444970,-0.450726,0.753010,-0.151518,-2.790179,28.046001,-10.816849,-3.475771,0.320829,0.817672,-0.229020,0.000000,0.000000,0.000000,0.000000,0.000000,0.000000
14685971.000000,-2.395597,-1.662205,1.060042,-1.374343,1.775467,1.111330,-0.557518,0.476464,0.011628,0.566362,-0.438999,-0.443418,0.759177,-0.152629,-3.139300,27.923016,-10.741470,-3.547182,0.243009,0.771896,-0.196061,0.000000,0.000000,0.000000,0.000000,0.000000,0.000000
14685972.000000,-2.395110,-1.662199,1.060623,-1.374785,1.775056,1.112070,-0.557672,0.484064,0.007409,0.570823,-0.439837,-0.435337,0.755739,-0.153335,-3.536028,27.923016,-10.618484,-3.547182,0.076383,0.817672,-0.163102,0.000000,0.000000,0.000000,0.000000,0.000000,0.000000
14685973.000000,-2.394614,-1.662197,1.061225,-1.375221,1.774633,1.112814,-0.557817,0.485356,0.007146,0.581474,-0.438769,-0.433945,0.748972,-0.151255,-3.928790,27.946819,-10.471695,-3.475771,-0.079257,0.960494,-0.202470,0.000000,0.000000,0.000000,0.000000,0.000000,0.000000
14685974.000000,-2.394125,-1.662195,1.061825,-1.375653,1.774207,1.113540,-0.557971,0.485757,0.003709,0.587935,-0.434649,-0.434282,0.756165,-0.153443,-4.250140,27.994427,-10.348709,-3.499574,-0.097567,1.084090,-0.149369,0.000000,0.000000,0.000000,0.000000,0.000000,0.000000
14685975.000000,-2.393632,-1.662189,1.062454,-1.376076,1.773781,1.114287,-0.558117,0.487827,0.003073,0.602671,-0.439757,-0.435452,0.750075,-0.152754,-4.523882,27.970623,-10.348709,-3.499574,-0.085665,1.123458,-0.175919,0.000000,0.000000,0.000000,0.000000,0.000000,0.000000
14685976.000000,-2.393117,-1.662188,1.063088,-1.376498,1.773339,1.115048,-0.558264,0.495488,0.002082,0.611850,-0.436001,-0.437866,0.757792,-0.144701,-5.043597,27.970623,-10.301102,-3.670168,-0.019747,1.071273,-0.221696,0.000000,0.000000,0.000000,0.000000,0.000000,0.000000
14685977.000000,-2.392619,-1.662185,1.063722,-1.376927,1.772897,1.115789,-0.558418,0.496650,0.001413,0.617470,-0.433854,-0.438418,0.747947,-0.149346,-5.364947,27.970623,-10.324905,-3.697939,0.147794,1.064864,-0.149369,0.000000,0.000000,0.000000,0.000000,0.000000,0.000000
14685978.000000,-2.392118,-1.662192,1.064381,-1.377351,1.772465,1.116538,-0.558559,0.493326,-0.000803,0.630959,-0.432575,-0.434406,0.745622,-0.141573,-5.686297,28.046001,-10.424088,-3.697939,0.231107,1.039230,-0.241837,0.000000,0.000000,0.000000,0.000000,0.000000,0.000000
14685979.000000,-2.391613,-1.662197,1.065039,-1.377770,1.772034,1.117283,-0.558715,0.502840,-0.002749,0.643809,-0.425098,-0.442515,0.741611,-0.145923,-5.936236,28.141216,-10.570877,-3.797121,0.285123,1.077682,-0.208878,0.000000,0.000000,0.000000,0.000000,0.000000,0.000000
14685980.000000,-2.391118,-1.662205,1.065710,-1.378191,1.771608,1.118017,-0.558867,0.499624,-0.004142,0.656473,-0.430580,-0.438696,0.737747,-0.144314,-6.158404,28.240398,-10.618484,-3.769350,0.255826,1.155502,-0.163102,0.000000,0.000000,0.000000,0.000000,0.000000,0.000000
14685981.000000,-2.390614,-1.662219,1.066402,-1.378601,1.771191,1.118768,-0.559005,0.497213,-0.007301,0.663583,-0.420812,-0.433486,0.746518,-0.138708,-6.380572,28.434795,-10.693863,-3.892336,0.166105,1.142684,-0.229020,0.000000,0.000000,0.000000,0.000000,0.000000,0.000000
14685982.000000,-2.390120,-1.662234,1.067080,-1.379013,1.770775,1.119514,-0.559160,0.497936,-0.008852,0.666011,-0.416302,-0.426331,0.746941,-0.145548,-6.555132,28.605389,-10.618484,-4.019289,0.093778,1.071273,-0.155778,0.000000,0.000000,0.000000,0.000000,0.000000,0.000000
14685983.000000,-2.389615,-1.662242,1.067782,-1.379415,1.770360,1.120268,-0.559302,0.496251,-0.008217,0.675868,-0.411295,-0.422631,0.745004,-0.141848,-6.777300,28.704571,-10.547073,-4.118471,0.058073,1.052047,-0.182328,0.000000,0.000000,0.000000,0.000000,0.000000,0.000000
14685984.000000,-2.389106,-1.662256,1.068494,-1.379827,1.769950,1.121012,-0.559451,0.495856,-0.012561,0.681985,-0.408384,-0.419595,0.741835,-0.143936,-6.999468,28.875164,-10.471695,-4.166078,0.010465,1.064864,-0.202470,0.000000,0.000000,0.000000,0.000000,0.000000,0.000000
14685985.000000,-2.388605,-1.662271,1.069202,-1.380238,1.769531,1.121751,-0.559595,0.498994,-0.013270,0.691430,-0.404573,-0.421291,0.739586,-0.145445,-7.245440,29.073528,-10.324905,-4.166078,0.069974,1.077682,-0.215287,0.000000,0.000000,0.000000,0.000000,0.000000,0.000000
14685986.000000,-2.388100,-1.662282,1.069913,-1.380645,1.769111,1.122497,-0.559748,0.499098,-0.011915,0.690125,-0.405106,-0.417940,0.742027,-0.149163,-7.443804,29.196514,-10.031326,-4.142274,0.159696,1.071273,-0.169511,0.000000,0.000000,0.000000,0.000000,0.000000,0.000000
14685987.000000,-2.387594,-1.662290,1.070631,-1.381052,1.768700,1.123233,-0.559895,0.501312,-0.009757,0.702261,-0.402708,-0.418372,0.734016,-0.150026,-7.693743,29.267925,-9.809158,-4.189882,0.189908,0.999862,-0.155778,0.000000,0.000000,0.000000,0.000000,0.000000,0.000000
14685988.000000,-2.387090,-1.662296,1.071367,-1.381456,1.768285,1.123977,-0.560035,0.499044,-0.010307,0.711009,-0.404420,-0.416642,0.734403,-0.148009,-7.892107,29.291729,-9.590958,-4.265260,0.171598,0.999862,-0.215287,0.000000,0.000000,0.000000,0.000000,0.000000,0.000000
14685989.000000,-2.386584,-1.662294,1.072116,-1.381855,1.767872,1.124732,-0.560184,0.499666,-0.004986,0.724313,-0.395196,-0.410266,0.740480,-0.146669,-8.062701,29.196514,-9.368790,-4.388246,0.129484,0.960494,-0.155778,0.000000,0.000000,0.000000,0.000000,0.000000,0.000000
14685990.000000,-2.386085,-1.662294,1.072857,-1.382259,1.767466,1.125479,-0.560313,0.500242,-0.001818,0.730192,-0.396205,-0.411110,0.741065,-0.144020,-8.213458,29.121136,-9.099014,-4.439821,0.117582,0.915633,-0.229020,0.000000,0.000000,0.000000,0.000000,0.000000,0.000000
14685991.000000,-2.385580,-1.662296,1.073614,-1.382648,1.767055,1.126218,-0.560456,0.499536,-0.003980,0.740066,-0.393522,-0.405932,0.739686,-0.142336,-8.360248,29.097332,-8.876846,-4.511232,0.093778,1.006271,-0.215287,0.000000,0.000000,0.000000,0.000000,0.000000,0.000000
14685992.000000,-2.385088,-1.662291,1.074379,-1.383043,1.766657,1.126948,-0.560604,0.508692,-0.000738,0.749290,-0.393100,-0.404485,0.748751,-0.142330,-8.483233,28.998150,-8.753860,-4.610414,0.046171,1.142684,-0.163102,0.000000,0.000000,0.000000,0.000000,0.000000,0.000000
14685993.000000,-2.384591,-1.662280,1.075168,-1.383429,1.766263,1.127711,-0.560737,0.502463,0.003751,0.762863,-0.388911,-0.404513,0.753120,-0.142100,-8.582416,28.803753,-8.777664,-4.634218,-0.031649,1.077682,-0.229020,0.000000,0.000000,0.000000,0.000000,0.000000,0.000000
14685994.000000,-2.384098,-1.662273,1.075970,-1.383810,1.765851,1.128486,-0.560885,0.497645,0.004593,0.772032,-0.389416,-0.403609,0.760941,-0.142272,-8.558612,28.704571,-8.682449,-4.784975,-0.007845,0.863448,-0.155778,0.000000,0.000000,0.000000,0.000000,0.000000,0.000000
14685995.000000,-2.383618,-1.662263,1.076777,-1.384188,1.765462,1.129253,-0.561021,0.491868,0.006324,0.786488,-0.383238,-0.395329,0.764903,-0.140713,-8.534808,28.557781,-8.777664,-4.931764,-0.067355,0.700484,-0.155778,0.000000,0.000000,0.000000,0.000000,0.000000,0.000000
14685996.000000,-2.383125,-1.662249,1.077604,-1.384569,1.765071,1.130003,-0.561156,0.490854,0.013776,0.794989,-0.385166,-0.394526,0.762486,-0.136513,-8.558612,28.410992,-8.876846,-4.955568,-0.091158,0.771896,-0.215287,0.000000,0.000000,0.000000,0.000000,0.000000,0.000000
14685997.000000,-2.382637,-1.662241,1.078421,-1.384946,1.764677,1.130740,-0.561303,0.499783,0.012936,0.812290,-0.380177,-0.392135,0.749248,-0.138463,-8.411822,28.533978,-9.146622,-5.078554,-0.055453,0.947677,-0.149369,0.000000,0.000000,0.000000,0.000000,0.000000,0.000000
14685998.000000,-2.382163,-1.662234,1.079232,-1.385323,1.764294,1.131483,-0.561436,0.491754,0.012924,0.806313,-0.387629,-0.388942,0.750895,-0.135993,-8.161883,28.926739,-9.515579,-5.177736,-0.049044,1.077682,-0.169511,0.000000,0.000000,0.000000,0.000000,0.000000,0.000000
14685999.000000,-2.381683,-1.662228,1.080045,-1.385695,1.763913,1.132250,-0.561573,0.487979,0.008106,0.801631,-0.380177,-0.381177,0.759403,-0.140864,-7.741351,29.561504,-10.324905,-5.276918,-0.037142,1.110641,-0.149369,0.000000,0.000000,0.000000,0.000000,0.000000,0.000000
14686000.000000,-2.381207,-1.662215,1.080836,-1.386075,1.763533,1.133005,-0.561714,0.487885,0.010518,0.800369,-0.379446,-0.381561,0.754001,-0.138973,-7.245440,30.247845,-11.257217,-5.276918,-0.001437,1.110641,-0.155778,0.000000,0.000000,0.000000,0.000000,0.000000,0.000000
14686001.000000,-2.380719,-1.662202,1.081633,-1.386460,1.763158,1.133773,-0.561855,0.485646,0.009523,0.794168,-0.382212,-0.376600,0.756975,-0.141635,-6.801104,31.080975,-12.336319,-5.153932,0.027860,1.182052,-0.169511,0.000000,0.000000,0.000000,0.000000,0.000000,0.000000
14686002.000000,-2.380230,-1.662179,1.082418,-1.386846,1.762779,1.134544,-0.561995,0.484010,0.012230,0.789073,-0.384923,-0.375699,0.759077,-0.142616,-6.356768,31.791119,-13.244827,-4.983339,0.135892,1.259872,-0.202470,0.000000,0.000000,0.000000,0.000000,0.000000,0.000000
14686003.000000,-2.379740,-1.662158,1.083186,-1.387245,1.762399,1.135299,-0.562134,0.483204,0.013819,0.785498,-0.388550,-0.383432,0.755809,-0.144892,-6.035418,32.548870,-14.054153,-4.733400,0.213712,1.324874,-0.208878,0.000000,0.000000,0.000000,0.000000,0.000000,0.000000
14686004.000000,-2.379251,-1.662134,1.083973,-1.387632,1.762012,1.136046,-0.562282,0.479427,0.015105,0.787183,-0.389536,-0.383412,0.753285,-0.148021,-5.614886,33.183636,-14.867447,-4.535036,0.279630,1.481429,-0.169511,0.000000,0.000000,0.000000,0.000000,0.000000,0.000000
14686005.000000,-2.378766,-1.662105,1.084755,-1.388027,1.761631,1.136790,-0.562418,0.481448,0.019324,0.788758,-0.388481,-0.383089,0.746728,-0.146492,-5.364947,33.675579,-15.601395,-4.388246,0.327238,1.572067,-0.229020,0.000000,0.000000,0.000000,0.000000,0.000000,0.000000
14686006.000000,-2.378288,-1.662076,1.085551,-1.388416,1.761245,1.137559,-0.562567,0.476682,0.020286,0.790578,-0.384666,-0.386741,0.751201,-0.145105,-4.995989,34.115948,-16.240128,-4.265260,0.344633,1.539108,-0.188737,0.000000,0.000000,0.000000,0.000000,0.000000,0.000000
14686007.000000,-2.377804,-1.662041,1.086365,-1.388808,1.760858,1.138316,-0.562707,0.474834,0.024078,0.791108,-0.386436,-0.383076,0.751730,-0.141919,-4.698443,34.409527,-16.831253,-4.213686,0.320829,1.572067,-0.163102,0.000000,0.000000,0.000000,0.000000,0.000000,0.000000
14686008.000000,-2.377334,-1.662021,1.087169,-1.389200,1.760468,1.139055,-0.562837,0.474421,0.022964,0.795057,-0.385965,-0.382887,0.744777,-0.138216,-4.448504,34.849895,-17.394608,-4.241457,0.356534,1.656295,-0.235429,0.000000,0.000000,0.000000,0.000000,0.000000,0.000000
14686009.000000,-2.376860,-1.662002,1.087993,-1.389587,1.760079,1.139799,-0.562984,0.472773,0.020068,0.797508,-0.388816,-0.387088,0.743068,-0.138457,-4.178729,35.238689,-17.886551,-4.289064,0.398649,1.747848,-0.196061,0.000000,0.000000,0.000000,0.000000,0.000000,0.000000
14686010.000000,-2.376390,-1.661993,1.088814,-1.389972,1.759696,1.140532,-0.563122,0.475131,0.012836,0.802018,-0.381234,-0.391581,0.756416,-0.136183,-4.004168,35.706829,-18.398331,-4.463624,0.393156,1.760665,-0.215287,0.000000,0.000000,0.000000,0.000000,0.000000,0.000000
14686011.000000,-2.375920,-1.661994,1.089664,-1.390346,1.759314,1.141287,-0.563267,0.469308,0.006443,0.813093,-0.379178,-0.391408,0.754320,-0.137357,-3.805804,36.218609,-18.989456,-4.661989,0.351041,1.682845,-0.163102,0.000000,0.000000,0.000000,0.000000,0.000000,0.000000
14686012.000000,-2.375447,-1.662003,1.090514,-1.390717,1.758934,1.142038,-0.563397,0.469742,0.000700,0.819269,-0.378279,-0.390804,0.751712,-0.133740,-3.659014,36.781963,-19.481400,-4.983339,0.308927,1.624252,-0.215287,0.000000,0.000000,0.000000,0.000000,0.000000,0.000000
14686013.000000,-2.374985,-1.662021,1.091358,-1.391083,1.758544,1.142767,-0.563536,0.465956,-0.004637,0.823094,-0.377812,-0.393464,0.744141,-0.138790,-3.484454,37.392925,-19.921768,-5.304689,0.332731,1.605026,-0.175919,0.000000,0.000000,0.000000,0.000000,0.000000,0.000000
14686014.000000,-2.374514,-1.662048,1.092198,-1.391439,1.758159,1.143496,-0.563671,0.466014,-0.009467,0.819217,-0.369053,-0.390334,0.738741,-0.141012,-3.361468,38.055462,-20.143936,-5.598268,0.369352,1.689254,-0.196061,0.000000,0.000000,0.000000,0.000000,0.000000,0.000000
14686015.000000,-2.374046,-1.662079,1.093035,-1.391796,1.757773,1.144223,-0.563802,0.474641,-0.017452,0.835282,-0.366803,-0.390337,0.734197,-0.138696,-3.286089,38.642620,-20.338333,-5.820436,0.452665,1.812850,-0.208878,0.000000,0.000000,0.000000,0.000000,0.000000,0.000000
14686016.000000,-2.373572,-1.662114,1.093875,-1.392158,1.757387,1.144944,-0.563935,0.475097,-0.023424,0.832532,-0.363654,-0.387600,0.727679,-0.138195,-3.385272,39.229778,-20.485123,-5.994997,0.470060,1.890670,-0.182328,0.000000,0.000000,0.000000,0.000000,0.000000,0.000000
14686017.000000,-2.373093,-1.662148,1.094715,-1.392508,1.756997,1.145685,-0.564061,0.475728,-0.026222,0.826375,-0.358652,-0.385177,0.735699,-0.130645,-3.536028,39.745525,-20.461319,-6.141786,0.500272,1.844894,-0.215287,0.000000,0.000000,0.000000,0.000000,0.000000,0.000000
14686018.000000,-2.372626,-1.662188,1.095539,-1.392862,1.756624,1.146417,-0.564199,0.473044,-0.028358,0.823303,-0.356677,-0.382436,0.734363,-0.133359,-3.659014,40.257305,-20.461319,-6.316347,0.476469,1.773483,-0.169511,0.000000,0.000000,0.000000,0.000000,0.000000,0.000000
14686019.000000,-2.372144,-1.662225,1.096373,-1.393201,1.756245,1.147155,-0.564327,0.472934,-0.030968,0.818550,-0.349449,-0.379265,0.733795,-0.131931,-3.904986,40.673870,-20.389908,-6.490907,0.434354,1.793624,-0.196061,0.000000,0.000000,0.000000,0.000000,0.000000,0.000000
14686020.000000,-2.371666,-1.662263,1.097211,-1.393549,1.755865,1.147882,-0.564458,0.476542,-0.033125,0.820959,-0.347143,-0.374062,0.727963,-0.131141,-4.027972,41.090435,-20.362137,-6.661500,0.428861,1.844894,-0.215287,0.000000,0.000000,0.000000,0.000000,0.000000,0.000000
14686021.000000,-2.371188,-1.662298,1.098034,-1.393901,1.755495,1.148612,-0.564591,0.477802,-0.030706,0.820326,-0.347916,-0.371410,0.729427,-0.133435,-4.226336,41.459393,-20.239151,-6.736879,0.458158,1.871444,-0.163102,0.000000,0.000000,0.000000,0.000000,0.000000,0.000000
14686022.000000,-2.370705,-1.662330,1.098874,-1.394234,1.755132,1.149354,-0.564715,0.478524,-0.030373,0.822002,-0.347527,-0.370803,0.732383,-0.130326,-4.476275,41.752972,-20.266922,-6.982851,0.416959,1.819259,-0.235429,0.000000,0.000000,0.000000,0.000000,0.000000,0.000000
14686023.000000,-2.370228,-1.662352,1.099701,-1.394576,1.754767,1.150091,-0.564849,0.479664,-0.028212,0.823320,-0.341514,-0.367657,0.730227,-0.127468,-4.698443,41.947369,-20.239151,-7.181215,0.410551,1.656295,-0.202470,0.000000,0.000000,0.000000,0.000000,0.000000,0.000000
14686024.000000,-2.369743,-1.662380,1.100546,-1.394901,1.754408,1.150832,-0.564978,0.483626,-0.025569,0.828614,-0.336378,-0.358754,0.733095,-0.125007,-4.944415,42.217144,-20.362137,-7.427186,0.356534,1.605026,-0.182328,0.000000,0.000000,0.000000,0.000000,0.000000,0.000000
14686025.000000,-2.369265,-1.662397,1.101387,-1.395231,1.754049,1.151573,-0.565097,0.475751,-0.021543,0.829319,-0.337169,-0.357955,0.733607,-0.125002,-5.142779,42.264751,-20.389908,-7.625551,0.339139,1.597701,-0.235429,0.000000,0.000000,0.000000,0.000000,0.000000,0.000000
14686026.000000,-2.368793,-1.662423,1.102214,-1.395554,1.753688,1.152294,-0.565228,0.473307,-0.021469,0.833760,-0.330126,-0.358545,0.729956,-0.125732,-5.341143,42.411541,-20.413712,-7.875490,0.339139,1.702071,-0.149369,0.000000,0.000000,0.000000,0.000000,0.000000,0.000000
14686027.000000,-2.368317,-1.662444,1.103050,-1.395876,1.753330,1.153021,-0.565344,0.472390,-0.019406,0.830411,-0.326074,-0.352573,0.726030,-0.119802,-5.487933,42.463116,-20.389908,-8.069887,0.327238,1.812850,-0.221696,0.000000,0.000000,0.000000,0.000000,0.000000,0.000000
14686028.000000,-2.367844,-1.662466,1.103884,-1.396191,1.752984,1.153742,-0.565468,0.483889,-0.021563,0.834494,-0.318811,-0.358067,0.723002,-0.118605,-5.686297,42.534527,-20.560501,-8.268251,0.351041,1.858627,-0.221696,0.000000,0.000000,0.000000,0.000000,0.000000,0.000000
14686029.000000,-2.367365,-1.662486,1.104731,-1.396494,1.752628,1.154474,-0.565594,0.482614,-0.019060,0.840073,-0.323647,-0.353933,0.720946,-0.120492,-5.884661,42.558331,-20.707291,-8.518190,0.362943,1.877853,-0.182328,0.000000,0.000000,0.000000,0.000000,0.000000,0.000000
14686030.000000,-2.366883,-1.662504,1.105570,-1.396801,1.752282,1.155213,-0.565716,0.481185,-0.017370,0.840495,-0.316732,-0.348524,0.722502,-0.124602,-6.083025,42.582134,-20.707291,-8.764162,0.320829,1.800033,-0.163102,0.000000,0.000000,0.000000,0.000000,0.000000,0.000000
14686031.000000,-2.366412,-1.662528,1.106407,-1.397103,1.751938,1.155944,-0.565834,0.479160,-0.017688,0.841852,-0.310828,-0.346720,0.727910,-0.119936,-6.206011,42.657513,-20.905655,-9.033937,0.320829,1.747848,-0.208878,0.000000,0.000000,0.000000,0.000000,0.000000,0.000000
14686032.000000,-2.365949,-1.662549,1.107251,-1.397401,1.751596,1.156670,-0.565954,0.473902,-0.016549,0.847123,-0.307493,-0.343361,0.727361,-0.118229,-6.206011,42.681316,-21.100052,-9.283876,0.291532,1.825668,-0.221696,0.000000,0.000000,0.000000,0.000000,0.000000,0.000000
14686033.000000,-2.365478,-1.662568,1.108084,-1.397711,1.751258,1.157385,-0.566084,0.469600,-0.018288,0.846114,-0.304940,-0.345465,0.715065,-0.120028,-6.281390,42.681316,-21.246841,-9.383059,0.231107,1.962081,-0.163102,0.000000,0.000000,0.000000,0.000000,0.000000,0.000000
14686034.000000,-2.365027,-1.662587,1.108925,-1.397996,1.750918,1.158108,-0.566198,0.462265,-0.016666,0.847233,-0.297195,-0.337784,0.717105,-0.122226,-6.158404,42.681316,-21.346024,-9.728212,0.183500,1.936446,-0.196061,0.000000,0.000000,0.000000,0.000000,0.000000,0.000000
14686035.000000,-2.364582,-1.662604,1.109770,-1.398278,1.750590,1.158843,-0.566319,0.453469,-0.015078,0.843627,-0.290411,-0.326172,0.712741,-0.125692,-5.912432,42.657513,-21.445206,-10.124941,0.117582,1.877853,-0.175919,0.000000,0.000000,0.000000,0.000000,0.000000,0.000000
14686036.000000,-2.364146,-1.662614,1.110602,-1.398560,1.750269,1.159569,-0.566434,0.448297,-0.012101,0.843410,-0.285853,-0.327543,0.710553,-0.121277,-5.686297,42.558331,-21.568192,-10.493898,0.046171,1.851302,-0.221696,0.000000,0.000000,0.000000,0.000000,0.000000,0.000000
14686037.000000,-2.363707,-1.662631,1.111434,-1.398849,1.749937,1.160287,-0.566559,0.444003,-0.014833,0.838609,-0.287277,-0.328448,0.709431,-0.121200,-5.440325,42.534527,-21.540421,-10.692263,-0.025240,1.923629,-0.175919,0.000000,0.000000,0.000000,0.000000,0.000000,0.000000
14686038.000000,-2.363267,-1.662645,1.112271,-1.399149,1.749598,1.161019,-0.566680,0.441587,-0.012702,0.838635,-0.292011,-0.328651,0.716375,-0.118478,-5.218157,42.463116,-21.516617,-10.716066,0.015958,1.942855,-0.188737,0.000000,0.000000,0.000000,0.000000,0.000000,0.000000
14686039.000000,-2.362846,-1.662665,1.113104,-1.399440,1.749273,1.161751,-0.566800,0.435583,-0.017325,0.838599,-0.290948,-0.323355,0.724334,-0.120493,-4.920611,42.510723,-21.591995,-10.791445,0.046171,1.871444,-0.229020,0.000000,0.000000,0.000000,0.000000,0.000000,0.000000
14686040.000000,-2.362414,-1.662669,1.113948,-1.399740,1.748946,1.162483,-0.566928,0.433046,-0.012661,0.837583,-0.296532,-0.324109,0.720016,-0.119999,-4.746050,42.363934,-21.714981,-10.716066,-0.025240,1.773483,-0.196061,0.000000,0.000000,0.000000,0.000000,0.000000,0.000000
14686041.000000,-2.362001,-1.662686,1.114784,-1.400048,1.748615,1.163206,-0.567049,0.425238,-0.013540,0.839974,-0.302526,-0.328361,0.734338,-0.119306,-4.424700,42.387737,-21.909378,-10.517702,-0.031649,1.767074,-0.196061,0.000000,0.000000,0.000000,0.000000,0.000000,0.000000
14686042.000000,-2.361579,-1.662705,1.115639,-1.400343,1.748287,1.163936,-0.567175,0.421564,-0.015118,0.846812,-0.300848,-0.323181,0.734586,-0.122964,-4.178729,42.463116,-22.179153,-10.446291,-0.001437,1.773483,-0.182328,0.000000,0.000000,0.000000,0.000000,0.000000,0.000000
14686043.000000,-2.361174,-1.662724,1.116491,-1.400659,1.747960,1.164659,-0.567290,0.412428,-0.012422,0.841628,-0.304968,-0.323206,0.725565,-0.118875,-3.805804,42.510723,-22.425125,-10.271730,0.015958,1.877853,-0.229020,0.000000,0.000000,0.000000,0.000000,0.000000,0.000000
14686044.000000,-2.360774,-1.662749,1.117323,-1.400980,1.747621,1.165360,-0.567420,0.407559,-0.013194,0.841578,-0.308690,-0.329560,0.725526,-0.121039,-3.508257,42.681316,-22.571915,-10.049562,0.069974,2.098495,-0.149369,0.000000,0.000000,0.000000,0.000000,0.000000,0.000000
14686045.000000,-2.360371,-1.662771,1.118176,-1.401296,1.747285,1.166077,-0.567534,0.403159,-0.015498,0.838751,-0.311443,-0.327963,0.713942,-0.117221,-3.210711,42.804302,-22.964676,-9.827394,0.112089,2.215682,-0.196061,0.000000,0.000000,0.000000,0.000000,0.000000,0.000000
14686046.000000,-2.359974,-1.662793,1.119025,-1.401630,1.746954,1.166823,-0.567653,0.408627,-0.016588,0.847547,-0.314642,-0.335915,0.719104,-0.115962,-2.940936,42.903484,-23.333633,-9.529848,0.171598,2.118636,-0.202470,0.000000,0.000000,0.000000,0.000000,0.000000,0.000000
14686047.000000,-2.359581,-1.662821,1.119870,-1.401955,1.746618,1.167553,-0.567775,0.401533,-0.018507,0.842916,-0.325246,-0.334632,0.723735,-0.118641,-2.643389,43.050274,-23.504227,-9.355288,0.243009,1.988631,-0.155778,0.000000,0.000000,0.000000,0.000000,0.000000,0.000000
14686048.000000,-2.359184,-1.662857,1.120722,-1.402305,1.746275,1.168289,-0.567886,0.400758,-0.025215,0.844201,-0.336356,-0.336402,0.723543,-0.118985,-2.421221,43.292278,-23.627213,-8.986330,0.273221,1.909896,-0.229020,0.000000,0.000000,0.000000,0.000000,0.000000,0.000000
14686049.000000,-2.358799,-1.662892,1.121567,-1.402656,1.745930,1.169000,-0.568011,0.395919,-0.028853,0.845433,-0.339015,-0.341448,0.724143,-0.119787,-2.123675,43.490643,-23.849380,-8.712587,0.398649,1.974899,-0.175919,0.000000,0.000000,0.000000,0.000000,0.000000,0.000000
14686050.000000,-2.358413,-1.662924,1.122412,-1.402997,1.745597,1.169706,-0.568126,0.390254,-0.033360,0.839328,-0.339230,-0.336304,0.709735,-0.121134,-1.778521,43.637432,-23.873184,-8.518190,0.416959,2.060043,-0.221696,0.000000,0.000000,0.000000,0.000000,0.000000,0.000000
14686051.000000,-2.358038,-1.662963,1.123238,-1.403355,1.745273,1.170425,-0.568245,0.382282,-0.038900,0.833697,-0.342286,-0.339329,0.706616,-0.120218,-1.381793,43.879436,-23.873184,-8.319826,0.356534,2.079269,-0.202470,0.000000,0.000000,0.000000,0.000000,0.000000,0.000000
14686052.000000,-2.357673,-1.662998,1.124082,-1.403707,1.744938,1.171144,-0.568364,0.376011,-0.038468,0.833463,-0.344800,-0.333849,0.702820,-0.124608,-0.961260,44.053997,-23.896988,-8.145266,0.339139,2.001449,-0.169511,0.000000,0.000000,0.000000,0.000000,0.000000,0.000000
14686053.000000,-2.357307,-1.663027,1.124930,-1.404075,1.744602,1.171870,-0.568482,0.371181,-0.035651,0.829857,-0.353334,-0.334868,0.703872,-0.121569,-0.540728,44.125408,-23.972366,-7.946901,0.344633,1.916305,-0.169511,0.000000,0.000000,0.000000,0.000000,0.000000,0.000000
14686054.000000,-2.356937,-1.663056,1.125759,-1.404449,1.744279,1.172574,-0.568599,0.369264,-0.033201,0.827805,-0.357337,-0.334786,0.710457,-0.119545,-0.290789,44.173016,-23.873184,-7.677125,0.315336,1.955673,-0.169511,0.000000,0.000000,0.000000,0.000000,0.000000,0.000000
14686055.000000,-2.356564,-1.663087,1.126594,-1.404827,1.743936,1.173296,-0.568707,0.365116,-0.032275,0.823830,-0.367197,-0.338792,0.711504,-0.116550,-0.092425,44.248394,-23.825577,-7.280397,0.381254,1.981307,-0.202470,0.000000,0.000000,0.000000,0.000000,0.000000,0.000000
14686056.000000,-2.356189,-1.663112,1.127438,-1.405200,1.743592,1.174035,-0.568823,0.366367,-0.032787,0.829054,-0.370070,-0.339013,0.718307,-0.116444,0.054365,44.248394,-23.849380,-7.058229,0.512174,1.851302,-0.182328,0.000000,0.000000,0.000000,0.000000,0.000000,0.000000
14686057.000000,-2.355823,-1.663130,1.128267,-1.405584,1.743264,1.174750,-0.568930,0.367079,-0.028648,0.831766,-0.373559,-0.330719,0.716305,-0.114787,0.205121,44.173016,-23.920792,-6.784486,0.547880,1.760665,-0.229020,0.000000,0.000000,0.000000,0.000000,0.000000,0.000000
14686058.000000,-2.355446,-1.663148,1.129102,-1.405962,1.742940,1.175462,-0.569049,0.368223,-0.025297,0.829165,-0.374102,-0.331746,0.714626,-0.117352,0.276533,44.077801,-23.896988,-6.613893,0.535978,1.890670,-0.155778,0.000000,0.000000,0.000000,0.000000,0.000000,0.000000
14686059.000000,-2.355082,-1.663168,1.129931,-1.406340,1.742612,1.176175,-0.569156,0.364514,-0.024084,0.832697,-0.369956,-0.333676,0.728426,-0.114311,0.427289,44.026226,-24.019974,-6.490907,0.530485,1.942855,-0.208878,0.000000,0.000000,0.000000,0.000000,0.000000,0.000000
14686060.000000,-2.354711,-1.663186,1.130774,-1.406730,1.742283,1.176908,-0.569268,0.366636,-0.019715,0.831322,-0.373398,-0.334588,0.728718,-0.113327,0.502668,43.954815,-24.119156,-6.240968,0.518583,1.871444,-0.235429,0.000000,0.000000,0.000000,0.000000,0.000000,0.000000
14686061.000000,-2.354333,-1.663199,1.131615,-1.407127,1.741955,1.177633,-0.569387,0.369751,-0.018376,0.829862,-0.378658,-0.326490,0.728027,-0.110094,0.502668,43.831829,-24.218338,-5.994997,0.524076,1.923629,-0.196061,0.000000,0.000000,0.000000,0.000000,0.000000,0.000000
14686062.000000,-2.353957,-1.663212,1.132442,-1.407528,1.741633,1.178335,-0.569496,0.372238,-0.013926,0.827654,-0.382691,-0.323606,0.716237,-0.108452,0.502668,43.685040,-24.265945,-5.749025,0.482877,2.053634,-0.221696,0.000000,0.000000,0.000000,0.000000,0.000000,0.000000
14686063.000000,-2.353578,-1.663221,1.133290,-1.407921,1.741298,1.179061,-0.569612,0.373083,-0.014512,0.830049,-0.382132,-0.323151,0.717282,-0.116198,0.502668,43.562054,-24.535721,-5.526857,0.506681,2.047225,-0.175919,0.000000,0.000000,0.000000,0.000000,0.000000,0.000000
14686064.000000,-2.353203,-1.663231,1.134118,-1.408316,1.740971,1.179792,-0.569718,0.379103,-0.012433,0.824842,-0.385604,-0.327226,0.716954,-0.112894,0.451093,43.466839,-24.658707,-5.376100,0.554288,1.949264,-0.241837,0.000000,0.000000,0.000000,0.000000,0.000000,0.000000
14686065.000000,-2.352828,-1.663239,1.134939,-1.408707,1.740650,1.180518,-0.569832,0.375790,-0.009540,0.822397,-0.394728,-0.322003,0.718471,-0.116365,0.451093,43.320049,-24.611099,-5.177736,0.584501,1.897079,-0.196061,0.000000,0.000000,0.000000,0.000000,0.000000,0.000000
14686066.000000,-2.352444,-1.663249,1.135776,-1.409095,1.740319,1.181238,-0.569941,0.374404,-0.009233,0.822005,-0.393850,-0.323566,0.719583,-0.110781,0.375715,43.244671,-24.658707,-5.106325,0.649503,1.949264,-0.196061,0.000000,0.000000,0.000000,0.000000,0.000000,0.000000
14686067.000000,-2.352074,-1.663255,1.136594,-1.409482,1.739992,1.181939,-0.570041,0.373066,-0.008257,0.822322,-0.387260,-0.324432,0.706915,-0.104891,0.451093,43.145489,-24.706314,-5.030946,0.691617,2.014266,-0.261979,0.000000,0.000000,0.000000,0.000000,0.000000,0.000000
14686068.000000,-2.351701,-1.663262,1.137411,-1.409860,1.739668,1.182658,-0.570147,0.369949,-0.005673,0.816595,-0.388337,-0.324005,0.713753,-0.108605,0.474897,43.097881,-24.583328,-4.983339,0.715421,2.039901,-0.229020,0.000000,0.000000,0.000000,0.000000,0.000000,0.000000
14686069.000000,-2.351324,-1.663268,1.138223,-1.410249,1.739359,1.183378,-0.570251,0.373185,-0.005517,0.813140,-0.387439,-0.316436,0.713830,-0.110198,0.427289,42.998699,-24.412735,-4.856386,0.667814,2.066451,-0.235429,0.000000,0.000000,0.000000,0.000000,0.000000,0.000000
14686070.000000,-2.350950,-1.663275,1.139034,-1.410636,1.739041,1.184103,-0.570359,0.374191,-0.006818,0.813592,-0.387515,-0.322577,0.717359,-0.112327,0.427289,42.951092,-24.365128,-4.733400,0.685209,2.001449,-0.208878,0.000000,0.000000,0.000000,0.000000,0.000000,0.000000
14686071.000000,-2.350570,-1.663269,1.139858,-1.411018,1.738729,1.184826,-0.570461,0.375170,-0.003390,0.809267,-0.387474,-0.315402,0.715841,-0.106801,0.375715,42.728924,-24.464310,-4.610414,0.649503,1.988631,-0.235429,0.000000,0.000000,0.000000,0.000000,0.000000,0.000000
14686072.000000,-2.350189,-1.663268,1.140660,-1.411402,1.738429,1.185549,-0.570569,0.378363,-0.002884,0.807064,-0.386356,-0.306286,0.716091,-0.108700,0.252729,42.582134,-24.388931,-4.487428,0.613798,1.988631,-0.248246,0.000000,0.000000,0.000000,0.000000,0.000000,0.000000
14686073.000000,-2.349810,-1.663275,1.141479,-1.411783,1.738136,1.186279,-0.570672,0.376304,-0.001262,0.811486,-0.386059,-0.305361,0.717924,-0.111750,0.177350,42.510723,-24.488113,-4.388246,0.613798,1.955673,-0.221696,0.000000,0.000000,0.000000,0.000000,0.000000,0.000000
14686074.000000,-2.349438,-1.663275,1.142298,-1.412167,1.737826,1.186999,-0.570777,0.374442,0.001277,0.808050,-0.382258,-0.305477,0.711104,-0.107206,0.252729,42.387737,-24.535721,-4.312868,0.632108,2.007858,-0.208878,0.000000,0.000000,0.000000,0.000000,0.000000,0.000000
14686075.000000,-2.349065,-1.663270,1.143114,-1.412558,1.737532,1.187709,-0.570884,0.372960,0.001665,0.810637,-0.383399,-0.299626,0.712988,-0.109385,0.228925,42.193340,-24.781693,-4.189882,0.620206,2.131454,-0.188737,0.000000,0.000000,0.000000,0.000000,0.000000,0.000000
14686076.000000,-2.348693,-1.663274,1.143927,-1.412933,1.737232,1.188427,-0.570982,0.367687,0.002183,0.804561,-0.379838,-0.299907,0.711818,-0.103144,0.328107,42.117962,-24.829300,-4.118471,0.625699,2.183639,-0.254655,0.000000,0.000000,0.000000,0.000000,0.000000,0.000000
14686077.000000,-2.348329,-1.663275,1.144733,-1.413313,1.736940,1.189144,-0.571094,0.361203,-0.000004,0.802261,-0.380010,-0.301199,0.726899,-0.103131,0.375715,42.022747,-25.003860,-4.043092,0.691617,2.104903,-0.196061,0.000000,0.000000,0.000000,0.000000,0.000000,0.000000
14686078.000000,-2.347962,-1.663278,1.145544,-1.413695,1.736637,1.189855,-0.571190,0.363920,0.000552,0.804086,-0.379692,-0.298483,0.723125,-0.099007,0.451093,41.971172,-25.051468,-3.868532,0.745634,2.144271,-0.248246,0.000000,0.000000,0.000000,0.000000,0.000000,0.000000
14686079.000000,-2.347589,-1.663286,1.146348,-1.414080,1.736339,1.190565,-0.571291,0.363913,-0.000678,0.800588,-0.381702,-0.298448,0.709724,-0.098176,0.474897,41.994976,-25.051468,-3.721742,0.727323,2.209274,-0.248246,0.000000,0.000000,0.000000,0.000000,0.000000,0.000000
14686080.000000,-2.347226,-1.663286,1.147139,-1.414463,1.736048,1.191261,-0.571397,0.362443,-0.001759,0.797224,-0.379694,-0.294437,0.705294,-0.099479,0.550275,41.899761,-25.003860,-3.598757,0.721830,2.267867,-0.208878,0.000000,0.000000,0.000000,0.000000,0.000000,0.000000
14686081.000000,-2.346872,-1.663295,1.147926,-1.414837,1.735760,1.191971,-0.571499,0.357719,-0.006404,0.790507,-0.381358,-0.290931,0.700320,-0.098581,0.748639,41.971172,-24.829300,-3.475771,0.715421,2.215682,-0.196061,0.000000,0.000000,0.000000,0.000000,0.000000,0.000000
14686082.000000,-2.346523,-1.663301,1.148703,-1.415210,1.735486,1.192698,-0.571604,0.359261,-0.005482,0.798497,-0.375824,-0.291294,0.706718,-0.097808,0.947004,41.994976,-24.658707,-3.475771,0.644010,2.157089,-0.182328,0.000000,0.000000,0.000000,0.000000,0.000000,0.000000
14686083.000000,-2.346182,-1.663304,1.149490,-1.415577,1.735191,1.193403,-0.571699,0.354366,-0.007307,0.794421,-0.373305,-0.292177,0.709257,-0.094766,1.244550,41.994976,-24.511917,-3.448000,0.584501,2.144271,-0.241837,0.000000,0.000000,0.000000,0.000000,0.000000,0.000000
14686084.000000,-2.345838,-1.663307,1.150274,-1.415948,1.734891,1.194116,-0.571809,0.351704,-0.006154,0.788217,-0.373403,-0.295685,0.710489,-0.096349,1.490522,42.022747,-24.242142,-3.475771,0.620206,2.125045,-0.196061,0.000000,0.000000,0.000000,0.000000,0.000000,0.000000
14686085.000000,-2.345496,-1.663305,1.151050,-1.416320,1.734599,1.194831,-0.571904,0.347315,-0.003927,0.783314,-0.367542,-0.295721,0.719878,-0.093657,1.740461,41.994976,-24.043777,-3.475771,0.698026,2.047225,-0.254655,0.000000,0.000000,0.000000,0.000000,0.000000,0.000000
14686086.000000,-2.345158,-1.663308,1.151823,-1.416690,1.734305,1.195560,-0.572009,0.340443,-0.002974,0.775466,-0.367888,-0.294777,0.719020,-0.101099,1.986432,41.994976,-23.726395,-3.424196,0.763029,1.923629,-0.188737,0.000000,0.000000,0.000000,0.000000,0.000000,0.000000
14686087.000000,-2.344813,-1.663300,1.152601,-1.417058,1.734010,1.196295,-0.572107,0.341067,0.000535,0.773335,-0.366383,-0.293161,0.718450,-0.103092,2.133222,41.875957,-23.528030,-3.448000,0.805143,1.800033,-0.208878,0.000000,0.000000,0.000000,0.000000,0.000000,0.000000
14686088.000000,-2.344469,-1.663292,1.153378,-1.417433,1.733726,1.197015,-0.572203,0.339376,0.003033,0.778749,-0.370899,-0.294798,0.725422,-0.100983,2.232404,41.752972,-23.504227,-3.376589,0.793241,1.708480,-0.241837,0.000000,0.000000,0.000000,0.000000,0.000000,0.000000
14686089.000000,-2.344124,-1.663283,1.154148,-1.417802,1.733451,1.197761,-0.572306,0.340156,0.004192,0.774700,-0.372937,-0.288307,0.729110,-0.105025,2.359357,41.653790,-23.333633,-3.225832,0.715421,1.611434,-0.221696,0.000000,0.000000,0.000000,0.000000,0.000000,0.000000
14686090.000000,-2.343782,-1.663272,1.154897,-1.418177,1.733182,1.198491,-0.572403,0.343461,0.006116,0.770349,-0.374767,-0.283301,0.736083,-0.102143,2.383161,41.507000,-23.040054,-3.003664,0.733732,1.591293,-0.229020,0.000000,0.000000,0.000000,0.000000,0.000000,0.000000
14686091.000000,-2.343442,-1.663259,1.155667,-1.418532,1.732915,1.199208,-0.572500,0.339616,0.007426,0.771383,-0.367816,-0.280749,0.721149,-0.102112,2.406965,41.360210,-22.917068,-3.027467,0.667814,1.721298,-0.188737,0.000000,0.000000,0.000000,0.000000,0.000000,0.000000
14686092.000000,-2.343101,-1.663239,1.156446,-1.418894,1.732634,1.199931,-0.572587,0.336539,0.011198,0.775360,-0.365890,-0.276072,0.718997,-0.097204,2.553754,41.090435,-22.940872,-2.928285,0.644010,1.865035,-0.261979,0.000000,0.000000,0.000000,0.000000,0.000000,0.000000
14686093.000000,-2.342759,-1.663220,1.157206,-1.419256,1.732369,1.200658,-0.572688,0.338091,0.013172,0.771526,-0.361509,-0.272965,0.721093,-0.103096,2.553754,40.844463,-22.841690,-2.956056,0.625699,1.800033,-0.215287,0.000000,0.000000,0.000000,0.000000,0.000000,0.000000
14686094.000000,-2.342410,-1.663203,1.157975,-1.419609,1.732094,1.201406,-0.572783,0.340390,0.013850,0.768676,-0.359666,-0.271906,0.725930,-0.100695,2.581525,40.626263,-22.817886,-2.928285,0.661405,1.624252,-0.221696,0.000000,0.000000,0.000000,0.000000,0.000000,0.000000
14686095.000000,-2.342060,-1.663180,1.158741,-1.419969,1.731828,1.202122,-0.572878,0.343118,0.018674,0.765317,-0.360895,-0.276405,0.738325,-0.097934,2.482343,40.356487,-22.940872,-2.904482,0.745634,1.617843,-0.254655,0.000000,0.000000,0.000000,0.000000,0.000000,0.000000
14686096.000000,-2.341711,-1.663157,1.159512,-1.420318,1.731554,1.202837,-0.572977,0.344062,0.021481,0.765310,-0.358469,-0.279181,0.727537,-0.097862,2.383161,40.110516,-23.040054,-2.904482,0.774930,1.760665,-0.235429,0.000000,0.000000,0.000000,0.000000,0.000000,0.000000
14686097.000000,-2.341363,-1.663136,1.160284,-1.420671,1.731282,1.203556,-0.573072,0.346155,0.023025,0.762504,-0.359410,-0.270233,0.717706,-0.096344,2.359357,39.892315,-23.040054,-2.928285,0.774930,1.825668,-0.248246,0.000000,0.000000,0.000000,0.000000,0.000000,0.000000
14686098.000000,-2.341021,-1.663117,1.161036,-1.421019,1.731021,1.204266,-0.573169,0.343607,0.022533,0.757614,-0.355000,-0.267708,0.713618,-0.097584,2.383161,39.745525,-22.917068,-3.027467,0.751127,1.812850,-0.208878,0.000000,0.000000,0.000000,0.000000,0.000000,0.000000
14686099.000000,-2.340669,-1.663088,1.161810,-1.421354,1.730772,1.204996,-0.573257,0.339684,0.024617,0.757397,-0.352489,-0.262237,0.713621,-0.095236,2.331586,39.499554,-22.988480,-3.126650,0.644010,1.832076,-0.248246,0.000000,0.000000,0.000000,0.000000,0.000000,0.000000
14686100.000000,-2.340314,-1.663061,1.162565,-1.421687,1.730525,1.205715,-0.573353,0.349619,0.025996,0.771057,-0.343890,-0.262648,0.717451,-0.095746,2.208601,39.253582,-22.964676,-3.348818,0.506681,1.897079,-0.229020,0.000000,0.000000,0.000000,0.000000,0.000000,0.000000
14686101.000000,-2.339960,-1.663032,1.163328,-1.422021,1.730266,1.206432,-0.573450,0.353919,0.027117,0.765994,-0.346765,-0.265950,0.713477,-0.095928,2.034040,39.011578,-22.893265,-3.400392,0.440763,1.884261,-0.215287,0.000000,0.000000,0.000000,0.000000,0.000000,0.000000
14686102.000000,-2.339607,-1.663011,1.164079,-1.422363,1.729998,1.207163,-0.573542,0.351029,0.028172,0.753745,-0.346253,-0.261845,0.721238,-0.095172,1.962629,38.888592,-22.623489,-3.376589,0.470060,1.786300,-0.221696,0.000000,0.000000,0.000000,0.000000,0.000000,0.000000
14686103.000000,-2.339244,-1.662988,1.164828,-1.422698,1.729734,1.207875,-0.573636,0.357750,0.026703,0.751316,-0.341890,-0.265989,0.716084,-0.095695,1.665082,38.741802,-22.448929,-3.348818,0.554288,1.773483,-0.202470,0.000000,0.000000,0.000000,0.000000,0.000000,0.000000
14686104.000000,-2.338885,-1.662965,1.165588,-1.423024,1.729480,1.208587,-0.573718,0.354881,0.025426,0.750582,-0.339438,-0.265688,0.710377,-0.093321,1.542096,38.595013,-22.377518,-3.301210,0.554288,1.812850,-0.254655,0.000000,0.000000,0.000000,0.000000,0.000000,0.000000
14686105.000000,-2.338528,-1.662943,1.166353,-1.423347,1.729209,1.209302,-0.573815,0.353647,0.023505,0.751888,-0.334678,-0.269316,0.709862,-0.095762,1.391340,38.495831,-22.353714,-3.376589,0.535978,1.747848,-0.196061,0.000000,0.000000,0.000000,0.000000,0.000000,0.000000
14686106.000000,-2.338171,-1.662928,1.167096,-1.423663,1.728939,1.210023,-0.573901,0.355109,0.020375,0.753927,-0.327081,-0.270056,0.716373,-0.093793,1.268354,38.472027,-22.230728,-3.499574,0.589994,1.617843,-0.235429,0.000000,0.000000,0.000000,0.000000,0.000000,0.000000
14686107.000000,-2.337812,-1.662911,1.167866,-1.423970,1.728680,1.210736,-0.573991,0.355113,0.018371,0.762438,-0.323526,-0.262961,0.714347,-0.092871,1.169172,38.448223,-22.353714,-3.670168,0.578092,1.605026,-0.268388,0.000000,0.000000,0.000000,0.000000,0.000000,0.000000
14686108.000000,-2.337456,-1.662899,1.168615,-1.424281,1.728440,1.211415,-0.574094,0.359957,0.015809,0.758020,-0.318177,-0.255114,0.716576,-0.095833,1.046186,38.472027,-22.353714,-3.797121,0.488370,1.825668,-0.202470,0.000000,0.000000,0.000000,0.000000,0.000000,0.000000
14686109.000000,-2.337095,-1.662884,1.169384,-1.424590,1.728184,1.212106,-0.574190,0.356995,0.014737,0.757292,-0.314934,-0.253152,0.709675,-0.095651,0.923200,38.472027,-22.595718,-3.797121,0.494779,2.027084,-0.196061,0.000000,0.000000,0.000000,0.000000,0.000000,0.000000
14686110.000000,-2.336734,-1.662880,1.170135,-1.424895,1.727916,1.212820,-0.574282,0.358153,0.013107,0.747493,-0.309269,-0.261041,0.701243,-0.090561,0.796247,38.642620,-22.500504,-3.920107,0.500272,1.949264,-0.202470,0.000000,0.000000,0.000000,0.000000,0.000000,0.000000
14686111.000000,-2.336369,-1.662877,1.170886,-1.425196,1.727655,1.213532,-0.574369,0.361044,0.009779,0.748763,-0.304892,-0.263889,0.705766,-0.089775,0.574079,38.789410,-22.623489,-4.066896,0.554288,1.819259,-0.248246,0.000000,0.000000,0.000000,0.000000,0.000000,0.000000
14686112.000000,-2.336004,-1.662869,1.171645,-1.425491,1.727401,1.214232,-0.574468,0.360727,0.006003,0.748704,-0.302512,-0.258433,0.702933,-0.092544,0.403486,38.864788,-22.647293,-4.166078,0.542386,1.819259,-0.208878,0.000000,0.000000,0.000000,0.000000,0.000000,0.000000
14686113.000000,-2.335634,-1.662866,1.172400,-1.425792,1.727160,1.214938,-0.574566,0.369844,0.005313,0.753244,-0.299476,-0.261810,0.705285,-0.094626,0.177350,38.983807,-22.770279,-4.289064,0.512174,1.844894,-0.182328,0.000000,0.000000,0.000000,0.000000,0.000000,0.000000
14686114.000000,-2.335266,-1.662870,1.173146,-1.426080,1.726902,1.215644,-0.574657,0.365673,-0.000690,0.746094,-0.299675,-0.261349,0.711941,-0.093987,-0.017047,39.205975,-22.595718,-4.388246,0.608304,1.760665,-0.196061,0.000000,0.000000,0.000000,0.000000,0.000000,0.000000
14686115.000000,-2.334904,-1.662871,1.173887,-1.426370,1.726647,1.216347,-0.574751,0.362901,-0.000681,0.738440,-0.297890,-0.260490,0.702286,-0.089292,-0.116229,39.376568,-22.325943,-4.511232,0.578092,1.779891,-0.202470,0.000000,0.000000,0.000000,0.000000,0.000000,0.000000
14686116.000000,-2.334545,-1.662872,1.174629,-1.426655,1.726410,1.217034,-0.574837,0.361503,-0.002535,0.737941,-0.289027,-0.258369,0.701472,-0.083587,-0.215411,39.499554,-22.230728,-4.685792,0.494779,1.916305,-0.261979,0.000000,0.000000,0.000000,0.000000,0.000000,0.000000
14686117.000000,-2.334183,-1.662872,1.175372,-1.426926,1.726176,1.217739,-0.574937,0.362350,-0.000837,0.734882,-0.282107,-0.250435,0.695789,-0.089406,-0.290789,39.622540,-22.079971,-4.884157,0.369352,1.930038,-0.182328,0.000000,0.000000,0.000000,0.000000,0.000000,0.000000
14686118.000000,-2.333822,-1.662880,1.176115,-1.427205,1.725931,1.218468,-0.575018,0.367504,-0.001786,0.754185,-0.280552,-0.249552,0.706568,-0.083462,-0.342364,39.840740,-21.909378,-5.054750,0.362943,1.800033,-0.248246,0.000000,0.000000,0.000000,0.000000,0.000000,0.000000
14686119.000000,-2.333467,-1.662880,1.176851,-1.427478,1.725693,1.219188,-0.575105,0.363553,0.000003,0.751836,-0.277618,-0.249795,0.716425,-0.087800,-0.489153,39.963726,-21.762589,-5.177736,0.381254,1.605026,-0.241837,0.000000,0.000000,0.000000,0.000000,0.000000,0.000000
14686120.000000,-2.333103,-1.662874,1.177595,-1.427751,1.725448,1.219908,-0.575201,0.359890,0.003356,0.749814,-0.276147,-0.248932,0.716307,-0.090864,-0.635943,39.987530,-21.615799,-5.276918,0.386747,1.565658,-0.215287,0.000000,0.000000,0.000000,0.000000,0.000000,0.000000
14686121.000000,-2.332748,-1.662878,1.178322,-1.428028,1.725202,1.220609,-0.575293,0.356039,0.000266,0.741094,-0.274756,-0.251032,0.714365,-0.092289,-0.711321,40.110516,-21.417435,-5.352296,0.464567,1.605026,-0.215287,0.000000,0.000000,0.000000,0.000000,0.000000,0.000000
14686122.000000,-2.332389,-1.662880,1.179063,-1.428289,1.724963,1.221330,-0.575388,0.355355,-0.000907,0.738554,-0.268598,-0.250232,0.708903,-0.089543,-0.762896,40.185894,-21.294449,-5.526857,0.488370,1.513473,-0.182328,0.000000,0.000000,0.000000,0.000000,0.000000,0.000000
14686123.000000,-2.332036,-1.662873,1.179811,-1.428548,1.724720,1.222065,-0.575472,0.350061,0.001111,0.736765,-0.263155,-0.244440,0.714728,-0.083295,-0.735125,40.134319,-21.246841,-5.749025,0.500272,1.402694,-0.248246,0.000000,0.000000,0.000000,0.000000,0.000000,0.000000
14686124.000000,-2.331692,-1.662870,1.180545,-1.428819,1.724490,1.222772,-0.575564,0.351101,0.001123,0.737558,-0.264057,-0.244118,0.710152,-0.083769,-0.762896,40.134319,-21.199234,-5.895814,0.488370,1.409103,-0.208878,0.000000,0.000000,0.000000,0.000000,0.000000,0.000000
14686125.000000,-2.331336,-1.662864,1.181291,-1.429083,1.724257,1.223481,-0.575654,0.351394,0.002706,0.736598,-0.265559,-0.238533,0.704753,-0.087248,-0.810504,40.062908,-21.147659,-6.018800,0.344633,1.552840,-0.208878,0.000000,0.000000,0.000000,0.000000,0.000000,0.000000
14686126.000000,-2.330983,-1.662856,1.182031,-1.429353,1.724022,1.224175,-0.575739,0.350388,0.004339,0.737194,-0.268116,-0.235273,0.717312,-0.083935,-0.909686,39.963726,-21.223038,-6.042604,0.327238,1.708480,-0.229020,0.000000,0.000000,0.000000,0.000000,0.000000,0.000000
14686127.000000,-2.330623,-1.662848,1.182774,-1.429623,1.723796,1.224897,-0.575831,0.350116,0.005931,0.737204,-0.270279,-0.231489,0.717523,-0.087382,-1.032672,39.840740,-21.147659,-6.070375,0.273221,1.721298,-0.208878,0.000000,0.000000,0.000000,0.000000,0.000000,0.000000
14686128.000000,-2.330267,-1.662834,1.183534,-1.429902,1.723564,1.225625,-0.575917,0.349856,0.008622,0.739717,-0.271774,-0.228904,0.724140,-0.087595,-1.159625,39.646343,-21.322220,-5.971193,0.225614,1.676437,-0.229020,0.000000,0.000000,0.000000,0.000000,0.000000,0.000000
14686129.000000,-2.329919,-1.662820,1.184282,-1.430167,1.723337,1.226342,-0.576009,0.352527,0.010386,0.746535,-0.269396,-0.234863,0.721175,-0.091449,-1.254840,39.451946,-21.445206,-5.994997,0.267728,1.597701,-0.175919,0.000000,0.000000,0.000000,0.000000,0.000000,0.000000
14686130.000000,-2.329568,-1.662804,1.185048,-1.430439,1.723096,1.227063,-0.576089,0.350897,0.014770,0.752907,-0.272145,-0.238466,0.719047,-0.089907,-1.254840,39.253582,-21.714981,-5.971193,0.297025,1.605026,-0.235429,0.000000,0.000000,0.000000,0.000000,0.000000,0.000000
14686131.000000,-2.329227,-1.662794,1.185794,-1.430710,1.722863,1.227759,-0.576178,0.354362,0.014988,0.752131,-0.270360,-0.243845,0.711315,-0.087836,-1.231036,39.182171,-21.810196,-5.947389,0.303434,1.676437,-0.208878,0.000000,0.000000,0.000000,0.000000,0.000000,0.000000
14686132.000000,-2.328882,-1.662785,1.186550,-1.430967,1.722617,1.228462,-0.576257,0.348967,0.011696,0.748870,-0.268914,-0.243548,0.704754,-0.084272,-1.183428,39.130596,-21.909378,-6.018800,0.410551,1.767074,-0.221696,0.000000,0.000000,0.000000,0.000000,0.000000,0.000000
14686133.000000,-2.328552,-1.662770,1.187313,-1.431243,1.722376,1.229162,-0.576340,0.339143,0.013444,0.749787,-0.272526,-0.238649,0.703116,-0.081753,-1.008868,39.035381,-22.056168,-5.947389,0.410551,1.871444,-0.229020,0.000000,0.000000,0.000000,0.000000,0.000000,0.000000
14686134.000000,-2.328216,-1.662757,1.188060,-1.431510,1.722156,1.229848,-0.576425,0.338054,0.013100,0.744840,-0.269658,-0.237705,0.695660,-0.081577,-0.933489,39.011578,-22.079971,-5.971193,0.344633,1.942855,-0.208878,0.000000,0.000000,0.000000,0.000000,0.000000,0.000000
14686135.000000,-2.327881,-1.662750,1.188821,-1.431776,1.721920,1.230553,-0.576507,0.333540,0.011292,0.745364,-0.266349,-0.238479,0.693741,-0.079010,-0.735125,39.059185,-22.202957,-5.919618,0.320829,1.909896,-0.235429,0.000000,0.000000,0.000000,0.000000,0.000000,0.000000
14686136.000000,-2.327544,-1.662737,1.189578,-1.432061,1.721686,1.231261,-0.576594,0.336691,0.010034,0.743083,-0.269418,-0.233942,0.689748,-0.079597,-0.635943,38.983807,-22.155350,-5.749025,0.273221,1.812850,-0.196061,0.000000,0.000000,0.000000,0.000000,0.000000,0.000000
14686137.000000,-2.327211,-1.662728,1.190319,-1.432342,1.721450,1.231957,-0.576674,0.333516,0.010401,0.740309,-0.270033,-0.234185,0.692977,-0.082848,-0.588336,38.983807,-22.056168,-5.649843,0.327238,1.779891,-0.208878,0.000000,0.000000,0.000000,0.000000,0.000000,0.000000
14686138.000000,-2.326883,-1.662715,1.191074,-1.432627,1.721219,1.232650,-0.576757,0.329897,0.015047,0.737589,-0.274425,-0.232226,0.691267,-0.086198,-0.512957,38.936199,-22.008560,-5.376100,0.332731,1.819259,-0.196061,0.000000,0.000000,0.000000,0.000000,0.000000,0.000000
14686139.000000,-2.326550,-1.662706,1.191828,-1.432913,1.721005,1.233333,-0.576840,0.329671,0.011068,0.742142,-0.279407,-0.228718,0.686322,-0.084348,-0.512957,38.936199,-22.131546,-5.276918,0.273221,1.877853,-0.182328,0.000000,0.000000,0.000000,0.000000,0.000000,0.000000
14686140.000000,-2.326222,-1.662695,1.192587,-1.433203,1.720770,1.234044,-0.576915,0.326295,0.011848,0.745659,-0.285691,-0.226268,0.694985,-0.085916,-0.389971,38.912395,-22.179153,-5.078554,0.344633,1.741439,-0.215287,0.000000,0.000000,0.000000,0.000000,0.000000,0.000000
14686141.000000,-2.325896,-1.662685,1.193350,-1.433485,1.720532,1.234755,-0.576993,0.326522,0.009300,0.746707,-0.283747,-0.230726,0.693890,-0.087188,-0.243182,38.888592,-22.278336,-5.030946,0.339139,1.662704,-0.235429,0.000000,0.000000,0.000000,0.000000,0.000000,0.000000
14686142.000000,-2.325574,-1.662678,1.194114,-1.433778,1.720304,1.235438,-0.577076,0.322341,0.006276,0.754082,-0.286193,-0.231285,0.692026,-0.084946,-0.167803,38.912395,-22.500504,-4.955568,0.381254,1.735030,-0.221696,0.000000,0.000000,0.000000,0.000000,0.000000,0.000000
14686143.000000,-2.325253,-1.662665,1.194876,-1.434071,1.720072,1.236105,-0.577162,0.321999,0.008361,0.757736,-0.286975,-0.229386,0.674363,-0.089283,-0.116229,38.888592,-22.595718,-4.808778,0.386747,1.974899,-0.182328,0.000000,0.000000,0.000000,0.000000,0.000000,0.000000
14686144.000000,-2.324934,-1.662663,1.195642,-1.434367,1.719845,1.236795,-0.577234,0.319334,0.006478,0.764579,-0.290538,-0.233208,0.676610,-0.083803,-0.068621,39.011578,-22.917068,-4.634218,0.416959,1.988631,-0.235429,0.000000,0.000000,0.000000,0.000000,0.000000,0.000000
14686145.000000,-2.324610,-1.662666,1.196402,-1.434665,1.719614,1.237498,-0.577316,0.319873,0.004759,0.759901,-0.290652,-0.233759,0.685606,-0.083329,0.006757,39.158367,-22.988480,-4.439821,0.476469,1.909896,-0.188737,0.000000,0.000000,0.000000,0.000000,0.000000,0.000000
14686146.000000,-2.324279,-1.662668,1.197179,-1.434961,1.719376,1.238199,-0.577388,0.325457,0.004804,0.761745,-0.292355,-0.236239,0.688477,-0.079924,-0.017047,39.253582,-23.286026,-4.312868,0.476469,1.909896,-0.235429,0.000000,0.000000,0.000000,0.000000,0.000000,0.000000
14686147.000000,-2.323963,-1.662656,1.197947,-1.435261,1.719151,1.238880,-0.577462,0.324549,0.009455,0.765270,-0.295945,-0.236903,0.693745,-0.078159,0.054365,39.158367,-23.555801,-4.090700,0.434354,1.968490,-0.261979,0.000000,0.000000,0.000000,0.000000,0.000000,0.000000
14686148.000000,-2.323648,-1.662662,1.198709,-1.435552,1.718916,1.239573,-0.577548,0.319696,0.003779,0.760949,-0.294377,-0.236013,0.690198,-0.080706,0.129743,39.305157,-23.603409,-4.043092,0.482877,1.962081,-0.182328,0.000000,0.000000,0.000000,0.000000,0.000000,0.000000
14686149.000000,-2.323338,-1.662674,1.199455,-1.435843,1.718686,1.240281,-0.577616,0.321277,-0.001903,0.771276,-0.289859,-0.231747,0.690031,-0.077196,0.328107,39.523357,-23.528030,-3.991518,0.566190,1.897079,-0.254655,0.000000,0.000000,0.000000,0.000000,0.000000,0.000000
14686150.000000,-2.323031,-1.662679,1.200217,-1.436136,1.718462,1.240961,-0.577703,0.318466,-0.003078,0.767514,-0.300214,-0.234506,0.680829,-0.079103,0.526471,39.622540,-23.555801,-3.844728,0.566190,1.936446,-0.196061,0.000000,0.000000,0.000000,0.000000,0.000000,0.000000
14686151.000000,-2.322718,-1.662690,1.200971,-1.436428,1.718229,1.241643,-0.577774,0.315355,-0.004545,0.758074,-0.294781,-0.230485,0.675067,-0.075779,0.625654,39.745525,-23.432816,-3.797121,0.524076,2.047225,-0.254655,0.000000,0.000000,0.000000,0.000000,0.000000,0.000000
14686152.000000,-2.322413,-1.662701,1.201718,-1.436725,1.717998,1.242326,-0.577861,0.312326,-0.012078,0.753133,-0.291725,-0.234712,0.673422,-0.077795,0.772443,39.868511,-23.357437,-3.697939,0.542386,2.014266,-0.188737,0.000000,0.000000,0.000000,0.000000,0.000000,0.000000
14686153.000000,-2.322110,-1.662709,1.202469,-1.437009,1.717768,1.243031,-0.577933,0.307137,-0.010602,0.747930,-0.293000,-0.232518,0.684388,-0.075203,0.895429,39.963726,-23.163040,-3.721742,0.542386,1.903487,-0.241837,0.000000,0.000000,0.000000,0.000000,0.000000,0.000000
14686154.000000,-2.321802,-1.662718,1.203224,-1.437308,1.717538,1.243737,-0.578013,0.307893,-0.009630,0.746550,-0.293819,-0.231031,0.690794,-0.076446,0.970807,40.062908,-23.016251,-3.622560,0.542386,1.825668,-0.215287,0.000000,0.000000,0.000000,0.000000,0.000000,0.000000
14686155.000000,-2.321497,-1.662717,1.203966,-1.437605,1.717322,1.244429,-0.578096,0.308232,-0.006044,0.746370,-0.292219,-0.229649,0.691475,-0.076967,1.046186,40.039104,-22.865494,-3.499574,0.530485,1.858627,-0.196061,0.000000,0.000000,0.000000,0.000000,0.000000,0.000000
14686156.000000,-2.321186,-1.662721,1.204720,-1.437897,1.717100,1.245142,-0.578168,0.309509,-0.005279,0.747405,-0.292335,-0.228513,0.702817,-0.079779,1.046186,40.086712,-22.817886,-3.448000,0.524076,1.812850,-0.241837,0.000000,0.000000,0.000000,0.000000,0.000000,0.000000
14686157.000000,-2.320888,-1.662722,1.205454,-1.438196,1.716878,1.245853,-0.578250,0.306227,-0.003065,0.743734,-0.289706,-0.224697,0.707062,-0.080783,1.121564,40.062908,-22.671097,-3.348818,0.566190,1.656295,-0.202470,0.000000,0.000000,0.000000,0.000000,0.000000,0.000000
14686158.000000,-2.320577,-1.662722,1.206204,-1.438484,1.716658,1.246567,-0.578323,0.304114,-0.002677,0.740019,-0.287741,-0.221474,0.707095,-0.073719,1.046186,40.086712,-22.647293,-3.277406,0.596403,1.597701,-0.235429,0.000000,0.000000,0.000000,0.000000,0.000000,0.000000
14686159.000000,-2.320274,-1.662713,1.206957,-1.438787,1.716440,1.247269,-0.578401,0.302363,0.001592,0.738409,-0.291030,-0.217200,0.697670,-0.069016,1.093793,39.939922,-22.647293,-3.126650,0.584501,1.649886,-0.248246,0.000000,0.000000,0.000000,0.000000,0.000000,0.000000
14686160.000000,-2.319969,-1.662709,1.207693,-1.439083,1.716227,1.247959,-0.578483,0.302419,0.002689,0.737868,-0.291647,-0.216791,0.694478,-0.072202,1.093793,39.868511,-22.548111,-3.055238,0.637601,1.741439,-0.215287,0.000000,0.000000,0.000000,0.000000,0.000000,0.000000
14686161.000000,-2.319662,-1.662700,1.208445,-1.439376,1.716011,1.248653,-0.578555,0.302138,0.004637,0.739020,-0.294257,-0.215091,0.696925,-0.073007,1.069990,39.745525,-22.595718,-2.904482,0.661405,1.793624,-0.229020,0.000000,0.000000,0.000000,0.000000,0.000000,0.000000
14686162.000000,-2.319354,-1.662690,1.209185,-1.439673,1.715813,1.249345,-0.578636,0.303841,0.006501,0.738807,-0.291546,-0.217849,0.694061,-0.074474,0.994611,39.598736,-22.571915,-2.781496,0.566190,1.773483,-0.215287,0.000000,0.000000,0.000000,0.000000,0.000000,0.000000
14686163.000000,-2.319047,-1.662676,1.209950,-1.439965,1.715599,1.250052,-0.578706,0.304019,0.008956,0.742306,-0.293282,-0.219754,0.697197,-0.073267,0.970807,39.400372,-22.794083,-2.658510,0.547880,1.714889,-0.254655,0.000000,0.000000,0.000000,0.000000,0.000000,0.000000
14686164.000000,-2.318740,-1.662667,1.210710,-1.440252,1.715381,1.250742,-0.578787,0.301980,0.008184,0.744200,-0.292814,-0.216489,0.689842,-0.075753,0.895429,39.305157,-22.893265,-2.606935,0.535978,1.773483,-0.202470,0.000000,0.000000,0.000000,0.000000,0.000000,0.000000
14686165.000000,-2.318439,-1.662651,1.211450,-1.440547,1.715176,1.251432,-0.578859,0.302105,0.010643,0.744813,-0.292200,-0.213615,0.690280,-0.078197,0.871625,39.082989,-22.964676,-2.583132,0.512174,1.825668,-0.248246,0.000000,0.000000,0.000000,0.000000,0.000000,0.000000
14686166.000000,-2.318132,-1.662644,1.212199,-1.440837,1.714954,1.252113,-0.578941,0.303636,0.009408,0.746967,-0.290357,-0.215278,0.680618,-0.084241,0.895429,38.983807,-23.016251,-2.483949,0.601896,1.890670,-0.196061,0.000000,0.000000,0.000000,0.000000,0.000000,0.000000
14686167.000000,-2.317820,-1.662628,1.212942,-1.441119,1.714749,1.252811,-0.579017,0.309874,0.010813,0.762369,-0.287660,-0.214312,0.680240,-0.077315,0.796247,38.789410,-23.111465,-2.535524,0.625699,1.903487,-0.202470,0.000000,0.000000,0.000000,0.000000,0.000000,0.000000
14686168.000000,-2.317525,-1.662612,1.213687,-1.441404,1.714542,1.253499,-0.579090,0.307214,0.012309,0.756507,-0.289348,-0.216691,0.681405,-0.075891,0.796247,38.571209,-23.063858,-2.535524,0.613798,1.871444,-0.235429,0.000000,0.000000,0.000000,0.000000,0.000000,0.000000
14686169.000000,-2.317224,-1.662605,1.214440,-1.441691,1.714325,1.254187,-0.579168,0.299960,0.010523,0.750676,-0.286203,-0.218579,0.683231,-0.076310,0.772443,38.472027,-23.111465,-2.535524,0.620206,1.897079,-0.221696,0.000000,0.000000,0.000000,0.000000,0.000000,0.000000
14686170.000000,-2.316934,-1.662588,1.215173,-1.441978,1.714136,1.254878,-0.579239,0.298462,0.014164,0.744723,-0.286553,-0.217057,0.689182,-0.075163,0.847822,38.301434,-23.063858,-2.535524,0.524076,1.838485,-0.248246,0.000000,0.000000,0.000000,0.000000,0.000000,0.000000
14686171.000000,-2.316638,-1.662582,1.215907,-1.442262,1.713938,1.255571,-0.579316,0.297270,0.014490,0.735510,-0.286831,-0.209423,0.688237,-0.077028,0.923200,38.226055,-22.865494,-2.559328,0.500272,1.793624,-0.202470,0.000000,0.000000,0.000000,0.000000,0.000000,0.000000
14686172.000000,-2.316338,-1.662567,1.216641,-1.442550,1.713728,1.256259,-0.579389,0.295346,0.013542,0.730679,-0.285276,-0.210852,0.683060,-0.075745,0.923200,38.079266,-22.671097,-2.511720,0.547880,1.871444,-0.221696,0.000000,0.000000,0.000000,0.000000,0.000000,0.000000
14686173.000000,-2.316043,-1.662559,1.217372,-1.442830,1.713543,1.256932,-0.579465,0.295662,0.013521,0.731729,-0.284416,-0.207208,0.675361,-0.076622,0.970807,38.031658,-22.548111,-2.583132,0.476469,1.923629,-0.196061,0.000000,0.000000,0.000000,0.000000,0.000000,0.000000
14686174.000000,-2.315747,-1.662545,1.218111,-1.443105,1.713342,1.257636,-0.579535,0.293545,0.015103,0.726422,-0.284022,-0.207009,0.677870,-0.074346,0.970807,37.932476,-22.500504,-2.658510,0.476469,1.851302,-0.248246,0.000000,0.000000,0.000000,0.000000,0.000000,0.000000
14686175.000000,-2.315464,-1.662531,1.218841,-1.443385,1.713142,1.258333,-0.579604,0.293306,0.015558,0.727169,-0.279352,-0.204048,0.684415,-0.074582,1.069990,37.861065,-22.472733,-2.634706,0.512174,1.695663,-0.254655,0.000000,0.000000,0.000000,0.000000,0.000000,0.000000
14686176.000000,-2.315169,-1.662527,1.219581,-1.443656,1.712943,1.259043,-0.579678,0.288737,0.012599,0.728375,-0.277020,-0.201295,0.691943,-0.072355,1.093793,37.932476,-22.472733,-2.706117,0.542386,1.578475,-0.202470,0.000000,0.000000,0.000000,0.000000,0.000000,0.000000
14686177.000000,-2.314869,-1.662517,1.220331,-1.443928,1.712741,1.259739,-0.579744,0.288235,0.012384,0.735339,-0.276173,-0.204753,0.695737,-0.071793,1.121564,37.932476,-22.595718,-2.757692,0.596403,1.630660,-0.241837,0.000000,0.000000,0.000000,0.000000,0.000000,0.000000
14686178.000000,-2.314579,-1.662515,1.221066,-1.444207,1.712557,1.260423,-0.579818,0.291181,0.007375,0.737345,-0.276258,-0.198411,0.688668,-0.070362,1.145368,38.007854,-22.694901,-2.634706,0.535978,1.714889,-0.196061,0.000000,0.000000,0.000000,0.000000,0.000000,0.000000
14686179.000000,-2.314285,-1.662509,1.221804,-1.444471,1.712363,1.261123,-0.579884,0.287165,0.007037,0.732792,-0.275384,-0.196600,0.690050,-0.071301,1.145368,38.079266,-22.794083,-2.682314,0.559781,1.702071,-0.208878,0.000000,0.000000,0.000000,0.000000,0.000000,0.000000
14686180.000000,-2.313999,-1.662514,1.222532,-1.444737,1.712174,1.261806,-0.579951,0.291560,0.003419,0.730011,-0.271315,-0.203003,0.681332,-0.071339,1.169172,38.301434,-22.865494,-2.706117,0.566190,1.735030,-0.235429,0.000000,0.000000,0.000000,0.000000,0.000000,0.000000
14686181.000000,-2.313713,-1.662516,1.223269,-1.444990,1.711987,1.262495,-0.580017,0.292300,0.000234,0.733114,-0.266671,-0.197321,0.680329,-0.076515,1.244550,38.424419,-23.016251,-2.833071,0.512174,1.877853,-0.254655,0.000000,0.000000,0.000000,0.000000,0.000000,0.000000
14686182.000000,-2.313416,-1.662513,1.224016,-1.445249,1.711790,1.263188,-0.580091,0.295931,-0.001447,0.738156,-0.264803,-0.194459,0.677433,-0.078752,1.192975,38.519634,-23.163040,-2.904482,0.494779,1.955673,-0.196061,0.000000,0.000000,0.000000,0.000000,0.000000,0.000000
14686183.000000,-2.313134,-1.662518,1.224744,-1.445507,1.711602,1.263887,-0.580160,0.292700,-0.003931,0.735860,-0.263258,-0.194330,0.685471,-0.077385,1.268354,38.666424,-23.186844,-2.979860,0.524076,1.903487,-0.215287,0.000000,0.000000,0.000000,0.000000,0.000000,0.000000
14686184.000000,-2.312839,-1.662526,1.225469,-1.445763,1.711413,1.264597,-0.580224,0.292691,-0.003780,0.729506,-0.260896,-0.193523,0.691820,-0.075604,1.216779,38.864788,-23.040054,-2.979860,0.547880,1.825668,-0.248246,0.000000,0.000000,0.000000,0.000000,0.000000,0.000000
14686185.000000,-2.312539,-1.662531,1.226202,-1.446011,1.711222,1.265308,-0.580302,0.299742,-0.004223,0.745918,-0.255954,-0.193873,0.694688,-0.073756,1.069990,38.960003,-23.111465,-3.079042,0.589994,1.793624,-0.182328,0.000000,0.000000,0.000000,0.000000,0.000000,0.000000
14686186.000000,-2.312254,-1.662530,1.226936,-1.446264,1.711045,1.266001,-0.580361,0.297641,-0.002979,0.744076,-0.258828,-0.189860,0.705177,-0.070863,1.022382,38.983807,-23.063858,-3.126650,0.524076,1.786300,-0.268388,0.000000,0.000000,0.000000,0.000000,0.000000,0.000000
14686187.000000,-2.311968,-1.662538,1.227668,-1.446513,1.710856,1.266713,-0.580435,0.290430,-0.004011,0.741170,-0.257685,-0.188292,0.701628,-0.069641,1.069990,39.082989,-22.988480,-3.249635,0.494779,1.656295,-0.208878,0.000000,0.000000,0.000000,0.000000,0.000000,0.000000
14686188.000000,-2.311685,-1.662544,1.228385,-1.446755,1.710667,1.267412,-0.580505,0.291735,-0.003567,0.735904,-0.255389,-0.188620,0.702769,-0.066474,1.121564,39.130596,-22.865494,-3.424196,0.500272,1.597701,-0.215287,0.000000,0.000000,0.000000,0.000000,0.000000,0.000000
14686189.000000,-2.311397,-1.662543,1.229115,-1.446999,1.710481,1.268100,-0.580571,0.286952,-0.001655,0.731722,-0.252908,-0.183512,0.690102,-0.063272,1.145368,39.106792,-22.770279,-3.523378,0.488370,1.649886,-0.235429,0.000000,0.000000,0.000000,0.000000,0.000000,0.000000
14686190.000000,-2.311104,-1.662546,1.229844,-1.447237,1.710298,1.268785,-0.580643,0.286409,-0.000979,0.725189,-0.245944,-0.183416,0.687002,-0.067721,1.046186,39.106792,-22.623489,-3.697939,0.452665,1.800033,-0.196061,0.000000,0.000000,0.000000,0.000000,0.000000,0.000000
14686191.000000,-2.310822,-1.662548,1.230558,-1.447473,1.710114,1.269471,-0.580702,0.284201,-0.001116,0.721945,-0.242319,-0.185939,0.690628,-0.067163,1.022382,39.130596,-22.401321,-3.820925,0.482877,1.786300,-0.261979,0.000000,0.000000,0.000000,0.000000,0.000000,0.000000
14686192.000000,-2.310532,-1.662545,1.231289,-1.447705,1.709930,1.270178,-0.580775,0.286788,-0.000117,0.718499,-0.240747,-0.186911,0.691326,-0.071652,0.923200,39.106792,-22.325943,-3.892336,0.500272,1.676437,-0.208878,0.000000,0.000000,0.000000,0.000000,0.000000,0.000000
14686193.000000,-2.310238,-1.662544,1.232007,-1.447935,1.709757,1.270869,-0.580839,0.288030,-0.000026,0.721740,-0.238039,-0.186698,0.694804,-0.071742,0.748639,39.106792,-22.302139,-3.991518,0.482877,1.624252,-0.241837,0.000000,0.000000,0.000000,0.000000,0.000000,0.000000
14686194.000000,-2.309942,-1.662542,1.232743,-1.448169,1.709576,1.271569,-0.580910,0.288095,0.001136,0.722971,-0.236886,-0.189875,0.692341,-0.074227,0.601850,39.059185,-22.377518,-3.943910,0.428861,1.578475,-0.202470,0.000000,0.000000,0.000000,0.000000,0.000000,0.000000
14686195.000000,-2.309639,-1.662534,1.233467,-1.448398,1.709386,1.272271,-0.580975,0.289269,0.003107,0.722000,-0.235116,-0.185235,0.692244,-0.073462,0.403486,38.960003,-22.278336,-3.920107,0.434354,1.605026,-0.229020,0.000000,0.000000,0.000000,0.000000,0.000000,0.000000
14686196.000000,-2.309345,-1.662535,1.234195,-1.448620,1.709207,1.272948,-0.581045,0.289420,0.001536,0.729640,-0.232698,-0.187294,0.686221,-0.074560,0.228925,38.983807,-22.353714,-4.066896,0.464567,1.676437,-0.202470,0.000000,0.000000,0.000000,0.000000,0.000000,0.000000
14686197.000000,-2.309047,-1.662532,1.234924,-1.448841,1.709030,1.273642,-0.581104,0.288861,0.002711,0.727968,-0.229845,-0.182694,0.686556,-0.068806,0.054365,38.912395,-22.353714,-4.142274,0.470060,1.721298,-0.248246,0.000000,0.000000,0.000000,0.000000,0.000000,0.000000
14686198.000000,-2.308756,-1.662531,1.235653,-1.449049,1.708864,1.274326,-0.581176,0.295860,0.001820,0.725219,-0.221082,-0.175755,0.686197,-0.072821,-0.092425,38.912395,-22.472733,-4.340639,0.398649,1.708480,-0.188737,0.000000,0.000000,0.000000,0.000000,0.000000,0.000000
14686199.000000,-2.308456,-1.662532,1.236389,-1.449260,1.708690,1.275026,-0.581244,0.297385,0.001223,0.723168,-0.224501,-0.174743,0.689597,-0.073745,-0.266986,38.912395,-22.595718,-4.487428,0.405057,1.689254,-0.182328,0.000000,0.000000,0.000000,0.000000,0.000000,0.000000
14686200.000000,-2.308161,-1.662527,1.237133,-1.449467,1.708510,1.275720,-0.581301,0.293084,0.001936,0.724114,-0.214917,-0.172480,0.691216,-0.071140,-0.342364,38.864788,-22.718704,-4.685792,0.381254,1.682845,-0.268388,0.000000,0.000000,0.000000,0.000000,0.000000,0.000000
14686201.000000,-2.307858,-1.662529,1.237867,-1.449685,1.708334,1.276396,-0.581378,0.297095,0.000739,0.726261,-0.215617,-0.172404,0.684733,-0.076042,-0.588336,38.888592,-22.917068,-4.685792,0.386747,1.786300,-0.175919,0.000000,0.000000,0.000000,0.000000,0.000000,0.000000
14686202.000000,-2.307555,-1.662527,1.238601,-1.449892,1.708155,1.277079,-0.581440,0.295707,0.001703,0.722678,-0.213338,-0.171406,0.684818,-0.073714,-0.810504,38.837017,-22.940872,-4.784975,0.381254,1.871444,-0.229020,0.000000,0.000000,0.000000,0.000000,0.000000,0.000000
14686203.000000,-2.307255,-1.662533,1.239331,-1.450100,1.707977,1.277769,-0.581511,0.293621,-0.000625,0.738154,-0.213445,-0.172166,0.684794,-0.069664,-0.985064,38.912395,-23.040054,-4.931764,0.405057,1.851302,-0.221696,0.000000,0.000000,0.000000,0.000000,0.000000,0.000000
14686204.000000,-2.306961,-1.662533,1.240062,-1.450305,1.707802,1.278455,-0.581576,0.293957,-0.000414,0.739251,-0.210485,-0.172031,0.683197,-0.067424,-1.108050,38.912395,-23.063858,-5.106325,0.416959,1.741439,-0.215287,0.000000,0.000000,0.000000,0.000000,0.000000,0.000000
14686205.000000,-2.306665,-1.662530,1.240790,-1.450500,1.707637,1.279143,-0.581641,0.292989,0.000839,0.733635,-0.205077,-0.168753,0.677810,-0.064723,-1.183428,38.864788,-22.964676,-5.276918,0.351041,1.682845,-0.229020,0.000000,0.000000,0.000000,0.000000,0.000000,0.000000
14686206.000000,-2.306373,-1.662531,1.241514,-1.450700,1.707476,1.279819,-0.581709,0.292848,0.000004,0.737046,-0.205432,-0.168459,0.677130,-0.069030,-1.254840,38.888592,-23.016251,-5.376100,0.327238,1.702071,-0.188737,0.000000,0.000000,0.000000,0.000000,0.000000,0.000000
14686207.000000,-2.306075,-1.662533,1.242237,-1.450903,1.707304,1.280483,-0.581770,0.293401,-0.000553,0.731920,-0.206192,-0.169768,0.672755,-0.064314,-1.354022,38.912395,-22.893265,-5.475282,0.351041,1.838485,-0.235429,0.000000,0.000000,0.000000,0.000000,0.000000,0.000000
14686208.000000,-2.305775,-1.662538,1.242954,-1.451110,1.707124,1.281154,-0.581835,0.295106,-0.002039,0.723235,-0.205107,-0.170494,0.670586,-0.067960,-1.504779,38.983807,-22.671097,-5.499086,0.369352,1.955673,-0.221696,0.000000,0.000000,0.000000,0.000000,0.000000,0.000000
14686209.000000,-2.305486,-1.662538,1.243675,-1.451312,1.706956,1.281818,-0.581897,0.291700,-0.001359,0.725133,-0.200456,-0.169289,0.676721,-0.069555,-1.580157,38.983807,-22.647293,-5.550661,0.344633,1.995040,-0.229020,0.000000,0.000000,0.000000,0.000000,0.000000,0.000000
14686210.000000,-2.305192,-1.662538,1.244409,-1.451507,1.706796,1.282516,-0.581967,0.288101,-0.000905,0.724774,-0.196395,-0.161530,0.681632,-0.072570,-1.627764,38.983807,-22.742508,-5.626039,0.261320,1.865035,-0.188737,0.000000,0.000000,0.000000,0.000000,0.000000,0.000000
14686211.000000,-2.304900,-1.662535,1.245132,-1.451715,1.706636,1.283209,-0.582031,0.289464,0.001067,0.724669,-0.197798,-0.163496,0.707527,-0.068982,-1.703143,38.912395,-22.794083,-5.626039,0.249418,1.676437,-0.182328,0.000000,0.000000,0.000000,0.000000,0.000000,0.000000
14686212.000000,-2.304606,-1.662541,1.245868,-1.451918,1.706474,1.283892,-0.582091,0.287967,-0.001608,0.723072,-0.200204,-0.170078,0.699511,-0.069757,-1.802325,39.011578,-22.940872,-5.574464,0.243009,1.689254,-0.208878,0.000000,0.000000,0.000000,0.000000,0.000000,0.000000
14686213.000000,-2.304314,-1.662546,1.246606,-1.452119,1.706299,1.284577,-0.582153,0.286418,-0.002186,0.727530,-0.201699,-0.167457,0.694333,-0.070911,-1.901507,39.059185,-23.063858,-5.526857,0.297025,1.800033,-0.215287,0.000000,0.000000,0.000000,0.000000,0.000000,0.000000
14686214.000000,-2.304028,-1.662555,1.247337,-1.452323,1.706138,1.285242,-0.582217,0.284882,-0.004334,0.731997,-0.202807,-0.168595,0.676434,-0.067574,-1.972918,39.182171,-23.234451,-5.475282,0.315336,1.936446,-0.202470,0.000000,0.000000,0.000000,0.000000,0.000000,0.000000
14686215.000000,-2.303742,-1.662567,1.248074,-1.452521,1.705967,1.285926,-0.582282,0.286258,-0.006880,0.733772,-0.201921,-0.169314,0.679440,-0.070568,-2.024493,39.352764,-23.432816,-5.499086,0.339139,1.988631,-0.175919,0.000000,0.000000,0.000000,0.000000,0.000000,0.000000
14686216.000000,-2.303466,-1.662581,1.248804,-1.452719,1.705793,1.286617,-0.582335,0.289618,-0.008577,0.733633,-0.197575,-0.174014,0.681811,-0.065125,-1.972918,39.523357,-23.627213,-5.526857,0.339139,1.930038,-0.229020,0.000000,0.000000,0.000000,0.000000,0.000000,0.000000
14686217.000000,-2.303179,-1.662598,1.249547,-1.452909,1.705623,1.287297,-0.582399,0.286666,-0.010358,0.732567,-0.198777,-0.173066,0.681808,-0.064003,-2.000689,39.721722,-23.920792,-5.598268,0.344633,1.909896,-0.202470,0.000000,0.000000,0.000000,0.000000,0.000000,0.000000
14686218.000000,-2.302894,-1.662614,1.250292,-1.453109,1.705446,1.287965,-0.582458,0.286813,-0.013497,0.731795,-0.201269,-0.167947,0.677200,-0.061102,-2.000689,39.868511,-24.095352,-5.526857,0.362943,1.995040,-0.229020,0.000000,0.000000,0.000000,0.000000,0.000000,0.000000
14686219.000000,-2.302620,-1.662640,1.251016,-1.453314,1.705275,1.288627,-0.582515,0.283638,-0.019291,0.731982,-0.201845,-0.169648,0.672106,-0.059072,-1.972918,40.162090,-24.166763,-5.499086,0.393156,2.033492,-0.254655,0.000000,0.000000,0.000000,0.000000,0.000000,0.000000
14686220.000000,-2.302346,-1.662660,1.251748,-1.453523,1.705102,1.289304,-0.582580,0.277376,-0.017869,0.729236,-0.204640,-0.166789,0.679659,-0.061293,-1.925311,40.356487,-24.166763,-5.376100,0.446256,2.020675,-0.188737,0.000000,0.000000,0.000000,0.000000,0.000000,0.000000
14686221.000000,-2.302073,-1.662683,1.252475,-1.453727,1.704937,1.289980,-0.582634,0.274986,-0.019340,0.725025,-0.204304,-0.166798,0.674931,-0.062538,-1.826129,40.527081,-24.242142,-5.328493,0.422452,2.020675,-0.248246,0.000000,0.000000,0.000000,0.000000,0.000000,0.000000
14686222.000000,-2.301800,-1.662701,1.253205,-1.453925,1.704769,1.290655,-0.582696,0.273522,-0.019439,0.728800,-0.203814,-0.166311,0.677767,-0.062183,-1.750750,40.650066,-24.218338,-5.304689,0.393156,1.974899,-0.221696,0.000000,0.000000,0.000000,0.000000,0.000000,0.000000
14686223.000000,-2.301530,-1.662721,1.253939,-1.454124,1.704596,1.291336,-0.582753,0.270999,-0.020193,0.728961,-0.201925,-0.166066,0.671428,-0.060515,-1.627764,40.796856,-24.142960,-5.352296,0.374845,1.877853,-0.229020,0.000000,0.000000,0.000000,0.000000,0.000000,0.000000
14686224.000000,-2.301270,-1.662738,1.254657,-1.454328,1.704426,1.292013,-0.582816,0.268173,-0.019143,0.730543,-0.200725,-0.168177,0.669870,-0.059710,-1.429400,40.872234,-24.043777,-5.376100,0.405057,1.851302,-0.235429,0.000000,0.000000,0.000000,0.000000,0.000000,0.000000
14686225.000000,-2.301005,-1.662752,1.255388,-1.454534,1.704259,1.292682,-0.582872,0.268430,-0.017842,0.728409,-0.205109,-0.169170,0.666282,-0.058800,-1.330218,40.919842,-23.972366,-5.328493,0.422452,1.884261,-0.241837,0.000000,0.000000,0.000000,0.000000,0.000000,0.000000
14686226.000000,-2.300736,-1.662764,1.256116,-1.454741,1.704093,1.293354,-0.582936,0.264330,-0.015759,0.721950,-0.205919,-0.164414,0.666315,-0.060570,-1.306414,40.919842,-23.825577,-5.253114,0.416959,1.968490,-0.175919,0.000000,0.000000,0.000000,0.000000,0.000000,0.000000
14686227.000000,-2.300474,-1.662773,1.256835,-1.454957,1.703932,1.294032,-0.582989,0.264059,-0.014024,0.721503,-0.209360,-0.162196,0.676992,-0.054177,-1.282611,40.896038,-23.678787,-5.177736,0.446256,1.903487,-0.188737,0.000000,0.000000,0.000000,0.000000,0.000000,0.000000
14686228.000000,-2.300210,-1.662779,1.257562,-1.455169,1.703768,1.294736,-0.583039,0.262836,-0.011676,0.718251,-0.208341,-0.158957,0.682267,-0.052581,-1.231036,40.820660,-23.651016,-5.130128,0.446256,1.747848,-0.248246,0.000000,0.000000,0.000000,0.000000,0.000000,0.000000
14686229.000000,-2.299948,-1.662783,1.258284,-1.455386,1.703615,1.295413,-0.583103,0.263012,-0.009688,0.719028,-0.208431,-0.154248,0.697153,-0.056176,-1.207232,40.725445,-23.651016,-5.030946,0.374845,1.721298,-0.188737,0.000000,0.000000,0.000000,0.000000,0.000000,0.000000
14686230.000000,-2.299683,-1.662781,1.259007,-1.455602,1.703455,1.296096,-0.583157,0.263450,-0.006399,0.715194,-0.213570,-0.151814,0.690885,-0.055234,-1.207232,40.550884,-23.603409,-4.856386,0.327238,1.760665,-0.221696,0.000000,0.000000,0.000000,0.000000,0.000000,0.000000
14686231.000000,-2.299418,-1.662787,1.259732,-1.455822,1.703278,1.296790,-0.583212,0.263894,-0.004149,0.720681,-0.215533,-0.154283,0.695231,-0.055725,-1.207232,40.503277,-23.555801,-4.757204,0.393156,1.806442,-0.215287,0.000000,0.000000,0.000000,0.000000,0.000000,0.000000
14686232.000000,-2.299158,-1.662786,1.260450,-1.456048,1.703114,1.297466,-0.583269,0.261540,-0.000080,0.719879,-0.214710,-0.155033,0.685819,-0.056957,-1.231036,40.356487,-23.528030,-4.610414,0.434354,1.844894,-0.202470,0.000000,0.000000,0.000000,0.000000,0.000000,0.000000
14686233.000000,-2.298900,-1.662786,1.261179,-1.456268,1.702951,1.298160,-0.583321,0.261011,-0.000308,0.722756,-0.213068,-0.153966,0.688495,-0.055912,-1.207232,40.209698,-23.603409,-4.511232,0.446256,1.844894,-0.229020,0.000000,0.000000,0.000000,0.000000,0.000000,0.000000
14686234.000000,-2.298641,-1.662787,1.261906,-1.456485,1.702797,1.298856,-0.583378,0.262006,-0.001170,0.735759,-0.213416,-0.152666,0.688306,-0.057803,-1.159625,40.086712,-23.726395,-4.463624,0.434354,1.800033,-0.188737,0.000000,0.000000,0.000000,0.000000,0.000000,0.000000
14686235.000000,-2.298375,-1.662789,1.262636,-1.456707,1.702636,1.299546,-0.583427,0.263829,0.000116,0.730095,-0.221190,-0.157920,0.688935,-0.056201,-1.207232,40.015301,-23.825577,-4.340639,0.458158,1.714889,-0.221696,0.000000,0.000000,0.000000,0.000000,0.000000,0.000000
14686236.000000,-2.298115,-1.662789,1.263371,-1.456938,1.702469,1.300233,-0.583484,0.266871,-0.000780,0.728712,-0.219703,-0.161908,0.685669,-0.051786,-1.207232,39.892315,-23.920792,-4.166078,0.488370,1.695663,-0.215287,0.000000,0.000000,0.000000,0.000000,0.000000,0.000000
14686237.000000,-2.297855,-1.662793,1.264088,-1.457164,1.702314,1.300895,-0.583536,0.264157,-0.003290,0.724601,-0.220256,-0.162941,0.677587,-0.052340,-1.254840,39.840740,-23.996170,-4.043092,0.464567,1.871444,-0.235429,0.000000,0.000000,0.000000,0.000000,0.000000,0.000000
14686238.000000,-2.297603,-1.662793,1.264815,-1.457379,1.702153,1.301564,-0.583595,0.258245,-0.000206,0.726286,-0.218386,-0.163641,0.681386,-0.050732,-1.159625,39.721722,-24.071548,-4.019289,0.434354,2.039901,-0.182328,0.000000,0.000000,0.000000,0.000000,0.000000,0.000000
14686239.000000,-2.297353,-1.662795,1.265546,-1.457601,1.701988,1.302247,-0.583642,0.254414,-0.001955,0.725238,-0.217276,-0.165784,0.676940,-0.050241,-1.060443,39.646343,-24.142960,-3.991518,0.452665,2.039901,-0.229020,0.000000,0.000000,0.000000,0.000000,0.000000,0.000000
14686240.000000,-2.297104,-1.662793,1.266258,-1.457821,1.701836,1.302931,-0.583697,0.251459,-0.002289,0.724906,-0.216683,-0.161460,0.681296,-0.052662,-0.961260,39.523357,-24.071548,-3.967714,0.434354,1.955673,-0.215287,0.000000,0.000000,0.000000,0.000000,0.000000,0.000000
14686241.000000,-2.296851,-1.662791,1.266984,-1.458040,1.701684,1.303612,-0.583749,0.250477,-0.000085,0.725092,-0.217533,-0.157162,0.674674,-0.052616,-0.933489,39.428143,-24.095352,-3.892336,0.398649,1.962081,-0.241837,0.000000,0.000000,0.000000,0.000000,0.000000,0.000000
14686242.000000,-2.296604,-1.662784,1.267689,-1.458267,1.701535,1.304296,-0.583809,0.249161,-0.000814,0.719303,-0.217958,-0.157092,0.675754,-0.054544,-0.862078,39.305157,-24.043777,-3.797121,0.428861,1.968490,-0.221696,0.000000,0.000000,0.000000,0.000000,0.000000,0.000000
14686243.000000,-2.296352,-1.662779,1.268399,-1.458498,1.701378,1.304975,-0.583868,0.249664,0.000524,0.711238,-0.223398,-0.157835,0.677034,-0.056087,-0.834307,39.229778,-23.849380,-3.646364,0.488370,1.962081,-0.175919,0.000000,0.000000,0.000000,0.000000,0.000000,0.000000
14686244.000000,-2.296104,-1.662778,1.269112,-1.458730,1.701228,1.305666,-0.583916,0.246209,0.000384,0.706818,-0.224549,-0.156610,0.677905,-0.053366,-0.786700,39.205975,-23.702591,-3.475771,0.500272,1.949264,-0.248246,0.000000,0.000000,0.000000,0.000000,0.000000,0.000000
14686245.000000,-2.295859,-1.662765,1.269821,-1.458957,1.701082,1.306347,-0.583976,0.245194,0.003298,0.707712,-0.227441,-0.158858,0.679457,-0.051513,-0.810504,39.059185,-23.603409,-3.348818,0.476469,1.916305,-0.196061,0.000000,0.000000,0.000000,0.000000,0.000000,0.000000
14686246.000000,-2.295615,-1.662754,1.270540,-1.459181,1.700934,1.307040,-0.584025,0.244871,0.004782,0.703625,-0.227055,-0.154200,0.681402,-0.051238,-0.762896,38.936199,-23.627213,-3.325014,0.410551,1.825668,-0.235429,0.000000,0.000000,0.000000,0.000000,0.000000,0.000000
14686247.000000,-2.295376,-1.662746,1.271245,-1.459409,1.700782,1.307716,-0.584080,0.241728,0.005288,0.703044,-0.224714,-0.157657,0.701511,-0.047814,-0.687518,38.837017,-23.579605,-3.249635,0.416959,1.793624,-0.241837,0.000000,0.000000,0.000000,0.000000,0.000000,0.000000
14686248.000000,-2.295134,-1.662743,1.271966,-1.459630,1.700631,1.308394,-0.584140,0.242780,0.003360,0.708554,-0.225330,-0.152089,0.694847,-0.052209,-0.612139,38.837017,-23.627213,-3.225832,0.434354,1.812850,-0.188737,0.000000,0.000000,0.000000,0.000000,0.000000,0.000000
14686249.000000,-2.294896,-1.662732,1.272684,-1.459858,1.700478,1.309065,-0.584192,0.243793,0.005550,0.712656,-0.223864,-0.154273,0.683956,-0.047919,-0.540728,38.690228,-23.678787,-3.154421,0.500272,1.988631,-0.202470,0.000000,0.000000,0.000000,0.000000,0.000000,0.000000
14686250.000000,-2.294661,-1.662732,1.273397,-1.460083,1.700336,1.309725,-0.584239,0.241161,0.003607,0.714364,-0.220891,-0.153456,0.671273,-0.048099,-0.465350,38.690228,-23.801773,-3.154421,0.506681,2.060043,-0.248246,0.000000,0.000000,0.000000,0.000000,0.000000,0.000000
14686251.000000,-2.294425,-1.662730,1.274115,-1.460303,1.700194,1.310408,-0.584294,0.237022,0.002335,0.711036,-0.218688,-0.152368,0.670020,-0.055734,-0.441546,38.690228,-23.972366,-3.154421,0.500272,2.033492,-0.229020,0.000000,0.000000,0.000000,0.000000,0.000000,0.000000
14686252.000000,-2.294198,-1.662727,1.274827,-1.460526,1.700052,1.311101,-0.584351,0.237698,0.002061,0.726892,-0.219193,-0.152598,0.677026,-0.057416,-0.366168,38.666424,-24.095352,-3.055238,0.518583,1.916305,-0.188737,0.000000,0.000000,0.000000,0.000000,0.000000,0.000000
14686253.000000,-2.293965,-1.662734,1.275543,-1.460740,1.699911,1.311776,-0.584399,0.235837,-0.000985,0.722313,-0.223121,-0.146774,0.677313,-0.051159,-0.266986,38.765606,-24.265945,-3.027467,0.500272,1.909896,-0.235429,0.000000,0.000000,0.000000,0.000000,0.000000,0.000000
14686254.000000,-2.293728,-1.662743,1.276260,-1.460960,1.699765,1.312442,-0.584458,0.234819,-0.003563,0.717605,-0.221517,-0.141787,0.674252,-0.054552,-0.191607,38.888592,-24.313553,-2.979860,0.470060,1.968490,-0.182328,0.000000,0.000000,0.000000,0.000000,0.000000,0.000000
14686255.000000,-2.293501,-1.662752,1.276969,-1.461172,1.699623,1.313109,-0.584507,0.230779,-0.006388,0.714468,-0.219278,-0.143942,0.670556,-0.054083,-0.092425,39.059185,-24.341324,-2.979860,0.464567,1.974899,-0.208878,0.000000,0.000000,0.000000,0.000000,0.000000,0.000000
14686256.000000,-2.293275,-1.662759,1.277676,-1.461378,1.699473,1.313789,-0.584556,0.227634,-0.006595,0.714750,-0.214060,-0.143411,0.674545,-0.053762,0.006757,39.158367,-24.265945,-3.003664,0.524076,1.942855,-0.241837,0.000000,0.000000,0.000000,0.000000,0.000000,0.000000
14686257.000000,-2.293048,-1.662765,1.278392,-1.461584,1.699331,1.314465,-0.584611,0.224382,-0.006080,0.711569,-0.213113,-0.139814,0.666395,-0.054963,0.153547,39.229778,-24.218338,-3.027467,0.506681,1.949264,-0.229020,0.000000,0.000000,0.000000,0.000000,0.000000,0.000000
14686258.000000,-2.292830,-1.662771,1.279092,-1.461792,1.699191,1.315127,-0.584659,0.221809,-0.005826,0.705689,-0.209022,-0.138607,0.669474,-0.054938,0.304304,39.305157,-24.166763,-3.079042,0.524076,1.962081,-0.241837,0.000000,0.000000,0.000000,0.000000,0.000000,0.000000
14686259.000000,-2.292609,-1.662784,1.279796,-1.461989,1.699055,1.315804,-0.584716,0.217691,-0.007881,0.700487,-0.205557,-0.135973,0.668250,-0.052668,0.403486,39.475750,-24.019974,-3.154421,0.506681,1.909896,-0.188737,0.000000,0.000000,0.000000,0.000000,0.000000,0.000000
14686260.000000,-2.292393,-1.662787,1.280494,-1.462188,1.698922,1.316482,-0.584759,0.217781,-0.005816,0.700440,-0.203016,-0.135076,0.672600,-0.051353,0.526471,39.499554,-23.948563,-3.202028,0.512174,1.877853,-0.248246,0.000000,0.000000,0.000000,0.000000,0.000000,0.000000
14686261.000000,-2.292173,-1.662791,1.281192,-1.462383,1.698788,1.317162,-0.584809,0.217632,-0.005645,0.696553,-0.202733,-0.133432,0.672119,-0.053312,0.649457,39.574932,-23.726395,-3.202028,0.488370,1.806442,-0.229020,0.000000,0.000000,0.000000,0.000000,0.000000,0.000000
14686262.000000,-2.291946,-1.662793,1.281903,-1.462584,1.698646,1.317855,-0.584859,0.220665,-0.003766,0.694640,-0.199467,-0.137843,0.676617,-0.054609,0.649457,39.574932,-23.678787,-3.202028,0.488370,1.735030,-0.215287,0.000000,0.000000,0.000000,0.000000,0.000000,0.000000
14686263.000000,-2.291729,-1.662793,1.282598,-1.462785,1.698512,1.318539,-0.584908,0.221448,-0.002513,0.697780,-0.197541,-0.135965,0.689517,-0.050869,0.697065,39.574932,-23.528030,-3.178224,0.470060,1.649886,-0.202470,0.000000,0.000000,0.000000,0.000000,0.000000,0.000000
14686264.000000,-2.291507,-1.662792,1.283298,-1.462974,1.698369,1.319234,-0.584958,0.221307,-0.001027,0.695348,-0.194270,-0.140857,0.687339,-0.051866,0.748639,39.547161,-23.381241,-3.225832,0.506681,1.597701,-0.215287,0.000000,0.000000,0.000000,0.000000,0.000000,0.000000
14686265.000000,-2.291290,-1.662788,1.283982,-1.463166,1.698230,1.319903,-0.585003,0.227835,0.000428,0.691671,-0.192053,-0.144017,0.684110,-0.047162,0.748639,39.499554,-23.210648,-3.249635,0.542386,1.643478,-0.248246,0.000000,0.000000,0.000000,0.000000,0.000000,0.000000
14686266.000000,-2.291067,-1.662780,1.284682,-1.463363,1.698102,1.320582,-0.585058,0.226325,0.003161,0.691624,-0.194494,-0.138814,0.678379,-0.050587,0.673261,39.376568,-23.135269,-3.249635,0.482877,1.747848,-0.221696,0.000000,0.000000,0.000000,0.000000,0.000000,0.000000
14686267.000000,-2.290850,-1.662776,1.285383,-1.463547,1.697963,1.321276,-0.585109,0.222821,0.003220,0.690971,-0.190951,-0.137672,0.682731,-0.046964,0.673261,39.328960,-23.087662,-3.348818,0.494779,1.747848,-0.235429,0.000000,0.000000,0.000000,0.000000,0.000000,0.000000
14686268.000000,-2.290630,-1.662768,1.286071,-1.463739,1.697839,1.321952,-0.585162,0.220053,0.005023,0.692834,-0.190664,-0.134736,0.678916,-0.050801,0.697065,39.205975,-22.964676,-3.348818,0.452665,1.714889,-0.202470,0.000000,0.000000,0.000000,0.000000,0.000000,0.000000
14686269.000000,-2.290404,-1.662757,1.286776,-1.463926,1.697707,1.322640,-0.585204,0.223165,0.006225,0.690157,-0.190775,-0.138285,0.682822,-0.050242,0.625654,39.082989,-23.016251,-3.325014,0.440763,1.735030,-0.254655,0.000000,0.000000,0.000000,0.000000,0.000000,0.000000
14686270.000000,-2.290175,-1.662744,1.287475,-1.464117,1.697580,1.323335,-0.585257,0.225333,0.008140,0.710352,-0.193682,-0.131110,0.687883,-0.053378,0.502668,38.912395,-23.063858,-3.301210,0.410551,1.721298,-0.215287,0.000000,0.000000,0.000000,0.000000,0.000000,0.000000
14686271.000000,-2.289947,-1.662737,1.288188,-1.464306,1.697449,1.324029,-0.585305,0.228082,0.013948,0.712701,-0.192901,-0.136841,0.687363,-0.050672,0.375715,38.813213,-23.210648,-3.277406,0.428861,1.670028,-0.182328,0.000000,0.000000,0.000000,0.000000,0.000000,0.000000
14686272.000000,-2.289722,-1.662725,1.288894,-1.464490,1.697306,1.324722,-0.585346,0.224409,0.013249,0.709377,-0.190680,-0.136725,0.686228,-0.045321,0.328107,38.666424,-23.309830,-3.325014,0.458158,1.611434,-0.235429,0.000000,0.000000,0.000000,0.000000,0.000000,0.000000
14686273.000000,-2.289498,-1.662710,1.289598,-1.464671,1.697172,1.325396,-0.585398,0.226163,0.013768,0.708118,-0.185808,-0.136119,0.682177,-0.049970,0.252729,38.472027,-23.432816,-3.376589,0.476469,1.662704,-0.196061,0.000000,0.000000,0.000000,0.000000,0.000000,0.000000
14686274.000000,-2.289282,-1.662703,1.290312,-1.464847,1.697040,1.326065,-0.585438,0.222276,0.011232,0.707289,-0.184344,-0.129525,0.681063,-0.045372,0.252729,38.396648,-23.627213,-3.475771,0.452665,1.793624,-0.241837,0.000000,0.000000,0.000000,0.000000,0.000000,0.000000
