chaoyuefei/paper-gmrm-data/robot_logs/onetime_s2_dq_mrm_max_0.50_log_20260314_182305.csv
# time_ms,q_0,q_1,q_2,q_3,q_4,q_5,q_6,dq_0,dq_1,dq_2,dq_3,dq_4,dq_5,dq_6,tau_J_0,tau_J_1,tau_J_2,tau_J_3,tau_J_4,tau_J_5,tau_J_6,O_dP_EE_c_0,O_dP_EE_c_1,O_dP_EE_c_2,O_dP_EE_c_3,O_dP_EE_c_4,O_dP_EE_c_5
15250335.000000,2.312547,-0.964381,-1.819379,-1.386090,-0.926917,1.664956,0.447249,0.000144,0.000180,-0.000377,-0.000772,0.000147,0.000202,-0.000144,0.403486,34.873699,19.374191,12.222776,0.255826,2.085677,0.061202,0.000000,0.000000,0.000000,0.000000,0.000000,0.000000
15250336.000000,2.312549,-0.964380,-1.819378,-1.386085,-0.926917,1.664952,0.447256,0.000745,0.000677,0.000399,0.001248,0.000098,-0.000340,0.001125,0.375715,34.849895,19.346420,12.147398,0.255826,2.098495,0.028243,0.000000,0.000000,0.000000,0.000000,0.000000,0.000000
15250337.000000,2.312545,-0.964385,-1.819379,-1.386085,-0.926917,1.664955,0.447249,-0.000709,-0.001219,-0.000384,0.000832,0.000065,-0.000227,-0.000980,0.427289,34.921307,19.374191,12.147398,0.255826,2.098495,0.074935,0.000000,0.000000,0.000000,0.000000,0.000000,0.000000
15250338.000000,2.312545,-0.964383,-1.819379,-1.386087,-0.926917,1.664953,0.447253,-0.000473,-0.000256,-0.000256,-0.000002,0.000044,0.000086,0.001076,0.427289,34.897503,19.374191,12.171202,0.255826,2.092086,0.028243,0.000000,0.000000,0.000000,0.000000,0.000000,0.000000
15250339.000000,2.312534,-0.964385,-1.819379,-1.386087,-0.926919,1.664951,0.447248,-0.014922,-0.007609,-0.008302,-0.000651,-0.001014,-0.008825,0.002216,-0.017047,34.409527,18.783066,12.198973,0.154203,2.072860,0.127120,0.000000,0.000000,0.000000,0.000000,0.000000,0.000000
15250340.000000,2.312516,-0.964355,-1.819397,-1.386090,-0.926903,1.664956,0.447272,-0.031589,-0.009790,-0.027212,-0.003868,-0.000230,-0.003564,0.009099,-1.873736,32.108501,16.942245,12.345762,-0.252291,1.988631,0.074935,0.000000,0.000000,0.000000,0.000000,0.000000,0.000000
15250341.000000,2.312507,-0.964296,-1.819464,-1.386089,-0.926900,1.664952,0.447312,-0.031409,0.009713,-0.049331,-0.000522,-0.001062,-0.001517,0.023041,-5.341143,28.069805,14.192917,12.393370,-0.772311,1.949264,0.061202,0.000000,0.000000,0.000000,0.000000,0.000000,0.000000
15250342.000000,2.312476,-0.964275,-1.819579,-1.386075,-0.926938,1.664950,0.447363,-0.022748,0.021435,-0.061655,0.003350,-0.015990,-0.003394,0.030772,-9.399676,23.785137,10.856430,12.246580,-1.053378,2.001449,0.120712,0.000000,0.000000,0.000000,0.000000,0.000000,0.000000
15250343.000000,2.312399,-0.964320,-1.819721,-1.386062,-0.927030,1.664951,0.447440,-0.029279,0.008166,-0.075267,0.001298,-0.042065,-0.002256,0.044203,-13.089252,20.210613,7.369186,12.024412,-0.951754,2.118636,0.114303,0.000000,0.000000,0.000000,0.000000,0.000000,0.000000
15250344.000000,2.312305,-0.964415,-1.819884,-1.386067,-0.927150,1.664992,0.447531,-0.036883,-0.014778,-0.091131,-0.002980,-0.070959,0.008882,0.062984,-16.528887,17.370037,4.179489,11.901426,-0.688998,1.968490,0.160079,0.000000,0.000000,0.000000,0.000000,0.000000,0.000000
15250345.000000,2.312186,-0.964544,-1.820041,-1.386073,-0.927293,1.665096,0.447654,-0.054691,-0.046306,-0.099924,-0.004501,-0.098348,0.043235,0.086955,-19.401201,15.314983,1.184189,11.703062,-0.365817,1.357833,0.114303,0.000000,0.000000,0.000000,0.000000,0.000000,0.000000
15250346.000000,2.312069,-0.964703,-1.820202,-1.386090,-0.927452,1.665259,0.447790,-0.068628,-0.080933,-0.113635,-0.007620,-0.117423,0.085486,0.103676,-22.051348,13.918499,-1.243790,11.580076,-0.174471,0.492660,0.193038,0.000000,0.000000,0.000000,0.000000,0.000000,0.000000
15250347.000000,2.311947,-0.964874,-1.820339,-1.386116,-0.927610,1.665432,0.447956,-0.082173,-0.105940,-0.112117,-0.016140,-0.130717,0.115476,0.125899,-24.427752,12.890972,-3.600357,11.457090,-0.264193,-0.112504,0.173812,0.000000,0.000000,0.000000,0.000000,0.000000,0.000000
15250348.000000,2.311816,-0.965041,-1.820467,-1.386134,-0.927770,1.665599,0.448155,-0.099802,-0.122015,-0.112058,-0.017231,-0.141409,0.134575,0.149346,-26.482805,12.085613,-5.611771,11.107969,-0.479342,-0.268143,0.107894,0.000000,0.000000,0.000000,0.000000,0.000000,0.000000
15250349.000000,2.311683,-0.965200,-1.820598,-1.386165,-0.927933,1.665770,0.448361,-0.100660,-0.134001,-0.110579,-0.024565,-0.148101,0.147780,0.161327,-28.018145,11.375469,-6.964615,10.616026,-0.743014,-0.092362,0.180221,0.000000,0.000000,0.000000,0.000000,0.000000,0.000000
15250350.000000,2.311545,-0.965351,-1.820718,-1.386231,-0.928102,1.665975,0.448594,-0.102459,-0.137434,-0.105921,-0.044130,-0.155407,0.161412,0.184688,-28.339495,10.736736,-7.698563,10.020933,-0.975558,0.134689,0.160079,0.000000,0.000000,0.000000,0.000000,0.000000,0.000000
15250351.000000,2.311388,-0.965472,-1.820833,-1.386357,-0.928279,1.666237,0.448854,-0.115454,-0.130918,-0.109079,-0.078750,-0.158789,0.197596,0.206192,-27.077898,10.054363,-7.650955,9.576597,-1.143099,0.219833,0.153671,0.000000,0.000000,0.000000,0.000000,0.000000,0.000000
15250352.000000,2.311225,-0.965571,-1.820938,-1.386553,-0.928478,1.666545,0.449124,-0.132298,-0.117725,-0.110650,-0.119189,-0.177992,0.231636,0.222999,-24.749102,9.320415,-7.083633,9.231443,-1.119296,0.128280,0.147262,0.000000,0.000000,0.000000,0.000000,0.000000,0.000000
15250353.000000,2.311050,-0.965649,-1.821048,-1.386782,-0.928701,1.666895,0.449403,-0.150891,-0.106452,-0.112654,-0.160191,-0.191035,0.267675,0.240624,-21.654619,8.534893,-6.079910,8.735533,-0.993868,-0.027360,0.133529,0.000000,0.000000,0.000000,0.000000,0.000000,0.000000
15250354.000000,2.310880,-0.965719,-1.821165,-1.387039,-0.928946,1.667242,0.449681,-0.164061,-0.095779,-0.120762,-0.193289,-0.206728,0.291955,0.252633,-18.361773,7.800945,-4.802444,7.993651,-0.802523,0.031234,0.160079,0.000000,0.000000,0.000000,0.000000,0.000000,0.000000
15250355.000000,2.310717,-0.965786,-1.821284,-1.387329,-0.929196,1.667593,0.449971,-0.173388,-0.091185,-0.126375,-0.220628,-0.218398,0.309287,0.264374,-15.191913,7.090801,-3.576554,7.204161,-0.604769,0.381881,0.120712,0.000000,0.000000,0.000000,0.000000,0.000000,0.000000
15250356.000000,2.310553,-0.965857,-1.821395,-1.387632,-0.929451,1.667965,0.450265,-0.178255,-0.087327,-0.127729,-0.242633,-0.226673,0.328411,0.270966,-12.271991,6.479839,-2.668045,6.438475,-0.539767,0.733443,0.114303,0.000000,0.000000,0.000000,0.000000,0.000000,0.000000
15250357.000000,2.310381,-0.965939,-1.821520,-1.387951,-0.929701,1.668369,0.450565,-0.180962,-0.088798,-0.133757,-0.258108,-0.234778,0.349023,0.282415,-9.475055,6.087078,-1.807144,5.648985,-0.677096,0.804855,0.048385,0.000000,0.000000,0.000000,0.000000,0.000000,0.000000
15250358.000000,2.310214,-0.966037,-1.821663,-1.388266,-0.929974,1.668813,0.450849,-0.182810,-0.094242,-0.141451,-0.268123,-0.246034,0.377181,0.281715,-7.074847,5.892681,-1.049393,4.756346,-0.826327,0.746261,0.127120,0.000000,0.000000,0.000000,0.000000,0.000000,0.000000
15250359.000000,2.310044,-0.966148,-1.821818,-1.388593,-0.930273,1.669265,0.451154,-0.184436,-0.102382,-0.148035,-0.281347,-0.256533,0.403144,0.286272,-4.944415,5.916485,-0.410660,3.966856,-0.904147,0.700484,0.074935,0.000000,0.000000,0.000000,0.000000,0.000000,0.000000
15250360.000000,2.309876,-0.966293,-1.821985,-1.388914,-0.930585,1.669725,0.451446,-0.179038,-0.119291,-0.157322,-0.287453,-0.280096,0.424011,0.289448,-3.139300,6.309246,0.005905,3.173399,-0.916049,0.739852,0.034652,0.000000,0.000000,0.000000,0.000000,0.000000,0.000000
15250361.000000,2.309711,-0.966452,-1.822171,-1.389224,-0.930920,1.670213,0.451733,-0.174980,-0.136534,-0.164774,-0.296915,-0.298544,0.440008,0.281916,-1.528582,6.821026,0.398666,2.284727,-0.826327,0.765487,0.100570,0.000000,0.000000,0.000000,0.000000,0.000000,0.000000
15250362.000000,2.309563,-0.966621,-1.822370,-1.389538,-0.931282,1.670722,0.452022,-0.165577,-0.153678,-0.174516,-0.297325,-0.317140,0.458147,0.280672,-0.366168,7.285198,0.696213,1.372252,-0.724703,0.622665,0.081344,0.000000,0.000000,0.000000,0.000000,0.000000,0.000000
15250363.000000,2.309424,-0.966792,-1.822579,-1.389868,-0.931655,1.671271,0.452297,-0.155840,-0.160496,-0.184956,-0.307223,-0.335052,0.484206,0.277041,0.474897,7.531170,0.819198,0.729552,-0.641390,0.349838,0.133529,0.000000,0.000000,0.000000,0.000000,0.000000,0.000000
15250364.000000,2.309296,-0.966964,-1.822800,-1.390200,-0.932037,1.671838,0.452592,-0.147575,-0.162820,-0.195110,-0.313695,-0.345452,0.523007,0.277487,1.069990,7.630352,0.890610,0.186034,-0.623080,0.109054,0.074935,0.000000,0.000000,0.000000,0.000000,0.000000,0.000000
15250365.000000,2.309177,-0.967138,-1.823025,-1.390528,-0.932435,1.672407,0.452880,-0.137168,-0.167212,-0.201833,-0.319271,-0.364120,0.540792,0.282290,1.415143,7.606548,0.767624,-0.409059,-0.712802,0.004684,0.048385,0.000000,0.000000,0.000000,0.000000,0.000000,0.000000
15250366.000000,2.309076,-0.967304,-1.823264,-1.390857,-0.932853,1.672985,0.453163,-0.124439,-0.163249,-0.212001,-0.324294,-0.377191,0.550706,0.277345,1.466718,7.431988,0.696213,-0.976381,-0.700900,0.102645,0.107894,0.000000,0.000000,0.000000,0.000000,0.000000,0.000000
15250367.000000,2.308986,-0.967467,-1.823505,-1.391200,-0.933288,1.673565,0.453454,-0.111268,-0.162362,-0.222045,-0.330976,-0.389326,0.562434,0.278190,1.315961,6.991619,0.573227,-1.420717,-0.599276,0.264693,0.054794,0.000000,0.000000,0.000000,0.000000,0.000000,0.000000
15250368.000000,2.308891,-0.967623,-1.823765,-1.391570,-0.933723,1.674184,0.453736,-0.103935,-0.157913,-0.229396,-0.339063,-0.403626,0.578389,0.281529,1.216779,6.356853,0.450241,-1.571474,-0.629489,0.349838,0.067611,0.000000,0.000000,0.000000,0.000000,0.000000,0.000000
15250369.000000,2.308803,-0.967776,-1.824023,-1.391934,-0.934177,1.674850,0.454026,-0.097834,-0.154508,-0.240460,-0.344170,-0.412628,0.609001,0.279365,1.046186,5.670513,0.228073,-1.742067,-0.587374,0.206100,0.041976,0.000000,0.000000,0.000000,0.000000,0.000000,0.000000
15250370.000000,2.308716,-0.967941,-1.824306,-1.392328,-0.934635,1.675529,0.454293,-0.094575,-0.156790,-0.256030,-0.358815,-0.425776,0.629164,0.274215,0.895429,5.158733,0.204269,-1.670656,-0.497653,-0.008134,0.133529,0.000000,0.000000,0.000000,0.000000,0.000000,0.000000
15250371.000000,2.308645,-0.968116,-1.824596,-1.392728,-0.935094,1.676228,0.454576,-0.087914,-0.163510,-0.263093,-0.380040,-0.437753,0.646743,0.276975,0.574079,4.718365,0.128891,-1.595277,-0.467440,-0.079545,0.054794,0.000000,0.000000,0.000000,0.000000,0.000000,0.000000
15250372.000000,2.308575,-0.968310,-1.824877,-1.393141,-0.935578,1.676921,0.454856,-0.078220,-0.173083,-0.267539,-0.388455,-0.447767,0.661630,0.280537,0.276533,4.472393,-0.117081,-1.642885,-0.264193,-0.020951,0.061202,0.000000,0.000000,0.000000,0.000000,0.000000,0.000000
15250373.000000,2.308513,-0.968514,-1.825191,-1.393562,-0.936038,1.677646,0.455130,-0.070268,-0.180327,-0.277847,-0.394258,-0.455636,0.678834,0.277199,-0.068621,4.397015,0.057480,-1.694460,-0.187289,0.128280,0.100570,0.000000,0.000000,0.000000,0.000000,0.000000,0.000000
15250374.000000,2.308452,-0.968734,-1.825501,-1.393990,-0.936502,1.678400,0.455416,-0.066232,-0.185929,-0.280013,-0.402956,-0.454665,0.700963,0.277069,-0.215411,4.813580,0.426437,-1.841249,-0.180880,0.174056,0.061202,0.000000,0.000000,0.000000,0.000000,0.000000,0.000000
15250375.000000,2.308378,-0.968970,-1.825789,-1.394443,-0.936971,1.679181,0.455681,-0.067323,-0.201551,-0.278732,-0.417309,-0.452319,0.722950,0.276821,0.078168,5.575298,0.843002,-1.892824,-0.085665,0.076095,0.127120,0.000000,0.000000,0.000000,0.000000,0.000000,0.000000
15250376.000000,2.308308,-0.969220,-1.826090,-1.394924,-0.937416,1.679997,0.455962,-0.068036,-0.216086,-0.284638,-0.439009,-0.449444,0.745370,0.278368,0.550275,6.626629,1.723740,-1.793642,-0.157076,0.023910,0.061202,0.000000,0.000000,0.000000,0.000000,0.000000,0.000000
15250377.000000,2.308225,-0.969472,-1.826373,-1.395412,-0.937859,1.680816,0.456244,-0.071859,-0.231321,-0.282301,-0.455889,-0.445993,0.786190,0.277488,1.343732,7.824749,2.608444,-1.642885,-0.234896,-0.027360,0.034652,0.000000,0.000000,0.000000,0.000000,0.000000,0.000000
15250378.000000,2.308133,-0.969729,-1.826651,-1.395912,-0.938301,1.681659,0.456504,-0.077077,-0.243465,-0.280161,-0.467281,-0.452895,0.796389,0.267577,2.283979,8.999065,3.516952,-1.619081,-0.145175,-0.001725,0.120712,0.000000,0.000000,0.000000,0.000000,0.000000,0.000000
15250379.000000,2.308043,-0.969979,-1.826940,-1.396439,-0.938740,1.682513,0.456782,-0.081927,-0.249662,-0.285691,-0.486035,-0.445240,0.805798,0.271774,3.200422,9.931377,4.500839,-1.321535,-0.216586,0.082504,0.034652,0.000000,0.000000,0.000000,0.000000,0.000000,0.000000
15250380.000000,2.307943,-0.970232,-1.827224,-1.396985,-0.939172,1.683349,0.457041,-0.091906,-0.253439,-0.289181,-0.505461,-0.440849,0.813778,0.264532,4.140668,10.518536,5.210983,-1.051759,-0.258700,0.161239,0.087753,0.000000,0.000000,0.000000,0.000000,0.000000,0.000000
15250381.000000,2.307837,-0.970492,-1.827524,-1.397542,-0.939606,1.684188,0.457306,-0.098422,-0.255046,-0.291167,-0.516252,-0.441623,0.809054,0.268528,5.057111,10.935101,5.897324,-0.928774,-0.199191,0.232650,0.081344,0.000000,0.000000,0.000000,0.000000,0.000000,0.000000
15250382.000000,2.307739,-0.970753,-1.827833,-1.398113,-0.940054,1.685035,0.457569,-0.102079,-0.255346,-0.300485,-0.531372,-0.439795,0.827193,0.267460,5.775190,11.252483,6.488449,-0.778017,-0.180880,0.271102,0.120712,0.000000,0.000000,0.000000,0.000000,0.000000,0.000000
15250383.000000,2.307630,-0.971042,-1.828146,-1.398693,-0.940501,1.685845,0.457844,-0.105208,-0.266428,-0.305541,-0.547608,-0.439668,0.826797,0.265906,6.517072,11.645245,6.829636,-0.754213,-0.138766,0.304061,0.054794,0.000000,0.000000,0.000000,0.000000,0.000000,0.000000
15250384.000000,2.307514,-0.971342,-1.828468,-1.399272,-0.940949,1.686646,0.458114,-0.106884,-0.278850,-0.309004,-0.554316,-0.444879,0.807800,0.262772,7.235151,12.010235,7.150986,-0.904970,-0.079257,0.427657,0.041976,0.000000,0.000000,0.000000,0.000000,0.000000,0.000000
15250385.000000,2.307397,-0.971667,-1.828790,-1.399866,-0.941403,1.687449,0.458380,-0.110397,-0.291525,-0.315273,-0.560856,-0.440610,0.798911,0.262855,7.901655,12.549786,7.444565,-1.150941,-0.079257,0.446883,0.094161,0.000000,0.000000,0.000000,0.000000,0.000000,0.000000
15250386.000000,2.307271,-0.972020,-1.829126,-1.400469,-0.941849,1.688257,0.458650,-0.113855,-0.310940,-0.317673,-0.566146,-0.444459,0.804422,0.266389,8.595929,13.212322,7.690536,-1.420717,-0.049044,0.369064,0.061202,0.000000,0.000000,0.000000,0.000000,0.000000,0.000000
15250387.000000,2.307144,-0.972382,-1.829457,-1.401068,-0.942310,1.689058,0.458918,-0.116006,-0.326597,-0.322937,-0.578954,-0.450288,0.798450,0.266001,9.290204,13.847088,7.861130,-1.718263,-0.072848,0.329696,0.087753,0.000000,0.000000,0.000000,0.000000,0.000000,0.000000
15250388.000000,2.307014,-0.972773,-1.829799,-1.401682,-0.942772,1.689850,0.459187,-0.119099,-0.345551,-0.332208,-0.585340,-0.454677,0.798100,0.268834,9.881330,14.656414,8.007919,-1.992006,-0.091158,0.277511,0.054794,0.000000,0.000000,0.000000,0.000000,0.000000,0.000000
15250389.000000,2.306872,-0.973168,-1.830150,-1.402293,-0.943228,1.690651,0.459453,-0.132595,-0.359520,-0.334238,-0.601917,-0.454291,0.798368,0.263518,10.452619,15.338787,8.206284,-2.190370,-0.085665,0.174056,0.074935,0.000000,0.000000,0.000000,0.000000,0.000000,0.000000
15250390.000000,2.306724,-0.973583,-1.830490,-1.402924,-0.943692,1.691440,0.459727,-0.140027,-0.373930,-0.333926,-0.604915,-0.451647,0.792847,0.265539,10.750165,16.195721,8.329269,-1.869020,-0.121371,0.128280,0.074935,0.000000,0.000000,0.000000,0.000000,0.000000,0.000000
15250391.000000,2.306557,-0.973996,-1.830826,-1.403552,-0.944155,1.692235,0.460003,-0.151515,-0.380314,-0.330962,-0.606254,-0.449518,0.788778,0.262528,10.849347,16.905865,8.301498,-1.127138,-0.121371,0.219833,0.061202,0.000000,0.000000,0.000000,0.000000,0.000000,0.000000
15250392.000000,2.306382,-0.974411,-1.831178,-1.404161,-0.944618,1.693029,0.460277,-0.157741,-0.389944,-0.338088,-0.607718,-0.452340,0.786031,0.267578,10.698590,17.663616,8.400681,-0.063905,-0.192782,0.316879,0.107894,0.000000,0.000000,0.000000,0.000000,0.000000,0.000000
15250393.000000,2.306212,-0.974834,-1.831534,-1.404778,-0.945089,1.693811,0.460561,-0.161826,-0.400595,-0.344961,-0.609859,-0.455780,0.781760,0.275129,10.206647,18.302349,8.547470,1.296873,-0.240389,0.473434,0.034652,0.000000,0.000000,0.000000,0.000000,0.000000,0.000000
15250394.000000,2.306032,-0.975262,-1.831887,-1.405386,-0.945556,1.694608,0.460838,-0.164378,-0.407426,-0.343713,-0.610864,-0.451741,0.781216,0.272950,9.611554,18.865704,8.599045,2.780638,-0.204684,0.641891,0.067611,0.000000,0.000000,0.000000,0.000000,0.000000,0.000000
15250395.000000,2.305845,-0.975681,-1.832242,-1.405981,-0.946030,1.695378,0.461121,-0.169598,-0.414802,-0.342667,-0.607733,-0.449948,0.794395,0.277889,9.139447,19.258465,8.745834,4.189024,-0.228488,0.876266,0.054794,0.000000,0.000000,0.000000,0.000000,0.000000,0.000000
15250396.000000,2.305669,-0.976096,-1.832607,-1.406583,-0.946485,1.696170,0.461388,-0.163795,-0.412301,-0.348673,-0.611684,-0.458517,0.789230,0.274475,8.496747,19.429058,8.916428,5.522032,-0.324618,1.025497,0.107894,0.000000,0.000000,0.000000,0.000000,0.000000,0.000000
15250397.000000,2.305497,-0.976518,-1.832983,-1.407170,-0.946959,1.696978,0.461668,-0.165161,-0.416546,-0.357490,-0.606113,-0.459125,0.794701,0.274864,7.925458,19.552044,9.138596,6.613036,-0.276095,1.039230,0.074935,0.000000,0.000000,0.000000,0.000000,0.000000,0.000000
15250398.000000,2.305338,-0.976954,-1.833367,-1.407769,-0.947440,1.697760,0.461938,-0.157135,-0.419920,-0.365421,-0.606520,-0.462222,0.794091,0.273874,7.211347,19.722637,9.432175,7.477904,-0.258700,1.064864,0.087753,0.000000,0.000000,0.000000,0.000000,0.000000,0.000000
15250399.000000,2.305171,-0.977396,-1.833756,-1.408367,-0.947913,1.698539,0.462210,-0.160077,-0.428133,-0.371116,-0.607651,-0.460868,0.785524,0.276599,6.715436,19.770245,9.725754,8.069029,-0.228488,1.240646,0.061202,0.000000,0.000000,0.000000,0.000000,0.000000,0.000000
15250400.000000,2.305016,-0.977840,-1.834138,-1.408945,-0.948402,1.699295,0.462480,-0.155828,-0.432913,-0.372533,-0.599165,-0.471479,0.776771,0.273825,6.243330,19.845623,9.900314,8.366575,-0.133273,1.429244,0.081344,0.000000,0.000000,0.000000,0.000000,0.000000,0.000000
15250401.000000,2.304877,-0.978305,-1.834537,-1.409532,-0.948894,1.700063,0.462751,-0.149339,-0.440021,-0.383221,-0.592333,-0.473194,0.770134,0.268643,5.624433,19.869427,10.217697,8.513365,-0.079257,1.481429,0.067611,0.000000,0.000000,0.000000,0.000000,0.000000,0.000000
15250402.000000,2.304741,-0.978763,-1.834944,-1.410109,-0.949371,1.700848,0.463023,-0.147785,-0.450109,-0.390118,-0.588553,-0.477654,0.773617,0.265474,5.057111,19.845623,10.487473,8.489561,-0.060946,1.396285,0.034652,0.000000,0.000000,0.000000,0.000000,0.000000,0.000000
15250403.000000,2.304607,-0.979238,-1.835343,-1.410679,-0.949866,1.701619,0.463285,-0.140231,-0.456509,-0.391959,-0.582926,-0.478348,0.781555,0.264516,4.585004,19.817852,10.757248,8.291197,-0.079257,1.324874,0.100570,0.000000,0.000000,0.000000,0.000000,0.000000,0.000000
15250404.000000,2.304485,-0.979726,-1.835742,-1.411251,-0.950354,1.702388,0.463560,-0.133526,-0.470821,-0.394129,-0.575464,-0.482049,0.775638,0.268771,4.041486,19.869427,10.955612,8.045225,-0.060946,1.272689,0.041976,0.000000,0.000000,0.000000,0.000000,0.000000,0.000000
15250405.000000,2.304370,-0.980223,-1.836150,-1.411819,-0.950846,1.703161,0.463823,-0.126330,-0.474740,-0.395885,-0.572003,-0.487810,0.769599,0.262856,3.545576,20.087627,11.272995,7.846861,-0.079257,1.292831,0.061202,0.000000,0.000000,0.000000,0.000000,0.000000,0.000000
15250406.000000,2.304270,-0.980719,-1.836557,-1.412382,-0.951363,1.703918,0.464084,-0.116808,-0.475851,-0.400980,-0.568756,-0.493811,0.769134,0.258456,3.025861,20.405010,11.741135,7.672301,0.069974,1.318465,0.061202,0.000000,0.000000,0.000000,0.000000,0.000000,0.000000
15250407.000000,2.304161,-0.981220,-1.836960,-1.412927,-0.951864,1.704688,0.464340,-0.113579,-0.476247,-0.398734,-0.568155,-0.502010,0.762506,0.255588,2.803693,21.115154,12.375900,7.501708,0.201810,1.357833,0.087753,0.000000,0.000000,0.000000,0.000000,0.000000,0.000000
15250408.000000,2.304061,-0.981717,-1.837348,-1.413490,-0.952366,1.705461,0.464605,-0.108160,-0.482885,-0.396092,-0.564356,-0.491511,0.772625,0.259564,2.605329,21.972088,13.137619,7.600890,0.183500,1.292831,0.094161,0.000000,0.000000,0.000000,0.000000,0.000000,0.000000
15250409.000000,2.303960,-0.982208,-1.837735,-1.414052,-0.952864,1.706238,0.464866,-0.106598,-0.485435,-0.393632,-0.564702,-0.503777,0.768065,0.262741,2.529951,22.952007,13.899338,7.870665,0.225614,1.285506,0.094161,0.000000,0.000000,0.000000,0.000000,0.000000,0.000000
15250410.000000,2.303888,-0.982704,-1.838128,-1.414599,-0.953367,1.707019,0.465141,-0.097330,-0.489352,-0.397466,-0.559188,-0.508148,0.761496,0.267346,2.160993,24.003338,14.784042,8.168211,0.189908,1.364242,0.015426,0.000000,0.000000,0.000000,0.000000,0.000000,0.000000
15250411.000000,2.303808,-0.983203,-1.838516,-1.415155,-0.953863,1.707775,0.465397,-0.091329,-0.494740,-0.398410,-0.557473,-0.506919,0.768487,0.274286,1.934858,25.082439,15.593369,8.489561,0.141385,1.500655,0.087753,0.000000,0.000000,0.000000,0.000000,0.000000,0.000000
15250412.000000,2.303741,-0.983710,-1.838903,-1.415707,-0.954360,1.708534,0.465661,-0.084495,-0.501426,-0.395083,-0.556713,-0.509449,0.756374,0.268508,1.613508,26.038555,16.279709,8.810911,0.178007,1.695663,0.087753,0.000000,0.000000,0.000000,0.000000,0.000000,0.000000
15250413.000000,2.303680,-0.984206,-1.839291,-1.416262,-0.954862,1.709296,0.465932,-0.076568,-0.501515,-0.397410,-0.558757,-0.506668,0.771379,0.265155,1.292158,26.919292,16.989853,9.255247,0.135892,1.819259,0.054794,0.000000,0.000000,0.000000,0.000000,0.000000,0.000000
15250414.000000,2.303619,-0.984716,-1.839679,-1.416834,-0.955363,1.710067,0.466190,-0.072048,-0.507650,-0.393343,-0.559173,-0.506471,0.772068,0.260529,1.046186,27.748455,17.481796,9.727354,0.112089,1.832076,0.081344,0.000000,0.000000,0.000000,0.000000,0.000000,0.000000
15250415.000000,2.303570,-0.985239,-1.840072,-1.417393,-0.955877,1.710855,0.466457,-0.065764,-0.518914,-0.392277,-0.564168,-0.510211,0.770309,0.259258,0.697065,28.752178,17.898361,10.096312,0.201810,1.747848,0.048385,0.000000,0.000000,0.000000,0.000000,0.000000,0.000000
15250416.000000,2.303521,-0.985788,-1.840477,-1.417961,-0.956386,1.711632,0.466716,-0.058847,-0.529008,-0.396442,-0.565244,-0.510299,0.773098,0.255752,0.351911,29.902691,18.366501,10.342283,0.249418,1.695663,0.087753,0.000000,0.000000,0.000000,0.000000,0.000000,0.000000
15250417.000000,2.303480,-0.986356,-1.840875,-1.418521,-0.956896,1.712396,0.466975,-0.052693,-0.542829,-0.392476,-0.560865,-0.513083,0.766623,0.262746,-0.044818,31.152386,18.683884,10.342283,0.339139,1.702071,0.067611,0.000000,0.000000,0.000000,0.000000,0.000000,0.000000
15250418.000000,2.303446,-0.986915,-1.841271,-1.419078,-0.957410,1.713163,0.467244,-0.047815,-0.547677,-0.402431,-0.559093,-0.513423,0.765348,0.263448,-0.441546,32.279095,18.929855,10.393858,0.393156,1.779891,0.094161,0.000000,0.000000,0.000000,0.000000,0.000000,0.000000
15250419.000000,2.303420,-0.987498,-1.841671,-1.419641,-0.957911,1.713930,0.467512,-0.039370,-0.556681,-0.405252,-0.553158,-0.504484,0.769570,0.262224,-0.909686,33.306622,19.128220,10.417662,0.327238,1.721298,0.048385,0.000000,0.000000,0.000000,0.000000,0.000000,0.000000
15250420.000000,2.303396,-0.988084,-1.842080,-1.420194,-0.958412,1.714704,0.467780,-0.034808,-0.572101,-0.406378,-0.547935,-0.504205,0.769837,0.265473,-1.306414,34.310345,19.298813,10.342283,0.285123,1.578475,0.034652,0.000000,0.000000,0.000000,0.000000,0.000000,0.000000
15250421.000000,2.303385,-0.988671,-1.842482,-1.420753,-0.958909,1.715467,0.468035,-0.028395,-0.572620,-0.402303,-0.549557,-0.496408,0.771236,0.253749,-1.849932,35.068096,19.497177,10.219297,0.195402,1.559249,0.114303,0.000000,0.000000,0.000000,0.000000,0.000000,0.000000
15250422.000000,2.303364,-0.989275,-1.842887,-1.421312,-0.959398,1.716235,0.468307,-0.026085,-0.580782,-0.404420,-0.545832,-0.501500,0.769636,0.255865,-2.147479,35.730633,19.667770,10.143919,0.112089,1.591293,0.048385,0.000000,0.000000,0.000000,0.000000,0.000000,0.000000
15250423.000000,2.303342,-0.989853,-1.843290,-1.421867,-0.959897,1.717013,0.468567,-0.022534,-0.581665,-0.404318,-0.546600,-0.498497,0.771481,0.247698,-2.397418,36.123394,19.838364,10.072508,0.093778,1.565658,0.081344,0.000000,0.000000,0.000000,0.000000,0.000000,0.000000
15250424.000000,2.303325,-0.990441,-1.843707,-1.422435,-0.960402,1.717772,0.468834,-0.019573,-0.579182,-0.410803,-0.551878,-0.499216,0.762909,0.253071,-2.643389,36.488384,20.036728,10.120115,0.171598,1.546432,0.054794,0.000000,0.000000,0.000000,0.000000,0.000000,0.000000
15250425.000000,2.303296,-0.991032,-1.844119,-1.422998,-0.960908,1.718537,0.469085,-0.021429,-0.577865,-0.411302,-0.552955,-0.498706,0.757835,0.251337,-2.690997,36.710552,20.159714,10.270872,0.213712,1.565658,0.081344,0.000000,0.000000,0.000000,0.000000,0.000000,0.000000
15250426.000000,2.303255,-0.991603,-1.844518,-1.423578,-0.961418,1.719290,0.469347,-0.027676,-0.580175,-0.406772,-0.555671,-0.497961,0.752130,0.247683,-2.520403,36.805767,20.231125,10.516844,0.279630,1.572067,0.034652,0.000000,0.000000,0.000000,0.000000,0.000000,0.000000
15250427.000000,2.303223,-0.992185,-1.844928,-1.424159,-0.961925,1.720041,0.469597,-0.028574,-0.577068,-0.409848,-0.561754,-0.512640,0.750150,0.245950,-2.468829,36.952557,20.377914,10.838194,0.315336,1.624252,0.107894,0.000000,0.000000,0.000000,0.000000,0.000000,0.000000
15250428.000000,2.303188,-0.992773,-1.845346,-1.424720,-0.962435,1.720797,0.469864,-0.033653,-0.578490,-0.414435,-0.562851,-0.510360,0.746785,0.248328,-2.369647,37.174725,20.552475,11.012754,0.291532,1.597701,0.067611,0.000000,0.000000,0.000000,0.000000,0.000000,0.000000
15250429.000000,2.303143,-0.993370,-1.845750,-1.425290,-0.962943,1.721541,0.470129,-0.036119,-0.583390,-0.410355,-0.563211,-0.509077,0.738265,0.249943,-2.171282,37.444500,20.647690,11.183348,0.273221,1.624252,0.048385,0.000000,0.000000,0.000000,0.000000,0.000000,0.000000
15250430.000000,2.303103,-0.993972,-1.846156,-1.425860,-0.963446,1.722280,0.470384,-0.039741,-0.594825,-0.409343,-0.564792,-0.506613,0.738149,0.249381,-2.024493,37.714275,20.746872,11.381712,0.195402,1.702071,0.067611,0.000000,0.000000,0.000000,0.000000,0.000000,0.000000
15250431.000000,2.303051,-0.994575,-1.846557,-1.426416,-0.963950,1.723027,0.470643,-0.042230,-0.595445,-0.401536,-0.564517,-0.500082,0.749807,0.253770,-1.726946,38.103069,20.794479,11.528502,0.147794,1.767074,0.087753,0.000000,0.000000,0.000000,0.000000,0.000000,0.000000
15250432.000000,2.302999,-0.995198,-1.846967,-1.426983,-0.964466,1.723771,0.470905,-0.046944,-0.601347,-0.405832,-0.561674,-0.505464,0.751516,0.257861,-1.429400,38.642620,20.846054,11.726866,0.093778,1.760665,0.100570,0.000000,0.000000,0.000000,0.000000,0.000000,0.000000
15250433.000000,2.302949,-0.995817,-1.847385,-1.427534,-0.964972,1.724502,0.471177,-0.048282,-0.612869,-0.406609,-0.557753,-0.499732,0.741376,0.259053,-1.207232,39.182171,20.945236,11.826048,0.040677,1.786300,0.021835,0.000000,0.000000,0.000000,0.000000,0.000000,0.000000
15250434.000000,2.302885,-0.996441,-1.847788,-1.428092,-0.965502,1.725229,0.471428,-0.053921,-0.614737,-0.405831,-0.560008,-0.509917,0.738390,0.253975,-0.786700,39.721722,20.969040,12.000608,0.135892,1.844894,0.100570,0.000000,0.000000,0.000000,0.000000,0.000000,0.000000
15250435.000000,2.302819,-0.997061,-1.848203,-1.428658,-0.966016,1.725972,0.471690,-0.056716,-0.613564,-0.406292,-0.560802,-0.509205,0.742520,0.257035,-0.413775,40.039104,21.064255,12.246580,0.123990,1.812850,0.054794,0.000000,0.000000,0.000000,0.000000,0.000000,0.000000
15250436.000000,2.302756,-0.997682,-1.848624,-1.429210,-0.966535,1.726722,0.471951,-0.061184,-0.620313,-0.422797,-0.556670,-0.515671,0.739861,0.260132,-0.068621,40.404095,21.262619,12.444944,0.178007,1.714889,0.048385,0.000000,0.000000,0.000000,0.000000,0.000000,0.000000
15250437.000000,2.302688,-0.998297,-1.849050,-1.429767,-0.967074,1.727452,0.472209,-0.062957,-0.618794,-0.421912,-0.556413,-0.520616,0.740053,0.261526,0.328107,40.626263,21.433212,12.690916,0.237516,1.676437,0.094161,0.000000,0.000000,0.000000,0.000000,0.000000,0.000000
15250438.000000,2.302611,-0.998921,-1.849471,-1.430315,-0.967594,1.728184,0.472477,-0.067826,-0.626033,-0.422755,-0.563663,-0.517853,0.730445,0.263711,0.772443,40.943645,21.580002,12.813902,0.243009,1.721298,0.114303,0.000000,0.000000,0.000000,0.000000,0.000000,0.000000
15250439.000000,2.302528,-0.999545,-1.849888,-1.430882,-0.968117,1.728899,0.472747,-0.073905,-0.623569,-0.420649,-0.562649,-0.520159,0.725944,0.266396,1.315961,41.284832,21.679184,13.063841,0.141385,1.865035,0.100570,0.000000,0.000000,0.000000,0.000000,0.000000,0.000000
15250440.000000,2.302453,-1.000159,-1.850309,-1.431443,-0.968638,1.729630,0.473015,-0.074478,-0.620530,-0.419790,-0.562784,-0.520537,0.727943,0.263351,1.688886,41.483196,21.754562,13.234434,0.093778,1.884261,0.081344,0.000000,0.000000,0.000000,0.000000,0.000000,0.000000
15250441.000000,2.302371,-1.000758,-1.850739,-1.431995,-0.969163,1.730373,0.473286,-0.076635,-0.616119,-0.419908,-0.558617,-0.525514,0.727012,0.265368,2.133222,41.530804,21.925156,13.333616,0.040677,1.851302,0.074935,0.000000,0.000000,0.000000,0.000000,0.000000,0.000000
15250442.000000,2.302292,-1.001365,-1.851162,-1.432549,-0.969692,1.731087,0.473562,-0.076011,-0.605150,-0.422724,-0.553714,-0.519942,0.729802,0.271668,2.506147,41.507000,22.119553,13.385191,-0.007845,1.962081,0.041976,0.000000,0.000000,0.000000,0.000000,0.000000,0.000000
15250443.000000,2.302210,-1.001965,-1.851592,-1.433088,-0.970222,1.731806,0.473821,-0.078921,-0.599672,-0.425671,-0.550285,-0.526038,0.719442,0.269182,2.879072,41.312603,22.317917,13.262205,0.081876,2.007858,0.107894,0.000000,0.000000,0.000000,0.000000,0.000000,0.000000
15250444.000000,2.302144,-1.002559,-1.852035,-1.433606,-0.970761,1.732519,0.474096,-0.074932,-0.603638,-0.434126,-0.537221,-0.526949,0.717382,0.266778,2.978254,41.189617,22.686874,12.940855,0.123990,2.053634,0.048385,0.000000,0.000000,0.000000,0.000000,0.000000,0.000000
15250445.000000,2.302070,-1.003146,-1.852478,-1.434131,-0.971300,1.733249,0.474355,-0.075302,-0.596395,-0.436687,-0.529517,-0.531604,0.718420,0.266136,3.200422,40.919842,23.004257,12.714720,0.201810,2.033492,0.100570,0.000000,0.000000,0.000000,0.000000,0.000000,0.000000
15250446.000000,2.301998,-1.003725,-1.852918,-1.434632,-0.971836,1.733985,0.474631,-0.077015,-0.586625,-0.439225,-0.521372,-0.533363,0.719040,0.268085,3.371015,40.650066,23.274033,12.345762,0.279630,1.995040,0.074935,0.000000,0.000000,0.000000,0.000000,0.000000,0.000000
15250447.000000,2.301933,-1.004323,-1.853364,-1.435141,-0.972366,1.734698,0.474910,-0.074019,-0.589518,-0.443984,-0.513121,-0.529594,0.721933,0.269884,3.470197,40.527081,23.642990,12.000608,0.237516,2.033492,0.061202,0.000000,0.000000,0.000000,0.000000,0.000000,0.000000
15250448.000000,2.301866,-1.004913,-1.853814,-1.435639,-0.972902,1.735423,0.475175,-0.070039,-0.588585,-0.448214,-0.506212,-0.536207,0.716832,0.269287,3.597150,40.380291,23.960373,11.603880,0.303434,2.112228,0.087753,0.000000,0.000000,0.000000,0.000000,0.000000,0.000000
15250449.000000,2.301807,-1.005489,-1.854258,-1.436115,-0.973449,1.736153,0.475446,-0.067868,-0.583158,-0.449236,-0.494049,-0.539321,0.730319,0.270524,3.620954,40.209698,24.281723,11.159544,0.356534,2.150680,0.061202,0.000000,0.000000,0.000000,0.000000,0.000000,0.000000
15250450.000000,2.301751,-1.006074,-1.854716,-1.436597,-0.973981,1.736867,0.475716,-0.065442,-0.578094,-0.451136,-0.486055,-0.537358,0.722091,0.270424,3.597150,39.987530,24.674484,10.786619,0.267728,2.157089,0.074935,0.000000,0.000000,0.000000,0.000000,0.000000,0.000000
15250451.000000,2.301689,-1.006644,-1.855168,-1.437054,-0.974525,1.737603,0.475986,-0.065492,-0.587590,-0.449136,-0.475821,-0.537115,0.722216,0.270951,3.668561,39.693951,24.920456,10.342283,0.320829,2.098495,0.067611,0.000000,0.000000,0.000000,0.000000,0.000000,0.000000
15250452.000000,2.301637,-1.007218,-1.855627,-1.437520,-0.975069,1.738316,0.476256,-0.060043,-0.587827,-0.456172,-0.469390,-0.534473,0.720130,0.271316,3.620954,39.428143,25.261642,10.072508,0.351041,2.104903,0.061202,0.000000,0.000000,0.000000,0.000000,0.000000,0.000000
15250453.000000,2.301588,-1.007797,-1.856081,-1.437991,-0.975610,1.739030,0.476516,-0.056172,-0.574881,-0.452489,-0.467840,-0.541048,0.712620,0.266746,3.569379,39.205975,25.507614,9.949522,0.320829,2.131454,0.048385,0.000000,0.000000,0.000000,0.000000,0.000000,0.000000
15250454.000000,2.301538,-1.008375,-1.856525,-1.438434,-0.976175,1.739754,0.476773,-0.054198,-0.579430,-0.458423,-0.456358,-0.547566,0.709993,0.265574,3.545576,39.106792,25.654404,9.675779,0.464567,2.112228,0.094161,0.000000,0.000000,0.000000,0.000000,0.000000,0.000000
15250455.000000,2.301503,-1.008958,-1.856988,-1.438891,-0.976731,1.740453,0.477043,-0.045890,-0.581191,-0.459391,-0.452163,-0.546419,0.703823,0.269579,3.371015,39.035381,25.924179,9.628172,0.452665,2.183639,0.034652,0.000000,0.000000,0.000000,0.000000,0.000000,0.000000
15250456.000000,2.301464,-1.009526,-1.857440,-1.439341,-0.977277,1.741171,0.477308,-0.042067,-0.577974,-0.451832,-0.459602,-0.542856,0.701178,0.269680,3.271833,38.936199,25.999557,9.727354,0.476469,2.183639,0.048385,0.000000,0.000000,0.000000,0.000000,0.000000,0.000000
15250457.000000,2.301430,-1.010112,-1.857882,-1.439798,-0.977835,1.741868,0.477574,-0.038134,-0.578920,-0.451545,-0.457490,-0.544578,0.703801,0.270050,3.148847,38.936199,26.074936,9.822569,0.530485,2.209274,0.061202,0.000000,0.000000,0.000000,0.000000,0.000000,0.000000
15250458.000000,2.301402,-1.010708,-1.858333,-1.440255,-0.978373,1.742585,0.477835,-0.034083,-0.584744,-0.451543,-0.457112,-0.538032,0.705545,0.271297,2.950483,39.035381,26.245529,9.997129,0.470060,2.255050,0.041976,0.000000,0.000000,0.000000,0.000000,0.000000,0.000000
15250459.000000,2.301370,-1.011292,-1.858773,-1.440704,-0.978921,1.743304,0.478097,-0.032787,-0.587268,-0.449431,-0.454106,-0.540882,0.708464,0.264206,2.851301,39.182171,26.269333,10.195494,0.482877,2.261459,0.074935,0.000000,0.000000,0.000000,0.000000,0.000000,0.000000
15250460.000000,2.301348,-1.011876,-1.859216,-1.441159,-0.979478,1.744005,0.478370,-0.026256,-0.585132,-0.443209,-0.455508,-0.542149,0.701424,0.271406,2.629133,39.253582,26.269333,10.441465,0.494779,2.255050,0.021835,0.000000,0.000000,0.000000,0.000000,0.000000,0.000000
15250461.000000,2.301332,-1.012481,-1.859650,-1.441618,-0.980007,1.744718,0.478620,-0.021115,-0.588396,-0.440298,-0.456879,-0.539937,0.704350,0.263232,2.383161,39.475750,26.193954,10.814390,0.398649,2.228500,0.100570,0.000000,0.000000,0.000000,0.000000,0.000000,0.000000
15250462.000000,2.301313,-1.013066,-1.860070,-1.442076,-0.980562,1.745421,0.478885,-0.019411,-0.592456,-0.435713,-0.457265,-0.539532,0.698398,0.262574,2.232404,39.670147,25.999557,11.060362,0.374845,2.202865,0.041976,0.000000,0.000000,0.000000,0.000000,0.000000,0.000000
15250463.000000,2.301306,-1.013656,-1.860502,-1.442537,-0.981099,1.746124,0.479135,-0.014874,-0.590251,-0.438401,-0.459594,-0.546718,0.695046,0.264060,1.934858,39.816936,25.876572,11.282530,0.351041,2.287093,0.061202,0.000000,0.000000,0.000000,0.000000,0.000000,0.000000
15250464.000000,2.301305,-1.014243,-1.860923,-1.442997,-0.981652,1.746823,0.479395,-0.011210,-0.588483,-0.431120,-0.465194,-0.547416,0.693971,0.264220,1.613508,39.892315,25.654404,11.504698,0.362943,2.332870,0.094161,0.000000,0.000000,0.000000,0.000000,0.000000,0.000000
15250465.000000,2.301301,-1.014829,-1.861330,-1.443473,-0.982205,1.747533,0.479661,-0.010343,-0.585132,-0.421604,-0.464481,-0.543878,0.702679,0.266664,1.367536,39.868511,25.360825,11.802244,0.410551,2.280685,0.094161,0.000000,0.000000,0.000000,0.000000,0.000000,0.000000
15250466.000000,2.301303,-1.015409,-1.861751,-1.443952,-0.982742,1.748247,0.479929,-0.005864,-0.586063,-0.417812,-0.466799,-0.548469,0.705242,0.264825,1.093793,39.670147,25.237839,12.072020,0.374845,2.255050,0.041976,0.000000,0.000000,0.000000,0.000000,0.000000,0.000000
15250467.000000,2.301308,-1.015984,-1.862157,-1.444424,-0.983297,1.748960,0.480187,-0.002584,-0.576894,-0.408146,-0.464898,-0.544375,0.711891,0.264130,0.824018,39.475750,24.944260,12.321959,0.416959,2.169906,0.087753,0.000000,0.000000,0.000000,0.000000,0.000000,0.000000
15250468.000000,2.301321,-1.016570,-1.862557,-1.444902,-0.983844,1.749668,0.480444,0.000793,-0.579555,-0.398537,-0.463680,-0.544567,0.710133,0.260843,0.502668,39.352764,24.674484,12.492552,0.405057,2.112228,0.087753,0.000000,0.000000,0.000000,0.000000,0.000000,0.000000
15250469.000000,2.301340,-1.017149,-1.862955,-1.445369,-0.984385,1.750375,0.480713,0.007116,-0.592859,-0.396647,-0.469299,-0.538467,0.704364,0.259932,0.153547,39.229778,24.404709,12.619505,0.351041,2.131454,0.048385,0.000000,0.000000,0.000000,0.000000,0.000000,0.000000
15250470.000000,2.301346,-1.017725,-1.863338,-1.445839,-0.984931,1.751069,0.480964,0.004741,-0.588860,-0.391810,-0.468398,-0.544001,0.701070,0.255392,-0.017047,39.059185,24.059555,12.667112,0.344633,2.163497,0.107894,0.000000,0.000000,0.000000,0.000000,0.000000,0.000000
15250471.000000,2.301363,-1.018312,-1.863728,-1.446321,-0.985476,1.751765,0.481223,0.008999,-0.584831,-0.389909,-0.474144,-0.543292,0.702139,0.256983,-0.314593,38.983807,23.789780,12.841673,0.308927,2.215682,0.041976,0.000000,0.000000,0.000000,0.000000,0.000000,0.000000
15250472.000000,2.301381,-1.018885,-1.864099,-1.446790,-0.986020,1.752481,0.481475,0.011561,-0.574607,-0.381991,-0.470339,-0.539514,0.702010,0.249008,-0.588336,38.837017,23.496201,12.940855,0.303434,2.190048,0.054794,0.000000,0.000000,0.000000,0.000000,0.000000,0.000000
15250473.000000,2.301398,-1.019461,-1.864480,-1.447267,-0.986575,1.753190,0.481721,0.012273,-0.573268,-0.379379,-0.471283,-0.540261,0.703108,0.249280,-0.810504,38.717999,23.297836,13.087645,0.267728,2.125045,0.067611,0.000000,0.000000,0.000000,0.000000,0.000000,0.000000
15250474.000000,2.301414,-1.020038,-1.864859,-1.447740,-0.987125,1.753896,0.481980,0.010585,-0.571636,-0.378913,-0.479288,-0.542045,0.696364,0.255384,-0.933489,38.642620,23.127243,13.234434,0.267728,2.098495,0.061202,0.000000,0.000000,0.000000,0.000000,0.000000,0.000000
15250475.000000,2.301435,-1.020615,-1.865238,-1.448221,-0.987687,1.754590,0.482233,0.016249,-0.575746,-0.380142,-0.479983,-0.552541,0.694040,0.257445,-1.084246,38.571209,22.956650,13.309813,0.303434,2.163497,0.114303,0.000000,0.000000,0.000000,0.000000,0.000000,0.000000
15250476.000000,2.301456,-1.021195,-1.865613,-1.448703,-0.988242,1.755302,0.482495,0.016648,-0.575479,-0.377591,-0.478839,-0.566141,0.694875,0.258380,-1.183428,38.543438,22.833664,13.456602,0.297025,2.169906,0.054794,0.000000,0.000000,0.000000,0.000000,0.000000,0.000000
15250477.000000,2.301471,-1.021752,-1.865988,-1.449173,-0.988810,1.756026,0.482748,0.015431,-0.571939,-0.376453,-0.476762,-0.567567,0.702425,0.260318,-1.207232,38.325237,22.710678,13.531981,0.339139,2.112228,0.067611,0.000000,0.000000,0.000000,0.000000,0.000000,0.000000
15250478.000000,2.301493,-1.022329,-1.866351,-1.449649,-0.989365,1.756728,0.483002,0.019784,-0.569982,-0.373501,-0.476658,-0.563526,0.707160,0.267021,-1.330218,38.202251,22.512314,13.678770,0.255826,2.085677,0.067611,0.000000,0.000000,0.000000,0.000000,0.000000,0.000000
15250479.000000,2.301511,-1.022892,-1.866726,-1.450125,-0.989917,1.757437,0.483260,0.019754,-0.563946,-0.375171,-0.474201,-0.562739,0.706235,0.262088,-1.429400,37.956280,22.365524,13.853331,0.219205,2.118636,0.094161,0.000000,0.000000,0.000000,0.000000,0.000000,0.000000
15250480.000000,2.301527,-1.023463,-1.867087,-1.450589,-0.990487,1.758140,0.483515,0.018000,-0.574659,-0.371793,-0.470816,-0.563124,0.709132,0.258789,-1.453204,37.956280,22.147324,13.976316,0.231107,2.125045,0.100570,0.000000,0.000000,0.000000,0.000000,0.000000,0.000000
15250481.000000,2.301540,-1.024036,-1.867449,-1.451043,-0.991049,1.758834,0.483769,0.015496,-0.570907,-0.371599,-0.462349,-0.569143,0.699865,0.252487,-1.429400,37.884869,21.972763,14.000120,0.219205,2.163497,0.081344,0.000000,0.000000,0.000000,0.000000,0.000000,0.000000
15250482.000000,2.301557,-1.024610,-1.867816,-1.451496,-0.991620,1.759533,0.484021,0.014615,-0.573985,-0.368473,-0.456583,-0.569977,0.698494,0.252138,-1.453204,37.884869,21.849777,14.000120,0.273221,2.190048,0.067611,0.000000,0.000000,0.000000,0.000000,0.000000,0.000000
15250483.000000,2.301570,-1.025199,-1.868172,-1.451954,-0.992188,1.760223,0.484274,0.012621,-0.582544,-0.364448,-0.455288,-0.563191,0.694743,0.256220,-1.405596,38.031658,21.631577,14.127073,0.273221,2.177230,0.094161,0.000000,0.000000,0.000000,0.000000,0.000000,0.000000
15250484.000000,2.301581,-1.025779,-1.868543,-1.452410,-0.992755,1.760941,0.484528,0.010921,-0.577308,-0.364072,-0.455268,-0.562886,0.695712,0.254824,-1.330218,38.079266,21.580002,14.150877,0.243009,2.001449,0.100570,0.000000,0.000000,0.000000,0.000000,0.000000,0.000000
15250485.000000,2.301590,-1.026356,-1.868898,-1.452850,-0.993325,1.761648,0.484791,0.012210,-0.576185,-0.355311,-0.450862,-0.563918,0.704104,0.260341,-1.231036,38.154644,21.433212,14.127073,0.267728,1.909896,0.048385,0.000000,0.000000,0.000000,0.000000,0.000000,0.000000
15250486.000000,2.301605,-1.026935,-1.869262,-1.453293,-0.993902,1.762342,0.485035,0.014605,-0.575066,-0.357393,-0.446701,-0.569767,0.697570,0.255508,-1.183428,38.130840,21.385605,14.099302,0.279630,1.897079,0.114303,0.000000,0.000000,0.000000,0.000000,0.000000,0.000000
15250487.000000,2.301609,-1.027496,-1.869617,-1.453725,-0.994466,1.763034,0.485291,0.013257,-0.583002,-0.355726,-0.445290,-0.568604,0.694327,0.256360,-1.008868,38.031658,21.187241,14.099302,0.267728,1.942855,0.067611,0.000000,0.000000,0.000000,0.000000,0.000000,0.000000
15250488.000000,2.301624,-1.028075,-1.869979,-1.454148,-0.995044,1.763702,0.485549,0.013191,-0.577506,-0.356881,-0.435841,-0.575978,0.681884,0.254705,-0.985064,37.956280,21.092026,14.000120,0.261320,2.053634,0.074935,0.000000,0.000000,0.000000,0.000000,0.000000,0.000000
15250489.000000,2.301631,-1.028653,-1.870336,-1.454576,-0.995607,1.764389,0.485798,0.012853,-0.574210,-0.355410,-0.434702,-0.571005,0.678982,0.253674,-0.834307,37.785686,20.945236,14.027891,0.195402,2.104903,0.081344,0.000000,0.000000,0.000000,0.000000,0.000000,0.000000
15250490.000000,2.301641,-1.029213,-1.870687,-1.454991,-0.996180,1.765090,0.486053,0.013196,-0.572757,-0.362568,-0.429716,-0.574807,0.677511,0.253015,-0.711321,37.492107,20.794479,14.027891,0.189908,2.020675,0.061202,0.000000,0.000000,0.000000,0.000000,0.000000,0.000000
15250491.000000,2.301650,-1.029769,-1.871051,-1.455407,-0.996757,1.765774,0.486298,0.010872,-0.565380,-0.365371,-0.426780,-0.571262,0.679168,0.252319,-0.588336,37.099346,20.746872,14.075499,0.159696,1.988631,0.074935,0.000000,0.000000,0.000000,0.000000,0.000000,0.000000
15250492.000000,2.301664,-1.030337,-1.871405,-1.455817,-0.997326,1.766458,0.486542,0.014707,-0.566444,-0.360425,-0.425382,-0.576402,0.680811,0.250710,-0.564532,36.781963,20.524704,14.127073,0.201810,2.020675,0.114303,0.000000,0.000000,0.000000,0.000000,0.000000,0.000000
15250493.000000,2.301672,-1.030894,-1.871777,-1.456222,-0.997908,1.767138,0.486797,0.011630,-0.565448,-0.364545,-0.421562,-0.574690,0.683039,0.251641,-0.441546,36.535992,20.600082,14.075499,0.261320,2.079269,0.094161,0.000000,0.000000,0.000000,0.000000,0.000000,0.000000
15250494.000000,2.301684,-1.031464,-1.872129,-1.456625,-0.998470,1.767832,0.487047,0.011357,-0.564688,-0.358375,-0.415002,-0.582591,0.688922,0.251467,-0.389971,36.341595,20.453293,14.000120,0.261320,2.027084,0.094161,0.000000,0.000000,0.000000,0.000000,0.000000,0.000000
15250495.000000,2.301692,-1.032030,-1.872488,-1.457018,-0.999045,1.768527,0.487300,0.009275,-0.565859,-0.359878,-0.410756,-0.578096,0.683125,0.250842,-0.266986,36.171001,20.354111,13.928709,0.243009,1.981307,0.094161,0.000000,0.000000,0.000000,0.000000,0.000000,0.000000
15250496.000000,2.301706,-1.032596,-1.872843,-1.457408,-0.999613,1.769213,0.487557,0.012437,-0.565327,-0.358475,-0.400903,-0.571743,0.688706,0.247060,-0.215411,35.901226,20.207321,13.730345,0.171598,1.936446,0.061202,0.000000,0.000000,0.000000,0.000000,0.000000,0.000000
15250497.000000,2.301722,-1.033165,-1.873201,-1.457798,-1.000186,1.769898,0.487797,0.011957,-0.565264,-0.360054,-0.398499,-0.569688,0.679057,0.246594,-0.167803,35.683025,20.036728,13.583555,0.147794,1.955673,0.100570,0.000000,0.000000,0.000000,0.000000,0.000000,0.000000
15250498.000000,2.301741,-1.033732,-1.873551,-1.458173,-1.000759,1.770579,0.488056,0.012375,-0.564527,-0.355012,-0.390816,-0.563783,0.690890,0.249068,-0.167803,35.583843,19.862167,13.309813,0.154203,1.909896,0.061202,0.000000,0.000000,0.000000,0.000000,0.000000,0.000000
15250499.000000,2.301754,-1.034310,-1.873909,-1.458544,-1.001345,1.771251,0.488296,0.011613,-0.564200,-0.360262,-0.385623,-0.568276,0.681743,0.248086,-0.116229,35.536236,19.715378,13.087645,0.141385,1.942855,0.100570,0.000000,0.000000,0.000000,0.000000,0.000000,0.000000
15250500.000000,2.301767,-1.034871,-1.874270,-1.458908,-1.001922,1.771941,0.488538,0.013624,-0.557806,-0.362811,-0.380064,-0.564319,0.679323,0.247162,-0.044818,35.361675,19.592392,12.889280,0.183500,1.962081,0.147262,0.000000,0.000000,0.000000,0.000000,0.000000,0.000000
15250501.000000,2.301785,-1.035433,-1.874625,-1.459270,-1.002509,1.772623,0.488793,0.013120,-0.557084,-0.362782,-0.376077,-0.571522,0.681261,0.246208,-0.017047,35.191082,19.397995,12.690916,0.154203,1.897079,0.067611,0.000000,0.000000,0.000000,0.000000,0.000000,0.000000
15250502.000000,2.301802,-1.036017,-1.874992,-1.459636,-1.003092,1.773323,0.489029,0.012278,-0.562620,-0.358946,-0.370691,-0.571200,0.683772,0.245490,0.030561,35.167278,19.322617,12.520323,0.178007,1.767074,0.114303,0.000000,0.000000,0.000000,0.000000,0.000000,0.000000
15250503.000000,2.301817,-1.036586,-1.875343,-1.459987,-1.003677,1.774020,0.489286,0.010944,-0.563534,-0.356476,-0.359931,-0.578338,0.704084,0.252641,0.105939,34.996685,19.199631,12.345762,0.159696,1.695663,0.081344,0.000000,0.000000,0.000000,0.000000,0.000000,0.000000
15250504.000000,2.301835,-1.037156,-1.875706,-1.460347,-1.004265,1.774701,0.489533,0.013485,-0.564103,-0.357197,-0.359641,-0.574176,0.700321,0.251199,0.153547,34.826092,19.104416,12.270384,0.129484,1.741439,0.107894,0.000000,0.000000,0.000000,0.000000,0.000000,0.000000
15250505.000000,2.301855,-1.037708,-1.876063,-1.460692,-1.004844,1.775384,0.489791,0.012580,-0.568581,-0.354229,-0.365170,-0.580407,0.690232,0.252585,0.177350,34.556316,18.882248,12.099791,0.088285,1.819259,0.067611,0.000000,0.000000,0.000000,0.000000,0.000000,0.000000
15250506.000000,2.301877,-1.038280,-1.876418,-1.461035,-1.005428,1.776055,0.490044,0.016251,-0.568877,-0.353917,-0.361821,-0.575747,0.681072,0.251902,0.153547,34.409527,18.711655,11.901426,0.076383,1.858627,0.074935,0.000000,0.000000,0.000000,0.000000,0.000000,0.000000
15250507.000000,2.301897,-1.038857,-1.876781,-1.461368,-1.006005,1.776747,0.490294,0.018088,-0.572114,-0.353899,-0.353393,-0.583516,0.680349,0.251689,0.177350,34.409527,18.683884,11.603880,0.093778,1.851302,0.081344,0.000000,0.000000,0.000000,0.000000,0.000000,0.000000
15250508.000000,2.301911,-1.039411,-1.877135,-1.461695,-1.006592,1.777435,0.490553,0.016529,-0.568345,-0.355368,-0.347265,-0.582804,0.676059,0.250734,0.328107,34.238934,18.588669,11.429319,0.058073,1.819259,0.081344,0.000000,0.000000,0.000000,0.000000,0.000000,0.000000
15250509.000000,2.301934,-1.039974,-1.877507,-1.462019,-1.007183,1.778117,0.490805,0.019031,-0.561959,-0.361205,-0.340063,-0.591943,0.676380,0.251077,0.328107,33.992962,18.660080,11.183348,0.040677,1.708480,0.114303,0.000000,0.000000,0.000000,0.000000,0.000000,0.000000
15250510.000000,2.301957,-1.040540,-1.877875,-1.462330,-1.007776,1.778800,0.491062,0.020045,-0.568626,-0.361403,-0.336832,-0.592594,0.682451,0.251868,0.351911,33.770794,18.636276,10.937376,0.088285,1.649886,0.094161,0.000000,0.000000,0.000000,0.000000,0.000000,0.000000
15250511.000000,2.301981,-1.041103,-1.878245,-1.462644,-1.008369,1.779475,0.491312,0.017752,-0.568250,-0.361558,-0.329415,-0.599789,0.681668,0.251052,0.375715,33.600201,18.683884,10.663633,0.117582,1.637069,0.107894,0.000000,0.000000,0.000000,0.000000,0.000000,0.000000
15250512.000000,2.302001,-1.041673,-1.878601,-1.462948,-1.008961,1.780147,0.491568,0.015011,-0.564159,-0.359011,-0.316193,-0.607834,0.682330,0.252050,0.451093,33.405804,18.537094,10.342283,0.147794,1.721298,0.081344,0.000000,0.000000,0.000000,0.000000,0.000000,0.000000
15250513.000000,2.302026,-1.042230,-1.878975,-1.463251,-1.009557,1.780820,0.491823,0.017639,-0.563198,-0.361559,-0.314721,-0.606236,0.675213,0.254795,0.451093,33.136028,18.537094,10.219297,0.147794,1.760665,0.120712,0.000000,0.000000,0.000000,0.000000,0.000000,0.000000
15250514.000000,2.302050,-1.042804,-1.879348,-1.463541,-1.010158,1.781491,0.492088,0.018850,-0.566152,-0.363870,-0.305222,-0.602537,0.677481,0.256035,0.474897,32.989239,18.588669,9.897947,0.088285,1.721298,0.074935,0.000000,0.000000,0.000000,0.000000,0.000000,0.000000
15250515.000000,2.302081,-1.043377,-1.879719,-1.463833,-1.010752,1.782174,0.492338,0.021977,-0.562085,-0.363196,-0.301502,-0.599991,0.674977,0.247648,0.427289,32.890057,18.537094,9.699583,0.123990,1.630660,0.127120,0.000000,0.000000,0.000000,0.000000,0.000000,0.000000
15250516.000000,2.302110,-1.043947,-1.880099,-1.464118,-1.011349,1.782839,0.492590,0.022608,-0.567292,-0.367958,-0.298217,-0.598750,0.682270,0.248436,0.427289,32.818645,18.711655,9.501219,0.081876,1.611434,0.120712,0.000000,0.000000,0.000000,0.000000,0.000000,0.000000
15250517.000000,2.302142,-1.044536,-1.880473,-1.464403,-1.011954,1.783503,0.492847,0.023844,-0.574434,-0.371281,-0.293142,-0.602733,0.671594,0.250629,0.403486,32.866253,18.735458,9.330626,0.147794,1.617843,0.081344,0.000000,0.000000,0.000000,0.000000,0.000000,0.000000
15250518.000000,2.302176,-1.045117,-1.880858,-1.464681,-1.012555,1.784175,0.493101,0.027574,-0.566556,-0.379606,-0.285005,-0.604160,0.672725,0.254754,0.375715,32.965435,18.882248,9.231443,0.178007,1.617843,0.114303,0.000000,0.000000,0.000000,0.000000,0.000000,0.000000
15250519.000000,2.302209,-1.045715,-1.881246,-1.464962,-1.013153,1.784833,0.493353,0.030338,-0.573220,-0.384732,-0.285636,-0.598581,0.670201,0.254106,0.351911,33.112225,19.005234,9.156065,0.195402,1.591293,0.107894,0.000000,0.000000,0.000000,0.000000,0.000000,0.000000
15250520.000000,2.302242,-1.046313,-1.881626,-1.465233,-1.013759,1.785498,0.493600,0.031742,-0.578930,-0.381174,-0.280300,-0.604473,0.662233,0.253040,0.375715,33.159832,18.981430,8.985472,0.207303,1.578475,0.114303,0.000000,0.000000,0.000000,0.000000,0.000000,0.000000
15250521.000000,2.302278,-1.046912,-1.882007,-1.465511,-1.014361,1.786157,0.493854,0.031611,-0.590156,-0.385406,-0.278930,-0.605830,0.665855,0.253882,0.328107,33.382000,19.052841,9.056883,0.129484,1.597701,0.061202,0.000000,0.000000,0.000000,0.000000,0.000000,0.000000
15250522.000000,2.302309,-1.047518,-1.882389,-1.465788,-1.014983,1.786817,0.494092,0.034217,-0.587906,-0.382565,-0.278010,-0.607220,0.664477,0.250721,0.403486,33.600201,19.029037,9.033079,0.183500,1.584884,0.127120,0.000000,0.000000,0.000000,0.000000,0.000000,0.000000
15250523.000000,2.302343,-1.048120,-1.882786,-1.466064,-1.015577,1.787474,0.494352,0.034269,-0.600473,-0.389854,-0.276427,-0.600617,0.660628,0.257814,0.427289,33.746990,19.128220,9.084654,0.147794,1.617843,0.081344,0.000000,0.000000,0.000000,0.000000,0.000000,0.000000
15250524.000000,2.302376,-1.048731,-1.883168,-1.466338,-1.016186,1.788126,0.494606,0.034848,-0.604874,-0.384510,-0.275450,-0.599483,0.660648,0.255973,0.451093,33.917583,19.175827,9.156065,0.154203,1.611434,0.081344,0.000000,0.000000,0.000000,0.000000,0.000000,0.000000
15250525.000000,2.302410,-1.049346,-1.883553,-1.466618,-1.016786,1.788785,0.494855,0.034875,-0.610011,-0.384039,-0.278133,-0.597892,0.660558,0.254096,0.502668,34.064373,19.175827,9.255247,0.219205,1.605026,0.100570,0.000000,0.000000,0.000000,0.000000,0.000000,0.000000
15250526.000000,2.302441,-1.049960,-1.883944,-1.466898,-1.017389,1.789449,0.495101,0.033275,-0.608137,-0.387286,-0.279003,-0.591905,0.655247,0.252294,0.601850,34.262737,19.251205,9.453611,0.154203,1.605026,0.107894,0.000000,0.000000,0.000000,0.000000,0.000000,0.000000
15250527.000000,2.302467,-1.050586,-1.884329,-1.467173,-1.017986,1.790110,0.495350,0.030725,-0.611560,-0.391361,-0.276108,-0.590927,0.659616,0.255855,0.772443,34.504742,19.298813,9.528990,0.195402,1.526290,0.100570,0.000000,0.000000,0.000000,0.000000,0.000000,0.000000
15250528.000000,2.302506,-1.051227,-1.884719,-1.467452,-1.018582,1.790754,0.495601,0.033277,-0.618506,-0.386501,-0.276494,-0.589394,0.647194,0.250031,0.772443,34.873699,19.275009,9.552794,0.183500,1.572067,0.081344,0.000000,0.000000,0.000000,0.000000,0.000000,0.000000
15250529.000000,2.302547,-1.051848,-1.885103,-1.467723,-1.019177,1.791399,0.495842,0.035837,-0.621084,-0.385268,-0.273122,-0.580886,0.643581,0.248455,0.724836,35.191082,19.298813,9.552794,0.147794,1.624252,0.127120,0.000000,0.000000,0.000000,0.000000,0.000000,0.000000
15250530.000000,2.302579,-1.052487,-1.885492,-1.468000,-1.019772,1.792053,0.496089,0.033746,-0.623356,-0.386854,-0.272147,-0.595015,0.638950,0.245678,0.847822,35.536236,19.298813,9.628172,0.088285,1.611434,0.081344,0.000000,0.000000,0.000000,0.000000,0.000000,0.000000
15250531.000000,2.302626,-1.053110,-1.885886,-1.468272,-1.020363,1.792706,0.496328,0.039795,-0.624979,-0.388873,-0.272991,-0.585514,0.635177,0.245037,0.772443,35.607647,19.298813,9.628172,0.034269,1.597701,0.120712,0.000000,0.000000,0.000000,0.000000,0.000000,0.000000
15250532.000000,2.302670,-1.053741,-1.886283,-1.468544,-1.020978,1.793343,0.496574,0.043705,-0.631295,-0.393496,-0.269305,-0.590827,0.631810,0.246082,0.724836,35.706829,19.346420,9.576597,0.064481,1.611434,0.133529,0.000000,0.000000,0.000000,0.000000,0.000000,0.000000
15250533.000000,2.302711,-1.054378,-1.886689,-1.468812,-1.021579,1.793993,0.496830,0.040747,-0.634236,-0.395673,-0.266494,-0.590003,0.635685,0.244664,0.772443,35.754436,19.497177,9.501219,0.076383,1.649886,0.067611,0.000000,0.000000,0.000000,0.000000,0.000000,0.000000
15250534.000000,2.302749,-1.055001,-1.887081,-1.469085,-1.022200,1.794632,0.497072,0.038639,-0.625626,-0.399930,-0.268769,-0.598682,0.647390,0.243167,0.824018,35.730633,19.469406,9.477415,0.117582,1.662704,0.133529,0.000000,0.000000,0.000000,0.000000,0.000000,0.000000
15250535.000000,2.302793,-1.055626,-1.887486,-1.469362,-1.022807,1.795292,0.497313,0.038648,-0.620795,-0.407175,-0.269965,-0.595879,0.649056,0.239612,0.824018,35.536236,19.520981,9.453611,0.141385,1.578475,0.147262,0.000000,0.000000,0.000000,0.000000,0.000000,0.000000
15250536.000000,2.302841,-1.056244,-1.887902,-1.469632,-1.023410,1.795944,0.497562,0.042663,-0.620221,-0.411294,-0.268819,-0.596984,0.652430,0.239265,0.772443,35.385479,19.616196,9.453611,0.135892,1.546432,0.100570,0.000000,0.000000,0.000000,0.000000,0.000000,0.000000
15250537.000000,2.302881,-1.056859,-1.888298,-1.469909,-1.024016,1.796586,0.497815,0.042063,-0.623280,-0.405190,-0.274267,-0.592879,0.653602,0.242968,0.871625,35.119671,19.592392,9.453611,0.147794,1.565658,0.081344,0.000000,0.000000,0.000000,0.000000,0.000000,0.000000
15250538.000000,2.302931,-1.057492,-1.888707,-1.470178,-1.024627,1.797223,0.498058,0.044428,-0.625276,-0.405515,-0.273020,-0.596607,0.648205,0.243831,0.871625,35.068096,19.667770,9.354429,0.183500,1.597701,0.114303,0.000000,0.000000,0.000000,0.000000,0.000000,0.000000
15250539.000000,2.302979,-1.058109,-1.889114,-1.470450,-1.025231,1.797858,0.498307,0.048464,-0.619238,-0.410432,-0.272313,-0.593280,0.640021,0.241215,0.871625,34.873699,19.790756,9.406004,0.178007,1.649886,0.074935,0.000000,0.000000,0.000000,0.000000,0.000000,0.000000
15250540.000000,2.303026,-1.058725,-1.889525,-1.470721,-1.025847,1.798482,0.498545,0.048023,-0.615749,-0.412838,-0.271983,-0.594838,0.634744,0.236933,0.923200,34.556316,19.862167,9.354429,0.166105,1.676437,0.114303,0.000000,0.000000,0.000000,0.000000,0.000000,0.000000
15250541.000000,2.303075,-1.059337,-1.889941,-1.470984,-1.026451,1.799115,0.498793,0.051340,-0.618396,-0.411105,-0.273897,-0.602446,0.630448,0.242190,0.923200,34.334148,20.036728,9.306822,0.183500,1.682845,0.067611,0.000000,0.000000,0.000000,0.000000,0.000000,0.000000
15250542.000000,2.303122,-1.059967,-1.890351,-1.471253,-1.027069,1.799739,0.499041,0.049853,-0.623907,-0.412967,-0.270142,-0.604385,0.634711,0.243257,0.970807,34.310345,20.231125,9.378233,0.141385,1.643478,0.094161,0.000000,0.000000,0.000000,0.000000,0.000000,0.000000
15250543.000000,2.303158,-1.060596,-1.890770,-1.471520,-1.027677,1.800361,0.499292,0.045845,-0.620789,-0.418249,-0.268596,-0.602623,0.629070,0.240533,1.145368,34.238934,20.377914,9.378233,0.183500,1.708480,0.081344,0.000000,0.000000,0.000000,0.000000,0.000000,0.000000
15250544.000000,2.303208,-1.061222,-1.891194,-1.471785,-1.028300,1.800979,0.499541,0.047253,-0.623623,-0.420432,-0.268844,-0.607899,0.627848,0.242611,1.145368,34.163555,20.524704,9.429808,0.183500,1.825668,0.081344,0.000000,0.000000,0.000000,0.000000,0.000000,0.000000
15250545.000000,2.303252,-1.061858,-1.891605,-1.472048,-1.028918,1.801602,0.499786,0.045797,-0.629774,-0.421380,-0.267803,-0.604055,0.627133,0.238567,1.244550,34.211163,20.600082,9.453611,0.135892,1.819259,0.127120,0.000000,0.000000,0.000000,0.000000,0.000000,0.000000
15250546.000000,2.303297,-1.062504,-1.892026,-1.472316,-1.029547,1.802229,0.500038,0.044212,-0.636130,-0.421240,-0.267944,-0.610925,0.629547,0.245081,1.367536,34.310345,20.723068,9.501219,0.183500,1.819259,0.041976,0.000000,0.000000,0.000000,0.000000,0.000000,0.000000
15250547.000000,2.303342,-1.063127,-1.892452,-1.472580,-1.030168,1.802839,0.500278,0.047038,-0.628679,-0.424803,-0.267999,-0.607836,0.622540,0.242826,1.466718,34.334148,20.917465,9.552794,0.189908,1.832076,0.133529,0.000000,0.000000,0.000000,0.000000,0.000000,0.000000
15250548.000000,2.303385,-1.063764,-1.892884,-1.472847,-1.030808,1.803455,0.500528,0.044707,-0.624778,-0.430631,-0.265431,-0.629384,0.622113,0.242026,1.613508,34.286541,21.040451,9.628172,0.267728,1.832076,0.074935,0.000000,0.000000,0.000000,0.000000,0.000000,0.000000
15250549.000000,2.303432,-1.064396,-1.893309,-1.473109,-1.031429,1.804083,0.500764,0.047429,-0.630476,-0.425926,-0.266966,-0.627669,0.618719,0.237203,1.688886,34.334148,21.115829,9.727354,0.285123,1.793624,0.114303,0.000000,0.000000,0.000000,0.000000,0.000000,0.000000
15250550.000000,2.303478,-1.065031,-1.893729,-1.473372,-1.032066,1.804695,0.501009,0.047009,-0.638745,-0.424562,-0.262096,-0.626028,0.620273,0.237259,1.764264,34.385723,21.187241,9.699583,0.303434,1.779891,0.074935,0.000000,0.000000,0.000000,0.000000,0.000000,0.000000
15250551.000000,2.303526,-1.065666,-1.894145,-1.473638,-1.032678,1.805304,0.501236,0.047237,-0.636117,-0.419752,-0.260347,-0.618131,0.612088,0.238743,1.811872,34.357952,21.163437,9.751158,0.255826,1.844894,0.127120,0.000000,0.000000,0.000000,0.000000,0.000000,0.000000
15250552.000000,2.303571,-1.066289,-1.894568,-1.473901,-1.033310,1.805920,0.501481,0.046532,-0.629432,-0.421648,-0.262935,-0.616952,0.627636,0.238497,1.887250,34.262737,21.163437,9.822569,0.207303,1.909896,0.067611,0.000000,0.000000,0.000000,0.000000,0.000000,0.000000
15250553.000000,2.303618,-1.066916,-1.894987,-1.474164,-1.033948,1.806531,0.501713,0.048696,-0.626234,-0.421591,-0.261813,-0.618612,0.622095,0.236503,1.986432,34.040569,21.187241,9.798765,0.213712,1.909896,0.067611,0.000000,0.000000,0.000000,0.000000,0.000000,0.000000
15250554.000000,2.303671,-1.067543,-1.895402,-1.474425,-1.034591,1.807150,0.501950,0.048080,-0.633897,-0.418287,-0.257467,-0.621416,0.622625,0.239015,2.034040,33.893780,21.115829,9.850340,0.255826,1.884261,0.100570,0.000000,0.000000,0.000000,0.000000,0.000000,0.000000
15250555.000000,2.303723,-1.068169,-1.895820,-1.474678,-1.035218,1.807756,0.502191,0.048247,-0.630827,-0.419234,-0.255788,-0.620171,0.617024,0.238210,2.061811,33.647808,21.187241,9.850340,0.249418,1.897079,0.061202,0.000000,0.000000,0.000000,0.000000,0.000000,0.000000
15250556.000000,2.303777,-1.068800,-1.896235,-1.474937,-1.035855,1.808371,0.502414,0.051060,-0.626715,-0.418608,-0.258583,-0.627365,0.616708,0.234030,2.109418,33.453411,21.092026,9.874144,0.303434,1.930038,0.120712,0.000000,0.000000,0.000000,0.000000,0.000000,0.000000
15250557.000000,2.303835,-1.069434,-1.896638,-1.475187,-1.036495,1.808995,0.502654,0.054754,-0.627624,-0.419155,-0.253359,-0.632435,0.620426,0.233959,2.061811,33.405804,21.016647,9.874144,0.344633,1.871444,0.081344,0.000000,0.000000,0.000000,0.000000,0.000000,0.000000
15250558.000000,2.303894,-1.070083,-1.897048,-1.475433,-1.037138,1.809613,0.502883,0.056324,-0.634541,-0.419871,-0.248418,-0.629713,0.624200,0.232062,2.061811,33.501019,20.945236,9.850340,0.344633,1.767074,0.107894,0.000000,0.000000,0.000000,0.000000,0.000000,0.000000
15250559.000000,2.303957,-1.070735,-1.897448,-1.475676,-1.037756,1.810228,0.503122,0.059316,-0.639195,-0.411571,-0.252983,-0.627118,0.622016,0.234263,1.986432,33.600201,20.746872,9.798765,0.320829,1.754256,0.034652,0.000000,0.000000,0.000000,0.000000,0.000000,0.000000
15250560.000000,2.304024,-1.071376,-1.897844,-1.475925,-1.038388,1.810833,0.503348,0.062422,-0.644610,-0.406290,-0.251361,-0.622993,0.620672,0.231504,1.887250,33.723186,20.576279,9.874144,0.267728,1.779891,0.074935,0.000000,0.000000,0.000000,0.000000,0.000000,0.000000
15250561.000000,2.304091,-1.072034,-1.898247,-1.476166,-1.039009,1.811446,0.503573,0.064572,-0.641665,-0.405332,-0.244928,-0.641037,0.618378,0.231623,1.788068,33.941387,20.524704,9.874144,0.225614,1.851302,0.067611,0.000000,0.000000,0.000000,0.000000,0.000000,0.000000
15250562.000000,2.304169,-1.072687,-1.898638,-1.476394,-1.039639,1.812067,0.503796,0.067178,-0.632372,-0.403969,-0.242272,-0.630768,0.619053,0.228856,1.613508,34.139751,20.306503,9.822569,0.195402,1.865035,0.114303,0.000000,0.000000,0.000000,0.000000,0.000000,0.000000
15250563.000000,2.304243,-1.073348,-1.899036,-1.476636,-1.040258,1.812685,0.504032,0.069087,-0.640982,-0.403929,-0.240264,-0.625843,0.617128,0.235269,1.466718,34.310345,20.254929,9.921751,0.129484,1.819259,0.054794,0.000000,0.000000,0.000000,0.000000,0.000000,0.000000
15250564.000000,2.304318,-1.074008,-1.899429,-1.476875,-1.040880,1.813315,0.504262,0.069245,-0.651268,-0.398925,-0.238665,-0.625109,0.623488,0.227970,1.367536,34.409527,20.060532,9.997129,0.112089,1.760665,0.074935,0.000000,0.000000,0.000000,0.000000,0.000000,0.000000
15250565.000000,2.304396,-1.074655,-1.899811,-1.477109,-1.041504,1.813939,0.504493,0.073115,-0.649452,-0.395834,-0.238277,-0.627262,0.623778,0.227950,1.216779,34.457134,19.838364,10.120115,0.088285,1.727706,0.081344,0.000000,0.000000,0.000000,0.000000,0.000000,0.000000
15250566.000000,2.304476,-1.075309,-1.900206,-1.477348,-1.042139,1.814566,0.504719,0.075617,-0.646506,-0.395639,-0.240064,-0.627801,0.627024,0.228255,1.093793,34.457134,19.715378,10.219297,0.123990,1.741439,0.087753,0.000000,0.000000,0.000000,0.000000,0.000000,0.000000
15250567.000000,2.304563,-1.075954,-1.900597,-1.477587,-1.042764,1.815194,0.504945,0.081045,-0.646758,-0.393859,-0.240591,-0.633896,0.625303,0.228535,0.923200,34.385723,19.520981,10.393858,0.207303,1.741439,0.087753,0.000000,0.000000,0.000000,0.000000,0.000000,0.000000
15250568.000000,2.304651,-1.076621,-1.900988,-1.477817,-1.043397,1.815819,0.505178,0.084998,-0.651686,-0.393798,-0.238063,-0.628833,0.630330,0.229232,0.796247,34.504742,19.374191,10.465269,0.195402,1.708480,0.081344,0.000000,0.000000,0.000000,0.000000,0.000000,0.000000
15250569.000000,2.304740,-1.077288,-1.901374,-1.478050,-1.044014,1.816442,0.505401,0.088373,-0.654651,-0.388826,-0.237840,-0.629662,0.622364,0.228008,0.649457,34.603924,19.199631,10.592222,0.141385,1.702071,0.120712,0.000000,0.000000,0.000000,0.000000,0.000000,0.000000
15250570.000000,2.304830,-1.077944,-1.901761,-1.478277,-1.044646,1.817059,0.505637,0.090035,-0.657461,-0.391862,-0.235159,-0.630535,0.628600,0.230180,0.502668,34.750713,19.128220,10.616026,0.105680,1.670028,0.061202,0.000000,0.000000,0.000000,0.000000,0.000000,0.000000
15250571.000000,2.304924,-1.078607,-1.902151,-1.478509,-1.045275,1.817676,0.505858,0.090059,-0.654931,-0.395050,-0.231296,-0.630967,0.622784,0.228161,0.304304,34.873699,19.029037,10.715208,0.027860,1.643478,0.114303,0.000000,0.000000,0.000000,0.000000,0.000000,0.000000
15250572.000000,2.305022,-1.079265,-1.902547,-1.478728,-1.045904,1.818293,0.506083,0.095881,-0.661369,-0.395869,-0.227155,-0.633647,0.621071,0.228837,0.105939,34.921307,18.953659,10.739012,0.010465,1.643478,0.114303,0.000000,0.000000,0.000000,0.000000,0.000000,0.000000
15250573.000000,2.305115,-1.079928,-1.902929,-1.478950,-1.046549,1.818895,0.506316,0.091559,-0.663477,-0.390263,-0.226745,-0.640049,0.615337,0.236024,0.006757,34.972881,18.882248,10.739012,0.040677,1.670028,0.074935,0.000000,0.000000,0.000000,0.000000,0.000000,0.000000
15250574.000000,2.305208,-1.080596,-1.903320,-1.479178,-1.047177,1.819500,0.506546,0.091640,-0.666706,-0.393137,-0.228350,-0.635179,0.609893,0.233551,-0.068621,34.945110,18.882248,10.814390,0.027860,1.721298,0.100570,0.000000,0.000000,0.000000,0.000000,0.000000,0.000000
15250575.000000,2.305305,-1.081250,-1.903710,-1.479393,-1.047828,1.820113,0.506785,0.093940,-0.665738,-0.394723,-0.221361,-0.645161,0.608757,0.233613,-0.144000,34.897503,18.906052,10.814390,0.117582,1.714889,0.061202,0.000000,0.000000,0.000000,0.000000,0.000000,0.000000
15250576.000000,2.305405,-1.081902,-1.904111,-1.479615,-1.048473,1.820717,0.507013,0.095119,-0.655216,-0.397987,-0.219722,-0.643671,0.612283,0.237025,-0.290789,34.651531,18.953659,10.984983,0.117582,1.714889,0.087753,0.000000,0.000000,0.000000,0.000000,0.000000,0.000000
15250577.000000,2.305499,-1.082557,-1.904513,-1.479819,-1.049115,1.821336,0.507242,0.094910,-0.650136,-0.398337,-0.221264,-0.643489,0.607276,0.230687,-0.290789,34.409527,19.029037,10.913572,0.135892,1.630660,0.074935,0.000000,0.000000,0.000000,0.000000,0.000000,0.000000
15250578.000000,2.305603,-1.083203,-1.904906,-1.480034,-1.049762,1.821933,0.507472,0.097879,-0.648378,-0.397938,-0.218507,-0.633534,0.604994,0.224517,-0.413775,34.163555,19.104416,11.012754,0.183500,1.662704,0.094161,0.000000,0.000000,0.000000,0.000000,0.000000,0.000000
15250579.000000,2.305707,-1.083862,-1.905311,-1.480245,-1.050399,1.822520,0.507704,0.099952,-0.652512,-0.402821,-0.214782,-0.649003,0.599496,0.226136,-0.512957,33.992962,19.199631,11.060362,0.166105,1.800033,0.087753,0.000000,0.000000,0.000000,0.000000,0.000000,0.000000
15250580.000000,2.305800,-1.084496,-1.905712,-1.480439,-1.051048,1.823118,0.507932,0.095929,-0.653143,-0.406139,-0.210088,-0.643684,0.599003,0.225886,-0.489153,33.624004,19.223434,11.012754,0.207303,1.844894,0.107894,0.000000,0.000000,0.000000,0.000000,0.000000,0.000000
15250581.000000,2.305903,-1.085152,-1.906117,-1.480646,-1.051699,1.823710,0.508168,0.095336,-0.653946,-0.408077,-0.209325,-0.642011,0.596259,0.232742,-0.564532,33.429607,19.397995,11.084166,0.195402,1.838485,0.054794,0.000000,0.000000,0.000000,0.000000,0.000000,0.000000
15250582.000000,2.306000,-1.085825,-1.906522,-1.480847,-1.052340,1.824308,0.508387,0.094726,-0.652903,-0.402678,-0.204156,-0.643253,0.598224,0.225103,-0.512957,33.429607,19.544785,11.084166,0.231107,1.800033,0.100570,0.000000,0.000000,0.000000,0.000000,0.000000,0.000000
15250583.000000,2.306092,-1.086487,-1.906923,-1.481046,-1.052991,1.824884,0.508618,0.094085,-0.655411,-0.400664,-0.201406,-0.639623,0.603238,0.226986,-0.441546,33.477215,19.616196,11.135740,0.189908,1.871444,0.074935,0.000000,0.000000,0.000000,0.000000,0.000000,0.000000
15250584.000000,2.306187,-1.087158,-1.907333,-1.481231,-1.053643,1.825470,0.508851,0.094517,-0.655583,-0.402929,-0.192702,-0.645445,0.601929,0.228895,-0.389971,33.501019,19.715378,11.060362,0.207303,1.923629,0.041976,0.000000,0.000000,0.000000,0.000000,0.000000,0.000000
15250585.000000,2.306281,-1.087832,-1.907751,-1.481421,-1.054294,1.826071,0.509074,0.096235,-0.668708,-0.404288,-0.191767,-0.644982,0.598915,0.226896,-0.314593,33.770794,19.885971,11.060362,0.225614,1.884261,0.100570,0.000000,0.000000,0.000000,0.000000,0.000000,0.000000
15250586.000000,2.306384,-1.088516,-1.908154,-1.481605,-1.054946,1.826655,0.509313,0.097266,-0.677483,-0.405415,-0.188703,-0.647376,0.596422,0.229799,-0.342364,33.969158,19.961349,10.961180,0.237516,1.865035,0.048385,0.000000,0.000000,0.000000,0.000000,0.000000,0.000000
15250587.000000,2.306473,-1.089208,-1.908564,-1.481799,-1.055591,1.827246,0.509538,0.095009,-0.675891,-0.403481,-0.190640,-0.649262,0.596028,0.227766,-0.191607,34.139751,19.961349,11.036558,0.207303,1.884261,0.100570,0.000000,0.000000,0.000000,0.000000,0.000000,0.000000
15250588.000000,2.306562,-1.089886,-1.908970,-1.481973,-1.056243,1.827836,0.509769,0.090574,-0.675979,-0.410926,-0.184281,-0.655699,0.589299,0.229280,-0.068621,34.262737,19.985153,10.913572,0.195402,1.865035,0.067611,0.000000,0.000000,0.000000,0.000000,0.000000,0.000000
15250589.000000,2.306659,-1.090577,-1.909373,-1.482150,-1.056898,1.828432,0.509996,0.091599,-0.676250,-0.404894,-0.182885,-0.648351,0.591660,0.233787,-0.017047,34.433331,19.885971,10.814390,0.219205,1.773483,0.094161,0.000000,0.000000,0.000000,0.000000,0.000000,0.000000
15250590.000000,2.306755,-1.091264,-1.909784,-1.482332,-1.057541,1.829023,0.510234,0.095213,-0.690160,-0.405802,-0.183645,-0.652508,0.586675,0.234857,0.030561,34.556316,19.937546,10.762815,0.243009,1.695663,0.048385,0.000000,0.000000,0.000000,0.000000,0.000000,0.000000
15250591.000000,2.306840,-1.091936,-1.910181,-1.482513,-1.058186,1.829598,0.510463,0.092061,-0.691489,-0.403669,-0.181983,-0.647345,0.583232,0.233037,0.205121,34.603924,19.838364,10.762815,0.225614,1.773483,0.061202,0.000000,0.000000,0.000000,0.000000,0.000000,0.000000
15250592.000000,2.306933,-1.092617,-1.910580,-1.482682,-1.058832,1.830172,0.510686,0.090580,-0.684074,-0.400190,-0.177814,-0.655568,0.576301,0.226713,0.252729,34.603924,19.715378,10.639830,0.237516,1.838485,0.074935,0.000000,0.000000,0.000000,0.000000,0.000000,0.000000
15250593.000000,2.307020,-1.093290,-1.910989,-1.482848,-1.059477,1.830764,0.510914,0.092575,-0.678587,-0.400605,-0.173482,-0.645588,0.573932,0.222947,0.375715,34.556316,19.715378,10.592222,0.195402,1.825668,0.048385,0.000000,0.000000,0.000000,0.000000,0.000000,0.000000
15250594.000000,2.307115,-1.093976,-1.911382,-1.483008,-1.060125,1.831346,0.511132,0.092658,-0.677701,-0.399704,-0.167088,-0.642346,0.573551,0.218331,0.451093,34.457134,19.643967,10.417662,0.147794,1.779891,0.081344,0.000000,0.000000,0.000000,0.000000,0.000000,0.000000
15250595.000000,2.307207,-1.094662,-1.911778,-1.483163,-1.060765,1.831932,0.511365,0.092405,-0.679590,-0.398407,-0.162869,-0.643555,0.568856,0.222176,0.550275,34.357952,19.544785,10.243101,0.171598,1.800033,0.054794,0.000000,0.000000,0.000000,0.000000,0.000000,0.000000
15250596.000000,2.307301,-1.095336,-1.912172,-1.483321,-1.061408,1.832505,0.511591,0.090741,-0.681816,-0.397459,-0.162116,-0.639671,0.565848,0.227721,0.601850,34.238934,19.445602,10.171690,0.112089,1.865035,0.094161,0.000000,0.000000,0.000000,0.000000,0.000000,0.000000
15250597.000000,2.307396,-1.096030,-1.912566,-1.483469,-1.062040,1.833100,0.511824,0.092491,-0.686031,-0.393297,-0.155758,-0.645403,0.571646,0.235774,0.649457,34.334148,19.275009,9.997129,0.105680,1.844894,0.041976,0.000000,0.000000,0.000000,0.000000,0.000000,0.000000
15250598.000000,2.307495,-1.096721,-1.912969,-1.483605,-1.062692,1.833704,0.512049,0.093521,-0.690603,-0.393051,-0.147030,-0.645941,0.578366,0.232411,0.649457,34.532513,19.251205,9.774961,0.141385,1.747848,0.081344,0.000000,0.000000,0.000000,0.000000,0.000000,0.000000
15250599.000000,2.307596,-1.097426,-1.913370,-1.483738,-1.063337,1.834301,0.512283,0.096328,-0.689449,-0.393907,-0.140516,-0.638729,0.586760,0.233687,0.625654,34.750713,19.223434,9.552794,0.117582,1.670028,0.041976,0.000000,0.000000,0.000000,0.000000,0.000000,0.000000
15250600.000000,2.307696,-1.098133,-1.913775,-1.483878,-1.063980,1.834896,0.512512,0.098273,-0.692124,-0.392321,-0.140956,-0.635624,0.581006,0.237610,0.601850,34.897503,19.199631,9.406004,0.135892,1.637069,0.048385,0.000000,0.000000,0.000000,0.000000,0.000000,0.000000
15250601.000000,2.307791,-1.098846,-1.914182,-1.484012,-1.064618,1.835487,0.512740,0.099988,-0.698745,-0.388513,-0.139530,-0.635615,0.597844,0.228452,0.625654,35.214886,19.275009,9.330626,0.129484,1.605026,0.094161,0.000000,0.000000,0.000000,0.000000,0.000000,0.000000
15250602.000000,2.307890,-1.099582,-1.914588,-1.484135,-1.065275,1.836085,0.512972,0.102790,-0.709709,-0.390394,-0.132681,-0.642257,0.596283,0.231147,0.649457,35.754436,19.322617,9.156065,0.129484,1.552840,0.034652,0.000000,0.000000,0.000000,0.000000,0.000000,0.000000
15250603.000000,2.308003,-1.100284,-1.915000,-1.484262,-1.065925,1.836684,0.513193,0.110453,-0.713129,-0.395249,-0.131173,-0.647208,0.598400,0.228512,0.526471,35.877422,19.397995,9.132261,0.147794,1.507064,0.094161,0.000000,0.000000,0.000000,0.000000,0.000000,0.000000
15250604.000000,2.308107,-1.100996,-1.915407,-1.484383,-1.066581,1.837259,0.513422,0.108554,-0.715275,-0.402331,-0.126220,-0.643361,0.592430,0.224732,0.502668,36.048016,19.497177,9.084654,0.112089,1.559249,0.074935,0.000000,0.000000,0.000000,0.000000,0.000000,0.000000
15250605.000000,2.308208,-1.101706,-1.915821,-1.484512,-1.067225,1.837843,0.513641,0.108744,-0.705708,-0.405766,-0.128239,-0.646176,0.588197,0.224932,0.526471,36.071819,19.616196,9.156065,0.081876,1.591293,0.107894,0.000000,0.000000,0.000000,0.000000,0.000000,0.000000
15250606.000000,2.308311,-1.102412,-1.916226,-1.484638,-1.067888,1.838436,0.513879,0.107981,-0.699853,-0.411263,-0.125295,-0.645776,0.583158,0.228317,0.550275,36.147198,19.715378,9.179869,0.100187,1.578475,0.041976,0.000000,0.000000,0.000000,0.000000,0.000000,0.000000
15250607.000000,2.308416,-1.103131,-1.916643,-1.484766,-1.068554,1.839010,0.514097,0.105854,-0.699134,-0.413755,-0.126882,-0.654329,0.583135,0.227012,0.550275,36.270184,19.862167,9.255247,0.117582,1.584884,0.087753,0.000000,0.000000,0.000000,0.000000,0.000000,0.000000
15250608.000000,2.308519,-1.103845,-1.917068,-1.484894,-1.069206,1.839580,0.514325,0.104542,-0.705680,-0.418346,-0.129328,-0.651791,0.573797,0.227690,0.550275,36.440777,20.060532,9.378233,0.135892,1.682845,0.094161,0.000000,0.000000,0.000000,0.000000,0.000000,0.000000
15250609.000000,2.308612,-1.104560,-1.917486,-1.485016,-1.069874,1.840140,0.514550,0.101688,-0.707822,-0.414569,-0.129294,-0.658070,0.569289,0.223990,0.724836,36.563763,20.183517,9.429808,0.171598,1.754256,0.074935,0.000000,0.000000,0.000000,0.000000,0.000000,0.000000
15250610.000000,2.308721,-1.105276,-1.917916,-1.485142,-1.070529,1.840727,0.514768,0.104946,-0.710048,-0.416744,-0.127324,-0.662619,0.574703,0.220514,0.724836,36.635174,20.453293,9.528990,0.166105,1.714889,0.074935,0.000000,0.000000,0.000000,0.000000,0.000000,0.000000
15250611.000000,2.308832,-1.105984,-1.918349,-1.485258,-1.071202,1.841311,0.514993,0.109145,-0.712870,-0.421809,-0.123433,-0.663335,0.577143,0.217696,0.697065,36.710552,20.623886,9.528990,0.201810,1.597701,0.061202,0.000000,0.000000,0.000000,0.000000,0.000000,0.000000
15250612.000000,2.308940,-1.106710,-1.918779,-1.485376,-1.071867,1.841876,0.515204,0.107748,-0.719143,-0.425047,-0.122758,-0.656096,0.573351,0.222258,0.673261,36.881145,20.869858,9.501219,0.183500,1.624252,0.120712,0.000000,0.000000,0.000000,0.000000,0.000000,0.000000
15250613.000000,2.309049,-1.107431,-1.919216,-1.485491,-1.072534,1.842427,0.515430,0.108136,-0.712203,-0.422643,-0.119201,-0.663249,0.555483,0.221295,0.697065,36.904949,21.040451,9.453611,0.213712,1.760665,0.061202,0.000000,0.000000,0.000000,0.000000,0.000000,0.000000
15250614.000000,2.309159,-1.108144,-1.919650,-1.485604,-1.073202,1.842974,0.515642,0.106382,-0.711183,-0.423412,-0.115938,-0.655385,0.554334,0.216055,0.673261,36.904949,21.310226,9.378233,0.201810,1.865035,0.114303,0.000000,0.000000,0.000000,0.000000,0.000000,0.000000
15250615.000000,2.309275,-1.108866,-1.920086,-1.485719,-1.073871,1.843542,0.515859,0.109512,-0.707764,-0.425617,-0.114769,-0.672378,0.554689,0.216985,0.601850,36.881145,21.433212,9.354429,0.225614,1.825668,0.041976,0.000000,0.000000,0.000000,0.000000,0.000000,0.000000
15250616.000000,2.309387,-1.109589,-1.920523,-1.485828,-1.074534,1.844109,0.516073,0.108972,-0.713289,-0.427686,-0.110798,-0.668135,0.557804,0.213772,0.574079,37.004131,21.556198,9.330626,0.189908,1.812850,0.067611,0.000000,0.000000,0.000000,0.000000,0.000000,0.000000
15250617.000000,2.309496,-1.110304,-1.920964,-1.485938,-1.075211,1.844661,0.516285,0.108414,-0.711078,-0.431234,-0.111640,-0.665750,0.558395,0.211944,0.625654,36.881145,21.802170,9.330626,0.201810,1.851302,0.107894,0.000000,0.000000,0.000000,0.000000,0.000000,0.000000
15250618.000000,2.309611,-1.111022,-1.921401,-1.486045,-1.075878,1.845217,0.516502,0.109839,-0.713672,-0.429165,-0.108946,-0.671402,0.558203,0.211825,0.625654,36.758160,21.948959,9.330626,0.261320,1.877853,0.094161,0.000000,0.000000,0.000000,0.000000,0.000000,0.000000
15250619.000000,2.309722,-1.111740,-1.921833,-1.486147,-1.076548,1.845779,0.516723,0.112031,-0.720891,-0.431242,-0.106474,-0.669094,0.569731,0.212459,0.649457,36.758160,22.071945,9.306822,0.315336,1.800033,0.048385,0.000000,0.000000,0.000000,0.000000,0.000000,0.000000
15250620.000000,2.309829,-1.112463,-1.922284,-1.486252,-1.077224,1.846333,0.516931,0.109700,-0.720942,-0.434758,-0.104413,-0.672628,0.571745,0.215040,0.748639,36.734356,22.294113,9.279051,0.351041,1.838485,0.094161,0.000000,0.000000,0.000000,0.000000,0.000000,0.000000
15250621.000000,2.309936,-1.113172,-1.922721,-1.486358,-1.077879,1.846889,0.517147,0.110990,-0.708966,-0.433216,-0.103563,-0.667398,0.566356,0.214041,0.824018,36.658978,22.317917,9.279051,0.315336,1.936446,0.081344,0.000000,0.000000,0.000000,0.000000,0.000000,0.000000
15250622.000000,2.310041,-1.113896,-1.923156,-1.486466,-1.078546,1.847437,0.517363,0.104485,-0.707969,-0.433584,-0.102170,-0.666172,0.561483,0.213086,0.970807,36.658978,22.417099,9.378233,0.261320,1.955673,0.074935,0.000000,0.000000,0.000000,0.000000,0.000000,0.000000
15250623.000000,2.310146,-1.114644,-1.923594,-1.486568,-1.079189,1.848005,0.517575,0.104566,-0.716337,-0.432541,-0.102421,-0.651797,0.559768,0.212108,1.069990,36.928753,22.464706,9.406004,0.178007,1.890670,0.074935,0.000000,0.000000,0.000000,0.000000,0.000000,0.000000
15250624.000000,2.310246,-1.115380,-1.924026,-1.486667,-1.079857,1.848560,0.517791,0.103184,-0.723506,-0.435019,-0.102362,-0.657701,0.552208,0.211111,1.244550,37.150921,22.488510,9.429808,0.147794,1.884261,0.067611,0.000000,0.000000,0.000000,0.000000,0.000000,0.000000
15250625.000000,2.310355,-1.116115,-1.924461,-1.486770,-1.080528,1.849103,0.518002,0.104056,-0.722331,-0.435048,-0.103257,-0.649735,0.547734,0.210302,1.315961,37.246136,22.512314,9.501219,0.171598,1.962081,0.074935,0.000000,0.000000,0.000000,0.000000,0.000000,0.000000
15250626.000000,2.310459,-1.116850,-1.924893,-1.486874,-1.081197,1.849654,0.518215,0.102513,-0.726076,-0.435847,-0.102287,-0.648520,0.541869,0.210622,1.466718,37.345318,22.512314,9.628172,0.195402,1.968490,0.061202,0.000000,0.000000,0.000000,0.000000,0.000000,0.000000
15250627.000000,2.310562,-1.117582,-1.925317,-1.486967,-1.081870,1.850202,0.518426,0.101658,-0.731139,-0.427851,-0.097762,-0.652075,0.548578,0.209210,1.613508,37.539715,22.464706,9.600401,0.249418,1.942855,0.087753,0.000000,0.000000,0.000000,0.000000,0.000000,0.000000
15250628.000000,2.310665,-1.118311,-1.925746,-1.487070,-1.082542,1.850756,0.518634,0.102103,-0.729112,-0.428793,-0.097432,-0.659157,0.543408,0.207798,1.740461,37.567486,22.393295,9.699583,0.267728,1.930038,0.127120,0.000000,0.000000,0.000000,0.000000,0.000000,0.000000
15250629.000000,2.310770,-1.119029,-1.926172,-1.487171,-1.083212,1.851322,0.518865,0.104282,-0.727930,-0.427795,-0.100127,-0.662985,0.551519,0.216357,1.863447,37.539715,22.294113,9.798765,0.237516,1.858627,0.034652,0.000000,0.000000,0.000000,0.000000,0.000000,0.000000
15250630.000000,2.310878,-1.119744,-1.926582,-1.487269,-1.083885,1.851878,0.519072,0.105414,-0.718217,-0.422499,-0.098335,-0.656185,0.555544,0.215883,1.911054,37.297710,22.048141,9.874144,0.219205,1.838485,0.100570,0.000000,0.000000,0.000000,0.000000,0.000000,0.000000
15250631.000000,2.310977,-1.120463,-1.927005,-1.487361,-1.084544,1.852424,0.519291,0.103756,-0.709179,-0.418959,-0.099168,-0.665337,0.549815,0.214572,2.085615,37.027935,21.972763,9.897947,0.183500,1.890670,0.094161,0.000000,0.000000,0.000000,0.000000,0.000000,0.000000
15250632.000000,2.311085,-1.121174,-1.927418,-1.487446,-1.085215,1.852971,0.519508,0.105782,-0.712528,-0.415666,-0.091800,-0.662216,0.551408,0.214453,2.133222,36.758160,21.825974,9.850340,0.178007,1.962081,0.061202,0.000000,0.000000,0.000000,0.000000,0.000000,0.000000
15250633.000000,2.311197,-1.121901,-1.927827,-1.487530,-1.085875,1.853523,0.519718,0.107351,-0.713769,-0.414280,-0.089985,-0.674362,0.549278,0.213642,2.160993,36.635174,21.631577,9.822569,0.129484,1.995040,0.048385,0.000000,0.000000,0.000000,0.000000,0.000000,0.000000
15250634.000000,2.311306,-1.122617,-1.928243,-1.487613,-1.086540,1.854089,0.519927,0.109980,-0.706498,-0.411664,-0.089560,-0.664562,0.549317,0.210632,2.208601,36.587566,21.484787,9.822569,0.093778,1.981307,0.087753,0.000000,0.000000,0.000000,0.000000,0.000000,0.000000
15250635.000000,2.311416,-1.123345,-1.928649,-1.487690,-1.087210,1.854642,0.520141,0.111502,-0.712729,-0.409073,-0.087555,-0.664231,0.544974,0.211212,2.208601,36.587566,21.361801,9.751158,0.010465,1.955673,0.067611,0.000000,0.000000,0.000000,0.000000,0.000000,0.000000
15250636.000000,2.311526,-1.124079,-1.929062,-1.487762,-1.087879,1.855214,0.520351,0.111744,-0.715333,-0.408594,-0.082949,-0.661691,0.548985,0.211413,2.232404,36.635174,21.262619,9.675779,0.076383,1.825668,0.048385,0.000000,0.000000,0.000000,0.000000,0.000000,0.000000
15250637.000000,2.311637,-1.124801,-1.929471,-1.487835,-1.088562,1.855782,0.520559,0.114318,-0.720883,-0.399072,-0.080828,-0.667416,0.557979,0.209705,2.208601,36.710552,21.310226,9.651976,0.129484,1.721298,0.067611,0.000000,0.000000,0.000000,0.000000,0.000000,0.000000
15250638.000000,2.311746,-1.125543,-1.929886,-1.487903,-1.089249,1.856329,0.520766,0.113508,-0.723207,-0.403470,-0.074848,-0.670229,0.558660,0.205432,2.232404,36.928753,21.286423,9.576597,0.249418,1.741439,0.041976,0.000000,0.000000,0.000000,0.000000,0.000000,0.000000
15250639.000000,2.311853,-1.126275,-1.930302,-1.487969,-1.089927,1.856880,0.520963,0.112708,-0.736767,-0.404261,-0.074208,-0.673930,0.553698,0.198270,2.359357,37.099346,21.286423,9.528990,0.308927,1.773483,0.114303,0.000000,0.000000,0.000000,0.000000,0.000000,0.000000
15250640.000000,2.311979,-1.127017,-1.930723,-1.488040,-1.090608,1.857420,0.521182,0.116763,-0.732086,-0.408062,-0.069629,-0.674026,0.557010,0.203398,2.208601,37.273907,21.457016,9.576597,0.332731,1.767074,0.054794,0.000000,0.000000,0.000000,0.000000,0.000000,0.000000
15250641.000000,2.312100,-1.127743,-1.931140,-1.488105,-1.091271,1.857973,0.521387,0.116779,-0.728372,-0.413241,-0.068787,-0.662725,0.558550,0.203532,2.160993,37.174725,21.532394,9.600401,0.267728,1.767074,0.087753,0.000000,0.000000,0.000000,0.000000,0.000000,0.000000
15250642.000000,2.312218,-1.128459,-1.931546,-1.488171,-1.091940,1.858525,0.521600,0.117919,-0.723218,-0.417238,-0.069686,-0.667623,0.555655,0.205396,2.160993,37.027935,21.508591,9.699583,0.166105,1.767074,0.061202,0.000000,0.000000,0.000000,0.000000,0.000000,0.000000
15250643.000000,2.312343,-1.129185,-1.931961,-1.488237,-1.092618,1.859062,0.521804,0.118200,-0.722040,-0.416619,-0.066980,-0.662740,0.549425,0.205566,2.061811,36.952557,21.580002,9.798765,0.088285,1.871444,0.087753,0.000000,0.000000,0.000000,0.000000,0.000000,0.000000
15250644.000000,2.312464,-1.129914,-1.932381,-1.488301,-1.093289,1.859599,0.522010,0.121151,-0.728756,-0.413913,-0.067641,-0.667098,0.539702,0.206284,1.986432,37.051739,21.631577,9.897947,0.069974,1.962081,0.094161,0.000000,0.000000,0.000000,0.000000,0.000000,0.000000
15250645.000000,2.312589,-1.130640,-1.932793,-1.488362,-1.093980,1.860138,0.522225,0.119751,-0.729031,-0.414403,-0.067120,-0.668396,0.535209,0.208803,1.911054,37.051739,21.726791,9.949522,0.183500,2.001449,0.048385,0.000000,0.000000,0.000000,0.000000,0.000000,0.000000
15250646.000000,2.312716,-1.131375,-1.933219,-1.488428,-1.094658,1.860687,0.522431,0.120917,-0.733320,-0.415521,-0.066037,-0.687138,0.529866,0.203031,1.887250,37.099346,21.925156,10.096312,0.219205,1.974899,0.061202,0.000000,0.000000,0.000000,0.000000,0.000000,0.000000
15250647.000000,2.312850,-1.132086,-1.933640,-1.488494,-1.095344,1.861242,0.522637,0.125562,-0.726182,-0.418584,-0.064569,-0.685803,0.536895,0.203191,1.788068,36.980328,22.024338,10.219297,0.374845,1.890670,0.087753,0.000000,0.000000,0.000000,0.000000,0.000000,0.000000
15250648.000000,2.312983,-1.132812,-1.934065,-1.488550,-1.096025,1.861784,0.522838,0.128814,-0.722266,-0.421199,-0.060889,-0.678924,0.537416,0.207669,1.641279,36.952557,22.194931,10.243101,0.393156,1.819259,0.114303,0.000000,0.000000,0.000000,0.000000,0.000000,0.000000
15250649.000000,2.313115,-1.133552,-1.934485,-1.488598,-1.096684,1.862318,0.523049,0.128774,-0.723314,-0.421014,-0.055596,-0.677428,0.537974,0.209963,1.565900,37.004131,22.270309,10.143919,0.369352,1.832076,0.067611,0.000000,0.000000,0.000000,0.000000,0.000000,0.000000
15250650.000000,2.313251,-1.134280,-1.934901,-1.488644,-1.097357,1.862835,0.523244,0.129995,-0.727228,-0.417186,-0.052054,-0.669435,0.531095,0.208076,1.415143,36.980328,22.317917,10.048704,0.303434,1.949264,0.107894,0.000000,0.000000,0.000000,0.000000,0.000000,0.000000
15250651.000000,2.313394,-1.135015,-1.935325,-1.488692,-1.098027,1.863354,0.523451,0.132377,-0.726129,-0.417843,-0.050564,-0.682525,0.525562,0.210534,1.216779,36.952557,22.417099,9.997129,0.207303,2.066451,0.054794,0.000000,0.000000,0.000000,0.000000,0.000000,0.000000
15250652.000000,2.313533,-1.135750,-1.935741,-1.488735,-1.098680,1.863881,0.523655,0.135624,-0.732388,-0.410174,-0.049685,-0.673081,0.523849,0.209768,1.121564,37.027935,22.393295,9.949522,0.100187,2.137862,0.054794,0.000000,0.000000,0.000000,0.000000,0.000000,0.000000
15250653.000000,2.313680,-1.136479,-1.936144,-1.488774,-1.099366,1.864656,0.523906,0.140685,-0.731343,-0.407307,-0.044550,-0.676239,0.609256,0.226513,0.994611,36.881145,22.317917,9.850340,0.166105,-0.125321,-0.380082,0.000000,0.000000,0.000000,0.000000,0.000000,0.000000
15250654.000000,2.313828,-1.137207,-1.936588,-1.488848,-1.100253,1.865822,0.524069,0.142622,-0.729880,-0.411904,-0.053531,-0.748430,0.806474,0.207732,0.847822,36.635174,22.734482,10.294676,2.089628,-5.457353,-0.031266,0.000000,0.000000,0.000000,0.000000,0.000000,0.000000
15250655.000000,2.313920,-1.137950,-1.937005,-1.488903,-1.101014,1.866393,0.524245,0.126874,-0.740002,-0.412866,-0.054104,-0.752574,0.742244,0.198589,1.490522,36.758160,22.857468,10.516844,2.573942,-4.618730,0.219589,0.000000,0.000000,0.000000,0.000000,0.000000,0.000000
15250656.000000,2.314010,-1.138764,-1.937262,-1.488838,-1.101791,1.867232,0.524440,0.115807,-0.765467,-0.353693,-0.014430,-0.761888,0.776611,0.195531,2.109418,37.809490,20.600082,9.033079,2.980436,-5.633134,0.258956,0.000000,0.000000,0.000000,0.000000,0.000000,0.000000
15250657.000000,2.314243,-1.139596,-1.937578,-1.488723,-1.102542,1.868312,0.524699,0.157982,-0.805075,-0.334338,0.032656,-0.755007,0.876941,0.213943,0.697065,39.182171,19.322617,6.934386,2.974027,-8.305558,-0.261979,0.000000,0.000000,0.000000,0.000000,0.000000,0.000000
15250658.000000,2.314455,-1.140408,-1.937877,-1.488630,-1.103273,1.869093,0.524812,0.176735,-0.805144,-0.317565,0.054770,-0.742340,0.842315,0.181245,-0.389971,40.039104,18.049118,5.399046,2.639860,-7.844132,0.562911,0.000000,0.000000,0.000000,0.000000,0.000000,0.000000
15250659.000000,2.314528,-1.141200,-1.938003,-1.488558,-1.104049,1.869864,0.525092,0.142084,-0.796384,-0.247497,0.062772,-0.746467,0.807911,0.212041,0.673261,40.404095,14.514267,4.458800,2.831205,-6.758317,-0.169511,0.000000,0.000000,0.000000,0.000000,0.000000,0.000000
15250660.000000,2.314626,-1.142006,-1.938111,-1.488487,-1.104865,1.870567,0.525250,0.126144,-0.795401,-0.202301,0.066302,-0.764074,0.757347,0.190552,1.315961,40.967449,11.078598,3.768492,3.165372,-5.060929,0.213180,0.000000,0.000000,0.000000,0.000000,0.000000,0.000000
15250661.000000,2.314808,-1.142836,-1.938160,-1.488343,-1.105733,1.871435,0.525449,0.142230,-0.801285,-0.150496,0.092026,-0.796190,0.779012,0.196345,0.772443,41.677593,7.297775,2.260924,3.900541,-5.314530,0.199447,0.000000,0.000000,0.000000,0.000000,0.000000,0.000000
15250662.000000,2.314968,-1.143577,-1.938182,-1.488170,-1.106460,1.872138,0.525651,0.147003,-0.776613,-0.104291,0.118703,-0.774794,0.738133,0.198257,0.502668,41.042828,3.663742,0.507384,3.446439,-4.254350,0.100570,0.000000,0.000000,0.000000,0.000000,0.000000,0.000000
15250663.000000,2.315061,-1.144223,-1.938135,-1.488019,-1.107226,1.872613,0.525875,0.131267,-0.731477,-0.055386,0.126575,-0.766406,0.641732,0.206373,1.192975,39.253582,-0.386856,-0.631227,3.177274,-1.672562,-0.188737,0.000000,0.000000,0.000000,0.000000,0.000000,0.000000
15250664.000000,2.315139,-1.144817,-1.938062,-1.487889,-1.107863,1.873214,0.526027,0.115648,-0.679065,-0.010852,0.123835,-0.735300,0.611683,0.192003,2.085615,36.682781,-4.163712,-1.250124,2.012723,-0.821122,0.193038,0.000000,0.000000,0.000000,0.000000,0.000000,0.000000
15250665.000000,2.315229,-1.145372,-1.937972,-1.487718,-1.108570,1.873865,0.526246,0.105714,-0.635982,0.022607,0.138141,-0.713300,0.619614,0.203910,2.779890,33.869976,-7.599380,-2.237978,1.582426,-1.087540,-0.011124,0.000000,0.000000,0.000000,0.000000,0.000000,0.000000
15250666.000000,2.315280,-1.145881,-1.937844,-1.487550,-1.109222,1.874470,0.526414,0.083693,-0.588767,0.056297,0.148044,-0.687207,0.614197,0.196801,3.890729,30.565228,-10.963638,-2.928285,0.906766,-1.529740,0.213180,0.000000,0.000000,0.000000,0.000000,0.000000,0.000000
15250667.000000,2.315298,-1.146336,-1.937670,-1.487413,-1.109889,1.874943,0.526596,0.060200,-0.540353,0.094706,0.140790,-0.676043,0.569832,0.192973,5.378461,26.820110,-14.474686,-2.956056,0.786832,-1.133317,0.272689,0.000000,0.000000,0.000000,0.000000,0.000000,0.000000
15250668.000000,2.315289,-1.146751,-1.937488,-1.487325,-1.110496,1.875404,0.526800,0.036234,-0.502337,0.124202,0.121723,-0.650461,0.547571,0.196278,7.084394,23.122601,-17.616776,-2.190370,0.267728,-0.938309,0.153671,0.000000,0.000000,0.000000,0.000000,0.000000,0.000000
15250669.000000,2.315271,-1.147153,-1.937273,-1.487220,-1.111050,1.875866,0.526965,0.013856,-0.463305,0.156507,0.110190,-0.607383,0.519079,0.188516,8.742719,19.647259,-20.754898,-1.571474,-0.426241,-1.003312,0.312057,0.000000,0.000000,0.000000,0.000000,0.000000,0.000000
15250670.000000,2.315267,-1.147512,-1.937068,-1.487085,-1.111604,1.876333,0.527165,0.006159,-0.418577,0.171623,0.118601,-0.589821,0.503615,0.193889,10.032086,16.100506,-23.357437,-1.472292,-0.862032,-1.256913,0.173812,0.000000,0.000000,0.000000,0.000000,0.000000,0.000000
15250671.000000,2.315271,-1.147850,-1.936894,-1.486942,-1.112081,1.876828,0.527343,0.008501,-0.393608,0.167819,0.123930,-0.546369,0.509595,0.189647,11.019940,12.621197,-25.249832,-1.595277,-1.830660,-1.887711,0.252548,0.000000,0.000000,0.000000,0.000000,0.000000,0.000000
15250672.000000,2.315284,-1.148121,-1.936749,-1.486789,-1.112547,1.877256,0.527528,0.008241,-0.351625,0.156185,0.130995,-0.524363,0.479351,0.185896,11.789594,8.657879,-26.547134,-1.869020,-2.589633,-1.906937,0.206771,0.000000,0.000000,0.000000,0.000000,0.000000,0.000000
15250673.000000,2.315296,-1.148355,-1.936623,-1.486638,-1.112948,1.877676,0.527683,0.010828,-0.313788,0.145145,0.138776,-0.485153,0.465154,0.171935,12.483869,4.666790,-27.507217,-2.138796,-3.701083,-1.737565,0.450301,0.000000,0.000000,0.000000,0.000000,0.000000,0.000000
15250674.000000,2.315321,-1.148567,-1.936491,-1.486494,-1.113372,1.878129,0.527885,0.016053,-0.281154,0.138916,0.137985,-0.465356,0.462111,0.179389,12.904401,0.798687,-28.562515,-2.285585,-4.340121,-1.881303,0.239730,0.000000,0.000000,0.000000,0.000000,0.000000,0.000000
15250675.000000,2.315347,-1.148736,-1.936385,-1.486403,-1.113767,1.878636,0.528048,0.023086,-0.251225,0.124223,0.120382,-0.444763,0.481099,0.175728,13.273358,-3.164631,-29.272659,-1.694460,-5.003878,-2.368363,0.398116,0.000000,0.000000,0.000000,0.000000,0.000000,0.000000
15250676.000000,2.315367,-1.148842,-1.936290,-1.486330,-1.114214,1.879068,0.528237,0.023631,-0.206652,0.113118,0.103888,-0.447897,0.466082,0.182734,13.693891,-7.572285,-29.911392,-0.904970,-5.003878,-2.082719,0.305648,0.000000,0.000000,0.000000,0.000000,0.000000,0.000000
15250677.000000,2.315396,-1.148914,-1.936239,-1.486262,-1.114685,1.879505,0.528440,0.027140,-0.161437,0.087157,0.088176,-0.464921,0.454046,0.186286,13.967633,-12.051350,-30.010574,-0.186891,-4.692599,-1.744889,0.107894,0.000000,0.000000,0.000000,0.000000,0.000000,0.000000
15250678.000000,2.315464,-1.148963,-1.936232,-1.486183,-1.115203,1.879995,0.528614,0.041564,-0.130720,0.057648,0.082255,-0.486558,0.466817,0.180964,13.721662,-16.213032,-29.594009,0.186034,-4.070956,-1.822709,0.239730,0.000000,0.000000,0.000000,0.000000,0.000000,0.000000
15250679.000000,2.315545,-1.148998,-1.936253,-1.486068,-1.115790,1.880499,0.528823,0.057132,-0.103425,0.027896,0.090722,-0.524799,0.479713,0.185967,13.324933,-20.251728,-29.026688,-0.012331,-3.037325,-2.011307,0.015426,0.000000,0.000000,0.000000,0.000000,0.000000,0.000000
15250680.000000,2.315641,-1.149005,-1.936317,-1.485933,-1.116353,1.881008,0.528995,0.069072,-0.070834,-0.004421,0.105402,-0.542485,0.487156,0.179028,12.753644,-24.191242,-28.094376,-0.607423,-2.613436,-2.179765,0.199447,0.000000,0.000000,0.000000,0.000000,0.000000,0.000000
15250681.000000,2.315755,-1.149033,-1.936382,-1.485793,-1.116914,1.881508,0.529185,0.082654,-0.062838,-0.023535,0.119454,-0.548747,0.486999,0.174464,12.063336,-27.349201,-27.431839,-1.273927,-2.595126,-2.166947,0.246139,0.000000,0.000000,0.000000,0.000000,0.000000,0.000000
15250682.000000,2.315876,-1.149066,-1.936450,-1.485642,-1.117488,1.882013,0.529392,0.095045,-0.058908,-0.039234,0.130087,-0.574728,0.485929,0.184098,11.345258,-30.213581,-26.939896,-1.992006,-2.726962,-2.122086,0.087753,0.000000,0.000000,0.000000,0.000000,0.000000,0.000000
15250683.000000,2.316006,-1.149149,-1.936512,-1.485482,-1.118041,1.882513,0.529561,0.105776,-0.070845,-0.046963,0.141411,-0.562264,0.491334,0.176077,10.650983,-32.098042,-26.769302,-2.757692,-3.342196,-1.991166,0.312057,0.000000,0.000000,0.000000,0.000000,0.000000,0.000000
15250684.000000,2.316129,-1.149264,-1.936568,-1.485300,-1.118646,1.882975,0.529780,0.110157,-0.090170,-0.049792,0.156876,-0.573887,0.480879,0.191630,10.131269,-33.319965,-26.868484,-3.721742,-3.701083,-1.581925,0.133529,0.000000,0.000000,0.000000,0.000000,0.000000,0.000000
15250685.000000,2.316262,-1.149410,-1.936643,-1.485123,-1.119259,1.883410,0.529963,0.119574,-0.113857,-0.057582,0.163655,-0.584830,0.463640,0.186989,9.611554,-34.081684,-26.892288,-4.511232,-3.916232,-0.931901,0.232406,0.000000,0.000000,0.000000,0.000000,0.000000,0.000000
15250686.000000,2.316414,-1.149587,-1.936740,-1.484937,-1.119908,1.883855,0.530162,0.127632,-0.137957,-0.069371,0.173652,-0.598373,0.464081,0.188098,8.941083,-34.446674,-26.816910,-5.253114,-3.951937,-0.502518,0.206771,0.000000,0.000000,0.000000,0.000000,0.000000,0.000000
15250687.000000,2.316555,-1.149798,-1.936851,-1.484719,-1.120548,1.884362,0.530346,0.129598,-0.163915,-0.079329,0.186565,-0.600634,0.474428,0.184985,8.520551,-34.470478,-26.697891,-6.240968,-4.089266,-0.768937,0.291915,0.000000,0.000000,0.000000,0.000000,0.000000,0.000000
15250688.000000,2.316707,-1.150032,-1.936976,-1.484491,-1.121204,1.884885,0.530521,0.135022,-0.183655,-0.092065,0.202452,-0.616233,0.496398,0.176345,7.977033,-34.204670,-26.622513,-7.232790,-4.094759,-1.230363,0.410934,0.000000,0.000000,0.000000,0.000000,0.000000,0.000000
15250689.000000,2.316869,-1.150313,-1.937098,-1.484271,-1.121864,1.885381,0.530713,0.142343,-0.218480,-0.101194,0.208946,-0.625703,0.504141,0.181243,7.433515,-33.565937,-26.721695,-7.875490,-4.119479,-1.491288,0.377975,0.000000,0.000000,0.000000,0.000000,0.000000,0.000000
15250690.000000,2.317011,-1.150635,-1.937207,-1.484055,-1.122527,1.885858,0.530897,0.142969,-0.254663,-0.101063,0.210978,-0.638703,0.498158,0.183308,7.235151,-32.685200,-27.237442,-8.367434,-4.143282,-1.477555,0.377975,0.000000,0.000000,0.000000,0.000000,0.000000,0.000000
15250691.000000,2.317147,-1.150995,-1.937295,-1.483848,-1.123177,1.886335,0.531078,0.142144,-0.290843,-0.092408,0.207877,-0.637142,0.489006,0.182909,7.159772,-31.463276,-28.070572,-8.641176,-4.340121,-1.309098,0.423751,0.000000,0.000000,0.000000,0.000000,0.000000,0.000000
15250692.000000,2.317301,-1.151392,-1.937377,-1.483640,-1.123821,1.886767,0.531246,0.147451,-0.329771,-0.087809,0.206181,-0.630842,0.469153,0.180639,6.937604,-30.165974,-29.125870,-8.787966,-4.675204,-0.898942,0.529952,0.000000,0.000000,0.000000,0.000000,0.000000,0.000000
15250693.000000,2.317451,-1.151822,-1.937437,-1.483458,-1.124444,1.887162,0.531414,0.145616,-0.371516,-0.078563,0.201864,-0.631529,0.445353,0.178459,6.838422,-28.745686,-30.498550,-8.541994,-5.027682,-0.106095,0.654464,0.000000,0.000000,0.000000,0.000000,0.000000,0.000000
15250694.000000,2.317581,-1.152278,-1.937501,-1.483292,-1.125078,1.887510,0.531575,0.139604,-0.402240,-0.068832,0.185926,-0.628134,0.413113,0.171822,6.961408,-27.301594,-31.776016,-8.046083,-5.326144,0.908309,0.779891,0.000000,0.000000,0.000000,0.000000,0.000000,0.000000
15250695.000000,2.317708,-1.152761,-1.937567,-1.483123,-1.125760,1.887867,0.531732,0.132786,-0.428216,-0.066423,0.178181,-0.652358,0.384690,0.169168,7.211347,-26.028095,-33.001907,-7.677125,-5.080782,1.695663,0.845809,0.000000,0.000000,0.000000,0.000000,0.000000,0.000000
15250696.000000,2.317842,-1.153248,-1.937670,-1.482967,-1.126515,1.888264,0.531873,0.133271,-0.450136,-0.076503,0.170074,-0.676824,0.384775,0.156681,7.258955,-24.925190,-33.616837,-7.181215,-4.220187,1.930038,1.043563,0.000000,0.000000,0.000000,0.000000,0.000000,0.000000
15250697.000000,2.317963,-1.153754,-1.937772,-1.482824,-1.127308,1.888686,0.532023,0.126980,-0.464605,-0.089611,0.159660,-0.712525,0.402900,0.157314,7.556501,-24.167439,-34.132584,-6.613893,-3.198458,1.643478,1.103072,0.000000,0.000000,0.000000,0.000000,0.000000,0.000000
15250698.000000,2.318062,-1.154257,-1.937872,-1.482683,-1.128104,1.889112,0.532169,0.117589,-0.476595,-0.091131,0.151856,-0.740851,0.408515,0.151755,8.223004,-23.703266,-34.771317,-6.141786,-2.218844,1.227828,1.208358,0.000000,0.000000,0.000000,0.000000,0.000000,0.000000
15250699.000000,2.318168,-1.154766,-1.937960,-1.482567,-1.128921,1.889506,0.532313,0.113896,-0.482267,-0.089486,0.140610,-0.762980,0.410569,0.149847,8.671308,-23.286701,-35.533035,-5.574464,-1.495577,1.090499,1.247726,0.000000,0.000000,0.000000,0.000000,0.000000,0.000000
15250700.000000,2.318273,-1.155296,-1.938035,-1.482445,-1.129728,1.889890,0.532459,0.111079,-0.494563,-0.085657,0.133956,-0.795014,0.406551,0.149823,9.139447,-22.969318,-36.536758,-5.205507,-1.160494,1.214095,1.247726,0.000000,0.000000,0.000000,0.000000,0.000000,0.000000
15250701.000000,2.318359,-1.155808,-1.938087,-1.482307,-1.130492,1.890252,0.532599,0.105432,-0.498567,-0.074383,0.135170,-0.782726,0.389932,0.147602,9.833722,-22.917744,-37.814224,-5.229311,-1.310641,1.597701,1.288009,0.000000,0.000000,0.000000,0.000000,0.000000,0.000000
15250702.000000,2.318445,-1.156330,-1.938145,-1.482172,-1.131248,1.890616,0.532747,0.098070,-0.503226,-0.069814,0.131879,-0.762132,0.384542,0.144206,10.476422,-23.016926,-38.944901,-5.253114,-1.800448,1.949264,1.247726,0.000000,0.000000,0.000000,0.000000,0.000000,0.000000
