chaoyuefei/paper-gmrm-data/robot_logs/onetime_s2_dq_mrm_min_0.50_log_20260314_181922.csv
# time_ms,q_0,q_1,q_2,q_3,q_4,q_5,q_6,dq_0,dq_1,dq_2,dq_3,dq_4,dq_5,dq_6,tau_J_0,tau_J_1,tau_J_2,tau_J_3,tau_J_4,tau_J_5,tau_J_6,O_dP_EE_c_0,O_dP_EE_c_1,O_dP_EE_c_2,O_dP_EE_c_3,O_dP_EE_c_4,O_dP_EE_c_5
15026667.000000,-2.417800,-1.662660,1.040033,-1.352863,1.798017,1.079519,-0.546211,0.000048,-0.000282,-0.000473,0.000167,0.000128,0.000066,0.000999,-0.044818,41.530804,-20.754898,-5.772829,0.960782,1.305648,-0.182328,0.000000,0.000000,0.000000,0.000000,0.000000,0.000000
15026668.000000,-2.417800,-1.662654,1.040032,-1.352862,1.798016,1.079517,-0.546216,0.000032,0.001482,-0.000316,0.000668,-0.000118,-0.000431,-0.001029,-0.044818,41.459393,-20.754898,-5.796632,0.966276,1.318465,-0.136552,0.000000,0.000000,0.000000,0.000000,0.000000,0.000000
15026669.000000,-2.417800,-1.662658,1.040034,-1.352862,1.798015,1.079517,-0.546208,0.000021,-0.000125,0.000439,0.000445,-0.000316,-0.000287,0.001993,-0.044818,41.507000,-20.782669,-5.796632,0.972684,1.318465,-0.208878,0.000000,0.000000,0.000000,0.000000,0.000000,0.000000
15026670.000000,-2.417800,-1.662662,1.040036,-1.352865,1.798015,1.079518,-0.546218,0.000014,-0.000640,0.000850,-0.000817,-0.000211,0.000046,-0.001859,-0.044818,41.530804,-20.806473,-5.749025,0.972684,1.312057,-0.122819,0.000000,0.000000,0.000000,0.000000,0.000000,0.000000
15026671.000000,-2.417790,-1.662663,1.040038,-1.352863,1.798015,1.079517,-0.546216,0.007787,-0.002469,0.000566,0.001854,0.001182,0.008260,-0.003098,0.153547,41.483196,-20.806473,-5.721254,0.936979,1.344100,-0.196061,0.000000,0.000000,0.000000,0.000000,0.000000,0.000000
15026672.000000,-2.417790,-1.662664,1.040038,-1.352864,1.798015,1.079515,-0.546236,0.011000,-0.006076,0.001218,0.003222,-0.000528,0.009201,-0.012407,1.292158,41.261028,-20.707291,-5.526857,0.847257,1.519881,-0.182328,0.000000,0.000000,0.000000,0.000000,0.000000,0.000000
15026673.000000,-2.417758,-1.662665,1.040050,-1.352857,1.798020,1.079511,-0.546266,0.018643,-0.005906,0.007800,0.004440,0.000877,0.008338,-0.021028,2.827497,40.896038,-20.731094,-5.328493,0.679716,1.754256,-0.248246,0.000000,0.000000,0.000000,0.000000,0.000000,0.000000
15026674.000000,-2.417710,-1.662663,1.040063,-1.352865,1.798006,1.079532,-0.546324,0.024923,-0.000589,0.011011,-0.002676,-0.007448,0.017663,-0.029926,4.684186,40.427898,-20.683487,-4.907960,0.625699,1.858627,-0.248246,0.000000,0.000000,0.000000,0.000000,0.000000,0.000000
15026675.000000,-2.417650,-1.662665,1.040083,-1.352871,1.797984,1.079578,-0.546406,0.035977,0.001410,0.016033,-0.005085,-0.015440,0.025808,-0.048114,6.592451,40.015301,-20.608109,-4.586610,0.620206,1.800033,-0.196061,0.000000,0.000000,0.000000,0.000000,0.000000,0.000000
15026676.000000,-2.417556,-1.662667,1.040113,-1.352898,1.797949,1.079655,-0.546497,0.048867,0.002196,0.021178,-0.012174,-0.022048,0.045918,-0.066273,8.151593,39.622540,-20.584305,-4.166078,0.637601,1.597701,-0.268388,0.000000,0.000000,0.000000,0.000000,0.000000,0.000000
15026677.000000,-2.417455,-1.662660,1.040156,-1.352939,1.797900,1.079753,-0.546622,0.060828,0.005364,0.026646,-0.026007,-0.037441,0.068698,-0.084725,9.611554,39.106792,-20.631912,-3.769350,0.685209,1.429244,-0.221696,0.000000,0.000000,0.000000,0.000000,0.000000,0.000000
15026678.000000,-2.417338,-1.662653,1.040199,-1.352984,1.797837,1.079863,-0.546761,0.079350,0.005251,0.033381,-0.033237,-0.048474,0.085030,-0.100912,10.825543,38.690228,-20.536697,-3.499574,0.721830,1.396285,-0.215287,0.000000,0.000000,0.000000,0.000000,0.000000,0.000000
15026679.000000,-2.417211,-1.662650,1.040255,-1.353051,1.797761,1.079990,-0.546924,0.093326,0.007054,0.042897,-0.044495,-0.059664,0.100631,-0.121106,11.987958,38.325237,-20.485123,-3.126650,0.715421,1.402694,-0.261979,0.000000,0.000000,0.000000,0.000000,0.000000,0.000000
15026680.000000,-2.417072,-1.662637,1.040326,-1.353115,1.797670,1.080138,-0.547116,0.103606,0.009569,0.047545,-0.050534,-0.069067,0.118762,-0.143537,13.027387,37.908672,-20.461319,-2.979860,0.613798,1.494247,-0.241837,0.000000,0.000000,0.000000,0.000000,0.000000,0.000000
15026681.000000,-2.416922,-1.662620,1.040412,-1.353202,1.797567,1.080313,-0.547335,0.117941,0.012111,0.057757,-0.060823,-0.085779,0.137267,-0.163613,13.892255,37.468304,-20.461319,-2.733888,0.506681,1.597701,-0.248246,0.000000,0.000000,0.000000,0.000000,0.000000,0.000000
15026682.000000,-2.416749,-1.662607,1.040519,-1.353298,1.797444,1.080516,-0.547580,0.132161,0.011596,0.075658,-0.071175,-0.098015,0.163777,-0.189281,14.562726,37.127117,-20.631912,-2.634706,0.386747,1.624252,-0.235429,0.000000,0.000000,0.000000,0.000000,0.000000,0.000000
15026683.000000,-2.416566,-1.662586,1.040639,-1.353409,1.797294,1.080754,-0.547853,0.151069,0.013005,0.089195,-0.086521,-0.109364,0.188437,-0.213887,15.130048,36.710552,-20.830276,-2.511720,0.315336,1.630660,-0.202470,0.000000,0.000000,0.000000,0.000000,0.000000,0.000000
15026684.000000,-2.416369,-1.662560,1.040766,-1.353544,1.797118,1.081022,-0.548141,0.165700,0.018373,0.100622,-0.102479,-0.130807,0.214590,-0.234673,15.649762,36.242413,-20.953262,-2.337160,0.339139,1.572067,-0.229020,0.000000,0.000000,0.000000,0.000000,0.000000,0.000000
15026685.000000,-2.416143,-1.662543,1.040910,-1.353697,1.796913,1.081317,-0.548444,0.183970,0.018181,0.116018,-0.118809,-0.156435,0.244726,-0.252142,15.971112,35.948833,-21.100052,-2.237978,0.393156,1.481429,-0.215287,0.000000,0.000000,0.000000,0.000000,0.000000,0.000000
15026686.000000,-2.415904,-1.662522,1.041072,-1.353864,1.796677,1.081630,-0.548758,0.206193,0.019957,0.129243,-0.130979,-0.183266,0.264944,-0.269444,16.169477,35.583843,-21.322220,-2.162599,0.512174,1.448470,-0.196061,0.000000,0.000000,0.000000,0.000000,0.000000,0.000000
15026687.000000,-2.415657,-1.662498,1.041237,-1.354039,1.796431,1.081953,-0.549072,0.215698,0.020202,0.141541,-0.146134,-0.204085,0.286722,-0.278693,16.467024,35.266460,-21.393631,-2.214174,0.535978,1.481429,-0.169511,0.000000,0.000000,0.000000,0.000000,0.000000,0.000000
15026688.000000,-2.415385,-1.662486,1.041413,-1.354234,1.796162,1.082306,-0.549378,0.231078,0.019672,0.149331,-0.158908,-0.219368,0.306423,-0.282393,16.566206,35.119671,-21.417435,-2.237978,0.554288,1.532699,-0.221696,0.000000,0.000000,0.000000,0.000000,0.000000,0.000000
15026689.000000,-2.415101,-1.662479,1.041599,-1.354449,1.795887,1.082675,-0.549701,0.247296,0.016772,0.163477,-0.178308,-0.234358,0.332103,-0.295134,16.689192,35.091900,-21.417435,-2.114992,0.535978,1.584884,-0.142960,0.000000,0.000000,0.000000,0.000000,0.000000,0.000000
15026690.000000,-2.414801,-1.662462,1.041787,-1.354678,1.795593,1.083066,-0.550024,0.259810,0.018004,0.170122,-0.192069,-0.251636,0.350461,-0.306828,16.788374,34.945110,-21.322220,-2.138796,0.446256,1.662704,-0.136552,0.000000,0.000000,0.000000,0.000000,0.000000,0.000000
15026691.000000,-2.414484,-1.662464,1.041996,-1.354935,1.795280,1.083484,-0.550328,0.278778,0.011232,0.183067,-0.211348,-0.274798,0.364781,-0.298418,16.764570,34.996685,-21.294449,-1.940431,0.398649,1.721298,-0.182328,0.000000,0.000000,0.000000,0.000000,0.000000,0.000000
15026692.000000,-2.414149,-1.662461,1.042213,-1.355212,1.794947,1.083921,-0.550629,0.292803,0.007814,0.189604,-0.235792,-0.285405,0.383484,-0.295955,16.788374,34.996685,-21.246841,-1.694460,0.369352,1.702071,-0.155778,0.000000,0.000000,0.000000,0.000000,0.000000,0.000000
15026693.000000,-2.413795,-1.662465,1.042435,-1.355503,1.794604,1.084392,-0.550924,0.315227,0.006947,0.201879,-0.251639,-0.303110,0.412784,-0.294728,16.788374,35.068096,-21.123856,-1.547670,0.351041,1.617843,-0.175919,0.000000,0.000000,0.000000,0.000000,0.000000,0.000000
15026694.000000,-2.413437,-1.662463,1.042673,-1.355804,1.794236,1.084892,-0.551219,0.330047,0.005635,0.213595,-0.267446,-0.327958,0.439415,-0.296633,16.816145,35.044292,-21.076248,-1.373109,0.381254,1.552840,-0.169511,0.000000,0.000000,0.000000,0.000000,0.000000,0.000000
15026695.000000,-2.413062,-1.662463,1.042919,-1.356110,1.793845,1.085396,-0.551506,0.342928,0.003535,0.226269,-0.280604,-0.345575,0.463073,-0.289751,16.887556,35.068096,-21.076248,-1.373109,0.416959,1.513473,-0.136552,0.000000,0.000000,0.000000,0.000000,0.000000,0.000000
15026696.000000,-2.412688,-1.662466,1.043167,-1.356432,1.793441,1.085933,-0.551777,0.352466,0.002052,0.229321,-0.293034,-0.359582,0.478588,-0.281468,17.137495,35.091900,-20.953262,-1.321535,0.446256,1.513473,-0.182328,0.000000,0.000000,0.000000,0.000000,0.000000,0.000000
15026697.000000,-2.412297,-1.662466,1.043427,-1.356761,1.793021,1.086475,-0.552056,0.366681,0.000907,0.240258,-0.302493,-0.378669,0.498938,-0.282638,17.359663,35.119671,-20.905655,-1.396913,0.470060,1.559249,-0.142960,0.000000,0.000000,0.000000,0.000000,0.000000,0.000000
15026698.000000,-2.411885,-1.662467,1.043697,-1.357119,1.792582,1.087045,-0.552323,0.378997,0.000189,0.249030,-0.319337,-0.392113,0.517584,-0.276795,17.530256,35.143475,-20.754898,-1.321535,0.494779,1.637069,-0.175919,0.000000,0.000000,0.000000,0.000000,0.000000,0.000000
15026699.000000,-2.411470,-1.662463,1.043987,-1.357475,1.792143,1.087646,-0.552594,0.393875,0.001439,0.262709,-0.330991,-0.406844,0.539919,-0.273886,17.728621,35.091900,-20.754898,-1.297731,0.488370,1.643478,-0.155778,0.000000,0.000000,0.000000,0.000000,0.000000,0.000000
15026700.000000,-2.411037,-1.662463,1.044275,-1.357864,1.791677,1.088276,-0.552849,0.403477,0.000389,0.274228,-0.350068,-0.421576,0.569425,-0.265139,17.926985,35.119671,-20.683487,-1.075563,0.458158,1.546432,-0.196061,0.000000,0.000000,0.000000,0.000000,0.000000,0.000000
15026701.000000,-2.410595,-1.662463,1.044582,-1.358256,1.791197,1.088929,-0.553110,0.415513,0.000969,0.280078,-0.370253,-0.433336,0.592754,-0.262137,18.125349,35.091900,-20.659683,-0.904970,0.434354,1.383468,-0.142960,0.000000,0.000000,0.000000,0.000000,0.000000,0.000000
15026702.000000,-2.410130,-1.662458,1.044892,-1.358671,1.790704,1.089595,-0.553365,0.426664,0.005636,0.287512,-0.388203,-0.458194,0.620039,-0.257971,18.224531,35.020489,-20.608109,-0.706606,0.458158,1.234237,-0.142960,0.000000,0.000000,0.000000,0.000000,0.000000,0.000000
15026703.000000,-2.409653,-1.662453,1.045219,-1.359104,1.790195,1.090272,-0.553607,0.439422,0.005827,0.299498,-0.398999,-0.469737,0.634624,-0.252683,18.399092,34.945110,-20.560501,-0.484438,0.464567,1.227828,-0.196061,0.000000,0.000000,0.000000,0.000000,0.000000,0.000000
15026704.000000,-2.409169,-1.662449,1.045551,-1.359536,1.789681,1.090964,-0.553863,0.454257,0.004671,0.308625,-0.411211,-0.484191,0.652000,-0.252938,18.597456,34.921307,-20.389908,-0.385256,0.458158,1.318465,-0.130143,0.000000,0.000000,0.000000,0.000000,0.000000,0.000000
15026705.000000,-2.408674,-1.662442,1.045888,-1.359985,1.789140,1.091659,-0.554098,0.462206,0.005514,0.316807,-0.420694,-0.494832,0.665375,-0.252799,18.918806,34.826092,-20.266922,-0.333681,0.446256,1.389877,-0.169511,0.000000,0.000000,0.000000,0.000000,0.000000,0.000000
15026706.000000,-2.408173,-1.662434,1.046247,-1.360455,1.788592,1.092389,-0.554336,0.475453,0.005568,0.325942,-0.436073,-0.503342,0.682353,-0.249212,19.240156,34.750713,-20.290726,-0.262270,0.446256,1.389877,-0.215287,0.000000,0.000000,0.000000,0.000000,0.000000,0.000000
15026707.000000,-2.407644,-1.662417,1.046610,-1.360918,1.788032,1.093128,-0.554585,0.490569,0.008357,0.344327,-0.445883,-0.524080,0.713801,-0.250017,19.486128,34.556316,-20.215347,-0.262270,0.452665,1.416427,-0.169511,0.000000,0.000000,0.000000,0.000000,0.000000,0.000000
15026708.000000,-2.407099,-1.662407,1.046988,-1.361414,1.787451,1.093900,-0.554829,0.504507,0.007964,0.353410,-0.458641,-0.533335,0.725725,-0.248669,19.736067,34.457134,-20.239151,-0.135317,0.458158,1.383468,-0.169511,0.000000,0.000000,0.000000,0.000000,0.000000,0.000000
15026709.000000,-2.406548,-1.662399,1.047381,-1.361917,1.786863,1.094700,-0.555076,0.517384,0.010169,0.361108,-0.478685,-0.562238,0.749763,-0.246964,19.910627,34.385723,-20.338333,-0.012331,0.476469,1.324874,-0.182328,0.000000,0.000000,0.000000,0.000000,0.000000,0.000000
15026710.000000,-2.405983,-1.662383,1.047780,-1.362443,1.786256,1.095516,-0.555322,0.528951,0.013050,0.374163,-0.488575,-0.574023,0.778591,-0.246733,20.204206,34.262737,-20.461319,0.186034,0.524076,1.220504,-0.149369,0.000000,0.000000,0.000000,0.000000,0.000000,0.000000
15026711.000000,-2.405405,-1.662366,1.048193,-1.362983,1.785635,1.096353,-0.555558,0.540217,0.015774,0.383663,-0.503447,-0.588882,0.788648,-0.240380,20.454145,34.115948,-20.608109,0.309019,0.488370,1.129867,-0.182328,0.000000,0.000000,0.000000,0.000000,0.000000,0.000000
15026712.000000,-2.404820,-1.662352,1.048634,-1.363525,1.785019,1.097203,-0.555802,0.553176,0.012906,0.400267,-0.516488,-0.596029,0.806134,-0.241596,20.751692,34.040569,-20.877884,0.356627,0.446256,1.194869,-0.175919,0.000000,0.000000,0.000000,0.000000,0.000000,0.000000
15026713.000000,-2.404210,-1.662336,1.049062,-1.364081,1.784370,1.098064,-0.556034,0.567415,0.014675,0.403877,-0.522385,-0.609682,0.818969,-0.241768,20.973860,33.941387,-20.929459,0.309019,0.422452,1.253463,-0.196061,0.000000,0.000000,0.000000,0.000000,0.000000,0.000000
15026714.000000,-2.403591,-1.662318,1.049517,-1.364650,1.783714,1.098949,-0.556272,0.585862,0.016346,0.414968,-0.533210,-0.621091,0.837558,-0.236828,21.172224,33.822369,-21.100052,0.332823,0.381254,1.324874,-0.202470,0.000000,0.000000,0.000000,0.000000,0.000000,0.000000
15026715.000000,-2.402953,-1.662303,1.049972,-1.365243,1.783041,1.099838,-0.556516,0.601819,0.016547,0.429723,-0.554703,-0.640058,0.851343,-0.237001,21.370588,33.746990,-21.223038,0.380431,0.369352,1.442062,-0.130143,0.000000,0.000000,0.000000,0.000000,0.000000,0.000000
15026716.000000,-2.402291,-1.662287,1.050455,-1.365851,1.782353,1.100767,-0.556738,0.613451,0.017879,0.441784,-0.566552,-0.654003,0.873607,-0.235820,21.493574,33.624004,-21.393631,0.531187,0.393156,1.481429,-0.215287,0.000000,0.000000,0.000000,0.000000,0.000000,0.000000
15026717.000000,-2.401615,-1.662268,1.050943,-1.366465,1.781650,1.101731,-0.556983,0.634105,0.018795,0.454850,-0.579505,-0.664552,0.900507,-0.240525,21.616560,33.501019,-21.469009,0.701781,0.500272,1.357833,-0.142960,0.000000,0.000000,0.000000,0.000000,0.000000,0.000000
15026718.000000,-2.400918,-1.662254,1.051439,-1.367099,1.780938,1.102712,-0.557216,0.649800,0.017833,0.468315,-0.587985,-0.680743,0.932889,-0.241524,21.791121,33.453411,-21.687210,0.900145,0.601896,1.162826,-0.142960,0.000000,0.000000,0.000000,0.000000,0.000000,0.000000
15026719.000000,-2.400215,-1.662243,1.051945,-1.367729,1.780223,1.103708,-0.557445,0.667332,0.013404,0.473607,-0.616864,-0.684563,0.945575,-0.239830,21.937910,33.429607,-21.786392,1.098509,0.739225,1.084090,-0.215287,0.000000,0.000000,0.000000,0.000000,0.000000,0.000000
15026720.000000,-2.399493,-1.662231,1.052455,-1.368375,1.779511,1.104697,-0.557684,0.683935,0.009655,0.483884,-0.621517,-0.692873,0.961616,-0.238981,22.211653,33.429607,-21.960953,1.221495,0.900358,1.155502,-0.155778,0.000000,0.000000,0.000000,0.000000,0.000000,0.000000
15026721.000000,-2.398761,-1.662229,1.052977,-1.369032,1.778803,1.105720,-0.557907,0.689195,0.006595,0.490690,-0.628642,-0.691068,0.974439,-0.234240,22.088667,33.576397,-21.960953,1.122313,1.020292,1.324874,-0.196061,0.000000,0.000000,0.000000,0.000000,0.000000,0.000000
15026722.000000,-2.398035,-1.662221,1.053517,-1.369701,1.778110,1.106764,-0.558132,0.692458,0.008317,0.510058,-0.644870,-0.688155,0.987972,-0.225697,21.049238,33.699383,-21.762589,0.729552,0.918668,1.526290,-0.241837,0.000000,0.000000,0.000000,0.000000,0.000000,0.000000
15026723.000000,-2.397308,-1.662210,1.054073,-1.370400,1.777400,1.107827,-0.558365,0.691376,0.008534,0.525712,-0.656180,-0.688866,1.008080,-0.232954,19.192549,33.746990,-21.445206,0.086851,0.882963,1.605026,-0.149369,0.000000,0.000000,0.000000,0.000000,0.000000,0.000000
15026724.000000,-2.396587,-1.662202,1.054656,-1.371098,1.776691,1.108928,-0.558581,0.711779,0.008372,0.541545,-0.662821,-0.691743,1.030625,-0.228310,16.641584,33.675579,-20.929459,-0.904970,0.781339,1.578475,-0.229020,0.000000,0.000000,0.000000,0.000000,0.000000,0.000000
15026725.000000,-2.395864,-1.662193,1.055269,-1.371811,1.776001,1.110032,-0.558808,0.721865,0.009499,0.574430,-0.674039,-0.692474,1.081845,-0.229455,13.916059,33.405804,-20.167740,-1.670656,0.625699,1.611434,-0.188737,0.000000,0.000000,0.000000,0.000000,0.000000,0.000000
15026726.000000,-2.395142,-1.662190,1.055891,-1.372539,1.775315,1.111144,-0.559023,0.726142,0.009799,0.585966,-0.684455,-0.682932,1.089812,-0.224014,11.317487,33.136028,-19.334610,-2.285585,0.482877,1.773483,-0.182328,0.000000,0.000000,0.000000,0.000000,0.000000,0.000000
15026727.000000,-2.394422,-1.662193,1.056540,-1.373239,1.774640,1.112293,-0.559242,0.729970,0.008558,0.601786,-0.688034,-0.696542,1.112395,-0.219702,8.794293,32.913860,-18.521317,-3.027467,0.332731,1.754256,-0.175919,0.000000,0.000000,0.000000,0.000000,0.000000,0.000000
15026728.000000,-2.393700,-1.662206,1.057193,-1.373945,1.773977,1.113449,-0.559456,0.733251,0.000224,0.619696,-0.692581,-0.683874,1.127818,-0.215892,6.564680,32.866253,-17.763565,-3.570986,0.201810,1.637069,-0.202470,0.000000,0.000000,0.000000,0.000000,0.000000,0.000000
15026729.000000,-2.392968,-1.662218,1.057844,-1.374639,1.773307,1.114646,-0.559682,0.732319,-0.006223,0.625449,-0.691710,-0.674590,1.145611,-0.215910,4.537397,32.842449,-16.855057,-4.142274,0.112089,1.513473,-0.142960,0.000000,0.000000,0.000000,0.000000,0.000000,0.000000
15026730.000000,-2.392257,-1.662237,1.058510,-1.375325,1.772670,1.115857,-0.559897,0.729548,-0.013179,0.628551,-0.689483,-0.658787,1.164044,-0.211722,2.879072,32.913860,-16.093338,-4.388246,0.015958,1.442062,-0.188737,0.000000,0.000000,0.000000,0.000000,0.000000,0.000000
15026731.000000,-2.391523,-1.662262,1.059160,-1.376004,1.772011,1.117078,-0.560111,0.731806,-0.016595,0.631124,-0.675758,-0.653703,1.188412,-0.209772,1.292158,33.060650,-15.355423,-4.610414,0.112089,1.337692,-0.215287,0.000000,0.000000,0.000000,0.000000,0.000000,0.000000
15026732.000000,-2.390811,-1.662289,1.059824,-1.376680,1.771361,1.118304,-0.560327,0.726833,-0.020385,0.633524,-0.672241,-0.650473,1.195061,-0.211379,0.054365,33.136028,-14.546097,-4.610414,0.225614,1.377059,-0.155778,0.000000,0.000000,0.000000,0.000000,0.000000,0.000000
15026733.000000,-2.390086,-1.662315,1.060496,-1.377373,1.770726,1.119554,-0.560539,0.721673,-0.023439,0.641207,-0.674972,-0.640889,1.211117,-0.209171,-1.060443,33.088421,-14.054153,-4.364442,0.285123,1.182052,-0.175919,0.000000,0.000000,0.000000,0.000000,0.000000,0.000000
15026734.000000,-2.389353,-1.662341,1.061170,-1.378068,1.770100,1.120820,-0.560742,0.722535,-0.024567,0.646554,-0.680239,-0.633035,1.214592,-0.211784,-2.024493,32.989239,-13.443192,-4.043092,0.381254,0.922042,-0.221696,0.000000,0.000000,0.000000,0.000000,0.000000,0.000000
15026735.000000,-2.388649,-1.662367,1.061863,-1.378755,1.769476,1.122080,-0.560955,0.715434,-0.024535,0.654498,-0.684822,-0.633530,1.225507,-0.212438,-2.643389,32.842449,-13.026627,-3.547182,0.476469,0.836898,-0.169511,0.000000,0.000000,0.000000,0.000000,0.000000,0.000000
15026736.000000,-2.387920,-1.662389,1.062551,-1.379442,1.768864,1.123308,-0.561154,0.715260,-0.023541,0.668071,-0.684763,-0.625250,1.222484,-0.209700,-3.361468,32.644085,-12.681473,-3.102846,0.482877,0.804855,-0.208878,0.000000,0.000000,0.000000,0.000000,0.000000,0.000000
15026737.000000,-2.387218,-1.662409,1.063244,-1.380118,1.768252,1.124537,-0.561360,0.710244,-0.022022,0.671763,-0.695300,-0.615749,1.211934,-0.204943,-3.805804,32.402081,-12.264908,-2.757692,0.398649,0.901900,-0.202470,0.000000,0.000000,0.000000,0.000000,0.000000,0.000000
15026738.000000,-2.386509,-1.662431,1.063938,-1.380792,1.767651,1.125735,-0.561566,0.705001,-0.022124,0.674800,-0.688143,-0.611532,1.204770,-0.206879,-4.127154,32.203716,-12.066544,-2.535524,0.369352,1.084090,-0.169511,0.000000,0.000000,0.000000,0.000000,0.000000,0.000000
15026739.000000,-2.385795,-1.662438,1.064646,-1.381456,1.767049,1.126947,-0.561766,0.698437,-0.017440,0.682011,-0.676849,-0.599934,1.208984,-0.206264,-4.424700,31.791119,-11.848343,-2.535524,0.273221,1.279098,-0.188737,0.000000,0.000000,0.000000,0.000000,0.000000,0.000000
15026740.000000,-2.385100,-1.662445,1.065373,-1.382108,1.766464,1.128167,-0.561971,0.698240,-0.012056,0.691997,-0.671007,-0.595489,1.203443,-0.200536,-4.623065,31.422161,-11.848343,-2.511720,0.243009,1.337692,-0.215287,0.000000,0.000000,0.000000,0.000000,0.000000,0.000000
15026741.000000,-2.384406,-1.662437,1.066085,-1.382751,1.765866,1.129373,-0.562179,0.693627,-0.005008,0.698065,-0.654998,-0.592417,1.201362,-0.207480,-4.698443,30.906414,-11.673782,-2.658510,0.237516,1.318465,-0.175919,0.000000,0.000000,0.000000,0.000000,0.000000,0.000000
15026742.000000,-2.383717,-1.662427,1.066825,-1.383399,1.765277,1.130585,-0.562384,0.703602,-0.000131,0.708190,-0.645431,-0.586880,1.191210,-0.202583,-4.869036,30.394634,-11.673782,-2.781496,0.261320,1.331283,-0.175919,0.000000,0.000000,0.000000,0.000000,0.000000,0.000000
15026743.000000,-2.383018,-1.662414,1.067573,-1.384034,1.764693,1.131788,-0.562584,0.702536,0.005832,0.729998,-0.640055,-0.583137,1.216425,-0.196493,-5.019793,29.902691,-11.626175,-2.833071,0.303434,1.247054,-0.229020,0.000000,0.000000,0.000000,0.000000,0.000000,0.000000
15026744.000000,-2.382320,-1.662400,1.068309,-1.384670,1.764118,1.133003,-0.562791,0.691471,0.009614,0.730279,-0.636922,-0.572260,1.209957,-0.197188,-5.166583,29.438519,-11.503189,-2.928285,0.291532,1.110641,-0.163102,0.000000,0.000000,0.000000,0.000000,0.000000,0.000000
15026745.000000,-2.381632,-1.662381,1.069065,-1.385294,1.763550,1.134237,-0.562991,0.688705,0.014892,0.735455,-0.634375,-0.580314,1.204647,-0.198192,-5.364947,28.998150,-11.380203,-2.956056,0.255826,0.947677,-0.196061,0.000000,0.000000,0.000000,0.000000,0.000000,0.000000
15026746.000000,-2.380936,-1.662357,1.069811,-1.385912,1.762987,1.135434,-0.563194,0.686654,0.016804,0.741809,-0.626655,-0.570036,1.199235,-0.198993,-5.487933,28.510174,-11.158035,-3.102846,0.207303,0.863448,-0.215287,0.000000,0.000000,0.000000,0.000000,0.000000,0.000000
15026747.000000,-2.380246,-1.662337,1.070565,-1.386528,1.762427,1.136632,-0.563400,0.685274,0.018546,0.749419,-0.618937,-0.565056,1.185666,-0.203486,-5.563311,28.141216,-10.816849,-3.325014,0.123990,0.974227,-0.155778,0.000000,0.000000,0.000000,0.000000,0.000000,0.000000
15026748.000000,-2.379570,-1.662317,1.071329,-1.387130,1.761873,1.137832,-0.563594,0.681709,0.016239,0.751721,-0.613363,-0.563436,1.177377,-0.196913,-5.539507,27.800030,-10.424088,-3.448000,0.064481,1.090499,-0.221696,0.000000,0.000000,0.000000,0.000000,0.000000,0.000000
15026749.000000,-2.378881,-1.662294,1.072084,-1.387737,1.761313,1.139019,-0.563792,0.678386,0.017914,0.755999,-0.609139,-0.567094,1.176366,-0.196262,-5.638690,27.454876,-9.983719,-3.499574,0.022367,1.201278,-0.188737,0.000000,0.000000,0.000000,0.000000,0.000000,0.000000
15026750.000000,-2.378200,-1.662281,1.072858,-1.388333,1.760744,1.140232,-0.563991,0.674806,0.021942,0.758343,-0.604989,-0.564174,1.175216,-0.194832,-5.761675,27.260479,-9.590958,-3.499574,0.064481,1.162826,-0.163102,0.000000,0.000000,0.000000,0.000000,0.000000,0.000000
15026751.000000,-2.377509,-1.662263,1.073630,-1.388936,1.760196,1.141464,-0.564180,0.675368,0.022295,0.768320,-0.601856,-0.560206,1.190619,-0.195530,-5.884661,27.066082,-9.293411,-3.499574,0.076383,0.863448,-0.229020,0.000000,0.000000,0.000000,0.000000,0.000000,0.000000
15026752.000000,-2.376803,-1.662253,1.074424,-1.389545,1.759645,1.142705,-0.564378,0.685949,0.017418,0.777314,-0.603948,-0.550322,1.199523,-0.195521,-6.206011,26.966900,-9.075211,-3.424196,0.058073,0.589706,-0.188737,0.000000,0.000000,0.000000,0.000000,0.000000,0.000000
15026753.000000,-2.376110,-1.662242,1.075230,-1.390136,1.759102,1.143951,-0.564573,0.686002,0.013458,0.787498,-0.600709,-0.546467,1.201477,-0.193244,-6.455950,26.895489,-8.900650,-3.424196,0.100187,0.434066,-0.188737,0.000000,0.000000,0.000000,0.000000,0.000000,0.000000
15026754.000000,-2.375414,-1.662240,1.076032,-1.390727,1.758548,1.145158,-0.564763,0.684225,0.011147,0.794519,-0.593726,-0.542781,1.200629,-0.190967,-6.701922,26.943096,-8.706253,-3.547182,0.129484,0.479842,-0.215287,0.000000,0.000000,0.000000,0.000000,0.000000,0.000000
15026755.000000,-2.374730,-1.662242,1.076855,-1.391303,1.758005,1.146371,-0.564960,0.688048,0.005473,0.800434,-0.597477,-0.539592,1.191770,-0.191010,-6.876482,27.042278,-8.607071,-3.745546,0.147794,0.668441,-0.202470,0.000000,0.000000,0.000000,0.000000,0.000000,0.000000
15026756.000000,-2.374045,-1.662246,1.077674,-1.391874,1.757464,1.147574,-0.565149,0.683261,0.004734,0.824743,-0.590573,-0.540703,1.191447,-0.190345,-6.951861,27.137493,-8.436478,-3.991518,0.135892,0.824081,-0.208878,0.000000,0.000000,0.000000,0.000000,0.000000,0.000000
15026757.000000,-2.373344,-1.662244,1.078523,-1.392444,1.756933,1.148800,-0.565337,0.686258,0.003613,0.837379,-0.579535,-0.537568,1.192847,-0.191101,-7.197833,27.137493,-8.484085,-4.189882,0.046171,0.928451,-0.182328,0.000000,0.000000,0.000000,0.000000,0.000000,0.000000
15026758.000000,-2.372653,-1.662241,1.079382,-1.393004,1.756403,1.150031,-0.565515,0.686800,0.003865,0.844142,-0.572522,-0.534629,1.188273,-0.183755,-7.471575,27.089886,-8.460281,-4.388246,0.027860,0.928451,-0.229020,0.000000,0.000000,0.000000,0.000000,0.000000,0.000000
15026759.000000,-2.371946,-1.662243,1.080240,-1.393572,1.755862,1.151244,-0.565701,0.688629,0.002834,0.854363,-0.568710,-0.533604,1.190659,-0.185505,-7.892107,27.089886,-8.507889,-4.487428,0.046171,0.895492,-0.196061,0.000000,0.000000,0.000000,0.000000,0.000000,0.000000
15026760.000000,-2.371233,-1.662245,1.081110,-1.394144,1.755331,1.152465,-0.565883,0.706207,0.001525,0.856390,-0.563698,-0.534312,1.183640,-0.181459,-8.336444,27.113689,-8.412674,-4.439821,0.105680,0.895492,-0.196061,0.000000,0.000000,0.000000,0.000000,0.000000,0.000000
15026761.000000,-2.370522,-1.662240,1.081990,-1.394718,1.754800,1.153660,-0.566064,0.706741,0.002275,0.882076,-0.566919,-0.535517,1.204156,-0.178121,-8.879962,27.066082,-8.261917,-4.340639,0.171598,0.960494,-0.208878,0.000000,0.000000,0.000000,0.000000,0.000000,0.000000
15026762.000000,-2.369807,-1.662236,1.082870,-1.395284,1.754277,1.154869,-0.566243,0.707291,0.002831,0.883451,-0.566212,-0.523121,1.195501,-0.178740,-9.352069,27.014507,-8.214310,-4.312868,0.178007,0.993453,-0.202470,0.000000,0.000000,0.000000,0.000000,0.000000,0.000000
15026763.000000,-2.369101,-1.662229,1.083768,-1.395838,1.753760,1.156104,-0.566415,0.709922,0.004196,0.882811,-0.565918,-0.522401,1.198943,-0.180886,-9.820209,26.919292,-8.043716,-4.312868,0.123990,0.850631,-0.202470,0.000000,0.000000,0.000000,0.000000,0.000000,0.000000
15026764.000000,-2.368393,-1.662218,1.084660,-1.396390,1.753254,1.157315,-0.566592,0.707643,0.009015,0.888311,-0.561142,-0.509755,1.201719,-0.178570,-10.216937,26.796307,-7.896927,-4.388246,0.004056,0.713302,-0.188737,0.000000,0.000000,0.000000,0.000000,0.000000,0.000000
15026765.000000,-2.367689,-1.662203,1.085573,-1.396931,1.752742,1.158533,-0.566769,0.701618,0.010970,0.890366,-0.548183,-0.508293,1.202481,-0.176324,-10.490680,26.597942,-7.674759,-4.586610,-0.025240,0.681258,-0.188737,0.000000,0.000000,0.000000,0.000000,0.000000,0.000000
15026766.000000,-2.366984,-1.662192,1.086518,-1.397461,1.752243,1.159730,-0.566942,0.700568,0.010336,0.906554,-0.543270,-0.502911,1.188530,-0.173185,-10.911212,26.478924,-7.773941,-4.733400,-0.067355,0.850631,-0.221696,0.000000,0.000000,0.000000,0.000000,0.000000,0.000000
15026767.000000,-2.366283,-1.662180,1.087439,-1.398002,1.751739,1.160904,-0.567119,0.698637,0.012565,0.914312,-0.537487,-0.501084,1.181693,-0.173394,-11.133380,26.379742,-7.575577,-4.784975,-0.037142,1.039230,-0.196061,0.000000,0.000000,0.000000,0.000000,0.000000,0.000000
15026768.000000,-2.365585,-1.662174,1.088403,-1.398525,1.751224,1.162117,-0.567295,0.696745,0.008776,0.928806,-0.532152,-0.501944,1.173387,-0.172554,-11.478534,26.379742,-7.674759,-4.931764,0.052579,0.980636,-0.196061,0.000000,0.000000,0.000000,0.000000,0.000000,0.000000
15026769.000000,-2.364879,-1.662168,1.089371,-1.399049,1.750736,1.163324,-0.567474,0.700935,0.008747,0.937537,-0.526284,-0.494316,1.188858,-0.172116,-11.803851,26.403545,-7.896927,-5.153932,0.052579,0.811263,-0.182328,0.000000,0.000000,0.000000,0.000000,0.000000,0.000000
15026770.000000,-2.364171,-1.662155,1.090366,-1.399570,1.750250,1.164523,-0.567640,0.700347,0.010478,0.953476,-0.521614,-0.494682,1.189343,-0.170100,-12.097430,26.355938,-8.142899,-5.399904,-0.001437,0.804855,-0.221696,0.000000,0.000000,0.000000,0.000000,0.000000,0.000000
15026771.000000,-2.363474,-1.662152,1.091366,-1.400078,1.749764,1.165719,-0.567815,0.698967,0.005378,0.963126,-0.519629,-0.492700,1.184869,-0.170704,-12.422748,26.451153,-8.313492,-5.598268,-0.037142,0.915633,-0.196061,0.000000,0.000000,0.000000,0.000000,0.000000,0.000000
15026772.000000,-2.362769,-1.662159,1.092356,-1.400593,1.749285,1.166904,-0.567985,0.698268,-0.000590,0.969984,-0.514614,-0.490838,1.184571,-0.170718,-12.644916,26.649517,-8.313492,-5.626039,-0.072848,0.974227,-0.188737,0.000000,0.000000,0.000000,0.000000,0.000000,0.000000
15026773.000000,-2.362076,-1.662157,1.093361,-1.401103,1.748789,1.168098,-0.568153,0.707406,-0.001716,0.977652,-0.517641,-0.490464,1.185503,-0.169288,-12.966266,26.720928,-8.238113,-5.796632,-0.079257,1.052047,-0.221696,0.000000,0.000000,0.000000,0.000000,0.000000,0.000000
15026774.000000,-2.361377,-1.662162,1.094359,-1.401606,1.748322,1.169259,-0.568328,0.701620,-0.000056,1.001875,-0.513426,-0.483848,1.175215,-0.170517,-13.240008,26.820110,-8.166702,-5.848207,-0.126864,1.234237,-0.196061,0.000000,0.000000,0.000000,0.000000,0.000000,0.000000
15026775.000000,-2.360673,-1.662159,1.095381,-1.402105,1.747854,1.170441,-0.568494,0.696095,0.000421,1.003779,-0.506857,-0.482325,1.173583,-0.165715,-13.485980,26.820110,-8.091324,-5.994997,-0.180880,1.272689,-0.196061,0.000000,0.000000,0.000000,0.000000,0.000000,0.000000
15026776.000000,-2.359993,-1.662167,1.096402,-1.402603,1.747381,1.171650,-0.568659,0.691584,-0.001696,1.010382,-0.501311,-0.482268,1.176483,-0.165781,-13.660541,26.919292,-7.722366,-6.094179,-0.162570,1.077682,-0.215287,0.000000,0.000000,0.000000,0.000000,0.000000,0.000000
15026777.000000,-2.359303,-1.662178,1.097423,-1.403091,1.746908,1.172838,-0.568825,0.686643,-0.003750,1.013052,-0.497280,-0.473233,1.187349,-0.167499,-13.858905,27.042278,-7.452591,-6.292543,-0.079257,0.882674,-0.169511,0.000000,0.000000,0.000000,0.000000,0.000000,0.000000
15026778.000000,-2.358616,-1.662184,1.098465,-1.403596,1.746437,1.174029,-0.568980,0.696417,-0.003977,1.018554,-0.499173,-0.470863,1.186750,-0.164318,-14.053302,27.113689,-7.135208,-6.316347,-0.109469,0.824081,-0.268388,0.000000,0.000000,0.000000,0.000000,0.000000,0.000000
15026779.000000,-2.357947,-1.662190,1.099533,-1.404093,1.745968,1.175194,-0.569152,0.687021,-0.003063,1.027787,-0.499814,-0.468767,1.206762,-0.168415,-14.104877,27.137493,-7.036026,-6.340150,-0.043551,0.850631,-0.196061,0.000000,0.000000,0.000000,0.000000,0.000000,0.000000
15026780.000000,-2.357283,-1.662200,1.100581,-1.404578,1.745518,1.176391,-0.569312,0.674419,-0.005367,1.032856,-0.492478,-0.462140,1.205425,-0.163119,-14.029498,27.284283,-6.813858,-6.514711,-0.079257,0.778304,-0.221696,0.000000,0.000000,0.000000,0.000000,0.000000,0.000000
15026781.000000,-2.356629,-1.662206,1.101658,-1.405050,1.745063,1.177604,-0.569480,0.667223,-0.004703,1.042336,-0.486204,-0.461551,1.212255,-0.160935,-13.981891,27.335857,-6.643265,-6.784486,-0.162570,0.583297,-0.175919,0.000000,0.000000,0.000000,0.000000,0.000000,0.000000
15026782.000000,-2.355982,-1.662213,1.102749,-1.405522,1.744614,1.178786,-0.569640,0.657422,-0.005301,1.059721,-0.483360,-0.454197,1.210268,-0.157409,-13.759723,27.431072,-6.813858,-7.006654,-0.168978,0.603439,-0.202470,0.000000,0.000000,0.000000,0.000000,0.000000,0.000000
15026783.000000,-2.355328,-1.662214,1.103855,-1.405996,1.744178,1.179974,-0.569799,0.655856,-0.002932,1.067288,-0.476605,-0.448567,1.210257,-0.155367,-13.684344,27.407269,-6.790054,-7.280397,-0.294406,0.674850,-0.215287,0.000000,0.000000,0.000000,0.000000,0.000000,0.000000
15026784.000000,-2.354679,-1.662211,1.104980,-1.406468,1.743735,1.181184,-0.569961,0.654373,-0.000806,1.077788,-0.476427,-0.446356,1.211974,-0.158964,-13.759723,27.359661,-6.841629,-7.355775,-0.270602,0.622665,-0.182328,0.000000,0.000000,0.000000,0.000000,0.000000,0.000000
15026785.000000,-2.354021,-1.662218,1.106081,-1.406942,1.743279,1.182372,-0.570114,0.652679,-0.005234,1.090519,-0.474144,-0.449148,1.207981,-0.156154,-13.906512,27.431072,-6.694839,-7.454957,-0.109469,0.564071,-0.202470,0.000000,0.000000,0.000000,0.000000,0.000000,0.000000
15026786.000000,-2.353369,-1.662215,1.107212,-1.407421,1.742840,1.183585,-0.570270,0.656683,-0.001497,1.093728,-0.477268,-0.449428,1.208520,-0.160332,-14.081073,27.335857,-6.643265,-7.403383,-0.114962,0.492660,-0.182328,0.000000,0.000000,0.000000,0.000000,0.000000,0.000000
15026787.000000,-2.352706,-1.662213,1.108340,-1.407900,1.742398,1.184763,-0.570426,0.657361,0.000589,1.101215,-0.476205,-0.445804,1.200964,-0.157813,-14.303241,27.260479,-6.544083,-7.328004,-0.103060,0.557662,-0.188737,0.000000,0.000000,0.000000,0.000000,0.000000,0.000000
15026788.000000,-2.352056,-1.662203,1.109482,-1.408370,1.741965,1.185967,-0.570575,0.649790,0.003694,1.110670,-0.471352,-0.440081,1.203115,-0.149877,-14.327044,27.113689,-6.349686,-7.403383,-0.145175,0.576888,-0.215287,0.000000,0.000000,0.000000,0.000000,0.000000,0.000000
15026789.000000,-2.351418,-1.662200,1.110624,-1.408823,1.741533,1.187172,-0.570732,0.645032,0.003477,1.116164,-0.469294,-0.440793,1.203119,-0.151570,-14.378619,27.066082,-5.980728,-7.577943,-0.216586,0.603439,-0.175919,0.000000,0.000000,0.000000,0.000000,0.000000,0.000000
15026790.000000,-2.350772,-1.662194,1.111787,-1.409281,1.741099,1.188347,-0.570877,0.640242,0.005121,1.132704,-0.461009,-0.437112,1.194794,-0.151014,-14.450030,26.943096,-5.956924,-7.724733,-0.276095,0.752670,-0.188737,0.000000,0.000000,0.000000,0.000000,0.000000,0.000000
15026791.000000,-2.350149,-1.662181,1.112977,-1.409740,1.740681,1.189531,-0.571026,0.644932,0.007905,1.143449,-0.459579,-0.431847,1.182954,-0.150139,-14.378619,26.748699,-6.028336,-7.847719,-0.396029,0.863448,-0.215287,0.000000,0.000000,0.000000,0.000000,0.000000,0.000000
15026792.000000,-2.349498,-1.662167,1.114172,-1.410187,1.740254,1.190721,-0.571174,0.648100,0.009312,1.188521,-0.455892,-0.431625,1.178813,-0.146440,-14.549212,26.574139,-6.226700,-7.946901,-0.438143,0.792037,-0.196061,0.000000,0.000000,0.000000,0.000000,0.000000,0.000000
15026793.000000,-2.348861,-1.662154,1.115415,-1.410641,1.739813,1.191917,-0.571315,0.639934,0.015831,1.200895,-0.453788,-0.434798,1.177400,-0.142704,-14.573016,26.427349,-6.742447,-7.998476,-0.353915,0.681258,-0.202470,0.000000,0.000000,0.000000,0.000000,0.000000,0.000000
15026794.000000,-2.348233,-1.662143,1.116674,-1.411087,1.739390,1.193114,-0.571459,0.635305,0.014483,1.212334,-0.450307,-0.437129,1.176827,-0.139100,-14.648395,26.280560,-7.281998,-8.022280,-0.342013,0.648299,-0.221696,0.000000,0.000000,0.000000,0.000000,0.000000,0.000000
15026795.000000,-2.347600,-1.662141,1.117923,-1.411534,1.738960,1.194271,-0.571605,0.632719,0.010583,1.229949,-0.448029,-0.438944,1.164638,-0.142859,-14.672198,26.256756,-7.750137,-8.145266,-0.264193,0.804855,-0.208878,0.000000,0.000000,0.000000,0.000000,0.000000,0.000000
15026796.000000,-2.346972,-1.662138,1.119194,-1.411982,1.738532,1.195446,-0.571758,0.640028,0.010497,1.240336,-0.448498,-0.430439,1.154675,-0.142120,-14.672198,26.256756,-8.091324,-8.196840,-0.180880,0.934859,-0.155778,0.000000,0.000000,0.000000,0.000000,0.000000,0.000000
15026797.000000,-2.346358,-1.662141,1.120471,-1.412421,1.738127,1.196610,-0.571894,0.636828,0.008744,1.244731,-0.447247,-0.421489,1.176620,-0.136431,-14.549212,26.332134,-8.337296,-8.319826,-0.180880,0.934859,-0.235429,0.000000,0.000000,0.000000,0.000000,0.000000,0.000000
15026798.000000,-2.345732,-1.662144,1.121730,-1.412861,1.737718,1.197796,-0.572045,0.626706,0.009595,1.241829,-0.446460,-0.412856,1.174799,-0.140893,-14.525409,26.597942,-8.730057,-8.391237,-0.216586,0.947677,-0.175919,0.000000,0.000000,0.000000,0.000000,0.000000,0.000000
15026799.000000,-2.345120,-1.662159,1.122976,-1.413306,1.737313,1.198967,-0.572185,0.627401,0.001467,1.232938,-0.446979,-0.402273,1.171886,-0.138177,-14.350848,27.260479,-8.952225,-8.319826,-0.258700,1.104232,-0.182328,0.000000,0.000000,0.000000,0.000000,0.000000,0.000000
15026800.000000,-2.344503,-1.662174,1.124204,-1.413771,1.736924,1.200133,-0.572325,0.621720,-0.000389,1.227491,-0.453890,-0.400781,1.178871,-0.139436,-13.981891,28.192791,-9.491776,-8.069887,-0.252291,1.220504,-0.235429,0.000000,0.000000,0.000000,0.000000,0.000000,0.000000
15026801.000000,-2.343879,-1.662206,1.125425,-1.414230,1.736520,1.201327,-0.572470,0.622883,-0.008086,1.216002,-0.450287,-0.400602,1.184310,-0.139271,-13.660541,29.585308,-10.154312,-7.923097,-0.204684,1.169235,-0.175919,0.000000,0.000000,0.000000,0.000000,0.000000,0.000000
15026802.000000,-2.343274,-1.662228,1.126653,-1.414686,1.736135,1.202533,-0.572599,0.616618,-0.015959,1.210883,-0.455026,-0.394472,1.192330,-0.139657,-13.140826,31.005596,-11.110428,-7.724733,-0.204684,1.129867,-0.235429,0.000000,0.000000,0.000000,0.000000,0.000000,0.000000
15026803.000000,-2.342671,-1.662233,1.127858,-1.415141,1.735756,1.203718,-0.572736,0.602473,-0.015280,1.216790,-0.451353,-0.391555,1.198452,-0.138910,-12.521930,32.203716,-12.118118,-7.649354,-0.162570,1.090499,-0.208878,0.000000,0.000000,0.000000,0.000000,0.000000,0.000000
15026804.000000,-2.342071,-1.662240,1.129087,-1.415586,1.735363,1.204921,-0.572877,0.600789,-0.016460,1.217345,-0.457100,-0.394089,1.196768,-0.143154,-12.049823,33.354229,-13.244827,-7.700929,-0.109469,1.136276,-0.175919,0.000000,0.000000,0.000000,0.000000,0.000000,0.000000
15026805.000000,-2.341484,-1.662241,1.130310,-1.416031,1.734965,1.206098,-0.573010,0.597248,-0.011540,1.222402,-0.449668,-0.394266,1.190199,-0.138222,-11.355548,34.262737,-14.351700,-7.823915,0.015958,1.272689,-0.229020,0.000000,0.000000,0.000000,0.000000,0.000000,0.000000
15026806.000000,-2.340881,-1.662242,1.131541,-1.416483,1.734568,1.207280,-0.573148,0.596611,-0.010417,1.222396,-0.447222,-0.388037,1.187791,-0.134065,-11.010394,34.996685,-15.184830,-7.946901,0.129484,1.487838,-0.175919,0.000000,0.000000,0.000000,0.000000,0.000000,0.000000
15026807.000000,-2.340301,-1.662241,1.132791,-1.416922,1.734180,1.208460,-0.573279,0.592661,-0.007345,1.227814,-0.448147,-0.386889,1.176985,-0.132300,-10.589862,35.607647,-16.069534,-8.097658,0.195402,1.708480,-0.202470,0.000000,0.000000,0.000000,0.000000,0.000000,0.000000
15026808.000000,-2.339715,-1.662235,1.134028,-1.417375,1.733794,1.209626,-0.573412,0.587180,-0.002053,1.228364,-0.444276,-0.384069,1.178008,-0.132117,-10.216937,36.071819,-16.831253,-8.145266,0.207303,1.812850,-0.208878,0.000000,0.000000,0.000000,0.000000,0.000000,0.000000
15026809.000000,-2.339128,-1.662239,1.135280,-1.417829,1.733406,1.210817,-0.573543,0.593932,0.000002,1.225005,-0.447887,-0.378324,1.174950,-0.132238,-9.994769,36.587566,-17.418411,-8.097658,0.237516,1.702071,-0.208878,0.000000,0.000000,0.000000,0.000000,0.000000,0.000000
15026810.000000,-2.338550,-1.662244,1.136534,-1.418273,1.733038,1.211991,-0.573671,0.594340,-0.003944,1.253970,-0.446581,-0.379494,1.183184,-0.126755,-9.820209,37.051739,-17.787369,-8.069887,0.154203,1.605026,-0.229020,0.000000,0.000000,0.000000,0.000000,0.000000,0.000000
15026811.000000,-2.337974,-1.662255,1.137770,-1.418717,1.732658,1.213170,-0.573803,0.583135,-0.003410,1.247302,-0.442819,-0.377208,1.177481,-0.130143,-9.574237,37.492107,-18.057144,-8.121462,0.141385,1.559249,-0.175919,0.000000,0.000000,0.000000,0.000000,0.000000,0.000000
15026812.000000,-2.337425,-1.662279,1.139048,-1.419140,1.732282,1.214335,-0.573927,0.571497,-0.009583,1.249330,-0.434539,-0.378585,1.177548,-0.128646,-9.177508,38.055462,-18.549088,-8.319826,0.112089,1.611434,-0.221696,0.000000,0.000000,0.000000,0.000000,0.000000,0.000000
15026813.000000,-2.336872,-1.662308,1.140298,-1.419565,1.731923,1.215487,-0.574057,0.567045,-0.012901,1.245727,-0.430003,-0.374312,1.175724,-0.134733,-8.756976,38.571209,-18.842667,-8.589602,0.010465,1.630660,-0.215287,0.000000,0.000000,0.000000,0.000000,0.000000,0.000000
15026814.000000,-2.336326,-1.662350,1.141588,-1.419975,1.731548,1.216654,-0.574187,0.556124,-0.021952,1.253579,-0.420824,-0.371092,1.173405,-0.129691,-8.336444,39.229778,-19.382217,-8.986330,0.034269,1.611434,-0.208878,0.000000,0.000000,0.000000,0.000000,0.000000,0.000000
15026815.000000,-2.335802,-1.662385,1.142899,-1.420382,1.731186,1.217790,-0.574314,0.549245,-0.025159,1.267193,-0.412603,-0.369480,1.169778,-0.129425,-7.792925,39.745525,-20.068558,-9.331484,0.076383,1.721298,-0.229020,0.000000,0.000000,0.000000,0.000000,0.000000,0.000000
15026816.000000,-2.335260,-1.662428,1.144198,-1.420781,1.730834,1.218942,-0.574444,0.547542,-0.028795,1.275099,-0.401828,-0.361335,1.163268,-0.131688,-7.471575,40.308880,-20.830276,-9.704409,0.076383,1.793624,-0.188737,0.000000,0.000000,0.000000,0.000000,0.000000,0.000000
15026817.000000,-2.334744,-1.662479,1.145508,-1.421187,1.730461,1.220107,-0.574574,0.535540,-0.032065,1.278809,-0.400777,-0.367478,1.149346,-0.130083,-7.074847,40.896038,-21.469009,-9.827394,0.129484,1.800033,-0.208878,0.000000,0.000000,0.000000,0.000000,0.000000,0.000000
15026818.000000,-2.334216,-1.662528,1.146789,-1.421589,1.730101,1.221256,-0.574709,0.530981,-0.036952,1.281080,-0.395957,-0.366145,1.144889,-0.127622,-6.753497,41.459393,-21.837967,-9.974184,0.166105,1.721298,-0.163102,0.000000,0.000000,0.000000,0.000000,0.000000,0.000000
15026819.000000,-2.333693,-1.662571,1.148097,-1.422010,1.729739,1.222421,-0.574833,0.528288,-0.037436,1.291059,-0.401353,-0.364324,1.142866,-0.127902,-6.432147,41.875957,-22.377518,-9.851198,0.201810,1.676437,-0.182328,0.000000,0.000000,0.000000,0.000000,0.000000,0.000000
15026820.000000,-2.333186,-1.662619,1.149382,-1.422413,1.729384,1.223562,-0.574953,0.521051,-0.039479,1.284174,-0.397881,-0.370853,1.134882,-0.121614,-6.158404,42.363934,-22.448929,-9.775820,0.171598,1.844894,-0.229020,0.000000,0.000000,0.000000,0.000000,0.000000,0.000000
15026821.000000,-2.332675,-1.662659,1.150660,-1.422826,1.729021,1.224700,-0.575080,0.514057,-0.042275,1.282927,-0.399157,-0.366562,1.136081,-0.121150,-5.884661,42.756695,-22.524307,-9.605227,0.147794,1.955673,-0.188737,0.000000,0.000000,0.000000,0.000000,0.000000,0.000000
15026822.000000,-2.332180,-1.662703,1.151937,-1.423219,1.728659,1.225857,-0.575201,0.511291,-0.044272,1.270102,-0.401210,-0.360824,1.138529,-0.123116,-5.539507,43.145489,-22.353714,-9.577456,0.178007,1.981307,-0.208878,0.000000,0.000000,0.000000,0.000000,0.000000,0.000000
15026823.000000,-2.331688,-1.662738,1.153225,-1.423631,1.728311,1.226999,-0.575322,0.498990,-0.041467,1.276088,-0.401484,-0.355877,1.142104,-0.124560,-5.142779,43.343853,-22.524307,-9.430666,0.189908,2.027084,-0.235429,0.000000,0.000000,0.000000,0.000000,0.000000,0.000000
15026824.000000,-2.331195,-1.662761,1.154522,-1.424046,1.727959,1.228143,-0.575448,0.493286,-0.035882,1.279861,-0.399883,-0.352432,1.138907,-0.126203,-4.797625,43.367657,-22.694901,-9.208498,0.105680,2.079269,-0.229020,0.000000,0.000000,0.000000,0.000000,0.000000,0.000000
15026825.000000,-2.330708,-1.662786,1.155822,-1.424459,1.727600,1.229314,-0.575577,0.492120,-0.031609,1.278554,-0.404806,-0.357036,1.142808,-0.129254,-4.547686,43.367657,-22.841690,-8.986330,0.183500,1.949264,-0.182328,0.000000,0.000000,0.000000,0.000000,0.000000,0.000000
15026826.000000,-2.330231,-1.662809,1.157129,-1.424873,1.727239,1.230459,-0.575691,0.483035,-0.028258,1.289266,-0.403225,-0.352138,1.143136,-0.123797,-4.154925,43.343853,-23.309830,-8.811769,0.303434,1.871444,-0.221696,0.000000,0.000000,0.000000,0.000000,0.000000,0.000000
15026827.000000,-2.329763,-1.662837,1.158431,-1.425297,1.726886,1.231607,-0.575808,0.480931,-0.027002,1.285352,-0.409881,-0.354572,1.140089,-0.120247,-3.881182,43.343853,-23.555801,-8.613405,0.344633,1.942855,-0.248246,0.000000,0.000000,0.000000,0.000000,0.000000,0.000000
15026828.000000,-2.329289,-1.662862,1.159745,-1.425712,1.726538,1.232734,-0.575938,0.475599,-0.024954,1.316231,-0.411340,-0.347394,1.145116,-0.126938,-3.607440,43.292278,-23.972366,-8.419008,0.386747,2.053634,-0.149369,0.000000,0.000000,0.000000,0.000000,0.000000,0.000000
15026829.000000,-2.328822,-1.662886,1.161027,-1.426137,1.726200,1.233874,-0.576049,0.468586,-0.024197,1.306543,-0.416484,-0.338458,1.148693,-0.120346,-3.238482,43.268475,-24.166763,-8.145266,0.356534,2.144271,-0.229020,0.000000,0.000000,0.000000,0.000000,0.000000,0.000000
15026830.000000,-2.328372,-1.662913,1.162324,-1.426552,1.725866,1.235044,-0.576169,0.464196,-0.023687,1.296653,-0.415271,-0.340817,1.154939,-0.119643,-2.889361,43.244671,-24.313553,-7.998476,0.351041,1.988631,-0.196061,0.000000,0.000000,0.000000,0.000000,0.000000,0.000000
15026831.000000,-2.327905,-1.662934,1.163591,-1.426984,1.725534,1.236183,-0.576283,0.467362,-0.025500,1.284785,-0.420658,-0.339222,1.155318,-0.123230,-2.643389,43.173260,-24.289749,-7.700929,0.320829,1.962081,-0.182328,0.000000,0.000000,0.000000,0.000000,0.000000,0.000000
15026832.000000,-2.327442,-1.662954,1.164876,-1.427420,1.725199,1.237324,-0.576391,0.464549,-0.024264,1.276390,-0.422798,-0.334015,1.144929,-0.119525,-2.345843,43.121685,-24.242142,-7.355775,0.320829,2.027084,-0.215287,0.000000,0.000000,0.000000,0.000000,0.000000,0.000000
15026833.000000,-2.326990,-1.662974,1.166182,-1.427864,1.724864,1.238477,-0.576506,0.460634,-0.022450,1.279386,-0.430632,-0.333784,1.141242,-0.118263,-2.099871,43.026470,-24.464310,-6.883668,0.405057,2.060043,-0.202470,0.000000,0.000000,0.000000,0.000000,0.000000,0.000000
15026834.000000,-2.326543,-1.662997,1.167448,-1.428302,1.724530,1.239622,-0.576620,0.455251,-0.022719,1.273052,-0.431082,-0.337267,1.142352,-0.115434,-1.802325,42.998699,-24.488113,-6.562318,0.476469,1.981307,-0.208878,0.000000,0.000000,0.000000,0.000000,0.000000,0.000000
15026835.000000,-2.326112,-1.663027,1.168760,-1.428744,1.724191,1.240789,-0.576732,0.441435,-0.025242,1.280414,-0.438004,-0.339379,1.137903,-0.116251,-1.381793,43.074078,-24.904678,-6.268739,0.530485,1.851302,-0.169511,0.000000,0.000000,0.000000,0.000000,0.000000,0.000000
15026836.000000,-2.325670,-1.663047,1.170065,-1.429187,1.723871,1.241921,-0.576841,0.435066,-0.024066,1.288700,-0.434995,-0.332674,1.133587,-0.114848,-1.060443,43.026470,-25.567215,-6.070375,0.494779,1.930038,-0.182328,0.000000,0.000000,0.000000,0.000000,0.000000,0.000000
15026837.000000,-2.325244,-1.663069,1.171375,-1.429643,1.723550,1.243054,-0.576945,0.427898,-0.024368,1.293874,-0.437221,-0.327980,1.131493,-0.113188,-0.635943,43.026470,-26.082962,-5.820436,0.476469,2.125045,-0.202470,0.000000,0.000000,0.000000,0.000000,0.000000,0.000000
15026838.000000,-2.324829,-1.663100,1.172677,-1.430092,1.723229,1.244191,-0.577053,0.425704,-0.027402,1.291505,-0.439662,-0.327244,1.127209,-0.112523,-0.167803,43.145489,-26.376541,-5.550661,0.500272,2.313644,-0.215287,0.000000,0.000000,0.000000,0.000000,0.000000,0.000000
15026839.000000,-2.324399,-1.663126,1.173955,-1.430550,1.722899,1.245319,-0.577158,0.424476,-0.024735,1.288683,-0.439692,-0.331170,1.126874,-0.111948,0.105939,43.197063,-26.547134,-5.304689,0.530485,2.417098,-0.235429,0.000000,0.000000,0.000000,0.000000,0.000000,0.000000
15026840.000000,-2.323978,-1.663149,1.175259,-1.431004,1.722572,1.246468,-0.577267,0.424244,-0.024543,1.285485,-0.452023,-0.333094,1.128702,-0.113610,0.375715,43.197063,-26.844681,-5.007143,0.535978,2.404281,-0.202470,0.000000,0.000000,0.000000,0.000000,0.000000,0.000000
15026841.000000,-2.323563,-1.663164,1.176511,-1.431469,1.722254,1.247590,-0.577369,0.423340,-0.022148,1.299257,-0.452298,-0.325841,1.125286,-0.107512,0.673261,43.097881,-26.670120,-4.661989,0.554288,2.417098,-0.235429,0.000000,0.000000,0.000000,0.000000,0.000000,0.000000
15026842.000000,-2.323135,-1.663190,1.177793,-1.431930,1.721926,1.248738,-0.577472,0.421684,-0.021760,1.292532,-0.454015,-0.325395,1.127464,-0.105720,0.871625,43.173260,-26.622513,-4.364442,0.596403,2.300826,-0.196061,0.000000,0.000000,0.000000,0.000000,0.000000,0.000000
15026843.000000,-2.322724,-1.663216,1.179057,-1.432393,1.721595,1.249901,-0.577571,0.423078,-0.024292,1.278425,-0.457466,-0.331224,1.136160,-0.105707,1.145368,43.244671,-26.328934,-3.991518,0.709928,2.092086,-0.241837,0.000000,0.000000,0.000000,0.000000,0.000000,0.000000
15026844.000000,-2.322310,-1.663231,1.180315,-1.432861,1.721265,1.251033,-0.577675,0.416158,-0.019448,1.271514,-0.462025,-0.327651,1.142348,-0.107843,1.367536,43.173260,-26.253555,-3.622560,0.828947,2.020675,-0.221696,0.000000,0.000000,0.000000,0.000000,0.000000,0.000000
15026845.000000,-2.321896,-1.663258,1.181571,-1.433328,1.720961,1.252170,-0.577775,0.423122,-0.019431,1.258732,-0.461337,-0.321569,1.141172,-0.108879,1.542096,43.244671,-26.007584,-3.348818,0.739225,2.033492,-0.229020,0.000000,0.000000,0.000000,0.000000,0.000000,0.000000
15026846.000000,-2.321485,-1.663281,1.182851,-1.433784,1.720651,1.253297,-0.577880,0.418368,-0.021726,1.259898,-0.465184,-0.319455,1.161684,-0.104740,1.712690,43.292278,-26.059158,-3.154421,0.691617,2.007858,-0.241837,0.000000,0.000000,0.000000,0.000000,0.000000,0.000000
15026847.000000,-2.321077,-1.663305,1.184091,-1.434240,1.720336,1.254442,-0.577984,0.410770,-0.022964,1.248875,-0.458568,-0.318669,1.152159,-0.108245,1.887250,43.320049,-25.912369,-3.055238,0.685209,1.949264,-0.208878,0.000000,0.000000,0.000000,0.000000,0.000000,0.000000
15026848.000000,-2.320677,-1.663326,1.185345,-1.434683,1.720026,1.255601,-0.578078,0.409434,-0.023884,1.241323,-0.452628,-0.313393,1.145023,-0.107363,2.034040,43.343853,-25.860794,-3.055238,0.655912,1.865035,-0.261979,0.000000,0.000000,0.000000,0.000000,0.000000,0.000000
15026849.000000,-2.320270,-1.663340,1.186585,-1.435125,1.719727,1.256723,-0.578189,0.409315,-0.019153,1.239986,-0.442996,-0.305880,1.132595,-0.106687,2.109418,43.268475,-25.884598,-3.027467,0.655912,2.001449,-0.196061,0.000000,0.000000,0.000000,0.000000,0.000000,0.000000
15026850.000000,-2.319859,-1.663348,1.187821,-1.435565,1.719413,1.257862,-0.578284,0.406471,-0.013462,1.232284,-0.437860,-0.307368,1.129036,-0.101324,2.184797,43.097881,-25.666397,-3.055238,0.739225,2.098495,-0.254655,0.000000,0.000000,0.000000,0.000000,0.000000,0.000000
15026851.000000,-2.319441,-1.663367,1.189057,-1.435992,1.719103,1.259035,-0.578388,0.410483,-0.013473,1.224711,-0.435011,-0.301165,1.140687,-0.105277,2.061811,43.097881,-25.491837,-3.055238,0.864652,1.949264,-0.229020,0.000000,0.000000,0.000000,0.000000,0.000000,0.000000
15026852.000000,-2.319030,-1.663374,1.190261,-1.436420,1.718799,1.260192,-0.578483,0.405824,-0.009516,1.216190,-0.428173,-0.302850,1.145599,-0.101672,2.010236,42.927288,-25.174454,-3.079042,0.930570,1.767074,-0.254655,0.000000,0.000000,0.000000,0.000000,0.000000,0.000000
15026853.000000,-2.318618,-1.663372,1.191493,-1.436838,1.718508,1.261361,-0.578586,0.408726,-0.005037,1.209166,-0.429082,-0.296244,1.146036,-0.100647,1.863447,42.681316,-25.099075,-3.055238,0.900358,1.611434,-0.221696,0.000000,0.000000,0.000000,0.000000,0.000000,0.000000
15026854.000000,-2.318202,-1.663373,1.192709,-1.437257,1.718229,1.262507,-0.578683,0.411253,-0.003747,1.208742,-0.423456,-0.287930,1.147460,-0.098703,1.788068,42.510723,-25.075272,-3.126650,0.774930,1.597701,-0.229020,0.000000,0.000000,0.000000,0.000000,0.000000,0.000000
15026855.000000,-2.317789,-1.663383,1.193949,-1.437680,1.717942,1.263661,-0.578776,0.409638,-0.003124,1.216418,-0.419206,-0.282163,1.150245,-0.096675,1.740461,42.486919,-25.273636,-3.055238,0.667814,1.662704,-0.254655,0.000000,0.000000,0.000000,0.000000,0.000000,0.000000
15026856.000000,-2.317390,-1.663387,1.195188,-1.438083,1.717664,1.264818,-0.578884,0.407638,-0.001207,1.217205,-0.412617,-0.276164,1.145138,-0.098562,1.740461,42.411541,-25.420425,-3.154421,0.608304,1.812850,-0.175919,0.000000,0.000000,0.000000,0.000000,0.000000,0.000000
15026857.000000,-2.316983,-1.663393,1.196418,-1.438483,1.717393,1.265945,-0.578977,0.403178,0.000757,1.219901,-0.404802,-0.275165,1.144171,-0.099642,1.688886,42.316326,-25.690201,-3.202028,0.524076,2.039901,-0.241837,0.000000,0.000000,0.000000,0.000000,0.000000,0.000000
15026858.000000,-2.316582,-1.663389,1.197670,-1.438873,1.717118,1.267082,-0.579082,0.409378,0.001487,1.222898,-0.404722,-0.272520,1.136416,-0.104710,1.688886,42.117962,-26.130569,-3.348818,0.518583,2.248641,-0.196061,0.000000,0.000000,0.000000,0.000000,0.000000,0.000000
15026859.000000,-2.316180,-1.663392,1.198891,-1.439260,1.716838,1.268216,-0.579183,0.407626,-0.000576,1.244455,-0.395701,-0.277231,1.141245,-0.102079,1.740461,42.022747,-26.400345,-3.448000,0.566190,2.255050,-0.196061,0.000000,0.000000,0.000000,0.000000,0.000000,0.000000
15026860.000000,-2.315771,-1.663395,1.200119,-1.439649,1.716556,1.269368,-0.579273,0.404774,-0.002085,1.232482,-0.390377,-0.273762,1.142534,-0.097391,1.641279,41.923565,-26.523331,-3.475771,0.703519,2.190048,-0.261979,0.000000,0.000000,0.000000,0.000000,0.000000,0.000000
15026861.000000,-2.315371,-1.663401,1.201341,-1.440033,1.716284,1.270508,-0.579375,0.408354,-0.001663,1.222485,-0.387138,-0.282446,1.140346,-0.103049,1.589704,41.899761,-26.523331,-3.348818,0.799650,2.209274,-0.215287,0.000000,0.000000,0.000000,0.000000,0.000000,0.000000
15026862.000000,-2.314963,-1.663410,1.202541,-1.440416,1.716022,1.271628,-0.579472,0.406682,-0.004273,1.217225,-0.384686,-0.278105,1.132710,-0.101175,1.542096,41.875957,-26.376541,-3.325014,0.817045,2.261459,-0.208878,0.000000,0.000000,0.000000,0.000000,0.000000,0.000000
15026863.000000,-2.314556,-1.663418,1.203753,-1.440801,1.715755,1.272752,-0.579568,0.404055,-0.003574,1.207643,-0.382212,-0.277090,1.117975,-0.099649,1.490522,41.875957,-26.205948,-3.202028,0.774930,2.339278,-0.202470,0.000000,0.000000,0.000000,0.000000,0.000000,0.000000
15026864.000000,-2.314167,-1.663427,1.204956,-1.441171,1.715494,1.273910,-0.579657,0.398060,-0.002276,1.198850,-0.380609,-0.270717,1.125199,-0.095842,1.565900,41.848186,-25.813187,-3.202028,0.691617,2.131454,-0.268388,0.000000,0.000000,0.000000,0.000000,0.000000,0.000000
15026865.000000,-2.313780,-1.663433,1.206157,-1.441549,1.715241,1.275057,-0.579759,0.395173,-0.001368,1.196602,-0.376896,-0.264675,1.130188,-0.098861,1.688886,41.824383,-25.761612,-3.126650,0.584501,1.916305,-0.182328,0.000000,0.000000,0.000000,0.000000,0.000000,0.000000
15026866.000000,-2.313395,-1.663434,1.207361,-1.441918,1.714992,1.276192,-0.579842,0.390994,-0.001363,1.192778,-0.377184,-0.259663,1.134138,-0.095701,1.811872,41.701397,-25.567215,-3.102846,0.446256,1.909896,-0.229020,0.000000,0.000000,0.000000,0.000000,0.000000,0.000000
15026867.000000,-2.313015,-1.663436,1.208545,-1.442286,1.714741,1.277308,-0.579931,0.386321,-0.002879,1.185948,-0.372040,-0.256485,1.129953,-0.096016,2.034040,41.629986,-25.396622,-3.178224,0.440763,2.001449,-0.215287,0.000000,0.000000,0.000000,0.000000,0.000000,0.000000
15026868.000000,-2.312634,-1.663444,1.209744,-1.442651,1.714471,1.278446,-0.580019,0.383941,-0.006264,1.184058,-0.368166,-0.258064,1.129771,-0.091334,2.184797,41.653790,-25.222061,-3.249635,0.566190,1.981307,-0.202470,0.000000,0.000000,0.000000,0.000000,0.000000,0.000000
15026869.000000,-2.312266,-1.663446,1.210946,-1.443002,1.714211,1.279605,-0.580103,0.379159,-0.006276,1.181382,-0.363974,-0.257498,1.135932,-0.085499,2.359357,41.578411,-25.126846,-3.400392,0.637601,1.838485,-0.248246,0.000000,0.000000,0.000000,0.000000,0.000000,0.000000
15026870.000000,-2.311886,-1.663440,1.212132,-1.443362,1.713955,1.280734,-0.580200,0.379466,-0.001560,1.185542,-0.356896,-0.255061,1.136168,-0.089253,2.454572,41.431622,-25.150650,-3.424196,0.667814,1.806442,-0.188737,0.000000,0.000000,0.000000,0.000000,0.000000,0.000000
15026871.000000,-2.311513,-1.663440,1.213314,-1.443710,1.713709,1.281873,-0.580284,0.374408,0.000023,1.174211,-0.357920,-0.247217,1.138020,-0.088961,2.553754,41.360210,-24.976089,-3.523378,0.655912,1.806442,-0.229020,0.000000,0.000000,0.000000,0.000000,0.000000,0.000000
15026872.000000,-2.311140,-1.663439,1.214483,-1.444073,1.713457,1.283002,-0.580373,0.370748,0.000674,1.172988,-0.356900,-0.253431,1.141659,-0.090194,2.629133,41.312603,-24.829300,-3.376589,0.715421,1.786300,-0.235429,0.000000,0.000000,0.000000,0.000000,0.000000,0.000000
15026873.000000,-2.310766,-1.663431,1.215640,-1.444429,1.713205,1.284143,-0.580457,0.369217,0.002984,1.161879,-0.354654,-0.254380,1.143009,-0.086261,2.652936,41.189617,-24.388931,-3.277406,0.691617,1.832076,-0.235429,0.000000,0.000000,0.000000,0.000000,0.000000,0.000000
15026874.000000,-2.310395,-1.663419,1.216809,-1.444780,1.712963,1.285283,-0.580543,0.369657,0.005167,1.159847,-0.353977,-0.253993,1.137776,-0.084421,2.629133,41.042828,-24.071548,-3.154421,0.613798,1.916305,-0.208878,0.000000,0.000000,0.000000,0.000000,0.000000,0.000000
15026875.000000,-2.310016,-1.663406,1.217977,-1.445120,1.712725,1.286415,-0.580630,0.368925,0.007243,1.160206,-0.352396,-0.248771,1.135722,-0.083095,2.605329,40.872234,-24.043777,-3.154421,0.530485,1.936446,-0.182328,0.000000,0.000000,0.000000,0.000000,0.000000,0.000000
15026877.000000,-2.309280,-1.663377,1.220328,-1.445800,1.712250,1.288718,-0.580798,0.363151,0.009171,1.188281,-0.350404,-0.239092,1.135843,-0.079750,2.652936,40.527081,-24.166763,-3.126650,0.494779,1.637069,-0.182328,0.000000,0.000000,0.000000,0.000000,0.000000,0.000000
15026878.000000,-2.308914,-1.663362,1.221523,-1.446143,1.712008,1.289864,-0.580877,0.362916,0.010580,1.184065,-0.347446,-0.236243,1.126625,-0.077433,2.680707,40.332684,-24.464310,-3.102846,0.518583,1.611434,-0.215287,0.000000,0.000000,0.000000,0.000000,0.000000,0.000000
15026879.000000,-2.308552,-1.663351,1.222732,-1.446471,1.711767,1.290999,-0.580961,0.363160,0.009869,1.185306,-0.340243,-0.239858,1.121678,-0.077567,2.728315,40.209698,-24.904678,-3.178224,0.589994,1.760665,-0.196061,0.000000,0.000000,0.000000,0.000000,0.000000,0.000000
15026880.000000,-2.308185,-1.663341,1.223912,-1.446800,1.711527,1.292115,-0.581035,0.362678,0.011949,1.183336,-0.335387,-0.242996,1.115825,-0.075294,2.728315,40.110516,-25.198257,-3.225832,0.649503,1.897079,-0.241837,0.000000,0.000000,0.000000,0.000000,0.000000,0.000000
15026881.000000,-2.307823,-1.663333,1.225101,-1.447124,1.711288,1.293242,-0.581119,0.368299,0.013574,1.176894,-0.329953,-0.239692,1.115175,-0.081371,2.803693,40.015301,-25.368851,-3.376589,0.685209,1.968490,-0.208878,0.000000,0.000000,0.000000,0.000000,0.000000,0.000000
15026882.000000,-2.307463,-1.663331,1.226290,-1.447439,1.711061,1.294360,-0.581198,0.366534,0.009480,1.172116,-0.324815,-0.240176,1.116268,-0.079037,2.851301,40.015301,-25.396622,-3.448000,0.667814,1.955673,-0.229020,0.000000,0.000000,0.000000,0.000000,0.000000,0.000000
15026883.000000,-2.307093,-1.663326,1.227457,-1.447761,1.710841,1.295481,-0.581272,0.369386,0.007850,1.168691,-0.321910,-0.231076,1.115358,-0.081791,2.827497,39.963726,-25.368851,-3.448000,0.530485,2.001449,-0.261979,0.000000,0.000000,0.000000,0.000000,0.000000,0.000000
15026884.000000,-2.306733,-1.663321,1.228629,-1.448082,1.710610,1.296614,-0.581363,0.365373,0.006589,1.164896,-0.320221,-0.227547,1.118381,-0.082800,2.803693,39.916119,-25.222061,-3.325014,0.458158,2.027084,-0.196061,0.000000,0.000000,0.000000,0.000000,0.000000,0.000000
15026885.000000,-2.306357,-1.663321,1.229781,-1.448399,1.710382,1.297731,-0.581442,0.365510,0.003461,1.159326,-0.317687,-0.227842,1.124953,-0.084320,2.652936,39.963726,-24.976089,-3.225832,0.470060,1.968490,-0.229020,0.000000,0.000000,0.000000,0.000000,0.000000,0.000000
15026886.000000,-2.305987,-1.663327,1.230930,-1.448729,1.710148,1.298874,-0.581528,0.362208,-0.000433,1.152288,-0.322549,-0.230115,1.131886,-0.083707,2.506147,40.086712,-24.436539,-2.979860,0.547880,1.800033,-0.188737,0.000000,0.000000,0.000000,0.000000,0.000000,0.000000
15026887.000000,-2.305626,-1.663322,1.232113,-1.449039,1.709926,1.300016,-0.581609,0.363364,0.000370,1.155691,-0.318334,-0.226579,1.131378,-0.081195,2.383161,40.062908,-24.388931,-2.904482,0.608304,1.689254,-0.196061,0.000000,0.000000,0.000000,0.000000,0.000000,0.000000
15026888.000000,-2.305255,-1.663315,1.233261,-1.449350,1.709710,1.301135,-0.581680,0.365984,0.001437,1.155857,-0.317017,-0.223236,1.128177,-0.082029,2.232404,40.015301,-24.190567,-2.856874,0.524076,1.649886,-0.261979,0.000000,0.000000,0.000000,0.000000,0.000000,0.000000
15026889.000000,-2.304905,-1.663312,1.234424,-1.449644,1.709474,1.302273,-0.581762,0.364353,0.003629,1.150471,-0.314151,-0.226387,1.114451,-0.082165,2.260175,40.039104,-24.043777,-2.979860,0.589994,1.591293,-0.215287,0.000000,0.000000,0.000000,0.000000,0.000000,0.000000
15026890.000000,-2.304542,-1.663313,1.235565,-1.449937,1.709247,1.303394,-0.581837,0.363873,0.001056,1.143899,-0.307779,-0.228303,1.113628,-0.079724,2.133222,40.110516,-23.825577,-3.102846,0.649503,1.605026,-0.235429,0.000000,0.000000,0.000000,0.000000,0.000000,0.000000
15026891.000000,-2.304178,-1.663309,1.236727,-1.450236,1.709034,1.304514,-0.581916,0.361405,0.004100,1.148617,-0.302855,-0.224412,1.106043,-0.079738,1.962629,40.110516,-23.726395,-3.249635,0.584501,1.819259,-0.208878,0.000000,0.000000,0.000000,0.000000,0.000000,0.000000
15026892.000000,-2.303814,-1.663298,1.237902,-1.450531,1.708820,1.305637,-0.581990,0.362651,0.009738,1.147484,-0.299833,-0.219029,1.105545,-0.077101,1.764264,39.963726,-23.825577,-3.249635,0.554288,2.047225,-0.235429,0.000000,0.000000,0.000000,0.000000,0.000000,0.000000
15026893.000000,-2.303442,-1.663287,1.239045,-1.450813,1.708614,1.306770,-0.582070,0.361381,0.012357,1.147379,-0.292666,-0.212833,1.115322,-0.078350,1.490522,39.868511,-23.702591,-3.424196,0.464567,1.995040,-0.182328,0.000000,0.000000,0.000000,0.000000,0.000000,0.000000
15026894.000000,-2.303072,-1.663278,1.240199,-1.451111,1.708392,1.307926,-0.582139,0.371389,0.010696,1.145362,-0.292917,-0.212672,1.125473,-0.075523,1.216779,39.793133,-23.627213,-3.400392,0.494779,1.767074,-0.235429,0.000000,0.000000,0.000000,0.000000,0.000000,0.000000
15026895.000000,-2.302690,-1.663262,1.241347,-1.451400,1.708177,1.309050,-0.582212,0.373220,0.014124,1.163182,-0.291568,-0.216593,1.149488,-0.075267,0.796247,39.646343,-23.456619,-3.424196,0.506681,1.741439,-0.241837,0.000000,0.000000,0.000000,0.000000,0.000000,0.000000
15026896.000000,-2.302308,-1.663238,1.242478,-1.451693,1.707965,1.310169,-0.582291,0.378318,0.015814,1.148131,-0.289372,-0.213640,1.137777,-0.077489,0.403486,39.400372,-23.286026,-3.348818,0.506681,1.819259,-0.182328,0.000000,0.000000,0.000000,0.000000,0.000000,0.000000
15026897.000000,-2.301931,-1.663230,1.243610,-1.451977,1.707749,1.311305,-0.582352,0.380779,0.014715,1.134826,-0.286355,-0.217199,1.135175,-0.069561,0.078168,39.376568,-22.964676,-3.348818,0.547880,1.851302,-0.248246,0.000000,0.000000,0.000000,0.000000,0.000000,0.000000
15026898.000000,-2.301551,-1.663216,1.244742,-1.452247,1.707541,1.312427,-0.582433,0.380908,0.014648,1.139282,-0.279750,-0.215553,1.133383,-0.073422,-0.215411,39.328960,-22.865494,-3.523378,0.578092,1.793624,-0.188737,0.000000,0.000000,0.000000,0.000000,0.000000,0.000000
15026899.000000,-2.301180,-1.663203,1.245901,-1.452521,1.707342,1.313577,-0.582499,0.375441,0.014759,1.137049,-0.278074,-0.210835,1.143158,-0.068183,-0.342364,39.281353,-23.040054,-3.570986,0.518583,1.605026,-0.215287,0.000000,0.000000,0.000000,0.000000,0.000000,0.000000
15026900.000000,-2.300813,-1.663185,1.247083,-1.452778,1.707152,1.314676,-0.582567,0.369504,0.016792,1.149723,-0.270221,-0.204898,1.127974,-0.069572,-0.540728,39.158367,-23.381241,-3.769350,0.374845,1.689254,-0.221696,0.000000,0.000000,0.000000,0.000000,0.000000,0.000000
15026901.000000,-2.300446,-1.663173,1.248241,-1.453042,1.706946,1.315793,-0.582640,0.366049,0.015879,1.154168,-0.264703,-0.205901,1.120572,-0.067293,-0.663714,39.130596,-23.726395,-3.797121,0.374845,1.800033,-0.196061,0.000000,0.000000,0.000000,0.000000,0.000000,0.000000
15026902.000000,-2.300092,-1.663170,1.249408,-1.453295,1.706739,1.316909,-0.582703,0.361587,0.011669,1.151108,-0.263371,-0.207959,1.103695,-0.067544,-0.663714,39.253582,-24.019974,-3.868532,0.410551,1.936446,-0.241837,0.000000,0.000000,0.000000,0.000000,0.000000,0.000000
15026903.000000,-2.299725,-1.663167,1.250564,-1.453558,1.706535,1.318006,-0.582778,0.366323,0.006404,1.153472,-0.261004,-0.205943,1.098021,-0.066475,-0.810504,39.352764,-24.265945,-3.868532,0.482877,2.066451,-0.202470,0.000000,0.000000,0.000000,0.000000,0.000000,0.000000
15026904.000000,-2.299370,-1.663158,1.251731,-1.453813,1.706339,1.319125,-0.582840,0.358727,0.005534,1.153384,-0.257974,-0.200808,1.091613,-0.067480,-0.810504,39.328960,-24.464310,-3.920107,0.482877,2.098495,-0.235429,0.000000,0.000000,0.000000,0.000000,0.000000,0.000000
15026905.000000,-2.299020,-1.663147,1.252892,-1.454049,1.706153,1.320252,-0.582911,0.355024,0.008026,1.147468,-0.252628,-0.200052,1.095279,-0.071176,-0.885882,39.305157,-24.535721,-4.090700,0.422452,2.047225,-0.188737,0.000000,0.000000,0.000000,0.000000,0.000000,0.000000
15026906.000000,-2.298667,-1.663145,1.254025,-1.454309,1.705950,1.321364,-0.582968,0.349655,0.007395,1.139198,-0.254507,-0.202516,1.099985,-0.064956,-0.885882,39.376568,-24.412735,-3.991518,0.434354,1.936446,-0.254655,0.000000,0.000000,0.000000,0.000000,0.000000,0.000000
15026907.000000,-2.298314,-1.663139,1.255159,-1.454553,1.705738,1.322472,-0.583036,0.341893,0.007523,1.127750,-0.255549,-0.200488,1.100013,-0.063721,-0.961260,39.428143,-24.019974,-3.991518,0.470060,1.962081,-0.235429,0.000000,0.000000,0.000000,0.000000,0.000000,0.000000
15026908.000000,-2.297962,-1.663139,1.256283,-1.454802,1.705541,1.323567,-0.583104,0.344806,0.006760,1.127766,-0.252605,-0.197341,1.100378,-0.067893,-0.985064,39.523357,-23.702591,-3.943910,0.470060,2.079269,-0.188737,0.000000,0.000000,0.000000,0.000000,0.000000,0.000000
15026909.000000,-2.297616,-1.663128,1.257420,-1.455054,1.705337,1.324678,-0.583161,0.341619,0.009108,1.121260,-0.255813,-0.194720,1.103592,-0.067432,-0.933489,39.499554,-23.381241,-3.920107,0.470060,2.112228,-0.248246,0.000000,0.000000,0.000000,0.000000,0.000000,0.000000
15026910.000000,-2.297278,-1.663116,1.258577,-1.455301,1.705149,1.325809,-0.583231,0.340700,0.011803,1.125583,-0.254696,-0.191695,1.106833,-0.067446,-0.933489,39.428143,-23.309830,-3.920107,0.434354,1.974899,-0.175919,0.000000,0.000000,0.000000,0.000000,0.000000,0.000000
15026911.000000,-2.296944,-1.663104,1.259694,-1.455544,1.704969,1.326929,-0.583288,0.337903,0.010585,1.120325,-0.249147,-0.187014,1.111946,-0.066903,-0.810504,39.352764,-22.988480,-3.967714,0.332731,1.747848,-0.229020,0.000000,0.000000,0.000000,0.000000,0.000000,0.000000
15026912.000000,-2.296623,-1.663085,1.260837,-1.455792,1.704767,1.328053,-0.583353,0.339064,0.014250,1.118074,-0.251072,-0.189658,1.110293,-0.065370,-0.635943,39.205975,-22.964676,-3.920107,0.386747,1.611434,-0.202470,0.000000,0.000000,0.000000,0.000000,0.000000,0.000000
15026913.000000,-2.296295,-1.663073,1.261989,-1.456033,1.704576,1.329151,-0.583413,0.332645,0.015090,1.146118,-0.247930,-0.193867,1.122245,-0.062432,-0.465350,39.130596,-22.917068,-3.920107,0.374845,1.643478,-0.221696,0.000000,0.000000,0.000000,0.000000,0.000000,0.000000
15026914.000000,-2.295979,-1.663054,1.263125,-1.456281,1.704380,1.330261,-0.583474,0.323856,0.013689,1.143406,-0.243979,-0.193575,1.116022,-0.061513,-0.266986,39.011578,-22.964676,-3.844728,0.410551,1.747848,-0.208878,0.000000,0.000000,0.000000,0.000000,0.000000,0.000000
15026915.000000,-2.295664,-1.663042,1.264259,-1.456511,1.704185,1.331391,-0.583534,0.316165,0.013427,1.135017,-0.238278,-0.194546,1.110417,-0.060595,-0.144000,38.983807,-22.940872,-3.892336,0.470060,1.735030,-0.188737,0.000000,0.000000,0.000000,0.000000,0.000000,0.000000
15026916.000000,-2.295353,-1.663025,1.265378,-1.456757,1.703998,1.332498,-0.583589,0.314421,0.014964,1.126368,-0.239454,-0.193433,1.111482,-0.058549,0.054365,38.888592,-22.865494,-3.844728,0.488370,1.741439,-0.215287,0.000000,0.000000,0.000000,0.000000,0.000000,0.000000
15026917.000000,-2.295039,-1.663010,1.266513,-1.456995,1.703818,1.333622,-0.583645,0.313160,0.012539,1.117099,-0.238973,-0.186350,1.106604,-0.057915,0.153547,38.813213,-22.794083,-3.844728,0.464567,1.708480,-0.221696,0.000000,0.000000,0.000000,0.000000,0.000000,0.000000
15026918.000000,-2.294732,-1.662987,1.267644,-1.457234,1.703640,1.334747,-0.583705,0.311159,0.016522,1.120604,-0.239538,-0.184527,1.108956,-0.061935,0.276533,38.618816,-22.623489,-3.697939,0.398649,1.695663,-0.229020,0.000000,0.000000,0.000000,0.000000,0.000000,0.000000
15026919.000000,-2.294425,-1.662971,1.268752,-1.457476,1.703453,1.335855,-0.583767,0.307703,0.017316,1.112298,-0.241849,-0.184320,1.114957,-0.061710,0.351911,38.519634,-22.425125,-3.547182,0.369352,1.689254,-0.202470,0.000000,0.000000,0.000000,0.000000,0.000000,0.000000
15026920.000000,-2.294126,-1.662950,1.269879,-1.457717,1.703258,1.336985,-0.583824,0.305209,0.015220,1.107261,-0.241443,-0.186719,1.120852,-0.058948,0.427289,38.396648,-22.254532,-3.376589,0.405057,1.597701,-0.241837,0.000000,0.000000,0.000000,0.000000,0.000000,0.000000
15026921.000000,-2.293826,-1.662934,1.271001,-1.457951,1.703075,1.338107,-0.583885,0.301122,0.016690,1.115083,-0.236208,-0.187646,1.127551,-0.059352,0.574079,38.277630,-22.302139,-3.277406,0.416959,1.507064,-0.215287,0.000000,0.000000,0.000000,0.000000,0.000000,0.000000
15026922.000000,-2.293529,-1.662914,1.272148,-1.458187,1.702894,1.339226,-0.583945,0.299116,0.017761,1.118549,-0.235816,-0.186737,1.123726,-0.059186,0.697065,38.154644,-22.524307,-3.154421,0.405057,1.494247,-0.202470,0.000000,0.000000,0.000000,0.000000,0.000000,0.000000
15026923.000000,-2.293239,-1.662893,1.273313,-1.458422,1.702715,1.340362,-0.584000,0.298250,0.018640,1.127783,-0.236470,-0.182635,1.121252,-0.057682,0.847822,38.031658,-22.817886,-3.126650,0.410551,1.474105,-0.221696,0.000000,0.000000,0.000000,0.000000,0.000000,0.000000
15026924.000000,-2.292956,-1.662879,1.274458,-1.458657,1.702532,1.341467,-0.584061,0.289760,0.017551,1.139100,-0.234034,-0.185547,1.107352,-0.058383,1.121564,37.984051,-23.163040,-3.079042,0.452665,1.539108,-0.196061,0.000000,0.000000,0.000000,0.000000,0.000000,0.000000
15026925.000000,-2.292680,-1.662862,1.275613,-1.458884,1.702349,1.342586,-0.584116,0.283456,0.014923,1.134794,-0.234445,-0.186905,1.105963,-0.052296,1.292158,37.884869,-23.555801,-3.027467,0.476469,1.689254,-0.215287,0.000000,0.000000,0.000000,0.000000,0.000000,0.000000
15026926.000000,-2.292401,-1.662849,1.276751,-1.459110,1.702168,1.343675,-0.584171,0.280526,0.017379,1.155489,-0.232566,-0.185579,1.094854,-0.053679,1.514325,37.861065,-23.750198,-3.003664,0.440763,1.930038,-0.208878,0.000000,0.000000,0.000000,0.000000,0.000000,0.000000
15026927.000000,-2.292120,-1.662833,1.277905,-1.459345,1.701985,1.344783,-0.584225,0.276570,0.016976,1.153613,-0.229756,-0.180812,1.103647,-0.054610,1.665082,37.809490,-23.896988,-2.904482,0.434354,2.098495,-0.202470,0.000000,0.000000,0.000000,0.000000,0.000000,0.000000
15026928.000000,-2.291841,-1.662811,1.279056,-1.459575,1.701812,1.345907,-0.584277,0.276862,0.017709,1.150036,-0.227724,-0.181762,1.102701,-0.048701,1.688886,37.714275,-23.948563,-2.805300,0.440763,2.092086,-0.241837,0.000000,0.000000,0.000000,0.000000,0.000000,0.000000
15026929.000000,-2.291559,-1.662793,1.280182,-1.459814,1.701633,1.347018,-0.584335,0.275909,0.018259,1.138816,-0.229038,-0.179438,1.106791,-0.051938,1.740461,37.615093,-23.849380,-2.559328,0.464567,1.962081,-0.202470,0.000000,0.000000,0.000000,0.000000,0.000000,0.000000
15026930.000000,-2.291277,-1.662779,1.281317,-1.460060,1.701458,1.348139,-0.584387,0.284492,0.013764,1.128879,-0.234136,-0.177084,1.111476,-0.057295,1.740461,37.591290,-23.651016,-2.285585,0.476469,1.838485,-0.215287,0.000000,0.000000,0.000000,0.000000,0.000000,0.000000
15026931.000000,-2.291002,-1.662758,1.282456,-1.460302,1.701288,1.349236,-0.584436,0.284885,0.016537,1.151242,-0.237255,-0.176284,1.136376,-0.055855,1.688886,37.444500,-23.432816,-2.015810,0.506681,1.786300,-0.248246,0.000000,0.000000,0.000000,0.000000,0.000000,0.000000
15026932.000000,-2.290731,-1.662745,1.283574,-1.460541,1.701119,1.350339,-0.584487,0.279985,0.015466,1.138039,-0.237354,-0.173884,1.128663,-0.050874,1.811872,37.420696,-23.234451,-1.817445,0.500272,1.858627,-0.261979,0.000000,0.000000,0.000000,0.000000,0.000000,0.000000
15026933.000000,-2.290464,-1.662734,1.284705,-1.460769,1.700941,1.351436,-0.584546,0.274749,0.013793,1.129847,-0.233683,-0.172519,1.111785,-0.055332,1.887250,37.444500,-23.040054,-1.670656,0.494779,1.936446,-0.182328,0.000000,0.000000,0.000000,0.000000,0.000000,0.000000
15026934.000000,-2.290200,-1.662721,1.285822,-1.460988,1.700773,1.352548,-0.584592,0.268964,0.013290,1.130421,-0.228500,-0.170590,1.109347,-0.053748,2.010236,37.444500,-22.893265,-1.769838,0.464567,1.773483,-0.229020,0.000000,0.000000,0.000000,0.000000,0.000000,0.000000
15026935.000000,-2.289934,-1.662707,1.286961,-1.461209,1.700603,1.353663,-0.584638,0.262934,0.014079,1.126651,-0.223683,-0.170412,1.104311,-0.053617,2.109418,37.392925,-22.893265,-1.793642,0.476469,1.670028,-0.254655,0.000000,0.000000,0.000000,0.000000,0.000000,0.000000
15026936.000000,-2.289674,-1.662695,1.288116,-1.461422,1.700442,1.354784,-0.584692,0.261422,0.013380,1.131115,-0.220324,-0.165304,1.101622,-0.051605,2.208601,37.392925,-23.016251,-1.817445,0.470060,1.670028,-0.202470,0.000000,0.000000,0.000000,0.000000,0.000000,0.000000
15026937.000000,-2.289415,-1.662684,1.289240,-1.461640,1.700280,1.355889,-0.584737,0.258390,0.012304,1.129727,-0.218465,-0.166124,1.105352,-0.051544,2.232404,37.420696,-22.964676,-1.793642,0.464567,1.649886,-0.235429,0.000000,0.000000,0.000000,0.000000,0.000000,0.000000
15026938.000000,-2.289153,-1.662684,1.290371,-1.461850,1.700107,1.357009,-0.584791,0.260296,0.008920,1.126194,-0.216160,-0.166850,1.103980,-0.050049,2.232404,37.567486,-22.917068,-1.841249,0.584501,1.584884,-0.182328,0.000000,0.000000,0.000000,0.000000,0.000000,0.000000
15026939.000000,-2.288882,-1.662679,1.291487,-1.462066,1.699945,1.358104,-0.584832,0.265508,0.008452,1.123396,-0.217871,-0.168400,1.106312,-0.049367,2.133222,37.638897,-22.865494,-1.742067,0.613798,1.591293,-0.241837,0.000000,0.000000,0.000000,0.000000,0.000000,0.000000
15026940.000000,-2.288613,-1.662669,1.292618,-1.462274,1.699788,1.359206,-0.584882,0.264885,0.009934,1.121526,-0.213997,-0.165360,1.104706,-0.047260,2.010236,37.638897,-22.817886,-1.718263,0.542386,1.695663,-0.221696,0.000000,0.000000,0.000000,0.000000,0.000000,0.000000
15026941.000000,-2.288343,-1.662661,1.293731,-1.462476,1.699628,1.360328,-0.584931,0.264665,0.009685,1.119698,-0.211132,-0.165077,1.108656,-0.044980,1.863447,37.686504,-22.524307,-1.694460,0.506681,1.662704,-0.215287,0.000000,0.000000,0.000000,0.000000,0.000000,0.000000
15026942.000000,-2.288076,-1.662650,1.294831,-1.462671,1.699471,1.361444,-0.584975,0.263531,0.010665,1.111573,-0.205306,-0.165498,1.120603,-0.042901,1.740461,37.686504,-22.302139,-1.817445,0.482877,1.507064,-0.221696,0.000000,0.000000,0.000000,0.000000,0.000000,0.000000
15026943.000000,-2.287814,-1.662641,1.295947,-1.462867,1.699317,1.362554,-0.585018,0.263795,0.008711,1.103086,-0.201906,-0.161475,1.114468,-0.040399,1.613508,37.662701,-22.107742,-1.869020,0.470060,1.572067,-0.254655,0.000000,0.000000,0.000000,0.000000,0.000000,0.000000
15026944.000000,-2.287550,-1.662624,1.297066,-1.463053,1.699172,1.363634,-0.585066,0.264746,0.012507,1.137291,-0.196501,-0.158057,1.099684,-0.044422,1.542096,37.539715,-22.179153,-1.964235,0.446256,1.735030,-0.254655,0.000000,0.000000,0.000000,0.000000,0.000000,0.000000
15026945.000000,-2.287284,-1.662610,1.298195,-1.463248,1.699025,1.364747,-0.585112,0.262892,0.012902,1.128896,-0.195471,-0.160043,1.091624,-0.043326,1.442914,37.515911,-22.278336,-1.916628,0.428861,1.793624,-0.241837,0.000000,0.000000,0.000000,0.000000,0.000000,0.000000
15026946.000000,-2.287021,-1.662598,1.299345,-1.463438,1.698873,1.365875,-0.585160,0.262472,0.010052,1.129424,-0.193346,-0.159519,1.095975,-0.047048,1.315961,37.492107,-22.595718,-1.940431,0.494779,1.702071,-0.229020,0.000000,0.000000,0.000000,0.000000,0.000000,0.000000
15026947.000000,-2.286759,-1.662584,1.300487,-1.463620,1.698732,1.366987,-0.585210,0.265734,0.009043,1.136235,-0.190816,-0.155987,1.103276,-0.050528,1.192975,37.420696,-23.040054,-1.992006,0.464567,1.637069,-0.182328,0.000000,0.000000,0.000000,0.000000,0.000000,0.000000
15026948.000000,-2.286501,-1.662565,1.301644,-1.463801,1.698587,1.368103,-0.585247,0.267209,0.009408,1.136141,-0.186719,-0.152949,1.101431,-0.044970,1.145368,37.297710,-23.528030,-2.015810,0.416959,1.584884,-0.241837,0.000000,0.000000,0.000000,0.000000,0.000000,0.000000
15026949.000000,-2.286243,-1.662555,1.302808,-1.463969,1.698432,1.369189,-0.585294,0.265473,0.009245,1.139920,-0.178724,-0.149894,1.100328,-0.049277,1.022382,37.321514,-23.948563,-2.114992,0.470060,1.695663,-0.202470,0.000000,0.000000,0.000000,0.000000,0.000000,0.000000
15026950.000000,-2.285991,-1.662552,1.303929,-1.464136,1.698275,1.370282,-0.585331,0.262070,0.007554,1.134629,-0.174550,-0.152548,1.091439,-0.045298,0.970807,37.420696,-23.972366,-2.261781,0.542386,1.793624,-0.229020,0.000000,0.000000,0.000000,0.000000,0.000000,0.000000
15026951.000000,-2.285741,-1.662549,1.305060,-1.464299,1.698129,1.371361,-0.585369,0.255367,0.004039,1.127075,-0.172507,-0.152167,1.083464,-0.041855,0.970807,37.492107,-24.019974,-2.384767,0.547880,2.014266,-0.268388,0.000000,0.000000,0.000000,0.000000,0.000000,0.000000
15026952.000000,-2.285476,-1.662545,1.306168,-1.464463,1.697989,1.372432,-0.585417,0.261468,0.000877,1.122094,-0.169593,-0.151055,1.083712,-0.043662,0.772443,37.591290,-23.825577,-2.436342,0.535978,2.125045,-0.196061,0.000000,0.000000,0.000000,0.000000,0.000000,0.000000
15026953.000000,-2.285221,-1.662544,1.307302,-1.464630,1.697850,1.373540,-0.585447,0.257003,0.001253,1.118259,-0.165906,-0.143513,1.085006,-0.039152,0.697065,37.714275,-23.726395,-2.412538,0.470060,1.930038,-0.274796,0.000000,0.000000,0.000000,0.000000,0.000000,0.000000
15026954.000000,-2.284963,-1.662543,1.308431,-1.464789,1.697714,1.374657,-0.585495,0.258635,-0.000844,1.115617,-0.163207,-0.138986,1.085066,-0.042099,0.550275,37.809490,-23.504227,-2.384767,0.422452,1.754256,-0.188737,0.000000,0.000000,0.000000,0.000000,0.000000,0.000000
15026955.000000,-2.284701,-1.662544,1.309534,-1.464953,1.697575,1.375751,-0.585531,0.258031,-0.003585,1.109234,-0.164769,-0.137051,1.085875,-0.040106,0.328107,37.956280,-23.186844,-2.313356,0.410551,1.670028,-0.208878,0.000000,0.000000,0.000000,0.000000,0.000000,0.000000
15026956.000000,-2.284458,-1.662549,1.310663,-1.465106,1.697428,1.376861,-0.585568,0.253348,-0.002350,1.109779,-0.162931,-0.141075,1.088415,-0.038044,0.276533,38.103069,-23.087662,-2.337160,0.422452,1.611434,-0.248246,0.000000,0.000000,0.000000,0.000000,0.000000,0.000000
15026957.000000,-2.284208,-1.662549,1.311767,-1.465253,1.697285,1.377952,-0.585613,0.253162,-0.002278,1.110700,-0.154860,-0.138656,1.090722,-0.039955,0.228925,38.154644,-22.893265,-2.412538,0.416959,1.597701,-0.196061,0.000000,0.000000,0.000000,0.000000,0.000000,0.000000
15026958.000000,-2.283969,-1.662551,1.312893,-1.465394,1.697131,1.379065,-0.585652,0.249440,-0.002261,1.105596,-0.147383,-0.138991,1.099117,-0.039249,0.328107,38.202251,-22.841690,-2.559328,0.476469,1.526290,-0.196061,0.000000,0.000000,0.000000,0.000000,0.000000,0.000000
15026959.000000,-2.283729,-1.662540,1.314027,-1.465511,1.696997,1.380182,-0.585691,0.247081,0.001648,1.105822,-0.137410,-0.135459,1.099314,-0.043706,0.351911,38.079266,-22.841690,-2.904482,0.434354,1.487838,-0.188737,0.000000,0.000000,0.000000,0.000000,0.000000,0.000000
15026960.000000,-2.283489,-1.662541,1.315155,-1.465638,1.696852,1.381275,-0.585720,0.244732,0.000750,1.120432,-0.133999,-0.135594,1.106859,-0.039757,0.328107,38.103069,-23.016251,-3.079042,0.458158,1.519881,-0.248246,0.000000,0.000000,0.000000,0.000000,0.000000,0.000000
15026961.000000,-2.283252,-1.662539,1.316267,-1.465762,1.696713,1.382382,-0.585763,0.245706,0.001214,1.110915,-0.133716,-0.139154,1.101973,-0.041145,0.304304,38.079266,-22.940872,-3.277406,0.452665,1.630660,-0.196061,0.000000,0.000000,0.000000,0.000000,0.000000,0.000000
15026962.000000,-2.283011,-1.662539,1.317371,-1.465890,1.696579,1.383465,-0.585793,0.246817,0.001483,1.127700,-0.131559,-0.141135,1.098942,-0.033841,0.177350,38.055462,-22.893265,-3.325014,0.428861,1.800033,-0.241837,0.000000,0.000000,0.000000,0.000000,0.000000,0.000000
15026963.000000,-2.282771,-1.662543,1.318484,-1.466022,1.696442,1.384570,-0.585832,0.244937,-0.000037,1.122152,-0.132185,-0.138328,1.095754,-0.035639,0.030561,38.103069,-22.770279,-3.249635,0.422452,1.897079,-0.221696,0.000000,0.000000,0.000000,0.000000,0.000000,0.000000
15026964.000000,-2.282530,-1.662537,1.319599,-1.466145,1.696310,1.385688,-0.585870,0.246430,0.002269,1.111332,-0.130918,-0.134835,1.094868,-0.040484,-0.116229,38.007854,-22.647293,-3.249635,0.386747,1.825668,-0.221696,0.000000,0.000000,0.000000,0.000000,0.000000,0.000000
15026965.000000,-2.282284,-1.662529,1.320701,-1.466265,1.696182,1.386806,-0.585904,0.244926,0.003325,1.104867,-0.126558,-0.135929,1.097177,-0.039575,-0.314593,37.932476,-22.571915,-3.249635,0.303434,1.649886,-0.229020,0.000000,0.000000,0.000000,0.000000,0.000000,0.000000
15026966.000000,-2.282033,-1.662529,1.321808,-1.466380,1.696040,1.387931,-0.585944,0.247043,0.002811,1.102576,-0.125385,-0.136245,1.099571,-0.039896,-0.564532,37.908672,-22.401321,-3.301210,0.332731,1.519881,-0.208878,0.000000,0.000000,0.000000,0.000000,0.000000,0.000000
15026967.000000,-2.281793,-1.662523,1.322932,-1.466497,1.695905,1.389022,-0.585975,0.246919,0.004222,1.106141,-0.121936,-0.136085,1.100811,-0.038293,-0.762896,37.809490,-22.472733,-3.325014,0.351041,1.591293,-0.235429,0.000000,0.000000,0.000000,0.000000,0.000000,0.000000
15026968.000000,-2.281552,-1.662521,1.324043,-1.466606,1.695768,1.390112,-0.586011,0.244735,0.002835,1.110187,-0.119925,-0.137165,1.089377,-0.038710,-0.933489,37.809490,-22.548111,-3.448000,0.410551,1.747848,-0.221696,0.000000,0.000000,0.000000,0.000000,0.000000,0.000000
15026969.000000,-2.281321,-1.662520,1.325181,-1.466711,1.695631,1.391217,-0.586045,0.240669,0.001906,1.111783,-0.116416,-0.142867,1.088503,-0.038450,-1.008868,37.809490,-22.794083,-3.547182,0.476469,1.806442,-0.221696,0.000000,0.000000,0.000000,0.000000,0.000000,0.000000
15026970.000000,-2.281089,-1.662520,1.326315,-1.466809,1.695510,1.392315,-0.586077,0.234915,0.001282,1.118533,-0.108784,-0.138076,1.098242,-0.038028,-1.108050,37.809490,-23.309830,-3.721742,0.428861,1.754256,-0.229020,0.000000,0.000000,0.000000,0.000000,0.000000,0.000000
15026971.000000,-2.280860,-1.662518,1.327471,-1.466914,1.695390,1.393414,-0.586112,0.237105,0.001421,1.127233,-0.106741,-0.128564,1.102223,-0.038268,-1.183428,37.785686,-23.873184,-3.745546,0.351041,1.754256,-0.221696,0.000000,0.000000,0.000000,0.000000,0.000000,0.000000
15026972.000000,-2.280632,-1.662523,1.328625,-1.467012,1.695270,1.394513,-0.586143,0.232268,-0.000810,1.128447,-0.101375,-0.128766,1.100937,-0.037316,-1.254840,37.861065,-24.242142,-3.797121,0.327238,1.779891,-0.241837,0.000000,0.000000,0.000000,0.000000,0.000000,0.000000
15026973.000000,-2.280403,-1.662534,1.329750,-1.467112,1.695142,1.395581,-0.586176,0.231242,-0.003968,1.125428,-0.098261,-0.126132,1.090366,-0.038241,-1.330218,38.007854,-24.436539,-3.797121,0.362943,1.909896,-0.221696,0.000000,0.000000,0.000000,0.000000,0.000000,0.000000
15026974.000000,-2.280171,-1.662537,1.330884,-1.467211,1.695012,1.396658,-0.586209,0.230728,-0.003756,1.118083,-0.099216,-0.128389,1.078263,-0.038338,-1.528582,38.055462,-24.511917,-3.769350,0.386747,2.085677,-0.215287,0.000000,0.000000,0.000000,0.000000,0.000000,0.000000
15026975.000000,-2.279939,-1.662548,1.332002,-1.467309,1.694888,1.397731,-0.586245,0.230871,-0.005378,1.115661,-0.100099,-0.128585,1.073370,-0.034392,-1.679339,38.178448,-24.488113,-3.745546,0.374845,2.125045,-0.188737,0.000000,0.000000,0.000000,0.000000,0.000000,0.000000
15026976.000000,-2.279713,-1.662555,1.333113,-1.467409,1.694756,1.398840,-0.586268,0.227331,-0.005903,1.110640,-0.100681,-0.130181,1.076906,-0.032703,-1.750750,38.277630,-24.166763,-3.721742,0.405057,1.968490,-0.254655,0.000000,0.000000,0.000000,0.000000,0.000000,0.000000
15026977.000000,-2.279488,-1.662562,1.334245,-1.467502,1.694628,1.399952,-0.586305,0.226442,-0.006161,1.106532,-0.100170,-0.131382,1.083760,-0.031758,-1.901507,38.372845,-24.071548,-3.745546,0.428861,1.786300,-0.188737,0.000000,0.000000,0.000000,0.000000,0.000000,0.000000
15026978.000000,-2.279273,-1.662568,1.335339,-1.467594,1.694507,1.401031,-0.586326,0.219957,-0.005869,1.100904,-0.099575,-0.131264,1.086546,-0.025857,-1.949114,38.448223,-23.678787,-3.769350,0.422452,1.800033,-0.254655,0.000000,0.000000,0.000000,0.000000,0.000000,0.000000
15026979.000000,-2.279054,-1.662576,1.336455,-1.467695,1.694383,1.402113,-0.586358,0.220572,-0.006139,1.101440,-0.099507,-0.126677,1.080877,-0.025223,-2.024493,38.543438,-23.456619,-3.646364,0.422452,1.942855,-0.229020,0.000000,0.000000,0.000000,0.000000,0.000000,0.000000
15026980.000000,-2.278839,-1.662588,1.337571,-1.467779,1.694260,1.403194,-0.586389,0.218634,-0.007526,1.120055,-0.094014,-0.123821,1.106931,-0.024389,-2.048296,38.690228,-23.258255,-3.745546,0.440763,1.949264,-0.208878,0.000000,0.000000,0.000000,0.000000,0.000000,0.000000
15026981.000000,-2.278627,-1.662599,1.338677,-1.467861,1.694143,1.404298,-0.586413,0.216803,-0.007894,1.112537,-0.090663,-0.118626,1.108038,-0.025968,-2.048296,38.813213,-23.186844,-3.820925,0.381254,1.851302,-0.254655,0.000000,0.000000,0.000000,0.000000,0.000000,0.000000
15026982.000000,-2.278420,-1.662598,1.339810,-1.467945,1.694033,1.405402,-0.586446,0.213267,-0.004705,1.113226,-0.085949,-0.113619,1.102219,-0.031650,-2.072100,38.789410,-23.333633,-3.868532,0.279630,1.773483,-0.182328,0.000000,0.000000,0.000000,0.000000,0.000000,0.000000
15026983.000000,-2.278208,-1.662603,1.340924,-1.468024,1.693922,1.406498,-0.586470,0.212945,-0.004250,1.114872,-0.084411,-0.111693,1.095758,-0.031348,-2.147479,38.837017,-23.456619,-3.967714,0.225614,1.643478,-0.221696,0.000000,0.000000,0.000000,0.000000,0.000000,0.000000
15026984.000000,-2.278007,-1.662613,1.342048,-1.468102,1.693797,1.407602,-0.586497,0.206757,-0.005153,1.114214,-0.079536,-0.114523,1.086426,-0.028993,-2.147479,38.936199,-23.480423,-4.090700,0.285123,1.565658,-0.202470,0.000000,0.000000,0.000000,0.000000,0.000000,0.000000
15026985.000000,-2.277802,-1.662618,1.343177,-1.468177,1.693671,1.408678,-0.586518,0.204766,-0.004549,1.110641,-0.079822,-0.116477,1.084230,-0.025115,-2.270464,38.983807,-23.555801,-4.189882,0.344633,1.702071,-0.235429,0.000000,0.000000,0.000000,0.000000,0.000000,0.000000
15026986.000000,-2.277606,-1.662629,1.344268,-1.468257,1.693539,1.409759,-0.586550,0.203086,-0.005909,1.101690,-0.075921,-0.123019,1.072610,-0.030078,-2.270464,39.106792,-23.409012,-4.189882,0.422452,1.858627,-0.188737,0.000000,0.000000,0.000000,0.000000,0.000000,0.000000
15026987.000000,-2.277400,-1.662626,1.345378,-1.468323,1.693414,1.410851,-0.586571,0.201513,-0.002826,1.100457,-0.069566,-0.122694,1.068848,-0.030311,-2.397418,39.059185,-23.309830,-4.340639,0.488370,1.942855,-0.229020,0.000000,0.000000,0.000000,0.000000,0.000000,0.000000
15026988.000000,-2.277202,-1.662630,1.346473,-1.468388,1.693301,1.411948,-0.586593,0.198031,-0.002441,1.095530,-0.066113,-0.123669,1.081623,-0.026853,-2.397418,39.082989,-23.186844,-4.439821,0.464567,1.786300,-0.248246,0.000000,0.000000,0.000000,0.000000,0.000000,0.000000
15026989.000000,-2.276997,-1.662626,1.347577,-1.468459,1.693186,1.413073,-0.586618,0.201439,0.000693,1.093275,-0.066458,-0.118198,1.098807,-0.025171,-2.520403,38.983807,-23.087662,-4.412050,0.405057,1.539108,-0.241837,0.000000,0.000000,0.000000,0.000000,0.000000,0.000000
15026990.000000,-2.276794,-1.662629,1.348699,-1.468531,1.693074,1.414177,-0.586645,0.201758,0.000462,1.096060,-0.067628,-0.115057,1.098794,-0.024868,-2.690997,38.983807,-23.111465,-4.340639,0.351041,1.519881,-0.208878,0.000000,0.000000,0.000000,0.000000,0.000000,0.000000
15026991.000000,-2.276599,-1.662629,1.349801,-1.468607,1.692968,1.415253,-0.586670,0.198472,0.000865,1.099338,-0.069887,-0.112813,1.089784,-0.023567,-2.718768,38.960003,-23.135269,-4.189882,0.297025,1.605026,-0.202470,0.000000,0.000000,0.000000,0.000000,0.000000,0.000000
15026992.000000,-2.276411,-1.662629,1.350933,-1.468671,1.692847,1.416348,-0.586688,0.192542,0.000577,1.104865,-0.068159,-0.115357,1.076258,-0.025125,-2.718768,38.960003,-23.456619,-4.166078,0.356534,1.682845,-0.254655,0.000000,0.000000,0.000000,0.000000,0.000000,0.000000
15026993.000000,-2.276226,-1.662626,1.352052,-1.468733,1.692739,1.417426,-0.586721,0.186852,0.001498,1.130242,-0.062869,-0.114691,1.073565,-0.031336,-2.667193,38.912395,-23.774002,-4.189882,0.351041,1.767074,-0.175919,0.000000,0.000000,0.000000,0.000000,0.000000,0.000000
15026994.000000,-2.276045,-1.662623,1.353200,-1.468786,1.692634,1.418534,-0.586734,0.182664,0.002762,1.134239,-0.056655,-0.112582,1.075912,-0.025362,-2.619586,38.837017,-24.265945,-4.312868,0.308927,1.727706,-0.248246,0.000000,0.000000,0.000000,0.000000,0.000000,0.000000
15026995.000000,-2.275870,-1.662622,1.354354,-1.468841,1.692523,1.419637,-0.586758,0.183391,0.002398,1.138441,-0.056484,-0.108551,1.075652,-0.024315,-2.544207,38.813213,-24.734085,-4.388246,0.315336,1.747848,-0.235429,0.000000,0.000000,0.000000,0.000000,0.000000,0.000000
15026996.000000,-2.275698,-1.662622,1.355479,-1.468893,1.692406,1.420714,-0.586784,0.176582,0.001599,1.135289,-0.052778,-0.111036,1.076113,-0.024669,-2.345843,38.813213,-25.027664,-4.487428,0.351041,1.877853,-0.188737,0.000000,0.000000,0.000000,0.000000,0.000000,0.000000
15026997.000000,-2.275520,-1.662624,1.356601,-1.468951,1.692290,1.421794,-0.586801,0.181452,0.000509,1.123036,-0.056374,-0.108262,1.071943,-0.021086,-2.322039,38.837017,-25.051468,-4.463624,0.393156,2.072860,-0.241837,0.000000,0.000000,0.000000,0.000000,0.000000,0.000000
15026998.000000,-2.275340,-1.662629,1.357725,-1.469014,1.692179,1.422856,-0.586827,0.181627,-0.004593,1.140509,-0.055375,-0.110474,1.093241,-0.022594,-2.369647,38.912395,-25.003860,-4.312868,0.422452,2.293502,-0.188737,0.000000,0.000000,0.000000,0.000000,0.000000,0.000000
15026999.000000,-2.275162,-1.662634,1.358834,-1.469079,1.692072,1.423944,-0.586842,0.178707,-0.004440,1.130528,-0.058249,-0.110148,1.094624,-0.020103,-2.421221,38.960003,-24.976089,-4.118471,0.405057,2.320052,-0.229020,0.000000,0.000000,0.000000,0.000000,0.000000,0.000000
15027000.000000,-2.274992,-1.662636,1.359948,-1.469140,1.691969,1.425062,-0.586870,0.178422,-0.005853,1.116307,-0.059740,-0.103909,1.095467,-0.016859,-2.445025,38.936199,-24.757889,-3.943910,0.344633,2.060043,-0.182328,0.000000,0.000000,0.000000,0.000000,0.000000,0.000000
15027001.000000,-2.274821,-1.662636,1.361056,-1.469201,1.691870,1.426162,-0.586880,0.171362,-0.003208,1.117702,-0.056935,-0.098753,1.090464,-0.010331,-2.445025,38.888592,-24.658707,-3.797121,0.267728,1.806442,-0.241837,0.000000,0.000000,0.000000,0.000000,0.000000,0.000000
15027002.000000,-2.274656,-1.662638,1.362162,-1.469257,1.691764,1.427250,-0.586905,0.165175,-0.003010,1.107055,-0.056837,-0.102661,1.084111,-0.018284,-2.397418,38.912395,-24.365128,-3.697939,0.273221,1.825668,-0.215287,0.000000,0.000000,0.000000,0.000000,0.000000,0.000000
15027003.000000,-2.274501,-1.662642,1.363282,-1.469314,1.691652,1.428330,-0.586922,0.160793,-0.002800,1.105183,-0.056833,-0.107568,1.076024,-0.017389,-2.322039,38.936199,-24.265945,-3.598757,0.327238,1.981307,-0.241837,0.000000,0.000000,0.000000,0.000000,0.000000,0.000000
15027004.000000,-2.274349,-1.662647,1.364375,-1.469365,1.691540,1.429393,-0.586942,0.154590,-0.005768,1.103789,-0.054416,-0.110022,1.070847,-0.019008,-2.171282,38.960003,-24.043777,-3.598757,0.356534,2.125045,-0.208878,0.000000,0.000000,0.000000,0.000000,0.000000,0.000000
15027005.000000,-2.274207,-1.662657,1.365493,-1.469406,1.691432,1.430492,-0.586958,0.152017,-0.009718,1.098858,-0.050146,-0.111443,1.079499,-0.018217,-1.949114,39.059185,-24.043777,-3.721742,0.374845,2.033492,-0.229020,0.000000,0.000000,0.000000,0.000000,0.000000,0.000000
15027006.000000,-2.274067,-1.662650,1.366606,-1.469445,1.691325,1.431588,-0.586974,0.146667,-0.006649,1.101470,-0.044284,-0.106143,1.092455,-0.012979,-1.703143,38.912395,-24.190567,-3.844728,0.351041,1.812850,-0.248246,0.000000,0.000000,0.000000,0.000000,0.000000,0.000000
15027007.000000,-2.273925,-1.662651,1.367733,-1.469493,1.691216,1.432689,-0.586993,0.145286,-0.004550,1.105126,-0.043338,-0.106240,1.095941,-0.016433,-1.552386,38.888592,-24.313553,-3.820925,0.315336,1.741439,-0.196061,0.000000,0.000000,0.000000,0.000000,0.000000,0.000000
15027008.000000,-2.273778,-1.662653,1.368853,-1.469534,1.691103,1.433793,-0.587006,0.143781,-0.002982,1.104422,-0.041964,-0.108841,1.093896,-0.015656,-1.528582,38.864788,-24.436539,-3.820925,0.332731,1.662704,-0.229020,0.000000,0.000000,0.000000,0.000000,0.000000,0.000000
15027009.000000,-2.273634,-1.662659,1.369944,-1.469582,1.690987,1.434870,-0.587024,0.142676,-0.006644,1.100784,-0.046408,-0.107299,1.086313,-0.017451,-1.528582,38.912395,-24.289749,-3.721742,0.386747,1.735030,-0.202470,0.000000,0.000000,0.000000,0.000000,0.000000,0.000000
15027010.000000,-2.273503,-1.662668,1.371043,-1.469630,1.690871,1.435947,-0.587033,0.139017,-0.006647,1.093906,-0.047333,-0.105464,1.069587,-0.015852,-1.405596,38.983807,-24.095352,-3.570986,0.434354,1.909896,-0.254655,0.000000,0.000000,0.000000,0.000000,0.000000,0.000000
15027011.000000,-2.273356,-1.662671,1.372124,-1.469671,1.690766,1.437028,-0.587049,0.142463,-0.004843,1.108146,-0.045575,-0.106263,1.071371,-0.017252,-1.504779,38.983807,-23.920792,-3.523378,0.410551,1.936446,-0.241837,0.000000,0.000000,0.000000,0.000000,0.000000,0.000000
15027012.000000,-2.273221,-1.662664,1.373224,-1.469706,1.690668,1.438139,-0.587067,0.140112,-0.000103,1.104751,-0.038917,-0.104927,1.083039,-0.015183,-1.453204,38.837017,-23.801773,-3.570986,0.339139,1.812850,-0.182328,0.000000,0.000000,0.000000,0.000000,0.000000,0.000000
15027013.000000,-2.273095,-1.662664,1.374328,-1.469738,1.690570,1.439264,-0.587070,0.137650,0.001371,1.098564,-0.037883,-0.104225,1.094165,-0.012459,-1.354022,38.765606,-23.678787,-3.598757,0.273221,1.591293,-0.274796,0.000000,0.000000,0.000000,0.000000,0.000000,0.000000
15027014.000000,-2.272965,-1.662659,1.375412,-1.469778,1.690458,1.440351,-0.587085,0.134128,0.003617,1.092509,-0.036439,-0.103251,1.093683,-0.014665,-1.330218,38.642620,-23.579605,-3.523378,0.303434,1.611434,-0.261979,0.000000,0.000000,0.000000,0.000000,0.000000,0.000000
15027015.000000,-2.272843,-1.662664,1.376517,-1.469819,1.690351,1.441426,-0.587097,0.127702,0.001725,1.094332,-0.040080,-0.102253,1.082715,-0.011080,-1.231036,38.666424,-23.579605,-3.376589,0.332731,1.871444,-0.261979,0.000000,0.000000,0.000000,0.000000,0.000000,0.000000
15027016.000000,-2.272720,-1.662659,1.377651,-1.469854,1.690244,1.442499,-0.587115,0.126628,0.000779,1.098980,-0.040982,-0.101149,1.107314,-0.010093,-1.183428,38.543438,-23.920792,-3.301210,0.356534,2.033492,-0.215287,0.000000,0.000000,0.000000,0.000000,0.000000,0.000000
15027017.000000,-2.272601,-1.662660,1.378767,-1.469886,1.690137,1.443607,-0.587122,0.122985,0.000183,1.099275,-0.037687,-0.099819,1.107525,-0.010995,-1.032672,38.543438,-24.313553,-3.249635,0.374845,1.949264,-0.248246,0.000000,0.000000,0.000000,0.000000,0.000000,0.000000
15027018.000000,-2.272487,-1.662654,1.379898,-1.469911,1.690038,1.444716,-0.587143,0.117665,0.002098,1.101866,-0.033433,-0.096277,1.103094,-0.010717,-0.885882,38.448223,-24.757889,-3.277406,0.315336,1.844894,-0.182328,0.000000,0.000000,0.000000,0.000000,0.000000,0.000000
15027019.000000,-2.272370,-1.662654,1.381016,-1.469935,1.689931,1.445810,-0.587152,0.119849,-0.001279,1.104846,-0.030514,-0.101129,1.095257,-0.006396,-0.834307,38.424419,-25.174454,-3.301210,0.327238,1.741439,-0.221696,0.000000,0.000000,0.000000,0.000000,0.000000,0.000000
15027020.000000,-2.272258,-1.662655,1.382140,-1.469961,1.689821,1.446896,-0.587162,0.115927,-0.001805,1.104437,-0.026401,-0.105538,1.086000,-0.009032,-0.711321,38.448223,-25.396622,-3.277406,0.369352,1.825668,-0.235429,0.000000,0.000000,0.000000,0.000000,0.000000,0.000000
15027021.000000,-2.272145,-1.662661,1.383255,-1.469992,1.689718,1.447977,-0.587180,0.115293,-0.003727,1.097974,-0.029442,-0.103873,1.077117,-0.013191,-0.687518,38.543438,-25.297440,-3.126650,0.405057,2.001449,-0.188737,0.000000,0.000000,0.000000,0.000000,0.000000,0.000000
15027022.000000,-2.272027,-1.662673,1.384345,-1.470018,1.689609,1.449043,-0.587184,0.116779,-0.006791,1.094160,-0.027728,-0.099758,1.077760,-0.007573,-0.762896,38.717999,-25.099075,-3.003664,0.488370,2.118636,-0.248246,0.000000,0.000000,0.000000,0.000000,0.000000,0.000000
15027023.000000,-2.271913,-1.662680,1.385447,-1.470044,1.689509,1.450119,-0.587197,0.115356,-0.006921,1.089334,-0.025799,-0.097719,1.074486,-0.011349,-0.810504,38.813213,-24.928482,-2.904482,0.482877,2.169906,-0.221696,0.000000,0.000000,0.000000,0.000000,0.000000,0.000000
15027024.000000,-2.271804,-1.662683,1.386542,-1.470066,1.689419,1.451209,-0.587204,0.114102,-0.005296,1.090773,-0.023664,-0.092951,1.087698,-0.012284,-0.786700,38.837017,-24.829300,-2.833071,0.386747,1.968490,-0.248246,0.000000,0.000000,0.000000,0.000000,0.000000,0.000000
15027025.000000,-2.271694,-1.662690,1.387635,-1.470091,1.689329,1.452321,-0.587216,0.113986,-0.004831,1.087431,-0.023393,-0.090596,1.099645,-0.014755,-0.786700,38.888592,-24.511917,-2.706117,0.320829,1.689254,-0.229020,0.000000,0.000000,0.000000,0.000000,0.000000,0.000000
15027026.000000,-2.271590,-1.662694,1.388741,-1.470110,1.689228,1.453419,-0.587226,0.110572,-0.004405,1.088005,-0.018089,-0.093094,1.099970,-0.011057,-0.786700,38.936199,-24.341324,-2.658510,0.356534,1.630660,-0.229020,0.000000,0.000000,0.000000,0.000000,0.000000,0.000000
15027027.000000,-2.271495,-1.662698,1.389824,-1.470126,1.689126,1.454489,-0.587236,0.105639,-0.003546,1.085769,-0.016674,-0.094691,1.090127,-0.011929,-0.663714,38.960003,-24.142960,-2.634706,0.386747,1.721298,-0.254655,0.000000,0.000000,0.000000,0.000000,0.000000,0.000000
15027028.000000,-2.271399,-1.662701,1.390920,-1.470137,1.689029,1.455580,-0.587245,0.104871,-0.002960,1.081979,-0.014687,-0.095230,1.078419,-0.014423,-0.564532,38.983807,-23.996170,-2.658510,0.410551,1.760665,-0.235429,0.000000,0.000000,0.000000,0.000000,0.000000,0.000000
15027029.000000,-2.271308,-1.662704,1.392015,-1.470141,1.688929,1.456667,-0.587254,0.098094,-0.004601,1.108238,-0.007944,-0.096606,1.079472,-0.015507,-0.441546,38.960003,-24.043777,-2.781496,0.452665,1.735030,-0.235429,0.000000,0.000000,0.000000,0.000000,0.000000,0.000000
15027030.000000,-2.271223,-1.662703,1.393118,-1.470138,1.688834,1.457787,-0.587265,0.091924,-0.005957,1.102079,-0.001985,-0.094193,1.085921,-0.012132,-0.266986,38.936199,-24.071548,-2.956056,0.416959,1.546432,-0.221696,0.000000,0.000000,0.000000,0.000000,0.000000,0.000000
15027031.000000,-2.271134,-1.662705,1.394238,-1.470138,1.688739,1.458897,-0.587271,0.090681,-0.006474,1.100597,-0.002744,-0.091991,1.093681,-0.012737,-0.191607,38.888592,-24.265945,-3.055238,0.374845,1.500655,-0.248246,0.000000,0.000000,0.000000,0.000000,0.000000,0.000000
15027032.000000,-2.271044,-1.662710,1.395325,-1.470142,1.688642,1.459981,-0.587285,0.088602,-0.008587,1.098771,-0.002527,-0.092580,1.095628,-0.012045,-0.116229,38.912395,-24.242142,-3.055238,0.369352,1.591293,-0.182328,0.000000,0.000000,0.000000,0.000000,0.000000,0.000000
15027033.000000,-2.270950,-1.662712,1.396415,-1.470142,1.688540,1.461072,-0.587287,0.089148,-0.009057,1.088921,-0.001651,-0.094195,1.091291,-0.006660,-0.144000,38.888592,-24.095352,-3.079042,0.398649,1.754256,-0.241837,0.000000,0.000000,0.000000,0.000000,0.000000,0.000000
