chaoyuefei/paper-gmrm-data/robot_logs/onetime_s2_dq_mrm_min_0.30_log_20260314_181723.csv
# time_ms,q_0,q_1,q_2,q_3,q_4,q_5,q_6,dq_0,dq_1,dq_2,dq_3,dq_4,dq_5,dq_6,tau_J_0,tau_J_1,tau_J_2,tau_J_3,tau_J_4,tau_J_5,tau_J_6,O_dP_EE_c_0,O_dP_EE_c_1,O_dP_EE_c_2,O_dP_EE_c_3,O_dP_EE_c_4,O_dP_EE_c_5
14908002.000000,-2.418266,-1.662639,1.039334,-1.352543,1.798393,1.078685,-0.546134,-0.000221,0.000756,0.001101,-0.001667,-0.000331,0.000218,-0.000279,-0.017047,41.483196,-20.830276,-5.697450,0.972684,1.305648,-0.182328,0.000000,0.000000,0.000000,0.000000,0.000000,0.000000
14908003.000000,-2.418264,-1.662638,1.039332,-1.352537,1.798395,1.078685,-0.546131,0.000502,0.000504,0.000177,0.000652,0.000457,0.000383,0.001035,-0.044818,41.483196,-20.806473,-5.772829,0.954374,1.299239,-0.215287,0.000000,0.000000,0.000000,0.000000,0.000000,0.000000
14908004.000000,-2.418266,-1.662639,1.039332,-1.352539,1.798393,1.078688,-0.546134,-0.000315,-0.000221,0.000118,-0.000122,-0.000373,0.000018,-0.000531,-0.017047,41.507000,-20.806473,-5.749025,0.972684,1.305648,-0.182328,0.000000,0.000000,0.000000,0.000000,0.000000,0.000000
14908005.000000,-2.418264,-1.662637,1.039334,-1.352537,1.798395,1.078684,-0.546133,0.000440,0.000410,0.000636,0.000475,0.000192,-0.000463,0.000155,-0.044818,41.483196,-20.830276,-5.772829,0.960782,1.318465,-0.196061,0.000000,0.000000,0.000000,0.000000,0.000000,0.000000
14908006.000000,-2.418262,-1.662642,1.039334,-1.352540,1.798395,1.078683,-0.546136,0.006555,-0.002458,0.000424,0.001021,0.001247,-0.001495,-0.003620,0.276533,41.459393,-20.830276,-5.673646,0.930570,1.350509,-0.221696,0.000000,0.000000,0.000000,0.000000,0.000000,0.000000
14908007.000000,-2.418254,-1.662640,1.039335,-1.352536,1.798393,1.078680,-0.546152,0.016923,-0.001911,0.001803,0.003799,0.003917,0.001660,-0.006568,1.268354,41.189617,-20.754898,-5.526857,0.847257,1.532699,-0.248246,0.000000,0.000000,0.000000,0.000000,0.000000,0.000000
14908008.000000,-2.418225,-1.662645,1.039348,-1.352534,1.798396,1.078680,-0.546190,0.024362,-0.004191,0.004968,0.003731,0.000013,0.003411,-0.014347,2.803693,40.872234,-20.754898,-5.276918,0.673307,1.747848,-0.248246,0.000000,0.000000,0.000000,0.000000,0.000000,0.000000
14908009.000000,-2.418175,-1.662648,1.039358,-1.352542,1.798384,1.078700,-0.546250,0.027899,-0.000583,0.007731,-0.002489,-0.003604,0.009347,-0.035164,4.660383,40.455669,-20.631912,-4.884157,0.625699,1.851302,-0.221696,0.000000,0.000000,0.000000,0.000000,0.000000,0.000000
14908010.000000,-2.418119,-1.662645,1.039380,-1.352552,1.798361,1.078749,-0.546321,0.034594,0.000050,0.008900,-0.005599,-0.008181,0.024536,-0.051738,6.592451,39.963726,-20.608109,-4.535036,0.632108,1.786300,-0.274796,0.000000,0.000000,0.000000,0.000000,0.000000,0.000000
14908011.000000,-2.418020,-1.662644,1.039412,-1.352573,1.798330,1.078826,-0.546424,0.046872,-0.001103,0.016700,-0.017611,-0.016024,0.044735,-0.068670,8.100019,39.523357,-20.584305,-4.166078,0.644010,1.591293,-0.235429,0.000000,0.000000,0.000000,0.000000,0.000000,0.000000
14908012.000000,-2.417922,-1.662637,1.039451,-1.352612,1.798286,1.078926,-0.546544,0.063825,0.002255,0.026128,-0.023923,-0.026556,0.068588,-0.083488,9.559979,39.035381,-20.560501,-3.769350,0.661405,1.402694,-0.261979,0.000000,0.000000,0.000000,0.000000,0.000000,0.000000
14908013.000000,-2.417806,-1.662633,1.039496,-1.352656,1.798222,1.079036,-0.546684,0.078455,0.002138,0.031859,-0.031686,-0.040281,0.084889,-0.100465,10.825543,38.642620,-20.485123,-3.499574,0.709928,1.370651,-0.261979,0.000000,0.000000,0.000000,0.000000,0.000000,0.000000
14908014.000000,-2.417679,-1.662629,1.039553,-1.352718,1.798151,1.079165,-0.546848,0.092339,0.005136,0.040718,-0.041915,-0.052124,0.100011,-0.117814,11.964154,38.249859,-20.461319,-3.178224,0.679716,1.396285,-0.235429,0.000000,0.000000,0.000000,0.000000,0.000000,0.000000
14908015.000000,-2.417540,-1.662620,1.039628,-1.352781,1.798065,1.079310,-0.547022,0.105231,0.007560,0.052102,-0.051376,-0.062631,0.118240,-0.135784,12.975812,37.861065,-20.485123,-3.055238,0.571683,1.494247,-0.281205,0.000000,0.000000,0.000000,0.000000,0.000000,0.000000
14908016.000000,-2.417389,-1.662606,1.039712,-1.352866,1.797947,1.079488,-0.547217,0.117136,0.008813,0.064117,-0.063724,-0.085683,0.136667,-0.151754,13.844647,37.492107,-20.512894,-2.856874,0.506681,1.591293,-0.208878,0.000000,0.000000,0.000000,0.000000,0.000000,0.000000
14908017.000000,-2.417215,-1.662587,1.039816,-1.352968,1.797815,1.079698,-0.547414,0.138700,0.013534,0.078626,-0.075614,-0.101913,0.162668,-0.165677,14.562726,37.099346,-20.631912,-2.682314,0.393156,1.591293,-0.202470,0.000000,0.000000,0.000000,0.000000,0.000000,0.000000
14908018.000000,-2.417032,-1.662565,1.039933,-1.353078,1.797660,1.079939,-0.547611,0.154509,0.018177,0.093529,-0.086221,-0.117522,0.189851,-0.177246,15.153852,36.658978,-20.782669,-2.583132,0.356534,1.552840,-0.235429,0.000000,0.000000,0.000000,0.000000,0.000000,0.000000
14908019.000000,-2.416829,-1.662541,1.040065,-1.353215,1.797478,1.080209,-0.547818,0.168648,0.017838,0.108532,-0.102506,-0.137652,0.214246,-0.180701,15.602155,36.242413,-20.977066,-2.384767,0.422452,1.526290,-0.208878,0.000000,0.000000,0.000000,0.000000,0.000000,0.000000
14908020.000000,-2.416606,-1.662517,1.040207,-1.353366,1.797275,1.080498,-0.548013,0.187211,0.018673,0.120188,-0.117360,-0.159424,0.237882,-0.180530,15.848126,35.778240,-21.076248,-2.214174,0.452665,1.481429,-0.241837,0.000000,0.000000,0.000000,0.000000,0.000000,0.000000
14908021.000000,-2.416369,-1.662501,1.040363,-1.353525,1.797046,1.080814,-0.548215,0.203382,0.017814,0.133861,-0.127810,-0.187269,0.261539,-0.189048,16.098066,35.508465,-21.199234,-2.214174,0.566190,1.507064,-0.196061,0.000000,0.000000,0.000000,0.000000,0.000000,0.000000
14908022.000000,-2.416116,-1.662483,1.040536,-1.353708,1.796807,1.081150,-0.548414,0.221049,0.017477,0.143390,-0.145914,-0.208816,0.286041,-0.192681,16.344038,35.238689,-21.294449,-2.190370,0.547880,1.507064,-0.208878,0.000000,0.000000,0.000000,0.000000,0.000000,0.000000
14908023.000000,-2.415853,-1.662468,1.040709,-1.353903,1.796545,1.081511,-0.548606,0.235965,0.017606,0.152764,-0.158742,-0.223741,0.305262,-0.190977,16.542402,35.091900,-21.322220,-2.214174,0.482877,1.474105,-0.229020,0.000000,0.000000,0.000000,0.000000,0.000000,0.000000
14908024.000000,-2.415567,-1.662458,1.040900,-1.354123,1.796263,1.081884,-0.548810,0.251643,0.016549,0.167988,-0.173886,-0.245110,0.329267,-0.196802,16.665388,35.020489,-21.417435,-2.114992,0.488370,1.552840,-0.182328,0.000000,0.000000,0.000000,0.000000,0.000000,0.000000
14908025.000000,-2.415271,-1.662454,1.041094,-1.354354,1.795969,1.082267,-0.549000,0.264034,0.011198,0.179106,-0.192091,-0.258798,0.341958,-0.188360,16.764570,35.020489,-21.393631,-2.015810,0.422452,1.670028,-0.221696,0.000000,0.000000,0.000000,0.000000,0.000000,0.000000
14908026.000000,-2.414950,-1.662448,1.041302,-1.354607,1.795658,1.082687,-0.549190,0.282741,0.007589,0.189557,-0.212899,-0.276132,0.359585,-0.187786,16.764570,35.020489,-21.393631,-1.869020,0.362943,1.695663,-0.221696,0.000000,0.000000,0.000000,0.000000,0.000000,0.000000
14908027.000000,-2.414620,-1.662445,1.041516,-1.354880,1.795323,1.083132,-0.549382,0.297157,0.005709,0.195342,-0.231181,-0.291212,0.392903,-0.189073,16.863752,34.996685,-21.322220,-1.718263,0.381254,1.689254,-0.175919,0.000000,0.000000,0.000000,0.000000,0.000000,0.000000
14908028.000000,-2.414274,-1.662446,1.041733,-1.355167,1.794973,1.083599,-0.549567,0.313619,0.003319,0.203361,-0.249588,-0.306095,0.416237,-0.186253,16.863752,35.020489,-21.223038,-1.519899,0.374845,1.605026,-0.202470,0.000000,0.000000,0.000000,0.000000,0.000000,0.000000
14908029.000000,-2.413910,-1.662443,1.041973,-1.355469,1.794616,1.084085,-0.549755,0.333179,0.002265,0.212133,-0.263078,-0.326104,0.431726,-0.187114,16.911360,35.020489,-21.246841,-1.448488,0.405057,1.539108,-0.196061,0.000000,0.000000,0.000000,0.000000,0.000000,0.000000
14908030.000000,-2.413537,-1.662452,1.042219,-1.355781,1.794224,1.084593,-0.549941,0.351964,-0.000771,0.218814,-0.276388,-0.342694,0.456630,-0.187284,17.038313,35.119671,-21.123856,-1.396913,0.458158,1.513473,-0.202470,0.000000,0.000000,0.000000,0.000000,0.000000,0.000000
14908031.000000,-2.413163,-1.662452,1.042468,-1.356098,1.793820,1.085120,-0.550130,0.357651,-0.000484,0.227557,-0.289048,-0.359364,0.477327,-0.186969,17.208906,35.119671,-21.000870,-1.373109,0.458158,1.559249,-0.155778,0.000000,0.000000,0.000000,0.000000,0.000000,0.000000
14908032.000000,-2.412772,-1.662452,1.042733,-1.356439,1.793406,1.085675,-0.550298,0.367044,-0.000858,0.238817,-0.302426,-0.373161,0.498741,-0.174184,17.435041,35.143475,-20.953262,-1.297731,0.506681,1.584884,-0.229020,0.000000,0.000000,0.000000,0.000000,0.000000,0.000000
14908033.000000,-2.412368,-1.662453,1.043001,-1.356781,1.792970,1.086240,-0.550472,0.379391,-0.001112,0.247187,-0.314388,-0.388275,0.523781,-0.175491,17.629438,35.167278,-20.877884,-1.297731,0.464567,1.624252,-0.229020,0.000000,0.000000,0.000000,0.000000,0.000000,0.000000
14908034.000000,-2.411948,-1.662454,1.043284,-1.357148,1.792521,1.086834,-0.550650,0.391748,-0.001286,0.257347,-0.327049,-0.412383,0.548196,-0.176998,17.803999,35.191082,-20.830276,-1.273927,0.422452,1.611434,-0.149369,0.000000,0.000000,0.000000,0.000000,0.000000,0.000000
14908035.000000,-2.411518,-1.662449,1.043581,-1.357535,1.792063,1.087453,-0.550813,0.403959,0.000823,0.265608,-0.340748,-0.429125,0.584888,-0.171460,18.053938,35.119671,-20.806473,-1.075563,0.428861,1.532699,-0.229020,0.000000,0.000000,0.000000,0.000000,0.000000,0.000000
14908036.000000,-2.411076,-1.662451,1.043878,-1.357929,1.791579,1.088106,-0.550984,0.413618,-0.000001,0.273033,-0.359397,-0.437148,0.606632,-0.175677,18.248335,35.143475,-20.683487,-0.928774,0.416959,1.454879,-0.182328,0.000000,0.000000,0.000000,0.000000,0.000000,0.000000
14908037.000000,-2.410611,-1.662449,1.044194,-1.358346,1.791092,1.088780,-0.551151,0.428415,0.000561,0.283677,-0.371602,-0.454186,0.618531,-0.170179,18.375288,35.119671,-20.659683,-0.678835,0.440763,1.344100,-0.155778,0.000000,0.000000,0.000000,0.000000,0.000000,0.000000
14908038.000000,-2.410143,-1.662439,1.044513,-1.358771,1.790579,1.089455,-0.551310,0.439122,0.003812,0.299941,-0.399290,-0.465396,0.640482,-0.166868,18.573652,34.972881,-20.608109,-0.484438,0.500272,1.285506,-0.221696,0.000000,0.000000,0.000000,0.000000,0.000000,0.000000
14908039.000000,-2.409657,-1.662433,1.044842,-1.359204,1.790059,1.090157,-0.551478,0.444903,0.006368,0.305704,-0.406152,-0.487667,0.654471,-0.165164,18.545881,34.945110,-20.485123,-0.432863,0.578092,1.253463,-0.163102,0.000000,0.000000,0.000000,0.000000,0.000000,0.000000
14908040.000000,-2.409163,-1.662422,1.045190,-1.359661,1.789544,1.090878,-0.551628,0.450294,0.006739,0.319421,-0.421041,-0.498013,0.668479,-0.157737,17.879377,34.849895,-20.191544,-0.508241,0.661405,1.292831,-0.241837,0.000000,0.000000,0.000000,0.000000,0.000000,0.000000
14908041.000000,-2.408686,-1.662410,1.045554,-1.360123,1.789014,1.091590,-0.551783,0.453488,0.009890,0.334425,-0.434555,-0.501647,0.690267,-0.160682,16.665388,34.627728,-19.774979,-0.805788,0.751127,1.402694,-0.248246,0.000000,0.000000,0.000000,0.000000,0.000000,0.000000
14908042.000000,-2.408207,-1.662401,1.045951,-1.360606,1.788495,1.092345,-0.551955,0.457279,0.006730,0.354393,-0.444859,-0.513950,0.704274,-0.166031,14.907880,34.357952,-19.283035,-1.198549,0.811552,1.442062,-0.169511,0.000000,0.000000,0.000000,0.000000,0.000000,0.000000
14908043.000000,-2.407741,-1.662380,1.046367,-1.361087,1.787975,1.093107,-0.552108,0.461344,0.012339,0.372773,-0.456762,-0.504587,0.722640,-0.161973,13.027387,33.869976,-18.572891,-1.642885,0.709928,1.435653,-0.261979,0.000000,0.000000,0.000000,0.000000,0.000000,0.000000
14908044.000000,-2.407271,-1.662372,1.046810,-1.361585,1.787462,1.093885,-0.552271,0.467964,0.013777,0.391419,-0.461515,-0.498141,0.734460,-0.161725,11.047711,33.477215,-17.910355,-1.992006,0.566190,1.344100,-0.202470,0.000000,0.000000,0.000000,0.000000,0.000000,0.000000
14908045.000000,-2.406806,-1.662369,1.047276,-1.362089,1.786963,1.094683,-0.552428,0.471334,0.012762,0.411514,-0.467818,-0.497581,0.745620,-0.157057,9.238629,33.159832,-17.247818,-2.337160,0.386747,1.188461,-0.241837,0.000000,0.000000,0.000000,0.000000,0.000000,0.000000
14908046.000000,-2.406361,-1.662365,1.047753,-1.362586,1.786466,1.095471,-0.552595,0.469327,0.013185,0.426229,-0.473202,-0.492172,0.764083,-0.162142,7.754865,32.790874,-16.656693,-2.559328,0.231107,1.006271,-0.169511,0.000000,0.000000,0.000000,0.000000,0.000000,0.000000
14908047.000000,-2.405905,-1.662364,1.048246,-1.363079,1.785975,1.096249,-0.552748,0.464784,0.011643,0.441001,-0.475686,-0.497370,0.762997,-0.158388,6.342512,32.497295,-16.069534,-2.833071,0.112089,0.908309,-0.188737,0.000000,0.000000,0.000000,0.000000,0.000000,0.000000
14908048.000000,-2.405455,-1.662368,1.048739,-1.363568,1.785489,1.097009,-0.552901,0.465230,0.008817,0.452387,-0.475996,-0.491940,0.760074,-0.156159,5.203901,32.279095,-15.355423,-3.178224,0.076383,0.915633,-0.196061,0.000000,0.000000,0.000000,0.000000,0.000000,0.000000
14908049.000000,-2.405014,-1.662374,1.049236,-1.364045,1.784991,1.097787,-0.553055,0.455244,0.006320,0.461846,-0.476237,-0.485840,0.763921,-0.155638,4.287458,32.084698,-14.792068,-3.400392,0.207303,0.882674,-0.163102,0.000000,0.000000,0.000000,0.000000,0.000000,0.000000
14908050.000000,-2.404570,-1.662379,1.049736,-1.364512,1.784512,1.098554,-0.553206,0.447611,0.002095,0.470133,-0.467110,-0.486668,0.760378,-0.152262,3.545576,31.862530,-14.204910,-3.820925,0.249418,0.908309,-0.208878,0.000000,0.000000,0.000000,0.000000,0.000000,0.000000
14908051.000000,-2.404118,-1.662382,1.050238,-1.364990,1.784032,1.099306,-0.553363,0.449006,0.002606,0.486785,-0.473184,-0.475779,0.757388,-0.156615,2.728315,31.616558,-13.712967,-3.892336,0.273221,0.966903,-0.182328,0.000000,0.000000,0.000000,0.000000,0.000000,0.000000
14908052.000000,-2.403656,-1.662382,1.050739,-1.365477,1.783559,1.100067,-0.553509,0.448895,-0.000038,0.483241,-0.472901,-0.480144,0.750634,-0.153673,1.962629,31.374554,-13.149612,-3.745546,0.308927,0.966903,-0.221696,0.000000,0.000000,0.000000,0.000000,0.000000,0.000000
14908053.000000,-2.403189,-1.662386,1.051254,-1.365970,1.783086,1.100826,-0.553659,0.448057,-0.003530,0.491825,-0.481029,-0.470459,0.767994,-0.151607,1.292158,31.199993,-12.756851,-3.475771,0.308927,0.934859,-0.248246,0.000000,0.000000,0.000000,0.000000,0.000000,0.000000
14908054.000000,-2.402708,-1.662383,1.051759,-1.366455,1.782622,1.101593,-0.553819,0.454164,-0.001494,0.494451,-0.481464,-0.462744,0.771443,-0.154149,0.474897,30.957989,-12.364090,-3.154421,0.273221,0.869857,-0.182328,0.000000,0.000000,0.000000,0.000000,0.000000,0.000000
14908055.000000,-2.402230,-1.662371,1.052284,-1.366942,1.782173,1.102352,-0.553970,0.456806,0.003008,0.499091,-0.481334,-0.454261,0.762453,-0.151683,-0.167803,30.589031,-12.165726,-2.904482,0.178007,0.857040,-0.202470,0.000000,0.000000,0.000000,0.000000,0.000000,0.000000
14908056.000000,-2.401763,-1.662363,1.052809,-1.367420,1.781715,1.103105,-0.554122,0.459565,0.007516,0.523555,-0.492336,-0.447354,0.759954,-0.152074,-0.635943,30.295452,-12.042740,-2.634706,0.100187,0.876266,-0.188737,0.000000,0.000000,0.000000,0.000000,0.000000,0.000000
14908057.000000,-2.401295,-1.662346,1.053340,-1.367887,1.781257,1.103853,-0.554271,0.459709,0.009351,0.521842,-0.480364,-0.448665,0.756822,-0.151803,-0.961260,29.930462,-11.872147,-2.658510,0.100187,0.889083,-0.188737,0.000000,0.000000,0.000000,0.000000,0.000000,0.000000
14908058.000000,-2.400826,-1.662324,1.053876,-1.368354,1.780802,1.104602,-0.554421,0.459034,0.015507,0.522985,-0.475716,-0.450748,0.753062,-0.148458,-1.159625,29.490093,-11.725357,-2.757692,0.052579,0.999862,-0.229020,0.000000,0.000000,0.000000,0.000000,0.000000,0.000000
14908059.000000,-2.400370,-1.662308,1.054420,-1.368807,1.780338,1.105337,-0.554577,0.456055,0.015027,0.530289,-0.467564,-0.450799,0.752843,-0.149676,-1.306414,29.121136,-11.649979,-2.856874,0.088285,1.155502,-0.215287,0.000000,0.000000,0.000000,0.000000,0.000000,0.000000
14908060.000000,-2.399897,-1.662281,1.054977,-1.369256,1.779886,1.106081,-0.554735,0.454888,0.020033,0.538398,-0.457598,-0.458412,0.741631,-0.150525,-1.528582,28.656963,-11.578568,-3.079042,0.159696,1.207687,-0.202470,0.000000,0.000000,0.000000,0.000000,0.000000,0.000000
14908061.000000,-2.399434,-1.662262,1.055543,-1.369707,1.779424,1.106833,-0.554897,0.458090,0.020148,0.544808,-0.450886,-0.454622,0.748227,-0.155483,-1.703143,28.339581,-11.479385,-3.202028,0.195402,1.142684,-0.196061,0.000000,0.000000,0.000000,0.000000,0.000000,0.000000
14908062.000000,-2.398953,-1.662244,1.056100,-1.370160,1.778963,1.107606,-0.555051,0.461269,0.018712,0.550165,-0.448707,-0.448801,0.756866,-0.153241,-2.072100,28.093609,-11.257217,-3.202028,0.237516,0.966903,-0.208878,0.000000,0.000000,0.000000,0.000000,0.000000,0.000000
14908063.000000,-2.398467,-1.662228,1.056681,-1.370600,1.778518,1.108379,-0.555212,0.463999,0.019284,0.557889,-0.443945,-0.446605,0.755377,-0.148106,-2.445025,27.923016,-11.134232,-3.277406,0.225614,0.869857,-0.182328,0.000000,0.000000,0.000000,0.000000,0.000000,0.000000
14908064.000000,-2.397992,-1.662215,1.057252,-1.371032,1.778063,1.109126,-0.555357,0.464017,0.018232,0.562182,-0.440565,-0.440238,0.750380,-0.150632,-2.742571,27.823833,-10.987442,-3.400392,0.219205,0.869857,-0.235429,0.000000,0.000000,0.000000,0.000000,0.000000,0.000000
14908065.000000,-2.397501,-1.662210,1.057832,-1.371466,1.777622,1.109878,-0.555516,0.467812,0.011851,0.562743,-0.438569,-0.440201,0.744070,-0.151811,-3.087725,27.847637,-10.618484,-3.499574,0.147794,0.908309,-0.208878,0.000000,0.000000,0.000000,0.000000,0.000000,0.000000
14908066.000000,-2.397006,-1.662199,1.058426,-1.371906,1.777189,1.110626,-0.555673,0.482813,0.009761,0.568847,-0.436635,-0.438154,0.745755,-0.151480,-3.460650,27.776226,-10.324905,-3.475771,0.081876,0.934859,-0.188737,0.000000,0.000000,0.000000,0.000000,0.000000,0.000000
14908067.000000,-2.396515,-1.662194,1.059010,-1.372320,1.776750,1.111374,-0.555820,0.486415,0.009258,0.575739,-0.430551,-0.434283,0.746863,-0.154832,-3.829607,27.800030,-9.983719,-3.646364,0.064481,0.974227,-0.221696,0.000000,0.000000,0.000000,0.000000,0.000000,0.000000
14908068.000000,-2.396016,-1.662192,1.059617,-1.372739,1.776326,1.112131,-0.555976,0.491724,0.009155,0.578861,-0.425769,-0.427418,0.750157,-0.154227,-4.202532,27.823833,-9.737747,-3.797121,0.058073,0.960494,-0.188737,0.000000,0.000000,0.000000,0.000000,0.000000,0.000000
14908069.000000,-2.395524,-1.662188,1.060231,-1.373151,1.775895,1.112883,-0.556127,0.489881,0.009132,0.602673,-0.423423,-0.423934,0.748727,-0.152347,-4.575457,27.847637,-9.638565,-3.943910,0.010465,0.915633,-0.208878,0.000000,0.000000,0.000000,0.000000,0.000000,0.000000
14908070.000000,-2.395018,-1.662191,1.060864,-1.373556,1.775453,1.113636,-0.556274,0.492990,0.008158,0.607533,-0.417491,-0.428113,0.744123,-0.151356,-5.019793,27.923016,-9.563187,-4.142274,0.064481,0.901900,-0.202470,0.000000,0.000000,0.000000,0.000000,0.000000,0.000000
14908071.000000,-2.394520,-1.662192,1.061506,-1.373966,1.775034,1.114382,-0.556424,0.491595,0.005085,0.617717,-0.415786,-0.423662,0.756970,-0.146862,-5.265765,27.970623,-9.491776,-4.213686,0.088285,0.895492,-0.182328,0.000000,0.000000,0.000000,0.000000,0.000000,0.000000
14908072.000000,-2.394020,-1.662194,1.062162,-1.374362,1.774605,1.115144,-0.556567,0.495457,0.002196,0.630551,-0.409740,-0.422554,0.760288,-0.145629,-5.563311,28.046001,-9.662369,-4.364442,0.052579,0.908309,-0.202470,0.000000,0.000000,0.000000,0.000000,0.000000,0.000000
14908073.000000,-2.393512,-1.662191,1.062842,-1.374763,1.774186,1.115893,-0.556716,0.497669,0.002541,0.642207,-0.409100,-0.428440,0.751779,-0.143584,-5.912432,28.018230,-9.832962,-4.439821,0.015958,0.966903,-0.163102,0.000000,0.000000,0.000000,0.000000,0.000000,0.000000
14908074.000000,-2.393007,-1.662198,1.063527,-1.375159,1.773771,1.116652,-0.556857,0.501463,-0.000306,0.666978,-0.408556,-0.419762,0.757064,-0.142532,-6.281390,28.117413,-9.955948,-4.586610,-0.043551,0.863448,-0.221696,0.000000,0.000000,0.000000,0.000000,0.000000,0.000000
14908075.000000,-2.392493,-1.662199,1.064213,-1.375545,1.773337,1.117419,-0.557011,0.501777,-0.000520,0.673036,-0.409174,-0.429273,0.763009,-0.146766,-6.626544,28.141216,-10.102737,-4.661989,-0.019747,0.804855,-0.169511,0.000000,0.000000,0.000000,0.000000,0.000000,0.000000
14908077.000000,-2.391471,-1.662213,1.065624,-1.376328,1.772501,1.118886,-0.557291,0.502126,-0.003843,0.690113,-0.402795,-0.418782,0.744820,-0.145957,-7.273211,28.339581,-10.424088,-4.733400,-0.025240,1.169235,-0.248246,0.000000,0.000000,0.000000,0.000000,0.000000,0.000000
14908078.000000,-2.390951,-1.662225,1.066346,-1.376724,1.772074,1.119632,-0.557449,0.507115,-0.006451,0.697049,-0.398556,-0.426210,0.740485,-0.150868,-7.642169,28.510174,-10.447891,-4.757204,0.064481,1.207687,-0.155778,0.000000,0.000000,0.000000,0.000000,0.000000,0.000000
14908079.000000,-2.390446,-1.662237,1.067073,-1.377127,1.771644,1.120379,-0.557585,0.515685,-0.007658,0.700821,-0.398473,-0.417860,0.742442,-0.142457,-7.864336,28.656963,-10.372513,-4.685792,0.123990,1.162826,-0.235429,0.000000,0.000000,0.000000,0.000000,0.000000,0.000000
14908080.000000,-2.389925,-1.662248,1.067802,-1.377527,1.771224,1.121120,-0.557731,0.517896,-0.008482,0.703819,-0.398436,-0.415017,0.741948,-0.141249,-8.237262,28.803753,-10.277298,-4.586610,0.129484,1.155502,-0.188737,0.000000,0.000000,0.000000,0.000000,0.000000,0.000000
14908081.000000,-2.389410,-1.662256,1.068556,-1.377933,1.770808,1.121862,-0.557873,0.512547,-0.007282,0.710660,-0.401360,-0.407910,0.741135,-0.142827,-8.459430,28.875164,-10.324905,-4.463624,0.112089,1.149093,-0.196061,0.000000,0.000000,0.000000,0.000000,0.000000,0.000000
14908082.000000,-2.388914,-1.662267,1.069299,-1.378333,1.770394,1.122602,-0.558010,0.507405,-0.008257,0.715276,-0.399755,-0.406341,0.742499,-0.142024,-8.411822,29.021954,-10.154312,-4.388246,0.112089,1.090499,-0.229020,0.000000,0.000000,0.000000,0.000000,0.000000,0.000000
14908083.000000,-2.388408,-1.662280,1.070055,-1.378732,1.769984,1.123338,-0.558158,0.504279,-0.008914,0.722279,-0.398479,-0.412635,0.732015,-0.141082,-8.459430,29.168743,-9.955948,-4.312868,0.088285,1.039230,-0.182328,0.000000,0.000000,0.000000,0.000000,0.000000,0.000000
14908084.000000,-2.387911,-1.662290,1.070829,-1.379131,1.769573,1.124068,-0.558294,0.511659,-0.008245,0.735608,-0.395584,-0.410038,0.731743,-0.135856,-8.388019,29.267925,-9.809158,-4.312868,0.076383,1.084090,-0.241837,0.000000,0.000000,0.000000,0.000000,0.000000,0.000000
14908085.000000,-2.387417,-1.662291,1.071597,-1.379517,1.769163,1.124799,-0.558438,0.503824,-0.004369,0.742965,-0.392202,-0.408148,0.734825,-0.136841,-8.360248,29.220318,-9.614761,-4.388246,0.052579,1.169235,-0.182328,0.000000,0.000000,0.000000,0.000000,0.000000,0.000000
14908086.000000,-2.386933,-1.662292,1.072384,-1.379907,1.768759,1.125547,-0.558575,0.495579,-0.004868,0.750382,-0.384443,-0.406755,0.737468,-0.137797,-8.261065,29.168743,-9.344986,-4.511232,0.034269,1.117049,-0.229020,0.000000,0.000000,0.000000,0.000000,0.000000,0.000000
14908087.000000,-2.386443,-1.662295,1.073167,-1.380297,1.768345,1.126293,-0.558722,0.492804,-0.003502,0.776164,-0.383853,-0.404944,0.745494,-0.137123,-8.261065,29.168743,-9.146622,-4.463624,0.010465,1.031905,-0.188737,0.000000,0.000000,0.000000,0.000000,0.000000,0.000000
14908088.000000,-2.385956,-1.662290,1.073972,-1.380687,1.767931,1.127054,-0.558856,0.489538,-0.002697,0.780586,-0.386098,-0.409335,0.746264,-0.138373,-8.213458,29.045757,-8.999832,-4.562807,0.046171,0.908309,-0.221696,0.000000,0.000000,0.000000,0.000000,0.000000,0.000000
14908089.000000,-2.385466,-1.662284,1.074788,-1.381077,1.767524,1.127807,-0.558993,0.485393,0.000031,0.783309,-0.385406,-0.405074,0.763846,-0.136262,-8.213458,28.950542,-8.829239,-4.634218,0.088285,0.863448,-0.229020,0.000000,0.000000,0.000000,0.000000,0.000000,0.000000
14908090.000000,-2.384986,-1.662275,1.075600,-1.381470,1.767115,1.128559,-0.559135,0.484146,0.004030,0.786916,-0.383756,-0.401616,0.765374,-0.139464,-8.161883,28.898968,-8.853043,-4.634218,0.117582,0.882674,-0.202470,0.000000,0.000000,0.000000,0.000000,0.000000,0.000000
14908091.000000,-2.384503,-1.662273,1.076422,-1.381852,1.766728,1.129323,-0.559270,0.482190,0.000309,0.787018,-0.379070,-0.399127,0.764562,-0.142040,-7.963519,29.267925,-9.269608,-4.733400,0.081876,0.922042,-0.208878,0.000000,0.000000,0.000000,0.000000,0.000000,0.000000
14908092.000000,-2.384028,-1.662265,1.077239,-1.382245,1.766345,1.130084,-0.559411,0.480166,0.003821,0.787440,-0.384592,-0.387427,0.765566,-0.138937,-7.542986,29.807476,-9.983719,-4.784975,-0.001437,0.960494,-0.208878,0.000000,0.000000,0.000000,0.000000,0.000000,0.000000
14908093.000000,-2.383550,-1.662268,1.078035,-1.382625,1.765953,1.130854,-0.559550,0.479691,-0.000029,0.786664,-0.381796,-0.390150,0.767739,-0.137100,-6.999468,30.664410,-10.916031,-4.832582,-0.007845,0.954086,-0.215287,0.000000,0.000000,0.000000,0.000000,0.000000,0.000000
14908094.000000,-2.383074,-1.662252,1.078825,-1.383014,1.765575,1.131622,-0.559694,0.477720,0.003152,0.787593,-0.383165,-0.380732,0.763614,-0.136841,-6.356768,31.445965,-11.872147,-4.832582,0.004056,1.090499,-0.175919,0.000000,0.000000,0.000000,0.000000,0.000000,0.000000
14908095.000000,-2.382585,-1.662233,1.079612,-1.383392,1.765196,1.132380,-0.559824,0.477989,0.006817,0.789986,-0.381391,-0.374927,0.756587,-0.138334,-6.035418,32.203716,-12.998856,-4.856386,0.064481,1.227828,-0.229020,0.000000,0.000000,0.000000,0.000000,0.000000,0.000000
14908096.000000,-2.382094,-1.662209,1.080399,-1.383784,1.764805,1.133140,-0.559970,0.480524,0.012734,0.788450,-0.386703,-0.389826,0.750613,-0.138651,-5.737872,32.842449,-14.030350,-4.709596,0.195402,1.357833,-0.182328,0.000000,0.000000,0.000000,0.000000,0.000000,0.000000
14908097.000000,-2.381611,-1.662182,1.081195,-1.384182,1.764424,1.133907,-0.560105,0.490596,0.015087,0.786309,-0.385158,-0.382259,0.760077,-0.140984,-5.416522,33.429607,-14.891251,-4.535036,0.285123,1.416427,-0.202470,0.000000,0.000000,0.000000,0.000000,0.000000,0.000000
14908098.000000,-2.381118,-1.662157,1.081994,-1.384562,1.764037,1.134681,-0.560236,0.486661,0.018650,0.791020,-0.388812,-0.378276,0.765196,-0.137539,-5.218157,33.941387,-15.847366,-4.535036,0.410551,1.402694,-0.235429,0.000000,0.000000,0.000000,0.000000,0.000000,0.000000
14908099.000000,-2.380628,-1.662123,1.082800,-1.384951,1.763655,1.135433,-0.560373,0.482845,0.021849,0.788804,-0.385911,-0.380224,0.755315,-0.137526,-5.019793,34.286541,-16.533707,-4.487428,0.428861,1.494247,-0.182328,0.000000,0.000000,0.000000,0.000000,0.000000,0.000000
14908100.000000,-2.380149,-1.662093,1.083604,-1.385331,1.763274,1.136162,-0.560501,0.485980,0.026656,0.793107,-0.386970,-0.379034,0.747966,-0.138118,-4.746050,34.651531,-17.224014,-4.463624,0.386747,1.708480,-0.229020,0.000000,0.000000,0.000000,0.000000,0.000000,0.000000
14908101.000000,-2.379672,-1.662070,1.084421,-1.385710,1.762895,1.136909,-0.560640,0.486153,0.026176,0.796114,-0.384748,-0.382527,0.745260,-0.138461,-4.448504,35.044292,-17.711990,-4.562807,0.369352,1.812850,-0.182328,0.000000,0.000000,0.000000,0.000000,0.000000,0.000000
14908102.000000,-2.379200,-1.662049,1.085235,-1.386086,1.762519,1.137650,-0.560771,0.486697,0.026144,0.793162,-0.379571,-0.380896,0.743712,-0.136451,-4.103350,35.413250,-17.981766,-4.685792,0.303434,1.819259,-0.188737,0.000000,0.000000,0.000000,0.000000,0.000000,0.000000
14908103.000000,-2.378726,-1.662035,1.086058,-1.386453,1.762132,1.138387,-0.560902,0.481612,0.022330,0.801132,-0.375513,-0.376503,0.746923,-0.135776,-3.980364,35.802044,-18.374527,-4.856386,0.255826,1.844894,-0.175919,0.000000,0.000000,0.000000,0.000000,0.000000,0.000000
14908104.000000,-2.378256,-1.662024,1.086902,-1.386817,1.761752,1.139135,-0.561029,0.474228,0.019997,0.808397,-0.368904,-0.382881,0.737295,-0.132563,-3.758196,36.171001,-18.842667,-5.007143,0.166105,1.786300,-0.229020,0.000000,0.000000,0.000000,0.000000,0.000000,0.000000
14908105.000000,-2.377791,-1.662024,1.087750,-1.387176,1.761363,1.139884,-0.561158,0.470166,0.012225,0.831449,-0.361435,-0.385028,0.742640,-0.131339,-3.559832,36.658978,-19.183853,-5.177736,0.201810,1.643478,-0.241837,0.000000,0.000000,0.000000,0.000000,0.000000,0.000000
14908106.000000,-2.377319,-1.662036,1.088577,-1.387537,1.760954,1.140641,-0.561299,0.466420,0.005249,0.823186,-0.359266,-0.393039,0.746093,-0.135263,-3.484454,37.198528,-19.406021,-5.328493,0.339139,1.461288,-0.142960,0.000000,0.000000,0.000000,0.000000,0.000000,0.000000
14908107.000000,-2.376842,-1.662056,1.089427,-1.387891,1.760562,1.141376,-0.561419,0.467170,-0.004059,0.824169,-0.357030,-0.394013,0.738599,-0.130665,-3.436846,37.785686,-19.675797,-5.626039,0.410551,1.454879,-0.229020,0.000000,0.000000,0.000000,0.000000,0.000000,0.000000
14908108.000000,-2.376359,-1.662076,1.090274,-1.388240,1.760171,1.142101,-0.561548,0.472591,-0.009066,0.828703,-0.352892,-0.394198,0.731065,-0.132244,-3.607440,38.301434,-20.020950,-5.796632,0.476469,1.617843,-0.202470,0.000000,0.000000,0.000000,0.000000,0.000000,0.000000
14908109.000000,-2.375879,-1.662102,1.091124,-1.388581,1.759784,1.142824,-0.561682,0.466338,-0.016356,0.826843,-0.349282,-0.394541,0.717568,-0.132736,-3.706622,38.837017,-20.215347,-6.094179,0.476469,1.741439,-0.175919,0.000000,0.000000,0.000000,0.000000,0.000000,0.000000
14908110.000000,-2.375408,-1.662141,1.091970,-1.388925,1.759402,1.143558,-0.561808,0.466298,-0.021034,0.826035,-0.355890,-0.385885,0.724295,-0.130073,-3.782000,39.475750,-20.338333,-6.340150,0.452665,1.721298,-0.241837,0.000000,0.000000,0.000000,0.000000,0.000000,0.000000
14908111.000000,-2.374919,-1.662179,1.092809,-1.389270,1.759026,1.144289,-0.561949,0.468872,-0.025135,0.829585,-0.353987,-0.387327,0.723589,-0.135700,-4.004168,40.015301,-20.485123,-6.439332,0.416959,1.825668,-0.182328,0.000000,0.000000,0.000000,0.000000,0.000000,0.000000
14908112.000000,-2.374424,-1.662214,1.093659,-1.389624,1.758642,1.145012,-0.562077,0.474298,-0.026483,0.828188,-0.351721,-0.385264,0.720841,-0.132212,-4.250140,40.479473,-20.707291,-6.538515,0.369352,2.001449,-0.241837,0.000000,0.000000,0.000000,0.000000,0.000000,0.000000
14908113.000000,-2.373938,-1.662254,1.094492,-1.389972,1.758265,1.145733,-0.562212,0.483009,-0.030846,0.829616,-0.349308,-0.379105,0.725348,-0.136373,-4.547686,40.943645,-20.782669,-6.538515,0.327238,2.020675,-0.229020,0.000000,0.000000,0.000000,0.000000,0.000000,0.000000
14908114.000000,-2.373448,-1.662290,1.095326,-1.390316,1.757888,1.146481,-0.562342,0.483754,-0.032558,0.824783,-0.346745,-0.380173,0.727141,-0.130423,-4.797625,41.336407,-20.754898,-6.685304,0.356534,1.890670,-0.235429,0.000000,0.000000,0.000000,0.000000,0.000000,0.000000
14908115.000000,-2.372957,-1.662329,1.096166,-1.390662,1.757509,1.147227,-0.562477,0.495278,-0.033903,0.829424,-0.343533,-0.383242,0.736039,-0.130917,-5.019793,41.729168,-20.731094,-6.784486,0.398649,1.721298,-0.221696,0.000000,0.000000,0.000000,0.000000,0.000000,0.000000
14908116.000000,-2.372471,-1.662358,1.097001,-1.390989,1.757132,1.147957,-0.562605,0.491992,-0.032121,0.831931,-0.336277,-0.379891,0.739982,-0.131325,-5.341143,41.994976,-20.806473,-7.082033,0.405057,1.735030,-0.221696,0.000000,0.000000,0.000000,0.000000,0.000000,0.000000
14908117.000000,-2.371994,-1.662390,1.097843,-1.391323,1.756764,1.148694,-0.562733,0.482403,-0.028717,0.828037,-0.332789,-0.371892,0.736121,-0.130620,-5.416522,42.288555,-20.754898,-7.280397,0.393156,1.812850,-0.229020,0.000000,0.000000,0.000000,0.000000,0.000000,0.000000
14908118.000000,-2.371523,-1.662420,1.098666,-1.391637,1.756397,1.149415,-0.562861,0.479704,-0.028839,0.826667,-0.328461,-0.369116,0.734377,-0.130201,-5.464129,42.558331,-20.631912,-7.577943,0.374845,1.871444,-0.202470,0.000000,0.000000,0.000000,0.000000,0.000000,0.000000
14908119.000000,-2.371047,-1.662449,1.099503,-1.391956,1.756018,1.150144,-0.562987,0.475830,-0.031269,0.821924,-0.325591,-0.372844,0.725575,-0.129574,-5.464129,42.780499,-20.536697,-7.875490,0.410551,1.838485,-0.229020,0.000000,0.000000,0.000000,0.000000,0.000000,0.000000
14908120.000000,-2.370563,-1.662473,1.100342,-1.392272,1.755658,1.150868,-0.563124,0.478930,-0.030926,0.821175,-0.320986,-0.366361,0.728749,-0.131705,-5.662493,42.903484,-20.536697,-8.145266,0.393156,1.838485,-0.188737,0.000000,0.000000,0.000000,0.000000,0.000000,0.000000
14908121.000000,-2.370093,-1.662491,1.101181,-1.392588,1.755305,1.151604,-0.563243,0.475403,-0.025436,0.822963,-0.321336,-0.356513,0.727886,-0.129279,-5.737872,42.927288,-20.659683,-8.391237,0.356534,1.793624,-0.254655,0.000000,0.000000,0.000000,0.000000,0.000000,0.000000
14908122.000000,-2.369610,-1.662516,1.102012,-1.392903,1.754951,1.152348,-0.563374,0.476647,-0.026008,0.815223,-0.318752,-0.360920,0.726376,-0.126770,-5.936236,42.998699,-20.608109,-8.589602,0.320829,1.741439,-0.208878,0.000000,0.000000,0.000000,0.000000,0.000000,0.000000
14908123.000000,-2.369143,-1.662535,1.102834,-1.393207,1.754591,1.153076,-0.563502,0.470532,-0.024936,0.831089,-0.324797,-0.353385,0.729190,-0.127331,-6.083025,42.998699,-20.560501,-8.787966,0.327238,1.721298,-0.208878,0.000000,0.000000,0.000000,0.000000,0.000000,0.000000
14908124.000000,-2.368680,-1.662558,1.103674,-1.393515,1.754239,1.153811,-0.563624,0.463094,-0.025739,0.826572,-0.320858,-0.353551,0.724433,-0.128270,-6.083025,43.050274,-20.683487,-9.033937,0.285123,1.741439,-0.215287,0.000000,0.000000,0.000000,0.000000,0.000000,0.000000
14908125.000000,-2.368209,-1.662574,1.104529,-1.393821,1.753900,1.154546,-0.563752,0.462824,-0.023390,0.824711,-0.312027,-0.345270,0.720110,-0.129837,-6.134600,42.974895,-20.905655,-9.256105,0.195402,1.825668,-0.182328,0.000000,0.000000,0.000000,0.000000,0.000000,0.000000
14908126.000000,-2.367749,-1.662596,1.105359,-1.394117,1.753555,1.155265,-0.563871,0.461251,-0.024191,0.821356,-0.309474,-0.338557,0.722856,-0.127227,-6.134600,42.998699,-21.000870,-9.577456,0.100187,1.871444,-0.229020,0.000000,0.000000,0.000000,0.000000,0.000000,0.000000
14908127.000000,-2.367297,-1.662610,1.106200,-1.394415,1.753198,1.156015,-0.563994,0.455878,-0.019494,0.814416,-0.304504,-0.346114,0.728656,-0.129817,-6.011614,42.927288,-21.123856,-9.875002,0.147794,1.786300,-0.182328,0.000000,0.000000,0.000000,0.000000,0.000000,0.000000
14908128.000000,-2.366850,-1.662630,1.107042,-1.394717,1.752866,1.156739,-0.564112,0.461417,-0.020851,0.815249,-0.310014,-0.340813,0.729979,-0.124102,-5.884661,42.927288,-21.294449,-9.997988,0.117582,1.806442,-0.221696,0.000000,0.000000,0.000000,0.000000,0.000000,0.000000
14908129.000000,-2.366398,-1.662645,1.107882,-1.395011,1.752525,1.157453,-0.564239,0.458207,-0.020673,0.820865,-0.305169,-0.351295,0.717369,-0.122975,-5.761675,42.875713,-21.492813,-10.172548,0.088285,1.930038,-0.169511,0.000000,0.000000,0.000000,0.000000,0.000000,0.000000
14908130.000000,-2.365963,-1.662659,1.108722,-1.395311,1.752182,1.158184,-0.564357,0.448412,-0.017004,0.817143,-0.302472,-0.348228,0.721659,-0.118426,-5.487933,42.804302,-21.615799,-10.271730,0.129484,1.955673,-0.215287,0.000000,0.000000,0.000000,0.000000,0.000000,0.000000
14908131.000000,-2.365538,-1.662680,1.109550,-1.395604,1.751842,1.158912,-0.564479,0.441189,-0.020433,0.817689,-0.301063,-0.343494,0.724222,-0.117693,-5.194354,42.851910,-21.663406,-10.370913,0.129484,1.865035,-0.202470,0.000000,0.000000,0.000000,0.000000,0.000000,0.000000
14908132.000000,-2.365110,-1.662689,1.110390,-1.395899,1.751506,1.159648,-0.564600,0.432982,-0.016321,0.819666,-0.296414,-0.351810,0.722494,-0.120894,-4.869036,42.756695,-21.762589,-10.470095,0.117582,1.832076,-0.202470,0.000000,0.000000,0.000000,0.000000,0.000000,0.000000
14908133.000000,-2.364687,-1.662702,1.111232,-1.396189,1.751174,1.160355,-0.564721,0.432700,-0.014404,0.818808,-0.293061,-0.339723,0.722807,-0.118576,-4.500079,42.705120,-21.762589,-10.569277,0.052579,1.916305,-0.215287,0.000000,0.000000,0.000000,0.000000,0.000000,0.000000
14908134.000000,-2.364278,-1.662716,1.112065,-1.396484,1.750840,1.161085,-0.564847,0.421211,-0.016843,0.820452,-0.296180,-0.332222,0.721780,-0.118844,-4.127154,42.681316,-21.885574,-10.569277,0.027860,1.923629,-0.175919,0.000000,0.000000,0.000000,0.000000,0.000000,0.000000
14908135.000000,-2.363866,-1.662734,1.112908,-1.396783,1.750512,1.161833,-0.564960,0.416346,-0.019626,0.814531,-0.297547,-0.332047,0.725612,-0.119039,-3.782000,42.705120,-21.909378,-10.569277,0.069974,1.819259,-0.235429,0.000000,0.000000,0.000000,0.000000,0.000000,0.000000
14908136.000000,-2.363463,-1.662748,1.113746,-1.397082,1.750180,1.162554,-0.565086,0.409554,-0.017992,0.840629,-0.300562,-0.329196,0.721081,-0.120021,-3.409075,42.705120,-22.079971,-10.493898,0.022367,1.760665,-0.155778,0.000000,0.000000,0.000000,0.000000,0.000000,0.000000
14908137.000000,-2.363059,-1.662760,1.114594,-1.397411,1.749840,1.163288,-0.565202,0.404780,-0.015493,0.838304,-0.308356,-0.337321,0.721922,-0.118334,-3.087725,42.657513,-22.230728,-10.172548,0.027860,1.786300,-0.149369,0.000000,0.000000,0.000000,0.000000,0.000000,0.000000
14908138.000000,-2.362660,-1.662780,1.115453,-1.397729,1.749504,1.164006,-0.565308,0.401684,-0.017224,0.844923,-0.310796,-0.333157,0.738148,-0.113423,-2.742571,42.756695,-22.500504,-9.974184,0.076383,1.851302,-0.235429,0.000000,0.000000,0.000000,0.000000,0.000000,0.000000
14908139.000000,-2.362269,-1.662797,1.116303,-1.398052,1.749170,1.164737,-0.565427,0.400902,-0.017042,0.847519,-0.317336,-0.333936,0.733095,-0.116035,-2.421221,42.804302,-22.794083,-9.704409,0.105680,1.844894,-0.169511,0.000000,0.000000,0.000000,0.000000,0.000000,0.000000
14908140.000000,-2.361867,-1.662815,1.117153,-1.398378,1.748832,1.165468,-0.565540,0.400302,-0.016899,0.846832,-0.320942,-0.340507,0.731862,-0.112897,-2.199053,42.851910,-23.016251,-9.577456,0.112089,1.890670,-0.208878,0.000000,0.000000,0.000000,0.000000,0.000000,0.000000
14908141.000000,-2.361486,-1.662841,1.118015,-1.398709,1.748491,1.166195,-0.565656,0.393302,-0.019060,0.864010,-0.330764,-0.339195,0.732117,-0.113155,-1.826129,42.998699,-23.409012,-9.355288,0.154203,1.923629,-0.208878,0.000000,0.000000,0.000000,0.000000,0.000000,0.000000
14908142.000000,-2.361099,-1.662865,1.118861,-1.399049,1.748150,1.166922,-0.565768,0.390654,-0.019925,0.864990,-0.336000,-0.337999,0.724347,-0.113198,-1.552386,43.121685,-23.726395,-9.184694,0.231107,2.007858,-0.208878,0.000000,0.000000,0.000000,0.000000,0.000000,0.000000
14908143.000000,-2.360706,-1.662894,1.119717,-1.399396,1.747815,1.167648,-0.565876,0.390814,-0.024154,0.859767,-0.339008,-0.342745,0.725506,-0.111942,-1.354022,43.268475,-23.972366,-8.887148,0.291532,2.079269,-0.235429,0.000000,0.000000,0.000000,0.000000,0.000000,0.000000
14908144.000000,-2.360319,-1.662921,1.120555,-1.399737,1.747470,1.168362,-0.565990,0.390986,-0.026852,0.857495,-0.340537,-0.338947,0.721663,-0.111511,-1.183428,43.391460,-24.095352,-8.641176,0.285123,2.137862,-0.229020,0.000000,0.000000,0.000000,0.000000,0.000000,0.000000
14908145.000000,-2.359933,-1.662952,1.121417,-1.400088,1.747122,1.169090,-0.566103,0.389240,-0.029926,0.855977,-0.340936,-0.346978,0.721793,-0.107888,-0.985064,43.562054,-24.365128,-8.391237,0.362943,2.098495,-0.215287,0.000000,0.000000,0.000000,0.000000,0.000000,0.000000
14908146.000000,-2.359568,-1.662982,1.122280,-1.400448,1.746797,1.169795,-0.566217,0.388241,-0.030847,0.858081,-0.343990,-0.337027,0.714084,-0.108669,-0.687518,43.685040,-24.583328,-8.046083,0.351041,2.033492,-0.215287,0.000000,0.000000,0.000000,0.000000,0.000000,0.000000
14908147.000000,-2.359184,-1.663011,1.123111,-1.400799,1.746462,1.170512,-0.566326,0.382159,-0.028433,0.850094,-0.345061,-0.333522,0.715053,-0.107524,-0.512957,43.808025,-24.559525,-7.875490,0.308927,2.020675,-0.235429,0.000000,0.000000,0.000000,0.000000,0.000000,0.000000
14908148.000000,-2.358806,-1.663046,1.123955,-1.401159,1.746117,1.171230,-0.566440,0.379576,-0.031333,0.842006,-0.345492,-0.335743,0.720500,-0.105716,-0.290789,44.002422,-24.535721,-7.700929,0.386747,2.014266,-0.182328,0.000000,0.000000,0.000000,0.000000,0.000000,0.000000
14908149.000000,-2.358444,-1.663076,1.124791,-1.401517,1.745780,1.171939,-0.566544,0.371280,-0.031713,0.840113,-0.347306,-0.335097,0.720961,-0.109604,0.054365,44.125408,-24.559525,-7.502565,0.422452,1.988631,-0.229020,0.000000,0.000000,0.000000,0.000000,0.000000,0.000000
14908150.000000,-2.358073,-1.663106,1.125631,-1.401886,1.745450,1.172650,-0.566654,0.364796,-0.031633,0.835168,-0.352353,-0.336977,0.721177,-0.110518,0.252729,44.224590,-24.436539,-7.280397,0.440763,2.047225,-0.221696,0.000000,0.000000,0.000000,0.000000,0.000000,0.000000
14908151.000000,-2.357700,-1.663134,1.126470,-1.402261,1.745114,1.173359,-0.566769,0.362843,-0.033424,0.827446,-0.357054,-0.335829,0.719981,-0.111647,0.403486,44.272198,-24.313553,-7.006654,0.464567,2.047225,-0.208878,0.000000,0.000000,0.000000,0.000000,0.000000,0.000000
14908152.000000,-2.357331,-1.663164,1.127301,-1.402640,1.744775,1.174090,-0.566881,0.363667,-0.033044,0.828517,-0.360800,-0.335468,0.719156,-0.111319,0.550275,44.371380,-24.289749,-6.736879,0.500272,1.936446,-0.229020,0.000000,0.000000,0.000000,0.000000,0.000000,0.000000
14908153.000000,-2.356952,-1.663183,1.128138,-1.403022,1.744445,1.174816,-0.566998,0.365163,-0.029426,0.821634,-0.361954,-0.338249,0.717049,-0.108425,0.601850,44.323772,-24.313553,-6.490907,0.542386,1.844894,-0.188737,0.000000,0.000000,0.000000,0.000000,0.000000,0.000000
14908154.000000,-2.356573,-1.663205,1.128961,-1.403411,1.744121,1.175529,-0.567106,0.367359,-0.024174,0.839172,-0.371878,-0.333871,0.719514,-0.107559,0.502668,44.296001,-24.242142,-6.169557,0.500272,1.890670,-0.241837,0.000000,0.000000,0.000000,0.000000,0.000000,0.000000
14908155.000000,-2.356194,-1.663226,1.129800,-1.403809,1.743784,1.176257,-0.567221,0.370242,-0.021148,0.832296,-0.379404,-0.332440,0.717170,-0.105583,0.451093,44.296001,-24.341324,-5.848207,0.530485,1.897079,-0.208878,0.000000,0.000000,0.000000,0.000000,0.000000,0.000000
14908156.000000,-2.355813,-1.663247,1.130641,-1.404211,1.743455,1.176974,-0.567329,0.372099,-0.020817,0.831744,-0.383911,-0.325009,0.733481,-0.105549,0.427289,44.248394,-24.388931,-5.550661,0.589994,1.851302,-0.254655,0.000000,0.000000,0.000000,0.000000,0.000000,0.000000
14908157.000000,-2.355440,-1.663263,1.131465,-1.404601,1.743137,1.177690,-0.567446,0.372394,-0.020200,0.826838,-0.385392,-0.316119,0.730323,-0.105512,0.427289,44.173016,-24.464310,-5.352296,0.559781,1.949264,-0.182328,0.000000,0.000000,0.000000,0.000000,0.000000,0.000000
14908158.000000,-2.355055,-1.663276,1.132299,-1.405000,1.742815,1.178408,-0.567545,0.374692,-0.015816,0.820800,-0.389047,-0.322304,0.722427,-0.100039,0.328107,44.053997,-24.511917,-5.130128,0.566190,2.066451,-0.248246,0.000000,0.000000,0.000000,0.000000,0.000000,0.000000
14908159.000000,-2.354693,-1.663291,1.133144,-1.405389,1.742487,1.179125,-0.567652,0.368283,-0.013599,0.837947,-0.395749,-0.316025,0.717225,-0.102278,0.427289,43.978619,-24.734085,-4.955568,0.601896,2.066451,-0.261979,0.000000,0.000000,0.000000,0.000000,0.000000,0.000000
14908160.000000,-2.354314,-1.663300,1.133972,-1.405781,1.742155,1.179850,-0.567760,0.370023,-0.010872,0.831790,-0.392459,-0.324096,0.719475,-0.104910,0.427289,43.855633,-24.857071,-4.832582,0.661405,2.007858,-0.254655,0.000000,0.000000,0.000000,0.000000,0.000000,0.000000
14908161.000000,-2.353929,-1.663310,1.134796,-1.406181,1.741835,1.180574,-0.567871,0.372304,-0.012074,0.819621,-0.390824,-0.316381,0.718297,-0.102824,0.375715,43.732647,-24.880875,-4.685792,0.667814,2.039901,-0.235429,0.000000,0.000000,0.000000,0.000000,0.000000,0.000000
14908162.000000,-2.353556,-1.663321,1.135613,-1.406571,1.741506,1.181283,-0.567985,0.369035,-0.011018,0.816377,-0.393083,-0.324453,0.720193,-0.106796,0.403486,43.661236,-24.904678,-4.535036,0.685209,2.104903,-0.196061,0.000000,0.000000,0.000000,0.000000,0.000000,0.000000
14908163.000000,-2.353182,-1.663329,1.136431,-1.406961,1.741170,1.182002,-0.568084,0.368185,-0.009633,0.808713,-0.391245,-0.329415,0.716227,-0.100809,0.427289,43.562054,-24.880875,-4.511232,0.709928,2.033492,-0.268388,0.000000,0.000000,0.000000,0.000000,0.000000,0.000000
14908164.000000,-2.352811,-1.663330,1.137251,-1.407354,1.740852,1.182725,-0.568201,0.376950,-0.007033,0.804506,-0.388815,-0.320050,0.714845,-0.101403,0.451093,43.391460,-24.781693,-4.439821,0.709928,1.949264,-0.196061,0.000000,0.000000,0.000000,0.000000,0.000000,0.000000
14908165.000000,-2.352439,-1.663330,1.138052,-1.407738,1.740545,1.183447,-0.568308,0.372344,-0.005701,0.797014,-0.385342,-0.315686,0.715468,-0.099492,0.474897,43.244671,-24.611099,-4.439821,0.644010,1.936446,-0.196061,0.000000,0.000000,0.000000,0.000000,0.000000,0.000000
14908166.000000,-2.352061,-1.663332,1.138864,-1.408120,1.740223,1.184177,-0.568411,0.372141,-0.004761,0.793213,-0.382171,-0.316088,0.715369,-0.096007,0.502668,43.097881,-24.464310,-4.439821,0.673307,1.955673,-0.248246,0.000000,0.000000,0.000000,0.000000,0.000000,0.000000
14908167.000000,-2.351691,-1.663327,1.139671,-1.408499,1.739902,1.184885,-0.568521,0.369373,-0.002865,0.789939,-0.381381,-0.313908,0.722711,-0.099835,0.502668,42.903484,-24.464310,-4.412050,0.649503,2.033492,-0.221696,0.000000,0.000000,0.000000,0.000000,0.000000,0.000000
14908168.000000,-2.351313,-1.663319,1.140472,-1.408883,1.739588,1.185616,-0.568621,0.372869,0.002703,0.785220,-0.375825,-0.311232,0.718389,-0.101424,0.451093,42.657513,-24.242142,-4.312868,0.637601,2.066451,-0.268388,0.000000,0.000000,0.000000,0.000000,0.000000,0.000000
14908169.000000,-2.350937,-1.663316,1.141290,-1.409271,1.739288,1.186345,-0.568734,0.381734,0.001672,0.785473,-0.377915,-0.311516,0.735217,-0.101984,0.451093,42.486919,-24.341324,-4.213686,0.632108,1.995040,-0.208878,0.000000,0.000000,0.000000,0.000000,0.000000,0.000000
14908170.000000,-2.350565,-1.663306,1.142100,-1.409647,1.738971,1.187072,-0.568829,0.380071,0.002859,0.789839,-0.377172,-0.308038,0.727663,-0.098726,0.427289,42.240948,-24.464310,-4.090700,0.655912,1.955673,-0.241837,0.000000,0.000000,0.000000,0.000000,0.000000,0.000000
14908171.000000,-2.350188,-1.663299,1.142916,-1.410024,1.738666,1.187802,-0.568929,0.375014,0.004953,0.790934,-0.377266,-0.308005,0.723232,-0.100413,0.403486,42.070354,-24.611099,-4.019289,0.679716,2.014266,-0.274796,0.000000,0.000000,0.000000,0.000000,0.000000,0.000000
14908172.000000,-2.349821,-1.663288,1.143731,-1.410396,1.738367,1.188514,-0.569035,0.372121,0.008349,0.807070,-0.380647,-0.299164,0.720100,-0.104351,0.375715,41.824383,-24.682510,-3.892336,0.679716,2.072860,-0.261979,0.000000,0.000000,0.000000,0.000000,0.000000,0.000000
14908173.000000,-2.349454,-1.663288,1.144531,-1.410765,1.738077,1.189236,-0.569142,0.366762,0.005592,0.798646,-0.379582,-0.300302,0.713594,-0.102998,0.474897,41.800579,-24.805496,-3.868532,0.667814,2.072860,-0.215287,0.000000,0.000000,0.000000,0.000000,0.000000,0.000000
14908174.000000,-2.349091,-1.663283,1.145339,-1.411134,1.737783,1.189950,-0.569244,0.361846,0.005001,0.794642,-0.371679,-0.298916,0.712601,-0.104445,0.625654,41.729168,-24.904678,-3.892336,0.679716,2.131454,-0.235429,0.000000,0.000000,0.000000,0.000000,0.000000,0.000000
14908175.000000,-2.348735,-1.663279,1.146127,-1.411496,1.737490,1.190648,-0.569346,0.357576,0.003685,0.790529,-0.368481,-0.292270,0.706116,-0.105673,0.824018,41.701397,-24.952286,-3.820925,0.661405,2.209274,-0.261979,0.000000,0.000000,0.000000,0.000000,0.000000,0.000000
14908176.000000,-2.348380,-1.663282,1.146917,-1.411864,1.737201,1.191355,-0.569452,0.350860,0.001026,0.786079,-0.366872,-0.290456,0.701513,-0.099401,0.970807,41.752972,-24.829300,-3.797121,0.649503,2.274276,-0.229020,0.000000,0.000000,0.000000,0.000000,0.000000,0.000000
14908177.000000,-2.348025,-1.663291,1.147711,-1.412226,1.736914,1.192063,-0.569553,0.350473,-0.002360,0.801399,-0.369008,-0.288076,0.704398,-0.097850,1.121564,41.875957,-24.757889,-3.721742,0.691617,2.190048,-0.235429,0.000000,0.000000,0.000000,0.000000,0.000000,0.000000
14908178.000000,-2.347669,-1.663289,1.148487,-1.412591,1.736626,1.192790,-0.569654,0.350474,-0.001050,0.791166,-0.368685,-0.289094,0.710079,-0.101867,1.268354,41.848186,-24.611099,-3.670168,0.685209,2.118636,-0.229020,0.000000,0.000000,0.000000,0.000000,0.000000,0.000000
14908179.000000,-2.347316,-1.663292,1.149262,-1.412956,1.736338,1.193517,-0.569755,0.352734,-0.002001,0.783326,-0.362575,-0.285166,0.719247,-0.098796,1.442914,41.899761,-24.341324,-3.598757,0.679716,2.039901,-0.254655,0.000000,0.000000,0.000000,0.000000,0.000000,0.000000
14908180.000000,-2.346967,-1.663285,1.150031,-1.413317,1.736051,1.194227,-0.569856,0.349993,0.000915,0.784684,-0.365263,-0.282168,0.715559,-0.098387,1.542096,41.800579,-24.119156,-3.499574,0.679716,1.981307,-0.235429,0.000000,0.000000,0.000000,0.000000,0.000000,0.000000
14908181.000000,-2.346626,-1.663291,1.150810,-1.413673,1.735771,1.194951,-0.569960,0.344401,-0.001206,0.779139,-0.361124,-0.281999,0.717002,-0.098831,1.740461,41.875957,-23.920792,-3.499574,0.637601,1.916305,-0.196061,0.000000,0.000000,0.000000,0.000000,0.000000,0.000000
14908182.000000,-2.346280,-1.663285,1.151579,-1.414032,1.735498,1.195669,-0.570050,0.349327,0.000919,0.773958,-0.359884,-0.283583,0.715255,-0.095131,1.934858,41.800579,-23.528030,-3.448000,0.601896,1.832076,-0.261979,0.000000,0.000000,0.000000,0.000000,0.000000,0.000000
14908183.000000,-2.345944,-1.663282,1.152340,-1.414387,1.735203,1.196401,-0.570153,0.341199,0.007915,0.771853,-0.358193,-0.281946,0.717904,-0.097268,2.133222,41.752972,-23.309830,-3.424196,0.608304,1.767074,-0.202470,0.000000,0.000000,0.000000,0.000000,0.000000,0.000000
14908184.000000,-2.345599,-1.663268,1.153113,-1.414737,1.734914,1.197132,-0.570240,0.338667,0.010413,0.769327,-0.352283,-0.288858,0.723129,-0.092940,2.307783,41.554607,-23.163040,-3.424196,0.637601,1.741439,-0.287614,0.000000,0.000000,0.000000,0.000000,0.000000,0.000000
14908185.000000,-2.345261,-1.663256,1.153873,-1.415094,1.734625,1.197863,-0.570347,0.339346,0.010747,0.766822,-0.351495,-0.286734,0.728148,-0.096509,2.430768,41.407818,-23.040054,-3.301210,0.679716,1.689254,-0.188737,0.000000,0.000000,0.000000,0.000000,0.000000,0.000000
14908186.000000,-2.344915,-1.663242,1.154631,-1.415452,1.734338,1.198595,-0.570437,0.340360,0.011991,0.758104,-0.350762,-0.293729,0.729101,-0.093824,2.454572,41.213421,-22.817886,-3.202028,0.745634,1.670028,-0.241837,0.000000,0.000000,0.000000,0.000000,0.000000,0.000000
14908187.000000,-2.344562,-1.663229,1.155405,-1.415807,1.734056,1.199314,-0.570530,0.345025,0.012194,0.755651,-0.353599,-0.288958,0.736357,-0.092851,2.454572,41.042828,-22.770279,-3.202028,0.745634,1.649886,-0.268388,0.000000,0.000000,0.000000,0.000000,0.000000,0.000000
14908188.000000,-2.344221,-1.663211,1.156167,-1.416159,1.733769,1.200046,-0.570626,0.345002,0.016093,0.758933,-0.351746,-0.285525,0.735475,-0.097302,2.482343,40.844463,-22.794083,-3.126650,0.757535,1.670028,-0.261979,0.000000,0.000000,0.000000,0.000000,0.000000,0.000000
14908189.000000,-2.343871,-1.663185,1.156945,-1.416507,1.733499,1.200780,-0.570722,0.342787,0.018534,0.760167,-0.353974,-0.283305,0.731752,-0.096486,2.430768,40.527081,-22.865494,-3.126650,0.691617,1.637069,-0.261979,0.000000,0.000000,0.000000,0.000000,0.000000,0.000000
14908190.000000,-2.343526,-1.663164,1.157695,-1.416855,1.733231,1.201506,-0.570825,0.343541,0.020918,0.770985,-0.360437,-0.275068,0.730114,-0.097846,2.331586,40.308880,-22.742508,-3.126650,0.655912,1.584884,-0.196061,0.000000,0.000000,0.000000,0.000000,0.000000,0.000000
14908191.000000,-2.343173,-1.663146,1.158467,-1.417204,1.732954,1.202225,-0.570909,0.345999,0.021673,0.767481,-0.355874,-0.278256,0.726963,-0.093873,2.260175,40.134319,-22.794083,-3.079042,0.667814,1.670028,-0.274796,0.000000,0.000000,0.000000,0.000000,0.000000,0.000000
14908192.000000,-2.342826,-1.663124,1.159242,-1.417560,1.732690,1.202937,-0.571010,0.355285,0.022771,0.765043,-0.355300,-0.275366,0.709742,-0.095773,2.283979,39.939922,-22.940872,-3.027467,0.608304,1.819259,-0.221696,0.000000,0.000000,0.000000,0.000000,0.000000,0.000000
14908193.000000,-2.342473,-1.663101,1.159996,-1.417904,1.732417,1.203647,-0.571106,0.359747,0.023640,0.760502,-0.349012,-0.272033,0.705263,-0.090832,2.160993,39.745525,-22.917068,-2.979860,0.637601,1.871444,-0.215287,0.000000,0.000000,0.000000,0.000000,0.000000,0.000000
14908194.000000,-2.342120,-1.663080,1.160758,-1.418251,1.732150,1.204372,-0.571198,0.356225,0.023736,0.755132,-0.346972,-0.270552,0.709246,-0.090302,2.133222,39.574932,-22.865494,-2.928285,0.620206,1.838485,-0.248246,0.000000,0.000000,0.000000,0.000000,0.000000,0.000000
14908195.000000,-2.341776,-1.663056,1.161531,-1.418589,1.731891,1.205097,-0.571293,0.351771,0.021338,0.754918,-0.339478,-0.266979,0.713297,-0.091588,2.061811,39.376568,-22.893265,-3.027467,0.620206,1.793624,-0.229020,0.000000,0.000000,0.000000,0.000000,0.000000,0.000000
14908196.000000,-2.341429,-1.663027,1.162286,-1.418920,1.731623,1.205817,-0.571380,0.349921,0.020634,0.755860,-0.338184,-0.264611,0.717943,-0.090897,2.061811,39.130596,-22.865494,-3.079042,0.620206,1.819259,-0.268388,0.000000,0.000000,0.000000,0.000000,0.000000,0.000000
14908197.000000,-2.341068,-1.663009,1.163046,-1.419251,1.731367,1.206539,-0.571481,0.348445,0.020206,0.753371,-0.332237,-0.256952,0.712967,-0.098359,1.911054,39.011578,-22.770279,-3.202028,0.596403,1.825668,-0.215287,0.000000,0.000000,0.000000,0.000000,0.000000,0.000000
14908198.000000,-2.340714,-1.662989,1.163788,-1.419574,1.731105,1.207251,-0.571570,0.349439,0.018924,0.746970,-0.329392,-0.252851,0.709770,-0.094538,1.835676,38.936199,-22.548111,-3.277406,0.625699,1.819259,-0.268388,0.000000,0.000000,0.000000,0.000000,0.000000,0.000000
14908199.000000,-2.340364,-1.662974,1.164540,-1.419903,1.730851,1.207964,-0.571665,0.347752,0.020236,0.747769,-0.330752,-0.257037,0.705790,-0.099003,1.811872,38.912395,-22.377518,-3.325014,0.637601,1.819259,-0.248246,0.000000,0.000000,0.000000,0.000000,0.000000,0.000000
14908200.000000,-2.340001,-1.662947,1.165305,-1.420229,1.730604,1.208672,-0.571760,0.361989,0.021596,0.746777,-0.324773,-0.254375,0.704605,-0.098035,1.514325,38.741802,-22.325943,-3.424196,0.571683,1.812850,-0.241837,0.000000,0.000000,0.000000,0.000000,0.000000,0.000000
14908201.000000,-2.339649,-1.662927,1.166053,-1.420546,1.730349,1.209388,-0.571855,0.357463,0.020941,0.742720,-0.323208,-0.251522,0.711547,-0.093177,1.490522,38.642620,-22.230728,-3.523378,0.470060,1.721298,-0.221696,0.000000,0.000000,0.000000,0.000000,0.000000,0.000000
14908202.000000,-2.339279,-1.662914,1.166812,-1.420863,1.730090,1.210121,-0.571944,0.360873,0.018187,0.742492,-0.317313,-0.255379,0.717569,-0.092336,1.192975,38.642620,-22.179153,-3.670168,0.452665,1.584884,-0.241837,0.000000,0.000000,0.000000,0.000000,0.000000,0.000000
14908203.000000,-2.338928,-1.662890,1.167559,-1.421176,1.729831,1.210827,-0.572035,0.353726,0.019111,0.744599,-0.312206,-0.250649,0.717939,-0.087412,1.169172,38.519634,-22.131546,-3.745546,0.440763,1.559249,-0.248246,0.000000,0.000000,0.000000,0.000000,0.000000,0.000000
14908204.000000,-2.338566,-1.662873,1.168324,-1.421486,1.729582,1.211511,-0.572125,0.353123,0.021363,0.743335,-0.310343,-0.249919,0.704005,-0.093561,0.970807,38.472027,-22.179153,-3.868532,0.410551,1.760665,-0.254655,0.000000,0.000000,0.000000,0.000000,0.000000,0.000000
14908205.000000,-2.338205,-1.662865,1.169089,-1.421797,1.729318,1.212201,-0.572217,0.362019,0.016272,0.745332,-0.306692,-0.252932,0.712026,-0.098806,0.824018,38.571209,-22.230728,-3.967714,0.446256,1.903487,-0.241837,0.000000,0.000000,0.000000,0.000000,0.000000,0.000000
14908206.000000,-2.337849,-1.662854,1.169840,-1.422088,1.729050,1.212913,-0.572308,0.359798,0.016631,0.747190,-0.301945,-0.254926,0.711794,-0.098402,0.724836,38.642620,-22.278336,-4.142274,0.470060,1.838485,-0.221696,0.000000,0.000000,0.000000,0.000000,0.000000,0.000000
14908207.000000,-2.337489,-1.662846,1.170593,-1.422388,1.728789,1.213637,-0.572393,0.360283,0.013837,0.743496,-0.301725,-0.259288,0.711942,-0.091040,0.649457,38.717999,-22.325943,-4.289064,0.494779,1.727706,-0.261979,0.000000,0.000000,0.000000,0.000000,0.000000,0.000000
14908208.000000,-2.337127,-1.662838,1.171361,-1.422686,1.728536,1.214330,-0.572485,0.360938,0.015234,0.760645,-0.306500,-0.253885,0.711944,-0.093516,0.451093,38.789410,-22.472733,-4.312868,0.500272,1.767074,-0.221696,0.000000,0.000000,0.000000,0.000000,0.000000,0.000000
14908209.000000,-2.336766,-1.662834,1.172111,-1.422974,1.728288,1.215031,-0.572573,0.360130,0.011980,0.758872,-0.300315,-0.256995,0.708722,-0.088777,0.304304,38.912395,-22.548111,-4.412050,0.482877,1.858627,-0.215287,0.000000,0.000000,0.000000,0.000000,0.000000,0.000000
14908210.000000,-2.336408,-1.662831,1.172863,-1.423270,1.728024,1.215743,-0.572652,0.356577,0.012151,0.755908,-0.293581,-0.259359,0.708380,-0.087255,0.276533,39.059185,-22.448929,-4.463624,0.554288,1.812850,-0.281205,0.000000,0.000000,0.000000,0.000000,0.000000,0.000000
14908211.000000,-2.336053,-1.662835,1.173596,-1.423543,1.727764,1.216439,-0.572749,0.355795,0.005687,0.753943,-0.288218,-0.253486,0.701026,-0.086916,0.205121,39.229778,-22.278336,-4.661989,0.542386,1.812850,-0.215287,0.000000,0.000000,0.000000,0.000000,0.000000,0.000000
14908212.000000,-2.335692,-1.662831,1.174346,-1.423824,1.727516,1.217143,-0.572831,0.356556,0.003211,0.751277,-0.288673,-0.254481,0.701483,-0.087011,0.153547,39.305157,-22.230728,-4.784975,0.470060,1.877853,-0.261979,0.000000,0.000000,0.000000,0.000000,0.000000,0.000000
14908213.000000,-2.335341,-1.662831,1.175103,-1.424097,1.727273,1.217846,-0.572923,0.359048,0.002064,0.747778,-0.280770,-0.248625,0.702893,-0.084602,0.105939,39.475750,-22.202957,-5.030946,0.422452,1.832076,-0.241837,0.000000,0.000000,0.000000,0.000000,0.000000,0.000000
14908214.000000,-2.334995,-1.662833,1.175836,-1.424368,1.727030,1.218574,-0.573012,0.354729,0.001472,0.741211,-0.275036,-0.245212,0.707568,-0.082770,0.129743,39.646343,-22.032364,-5.130128,0.393156,1.682845,-0.229020,0.000000,0.000000,0.000000,0.000000,0.000000,0.000000
14908215.000000,-2.334638,-1.662841,1.176575,-1.424636,1.726784,1.219299,-0.573096,0.352597,-0.000085,0.737405,-0.271097,-0.250591,0.713485,-0.084059,0.105939,39.868511,-21.810196,-5.328493,0.374845,1.578475,-0.254655,0.000000,0.000000,0.000000,0.000000,0.000000,0.000000
14908216.000000,-2.334287,-1.662840,1.177322,-1.424903,1.726539,1.220007,-0.573177,0.352719,-0.001305,0.740721,-0.270521,-0.242791,0.710402,-0.085593,0.030561,39.963726,-21.786392,-5.451478,0.369352,1.546432,-0.268388,0.000000,0.000000,0.000000,0.000000,0.000000,0.000000
14908217.000000,-2.333932,-1.662838,1.178065,-1.425163,1.726293,1.220713,-0.573265,0.351797,-0.001342,0.735675,-0.265318,-0.240790,0.707801,-0.082916,-0.044818,40.015301,-21.591995,-5.626039,0.381254,1.617843,-0.274796,0.000000,0.000000,0.000000,0.000000,0.000000,0.000000
14908218.000000,-2.333573,-1.662836,1.178802,-1.425435,1.726056,1.221422,-0.573355,0.358650,0.001125,0.729922,-0.267271,-0.236337,0.708945,-0.087410,-0.191607,40.086712,-21.346024,-5.697450,0.398649,1.519881,-0.221696,0.000000,0.000000,0.000000,0.000000,0.000000,0.000000
14908219.000000,-2.333226,-1.662832,1.179540,-1.425690,1.725821,1.222157,-0.573436,0.357165,0.004596,0.731420,-0.262739,-0.236423,0.715656,-0.083110,-0.290789,40.086712,-21.294449,-5.895814,0.393156,1.402694,-0.254655,0.000000,0.000000,0.000000,0.000000,0.000000,0.000000
14908220.000000,-2.332871,-1.662825,1.180288,-1.425953,1.725591,1.222875,-0.573525,0.355136,0.005505,0.730918,-0.259153,-0.237638,0.715085,-0.087682,-0.366168,40.015301,-21.294449,-5.947389,0.327238,1.422836,-0.202470,0.000000,0.000000,0.000000,0.000000,0.000000,0.000000
14908221.000000,-2.332520,-1.662819,1.181028,-1.426209,1.725354,1.223579,-0.573607,0.355543,0.005454,0.749020,-0.259275,-0.231536,0.711840,-0.082850,-0.489153,39.963726,-21.294449,-6.018800,0.279630,1.526290,-0.235429,0.000000,0.000000,0.000000,0.000000,0.000000,0.000000
14908222.000000,-2.332171,-1.662813,1.181775,-1.426473,1.725108,1.224287,-0.573687,0.352225,0.005740,0.748890,-0.257829,-0.237841,0.710775,-0.081233,-0.489153,39.892315,-21.270645,-6.018800,0.320829,1.676437,-0.229020,0.000000,0.000000,0.000000,0.000000,0.000000,0.000000
14908223.000000,-2.331815,-1.662803,1.182529,-1.426736,1.724877,1.224992,-0.573769,0.351388,0.007585,0.749472,-0.256613,-0.233954,0.717558,-0.078801,-0.663714,39.745525,-21.322220,-6.018800,0.332731,1.708480,-0.248246,0.000000,0.000000,0.000000,0.000000,0.000000,0.000000
14908224.000000,-2.331467,-1.662787,1.183283,-1.426994,1.724648,1.225714,-0.573852,0.348099,0.013041,0.751098,-0.258707,-0.229889,0.713511,-0.082206,-0.735125,39.547161,-21.516617,-6.018800,0.320829,1.702071,-0.241837,0.000000,0.000000,0.000000,0.000000,0.000000,0.000000
14908225.000000,-2.331115,-1.662776,1.184046,-1.427261,1.724413,1.226444,-0.573936,0.343791,0.012569,0.751054,-0.261292,-0.234718,0.717110,-0.085858,-0.786700,39.400372,-21.762589,-5.947389,0.308927,1.617843,-0.221696,0.000000,0.000000,0.000000,0.000000,0.000000,0.000000
14908226.000000,-2.330763,-1.662765,1.184811,-1.427523,1.724175,1.227158,-0.574015,0.347634,0.011494,0.766955,-0.267574,-0.230786,0.717940,-0.081279,-0.933489,39.281353,-21.933182,-5.895814,0.303434,1.605026,-0.274796,0.000000,0.000000,0.000000,0.000000,0.000000,0.000000
14908227.000000,-2.330417,-1.662758,1.185564,-1.427789,1.723944,1.227859,-0.574108,0.343647,0.011730,0.765510,-0.268789,-0.230652,0.713729,-0.085811,-0.961260,39.253582,-22.107742,-5.796632,0.285123,1.695663,-0.208878,0.000000,0.000000,0.000000,0.000000,0.000000,0.000000
14908228.000000,-2.330073,-1.662747,1.186327,-1.428057,1.723713,1.228553,-0.574187,0.341156,0.009941,0.765404,-0.267989,-0.228699,0.700764,-0.086450,-1.008868,39.182171,-22.230728,-5.749025,0.308927,1.832076,-0.241837,0.000000,0.000000,0.000000,0.000000,0.000000,0.000000
14908229.000000,-2.329740,-1.662740,1.187078,-1.428317,1.723481,1.229244,-0.574274,0.340350,0.009472,0.763381,-0.266117,-0.230938,0.697748,-0.084467,-0.909686,39.205975,-22.302139,-5.772829,0.308927,1.916305,-0.221696,0.000000,0.000000,0.000000,0.000000,0.000000,0.000000
14908230.000000,-2.329402,-1.662735,1.187846,-1.428580,1.723249,1.229937,-0.574351,0.332596,0.009439,0.761725,-0.264866,-0.234974,0.691694,-0.084889,-0.834307,39.229778,-22.448929,-5.772829,0.291532,1.949264,-0.274796,0.000000,0.000000,0.000000,0.000000,0.000000,0.000000
14908231.000000,-2.329073,-1.662726,1.188607,-1.428852,1.723008,1.230632,-0.574439,0.337853,0.010078,0.758683,-0.266890,-0.235420,0.690175,-0.083007,-0.687518,39.229778,-22.500504,-5.820436,0.285123,1.930038,-0.254655,0.000000,0.000000,0.000000,0.000000,0.000000,0.000000
14908232.000000,-2.328735,-1.662720,1.189356,-1.429128,1.722771,1.231331,-0.574521,0.336344,0.009429,0.754590,-0.268631,-0.231712,0.689918,-0.084818,-0.663714,39.281353,-22.448929,-5.721254,0.291532,1.884261,-0.254655,0.000000,0.000000,0.000000,0.000000,0.000000,0.000000
14908233.000000,-2.328402,-1.662718,1.190115,-1.429411,1.722528,1.232039,-0.574606,0.334054,0.008613,0.750696,-0.273950,-0.238728,0.697996,-0.082037,-0.612139,39.352764,-22.425125,-5.550661,0.351041,1.851302,-0.261979,0.000000,0.000000,0.000000,0.000000,0.000000,0.000000
14908234.000000,-2.328071,-1.662709,1.190861,-1.429696,1.722290,1.232724,-0.574693,0.336980,0.009804,0.750822,-0.275662,-0.239166,0.693261,-0.085544,-0.564532,39.352764,-22.302139,-5.352296,0.381254,1.851302,-0.215287,0.000000,0.000000,0.000000,0.000000,0.000000,0.000000
14908235.000000,-2.327737,-1.662700,1.191625,-1.429987,1.722054,1.233418,-0.574769,0.333771,0.011070,0.754840,-0.277290,-0.240881,0.683050,-0.080321,-0.489153,39.328960,-22.353714,-5.130128,0.356534,1.865035,-0.268388,0.000000,0.000000,0.000000,0.000000,0.000000,0.000000
14908236.000000,-2.327404,-1.662692,1.192390,-1.430275,1.721819,1.234120,-0.574859,0.336719,0.012035,0.754605,-0.279602,-0.235054,0.691644,-0.081804,-0.413775,39.305157,-22.425125,-4.983339,0.351041,1.747848,-0.196061,0.000000,0.000000,0.000000,0.000000,0.000000,0.000000
14908237.000000,-2.327082,-1.662687,1.193147,-1.430563,1.721579,1.234825,-0.574934,0.329576,0.011613,0.756444,-0.281656,-0.231543,0.692969,-0.078833,-0.290789,39.328960,-22.524307,-4.832582,0.362943,1.630660,-0.229020,0.000000,0.000000,0.000000,0.000000,0.000000,0.000000
14908238.000000,-2.326763,-1.662677,1.193915,-1.430857,1.721341,1.235518,-0.575012,0.323602,0.012910,0.755606,-0.283119,-0.232354,0.690957,-0.077167,-0.167803,39.281353,-22.671097,-4.634218,0.381254,1.702071,-0.248246,0.000000,0.000000,0.000000,0.000000,0.000000,0.000000
14908239.000000,-2.326438,-1.662669,1.194670,-1.431149,1.721113,1.236178,-0.575094,0.325145,0.010814,0.768097,-0.288811,-0.229799,0.678628,-0.076564,-0.116229,39.229778,-22.742508,-4.412050,0.405057,1.955673,-0.241837,0.000000,0.000000,0.000000,0.000000,0.000000,0.000000
14908240.000000,-2.326121,-1.662666,1.195443,-1.431445,1.720882,1.236873,-0.575170,0.320758,0.007404,0.764140,-0.288579,-0.232167,0.676050,-0.079758,0.054365,39.253582,-22.964676,-4.241457,0.458158,2.014266,-0.261979,0.000000,0.000000,0.000000,0.000000,0.000000,0.000000
14908241.000000,-2.325801,-1.662668,1.196219,-1.431737,1.720650,1.237558,-0.575256,0.317355,0.003179,0.763771,-0.286144,-0.233181,0.692970,-0.083492,0.205121,39.352764,-23.163040,-4.166078,0.458158,2.007858,-0.241837,0.000000,0.000000,0.000000,0.000000,0.000000,0.000000
14908242.000000,-2.325485,-1.662668,1.196982,-1.432035,1.720409,1.238260,-0.575333,0.317310,0.001428,0.764190,-0.288181,-0.230701,0.692475,-0.076285,0.252729,39.400372,-23.381241,-3.943910,0.494779,1.949264,-0.254655,0.000000,0.000000,0.000000,0.000000,0.000000,0.000000
14908243.000000,-2.325167,-1.662667,1.197761,-1.432329,1.720180,1.238956,-0.575415,0.313404,0.001269,0.763335,-0.288087,-0.229778,0.692428,-0.076288,0.276533,39.400372,-23.603409,-3.892336,0.464567,1.968490,-0.241837,0.000000,0.000000,0.000000,0.000000,0.000000,0.000000
14908244.000000,-2.324858,-1.662673,1.198532,-1.432633,1.719948,1.239648,-0.575495,0.312091,-0.001793,0.771652,-0.297762,-0.228083,0.691600,-0.075560,0.403486,39.523357,-23.750198,-3.646364,0.500272,1.916305,-0.254655,0.000000,0.000000,0.000000,0.000000,0.000000,0.000000
14908245.000000,-2.324535,-1.662685,1.199276,-1.432926,1.719711,1.240349,-0.575575,0.311696,-0.004451,0.761054,-0.295022,-0.227190,0.694762,-0.075927,0.375715,39.670147,-23.627213,-3.622560,0.571683,1.865035,-0.235429,0.000000,0.000000,0.000000,0.000000,0.000000,0.000000
14908246.000000,-2.324216,-1.662689,1.200036,-1.433225,1.719484,1.241040,-0.575650,0.311991,-0.004040,0.752103,-0.293904,-0.231635,0.684476,-0.074862,0.451093,39.721722,-23.627213,-3.570986,0.547880,1.909896,-0.254655,0.000000,0.000000,0.000000,0.000000,0.000000,0.000000
14908247.000000,-2.323910,-1.662699,1.200783,-1.433520,1.719250,1.241726,-0.575731,0.311423,-0.005377,0.750491,-0.293921,-0.228361,0.685302,-0.079213,0.574079,39.840740,-23.579605,-3.499574,0.547880,1.988631,-0.254655,0.000000,0.000000,0.000000,0.000000,0.000000,0.000000
14908248.000000,-2.323605,-1.662711,1.201530,-1.433809,1.719017,1.242419,-0.575808,0.306855,-0.009559,0.744089,-0.291429,-0.230110,0.688290,-0.078262,0.697065,39.963726,-23.357437,-3.646364,0.571683,1.974899,-0.254655,0.000000,0.000000,0.000000,0.000000,0.000000,0.000000
14908249.000000,-2.323306,-1.662722,1.202286,-1.434109,1.718794,1.243114,-0.575887,0.311364,-0.010572,0.749236,-0.294749,-0.222074,0.693470,-0.076627,0.871625,40.134319,-23.210648,-3.622560,0.559781,1.909896,-0.268388,0.000000,0.000000,0.000000,0.000000,0.000000,0.000000
14908250.000000,-2.322996,-1.662724,1.203031,-1.434394,1.718572,1.243815,-0.575970,0.307933,-0.007204,0.747367,-0.292698,-0.221350,0.699976,-0.079069,0.970807,40.134319,-23.087662,-3.646364,0.559781,1.890670,-0.196061,0.000000,0.000000,0.000000,0.000000,0.000000,0.000000
14908251.000000,-2.322680,-1.662724,1.203781,-1.434698,1.718354,1.244517,-0.576035,0.307439,-0.004919,0.744040,-0.294718,-0.222234,0.694166,-0.074209,0.970807,40.134319,-22.964676,-3.499574,0.506681,1.897079,-0.294938,0.000000,0.000000,0.000000,0.000000,0.000000,0.000000
14908252.000000,-2.322381,-1.662724,1.204516,-1.434994,1.718132,1.245227,-0.576117,0.304954,-0.003367,0.738163,-0.293415,-0.225042,0.693749,-0.077197,1.069990,40.134319,-22.770279,-3.348818,0.482877,1.819259,-0.215287,0.000000,0.000000,0.000000,0.000000,0.000000,0.000000
14908253.000000,-2.322069,-1.662725,1.205262,-1.435289,1.717901,1.245944,-0.576194,0.303263,-0.001754,0.736151,-0.292286,-0.228719,0.689473,-0.072444,0.994611,40.110516,-22.671097,-3.202028,0.530485,1.670028,-0.202470,0.000000,0.000000,0.000000,0.000000,0.000000,0.000000
14908254.000000,-2.321766,-1.662719,1.206021,-1.435585,1.717685,1.246652,-0.576260,0.306936,0.001009,0.736807,-0.293202,-0.225500,0.699146,-0.070547,1.069990,40.015301,-22.694901,-3.102846,0.506681,1.591293,-0.268388,0.000000,0.000000,0.000000,0.000000,0.000000,0.000000
14908255.000000,-2.321451,-1.662705,1.206761,-1.435865,1.717467,1.247349,-0.576337,0.312022,0.005275,0.735817,-0.291165,-0.219947,0.696190,-0.077306,0.970807,39.816936,-22.647293,-3.126650,0.518583,1.649886,-0.221696,0.000000,0.000000,0.000000,0.000000,0.000000,0.000000
14908256.000000,-2.321142,-1.662700,1.207508,-1.436148,1.717242,1.248055,-0.576405,0.309917,0.005160,0.733238,-0.290204,-0.221172,0.699696,-0.070505,0.970807,39.745525,-22.595718,-3.102846,0.596403,1.689254,-0.261979,0.000000,0.000000,0.000000,0.000000,0.000000,0.000000
14908257.000000,-2.320843,-1.662693,1.208244,-1.436429,1.717025,1.248740,-0.576476,0.308512,0.005739,0.746430,-0.291130,-0.220892,0.696803,-0.071149,0.994611,39.646343,-22.571915,-3.102846,0.608304,1.773483,-0.268388,0.000000,0.000000,0.000000,0.000000,0.000000,0.000000
14908258.000000,-2.320532,-1.662680,1.209000,-1.436713,1.716804,1.249440,-0.576548,0.307043,0.008358,0.745915,-0.288327,-0.219786,0.690435,-0.067536,0.847822,39.451946,-22.671097,-3.055238,0.625699,1.806442,-0.268388,0.000000,0.000000,0.000000,0.000000,0.000000,0.000000
14908259.000000,-2.320218,-1.662669,1.209755,-1.436999,1.716600,1.250142,-0.576621,0.313158,0.008994,0.747352,-0.285649,-0.212967,0.688374,-0.069558,0.748639,39.305157,-22.742508,-3.027467,0.571683,1.806442,-0.254655,0.000000,0.000000,0.000000,0.000000,0.000000,0.000000
14908260.000000,-2.319913,-1.662659,1.210498,-1.437282,1.716390,1.250832,-0.576690,0.310719,0.009421,0.746609,-0.284295,-0.209896,0.687142,-0.069275,0.748639,39.158367,-22.841690,-2.979860,0.566190,1.779891,-0.281205,0.000000,0.000000,0.000000,0.000000,0.000000,0.000000
14908261.000000,-2.319604,-1.662655,1.211252,-1.437577,1.716182,1.251532,-0.576762,0.306605,0.007480,0.745592,-0.286240,-0.210968,0.683340,-0.071854,0.673261,39.106792,-22.988480,-2.781496,0.566190,1.800033,-0.254655,0.000000,0.000000,0.000000,0.000000,0.000000,0.000000
14908262.000000,-2.319297,-1.662641,1.212003,-1.437853,1.715984,1.252216,-0.576832,0.312014,0.008972,0.758712,-0.291498,-0.202125,0.682732,-0.072472,0.625654,38.936199,-23.111465,-2.757692,0.518583,1.806442,-0.261979,0.000000,0.000000,0.000000,0.000000,0.000000,0.000000
14908263.000000,-2.318993,-1.662634,1.212745,-1.438136,1.715776,1.252910,-0.576907,0.310127,0.008298,0.750253,-0.287892,-0.204109,0.680433,-0.073123,0.625654,38.837017,-23.210648,-2.733888,0.482877,1.838485,-0.235429,0.000000,0.000000,0.000000,0.000000,0.000000,0.000000
14908264.000000,-2.318691,-1.662623,1.213491,-1.438410,1.715568,1.253603,-0.576975,0.304729,0.008313,0.740631,-0.279474,-0.207018,0.683704,-0.073366,0.649457,38.717999,-23.210648,-2.805300,0.488370,1.871444,-0.235429,0.000000,0.000000,0.000000,0.000000,0.000000,0.000000
14908265.000000,-2.318394,-1.662615,1.214224,-1.438673,1.715358,1.254283,-0.577039,0.303764,0.007860,0.738430,-0.275720,-0.205577,0.680625,-0.066900,0.673261,38.618816,-23.163040,-2.928285,0.488370,1.923629,-0.294938,0.000000,0.000000,0.000000,0.000000,0.000000,0.000000
14908266.000000,-2.318096,-1.662603,1.214966,-1.438949,1.715146,1.254976,-0.577120,0.299012,0.008672,0.735233,-0.275937,-0.213471,0.684329,-0.067192,0.796247,38.472027,-23.111465,-2.928285,0.524076,1.916305,-0.215287,0.000000,0.000000,0.000000,0.000000,0.000000,0.000000
14908267.000000,-2.317794,-1.662594,1.215706,-1.439220,1.714945,1.255656,-0.577182,0.306643,0.007544,0.731713,-0.272281,-0.206394,0.683912,-0.066791,0.748639,38.396648,-22.964676,-2.956056,0.535978,1.897079,-0.268388,0.000000,0.000000,0.000000,0.000000,0.000000,0.000000
14908268.000000,-2.317502,-1.662586,1.216433,-1.439488,1.714739,1.256354,-0.577257,0.301663,0.009755,0.725636,-0.271693,-0.206313,0.680531,-0.073968,0.796247,38.325237,-22.817886,-2.904482,0.578092,1.844894,-0.235429,0.000000,0.000000,0.000000,0.000000,0.000000,0.000000
14908269.000000,-2.317204,-1.662576,1.217171,-1.439758,1.714532,1.257050,-0.577325,0.295703,0.012247,0.724256,-0.270418,-0.207970,0.677348,-0.069444,0.772443,38.226055,-22.694901,-2.856874,0.571683,1.800033,-0.235429,0.000000,0.000000,0.000000,0.000000,0.000000,0.000000
14908270.000000,-2.316915,-1.662566,1.217901,-1.440025,1.714331,1.257738,-0.577391,0.296507,0.013349,0.726278,-0.270459,-0.204258,0.688294,-0.069249,0.824018,38.154644,-22.595718,-2.781496,0.524076,1.767074,-0.254655,0.000000,0.000000,0.000000,0.000000,0.000000,0.000000
14908271.000000,-2.316624,-1.662558,1.218637,-1.440289,1.714135,1.258442,-0.577462,0.293196,0.013345,0.727489,-0.271830,-0.200058,0.692317,-0.067609,0.895429,38.130840,-22.548111,-2.781496,0.464567,1.682845,-0.215287,0.000000,0.000000,0.000000,0.000000,0.000000,0.000000
14908272.000000,-2.316329,-1.662556,1.219377,-1.440554,1.713939,1.259137,-0.577522,0.296312,0.010540,0.731054,-0.265483,-0.194846,0.691164,-0.066953,0.947004,38.226055,-22.472733,-2.833071,0.434354,1.624252,-0.281205,0.000000,0.000000,0.000000,0.000000,0.000000,0.000000
14908273.000000,-2.316045,-1.662552,1.220112,-1.440812,1.713743,1.259832,-0.577595,0.293055,0.009169,0.731777,-0.265280,-0.197132,0.690888,-0.070256,1.046186,38.301434,-22.571915,-2.833071,0.452665,1.662704,-0.254655,0.000000,0.000000,0.000000,0.000000,0.000000,0.000000
14908274.000000,-2.315751,-1.662546,1.220850,-1.441066,1.713547,1.260527,-0.577661,0.292066,0.009029,0.724825,-0.262086,-0.196692,0.685858,-0.070662,1.046186,38.349041,-22.595718,-2.928285,0.452665,1.708480,-0.274796,0.000000,0.000000,0.000000,0.000000,0.000000,0.000000
14908275.000000,-2.315469,-1.662545,1.221600,-1.441326,1.713340,1.261218,-0.577739,0.291098,0.007207,0.743972,-0.259717,-0.196839,0.689441,-0.073861,1.093793,38.472027,-22.770279,-2.928285,0.547880,1.702071,-0.208878,0.000000,0.000000,0.000000,0.000000,0.000000,0.000000
14908276.000000,-2.315178,-1.662547,1.222333,-1.441585,1.713138,1.261912,-0.577803,0.288792,0.006039,0.739486,-0.259583,-0.201766,0.685060,-0.071351,1.093793,38.595013,-22.841690,-2.979860,0.571683,1.721298,-0.274796,0.000000,0.000000,0.000000,0.000000,0.000000,0.000000
14908277.000000,-2.314881,-1.662548,1.223075,-1.441840,1.712940,1.262617,-0.577873,0.285795,0.002122,0.733872,-0.258985,-0.198190,0.682456,-0.072800,1.093793,38.717999,-23.016251,-3.055238,0.608304,1.754256,-0.261979,0.000000,0.000000,0.000000,0.000000,0.000000,0.000000
14908278.000000,-2.314590,-1.662550,1.223802,-1.442102,1.712747,1.263305,-0.577943,0.283472,-0.000640,0.730492,-0.261190,-0.192858,0.684530,-0.069569,1.093793,38.837017,-23.040054,-3.027467,0.578092,1.800033,-0.241837,0.000000,0.000000,0.000000,0.000000,0.000000,0.000000
14908279.000000,-2.314298,-1.662554,1.224540,-1.442356,1.712549,1.264008,-0.578012,0.283052,-0.003313,0.723621,-0.256238,-0.197547,0.691596,-0.070174,1.046186,38.983807,-23.063858,-3.126650,0.566190,1.812850,-0.261979,0.000000,0.000000,0.000000,0.000000,0.000000,0.000000
14908280.000000,-2.314013,-1.662561,1.225285,-1.442608,1.712362,1.264702,-0.578083,0.282468,-0.004675,0.747027,-0.253991,-0.192136,0.698149,-0.067815,1.022382,39.106792,-23.111465,-3.178224,0.530485,1.819259,-0.235429,0.000000,0.000000,0.000000,0.000000,0.000000,0.000000
14908281.000000,-2.313728,-1.662557,1.226012,-1.442858,1.712173,1.265406,-0.578143,0.283074,-0.001695,0.742649,-0.251991,-0.192189,0.693274,-0.066914,1.069990,39.059185,-23.087662,-3.249635,0.476469,1.819259,-0.301347,0.000000,0.000000,0.000000,0.000000,0.000000,0.000000
14908282.000000,-2.313434,-1.662560,1.226747,-1.443106,1.711982,1.266115,-0.578221,0.282539,-0.002013,0.735278,-0.246606,-0.192774,0.696661,-0.071683,1.046186,39.106792,-23.087662,-3.325014,0.458158,1.754256,-0.229020,0.000000,0.000000,0.000000,0.000000,0.000000,0.000000
14908283.000000,-2.313149,-1.662569,1.227470,-1.443351,1.711787,1.266807,-0.578287,0.285637,-0.003489,0.727212,-0.243720,-0.191533,0.689088,-0.070724,1.069990,39.205975,-23.040054,-3.376589,0.488370,1.714889,-0.248246,0.000000,0.000000,0.000000,0.000000,0.000000,0.000000
14908284.000000,-2.312859,-1.662564,1.228197,-1.443597,1.711598,1.267510,-0.578358,0.283239,-0.000433,0.723902,-0.244151,-0.189490,0.690271,-0.068173,1.046186,39.130596,-22.964676,-3.448000,0.524076,1.708480,-0.221696,0.000000,0.000000,0.000000,0.000000,0.000000,0.000000
14908285.000000,-2.312570,-1.662563,1.228929,-1.443837,1.711409,1.268192,-0.578427,0.291401,0.000366,0.719916,-0.240445,-0.183925,0.687878,-0.064431,0.994611,39.106792,-22.817886,-3.570986,0.547880,1.702071,-0.235429,0.000000,0.000000,0.000000,0.000000,0.000000,0.000000
14908286.000000,-2.312288,-1.662568,1.229655,-1.444070,1.711231,1.268888,-0.578490,0.284874,-0.001446,0.719402,-0.238339,-0.181318,0.685726,-0.060769,0.970807,39.182171,-22.770279,-3.670168,0.494779,1.708480,-0.281205,0.000000,0.000000,0.000000,0.000000,0.000000,0.000000
14908287.000000,-2.312003,-1.662566,1.230380,-1.444301,1.711049,1.269591,-0.578556,0.282099,-0.000353,0.713747,-0.232961,-0.184891,0.695568,-0.060147,0.970807,39.158367,-22.571915,-3.769350,0.488370,1.643478,-0.268388,0.000000,0.000000,0.000000,0.000000,0.000000,0.000000
14908288.000000,-2.311718,-1.662568,1.231105,-1.444529,1.710867,1.270282,-0.578632,0.284509,-0.000751,0.712530,-0.228898,-0.183210,0.696566,-0.065996,0.970807,39.182171,-22.548111,-3.892336,0.458158,1.630660,-0.202470,0.000000,0.000000,0.000000,0.000000,0.000000,0.000000
14908289.000000,-2.311425,-1.662568,1.231833,-1.444761,1.710680,1.270976,-0.578690,0.284712,-0.000470,0.713306,-0.228132,-0.185636,0.698410,-0.062161,0.847822,39.182171,-22.472733,-3.920107,0.428861,1.676437,-0.235429,0.000000,0.000000,0.000000,0.000000,0.000000,0.000000
14908290.000000,-2.311128,-1.662566,1.232575,-1.444989,1.710500,1.271660,-0.578754,0.286357,0.000267,0.717861,-0.224489,-0.180184,0.707749,-0.059219,0.697065,39.158367,-22.571915,-3.943910,0.422452,1.702071,-0.274796,0.000000,0.000000,0.000000,0.000000,0.000000,0.000000
14908291.000000,-2.310841,-1.662567,1.233280,-1.445216,1.710317,1.272353,-0.578827,0.286667,0.000845,0.717608,-0.227324,-0.177753,0.704931,-0.066022,0.574079,39.130596,-22.353714,-3.991518,0.458158,1.721298,-0.202470,0.000000,0.000000,0.000000,0.000000,0.000000,0.000000
14908292.000000,-2.310546,-1.662565,1.234016,-1.445444,1.710132,1.273054,-0.578886,0.286881,0.000576,0.713046,-0.225419,-0.179050,0.699772,-0.065995,0.403486,39.130596,-22.448929,-4.043092,0.488370,1.676437,-0.261979,0.000000,0.000000,0.000000,0.000000,0.000000,0.000000
14908293.000000,-2.310251,-1.662561,1.234760,-1.445662,1.709961,1.273752,-0.578952,0.288596,0.001507,0.729288,-0.220904,-0.178686,0.702786,-0.064241,0.205121,39.082989,-22.623489,-4.142274,0.452665,1.591293,-0.241837,0.000000,0.000000,0.000000,0.000000,0.000000,0.000000
14908294.000000,-2.309952,-1.662558,1.235491,-1.445878,1.709787,1.274447,-0.579019,0.287603,0.002126,0.729666,-0.219209,-0.181061,0.700859,-0.067295,0.078168,39.035381,-22.742508,-4.289064,0.398649,1.572067,-0.235429,0.000000,0.000000,0.000000,0.000000,0.000000,0.000000
14908295.000000,-2.309653,-1.662554,1.236228,-1.446103,1.709606,1.275141,-0.579085,0.287679,0.002629,0.727690,-0.216389,-0.181519,0.697978,-0.068859,-0.068621,38.983807,-22.817886,-4.364442,0.422452,1.637069,-0.241837,0.000000,0.000000,0.000000,0.000000,0.000000,0.000000
14908296.000000,-2.309359,-1.662554,1.236956,-1.446312,1.709422,1.275810,-0.579148,0.288463,0.001757,0.724174,-0.211040,-0.177361,0.693216,-0.065477,-0.243182,38.983807,-22.893265,-4.586610,0.422452,1.767074,-0.248246,0.000000,0.000000,0.000000,0.000000,0.000000,0.000000
14908297.000000,-2.309062,-1.662556,1.237697,-1.446528,1.709241,1.276481,-0.579211,0.288119,0.000525,0.726469,-0.210331,-0.182632,0.683315,-0.067067,-0.413775,39.011578,-23.063858,-4.661989,0.440763,1.923629,-0.274796,0.000000,0.000000,0.000000,0.000000,0.000000,0.000000
14908298.000000,-2.308772,-1.662556,1.238440,-1.446739,1.709073,1.277162,-0.579282,0.293143,0.000352,0.727519,-0.210939,-0.170879,0.682768,-0.066979,-0.540728,39.011578,-23.210648,-4.832582,0.374845,1.942855,-0.202470,0.000000,0.000000,0.000000,0.000000,0.000000,0.000000
14908299.000000,-2.308475,-1.662556,1.239175,-1.446955,1.708905,1.277853,-0.579341,0.291726,0.000886,0.731151,-0.211182,-0.167506,0.677456,-0.061020,-0.687518,38.983807,-23.333633,-4.884157,0.327238,1.832076,-0.268388,0.000000,0.000000,0.000000,0.000000,0.000000,0.000000
14908300.000000,-2.308175,-1.662559,1.239915,-1.447166,1.708729,1.278559,-0.579411,0.290198,-0.000614,0.729300,-0.209757,-0.171345,0.683702,-0.062040,-0.834307,39.035381,-23.456619,-4.983339,0.351041,1.682845,-0.208878,0.000000,0.000000,0.000000,0.000000,0.000000,0.000000
14908301.000000,-2.307877,-1.662558,1.240635,-1.447376,1.708561,1.279227,-0.579471,0.294507,0.000148,0.721440,-0.208771,-0.172843,0.685726,-0.063911,-1.032672,39.011578,-23.409012,-4.955568,0.308927,1.708480,-0.235429,0.000000,0.000000,0.000000,0.000000,0.000000,0.000000
14908302.000000,-2.307578,-1.662562,1.241358,-1.447581,1.708384,1.279896,-0.579538,0.292717,-0.001014,0.714722,-0.209318,-0.174838,0.677969,-0.068196,-1.207232,39.059185,-23.286026,-5.007143,0.327238,1.838485,-0.196061,0.000000,0.000000,0.000000,0.000000,0.000000,0.000000
14908303.000000,-2.307282,-1.662568,1.242084,-1.447788,1.708201,1.280559,-0.579599,0.296097,-0.002346,0.715513,-0.206485,-0.179459,0.675096,-0.064322,-1.330218,39.130596,-23.111465,-5.054750,0.405057,1.923629,-0.208878,0.000000,0.000000,0.000000,0.000000,0.000000,0.000000
14908304.000000,-2.306994,-1.662571,1.242796,-1.447989,1.708024,1.281244,-0.579659,0.295801,-0.002770,0.713613,-0.206257,-0.175614,0.682589,-0.061675,-1.405596,39.182171,-22.964676,-5.153932,0.416959,1.890670,-0.229020,0.000000,0.000000,0.000000,0.000000,0.000000,0.000000
14908305.000000,-2.306702,-1.662575,1.243527,-1.448186,1.707855,1.281929,-0.579718,0.294454,-0.002403,0.713298,-0.202466,-0.174365,0.686889,-0.059390,-1.453204,39.205975,-22.893265,-5.253114,0.374845,1.884261,-0.254655,0.000000,0.000000,0.000000,0.000000,0.000000,0.000000
14908306.000000,-2.306420,-1.662577,1.244258,-1.448383,1.707694,1.282607,-0.579779,0.288739,-0.002159,0.731411,-0.200746,-0.165241,0.682422,-0.059034,-1.429400,39.229778,-23.016251,-5.328493,0.320829,1.832076,-0.241837,0.000000,0.000000,0.000000,0.000000,0.000000,0.000000
14908307.000000,-2.306128,-1.662585,1.244989,-1.448594,1.707527,1.283293,-0.579841,0.286358,-0.003759,0.728873,-0.203093,-0.164278,0.681089,-0.058907,-1.480975,39.328960,-23.016251,-5.253114,0.320829,1.812850,-0.229020,0.000000,0.000000,0.000000,0.000000,0.000000,0.000000
14908308.000000,-2.305839,-1.662593,1.245722,-1.448797,1.707356,1.283966,-0.579893,0.288082,-0.008528,0.726799,-0.199496,-0.166436,0.690243,-0.056744,-1.528582,39.451946,-23.040054,-5.253114,0.374845,1.838485,-0.268388,0.000000,0.000000,0.000000,0.000000,0.000000,0.000000
14908309.000000,-2.305559,-1.662601,1.246449,-1.449001,1.707189,1.284654,-0.579959,0.282752,-0.007618,0.732332,-0.199569,-0.160403,0.691102,-0.063717,-1.580157,39.523357,-23.163040,-5.153932,0.351041,1.865035,-0.208878,0.000000,0.000000,0.000000,0.000000,0.000000,0.000000
14908310.000000,-2.305277,-1.662607,1.247192,-1.449202,1.707017,1.285343,-0.580014,0.279391,-0.007038,0.729836,-0.201978,-0.162608,0.682891,-0.060597,-1.528582,39.598736,-23.381241,-5.177736,0.297025,1.858627,-0.241837,0.000000,0.000000,0.000000,0.000000,0.000000,0.000000
14908311.000000,-2.304996,-1.662620,1.247939,-1.449398,1.706847,1.286033,-0.580078,0.282582,-0.010873,0.743134,-0.201893,-0.164051,0.689545,-0.055714,-1.528582,39.721722,-23.678787,-5.253114,0.320829,1.793624,-0.215287,0.000000,0.000000,0.000000,0.000000,0.000000,0.000000
14908312.000000,-2.304720,-1.662632,1.248671,-1.449594,1.706681,1.286721,-0.580133,0.279116,-0.011056,0.739647,-0.200073,-0.163330,0.691870,-0.054404,-1.453204,39.868511,-23.801773,-5.328493,0.327238,1.767074,-0.248246,0.000000,0.000000,0.000000,0.000000,0.000000,0.000000
14908313.000000,-2.304432,-1.662650,1.249410,-1.449789,1.706515,1.287397,-0.580196,0.280580,-0.015239,0.733114,-0.194989,-0.163355,0.687965,-0.055316,-1.528582,40.062908,-23.972366,-5.427675,0.351041,1.903487,-0.235429,0.000000,0.000000,0.000000,0.000000,0.000000,0.000000
14908314.000000,-2.304160,-1.662662,1.250143,-1.449990,1.706339,1.288053,-0.580257,0.277319,-0.013500,0.732781,-0.197792,-0.165342,0.684441,-0.056078,-1.504779,40.185894,-24.095352,-5.399904,0.405057,2.072860,-0.208878,0.000000,0.000000,0.000000,0.000000,0.000000,0.000000
14908315.000000,-2.303882,-1.662678,1.250879,-1.450195,1.706178,1.288727,-0.580308,0.273956,-0.015833,0.724416,-0.198541,-0.166845,0.677355,-0.053889,-1.552386,40.332684,-24.190567,-5.399904,0.369352,2.085677,-0.268388,0.000000,0.000000,0.000000,0.000000,0.000000,0.000000
14908316.000000,-2.303610,-1.662694,1.251617,-1.450399,1.706002,1.289405,-0.580374,0.279749,-0.014504,0.723686,-0.196878,-0.166881,0.681781,-0.057391,-1.552386,40.479473,-24.242142,-5.376100,0.393156,2.007858,-0.196061,0.000000,0.000000,0.000000,0.000000,0.000000,0.000000
14908317.000000,-2.303339,-1.662708,1.252347,-1.450598,1.705826,1.290090,-0.580427,0.277030,-0.014902,0.723547,-0.199159,-0.160478,0.679959,-0.055603,-1.480975,40.550884,-24.313553,-5.328493,0.362943,1.909896,-0.235429,0.000000,0.000000,0.000000,0.000000,0.000000,0.000000
14908318.000000,-2.303071,-1.662721,1.253075,-1.450797,1.705652,1.290770,-0.580488,0.271446,-0.014187,0.720170,-0.198528,-0.163544,0.680308,-0.056548,-1.405596,40.578655,-24.289749,-5.352296,0.332731,1.897079,-0.208878,0.000000,0.000000,0.000000,0.000000,0.000000,0.000000
14908319.000000,-2.302804,-1.662733,1.253796,-1.450997,1.705478,1.291434,-0.580541,0.271774,-0.013733,0.723016,-0.198673,-0.165985,0.679419,-0.058786,-1.330218,40.602459,-24.242142,-5.376100,0.386747,1.923629,-0.248246,0.000000,0.000000,0.000000,0.000000,0.000000,0.000000
14908320.000000,-2.302539,-1.662751,1.254526,-1.451202,1.705303,1.292113,-0.580604,0.267587,-0.012788,0.718588,-0.200044,-0.169680,0.677665,-0.064763,-1.254840,40.725445,-24.218338,-5.352296,0.416959,1.949264,-0.202470,0.000000,0.000000,0.000000,0.000000,0.000000,0.000000
14908321.000000,-2.302283,-1.662761,1.255256,-1.451403,1.705137,1.292777,-0.580655,0.268909,-0.012234,0.714310,-0.199776,-0.167939,0.674051,-0.060361,-1.108050,40.725445,-24.043777,-5.376100,0.422452,1.936446,-0.261979,0.000000,0.000000,0.000000,0.000000,0.000000,0.000000
14908322.000000,-2.302024,-1.662765,1.255981,-1.451604,1.704973,1.293459,-0.580714,0.268352,-0.010249,0.716201,-0.200819,-0.165759,0.675882,-0.060130,-0.985064,40.650066,-24.019974,-5.352296,0.393156,1.930038,-0.248246,0.000000,0.000000,0.000000,0.000000,0.000000,0.000000
14908323.000000,-2.301755,-1.662775,1.256704,-1.451810,1.704810,1.294152,-0.580774,0.266577,-0.007055,0.711856,-0.204288,-0.162713,0.679803,-0.055413,-0.961260,40.626263,-23.825577,-5.328493,0.351041,1.844894,-0.221696,0.000000,0.000000,0.000000,0.000000,0.000000,0.000000
14908324.000000,-2.301498,-1.662782,1.257423,-1.452017,1.704641,1.294834,-0.580830,0.264686,-0.004731,0.726358,-0.203106,-0.163664,0.682960,-0.059909,-0.885882,40.602459,-23.774002,-5.205507,0.362943,1.754256,-0.235429,0.000000,0.000000,0.000000,0.000000,0.000000,0.000000
14908325.000000,-2.301228,-1.662783,1.258149,-1.452226,1.704471,1.295520,-0.580888,0.265903,-0.003214,0.720921,-0.202632,-0.163892,0.684033,-0.059050,-0.933489,40.455669,-23.726395,-5.054750,0.386747,1.767074,-0.229020,0.000000,0.000000,0.000000,0.000000,0.000000,0.000000
14908326.000000,-2.300962,-1.662793,1.258873,-1.452445,1.704312,1.296192,-0.580938,0.266272,-0.005111,0.715344,-0.210938,-0.166455,0.677243,-0.056787,-0.961260,40.427898,-23.627213,-4.784975,0.362943,1.812850,-0.268388,0.000000,0.000000,0.000000,0.000000,0.000000,0.000000
14908327.000000,-2.300706,-1.662795,1.259584,-1.452654,1.704147,1.296885,-0.581002,0.262578,-0.001314,0.716329,-0.209876,-0.163404,0.677010,-0.063923,-0.961260,40.308880,-23.579605,-4.709596,0.416959,1.832076,-0.202470,0.000000,0.000000,0.000000,0.000000,0.000000,0.000000
14908328.000000,-2.300448,-1.662803,1.260311,-1.452864,1.703987,1.297578,-0.581051,0.265061,-0.004558,0.713604,-0.212451,-0.167480,0.673460,-0.060245,-0.933489,40.308880,-23.603409,-4.586610,0.434354,1.793624,-0.248246,0.000000,0.000000,0.000000,0.000000,0.000000,0.000000
14908329.000000,-2.300185,-1.662803,1.261044,-1.453069,1.703831,1.298266,-0.581107,0.261365,-0.003844,0.715816,-0.215152,-0.160718,0.681304,-0.059194,-0.985064,40.185894,-23.726395,-4.535036,0.405057,1.747848,-0.248246,0.000000,0.000000,0.000000,0.000000,0.000000,0.000000
14908330.000000,-2.299928,-1.662805,1.261764,-1.453283,1.703676,1.298952,-0.581166,0.264517,-0.001541,0.714226,-0.214438,-0.159366,0.684276,-0.060115,-0.961260,40.110516,-23.750198,-4.388246,0.381254,1.773483,-0.208878,0.000000,0.000000,0.000000,0.000000,0.000000,0.000000
14908331.000000,-2.299666,-1.662809,1.262497,-1.453504,1.703511,1.299645,-0.581216,0.260336,-0.003074,0.714197,-0.216457,-0.160556,0.682450,-0.056980,-0.933489,40.039104,-23.896988,-4.241457,0.410551,1.793624,-0.261979,0.000000,0.000000,0.000000,0.000000,0.000000,0.000000
14908332.000000,-2.299414,-1.662819,1.263216,-1.453722,1.703342,1.300321,-0.581271,0.257602,-0.002730,0.714235,-0.214920,-0.162673,0.686282,-0.057227,-0.909686,40.039104,-23.972366,-4.118471,0.440763,1.800033,-0.254655,0.000000,0.000000,0.000000,0.000000,0.000000,0.000000
14908333.000000,-2.299156,-1.662821,1.263942,-1.453936,1.703176,1.300993,-0.581332,0.257752,-0.000567,0.710823,-0.213117,-0.162588,0.679142,-0.058815,-0.961260,39.963726,-24.095352,-4.019289,0.458158,1.916305,-0.208878,0.000000,0.000000,0.000000,0.000000,0.000000,0.000000
14908334.000000,-2.298908,-1.662821,1.264674,-1.454156,1.703019,1.301665,-0.581385,0.260339,0.001467,0.719145,-0.214760,-0.161907,0.682128,-0.056512,-0.933489,39.868511,-24.218338,-3.920107,0.434354,1.981307,-0.248246,0.000000,0.000000,0.000000,0.000000,0.000000,0.000000
14908335.000000,-2.298656,-1.662822,1.265393,-1.454367,1.702859,1.302356,-0.581440,0.256304,0.002454,0.720451,-0.213223,-0.162812,0.676102,-0.051156,-0.862078,39.793133,-24.265945,-3.943910,0.446256,1.884261,-0.268388,0.000000,0.000000,0.000000,0.000000,0.000000,0.000000
14908336.000000,-2.298401,-1.662823,1.266113,-1.454581,1.702696,1.303048,-0.581502,0.253176,0.000043,0.718935,-0.212928,-0.161955,0.676922,-0.055102,-0.810504,39.721722,-24.265945,-3.920107,0.452665,1.897079,-0.196061,0.000000,0.000000,0.000000,0.000000,0.000000,0.000000
14908337.000000,-2.298149,-1.662821,1.266825,-1.454794,1.702544,1.303714,-0.581549,0.249174,0.001933,0.711960,-0.210856,-0.156795,0.673745,-0.052870,-0.810504,39.622540,-24.242142,-3.868532,0.422452,2.007858,-0.254655,0.000000,0.000000,0.000000,0.000000,0.000000,0.000000
14908338.000000,-2.297892,-1.662817,1.267540,-1.455015,1.702389,1.304399,-0.581603,0.247549,0.002740,0.709628,-0.216558,-0.156453,0.671751,-0.053077,-0.862078,39.547161,-24.190567,-3.769350,0.393156,2.079269,-0.274796,0.000000,0.000000,0.000000,0.000000,0.000000,0.000000
14908339.000000,-2.297637,-1.662815,1.268254,-1.455243,1.702226,1.305074,-0.581663,0.254391,0.002150,0.704156,-0.217721,-0.160275,0.680095,-0.055697,-0.909686,39.523357,-23.996170,-3.670168,0.446256,2.053634,-0.221696,0.000000,0.000000,0.000000,0.000000,0.000000,0.000000
14908340.000000,-2.297394,-1.662811,1.268958,-1.455465,1.702062,1.305768,-0.581714,0.253980,0.002928,0.706798,-0.219290,-0.161748,0.683674,-0.055064,-0.885882,39.451946,-23.896988,-3.547182,0.470060,1.962081,-0.241837,0.000000,0.000000,0.000000,0.000000,0.000000,0.000000
14908341.000000,-2.297139,-1.662798,1.269675,-1.455685,1.701906,1.306462,-0.581769,0.256311,0.005255,0.702213,-0.218845,-0.159969,0.685073,-0.056328,-0.909686,39.305157,-23.774002,-3.475771,0.440763,1.884261,-0.215287,0.000000,0.000000,0.000000,0.000000,0.000000,0.000000
14908342.000000,-2.296895,-1.662789,1.270398,-1.455906,1.701756,1.307142,-0.581818,0.253387,0.012515,0.719840,-0.223899,-0.155438,0.681168,-0.054520,-0.834307,39.182171,-23.750198,-3.400392,0.416959,1.819259,-0.254655,0.000000,0.000000,0.000000,0.000000,0.000000,0.000000
14908343.000000,-2.296651,-1.662780,1.271103,-1.456129,1.701598,1.307824,-0.581874,0.247486,0.011109,0.719484,-0.221209,-0.153949,0.679529,-0.056300,-0.762896,39.082989,-23.702591,-3.376589,0.464567,1.812850,-0.221696,0.000000,0.000000,0.000000,0.000000,0.000000,0.000000
14908344.000000,-2.296405,-1.662781,1.271816,-1.456353,1.701449,1.308493,-0.581924,0.246274,0.007183,0.714041,-0.220680,-0.151424,0.674297,-0.055148,-0.687518,39.106792,-23.627213,-3.301210,0.482877,1.832076,-0.248246,0.000000,0.000000,0.000000,0.000000,0.000000,0.000000
14908345.000000,-2.296169,-1.662775,1.272528,-1.456566,1.701302,1.309165,-0.581980,0.242301,0.006710,0.717022,-0.222497,-0.145002,0.670043,-0.052075,-0.588336,39.035381,-23.774002,-3.277406,0.470060,1.968490,-0.215287,0.000000,0.000000,0.000000,0.000000,0.000000,0.000000
14908346.000000,-2.295931,-1.662772,1.273255,-1.456783,1.701154,1.309842,-0.582023,0.238642,0.005868,0.714106,-0.222801,-0.147311,0.665173,-0.045979,-0.512957,38.983807,-23.920792,-3.277406,0.440763,2.020675,-0.274796,0.000000,0.000000,0.000000,0.000000,0.000000,0.000000
14908347.000000,-2.295705,-1.662773,1.273978,-1.456998,1.701005,1.310521,-0.582076,0.235064,0.002846,0.727665,-0.225911,-0.150044,0.670360,-0.048617,-0.366168,39.035381,-24.043777,-3.249635,0.405057,1.988631,-0.268388,0.000000,0.000000,0.000000,0.000000,0.000000,0.000000
14908348.000000,-2.295465,-1.662774,1.274690,-1.457217,1.700850,1.311212,-0.582128,0.235204,0.001446,0.727462,-0.221051,-0.150983,0.675974,-0.046747,-0.314593,39.059185,-24.119156,-3.178224,0.452665,1.903487,-0.241837,0.000000,0.000000,0.000000,0.000000,0.000000,0.000000
14908349.000000,-2.295226,-1.662779,1.275408,-1.457427,1.700700,1.311893,-0.582184,0.234206,-0.000627,0.719943,-0.218890,-0.153567,0.671249,-0.049452,-0.266986,39.130596,-24.242142,-3.178224,0.458158,1.930038,-0.229020,0.000000,0.000000,0.000000,0.000000,0.000000,0.000000
14908350.000000,-2.294995,-1.662782,1.276115,-1.457639,1.700551,1.312556,-0.582236,0.231276,-0.001565,0.718719,-0.215851,-0.149346,0.667507,-0.047203,-0.215411,39.182171,-24.341324,-3.126650,0.518583,1.962081,-0.208878,0.000000,0.000000,0.000000,0.000000,0.000000,0.000000
14908351.000000,-2.294760,-1.662787,1.276832,-1.457849,1.700404,1.313238,-0.582278,0.232006,-0.002669,0.716151,-0.215361,-0.148480,0.671138,-0.046973,-0.167803,39.253582,-24.365128,-3.102846,0.554288,1.903487,-0.274796,0.000000,0.000000,0.000000,0.000000,0.000000,0.000000
14908352.000000,-2.294535,-1.662800,1.277547,-1.458055,1.700258,1.313912,-0.582333,0.233656,-0.005829,0.712987,-0.211107,-0.152537,0.674231,-0.051782,-0.092425,39.428143,-24.365128,-3.126650,0.571683,1.865035,-0.215287,0.000000,0.000000,0.000000,0.000000,0.000000,0.000000
14908353.000000,-2.294315,-1.662812,1.278248,-1.458254,1.700118,1.314579,-0.582374,0.228046,-0.007295,0.705776,-0.211060,-0.144904,0.664984,-0.050774,0.078168,39.574932,-24.265945,-3.154421,0.542386,1.897079,-0.274796,0.000000,0.000000,0.000000,0.000000,0.000000,0.000000
14908354.000000,-2.294096,-1.662814,1.278960,-1.458455,1.699977,1.315251,-0.582429,0.222585,-0.005401,0.699604,-0.205497,-0.142788,0.661362,-0.048775,0.252729,39.598736,-24.218338,-3.277406,0.512174,1.974899,-0.241837,0.000000,0.000000,0.000000,0.000000,0.000000,0.000000
14908355.000000,-2.293874,-1.662820,1.279656,-1.458654,1.699839,1.315915,-0.582479,0.224441,-0.005257,0.714862,-0.206488,-0.140890,0.661311,-0.051179,0.375715,39.670147,-24.071548,-3.325014,0.434354,1.974899,-0.229020,0.000000,0.000000,0.000000,0.000000,0.000000,0.000000
14908356.000000,-2.293646,-1.662820,1.280360,-1.458852,1.699692,1.316603,-0.582525,0.227041,-0.003494,0.707038,-0.201581,-0.141923,0.662131,-0.051752,0.427289,39.670147,-23.972366,-3.348818,0.452665,1.923629,-0.248246,0.000000,0.000000,0.000000,0.000000,0.000000,0.000000
14908357.000000,-2.293426,-1.662823,1.281062,-1.459049,1.699552,1.317282,-0.582576,0.223882,-0.003528,0.699297,-0.201184,-0.141782,0.681428,-0.053588,0.526471,39.721722,-23.801773,-3.376589,0.446256,1.793624,-0.229020,0.000000,0.000000,0.000000,0.000000,0.000000,0.000000
14908358.000000,-2.293203,-1.662818,1.281765,-1.459247,1.699417,1.317974,-0.582621,0.224358,-0.000583,0.699776,-0.201780,-0.142406,0.683762,-0.053543,0.550275,39.646343,-23.774002,-3.376589,0.434354,1.708480,-0.248246,0.000000,0.000000,0.000000,0.000000,0.000000,0.000000
14908359.000000,-2.292979,-1.662813,1.282467,-1.459443,1.699279,1.318668,-0.582673,0.222821,0.001286,0.696841,-0.200969,-0.143133,0.684434,-0.055416,0.574079,39.574932,-23.627213,-3.400392,0.458158,1.643478,-0.215287,0.000000,0.000000,0.000000,0.000000,0.000000,0.000000
14908360.000000,-2.292762,-1.662811,1.283166,-1.459637,1.699136,1.319346,-0.582720,0.219539,0.001511,0.708235,-0.197991,-0.145395,0.678496,-0.049464,0.625654,39.547161,-23.409012,-3.400392,0.506681,1.630660,-0.254655,0.000000,0.000000,0.000000,0.000000,0.000000,0.000000
14908361.000000,-2.292540,-1.662804,1.283854,-1.459826,1.698998,1.320029,-0.582769,0.218850,0.003237,0.701374,-0.191365,-0.145279,0.680525,-0.047656,0.601850,39.451946,-23.286026,-3.448000,0.530485,1.656295,-0.221696,0.000000,0.000000,0.000000,0.000000,0.000000,0.000000
14908362.000000,-2.292322,-1.662797,1.284558,-1.460021,1.698868,1.320706,-0.582821,0.221272,0.004480,0.697116,-0.190064,-0.141517,0.675905,-0.045506,0.697065,39.352764,-23.210648,-3.475771,0.458158,1.760665,-0.208878,0.000000,0.000000,0.000000,0.000000,0.000000,0.000000
14908363.000000,-2.292097,-1.662790,1.285247,-1.460206,1.698741,1.321391,-0.582865,0.223854,0.005308,0.689014,-0.188776,-0.136682,0.677555,-0.047330,0.649457,39.253582,-23.163040,-3.523378,0.416959,1.747848,-0.221696,0.000000,0.000000,0.000000,0.000000,0.000000,0.000000
14908364.000000,-2.291870,-1.662785,1.285945,-1.460397,1.698606,1.322074,-0.582904,0.224528,0.005210,0.687068,-0.189050,-0.132587,0.672832,-0.043179,0.574079,39.182171,-23.087662,-3.499574,0.393156,1.735030,-0.268388,0.000000,0.000000,0.000000,0.000000,0.000000,0.000000
14908365.000000,-2.291647,-1.662773,1.286654,-1.460583,1.698470,1.322754,-0.582954,0.228847,0.006908,0.686907,-0.185924,-0.131909,0.678639,-0.043051,0.474897,39.035381,-23.135269,-3.499574,0.405057,1.747848,-0.235429,0.000000,0.000000,0.000000,0.000000,0.000000,0.000000
14908366.000000,-2.291421,-1.662767,1.287354,-1.460771,1.698333,1.323447,-0.583001,0.226481,0.006369,0.691012,-0.188993,-0.130509,0.679329,-0.042531,0.403486,38.960003,-23.258255,-3.400392,0.398649,1.747848,-0.215287,0.000000,0.000000,0.000000,0.000000,0.000000,0.000000
14908367.000000,-2.291193,-1.662755,1.288059,-1.460959,1.698197,1.324146,-0.583045,0.223720,0.011398,0.687837,-0.186021,-0.130227,0.680917,-0.045147,0.304304,38.789410,-23.309830,-3.376589,0.434354,1.714889,-0.235429,0.000000,0.000000,0.000000,0.000000,0.000000,0.000000
14908368.000000,-2.290977,-1.662746,1.288757,-1.461132,1.698059,1.324832,-0.583093,0.220653,0.010182,0.709810,-0.181075,-0.131901,0.687606,-0.048576,0.276533,38.690228,-23.432816,-3.475771,0.500272,1.649886,-0.208878,0.000000,0.000000,0.000000,0.000000,0.000000,0.000000
