chaoyuefei/paper-gmrm-data/robot_logs/s2_dq_mrm_min_0.50_log_20260314_174629.csv
# time_ms,q_0,q_1,q_2,q_3,q_4,q_5,q_6,dq_0,dq_1,dq_2,dq_3,dq_4,dq_5,dq_6,tau_J_0,tau_J_1,tau_J_2,tau_J_3,tau_J_4,tau_J_5,tau_J_6,O_dP_EE_c_0,O_dP_EE_c_1,O_dP_EE_c_2,O_dP_EE_c_3,O_dP_EE_c_4,O_dP_EE_c_5
13051967.000000,-2.417848,-1.662623,1.040150,-1.352888,1.798094,1.079503,-0.546497,0.000716,-0.000135,0.000180,-0.000315,-0.000572,0.000013,0.000775,0.006757,41.606182,-21.024673,-5.697450,0.835355,1.324874,0.015426,0.000000,0.000000,0.000000,0.000000,0.000000,0.000000
13051968.000000,-2.417852,-1.662625,1.040150,-1.352888,1.798095,1.079507,-0.546498,-0.000636,-0.000647,0.000120,-0.000210,0.000297,0.000484,0.000280,0.054365,41.629986,-21.024673,-5.697450,0.817045,1.312057,0.021835,0.000000,0.000000,0.000000,0.000000,0.000000,0.000000
13051969.000000,-2.417847,-1.662625,1.040148,-1.352888,1.798095,1.079504,-0.546497,0.001246,-0.000431,0.000080,0.000417,0.000401,0.000085,0.000424,-0.017047,41.629986,-21.024673,-5.721254,0.811552,1.318465,0.015426,0.000000,0.000000,0.000000,0.000000,0.000000,0.000000
13051970.000000,-2.417853,-1.662626,1.040146,-1.352890,1.798097,1.079506,-0.546498,-0.001396,-0.000844,-0.001060,-0.000836,-0.000173,0.000057,-0.000192,0.078168,41.653790,-20.977066,-5.673646,0.823453,1.318465,0.028243,0.000000,0.000000,0.000000,0.000000,0.000000,0.000000
13051971.000000,-2.417848,-1.662621,1.040146,-1.352888,1.798098,1.079502,-0.546497,0.009146,0.000250,-0.000707,-0.000557,0.001004,-0.001658,-0.008130,0.328107,41.483196,-20.977066,-5.673646,0.793241,1.364242,-0.011124,0.000000,0.000000,0.000000,0.000000,0.000000,0.000000
13051972.000000,-2.417834,-1.662628,1.040151,-1.352886,1.798098,1.079500,-0.546510,0.018383,-0.002852,0.005702,0.001904,-0.000701,0.002188,-0.014229,1.315961,41.336407,-20.977066,-5.499086,0.703519,1.526290,-0.050492,0.000000,0.000000,0.000000,0.000000,0.000000,0.000000
13051973.000000,-2.417808,-1.662629,1.040160,-1.352883,1.798093,1.079499,-0.546544,0.023383,-0.003504,0.006364,0.001712,-0.001596,-0.001746,-0.021204,2.902875,40.967449,-20.929459,-5.229311,0.596403,1.760665,-0.023942,0.000000,0.000000,0.000000,0.000000,0.000000,0.000000
13051974.000000,-2.417754,-1.662631,1.040179,-1.352888,1.798078,1.079516,-0.546577,0.029981,-0.002219,0.010512,0.000142,-0.010140,0.004851,-0.026844,4.707990,40.503277,-20.905655,-4.884157,0.571683,1.877853,-0.110001,0.000000,0.000000,0.000000,0.000000,0.000000,0.000000
13051975.000000,-2.417694,-1.662626,1.040196,-1.352900,1.798048,1.079566,-0.546636,0.034513,0.003691,0.014534,-0.004765,-0.017933,0.016657,-0.041807,6.616254,39.939922,-20.782669,-4.487428,0.584501,1.812850,-0.044083,0.000000,0.000000,0.000000,0.000000,0.000000,0.000000
13051976.000000,-2.417604,-1.662627,1.040231,-1.352927,1.798007,1.079647,-0.546709,0.047392,0.002627,0.023735,-0.011845,-0.025071,0.040122,-0.050712,8.199201,39.451946,-20.782669,-4.066896,0.637601,1.584884,-0.037675,0.000000,0.000000,0.000000,0.000000,0.000000,0.000000
13051977.000000,-2.417506,-1.662625,1.040271,-1.352961,1.797954,1.079748,-0.546790,0.058261,0.004123,0.032520,-0.020843,-0.033937,0.065139,-0.059474,9.710736,38.983807,-20.731094,-3.745546,0.667814,1.389877,-0.097184,0.000000,0.000000,0.000000,0.000000,0.000000,0.000000
13051978.000000,-2.417391,-1.662621,1.040316,-1.353006,1.797886,1.079858,-0.546906,0.072839,0.004677,0.038687,-0.026551,-0.049877,0.083427,-0.078862,10.972333,38.543438,-20.659683,-3.475771,0.691617,1.324874,-0.064225,0.000000,0.000000,0.000000,0.000000,0.000000,0.000000
13051979.000000,-2.417262,-1.662620,1.040376,-1.353068,1.797804,1.079988,-0.547042,0.090173,0.003177,0.043686,-0.038266,-0.064311,0.099403,-0.097660,12.087140,38.178448,-20.608109,-3.154421,0.661405,1.324874,-0.097184,0.000000,0.000000,0.000000,0.000000,0.000000,0.000000
13051980.000000,-2.417122,-1.662608,1.040442,-1.353138,1.797709,1.080137,-0.547208,0.104657,0.007242,0.049692,-0.048021,-0.076827,0.116876,-0.116200,13.102765,37.738079,-20.512894,-2.928285,0.542386,1.442062,-0.089860,0.000000,0.000000,0.000000,0.000000,0.000000,0.000000
13051981.000000,-2.416971,-1.662596,1.040529,-1.353221,1.797593,1.080311,-0.547406,0.121800,0.008430,0.060811,-0.060984,-0.089013,0.134742,-0.139732,13.967633,37.369122,-20.560501,-2.733888,0.488370,1.565658,-0.070634,0.000000,0.000000,0.000000,0.000000,0.000000,0.000000
13051982.000000,-2.416803,-1.662582,1.040630,-1.353317,1.797462,1.080516,-0.547622,0.135822,0.009350,0.073241,-0.072135,-0.105062,0.155393,-0.164340,14.733319,37.004131,-20.659683,-2.606935,0.374845,1.637069,-0.122819,0.000000,0.000000,0.000000,0.000000,0.000000,0.000000
13051983.000000,-2.416618,-1.662564,1.040744,-1.353429,1.797309,1.080757,-0.547879,0.154506,0.010305,0.087115,-0.084670,-0.124386,0.184354,-0.187534,15.304608,36.635174,-20.830276,-2.460146,0.315336,1.605026,-0.056901,0.000000,0.000000,0.000000,0.000000,0.000000,0.000000
13051984.000000,-2.416413,-1.662537,1.040873,-1.353560,1.797122,1.081031,-0.548138,0.171322,0.016902,0.099569,-0.100379,-0.143152,0.211733,-0.209495,15.701337,36.147198,-20.977066,-2.313356,0.369352,1.519881,-0.110001,0.000000,0.000000,0.000000,0.000000,0.000000,0.000000
13051985.000000,-2.416190,-1.662525,1.041020,-1.353710,1.796921,1.081329,-0.548438,0.186990,0.016542,0.113817,-0.113804,-0.165360,0.242865,-0.234301,16.046492,35.877422,-21.223038,-2.237978,0.398649,1.409103,-0.050492,0.000000,0.000000,0.000000,0.000000,0.000000,0.000000
13051986.000000,-2.415952,-1.662498,1.041172,-1.353878,1.796688,1.081641,-0.548736,0.207689,0.020551,0.124532,-0.131469,-0.187957,0.262667,-0.256157,16.268660,35.437054,-21.322220,-2.114992,0.470060,1.389877,-0.083451,0.000000,0.000000,0.000000,0.000000,0.000000,0.000000
13051987.000000,-2.415699,-1.662486,1.041340,-1.354057,1.796436,1.081970,-0.549045,0.219995,0.017758,0.135199,-0.144498,-0.203772,0.283721,-0.269040,16.467024,35.238689,-21.393631,-2.114992,0.530485,1.454879,-0.050492,0.000000,0.000000,0.000000,0.000000,0.000000,0.000000
13051988.000000,-2.415435,-1.662470,1.041514,-1.354247,1.796177,1.082325,-0.549351,0.233280,0.015948,0.145945,-0.157761,-0.221912,0.305961,-0.281305,16.740767,35.044292,-21.445206,-2.138796,0.488370,1.487838,-0.056901,0.000000,0.000000,0.000000,0.000000,0.000000,0.000000
13051989.000000,-2.415150,-1.662457,1.041701,-1.354457,1.795898,1.082700,-0.549656,0.251307,0.013181,0.156849,-0.171645,-0.241746,0.325795,-0.288582,16.788374,34.921307,-21.492813,-2.138796,0.488370,1.546432,-0.130143,0.000000,0.000000,0.000000,0.000000,0.000000,0.000000
13051990.000000,-2.414850,-1.662451,1.041894,-1.354687,1.795606,1.083085,-0.549975,0.261911,0.008541,0.170720,-0.188322,-0.257644,0.356355,-0.299337,16.887556,34.921307,-21.417435,-2.138796,0.381254,1.637069,-0.064225,0.000000,0.000000,0.000000,0.000000,0.000000,0.000000
13051991.000000,-2.414532,-1.662441,1.042101,-1.354943,1.795297,1.083504,-0.550285,0.273214,0.009794,0.180731,-0.210649,-0.276222,0.378433,-0.299790,16.887556,34.873699,-21.393631,-1.992006,0.315336,1.702071,-0.110001,0.000000,0.000000,0.000000,0.000000,0.000000,0.000000
13051992.000000,-2.414198,-1.662442,1.042315,-1.355219,1.794965,1.083946,-0.550583,0.289894,0.004984,0.186322,-0.231546,-0.291836,0.397498,-0.299873,16.911360,34.945110,-21.294449,-1.769838,0.315336,1.702071,-0.130143,0.000000,0.000000,0.000000,0.000000,0.000000,0.000000
13051993.000000,-2.413845,-1.662442,1.042535,-1.355511,1.794620,1.084415,-0.550889,0.309150,0.002211,0.196861,-0.258197,-0.304786,0.425095,-0.297678,16.911360,34.996685,-21.175430,-1.547670,0.327238,1.605026,-0.083451,0.000000,0.000000,0.000000,0.000000,0.000000,0.000000
13051994.000000,-2.413485,-1.662444,1.042770,-1.355812,1.794255,1.084911,-0.551180,0.327164,-0.000126,0.209543,-0.271787,-0.323365,0.448003,-0.292773,16.911360,35.068096,-21.123856,-1.396913,0.339139,1.526290,-0.122819,0.000000,0.000000,0.000000,0.000000,0.000000,0.000000
13051995.000000,-2.413110,-1.662442,1.043017,-1.356125,1.793860,1.085424,-0.551473,0.346408,0.001083,0.219160,-0.286336,-0.343444,0.474500,-0.288170,16.962934,35.020489,-21.076248,-1.321535,0.410551,1.481429,-0.070634,0.000000,0.000000,0.000000,0.000000,0.000000,0.000000
13051996.000000,-2.412736,-1.662449,1.043263,-1.356440,1.793462,1.085956,-0.551752,0.358503,-0.001558,0.228391,-0.296106,-0.353059,0.492524,-0.280901,17.185102,35.119671,-20.977066,-1.321535,0.446256,1.467696,-0.089860,0.000000,0.000000,0.000000,0.000000,0.000000,0.000000
13051997.000000,-2.412341,-1.662447,1.043522,-1.356770,1.793039,1.086504,-0.552029,0.372116,-0.000359,0.234696,-0.301830,-0.373110,0.503453,-0.281631,17.359663,35.091900,-20.877884,-1.373109,0.458158,1.526290,-0.136552,0.000000,0.000000,0.000000,0.000000,0.000000,0.000000
13051998.000000,-2.411932,-1.662449,1.043791,-1.357122,1.792597,1.087070,-0.552308,0.381422,-0.000867,0.243839,-0.317609,-0.394251,0.521201,-0.285440,17.558027,35.119671,-20.806473,-1.373109,0.494779,1.597701,-0.083451,0.000000,0.000000,0.000000,0.000000,0.000000,0.000000
13051999.000000,-2.411522,-1.662446,1.044072,-1.357483,1.792156,1.087663,-0.552578,0.393659,0.000645,0.255892,-0.331552,-0.408743,0.535579,-0.283018,17.827803,35.068096,-20.683487,-1.273927,0.500272,1.637069,-0.136552,0.000000,0.000000,0.000000,0.000000,0.000000,0.000000
13052000.000000,-2.411085,-1.662449,1.044369,-1.357857,1.791682,1.088296,-0.552839,0.405189,-0.000764,0.267107,-0.347468,-0.422344,0.564523,-0.270800,17.978559,35.119671,-20.659683,-1.174745,0.482877,1.584884,-0.169511,0.000000,0.000000,0.000000,0.000000,0.000000,0.000000
13052001.000000,-2.410633,-1.662446,1.044664,-1.358251,1.791209,1.088937,-0.553105,0.420289,0.000707,0.273740,-0.362431,-0.434323,0.585063,-0.265658,18.149153,35.068096,-20.560501,-0.976381,0.470060,1.435653,-0.130143,0.000000,0.000000,0.000000,0.000000,0.000000,0.000000
13052002.000000,-2.410181,-1.662435,1.044978,-1.358662,1.790708,1.089608,-0.553360,0.427811,0.003355,0.283118,-0.378808,-0.458714,0.608747,-0.261828,18.347517,34.945110,-20.536697,-0.805788,0.500272,1.272689,-0.136552,0.000000,0.000000,0.000000,0.000000,0.000000,0.000000
13052003.000000,-2.409702,-1.662434,1.045303,-1.359091,1.790193,1.090279,-0.553613,0.440538,0.002242,0.304366,-0.388731,-0.471570,0.632450,-0.261920,18.474470,34.945110,-20.512894,-0.607423,0.512174,1.214095,-0.149369,0.000000,0.000000,0.000000,0.000000,0.000000,0.000000
13052004.000000,-2.409213,-1.662423,1.045637,-1.359517,1.789675,1.090971,-0.553874,0.457299,0.004283,0.314759,-0.402430,-0.486225,0.646179,-0.255826,18.597456,34.826092,-20.437515,-0.532045,0.524076,1.272689,-0.089860,0.000000,0.000000,0.000000,0.000000,0.000000,0.000000
13052005.000000,-2.408717,-1.662417,1.045980,-1.359969,1.789135,1.091680,-0.554117,0.465919,0.004621,0.325108,-0.416604,-0.499019,0.666238,-0.253646,18.867231,34.750713,-20.338333,-0.409059,0.494779,1.324874,-0.077042,0.000000,0.000000,0.000000,0.000000,0.000000,0.000000
13052006.000000,-2.408206,-1.662413,1.046332,-1.360425,1.788594,1.092400,-0.554355,0.477971,0.006812,0.332528,-0.428667,-0.518363,0.683289,-0.248544,19.192549,34.726910,-20.362137,-0.385256,0.512174,1.337692,-0.155778,0.000000,0.000000,0.000000,0.000000,0.000000,0.000000
13052007.000000,-2.407691,-1.662398,1.046693,-1.360897,1.788024,1.093150,-0.554606,0.490898,0.011972,0.339191,-0.439350,-0.534111,0.703101,-0.248910,19.513899,34.556316,-20.314529,-0.309877,0.494779,1.377059,-0.130143,0.000000,0.000000,0.000000,0.000000,0.000000,0.000000
13052008.000000,-2.407145,-1.662385,1.047076,-1.361385,1.787442,1.093915,-0.554855,0.503651,0.011879,0.352432,-0.452224,-0.542602,0.733390,-0.255672,19.759871,34.409527,-20.338333,-0.286073,0.500272,1.416427,-0.103593,0.000000,0.000000,0.000000,0.000000,0.000000,0.000000
13052009.000000,-2.406602,-1.662373,1.047465,-1.361888,1.786849,1.094702,-0.555097,0.516943,0.013757,0.361475,-0.471017,-0.558017,0.753662,-0.250795,20.033613,34.310345,-20.461319,-0.163088,0.500272,1.389877,-0.155778,0.000000,0.000000,0.000000,0.000000,0.000000,0.000000
13052010.000000,-2.406032,-1.662362,1.047868,-1.362412,1.786239,1.095523,-0.555344,0.532036,0.014417,0.373229,-0.484659,-0.575377,0.771128,-0.246417,20.231977,34.238934,-20.560501,0.011473,0.559781,1.292831,-0.116410,0.000000,0.000000,0.000000,0.000000,0.000000,0.000000
13052011.000000,-2.405447,-1.662348,1.048275,-1.362944,1.785613,1.096346,-0.555587,0.544113,0.015865,0.384362,-0.508687,-0.586339,0.788881,-0.246079,20.402571,34.139751,-20.731094,0.209837,0.530485,1.207687,-0.122819,0.000000,0.000000,0.000000,0.000000,0.000000,0.000000
13052012.000000,-2.404858,-1.662335,1.048714,-1.363490,1.784993,1.097198,-0.555827,0.560367,0.016271,0.400720,-0.524009,-0.594560,0.811809,-0.244592,20.652510,34.064373,-21.000870,0.285216,0.512174,1.194869,-0.163102,0.000000,0.000000,0.000000,0.000000,0.000000,0.000000
13052013.000000,-2.404247,-1.662319,1.049154,-1.364053,1.784345,1.098075,-0.556069,0.571601,0.017050,0.412723,-0.531326,-0.607536,0.830458,-0.242670,20.898481,33.969158,-21.123856,0.332823,0.452665,1.194869,-0.103593,0.000000,0.000000,0.000000,0.000000,0.000000,0.000000
13052014.000000,-2.403630,-1.662302,1.049605,-1.364619,1.783698,1.098950,-0.556308,0.588905,0.017744,0.424974,-0.542721,-0.620597,0.846636,-0.236511,21.096846,33.869976,-21.270645,0.332823,0.422452,1.247054,-0.116410,0.000000,0.000000,0.000000,0.000000,0.000000,0.000000
13052015.000000,-2.402994,-1.662284,1.050064,-1.365204,1.783013,1.099844,-0.556535,0.600980,0.018797,0.434197,-0.553311,-0.635619,0.853857,-0.230268,21.319014,33.746990,-21.322220,0.309019,0.440763,1.389877,-0.149369,0.000000,0.000000,0.000000,0.000000,0.000000,0.000000
13052016.000000,-2.402333,-1.662275,1.050536,-1.365811,1.782318,1.100757,-0.556768,0.614110,0.017315,0.449560,-0.562884,-0.651400,0.872774,-0.229099,21.517378,33.723186,-21.417435,0.455809,0.446256,1.487838,-0.155778,0.000000,0.000000,0.000000,0.000000,0.000000,0.000000
13052017.000000,-2.401662,-1.662254,1.051024,-1.366419,1.781619,1.101710,-0.557008,0.633432,0.019580,0.461092,-0.575865,-0.665698,0.897057,-0.233591,21.691938,33.552593,-21.516617,0.578795,0.512174,1.429244,-0.136552,0.000000,0.000000,0.000000,0.000000,0.000000,0.000000
13052018.000000,-2.400965,-1.662243,1.051524,-1.367050,1.780904,1.102703,-0.557244,0.649657,0.017221,0.471885,-0.588752,-0.681176,0.925598,-0.233061,21.862532,33.552593,-21.714981,0.777159,0.644010,1.234237,-0.103593,0.000000,0.000000,0.000000,0.000000,0.000000,0.000000
13052019.000000,-2.400253,-1.662227,1.052025,-1.367676,1.780201,1.103686,-0.557479,0.668732,0.016869,0.477980,-0.605383,-0.684132,0.939067,-0.231374,22.037092,33.501019,-21.810196,0.927916,0.763029,1.136276,-0.130143,0.000000,0.000000,0.000000,0.000000,0.000000,0.000000
13052020.000000,-2.399532,-1.662216,1.052547,-1.368323,1.779486,1.104698,-0.557704,0.687419,0.015444,0.489903,-0.617755,-0.692132,0.952013,-0.232453,22.187849,33.501019,-22.008560,1.098509,0.894864,1.129867,-0.163102,0.000000,0.000000,0.000000,0.000000,0.000000,0.000000
13052021.000000,-2.398802,-1.662208,1.053058,-1.368980,1.778778,1.105711,-0.557941,0.690430,0.013152,0.506782,-0.626182,-0.692010,0.968719,-0.233052,22.088667,33.552593,-21.960953,0.975523,0.996488,1.259872,-0.097184,0.000000,0.000000,0.000000,0.000000,0.000000,0.000000
13052022.000000,-2.398075,-1.662207,1.053600,-1.369645,1.778083,1.106751,-0.558161,0.691724,0.011591,0.517736,-0.645573,-0.690570,0.993507,-0.227835,20.997663,33.746990,-21.837967,0.578795,0.930570,1.448470,-0.188737,0.000000,0.000000,0.000000,0.000000,0.000000,0.000000
13052023.000000,-2.397347,-1.662192,1.054165,-1.370349,1.777379,1.107828,-0.558394,0.700087,0.009583,0.531557,-0.661653,-0.688924,1.013690,-0.230690,19.117170,33.723186,-21.540421,0.011473,0.882963,1.591293,-0.110001,0.000000,0.000000,0.000000,0.000000,0.000000,0.000000
13052024.000000,-2.396621,-1.662185,1.054741,-1.371036,1.776683,1.108911,-0.558615,0.709755,0.003457,0.548656,-0.667600,-0.702076,1.038157,-0.228356,16.641584,33.624004,-21.076248,-0.928774,0.781339,1.617843,-0.136552,0.000000,0.000000,0.000000,0.000000,0.000000,0.000000
13052025.000000,-2.395903,-1.662179,1.055354,-1.371750,1.775990,1.110025,-0.558834,0.718153,0.003889,0.568289,-0.676210,-0.700057,1.057826,-0.225861,13.892255,33.429607,-20.389908,-1.769838,0.613798,1.670028,-0.196061,0.000000,0.000000,0.000000,0.000000,0.000000,0.000000
13052026.000000,-2.395180,-1.662180,1.055982,-1.372471,1.775304,1.111146,-0.559061,0.722829,0.004981,0.582235,-0.682937,-0.688719,1.098940,-0.225104,11.269879,33.183636,-19.552811,-2.483949,0.458158,1.779891,-0.097184,0.000000,0.000000,0.000000,0.000000,0.000000,0.000000
13052027.000000,-2.394462,-1.662186,1.056623,-1.373172,1.774630,1.112279,-0.559274,0.729497,0.003795,0.596251,-0.691324,-0.688020,1.118158,-0.224097,8.770490,33.013042,-18.743484,-3.202028,0.356534,1.773483,-0.142960,0.000000,0.000000,0.000000,0.000000,0.000000,0.000000
13052028.000000,-2.393736,-1.662203,1.057282,-1.373874,1.773973,1.113443,-0.559487,0.731606,-0.001168,0.610120,-0.689429,-0.670918,1.133816,-0.218474,6.493268,33.013042,-17.957962,-3.820925,0.189908,1.682845,-0.182328,0.000000,0.000000,0.000000,0.000000,0.000000,0.000000
13052029.000000,-2.393002,-1.662219,1.057938,-1.374565,1.773299,1.114622,-0.559719,0.730802,-0.005153,0.626078,-0.691819,-0.663119,1.146889,-0.220349,4.462018,33.036846,-17.196243,-4.213686,0.141385,1.578475,-0.064225,0.000000,0.000000,0.000000,0.000000,0.000000,0.000000
13052030.000000,-2.392281,-1.662247,1.058598,-1.375251,1.772666,1.115824,-0.559932,0.730311,-0.011364,0.634869,-0.683693,-0.650281,1.156440,-0.213580,2.704511,33.207439,-16.410721,-4.562807,0.034269,1.539108,-0.155778,0.000000,0.000000,0.000000,0.000000,0.000000,0.000000
13052031.000000,-2.391554,-1.662274,1.059259,-1.375932,1.772011,1.117072,-0.560151,0.734361,-0.017026,0.635139,-0.677047,-0.649479,1.179843,-0.218545,1.216779,33.306622,-15.625198,-4.757204,0.081876,1.383468,-0.122819,0.000000,0.000000,0.000000,0.000000,0.000000,0.000000
13052032.000000,-2.390838,-1.662306,1.059920,-1.376602,1.771373,1.118295,-0.560363,0.738892,-0.021053,0.640521,-0.674836,-0.647220,1.186475,-0.216438,-0.068621,33.405804,-14.938858,-4.856386,0.189908,1.344100,-0.097184,0.000000,0.000000,0.000000,0.000000,0.000000,0.000000
13052033.000000,-2.390114,-1.662333,1.060597,-1.377287,1.770734,1.119555,-0.560575,0.730596,-0.020667,0.645266,-0.675704,-0.642826,1.199110,-0.216060,-1.159625,33.354229,-14.351700,-4.661989,0.243009,1.194869,-0.110001,0.000000,0.000000,0.000000,0.000000,0.000000,0.000000
13052034.000000,-2.389385,-1.662363,1.061264,-1.377980,1.770101,1.120803,-0.560779,0.726701,-0.023039,0.666967,-0.681927,-0.638277,1.208109,-0.206929,-2.072100,33.282818,-13.712967,-4.340639,0.386747,0.966903,-0.175919,0.000000,0.000000,0.000000,0.000000,0.000000,0.000000
13052035.000000,-2.388679,-1.662397,1.061947,-1.378668,1.769474,1.122063,-0.560994,0.711593,-0.025626,0.668156,-0.685144,-0.634240,1.215974,-0.209423,-2.718768,33.235210,-13.197220,-3.769350,0.524076,0.836898,-0.116410,0.000000,0.000000,0.000000,0.000000,0.000000,0.000000
13052036.000000,-2.387955,-1.662426,1.062646,-1.379361,1.768861,1.123296,-0.561200,0.716112,-0.027356,0.676786,-0.684399,-0.624476,1.213682,-0.208688,-3.337664,33.036846,-12.780655,-3.225832,0.524076,0.922042,-0.122819,0.000000,0.000000,0.000000,0.000000,0.000000,0.000000
13052037.000000,-2.387241,-1.662449,1.063341,-1.380032,1.768258,1.124516,-0.561394,0.711483,-0.024192,0.685525,-0.682719,-0.625585,1.214586,-0.200399,-3.782000,32.767071,-12.459305,-2.904482,0.428861,0.974227,-0.202470,0.000000,0.000000,0.000000,0.000000,0.000000,0.000000
13052038.000000,-2.386547,-1.662473,1.064042,-1.380707,1.767653,1.125748,-0.561603,0.701387,-0.026417,0.688278,-0.676949,-0.614052,1.209666,-0.206364,-4.027972,32.548870,-12.189529,-2.658510,0.386747,0.987045,-0.116410,0.000000,0.000000,0.000000,0.000000,0.000000,0.000000
13052039.000000,-2.385841,-1.662489,1.064755,-1.381375,1.767051,1.126949,-0.561801,0.695895,-0.022148,0.707486,-0.673665,-0.602774,1.207005,-0.204431,-4.250140,32.203716,-11.995132,-2.606935,0.285123,1.155502,-0.169511,0.000000,0.000000,0.000000,0.000000,0.000000,0.000000
13052040.000000,-2.385140,-1.662494,1.065461,-1.382023,1.766463,1.128151,-0.562008,0.698551,-0.013425,0.708841,-0.664178,-0.598056,1.195060,-0.205066,-4.547686,31.739544,-11.872147,-2.634706,0.261320,1.357833,-0.182328,0.000000,0.000000,0.000000,0.000000,0.000000,0.000000
13052041.000000,-2.384443,-1.662492,1.066192,-1.382675,1.765863,1.129366,-0.562220,0.695695,-0.009376,0.716501,-0.651809,-0.589273,1.195638,-0.207514,-4.646868,31.227764,-11.820572,-2.682314,0.267728,1.461288,-0.136552,0.000000,0.000000,0.000000,0.000000,0.000000,0.000000
13052042.000000,-2.383744,-1.662487,1.066910,-1.383314,1.765285,1.130571,-0.562424,0.693031,-0.003925,0.717264,-0.658343,-0.584984,1.188960,-0.206283,-4.797625,30.735821,-11.673782,-2.781496,0.273221,1.364242,-0.182328,0.000000,0.000000,0.000000,0.000000,0.000000,0.000000
13052043.000000,-2.383052,-1.662480,1.067647,-1.383960,1.764693,1.131808,-0.562636,0.692419,0.002881,0.724306,-0.654621,-0.587488,1.195842,-0.209835,-4.944415,30.247845,-11.550797,-2.781496,0.339139,1.123458,-0.110001,0.000000,0.000000,0.000000,0.000000,0.000000,0.000000
13052044.000000,-2.382361,-1.662457,1.068401,-1.384585,1.764119,1.133030,-0.562830,0.682961,0.011273,0.725556,-0.647453,-0.579176,1.214060,-0.208420,-5.095171,29.609112,-11.526993,-3.079042,0.291532,0.980636,-0.155778,0.000000,0.000000,0.000000,0.000000,0.000000,0.000000
13052045.000000,-2.381674,-1.662444,1.069143,-1.385207,1.763547,1.134234,-0.563032,0.683871,0.012165,0.730332,-0.634996,-0.580575,1.208895,-0.202859,-5.241961,29.196514,-11.404007,-3.178224,0.285123,0.915633,-0.169511,0.000000,0.000000,0.000000,0.000000,0.000000,0.000000
13052046.000000,-2.380980,-1.662427,1.069884,-1.385826,1.762982,1.135444,-0.563236,0.684508,0.013039,0.728955,-0.625546,-0.570530,1.193652,-0.203255,-5.392718,28.779949,-10.987442,-3.376589,0.255826,0.869857,-0.130143,0.000000,0.000000,0.000000,0.000000,0.000000,0.000000
13052047.000000,-2.380294,-1.662404,1.070631,-1.386452,1.762417,1.136625,-0.563433,0.682006,0.013696,0.739370,-0.619017,-0.567075,1.186287,-0.203394,-5.416522,28.363384,-10.693863,-3.475771,0.183500,1.019088,-0.155778,0.000000,0.000000,0.000000,0.000000,0.000000,0.000000
13052048.000000,-2.379610,-1.662382,1.071397,-1.387061,1.761864,1.137821,-0.563634,0.685452,0.016873,0.746136,-0.618446,-0.562708,1.176683,-0.205157,-5.515704,27.970623,-10.372513,-3.523378,0.076383,1.123458,-0.163102,0.000000,0.000000,0.000000,0.000000,0.000000,0.000000
13052049.000000,-2.378921,-1.662362,1.072169,-1.387666,1.761313,1.139038,-0.563826,0.686804,0.018146,0.753236,-0.609253,-0.558108,1.175720,-0.205045,-5.614886,27.629436,-10.031326,-3.598757,-0.049044,1.123458,-0.188737,0.000000,0.000000,0.000000,0.000000,0.000000,0.000000
13052050.000000,-2.378233,-1.662339,1.072934,-1.388261,1.760757,1.140244,-0.564027,0.694149,0.018802,0.759234,-0.600515,-0.556792,1.179110,-0.208226,-5.686297,27.308086,-9.662369,-3.670168,-0.025240,0.999862,-0.116410,0.000000,0.000000,0.000000,0.000000,0.000000,0.000000
13052051.000000,-2.377546,-1.662329,1.073720,-1.388862,1.760199,1.141488,-0.564212,0.692035,0.014709,0.764990,-0.597365,-0.557031,1.184184,-0.209226,-5.860857,27.189068,-9.416397,-3.697939,0.034269,0.739852,-0.175919,0.000000,0.000000,0.000000,0.000000,0.000000,0.000000
13052052.000000,-2.376844,-1.662315,1.074503,-1.389469,1.759645,1.142699,-0.564414,0.696866,0.012226,0.771051,-0.603716,-0.550765,1.183919,-0.210164,-6.158404,27.066082,-9.170425,-3.670168,0.058073,0.622665,-0.142960,0.000000,0.000000,0.000000,0.000000,0.000000,0.000000
13052053.000000,-2.376147,-1.662302,1.075296,-1.390057,1.759101,1.143926,-0.564608,0.699629,0.013419,0.784283,-0.600466,-0.547895,1.190058,-0.204744,-6.503558,26.966900,-8.900650,-3.697939,0.135892,0.589706,-0.142960,0.000000,0.000000,0.000000,0.000000,0.000000,0.000000
13052054.000000,-2.375450,-1.662299,1.076120,-1.390658,1.758545,1.145155,-0.564797,0.701460,0.010890,0.795340,-0.597505,-0.542674,1.183672,-0.204287,-6.753497,27.014507,-8.829239,-3.697939,0.166105,0.597030,-0.175919,0.000000,0.000000,0.000000,0.000000,0.000000,0.000000
13052055.000000,-2.374757,-1.662296,1.076932,-1.391234,1.758009,1.146370,-0.564998,0.699300,0.006319,0.804930,-0.592276,-0.549791,1.192667,-0.202244,-6.900286,27.066082,-8.682449,-3.868532,0.166105,0.629073,-0.116410,0.000000,0.000000,0.000000,0.000000,0.000000,0.000000
13052056.000000,-2.374079,-1.662299,1.077769,-1.391805,1.757467,1.147591,-0.565178,0.691730,0.002185,0.815397,-0.583506,-0.552056,1.189356,-0.196666,-6.975665,27.161297,-8.630875,-4.118471,0.135892,0.739852,-0.175919,0.000000,0.000000,0.000000,0.000000,0.000000,0.000000
13052057.000000,-2.373379,-1.662295,1.078621,-1.392377,1.756935,1.148798,-0.565366,0.691335,0.004752,0.843710,-0.575790,-0.547012,1.214801,-0.195076,-7.221636,27.161297,-8.654678,-4.312868,0.034269,0.882674,-0.169511,0.000000,0.000000,0.000000,0.000000,0.000000,0.000000
13052058.000000,-2.372687,-1.662294,1.079470,-1.392945,1.756404,1.150017,-0.565553,0.691120,0.003543,0.847332,-0.571857,-0.546950,1.201017,-0.194468,-7.495379,27.161297,-8.682449,-4.412050,0.015958,0.974227,-0.142960,0.000000,0.000000,0.000000,0.000000,0.000000,0.000000
13052059.000000,-2.371978,-1.662293,1.080344,-1.393507,1.755868,1.151244,-0.565735,0.699514,0.001993,0.855180,-0.570118,-0.537017,1.201775,-0.194005,-7.963519,27.189068,-8.805435,-4.535036,0.022367,1.006271,-0.169511,0.000000,0.000000,0.000000,0.000000,0.000000,0.000000
13052060.000000,-2.371263,-1.662300,1.081196,-1.394073,1.755347,1.152447,-0.565919,0.706334,-0.000131,0.853804,-0.578171,-0.533653,1.194375,-0.193961,-8.411822,27.260479,-8.630875,-4.463624,0.088285,1.012679,-0.136552,0.000000,0.000000,0.000000,0.000000,0.000000,0.000000
13052061.000000,-2.370553,-1.662293,1.082086,-1.394649,1.754811,1.153667,-0.566096,0.707618,0.001741,0.860554,-0.576874,-0.529326,1.191632,-0.186381,-8.979144,27.189068,-8.654678,-4.412050,0.141385,0.999862,-0.182328,0.000000,0.000000,0.000000,0.000000,0.000000,0.000000
13052062.000000,-2.369834,-1.662289,1.082976,-1.395217,1.754289,1.154890,-0.566271,0.707493,0.003042,0.863522,-0.574026,-0.522406,1.213227,-0.182388,-9.475055,27.113689,-8.559464,-4.412050,0.117582,0.954086,-0.182328,0.000000,0.000000,0.000000,0.000000,0.000000,0.000000
13052063.000000,-2.369124,-1.662276,1.083871,-1.395773,1.753778,1.156109,-0.566454,0.720363,0.006108,0.875969,-0.566274,-0.521886,1.218683,-0.185861,-9.970965,26.943096,-8.484085,-4.412050,0.064481,0.771896,-0.130143,0.000000,0.000000,0.000000,0.000000,0.000000,0.000000
13052064.000000,-2.368415,-1.662270,1.084770,-1.396322,1.753268,1.157325,-0.566622,0.716272,0.005902,0.878654,-0.556436,-0.515057,1.210795,-0.184682,-10.367694,26.867718,-8.214310,-4.535036,-0.025240,0.733443,-0.182328,0.000000,0.000000,0.000000,0.000000,0.000000,0.000000
13052065.000000,-2.367708,-1.662257,1.085676,-1.396866,1.752756,1.158512,-0.566804,0.707903,0.007418,0.884815,-0.552699,-0.513593,1.205547,-0.186914,-10.689044,26.720928,-8.019913,-4.685792,-0.031649,0.843307,-0.155778,0.000000,0.000000,0.000000,0.000000,0.000000,0.000000
13052066.000000,-2.367004,-1.662248,1.086617,-1.397391,1.752256,1.159703,-0.566979,0.707691,0.007210,0.903211,-0.541978,-0.506349,1.194525,-0.181479,-11.085773,26.625713,-8.043716,-4.907960,-0.085665,0.999862,-0.188737,0.000000,0.000000,0.000000,0.000000,0.000000,0.000000
13052067.000000,-2.366304,-1.662237,1.087558,-1.397931,1.751754,1.160909,-0.567155,0.708996,0.009759,0.911120,-0.539513,-0.501704,1.196582,-0.185755,-11.284137,26.550335,-7.920731,-5.007143,-0.079257,1.045638,-0.142960,0.000000,0.000000,0.000000,0.000000,0.000000,0.000000
13052068.000000,-2.365606,-1.662231,1.088511,-1.398455,1.751251,1.162105,-0.567329,0.718655,0.009968,0.924428,-0.540278,-0.500265,1.194030,-0.180014,-11.605487,26.550335,-7.992142,-5.153932,-0.043551,0.960494,-0.182328,0.000000,0.000000,0.000000,0.000000,0.000000,0.000000
13052069.000000,-2.364898,-1.662227,1.089489,-1.398980,1.750758,1.163323,-0.567501,0.713815,0.006567,0.936365,-0.534005,-0.497527,1.199803,-0.177649,-11.926837,26.574139,-8.115128,-5.328493,-0.043551,0.836898,-0.182328,0.000000,0.000000,0.000000,0.000000,0.000000,0.000000
13052070.000000,-2.364195,-1.662225,1.090475,-1.399509,1.750265,1.164509,-0.567673,0.707523,0.005440,0.969532,-0.530496,-0.495726,1.193559,-0.176958,-12.125201,26.673321,-8.384903,-5.475282,-0.043551,0.792037,-0.149369,0.000000,0.000000,0.000000,0.000000,0.000000,0.000000
13052071.000000,-2.363500,-1.662225,1.091467,-1.400017,1.749782,1.165700,-0.567845,0.694576,0.004324,0.976197,-0.525963,-0.493003,1.193336,-0.175178,-12.422748,26.796307,-8.436478,-5.697450,-0.085665,0.895492,-0.149369,0.000000,0.000000,0.000000,0.000000,0.000000,0.000000
13052072.000000,-2.362793,-1.662226,1.092476,-1.400525,1.749306,1.166893,-0.568014,0.693893,0.000651,0.983373,-0.517147,-0.480380,1.182031,-0.173130,-12.692523,26.919292,-8.484085,-5.820436,-0.133273,1.039230,-0.169511,0.000000,0.000000,0.000000,0.000000,0.000000,0.000000
13052073.000000,-2.362095,-1.662234,1.093460,-1.401028,1.748819,1.168069,-0.568183,0.690644,-0.004187,0.987214,-0.511068,-0.490323,1.180977,-0.167185,-12.914691,27.137493,-8.289688,-5.971193,-0.109469,1.129867,-0.175919,0.000000,0.000000,0.000000,0.000000,0.000000,0.000000
13052074.000000,-2.361408,-1.662235,1.094465,-1.401535,1.748347,1.169253,-0.568358,0.689540,-0.004191,0.990375,-0.511577,-0.479157,1.169258,-0.170558,-13.140826,27.212872,-8.166702,-6.042604,-0.157076,1.201278,-0.142960,0.000000,0.000000,0.000000,0.000000,0.000000,0.000000
13052075.000000,-2.360704,-1.662232,1.095497,-1.402036,1.747881,1.170428,-0.568518,0.693609,-0.001965,0.998817,-0.504588,-0.473917,1.193130,-0.168468,-13.462176,27.189068,-8.091324,-6.169557,-0.240389,1.155502,-0.196061,0.000000,0.000000,0.000000,0.000000,0.000000,0.000000
13052076.000000,-2.360026,-1.662237,1.096502,-1.402529,1.747410,1.171627,-0.568689,0.688619,-0.002220,1.005430,-0.502033,-0.469924,1.192355,-0.165813,-13.632770,27.236675,-7.773941,-6.292543,-0.222994,1.006271,-0.163102,0.000000,0.000000,0.000000,0.000000,0.000000,0.000000
13052077.000000,-2.359334,-1.662250,1.097533,-1.403029,1.746936,1.172835,-0.568854,0.682751,-0.004760,1.007091,-0.498070,-0.467847,1.196839,-0.163651,-13.831134,27.383465,-7.476395,-6.316347,-0.150668,0.850631,-0.122819,0.000000,0.000000,0.000000,0.000000,0.000000,0.000000
13052078.000000,-2.358645,-1.662256,1.098555,-1.403522,1.746469,1.174011,-0.569012,0.682094,-0.007216,1.011643,-0.507737,-0.469736,1.191528,-0.163107,-14.053302,27.431072,-7.111404,-6.391725,-0.133273,0.792037,-0.196061,0.000000,0.000000,0.000000,0.000000,0.000000,0.000000
13052079.000000,-2.357982,-1.662263,1.099618,-1.404017,1.745996,1.175191,-0.569184,0.663754,-0.009919,1.026945,-0.504685,-0.468007,1.182866,-0.163076,-14.053302,27.506451,-6.988419,-6.490907,-0.060946,0.817672,-0.122819,0.000000,0.000000,0.000000,0.000000,0.000000,0.000000
13052082.000000,-2.356015,-1.662274,1.102849,-1.405441,1.744646,1.178786,-0.569675,0.659617,-0.007929,1.059719,-0.476947,-0.453987,1.188249,-0.169223,-13.759723,27.577862,-6.790054,-7.256593,-0.246798,0.576888,-0.110001,0.000000,0.000000,0.000000,0.000000,0.000000,0.000000
13052083.000000,-2.355359,-1.662276,1.103940,-1.405921,1.744205,1.179966,-0.569833,0.657579,-0.006282,1.069549,-0.478064,-0.454914,1.191676,-0.167732,-13.731952,27.601665,-6.813858,-7.403383,-0.348422,0.597030,-0.149369,0.000000,0.000000,0.000000,0.000000,0.000000,0.000000
13052084.000000,-2.354710,-1.662276,1.105058,-1.406398,1.743758,1.181168,-0.569991,0.653457,-0.004517,1.077798,-0.479211,-0.455461,1.194168,-0.169357,-13.783526,27.601665,-6.865433,-7.403383,-0.336520,0.603439,-0.136552,0.000000,0.000000,0.000000,0.000000,0.000000,0.000000
13052085.000000,-2.354048,-1.662272,1.106188,-1.406881,1.743311,1.182373,-0.570141,0.652561,-0.001031,1.092553,-0.475581,-0.448715,1.202421,-0.163305,-13.954120,27.506451,-6.913040,-7.403383,-0.228488,0.589706,-0.175919,0.000000,0.000000,0.000000,0.000000,0.000000,0.000000
13052086.000000,-2.353389,-1.662269,1.107306,-1.407360,1.742876,1.183569,-0.570300,0.656625,0.000891,1.099760,-0.478289,-0.449886,1.206160,-0.162463,-14.005694,27.431072,-6.964615,-7.328004,-0.216586,0.532027,-0.130143,0.000000,0.000000,0.000000,0.000000,0.000000,0.000000
13052087.000000,-2.352734,-1.662265,1.108439,-1.407822,1.742427,1.184767,-0.570450,0.655926,0.001569,1.102183,-0.472641,-0.446215,1.206866,-0.162213,-14.029498,27.383465,-6.865433,-7.454957,-0.204684,0.570480,-0.163102,0.000000,0.000000,0.000000,0.000000,0.000000,0.000000
13052088.000000,-2.352084,-1.662254,1.109562,-1.408292,1.741992,1.185950,-0.570607,0.650607,0.004375,1.133757,-0.468921,-0.436613,1.199003,-0.155680,-13.906512,27.236675,-6.694839,-7.554140,-0.246798,0.668441,-0.136552,0.000000,0.000000,0.000000,0.000000,0.000000,0.000000
13052089.000000,-2.351440,-1.662247,1.110706,-1.408758,1.741550,1.187143,-0.570759,0.648758,0.005159,1.135302,-0.468706,-0.438808,1.193940,-0.154179,-13.882709,27.137493,-6.520279,-7.554140,-0.294406,0.752670,-0.142960,0.000000,0.000000,0.000000,0.000000,0.000000,0.000000
13052090.000000,-2.350780,-1.662234,1.111878,-1.409218,1.741108,1.188347,-0.570906,0.649661,0.008485,1.141661,-0.463090,-0.435199,1.190439,-0.151272,-14.029498,26.919292,-6.448868,-7.724733,-0.336520,0.830489,-0.202470,0.000000,0.000000,0.000000,0.000000,0.000000,0.000000
13052091.000000,-2.350139,-1.662218,1.113052,-1.409675,1.740691,1.189530,-0.571068,0.649477,0.010253,1.153259,-0.466105,-0.438831,1.182551,-0.154270,-14.005694,26.720928,-6.472672,-7.776308,-0.419833,0.817672,-0.122819,0.000000,0.000000,0.000000,0.000000,0.000000,0.000000
13052092.000000,-2.349492,-1.662204,1.114270,-1.410134,1.740253,1.190733,-0.571213,0.650759,0.011350,1.174049,-0.462061,-0.436487,1.175423,-0.147393,-14.152484,26.526531,-6.718643,-7.847719,-0.467440,0.752670,-0.175919,0.000000,0.000000,0.000000,0.000000,0.000000,0.000000
13052093.000000,-2.348849,-1.662188,1.115517,-1.410600,1.739812,1.191904,-0.571360,0.645423,0.012089,1.193377,-0.462868,-0.432068,1.191080,-0.148982,-14.251666,26.332134,-7.182816,-7.875490,-0.438143,0.733443,-0.163102,0.000000,0.000000,0.000000,0.000000,0.000000,0.000000
13052094.000000,-2.348226,-1.662186,1.116761,-1.411048,1.739390,1.193094,-0.571513,0.634586,0.008690,1.209679,-0.455342,-0.428328,1.183298,-0.150876,-14.251666,26.304363,-7.674759,-7.970705,-0.431735,0.778304,-0.116410,0.000000,0.000000,0.000000,0.000000,0.000000,0.000000
13052095.000000,-2.347587,-1.662182,1.118020,-1.411497,1.738955,1.194274,-0.571656,0.638705,0.006893,1.220886,-0.452028,-0.425666,1.171198,-0.146030,-14.327044,26.256756,-7.992142,-8.196840,-0.396029,0.876266,-0.163102,0.000000,0.000000,0.000000,0.000000,0.000000,0.000000
13052096.000000,-2.346959,-1.662178,1.119277,-1.411945,1.738519,1.195448,-0.571808,0.631690,0.005142,1.240655,-0.460343,-0.421691,1.170682,-0.148638,-14.279437,26.232952,-8.289688,-8.292055,-0.300814,0.895492,-0.130143,0.000000,0.000000,0.000000,0.000000,0.000000,0.000000
13052097.000000,-2.346340,-1.662181,1.120546,-1.412395,1.738105,1.196619,-0.571950,0.630136,0.002307,1.247848,-0.452540,-0.420987,1.161726,-0.146980,-14.251666,26.280560,-8.384903,-8.442812,-0.264193,0.987045,-0.188737,0.000000,0.000000,0.000000,0.000000,0.000000,0.000000
13052098.000000,-2.345710,-1.662189,1.121827,-1.412849,1.737686,1.197804,-0.572097,0.623632,0.001403,1.246324,-0.456216,-0.417443,1.166807,-0.144884,-14.327044,26.550335,-8.583267,-8.442812,-0.282504,1.058456,-0.149369,0.000000,0.000000,0.000000,0.000000,0.000000,0.000000
13052099.000000,-2.345096,-1.662204,1.123067,-1.413305,1.737284,1.198974,-0.572243,0.635341,0.001250,1.238293,-0.458666,-0.410638,1.167110,-0.145231,-14.152484,27.236675,-8.829239,-8.319826,-0.312716,1.071273,-0.149369,0.000000,0.000000,0.000000,0.000000,0.000000,0.000000
13052100.000000,-2.344473,-1.662229,1.124303,-1.413765,1.736888,1.200166,-0.572389,0.632754,-0.008034,1.230595,-0.461651,-0.405545,1.166681,-0.146907,-13.831134,28.363384,-9.269608,-8.244448,-0.353915,1.045638,-0.142960,0.000000,0.000000,0.000000,0.000000,0.000000,0.000000
13052101.000000,-2.343848,-1.662253,1.125516,-1.414234,1.736483,1.201353,-0.572527,0.628223,-0.014343,1.221791,-0.461696,-0.398507,1.173993,-0.142206,-13.485980,29.660686,-10.031326,-8.022280,-0.353915,0.980636,-0.169511,0.000000,0.000000,0.000000,0.000000,0.000000,0.000000
13052102.000000,-2.343234,-1.662271,1.126731,-1.414691,1.736090,1.202552,-0.572666,0.625098,-0.014350,1.216192,-0.461325,-0.395026,1.181840,-0.139649,-13.041644,30.957989,-10.864456,-7.923097,-0.306307,0.999862,-0.175919,0.000000,0.000000,0.000000,0.000000,0.000000,0.000000
13052103.000000,-2.342625,-1.662279,1.127953,-1.415150,1.735702,1.203756,-0.572807,0.615518,-0.014842,1.216284,-0.456593,-0.387204,1.182127,-0.138643,-12.494159,32.179913,-11.796768,-7.847719,-0.246798,1.052047,-0.155778,0.000000,0.000000,0.000000,0.000000,0.000000,0.000000
13052104.000000,-2.342006,-1.662284,1.129166,-1.415600,1.735302,1.204937,-0.572945,0.614188,-0.014498,1.216815,-0.452794,-0.392667,1.188896,-0.136504,-12.073627,33.259014,-12.879837,-7.946901,-0.150668,1.182052,-0.163102,0.000000,0.000000,0.000000,0.000000,0.000000,0.000000
13052105.000000,-2.341411,-1.662281,1.130399,-1.416048,1.734903,1.206128,-0.573085,0.611296,-0.010107,1.221249,-0.450121,-0.395748,1.181519,-0.139751,-11.530108,34.163555,-13.907364,-8.069887,-0.085665,1.350509,-0.155778,0.000000,0.000000,0.000000,0.000000,0.000000,0.000000
13052106.000000,-2.340810,-1.662280,1.131645,-1.416506,1.734505,1.207312,-0.573218,0.607214,-0.006830,1.244335,-0.448986,-0.394631,1.185624,-0.137157,-11.133380,34.921307,-14.915054,-8.169069,0.015958,1.435653,-0.182328,0.000000,0.000000,0.000000,0.000000,0.000000,0.000000
13052107.000000,-2.340223,-1.662275,1.132876,-1.416965,1.734109,1.208494,-0.573360,0.598044,-0.001530,1.244268,-0.454860,-0.402170,1.182079,-0.137181,-10.764422,35.536236,-15.823563,-8.121462,0.093778,1.591293,-0.149369,0.000000,0.000000,0.000000,0.000000,0.000000,0.000000
13052108.000000,-2.339625,-1.662270,1.134127,-1.417422,1.733724,1.209676,-0.573490,0.591942,0.001078,1.244961,-0.453428,-0.393370,1.180926,-0.134111,-10.490680,36.048016,-16.656693,-8.121462,0.069974,1.714889,-0.196061,0.000000,0.000000,0.000000,0.000000,0.000000,0.000000
13052109.000000,-2.339031,-1.662269,1.135369,-1.417877,1.733338,1.210849,-0.573625,0.592378,-0.000185,1.243927,-0.456042,-0.397408,1.174821,-0.132970,-10.292315,36.535992,-17.370804,-8.022280,0.100187,1.708480,-0.196061,0.000000,0.000000,0.000000,0.000000,0.000000,0.000000
13052110.000000,-2.338445,-1.662272,1.136613,-1.418329,1.732957,1.212035,-0.573758,0.594870,-0.002965,1.239087,-0.455109,-0.395258,1.173866,-0.130564,-10.070148,36.952557,-17.711990,-8.022280,0.058073,1.649886,-0.142960,0.000000,0.000000,0.000000,0.000000,0.000000,0.000000
13052111.000000,-2.337869,-1.662282,1.137882,-1.418777,1.732570,1.213224,-0.573883,0.580607,-0.007274,1.247561,-0.449393,-0.390069,1.192481,-0.129332,-9.772601,37.444500,-18.156326,-8.121462,0.052579,1.565658,-0.182328,0.000000,0.000000,0.000000,0.000000,0.000000,0.000000
13052112.000000,-2.337311,-1.662302,1.139148,-1.419198,1.732199,1.214377,-0.574023,0.576006,-0.014259,1.249714,-0.437387,-0.385618,1.185872,-0.132223,-9.399676,37.956280,-18.719681,-8.419008,0.010465,1.572067,-0.116410,0.000000,0.000000,0.000000,0.000000,0.000000,0.000000
13052113.000000,-2.336755,-1.662328,1.140417,-1.419623,1.731833,1.215530,-0.574148,0.570791,-0.020206,1.246120,-0.427451,-0.380017,1.177336,-0.130254,-8.931537,38.495831,-18.989456,-8.740358,-0.085665,1.670028,-0.163102,0.000000,0.000000,0.000000,0.000000,0.000000,0.000000
13052114.000000,-2.336204,-1.662365,1.141696,-1.420032,1.731451,1.216672,-0.574278,0.561304,-0.026321,1.255391,-0.420457,-0.381169,1.177964,-0.131156,-8.483233,39.106792,-19.552811,-9.109316,-0.055453,1.735030,-0.163102,0.000000,0.000000,0.000000,0.000000,0.000000,0.000000
13052115.000000,-2.335677,-1.662404,1.142996,-1.420445,1.731088,1.217824,-0.574412,0.546147,-0.030201,1.268716,-0.411293,-0.371874,1.171060,-0.133056,-7.915911,39.693951,-20.120132,-9.506044,-0.025240,1.832076,-0.122819,0.000000,0.000000,0.000000,0.000000,0.000000,0.000000
13052116.000000,-2.335133,-1.662443,1.144321,-1.420860,1.730732,1.218992,-0.574535,0.540575,-0.038357,1.280479,-0.411471,-0.366548,1.172329,-0.130518,-7.542986,40.233501,-20.929459,-9.728212,-0.055453,1.793624,-0.182328,0.000000,0.000000,0.000000,0.000000,0.000000,0.000000
13052117.000000,-2.334613,-1.662486,1.145616,-1.421270,1.730365,1.220148,-0.574673,0.542658,-0.040733,1.288579,-0.410277,-0.369826,1.165458,-0.132766,-7.150225,40.749249,-21.516617,-9.898806,-0.043551,1.702071,-0.130143,0.000000,0.000000,0.000000,0.000000,0.000000,0.000000
13052118.000000,-2.334083,-1.662538,1.146918,-1.421683,1.729995,1.221309,-0.574798,0.538928,-0.044931,1.281819,-0.407728,-0.367597,1.157146,-0.134614,-6.777300,41.360210,-21.933182,-9.974184,-0.031649,1.649886,-0.175919,0.000000,0.000000,0.000000,0.000000,0.000000,0.000000
13052119.000000,-2.333559,-1.662580,1.148196,-1.422103,1.729621,1.222448,-0.574931,0.534114,-0.043721,1.281603,-0.408256,-0.369334,1.144175,-0.131435,-6.380572,41.800579,-22.202957,-9.950380,0.076383,1.682845,-0.122819,0.000000,0.000000,0.000000,0.000000,0.000000,0.000000
13052120.000000,-2.333044,-1.662625,1.149474,-1.422503,1.729255,1.223584,-0.575056,0.526434,-0.043310,1.276152,-0.407291,-0.370944,1.133137,-0.127233,-6.158404,42.240948,-22.202957,-9.974184,0.069974,1.903487,-0.122819,0.000000,0.000000,0.000000,0.000000,0.000000,0.000000
13052121.000000,-2.332533,-1.662665,1.150765,-1.422914,1.728887,1.224737,-0.575177,0.519825,-0.041371,1.272091,-0.404465,-0.366619,1.128716,-0.122545,-5.813250,42.609905,-22.202957,-9.898806,0.064481,2.020675,-0.155778,0.000000,0.000000,0.000000,0.000000,0.000000,0.000000
13052122.000000,-2.332024,-1.662704,1.152033,-1.423315,1.728538,1.225891,-0.575303,0.513323,-0.036354,1.267505,-0.402321,-0.363410,1.132349,-0.124760,-5.487933,42.951092,-22.079971,-9.827394,0.034269,1.981307,-0.175919,0.000000,0.000000,0.000000,0.000000,0.000000,0.000000
13052123.000000,-2.331537,-1.662733,1.153344,-1.423734,1.728182,1.227056,-0.575427,0.499280,-0.035154,1.274950,-0.406516,-0.361746,1.142117,-0.126464,-5.067400,43.121685,-22.377518,-9.652834,0.022367,1.936446,-0.163102,0.000000,0.000000,0.000000,0.000000,0.000000,0.000000
13052124.000000,-2.331042,-1.662765,1.154643,-1.424159,1.727825,1.228199,-0.575558,0.496258,-0.034234,1.305765,-0.408844,-0.359314,1.164925,-0.129346,-4.722247,43.268475,-22.524307,-9.355288,-0.025240,1.942855,-0.130143,0.000000,0.000000,0.000000,0.000000,0.000000,0.000000
13052125.000000,-2.330550,-1.662792,1.155928,-1.424575,1.727466,1.229356,-0.575675,0.497061,-0.032187,1.301115,-0.408749,-0.356152,1.161989,-0.128239,-4.476275,43.343853,-22.742508,-9.133120,0.015958,1.923629,-0.175919,0.000000,0.000000,0.000000,0.000000,0.000000,0.000000
13052126.000000,-2.330070,-1.662818,1.157243,-1.425000,1.727110,1.230518,-0.575799,0.486176,-0.029397,1.300260,-0.411910,-0.360129,1.155297,-0.130289,-4.154925,43.343853,-23.163040,-8.839540,0.123990,1.923629,-0.149369,0.000000,0.000000,0.000000,0.000000,0.000000,0.000000
13052127.000000,-2.329594,-1.662840,1.158539,-1.425413,1.726756,1.231659,-0.575918,0.480418,-0.026257,1.297198,-0.411267,-0.367258,1.158733,-0.129236,-3.782000,43.292278,-23.555801,-8.764162,0.141385,1.949264,-0.188737,0.000000,0.000000,0.000000,0.000000,0.000000,0.000000
13052128.000000,-2.329122,-1.662861,1.159851,-1.425835,1.726407,1.232816,-0.576047,0.480520,-0.023808,1.293958,-0.413477,-0.360721,1.154508,-0.128073,-3.484454,43.220867,-23.972366,-8.541994,0.154203,1.936446,-0.110001,0.000000,0.000000,0.000000,0.000000,0.000000,0.000000
13052129.000000,-2.328653,-1.662887,1.161156,-1.426265,1.726065,1.233971,-0.576165,0.474720,-0.023327,1.293304,-0.417625,-0.349977,1.172522,-0.123287,-3.111529,43.197063,-24.166763,-8.319826,0.147794,1.988631,-0.136552,0.000000,0.000000,0.000000,0.000000,0.000000,0.000000
13052130.000000,-2.328194,-1.662912,1.162441,-1.426684,1.725723,1.235109,-0.576273,0.469819,-0.025426,1.289640,-0.420120,-0.349962,1.170425,-0.117820,-2.790179,43.145489,-24.365128,-8.145266,0.219205,2.020675,-0.208878,0.000000,0.000000,0.000000,0.000000,0.000000,0.000000
13052131.000000,-2.327723,-1.662938,1.163730,-1.427121,1.725376,1.236249,-0.576399,0.467710,-0.028531,1.283356,-0.424213,-0.347506,1.165379,-0.120226,-2.568011,43.145489,-24.365128,-7.847719,0.237516,2.150680,-0.116410,0.000000,0.000000,0.000000,0.000000,0.000000,0.000000
13052132.000000,-2.327257,-1.662964,1.165000,-1.427565,1.725034,1.237389,-0.576503,0.463791,-0.030794,1.281729,-0.429955,-0.340678,1.163862,-0.115717,-2.246661,43.145489,-24.341324,-7.454957,0.243009,2.104903,-0.188737,0.000000,0.000000,0.000000,0.000000,0.000000,0.000000
13052133.000000,-2.326801,-1.662983,1.166305,-1.428010,1.724701,1.238546,-0.576622,0.457873,-0.030870,1.287122,-0.434422,-0.336622,1.158851,-0.111018,-2.048296,43.074078,-24.611099,-7.034425,0.279630,2.001449,-0.175919,0.000000,0.000000,0.000000,0.000000,0.000000,0.000000
13052134.000000,-2.326346,-1.663009,1.167607,-1.428458,1.724363,1.239715,-0.576734,0.456582,-0.030069,1.281106,-0.439127,-0.336058,1.151626,-0.110373,-1.778521,43.097881,-24.781693,-6.661500,0.273221,1.884261,-0.208878,0.000000,0.000000,0.000000,0.000000,0.000000,0.000000
13052135.000000,-2.325904,-1.663035,1.168905,-1.428907,1.724027,1.240860,-0.576856,0.453303,-0.028952,1.286845,-0.444563,-0.338378,1.143816,-0.113693,-1.429400,43.097881,-25.198257,-6.363954,0.315336,1.832076,-0.122819,0.000000,0.000000,0.000000,0.000000,0.000000,0.000000
13052136.000000,-2.325468,-1.663063,1.170215,-1.429362,1.723698,1.241995,-0.576960,0.445196,-0.029850,1.284732,-0.444919,-0.328857,1.132386,-0.115228,-0.985064,43.173260,-25.591019,-6.070375,0.303434,1.988631,-0.182328,0.000000,0.000000,0.000000,0.000000,0.000000,0.000000
13052137.000000,-2.325030,-1.663086,1.171522,-1.429820,1.723374,1.243115,-0.577073,0.444099,-0.024653,1.294748,-0.446420,-0.331259,1.125982,-0.115544,-0.635943,43.145489,-26.229752,-5.872011,0.297025,2.163497,-0.163102,0.000000,0.000000,0.000000,0.000000,0.000000,0.000000
13052138.000000,-2.324611,-1.663115,1.172821,-1.430274,1.723036,1.244242,-0.577183,0.433967,-0.026583,1.294937,-0.448932,-0.335742,1.119474,-0.114930,-0.167803,43.220867,-26.475723,-5.626039,0.356534,2.391464,-0.163102,0.000000,0.000000,0.000000,0.000000,0.000000,0.000000
13052139.000000,-2.324178,-1.663137,1.174121,-1.430734,1.722700,1.245390,-0.577292,0.433500,-0.022829,1.290099,-0.446733,-0.332740,1.125314,-0.110733,0.129743,43.220867,-26.646317,-5.399904,0.405057,2.482101,-0.169511,0.000000,0.000000,0.000000,0.000000,0.000000,0.000000
13052140.000000,-2.323759,-1.663160,1.175397,-1.431191,1.722374,1.246525,-0.577398,0.424941,-0.022809,1.289027,-0.450698,-0.326649,1.125113,-0.106051,0.526471,43.197063,-26.721695,-5.106325,0.440763,2.437240,-0.182328,0.000000,0.000000,0.000000,0.000000,0.000000,0.000000
13052141.000000,-2.323332,-1.663180,1.176677,-1.431654,1.722047,1.247670,-0.577497,0.426741,-0.022222,1.281798,-0.450997,-0.325915,1.123373,-0.106833,0.697065,43.145489,-26.670120,-4.784975,0.470060,2.372237,-0.215287,0.000000,0.000000,0.000000,0.000000,0.000000,0.000000
13052142.000000,-2.322907,-1.663201,1.177959,-1.432135,1.721711,1.248802,-0.577610,0.424716,-0.022367,1.300038,-0.461274,-0.330029,1.143010,-0.106490,0.947004,43.121685,-26.499527,-4.289064,0.506681,2.242233,-0.142960,0.000000,0.000000,0.000000,0.000000,0.000000,0.000000
13052143.000000,-2.322488,-1.663227,1.179205,-1.432599,1.721382,1.249957,-0.577708,0.425200,-0.021133,1.280969,-0.459440,-0.329842,1.146601,-0.101207,1.169172,43.173260,-26.154373,-3.920107,0.571683,2.066451,-0.208878,0.000000,0.000000,0.000000,0.000000,0.000000,0.000000
13052144.000000,-2.322073,-1.663249,1.180490,-1.433079,1.721060,1.251111,-0.577820,0.421879,-0.022597,1.276329,-0.461075,-0.322978,1.145410,-0.106523,1.391340,43.197063,-26.253555,-3.499574,0.601896,1.968490,-0.149369,0.000000,0.000000,0.000000,0.000000,0.000000,0.000000
13052145.000000,-2.321648,-1.663270,1.181731,-1.433544,1.720755,1.252242,-0.577923,0.421078,-0.023215,1.263197,-0.468218,-0.314727,1.147256,-0.107360,1.542096,43.197063,-26.007584,-3.178224,0.524076,1.942855,-0.169511,0.000000,0.000000,0.000000,0.000000,0.000000,0.000000
13052146.000000,-2.321236,-1.663296,1.183003,-1.434004,1.720435,1.253388,-0.578027,0.419675,-0.021655,1.261329,-0.463621,-0.315567,1.150547,-0.103781,1.712690,43.244671,-26.007584,-3.126650,0.506681,1.923629,-0.182328,0.000000,0.000000,0.000000,0.000000,0.000000,0.000000
13052147.000000,-2.320836,-1.663318,1.184272,-1.434455,1.720114,1.254512,-0.578131,0.410842,-0.019939,1.263134,-0.454685,-0.312814,1.148954,-0.101944,2.061811,43.268475,-25.959976,-3.178224,0.535978,1.962081,-0.163102,0.000000,0.000000,0.000000,0.000000,0.000000,0.000000
13052148.000000,-2.320430,-1.663341,1.185509,-1.434895,1.719807,1.255648,-0.578229,0.413949,-0.021577,1.252769,-0.448152,-0.310177,1.141794,-0.098078,2.160993,43.292278,-25.860794,-3.277406,0.535978,2.027084,-0.221696,0.000000,0.000000,0.000000,0.000000,0.000000,0.000000
13052149.000000,-2.320018,-1.663356,1.186758,-1.435343,1.719491,1.256786,-0.578344,0.412764,-0.020594,1.246053,-0.448959,-0.309658,1.134251,-0.105226,2.283979,43.220867,-25.761612,-3.249635,0.584501,2.125045,-0.136552,0.000000,0.000000,0.000000,0.000000,0.000000,0.000000
13052150.000000,-2.319604,-1.663372,1.187984,-1.435779,1.719174,1.257927,-0.578439,0.409106,-0.020592,1.240178,-0.443780,-0.304815,1.135690,-0.104722,2.359357,43.173260,-25.666397,-3.249635,0.637601,2.053634,-0.202470,0.000000,0.000000,0.000000,0.000000,0.000000,0.000000
13052151.000000,-2.319187,-1.663383,1.189228,-1.436222,1.718858,1.259105,-0.578544,0.406393,-0.015755,1.242407,-0.442552,-0.308569,1.142695,-0.102402,2.260175,43.050274,-25.666397,-3.126650,0.763029,1.819259,-0.196061,0.000000,0.000000,0.000000,0.000000,0.000000,0.000000
13052152.000000,-2.318774,-1.663386,1.190453,-1.436658,1.718558,1.260278,-0.578641,0.409302,-0.006944,1.229647,-0.432606,-0.300590,1.144956,-0.100323,2.208601,42.828106,-25.368851,-3.079042,0.751127,1.670028,-0.208878,0.000000,0.000000,0.000000,0.000000,0.000000,0.000000
13052153.000000,-2.318349,-1.663389,1.191673,-1.437082,1.718270,1.261432,-0.578747,0.423350,-0.004920,1.229287,-0.430681,-0.298015,1.148647,-0.100752,2.085615,42.657513,-25.273636,-3.102846,0.679716,1.578475,-0.155778,0.000000,0.000000,0.000000,0.000000,0.000000,0.000000
13052154.000000,-2.317942,-1.663398,1.192907,-1.437504,1.717978,1.262591,-0.578849,0.420560,-0.005849,1.227715,-0.425136,-0.295152,1.144785,-0.099666,2.109418,42.582134,-25.249832,-3.154421,0.578092,1.624252,-0.142960,0.000000,0.000000,0.000000,0.000000,0.000000,0.000000
13052155.000000,-2.317535,-1.663406,1.194125,-1.437922,1.717686,1.263726,-0.578950,0.417324,-0.006523,1.230538,-0.420815,-0.290168,1.144876,-0.097516,2.109418,42.510723,-25.297440,-3.249635,0.518583,1.773483,-0.163102,0.000000,0.000000,0.000000,0.000000,0.000000,0.000000
13052156.000000,-2.317135,-1.663404,1.195365,-1.438318,1.717406,1.264870,-0.579053,0.414147,-0.004648,1.231614,-0.412686,-0.285911,1.138244,-0.097533,2.109418,42.340130,-25.468033,-3.424196,0.440763,1.981307,-0.149369,0.000000,0.000000,0.000000,0.000000,0.000000,0.000000
13052157.000000,-2.316727,-1.663413,1.196628,-1.438726,1.717126,1.266023,-0.579149,0.413305,-0.006822,1.237401,-0.411237,-0.283516,1.136702,-0.095007,2.109418,42.316326,-25.884598,-3.499574,0.398649,2.118636,-0.196061,0.000000,0.000000,0.000000,0.000000,0.000000,0.000000
13052158.000000,-2.316320,-1.663410,1.197875,-1.439120,1.716843,1.267165,-0.579254,0.409471,-0.001558,1.240061,-0.404748,-0.288142,1.139377,-0.096168,2.160993,42.141766,-26.376541,-3.570986,0.422452,2.163497,-0.163102,0.000000,0.000000,0.000000,0.000000,0.000000,0.000000
13052159.000000,-2.315910,-1.663416,1.199100,-1.439516,1.716561,1.268314,-0.579348,0.407553,-0.000745,1.235053,-0.401199,-0.285545,1.140633,-0.099189,2.034040,42.094158,-26.424149,-3.598757,0.506681,2.163497,-0.196061,0.000000,0.000000,0.000000,0.000000,0.000000,0.000000
13052160.000000,-2.315501,-1.663417,1.200336,-1.439917,1.716282,1.269447,-0.579453,0.407255,0.001208,1.229742,-0.396454,-0.283203,1.164146,-0.100429,1.934858,41.994976,-26.574905,-3.448000,0.596403,2.177230,-0.142960,0.000000,0.000000,0.000000,0.000000,0.000000,0.000000
13052161.000000,-2.315100,-1.663426,1.201541,-1.440307,1.716015,1.270588,-0.579542,0.405913,-0.002947,1.224432,-0.396798,-0.274675,1.161177,-0.095948,1.934858,41.994976,-26.499527,-3.376589,0.632108,2.183639,-0.215287,0.000000,0.000000,0.000000,0.000000,0.000000,0.000000
13052162.000000,-2.314691,-1.663432,1.202758,-1.440697,1.715745,1.271738,-0.579642,0.405455,-0.004641,1.217333,-0.392778,-0.275119,1.159488,-0.097101,1.887250,41.947369,-26.376541,-3.301210,0.608304,2.163497,-0.182328,0.000000,0.000000,0.000000,0.000000,0.000000,0.000000
13052163.000000,-2.314289,-1.663440,1.203952,-1.441076,1.715474,1.272855,-0.579739,0.400997,-0.002709,1.212898,-0.397242,-0.269669,1.141830,-0.096710,1.911054,41.899761,-26.130569,-3.249635,0.535978,2.222091,-0.175919,0.000000,0.000000,0.000000,0.000000,0.000000,0.000000
13052164.000000,-2.313894,-1.663452,1.205156,-1.441453,1.715211,1.274005,-0.579825,0.400956,-0.003467,1.200431,-0.390855,-0.266149,1.136179,-0.090330,1.911054,41.947369,-25.813187,-3.301210,0.476469,2.118636,-0.202470,0.000000,0.000000,0.000000,0.000000,0.000000,0.000000
13052165.000000,-2.313503,-1.663457,1.206378,-1.441832,1.714948,1.275152,-0.579921,0.396652,-0.002165,1.201454,-0.389658,-0.263731,1.127776,-0.088465,2.061811,41.923565,-25.737808,-3.325014,0.428861,2.060043,-0.155778,0.000000,0.000000,0.000000,0.000000,0.000000,0.000000
13052166.000000,-2.313114,-1.663460,1.207564,-1.442209,1.714690,1.276288,-0.580006,0.405869,-0.003163,1.197256,-0.387615,-0.263635,1.131098,-0.083071,2.160993,41.848186,-25.491837,-3.301210,0.416959,1.988631,-0.208878,0.000000,0.000000,0.000000,0.000000,0.000000,0.000000
13052167.000000,-2.312726,-1.663461,1.208777,-1.442586,1.714425,1.277433,-0.580106,0.398206,-0.006720,1.194842,-0.382105,-0.264049,1.126312,-0.088855,2.260175,41.752972,-25.491837,-3.277406,0.416959,1.936446,-0.130143,0.000000,0.000000,0.000000,0.000000,0.000000,0.000000
13052168.000000,-2.312340,-1.663470,1.209970,-1.442959,1.714153,1.278568,-0.580189,0.393813,-0.005380,1.194391,-0.376433,-0.262073,1.130253,-0.087340,2.359357,41.752972,-25.444229,-3.325014,0.488370,1.844894,-0.202470,0.000000,0.000000,0.000000,0.000000,0.000000,0.000000
13052169.000000,-2.311964,-1.663472,1.211172,-1.443318,1.713898,1.279721,-0.580276,0.386791,-0.005234,1.190346,-0.368215,-0.262413,1.132735,-0.089003,2.506147,41.653790,-25.368851,-3.424196,0.488370,1.741439,-0.208878,0.000000,0.000000,0.000000,0.000000,0.000000,0.000000
13052170.000000,-2.311583,-1.663472,1.212375,-1.443682,1.713650,1.280861,-0.580367,0.380246,-0.004991,1.188004,-0.365142,-0.256366,1.129993,-0.086998,2.652936,41.554607,-25.368851,-3.499574,0.464567,1.779891,-0.175919,0.000000,0.000000,0.000000,0.000000,0.000000,0.000000
13052171.000000,-2.311198,-1.663475,1.213544,-1.444037,1.713399,1.281986,-0.580453,0.379339,-0.003609,1.182579,-0.362309,-0.257550,1.133494,-0.082515,2.704511,41.530804,-25.174454,-3.499574,0.446256,1.825668,-0.202470,0.000000,0.000000,0.000000,0.000000,0.000000,0.000000
13052172.000000,-2.310832,-1.663472,1.214730,-1.444399,1.713134,1.283123,-0.580544,0.372360,-0.000715,1.177139,-0.361503,-0.256329,1.133650,-0.083247,2.851301,41.431622,-25.003860,-3.424196,0.494779,1.884261,-0.142960,0.000000,0.000000,0.000000,0.000000,0.000000,0.000000
13052173.000000,-2.310450,-1.663465,1.215876,-1.444756,1.712877,1.284246,-0.580626,0.371249,0.001835,1.188742,-0.357256,-0.253569,1.138886,-0.078937,2.803693,41.312603,-24.535721,-3.376589,0.500272,1.988631,-0.202470,0.000000,0.000000,0.000000,0.000000,0.000000,0.000000
13052174.000000,-2.310072,-1.663455,1.217050,-1.445105,1.712633,1.285386,-0.580715,0.373877,0.004303,1.186369,-0.354650,-0.249969,1.141331,-0.084404,2.803693,41.165813,-24.313553,-3.301210,0.464567,2.007858,-0.163102,0.000000,0.000000,0.000000,0.000000,0.000000,0.000000
13052175.000000,-2.309684,-1.663437,1.218233,-1.445461,1.712387,1.286540,-0.580796,0.379553,0.007800,1.180850,-0.351655,-0.243628,1.142441,-0.080938,2.680707,40.943645,-24.218338,-3.225832,0.464567,1.930038,-0.196061,0.000000,0.000000,0.000000,0.000000,0.000000,0.000000
13052176.000000,-2.309302,-1.663426,1.219407,-1.445802,1.712144,1.287684,-0.580885,0.380009,0.014231,1.182878,-0.345594,-0.254839,1.142241,-0.080325,2.629133,40.820660,-24.218338,-3.202028,0.416959,1.735030,-0.175919,0.000000,0.000000,0.000000,0.000000,0.000000,0.000000
13052177.000000,-2.308932,-1.663409,1.220606,-1.446148,1.711902,1.288832,-0.580964,0.379445,0.014415,1.183756,-0.344662,-0.251712,1.140037,-0.077905,2.605329,40.626263,-24.464310,-3.178224,0.386747,1.643478,-0.208878,0.000000,0.000000,0.000000,0.000000,0.000000,0.000000
13052178.000000,-2.308559,-1.663401,1.221812,-1.446490,1.711655,1.289955,-0.581053,0.379950,0.012215,1.184704,-0.339107,-0.251346,1.151692,-0.084303,2.652936,40.527081,-24.781693,-3.202028,0.428861,1.689254,-0.149369,0.000000,0.000000,0.000000,0.000000,0.000000,0.000000
13052179.000000,-2.308193,-1.663389,1.222999,-1.446822,1.711422,1.291084,-0.581129,0.377378,0.012348,1.185991,-0.338158,-0.244885,1.137746,-0.080435,2.728315,40.356487,-25.174454,-3.249635,0.422452,1.779891,-0.196061,0.000000,0.000000,0.000000,0.000000,0.000000,0.000000
13052180.000000,-2.307821,-1.663387,1.224192,-1.447149,1.711186,1.292222,-0.581216,0.374729,0.008392,1.181049,-0.329375,-0.236004,1.128115,-0.081028,2.704511,40.356487,-25.396622,-3.475771,0.440763,1.858627,-0.149369,0.000000,0.000000,0.000000,0.000000,0.000000,0.000000
13052181.000000,-2.307453,-1.663381,1.225363,-1.447465,1.710949,1.293330,-0.581297,0.372809,0.007478,1.181569,-0.329912,-0.234234,1.125867,-0.084384,2.680707,40.281109,-25.468033,-3.622560,0.458158,1.968490,-0.149369,0.000000,0.000000,0.000000,0.000000,0.000000,0.000000
13052182.000000,-2.307086,-1.663378,1.226550,-1.447791,1.710716,1.294453,-0.581376,0.368033,0.005076,1.175206,-0.324753,-0.230342,1.118809,-0.084904,2.652936,40.281109,-25.519608,-3.697939,0.410551,2.047225,-0.202470,0.000000,0.000000,0.000000,0.000000,0.000000,0.000000
13052183.000000,-2.306714,-1.663374,1.227730,-1.448114,1.710485,1.295577,-0.581464,0.367329,0.004008,1.169422,-0.322003,-0.228748,1.111293,-0.084356,2.605329,40.257305,-25.368851,-3.721742,0.398649,2.104903,-0.155778,0.000000,0.000000,0.000000,0.000000,0.000000,0.000000
13052184.000000,-2.306347,-1.663369,1.228885,-1.448438,1.710257,1.296695,-0.581545,0.372419,0.003280,1.166747,-0.327347,-0.228258,1.112876,-0.080496,2.529951,40.233501,-25.150650,-3.570986,0.398649,2.079269,-0.196061,0.000000,0.000000,0.000000,0.000000,0.000000,0.000000
13052185.000000,-2.305970,-1.663368,1.230052,-1.448760,1.710033,1.297841,-0.581630,0.371440,0.002225,1.160488,-0.322950,-0.227141,1.118783,-0.080297,2.331586,40.233501,-24.857071,-3.475771,0.381254,1.877853,-0.169511,0.000000,0.000000,0.000000,0.000000,0.000000,0.000000
13052186.000000,-2.305597,-1.663367,1.231193,-1.449080,1.709798,1.298973,-0.581707,0.375507,0.000955,1.147788,-0.317873,-0.229025,1.128073,-0.077353,2.208601,40.257305,-24.464310,-3.325014,0.434354,1.702071,-0.215287,0.000000,0.000000,0.000000,0.000000,0.000000,0.000000
13052187.000000,-2.305228,-1.663362,1.232371,-1.449389,1.709579,1.300106,-0.581788,0.369342,0.001215,1.150927,-0.317858,-0.227153,1.131237,-0.078139,2.109418,40.233501,-24.436539,-3.277406,0.398649,1.624252,-0.188737,0.000000,0.000000,0.000000,0.000000,0.000000,0.000000
13052188.000000,-2.304859,-1.663365,1.233532,-1.449694,1.709356,1.301246,-0.581868,0.368056,-0.000288,1.149379,-0.312344,-0.220265,1.130332,-0.077373,2.034040,40.281109,-24.166763,-3.301210,0.356534,1.617843,-0.196061,0.000000,0.000000,0.000000,0.000000,0.000000,0.000000
13052189.000000,-2.304488,-1.663364,1.234681,-1.449993,1.709125,1.302359,-0.581951,0.365879,-0.000829,1.146686,-0.308443,-0.224385,1.120164,-0.083150,1.934858,40.308880,-24.043777,-3.348818,0.428861,1.656295,-0.149369,0.000000,0.000000,0.000000,0.000000,0.000000,0.000000
13052190.000000,-2.304132,-1.663358,1.235845,-1.450288,1.708908,1.303491,-0.582025,0.362978,0.000663,1.147788,-0.302501,-0.223099,1.112374,-0.080444,1.863447,40.257305,-23.920792,-3.523378,0.386747,1.760665,-0.175919,0.000000,0.000000,0.000000,0.000000,0.000000,0.000000
13052191.000000,-2.303765,-1.663355,1.237007,-1.450585,1.708694,1.304606,-0.582102,0.364295,0.001005,1.174705,-0.297903,-0.217899,1.108620,-0.077969,1.740461,40.233501,-24.019974,-3.598757,0.356534,1.884261,-0.208878,0.000000,0.000000,0.000000,0.000000,0.000000,0.000000
13052192.000000,-2.303394,-1.663351,1.238174,-1.450868,1.708485,1.305744,-0.582188,0.366900,0.001232,1.171415,-0.292296,-0.212883,1.109582,-0.080555,1.514325,40.209698,-24.071548,-3.769350,0.291532,1.923629,-0.130143,0.000000,0.000000,0.000000,0.000000,0.000000,0.000000
13052193.000000,-2.303020,-1.663339,1.239329,-1.451167,1.708261,1.306895,-0.582254,0.366608,0.006871,1.156666,-0.291591,-0.216530,1.112885,-0.076392,1.315961,40.086712,-23.920792,-3.769350,0.303434,1.871444,-0.202470,0.000000,0.000000,0.000000,0.000000,0.000000,0.000000
13052194.000000,-2.302639,-1.663329,1.240467,-1.451455,1.708038,1.308013,-0.582330,0.369603,0.007168,1.147683,-0.285661,-0.222172,1.111122,-0.077890,0.994611,39.987530,-23.801773,-3.745546,0.381254,1.916305,-0.169511,0.000000,0.000000,0.000000,0.000000,0.000000,0.000000
13052197.000000,-2.301499,-1.663284,1.243892,-1.452321,1.707403,1.311423,-0.582556,0.376577,0.012197,1.133982,-0.285725,-0.211564,1.142057,-0.078799,0.054365,39.574932,-23.210648,-3.598757,0.398649,1.714889,-0.122819,0.000000,0.000000,0.000000,0.000000,0.000000,0.000000
13052198.000000,-2.301120,-1.663269,1.245048,-1.452599,1.707199,1.312555,-0.582617,0.378151,0.013421,1.135239,-0.285002,-0.211153,1.144100,-0.069379,-0.191607,39.499554,-23.234451,-3.646364,0.291532,1.695663,-0.221696,0.000000,0.000000,0.000000,0.000000,0.000000,0.000000
13052199.000000,-2.300750,-1.663256,1.246188,-1.452863,1.706989,1.313675,-0.582695,0.374322,0.013756,1.139143,-0.277508,-0.208962,1.140760,-0.073122,-0.314593,39.451946,-23.309830,-3.745546,0.249418,1.708480,-0.169511,0.000000,0.000000,0.000000,0.000000,0.000000,0.000000
13052200.000000,-2.300381,-1.663247,1.247355,-1.453124,1.706780,1.314788,-0.582767,0.371299,0.013004,1.139425,-0.268433,-0.209583,1.133597,-0.073193,-0.489153,39.451946,-23.528030,-3.868532,0.267728,1.812850,-0.169511,0.000000,0.000000,0.000000,0.000000,0.000000,0.000000
13052201.000000,-2.300013,-1.663237,1.248536,-1.453392,1.706584,1.315912,-0.582834,0.365846,0.012017,1.144930,-0.265575,-0.201830,1.129986,-0.073330,-0.564532,39.475750,-23.873184,-3.943910,0.207303,1.916305,-0.182328,0.000000,0.000000,0.000000,0.000000,0.000000,0.000000
13052202.000000,-2.299648,-1.663225,1.249704,-1.453648,1.706374,1.317010,-0.582908,0.372638,0.009958,1.159309,-0.263321,-0.201719,1.113059,-0.074790,-0.612139,39.428143,-24.265945,-4.043092,0.279630,2.001449,-0.155778,0.000000,0.000000,0.000000,0.000000,0.000000,0.000000
13052203.000000,-2.299292,-1.663218,1.250869,-1.453905,1.706175,1.318131,-0.582974,0.366984,0.007264,1.150554,-0.259384,-0.203206,1.106467,-0.069437,-0.489153,39.428143,-24.464310,-4.090700,0.285123,2.014266,-0.175919,0.000000,0.000000,0.000000,0.000000,0.000000,0.000000
13052204.000000,-2.298923,-1.663213,1.252019,-1.454163,1.705963,1.319244,-0.583038,0.369371,0.007226,1.147527,-0.257247,-0.204907,1.106046,-0.070683,-0.512957,39.475750,-24.611099,-4.118471,0.303434,1.955673,-0.182328,0.000000,0.000000,0.000000,0.000000,0.000000,0.000000
13052205.000000,-2.298567,-1.663204,1.253170,-1.454414,1.705753,1.320360,-0.583104,0.367177,0.008714,1.146747,-0.251935,-0.205653,1.106395,-0.071904,-0.441546,39.475750,-24.535721,-4.166078,0.303434,1.988631,-0.182328,0.000000,0.000000,0.000000,0.000000,0.000000,0.000000
13052206.000000,-2.298199,-1.663203,1.254315,-1.454670,1.705540,1.321478,-0.583174,0.364947,0.007386,1.136258,-0.251487,-0.211081,1.102291,-0.069149,-0.540728,39.574932,-24.313553,-4.166078,0.320829,2.020675,-0.155778,0.000000,0.000000,0.000000,0.000000,0.000000,0.000000
13052207.000000,-2.297839,-1.663201,1.255446,-1.454923,1.705338,1.322579,-0.583235,0.361969,0.006562,1.133574,-0.252440,-0.209545,1.100392,-0.068732,-0.564532,39.670147,-23.996170,-4.142274,0.303434,2.033492,-0.208878,0.000000,0.000000,0.000000,0.000000,0.000000,0.000000
13052208.000000,-2.297488,-1.663190,1.256583,-1.455181,1.705133,1.323702,-0.583302,0.357455,0.008956,1.125572,-0.252217,-0.203916,1.097109,-0.066998,-0.635943,39.646343,-23.603409,-4.142274,0.291532,2.020675,-0.182328,0.000000,0.000000,0.000000,0.000000,0.000000,0.000000
13052209.000000,-2.297142,-1.663175,1.257730,-1.455441,1.704936,1.324808,-0.583368,0.353994,0.010314,1.150371,-0.253493,-0.199126,1.120475,-0.069173,-0.588336,39.499554,-23.357437,-4.090700,0.267728,1.955673,-0.182328,0.000000,0.000000,0.000000,0.000000,0.000000,0.000000
13052210.000000,-2.296801,-1.663162,1.258860,-1.455687,1.704742,1.325943,-0.583433,0.352141,0.009879,1.139026,-0.252349,-0.197860,1.127012,-0.066690,-0.512957,39.400372,-23.186844,-4.118471,0.178007,1.832076,-0.163102,0.000000,0.000000,0.000000,0.000000,0.000000,0.000000
13052211.000000,-2.296460,-1.663147,1.260005,-1.455949,1.704539,1.327066,-0.583493,0.352227,0.013046,1.133586,-0.253609,-0.196147,1.126072,-0.063908,-0.413775,39.281353,-23.063858,-4.043092,0.189908,1.760665,-0.188737,0.000000,0.000000,0.000000,0.000000,0.000000,0.000000
13052212.000000,-2.296127,-1.663128,1.261138,-1.456204,1.704335,1.328179,-0.583559,0.346031,0.015923,1.140001,-0.259398,-0.201006,1.124393,-0.063329,-0.290789,39.130596,-23.040054,-3.967714,0.237516,1.702071,-0.155778,0.000000,0.000000,0.000000,0.000000,0.000000,0.000000
13052213.000000,-2.295804,-1.663114,1.262287,-1.456450,1.704148,1.329294,-0.583623,0.342073,0.016081,1.135592,-0.252755,-0.197646,1.110186,-0.062068,-0.167803,39.059185,-23.087662,-4.019289,0.231107,1.682845,-0.142960,0.000000,0.000000,0.000000,0.000000,0.000000,0.000000
13052214.000000,-2.295479,-1.663099,1.263442,-1.456702,1.703951,1.330420,-0.583680,0.334327,0.015782,1.137419,-0.252298,-0.197788,1.126583,-0.059184,-0.017047,39.011578,-23.186844,-4.019289,0.297025,1.682845,-0.188737,0.000000,0.000000,0.000000,0.000000,0.000000,0.000000
13052215.000000,-2.295159,-1.663082,1.264573,-1.456946,1.703770,1.331533,-0.583748,0.329192,0.016814,1.135586,-0.248727,-0.189528,1.118721,-0.060452,0.153547,38.912395,-23.210648,-4.043092,0.261320,1.656295,-0.142960,0.000000,0.000000,0.000000,0.000000,0.000000,0.000000
13052216.000000,-2.294838,-1.663068,1.265706,-1.457196,1.703576,1.332645,-0.583803,0.323201,0.016518,1.126720,-0.245020,-0.189639,1.113084,-0.057242,0.276533,38.864788,-23.135269,-3.943910,0.273221,1.735030,-0.202470,0.000000,0.000000,0.000000,0.000000,0.000000,0.000000
13052217.000000,-2.294521,-1.663053,1.266833,-1.457443,1.703375,1.333748,-0.583869,0.318510,0.016892,1.126193,-0.248164,-0.190308,1.107115,-0.058201,0.403486,38.789410,-23.063858,-3.868532,0.291532,1.760665,-0.175919,0.000000,0.000000,0.000000,0.000000,0.000000,0.000000
13052218.000000,-2.294212,-1.663035,1.267954,-1.457681,1.703188,1.334861,-0.583938,0.313692,0.018288,1.119683,-0.242735,-0.187687,1.105408,-0.059062,0.451093,38.666424,-22.770279,-3.868532,0.231107,1.819259,-0.142960,0.000000,0.000000,0.000000,0.000000,0.000000,0.000000
13052219.000000,-2.293898,-1.663022,1.269086,-1.457932,1.702995,1.335987,-0.583991,0.312062,0.014305,1.115711,-0.243013,-0.183122,1.103648,-0.055803,0.526471,38.618816,-22.595718,-3.670168,0.237516,1.800033,-0.202470,0.000000,0.000000,0.000000,0.000000,0.000000,0.000000
13052220.000000,-2.293590,-1.663000,1.270201,-1.458169,1.702810,1.337111,-0.584060,0.316067,0.016892,1.112907,-0.243265,-0.184218,1.113265,-0.058303,0.601850,38.472027,-22.425125,-3.598757,0.231107,1.611434,-0.142960,0.000000,0.000000,0.000000,0.000000,0.000000,0.000000
13052221.000000,-2.293289,-1.662981,1.271341,-1.458415,1.702624,1.338258,-0.584113,0.311839,0.018122,1.113346,-0.243920,-0.185073,1.122332,-0.056067,0.772443,38.349041,-22.448929,-3.499574,0.225614,1.422836,-0.188737,0.000000,0.000000,0.000000,0.000000,0.000000,0.000000
13052222.000000,-2.292984,-1.662962,1.272478,-1.458669,1.702436,1.339366,-0.584180,0.308389,0.018311,1.125246,-0.242912,-0.181661,1.129659,-0.058187,0.895429,38.249859,-22.623489,-3.325014,0.237516,1.377059,-0.136552,0.000000,0.000000,0.000000,0.000000,0.000000,0.000000
13052223.000000,-2.292692,-1.662943,1.273636,-1.458908,1.702250,1.340489,-0.584237,0.300558,0.015349,1.130785,-0.240399,-0.183129,1.126841,-0.057215,1.046186,38.154644,-22.940872,-3.225832,0.225614,1.454879,-0.155778,0.000000,0.000000,0.000000,0.000000,0.000000,0.000000
13052224.000000,-2.292406,-1.662927,1.274797,-1.459150,1.702056,1.341601,-0.584297,0.294743,0.015290,1.130726,-0.240509,-0.186498,1.111761,-0.057790,1.315961,38.103069,-23.258255,-3.154421,0.291532,1.630660,-0.136552,0.000000,0.000000,0.000000,0.000000,0.000000,0.000000
13052225.000000,-2.292119,-1.662916,1.275935,-1.459381,1.701868,1.342698,-0.584351,0.292279,0.013495,1.136344,-0.235318,-0.191740,1.104393,-0.056113,1.565900,38.130840,-23.528030,-3.202028,0.327238,1.858627,-0.169511,0.000000,0.000000,0.000000,0.000000,0.000000,0.000000
13052226.000000,-2.291838,-1.662897,1.277090,-1.459619,1.701690,1.343812,-0.584407,0.288723,0.012722,1.137715,-0.233491,-0.189496,1.096085,-0.055846,1.740461,38.007854,-23.774002,-3.178224,0.291532,1.981307,-0.188737,0.000000,0.000000,0.000000,0.000000,0.000000,0.000000
13052227.000000,-2.291556,-1.662876,1.278253,-1.459853,1.701511,1.344924,-0.584465,0.284893,0.015014,1.160065,-0.232242,-0.184233,1.122296,-0.056437,1.934858,37.884869,-23.948563,-3.154421,0.285123,2.007858,-0.182328,0.000000,0.000000,0.000000,0.000000,0.000000,0.000000
13052228.000000,-2.291272,-1.662853,1.279382,-1.460100,1.701336,1.346053,-0.584521,0.284197,0.017336,1.151471,-0.234910,-0.180540,1.118482,-0.060702,1.934858,37.738079,-23.849380,-2.979860,0.285123,1.949264,-0.196061,0.000000,0.000000,0.000000,0.000000,0.000000,0.000000
13052229.000000,-2.290984,-1.662837,1.280515,-1.460350,1.701158,1.347174,-0.584580,0.286949,0.016749,1.137977,-0.238800,-0.178403,1.114520,-0.061506,1.887250,37.686504,-23.702591,-2.682314,0.303434,1.897079,-0.149369,0.000000,0.000000,0.000000,0.000000,0.000000,0.000000
13052230.000000,-2.290697,-1.662819,1.281636,-1.460599,1.700972,1.348267,-0.584631,0.286136,0.016761,1.137843,-0.244245,-0.181884,1.108654,-0.053534,1.911054,37.615093,-23.504227,-2.360964,0.327238,1.936446,-0.202470,0.000000,0.000000,0.000000,0.000000,0.000000,0.000000
13052231.000000,-2.290412,-1.662798,1.282771,-1.460846,1.700790,1.349381,-0.584691,0.284513,0.014959,1.132876,-0.244801,-0.179334,1.110633,-0.056576,1.887250,37.492107,-23.258255,-2.091188,0.344633,1.871444,-0.149369,0.000000,0.000000,0.000000,0.000000,0.000000,0.000000
13052232.000000,-2.290131,-1.662787,1.283911,-1.461092,1.700616,1.350509,-0.584739,0.280980,0.013244,1.129246,-0.243436,-0.176526,1.117182,-0.054964,1.934858,37.515911,-23.111465,-1.892824,0.339139,1.806442,-0.196061,0.000000,0.000000,0.000000,0.000000,0.000000,0.000000
13052233.000000,-2.289862,-1.662772,1.285034,-1.461322,1.700449,1.351607,-0.584790,0.277257,0.016352,1.124643,-0.238792,-0.173750,1.112743,-0.054803,2.085615,37.492107,-23.016251,-1.869020,0.315336,1.754256,-0.208878,0.000000,0.000000,0.000000,0.000000,0.000000,0.000000
13052234.000000,-2.289590,-1.662758,1.286176,-1.461543,1.700283,1.352730,-0.584847,0.275276,0.015601,1.121172,-0.231991,-0.171798,1.109860,-0.053512,2.160993,37.468304,-22.988480,-1.964235,0.291532,1.656295,-0.142960,0.000000,0.000000,0.000000,0.000000,0.000000,0.000000
13052235.000000,-2.289326,-1.662743,1.287297,-1.461772,1.700113,1.353823,-0.584893,0.273103,0.018347,1.126002,-0.229639,-0.167073,1.101136,-0.052181,2.283979,37.444500,-22.917068,-1.992006,0.303434,1.649886,-0.196061,0.000000,0.000000,0.000000,0.000000,0.000000,0.000000
13052236.000000,-2.289064,-1.662736,1.288444,-1.461991,1.699942,1.354931,-0.584950,0.270904,0.015066,1.127700,-0.223659,-0.165344,1.089408,-0.054786,2.430768,37.515911,-23.040054,-2.063417,0.362943,1.747848,-0.155778,0.000000,0.000000,0.000000,0.000000,0.000000,0.000000
13052237.000000,-2.288786,-1.662727,1.289596,-1.462213,1.699773,1.356043,-0.584996,0.270231,0.010751,1.130195,-0.224558,-0.165582,1.083259,-0.048278,2.383161,37.539715,-23.111465,-2.039613,0.356534,1.825668,-0.215287,0.000000,0.000000,0.000000,0.000000,0.000000,0.000000
13052238.000000,-2.288512,-1.662720,1.290721,-1.462433,1.699601,1.357156,-0.585053,0.271558,0.009409,1.133615,-0.227447,-0.167484,1.094333,-0.053091,2.331586,37.615093,-23.135269,-1.940431,0.381254,1.727706,-0.142960,0.000000,0.000000,0.000000,0.000000,0.000000,0.000000
13052239.000000,-2.288242,-1.662713,1.291847,-1.462653,1.699436,1.358289,-0.585105,0.270897,0.009174,1.126204,-0.227557,-0.164668,1.098885,-0.053962,2.283979,37.662701,-23.063858,-1.916628,0.416959,1.539108,-0.142960,0.000000,0.000000,0.000000,0.000000,0.000000,0.000000
13052240.000000,-2.287965,-1.662701,1.292966,-1.462872,1.699281,1.359390,-0.585154,0.273255,0.007651,1.123680,-0.225297,-0.158433,1.102527,-0.054514,2.085615,37.638897,-23.016251,-1.869020,0.351041,1.519881,-0.142960,0.000000,0.000000,0.000000,0.000000,0.000000,0.000000
13052241.000000,-2.287703,-1.662689,1.294090,-1.463079,1.699124,1.360494,-0.585200,0.275126,0.012173,1.122272,-0.218626,-0.160536,1.099692,-0.048219,2.034040,37.638897,-22.865494,-1.892824,0.327238,1.643478,-0.196061,0.000000,0.000000,0.000000,0.000000,0.000000,0.000000
13052242.000000,-2.287427,-1.662684,1.295194,-1.463284,1.698965,1.361604,-0.585251,0.276799,0.013764,1.111854,-0.215177,-0.159063,1.105086,-0.046473,1.911054,37.714275,-22.425125,-1.964235,0.356534,1.708480,-0.175919,0.000000,0.000000,0.000000,0.000000,0.000000,0.000000
13052243.000000,-2.287154,-1.662675,1.296302,-1.463485,1.698811,1.362707,-0.585298,0.274951,0.013680,1.111191,-0.213277,-0.165357,1.105901,-0.044681,1.835676,37.714275,-22.254532,-2.039613,0.356534,1.747848,-0.163102,0.000000,0.000000,0.000000,0.000000,0.000000,0.000000
13052244.000000,-2.286882,-1.662654,1.297435,-1.463684,1.698662,1.363813,-0.585339,0.276077,0.016436,1.109106,-0.209500,-0.159204,1.104640,-0.041080,1.641279,37.591290,-22.278336,-2.091188,0.285123,1.786300,-0.215287,0.000000,0.000000,0.000000,0.000000,0.000000,0.000000
13052245.000000,-2.286613,-1.662637,1.298587,-1.463884,1.698506,1.364922,-0.585393,0.270770,0.014492,1.139678,-0.204671,-0.156652,1.123158,-0.042552,1.542096,37.492107,-22.571915,-2.091188,0.267728,1.695663,-0.155778,0.000000,0.000000,0.000000,0.000000,0.000000,0.000000
13052246.000000,-2.286346,-1.662624,1.299717,-1.464080,1.698351,1.366042,-0.585434,0.269324,0.014853,1.136305,-0.202011,-0.155512,1.110729,-0.044694,1.391340,37.444500,-22.817886,-2.039613,0.267728,1.584884,-0.188737,0.000000,0.000000,0.000000,0.000000,0.000000,0.000000
13052247.000000,-2.286079,-1.662615,1.300869,-1.464271,1.698194,1.367159,-0.585483,0.270133,0.012901,1.138172,-0.196044,-0.152027,1.105175,-0.049425,1.268354,37.492107,-23.186844,-2.138796,0.332731,1.591293,-0.142960,0.000000,0.000000,0.000000,0.000000,0.000000,0.000000
13052248.000000,-2.285815,-1.662605,1.302014,-1.464455,1.698032,1.368248,-0.585524,0.268580,0.009575,1.148231,-0.197874,-0.154718,1.098508,-0.044659,1.244550,37.492107,-23.603409,-2.214174,0.410551,1.695663,-0.188737,0.000000,0.000000,0.000000,0.000000,0.000000,0.000000
13052249.000000,-2.285552,-1.662591,1.303159,-1.464634,1.697891,1.369339,-0.585567,0.268661,0.010719,1.144234,-0.192509,-0.151783,1.093418,-0.047212,1.169172,37.468304,-23.849380,-2.360964,0.362943,1.884261,-0.202470,0.000000,0.000000,0.000000,0.000000,0.000000,0.000000
13052250.000000,-2.285288,-1.662586,1.304306,-1.464809,1.697738,1.370456,-0.585617,0.263797,0.006277,1.135471,-0.186528,-0.151584,1.096498,-0.051819,1.069990,37.539715,-23.972366,-2.460146,0.374845,1.838485,-0.142960,0.000000,0.000000,0.000000,0.000000,0.000000,0.000000
13052251.000000,-2.285026,-1.662583,1.305424,-1.464977,1.697596,1.371534,-0.585655,0.262740,0.003023,1.132146,-0.181107,-0.150157,1.090236,-0.046507,0.970807,37.615093,-23.948563,-2.606935,0.339139,1.858627,-0.188737,0.000000,0.000000,0.000000,0.000000,0.000000,0.000000
13052252.000000,-2.284758,-1.662583,1.306545,-1.465157,1.697455,1.372628,-0.585701,0.263471,0.002759,1.121901,-0.181292,-0.147148,1.088114,-0.045278,0.796247,37.738079,-23.774002,-2.559328,0.249418,1.897079,-0.163102,0.000000,0.000000,0.000000,0.000000,0.000000,0.000000
13052253.000000,-2.284490,-1.662580,1.307662,-1.465332,1.697301,1.373703,-0.585739,0.263583,0.003367,1.120376,-0.178920,-0.144312,1.089130,-0.046123,0.625654,37.833294,-23.627213,-2.483949,0.267728,1.923629,-0.215287,0.000000,0.000000,0.000000,0.000000,0.000000,0.000000
13052254.000000,-2.284232,-1.662583,1.308776,-1.465493,1.697147,1.374798,-0.585782,0.262156,0.002043,1.113937,-0.174440,-0.147254,1.085843,-0.045433,0.526471,38.007854,-23.234451,-2.511720,0.297025,1.923629,-0.182328,0.000000,0.000000,0.000000,0.000000,0.000000,0.000000
13052255.000000,-2.283965,-1.662584,1.309902,-1.465659,1.696998,1.375916,-0.585821,0.261620,-0.001272,1.108372,-0.173259,-0.147778,1.084423,-0.042443,0.375715,38.154644,-23.063858,-2.436342,0.297025,1.760665,-0.208878,0.000000,0.000000,0.000000,0.000000,0.000000,0.000000
13052256.000000,-2.283709,-1.662580,1.311022,-1.465813,1.696856,1.377032,-0.585862,0.259057,0.001687,1.113314,-0.167834,-0.148652,1.090477,-0.041943,0.351911,38.202251,-23.016251,-2.559328,0.297025,1.519881,-0.196061,0.000000,0.000000,0.000000,0.000000,0.000000,0.000000
13052257.000000,-2.283457,-1.662575,1.312150,-1.465959,1.696708,1.378150,-0.585904,0.257767,0.004433,1.111152,-0.159730,-0.144711,1.088920,-0.041734,0.304304,38.226055,-22.940872,-2.733888,0.308927,1.389877,-0.169511,0.000000,0.000000,0.000000,0.000000,0.000000,0.000000
13052258.000000,-2.283202,-1.662576,1.313268,-1.466105,1.696559,1.379249,-0.585940,0.254547,0.001984,1.135863,-0.155004,-0.142848,1.094310,-0.040014,0.252729,38.301434,-22.988480,-2.856874,0.351041,1.377059,-0.188737,0.000000,0.000000,0.000000,0.000000,0.000000,0.000000
13052259.000000,-2.282957,-1.662575,1.314391,-1.466241,1.696414,1.380342,-0.585985,0.250869,0.000802,1.129392,-0.149915,-0.144661,1.087511,-0.040539,0.228925,38.349041,-22.893265,-3.055238,0.351041,1.559249,-0.163102,0.000000,0.000000,0.000000,0.000000,0.000000,0.000000
13052260.000000,-2.282725,-1.662574,1.315533,-1.466377,1.696272,1.381439,-0.586021,0.244441,0.000423,1.125812,-0.144179,-0.140666,1.085726,-0.038907,0.351911,38.372845,-23.016251,-3.202028,0.339139,1.779891,-0.188737,0.000000,0.000000,0.000000,0.000000,0.000000,0.000000
13052261.000000,-2.282471,-1.662573,1.316645,-1.466503,1.696133,1.382542,-0.586060,0.245706,0.001173,1.122175,-0.141478,-0.139409,1.092792,-0.039609,0.252729,38.349041,-23.063858,-3.424196,0.261320,1.806442,-0.163102,0.000000,0.000000,0.000000,0.000000,0.000000,0.000000
13052262.000000,-2.282222,-1.662566,1.317766,-1.466636,1.695989,1.383667,-0.586098,0.246121,0.003352,1.113036,-0.138781,-0.136581,1.104373,-0.033768,0.153547,38.249859,-23.063858,-3.547182,0.225614,1.735030,-0.182328,0.000000,0.000000,0.000000,0.000000,0.000000,0.000000
13052263.000000,-2.281968,-1.662558,1.318891,-1.466776,1.695847,1.384769,-0.586140,0.245276,0.005207,1.110500,-0.137523,-0.135573,1.125505,-0.040533,-0.068621,38.130840,-23.016251,-3.499574,0.225614,1.695663,-0.163102,0.000000,0.000000,0.000000,0.000000,0.000000,0.000000
13052264.000000,-2.281713,-1.662553,1.319990,-1.466906,1.695710,1.385870,-0.586177,0.250448,0.005375,1.107478,-0.135742,-0.135246,1.114937,-0.039761,-0.366168,38.055462,-22.817886,-3.475771,0.231107,1.747848,-0.169511,0.000000,0.000000,0.000000,0.000000,0.000000,0.000000
13052265.000000,-2.281452,-1.662549,1.321092,-1.467038,1.695568,1.386979,-0.586208,0.251369,0.004246,1.100559,-0.134531,-0.136788,1.103053,-0.037589,-0.687518,38.031658,-22.571915,-3.424196,0.297025,1.793624,-0.215287,0.000000,0.000000,0.000000,0.000000,0.000000,0.000000
13052266.000000,-2.281203,-1.662545,1.322190,-1.467152,1.695431,1.388082,-0.586253,0.252599,0.004024,1.098991,-0.129433,-0.136284,1.098520,-0.040503,-0.862078,37.984051,-22.425125,-3.523378,0.315336,1.735030,-0.142960,0.000000,0.000000,0.000000,0.000000,0.000000,0.000000
13052267.000000,-2.280956,-1.662538,1.323319,-1.467271,1.695305,1.389201,-0.586285,0.252232,0.005062,1.107979,-0.126451,-0.133323,1.098110,-0.037722,-1.060443,37.884869,-22.571915,-3.622560,0.267728,1.689254,-0.196061,0.000000,0.000000,0.000000,0.000000,0.000000,0.000000
13052268.000000,-2.280719,-1.662534,1.324452,-1.467386,1.695186,1.390310,-0.586325,0.245431,0.004626,1.108074,-0.119316,-0.129054,1.096754,-0.039447,-1.008868,37.833294,-22.718704,-3.797121,0.166105,1.714889,-0.155778,0.000000,0.000000,0.000000,0.000000,0.000000,0.000000
13052269.000000,-2.280476,-1.662534,1.325589,-1.467502,1.695060,1.391403,-0.586359,0.247326,0.003117,1.112675,-0.117265,-0.129282,1.096061,-0.039145,-1.131854,37.833294,-23.111465,-3.844728,0.141385,1.714889,-0.149369,0.000000,0.000000,0.000000,0.000000,0.000000,0.000000
13052270.000000,-2.280239,-1.662534,1.326734,-1.467611,1.694929,1.392503,-0.586387,0.242442,0.002103,1.117861,-0.114347,-0.129685,1.092527,-0.037127,-1.183428,37.833294,-23.432816,-3.943910,0.123990,1.741439,-0.202470,0.000000,0.000000,0.000000,0.000000,0.000000,0.000000
13052271.000000,-2.280000,-1.662534,1.327862,-1.467722,1.694793,1.393577,-0.586422,0.239200,0.000771,1.122960,-0.112877,-0.132230,1.087687,-0.037851,-1.254840,37.861065,-23.825577,-4.019289,0.171598,1.884261,-0.188737,0.000000,0.000000,0.000000,0.000000,0.000000,0.000000
13052272.000000,-2.279764,-1.662533,1.329014,-1.467826,1.694661,1.394667,-0.586457,0.238013,0.000528,1.130028,-0.107976,-0.133023,1.090262,-0.038510,-1.354022,37.861065,-24.242142,-4.118471,0.195402,1.988631,-0.175919,0.000000,0.000000,0.000000,0.000000,0.000000,0.000000
13052273.000000,-2.279533,-1.662538,1.330161,-1.467928,1.694530,1.395767,-0.586492,0.232077,-0.001308,1.129401,-0.104695,-0.129228,1.093205,-0.038583,-1.405596,37.932476,-24.436539,-4.189882,0.231107,1.949264,-0.169511,0.000000,0.000000,0.000000,0.000000,0.000000,0.000000
13052274.000000,-2.279303,-1.662545,1.331274,-1.468028,1.694401,1.396857,-0.586524,0.233004,-0.002627,1.120464,-0.106111,-0.131138,1.092364,-0.033341,-1.480975,38.007854,-24.412735,-4.241457,0.267728,1.865035,-0.175919,0.000000,0.000000,0.000000,0.000000,0.000000,0.000000
13052275.000000,-2.279066,-1.662553,1.332397,-1.468137,1.694273,1.397950,-0.586558,0.234344,-0.004622,1.113775,-0.109107,-0.131217,1.081388,-0.031031,-1.627764,38.130840,-24.289749,-4.213686,0.267728,1.865035,-0.142960,0.000000,0.000000,0.000000,0.000000,0.000000,0.000000
13052276.000000,-2.278829,-1.662557,1.333519,-1.468248,1.694151,1.399022,-0.586584,0.234006,-0.004191,1.132670,-0.108819,-0.125276,1.075807,-0.030435,-1.750750,38.178448,-24.019974,-4.142274,0.231107,1.962081,-0.202470,0.000000,0.000000,0.000000,0.000000,0.000000,0.000000
13052277.000000,-2.278594,-1.662570,1.334628,-1.468354,1.694029,1.400108,-0.586622,0.233509,-0.006781,1.128300,-0.109126,-0.126182,1.074179,-0.033724,-1.972918,38.349041,-23.849380,-4.043092,0.207303,2.027084,-0.163102,0.000000,0.000000,0.000000,0.000000,0.000000,0.000000
13052278.000000,-2.278362,-1.662582,1.335729,-1.468464,1.693905,1.401211,-0.586647,0.232874,-0.008509,1.111570,-0.107030,-0.122454,1.081610,-0.028248,-2.147479,38.519634,-23.409012,-3.892336,0.195402,1.988631,-0.208878,0.000000,0.000000,0.000000,0.000000,0.000000,0.000000
13052279.000000,-2.278138,-1.662587,1.336840,-1.468563,1.693782,1.402302,-0.586685,0.228075,-0.007434,1.113717,-0.105034,-0.123778,1.083611,-0.032684,-2.199053,38.595013,-23.357437,-3.892336,0.159696,1.909896,-0.155778,0.000000,0.000000,0.000000,0.000000,0.000000,0.000000
13052280.000000,-2.277921,-1.662595,1.337963,-1.468652,1.693660,1.403413,-0.586712,0.224735,-0.006625,1.116082,-0.100189,-0.123614,1.087551,-0.032938,-2.246661,38.666424,-23.309830,-4.043092,0.093778,1.806442,-0.182328,0.000000,0.000000,0.000000,0.000000,0.000000,0.000000
13052281.000000,-2.277705,-1.662597,1.339087,-1.468745,1.693530,1.404506,-0.586740,0.221293,-0.008118,1.110257,-0.096078,-0.122430,1.113573,-0.033412,-2.270464,38.690228,-23.258255,-4.090700,0.129484,1.708480,-0.196061,0.000000,0.000000,0.000000,0.000000,0.000000,0.000000
13052282.000000,-2.277491,-1.662607,1.340197,-1.468829,1.693397,1.405600,-0.586776,0.215950,-0.007993,1.105999,-0.094486,-0.123784,1.108260,-0.032357,-2.298235,38.789410,-23.258255,-4.213686,0.225614,1.695663,-0.130143,0.000000,0.000000,0.000000,0.000000,0.000000,0.000000
13052283.000000,-2.277284,-1.662618,1.341334,-1.468914,1.693272,1.406695,-0.586799,0.212097,-0.008959,1.113873,-0.090054,-0.122208,1.100691,-0.031479,-2.171282,38.936199,-23.432816,-4.340639,0.267728,1.760665,-0.188737,0.000000,0.000000,0.000000,0.000000,0.000000,0.000000
13052284.000000,-2.277070,-1.662622,1.342446,-1.468998,1.693148,1.407773,-0.586834,0.212453,-0.006676,1.111279,-0.088352,-0.130578,1.088732,-0.030547,-2.171282,38.960003,-23.555801,-4.412050,0.308927,1.779891,-0.130143,0.000000,0.000000,0.000000,0.000000,0.000000,0.000000
13052285.000000,-2.276864,-1.662635,1.343569,-1.469082,1.693029,1.408876,-0.586859,0.210339,-0.007995,1.107792,-0.083836,-0.125454,1.086162,-0.031031,-2.199053,39.106792,-23.627213,-4.487428,0.297025,1.741439,-0.163102,0.000000,0.000000,0.000000,0.000000,0.000000,0.000000
13052286.000000,-2.276647,-1.662643,1.344686,-1.469169,1.692916,1.409988,-0.586886,0.215330,-0.010320,1.108347,-0.083253,-0.119404,1.091214,-0.032400,-2.345843,39.182171,-23.555801,-4.439821,0.231107,1.643478,-0.175919,0.000000,0.000000,0.000000,0.000000,0.000000,0.000000
13052287.000000,-2.276434,-1.662646,1.345779,-1.469253,1.692803,1.411067,-0.586913,0.216596,-0.010261,1.101034,-0.086423,-0.116866,1.090027,-0.029494,-2.492632,39.182171,-23.409012,-4.364442,0.201810,1.702071,-0.163102,0.000000,0.000000,0.000000,0.000000,0.000000,0.000000
13052288.000000,-2.276227,-1.662651,1.346883,-1.469335,1.692696,1.412158,-0.586941,0.213372,-0.007895,1.092632,-0.085412,-0.113138,1.082861,-0.031717,-2.544207,39.205975,-23.210648,-4.289064,0.123990,1.754256,-0.163102,0.000000,0.000000,0.000000,0.000000,0.000000,0.000000
13052289.000000,-2.276021,-1.662657,1.347969,-1.469412,1.692579,1.413240,-0.586963,0.208411,-0.005637,1.090618,-0.082827,-0.113080,1.084260,-0.027279,-2.619586,39.205975,-22.964676,-4.289064,0.112089,1.786300,-0.196061,0.000000,0.000000,0.000000,0.000000,0.000000,0.000000
13052290.000000,-2.275819,-1.662654,1.349084,-1.469485,1.692458,1.414338,-0.586990,0.206350,-0.004779,1.092977,-0.080368,-0.114949,1.087462,-0.030166,-2.667193,39.106792,-22.988480,-4.312868,0.154203,1.773483,-0.196061,0.000000,0.000000,0.000000,0.000000,0.000000,0.000000
13052291.000000,-2.275622,-1.662654,1.350203,-1.469552,1.692339,1.415451,-0.587016,0.199146,-0.005698,1.096063,-0.074195,-0.118906,1.099101,-0.027521,-2.591815,39.059185,-22.988480,-4.388246,0.154203,1.656295,-0.188737,0.000000,0.000000,0.000000,0.000000,0.000000,0.000000
13052292.000000,-2.275422,-1.662648,1.351334,-1.469621,1.692220,1.416554,-0.587042,0.195945,-0.001534,1.108577,-0.070957,-0.123538,1.103808,-0.030589,-2.591815,38.936199,-23.409012,-4.412050,0.207303,1.507064,-0.175919,0.000000,0.000000,0.000000,0.000000,0.000000,0.000000
13052293.000000,-2.275226,-1.662642,1.352472,-1.469689,1.692100,1.417649,-0.587068,0.192037,0.000838,1.111642,-0.068451,-0.123946,1.093225,-0.029338,-2.643389,38.837017,-23.825577,-4.439821,0.291532,1.519881,-0.130143,0.000000,0.000000,0.000000,0.000000,0.000000,0.000000
13052294.000000,-2.275046,-1.662639,1.353608,-1.469761,1.691988,1.418728,-0.587084,0.187841,0.001328,1.145172,-0.068399,-0.120153,1.105645,-0.024383,-2.468829,38.789410,-24.313553,-4.388246,0.273221,1.630660,-0.188737,0.000000,0.000000,0.000000,0.000000,0.000000,0.000000
13052295.000000,-2.274859,-1.662648,1.354747,-1.469829,1.691873,1.419803,-0.587114,0.187944,-0.002250,1.137272,-0.067153,-0.118459,1.092281,-0.025204,-2.468829,38.912395,-24.611099,-4.388246,0.279630,1.903487,-0.130143,0.000000,0.000000,0.000000,0.000000,0.000000,0.000000
13052296.000000,-2.274678,-1.662650,1.355879,-1.469890,1.691764,1.420893,-0.587133,0.186683,-0.002250,1.129916,-0.064621,-0.114749,1.081294,-0.022071,-2.397418,38.936199,-24.781693,-4.439821,0.225614,2.112228,-0.175919,0.000000,0.000000,0.000000,0.000000,0.000000,0.000000
13052297.000000,-2.274501,-1.662648,1.356996,-1.469949,1.691664,1.421981,-0.587154,0.181848,-0.001089,1.126057,-0.060557,-0.110360,1.085762,-0.021299,-2.298235,38.912395,-24.928482,-4.463624,0.117582,2.131454,-0.175919,0.000000,0.000000,0.000000,0.000000,0.000000,0.000000
13052298.000000,-2.274321,-1.662645,1.358120,-1.470007,1.691559,1.423082,-0.587179,0.184431,0.000279,1.121812,-0.061271,-0.108464,1.088105,-0.021446,-2.322039,38.864788,-24.976089,-4.463624,0.040677,2.104903,-0.155778,0.000000,0.000000,0.000000,0.000000,0.000000,0.000000
13052299.000000,-2.274139,-1.662647,1.359238,-1.470077,1.691448,1.424182,-0.587195,0.185671,-0.000453,1.115156,-0.062651,-0.109531,1.112455,-0.019338,-2.345843,38.888592,-24.781693,-4.289064,0.034269,2.085677,-0.196061,0.000000,0.000000,0.000000,0.000000,0.000000,0.000000
13052300.000000,-2.273960,-1.662649,1.360344,-1.470141,1.691325,1.425260,-0.587218,0.184218,-0.000363,1.111874,-0.065421,-0.115129,1.113124,-0.020630,-2.369647,38.888592,-24.658707,-4.166078,0.147794,2.060043,-0.163102,0.000000,0.000000,0.000000,0.000000,0.000000,0.000000
13052301.000000,-2.273778,-1.662651,1.361452,-1.470215,1.691196,1.426350,-0.587235,0.183878,-0.000845,1.104419,-0.066876,-0.124121,1.107814,-0.019243,-2.445025,38.912395,-24.341324,-3.920107,0.279630,2.039901,-0.188737,0.000000,0.000000,0.000000,0.000000,0.000000,0.000000
13052302.000000,-2.273613,-1.662653,1.362555,-1.470276,1.691075,1.427425,-0.587258,0.176899,-0.000598,1.104747,-0.063629,-0.122422,1.095562,-0.020779,-2.345843,38.912395,-24.190567,-3.844728,0.315336,2.007858,-0.149369,0.000000,0.000000,0.000000,0.000000,0.000000,0.000000
13052303.000000,-2.273449,-1.662653,1.363675,-1.470329,1.690967,1.428531,-0.587272,0.169351,0.000132,1.102154,-0.058650,-0.117885,1.089146,-0.018484,-2.298235,38.888592,-24.166763,-3.892336,0.267728,1.884261,-0.196061,0.000000,0.000000,0.000000,0.000000,0.000000,0.000000
13052304.000000,-2.273296,-1.662657,1.364798,-1.470381,1.690858,1.429640,-0.587297,0.163072,-0.000488,1.100556,-0.058053,-0.109757,1.083975,-0.020504,-2.099871,38.912395,-24.166763,-3.943910,0.219205,1.800033,-0.149369,0.000000,0.000000,0.000000,0.000000,0.000000,0.000000
13052305.000000,-2.273150,-1.662656,1.365906,-1.470425,1.690752,1.430727,-0.587313,0.158015,0.000217,1.105951,-0.053121,-0.104085,1.088180,-0.018971,-1.901507,38.888592,-24.166763,-4.066896,0.171598,1.754256,-0.175919,0.000000,0.000000,0.000000,0.000000,0.000000,0.000000
13052306.000000,-2.273002,-1.662663,1.367030,-1.470469,1.690651,1.431812,-0.587330,0.152820,-0.001537,1.105693,-0.050208,-0.103405,1.079062,-0.018264,-1.726946,38.960003,-24.265945,-4.166078,0.088285,1.851302,-0.196061,0.000000,0.000000,0.000000,0.000000,0.000000,0.000000
13052307.000000,-2.272857,-1.662664,1.368137,-1.470524,1.690539,1.432872,-0.587348,0.152712,-0.004172,1.102138,-0.051629,-0.105499,1.080472,-0.018309,-1.580157,38.960003,-24.388931,-4.118471,0.069974,2.039901,-0.202470,0.000000,0.000000,0.000000,0.000000,0.000000,0.000000
13052308.000000,-2.272709,-1.662668,1.369249,-1.470569,1.690429,1.433973,-0.587367,0.148572,-0.003606,1.102475,-0.050868,-0.109390,1.086749,-0.019291,-1.528582,38.983807,-24.388931,-4.142274,0.117582,1.988631,-0.182328,0.000000,0.000000,0.000000,0.000000,0.000000,0.000000
13052309.000000,-2.272561,-1.662673,1.370367,-1.470618,1.690316,1.435089,-0.587390,0.144533,-0.003254,1.100211,-0.048794,-0.112494,1.095056,-0.020853,-1.453204,39.011578,-24.412735,-4.090700,0.183500,1.819259,-0.136552,0.000000,0.000000,0.000000,0.000000,0.000000,0.000000
13052310.000000,-2.272413,-1.662669,1.371461,-1.470671,1.690207,1.436182,-0.587400,0.146216,-0.000000,1.095199,-0.046449,-0.112963,1.094122,-0.018260,-1.405596,38.912395,-24.289749,-3.943910,0.213712,1.689254,-0.188737,0.000000,0.000000,0.000000,0.000000,0.000000,0.000000
13052311.000000,-2.272269,-1.662665,1.372568,-1.470719,1.690096,1.437276,-0.587422,0.144544,0.001650,1.096220,-0.042524,-0.113709,1.077547,-0.019981,-1.405596,38.837017,-24.190567,-3.868532,0.243009,1.689254,-0.149369,0.000000,0.000000,0.000000,0.000000,0.000000,0.000000
13052312.000000,-2.272125,-1.662667,1.373655,-1.470765,1.689978,1.438347,-0.587432,0.143014,0.001015,1.108393,-0.042598,-0.114815,1.090010,-0.017795,-1.405596,38.837017,-23.801773,-3.797121,0.285123,1.779891,-0.202470,0.000000,0.000000,0.000000,0.000000,0.000000,0.000000
13052313.000000,-2.271989,-1.662670,1.374741,-1.470806,1.689865,1.439446,-0.587453,0.140669,-0.000036,1.100048,-0.039260,-0.114960,1.085437,-0.019408,-1.354022,38.864788,-23.603409,-3.745546,0.303434,1.806442,-0.169511,0.000000,0.000000,0.000000,0.000000,0.000000,0.000000
13052314.000000,-2.271854,-1.662669,1.375841,-1.470841,1.689763,1.440552,-0.587468,0.139602,0.001135,1.098561,-0.037168,-0.106419,1.087058,-0.014290,-1.282611,38.813213,-23.480423,-3.797121,0.219205,1.825668,-0.175919,0.000000,0.000000,0.000000,0.000000,0.000000,0.000000
13052315.000000,-2.271724,-1.662665,1.376949,-1.470880,1.689663,1.441641,-0.587485,0.133781,-0.000658,1.104669,-0.038796,-0.101248,1.088287,-0.014986,-1.159625,38.741802,-23.750198,-3.721742,0.159696,1.851302,-0.188737,0.000000,0.000000,0.000000,0.000000,0.000000,0.000000
13052316.000000,-2.271596,-1.662665,1.378082,-1.470916,1.689567,1.442750,-0.587503,0.130891,-0.000720,1.108993,-0.038828,-0.097374,1.093045,-0.017049,-1.108050,38.741802,-24.095352,-3.697939,0.100187,1.819259,-0.163102,0.000000,0.000000,0.000000,0.000000,0.000000,0.000000
13052317.000000,-2.271477,-1.662665,1.379215,-1.470954,1.689465,1.443861,-0.587515,0.127923,-0.000134,1.113702,-0.040049,-0.096868,1.096027,-0.016396,-0.909686,38.717999,-24.464310,-3.622560,0.100187,1.754256,-0.188737,0.000000,0.000000,0.000000,0.000000,0.000000,0.000000
13052318.000000,-2.271356,-1.662664,1.380331,-1.470992,1.689361,1.444940,-0.587537,0.123755,-0.000247,1.117196,-0.041029,-0.098644,1.097178,-0.019458,-0.810504,38.717999,-24.880875,-3.547182,0.159696,1.819259,-0.122819,0.000000,0.000000,0.000000,0.000000,0.000000,0.000000
13052319.000000,-2.271234,-1.662662,1.381460,-1.471027,1.689255,1.446025,-0.587545,0.120667,0.000366,1.117394,-0.040893,-0.105200,1.086656,-0.012215,-0.762896,38.690228,-25.174454,-3.499574,0.243009,1.903487,-0.182328,0.000000,0.000000,0.000000,0.000000,0.000000,0.000000
13052320.000000,-2.271116,-1.662663,1.382567,-1.471057,1.689155,1.447091,-0.587560,0.119742,-0.000494,1.116102,-0.037127,-0.102692,1.080251,-0.015466,-0.663714,38.717999,-25.297440,-3.475771,0.255826,2.007858,-0.142960,0.000000,0.000000,0.000000,0.000000,0.000000,0.000000
13052321.000000,-2.270997,-1.662668,1.383680,-1.471085,1.689056,1.448187,-0.587570,0.120579,-0.002067,1.106447,-0.034583,-0.101005,1.070930,-0.011285,-0.612139,38.789410,-25.321243,-3.448000,0.273221,1.962081,-0.149369,0.000000,0.000000,0.000000,0.000000,0.000000,0.000000
13052322.000000,-2.270882,-1.662672,1.384789,-1.471114,1.688955,1.449292,-0.587577,0.117376,-0.001985,1.100706,-0.033022,-0.098386,1.076460,-0.011646,-0.512957,38.813213,-25.126846,-3.400392,0.255826,1.844894,-0.196061,0.000000,0.000000,0.000000,0.000000,0.000000,0.000000
13052323.000000,-2.270763,-1.662683,1.385880,-1.471148,1.688854,1.450359,-0.587593,0.117450,-0.004794,1.097547,-0.033759,-0.102147,1.073666,-0.010350,-0.540728,38.960003,-24.928482,-3.277406,0.255826,1.903487,-0.155778,0.000000,0.000000,0.000000,0.000000,0.000000,0.000000
13052324.000000,-2.270642,-1.662689,1.386984,-1.471184,1.688752,1.451441,-0.587598,0.118074,-0.004431,1.090551,-0.035766,-0.104306,1.070544,-0.006228,-0.612139,39.011578,-24.757889,-3.079042,0.237516,1.942855,-0.196061,0.000000,0.000000,0.000000,0.000000,0.000000,0.000000
13052325.000000,-2.270527,-1.662693,1.388061,-1.471216,1.688647,1.452512,-0.587612,0.117331,-0.004089,1.107791,-0.035935,-0.106106,1.075872,-0.009734,-0.635943,39.059185,-24.388931,-2.928285,0.231107,1.955673,-0.188737,0.000000,0.000000,0.000000,0.000000,0.000000,0.000000
13052326.000000,-2.270424,-1.662697,1.389171,-1.471245,1.688542,1.453605,-0.587625,0.111401,-0.003298,1.103521,-0.034684,-0.104386,1.087758,-0.012745,-0.564532,39.082989,-24.341324,-2.833071,0.261320,1.890670,-0.169511,0.000000,0.000000,0.000000,0.000000,0.000000,0.000000
13052327.000000,-2.270321,-1.662697,1.390273,-1.471259,1.688447,1.454718,-0.587632,0.107190,-0.001097,1.097544,-0.026248,-0.099626,1.091775,-0.013307,-0.489153,39.035381,-24.190567,-2.928285,0.207303,1.689254,-0.196061,0.000000,0.000000,0.000000,0.000000,0.000000,0.000000
13052328.000000,-2.270223,-1.662696,1.391379,-1.471277,1.688345,1.455815,-0.587644,0.105329,0.000466,1.099730,-0.021499,-0.102786,1.093544,-0.015469,-0.342364,38.983807,-24.313553,-2.979860,0.213712,1.494247,-0.175919,0.000000,0.000000,0.000000,0.000000,0.000000,0.000000
13052329.000000,-2.270125,-1.662693,1.392488,-1.471289,1.688243,1.456907,-0.587658,0.102119,0.000038,1.099958,-0.020503,-0.102176,1.080753,-0.013276,-0.243182,38.864788,-24.341324,-3.055238,0.255826,1.513473,-0.130143,0.000000,0.000000,0.000000,0.000000,0.000000,0.000000
13052330.000000,-2.270034,-1.662701,1.393600,-1.471299,1.688145,1.457982,-0.587660,0.096465,-0.001348,1.101918,-0.020167,-0.099586,1.096171,-0.007122,-0.116229,38.912395,-24.365128,-3.126650,0.243009,1.617843,-0.202470,0.000000,0.000000,0.000000,0.000000,0.000000,0.000000
13052331.000000,-2.269936,-1.662708,1.394691,-1.471308,1.688040,1.459067,-0.587678,0.097932,-0.004817,1.098796,-0.015330,-0.100811,1.089232,-0.008140,-0.116229,38.936199,-24.313553,-3.126650,0.308927,1.793624,-0.130143,0.000000,0.000000,0.000000,0.000000,0.000000,0.000000
13052332.000000,-2.269840,-1.662714,1.395793,-1.471310,1.687943,1.460163,-0.587681,0.095586,-0.004178,1.098312,-0.012565,-0.102964,1.091954,-0.008818,-0.116229,38.960003,-24.313553,-3.225832,0.291532,1.909896,-0.182328,0.000000,0.000000,0.000000,0.000000,0.000000,0.000000
13052333.000000,-2.269740,-1.662717,1.396870,-1.471318,1.687853,1.461258,-0.587689,0.098444,-0.005703,1.091172,-0.012813,-0.097112,1.095858,-0.011921,-0.167803,38.936199,-24.166763,-3.225832,0.195402,1.877853,-0.169511,0.000000,0.000000,0.000000,0.000000,0.000000,0.000000
13052334.000000,-2.269645,-1.662720,1.397965,-1.471322,1.687758,1.462371,-0.587696,0.098914,-0.006357,1.088895,-0.009799,-0.100583,1.097771,-0.008470,-0.243182,38.888592,-24.190567,-3.225832,0.171598,1.754256,-0.182328,0.000000,0.000000,0.000000,0.000000,0.000000,0.000000
13052335.000000,-2.269545,-1.662716,1.399052,-1.471327,1.687664,1.463480,-0.587708,0.098762,-0.004697,1.084336,-0.006919,-0.097569,1.102864,-0.007378,-0.366168,38.741802,-24.095352,-3.249635,0.129484,1.605026,-0.155778,0.000000,0.000000,0.000000,0.000000,0.000000,0.000000
13052336.000000,-2.269446,-1.662720,1.400112,-1.471333,1.687562,1.464548,-0.587710,0.104221,-0.003879,1.077196,-0.006990,-0.098524,1.094495,-0.003988,-0.489153,38.741802,-23.849380,-3.178224,0.171598,1.624252,-0.196061,0.000000,0.000000,0.000000,0.000000,0.000000,0.000000
