chaoyuefei/paper-gmrm-data/robot_logs/s2_dq_mrm_min_0.50_log_20260314_174649.csv
# time_ms,q_0,q_1,q_2,q_3,q_4,q_5,q_6,dq_0,dq_1,dq_2,dq_3,dq_4,dq_5,dq_6,tau_J_0,tau_J_1,tau_J_2,tau_J_3,tau_J_4,tau_J_5,tau_J_6,O_dP_EE_c_0,O_dP_EE_c_1,O_dP_EE_c_2,O_dP_EE_c_3,O_dP_EE_c_4,O_dP_EE_c_5
13071313.000000,-2.417854,-1.662607,1.040163,-1.352889,1.798089,1.079504,-0.546503,-0.000153,0.000112,-0.000234,0.000773,0.000221,0.000195,-0.000269,0.054365,41.606182,-21.024673,-5.721254,0.823453,1.312057,0.041976,0.000000,0.000000,0.000000,0.000000,0.000000,0.000000
13071314.000000,-2.417851,-1.662612,1.040161,-1.352891,1.798088,1.079502,-0.546499,0.000455,-0.001596,-0.000713,-0.000041,-0.000056,-0.000346,0.000567,0.030561,41.677593,-21.000870,-5.697450,0.828947,1.324874,0.021835,0.000000,0.000000,0.000000,0.000000,0.000000,0.000000
13071315.000000,-2.417849,-1.662607,1.040161,-1.352889,1.798088,1.079503,-0.546505,0.000860,0.000606,-0.000475,-0.000028,-0.000038,0.000006,-0.001080,0.006757,41.606182,-21.000870,-5.697450,0.828947,1.318465,0.061202,0.000000,0.000000,0.000000,0.000000,0.000000,0.000000
13071316.000000,-2.417852,-1.662607,1.040165,-1.352890,1.798089,1.079502,-0.546499,-0.000540,0.000404,0.000890,-0.000018,0.000416,-0.000234,0.000738,0.054365,41.606182,-21.052444,-5.697450,0.817045,1.324874,0.021835,0.000000,0.000000,0.000000,0.000000,0.000000,0.000000
13071317.000000,-2.417847,-1.662608,1.040159,-1.352890,1.798088,1.079503,-0.546504,0.005151,-0.001573,-0.001170,0.002015,0.000718,-0.000868,-0.008657,0.351911,41.554607,-20.977066,-5.649843,0.805143,1.344100,0.015426,0.000000,0.000000,0.000000,0.000000,0.000000,0.000000
13071318.000000,-2.417836,-1.662611,1.040164,-1.352884,1.798091,1.079497,-0.546514,0.015864,-0.002535,-0.000780,0.001897,-0.000703,-0.002457,-0.013520,1.343732,41.336407,-20.977066,-5.526857,0.709928,1.519881,-0.050492,0.000000,0.000000,0.000000,0.000000,0.000000,0.000000
13071319.000000,-2.417807,-1.662615,1.040173,-1.352884,1.798089,1.079493,-0.546540,0.024272,-0.003183,0.000979,0.004119,0.003581,-0.005973,-0.018999,2.926679,40.967449,-20.905655,-5.229311,0.589994,1.773483,-0.070634,0.000000,0.000000,0.000000,0.000000,0.000000,0.000000
13071320.000000,-2.417756,-1.662614,1.040190,-1.352890,1.798072,1.079514,-0.546585,0.029617,-0.001572,0.006444,-0.001808,-0.001239,0.001739,-0.029453,4.783369,40.479473,-20.877884,-4.856386,0.554288,1.890670,-0.044083,0.000000,0.000000,0.000000,0.000000,0.000000,0.000000
13071321.000000,-2.417693,-1.662611,1.040217,-1.352899,1.798042,1.079567,-0.546629,0.036273,0.001148,0.013629,-0.004907,-0.011963,0.015156,-0.038156,6.616254,39.916119,-20.854080,-4.511232,0.584501,1.800033,-0.110001,0.000000,0.000000,0.000000,0.000000,0.000000,0.000000
13071322.000000,-2.417601,-1.662609,1.040241,-1.352927,1.798003,1.079650,-0.546708,0.048584,0.001791,0.013739,-0.012569,-0.024871,0.034137,-0.054826,8.199201,39.376568,-20.731094,-4.066896,0.625699,1.578475,-0.044083,0.000000,0.000000,0.000000,0.000000,0.000000,0.000000
13071323.000000,-2.417506,-1.662609,1.040282,-1.352963,1.797949,1.079749,-0.546796,0.060520,0.002930,0.022671,-0.021938,-0.034331,0.055620,-0.063362,9.682965,38.936199,-20.707291,-3.721742,0.661405,1.389877,-0.077042,0.000000,0.000000,0.000000,0.000000,0.000000,0.000000
13071324.000000,-2.417390,-1.662607,1.040329,-1.353010,1.797885,1.079862,-0.546905,0.074174,0.003075,0.028723,-0.030430,-0.045664,0.076167,-0.080312,10.996137,38.519634,-20.659683,-3.448000,0.691617,1.324874,-0.083451,0.000000,0.000000,0.000000,0.000000,0.000000,0.000000
13071325.000000,-2.417259,-1.662605,1.040385,-1.353071,1.797803,1.079990,-0.547043,0.091603,0.002141,0.035713,-0.044304,-0.056642,0.094365,-0.102037,12.087140,38.154644,-20.584305,-3.126650,0.667814,1.318465,-0.097184,0.000000,0.000000,0.000000,0.000000,0.000000,0.000000
13071326.000000,-2.417123,-1.662595,1.040455,-1.353134,1.797714,1.080140,-0.547211,0.105813,0.006361,0.045488,-0.051236,-0.069714,0.111934,-0.123563,13.126569,37.714275,-20.560501,-2.956056,0.530485,1.442062,-0.097184,0.000000,0.000000,0.000000,0.000000,0.000000,0.000000
13071327.000000,-2.416969,-1.662585,1.040542,-1.353217,1.797597,1.080316,-0.547410,0.122582,0.004732,0.057539,-0.059610,-0.084219,0.131289,-0.146437,13.991437,37.345318,-20.608109,-2.781496,0.488370,1.565658,-0.044083,0.000000,0.000000,0.000000,0.000000,0.000000,0.000000
13071328.000000,-2.416798,-1.662571,1.040643,-1.353312,1.797468,1.080516,-0.547624,0.139866,0.009737,0.070678,-0.074388,-0.101564,0.153351,-0.171695,14.709516,36.980328,-20.707291,-2.634706,0.369352,1.624252,-0.130143,0.000000,0.000000,0.000000,0.000000,0.000000,0.000000
13071329.000000,-2.416614,-1.662551,1.040755,-1.353426,1.797317,1.080757,-0.547875,0.157590,0.013656,0.084037,-0.088810,-0.116466,0.180776,-0.195736,15.253034,36.611370,-20.830276,-2.511720,0.291532,1.624252,-0.103593,0.000000,0.000000,0.000000,0.000000,0.000000,0.000000
13071330.000000,-2.416411,-1.662531,1.040887,-1.353559,1.797129,1.081030,-0.548145,0.169242,0.016634,0.098610,-0.104021,-0.137348,0.213062,-0.218228,15.701337,36.242413,-21.024673,-2.337160,0.356534,1.532699,-0.083451,0.000000,0.000000,0.000000,0.000000,0.000000,0.000000
13071331.000000,-2.416190,-1.662510,1.041028,-1.353708,1.796925,1.081334,-0.548436,0.187103,0.018802,0.114637,-0.120132,-0.161726,0.234319,-0.237800,15.998883,35.877422,-21.175430,-2.237978,0.405057,1.402694,-0.110001,0.000000,0.000000,0.000000,0.000000,0.000000,0.000000
13071332.000000,-2.415955,-1.662491,1.041182,-1.353878,1.796694,1.081646,-0.548732,0.202807,0.019340,0.129582,-0.135291,-0.185536,0.255787,-0.258573,16.296431,35.560040,-21.322220,-2.138796,0.482877,1.383468,-0.110001,0.000000,0.000000,0.000000,0.000000,0.000000,0.000000
13071333.000000,-2.415697,-1.662472,1.041352,-1.354053,1.796446,1.081973,-0.549042,0.220269,0.019297,0.139337,-0.147927,-0.204821,0.279969,-0.269991,16.467024,35.266460,-21.417435,-2.138796,0.500272,1.416427,-0.070634,0.000000,0.000000,0.000000,0.000000,0.000000,0.000000
13071334.000000,-2.415429,-1.662460,1.041523,-1.354251,1.796187,1.082326,-0.549342,0.240298,0.022191,0.151103,-0.162640,-0.223388,0.300400,-0.283821,16.641584,35.119671,-21.417435,-2.063417,0.476469,1.474105,-0.103593,0.000000,0.000000,0.000000,0.000000,0.000000,0.000000
13071335.000000,-2.415146,-1.662446,1.041710,-1.354459,1.795905,1.082700,-0.549658,0.253888,0.017930,0.163915,-0.176507,-0.243069,0.321929,-0.292929,16.788374,34.996685,-21.445206,-2.114992,0.476469,1.546432,-0.097184,0.000000,0.000000,0.000000,0.000000,0.000000,0.000000
13071336.000000,-2.414853,-1.662437,1.041899,-1.354689,1.795614,1.083089,-0.549977,0.268196,0.017071,0.170713,-0.195691,-0.259208,0.341160,-0.300537,16.887556,34.921307,-21.346024,-2.091188,0.381254,1.637069,-0.070634,0.000000,0.000000,0.000000,0.000000,0.000000,0.000000
13071337.000000,-2.414533,-1.662432,1.042113,-1.354946,1.795302,1.083508,-0.550280,0.283932,0.011790,0.182070,-0.215894,-0.277803,0.361460,-0.298269,16.911360,34.921307,-21.369827,-1.940431,0.327238,1.708480,-0.130143,0.000000,0.000000,0.000000,0.000000,0.000000,0.000000
13071338.000000,-2.414190,-1.662426,1.042325,-1.355217,1.794970,1.083944,-0.550591,0.302691,0.008724,0.192878,-0.231011,-0.297352,0.380158,-0.300625,16.863752,34.897503,-21.246841,-1.793642,0.320829,1.708480,-0.077042,0.000000,0.000000,0.000000,0.000000,0.000000,0.000000
13071339.000000,-2.413845,-1.662429,1.042548,-1.355509,1.794630,1.084418,-0.550895,0.319728,0.003726,0.203643,-0.250193,-0.312711,0.405801,-0.300985,16.863752,34.996685,-21.199234,-1.571474,0.308927,1.597701,-0.070634,0.000000,0.000000,0.000000,0.000000,0.000000,0.000000
13071340.000000,-2.413479,-1.662428,1.042781,-1.355814,1.794256,1.084916,-0.551177,0.334604,0.002656,0.213595,-0.265507,-0.335598,0.434449,-0.293968,16.839949,34.996685,-21.100052,-1.396913,0.351041,1.519881,-0.130143,0.000000,0.000000,0.000000,0.000000,0.000000,0.000000
13071341.000000,-2.413112,-1.662430,1.043028,-1.356117,1.793861,1.085422,-0.551473,0.356108,0.004497,0.222237,-0.277789,-0.357910,0.454006,-0.292358,16.962934,35.020489,-21.052444,-1.349306,0.410551,1.481429,-0.089860,0.000000,0.000000,0.000000,0.000000,0.000000,0.000000
13071342.000000,-2.412732,-1.662431,1.043280,-1.356439,1.793461,1.085963,-0.551744,0.363140,0.002801,0.231927,-0.292592,-0.374179,0.480993,-0.283298,17.185102,35.044292,-21.000870,-1.349306,0.464567,1.461288,-0.136552,0.000000,0.000000,0.000000,0.000000,0.000000,0.000000
13071343.000000,-2.412332,-1.662431,1.043534,-1.356771,1.793037,1.086503,-0.552024,0.378687,0.002137,0.242321,-0.302658,-0.392979,0.495158,-0.283760,17.308088,35.044292,-20.830276,-1.396913,0.470060,1.519881,-0.116410,0.000000,0.000000,0.000000,0.000000,0.000000,0.000000
13071344.000000,-2.411932,-1.662431,1.043802,-1.357117,1.792605,1.087077,-0.552304,0.386653,0.001070,0.249270,-0.314969,-0.414845,0.516932,-0.284358,17.530256,35.068096,-20.731094,-1.396913,0.476469,1.584884,-0.097184,0.000000,0.000000,0.000000,0.000000,0.000000,0.000000
13071345.000000,-2.411519,-1.662430,1.044091,-1.357474,1.792154,1.087675,-0.552578,0.393414,0.001422,0.259758,-0.324038,-0.425702,0.536732,-0.283711,17.827803,35.044292,-20.731094,-1.373109,0.512174,1.637069,-0.103593,0.000000,0.000000,0.000000,0.000000,0.000000,0.000000
13071346.000000,-2.411084,-1.662433,1.044387,-1.357849,1.791680,1.088298,-0.552845,0.407199,0.000505,0.269017,-0.350108,-0.435986,0.560645,-0.278161,17.954756,35.068096,-20.683487,-1.250124,0.494779,1.578475,-0.103593,0.000000,0.000000,0.000000,0.000000,0.000000,0.000000
13071347.000000,-2.410637,-1.662431,1.044683,-1.358239,1.791207,1.088945,-0.553103,0.418229,0.000422,0.275783,-0.362360,-0.448380,0.578480,-0.277308,18.149153,35.068096,-20.608109,-1.127138,0.452665,1.454879,-0.110001,0.000000,0.000000,0.000000,0.000000,0.000000,0.000000
13071348.000000,-2.410173,-1.662423,1.044995,-1.358652,1.790704,1.089621,-0.553366,0.430324,0.002573,0.288628,-0.378706,-0.469512,0.615516,-0.274187,18.276106,34.972881,-20.584305,-0.952577,0.494779,1.272689,-0.103593,0.000000,0.000000,0.000000,0.000000,0.000000,0.000000
13071349.000000,-2.409700,-1.662418,1.045319,-1.359079,1.790191,1.090293,-0.553620,0.443463,0.003526,0.298653,-0.393100,-0.479066,0.631253,-0.269497,18.399092,34.897503,-20.461319,-0.678835,0.482877,1.214095,-0.155778,0.000000,0.000000,0.000000,0.000000,0.000000,0.000000
13071350.000000,-2.409209,-1.662411,1.045653,-1.359519,1.789675,1.090986,-0.553878,0.458020,0.004057,0.308211,-0.407604,-0.492160,0.649156,-0.271063,18.573652,34.826092,-20.413712,-0.484438,0.506681,1.266280,-0.077042,0.000000,0.000000,0.000000,0.000000,0.000000,0.000000
13071351.000000,-2.408708,-1.662403,1.045996,-1.359965,1.789135,1.091680,-0.554120,0.471960,0.005052,0.320527,-0.415487,-0.499761,0.668368,-0.257564,18.843428,34.726910,-20.338333,-0.456667,0.488370,1.312057,-0.116410,0.000000,0.000000,0.000000,0.000000,0.000000,0.000000
13071352.000000,-2.408204,-1.662395,1.046342,-1.360426,1.788597,1.092408,-0.554362,0.483373,0.004502,0.327418,-0.429829,-0.511854,0.681252,-0.256455,19.140974,34.679302,-20.266922,-0.333681,0.488370,1.318465,-0.142960,0.000000,0.000000,0.000000,0.000000,0.000000,0.000000
13071353.000000,-2.407683,-1.662380,1.046704,-1.360893,1.788020,1.093158,-0.554608,0.492649,0.007657,0.339731,-0.436299,-0.527120,0.702756,-0.253673,19.486128,34.480938,-20.239151,-0.357485,0.530485,1.377059,-0.136552,0.000000,0.000000,0.000000,0.000000,0.000000,0.000000
13071354.000000,-2.407139,-1.662368,1.047088,-1.361380,1.787442,1.093911,-0.554856,0.509522,0.010501,0.348539,-0.451575,-0.535934,0.717291,-0.251544,19.636885,34.385723,-20.338333,-0.262270,0.500272,1.416427,-0.130143,0.000000,0.000000,0.000000,0.000000,0.000000,0.000000
13071355.000000,-2.406590,-1.662357,1.047476,-1.361887,1.786851,1.094706,-0.555106,0.520423,0.009592,0.358720,-0.470018,-0.553580,0.735493,-0.250220,19.982038,34.286541,-20.461319,-0.135317,0.512174,1.396285,-0.116410,0.000000,0.000000,0.000000,0.000000,0.000000,0.000000
13071356.000000,-2.406024,-1.662350,1.047877,-1.362411,1.786239,1.095517,-0.555343,0.532877,0.007156,0.367761,-0.484547,-0.567476,0.757894,-0.246383,20.279585,34.262737,-20.560501,0.011473,0.571683,1.312057,-0.169511,0.000000,0.000000,0.000000,0.000000,0.000000,0.000000
13071357.000000,-2.405443,-1.662333,1.048291,-1.362947,1.785626,1.096348,-0.555592,0.545779,0.007800,0.388483,-0.500446,-0.584576,0.771577,-0.247891,20.402571,34.139751,-20.782669,0.257445,0.530485,1.207687,-0.122819,0.000000,0.000000,0.000000,0.000000,0.000000,0.000000
13071358.000000,-2.404853,-1.662319,1.048725,-1.363488,1.785003,1.097202,-0.555834,0.561159,0.007078,0.399169,-0.514543,-0.597129,0.799717,-0.247253,20.723921,34.064373,-20.977066,0.257445,0.488370,1.214095,-0.116410,0.000000,0.000000,0.000000,0.000000,0.000000,0.000000
13071359.000000,-2.404248,-1.662306,1.049176,-1.364043,1.784349,1.098070,-0.556072,0.575891,0.009070,0.411200,-0.527778,-0.617524,0.821475,-0.245289,20.898481,34.016766,-21.223038,0.309019,0.470060,1.201278,-0.136552,0.000000,0.000000,0.000000,0.000000,0.000000,0.000000
13071360.000000,-2.403619,-1.662290,1.049615,-1.364618,1.783702,1.098956,-0.556311,0.594505,0.012298,0.421002,-0.540153,-0.622913,0.837995,-0.241492,21.021467,33.893780,-21.223038,0.332823,0.434354,1.240646,-0.110001,0.000000,0.000000,0.000000,0.000000,0.000000,0.000000
13071361.000000,-2.402984,-1.662274,1.050075,-1.365206,1.783018,1.099839,-0.556544,0.604498,0.014175,0.429298,-0.554998,-0.635709,0.849330,-0.241185,21.319014,33.794598,-21.294449,0.309019,0.416959,1.396285,-0.136552,0.000000,0.000000,0.000000,0.000000,0.000000,0.000000
13071362.000000,-2.402330,-1.662258,1.050549,-1.365798,1.782336,1.100765,-0.556778,0.618841,0.015481,0.443331,-0.566369,-0.666879,0.861099,-0.238109,21.441999,33.699383,-21.393631,0.408202,0.434354,1.487838,-0.116410,0.000000,0.000000,0.000000,0.000000,0.000000,0.000000
13071363.000000,-2.401653,-1.662240,1.051036,-1.366413,1.781626,1.101720,-0.557009,0.632756,0.017224,0.456792,-0.576064,-0.677401,0.884844,-0.234145,21.640364,33.576397,-21.492813,0.507384,0.500272,1.422836,-0.142960,0.000000,0.000000,0.000000,0.000000,0.000000,0.000000
13071364.000000,-2.400958,-1.662229,1.051533,-1.367036,1.780910,1.102698,-0.557245,0.659492,0.016005,0.461482,-0.602360,-0.696524,0.919879,-0.232151,21.890303,33.552593,-21.663406,0.701781,0.637601,1.247054,-0.130143,0.000000,0.000000,0.000000,0.000000,0.000000,0.000000
13071365.000000,-2.400253,-1.662216,1.052038,-1.367673,1.780206,1.103697,-0.557478,0.675756,0.015934,0.471938,-0.613498,-0.696607,0.934914,-0.234738,22.013288,33.501019,-21.810196,0.927916,0.757535,1.117049,-0.142960,0.000000,0.000000,0.000000,0.000000,0.000000,0.000000
13071366.000000,-2.399531,-1.662204,1.052563,-1.368320,1.779492,1.104694,-0.557707,0.692832,0.015276,0.484669,-0.619354,-0.700351,0.951906,-0.231499,22.259260,33.477215,-22.056168,1.098509,0.888456,1.104232,-0.169511,0.000000,0.000000,0.000000,0.000000,0.000000,0.000000
13071367.000000,-2.398809,-1.662196,1.053084,-1.368968,1.778783,1.105723,-0.557940,0.696642,0.012546,0.494017,-0.630657,-0.698477,0.966341,-0.231698,22.136274,33.552593,-22.032364,0.999327,0.996488,1.220504,-0.122819,0.000000,0.000000,0.000000,0.000000,0.000000,0.000000
13071368.000000,-2.398072,-1.662192,1.053614,-1.369640,1.778082,1.106765,-0.558164,0.693725,0.007966,0.506203,-0.644259,-0.700376,0.988098,-0.228473,21.021467,33.746990,-21.810196,0.578795,0.954374,1.435653,-0.169511,0.000000,0.000000,0.000000,0.000000,0.000000,0.000000
13071369.000000,-2.397344,-1.662185,1.054177,-1.370346,1.777382,1.107823,-0.558393,0.697317,0.004549,0.525898,-0.658651,-0.700098,1.005474,-0.223868,19.192549,33.822369,-21.516617,-0.012331,0.888456,1.584884,-0.142960,0.000000,0.000000,0.000000,0.000000,0.000000,0.000000
13071370.000000,-2.396626,-1.662173,1.054751,-1.371031,1.776687,1.108920,-0.558616,0.706170,0.007217,0.540544,-0.666980,-0.700852,1.025933,-0.227602,16.689192,33.675579,-21.000870,-1.000185,0.793241,1.637069,-0.142960,0.000000,0.000000,0.000000,0.000000,0.000000,0.000000
13071371.000000,-2.395895,-1.662166,1.055366,-1.371746,1.775996,1.110039,-0.558833,0.712631,0.008514,0.560886,-0.677297,-0.694352,1.052756,-0.225600,13.868451,33.405804,-20.338333,-1.793642,0.608304,1.689254,-0.182328,0.000000,0.000000,0.000000,0.000000,0.000000,0.000000
13071372.000000,-2.395185,-1.662166,1.055996,-1.372454,1.775309,1.111141,-0.559057,0.718005,0.005281,0.575654,-0.685914,-0.685610,1.067998,-0.223269,11.345258,33.159832,-19.481400,-2.511720,0.452665,1.786300,-0.116410,0.000000,0.000000,0.000000,0.000000,0.000000,0.000000
13071373.000000,-2.394458,-1.662172,1.056643,-1.373167,1.774632,1.112293,-0.559270,0.727389,0.003928,0.594514,-0.693225,-0.686127,1.092158,-0.222516,8.794293,32.989239,-18.791092,-3.202028,0.351041,1.747848,-0.149369,0.000000,0.000000,0.000000,0.000000,0.000000,0.000000
13071374.000000,-2.393728,-1.662185,1.057306,-1.373875,1.773973,1.113444,-0.559495,0.729544,-0.000415,0.606952,-0.692648,-0.673631,1.111057,-0.219149,6.493268,32.965435,-18.057144,-3.769350,0.189908,1.649886,-0.130143,0.000000,0.000000,0.000000,0.000000,0.000000,0.000000
13071375.000000,-2.393011,-1.662204,1.057952,-1.374565,1.773308,1.114637,-0.559723,0.730571,-0.005244,0.635056,-0.691460,-0.669998,1.122928,-0.218534,4.561201,33.013042,-17.172440,-4.241457,0.147794,1.552840,-0.064225,0.000000,0.000000,0.000000,0.000000,0.000000,0.000000
13071376.000000,-2.392285,-1.662229,1.058618,-1.375252,1.772669,1.115842,-0.559929,0.730317,-0.013365,0.643042,-0.682124,-0.655611,1.139578,-0.216245,2.803693,33.136028,-16.438492,-4.586610,0.034269,1.532699,-0.169511,0.000000,0.000000,0.000000,0.000000,0.000000,0.000000
13071377.000000,-2.391566,-1.662257,1.059284,-1.375923,1.772009,1.117069,-0.560152,0.732580,-0.019179,0.642911,-0.675987,-0.650597,1.167713,-0.215652,1.315961,33.259014,-15.748184,-4.808778,0.081876,1.370651,-0.110001,0.000000,0.000000,0.000000,0.000000,0.000000,0.000000
13071378.000000,-2.390845,-1.662288,1.059940,-1.376601,1.771373,1.118306,-0.560361,0.726440,-0.025866,0.647475,-0.676144,-0.643792,1.176980,-0.213166,0.030561,33.354229,-14.962662,-4.907960,0.183500,1.344100,-0.116410,0.000000,0.000000,0.000000,0.000000,0.000000,0.000000
13071379.000000,-2.390113,-1.662316,1.060612,-1.377289,1.770729,1.119547,-0.560568,0.723197,-0.027309,0.650168,-0.676381,-0.640860,1.195049,-0.204862,-1.108050,33.306622,-14.300125,-4.709596,0.285123,1.214095,-0.169511,0.000000,0.000000,0.000000,0.000000,0.000000,0.000000
13071380.000000,-2.389393,-1.662352,1.061285,-1.377974,1.770110,1.120813,-0.560782,0.722098,-0.029874,0.658677,-0.686478,-0.635346,1.200468,-0.206256,-2.024493,33.306622,-13.736771,-4.340639,0.386747,0.980636,-0.149369,0.000000,0.000000,0.000000,0.000000,0.000000,0.000000
13071381.000000,-2.388673,-1.662385,1.061977,-1.378666,1.769474,1.122073,-0.560993,0.717093,-0.029411,0.664324,-0.686021,-0.637021,1.210289,-0.208599,-2.766375,33.207439,-13.320206,-3.797121,0.524076,0.863448,-0.097184,0.000000,0.000000,0.000000,0.000000,0.000000,0.000000
13071382.000000,-2.387947,-1.662414,1.062672,-1.379351,1.768856,1.123293,-0.561195,0.715499,-0.027515,0.672530,-0.698322,-0.632952,1.207481,-0.205183,-3.385272,33.036846,-12.879837,-3.249635,0.535978,0.901900,-0.163102,0.000000,0.000000,0.000000,0.000000,0.000000,0.000000
13071383.000000,-2.387239,-1.662434,1.063362,-1.380035,1.768254,1.124527,-0.561396,0.713766,-0.024135,0.678395,-0.693800,-0.621204,1.207812,-0.208292,-3.881182,32.767071,-12.487076,-2.856874,0.428861,0.947677,-0.188737,0.000000,0.000000,0.000000,0.000000,0.000000,0.000000
13071384.000000,-2.386536,-1.662461,1.064063,-1.380709,1.767646,1.125759,-0.561605,0.701731,-0.023314,0.685090,-0.685651,-0.615696,1.210086,-0.210713,-4.103350,32.548870,-12.213333,-2.658510,0.405057,0.999862,-0.122819,0.000000,0.000000,0.000000,0.000000,0.000000,0.000000
13071385.000000,-2.385840,-1.662474,1.064774,-1.381369,1.767047,1.126956,-0.561803,0.698458,-0.018640,0.690570,-0.684226,-0.608601,1.197496,-0.207425,-4.325518,32.156109,-11.995132,-2.583132,0.279630,1.214095,-0.182328,0.000000,0.000000,0.000000,0.000000,0.000000,0.000000
13071386.000000,-2.385130,-1.662480,1.065482,-1.382024,1.766469,1.128155,-0.562013,0.698076,-0.014722,0.693838,-0.670236,-0.595477,1.186597,-0.208902,-4.623065,31.715740,-11.895950,-2.634706,0.195402,1.422836,-0.142960,0.000000,0.000000,0.000000,0.000000,0.000000,0.000000
13071387.000000,-2.384434,-1.662481,1.066211,-1.382676,1.765864,1.129358,-0.562220,0.699010,-0.010751,0.701695,-0.660059,-0.589545,1.186799,-0.206962,-4.722247,31.227764,-11.820572,-2.733888,0.249418,1.448470,-0.169511,0.000000,0.000000,0.000000,0.000000,0.000000,0.000000
13071388.000000,-2.383742,-1.662477,1.066932,-1.383320,1.765280,1.130581,-0.562428,0.699877,-0.005367,0.707438,-0.650649,-0.585581,1.177028,-0.211089,-4.896807,30.759624,-11.701553,-2.781496,0.291532,1.305648,-0.155778,0.000000,0.000000,0.000000,0.000000,0.000000,0.000000
13071389.000000,-2.383044,-1.662467,1.067674,-1.383965,1.764693,1.131812,-0.562629,0.697626,0.001878,0.715413,-0.645825,-0.586928,1.183383,-0.209205,-5.019793,30.271648,-11.626175,-2.805300,0.320829,1.129867,-0.182328,0.000000,0.000000,0.000000,0.000000,0.000000,0.000000
13071390.000000,-2.382359,-1.662451,1.068423,-1.384582,1.764110,1.133013,-0.562833,0.693136,0.008903,0.718076,-0.638694,-0.582992,1.177716,-0.204547,-5.194354,29.708294,-11.550797,-3.055238,0.344633,1.025497,-0.163102,0.000000,0.000000,0.000000,0.000000,0.000000,0.000000
13071391.000000,-2.381665,-1.662431,1.069165,-1.385210,1.763542,1.134236,-0.563036,0.695573,0.012709,0.724308,-0.633086,-0.576256,1.175443,-0.206829,-5.341143,29.196514,-11.380203,-3.202028,0.291532,0.928451,-0.116410,0.000000,0.000000,0.000000,0.000000,0.000000,0.000000
13071392.000000,-2.380971,-1.662414,1.069906,-1.385832,1.762977,1.135434,-0.563232,0.692830,0.013276,0.725738,-0.625260,-0.566801,1.172416,-0.204249,-5.416522,28.779949,-11.011246,-3.376589,0.255826,0.824081,-0.182328,0.000000,0.000000,0.000000,0.000000,0.000000,0.000000
13071393.000000,-2.380298,-1.662396,1.070653,-1.386450,1.762423,1.136628,-0.563438,0.686996,0.012710,0.750480,-0.621944,-0.564202,1.159697,-0.202702,-5.416522,28.410992,-10.693863,-3.448000,0.171598,0.974227,-0.122819,0.000000,0.000000,0.000000,0.000000,0.000000,0.000000
13071394.000000,-2.379609,-1.662374,1.071411,-1.387060,1.761868,1.137829,-0.563629,0.690937,0.016194,0.756269,-0.613398,-0.560897,1.152061,-0.197039,-5.487933,28.018230,-10.277298,-3.570986,0.052579,1.096908,-0.175919,0.000000,0.000000,0.000000,0.000000,0.000000,0.000000
13071395.000000,-2.378923,-1.662350,1.072178,-1.387663,1.761305,1.139019,-0.563828,0.703427,0.018233,0.760821,-0.620250,-0.565655,1.154319,-0.194904,-5.662493,27.653240,-9.884537,-3.570986,-0.001437,1.169235,-0.163102,0.000000,0.000000,0.000000,0.000000,0.000000,0.000000
13071396.000000,-2.378239,-1.662331,1.072947,-1.388265,1.760751,1.140241,-0.564021,0.698044,0.017641,0.766752,-0.611064,-0.561702,1.157747,-0.199113,-5.714068,27.383465,-9.563187,-3.646364,-0.007845,1.039230,-0.130143,0.000000,0.000000,0.000000,0.000000,0.000000,0.000000
13071397.000000,-2.377542,-1.662315,1.073734,-1.388869,1.760196,1.141478,-0.564211,0.693116,0.022023,0.773983,-0.604636,-0.558751,1.203044,-0.194554,-5.884661,27.189068,-9.368790,-3.670168,0.022367,0.720626,-0.175919,0.000000,0.000000,0.000000,0.000000,0.000000,0.000000
13071398.000000,-2.376849,-1.662302,1.074529,-1.389462,1.759641,1.142709,-0.564416,0.695766,0.018179,0.777937,-0.607810,-0.552734,1.200087,-0.194947,-6.158404,27.042278,-9.122818,-3.670168,0.052579,0.557662,-0.122819,0.000000,0.000000,0.000000,0.000000,0.000000,0.000000
13071399.000000,-2.376148,-1.662289,1.075322,-1.390061,1.759097,1.143939,-0.564602,0.696290,0.015044,0.788974,-0.595935,-0.549903,1.196186,-0.196168,-6.432147,26.919292,-8.952225,-3.670168,0.129484,0.544845,-0.169511,0.000000,0.000000,0.000000,0.000000,0.000000,0.000000
13071400.000000,-2.375449,-1.662286,1.076138,-1.390662,1.758540,1.145142,-0.564804,0.698344,0.008951,0.796426,-0.593850,-0.549942,1.190149,-0.195236,-6.654315,26.966900,-8.829239,-3.721742,0.166105,0.622665,-0.130143,0.000000,0.000000,0.000000,0.000000,0.000000,0.000000
13071401.000000,-2.374762,-1.662285,1.076948,-1.391239,1.758011,1.146373,-0.564990,0.694206,0.004881,0.806031,-0.586041,-0.544259,1.191424,-0.190780,-6.852679,27.014507,-8.682449,-3.892336,0.166105,0.654708,-0.169511,0.000000,0.000000,0.000000,0.000000,0.000000,0.000000
13071402.000000,-2.374076,-1.662284,1.077790,-1.391806,1.757473,1.147599,-0.565183,0.687661,0.002624,0.816956,-0.580049,-0.542346,1.188087,-0.187128,-6.924090,27.042278,-8.706253,-4.166078,0.112089,0.739852,-0.122819,0.000000,0.000000,0.000000,0.000000,0.000000,0.000000
13071403.000000,-2.373381,-1.662282,1.078639,-1.392370,1.756935,1.148812,-0.565366,0.691657,0.001208,0.827226,-0.573412,-0.536699,1.181611,-0.185704,-7.221636,27.066082,-8.682449,-4.340639,0.040677,0.843307,-0.163102,0.000000,0.000000,0.000000,0.000000,0.000000,0.000000
13071404.000000,-2.372683,-1.662280,1.079491,-1.392942,1.756403,1.150028,-0.565547,0.696636,0.000260,0.835582,-0.568923,-0.539394,1.176502,-0.185426,-7.471575,27.089886,-8.730057,-4.463624,0.034269,0.960494,-0.188737,0.000000,0.000000,0.000000,0.000000,0.000000,0.000000
13071405.000000,-2.371972,-1.662283,1.080354,-1.393509,1.755873,1.151230,-0.565737,0.698548,-0.000932,0.845700,-0.570705,-0.530273,1.181655,-0.182560,-7.939715,27.137493,-8.706253,-4.535036,0.004056,1.052047,-0.155778,0.000000,0.000000,0.000000,0.000000,0.000000,0.000000
13071406.000000,-2.371269,-1.662286,1.081219,-1.394073,1.755346,1.152448,-0.565919,0.704175,-0.001821,0.851969,-0.567902,-0.529043,1.173576,-0.187032,-8.360248,27.189068,-8.706253,-4.511232,0.105680,1.031905,-0.169511,0.000000,0.000000,0.000000,0.000000,0.000000,0.000000
13071407.000000,-2.370552,-1.662286,1.082098,-1.394650,1.754818,1.153680,-0.566097,0.708032,-0.001209,0.856814,-0.568305,-0.529281,1.181508,-0.183102,-8.907733,27.189068,-8.583267,-4.439821,0.112089,0.947677,-0.155778,0.000000,0.000000,0.000000,0.000000,0.000000,0.000000
13071408.000000,-2.369842,-1.662280,1.082998,-1.395215,1.754297,1.154883,-0.566274,0.697787,0.000961,0.863525,-0.572067,-0.519683,1.184464,-0.178673,-9.427447,27.113689,-8.607071,-4.364442,0.112089,0.901900,-0.175919,0.000000,0.000000,0.000000,0.000000,0.000000,0.000000
13071409.000000,-2.369126,-1.662268,1.083885,-1.395777,1.753780,1.156109,-0.566449,0.701351,0.004634,0.873096,-0.563792,-0.520586,1.185221,-0.177325,-9.871783,26.943096,-8.412674,-4.364442,0.076383,0.792037,-0.149369,0.000000,0.000000,0.000000,0.000000,0.000000,0.000000
13071410.000000,-2.368418,-1.662259,1.084794,-1.396325,1.753272,1.157305,-0.566623,0.698580,0.008564,0.880910,-0.555799,-0.513285,1.184988,-0.174858,-10.244708,26.843914,-8.313492,-4.562807,-0.025240,0.798446,-0.163102,0.000000,0.000000,0.000000,0.000000,0.000000,0.000000
13071411.000000,-2.367724,-1.662246,1.085701,-1.396865,1.752770,1.158510,-0.566799,0.698246,0.012578,0.905913,-0.553672,-0.522921,1.178462,-0.177700,-10.514483,26.697124,-8.115128,-4.661989,-0.060946,0.850631,-0.175919,0.000000,0.000000,0.000000,0.000000,0.000000,0.000000
13071412.000000,-2.367017,-1.662240,1.086634,-1.397396,1.752263,1.159717,-0.566976,0.698885,0.013012,0.917443,-0.544405,-0.514230,1.172655,-0.181286,-10.859637,26.649517,-8.019913,-4.884157,-0.085665,0.928451,-0.149369,0.000000,0.000000,0.000000,0.000000,0.000000,0.000000
13071413.000000,-2.366323,-1.662228,1.087579,-1.397932,1.751756,1.160900,-0.567151,0.700000,0.011596,0.921815,-0.551725,-0.505438,1.177315,-0.181184,-11.133380,26.550335,-7.944534,-4.955568,-0.049044,1.006271,-0.188737,0.000000,0.000000,0.000000,0.000000,0.000000,0.000000
13071414.000000,-2.365612,-1.662222,1.088532,-1.398465,1.751255,1.162103,-0.567331,0.700028,0.011345,0.935341,-0.546637,-0.502456,1.164166,-0.180165,-11.553912,26.550335,-7.992142,-5.054750,-0.037142,1.025497,-0.136552,0.000000,0.000000,0.000000,0.000000,0.000000,0.000000
13071415.000000,-2.364906,-1.662215,1.089511,-1.398991,1.750761,1.163306,-0.567501,0.703007,0.011220,0.946656,-0.534086,-0.493572,1.196957,-0.174878,-11.827655,26.550335,-8.142899,-5.253114,-0.055453,0.895492,-0.202470,0.000000,0.000000,0.000000,0.000000,0.000000,0.000000
13071416.000000,-2.364210,-1.662216,1.090493,-1.399514,1.750265,1.164521,-0.567673,0.701665,0.008920,0.957004,-0.530387,-0.498131,1.195663,-0.174464,-12.073627,26.649517,-8.337296,-5.376100,-0.043551,0.739852,-0.182328,0.000000,0.000000,0.000000,0.000000,0.000000,0.000000
13071417.000000,-2.363500,-1.662214,1.091493,-1.400027,1.749782,1.165721,-0.567844,0.703783,0.007583,0.969073,-0.524561,-0.490346,1.187775,-0.173853,-12.470355,26.748699,-8.460281,-5.598268,-0.079257,0.836898,-0.163102,0.000000,0.000000,0.000000,0.000000,0.000000,0.000000
13071418.000000,-2.362793,-1.662213,1.092500,-1.400531,1.749303,1.166889,-0.568013,0.704922,0.003124,0.977292,-0.514004,-0.479055,1.179019,-0.171394,-12.716327,26.867718,-8.507889,-5.721254,-0.109469,1.064864,-0.188737,0.000000,0.000000,0.000000,0.000000,0.000000,0.000000
13071419.000000,-2.362106,-1.662219,1.093489,-1.401039,1.748818,1.168077,-0.568185,0.700689,0.002346,0.984418,-0.510581,-0.481430,1.170525,-0.176758,-12.914691,27.014507,-8.361099,-5.895814,-0.126864,1.201278,-0.130143,0.000000,0.000000,0.000000,0.000000,0.000000,0.000000
13071420.000000,-2.361406,-1.662223,1.094491,-1.401545,1.748342,1.169270,-0.568344,0.695783,-0.000579,0.988682,-0.505600,-0.473702,1.169110,-0.172101,-13.188434,27.137493,-8.166702,-6.018800,-0.150668,1.234237,-0.202470,0.000000,0.000000,0.000000,0.000000,0.000000,0.000000
13071421.000000,-2.360717,-1.662229,1.095515,-1.402040,1.747874,1.170454,-0.568520,0.694811,-0.002155,0.993897,-0.503074,-0.475992,1.175782,-0.173130,-13.434405,27.236675,-8.019913,-6.141786,-0.216586,1.129867,-0.155778,0.000000,0.000000,0.000000,0.000000,0.000000,0.000000
13071422.000000,-2.360024,-1.662230,1.096529,-1.402542,1.747403,1.171652,-0.568683,0.692491,-0.001581,1.004525,-0.501705,-0.475098,1.174987,-0.171324,-13.684344,27.260479,-7.773941,-6.217165,-0.222994,0.993453,-0.175919,0.000000,0.000000,0.000000,0.000000,0.000000,0.000000
13071423.000000,-2.359331,-1.662238,1.097559,-1.403037,1.746930,1.172836,-0.568845,0.685694,-0.002507,1.003149,-0.493344,-0.472004,1.177323,-0.165313,-13.858905,27.335857,-7.476395,-6.340150,-0.145175,0.850631,-0.196061,0.000000,0.000000,0.000000,0.000000,0.000000,0.000000
13071424.000000,-2.358648,-1.662245,1.098579,-1.403533,1.746464,1.174033,-0.569017,0.686174,-0.003110,1.023653,-0.495681,-0.472357,1.171839,-0.168215,-14.128680,27.407269,-7.059830,-6.363954,-0.138766,0.746261,-0.149369,0.000000,0.000000,0.000000,0.000000,0.000000,0.000000
13071425.000000,-2.357973,-1.662255,1.099640,-1.404025,1.745992,1.175222,-0.569178,0.676759,-0.004219,1.037320,-0.493251,-0.470197,1.169688,-0.167376,-14.180255,27.506451,-6.936844,-6.514711,-0.067355,0.759078,-0.175919,0.000000,0.000000,0.000000,0.000000,0.000000,0.000000
13071426.000000,-2.357314,-1.662260,1.100707,-1.404500,1.745540,1.176403,-0.569347,0.669067,-0.003239,1.038985,-0.483588,-0.468393,1.175070,-0.168579,-14.128680,27.530254,-6.766251,-6.784486,-0.133273,0.720626,-0.149369,0.000000,0.000000,0.000000,0.000000,0.000000,0.000000
13071427.000000,-2.356662,-1.662265,1.101772,-1.404973,1.745098,1.177605,-0.569510,0.662844,-0.003175,1.045602,-0.476241,-0.459694,1.185282,-0.169132,-13.930316,27.577862,-6.667068,-7.082033,-0.264193,0.622665,-0.136552,0.000000,0.000000,0.000000,0.000000,0.000000,0.000000
13071428.000000,-2.356013,-1.662269,1.102873,-1.405447,1.744641,1.178786,-0.569672,0.652749,-0.002600,1.062894,-0.472172,-0.453073,1.211151,-0.167751,-13.708148,27.601665,-6.766251,-7.304201,-0.252291,0.616256,-0.169511,0.000000,0.000000,0.000000,0.000000,0.000000,0.000000
13071429.000000,-2.355359,-1.662268,1.103964,-1.405920,1.744208,1.179984,-0.569835,0.665534,-0.001121,1.090258,-0.471938,-0.457499,1.205802,-0.169349,-13.759723,27.577862,-6.766251,-7.427186,-0.336520,0.589706,-0.142960,0.000000,0.000000,0.000000,0.000000,0.000000,0.000000
13071430.000000,-2.354698,-1.662269,1.105085,-1.406401,1.743757,1.181190,-0.569988,0.665780,-0.000149,1.094599,-0.472767,-0.453038,1.206243,-0.163669,-13.906512,27.554058,-6.865433,-7.454957,-0.306307,0.570480,-0.169511,0.000000,0.000000,0.000000,0.000000,0.000000,0.000000
13071431.000000,-2.354047,-1.662264,1.106212,-1.406879,1.743307,1.182372,-0.570147,0.662254,0.001602,1.102753,-0.482665,-0.446843,1.204265,-0.160503,-14.005694,27.482647,-6.865433,-7.403383,-0.216586,0.589706,-0.155778,0.000000,0.000000,0.000000,0.000000,0.000000,0.000000
13071432.000000,-2.353387,-1.662258,1.107328,-1.407362,1.742875,1.183584,-0.570297,0.663780,0.003968,1.110191,-0.482662,-0.448608,1.200519,-0.161265,-14.204059,27.359661,-6.841629,-7.355775,-0.216586,0.518295,-0.196061,0.000000,0.000000,0.000000,0.000000,0.000000,0.000000
13071433.000000,-2.352733,-1.662254,1.108472,-1.407827,1.742430,1.184786,-0.570458,0.658178,0.004426,1.117100,-0.474427,-0.444987,1.219803,-0.161126,-14.251666,27.284283,-6.790054,-7.502565,-0.204684,0.557662,-0.130143,0.000000,0.000000,0.000000,0.000000,0.000000,0.000000
13071434.000000,-2.352093,-1.662247,1.109614,-1.408282,1.741993,1.185966,-0.570613,0.652624,0.005841,1.121236,-0.467843,-0.441771,1.208576,-0.158667,-14.303241,27.161297,-6.496475,-7.700929,-0.216586,0.662032,-0.122819,0.000000,0.000000,0.000000,0.000000,0.000000,0.000000
13071435.000000,-2.351450,-1.662240,1.110747,-1.408747,1.741561,1.187157,-0.570750,0.646084,0.006688,1.122913,-0.465125,-0.441655,1.197292,-0.153103,-14.303241,27.042278,-6.274307,-7.776308,-0.294406,0.759078,-0.215287,0.000000,0.000000,0.000000,0.000000,0.000000,0.000000
13071436.000000,-2.350797,-1.662225,1.111926,-1.409211,1.741129,1.188337,-0.570914,0.645316,0.009663,1.133706,-0.463274,-0.436693,1.186529,-0.155535,-14.426227,26.820110,-6.302078,-7.875490,-0.377719,0.850631,-0.130143,0.000000,0.000000,0.000000,0.000000,0.000000,0.000000
13071437.000000,-2.350167,-1.662211,1.113101,-1.409669,1.740714,1.189532,-0.571055,0.640734,0.010438,1.152149,-0.463930,-0.429728,1.176343,-0.156125,-14.426227,26.649517,-6.373489,-7.875490,-0.438143,0.830489,-0.182328,0.000000,0.000000,0.000000,0.000000,0.000000,0.000000
13071438.000000,-2.349516,-1.662203,1.114313,-1.410127,1.740288,1.190741,-0.571210,0.645676,0.009283,1.173256,-0.459771,-0.428681,1.177569,-0.152317,-14.573016,26.550335,-6.544083,-7.899293,-0.509554,0.720626,-0.122819,0.000000,0.000000,0.000000,0.000000,0.000000,0.000000
13071439.000000,-2.348886,-1.662190,1.115559,-1.410581,1.739855,1.191916,-0.571354,0.643376,0.009625,1.193987,-0.457802,-0.426951,1.169613,-0.151233,-14.648395,26.403545,-7.036026,-7.923097,-0.479342,0.694076,-0.136552,0.000000,0.000000,0.000000,0.000000,0.000000,0.000000
13071440.000000,-2.348263,-1.662177,1.116799,-1.411027,1.739435,1.193101,-0.571494,0.633800,0.010410,1.210538,-0.450425,-0.421339,1.162841,-0.149571,-14.549212,26.232952,-7.504166,-8.046083,-0.431735,0.759078,-0.175919,0.000000,0.000000,0.000000,0.000000,0.000000,0.000000
13071441.000000,-2.347629,-1.662174,1.118067,-1.411473,1.739004,1.194261,-0.571649,0.629599,0.008055,1.223187,-0.446588,-0.425272,1.175972,-0.152570,-14.549212,26.185345,-7.968338,-8.244448,-0.389620,0.863448,-0.097184,0.000000,0.000000,0.000000,0.000000,0.000000,0.000000
13071442.000000,-2.347014,-1.662174,1.119311,-1.411911,1.738583,1.195440,-0.571789,0.629090,0.005371,1.234514,-0.441270,-0.421551,1.160698,-0.144372,-14.501605,26.185345,-8.115128,-8.419008,-0.294406,0.928451,-0.175919,0.000000,0.000000,0.000000,0.000000,0.000000,0.000000
13071443.000000,-2.346391,-1.662176,1.120583,-1.412360,1.738169,1.196615,-0.571933,0.627060,0.004402,1.241427,-0.439077,-0.421551,1.155112,-0.145738,-14.426227,26.280560,-8.361099,-8.490419,-0.240389,1.012679,-0.182328,0.000000,0.000000,0.000000,0.000000,0.000000,0.000000
13071444.000000,-2.345770,-1.662182,1.121855,-1.412806,1.737756,1.197777,-0.572081,0.612188,0.004571,1.240961,-0.441379,-0.417871,1.154460,-0.147699,-14.473834,26.625713,-8.654678,-8.419008,-0.282504,1.096908,-0.155778,0.000000,0.000000,0.000000,0.000000,0.000000,0.000000
13071445.000000,-2.345149,-1.662200,1.123086,-1.413262,1.737358,1.198964,-0.572220,0.615507,-0.002121,1.234674,-0.447775,-0.411676,1.153581,-0.147781,-14.279437,27.431072,-9.047440,-8.268251,-0.312716,1.090499,-0.169511,0.000000,0.000000,0.000000,0.000000,0.000000,0.000000
13071446.000000,-2.344527,-1.662221,1.124309,-1.413721,1.736972,1.200145,-0.572366,0.617444,-0.006143,1.225462,-0.451820,-0.405042,1.184117,-0.149367,-13.906512,28.510174,-9.491776,-8.121462,-0.365817,1.039230,-0.142960,0.000000,0.000000,0.000000,0.000000,0.000000,0.000000
13071447.000000,-2.343913,-1.662246,1.125512,-1.414177,1.736575,1.201345,-0.572500,0.615860,-0.013716,1.214880,-0.452527,-0.404567,1.187985,-0.142924,-13.533587,29.855083,-10.253494,-7.946901,-0.330111,0.960494,-0.196061,0.000000,0.000000,0.000000,0.000000,0.000000,0.000000
13071448.000000,-2.343296,-1.662253,1.126727,-1.414640,1.736185,1.202543,-0.572641,0.609358,-0.014516,1.211149,-0.454116,-0.398800,1.182540,-0.142075,-13.065448,31.053204,-11.185806,-7.800111,-0.300814,1.052047,-0.149369,0.000000,0.000000,0.000000,0.000000,0.000000,0.000000
13071449.000000,-2.342687,-1.662259,1.127949,-1.415083,1.735804,1.203720,-0.572777,0.601539,-0.017273,1.215649,-0.459167,-0.389576,1.178586,-0.138430,-12.521930,32.231487,-12.141922,-7.823915,-0.276095,1.155502,-0.169511,0.000000,0.000000,0.000000,0.000000,0.000000,0.000000
13071450.000000,-2.342094,-1.662270,1.129149,-1.415537,1.735412,1.204917,-0.572922,0.598167,-0.018113,1.212758,-0.455434,-0.395754,1.178987,-0.138730,-11.974444,33.382000,-13.074234,-7.875490,-0.157076,1.259872,-0.116410,0.000000,0.000000,0.000000,0.000000,0.000000,0.000000
13071451.000000,-2.341500,-1.662268,1.130385,-1.415985,1.735013,1.206115,-0.573049,0.594761,-0.012275,1.218874,-0.448723,-0.399071,1.171644,-0.133950,-11.407123,34.262737,-14.129532,-7.970705,-0.055453,1.377059,-0.196061,0.000000,0.000000,0.000000,0.000000,0.000000,0.000000
13071452.000000,-2.340910,-1.662268,1.131632,-1.416425,1.734618,1.207295,-0.573186,0.593999,-0.008480,1.220876,-0.441905,-0.392084,1.168212,-0.139269,-11.034198,35.020489,-15.109451,-8.169069,0.034269,1.494247,-0.169511,0.000000,0.000000,0.000000,0.000000,0.000000,0.000000
13071453.000000,-2.340312,-1.662262,1.132873,-1.416883,1.734234,1.208478,-0.573320,0.591888,-0.004746,1.229874,-0.445276,-0.393557,1.166301,-0.137116,-10.764422,35.583843,-16.117142,-8.121462,0.058073,1.617843,-0.175919,0.000000,0.000000,0.000000,0.000000,0.000000,0.000000
13071454.000000,-2.339720,-1.662260,1.134117,-1.417341,1.733846,1.209646,-0.573454,0.586528,-0.002617,1.229304,-0.447381,-0.393771,1.164530,-0.135689,-10.439105,36.147198,-16.803482,-8.121462,0.081876,1.682845,-0.175919,0.000000,0.000000,0.000000,0.000000,0.000000,0.000000
13071455.000000,-2.339143,-1.662265,1.135355,-1.417790,1.733459,1.210829,-0.573586,0.588131,-0.003917,1.234173,-0.450991,-0.390960,1.159813,-0.135242,-10.193133,36.682781,-17.418411,-8.022280,0.129484,1.643478,-0.142960,0.000000,0.000000,0.000000,0.000000,0.000000,0.000000
13071456.000000,-2.338560,-1.662265,1.136610,-1.418239,1.733086,1.212013,-0.573707,0.585454,-0.002034,1.237163,-0.446651,-0.385496,1.165052,-0.131667,-9.994769,37.075542,-17.910355,-8.046083,0.076383,1.656295,-0.215287,0.000000,0.000000,0.000000,0.000000,0.000000,0.000000
13071457.000000,-2.337996,-1.662279,1.137869,-1.418667,1.732714,1.213177,-0.573848,0.570335,-0.007210,1.239947,-0.443327,-0.380388,1.167840,-0.130951,-9.673419,37.591290,-18.203934,-8.244448,-0.013339,1.605026,-0.110001,0.000000,0.000000,0.000000,0.000000,0.000000,0.000000
13071458.000000,-2.337435,-1.662297,1.139128,-1.419092,1.732340,1.214348,-0.573968,0.569307,-0.010421,1.242934,-0.434550,-0.379714,1.164375,-0.128879,-9.328265,38.079266,-18.695877,-8.466616,-0.013339,1.565658,-0.163102,0.000000,0.000000,0.000000,0.000000,0.000000,0.000000
13071459.000000,-2.336881,-1.662324,1.140398,-1.419504,1.731974,1.215493,-0.574091,0.568286,-0.016772,1.241893,-0.425899,-0.376960,1.183563,-0.127724,-8.879962,38.595013,-18.989456,-8.910952,-0.055453,1.605026,-0.215287,0.000000,0.000000,0.000000,0.000000,0.000000,0.000000
13071460.000000,-2.336339,-1.662361,1.141674,-1.419915,1.731603,1.216640,-0.574228,0.558129,-0.023794,1.274424,-0.417464,-0.368409,1.168557,-0.131919,-8.511004,39.205975,-19.552811,-9.208498,-0.043551,1.741439,-0.136552,0.000000,0.000000,0.000000,0.000000,0.000000,0.000000
13071461.000000,-2.335802,-1.662401,1.142972,-1.420322,1.731239,1.217793,-0.574357,0.550689,-0.028338,1.280396,-0.414827,-0.361719,1.163660,-0.126708,-8.062701,39.793133,-20.092361,-9.577456,-0.031649,1.871444,-0.142960,0.000000,0.000000,0.000000,0.000000,0.000000,0.000000
13071462.000000,-2.335270,-1.662449,1.144291,-1.420725,1.730885,1.218947,-0.574488,0.548575,-0.038978,1.285519,-0.408961,-0.356490,1.163086,-0.128110,-7.693743,40.427898,-20.877884,-9.775820,-0.031649,1.779891,-0.130143,0.000000,0.000000,0.000000,0.000000,0.000000,0.000000
13071463.000000,-2.334744,-1.662496,1.145587,-1.421135,1.730525,1.220120,-0.574610,0.536882,-0.042019,1.293387,-0.407983,-0.358005,1.149905,-0.127480,-7.320818,40.991253,-21.492813,-9.926577,-0.013339,1.637069,-0.169511,0.000000,0.000000,0.000000,0.000000,0.000000,0.000000
13071464.000000,-2.334219,-1.662540,1.146881,-1.421538,1.730162,1.221278,-0.574745,0.530663,-0.042236,1.286932,-0.401167,-0.356506,1.164341,-0.131049,-6.924090,41.459393,-21.837967,-10.073366,-0.031649,1.649886,-0.103593,0.000000,0.000000,0.000000,0.000000,0.000000,0.000000
13071465.000000,-2.333701,-1.662585,1.148187,-1.421949,1.729802,1.222415,-0.574866,0.527055,-0.041970,1.289398,-0.404188,-0.353966,1.145208,-0.129468,-6.602740,41.899761,-22.254532,-9.997988,0.010465,1.714889,-0.149369,0.000000,0.000000,0.000000,0.000000,0.000000,0.000000
13071466.000000,-2.333189,-1.662627,1.149445,-1.422349,1.729439,1.223555,-0.574994,0.518666,-0.042091,1.280487,-0.396305,-0.356648,1.131717,-0.126330,-6.257586,42.340130,-22.202957,-10.025759,0.052579,1.903487,-0.122819,0.000000,0.000000,0.000000,0.000000,0.000000,0.000000
13071467.000000,-2.332687,-1.662667,1.150732,-1.422756,1.729071,1.224691,-0.575113,0.516377,-0.040402,1.274727,-0.408393,-0.356701,1.131801,-0.125320,-5.960040,42.705120,-22.230728,-9.898806,0.052579,2.007858,-0.175919,0.000000,0.000000,0.000000,0.000000,0.000000,0.000000
13071468.000000,-2.332179,-1.662706,1.151990,-1.423154,1.728721,1.225849,-0.575233,0.516313,-0.038257,1.264479,-0.404152,-0.355148,1.129873,-0.126566,-5.662493,43.026470,-22.032364,-9.875002,-0.001437,1.988631,-0.188737,0.000000,0.000000,0.000000,0.000000,0.000000,0.000000
13071469.000000,-2.331680,-1.662738,1.153300,-1.423567,1.728372,1.227018,-0.575365,0.506578,-0.033494,1.269752,-0.407064,-0.347488,1.134187,-0.125011,-5.317339,43.197063,-22.353714,-9.704409,0.022367,1.955673,-0.142960,0.000000,0.000000,0.000000,0.000000,0.000000,0.000000
13071470.000000,-2.331200,-1.662766,1.154603,-1.423983,1.728017,1.228163,-0.575485,0.500719,-0.031885,1.273057,-0.413310,-0.349626,1.136237,-0.125878,-4.944415,43.292278,-22.548111,-9.383059,-0.001437,1.930038,-0.163102,0.000000,0.000000,0.000000,0.000000,0.000000,0.000000
13071471.000000,-2.330713,-1.662793,1.155859,-1.424396,1.727666,1.229318,-0.575609,0.498298,-0.030555,1.273343,-0.416444,-0.348122,1.131513,-0.128655,-4.575457,43.367657,-22.718704,-9.184694,0.015958,1.923629,-0.130143,0.000000,0.000000,0.000000,0.000000,0.000000,0.000000
13071472.000000,-2.330227,-1.662816,1.157187,-1.424819,1.727304,1.230456,-0.575727,0.492132,-0.027636,1.282410,-0.415805,-0.350112,1.129193,-0.122741,-4.277911,43.343853,-23.135269,-8.887148,0.147794,1.936446,-0.182328,0.000000,0.000000,0.000000,0.000000,0.000000,0.000000
13071473.000000,-2.329763,-1.662838,1.158489,-1.425230,1.726960,1.231610,-0.575853,0.488917,-0.027560,1.289277,-0.417463,-0.352393,1.125791,-0.126321,-3.928790,43.268475,-23.555801,-8.740358,0.166105,1.955673,-0.130143,0.000000,0.000000,0.000000,0.000000,0.000000,0.000000
13071474.000000,-2.329291,-1.662856,1.159798,-1.425648,1.726612,1.232770,-0.575971,0.481298,-0.023145,1.292267,-0.412005,-0.349162,1.129643,-0.126489,-3.631243,43.121685,-23.972366,-8.589602,0.171598,1.968490,-0.155778,0.000000,0.000000,0.000000,0.000000,0.000000,0.000000
13071475.000000,-2.328830,-1.662882,1.161102,-1.426066,1.726271,1.233905,-0.576088,0.474067,-0.023626,1.290220,-0.414087,-0.347069,1.132238,-0.122048,-3.262286,43.121685,-24.166763,-8.343630,0.178007,2.001449,-0.182328,0.000000,0.000000,0.000000,0.000000,0.000000,0.000000
13071476.000000,-2.328373,-1.662909,1.162381,-1.426485,1.725940,1.235055,-0.576202,0.468514,-0.023553,1.287370,-0.409515,-0.341872,1.130791,-0.120078,-2.940936,43.097881,-24.313553,-8.220644,0.219205,2.020675,-0.175919,0.000000,0.000000,0.000000,0.000000,0.000000,0.000000
13071477.000000,-2.327909,-1.662930,1.163673,-1.426923,1.725604,1.236197,-0.576315,0.466150,-0.022814,1.281603,-0.421398,-0.345121,1.149896,-0.118679,-2.643389,43.050274,-24.388931,-7.847719,0.219205,2.137862,-0.163102,0.000000,0.000000,0.000000,0.000000,0.000000,0.000000
13071478.000000,-2.327447,-1.662955,1.164941,-1.427353,1.725273,1.237333,-0.576432,0.469123,-0.023607,1.274549,-0.423271,-0.345828,1.144953,-0.118407,-2.421221,43.050274,-24.388931,-7.502565,0.207303,2.131454,-0.130143,0.000000,0.000000,0.000000,0.000000,0.000000,0.000000
13071479.000000,-2.326996,-1.662980,1.166237,-1.427799,1.724937,1.238494,-0.576540,0.462415,-0.024038,1.279649,-0.428113,-0.336391,1.145085,-0.114873,-2.123675,43.050274,-24.535721,-7.082033,0.243009,1.995040,-0.188737,0.000000,0.000000,0.000000,0.000000,0.000000,0.000000
13071480.000000,-2.326558,-1.663002,1.167537,-1.428234,1.724604,1.239640,-0.576653,0.463232,-0.023830,1.277000,-0.427858,-0.333880,1.138969,-0.114673,-1.778521,43.026470,-24.757889,-6.736879,0.291532,1.877853,-0.175919,0.000000,0.000000,0.000000,0.000000,0.000000,0.000000
13071481.000000,-2.326113,-1.663028,1.168813,-1.428680,1.724272,1.240793,-0.576764,0.455190,-0.024740,1.287776,-0.432098,-0.335932,1.124862,-0.109227,-1.453204,43.050274,-25.150650,-6.439332,0.308927,1.858627,-0.182328,0.000000,0.000000,0.000000,0.000000,0.000000,0.000000
13071482.000000,-2.325676,-1.663055,1.170136,-1.429130,1.723947,1.241937,-0.576877,0.446370,-0.025893,1.284669,-0.435144,-0.330740,1.141055,-0.112424,-1.032672,43.097881,-25.591019,-6.169557,0.291532,1.981307,-0.122819,0.000000,0.000000,0.000000,0.000000,0.000000,0.000000
13071483.000000,-2.325261,-1.663081,1.171434,-1.429577,1.723628,1.243060,-0.576988,0.435679,-0.026803,1.291336,-0.440620,-0.324404,1.128536,-0.111922,-0.540728,43.145489,-26.082962,-5.919618,0.315336,2.131454,-0.136552,0.000000,0.000000,0.000000,0.000000,0.000000,0.000000
13071484.000000,-2.324840,-1.663102,1.172713,-1.430028,1.723306,1.244191,-0.577093,0.427945,-0.025615,1.288967,-0.436663,-0.324883,1.123274,-0.111151,-0.092425,43.121685,-26.400345,-5.697450,0.356534,2.332870,-0.163102,0.000000,0.000000,0.000000,0.000000,0.000000,0.000000
13071485.000000,-2.324412,-1.663129,1.174026,-1.430478,1.722973,1.245314,-0.577200,0.428001,-0.024072,1.284346,-0.437987,-0.324468,1.119696,-0.110413,0.205121,43.197063,-26.547134,-5.475282,0.393156,2.443649,-0.188737,0.000000,0.000000,0.000000,0.000000,0.000000,0.000000
13071486.000000,-2.323995,-1.663152,1.175289,-1.430935,1.722649,1.246460,-0.577308,0.422409,-0.020481,1.283500,-0.437935,-0.324252,1.115691,-0.112282,0.526471,43.173260,-26.697891,-5.153932,0.422452,2.437240,-0.142960,0.000000,0.000000,0.000000,0.000000,0.000000,0.000000
13071487.000000,-2.323573,-1.663177,1.176558,-1.431398,1.722327,1.247611,-0.577412,0.422967,-0.022071,1.276893,-0.441510,-0.324655,1.121349,-0.107158,0.724836,43.197063,-26.598709,-4.808778,0.464567,2.358505,-0.155778,0.000000,0.000000,0.000000,0.000000,0.000000,0.000000
13071488.000000,-2.323159,-1.663194,1.177861,-1.431862,1.722002,1.248748,-0.577506,0.420065,-0.020893,1.279076,-0.449404,-0.323939,1.126888,-0.101448,0.970807,43.121685,-26.499527,-4.388246,0.482877,2.202865,-0.221696,0.000000,0.000000,0.000000,0.000000,0.000000,0.000000
13071489.000000,-2.322737,-1.663217,1.179107,-1.432337,1.721674,1.249900,-0.577615,0.421829,-0.025168,1.264951,-0.455306,-0.324925,1.127833,-0.106925,1.169172,43.121685,-26.130569,-3.920107,0.530485,2.066451,-0.155778,0.000000,0.000000,0.000000,0.000000,0.000000,0.000000
13071490.000000,-2.322322,-1.663239,1.180386,-1.432802,1.721348,1.251034,-0.577715,0.416598,-0.022073,1.262305,-0.456264,-0.320756,1.160187,-0.107127,1.391340,43.121685,-26.182144,-3.622560,0.601896,1.968490,-0.188737,0.000000,0.000000,0.000000,0.000000,0.000000,0.000000
13071491.000000,-2.321919,-1.663268,1.181608,-1.433265,1.721047,1.252177,-0.577819,0.415792,-0.025661,1.256841,-0.460182,-0.313403,1.150490,-0.107763,1.613508,43.244671,-25.959976,-3.325014,0.542386,1.930038,-0.196061,0.000000,0.000000,0.000000,0.000000,0.000000,0.000000
13071492.000000,-2.321508,-1.663288,1.182867,-1.433727,1.720735,1.253325,-0.577923,0.414305,-0.025371,1.253703,-0.462292,-0.311332,1.144444,-0.104832,1.835676,43.244671,-25.936172,-3.154421,0.559781,1.916305,-0.182328,0.000000,0.000000,0.000000,0.000000,0.000000,0.000000
13071493.000000,-2.321109,-1.663312,1.184148,-1.434171,1.720418,1.254448,-0.578026,0.410835,-0.026176,1.250480,-0.457966,-0.308968,1.136403,-0.102571,2.061811,43.292278,-25.860794,-3.154421,0.559781,1.974899,-0.169511,0.000000,0.000000,0.000000,0.000000,0.000000,0.000000
13071494.000000,-2.320706,-1.663334,1.185382,-1.434612,1.720112,1.255589,-0.578121,0.406709,-0.026299,1.249028,-0.456548,-0.306588,1.122566,-0.098778,2.208601,43.320049,-25.936172,-3.249635,0.547880,2.001449,-0.215287,0.000000,0.000000,0.000000,0.000000,0.000000,0.000000
13071495.000000,-2.320296,-1.663352,1.186648,-1.435054,1.719806,1.256712,-0.578224,0.408368,-0.021936,1.241536,-0.447940,-0.305747,1.136498,-0.102772,2.283979,43.292278,-25.884598,-3.277406,0.571683,2.079269,-0.202470,0.000000,0.000000,0.000000,0.000000,0.000000,0.000000
13071496.000000,-2.319889,-1.663369,1.187875,-1.435493,1.719499,1.257864,-0.578334,0.410499,-0.018880,1.236509,-0.446794,-0.315121,1.127127,-0.102903,2.307783,43.268475,-25.737808,-3.225832,0.637601,2.039901,-0.142960,0.000000,0.000000,0.000000,0.000000,0.000000,0.000000
13071497.000000,-2.319475,-1.663375,1.189117,-1.435931,1.719188,1.259040,-0.578426,0.410013,-0.012788,1.234919,-0.436111,-0.314061,1.132352,-0.097179,2.260175,43.074078,-25.690201,-3.154421,0.698026,1.858627,-0.235429,0.000000,0.000000,0.000000,0.000000,0.000000,0.000000
13071498.000000,-2.319065,-1.663382,1.190346,-1.436358,1.718880,1.260193,-0.578536,0.415262,-0.009004,1.224634,-0.434397,-0.312453,1.134526,-0.099645,2.133222,42.903484,-25.468033,-3.126650,0.745634,1.714889,-0.149369,0.000000,0.000000,0.000000,0.000000,0.000000,0.000000
13071499.000000,-2.318651,-1.663389,1.191539,-1.436783,1.718589,1.261360,-0.578627,0.415589,-0.007075,1.220350,-0.426708,-0.307782,1.133381,-0.100560,2.034040,42.756695,-25.297440,-3.079042,0.698026,1.611434,-0.208878,0.000000,0.000000,0.000000,0.000000,0.000000,0.000000
13071500.000000,-2.318234,-1.663395,1.192783,-1.437202,1.718303,1.262521,-0.578731,0.417035,-0.005606,1.219759,-0.417031,-0.303433,1.154669,-0.101467,1.962629,42.609905,-25.249832,-3.202028,0.632108,1.643478,-0.142960,0.000000,0.000000,0.000000,0.000000,0.000000,0.000000
13071501.000000,-2.317833,-1.663397,1.194018,-1.437606,1.718017,1.263659,-0.578825,0.412021,-0.000859,1.226370,-0.410862,-0.296181,1.145394,-0.097787,2.010236,42.435345,-25.444229,-3.301210,0.566190,1.773483,-0.188737,0.000000,0.000000,0.000000,0.000000,0.000000,0.000000
13071502.000000,-2.317431,-1.663399,1.195231,-1.438015,1.717739,1.264803,-0.578927,0.406558,-0.002533,1.220654,-0.403160,-0.289441,1.136637,-0.097578,1.986432,42.340130,-25.519608,-3.376589,0.464567,1.949264,-0.169511,0.000000,0.000000,0.000000,0.000000,0.000000,0.000000
13071503.000000,-2.317029,-1.663405,1.196496,-1.438411,1.717459,1.265936,-0.579028,0.405961,-0.001433,1.222472,-0.396777,-0.281801,1.132483,-0.091948,1.986432,42.288555,-25.813187,-3.523378,0.422452,2.085677,-0.169511,0.000000,0.000000,0.000000,0.000000,0.000000,0.000000
13071504.000000,-2.316632,-1.663408,1.197723,-1.438804,1.717186,1.267082,-0.579122,0.405799,-0.005108,1.233247,-0.393021,-0.278477,1.121901,-0.090715,2.010236,42.169537,-26.305130,-3.622560,0.440763,2.177230,-0.202470,0.000000,0.000000,0.000000,0.000000,0.000000,0.000000
13071505.000000,-2.316224,-1.663411,1.198947,-1.439198,1.716910,1.268239,-0.579222,0.405997,-0.005316,1.227742,-0.389584,-0.280319,1.126000,-0.091777,1.934858,42.070354,-26.424149,-3.598757,0.446256,2.196456,-0.196061,0.000000,0.000000,0.000000,0.000000,0.000000,0.000000
13071506.000000,-2.315818,-1.663414,1.200199,-1.439590,1.716627,1.269370,-0.579323,0.409142,-0.002279,1.224095,-0.389141,-0.280785,1.129568,-0.093584,1.811872,41.971172,-26.523331,-3.499574,0.559781,2.196456,-0.163102,0.000000,0.000000,0.000000,0.000000,0.000000,0.000000
13071507.000000,-2.315417,-1.663422,1.201387,-1.439977,1.716362,1.270512,-0.579420,0.408224,-0.005043,1.218798,-0.387627,-0.278011,1.125716,-0.093902,1.764264,41.947369,-26.499527,-3.424196,0.601896,2.183639,-0.155778,0.000000,0.000000,0.000000,0.000000,0.000000,0.000000
13071508.000000,-2.315015,-1.663431,1.202618,-1.440361,1.716099,1.271640,-0.579514,0.407092,-0.007810,1.212544,-0.388675,-0.274401,1.146706,-0.091963,1.788068,41.971172,-26.328934,-3.400392,0.613798,2.157089,-0.202470,0.000000,0.000000,0.000000,0.000000,0.000000,0.000000
13071509.000000,-2.314613,-1.663437,1.203796,-1.440743,1.715843,1.272769,-0.579613,0.408019,-0.007978,1.206832,-0.385310,-0.270524,1.125351,-0.094446,1.740461,41.923565,-26.130569,-3.277406,0.578092,2.215682,-0.155778,0.000000,0.000000,0.000000,0.000000,0.000000,0.000000
13071510.000000,-2.314222,-1.663448,1.204986,-1.441113,1.715581,1.273921,-0.579697,0.400140,-0.006801,1.197973,-0.383230,-0.265739,1.123284,-0.091533,1.835676,41.947369,-25.714005,-3.348818,0.488370,2.131454,-0.229020,0.000000,0.000000,0.000000,0.000000,0.000000,0.000000
13071511.000000,-2.313838,-1.663455,1.206227,-1.441483,1.715316,1.275055,-0.579793,0.399619,-0.008382,1.197958,-0.378822,-0.265152,1.121415,-0.089272,1.887250,41.947369,-25.666397,-3.325014,0.470060,2.020675,-0.182328,0.000000,0.000000,0.000000,0.000000,0.000000,0.000000
13071512.000000,-2.313451,-1.663459,1.207399,-1.441851,1.715065,1.276201,-0.579884,0.398236,-0.007874,1.196867,-0.377533,-0.258045,1.114348,-0.091455,2.010236,41.875957,-25.468033,-3.348818,0.405057,1.949264,-0.155778,0.000000,0.000000,0.000000,0.000000,0.000000,0.000000
13071513.000000,-2.313066,-1.663463,1.208620,-1.442224,1.714808,1.277346,-0.579967,0.393254,-0.007496,1.190603,-0.373548,-0.258888,1.131000,-0.090456,2.160993,41.800579,-25.396622,-3.376589,0.386747,1.962081,-0.196061,0.000000,0.000000,0.000000,0.000000,0.000000,0.000000
13071514.000000,-2.312693,-1.663468,1.209800,-1.442591,1.714545,1.278475,-0.580061,0.386728,-0.007390,1.195420,-0.372574,-0.271201,1.126906,-0.088288,2.307783,41.729168,-25.368851,-3.325014,0.458158,1.909896,-0.155778,0.000000,0.000000,0.000000,0.000000,0.000000,0.000000
13071515.000000,-2.312317,-1.663468,1.210997,-1.442947,1.714286,1.279630,-0.580141,0.381108,-0.006598,1.193142,-0.362869,-0.265397,1.125843,-0.087463,2.454572,41.629986,-25.368851,-3.475771,0.470060,1.760665,-0.215287,0.000000,0.000000,0.000000,0.000000,0.000000,0.000000
13071516.000000,-2.311948,-1.663468,1.212217,-1.443301,1.714027,1.280758,-0.580240,0.387615,-0.003038,1.192314,-0.364033,-0.265961,1.120215,-0.092085,2.605329,41.530804,-25.368851,-3.499574,0.500272,1.721298,-0.136552,0.000000,0.000000,0.000000,0.000000,0.000000,0.000000
13071517.000000,-2.311569,-1.663469,1.213373,-1.443660,1.713785,1.281890,-0.580319,0.383935,-0.004247,1.184133,-0.359926,-0.263607,1.109825,-0.090614,2.680707,41.459393,-25.222061,-3.547182,0.446256,1.812850,-0.182328,0.000000,0.000000,0.000000,0.000000,0.000000,0.000000
13071518.000000,-2.311196,-1.663463,1.214552,-1.444016,1.713535,1.283026,-0.580404,0.377684,-0.000202,1.181585,-0.358855,-0.260280,1.113106,-0.091241,2.803693,41.312603,-25.003860,-3.499574,0.488370,1.916305,-0.188737,0.000000,0.000000,0.000000,0.000000,0.000000,0.000000
13071519.000000,-2.310825,-1.663462,1.215721,-1.444365,1.713280,1.284146,-0.580489,0.375134,0.001026,1.171926,-0.359048,-0.261087,1.114425,-0.091654,2.803693,41.237225,-24.658707,-3.424196,0.488370,2.033492,-0.196061,0.000000,0.000000,0.000000,0.000000,0.000000,0.000000
13071520.000000,-2.310451,-1.663454,1.216868,-1.444718,1.713035,1.285288,-0.580576,0.371263,0.003108,1.164096,-0.356375,-0.250571,1.115265,-0.093522,2.779890,41.114239,-24.289749,-3.301210,0.440763,2.007858,-0.163102,0.000000,0.000000,0.000000,0.000000,0.000000,0.000000
13071521.000000,-2.310068,-1.663442,1.218066,-1.445066,1.712788,1.286423,-0.580657,0.372255,0.005723,1.159659,-0.354240,-0.248995,1.116171,-0.087308,2.704511,40.943645,-24.190567,-3.202028,0.440763,1.909896,-0.202470,0.000000,0.000000,0.000000,0.000000,0.000000,0.000000
13071522.000000,-2.309697,-1.663427,1.219223,-1.445409,1.712554,1.287575,-0.580744,0.370587,0.008109,1.168163,-0.350302,-0.242000,1.111605,-0.090068,2.704511,40.749249,-24.242142,-3.178224,0.398649,1.786300,-0.163102,0.000000,0.000000,0.000000,0.000000,0.000000,0.000000
13071523.000000,-2.309328,-1.663412,1.220409,-1.445750,1.712314,1.288733,-0.580827,0.368808,0.009205,1.174901,-0.344455,-0.238399,1.113687,-0.086568,2.728315,40.578655,-24.365128,-3.126650,0.405057,1.649886,-0.155778,0.000000,0.000000,0.000000,0.000000,0.000000,0.000000
13071524.000000,-2.308973,-1.663402,1.221626,-1.446086,1.712069,1.289862,-0.580908,0.368938,0.008314,1.173328,-0.343688,-0.241001,1.110343,-0.082416,2.827497,40.479473,-24.611099,-3.102846,0.422452,1.624252,-0.188737,0.000000,0.000000,0.000000,0.000000,0.000000,0.000000
13071525.000000,-2.308609,-1.663394,1.222801,-1.446411,1.711829,1.290993,-0.580992,0.370175,0.007755,1.179097,-0.337946,-0.238270,1.099653,-0.087063,2.879072,40.380291,-25.027664,-3.277406,0.440763,1.721298,-0.142960,0.000000,0.000000,0.000000,0.000000,0.000000,0.000000
13071526.000000,-2.308246,-1.663387,1.224019,-1.446736,1.711592,1.292107,-0.581067,0.367571,0.006760,1.185862,-0.336277,-0.236801,1.120433,-0.082013,2.950483,40.308880,-25.396622,-3.376589,0.488370,1.858627,-0.196061,0.000000,0.000000,0.000000,0.000000,0.000000,0.000000
13071527.000000,-2.307880,-1.663382,1.225171,-1.447052,1.711369,1.293224,-0.581150,0.366680,0.005653,1.185478,-0.329375,-0.232347,1.112529,-0.081979,2.851301,40.257305,-25.444229,-3.570986,0.440763,2.001449,-0.155778,0.000000,0.000000,0.000000,0.000000,0.000000,0.000000
13071528.000000,-2.307524,-1.663380,1.226357,-1.447379,1.711136,1.294359,-0.581224,0.361753,0.003723,1.183230,-0.325401,-0.227349,1.114774,-0.078258,2.879072,40.257305,-25.567215,-3.570986,0.476469,2.007858,-0.208878,0.000000,0.000000,0.000000,0.000000,0.000000,0.000000
13071529.000000,-2.307157,-1.663375,1.227552,-1.447688,1.710911,1.295466,-0.581309,0.370115,0.003005,1.174441,-0.322750,-0.224276,1.110042,-0.083391,2.728315,40.233501,-25.396622,-3.697939,0.398649,2.033492,-0.175919,0.000000,0.000000,0.000000,0.000000,0.000000,0.000000
13071530.000000,-2.306785,-1.663374,1.228687,-1.448017,1.710684,1.296595,-0.581388,0.368828,0.001978,1.167091,-0.321919,-0.223715,1.108169,-0.080661,2.605329,40.233501,-25.126846,-3.523378,0.369352,2.027084,-0.196061,0.000000,0.000000,0.000000,0.000000,0.000000,0.000000
13071531.000000,-2.306410,-1.663370,1.229867,-1.448342,1.710462,1.297737,-0.581469,0.371403,0.001856,1.160691,-0.320640,-0.218911,1.132476,-0.079123,2.454572,40.209698,-24.880875,-3.348818,0.344633,1.916305,-0.202470,0.000000,0.000000,0.000000,0.000000,0.000000,0.000000
13071532.000000,-2.306045,-1.663367,1.231010,-1.448659,1.710237,1.298868,-0.581554,0.370524,0.001223,1.153800,-0.322270,-0.225513,1.133412,-0.079506,2.283979,40.209698,-24.436539,-3.202028,0.374845,1.741439,-0.169511,0.000000,0.000000,0.000000,0.000000,0.000000,0.000000
13071533.000000,-2.305681,-1.663364,1.232170,-1.448974,1.710009,1.300002,-0.581637,0.368875,0.000805,1.159541,-0.318979,-0.223687,1.133103,-0.084463,2.184797,40.209698,-24.436539,-3.079042,0.440763,1.630660,-0.130143,0.000000,0.000000,0.000000,0.000000,0.000000,0.000000
13071534.000000,-2.305319,-1.663359,1.233339,-1.449273,1.709797,1.301117,-0.581710,0.376847,0.001085,1.152688,-0.321179,-0.221207,1.117705,-0.080645,2.085615,40.185894,-24.071548,-3.102846,0.362943,1.630660,-0.163102,0.000000,0.000000,0.000000,0.000000,0.000000,0.000000
13071535.000000,-2.304963,-1.663359,1.234482,-1.449569,1.709567,1.302247,-0.581786,0.369267,-0.000396,1.152889,-0.312873,-0.226071,1.101567,-0.079083,2.109418,40.233501,-24.095352,-3.225832,0.452665,1.656295,-0.169511,0.000000,0.000000,0.000000,0.000000,0.000000,0.000000
13071536.000000,-2.304599,-1.663356,1.235639,-1.449862,1.709344,1.303384,-0.581863,0.366436,-0.000269,1.151625,-0.303868,-0.225280,1.117828,-0.077920,2.010236,40.233501,-23.948563,-3.348818,0.446256,1.747848,-0.175919,0.000000,0.000000,0.000000,0.000000,0.000000,0.000000
13071537.000000,-2.304243,-1.663353,1.236826,-1.450145,1.709131,1.304499,-0.581936,0.356403,0.000374,1.153553,-0.298129,-0.218934,1.108494,-0.076051,1.887250,40.209698,-23.948563,-3.570986,0.398649,1.884261,-0.208878,0.000000,0.000000,0.000000,0.000000,0.000000,0.000000
13071538.000000,-2.303872,-1.663341,1.237968,-1.450444,1.708920,1.305637,-0.582021,0.361333,0.003681,1.151944,-0.297334,-0.220065,1.107347,-0.078928,1.613508,40.062908,-24.071548,-3.523378,0.374845,1.942855,-0.130143,0.000000,0.000000,0.000000,0.000000,0.000000,0.000000
13071539.000000,-2.303497,-1.663338,1.239140,-1.450729,1.708719,1.306767,-0.582087,0.364722,0.002452,1.149194,-0.290742,-0.218778,1.129086,-0.075040,1.343732,40.062908,-23.972366,-3.598757,0.303434,1.871444,-0.202470,0.000000,0.000000,0.000000,0.000000,0.000000,0.000000
13071540.000000,-2.303132,-1.663328,1.240265,-1.451021,1.708505,1.307900,-0.582164,0.367913,0.003953,1.146812,-0.292451,-0.217707,1.117913,-0.079850,1.121564,39.963726,-23.896988,-3.523378,0.339139,1.865035,-0.188737,0.000000,0.000000,0.000000,0.000000,0.000000,0.000000
13071541.000000,-2.302752,-1.663312,1.241400,-1.451312,1.708285,1.309032,-0.582232,0.368551,0.006068,1.144030,-0.288453,-0.211749,1.110592,-0.073555,0.724836,39.816936,-23.651016,-3.499574,0.362943,1.916305,-0.202470,0.000000,0.000000,0.000000,0.000000,0.000000,0.000000
13071542.000000,-2.302379,-1.663297,1.242563,-1.451588,1.708074,1.310152,-0.582311,0.365182,0.009962,1.135737,-0.284300,-0.210284,1.113473,-0.070750,0.375715,39.693951,-23.432816,-3.547182,0.344633,1.890670,-0.163102,0.000000,0.000000,0.000000,0.000000,0.000000,0.000000
13071543.000000,-2.302000,-1.663282,1.243683,-1.451869,1.707864,1.311296,-0.582378,0.367717,0.012292,1.135435,-0.281020,-0.206720,1.114175,-0.067431,0.054365,39.598736,-23.286026,-3.598757,0.393156,1.793624,-0.155778,0.000000,0.000000,0.000000,0.000000,0.000000,0.000000
13071544.000000,-2.301627,-1.663269,1.244847,-1.452145,1.707660,1.312428,-0.582442,0.366853,0.012998,1.138224,-0.278433,-0.200077,1.135425,-0.067166,-0.144000,39.547161,-23.210648,-3.670168,0.344633,1.793624,-0.208878,0.000000,0.000000,0.000000,0.000000,0.000000,0.000000
13071545.000000,-2.301260,-1.663253,1.245969,-1.452409,1.707467,1.313551,-0.582519,0.365939,0.011495,1.160820,-0.273720,-0.196086,1.130873,-0.066361,-0.290789,39.451946,-23.234451,-3.721742,0.308927,1.721298,-0.163102,0.000000,0.000000,0.000000,0.000000,0.000000,0.000000
13071546.000000,-2.300891,-1.663242,1.247134,-1.452670,1.707261,1.314674,-0.582583,0.365727,0.008672,1.165368,-0.267473,-0.198844,1.117161,-0.067057,-0.465350,39.428143,-23.456619,-3.868532,0.303434,1.727706,-0.202470,0.000000,0.000000,0.000000,0.000000,0.000000,0.000000
13071547.000000,-2.300534,-1.663229,1.248333,-1.452925,1.707057,1.315777,-0.582656,0.363203,0.010473,1.166533,-0.262116,-0.194632,1.104657,-0.069853,-0.540728,39.376568,-23.849380,-3.943910,0.249418,1.806442,-0.182328,0.000000,0.000000,0.000000,0.000000,0.000000,0.000000
13071548.000000,-2.300172,-1.663218,1.249476,-1.453177,1.706855,1.316887,-0.582726,0.361967,0.011225,1.161524,-0.258090,-0.198544,1.088506,-0.066932,-0.635943,39.352764,-24.166763,-4.019289,0.261320,1.942855,-0.169511,0.000000,0.000000,0.000000,0.000000,0.000000,0.000000
13071549.000000,-2.299815,-1.663218,1.250655,-1.453429,1.706654,1.318007,-0.582796,0.359121,0.004701,1.155276,-0.256513,-0.201966,1.105383,-0.069915,-0.663714,39.499554,-24.341324,-4.166078,0.291532,2.001449,-0.142960,0.000000,0.000000,0.000000,0.000000,0.000000,0.000000
13071550.000000,-2.299466,-1.663210,1.251808,-1.453683,1.706458,1.319116,-0.582863,0.353984,0.006355,1.155498,-0.255979,-0.199503,1.097717,-0.070925,-0.663714,39.523357,-24.488113,-4.166078,0.308927,2.014266,-0.149369,0.000000,0.000000,0.000000,0.000000,0.000000,0.000000
13071551.000000,-2.299115,-1.663201,1.252944,-1.453922,1.706268,1.320232,-0.582924,0.351303,0.004877,1.153433,-0.249173,-0.196083,1.095675,-0.071289,-0.735125,39.523357,-24.535721,-4.265260,0.285123,2.053634,-0.169511,0.000000,0.000000,0.000000,0.000000,0.000000,0.000000
13071552.000000,-2.298758,-1.663193,1.254099,-1.454168,1.706071,1.321335,-0.582991,0.355972,0.006872,1.139987,-0.253123,-0.197396,1.109191,-0.067782,-0.810504,39.523357,-24.289749,-4.213686,0.249418,2.020675,-0.163102,0.000000,0.000000,0.000000,0.000000,0.000000,0.000000
13071553.000000,-2.298408,-1.663186,1.255211,-1.454415,1.705867,1.322451,-0.583050,0.351730,0.007930,1.134927,-0.249673,-0.201101,1.103560,-0.063475,-0.834307,39.547161,-23.996170,-4.213686,0.273221,1.974899,-0.202470,0.000000,0.000000,0.000000,0.000000,0.000000,0.000000
13071554.000000,-2.298055,-1.663184,1.256342,-1.454661,1.705663,1.323578,-0.583118,0.353503,0.006874,1.132096,-0.247294,-0.198816,1.106223,-0.063544,-0.909686,39.646343,-23.651016,-4.189882,0.297025,1.981307,-0.155778,0.000000,0.000000,0.000000,0.000000,0.000000,0.000000
13071555.000000,-2.297717,-1.663169,1.257501,-1.454907,1.705463,1.324677,-0.583179,0.352344,0.007072,1.123970,-0.247416,-0.200383,1.103015,-0.060022,-0.885882,39.574932,-23.381241,-4.090700,0.279630,2.001449,-0.202470,0.000000,0.000000,0.000000,0.000000,0.000000,0.000000
13071556.000000,-2.297375,-1.663158,1.258626,-1.455153,1.705278,1.325801,-0.583244,0.350358,0.009702,1.128816,-0.244282,-0.200001,1.105626,-0.061027,-0.933489,39.523357,-23.286026,-4.118471,0.225614,1.949264,-0.155778,0.000000,0.000000,0.000000,0.000000,0.000000,0.000000
13071557.000000,-2.297047,-1.663143,1.259774,-1.455401,1.705081,1.326914,-0.583304,0.343106,0.009420,1.123431,-0.244108,-0.192609,1.126145,-0.057965,-0.711321,39.428143,-23.063858,-4.066896,0.237516,1.786300,-0.202470,0.000000,0.000000,0.000000,0.000000,0.000000,0.000000
13071558.000000,-2.296724,-1.663128,1.260890,-1.455632,1.704895,1.328042,-0.583369,0.336175,0.011694,1.125066,-0.238136,-0.191839,1.114508,-0.059124,-0.564532,39.352764,-23.087662,-4.118471,0.237516,1.656295,-0.155778,0.000000,0.000000,0.000000,0.000000,0.000000,0.000000
13071559.000000,-2.296399,-1.663115,1.262036,-1.455873,1.704699,1.329160,-0.583433,0.331466,0.012754,1.128386,-0.240423,-0.191087,1.100328,-0.059336,-0.389971,39.305157,-23.135269,-4.142274,0.231107,1.662704,-0.130143,0.000000,0.000000,0.000000,0.000000,0.000000,0.000000
13071560.000000,-2.296089,-1.663093,1.263208,-1.456113,1.704509,1.330263,-0.583484,0.322796,0.016512,1.132095,-0.241274,-0.190649,1.095843,-0.055728,-0.167803,39.130596,-23.234451,-4.090700,0.231107,1.735030,-0.202470,0.000000,0.000000,0.000000,0.000000,0.000000,0.000000
13071561.000000,-2.295778,-1.663079,1.264317,-1.456347,1.704318,1.331383,-0.583549,0.319660,0.016682,1.134297,-0.236617,-0.187836,1.088364,-0.058292,0.006757,39.059185,-23.186844,-4.118471,0.291532,1.721298,-0.142960,0.000000,0.000000,0.000000,0.000000,0.000000,0.000000
13071562.000000,-2.295461,-1.663067,1.265445,-1.456589,1.704131,1.332501,-0.583600,0.316371,0.015722,1.128051,-0.239609,-0.187877,1.114671,-0.055432,0.129743,39.035381,-23.111465,-4.019289,0.297025,1.741439,-0.202470,0.000000,0.000000,0.000000,0.000000,0.000000,0.000000
13071563.000000,-2.295154,-1.663048,1.266567,-1.456822,1.703948,1.333609,-0.583661,0.313903,0.018028,1.147758,-0.233556,-0.187966,1.108171,-0.056993,0.276533,38.888592,-23.087662,-3.991518,0.315336,1.747848,-0.169511,0.000000,0.000000,0.000000,0.000000,0.000000,0.000000
13071564.000000,-2.294843,-1.663029,1.267689,-1.457062,1.703775,1.334721,-0.583718,0.315639,0.019021,1.142333,-0.233421,-0.185361,1.104032,-0.056603,0.351911,38.765606,-22.865494,-3.892336,0.243009,1.760665,-0.175919,0.000000,0.000000,0.000000,0.000000,0.000000,0.000000
13071565.000000,-2.294542,-1.663010,1.268834,-1.457291,1.703593,1.335831,-0.583775,0.312887,0.020245,1.128894,-0.233423,-0.190038,1.102389,-0.055588,0.427289,38.618816,-22.671097,-3.797121,0.213712,1.735030,-0.202470,0.000000,0.000000,0.000000,0.000000,0.000000,0.000000
13071566.000000,-2.294241,-1.662991,1.269933,-1.457531,1.703406,1.336959,-0.583834,0.309533,0.020542,1.125241,-0.234605,-0.190182,1.103938,-0.051178,0.474897,38.495831,-22.448929,-3.646364,0.213712,1.630660,-0.202470,0.000000,0.000000,0.000000,0.000000,0.000000,0.000000
13071567.000000,-2.293943,-1.662973,1.271065,-1.457764,1.703222,1.338098,-0.583896,0.307499,0.020079,1.127769,-0.233961,-0.188967,1.131306,-0.054004,0.649457,38.396648,-22.472733,-3.547182,0.195402,1.519881,-0.163102,0.000000,0.000000,0.000000,0.000000,0.000000,0.000000
13071568.000000,-2.293655,-1.662954,1.272209,-1.457996,1.703037,1.339206,-0.583957,0.302315,0.017186,1.129126,-0.234761,-0.185845,1.114961,-0.055524,0.847822,38.277630,-22.595718,-3.400392,0.237516,1.454879,-0.136552,0.000000,0.000000,0.000000,0.000000,0.000000,0.000000
13071569.000000,-2.293367,-1.662935,1.273352,-1.458227,1.702856,1.340329,-0.584010,0.295289,0.017593,1.135755,-0.233451,-0.182834,1.109288,-0.054217,1.022382,38.178448,-22.841690,-3.325014,0.261320,1.461288,-0.175919,0.000000,0.000000,0.000000,0.000000,0.000000,0.000000
13071570.000000,-2.293082,-1.662918,1.274531,-1.458463,1.702673,1.341429,-0.584066,0.289704,0.018008,1.140537,-0.237607,-0.180843,1.113504,-0.054345,1.244550,38.079266,-23.210648,-3.249635,0.303434,1.584884,-0.188737,0.000000,0.000000,0.000000,0.000000,0.000000,0.000000
13071571.000000,-2.292811,-1.662902,1.275656,-1.458687,1.702500,1.342542,-0.584124,0.281046,0.013999,1.139498,-0.231224,-0.178008,1.103181,-0.054863,1.514325,38.031658,-23.555801,-3.249635,0.297025,1.747848,-0.182328,0.000000,0.000000,0.000000,0.000000,0.000000,0.000000
13071572.000000,-2.292537,-1.662889,1.276798,-1.458915,1.702318,1.343657,-0.584185,0.279155,0.011107,1.137352,-0.228475,-0.180468,1.090218,-0.057155,1.712690,37.984051,-23.702591,-3.154421,0.285123,1.923629,-0.130143,0.000000,0.000000,0.000000,0.000000,0.000000,0.000000
13071573.000000,-2.292260,-1.662870,1.277970,-1.459140,1.702136,1.344762,-0.584230,0.280334,0.013380,1.140676,-0.225683,-0.182185,1.084564,-0.054131,1.835676,37.884869,-23.825577,-3.102846,0.279630,2.027084,-0.202470,0.000000,0.000000,0.000000,0.000000,0.000000,0.000000
13071574.000000,-2.291978,-1.662849,1.279091,-1.459371,1.701964,1.345881,-0.584287,0.279291,0.015485,1.142562,-0.224807,-0.178237,1.085195,-0.056334,1.887250,37.761883,-23.896988,-2.979860,0.249418,2.033492,-0.163102,0.000000,0.000000,0.000000,0.000000,0.000000,0.000000
13071575.000000,-2.291694,-1.662831,1.280239,-1.459612,1.701787,1.347003,-0.584343,0.279961,0.016407,1.130654,-0.227397,-0.180492,1.107729,-0.056325,1.863447,37.662701,-23.750198,-2.733888,0.249418,1.974899,-0.163102,0.000000,0.000000,0.000000,0.000000,0.000000,0.000000
13071576.000000,-2.291416,-1.662814,1.281340,-1.459846,1.701610,1.348111,-0.584393,0.278017,0.016511,1.125545,-0.228961,-0.181275,1.105916,-0.051215,1.811872,37.591290,-23.528030,-2.483949,0.339139,1.877853,-0.169511,0.000000,0.000000,0.000000,0.000000,0.000000,0.000000
13071577.000000,-2.291139,-1.662800,1.282465,-1.460089,1.701434,1.349225,-0.584447,0.275531,0.015593,1.125500,-0.233196,-0.180768,1.105825,-0.047585,1.764264,37.567486,-23.286026,-2.214174,0.405057,1.812850,-0.175919,0.000000,0.000000,0.000000,0.000000,0.000000,0.000000
13071578.000000,-2.290871,-1.662778,1.283614,-1.460323,1.701273,1.350320,-0.584494,0.275755,0.019953,1.122578,-0.231113,-0.175587,1.100754,-0.043850,1.788068,37.468304,-23.063858,-2.039613,0.351041,1.838485,-0.208878,0.000000,0.000000,0.000000,0.000000,0.000000,0.000000
13071579.000000,-2.290608,-1.662765,1.284731,-1.460551,1.701105,1.351424,-0.584551,0.272398,0.017680,1.125362,-0.227148,-0.177454,1.090240,-0.048868,1.962629,37.468304,-23.040054,-1.964235,0.320829,1.865035,-0.163102,0.000000,0.000000,0.000000,0.000000,0.000000,0.000000
13071580.000000,-2.290343,-1.662755,1.285874,-1.460767,1.700935,1.352563,-0.584599,0.271607,0.015001,1.123835,-0.224465,-0.178218,1.114823,-0.048973,2.109418,37.515911,-22.841690,-2.015810,0.279630,1.670028,-0.208878,0.000000,0.000000,0.000000,0.000000,0.000000,0.000000
13071581.000000,-2.290080,-1.662740,1.287006,-1.460985,1.700767,1.353667,-0.584655,0.269139,0.014740,1.147116,-0.224306,-0.175573,1.105977,-0.053115,2.184797,37.492107,-22.940872,-2.015810,0.279630,1.584884,-0.149369,0.000000,0.000000,0.000000,0.000000,0.000000,0.000000
13071582.000000,-2.289819,-1.662731,1.288134,-1.461197,1.700603,1.354769,-0.584696,0.266806,0.013548,1.149288,-0.215896,-0.174258,1.097054,-0.046700,2.260175,37.515911,-23.040054,-2.091188,0.279630,1.735030,-0.215287,0.000000,0.000000,0.000000,0.000000,0.000000,0.000000
13071583.000000,-2.289558,-1.662721,1.289292,-1.461409,1.700438,1.355863,-0.584745,0.272245,0.012723,1.145457,-0.218192,-0.173494,1.088712,-0.049432,2.232404,37.539715,-23.087662,-2.039613,0.291532,1.806442,-0.208878,0.000000,0.000000,0.000000,0.000000,0.000000,0.000000
13071584.000000,-2.289301,-1.662710,1.290399,-1.461620,1.700268,1.356982,-0.584793,0.266770,0.012852,1.139534,-0.216839,-0.172558,1.088743,-0.046728,2.260175,37.539715,-23.111465,-2.039613,0.416959,1.714889,-0.202470,0.000000,0.000000,0.000000,0.000000,0.000000,0.000000
13071585.000000,-2.289036,-1.662701,1.291528,-1.461831,1.700107,1.358114,-0.584849,0.266800,0.012822,1.129826,-0.215147,-0.167405,1.116460,-0.051593,2.232404,37.539715,-23.111465,-2.063417,0.440763,1.578475,-0.136552,0.000000,0.000000,0.000000,0.000000,0.000000,0.000000
13071586.000000,-2.288763,-1.662694,1.292660,-1.462039,1.699956,1.359214,-0.584895,0.271055,0.011046,1.125922,-0.213836,-0.161073,1.110807,-0.047400,2.061811,37.615093,-23.040054,-1.964235,0.381254,1.559249,-0.149369,0.000000,0.000000,0.000000,0.000000,0.000000,0.000000
13071587.000000,-2.288495,-1.662684,1.293768,-1.462241,1.699797,1.360319,-0.584936,0.268554,0.008439,1.127166,-0.208009,-0.162650,1.105835,-0.042453,1.934858,37.615093,-22.893265,-1.916628,0.362943,1.670028,-0.215287,0.000000,0.000000,0.000000,0.000000,0.000000,0.000000
13071588.000000,-2.288231,-1.662679,1.294887,-1.462439,1.699630,1.361412,-0.584986,0.266313,0.007892,1.111162,-0.202924,-0.159846,1.123621,-0.047671,1.863447,37.686504,-22.500504,-1.916628,0.374845,1.682845,-0.169511,0.000000,0.000000,0.000000,0.000000,0.000000,0.000000
13071589.000000,-2.287965,-1.662669,1.295978,-1.462636,1.699477,1.362524,-0.585031,0.269972,0.009302,1.108798,-0.199022,-0.156944,1.107188,-0.049063,1.665082,37.686504,-22.278336,-1.916628,0.356534,1.714889,-0.182328,0.000000,0.000000,0.000000,0.000000,0.000000,0.000000
13071590.000000,-2.287705,-1.662653,1.297094,-1.462823,1.699332,1.363633,-0.585081,0.267107,0.008786,1.113055,-0.194254,-0.149015,1.096139,-0.046939,1.565900,37.615093,-22.179153,-1.992006,0.308927,1.786300,-0.163102,0.000000,0.000000,0.000000,0.000000,0.000000,0.000000
13071591.000000,-2.287444,-1.662635,1.298254,-1.463006,1.699184,1.364742,-0.585120,0.265001,0.012145,1.118149,-0.187977,-0.148340,1.093972,-0.042634,1.466718,37.515911,-22.425125,-2.063417,0.273221,1.708480,-0.215287,0.000000,0.000000,0.000000,0.000000,0.000000,0.000000
13071592.000000,-2.287179,-1.662622,1.299376,-1.463189,1.699043,1.365863,-0.585170,0.263391,0.013155,1.126013,-0.186987,-0.148353,1.089619,-0.043736,1.367536,37.468304,-22.718704,-2.114992,0.249418,1.630660,-0.155778,0.000000,0.000000,0.000000,0.000000,0.000000,0.000000
13071593.000000,-2.286920,-1.662612,1.300536,-1.463374,1.698896,1.366981,-0.585213,0.260421,0.009623,1.132119,-0.185873,-0.150140,1.113827,-0.040987,1.268354,37.468304,-23.016251,-2.190370,0.279630,1.597701,-0.188737,0.000000,0.000000,0.000000,0.000000,0.000000,0.000000
13071594.000000,-2.286665,-1.662599,1.301658,-1.463552,1.698742,1.368071,-0.585261,0.259521,0.011263,1.132091,-0.183212,-0.153694,1.105216,-0.041461,1.192975,37.420696,-23.432816,-2.214174,0.369352,1.637069,-0.149369,0.000000,0.000000,0.000000,0.000000,0.000000,0.000000
13071595.000000,-2.286408,-1.662591,1.302807,-1.463725,1.698598,1.369162,-0.585300,0.258557,0.010183,1.135923,-0.176502,-0.156437,1.091672,-0.039868,1.093793,37.468304,-23.774002,-2.285585,0.339139,1.800033,-0.163102,0.000000,0.000000,0.000000,0.000000,0.000000,0.000000
13071596.000000,-2.286160,-1.662587,1.303964,-1.463881,1.698448,1.370249,-0.585336,0.254918,0.004719,1.132506,-0.168924,-0.155689,1.090504,-0.037292,1.022382,37.591290,-23.873184,-2.483949,0.356534,1.844894,-0.215287,0.000000,0.000000,0.000000,0.000000,0.000000,0.000000
13071597.000000,-2.285908,-1.662580,1.305067,-1.464043,1.698299,1.371346,-0.585385,0.258382,0.002638,1.126569,-0.169009,-0.155059,1.087873,-0.040446,0.947004,37.638897,-23.920792,-2.583132,0.369352,1.838485,-0.136552,0.000000,0.000000,0.000000,0.000000,0.000000,0.000000
13071598.000000,-2.285648,-1.662578,1.306188,-1.464201,1.698160,1.372445,-0.585416,0.258534,0.003607,1.119409,-0.163507,-0.147887,1.105419,-0.036878,0.847822,37.714275,-23.801773,-2.781496,0.339139,1.844894,-0.208878,0.000000,0.000000,0.000000,0.000000,0.000000,0.000000
13071599.000000,-2.285388,-1.662579,1.307294,-1.464364,1.698018,1.373518,-0.585452,0.261150,-0.000425,1.139120,-0.164764,-0.144480,1.092088,-0.036469,0.649457,37.861065,-23.579605,-2.757692,0.351041,1.877853,-0.229020,0.000000,0.000000,0.000000,0.000000,0.000000,0.000000
13071600.000000,-2.285135,-1.662576,1.308411,-1.464523,1.697878,1.374609,-0.585493,0.257192,0.001000,1.131437,-0.160770,-0.140571,1.075300,-0.037893,0.526471,37.956280,-23.286026,-2.781496,0.327238,1.962081,-0.202470,0.000000,0.000000,0.000000,0.000000,0.000000,0.000000
13071601.000000,-2.284876,-1.662581,1.309546,-1.464687,1.697742,1.375703,-0.585532,0.257946,0.000448,1.120833,-0.167487,-0.137261,1.091099,-0.037821,0.328107,38.130840,-22.988480,-2.634706,0.297025,1.858627,-0.202470,0.000000,0.000000,0.000000,0.000000,0.000000,0.000000
13071602.000000,-2.284625,-1.662581,1.310656,-1.464835,1.697605,1.376838,-0.585568,0.254723,-0.001211,1.120302,-0.162104,-0.135403,1.093403,-0.037328,0.228925,38.226055,-23.016251,-2.682314,0.273221,1.565658,-0.215287,0.000000,0.000000,0.000000,0.000000,0.000000,0.000000
13071603.000000,-2.284383,-1.662571,1.311771,-1.464981,1.697474,1.377964,-0.585610,0.250711,0.000845,1.120683,-0.156807,-0.131841,1.111947,-0.038401,0.205121,38.178448,-22.865494,-2.781496,0.195402,1.377059,-0.188737,0.000000,0.000000,0.000000,0.000000,0.000000,0.000000
13071604.000000,-2.284142,-1.662572,1.312925,-1.465119,1.697325,1.379064,-0.585650,0.247286,-0.000703,1.120436,-0.149418,-0.133548,1.107113,-0.038874,0.205121,38.249859,-22.940872,-2.904482,0.231107,1.324874,-0.169511,0.000000,0.000000,0.000000,0.000000,0.000000,0.000000
13071605.000000,-2.283902,-1.662566,1.314026,-1.465244,1.697176,1.380156,-0.585682,0.247265,-0.000166,1.117334,-0.140880,-0.140388,1.094276,-0.032816,0.252729,38.249859,-22.917068,-3.154421,0.297025,1.513473,-0.196061,0.000000,0.000000,0.000000,0.000000,0.000000,0.000000
13071606.000000,-2.283664,-1.662562,1.315173,-1.465376,1.697031,1.381249,-0.585723,0.244715,0.000117,1.120176,-0.136266,-0.139774,1.105957,-0.035191,0.276533,38.249859,-22.964676,-3.225832,0.344633,1.741439,-0.163102,0.000000,0.000000,0.000000,0.000000,0.000000,0.000000
13071607.000000,-2.283426,-1.662565,1.316262,-1.465491,1.696897,1.382344,-0.585757,0.244290,-0.000401,1.116548,-0.126377,-0.137288,1.097869,-0.038627,0.228925,38.277630,-22.940872,-3.424196,0.332731,1.825668,-0.202470,0.000000,0.000000,0.000000,0.000000,0.000000,0.000000
13071608.000000,-2.283190,-1.662556,1.317389,-1.465607,1.696765,1.383457,-0.585797,0.239820,0.002737,1.118728,-0.125828,-0.138607,1.097180,-0.040123,0.205121,38.154644,-23.111465,-3.598757,0.279630,1.793624,-0.155778,0.000000,0.000000,0.000000,0.000000,0.000000,0.000000
13071609.000000,-2.282953,-1.662557,1.318533,-1.465734,1.696630,1.384563,-0.585825,0.243098,0.001921,1.118621,-0.127182,-0.135852,1.093836,-0.032751,0.054365,38.154644,-23.087662,-3.570986,0.243009,1.727706,-0.208878,0.000000,0.000000,0.000000,0.000000,0.000000,0.000000
13071610.000000,-2.282709,-1.662551,1.319612,-1.465864,1.696497,1.385667,-0.585868,0.244359,0.003116,1.108905,-0.126358,-0.134075,1.079477,-0.036045,-0.191607,38.079266,-22.917068,-3.475771,0.213712,1.767074,-0.155778,0.000000,0.000000,0.000000,0.000000,0.000000,0.000000
13071611.000000,-2.282461,-1.662551,1.320716,-1.465989,1.696365,1.386774,-0.585902,0.246732,0.002131,1.099284,-0.128073,-0.138643,1.093753,-0.031381,-0.389971,38.079266,-22.694901,-3.400392,0.225614,1.825668,-0.163102,0.000000,0.000000,0.000000,0.000000,0.000000,0.000000
13071612.000000,-2.282217,-1.662550,1.321809,-1.466107,1.696229,1.387877,-0.585932,0.246920,0.002018,1.120128,-0.125550,-0.137788,1.089557,-0.031417,-0.612139,38.055462,-22.524307,-3.348818,0.243009,1.767074,-0.202470,0.000000,0.000000,0.000000,0.000000,0.000000,0.000000
13071613.000000,-2.281971,-1.662544,1.322931,-1.466221,1.696093,1.388997,-0.585971,0.245526,0.002489,1.117098,-0.120824,-0.141020,1.093374,-0.030128,-0.834307,38.007854,-22.623489,-3.400392,0.237516,1.676437,-0.155778,0.000000,0.000000,0.000000,0.000000,0.000000,0.000000
13071614.000000,-2.281741,-1.662537,1.324078,-1.466320,1.695960,1.390091,-0.585999,0.242153,0.004559,1.115473,-0.111833,-0.136969,1.103951,-0.025455,-0.933489,37.884869,-22.671097,-3.570986,0.183500,1.662704,-0.202470,0.000000,0.000000,0.000000,0.000000,0.000000,0.000000
13071615.000000,-2.281506,-1.662536,1.325192,-1.466419,1.695827,1.391199,-0.586037,0.236781,0.003613,1.123304,-0.111507,-0.132717,1.093006,-0.025313,-1.032672,37.861065,-22.940872,-3.745546,0.219205,1.643478,-0.163102,0.000000,0.000000,0.000000,0.000000,0.000000,0.000000
13071616.000000,-2.281272,-1.662534,1.326329,-1.466519,1.695697,1.392303,-0.586065,0.236226,0.002422,1.122543,-0.105284,-0.128813,1.112475,-0.026559,-1.159625,37.861065,-23.286026,-3.920107,0.255826,1.662704,-0.208878,0.000000,0.000000,0.000000,0.000000,0.000000,0.000000
13071617.000000,-2.281051,-1.662533,1.327478,-1.466620,1.695570,1.393374,-0.586102,0.231356,0.001624,1.129237,-0.102512,-0.125460,1.104305,-0.026666,-1.207232,37.861065,-23.750198,-4.019289,0.273221,1.851302,-0.155778,0.000000,0.000000,0.000000,0.000000,0.000000,0.000000
13071618.000000,-2.280824,-1.662536,1.328611,-1.466722,1.695446,1.394453,-0.586131,0.231036,-0.000024,1.130779,-0.102393,-0.126868,1.094869,-0.028334,-1.282611,37.908672,-24.119156,-4.019289,0.267728,2.027084,-0.182328,0.000000,0.000000,0.000000,0.000000,0.000000,0.000000
13071619.000000,-2.280598,-1.662545,1.329769,-1.466818,1.695323,1.395552,-0.586169,0.228017,-0.002887,1.129726,-0.104386,-0.127339,1.103310,-0.032032,-1.354022,38.031658,-24.341324,-4.043092,0.249418,1.988631,-0.142960,0.000000,0.000000,0.000000,0.000000,0.000000,0.000000
13071620.000000,-2.280363,-1.662547,1.330872,-1.466913,1.695208,1.396643,-0.586195,0.231813,-0.002478,1.123689,-0.100068,-0.121827,1.091370,-0.031794,-1.528582,38.055462,-24.365128,-4.066896,0.195402,1.897079,-0.182328,0.000000,0.000000,0.000000,0.000000,0.000000,0.000000
13071621.000000,-2.280135,-1.662552,1.332002,-1.467012,1.695091,1.397741,-0.586229,0.230168,-0.003412,1.122835,-0.102189,-0.117391,1.082839,-0.034029,-1.679339,38.130840,-24.436539,-3.991518,0.135892,1.871444,-0.163102,0.000000,0.000000,0.000000,0.000000,0.000000,0.000000
13071622.000000,-2.279909,-1.662559,1.333133,-1.467106,1.694965,1.398820,-0.586255,0.231398,-0.004500,1.118648,-0.099817,-0.120925,1.077318,-0.029009,-1.802325,38.226055,-24.095352,-3.943910,0.123990,1.916305,-0.196061,0.000000,0.000000,0.000000,0.000000,0.000000,0.000000
13071623.000000,-2.279684,-1.662571,1.334222,-1.467200,1.694828,1.399905,-0.586285,0.229449,-0.006432,1.111754,-0.097104,-0.122650,1.068107,-0.026534,-1.949114,38.372845,-23.896988,-3.920107,0.219205,1.962081,-0.196061,0.000000,0.000000,0.000000,0.000000,0.000000,0.000000
13071624.000000,-2.279464,-1.662580,1.335342,-1.467289,1.694696,1.400995,-0.586320,0.227021,-0.007163,1.098695,-0.096634,-0.127097,1.083074,-0.025572,-2.024493,38.495831,-23.480423,-3.967714,0.285123,2.007858,-0.169511,0.000000,0.000000,0.000000,0.000000,0.000000,0.000000
13071625.000000,-2.279254,-1.662586,1.336439,-1.467383,1.694577,1.402080,-0.586341,0.224559,-0.006538,1.107023,-0.095044,-0.127117,1.079184,-0.026677,-2.048296,38.571209,-23.409012,-3.943910,0.261320,2.007858,-0.215287,0.000000,0.000000,0.000000,0.000000,0.000000,0.000000
13071626.000000,-2.279041,-1.662591,1.337542,-1.467465,1.694455,1.403191,-0.586376,0.222203,-0.005471,1.100543,-0.087095,-0.123214,1.083430,-0.031753,-2.072100,38.618816,-23.210648,-4.066896,0.249418,1.844894,-0.155778,0.000000,0.000000,0.000000,0.000000,0.000000,0.000000
13071627.000000,-2.278832,-1.662601,1.338687,-1.467549,1.694333,1.404289,-0.586398,0.216576,-0.006524,1.103054,-0.083753,-0.119923,1.076728,-0.027394,-2.072100,38.741802,-23.210648,-4.090700,0.225614,1.682845,-0.182328,0.000000,0.000000,0.000000,0.000000,0.000000,0.000000
13071628.000000,-2.278622,-1.662603,1.339788,-1.467626,1.694215,1.405387,-0.586427,0.213186,-0.008075,1.110324,-0.082670,-0.117037,1.068251,-0.030167,-2.099871,38.765606,-23.286026,-4.189882,0.195402,1.630660,-0.175919,0.000000,0.000000,0.000000,0.000000,0.000000,0.000000
13071629.000000,-2.278415,-1.662610,1.340905,-1.467710,1.694100,1.406477,-0.586450,0.215429,-0.007318,1.109626,-0.081194,-0.114398,1.075736,-0.026882,-2.147479,38.837017,-23.333633,-4.189882,0.147794,1.741439,-0.188737,0.000000,0.000000,0.000000,0.000000,0.000000,0.000000
13071630.000000,-2.278213,-1.662621,1.342019,-1.467789,1.693981,1.407556,-0.586479,0.209131,-0.007953,1.112863,-0.079423,-0.115212,1.072388,-0.030042,-2.171282,38.960003,-23.480423,-4.213686,0.166105,1.779891,-0.175919,0.000000,0.000000,0.000000,0.000000,0.000000,0.000000
13071631.000000,-2.278011,-1.662629,1.343145,-1.467860,1.693868,1.408658,-0.586508,0.206289,-0.010942,1.114853,-0.073062,-0.114108,1.071615,-0.028414,-2.246661,39.059185,-23.603409,-4.312868,0.147794,1.786300,-0.142960,0.000000,0.000000,0.000000,0.000000,0.000000,0.000000
13071632.000000,-2.277814,-1.662635,1.344281,-1.467925,1.693743,1.409747,-0.586527,0.203153,-0.008784,1.109273,-0.070458,-0.115237,1.091107,-0.023964,-2.298235,39.106792,-23.603409,-4.463624,0.178007,1.702071,-0.196061,0.000000,0.000000,0.000000,0.000000,0.000000,0.000000
13071633.000000,-2.277618,-1.662638,1.345366,-1.467994,1.693623,1.410836,-0.586556,0.201400,-0.006138,1.105836,-0.070548,-0.115826,1.077486,-0.028233,-2.345843,39.106792,-23.504227,-4.535036,0.201810,1.754256,-0.175919,0.000000,0.000000,0.000000,0.000000,0.000000,0.000000
13071635.000000,-2.277215,-1.662648,1.347566,-1.468132,1.693372,1.413018,-0.586607,0.201875,-0.007407,1.112303,-0.073069,-0.122383,1.097867,-0.032885,-2.544207,39.158367,-23.135269,-4.562807,0.303434,1.760665,-0.163102,0.000000,0.000000,0.000000,0.000000,0.000000,0.000000
13071636.000000,-2.277014,-1.662648,1.348658,-1.468203,1.693258,1.414116,-0.586626,0.199897,-0.007397,1.107754,-0.074802,-0.115396,1.090371,-0.028589,-2.643389,39.106792,-22.988480,-4.511232,0.315336,1.747848,-0.182328,0.000000,0.000000,0.000000,0.000000,0.000000,0.000000
13071637.000000,-2.276818,-1.662647,1.349795,-1.468275,1.693155,1.415204,-0.586652,0.198992,-0.004936,1.105299,-0.076895,-0.106054,1.105685,-0.027149,-2.742571,39.082989,-23.063858,-4.412050,0.213712,1.656295,-0.155778,0.000000,0.000000,0.000000,0.000000,0.000000,0.000000
13071638.000000,-2.276636,-1.662646,1.350900,-1.468332,1.693044,1.416319,-0.586669,0.194541,-0.002598,1.110344,-0.071424,-0.106802,1.094447,-0.027510,-2.690997,39.035381,-23.381241,-4.487428,0.178007,1.500655,-0.215287,0.000000,0.000000,0.000000,0.000000,0.000000,0.000000
13071639.000000,-2.276444,-1.662642,1.352030,-1.468397,1.692939,1.417422,-0.586695,0.193390,-0.000284,1.112500,-0.070385,-0.111090,1.109260,-0.027214,-2.690997,38.960003,-23.678787,-4.439821,0.117582,1.507064,-0.169511,0.000000,0.000000,0.000000,0.000000,0.000000,0.000000
13071640.000000,-2.276268,-1.662640,1.353194,-1.468450,1.692829,1.418507,-0.586722,0.188836,0.000131,1.117111,-0.063746,-0.107128,1.096446,-0.031211,-2.520403,38.936199,-24.095352,-4.511232,0.112089,1.584884,-0.130143,0.000000,0.000000,0.000000,0.000000,0.000000,0.000000
13071641.000000,-2.276091,-1.662640,1.354304,-1.468507,1.692720,1.419584,-0.586737,0.186263,-0.000090,1.120536,-0.062954,-0.110786,1.077442,-0.020339,-2.397418,38.936199,-24.388931,-4.535036,0.159696,1.871444,-0.208878,0.000000,0.000000,0.000000,0.000000,0.000000,0.000000
13071642.000000,-2.275919,-1.662644,1.355453,-1.468561,1.692605,1.420664,-0.586765,0.180023,-0.000750,1.120509,-0.061676,-0.113362,1.088599,-0.022720,-2.222857,38.960003,-24.682510,-4.586610,0.219205,2.118636,-0.136552,0.000000,0.000000,0.000000,0.000000,0.000000,0.000000
13071643.000000,-2.275744,-1.662643,1.356551,-1.468611,1.692495,1.421751,-0.586783,0.177881,-0.000043,1.118687,-0.057687,-0.113404,1.083144,-0.019804,-2.123675,38.936199,-24.805496,-4.634218,0.225614,2.137862,-0.182328,0.000000,0.000000,0.000000,0.000000,0.000000,0.000000
13071644.000000,-2.275565,-1.662649,1.357671,-1.468666,1.692383,1.422859,-0.586805,0.177611,-0.001217,1.120116,-0.057131,-0.112926,1.088664,-0.020116,-2.123675,38.983807,-24.904678,-4.586610,0.213712,2.047225,-0.169511,0.000000,0.000000,0.000000,0.000000,0.000000,0.000000
13071645.000000,-2.275392,-1.662641,1.358808,-1.468726,1.692276,1.423942,-0.586822,0.175585,0.001916,1.115154,-0.058428,-0.106837,1.081127,-0.019060,-2.147479,38.864788,-24.829300,-4.463624,0.171598,2.007858,-0.188737,0.000000,0.000000,0.000000,0.000000,0.000000,0.000000
13071646.000000,-2.275211,-1.662647,1.359899,-1.468793,1.692165,1.425034,-0.586844,0.177120,-0.000435,1.109174,-0.062071,-0.109972,1.067703,-0.019743,-2.322039,38.936199,-24.682510,-4.213686,0.207303,1.968490,-0.169511,0.000000,0.000000,0.000000,0.000000,0.000000,0.000000
13071647.000000,-2.275039,-1.662649,1.361000,-1.468859,1.692056,1.426128,-0.586867,0.174615,-0.000322,1.105167,-0.063107,-0.106749,1.080233,-0.020658,-2.369647,38.936199,-24.365128,-4.019289,0.231107,1.974899,-0.136552,0.000000,0.000000,0.000000,0.000000,0.000000,0.000000
13071648.000000,-2.274877,-1.662651,1.362094,-1.468917,1.691951,1.427206,-0.586879,0.170142,-0.000795,1.123300,-0.061423,-0.107473,1.072001,-0.017617,-2.298235,38.960003,-24.142960,-3.920107,0.225614,2.001449,-0.202470,0.000000,0.000000,0.000000,0.000000,0.000000,0.000000
13071649.000000,-2.274721,-1.662652,1.363219,-1.468971,1.691846,1.428298,-0.586899,0.165900,0.000009,1.121629,-0.057741,-0.107691,1.066390,-0.018521,-2.199053,38.936199,-24.190567,-3.920107,0.189908,2.001449,-0.188737,0.000000,0.000000,0.000000,0.000000,0.000000,0.000000
13071650.000000,-2.274573,-1.662656,1.364352,-1.469019,1.691747,1.429382,-0.586913,0.162047,-0.000564,1.118078,-0.054274,-0.106695,1.086579,-0.017814,-2.024493,38.960003,-24.043777,-3.967714,0.123990,1.936446,-0.208878,0.000000,0.000000,0.000000,0.000000,0.000000,0.000000
13071651.000000,-2.274428,-1.662656,1.365455,-1.469060,1.691643,1.430487,-0.586936,0.156359,0.000171,1.119690,-0.050017,-0.103582,1.083289,-0.020813,-1.873736,38.936199,-24.190567,-4.090700,0.112089,1.832076,-0.136552,0.000000,0.000000,0.000000,0.000000,0.000000,0.000000
13071652.000000,-2.274286,-1.662657,1.366571,-1.469106,1.691532,1.431586,-0.586946,0.151486,-0.002499,1.116329,-0.046949,-0.107744,1.101140,-0.017750,-1.703143,38.912395,-24.218338,-4.090700,0.159696,1.786300,-0.202470,0.000000,0.000000,0.000000,0.000000,0.000000,0.000000
13071653.000000,-2.274139,-1.662656,1.367700,-1.469149,1.691429,1.432652,-0.586972,0.149840,-0.001378,1.117909,-0.044653,-0.108205,1.086622,-0.020346,-1.603961,38.888592,-24.365128,-4.090700,0.135892,1.942855,-0.142960,0.000000,0.000000,0.000000,0.000000,0.000000,0.000000
13071654.000000,-2.273995,-1.662659,1.368804,-1.469202,1.691312,1.433740,-0.586983,0.148891,-0.002234,1.114660,-0.049491,-0.112564,1.080529,-0.013681,-1.528582,38.936199,-24.488113,-3.943910,0.213712,1.981307,-0.182328,0.000000,0.000000,0.000000,0.000000,0.000000,0.000000
13071655.000000,-2.273858,-1.662662,1.369933,-1.469243,1.691197,1.434852,-0.586997,0.149191,-0.001641,1.109849,-0.049694,-0.114307,1.090561,-0.014710,-1.405596,38.936199,-24.436539,-3.920107,0.261320,1.838485,-0.188737,0.000000,0.000000,0.000000,0.000000,0.000000,0.000000
13071656.000000,-2.273716,-1.662664,1.371013,-1.469289,1.691086,1.435947,-0.587016,0.148336,-0.004933,1.107850,-0.048841,-0.114085,1.082402,-0.016939,-1.405596,38.960003,-24.341324,-3.820925,0.267728,1.721298,-0.155778,0.000000,0.000000,0.000000,0.000000,0.000000,0.000000
13071657.000000,-2.273578,-1.662666,1.372115,-1.469329,1.690977,1.437040,-0.587026,0.142666,-0.003638,1.100953,-0.046814,-0.113251,1.072584,-0.016081,-1.381793,38.960003,-24.289749,-3.769350,0.255826,1.767074,-0.188737,0.000000,0.000000,0.000000,0.000000,0.000000,0.000000
13071658.000000,-2.273448,-1.662668,1.373230,-1.469366,1.690873,1.438118,-0.587044,0.137088,-0.005290,1.095551,-0.044848,-0.111215,1.068681,-0.022719,-1.306414,38.936199,-23.996170,-3.745546,0.201810,1.838485,-0.155778,0.000000,0.000000,0.000000,0.000000,0.000000,0.000000
13071659.000000,-2.273315,-1.662670,1.374300,-1.469406,1.690764,1.439219,-0.587050,0.134048,-0.004543,1.091843,-0.044459,-0.107820,1.066728,-0.015007,-1.282611,38.960003,-23.801773,-3.670168,0.219205,1.825668,-0.208878,0.000000,0.000000,0.000000,0.000000,0.000000,0.000000
13071660.000000,-2.273182,-1.662678,1.375389,-1.469441,1.690656,1.440323,-0.587066,0.132891,-0.005137,1.087088,-0.043100,-0.109762,1.083716,-0.012359,-1.282611,39.035381,-23.603409,-3.646364,0.237516,1.806442,-0.182328,0.000000,0.000000,0.000000,0.000000,0.000000,0.000000
13071661.000000,-2.273062,-1.662669,1.376486,-1.469479,1.690558,1.441402,-0.587080,0.128480,-0.000249,1.094911,-0.040033,-0.108001,1.077571,-0.013846,-1.159625,38.888592,-23.678787,-3.570986,0.166105,1.865035,-0.182328,0.000000,0.000000,0.000000,0.000000,0.000000,0.000000
13071662.000000,-2.272943,-1.662662,1.377616,-1.469509,1.690456,1.442505,-0.587091,0.125965,0.002517,1.102908,-0.035975,-0.108436,1.080124,-0.010383,-1.060443,38.765606,-23.996170,-3.570986,0.135892,1.844894,-0.182328,0.000000,0.000000,0.000000,0.000000,0.000000,0.000000
13071663.000000,-2.272832,-1.662665,1.378760,-1.469543,1.690346,1.443602,-0.587107,0.119837,-0.001631,1.104175,-0.034761,-0.106419,1.101911,-0.013520,-0.909686,38.765606,-24.265945,-3.499574,0.171598,1.741439,-0.155778,0.000000,0.000000,0.000000,0.000000,0.000000,0.000000
13071664.000000,-2.272719,-1.662665,1.379864,-1.469573,1.690243,1.444698,-0.587115,0.119341,-0.000903,1.110750,-0.032783,-0.104876,1.081722,-0.009074,-0.762896,38.741802,-24.658707,-3.475771,0.213712,1.727706,-0.182328,0.000000,0.000000,0.000000,0.000000,0.000000,0.000000
13071665.000000,-2.272600,-1.662663,1.380988,-1.469598,1.690136,1.445783,-0.587127,0.116882,-0.000325,1.111898,-0.030115,-0.102154,1.085208,-0.007307,-0.687518,38.717999,-25.003860,-3.499574,0.219205,1.858627,-0.169511,0.000000,0.000000,0.000000,0.000000,0.000000,0.000000
13071666.000000,-2.272487,-1.662663,1.382112,-1.469628,1.690029,1.446853,-0.587139,0.114647,-0.000426,1.129248,-0.030578,-0.105741,1.070810,-0.009961,-0.612139,38.717999,-25.198257,-3.424196,0.255826,1.995040,-0.175919,0.000000,0.000000,0.000000,0.000000,0.000000,0.000000
13071667.000000,-2.272375,-1.662663,1.383210,-1.469649,1.689916,1.447943,-0.587153,0.110312,-0.000441,1.121662,-0.028333,-0.104464,1.064921,-0.008697,-0.564532,38.717999,-25.150650,-3.448000,0.297025,2.027084,-0.142960,0.000000,0.000000,0.000000,0.000000,0.000000,0.000000
13071668.000000,-2.272264,-1.662670,1.384345,-1.469667,1.689812,1.449029,-0.587160,0.110785,-0.002639,1.117008,-0.024314,-0.101358,1.086703,-0.004458,-0.564532,38.813213,-25.174454,-3.448000,0.285123,1.923629,-0.196061,0.000000,0.000000,0.000000,0.000000,0.000000,0.000000
13071669.000000,-2.272149,-1.662672,1.385415,-1.469698,1.689714,1.450116,-0.587176,0.113025,-0.002405,1.106236,-0.028373,-0.097974,1.076868,-0.009840,-0.612139,38.837017,-24.952286,-3.277406,0.243009,1.890670,-0.149369,0.000000,0.000000,0.000000,0.000000,0.000000,0.000000
13071670.000000,-2.272033,-1.662679,1.386513,-1.469723,1.689614,1.451205,-0.587180,0.112825,-0.003433,1.100864,-0.027699,-0.097678,1.095897,-0.010027,-0.735125,38.912395,-24.757889,-3.126650,0.261320,1.871444,-0.202470,0.000000,0.000000,0.000000,0.000000,0.000000,0.000000
13071671.000000,-2.271928,-1.662683,1.387611,-1.469747,1.689517,1.452278,-0.587189,0.112404,-0.003452,1.093114,-0.026264,-0.095837,1.089075,-0.012073,-0.711321,38.960003,-24.464310,-3.003664,0.237516,1.858627,-0.208878,0.000000,0.000000,0.000000,0.000000,0.000000,0.000000
13071672.000000,-2.271820,-1.662693,1.388696,-1.469772,1.689413,1.453362,-0.587204,0.109210,-0.004659,1.090966,-0.025103,-0.096428,1.076387,-0.015536,-0.711321,39.059185,-24.289749,-2.880678,0.261320,1.877853,-0.163102,0.000000,0.000000,0.000000,0.000000,0.000000,0.000000
13071673.000000,-2.271721,-1.662693,1.389817,-1.469786,1.689317,1.454463,-0.587214,0.105173,-0.003134,1.088508,-0.021172,-0.095662,1.089443,-0.011573,-0.635943,39.059185,-24.190567,-2.880678,0.255826,1.806442,-0.163102,0.000000,0.000000,0.000000,0.000000,0.000000,0.000000
13071674.000000,-2.271631,-1.662696,1.390891,-1.469792,1.689224,1.455563,-0.587226,0.103970,-0.002110,1.088882,-0.019344,-0.094133,1.080177,-0.013198,-0.489153,39.059185,-24.071548,-2.979860,0.225614,1.605026,-0.163102,0.000000,0.000000,0.000000,0.000000,0.000000,0.000000
13071675.000000,-2.271537,-1.662693,1.392010,-1.469795,1.689126,1.456668,-0.587232,0.101754,0.000341,1.099859,-0.012653,-0.099580,1.077986,-0.012838,-0.413775,38.983807,-24.289749,-3.055238,0.237516,1.539108,-0.208878,0.000000,0.000000,0.000000,0.000000,0.000000,0.000000
13071676.000000,-2.271450,-1.662695,1.393132,-1.469794,1.689034,1.457753,-0.587243,0.098787,0.000772,1.098253,-0.006699,-0.098237,1.072893,-0.015878,-0.266986,38.960003,-24.265945,-3.178224,0.231107,1.559249,-0.169511,0.000000,0.000000,0.000000,0.000000,0.000000,0.000000
13071677.000000,-2.271362,-1.662700,1.394210,-1.469799,1.688932,1.458840,-0.587250,0.097700,-0.000051,1.098057,-0.007913,-0.098544,1.063791,-0.015835,-0.167803,38.983807,-24.265945,-3.202028,0.267728,1.689254,-0.188737,0.000000,0.000000,0.000000,0.000000,0.000000,0.000000
13071678.000000,-2.271270,-1.662708,1.395314,-1.469800,1.688830,1.459934,-0.587262,0.099244,-0.001804,1.096977,-0.008239,-0.099273,1.080561,-0.017541,-0.191607,39.059185,-24.365128,-3.249635,0.320829,1.819259,-0.163102,0.000000,0.000000,0.000000,0.000000,0.000000,0.000000
13071679.000000,-2.271184,-1.662712,1.396396,-1.469801,1.688738,1.461019,-0.587272,0.096595,-0.003753,1.092468,-0.006991,-0.095553,1.080100,-0.018016,-0.167803,39.035381,-24.313553,-3.225832,0.255826,1.877853,-0.155778,0.000000,0.000000,0.000000,0.000000,0.000000,0.000000
