chaoyuefei/paper-gmrm-data/robot_logs/s2_dq_gmrm_xz_max_0.30_log_20260314_173439.csv
# time_ms,q_0,q_1,q_2,q_3,q_4,q_5,q_6,dq_0,dq_1,dq_2,dq_3,dq_4,dq_5,dq_6,tau_J_0,tau_J_1,tau_J_2,tau_J_3,tau_J_4,tau_J_5,tau_J_6,O_dP_EE_c_0,O_dP_EE_c_1,O_dP_EE_c_2,O_dP_EE_c_3,O_dP_EE_c_4,O_dP_EE_c_5
12343751.000000,-0.344850,0.543950,0.451213,-1.426848,-0.241980,1.916002,0.131417,0.000703,-0.000666,0.001058,-0.000667,0.000112,0.000083,-0.001350,0.403486,-38.120380,5.702927,19.391661,0.255826,2.007858,0.100570,0.000000,0.000000,0.000000,0.000000,0.000000,0.000000
12343752.000000,-0.344853,0.543952,0.451208,-1.426844,-0.241980,1.916002,0.131423,-0.000088,0.000113,-0.000965,0.000762,0.000312,0.000293,0.001033,0.427289,-38.144184,5.774338,19.340086,0.249418,2.001449,0.048385,0.000000,0.000000,0.000000,0.000000,0.000000,0.000000
12343753.000000,-0.344856,0.543950,0.451212,-1.426844,-0.241982,1.916002,0.131417,-0.001173,-0.000482,0.000470,0.000508,-0.000470,-0.000042,-0.001244,0.474897,-38.120380,5.726730,19.340086,0.267728,2.007858,0.100570,0.000000,0.000000,0.000000,0.000000,0.000000,0.000000
12343754.000000,-0.344855,0.543952,0.451210,-1.426842,-0.241981,1.916003,0.131417,-0.000225,-0.000321,-0.000243,0.000895,-0.000076,-0.000503,-0.000830,0.451093,-38.120380,5.750534,19.316282,0.261320,2.020675,0.100570,0.000000,0.000000,0.000000,0.000000,0.000000,0.000000
12343755.000000,-0.344866,0.543960,0.451207,-1.426844,-0.241975,1.916004,0.131428,-0.014386,0.009139,-0.011926,-0.003305,-0.000786,0.000614,0.005613,-0.017047,-37.580830,5.187180,19.070311,0.154203,1.995040,0.061202,0.000000,0.000000,0.000000,0.000000,0.000000,0.000000
12343756.000000,-0.344883,0.543946,0.451195,-1.426855,-0.241962,1.916004,0.131446,-0.021314,0.015619,-0.021862,-0.011336,0.002253,0.003800,0.007631,-1.480975,-35.355183,3.540756,18.153868,-0.187289,1.903487,0.094161,0.000000,0.000000,0.000000,0.000000,0.000000,0.000000
12343757.000000,-0.344892,0.543960,0.451122,-1.426868,-0.241962,1.916004,0.131479,-0.015020,0.011565,-0.039529,-0.016462,0.000824,0.003483,0.018872,-3.682818,-32.074238,1.799118,16.324949,-0.580966,1.877853,0.120712,0.000000,0.000000,0.000000,0.000000,0.000000,0.000000
12343758.000000,-0.344896,0.543998,0.451027,-1.426892,-0.242018,1.916007,0.131531,-0.003973,0.014425,-0.051611,-0.019021,-0.015841,0.001847,0.030119,-5.884661,-28.547321,-0.212296,13.777952,-0.575472,1.890670,0.074935,0.000000,0.000000,0.000000,0.000000,0.000000,0.000000
12343759.000000,-0.344919,0.544085,0.450902,-1.426955,-0.242089,1.916006,0.131587,0.001097,0.026130,-0.067902,-0.026816,-0.032608,0.006417,0.036193,-7.495379,-25.417133,-1.858719,11.405516,-0.563571,2.033492,0.087753,0.000000,0.000000,0.000000,0.000000,0.000000,0.000000
12343760.000000,-0.344941,0.544184,0.450775,-1.427037,-0.242178,1.916073,0.131642,0.003646,0.035342,-0.072467,-0.038014,-0.050357,0.032594,0.044359,-8.534808,-22.770954,-3.037003,9.132261,-0.521456,1.708480,0.133529,0.000000,0.000000,0.000000,0.000000,0.000000,0.000000
12343761.000000,-0.344960,0.544303,0.450667,-1.427118,-0.242306,1.916217,0.131702,0.001713,0.056208,-0.076491,-0.050619,-0.078186,0.071193,0.045872,-8.832355,-20.838886,-3.747147,6.958189,-0.192782,0.843307,0.180221,0.000000,0.000000,0.000000,0.000000,0.000000,0.000000
12343762.000000,-0.344978,0.544428,0.450563,-1.427223,-0.242428,1.916392,0.131767,-0.000253,0.075010,-0.080873,-0.061863,-0.092040,0.111735,0.047023,-8.483233,-19.248005,-3.699539,5.252257,-0.037142,0.023910,0.225997,0.000000,0.000000,0.000000,0.000000,0.000000,0.000000
12343764.000000,-0.345010,0.544640,0.450463,-1.427439,-0.242656,1.916726,0.131915,-0.014761,0.093468,-0.062384,-0.079344,-0.107360,0.149537,0.063424,-6.701922,-16.530415,-3.282974,2.756834,-0.067355,-0.229691,0.206771,0.000000,0.000000,0.000000,0.000000,0.000000,0.000000
12343765.000000,-0.345006,0.544727,0.450428,-1.427559,-0.242761,1.916920,0.131996,-0.010792,0.092427,-0.055574,-0.092268,-0.105875,0.164584,0.069016,-5.860857,-15.185505,-2.691849,1.987181,-0.258700,0.063277,0.127120,0.000000,0.000000,0.000000,0.000000,0.000000,0.000000
12343766.000000,-0.345004,0.544786,0.450398,-1.427705,-0.242859,1.917143,0.132076,-0.011202,0.082688,-0.054796,-0.108614,-0.103639,0.180876,0.075437,-4.944415,-13.618427,-1.981705,1.693602,-0.509554,0.316879,0.120712,0.000000,0.000000,0.000000,0.000000,0.000000,0.000000
12343767.000000,-0.345013,0.544829,0.450376,-1.427881,-0.242951,1.917408,0.132156,-0.016650,0.068057,-0.047599,-0.134277,-0.094597,0.203543,0.075029,-3.904986,-11.880756,-1.366776,1.915770,-0.718295,0.434066,0.127120,0.000000,0.000000,0.000000,0.000000,0.000000,0.000000
12343768.000000,-0.345017,0.544858,0.450333,-1.428081,-0.243051,1.917684,0.132245,-0.017010,0.053776,-0.049772,-0.157949,-0.089485,0.230087,0.077506,-2.988543,-10.115314,-0.533646,2.459288,-0.760409,0.597030,0.054794,0.000000,0.000000,0.000000,0.000000,0.000000,0.000000
12343769.000000,-0.345034,0.544897,0.450288,-1.428284,-0.243175,1.917988,0.132316,-0.018667,0.051421,-0.051456,-0.174915,-0.099943,0.244581,0.074271,-2.000689,-8.698994,0.204269,2.979002,-0.539767,0.785628,0.120712,0.000000,0.000000,0.000000,0.000000,0.000000,0.000000
12343770.000000,-0.345055,0.544962,0.450235,-1.428496,-0.243298,1.918319,0.132392,-0.021463,0.058672,-0.052325,-0.191032,-0.107160,0.269148,0.072975,-1.060443,-7.695271,0.942184,3.324156,-0.306307,0.889083,0.160079,0.000000,0.000000,0.000000,0.000000,0.000000,0.000000
12343771.000000,-0.345096,0.545034,0.450194,-1.428721,-0.243411,1.918658,0.132475,-0.029575,0.067274,-0.050877,-0.203323,-0.107990,0.288739,0.080199,0.006757,-6.862141,1.330978,3.570128,-0.180880,0.954086,0.114303,0.000000,0.000000,0.000000,0.000000,0.000000,0.000000
12343772.000000,-0.345127,0.545138,0.450157,-1.428948,-0.243519,1.919036,0.132554,-0.028898,0.079111,-0.046352,-0.207655,-0.111147,0.311325,0.081946,0.796247,-6.445576,1.553146,3.693114,-0.109469,0.928451,0.153671,0.000000,0.000000,0.000000,0.000000,0.000000,0.000000
12343773.000000,-0.345149,0.545268,0.450119,-1.429178,-0.243610,1.919455,0.132635,-0.028588,0.095093,-0.045488,-0.213085,-0.105220,0.341625,0.081177,1.315961,-6.397968,1.723740,3.593931,-0.258700,0.694076,0.133529,0.000000,0.000000,0.000000,0.000000,0.000000,0.000000
12343774.000000,-0.345167,0.545405,0.450091,-1.429411,-0.243698,1.919895,0.132721,-0.022527,0.110721,-0.041309,-0.215771,-0.100061,0.369137,0.080497,1.688886,-6.445576,1.723740,3.300352,-0.450045,0.446883,0.114303,0.000000,0.000000,0.000000,0.000000,0.000000,0.000000
12343775.000000,-0.345188,0.545545,0.450058,-1.429654,-0.243785,1.920337,0.132798,-0.021886,0.120756,-0.039730,-0.224923,-0.097548,0.390511,0.078408,2.061811,-6.493183,1.751511,2.927428,-0.623080,0.440475,0.133529,0.000000,0.000000,0.000000,0.000000,0.000000,0.000000
12343776.000000,-0.345202,0.545679,0.450018,-1.429917,-0.243890,1.920776,0.132884,-0.017840,0.125760,-0.037965,-0.234527,-0.101133,0.406842,0.079663,2.260175,-6.322590,1.874496,2.681456,-0.658785,0.576888,0.081344,0.000000,0.000000,0.000000,0.000000,0.000000,0.000000
12343777.000000,-0.345214,0.545801,0.449972,-1.430193,-0.244011,1.921234,0.132956,-0.020521,0.122427,-0.037896,-0.246444,-0.109572,0.419507,0.076278,2.406965,-5.858418,2.045089,2.530699,-0.533358,0.687667,0.140853,0.000000,0.000000,0.000000,0.000000,0.000000,0.000000
12343778.000000,-0.345228,0.545918,0.449926,-1.430490,-0.244132,1.921732,0.133035,-0.016295,0.118314,-0.036048,-0.265908,-0.115456,0.446785,0.075931,2.529951,-5.172077,2.144272,2.506895,-0.396029,0.694076,0.147262,0.000000,0.000000,0.000000,0.000000,0.000000,0.000000
12343779.000000,-0.345241,0.546028,0.449878,-1.430805,-0.244252,1.922266,0.133118,-0.016118,0.116964,-0.040498,-0.283501,-0.114016,0.467785,0.082122,2.629133,-4.390522,2.215683,2.729063,-0.270602,0.492660,0.107894,0.000000,0.000000,0.000000,0.000000,0.000000,0.000000
12343780.000000,-0.345256,0.546145,0.449838,-1.431124,-0.244375,1.922830,0.133195,-0.016335,0.114899,-0.041198,-0.297186,-0.116939,0.497337,0.079292,2.728315,-3.680378,2.168075,2.729063,-0.168978,0.291244,0.133529,0.000000,0.000000,0.000000,0.000000,0.000000,0.000000
12343781.000000,-0.345264,0.546276,0.449805,-1.431454,-0.244487,1.923373,0.133279,-0.013294,0.124363,-0.038398,-0.309162,-0.119676,0.509262,0.079431,2.680707,-3.188435,1.969711,2.729063,-0.180880,0.388290,0.107894,0.000000,0.000000,0.000000,0.000000,0.000000,0.000000
12343782.000000,-0.345267,0.546429,0.449765,-1.431763,-0.244595,1.923928,0.133362,-0.010761,0.132723,-0.037837,-0.301868,-0.114184,0.527078,0.078760,2.605329,-3.117024,1.945907,2.435484,-0.276095,0.654708,0.094161,0.000000,0.000000,0.000000,0.000000,0.000000,0.000000
12343783.000000,-0.345268,0.546611,0.449736,-1.432082,-0.244699,1.924521,0.133444,-0.006623,0.145250,-0.033705,-0.306753,-0.109783,0.556076,0.076852,2.553754,-3.898579,1.898300,2.383909,-0.384127,0.869857,0.120712,0.000000,0.000000,0.000000,0.000000,0.000000,0.000000
12343784.000000,-0.345266,0.546788,0.449714,-1.432398,-0.244800,1.925151,0.133528,0.001385,0.154262,-0.028612,-0.310250,-0.106390,0.578878,0.078275,2.553754,-5.025288,1.898300,2.459288,-0.509554,0.869857,0.074935,0.000000,0.000000,0.000000,0.000000,0.000000,0.000000
12343785.000000,-0.345269,0.546975,0.449687,-1.432731,-0.244894,1.925831,0.133602,0.000670,0.165689,-0.026132,-0.320667,-0.099166,0.604788,0.079685,2.704511,-6.592365,2.092697,2.879820,-0.641390,0.583297,0.140853,0.000000,0.000000,0.000000,0.000000,0.000000,0.000000
12343786.000000,-0.345269,0.547157,0.449663,-1.433067,-0.245009,1.926535,0.133682,0.001073,0.176420,-0.025058,-0.327461,-0.101476,0.635416,0.083269,2.827497,-8.207050,2.338669,3.347960,-0.563571,0.161239,0.147262,0.000000,0.000000,0.000000,0.000000,0.000000,0.000000
12343787.000000,-0.345266,0.547334,0.449634,-1.433414,-0.245137,1.927230,0.133767,0.001522,0.179349,-0.028751,-0.335856,-0.112071,0.643077,0.082642,2.950483,-9.674946,2.660019,3.867674,-0.365817,-0.014542,0.114303,0.000000,0.000000,0.000000,0.000000,0.000000,0.000000
12343788.000000,-0.345259,0.547509,0.449606,-1.433771,-0.245273,1.927913,0.133845,0.003616,0.182244,-0.028741,-0.343967,-0.116356,0.649915,0.084131,3.002058,-10.948444,2.878219,4.137450,-0.121371,0.044051,0.147262,0.000000,0.000000,0.000000,0.000000,0.000000,0.000000
12343789.000000,-0.345254,0.547680,0.449579,-1.434134,-0.245402,1.928565,0.133930,0.003731,0.175825,-0.030167,-0.350442,-0.118814,0.646516,0.087011,2.978254,-12.122761,3.025009,4.434996,-0.007845,0.212508,0.114303,0.000000,0.000000,0.000000,0.000000,0.000000,0.000000
12343790.000000,-0.345238,0.547852,0.449547,-1.434511,-0.245523,1.929245,0.134009,0.008906,0.170903,-0.030766,-0.352885,-0.122953,0.649502,0.084352,2.728315,-13.420063,3.147995,5.077696,0.040677,0.356246,0.107894,0.000000,0.000000,0.000000,0.000000,0.000000,0.000000
12343791.000000,-0.345220,0.548024,0.449517,-1.434888,-0.245630,1.929920,0.134086,0.010491,0.166008,-0.030142,-0.357029,-0.115802,0.657345,0.080904,2.283979,-14.939533,3.223373,5.994139,-0.060946,0.453292,0.140853,0.000000,0.000000,0.000000,0.000000,0.000000,0.000000
12343792.000000,-0.345213,0.548196,0.449494,-1.435262,-0.245724,1.930615,0.134169,0.009247,0.169414,-0.029883,-0.364839,-0.107643,0.662964,0.081350,1.911054,-16.653400,3.171798,7.227965,-0.258700,0.518295,0.094161,0.000000,0.000000,0.000000,0.000000,0.000000,0.000000
12343793.000000,-0.345222,0.548370,0.449465,-1.435635,-0.245829,1.931302,0.134240,0.003186,0.170199,-0.031465,-0.371048,-0.102386,0.669498,0.077689,1.740461,-18.462482,3.171798,8.537169,-0.324618,0.668441,0.147262,0.000000,0.000000,0.000000,0.000000,0.000000,0.000000
12343794.000000,-0.345228,0.548549,0.449426,-1.436016,-0.245950,1.931957,0.134317,0.002561,0.173390,-0.035618,-0.378522,-0.108945,0.656599,0.077225,1.542096,-20.275532,3.294784,10.048704,-0.234896,1.025497,0.147262,0.000000,0.000000,0.000000,0.000000,0.000000,0.000000
12343795.000000,-0.345235,0.548745,0.449387,-1.436376,-0.246073,1.932623,0.134403,-0.001447,0.180732,-0.038048,-0.372276,-0.115564,0.647629,0.083544,1.367536,-22.183796,3.393966,11.258726,-0.091158,1.344100,0.094161,0.000000,0.000000,0.000000,0.000000,0.000000,0.000000
12343796.000000,-0.345249,0.548944,0.449343,-1.436754,-0.246192,1.933296,0.134474,-0.007204,0.189197,-0.040348,-0.375779,-0.113100,0.663369,0.077988,1.315961,-23.973042,3.516952,12.520323,-0.001437,1.416427,0.186630,0.000000,0.000000,0.000000,0.000000,0.000000,0.000000
12343797.000000,-0.345253,0.549162,0.449298,-1.437134,-0.246310,1.933972,0.134566,-0.006008,0.199057,-0.041503,-0.377740,-0.118277,0.661713,0.080340,1.169172,-25.782124,3.616134,13.583555,0.040677,1.370651,0.114303,0.000000,0.000000,0.000000,0.000000,0.000000,0.000000
12343798.000000,-0.345252,0.549396,0.449248,-1.437506,-0.246428,1.934653,0.134649,-0.003309,0.208755,-0.043475,-0.382894,-0.116816,0.662572,0.079120,0.947004,-27.571369,3.762924,14.373045,0.046171,1.227828,0.107894,0.000000,0.000000,0.000000,0.000000,0.000000,0.000000
12343799.000000,-0.345245,0.549631,0.449185,-1.437891,-0.246549,1.935299,0.134721,0.002906,0.223805,-0.050222,-0.386497,-0.114893,0.652805,0.070991,0.673261,-29.186054,4.008896,15.039549,0.027860,1.234237,0.173812,0.000000,0.000000,0.000000,0.000000,0.000000,0.000000
12343800.000000,-0.345247,0.549875,0.449126,-1.438269,-0.246669,1.935922,0.134809,0.001227,0.232345,-0.053369,-0.381728,-0.109433,0.638556,0.074772,0.526471,-30.630146,4.179489,15.483885,0.022367,1.422836,0.107894,0.000000,0.000000,0.000000,0.000000,0.000000,0.000000
12343801.000000,-0.345250,0.550122,0.449062,-1.438667,-0.246791,1.936549,0.134889,0.001590,0.236617,-0.059426,-0.387925,-0.111041,0.634316,0.073269,0.451093,-31.828266,4.377853,15.856810,0.046171,1.591293,0.147262,0.000000,0.000000,0.000000,0.000000,0.000000,0.000000
12343802.000000,-0.345263,0.550356,0.448994,-1.439072,-0.246924,1.937174,0.134978,-0.003350,0.235908,-0.061260,-0.394381,-0.119361,0.631722,0.076092,0.474897,-32.685200,4.596054,16.249571,0.129484,1.617843,0.087753,0.000000,0.000000,0.000000,0.000000,0.000000,0.000000
12343803.000000,-0.345277,0.550586,0.448920,-1.439487,-0.247046,1.937811,0.135052,-0.004256,0.228704,-0.062642,-0.395899,-0.117948,0.631732,0.073326,0.526471,-33.347736,4.818222,16.670103,0.141385,1.532699,0.153671,0.000000,0.000000,0.000000,0.000000,0.000000,0.000000
12343804.000000,-0.345295,0.550813,0.448841,-1.439911,-0.247169,1.938422,0.135138,-0.008904,0.227526,-0.067170,-0.402744,-0.115209,0.626213,0.075256,0.625654,-33.859516,5.064194,17.090635,0.112089,1.513473,0.114303,0.000000,0.000000,0.000000,0.000000,0.000000,0.000000
12343805.000000,-0.345318,0.551043,0.448766,-1.440335,-0.247298,1.939037,0.135220,-0.013774,0.226503,-0.068295,-0.405880,-0.120511,0.617780,0.079956,0.796247,-34.323689,5.210983,17.364378,0.141385,1.597701,0.114303,0.000000,0.000000,0.000000,0.000000,0.000000,0.000000
12343806.000000,-0.345331,0.551285,0.448676,-1.440767,-0.247427,1.939639,0.135297,-0.014303,0.230010,-0.075892,-0.413481,-0.123735,0.614695,0.077217,0.847822,-34.815632,5.504562,17.685728,0.154203,1.735030,0.153671,0.000000,0.000000,0.000000,0.000000,0.000000,0.000000
12343807.000000,-0.345350,0.551523,0.448589,-1.441193,-0.247555,1.940229,0.135381,-0.019078,0.232265,-0.076516,-0.418067,-0.130178,0.601321,0.082365,0.947004,-35.256001,5.726730,17.832518,0.141385,1.877853,0.133529,0.000000,0.000000,0.000000,0.000000,0.000000,0.000000
12343808.000000,-0.345359,0.551772,0.448504,-1.441630,-0.247685,1.940828,0.135462,-0.015815,0.240466,-0.079584,-0.421224,-0.130070,0.600713,0.080520,0.895429,-35.819355,5.921127,18.205442,0.123990,1.890670,0.133529,0.000000,0.000000,0.000000,0.000000,0.000000,0.000000
12343809.000000,-0.345371,0.552021,0.448417,-1.442072,-0.247820,1.941434,0.135548,-0.015464,0.239548,-0.080580,-0.425999,-0.129526,0.616022,0.079817,0.923200,-36.212116,6.067917,18.475218,0.100187,1.838485,0.120712,0.000000,0.000000,0.000000,0.000000,0.000000,0.000000
12343810.000000,-0.345381,0.552273,0.448324,-1.442507,-0.247952,1.942040,0.135633,-0.013918,0.242278,-0.082485,-0.435169,-0.131607,0.613973,0.079469,0.895429,-36.600910,6.266281,18.721189,0.135892,1.812850,0.100570,0.000000,0.000000,0.000000,0.000000,0.000000,0.000000
12343811.000000,-0.345393,0.552536,0.448227,-1.442949,-0.248088,1.942635,0.135711,-0.011585,0.243902,-0.084846,-0.438637,-0.133952,0.603761,0.076053,0.947004,-37.116657,6.488449,18.871946,0.195402,1.884261,0.160079,0.000000,0.000000,0.000000,0.000000,0.000000,0.000000
12343812.000000,-0.345406,0.552790,0.448130,-1.443394,-0.248228,1.943213,0.135804,-0.009105,0.245886,-0.088420,-0.440462,-0.135728,0.600893,0.082414,0.970807,-37.509418,6.659042,19.018736,0.261320,1.974899,0.100570,0.000000,0.000000,0.000000,0.000000,0.000000,0.000000
12343813.000000,-0.345416,0.553046,0.448035,-1.443838,-0.248360,1.943820,0.135889,-0.009818,0.248124,-0.091226,-0.435410,-0.135006,0.599959,0.085084,0.970807,-37.802998,6.829636,19.117918,0.273221,1.988631,0.107894,0.000000,0.000000,0.000000,0.000000,0.000000,0.000000
12343814.000000,-0.345427,0.553304,0.447948,-1.444293,-0.248486,1.944418,0.135970,-0.009781,0.251597,-0.086629,-0.442639,-0.132673,0.609868,0.085695,0.947004,-38.021198,6.853439,19.292479,0.243009,1.936446,0.153671,0.000000,0.000000,0.000000,0.000000,0.000000,0.000000
12343815.000000,-0.345431,0.553545,0.447852,-1.444749,-0.248609,1.945035,0.136058,-0.006113,0.247552,-0.088515,-0.450939,-0.133934,0.605534,0.084747,0.895429,-38.068806,6.952621,19.415464,0.178007,1.871444,0.114303,0.000000,0.000000,0.000000,0.000000,0.000000,0.000000
12343816.000000,-0.345437,0.553801,0.447763,-1.445201,-0.248736,1.945639,0.136140,-0.003561,0.248356,-0.090809,-0.456680,-0.134101,0.603134,0.085865,0.847822,-38.144184,6.952621,19.514647,0.189908,1.890670,0.140853,0.000000,0.000000,0.000000,0.000000,0.000000,0.000000
12343817.000000,-0.345449,0.554061,0.447680,-1.445651,-0.248868,1.946236,0.136230,-0.005960,0.255147,-0.088431,-0.454668,-0.129051,0.598982,0.089306,0.847822,-38.243366,6.905014,19.562254,0.195402,1.988631,0.107894,0.000000,0.000000,0.000000,0.000000,0.000000,0.000000
12343818.000000,-0.345459,0.554315,0.447597,-1.446096,-0.249000,1.946838,0.136314,-0.007677,0.255391,-0.087571,-0.448190,-0.129479,0.598489,0.085034,0.847822,-38.338581,6.881210,19.590025,0.183500,2.047225,0.120712,0.000000,0.000000,0.000000,0.000000,0.000000,0.000000
12343819.000000,-0.345460,0.554567,0.447515,-1.446549,-0.249137,1.947454,0.136399,-0.005501,0.250125,-0.083203,-0.451886,-0.130941,0.594832,0.082112,0.697065,-38.338581,6.829636,19.685240,0.207303,2.039901,0.133529,0.000000,0.000000,0.000000,0.000000,0.000000,0.000000
12343820.000000,-0.345462,0.554817,0.447432,-1.447002,-0.249267,1.948054,0.136486,-0.004689,0.250432,-0.084021,-0.452374,-0.131898,0.598273,0.081716,0.574079,-38.362385,6.805832,19.685240,0.225614,2.020675,0.100570,0.000000,0.000000,0.000000,0.000000,0.000000,0.000000
12343821.000000,-0.345456,0.555073,0.447354,-1.447438,-0.249390,1.948671,0.136567,0.000008,0.249137,-0.083388,-0.441115,-0.126336,0.598900,0.077402,0.403486,-38.461567,6.734421,19.613829,0.201810,2.001449,0.166488,0.000000,0.000000,0.000000,0.000000,0.000000,0.000000
12343822.000000,-0.345453,0.555332,0.447282,-1.447884,-0.249514,1.949278,0.136655,0.002333,0.253740,-0.078562,-0.444933,-0.122637,0.600524,0.078329,0.276533,-38.513142,6.611435,19.562254,0.195402,1.974899,0.133529,0.000000,0.000000,0.000000,0.000000,0.000000,0.000000
12343823.000000,-0.345443,0.555593,0.447203,-1.448313,-0.249639,1.949890,0.136742,0.005713,0.257528,-0.077541,-0.436753,-0.125434,0.595090,0.078304,0.078168,-38.584553,6.583664,19.391661,0.201810,1.995040,0.114303,0.000000,0.000000,0.000000,0.000000,0.000000,0.000000
12343824.000000,-0.345431,0.555852,0.447135,-1.448755,-0.249765,1.950507,0.136826,0.008644,0.252954,-0.076508,-0.438222,-0.122639,0.598431,0.081402,-0.144000,-38.632160,6.413071,19.240904,0.207303,1.962081,0.133529,0.000000,0.000000,0.000000,0.000000,0.000000,0.000000
12343825.000000,-0.345418,0.556110,0.447069,-1.449189,-0.249883,1.951126,0.136918,0.010132,0.255100,-0.072804,-0.438733,-0.119274,0.604248,0.084582,-0.342364,-38.755146,6.242477,19.094114,0.178007,1.974899,0.107894,0.000000,0.000000,0.000000,0.000000,0.000000,0.000000
12343826.000000,-0.345406,0.556371,0.447003,-1.449609,-0.250007,1.951761,0.137003,0.015745,0.255271,-0.071384,-0.429023,-0.122941,0.610023,0.086294,-0.465350,-38.830524,6.119492,18.895750,0.183500,1.909896,0.127120,0.000000,0.000000,0.000000,0.000000,0.000000,0.000000
12343827.000000,-0.345393,0.556635,0.446942,-1.450043,-0.250134,1.952391,0.137093,0.013191,0.255913,-0.066966,-0.432147,-0.124870,0.628478,0.088390,-0.564532,-38.925739,5.996506,18.895750,0.178007,1.806442,0.127120,0.000000,0.000000,0.000000,0.000000,0.000000,0.000000
12343828.000000,-0.345376,0.556888,0.446881,-1.450460,-0.250260,1.953021,0.137177,0.011394,0.256147,-0.063957,-0.433271,-0.126830,0.628316,0.088684,-0.663714,-39.001118,5.897324,18.796568,0.178007,1.760665,0.160079,0.000000,0.000000,0.000000,0.000000,0.000000,0.000000
12343829.000000,-0.345361,0.557153,0.446821,-1.450886,-0.250390,1.953647,0.137270,0.012046,0.256228,-0.062100,-0.433984,-0.129103,0.620216,0.092033,-0.711321,-39.100300,5.798141,18.848143,0.201810,1.800033,0.107894,0.000000,0.000000,0.000000,0.000000,0.000000,0.000000
12343830.000000,-0.345344,0.557416,0.446767,-1.451301,-0.250519,1.954265,0.137354,0.011326,0.263781,-0.058887,-0.429661,-0.130745,0.619956,0.091331,-0.834307,-39.171711,5.627548,18.748960,0.225614,1.838485,0.127120,0.000000,0.000000,0.000000,0.000000,0.000000,0.000000
12343831.000000,-0.345326,0.557686,0.446708,-1.451699,-0.250635,1.954893,0.137436,0.010834,0.268273,-0.059027,-0.417238,-0.124576,0.619830,0.090559,-0.961260,-39.393879,5.556137,18.499022,0.178007,1.825668,0.166488,0.000000,0.000000,0.000000,0.000000,0.000000,0.000000
12343832.000000,-0.345309,0.557950,0.446661,-1.452103,-0.250752,1.955519,0.137531,0.012192,0.268348,-0.057947,-0.414007,-0.119260,0.634229,0.093530,-1.032672,-39.489094,5.310165,18.352232,0.112089,1.779891,0.114303,0.000000,0.000000,0.000000,0.000000,0.000000,0.000000
12343833.000000,-0.345290,0.558221,0.446608,-1.452508,-0.250868,1.956142,0.137613,0.014690,0.269961,-0.057276,-0.417112,-0.116307,0.634173,0.091817,-1.159625,-39.635883,5.187180,18.253050,0.064481,1.714889,0.166488,0.000000,0.000000,0.000000,0.000000,0.000000,0.000000
12343834.000000,-0.345271,0.558488,0.446555,-1.452902,-0.250990,1.956768,0.137701,0.018342,0.268061,-0.057787,-0.403836,-0.121245,0.631699,0.093133,-1.231036,-39.810444,5.111801,18.106260,0.081876,1.670028,0.147262,0.000000,0.000000,0.000000,0.000000,0.000000,0.000000
12343835.000000,-0.345254,0.558758,0.446502,-1.453302,-0.251111,1.957384,0.137792,0.018097,0.274555,-0.058573,-0.407022,-0.119808,0.624250,0.094979,-1.306414,-39.834248,5.064194,18.007078,0.093778,1.670028,0.107894,0.000000,0.000000,0.000000,0.000000,0.000000,0.000000
12343836.000000,-0.345246,0.559026,0.446450,-1.453694,-0.251237,1.958008,0.137871,0.014976,0.271694,-0.058503,-0.399038,-0.119323,0.624021,0.087570,-1.254840,-39.858051,4.988815,17.955503,0.123990,1.670028,0.173812,0.000000,0.000000,0.000000,0.000000,0.000000,0.000000
12343837.000000,-0.345233,0.559299,0.446400,-1.454089,-0.251368,1.958638,0.137964,0.014733,0.268015,-0.058527,-0.403957,-0.123407,0.624129,0.086702,-1.282611,-39.957233,4.917404,17.931700,0.154203,1.662704,0.114303,0.000000,0.000000,0.000000,0.000000,0.000000,0.000000
12343838.000000,-0.345225,0.559564,0.446347,-1.454482,-0.251500,1.959259,0.138046,0.012753,0.266388,-0.056382,-0.402321,-0.126750,0.625494,0.088135,-1.231036,-39.957233,4.893600,17.983274,0.183500,1.617843,0.127120,0.000000,0.000000,0.000000,0.000000,0.000000,0.000000
12343839.000000,-0.345216,0.559839,0.446295,-1.454872,-0.251621,1.959884,0.138130,0.012128,0.269234,-0.054618,-0.398389,-0.126426,0.618467,0.083523,-1.207232,-40.004841,4.865829,18.078489,0.141385,1.611434,0.166488,0.000000,0.000000,0.000000,0.000000,0.000000,0.000000
12343840.000000,-0.345215,0.560120,0.446242,-1.455264,-0.251748,1.960487,0.138222,0.012505,0.272245,-0.053156,-0.393201,-0.126893,0.617809,0.088035,-1.084246,-40.199238,4.842026,18.130064,0.123990,1.676437,0.120712,0.000000,0.000000,0.000000,0.000000,0.000000,0.000000
12343841.000000,-0.345212,0.560395,0.446189,-1.455645,-0.251868,1.961103,0.138307,0.009848,0.275370,-0.052142,-0.386227,-0.121895,0.616249,0.088108,-0.961260,-40.322224,4.818222,18.177671,0.076383,1.760665,0.160079,0.000000,0.000000,0.000000,0.000000,0.000000,0.000000
12343842.000000,-0.345212,0.560682,0.446132,-1.456036,-0.251995,1.961730,0.138396,0.007397,0.278861,-0.053046,-0.386866,-0.124289,0.619717,0.090093,-0.810504,-40.516621,4.865829,18.276854,0.064481,1.735030,0.147262,0.000000,0.000000,0.000000,0.000000,0.000000,0.000000
12343843.000000,-0.345208,0.560960,0.446072,-1.456429,-0.252115,1.962344,0.138479,0.004350,0.275910,-0.053608,-0.392489,-0.124431,0.616964,0.086225,-0.735125,-40.714985,4.917404,18.399839,0.010465,1.702071,0.153671,0.000000,0.000000,0.000000,0.000000,0.000000,0.000000
12343844.000000,-0.345205,0.561244,0.446006,-1.456821,-0.252236,1.962958,0.138572,0.004602,0.277013,-0.056175,-0.390473,-0.121752,0.620730,0.084657,-0.635943,-40.933186,5.064194,18.499022,0.004056,1.747848,0.114303,0.000000,0.000000,0.000000,0.000000,0.000000,0.000000
12343845.000000,-0.345206,0.561535,0.445940,-1.457213,-0.252366,1.963568,0.138658,0.000560,0.281533,-0.059094,-0.390938,-0.120583,0.626283,0.082072,-0.489153,-41.179157,5.135605,18.574400,0.027860,1.800033,0.120712,0.000000,0.000000,0.000000,0.000000,0.000000,0.000000
12343846.000000,-0.345207,0.561814,0.445871,-1.457599,-0.252503,1.964187,0.138736,-0.001809,0.280026,-0.065313,-0.394437,-0.126502,0.626664,0.078715,-0.366168,-41.349751,5.258591,18.574400,0.105680,1.786300,0.166488,0.000000,0.000000,0.000000,0.000000,0.000000,0.000000
12343847.000000,-0.345209,0.562094,0.445789,-1.457997,-0.252638,1.964817,0.138831,-0.001115,0.279564,-0.070583,-0.400011,-0.128814,0.623174,0.084500,-0.215411,-41.448933,5.528366,18.697386,0.129484,1.708480,0.114303,0.000000,0.000000,0.000000,0.000000,0.000000,0.000000
12343848.000000,-0.345215,0.562375,0.445713,-1.458400,-0.252774,1.965432,0.138914,-0.004735,0.287116,-0.074991,-0.400701,-0.135235,0.625424,0.085167,-0.017047,-41.520344,5.702927,18.772764,0.154203,1.656295,0.147262,0.000000,0.000000,0.000000,0.000000,0.000000,0.000000
12343849.000000,-0.345224,0.562656,0.445637,-1.458797,-0.252912,1.966055,0.139003,-0.005286,0.279162,-0.077738,-0.393804,-0.135366,0.620657,0.083777,0.228925,-41.595722,5.849716,18.895750,0.183500,1.617843,0.120712,0.000000,0.000000,0.000000,0.000000,0.000000,0.000000
12343850.000000,-0.345229,0.562943,0.445551,-1.459202,-0.253044,1.966665,0.139091,-0.006981,0.281266,-0.081269,-0.398449,-0.133686,0.633094,0.086634,0.403486,-41.742512,6.067917,19.018736,0.171598,1.727706,0.114303,0.000000,0.000000,0.000000,0.000000,0.000000,0.000000
12343851.000000,-0.345235,0.563228,0.445464,-1.459594,-0.253177,1.967260,0.139174,-0.007618,0.281637,-0.079752,-0.395683,-0.132691,0.627087,0.082894,0.550275,-41.841694,6.242477,18.994932,0.154203,1.832076,0.140853,0.000000,0.000000,0.000000,0.000000,0.000000,0.000000
12343852.000000,-0.345240,0.563512,0.445377,-1.459991,-0.253306,1.967862,0.139262,-0.007603,0.278783,-0.081142,-0.391079,-0.131066,0.623648,0.086421,0.673261,-41.960712,6.389267,19.018736,0.112089,1.884261,0.120712,0.000000,0.000000,0.000000,0.000000,0.000000,0.000000
12343853.000000,-0.345245,0.563794,0.445283,-1.460393,-0.253438,1.968462,0.139354,-0.007125,0.277210,-0.086928,-0.390348,-0.129337,0.617171,0.089197,0.772443,-41.936909,6.611435,19.070311,0.058073,1.930038,0.100570,0.000000,0.000000,0.000000,0.000000,0.000000,0.000000
12343854.000000,-0.345260,0.564082,0.445192,-1.460792,-0.253566,1.969076,0.139442,-0.008078,0.277687,-0.090135,-0.388912,-0.128991,0.614922,0.089611,0.923200,-41.988483,6.782028,19.169493,0.022367,1.903487,0.120712,0.000000,0.000000,0.000000,0.000000,0.000000,0.000000
12343855.000000,-0.345270,0.564363,0.445102,-1.461195,-0.253705,1.969693,0.139533,-0.006907,0.276996,-0.091993,-0.390494,-0.136411,0.608345,0.085742,0.994611,-42.012287,6.928818,19.217100,0.069974,1.865035,0.127120,0.000000,0.000000,0.000000,0.000000,0.000000,0.000000
12343856.000000,-0.345283,0.564647,0.445003,-1.461600,-0.253850,1.970296,0.139619,-0.008280,0.281402,-0.094013,-0.396859,-0.137265,0.606537,0.085275,1.022382,-42.083698,7.099411,19.240904,0.117582,1.871444,0.173812,0.000000,0.000000,0.000000,0.000000,0.000000,0.000000
12343857.000000,-0.345299,0.564928,0.444912,-1.462000,-0.253993,1.970913,0.139715,-0.011153,0.281400,-0.093381,-0.393406,-0.138118,0.607718,0.085920,1.121564,-42.036091,7.174789,19.316282,0.178007,1.923629,0.094161,0.000000,0.000000,0.000000,0.000000,0.000000,0.000000
12343858.000000,-0.345311,0.565210,0.444815,-1.462407,-0.254139,1.971525,0.139801,-0.008387,0.281064,-0.093937,-0.397299,-0.137680,0.613562,0.082653,1.145368,-42.083698,7.297775,19.439268,0.219205,1.884261,0.107894,0.000000,0.000000,0.000000,0.000000,0.000000,0.000000
12343859.000000,-0.345318,0.565483,0.444717,-1.462802,-0.254273,1.972146,0.139880,-0.009010,0.278064,-0.094671,-0.393348,-0.136077,0.612449,0.082797,1.145368,-42.012287,7.444565,19.514647,0.219205,1.825668,0.173812,0.000000,0.000000,0.000000,0.000000,0.000000,0.000000
12343860.000000,-0.345323,0.565762,0.444624,-1.463210,-0.254410,1.972754,0.139977,-0.005932,0.278297,-0.097127,-0.402323,-0.134079,0.613485,0.083694,1.121564,-41.936909,7.515976,19.637632,0.195402,1.877853,0.100570,0.000000,0.000000,0.000000,0.000000,0.000000,0.000000
12343861.000000,-0.345332,0.566035,0.444523,-1.463616,-0.254546,1.973365,0.140062,-0.007457,0.278607,-0.096475,-0.400023,-0.132317,0.605929,0.085329,1.121564,-41.960712,7.615158,19.736814,0.159696,1.877853,0.127120,0.000000,0.000000,0.000000,0.000000,0.000000,0.000000
12343862.000000,-0.345335,0.566308,0.444427,-1.464017,-0.254678,1.973967,0.140149,-0.007406,0.276820,-0.095575,-0.400810,-0.131330,0.601334,0.086888,1.069990,-41.913105,7.690536,19.883604,0.129484,1.942855,0.147262,0.000000,0.000000,0.000000,0.000000,0.000000,0.000000
12343863.000000,-0.345343,0.566590,0.444335,-1.464422,-0.254815,1.974552,0.140240,-0.008197,0.276563,-0.095539,-0.406273,-0.136889,0.610022,0.089944,1.046186,-41.913105,7.666733,20.006590,0.147794,2.039901,0.114303,0.000000,0.000000,0.000000,0.000000,0.000000,0.000000
12343864.000000,-0.345344,0.566852,0.444244,-1.464824,-0.254954,1.975144,0.140326,-0.004459,0.270588,-0.096574,-0.413259,-0.136277,0.607761,0.090543,0.970807,-41.790119,7.666733,20.181150,0.159696,2.072860,0.127120,0.000000,0.000000,0.000000,0.000000,0.000000,0.000000
12343865.000000,-0.345348,0.567128,0.444154,-1.465229,-0.255097,1.975747,0.140418,-0.001777,0.273896,-0.093599,-0.413445,-0.135634,0.601315,0.087386,0.895429,-41.742512,7.638962,20.304136,0.166105,2.079269,0.107894,0.000000,0.000000,0.000000,0.000000,0.000000,0.000000
12343866.000000,-0.345350,0.567406,0.444063,-1.465637,-0.255246,1.976336,0.140504,-0.000497,0.281517,-0.091497,-0.413537,-0.136784,0.597287,0.088372,0.847822,-41.694904,7.615158,20.502501,0.219205,2.072860,0.114303,0.000000,0.000000,0.000000,0.000000,0.000000,0.000000
12343867.000000,-0.345352,0.567678,0.443972,-1.466032,-0.255389,1.976938,0.140594,-0.002549,0.279649,-0.090652,-0.408500,-0.141188,0.594118,0.088916,0.796247,-41.667133,7.615158,20.554075,0.243009,2.039901,0.140853,0.000000,0.000000,0.000000,0.000000,0.000000,0.000000
12343868.000000,-0.345347,0.567960,0.443884,-1.466441,-0.255526,1.977533,0.140691,0.000123,0.281921,-0.088803,-0.414077,-0.143449,0.607478,0.096714,0.697065,-41.667133,7.567551,20.724669,0.249418,2.053634,0.094161,0.000000,0.000000,0.000000,0.000000,0.000000,0.000000
12343869.000000,-0.345344,0.568234,0.443799,-1.466854,-0.255670,1.978124,0.140779,0.000822,0.275778,-0.090082,-0.415649,-0.141517,0.603983,0.090130,0.649457,-41.595722,7.492172,20.923033,0.273221,2.112228,0.127120,0.000000,0.000000,0.000000,0.000000,0.000000,0.000000
12343870.000000,-0.345337,0.568502,0.443715,-1.467254,-0.255809,1.978719,0.140871,0.007609,0.273763,-0.086987,-0.409298,-0.138932,0.601754,0.091460,0.601850,-41.520344,7.369186,21.097593,0.273221,2.150680,0.120712,0.000000,0.000000,0.000000,0.000000,0.000000,0.000000
12343871.000000,-0.345322,0.568779,0.443627,-1.467664,-0.255946,1.979309,0.140961,0.008351,0.272159,-0.084330,-0.410558,-0.136101,0.596239,0.093019,0.474897,-41.401325,7.369186,21.319761,0.249418,2.177230,0.100570,0.000000,0.000000,0.000000,0.000000,0.000000,0.000000
12343872.000000,-0.345316,0.569049,0.443554,-1.468063,-0.256082,1.979897,0.141043,0.008295,0.273790,-0.081559,-0.405238,-0.139898,0.592499,0.091750,0.502668,-41.278339,7.198593,21.490355,0.249418,2.196456,0.140853,0.000000,0.000000,0.000000,0.000000,0.000000,0.000000
12343873.000000,-0.345298,0.569319,0.443472,-1.468475,-0.256222,1.980498,0.141137,0.011425,0.270109,-0.080054,-0.409871,-0.141395,0.594388,0.093853,0.403486,-41.226765,7.174789,21.712523,0.213712,2.215682,0.100570,0.000000,0.000000,0.000000,0.000000,0.000000,0.000000
12343874.000000,-0.345284,0.569589,0.443398,-1.468883,-0.256369,1.981081,0.141227,0.009411,0.272155,-0.079656,-0.412185,-0.140173,0.590005,0.093714,0.351911,-41.226765,7.051804,21.934690,0.237516,2.255050,0.107894,0.000000,0.000000,0.000000,0.000000,0.000000,0.000000
12343875.000000,-0.345266,0.569862,0.443324,-1.469285,-0.256515,1.981671,0.141317,0.012729,0.269183,-0.080535,-0.406311,-0.138914,0.590211,0.088151,0.228925,-41.179157,6.976425,22.085447,0.255826,2.300826,0.120712,0.000000,0.000000,0.000000,0.000000,0.000000,0.000000
12343876.000000,-0.345252,0.570129,0.443253,-1.469681,-0.256661,1.982251,0.141404,0.013444,0.267049,-0.079292,-0.404390,-0.137595,0.581537,0.089759,0.177350,-41.131550,6.829636,22.109251,0.273221,2.345687,0.120712,0.000000,0.000000,0.000000,0.000000,0.000000,0.000000
12343877.000000,-0.345240,0.570393,0.443187,-1.470086,-0.256801,1.982857,0.141488,0.013948,0.264341,-0.075536,-0.402387,-0.140916,0.588228,0.090038,0.129743,-41.032368,6.682846,22.208433,0.273221,2.307235,0.147262,0.000000,0.000000,0.000000,0.000000,0.000000,0.000000
12343878.000000,-0.345222,0.570657,0.443125,-1.470491,-0.256945,1.983463,0.141583,0.014987,0.260629,-0.069698,-0.405324,-0.143719,0.584786,0.092710,0.054365,-40.885578,6.536057,22.307615,0.279630,2.242233,0.100570,0.000000,0.000000,0.000000,0.000000,0.000000,0.000000
12343879.000000,-0.345205,0.570914,0.443057,-1.470902,-0.257090,1.984068,0.141668,0.015627,0.259514,-0.066953,-0.407743,-0.146125,0.587109,0.087313,-0.017047,-40.786396,6.460678,22.382994,0.297025,2.169906,0.127120,0.000000,0.000000,0.000000,0.000000,0.000000,0.000000
12343880.000000,-0.345189,0.571180,0.442996,-1.471294,-0.257227,1.984655,0.141751,0.016181,0.258970,-0.066987,-0.398131,-0.146270,0.577714,0.088113,-0.092425,-40.691181,6.341660,22.307615,0.267728,2.209274,0.153671,0.000000,0.000000,0.000000,0.000000,0.000000,0.000000
12343881.000000,-0.345178,0.571444,0.442940,-1.471691,-0.257371,1.985245,0.141850,0.015547,0.257661,-0.061878,-0.398733,-0.143035,0.593376,0.091759,-0.116229,-40.568195,6.143295,22.156858,0.279630,2.274276,0.100570,0.000000,0.000000,0.000000,0.000000,0.000000,0.000000
12343882.000000,-0.345161,0.571705,0.442883,-1.472078,-0.257520,1.985842,0.141936,0.016279,0.259273,-0.060112,-0.395355,-0.148472,0.585537,0.091176,-0.191607,-40.544392,6.020309,22.061644,0.267728,2.280685,0.120712,0.000000,0.000000,0.000000,0.000000,0.000000,0.000000
12343883.000000,-0.345149,0.571972,0.442828,-1.472473,-0.257669,1.986447,0.142027,0.018746,0.257311,-0.059345,-0.392507,-0.148319,0.586532,0.090810,-0.215411,-40.421406,5.921127,21.962461,0.243009,2.228500,0.147262,0.000000,0.000000,0.000000,0.000000,0.000000,0.000000
12343884.000000,-0.345129,0.572242,0.442775,-1.472864,-0.257822,1.987032,0.142119,0.018645,0.261573,-0.058663,-0.392693,-0.149083,0.580988,0.091277,-0.290789,-40.322224,5.825912,21.887083,0.243009,2.209274,0.147262,0.000000,0.000000,0.000000,0.000000,0.000000,0.000000
12343885.000000,-0.345118,0.572499,0.442717,-1.473243,-0.257971,1.987636,0.142212,0.016748,0.259890,-0.056623,-0.388829,-0.150340,0.587242,0.093899,-0.290789,-40.199238,5.798141,21.712523,0.255826,2.177230,0.100570,0.000000,0.000000,0.000000,0.000000,0.000000,0.000000
12343886.000000,-0.345109,0.572758,0.442665,-1.473620,-0.258115,1.988237,0.142300,0.014438,0.260464,-0.055896,-0.386116,-0.150213,0.601793,0.088616,-0.243182,-40.028645,5.679123,21.541929,0.255826,2.196456,0.114303,0.000000,0.000000,0.000000,0.000000,0.000000,0.000000
12343887.000000,-0.345097,0.573010,0.442611,-1.473997,-0.258264,1.988837,0.142387,0.013922,0.259523,-0.053361,-0.387242,-0.146274,0.597534,0.088573,-0.243182,-39.782673,5.603745,21.367369,0.267728,2.169906,0.153671,0.000000,0.000000,0.000000,0.000000,0.000000,0.000000
12343888.000000,-0.345081,0.573270,0.442552,-1.474358,-0.258405,1.989440,0.142483,0.014666,0.259249,-0.056860,-0.373860,-0.142297,0.593667,0.086999,-0.290789,-39.711262,5.627548,21.145201,0.255826,2.131454,0.107894,0.000000,0.000000,0.000000,0.000000,0.000000,0.000000
12343889.000000,-0.345069,0.573529,0.442501,-1.474727,-0.258543,1.990039,0.142570,0.016597,0.260510,-0.053132,-0.374075,-0.138007,0.600500,0.087585,-0.266986,-39.540668,5.528366,20.970640,0.213712,2.157089,0.140853,0.000000,0.000000,0.000000,0.000000,0.000000,0.000000
12343890.000000,-0.345060,0.573800,0.442447,-1.475084,-0.258679,1.990651,0.142659,0.014297,0.266077,-0.054859,-0.367399,-0.135113,0.601987,0.093076,-0.215411,-39.564472,5.480759,20.748472,0.171598,2.137862,0.166488,0.000000,0.000000,0.000000,0.000000,0.000000,0.000000
12343891.000000,-0.345049,0.574061,0.442391,-1.475434,-0.258827,1.991277,0.142756,0.015990,0.262032,-0.053523,-0.369187,-0.140106,0.610546,0.090842,-0.167803,-39.540668,5.456955,20.478697,0.189908,2.047225,0.107894,0.000000,0.000000,0.000000,0.000000,0.000000,0.000000
12343892.000000,-0.345039,0.574318,0.442327,-1.475795,-0.258969,1.991887,0.142843,0.014713,0.257376,-0.055330,-0.369250,-0.142200,0.615496,0.089043,-0.144000,-39.441486,5.556137,20.355711,0.171598,1.995040,0.147262,0.000000,0.000000,0.000000,0.000000,0.000000,0.000000
12343893.000000,-0.345032,0.574580,0.442269,-1.476142,-0.259113,1.992501,0.142933,0.012604,0.257261,-0.059705,-0.359838,-0.140845,0.610307,0.091141,-0.068621,-39.366108,5.528366,20.232725,0.195402,1.995040,0.127120,0.000000,0.000000,0.000000,0.000000,0.000000,0.000000
12343894.000000,-0.345032,0.574833,0.442205,-1.476489,-0.259252,1.993113,0.143030,0.006262,0.256471,-0.058532,-0.354039,-0.138461,0.620710,0.093198,0.078168,-39.247089,5.579941,20.058165,0.195402,1.981307,0.094161,0.000000,0.000000,0.000000,0.000000,0.000000,0.000000
12343895.000000,-0.345022,0.575094,0.442139,-1.476831,-0.259392,1.993724,0.143115,0.007621,0.257693,-0.061287,-0.346090,-0.137285,0.616395,0.091154,0.105939,-39.195515,5.651352,20.006590,0.201810,1.962081,0.153671,0.000000,0.000000,0.000000,0.000000,0.000000,0.000000
12343896.000000,-0.345018,0.575353,0.442073,-1.477171,-0.259534,1.994337,0.143213,0.003748,0.255124,-0.066496,-0.341532,-0.136991,0.613742,0.093080,0.205121,-39.024921,5.726730,19.859800,0.225614,1.955673,0.120712,0.000000,0.000000,0.000000,0.000000,0.000000,0.000000
12343897.000000,-0.345011,0.575616,0.442009,-1.477505,-0.259669,1.994938,0.143303,0.004698,0.258620,-0.066474,-0.340417,-0.133561,0.611472,0.092615,0.276533,-39.048725,5.774338,19.713011,0.166105,1.949264,0.140853,0.000000,0.000000,0.000000,0.000000,0.000000,0.000000
12343898.000000,-0.345005,0.575879,0.441947,-1.477825,-0.259805,1.995549,0.143403,0.002742,0.258575,-0.065917,-0.335629,-0.136564,0.602793,0.094857,0.328107,-38.977314,5.798141,19.514647,0.123990,1.936446,0.094161,0.000000,0.000000,0.000000,0.000000,0.000000,0.000000
12343899.000000,-0.345001,0.576145,0.441877,-1.478152,-0.259951,1.996157,0.143498,0.002625,0.262070,-0.069745,-0.333299,-0.139169,0.616913,0.094079,0.451093,-38.925739,5.873520,19.340086,0.100187,1.884261,0.100570,0.000000,0.000000,0.000000,0.000000,0.000000,0.000000
12343900.000000,-0.344998,0.576399,0.441805,-1.478470,-0.260100,1.996752,0.143588,0.003328,0.257527,-0.069506,-0.330227,-0.150922,0.607382,0.093366,0.550275,-38.830524,5.948898,19.217100,0.100187,1.903487,0.120712,0.000000,0.000000,0.000000,0.000000,0.000000,0.000000
12343901.000000,-0.344996,0.576656,0.441731,-1.478785,-0.260251,1.997355,0.143683,-0.000414,0.257510,-0.069758,-0.320977,-0.152866,0.604812,0.093466,0.697065,-38.632160,6.044113,18.994932,0.147794,1.897079,0.120712,0.000000,0.000000,0.000000,0.000000,0.000000,0.000000
12343902.000000,-0.344997,0.576915,0.441656,-1.479105,-0.260401,1.997954,0.143775,0.000521,0.266202,-0.068780,-0.320666,-0.153217,0.600565,0.096859,0.824018,-38.437763,6.095688,18.919554,0.171598,1.871444,0.147262,0.000000,0.000000,0.000000,0.000000,0.000000,0.000000
12343903.000000,-0.344993,0.577176,0.441583,-1.479408,-0.260551,1.998565,0.143873,0.002535,0.263957,-0.071768,-0.313753,-0.153370,0.604391,0.098078,0.895429,-38.338581,6.167099,18.697386,0.189908,1.786300,0.100570,0.000000,0.000000,0.000000,0.000000,0.000000,0.000000
12343904.000000,-0.344988,0.577436,0.441506,-1.479727,-0.260699,1.999168,0.143960,0.003231,0.261556,-0.074015,-0.316686,-0.152280,0.598819,0.095545,0.994611,-38.215595,6.242477,18.625975,0.183500,1.793624,0.140853,0.000000,0.000000,0.000000,0.000000,0.000000,0.000000
12343905.000000,-0.344980,0.577699,0.441426,-1.480036,-0.260842,1.999748,0.144054,0.005518,0.264427,-0.075657,-0.314718,-0.145462,0.597315,0.091639,1.022382,-38.144184,6.313889,18.550596,0.135892,1.858627,0.114303,0.000000,0.000000,0.000000,0.000000,0.000000,0.000000
12343906.000000,-0.344970,0.577969,0.441350,-1.480335,-0.260984,2.000349,0.144148,0.007695,0.262365,-0.075178,-0.311177,-0.141053,0.595953,0.093014,1.022382,-38.191792,6.313889,18.399839,0.100187,1.897079,0.094161,0.000000,0.000000,0.000000,0.000000,0.000000,0.000000
12343907.000000,-0.344964,0.578235,0.441269,-1.480638,-0.261131,2.000943,0.144236,0.008119,0.265268,-0.075480,-0.309201,-0.142234,0.594018,0.091353,1.069990,-38.144184,6.341660,18.304625,0.069974,1.851302,0.147262,0.000000,0.000000,0.000000,0.000000,0.000000,0.000000
12343908.000000,-0.344959,0.578497,0.441190,-1.480936,-0.261281,2.001549,0.144336,0.004616,0.266140,-0.076370,-0.302904,-0.143847,0.596644,0.093715,1.145368,-38.045002,6.389267,18.276854,0.046171,1.838485,0.107894,0.000000,0.000000,0.000000,0.000000,0.000000,0.000000
12343909.000000,-0.344948,0.578762,0.441109,-1.481235,-0.261435,2.002158,0.144431,0.004359,0.261605,-0.077632,-0.304840,-0.152218,0.599731,0.098032,1.121564,-38.021198,6.460678,18.177671,0.088285,1.800033,0.114303,0.000000,0.000000,0.000000,0.000000,0.000000,0.000000
12343910.000000,-0.344938,0.579026,0.441030,-1.481538,-0.261587,2.002756,0.144522,0.006584,0.261914,-0.076809,-0.306188,-0.153752,0.599641,0.095660,1.121564,-37.997395,6.460678,18.153868,0.135892,1.825668,0.153671,0.000000,0.000000,0.000000,0.000000,0.000000,0.000000
12343911.000000,-0.344932,0.579289,0.440947,-1.481830,-0.261736,2.003366,0.144619,0.007068,0.263379,-0.077514,-0.300121,-0.149968,0.605079,0.096867,1.169172,-37.898212,6.512253,18.106260,0.183500,1.793624,0.114303,0.000000,0.000000,0.000000,0.000000,0.000000,0.000000
12343912.000000,-0.344917,0.579556,0.440866,-1.482122,-0.261886,2.003970,0.144710,0.007238,0.260034,-0.080343,-0.297910,-0.150416,0.617670,0.094963,1.093793,-37.874409,6.536057,18.007078,0.201810,1.767074,0.147262,0.000000,0.000000,0.000000,0.000000,0.000000,0.000000
12343913.000000,-0.344901,0.579819,0.440782,-1.482408,-0.262029,2.004578,0.144812,0.010171,0.262897,-0.082691,-0.292462,-0.154646,0.616559,0.101611,1.022382,-37.802998,6.559860,17.907896,0.189908,1.695663,0.094161,0.000000,0.000000,0.000000,0.000000,0.000000,0.000000
12343914.000000,-0.344883,0.580090,0.440710,-1.482704,-0.262165,2.005191,0.144903,0.012967,0.263522,-0.080994,-0.292015,-0.145244,0.612268,0.102744,0.923200,-37.703815,6.436874,17.808714,0.088285,1.714889,0.133529,0.000000,0.000000,0.000000,0.000000,0.000000,0.000000
12343915.000000,-0.344872,0.580369,0.440626,-1.482999,-0.262311,2.005778,0.145000,0.010075,0.263823,-0.079784,-0.293144,-0.145208,0.603185,0.096259,0.895429,-37.826801,6.436874,17.661924,0.040677,1.760665,0.127120,0.000000,0.000000,0.000000,0.000000,0.000000,0.000000
12343916.000000,-0.344848,0.580655,0.440553,-1.483282,-0.262461,2.006384,0.145099,0.014365,0.270953,-0.079069,-0.287059,-0.150754,0.603415,0.096795,0.724836,-37.997395,6.313889,17.463560,0.010465,1.735030,0.100570,0.000000,0.000000,0.000000,0.000000,0.000000,0.000000
12343917.000000,-0.344833,0.580933,0.440465,-1.483583,-0.262616,2.006978,0.145190,0.014010,0.273931,-0.080100,-0.293206,-0.151510,0.604753,0.094668,0.697065,-37.949787,6.389267,17.411985,0.027860,1.760665,0.140853,0.000000,0.000000,0.000000,0.000000,0.000000,0.000000
12343918.000000,-0.344817,0.581205,0.440386,-1.483873,-0.262774,2.007581,0.145282,0.014393,0.268151,-0.081639,-0.294419,-0.155269,0.607165,0.089529,0.649457,-37.949787,6.365463,17.340574,0.123990,1.695663,0.147262,0.000000,0.000000,0.000000,0.000000,0.000000,0.000000
12343919.000000,-0.344795,0.581482,0.440312,-1.484166,-0.262922,2.008185,0.145381,0.012763,0.271492,-0.078977,-0.290615,-0.154326,0.607369,0.092097,0.550275,-37.898212,6.313889,17.265196,0.129484,1.643478,0.107894,0.000000,0.000000,0.000000,0.000000,0.000000,0.000000
12343920.000000,-0.344777,0.581765,0.440236,-1.484463,-0.263073,2.008783,0.145469,0.014630,0.278186,-0.077044,-0.290792,-0.154188,0.602171,0.086475,0.451093,-37.922016,6.266281,17.166014,0.154203,1.617843,0.147262,0.000000,0.000000,0.000000,0.000000,0.000000,0.000000
12343921.000000,-0.344763,0.582048,0.440169,-1.484751,-0.263218,2.009384,0.145572,0.014126,0.278339,-0.073420,-0.287843,-0.153082,0.601885,0.090212,0.427289,-37.949787,6.119492,17.090635,0.147794,1.624252,0.100570,0.000000,0.000000,0.000000,0.000000,0.000000,0.000000
12343922.000000,-0.344737,0.582335,0.440091,-1.485036,-0.263362,2.009994,0.145670,0.017972,0.280049,-0.073158,-0.292684,-0.151169,0.601696,0.090304,0.228925,-38.068806,6.067917,16.967649,0.117582,1.643478,0.120712,0.000000,0.000000,0.000000,0.000000,0.000000,0.000000
12343923.000000,-0.344716,0.582618,0.440016,-1.485331,-0.263506,2.010593,0.145765,0.017770,0.282634,-0.073016,-0.294001,-0.148853,0.596597,0.095610,0.153547,-38.096577,6.020309,16.920042,0.052579,1.656295,0.133529,0.000000,0.000000,0.000000,0.000000,0.000000,0.000000
12343924.000000,-0.344693,0.582905,0.439948,-1.485616,-0.263654,2.011197,0.145864,0.017657,0.283343,-0.071744,-0.287529,-0.148170,0.591045,0.095917,0.078168,-38.215595,5.921127,16.868467,0.010465,1.676437,0.114303,0.000000,0.000000,0.000000,0.000000,0.000000,0.000000
12343925.000000,-0.344671,0.583187,0.439877,-1.485907,-0.263806,2.011789,0.145956,0.020089,0.284538,-0.071846,-0.292284,-0.148332,0.583325,0.094239,0.030561,-38.215595,5.873520,16.820860,-0.001437,1.676437,0.147262,0.000000,0.000000,0.000000,0.000000,0.000000,0.000000
12343926.000000,-0.344656,0.583479,0.439803,-1.486197,-0.263957,2.012399,0.146058,0.019751,0.287100,-0.072549,-0.290894,-0.145874,0.584472,0.096296,0.078168,-38.290974,5.849716,16.820860,0.034269,1.643478,0.094161,0.000000,0.000000,0.000000,0.000000,0.000000,0.000000
12343927.000000,-0.344632,0.583766,0.439733,-1.486493,-0.264106,2.012999,0.146147,0.022595,0.281929,-0.069225,-0.292688,-0.148561,0.578100,0.093270,0.006757,-38.362385,5.798141,16.892271,0.069974,1.656295,0.153671,0.000000,0.000000,0.000000,0.000000,0.000000,0.000000
12343928.000000,-0.344612,0.584054,0.439657,-1.486787,-0.264252,2.013597,0.146248,0.023072,0.284966,-0.071713,-0.296195,-0.149662,0.576939,0.098945,0.006757,-38.437763,5.825912,16.844664,0.081876,1.591293,0.114303,0.000000,0.000000,0.000000,0.000000,0.000000,0.000000
12343929.000000,-0.344597,0.584351,0.439587,-1.487086,-0.264402,2.014188,0.146337,0.019642,0.290312,-0.072148,-0.296326,-0.151097,0.571999,0.096756,0.030561,-38.513142,5.798141,16.967649,0.112089,1.578475,0.140853,0.000000,0.000000,0.000000,0.000000,0.000000,0.000000
12343930.000000,-0.344580,0.584648,0.439523,-1.487380,-0.264547,2.014775,0.146431,0.017262,0.292310,-0.067664,-0.296088,-0.145993,0.585319,0.095791,0.054365,-38.632160,5.702927,16.943846,0.112089,1.605026,0.153671,0.000000,0.000000,0.000000,0.000000,0.000000,0.000000
12343931.000000,-0.344556,0.584944,0.439453,-1.487679,-0.264684,2.015368,0.146528,0.017793,0.292189,-0.072630,-0.290712,-0.140057,0.584532,0.097210,-0.017047,-38.683735,5.702927,16.920042,0.046171,1.605026,0.107894,0.000000,0.000000,0.000000,0.000000,0.000000,0.000000
12343932.000000,-0.344537,0.585241,0.439386,-1.487983,-0.264833,2.015965,0.146617,0.018940,0.292182,-0.071776,-0.289660,-0.147447,0.587685,0.094309,0.006757,-38.632160,5.627548,16.943846,0.040677,1.637069,0.160079,0.000000,0.000000,0.000000,0.000000,0.000000,0.000000
12343933.000000,-0.344520,0.585531,0.439314,-1.488285,-0.264986,2.016541,0.146716,0.019350,0.293657,-0.072358,-0.296076,-0.147369,0.580481,0.100741,0.054365,-38.608356,5.603745,16.991453,0.010465,1.670028,0.100570,0.000000,0.000000,0.000000,0.000000,0.000000,0.000000
12343934.000000,-0.344503,0.585818,0.439241,-1.488585,-0.265138,2.017125,0.146811,0.017151,0.291234,-0.070808,-0.294753,-0.147839,0.578255,0.099031,0.078168,-38.437763,5.627548,17.043028,-0.007845,1.721298,0.100570,0.000000,0.000000,0.000000,0.000000,0.000000,0.000000
12343935.000000,-0.344492,0.586115,0.439174,-1.488882,-0.265294,2.017721,0.146898,0.015761,0.286627,-0.070834,-0.298213,-0.150402,0.592050,0.094933,0.228925,-38.390156,5.579941,16.991453,0.040677,1.695663,0.173812,0.000000,0.000000,0.000000,0.000000,0.000000,0.000000
12343936.000000,-0.344475,0.586404,0.439096,-1.489189,-0.265443,2.018304,0.146997,0.014158,0.285679,-0.070787,-0.305734,-0.155440,0.591219,0.097232,0.276533,-38.314777,5.651352,17.142210,0.046171,1.649886,0.114303,0.000000,0.000000,0.000000,0.000000,0.000000,0.000000
12343937.000000,-0.344461,0.586694,0.439025,-1.489493,-0.265596,2.018891,0.147087,0.015438,0.285809,-0.071386,-0.301293,-0.160151,0.588475,0.095754,0.351911,-38.167988,5.627548,17.189817,0.076383,1.643478,0.127120,0.000000,0.000000,0.000000,0.000000,0.000000,0.000000
12343938.000000,-0.344446,0.586991,0.438950,-1.489799,-0.265750,2.019467,0.147174,0.014552,0.292864,-0.076023,-0.302227,-0.158462,0.587409,0.093978,0.375715,-38.215595,5.651352,17.289000,0.100187,1.630660,0.166488,0.000000,0.000000,0.000000,0.000000,0.000000,0.000000
12343939.000000,-0.344432,0.587285,0.438871,-1.490102,-0.265896,2.020058,0.147270,0.015650,0.292794,-0.074482,-0.302547,-0.155414,0.586641,0.095923,0.451093,-38.243366,5.726730,17.364378,0.069974,1.611434,0.120712,0.000000,0.000000,0.000000,0.000000,0.000000,0.000000
12343940.000000,-0.344420,0.587583,0.438797,-1.490406,-0.266051,2.020631,0.147362,0.012903,0.292980,-0.073985,-0.304837,-0.152994,0.582014,0.094658,0.550275,-38.314777,5.702927,17.463560,0.034269,1.695663,0.140853,0.000000,0.000000,0.000000,0.000000,0.000000,0.000000
12343941.000000,-0.344407,0.587871,0.438718,-1.490712,-0.266214,2.021202,0.147459,0.012059,0.288759,-0.072831,-0.308565,-0.157017,0.580060,0.096150,0.601850,-38.314777,5.774338,17.562742,0.022367,1.760665,0.100570,0.000000,0.000000,0.000000,0.000000,0.000000,0.000000
12343942.000000,-0.344394,0.588163,0.438641,-1.491025,-0.266374,2.021781,0.147549,0.011394,0.287154,-0.074516,-0.308588,-0.155383,0.579131,0.089341,0.649457,-38.267170,5.825912,17.685728,0.015958,1.786300,0.140853,0.000000,0.000000,0.000000,0.000000,0.000000,0.000000
12343943.000000,-0.344385,0.588459,0.438560,-1.491341,-0.266537,2.022360,0.147645,0.012874,0.286444,-0.076599,-0.312818,-0.155396,0.580765,0.090646,0.748639,-38.215595,5.921127,17.856321,0.052579,1.773483,0.140853,0.000000,0.000000,0.000000,0.000000,0.000000,0.000000
12343944.000000,-0.344374,0.588746,0.438481,-1.491651,-0.266696,2.022945,0.147738,0.011438,0.283450,-0.077220,-0.312613,-0.160121,0.583369,0.092828,0.824018,-38.191792,5.972702,18.030882,0.081876,1.721298,0.107894,0.000000,0.000000,0.000000,0.000000,0.000000,0.000000
12343945.000000,-0.344363,0.589041,0.438392,-1.491967,-0.266859,2.023527,0.147826,0.010498,0.286852,-0.079397,-0.316425,-0.158613,0.581534,0.091236,0.895429,-38.167988,6.095688,18.177671,0.105680,1.760665,0.153671,0.000000,0.000000,0.000000,0.000000,0.000000,0.000000
12343946.000000,-0.344351,0.589329,0.438314,-1.492277,-0.267020,2.024095,0.147928,0.010836,0.285803,-0.081041,-0.315120,-0.162175,0.575135,0.093125,0.923200,-38.096577,6.095688,18.229246,0.129484,1.806442,0.127120,0.000000,0.000000,0.000000,0.000000,0.000000,0.000000
12343947.000000,-0.344339,0.589627,0.438228,-1.492591,-0.267180,2.024677,0.148026,0.010420,0.289822,-0.081595,-0.312638,-0.163654,0.569031,0.093578,0.970807,-38.096577,6.190903,18.328428,0.117582,1.844894,0.107894,0.000000,0.000000,0.000000,0.000000,0.000000,0.000000
12343948.000000,-0.344325,0.589925,0.438144,-1.492906,-0.267344,2.025254,0.148121,0.013870,0.294124,-0.082645,-0.314480,-0.164002,0.580699,0.097024,0.994611,-38.021198,6.190903,18.427610,0.093778,1.812850,0.147262,0.000000,0.000000,0.000000,0.000000,0.000000,0.000000
12343949.000000,-0.344319,0.590221,0.438057,-1.493212,-0.267513,2.025838,0.148223,0.011543,0.289988,-0.087604,-0.316614,-0.166193,0.576182,0.097878,1.093793,-38.021198,6.242477,18.526793,0.112089,1.806442,0.107894,0.000000,0.000000,0.000000,0.000000,0.000000,0.000000
12343950.000000,-0.344305,0.590519,0.437961,-1.493529,-0.267679,2.026415,0.148318,0.011503,0.292222,-0.090928,-0.311970,-0.163101,0.571438,0.095822,1.121564,-38.021198,6.389267,18.697386,0.129484,1.825668,0.114303,0.000000,0.000000,0.000000,0.000000,0.000000,0.000000
12343951.000000,-0.344290,0.590815,0.437872,-1.493841,-0.267846,2.026981,0.148411,0.015232,0.292538,-0.088229,-0.310505,-0.165836,0.572455,0.093768,1.121564,-37.997395,6.460678,18.820372,0.159696,1.884261,0.147262,0.000000,0.000000,0.000000,0.000000,0.000000,0.000000
12343952.000000,-0.344277,0.591116,0.437789,-1.494147,-0.268008,2.027555,0.148512,0.016725,0.292803,-0.088422,-0.312590,-0.163907,0.568012,0.095977,1.169172,-38.045002,6.488449,18.919554,0.207303,1.916305,0.094161,0.000000,0.000000,0.000000,0.000000,0.000000,0.000000
12343953.000000,-0.344261,0.591416,0.437701,-1.494460,-0.268165,2.028135,0.148606,0.018923,0.294210,-0.089009,-0.310797,-0.158936,0.567833,0.093534,1.169172,-38.021198,6.536057,18.971128,0.171598,1.909896,0.147262,0.000000,0.000000,0.000000,0.000000,0.000000,0.000000
12343954.000000,-0.344243,0.591715,0.437608,-1.494764,-0.268317,2.028704,0.148708,0.018029,0.296051,-0.090298,-0.309204,-0.155840,0.571227,0.094838,1.145368,-38.021198,6.611435,19.018736,0.141385,1.923629,0.094161,0.000000,0.000000,0.000000,0.000000,0.000000,0.000000
12343955.000000,-0.344230,0.592008,0.437521,-1.495079,-0.268476,2.029280,0.148802,0.016693,0.296157,-0.089383,-0.308919,-0.154134,0.571153,0.092519,1.145368,-37.997395,6.611435,19.141722,0.123990,1.962081,0.147262,0.000000,0.000000,0.000000,0.000000,0.000000,0.000000
12343956.000000,-0.344209,0.592301,0.437439,-1.495394,-0.268639,2.029850,0.148903,0.017452,0.301698,-0.084358,-0.313549,-0.157185,0.573433,0.094619,1.069990,-37.973591,6.559860,19.217100,0.100187,1.988631,0.107894,0.000000,0.000000,0.000000,0.000000,0.000000,0.000000
12343957.000000,-0.344195,0.592600,0.437351,-1.495697,-0.268802,2.030429,0.149000,0.017992,0.297885,-0.085798,-0.308694,-0.156746,0.580671,0.094533,1.121564,-37.949787,6.583664,19.193296,0.123990,2.007858,0.107894,0.000000,0.000000,0.000000,0.000000,0.000000,0.000000
12343958.000000,-0.344174,0.592903,0.437258,-1.496018,-0.268965,2.031012,0.149094,0.017884,0.298287,-0.086982,-0.310686,-0.156561,0.582281,0.092574,1.069990,-37.949787,6.611435,19.240904,0.159696,1.981307,0.153671,0.000000,0.000000,0.000000,0.000000,0.000000,0.000000
12343959.000000,-0.344151,0.593201,0.437161,-1.496338,-0.269128,2.031583,0.149195,0.017570,0.297407,-0.088867,-0.315189,-0.156707,0.578735,0.099366,1.022382,-37.874409,6.682846,19.292479,0.201810,1.949264,0.114303,0.000000,0.000000,0.000000,0.000000,0.000000,0.000000
12343960.000000,-0.344129,0.593503,0.437076,-1.496646,-0.269284,2.032168,0.149296,0.016780,0.297166,-0.087386,-0.314478,-0.155497,0.580008,0.097487,0.994611,-37.826801,6.635239,19.292479,0.213712,1.897079,0.127120,0.000000,0.000000,0.000000,0.000000,0.000000,0.000000
12343961.000000,-0.344110,0.593808,0.436988,-1.496951,-0.269441,2.032735,0.149398,0.015566,0.301063,-0.088371,-0.314087,-0.158262,0.576289,0.097092,0.994611,-37.802998,6.682846,19.169493,0.207303,1.871444,0.120712,0.000000,0.000000,0.000000,0.000000,0.000000,0.000000
12343962.000000,-0.344087,0.594112,0.436904,-1.497258,-0.269593,2.033302,0.149498,0.015805,0.300726,-0.087642,-0.305534,-0.159366,0.571054,0.101657,0.947004,-37.775227,6.659042,19.117918,0.159696,1.909896,0.107894,0.000000,0.000000,0.000000,0.000000,0.000000,0.000000
12343963.000000,-0.344066,0.594413,0.436824,-1.497564,-0.269757,2.033865,0.149589,0.018533,0.298385,-0.084916,-0.304962,-0.161968,0.557218,0.097926,0.923200,-37.680012,6.536057,18.994932,0.154203,1.949264,0.153671,0.000000,0.000000,0.000000,0.000000,0.000000,0.000000
12343964.000000,-0.344041,0.594711,0.436739,-1.497871,-0.269917,2.034428,0.149694,0.018088,0.299709,-0.085339,-0.305402,-0.157050,0.557850,0.098208,0.871625,-37.557026,6.512253,18.919554,0.093778,1.974899,0.100570,0.000000,0.000000,0.000000,0.000000,0.000000,0.000000
12343965.000000,-0.344019,0.595013,0.436663,-1.498169,-0.270081,2.035003,0.149790,0.019692,0.298173,-0.083442,-0.300122,-0.156672,0.548965,0.096929,0.871625,-37.457844,6.389267,18.871946,0.117582,1.923629,0.107894,0.000000,0.000000,0.000000,0.000000,0.000000,0.000000
12343966.000000,-0.343998,0.595313,0.436579,-1.498475,-0.270241,2.035571,0.149885,0.021448,0.298096,-0.081192,-0.303977,-0.155485,0.565116,0.094817,0.847822,-37.410236,6.365463,18.871946,0.129484,1.890670,0.147262,0.000000,0.000000,0.000000,0.000000,0.000000,0.000000
12343967.000000,-0.343969,0.595614,0.436495,-1.498774,-0.270399,2.036135,0.149988,0.024588,0.298939,-0.082763,-0.307624,-0.158808,0.563569,0.096504,0.748639,-37.386433,6.365463,18.895750,0.147794,1.897079,0.100570,0.000000,0.000000,0.000000,0.000000,0.000000,0.000000
12343968.000000,-0.343949,0.595922,0.436415,-1.499068,-0.270564,2.036713,0.150079,0.023899,0.298304,-0.085681,-0.300554,-0.164269,0.567496,0.094256,0.772443,-37.481647,6.290085,18.820372,0.219205,1.897079,0.140853,0.000000,0.000000,0.000000,0.000000,0.000000,0.000000
12343969.000000,-0.343923,0.596223,0.436331,-1.499376,-0.270718,2.037282,0.150175,0.024642,0.306659,-0.086497,-0.304955,-0.159367,0.567018,0.094818,0.748639,-37.481647,6.290085,18.871946,0.183500,1.877853,0.114303,0.000000,0.000000,0.000000,0.000000,0.000000,0.000000
12343970.000000,-0.343894,0.596534,0.436253,-1.499670,-0.270869,2.037853,0.150274,0.026309,0.305842,-0.082277,-0.299634,-0.161060,0.570156,0.094971,0.673261,-37.509418,6.218674,18.848143,0.154203,1.890670,0.107894,0.000000,0.000000,0.000000,0.000000,0.000000,0.000000
12343971.000000,-0.343868,0.596837,0.436177,-1.499963,-0.271030,2.038434,0.150367,0.026208,0.304461,-0.079038,-0.302587,-0.157330,0.581206,0.097501,0.649457,-37.509418,6.143295,18.772764,0.129484,1.858627,0.140853,0.000000,0.000000,0.000000,0.000000,0.000000,0.000000
12343972.000000,-0.343838,0.597142,0.436102,-1.500263,-0.271191,2.038993,0.150471,0.028085,0.304758,-0.079352,-0.302500,-0.160276,0.579386,0.098364,0.550275,-37.557026,6.044113,18.772764,0.112089,1.897079,0.100570,0.000000,0.000000,0.000000,0.000000,0.000000,0.000000
12343973.000000,-0.343811,0.597450,0.436024,-1.500548,-0.271349,2.039563,0.150564,0.030129,0.302494,-0.080907,-0.296637,-0.158305,0.576446,0.094893,0.550275,-37.533222,5.996506,18.673582,0.117582,1.962081,0.160079,0.000000,0.000000,0.000000,0.000000,0.000000,0.000000
12343974.000000,-0.343791,0.597760,0.435945,-1.500839,-0.271502,2.040135,0.150668,0.027439,0.302317,-0.081768,-0.297371,-0.155857,0.574794,0.096141,0.601850,-37.533222,5.948898,18.550596,0.105680,1.916305,0.127120,0.000000,0.000000,0.000000,0.000000,0.000000,0.000000
12343975.000000,-0.343756,0.598068,0.435870,-1.501134,-0.271656,2.040717,0.150770,0.032199,0.307165,-0.079338,-0.295624,-0.155113,0.574616,0.097106,0.502668,-37.481647,5.897324,18.574400,0.112089,1.851302,0.087753,0.000000,0.000000,0.000000,0.000000,0.000000,0.000000
12343976.000000,-0.343726,0.598375,0.435796,-1.501426,-0.271813,2.041299,0.150857,0.030841,0.304175,-0.077034,-0.293846,-0.155326,0.573563,0.092963,0.474897,-37.434040,5.825912,18.598204,0.141385,1.793624,0.173812,0.000000,0.000000,0.000000,0.000000,0.000000,0.000000
12343977.000000,-0.343698,0.598683,0.435715,-1.501709,-0.271970,2.041872,0.150962,0.029754,0.306833,-0.077563,-0.293077,-0.154194,0.569506,0.091720,0.451093,-37.434040,5.849716,18.499022,0.141385,1.812850,0.094161,0.000000,0.000000,0.000000,0.000000,0.000000,0.000000
12343978.000000,-0.343670,0.598998,0.435640,-1.501985,-0.272129,2.042447,0.151062,0.028354,0.307352,-0.075468,-0.285337,-0.153901,0.564705,0.092416,0.451093,-37.386433,5.774338,18.376036,0.154203,1.844894,0.087753,0.000000,0.000000,0.000000,0.000000,0.000000,0.000000
12343979.000000,-0.343640,0.599312,0.435562,-1.502258,-0.272293,2.043021,0.151153,0.031139,0.309625,-0.074988,-0.283284,-0.156595,0.562824,0.089955,0.427289,-37.410236,5.750534,18.253050,0.123990,1.871444,0.166488,0.000000,0.000000,0.000000,0.000000,0.000000,0.000000
12343980.000000,-0.343608,0.599631,0.435489,-1.502533,-0.272456,2.043604,0.151252,0.033860,0.315076,-0.073675,-0.278349,-0.159327,0.564082,0.092980,0.375715,-37.457844,5.679123,18.153868,0.105680,1.825668,0.120712,0.000000,0.000000,0.000000,0.000000,0.000000,0.000000
12343981.000000,-0.343576,0.599953,0.435412,-1.502809,-0.272622,2.044194,0.151348,0.032620,0.310650,-0.074477,-0.272958,-0.157250,0.570843,0.093356,0.328107,-37.580830,5.679123,18.106260,0.100187,1.760665,0.114303,0.000000,0.000000,0.000000,0.000000,0.000000,0.000000
12343982.000000,-0.343539,0.600269,0.435337,-1.503085,-0.272787,2.044772,0.151446,0.032306,0.310975,-0.076849,-0.273979,-0.159864,0.570328,0.089601,0.252729,-37.703815,5.627548,18.130064,0.081876,1.708480,0.094161,0.000000,0.000000,0.000000,0.000000,0.000000,0.000000
12343983.000000,-0.343514,0.600593,0.435258,-1.503354,-0.272955,2.045352,0.151542,0.029036,0.316748,-0.077337,-0.269321,-0.163719,0.566619,0.089085,0.304304,-37.802998,5.651352,18.078489,0.112089,1.708480,0.127120,0.000000,0.000000,0.000000,0.000000,0.000000,0.000000
12343984.000000,-0.343479,0.600917,0.435175,-1.503619,-0.273123,2.045915,0.151639,0.032631,0.317525,-0.078023,-0.269082,-0.161901,0.574500,0.090730,0.228925,-37.898212,5.702927,17.983274,0.154203,1.773483,0.120712,0.000000,0.000000,0.000000,0.000000,0.000000,0.000000
12343985.000000,-0.343450,0.601235,0.435096,-1.503881,-0.273285,2.046496,0.151742,0.029977,0.320468,-0.080562,-0.272098,-0.167347,0.577073,0.092890,0.252729,-37.949787,5.726730,17.884092,0.147794,1.767074,0.087753,0.000000,0.000000,0.000000,0.000000,0.000000,0.000000
12343986.000000,-0.343417,0.601559,0.435018,-1.504154,-0.273448,2.047073,0.151839,0.032395,0.317789,-0.078689,-0.269465,-0.165754,0.571102,0.091093,0.228925,-37.949787,5.702927,17.884092,0.088285,1.793624,0.120712,0.000000,0.000000,0.000000,0.000000,0.000000,0.000000
12343987.000000,-0.343389,0.601877,0.434942,-1.504422,-0.273625,2.047649,0.151939,0.033072,0.324502,-0.076586,-0.270458,-0.167437,0.574744,0.096118,0.252729,-37.973591,5.651352,17.884092,0.105680,1.773483,0.120712,0.000000,0.000000,0.000000,0.000000,0.000000,0.000000
12343988.000000,-0.343356,0.602193,0.434861,-1.504679,-0.273791,2.048234,0.152041,0.029030,0.322308,-0.077111,-0.262846,-0.163340,0.576063,0.097146,0.205121,-37.874409,5.679123,17.808714,0.100187,1.767074,0.081344,0.000000,0.000000,0.000000,0.000000,0.000000,0.000000
12343989.000000,-0.343327,0.602515,0.434777,-1.504940,-0.273958,2.048817,0.152132,0.027238,0.319386,-0.077184,-0.264597,-0.164520,0.583804,0.098127,0.228925,-37.850605,5.702927,17.709532,0.093778,1.786300,0.160079,0.000000,0.000000,0.000000,0.000000,0.000000,0.000000
12343990.000000,-0.343297,0.602828,0.434700,-1.505203,-0.274123,2.049397,0.152234,0.026177,0.318946,-0.076155,-0.266252,-0.166333,0.588251,0.097037,0.252729,-37.751423,5.679123,17.661924,0.100187,1.793624,0.147262,0.000000,0.000000,0.000000,0.000000,0.000000,0.000000
12343991.000000,-0.343267,0.603156,0.434614,-1.505448,-0.274285,2.049977,0.152342,0.027837,0.319508,-0.078256,-0.257312,-0.162086,0.580450,0.103742,0.304304,-37.703815,5.774338,17.487364,0.088285,1.800033,0.074935,0.000000,0.000000,0.000000,0.000000,0.000000,0.000000
12343992.000000,-0.343234,0.603484,0.434531,-1.505709,-0.274447,2.050558,0.152434,0.031074,0.323366,-0.078412,-0.260581,-0.158683,0.582626,0.103140,0.276533,-37.775227,5.825912,17.435789,0.076383,1.760665,0.153671,0.000000,0.000000,0.000000,0.000000,0.000000,0.000000
12343993.000000,-0.343208,0.603815,0.434453,-1.505953,-0.274607,2.051141,0.152537,0.027813,0.326762,-0.079974,-0.254319,-0.166414,0.579590,0.101850,0.351911,-37.898212,5.798141,17.312803,0.076383,1.702071,0.133529,0.000000,0.000000,0.000000,0.000000,0.000000,0.000000
12343994.000000,-0.343174,0.604151,0.434363,-1.506203,-0.274775,2.051726,0.152638,0.031011,0.326101,-0.080575,-0.249447,-0.167266,0.574808,0.101082,0.328107,-38.045002,5.873520,17.312803,0.076383,1.702071,0.100570,0.000000,0.000000,0.000000,0.000000,0.000000,0.000000
12343995.000000,-0.343141,0.604486,0.434280,-1.506452,-0.274948,2.052291,0.152740,0.030160,0.329779,-0.082271,-0.247457,-0.169596,0.570835,0.100067,0.304304,-38.215595,5.873520,17.241392,0.117582,1.708480,0.081344,0.000000,0.000000,0.000000,0.000000,0.000000,0.000000
12343996.000000,-0.343111,0.604819,0.434197,-1.506698,-0.275109,2.052870,0.152833,0.028294,0.329156,-0.084178,-0.245142,-0.169528,0.568911,0.096109,0.328107,-38.267170,5.897324,17.289000,0.112089,1.670028,0.147262,0.000000,0.000000,0.000000,0.000000,0.000000,0.000000
12343997.000000,-0.343082,0.605160,0.434114,-1.506935,-0.275270,2.053431,0.152943,0.030134,0.331931,-0.081130,-0.244383,-0.164252,0.561250,0.097856,0.351911,-38.437763,5.873520,17.213621,0.105680,1.682845,0.094161,0.000000,0.000000,0.000000,0.000000,0.000000,0.000000
12343998.000000,-0.343051,0.605486,0.434027,-1.507183,-0.275431,2.054004,0.153045,0.032095,0.332564,-0.083980,-0.246527,-0.161132,0.561384,0.097170,0.351911,-38.413960,5.921127,17.312803,0.112089,1.670028,0.087753,0.000000,0.000000,0.000000,0.000000,0.000000,0.000000
12343999.000000,-0.343018,0.605823,0.433938,-1.507431,-0.275591,2.054571,0.153139,0.034080,0.328323,-0.085546,-0.244508,-0.161833,0.560052,0.098752,0.328107,-38.485371,5.948898,17.364378,0.069974,1.702071,0.147262,0.000000,0.000000,0.000000,0.000000,0.000000,0.000000
12344000.000000,-0.342989,0.606149,0.433852,-1.507678,-0.275750,2.055124,0.153245,0.030730,0.325323,-0.086548,-0.242915,-0.162482,0.562507,0.098644,0.375715,-38.390156,5.972702,17.388182,0.027860,1.773483,0.100570,0.000000,0.000000,0.000000,0.000000,0.000000,0.000000
12344001.000000,-0.342963,0.606490,0.433768,-1.507916,-0.275917,2.055690,0.153345,0.028173,0.326050,-0.086855,-0.241303,-0.164894,0.560053,0.097009,0.427289,-38.413960,5.972702,17.435789,0.034269,1.812850,0.114303,0.000000,0.000000,0.000000,0.000000,0.000000,0.000000
12344002.000000,-0.342932,0.606832,0.433681,-1.508164,-0.276089,2.056253,0.153442,0.030728,0.330270,-0.084379,-0.245217,-0.171172,0.571902,0.100213,0.427289,-38.461567,5.996506,17.511168,0.046171,1.851302,0.140853,0.000000,0.000000,0.000000,0.000000,0.000000,0.000000
12344003.000000,-0.342898,0.607168,0.433593,-1.508410,-0.276255,2.056813,0.153548,0.029504,0.332430,-0.082038,-0.247909,-0.170125,0.564302,0.105071,0.427289,-38.461567,5.996506,17.586546,0.046171,1.851302,0.094161,0.000000,0.000000,0.000000,0.000000,0.000000,0.000000
12344004.000000,-0.342864,0.607511,0.433506,-1.508650,-0.276423,2.057378,0.153645,0.032185,0.335629,-0.080904,-0.243556,-0.165769,0.564482,0.105541,0.403486,-38.560749,6.020309,17.562742,0.058073,1.812850,0.127120,0.000000,0.000000,0.000000,0.000000,0.000000,0.000000
12344005.000000,-0.342832,0.607855,0.433419,-1.508900,-0.276591,2.057934,0.153750,0.033562,0.344750,-0.082553,-0.249637,-0.167019,0.558361,0.108091,0.403486,-38.608356,6.020309,17.511168,0.064481,1.819259,0.094161,0.000000,0.000000,0.000000,0.000000,0.000000,0.000000
12344006.000000,-0.342796,0.608200,0.433328,-1.509143,-0.276757,2.058496,0.153848,0.035163,0.341087,-0.081849,-0.244253,-0.168231,0.555389,0.104906,0.375715,-38.659931,6.067917,17.463560,0.076383,1.773483,0.087753,0.000000,0.000000,0.000000,0.000000,0.000000,0.000000
12344007.000000,-0.342767,0.608550,0.433240,-1.509384,-0.276918,2.059066,0.153941,0.032120,0.342669,-0.083281,-0.243969,-0.167657,0.564852,0.099614,0.403486,-38.778950,6.067917,17.364378,0.052579,1.741439,0.140853,0.000000,0.000000,0.000000,0.000000,0.000000,0.000000
12344008.000000,-0.342731,0.608893,0.433152,-1.509626,-0.277088,2.059622,0.154041,0.031030,0.342671,-0.083887,-0.246732,-0.173308,0.558239,0.100151,0.375715,-38.830524,6.044113,17.289000,0.058073,1.735030,0.094161,0.000000,0.000000,0.000000,0.000000,0.000000,0.000000
12344009.000000,-0.342695,0.609239,0.433059,-1.509870,-0.277263,2.060189,0.154138,0.033686,0.346050,-0.085493,-0.246269,-0.173614,0.557522,0.097128,0.328107,-38.925739,6.067917,17.265196,0.088285,1.727706,0.133529,0.000000,0.000000,0.000000,0.000000,0.000000,0.000000
12344010.000000,-0.342663,0.609584,0.432974,-1.510117,-0.277435,2.060743,0.154236,0.030854,0.347354,-0.084799,-0.249574,-0.172014,0.553054,0.095561,0.351911,-38.925739,6.020309,17.241392,0.081876,1.741439,0.160079,0.000000,0.000000,0.000000,0.000000,0.000000,0.000000
12344011.000000,-0.342630,0.609919,0.432887,-1.510356,-0.277601,2.061312,0.154342,0.028790,0.343866,-0.085702,-0.243893,-0.167049,0.561457,0.097108,0.375715,-38.878132,6.020309,17.189817,0.088285,1.714889,0.114303,0.000000,0.000000,0.000000,0.000000,0.000000,0.000000
12344012.000000,-0.342597,0.610259,0.432799,-1.510611,-0.277771,2.061885,0.154444,0.031039,0.338287,-0.086395,-0.246579,-0.167578,0.561693,0.096696,0.375715,-38.854328,6.020309,17.265196,0.081876,1.702071,0.100570,0.000000,0.000000,0.000000,0.000000,0.000000,0.000000
12344013.000000,-0.342554,0.610597,0.432709,-1.510868,-0.277940,2.062448,0.154541,0.033023,0.337336,-0.089462,-0.250028,-0.168348,0.560856,0.095791,0.228925,-38.806721,5.996506,17.411985,0.081876,1.714889,0.107894,0.000000,0.000000,0.000000,0.000000,0.000000,0.000000
12344014.000000,-0.342522,0.610937,0.432621,-1.511106,-0.278102,2.063016,0.154639,0.033277,0.340236,-0.089232,-0.245011,-0.163153,0.554623,0.095007,0.252729,-38.778950,5.996506,17.388182,0.058073,1.721298,0.120712,0.000000,0.000000,0.000000,0.000000,0.000000,0.000000
12344015.000000,-0.342483,0.611294,0.432534,-1.511356,-0.278271,2.063569,0.154741,0.035361,0.342385,-0.088334,-0.246424,-0.164172,0.554920,0.095624,0.205121,-38.878132,5.972702,17.411985,0.046171,1.760665,0.100570,0.000000,0.000000,0.000000,0.000000,0.000000,0.000000
12344016.000000,-0.342446,0.611624,0.432443,-1.511599,-0.278442,2.064132,0.154840,0.036413,0.334788,-0.088444,-0.245445,-0.165786,0.556079,0.099490,0.177350,-38.731342,5.996506,17.411985,0.046171,1.786300,0.114303,0.000000,0.000000,0.000000,0.000000,0.000000,0.000000
12344017.000000,-0.342411,0.611973,0.432351,-1.511847,-0.278624,2.064697,0.154937,0.033419,0.337633,-0.087866,-0.243374,-0.168936,0.552738,0.096824,0.177350,-38.707539,5.972702,17.463560,0.100187,1.767074,0.147262,0.000000,0.000000,0.000000,0.000000,0.000000,0.000000
12344018.000000,-0.342371,0.612314,0.432260,-1.512095,-0.278793,2.065254,0.155043,0.035465,0.334567,-0.090559,-0.248366,-0.168656,0.556092,0.098027,0.129743,-38.683735,5.948898,17.487364,0.088285,1.747848,0.100570,0.000000,0.000000,0.000000,0.000000,0.000000,0.000000
12344019.000000,-0.342331,0.612663,0.432175,-1.512341,-0.278962,2.065809,0.155144,0.036333,0.339851,-0.088873,-0.243786,-0.169086,0.551750,0.096648,0.105939,-38.731342,5.897324,17.463560,0.093778,1.727706,0.100570,0.000000,0.000000,0.000000,0.000000,0.000000,0.000000
12344020.000000,-0.342297,0.613018,0.432082,-1.512583,-0.279133,2.066372,0.155239,0.035770,0.341161,-0.089209,-0.247179,-0.168976,0.560844,0.099049,0.129743,-38.806721,5.921127,17.388182,0.093778,1.741439,0.147262,0.000000,0.000000,0.000000,0.000000,0.000000,0.000000
12344021.000000,-0.342263,0.613365,0.431995,-1.512826,-0.279303,2.066925,0.155340,0.035604,0.340269,-0.088484,-0.249375,-0.168629,0.556066,0.098048,0.153547,-38.925739,5.897324,17.463560,0.076383,1.735030,0.147262,0.000000,0.000000,0.000000,0.000000,0.000000,0.000000
12344022.000000,-0.342222,0.613717,0.431904,-1.513076,-0.279474,2.067489,0.155447,0.037201,0.343935,-0.088432,-0.250407,-0.172130,0.555341,0.093357,0.105939,-39.001118,5.897324,17.534971,0.034269,1.767074,0.114303,0.000000,0.000000,0.000000,0.000000,0.000000,0.000000
12344023.000000,-0.342190,0.614066,0.431813,-1.513326,-0.279660,2.068045,0.155555,0.032966,0.350955,-0.088879,-0.250962,-0.176890,0.552716,0.098624,0.153547,-39.048725,5.921127,17.586546,0.052579,1.747848,0.087753,0.000000,0.000000,0.000000,0.000000,0.000000,0.000000
12344024.000000,-0.342152,0.614406,0.431725,-1.513571,-0.279840,2.068610,0.155649,0.034632,0.349539,-0.088079,-0.247387,-0.175778,0.559658,0.099438,0.129743,-39.001118,5.897324,17.634153,0.064481,1.767074,0.160079,0.000000,0.000000,0.000000,0.000000,0.000000,0.000000
12344025.000000,-0.342124,0.614758,0.431635,-1.513828,-0.280025,2.069176,0.155757,0.029369,0.348112,-0.084953,-0.250290,-0.175369,0.558876,0.100401,0.252729,-39.072529,5.897324,17.784910,0.093778,1.806442,0.100570,0.000000,0.000000,0.000000,0.000000,0.000000,0.000000
12344026.000000,-0.342088,0.615095,0.431545,-1.514087,-0.280211,2.069731,0.155863,0.031630,0.349942,-0.088412,-0.252404,-0.180158,0.564379,0.103109,0.252729,-38.977314,5.873520,17.907896,0.135892,1.825668,0.081344,0.000000,0.000000,0.000000,0.000000,0.000000,0.000000
12344027.000000,-0.342052,0.615446,0.431452,-1.514337,-0.280388,2.070303,0.155960,0.032824,0.346161,-0.092684,-0.249658,-0.177703,0.563247,0.102723,0.276533,-38.953510,5.921127,18.007078,0.141385,1.806442,0.153671,0.000000,0.000000,0.000000,0.000000,0.000000,0.000000
12344028.000000,-0.342016,0.615792,0.431357,-1.514586,-0.280565,2.070861,0.156070,0.031014,0.347829,-0.093037,-0.253177,-0.175577,0.564297,0.108192,0.276533,-38.953510,5.996506,18.054686,0.147794,1.767074,0.081344,0.000000,0.000000,0.000000,0.000000,0.000000,0.000000
12344029.000000,-0.341986,0.616142,0.431267,-1.514842,-0.280737,2.071422,0.156165,0.030977,0.348837,-0.091653,-0.254069,-0.172314,0.562831,0.102471,0.351911,-38.953510,5.996506,18.205442,0.100187,1.800033,0.140853,0.000000,0.000000,0.000000,0.000000,0.000000,0.000000
12344030.000000,-0.341952,0.616490,0.431174,-1.515090,-0.280921,2.071977,0.156269,0.031694,0.345648,-0.091240,-0.248831,-0.176509,0.551379,0.100316,0.403486,-38.953510,6.020309,18.229246,0.100187,1.838485,0.140853,0.000000,0.000000,0.000000,0.000000,0.000000,0.000000
12344031.000000,-0.341918,0.616847,0.431081,-1.515334,-0.281103,2.072528,0.156376,0.032879,0.350842,-0.090402,-0.247737,-0.176021,0.547764,0.100644,0.427289,-39.100300,6.020309,18.205442,0.129484,1.865035,0.094161,0.000000,0.000000,0.000000,0.000000,0.000000,0.000000
12344032.000000,-0.341884,0.617203,0.430989,-1.515592,-0.281276,2.073075,0.156477,0.033663,0.348231,-0.093432,-0.249702,-0.173937,0.544205,0.102450,0.451093,-39.124104,6.044113,18.304625,0.112089,1.877853,0.127120,0.000000,0.000000,0.000000,0.000000,0.000000,0.000000
12344033.000000,-0.341849,0.617556,0.430901,-1.515846,-0.281455,2.073625,0.156587,0.034818,0.349840,-0.093839,-0.251722,-0.173273,0.551901,0.107168,0.451093,-39.171711,5.996506,18.399839,0.129484,1.832076,0.074935,0.000000,0.000000,0.000000,0.000000,0.000000,0.000000
12344034.000000,-0.341819,0.617911,0.430807,-1.516093,-0.281627,2.074180,0.156691,0.033875,0.348005,-0.095613,-0.248221,-0.171841,0.544889,0.103366,0.526471,-39.219318,6.020309,18.499022,0.112089,1.800033,0.087753,0.000000,0.000000,0.000000,0.000000,0.000000,0.000000
12344035.000000,-0.341786,0.618264,0.430710,-1.516346,-0.281800,2.074731,0.156791,0.034475,0.349008,-0.094300,-0.249840,-0.171547,0.543232,0.103634,0.550275,-39.270893,6.044113,18.598204,0.112089,1.806442,0.140853,0.000000,0.000000,0.000000,0.000000,0.000000,0.000000
12344036.000000,-0.341749,0.618614,0.430613,-1.516598,-0.281979,2.075266,0.156898,0.036002,0.348025,-0.096344,-0.247335,-0.176947,0.540645,0.107273,0.526471,-39.294697,6.067917,18.673582,0.141385,1.865035,0.094161,0.000000,0.000000,0.000000,0.000000,0.000000,0.000000
12344037.000000,-0.341719,0.618962,0.430518,-1.516839,-0.282158,2.075809,0.156996,0.035284,0.345382,-0.098591,-0.240395,-0.179544,0.537720,0.102849,0.574079,-39.294697,6.119492,18.697386,0.129484,1.916305,0.127120,0.000000,0.000000,0.000000,0.000000,0.000000,0.000000
12344038.000000,-0.341688,0.619323,0.430422,-1.517090,-0.282336,2.076357,0.157103,0.035057,0.347109,-0.099359,-0.242967,-0.176866,0.549277,0.101371,0.625654,-39.318501,6.143295,18.772764,0.129484,1.962081,0.100570,0.000000,0.000000,0.000000,0.000000,0.000000,0.000000
12344039.000000,-0.341655,0.619672,0.430325,-1.517345,-0.282509,2.076896,0.157204,0.035390,0.343860,-0.100776,-0.246193,-0.175722,0.542971,0.099315,0.649457,-39.270893,6.190903,18.871946,0.141385,1.936446,0.107894,0.000000,0.000000,0.000000,0.000000,0.000000,0.000000
12344040.000000,-0.341620,0.620019,0.430232,-1.517593,-0.282683,2.077454,0.157304,0.036142,0.342246,-0.096873,-0.244656,-0.174072,0.538224,0.097672,0.649457,-39.147907,6.167099,18.971128,0.135892,1.890670,0.114303,0.000000,0.000000,0.000000,0.000000,0.000000,0.000000
12344041.000000,-0.341585,0.620364,0.430129,-1.517840,-0.282859,2.077985,0.157406,0.037196,0.348829,-0.099940,-0.247785,-0.173581,0.528047,0.096968,0.649457,-39.001118,6.266281,19.070311,0.154203,1.903487,0.107894,0.000000,0.000000,0.000000,0.000000,0.000000,0.000000
12344042.000000,-0.341550,0.620715,0.430030,-1.518084,-0.283027,2.078520,0.157505,0.037301,0.349079,-0.100987,-0.246780,-0.173137,0.533175,0.095916,0.649457,-38.953510,6.313889,19.070311,0.166105,1.988631,0.120712,0.000000,0.000000,0.000000,0.000000,0.000000,0.000000
12344043.000000,-0.341516,0.621072,0.429932,-1.518325,-0.283198,2.079057,0.157607,0.036873,0.350484,-0.100679,-0.242059,-0.171181,0.526079,0.096865,0.673261,-38.854328,6.313889,19.042540,0.141385,2.104903,0.081344,0.000000,0.000000,0.000000,0.000000,0.000000,0.000000
12344044.000000,-0.341481,0.621421,0.429830,-1.518563,-0.283376,2.079605,0.157708,0.033987,0.348005,-0.101114,-0.241717,-0.175541,0.532626,0.100437,0.673261,-38.854328,6.341660,18.971128,0.135892,2.039901,0.094161,0.000000,0.000000,0.000000,0.000000,0.000000,0.000000
12344045.000000,-0.341444,0.621770,0.429732,-1.518811,-0.283550,2.080162,0.157808,0.035656,0.347049,-0.098252,-0.241900,-0.178730,0.532051,0.101300,0.649457,-38.778950,6.365463,19.070311,0.129484,1.955673,0.133529,0.000000,0.000000,0.000000,0.000000,0.000000,0.000000
12344046.000000,-0.341412,0.622130,0.429630,-1.519051,-0.283722,2.080704,0.157919,0.035016,0.347371,-0.100758,-0.243722,-0.175922,0.541297,0.101577,0.697065,-38.854328,6.460678,19.070311,0.117582,1.909896,0.081344,0.000000,0.000000,0.000000,0.000000,0.000000,0.000000
12344047.000000,-0.341383,0.622481,0.429538,-1.519284,-0.283892,2.081255,0.158022,0.031387,0.352265,-0.099321,-0.237713,-0.175784,0.544954,0.103696,0.748639,-38.878132,6.413071,19.094114,0.147794,1.930038,0.100570,0.000000,0.000000,0.000000,0.000000,0.000000,0.000000
12344048.000000,-0.341349,0.622843,0.429436,-1.519514,-0.284065,2.081803,0.158128,0.033121,0.349937,-0.100681,-0.233220,-0.175244,0.536552,0.101130,0.748639,-38.953510,6.460678,19.094114,0.171598,1.968490,0.100570,0.000000,0.000000,0.000000,0.000000,0.000000,0.000000
12344049.000000,-0.341310,0.623195,0.429339,-1.519754,-0.284233,2.082354,0.158228,0.032469,0.352065,-0.099941,-0.235393,-0.168756,0.536663,0.097654,0.697065,-39.024921,6.436874,19.169493,0.159696,2.001449,0.147262,0.000000,0.000000,0.000000,0.000000,0.000000,0.000000
12344050.000000,-0.341275,0.623544,0.429239,-1.519983,-0.284409,2.082905,0.158340,0.032945,0.352708,-0.100679,-0.231936,-0.169565,0.526364,0.103758,0.724836,-38.925739,6.460678,19.193296,0.171598,1.981307,0.094161,0.000000,0.000000,0.000000,0.000000,0.000000,0.000000
12344051.000000,-0.341234,0.623905,0.429136,-1.520219,-0.284584,2.083457,0.158448,0.035907,0.354217,-0.104769,-0.235645,-0.171501,0.538178,0.101357,0.649457,-39.001118,6.512253,19.292479,0.105680,1.942855,0.094161,0.000000,0.000000,0.000000,0.000000,0.000000,0.000000
12344052.000000,-0.341194,0.624262,0.429038,-1.520447,-0.284767,2.084017,0.158550,0.036768,0.356754,-0.105004,-0.238617,-0.177187,0.539996,0.097879,0.625654,-39.001118,6.460678,19.268675,0.135892,1.909896,0.140853,0.000000,0.000000,0.000000,0.000000,0.000000,0.000000
12344053.000000,-0.341155,0.624621,0.428939,-1.520684,-0.284945,2.084562,0.158665,0.037411,0.349056,-0.104055,-0.238893,-0.176791,0.541919,0.103757,0.601850,-39.024921,6.460678,19.340086,0.171598,2.007858,0.081344,0.000000,0.000000,0.000000,0.000000,0.000000,0.000000
12344054.000000,-0.341115,0.624977,0.428841,-1.520908,-0.285128,2.085106,0.158769,0.038013,0.360077,-0.099998,-0.236584,-0.180716,0.542698,0.106321,0.574079,-39.024921,6.460678,19.292479,0.201810,2.001449,0.074935,0.000000,0.000000,0.000000,0.000000,0.000000,0.000000
12344055.000000,-0.341076,0.625342,0.428743,-1.521124,-0.285305,2.085651,0.158871,0.037862,0.358284,-0.100873,-0.230833,-0.178546,0.542418,0.100743,0.574079,-39.048725,6.488449,19.240904,0.219205,1.981307,0.127120,0.000000,0.000000,0.000000,0.000000,0.000000,0.000000
12344056.000000,-0.341040,0.625698,0.428647,-1.521349,-0.285476,2.086200,0.158985,0.037525,0.355221,-0.099393,-0.230548,-0.175047,0.552433,0.105314,0.574079,-39.001118,6.436874,19.217100,0.195402,2.027084,0.087753,0.000000,0.000000,0.000000,0.000000,0.000000,0.000000
12344057.000000,-0.340994,0.626069,0.428549,-1.521563,-0.285646,2.086748,0.159095,0.037234,0.357697,-0.099239,-0.225971,-0.171893,0.545461,0.106087,0.451093,-39.147907,6.413071,19.094114,0.141385,1.988631,0.120712,0.000000,0.000000,0.000000,0.000000,0.000000,0.000000
12344059.000000,-0.340916,0.626825,0.428356,-1.521995,-0.286003,2.087844,0.159319,0.034284,0.368918,-0.096298,-0.226524,-0.177386,0.538719,0.109771,0.474897,-39.612080,6.389267,18.871946,0.093778,1.962081,0.100570,0.000000,0.000000,0.000000,0.000000,0.000000,0.000000
12344060.000000,-0.340874,0.627188,0.428258,-1.522217,-0.286179,2.088402,0.159422,0.038613,0.366035,-0.094366,-0.224241,-0.180694,0.539597,0.109346,0.451093,-39.711262,6.389267,18.848143,0.100187,1.955673,0.133529,0.000000,0.000000,0.000000,0.000000,0.000000,0.000000
12344061.000000,-0.340831,0.627563,0.428163,-1.522431,-0.286361,2.088963,0.159540,0.038856,0.367158,-0.091737,-0.217769,-0.180134,0.539566,0.113317,0.427289,-39.834248,6.341660,18.748960,0.154203,1.949264,0.054794,0.000000,0.000000,0.000000,0.000000,0.000000,0.000000
12344062.000000,-0.340789,0.627932,0.428064,-1.522653,-0.286539,2.089525,0.159647,0.038461,0.365617,-0.090973,-0.220415,-0.178760,0.541039,0.111904,0.427289,-39.957233,6.341660,18.796568,0.183500,1.909896,0.087753,0.000000,0.000000,0.000000,0.000000,0.000000,0.000000
12344063.000000,-0.340745,0.628301,0.427970,-1.522857,-0.286712,2.090085,0.159754,0.039893,0.361461,-0.093481,-0.216658,-0.171949,0.540470,0.112208,0.351911,-39.981037,6.341660,18.625975,0.189908,1.877853,0.087753,0.000000,0.000000,0.000000,0.000000,0.000000,0.000000
12344064.000000,-0.340701,0.628667,0.427874,-1.523076,-0.286888,2.090630,0.159866,0.040279,0.356655,-0.094517,-0.218957,-0.169836,0.545689,0.108967,0.304304,-39.905659,6.313889,18.625975,0.159696,1.890670,0.054794,0.000000,0.000000,0.000000,0.000000,0.000000,0.000000
12344065.000000,-0.340652,0.629032,0.427778,-1.523288,-0.287065,2.091186,0.159967,0.041158,0.362008,-0.092926,-0.218101,-0.172323,0.548127,0.109016,0.228925,-39.929462,6.313889,18.598204,0.093778,1.916305,0.081344,0.000000,0.000000,0.000000,0.000000,0.000000,0.000000
12344066.000000,-0.340604,0.629396,0.427685,-1.523491,-0.287247,2.091736,0.160071,0.041750,0.360766,-0.093849,-0.212112,-0.171604,0.549499,0.109666,0.153547,-39.758869,6.266281,18.451414,0.081876,1.955673,0.087753,0.000000,0.000000,0.000000,0.000000,0.000000,0.000000
12344067.000000,-0.340557,0.629758,0.427584,-1.523708,-0.287430,2.092276,0.160175,0.041497,0.361164,-0.094312,-0.214699,-0.171690,0.546641,0.109123,0.105939,-39.735065,6.341660,18.427610,0.088285,1.974899,0.127120,0.000000,0.000000,0.000000,0.000000,0.000000,0.000000
12344068.000000,-0.340516,0.630131,0.427490,-1.523912,-0.287606,2.092822,0.160289,0.042133,0.365377,-0.093573,-0.207230,-0.171388,0.545655,0.112740,0.153547,-39.735065,6.242477,18.328428,0.088285,1.942855,0.061202,0.000000,0.000000,0.000000,0.000000,0.000000,0.000000
12344069.000000,-0.340472,0.630510,0.427388,-1.524121,-0.287784,2.093364,0.160394,0.041468,0.367321,-0.093314,-0.208858,-0.176324,0.551794,0.110546,0.129743,-39.834248,6.290085,18.328428,0.105680,1.942855,0.120712,0.000000,0.000000,0.000000,0.000000,0.000000,0.000000
12344070.000000,-0.340426,0.630882,0.427292,-1.524314,-0.287960,2.093917,0.160501,0.044088,0.370887,-0.094064,-0.207477,-0.183838,0.545835,0.111066,0.105939,-39.881855,6.266281,18.229246,0.123990,1.897079,0.127120,0.000000,0.000000,0.000000,0.000000,0.000000,0.000000
12344071.000000,-0.340380,0.631267,0.427196,-1.524512,-0.288138,2.094472,0.160612,0.045474,0.370269,-0.092635,-0.204689,-0.184334,0.544342,0.108255,0.105939,-40.104023,6.266281,18.106260,0.105680,1.884261,0.087753,0.000000,0.000000,0.000000,0.000000,0.000000,0.000000
12344072.000000,-0.340334,0.631639,0.427101,-1.524718,-0.288322,2.095017,0.160713,0.046606,0.379851,-0.090350,-0.206540,-0.185377,0.538770,0.107104,0.105939,-40.151630,6.218674,18.106260,0.100187,1.858627,0.133529,0.000000,0.000000,0.000000,0.000000,0.000000,0.000000
12344073.000000,-0.340282,0.632008,0.427003,-1.524916,-0.288502,2.095564,0.160824,0.045958,0.370509,-0.090499,-0.202510,-0.181859,0.544084,0.110713,0.030561,-40.076252,6.242477,18.078489,0.105680,1.838485,0.081344,0.000000,0.000000,0.000000,0.000000,0.000000,0.000000
12344074.000000,-0.340236,0.632380,0.426906,-1.525114,-0.288680,2.096113,0.160930,0.043961,0.370949,-0.089340,-0.196163,-0.182248,0.548909,0.111290,0.030561,-40.052448,6.218674,18.054686,0.076383,1.871444,0.074935,0.000000,0.000000,0.000000,0.000000,0.000000,0.000000
12344075.000000,-0.340188,0.632748,0.426811,-1.525317,-0.288863,2.096654,0.161031,0.045958,0.366431,-0.091014,-0.199279,-0.180711,0.551281,0.105581,0.006757,-39.929462,6.167099,18.030882,0.112089,1.877853,0.114303,0.000000,0.000000,0.000000,0.000000,0.000000,0.000000
12344076.000000,-0.340140,0.633120,0.426714,-1.525517,-0.289035,2.097202,0.161141,0.043740,0.366878,-0.096790,-0.198915,-0.172588,0.547601,0.108925,0.006757,-39.858051,6.167099,18.054686,0.093778,1.884261,0.074935,0.000000,0.000000,0.000000,0.000000,0.000000,0.000000
12344077.000000,-0.340094,0.633496,0.426614,-1.525711,-0.289214,2.097738,0.161242,0.045929,0.367580,-0.097641,-0.200600,-0.177450,0.541307,0.109370,0.006757,-39.758869,6.167099,18.007078,0.117582,1.865035,0.087753,0.000000,0.000000,0.000000,0.000000,0.000000,0.000000
12344078.000000,-0.340043,0.633862,0.426513,-1.525907,-0.289393,2.098284,0.161348,0.051218,0.368672,-0.096601,-0.199454,-0.179860,0.536145,0.106108,-0.044818,-39.687458,6.218674,18.054686,0.105680,1.865035,0.074935,0.000000,0.000000,0.000000,0.000000,0.000000,0.000000
12344079.000000,-0.339998,0.634234,0.426418,-1.526100,-0.289576,2.098828,0.161449,0.047052,0.370909,-0.096921,-0.199412,-0.181453,0.527447,0.106387,-0.017047,-39.564472,6.190903,17.983274,0.088285,1.858627,0.107894,0.000000,0.000000,0.000000,0.000000,0.000000,0.000000
12344080.000000,-0.339956,0.634601,0.426322,-1.526295,-0.289761,2.099368,0.161561,0.045602,0.369265,-0.097308,-0.197284,-0.179192,0.529818,0.104502,0.078168,-39.540668,6.167099,17.907896,0.100187,1.877853,0.081344,0.000000,0.000000,0.000000,0.000000,0.000000,0.000000
12344081.000000,-0.339910,0.634982,0.426222,-1.526481,-0.289939,2.099903,0.161668,0.043270,0.372706,-0.099393,-0.193018,-0.177661,0.523866,0.101047,0.105939,-39.612080,6.218674,17.757139,0.117582,1.936446,0.100570,0.000000,0.000000,0.000000,0.000000,0.000000,0.000000
12344082.000000,-0.339863,0.635354,0.426131,-1.526670,-0.290117,2.100441,0.161778,0.042044,0.370453,-0.097680,-0.192417,-0.179346,0.530371,0.099199,0.105939,-39.612080,6.143295,17.661924,0.100187,1.884261,0.107894,0.000000,0.000000,0.000000,0.000000,0.000000,0.000000
12344083.000000,-0.339818,0.635722,0.426038,-1.526861,-0.290288,2.100996,0.161884,0.043623,0.368607,-0.094289,-0.188225,-0.176067,0.536093,0.103735,0.129743,-39.588276,6.095688,17.634153,0.069974,1.793624,0.081344,0.000000,0.000000,0.000000,0.000000,0.000000,0.000000
12344084.000000,-0.339771,0.636093,0.425937,-1.527052,-0.290463,2.101554,0.161989,0.045360,0.362299,-0.097172,-0.187359,-0.175000,0.539522,0.100094,0.129743,-39.540668,6.143295,17.534971,0.076383,1.714889,0.107894,0.000000,0.000000,0.000000,0.000000,0.000000,0.000000
12344085.000000,-0.339729,0.636459,0.425840,-1.527241,-0.290645,2.102095,0.162099,0.044904,0.365366,-0.097515,-0.185825,-0.172689,0.533797,0.104679,0.205121,-39.512897,6.119492,17.487364,0.046171,1.741439,0.074935,0.000000,0.000000,0.000000,0.000000,0.000000,0.000000
12344086.000000,-0.339686,0.636828,0.425747,-1.527417,-0.290828,2.102635,0.162209,0.042081,0.363039,-0.094077,-0.182356,-0.178023,0.532455,0.107021,0.252729,-39.417683,6.067917,17.388182,0.076383,1.793624,0.067611,0.000000,0.000000,0.000000,0.000000,0.000000,0.000000
12344087.000000,-0.339636,0.637201,0.425648,-1.527597,-0.291011,2.103174,0.162309,0.046113,0.365256,-0.093254,-0.179793,-0.180968,0.540789,0.106324,0.177350,-39.366108,6.095688,17.312803,0.088285,1.825668,0.127120,0.000000,0.000000,0.000000,0.000000,0.000000,0.000000
12344088.000000,-0.339596,0.637565,0.425553,-1.527775,-0.291185,2.103724,0.162419,0.044828,0.364232,-0.095265,-0.179596,-0.181553,0.536080,0.104676,0.276533,-39.171711,6.119492,17.241392,0.076383,1.812850,0.094161,0.000000,0.000000,0.000000,0.000000,0.000000,0.000000
12344089.000000,-0.339552,0.637931,0.425456,-1.527964,-0.291362,2.104284,0.162524,0.045081,0.361232,-0.097153,-0.178292,-0.178719,0.538865,0.101970,0.328107,-39.048725,6.143295,17.312803,0.076383,1.754256,0.094161,0.000000,0.000000,0.000000,0.000000,0.000000,0.000000
12344090.000000,-0.339505,0.638299,0.425364,-1.528140,-0.291536,2.104829,0.162628,0.047128,0.372697,-0.093651,-0.177543,-0.175366,0.535983,0.103488,0.304304,-38.901936,6.095688,17.213621,0.046171,1.708480,0.114303,0.000000,0.000000,0.000000,0.000000,0.000000,0.000000
12344091.000000,-0.339462,0.638673,0.425268,-1.528311,-0.291718,2.105370,0.162737,0.043338,0.373655,-0.095468,-0.172828,-0.179465,0.535882,0.101076,0.375715,-38.878132,6.095688,17.142210,0.058073,1.735030,0.107894,0.000000,0.000000,0.000000,0.000000,0.000000,0.000000
12344092.000000,-0.339420,0.639050,0.425172,-1.528481,-0.291906,2.105912,0.162845,0.043811,0.376630,-0.094158,-0.171611,-0.181664,0.535431,0.103616,0.427289,-38.830524,6.119492,17.019224,0.058073,1.800033,0.120712,0.000000,0.000000,0.000000,0.000000,0.000000,0.000000
12344093.000000,-0.339372,0.639427,0.425079,-1.528656,-0.292099,2.106450,0.162958,0.046200,0.376564,-0.095196,-0.173580,-0.183484,0.536847,0.103361,0.403486,-38.925739,6.095688,16.943846,0.052579,1.793624,0.067611,0.000000,0.000000,0.000000,0.000000,0.000000,0.000000
12344094.000000,-0.339326,0.639812,0.424981,-1.528827,-0.292284,2.106996,0.163059,0.047398,0.378711,-0.096675,-0.171573,-0.180815,0.537832,0.098681,0.403486,-39.048725,6.095688,16.920042,0.069974,1.767074,0.114303,0.000000,0.000000,0.000000,0.000000,0.000000,0.000000
12344095.000000,-0.339285,0.640187,0.424880,-1.529001,-0.292468,2.107534,0.163166,0.044495,0.375839,-0.096063,-0.176277,-0.182148,0.533788,0.098203,0.427289,-39.072529,6.167099,16.967649,0.058073,1.747848,0.100570,0.000000,0.000000,0.000000,0.000000,0.000000,0.000000
12344096.000000,-0.339244,0.640563,0.424787,-1.529171,-0.292647,2.108083,0.163273,0.041029,0.377728,-0.096662,-0.173793,-0.178629,0.535560,0.097694,0.502668,-39.147907,6.143295,16.991453,0.046171,1.754256,0.087753,0.000000,0.000000,0.000000,0.000000,0.000000,0.000000
12344097.000000,-0.339200,0.640946,0.424692,-1.529344,-0.292831,2.108636,0.163379,0.043001,0.372664,-0.097090,-0.175367,-0.177699,0.538026,0.100341,0.526471,-39.247089,6.119492,16.991453,0.076383,1.735030,0.114303,0.000000,0.000000,0.000000,0.000000,0.000000,0.000000
12344098.000000,-0.339152,0.641316,0.424588,-1.529515,-0.293014,2.109181,0.163487,0.043161,0.373455,-0.096608,-0.177048,-0.179628,0.537930,0.103362,0.474897,-39.247089,6.190903,16.967649,0.052579,1.760665,0.094161,0.000000,0.000000,0.000000,0.000000,0.000000,0.000000
12344099.000000,-0.339105,0.641691,0.424492,-1.529690,-0.293205,2.109727,0.163588,0.041730,0.371831,-0.094412,-0.176609,-0.182417,0.533317,0.100604,0.474897,-39.171711,6.190903,17.066832,0.064481,1.735030,0.107894,0.000000,0.000000,0.000000,0.000000,0.000000,0.000000
12344100.000000,-0.339061,0.642073,0.424393,-1.529865,-0.293393,2.110267,0.163693,0.040080,0.373959,-0.092597,-0.179880,-0.183724,0.537178,0.099052,0.502668,-39.219318,6.190903,17.114439,0.064481,1.702071,0.107894,0.000000,0.000000,0.000000,0.000000,0.000000,0.000000
12344101.000000,-0.339016,0.642451,0.424292,-1.530029,-0.293579,2.110810,0.163798,0.038977,0.374539,-0.097709,-0.174021,-0.185898,0.532843,0.103655,0.526471,-39.219318,6.218674,17.066832,0.088285,1.702071,0.081344,0.000000,0.000000,0.000000,0.000000,0.000000,0.000000
12344102.000000,-0.338970,0.642832,0.424188,-1.530208,-0.293763,2.111347,0.163902,0.038712,0.374596,-0.102729,-0.177426,-0.182309,0.529209,0.104568,0.526471,-39.247089,6.266281,17.142210,0.100187,1.721298,0.114303,0.000000,0.000000,0.000000,0.000000,0.000000,0.000000
12344103.000000,-0.338925,0.643212,0.424083,-1.530379,-0.293948,2.111875,0.164009,0.037964,0.375591,-0.103204,-0.175283,-0.180215,0.525708,0.107318,0.550275,-39.270893,6.313889,17.114439,0.123990,1.747848,0.100570,0.000000,0.000000,0.000000,0.000000,0.000000,0.000000
12344104.000000,-0.338879,0.643594,0.423981,-1.530544,-0.294123,2.112398,0.164119,0.040996,0.377533,-0.103115,-0.171850,-0.175976,0.517128,0.104312,0.550275,-39.342304,6.341660,17.066832,0.081876,1.773483,0.094161,0.000000,0.000000,0.000000,0.000000,0.000000,0.000000
12344105.000000,-0.338838,0.643985,0.423878,-1.530716,-0.294308,2.112928,0.164220,0.041854,0.381837,-0.102758,-0.167882,-0.182852,0.529247,0.104751,0.601850,-39.417683,6.365463,17.114439,0.064481,1.800033,0.140853,0.000000,0.000000,0.000000,0.000000,0.000000,0.000000
12344106.000000,-0.338793,0.644364,0.423783,-1.530879,-0.294497,2.113453,0.164332,0.043482,0.378984,-0.102864,-0.171679,-0.184152,0.527719,0.109076,0.625654,-39.489094,6.290085,17.090635,0.052579,1.779891,0.087753,0.000000,0.000000,0.000000,0.000000,0.000000,0.000000
12344107.000000,-0.338747,0.644755,0.423672,-1.531055,-0.294685,2.113988,0.164437,0.041595,0.383335,-0.107308,-0.171681,-0.180395,0.530703,0.108740,0.649457,-39.612080,6.365463,17.142210,0.046171,1.747848,0.120712,0.000000,0.000000,0.000000,0.000000,0.000000,0.000000
12344108.000000,-0.338706,0.645139,0.423569,-1.531229,-0.294875,2.114513,0.164551,0.042180,0.385774,-0.105415,-0.172777,-0.179735,0.528802,0.110773,0.724836,-39.635883,6.365463,17.189817,0.100187,1.727706,0.081344,0.000000,0.000000,0.000000,0.000000,0.000000,0.000000
12344109.000000,-0.338655,0.645520,0.423463,-1.531407,-0.295054,2.115037,0.164652,0.045248,0.383609,-0.108477,-0.173366,-0.182079,0.525161,0.104716,0.697065,-39.659687,6.413071,17.312803,0.100187,1.741439,0.133529,0.000000,0.000000,0.000000,0.000000,0.000000,0.000000
12344110.000000,-0.338611,0.645910,0.423355,-1.531578,-0.295236,2.115568,0.164762,0.042648,0.381730,-0.110497,-0.172233,-0.183670,0.521867,0.106922,0.724836,-39.687458,6.460678,17.364378,0.105680,1.793624,0.127120,0.000000,0.000000,0.000000,0.000000,0.000000,0.000000
12344111.000000,-0.338567,0.646292,0.423248,-1.531752,-0.295419,2.116094,0.164874,0.040944,0.382832,-0.108528,-0.176121,-0.185250,0.516820,0.105472,0.748639,-39.659687,6.488449,17.411985,0.112089,1.773483,0.081344,0.000000,0.000000,0.000000,0.000000,0.000000,0.000000
12344112.000000,-0.338519,0.646671,0.423141,-1.531938,-0.295600,2.116626,0.164977,0.043973,0.373433,-0.107545,-0.177939,-0.184811,0.516161,0.105283,0.724836,-39.489094,6.536057,17.610350,0.076383,1.779891,0.133529,0.000000,0.000000,0.000000,0.000000,0.000000,0.000000
12344113.000000,-0.338478,0.647057,0.423038,-1.532108,-0.295785,2.117145,0.165094,0.041325,0.376265,-0.105357,-0.175627,-0.184862,0.510623,0.109361,0.772443,-39.417683,6.536057,17.610350,0.058073,1.812850,0.074935,0.000000,0.000000,0.000000,0.000000,0.000000,0.000000
12344114.000000,-0.338435,0.647441,0.422938,-1.532288,-0.295972,2.117664,0.165206,0.041816,0.375551,-0.106654,-0.176202,-0.187138,0.511369,0.110072,0.847822,-39.366108,6.512253,17.784910,0.088285,1.871444,0.081344,0.000000,0.000000,0.000000,0.000000,0.000000,0.000000
12344115.000000,-0.338394,0.647828,0.422830,-1.532458,-0.296156,2.118191,0.165315,0.042434,0.375986,-0.109470,-0.170624,-0.188326,0.512863,0.108711,0.923200,-39.393879,6.559860,17.832518,0.105680,1.930038,0.133529,0.000000,0.000000,0.000000,0.000000,0.000000,0.000000
12344116.000000,-0.338349,0.648212,0.422721,-1.532634,-0.296342,2.118717,0.165432,0.041164,0.375774,-0.108312,-0.171933,-0.188482,0.522122,0.111688,0.947004,-39.366108,6.611435,17.907896,0.105680,1.877853,0.087753,0.000000,0.000000,0.000000,0.000000,0.000000,0.000000
12344117.000000,-0.338302,0.648603,0.422613,-1.532809,-0.296521,2.119252,0.165537,0.044141,0.378960,-0.107302,-0.171886,-0.187234,0.522524,0.110283,0.923200,-39.489094,6.659042,17.983274,0.069974,1.838485,0.133529,0.000000,0.000000,0.000000,0.000000,0.000000,0.000000
12344118.000000,-0.338259,0.648993,0.422505,-1.532984,-0.296705,2.119772,0.165651,0.040960,0.381129,-0.107800,-0.170759,-0.185937,0.518485,0.112027,0.994611,-39.489094,6.635239,18.054686,0.027860,1.800033,0.107894,0.000000,0.000000,0.000000,0.000000,0.000000,0.000000
12344119.000000,-0.338216,0.649382,0.422393,-1.533156,-0.296901,2.120296,0.165759,0.042901,0.383450,-0.113249,-0.169851,-0.192418,0.522101,0.111603,1.022382,-39.635883,6.706650,18.130064,0.046171,1.851302,0.127120,0.000000,0.000000,0.000000,0.000000,0.000000,0.000000
12344120.000000,-0.338174,0.649776,0.422281,-1.533323,-0.297102,2.120820,0.165873,0.040116,0.384775,-0.111724,-0.167960,-0.193330,0.514345,0.113307,1.093793,-39.687458,6.782028,18.106260,0.088285,1.916305,0.087753,0.000000,0.000000,0.000000,0.000000,0.000000,0.000000
12344121.000000,-0.338132,0.650163,0.422172,-1.533501,-0.297299,2.121344,0.165978,0.038561,0.387576,-0.109811,-0.170789,-0.198112,0.520842,0.111641,1.145368,-39.758869,6.829636,18.205442,0.123990,1.930038,0.114303,0.000000,0.000000,0.000000,0.000000,0.000000,0.000000
12344122.000000,-0.338092,0.650555,0.422067,-1.533681,-0.297490,2.121872,0.166082,0.036860,0.389983,-0.107314,-0.173282,-0.196558,0.520184,0.111653,1.216779,-39.735065,6.829636,18.376036,0.147794,1.923629,0.127120,0.000000,0.000000,0.000000,0.000000,0.000000,0.000000
12344123.000000,-0.338049,0.650943,0.421962,-1.533861,-0.297682,2.122411,0.166194,0.039625,0.384569,-0.102194,-0.174048,-0.194630,0.536968,0.109327,1.244550,-39.659687,6.829636,18.526793,0.159696,1.812850,0.074935,0.000000,0.000000,0.000000,0.000000,0.000000,0.000000
