chaoyuefei/paper-gmrm-data/robot_logs/s2_dq_gmrm_xz_min_0.50_log_20260314_174402.csv
# time_ms,q_0,q_1,q_2,q_3,q_4,q_5,q_6,dq_0,dq_1,dq_2,dq_3,dq_4,dq_5,dq_6,tau_J_0,tau_J_1,tau_J_2,tau_J_3,tau_J_4,tau_J_5,tau_J_6,O_dP_EE_c_0,O_dP_EE_c_1,O_dP_EE_c_2,O_dP_EE_c_3,O_dP_EE_c_4,O_dP_EE_c_5
12905133.000000,-2.415669,-1.662604,1.042891,-1.356109,1.795467,1.081427,-0.548610,-0.000155,0.000301,-0.000303,0.000006,-0.000334,0.000244,-0.000867,0.054365,41.554607,-21.052444,-5.697450,0.817045,1.305648,0.054794,0.000000,0.000000,0.000000,0.000000,0.000000,0.000000
12905134.000000,-2.415669,-1.662600,1.042889,-1.356109,1.795469,1.081426,-0.548608,-0.000103,0.001314,-0.000848,0.000004,0.000218,-0.000074,0.001389,0.054365,41.507000,-21.024673,-5.697450,0.805143,1.312057,0.001693,0.000000,0.000000,0.000000,0.000000,0.000000,0.000000
12905135.000000,-2.415671,-1.662602,1.042892,-1.356111,1.795468,1.081425,-0.548613,-0.000626,0.000319,0.000644,-0.000554,-0.000092,-0.000286,-0.001515,0.078168,41.530804,-21.076248,-5.673646,0.811552,1.318465,0.067611,0.000000,0.000000,0.000000,0.000000,0.000000,0.000000
12905136.000000,-2.415669,-1.662604,1.042892,-1.356111,1.795469,1.081425,-0.548608,0.000140,-0.000344,0.000431,-0.000369,0.000176,-0.000191,0.001431,0.054365,41.554607,-21.076248,-5.673646,0.805143,1.318465,0.001693,0.000000,0.000000,0.000000,0.000000,0.000000,0.000000
12905137.000000,-2.415666,-1.662607,1.042889,-1.356108,1.795470,1.081424,-0.548610,0.009141,-0.004799,-0.000918,0.002243,0.001440,-0.001585,-0.008706,0.351911,41.507000,-21.024673,-5.649843,0.769437,1.357833,-0.017533,0.000000,0.000000,0.000000,0.000000,0.000000,0.000000
12905138.000000,-2.415661,-1.662607,1.042894,-1.356108,1.795467,1.081418,-0.548629,0.014521,-0.005862,0.003948,0.003315,-0.001087,-0.002832,-0.012277,1.391340,41.237225,-20.977066,-5.451478,0.698026,1.532699,-0.004716,0.000000,0.000000,0.000000,0.000000,0.000000,0.000000
12905139.000000,-2.415628,-1.662613,1.042907,-1.356105,1.795460,1.081415,-0.548650,0.020789,-0.005595,0.006484,0.002771,-0.007386,-0.005715,-0.017318,2.950483,40.896038,-21.000870,-5.177736,0.613798,1.773483,-0.064225,0.000000,0.000000,0.000000,0.000000,0.000000,0.000000
12905140.000000,-2.415582,-1.662610,1.042924,-1.356108,1.795445,1.081433,-0.548698,0.023839,-0.004111,0.009367,-0.001462,-0.008449,0.001339,-0.024273,4.834943,40.356487,-20.953262,-4.856386,0.554288,1.884261,-0.031266,0.000000,0.000000,0.000000,0.000000,0.000000,0.000000
12905141.000000,-2.415520,-1.662605,1.042944,-1.356121,1.795413,1.081482,-0.548751,0.031620,0.000759,0.015704,-0.008553,-0.017977,0.019438,-0.032441,6.739240,39.745525,-20.830276,-4.487428,0.601896,1.800033,-0.064225,0.000000,0.000000,0.000000,0.000000,0.000000,0.000000
12905142.000000,-2.415433,-1.662606,1.042972,-1.356148,1.795372,1.081562,-0.548828,0.046791,0.001117,0.018847,-0.021066,-0.025505,0.040885,-0.050203,8.373761,39.253582,-20.754898,-4.066896,0.667814,1.565658,-0.031266,0.000000,0.000000,0.000000,0.000000,0.000000,0.000000
12905143.000000,-2.415324,-1.662607,1.043011,-1.356189,1.795322,1.081658,-0.548920,0.064963,0.000632,0.024682,-0.033198,-0.037804,0.059043,-0.067765,9.782147,38.789410,-20.707291,-3.646364,0.667814,1.383468,-0.050492,0.000000,0.000000,0.000000,0.000000,0.000000,0.000000
12905144.000000,-2.415216,-1.662604,1.043060,-1.356236,1.795253,1.081765,-0.549035,0.079002,-0.000391,0.034539,-0.039323,-0.043711,0.074503,-0.080611,11.071515,38.349041,-20.659683,-3.348818,0.703519,1.312057,-0.083451,0.000000,0.000000,0.000000,0.000000,0.000000,0.000000
12905145.000000,-2.415083,-1.662597,1.043117,-1.356297,1.795172,1.081893,-0.549177,0.093089,0.001084,0.041342,-0.052757,-0.059359,0.092506,-0.100099,12.134748,37.932476,-20.584305,-3.055238,0.667814,1.344100,-0.077042,0.000000,0.000000,0.000000,0.000000,0.000000,0.000000
12905146.000000,-2.414942,-1.662590,1.043179,-1.356364,1.795084,1.082039,-0.549337,0.106314,0.001688,0.047841,-0.058606,-0.068280,0.111902,-0.115769,13.051190,37.539715,-20.437515,-2.833071,0.542386,1.461288,-0.097184,0.000000,0.000000,0.000000,0.000000,0.000000,0.000000
12905147.000000,-2.414789,-1.662578,1.043263,-1.356446,1.794966,1.082215,-0.549537,0.118855,0.005003,0.059256,-0.068715,-0.087446,0.132126,-0.142940,13.943830,37.150921,-20.437515,-2.634706,0.494779,1.559249,-0.050492,0.000000,0.000000,0.000000,0.000000,0.000000,0.000000
12905148.000000,-2.414623,-1.662565,1.043367,-1.356536,1.794840,1.082417,-0.549746,0.132098,0.006022,0.072835,-0.076865,-0.102638,0.153945,-0.165188,14.634137,36.833538,-20.560501,-2.559328,0.339139,1.605026,-0.136552,0.000000,0.000000,0.000000,0.000000,0.000000,0.000000
12905149.000000,-2.414436,-1.662547,1.043485,-1.356653,1.794684,1.082655,-0.550002,0.150596,0.008586,0.090588,-0.089203,-0.118750,0.178449,-0.192890,15.229230,36.440777,-20.754898,-2.360964,0.303434,1.572067,-0.097184,0.000000,0.000000,0.000000,0.000000,0.000000,0.000000
12905150.000000,-2.414229,-1.662524,1.043605,-1.356782,1.794499,1.082921,-0.550279,0.168420,0.010384,0.099450,-0.103630,-0.138922,0.205358,-0.220132,15.649762,36.048016,-20.782669,-2.190370,0.369352,1.494247,-0.050492,0.000000,0.000000,0.000000,0.000000,0.000000,0.000000
12905151.000000,-2.414011,-1.662505,1.043752,-1.356931,1.794290,1.083220,-0.550552,0.185165,0.014065,0.115682,-0.119708,-0.167777,0.237978,-0.235153,15.998883,35.683025,-20.977066,-2.091188,0.422452,1.389877,-0.110001,0.000000,0.000000,0.000000,0.000000,0.000000,0.000000
12905152.000000,-2.413770,-1.662483,1.043907,-1.357100,1.794053,1.083532,-0.550852,0.201771,0.016404,0.129659,-0.134389,-0.190004,0.258055,-0.250072,16.244856,35.337872,-21.123856,-2.015810,0.506681,1.396285,-0.056901,0.000000,0.000000,0.000000,0.000000,0.000000,0.000000
12905153.000000,-2.413521,-1.662464,1.044069,-1.357273,1.793798,1.083866,-0.551146,0.223210,0.016462,0.139885,-0.146600,-0.210099,0.282968,-0.265993,16.443220,35.068096,-21.175430,-2.039613,0.566190,1.429244,-0.077042,0.000000,0.000000,0.000000,0.000000,0.000000,0.000000
12905154.000000,-2.413248,-1.662449,1.044245,-1.357461,1.793539,1.084217,-0.551446,0.239302,0.014933,0.151039,-0.155189,-0.222092,0.301429,-0.270908,16.566206,34.873699,-21.223038,-2.091188,0.535978,1.442062,-0.110001,0.000000,0.000000,0.000000,0.000000,0.000000,0.000000
12905155.000000,-2.412961,-1.662434,1.044428,-1.357674,1.793261,1.084593,-0.551750,0.253693,0.012947,0.164118,-0.174010,-0.240154,0.324506,-0.276532,16.689192,34.726910,-21.223038,-2.039613,0.500272,1.559249,-0.070634,0.000000,0.000000,0.000000,0.000000,0.000000,0.000000
12905156.000000,-2.412661,-1.662422,1.044620,-1.357900,1.792966,1.084985,-0.552042,0.269213,0.012934,0.171581,-0.191080,-0.260447,0.342496,-0.282871,16.740767,34.651531,-21.147659,-1.992006,0.381254,1.702071,-0.122819,0.000000,0.000000,0.000000,0.000000,0.000000,0.000000
12905157.000000,-2.412332,-1.662413,1.044821,-1.358151,1.792659,1.085407,-0.552349,0.286796,0.009727,0.183648,-0.208066,-0.277217,0.370436,-0.285572,16.641584,34.603924,-21.100052,-1.869020,0.291532,1.714889,-0.089860,0.000000,0.000000,0.000000,0.000000,0.000000,0.000000
12905158.000000,-2.411994,-1.662412,1.045034,-1.358417,1.792332,1.085869,-0.552650,0.300566,0.005365,0.191777,-0.226782,-0.291699,0.395766,-0.292176,16.641584,34.651531,-21.000870,-1.642885,0.273221,1.676437,-0.110001,0.000000,0.000000,0.000000,0.000000,0.000000,0.000000
12905159.000000,-2.411639,-1.662406,1.045260,-1.358704,1.791985,1.086344,-0.552938,0.318129,0.003571,0.204431,-0.244832,-0.310368,0.418432,-0.286065,16.518599,34.651531,-20.905655,-1.496095,0.308927,1.591293,-0.122819,0.000000,0.000000,0.000000,0.000000,0.000000,0.000000
12905160.000000,-2.411268,-1.662402,1.045497,-1.359003,1.791612,1.086849,-0.553227,0.333942,0.002377,0.212851,-0.261154,-0.329081,0.449869,-0.288782,16.467024,34.651531,-20.877884,-1.373109,0.362943,1.487838,-0.116410,0.000000,0.000000,0.000000,0.000000,0.000000,0.000000
12905161.000000,-2.410894,-1.662401,1.045746,-1.359298,1.791221,1.087366,-0.553506,0.344511,0.000932,0.223197,-0.273081,-0.344341,0.466275,-0.282652,16.617781,34.679302,-20.830276,-1.396913,0.452665,1.454879,-0.130143,0.000000,0.000000,0.000000,0.000000,0.000000,0.000000
12905162.000000,-2.410512,-1.662401,1.045997,-1.359623,1.790826,1.087908,-0.553795,0.359133,0.000062,0.229762,-0.288200,-0.362578,0.491012,-0.281288,16.764570,34.703106,-20.683487,-1.396913,0.476469,1.454879,-0.077042,0.000000,0.000000,0.000000,0.000000,0.000000,0.000000
12905163.000000,-2.410116,-1.662399,1.046256,-1.359952,1.790407,1.088469,-0.554061,0.369501,0.000040,0.235772,-0.306553,-0.379198,0.507896,-0.277292,16.939131,34.703106,-20.584305,-1.448488,0.488370,1.513473,-0.136552,0.000000,0.000000,0.000000,0.000000,0.000000,0.000000
12905164.000000,-2.409713,-1.662400,1.046531,-1.360301,1.789978,1.089031,-0.554332,0.380011,-0.000531,0.246830,-0.317585,-0.404626,0.524960,-0.277056,17.137495,34.726910,-20.536697,-1.448488,0.500272,1.578475,-0.097184,0.000000,0.000000,0.000000,0.000000,0.000000,0.000000
12905165.000000,-2.409290,-1.662392,1.046810,-1.360668,1.789539,1.089629,-0.554607,0.390745,0.001965,0.258323,-0.330730,-0.413754,0.540675,-0.283434,17.308088,34.627728,-20.485123,-1.373109,0.434354,1.552840,-0.064225,0.000000,0.000000,0.000000,0.000000,0.000000,0.000000
12905166.000000,-2.408857,-1.662394,1.047108,-1.361043,1.789074,1.090235,-0.554864,0.403456,0.000103,0.263923,-0.348525,-0.427040,0.559428,-0.278844,17.482649,34.679302,-20.485123,-1.226320,0.410551,1.481429,-0.149369,0.000000,0.000000,0.000000,0.000000,0.000000,0.000000
12905167.000000,-2.408413,-1.662391,1.047409,-1.361443,1.788609,1.090879,-0.555143,0.414473,0.000718,0.273983,-0.361797,-0.437954,0.582749,-0.279015,17.728621,34.651531,-20.437515,-1.027956,0.398649,1.396285,-0.077042,0.000000,0.000000,0.000000,0.000000,0.000000,0.000000
12905168.000000,-2.407945,-1.662382,1.047716,-1.361857,1.788113,1.091537,-0.555405,0.430181,0.002705,0.284211,-0.387744,-0.454523,0.607378,-0.276664,17.926985,34.556316,-20.389908,-0.754213,0.386747,1.285506,-0.110001,0.000000,0.000000,0.000000,0.000000,0.000000,0.000000
12905169.000000,-2.407471,-1.662378,1.048038,-1.362283,1.787594,1.092197,-0.555660,0.445888,0.002360,0.293043,-0.396390,-0.471244,0.624887,-0.268831,18.149153,34.532513,-20.413712,-0.631227,0.458158,1.279098,-0.136552,0.000000,0.000000,0.000000,0.000000,0.000000,0.000000
12905170.000000,-2.406984,-1.662371,1.048359,-1.362728,1.787081,1.092888,-0.555925,0.456624,0.003336,0.303697,-0.410786,-0.495031,0.646670,-0.265406,18.474470,34.457134,-20.338333,-0.409059,0.464567,1.292831,-0.083451,0.000000,0.000000,0.000000,0.000000,0.000000,0.000000
12905171.000000,-2.406490,-1.662365,1.048701,-1.363174,1.786540,1.093598,-0.556176,0.471645,0.002781,0.311644,-0.422503,-0.507950,0.660714,-0.265850,18.744246,34.433331,-20.314529,-0.309877,0.488370,1.331283,-0.149369,0.000000,0.000000,0.000000,0.000000,0.000000,0.000000
12905172.000000,-2.405978,-1.662356,1.049058,-1.363641,1.785991,1.094313,-0.556433,0.484096,0.006518,0.323017,-0.435833,-0.520298,0.681491,-0.257852,19.017988,34.357952,-20.338333,-0.262270,0.566190,1.402694,-0.110001,0.000000,0.000000,0.000000,0.000000,0.000000,0.000000
12905173.000000,-2.405456,-1.662348,1.049417,-1.364124,1.785423,1.095057,-0.556677,0.492103,0.006257,0.333643,-0.444956,-0.533572,0.698106,-0.256670,19.386946,34.286541,-20.338333,-0.163088,0.518583,1.448470,-0.136552,0.000000,0.000000,0.000000,0.000000,0.000000,0.000000
12905174.000000,-2.404928,-1.662339,1.049795,-1.364613,1.784840,1.095819,-0.556926,0.501594,0.008332,0.344275,-0.456697,-0.543309,0.717644,-0.254344,19.712263,34.238934,-20.413712,-0.111513,0.566190,1.442062,-0.136552,0.000000,0.000000,0.000000,0.000000,0.000000,0.000000
12905175.000000,-2.404374,-1.662335,1.050182,-1.365124,1.784253,1.096611,-0.557178,0.519426,0.008831,0.363681,-0.471904,-0.556609,0.739054,-0.248677,19.958235,34.238934,-20.512894,-0.012331,0.524076,1.377059,-0.103593,0.000000,0.000000,0.000000,0.000000,0.000000,0.000000
12905176.000000,-2.403806,-1.662321,1.050594,-1.365646,1.783655,1.097424,-0.557423,0.528880,0.009287,0.377302,-0.485019,-0.564047,0.758103,-0.248960,20.231977,34.115948,-20.659683,0.110655,0.446256,1.331283,-0.149369,0.000000,0.000000,0.000000,0.000000,0.000000,0.000000
12905177.000000,-2.403226,-1.662311,1.051016,-1.366180,1.783030,1.098259,-0.557668,0.545325,0.007233,0.387919,-0.500047,-0.579470,0.784102,-0.244697,20.402571,34.088177,-20.782669,0.186034,0.458158,1.240646,-0.122819,0.000000,0.000000,0.000000,0.000000,0.000000,0.000000
12905178.000000,-2.402639,-1.662302,1.051442,-1.366727,1.782401,1.099123,-0.557912,0.557202,0.006230,0.402426,-0.513005,-0.592386,0.792289,-0.248824,20.799299,34.040569,-20.953262,0.209837,0.393156,1.149093,-0.097184,0.000000,0.000000,0.000000,0.000000,0.000000,0.000000
12905179.000000,-2.402045,-1.662282,1.051889,-1.367279,1.781745,1.099976,-0.558146,0.573065,0.008364,0.417158,-0.525510,-0.603854,0.810465,-0.246922,21.120649,33.869976,-21.123856,0.209837,0.362943,1.207687,-0.122819,0.000000,0.000000,0.000000,0.000000,0.000000,0.000000
12905180.000000,-2.401428,-1.662269,1.052352,-1.367842,1.781086,1.100864,-0.558390,0.581520,0.010854,0.428177,-0.534853,-0.627928,0.826270,-0.242936,21.418196,33.770794,-21.346024,0.110655,0.374845,1.285506,-0.103593,0.000000,0.000000,0.000000,0.000000,0.000000,0.000000
12905181.000000,-2.400790,-1.662253,1.052810,-1.368411,1.780391,1.101783,-0.558627,0.596225,0.013364,0.432886,-0.561091,-0.640839,0.851779,-0.241500,21.668135,33.647808,-21.445206,-0.012331,0.422452,1.292831,-0.103593,0.000000,0.000000,0.000000,0.000000,0.000000,0.000000
12905182.000000,-2.400145,-1.662243,1.053279,-1.369000,1.779698,1.102708,-0.558858,0.614907,0.012972,0.441151,-0.564385,-0.676381,0.874997,-0.236561,21.838728,33.624004,-21.516617,-0.036134,0.482877,1.299239,-0.149369,0.000000,0.000000,0.000000,0.000000,0.000000,0.000000
12905183.000000,-2.399468,-1.662232,1.053760,-1.369617,1.778986,1.103654,-0.559096,0.632248,0.009280,0.452977,-0.577582,-0.682108,0.892593,-0.235710,21.961714,33.624004,-21.639603,0.110655,0.632108,1.292831,-0.097184,0.000000,0.000000,0.000000,0.000000,0.000000,0.000000
12905184.000000,-2.398778,-1.662222,1.054259,-1.370237,1.778268,1.104634,-0.559318,0.657423,0.010087,0.464079,-0.588946,-0.694104,0.911775,-0.238510,22.037092,33.600201,-21.861771,0.332823,0.751127,1.259872,-0.169511,0.000000,0.000000,0.000000,0.000000,0.000000,0.000000
12905185.000000,-2.398063,-1.662211,1.054755,-1.370862,1.777572,1.105624,-0.559554,0.674964,0.010840,0.470232,-0.600471,-0.689713,0.940135,-0.236788,22.112471,33.576397,-21.909378,0.507384,0.871061,1.234237,-0.149369,0.000000,0.000000,0.000000,0.000000,0.000000,0.000000
12905186.000000,-2.397339,-1.662202,1.055261,-1.371495,1.776869,1.106645,-0.559793,0.685128,0.007919,0.482160,-0.617573,-0.686839,0.963407,-0.243498,22.287031,33.576397,-22.008560,0.606566,0.925077,1.188461,-0.103593,0.000000,0.000000,0.000000,0.000000,0.000000,0.000000
12905187.000000,-2.396621,-1.662200,1.055791,-1.372136,1.776177,1.107668,-0.560016,0.685438,0.005251,0.497085,-0.629700,-0.684951,0.985035,-0.236550,22.112471,33.723186,-22.056168,0.507384,0.948881,1.266280,-0.182328,0.000000,0.000000,0.000000,0.000000,0.000000,0.000000
12905188.000000,-2.395882,-1.662199,1.056325,-1.372800,1.775492,1.108708,-0.560247,0.689539,0.004182,0.522101,-0.645229,-0.684841,0.999821,-0.229964,20.823103,33.969158,-21.885574,0.035277,0.876554,1.481429,-0.155778,0.000000,0.000000,0.000000,0.000000,0.000000,0.000000
12905189.000000,-2.395162,-1.662189,1.056889,-1.373477,1.774790,1.109775,-0.560475,0.694646,0.004298,0.534585,-0.658422,-0.691728,1.019099,-0.232453,18.795820,34.064373,-21.492813,-0.730409,0.882963,1.676437,-0.136552,0.000000,0.000000,0.000000,0.000000,0.000000,0.000000
12905190.000000,-2.394437,-1.662190,1.057476,-1.374173,1.774111,1.110855,-0.560690,0.703354,-0.003649,0.551418,-0.664308,-0.688444,1.029240,-0.229172,16.046492,34.139751,-20.830276,-1.670656,0.751127,1.695663,-0.196061,0.000000,0.000000,0.000000,0.000000,0.000000,0.000000
12905191.000000,-2.393704,-1.662185,1.058079,-1.374893,1.773419,1.111969,-0.560919,0.719651,-0.002229,0.571933,-0.678531,-0.687622,1.048276,-0.225656,13.126569,33.893780,-20.092361,-2.436342,0.644010,1.676437,-0.130143,0.000000,0.000000,0.000000,0.000000,0.000000,0.000000
12905192.000000,-2.392987,-1.662185,1.058715,-1.375614,1.772748,1.113078,-0.561135,0.730993,-0.001232,0.583225,-0.693095,-0.673129,1.063586,-0.220332,10.401044,33.624004,-19.306839,-2.904482,0.422452,1.735030,-0.142960,0.000000,0.000000,0.000000,0.000000,0.000000,0.000000
12905193.000000,-2.392259,-1.662194,1.059367,-1.376340,1.772092,1.114232,-0.561351,0.732103,-0.003458,0.610656,-0.700832,-0.667825,1.088808,-0.216950,7.877851,33.453411,-18.549088,-3.301210,0.213712,1.649886,-0.142960,0.000000,0.000000,0.000000,0.000000,0.000000,0.000000
12905194.000000,-2.391528,-1.662207,1.060024,-1.377058,1.771440,1.115419,-0.561569,0.732287,-0.006780,0.621520,-0.705217,-0.656943,1.113686,-0.222568,5.648237,33.354229,-17.787369,-3.523378,0.076383,1.507064,-0.122819,0.000000,0.000000,0.000000,0.000000,0.000000,0.000000
12905195.000000,-2.390822,-1.662226,1.060692,-1.377767,1.770796,1.116600,-0.561784,0.732203,-0.008668,0.625850,-0.700143,-0.647175,1.140712,-0.218433,3.890729,33.354229,-17.073257,-3.820925,0.022367,1.416427,-0.136552,0.000000,0.000000,0.000000,0.000000,0.000000,0.000000
12905196.000000,-2.390095,-1.662253,1.061350,-1.378487,1.770152,1.117809,-0.562008,0.730034,-0.017312,0.634117,-0.697765,-0.644593,1.155502,-0.225103,2.208601,33.429607,-16.386917,-3.892336,0.093778,1.402694,-0.089860,0.000000,0.000000,0.000000,0.000000,0.000000,0.000000
12905197.000000,-2.389382,-1.662280,1.062032,-1.379181,1.769504,1.119007,-0.562218,0.719121,-0.022754,0.638273,-0.695955,-0.639573,1.172442,-0.217693,0.947004,33.477215,-15.894974,-3.967714,0.225614,1.526290,-0.149369,0.000000,0.000000,0.000000,0.000000,0.000000,0.000000
12905198.000000,-2.388670,-1.662318,1.062720,-1.379884,1.768859,1.120244,-0.562438,0.721509,-0.026199,0.652960,-0.689972,-0.645273,1.182166,-0.214529,-0.191607,33.624004,-15.430801,-3.892336,0.506681,1.500655,-0.175919,0.000000,0.000000,0.000000,0.000000,0.000000,0.000000
12905199.000000,-2.387941,-1.662354,1.063393,-1.380575,1.768223,1.121515,-0.562658,0.720832,-0.029264,0.659177,-0.704326,-0.635706,1.206345,-0.217249,-1.254840,33.675579,-14.891251,-3.670168,0.589994,1.220504,-0.122819,0.000000,0.000000,0.000000,0.000000,0.000000,0.000000
12905200.000000,-2.387220,-1.662396,1.064087,-1.381283,1.767601,1.122759,-0.562864,0.725366,-0.033755,0.665283,-0.705242,-0.644885,1.217799,-0.218245,-2.222857,33.699383,-14.569901,-3.325014,0.679716,1.045638,-0.175919,0.000000,0.000000,0.000000,0.000000,0.000000,0.000000
12905201.000000,-2.386502,-1.662434,1.064777,-1.381984,1.766980,1.123986,-0.563082,0.723636,-0.035352,0.683023,-0.699439,-0.638241,1.217522,-0.215087,-2.917132,33.647808,-14.228714,-2.979860,0.667814,1.096908,-0.175919,0.000000,0.000000,0.000000,0.000000,0.000000,0.000000
12905202.000000,-2.385794,-1.662468,1.065471,-1.382675,1.766382,1.125217,-0.563298,0.728271,-0.033855,0.682049,-0.695297,-0.623588,1.215407,-0.218193,-3.484454,33.477215,-13.835953,-2.606935,0.530485,1.162826,-0.122819,0.000000,0.000000,0.000000,0.000000,0.000000,0.000000
12905203.000000,-2.385080,-1.662496,1.066166,-1.383361,1.765782,1.126425,-0.563506,0.724180,-0.028793,0.682980,-0.685633,-0.616458,1.215907,-0.214570,-3.956561,33.235210,-13.296402,-2.436342,0.440763,1.227828,-0.149369,0.000000,0.000000,0.000000,0.000000,0.000000,0.000000
12905204.000000,-2.384375,-1.662518,1.066865,-1.384031,1.765200,1.127640,-0.563719,0.713649,-0.025573,0.685537,-0.691472,-0.605110,1.211728,-0.210041,-4.178729,32.890057,-12.951248,-2.460146,0.219205,1.331283,-0.155778,0.000000,0.000000,0.000000,0.000000,0.000000,0.000000
12905205.000000,-2.383684,-1.662528,1.067571,-1.384675,1.764608,1.128831,-0.563923,0.706433,-0.019764,0.686558,-0.682381,-0.592545,1.212239,-0.204875,-4.377093,32.378277,-12.558487,-2.658510,0.112089,1.422836,-0.142960,0.000000,0.000000,0.000000,0.000000,0.000000,0.000000
12905206.000000,-2.382984,-1.662526,1.068273,-1.385311,1.764029,1.130042,-0.564133,0.703516,-0.010859,0.703947,-0.666196,-0.586735,1.205837,-0.211197,-4.547686,31.763348,-12.189529,-2.979860,0.112089,1.461288,-0.122819,0.000000,0.000000,0.000000,0.000000,0.000000,0.000000
12905207.000000,-2.382298,-1.662515,1.068984,-1.385951,1.763438,1.131265,-0.564339,0.702082,-0.003091,0.707069,-0.658092,-0.579002,1.210186,-0.211126,-4.746050,31.080975,-11.820572,-3.055238,0.183500,1.350509,-0.163102,0.000000,0.000000,0.000000,0.000000,0.000000,0.000000
12905208.000000,-2.381602,-1.662503,1.069710,-1.386605,1.762861,1.132483,-0.564544,0.693112,0.002713,0.707399,-0.654419,-0.577554,1.214441,-0.210665,-4.944415,30.493816,-11.526993,-3.027467,0.327238,1.096908,-0.155778,0.000000,0.000000,0.000000,0.000000,0.000000,0.000000
12905209.000000,-2.380906,-1.662485,1.070427,-1.387249,1.762273,1.133708,-0.564755,0.687433,0.007533,0.711832,-0.647594,-0.578438,1.214880,-0.213378,-5.067400,29.878887,-11.281021,-3.055238,0.422452,0.941268,-0.130143,0.000000,0.000000,0.000000,0.000000,0.000000,0.000000
12905210.000000,-2.380229,-1.662456,1.071164,-1.387878,1.761704,1.134910,-0.564959,0.684598,0.015490,0.710387,-0.645759,-0.571066,1.214716,-0.210286,-5.095171,29.196514,-11.011246,-3.079042,0.332731,0.857040,-0.155778,0.000000,0.000000,0.000000,0.000000,0.000000,0.000000
12905211.000000,-2.379546,-1.662437,1.071903,-1.388495,1.761143,1.136122,-0.565163,0.680924,0.015614,0.728562,-0.633050,-0.571696,1.214760,-0.212055,-5.043597,28.752178,-10.717667,-3.225832,0.249418,0.798446,-0.122819,0.000000,0.000000,0.000000,0.000000,0.000000,0.000000
12905212.000000,-2.378871,-1.662418,1.072634,-1.389102,1.760581,1.137341,-0.565356,0.679335,0.017606,0.727343,-0.620924,-0.565356,1.210161,-0.205636,-4.896807,28.363384,-10.277298,-3.424196,0.147794,0.811263,-0.196061,0.000000,0.000000,0.000000,0.000000,0.000000,0.000000
12905213.000000,-2.378203,-1.662392,1.073383,-1.389715,1.760036,1.138527,-0.565556,0.679750,0.020059,0.730877,-0.614975,-0.561117,1.209852,-0.201811,-4.821429,27.946819,-9.983719,-3.646364,0.022367,0.928451,-0.175919,0.000000,0.000000,0.000000,0.000000,0.000000,0.000000
12905214.000000,-2.377517,-1.662368,1.074132,-1.390345,1.759485,1.139737,-0.565758,0.675142,0.020379,0.739677,-0.617563,-0.551476,1.204298,-0.202840,-4.920611,27.601665,-9.709976,-3.570986,-0.031649,1.031905,-0.130143,0.000000,0.000000,0.000000,0.000000,0.000000,0.000000
12905215.000000,-2.376831,-1.662353,1.074888,-1.390951,1.758934,1.140953,-0.565946,0.679129,0.017333,0.735518,-0.615719,-0.555753,1.213383,-0.195845,-5.166583,27.407269,-9.392593,-3.646364,-0.025240,0.915633,-0.182328,0.000000,0.000000,0.000000,0.000000,0.000000,0.000000
12905216.000000,-2.376131,-1.662335,1.075661,-1.391569,1.758379,1.142195,-0.566143,0.681875,0.016059,0.742251,-0.610446,-0.553958,1.219529,-0.200779,-5.464129,27.189068,-9.099014,-3.570986,0.069974,0.706893,-0.136552,0.000000,0.000000,0.000000,0.000000,0.000000,0.000000
12905217.000000,-2.375425,-1.662323,1.076442,-1.392171,1.757826,1.143441,-0.566336,0.686608,0.012576,0.750513,-0.617590,-0.551326,1.225855,-0.195395,-5.860857,27.089886,-9.075211,-3.547182,0.189908,0.486251,-0.130143,0.000000,0.000000,0.000000,0.000000,0.000000,0.000000
12905218.000000,-2.374743,-1.662312,1.077242,-1.392771,1.757285,1.144663,-0.566514,0.690637,0.013250,0.759506,-0.615234,-0.560200,1.227703,-0.190955,-6.011614,26.990704,-9.023636,-3.622560,0.166105,0.427657,-0.196061,0.000000,0.000000,0.000000,0.000000,0.000000,0.000000
12905219.000000,-2.374054,-1.662312,1.078039,-1.393352,1.756736,1.145886,-0.566710,0.686045,0.007614,0.781407,-0.599561,-0.552958,1.224741,-0.191560,-6.182208,27.042278,-8.999832,-3.868532,0.195402,0.511886,-0.142960,0.000000,0.000000,0.000000,0.000000,0.000000,0.000000
12905220.000000,-2.373370,-1.662310,1.078844,-1.393913,1.756186,1.147112,-0.566896,0.699167,0.003953,0.783673,-0.587693,-0.549735,1.222912,-0.192764,-6.356768,27.089886,-8.805435,-4.289064,0.171598,0.687667,-0.155778,0.000000,0.000000,0.000000,0.000000,0.000000,0.000000
12905221.000000,-2.372687,-1.662310,1.079681,-1.394484,1.755657,1.148300,-0.567089,0.694544,0.001514,0.793224,-0.578745,-0.542973,1.213570,-0.192149,-6.404376,27.137493,-8.924454,-4.610414,0.135892,0.980636,-0.136552,0.000000,0.000000,0.000000,0.000000,0.000000,0.000000
12905222.000000,-2.371983,-1.662303,1.080509,-1.395055,1.755132,1.149508,-0.567276,0.695287,0.002118,0.802703,-0.572860,-0.539658,1.206696,-0.191978,-6.801104,27.089886,-8.952225,-4.884157,0.046171,1.188461,-0.175919,0.000000,0.000000,0.000000,0.000000,0.000000,0.000000
12905223.000000,-2.371295,-1.662298,1.081361,-1.395626,1.754608,1.150724,-0.567464,0.696249,0.001965,0.808767,-0.571982,-0.533026,1.211917,-0.191908,-7.051043,27.066082,-9.047440,-4.884157,-0.067355,1.096908,-0.142960,0.000000,0.000000,0.000000,0.000000,0.000000,0.000000
12905224.000000,-2.370589,-1.662299,1.082232,-1.396198,1.754094,1.151969,-0.567645,0.702793,0.001307,0.836318,-0.566924,-0.526604,1.215061,-0.189599,-7.495379,27.066082,-9.146622,-4.884157,-0.097567,0.876266,-0.163102,0.000000,0.000000,0.000000,0.000000,0.000000,0.000000
12905225.000000,-2.369875,-1.662290,1.083086,-1.396766,1.753559,1.153204,-0.567830,0.706195,0.003189,0.839154,-0.570719,-0.523731,1.222210,-0.191540,-7.963519,26.966900,-9.075211,-4.733400,-0.031649,0.759078,-0.169511,0.000000,0.000000,0.000000,0.000000,0.000000,0.000000
12905226.000000,-2.369166,-1.662286,1.083958,-1.397326,1.753052,1.154396,-0.568015,0.710517,0.003238,0.843941,-0.564372,-0.517081,1.214984,-0.191151,-8.511004,26.919292,-8.924454,-4.685792,-0.007845,0.857040,-0.155778,0.000000,0.000000,0.000000,0.000000,0.000000,0.000000
12905227.000000,-2.368453,-1.662275,1.084823,-1.397892,1.752532,1.155598,-0.568192,0.707758,0.005034,0.850138,-0.562672,-0.516034,1.207832,-0.191932,-9.030719,26.796307,-8.730057,-4.634218,0.022367,0.947677,-0.182328,0.000000,0.000000,0.000000,0.000000,0.000000,0.000000
12905228.000000,-2.367748,-1.662258,1.085717,-1.398431,1.752012,1.156800,-0.568377,0.710076,0.010205,0.854542,-0.559667,-0.516836,1.211844,-0.191643,-9.352069,26.625713,-8.583267,-4.784975,0.100187,0.876266,-0.149369,0.000000,0.000000,0.000000,0.000000,0.000000,0.000000
12905229.000000,-2.367043,-1.662253,1.086625,-1.398980,1.751517,1.158010,-0.568558,0.716988,0.010700,0.883056,-0.548488,-0.512657,1.211671,-0.191755,-9.820209,26.597942,-8.460281,-4.884157,0.027860,0.869857,-0.155778,0.000000,0.000000,0.000000,0.000000,0.000000,0.000000
12905230.000000,-2.366329,-1.662240,1.087533,-1.399524,1.751009,1.159220,-0.568732,0.715746,0.009789,0.890995,-0.545394,-0.510815,1.207047,-0.187036,-10.268512,26.502728,-8.384903,-4.931764,0.015958,0.915633,-0.196061,0.000000,0.000000,0.000000,0.000000,0.000000,0.000000
12905231.000000,-2.365624,-1.662241,1.088470,-1.400072,1.750523,1.160409,-0.568912,0.711285,0.006762,0.902554,-0.546992,-0.501121,1.211865,-0.189190,-10.764422,26.625713,-8.484085,-4.955568,-0.013339,0.934859,-0.149369,0.000000,0.000000,0.000000,0.000000,0.000000,0.000000
12905232.000000,-2.364905,-1.662242,1.089412,-1.400623,1.750025,1.161616,-0.569086,0.710385,0.004454,0.913214,-0.544981,-0.495771,1.212954,-0.187045,-11.232562,26.772503,-8.654678,-4.832582,-0.079257,0.980636,-0.169511,0.000000,0.000000,0.000000,0.000000,0.000000,0.000000
12905233.000000,-2.364201,-1.662250,1.090375,-1.401171,1.749529,1.162800,-0.569268,0.698269,-0.001537,0.921955,-0.546471,-0.490007,1.216888,-0.182600,-11.605487,26.990704,-8.777664,-4.709596,-0.085665,0.980636,-0.130143,0.000000,0.000000,0.000000,0.000000,0.000000,0.000000
12905234.000000,-2.363489,-1.662251,1.091340,-1.401712,1.749042,1.164008,-0.569445,0.701179,-0.001106,0.926722,-0.543560,-0.494377,1.213169,-0.178625,-11.974444,27.137493,-8.805435,-4.685792,-0.103060,0.901900,-0.130143,0.000000,0.000000,0.000000,0.000000,0.000000,0.000000
12905235.000000,-2.362775,-1.662255,1.092313,-1.402233,1.748551,1.165208,-0.569616,0.700241,-0.003036,0.935268,-0.545333,-0.486506,1.214066,-0.176444,-12.271991,27.260479,-8.924454,-4.832582,-0.145175,0.895492,-0.182328,0.000000,0.000000,0.000000,0.000000,0.000000,0.000000
12905236.000000,-2.362079,-1.662259,1.093295,-1.402763,1.748063,1.166372,-0.569799,0.702685,-0.003354,0.945132,-0.539852,-0.491538,1.204481,-0.177085,-12.521930,27.335857,-8.924454,-5.007143,-0.085665,1.123458,-0.103593,0.000000,0.000000,0.000000,0.000000,0.000000,0.000000
12905237.000000,-2.361383,-1.662270,1.094250,-1.403291,1.747572,1.167550,-0.569968,0.698827,-0.005901,0.961817,-0.536360,-0.492953,1.195425,-0.176486,-12.692523,27.506451,-8.583267,-5.153932,-0.043551,1.279098,-0.169511,0.000000,0.000000,0.000000,0.000000,0.000000,0.000000
12905238.000000,-2.360686,-1.662281,1.095245,-1.403809,1.747080,1.168749,-0.570132,0.697122,-0.006567,0.965379,-0.530898,-0.490276,1.198897,-0.180988,-12.990069,27.629436,-8.460281,-5.304689,0.052579,1.285506,-0.202470,0.000000,0.000000,0.000000,0.000000,0.000000,0.000000
12905239.000000,-2.359991,-1.662287,1.096234,-1.404345,1.746604,1.169925,-0.570307,0.701532,-0.007655,0.965811,-0.530721,-0.491667,1.190825,-0.180112,-13.188434,27.653240,-8.091324,-5.276918,0.100187,1.207687,-0.136552,0.000000,0.000000,0.000000,0.000000,0.000000,0.000000
12905240.000000,-2.359280,-1.662293,1.097234,-1.404873,1.746121,1.171123,-0.570467,0.700386,-0.008551,0.974181,-0.526414,-0.485051,1.193522,-0.172235,-13.585162,27.677044,-7.869156,-5.304689,0.069974,1.090499,-0.202470,0.000000,0.000000,0.000000,0.000000,0.000000,0.000000
12905241.000000,-2.358592,-1.662298,1.098249,-1.405390,1.745652,1.172311,-0.570634,0.699584,-0.006568,0.979200,-0.520711,-0.479576,1.192035,-0.166237,-13.858905,27.700848,-7.575577,-5.304689,0.015958,0.857040,-0.182328,0.000000,0.000000,0.000000,0.000000,0.000000,0.000000
12905242.000000,-2.357919,-1.662304,1.099270,-1.405906,1.745184,1.173516,-0.570806,0.691365,-0.005725,1.003324,-0.515559,-0.476286,1.187683,-0.167775,-13.807330,27.748455,-7.281998,-5.427675,-0.013339,0.687667,-0.136552,0.000000,0.000000,0.000000,0.000000,0.000000,0.000000
12905243.000000,-2.357246,-1.662313,1.100288,-1.406396,1.744723,1.174712,-0.570967,0.679375,-0.005755,1.004437,-0.508524,-0.470920,1.181102,-0.164480,-13.783526,27.823833,-7.036026,-5.721254,-0.103060,0.616256,-0.163102,0.000000,0.000000,0.000000,0.000000,0.000000,0.000000
12905244.000000,-2.356589,-1.662312,1.101332,-1.406903,1.744285,1.175880,-0.571133,0.673284,-0.003411,1.014352,-0.505070,-0.461289,1.173598,-0.161758,-13.660541,27.800030,-6.889236,-5.947389,-0.246798,0.746261,-0.116410,0.000000,0.000000,0.000000,0.000000,0.000000,0.000000
12905245.000000,-2.355926,-1.662311,1.102377,-1.407394,1.743826,1.177064,-0.571286,0.663040,-0.001166,1.021349,-0.499419,-0.459320,1.163538,-0.155255,-13.561358,27.748455,-6.841629,-6.340150,-0.264193,0.824081,-0.163102,0.000000,0.000000,0.000000,0.000000,0.000000,0.000000
12905246.000000,-2.355274,-1.662303,1.103445,-1.407866,1.743369,1.178249,-0.571444,0.660297,0.001933,1.023081,-0.488717,-0.454955,1.167144,-0.157474,-13.533587,27.629436,-6.766251,-6.760683,-0.211093,0.785628,-0.169511,0.000000,0.000000,0.000000,0.000000,0.000000,0.000000
12905247.000000,-2.354612,-1.662299,1.104532,-1.408343,1.742933,1.179453,-0.571607,0.662713,0.003553,1.059883,-0.478355,-0.454062,1.170975,-0.161631,-13.561358,27.530254,-6.766251,-7.105836,-0.228488,0.681258,-0.130143,0.000000,0.000000,0.000000,0.000000,0.000000,0.000000
12905248.000000,-2.353948,-1.662282,1.105613,-1.408823,1.742477,1.180671,-0.571767,0.656777,0.008081,1.062554,-0.483734,-0.450985,1.178389,-0.165665,-13.684344,27.284283,-6.841629,-7.205019,-0.168978,0.570480,-0.136552,0.000000,0.000000,0.000000,0.000000,0.000000,0.000000
12905249.000000,-2.353291,-1.662269,1.106715,-1.409306,1.742042,1.181863,-0.571924,0.660733,0.009904,1.068619,-0.478585,-0.446744,1.184469,-0.164940,-13.831134,27.089886,-6.889236,-7.280397,-0.168978,0.479842,-0.163102,0.000000,0.000000,0.000000,0.000000,0.000000,0.000000
12905250.000000,-2.352633,-1.662255,1.107813,-1.409788,1.741599,1.183076,-0.572088,0.655883,0.010570,1.101284,-0.479084,-0.446454,1.191628,-0.166833,-13.882709,26.919292,-6.889236,-7.280397,-0.211093,0.414840,-0.110001,0.000000,0.000000,0.000000,0.000000,0.000000,0.000000
12905251.000000,-2.351988,-1.662242,1.108918,-1.410251,1.741153,1.184257,-0.572245,0.653951,0.011019,1.091248,-0.473708,-0.442521,1.191145,-0.169357,-13.954120,26.748699,-6.667068,-7.379579,-0.222994,0.511886,-0.122819,0.000000,0.000000,0.000000,0.000000,0.000000,0.000000
12905252.000000,-2.351340,-1.662229,1.110041,-1.410715,1.740735,1.185445,-0.572395,0.650022,0.010860,1.091901,-0.467158,-0.433073,1.189560,-0.161879,-13.954120,26.597942,-6.448868,-7.554140,-0.300814,0.668441,-0.169511,0.000000,0.000000,0.000000,0.000000,0.000000,0.000000
12905253.000000,-2.350695,-1.662217,1.111157,-1.411160,1.740303,1.186641,-0.572543,0.640926,0.011220,1.097748,-0.468608,-0.429617,1.183428,-0.160166,-13.930316,26.427349,-6.250504,-7.776308,-0.372225,0.798446,-0.196061,0.000000,0.000000,0.000000,0.000000,0.000000,0.000000
12905254.000000,-2.350060,-1.662199,1.112314,-1.411616,1.739877,1.187828,-0.572700,0.637663,0.013134,1.102598,-0.460520,-0.429977,1.189032,-0.159518,-13.930316,26.185345,-6.325882,-7.970705,-0.407931,0.850631,-0.122819,0.000000,0.000000,0.000000,0.000000,0.000000,0.000000
12905255.000000,-2.349415,-1.662185,1.113480,-1.412069,1.739463,1.189040,-0.572845,0.638222,0.012834,1.134675,-0.457229,-0.422789,1.190096,-0.158369,-13.954120,26.010784,-6.302078,-8.169069,-0.509554,0.706893,-0.188737,0.000000,0.000000,0.000000,0.000000,0.000000,0.000000
12905256.000000,-2.348783,-1.662179,1.114671,-1.412529,1.739022,1.190253,-0.572996,0.638745,0.009665,1.145877,-0.458150,-0.428614,1.197921,-0.160148,-14.005694,25.963177,-6.667068,-8.121462,-0.431735,0.603439,-0.149369,0.000000,0.000000,0.000000,0.000000,0.000000,0.000000
12905257.000000,-2.348141,-1.662172,1.115886,-1.412991,1.738594,1.191422,-0.573147,0.635515,0.007554,1.162333,-0.460741,-0.423633,1.187126,-0.152429,-14.128680,25.915569,-7.059830,-8.069887,-0.353915,0.700484,-0.122819,0.000000,0.000000,0.000000,0.000000,0.000000,0.000000
12905258.000000,-2.347506,-1.662165,1.117095,-1.413461,1.738186,1.192599,-0.573291,0.635134,0.005590,1.174549,-0.459527,-0.419847,1.175944,-0.152878,-14.128680,25.891766,-7.504166,-7.899293,-0.377719,0.836898,-0.155778,0.000000,0.000000,0.000000,0.000000,0.000000,0.000000
12905259.000000,-2.346883,-1.662164,1.118328,-1.413905,1.737761,1.193774,-0.573439,0.633636,0.003725,1.178803,-0.451227,-0.420625,1.175749,-0.151499,-14.128680,25.891766,-7.797745,-8.022280,-0.318209,0.830489,-0.136552,0.000000,0.000000,0.000000,0.000000,0.000000,0.000000
12905260.000000,-2.346258,-1.662169,1.119577,-1.414360,1.737353,1.194958,-0.573581,0.631838,0.002491,1.214323,-0.448405,-0.414808,1.178838,-0.144087,-14.029498,26.010784,-7.992142,-7.998476,-0.318209,0.830489,-0.155778,0.000000,0.000000,0.000000,0.000000,0.000000,0.000000
12905261.000000,-2.345633,-1.662168,1.120810,-1.414805,1.736952,1.196137,-0.573720,0.626300,0.001243,1.217557,-0.443551,-0.407996,1.175510,-0.142293,-14.081073,26.038555,-8.067520,-8.097658,-0.348422,0.901900,-0.175919,0.000000,0.000000,0.000000,0.000000,0.000000,0.000000
12905262.000000,-2.345012,-1.662174,1.122060,-1.415260,1.736545,1.197282,-0.573864,0.623684,-0.001225,1.214607,-0.445604,-0.409493,1.172785,-0.144945,-14.204059,26.133770,-7.992142,-8.097658,-0.372225,1.090499,-0.136552,0.000000,0.000000,0.000000,0.000000,0.000000,0.000000
12905263.000000,-2.344390,-1.662184,1.123299,-1.415730,1.736127,1.198459,-0.574002,0.620028,-0.003539,1.232844,-0.449532,-0.409743,1.175237,-0.143140,-14.180255,26.379742,-7.944534,-7.998476,-0.282504,1.104232,-0.169511,0.000000,0.000000,0.000000,0.000000,0.000000,0.000000
12905264.000000,-2.343779,-1.662203,1.124537,-1.416200,1.735732,1.199637,-0.574144,0.631158,-0.003845,1.214608,-0.459252,-0.406149,1.185468,-0.143958,-14.128680,26.943096,-7.896927,-7.748537,-0.282504,0.960494,-0.155778,0.000000,0.000000,0.000000,0.000000,0.000000,0.000000
12905265.000000,-2.343161,-1.662223,1.125785,-1.416670,1.735336,1.200829,-0.574289,0.628138,-0.008162,1.211989,-0.459229,-0.406740,1.193826,-0.140333,-13.882709,27.847637,-8.436478,-7.601747,-0.324618,0.889083,-0.130143,0.000000,0.000000,0.000000,0.000000,0.000000,0.000000
12905266.000000,-2.342559,-1.662244,1.127002,-1.417130,1.734946,1.202030,-0.574431,0.615950,-0.013022,1.207364,-0.470106,-0.400072,1.198022,-0.139414,-13.311419,28.998150,-9.317215,-7.577943,-0.401522,0.817672,-0.142960,0.000000,0.000000,0.000000,0.000000,0.000000,0.000000
12905267.000000,-2.341957,-1.662266,1.128212,-1.417591,1.734559,1.203227,-0.574571,0.613028,-0.019903,1.197362,-0.465378,-0.403632,1.199386,-0.135645,-12.791705,30.343060,-10.130508,-7.554140,-0.360323,0.733443,-0.149369,0.000000,0.000000,0.000000,0.000000,0.000000,0.000000
12905268.000000,-2.341362,-1.662276,1.129418,-1.418052,1.734158,1.204423,-0.574712,0.600882,-0.018120,1.222365,-0.459733,-0.403092,1.201528,-0.137112,-12.073627,31.568951,-11.257217,-7.625551,-0.192782,0.830489,-0.169511,0.000000,0.000000,0.000000,0.000000,0.000000,0.000000
12905269.000000,-2.340765,-1.662281,1.130638,-1.418495,1.733770,1.205577,-0.574856,0.603217,-0.014727,1.213288,-0.454199,-0.398515,1.193326,-0.139393,-11.629291,32.719463,-12.387894,-7.776308,-0.121371,1.227828,-0.130143,0.000000,0.000000,0.000000,0.000000,0.000000,0.000000
12905270.000000,-2.340166,-1.662277,1.131873,-1.418953,1.733388,1.206763,-0.574987,0.600166,-0.009887,1.211356,-0.450821,-0.392019,1.189792,-0.139586,-11.208758,33.675579,-13.542374,-7.875490,-0.013339,1.454879,-0.175919,0.000000,0.000000,0.000000,0.000000,0.000000,0.000000
12905271.000000,-2.339563,-1.662269,1.133094,-1.419395,1.733001,1.207972,-0.575125,0.594800,-0.004672,1.212879,-0.455830,-0.390453,1.192669,-0.144395,-10.859637,34.433331,-14.621475,-7.970705,0.088285,1.487838,-0.182328,0.000000,0.000000,0.000000,0.000000,0.000000,0.000000
12905272.000000,-2.338962,-1.662259,1.134315,-1.419849,1.732614,1.209154,-0.575268,0.599883,-0.000815,1.205510,-0.454551,-0.388532,1.187629,-0.140938,-10.736651,35.044292,-15.383194,-7.998476,0.147794,1.507064,-0.142960,0.000000,0.000000,0.000000,0.000000,0.000000,0.000000
12905273.000000,-2.338349,-1.662256,1.135565,-1.420321,1.732243,1.210341,-0.575406,0.605066,-0.000315,1.230627,-0.460073,-0.385441,1.177510,-0.140716,-10.689044,35.607647,-16.263931,-7.847719,0.159696,1.559249,-0.175919,0.000000,0.000000,0.000000,0.000000,0.000000,0.000000
12905274.000000,-2.337755,-1.662252,1.136784,-1.420770,1.731869,1.211521,-0.575541,0.602932,0.000571,1.221051,-0.455293,-0.385883,1.170192,-0.139745,-10.637469,36.123394,-16.779678,-7.823915,0.141385,1.630660,-0.196061,0.000000,0.000000,0.000000,0.000000,0.000000,0.000000
12905275.000000,-2.337161,-1.662250,1.138023,-1.421226,1.731498,1.212692,-0.575683,0.599954,0.002031,1.222237,-0.454287,-0.377568,1.167722,-0.138793,-10.490680,36.587566,-17.172440,-7.800111,0.105680,1.584884,-0.130143,0.000000,0.000000,0.000000,0.000000,0.000000,0.000000
12905276.000000,-2.336569,-1.662256,1.139270,-1.421666,1.731142,1.213872,-0.575818,0.593642,-0.000045,1.225917,-0.446815,-0.368469,1.154701,-0.137920,-10.292315,37.051739,-17.787369,-7.970705,-0.001437,1.539108,-0.155778,0.000000,0.000000,0.000000,0.000000,0.000000,0.000000
12905277.000000,-2.336011,-1.662262,1.140543,-1.422086,1.730797,1.215018,-0.575951,0.586215,-0.000242,1.226532,-0.436402,-0.356237,1.147892,-0.133417,-9.895587,37.444500,-18.374527,-8.343630,-0.150668,1.617843,-0.182328,0.000000,0.000000,0.000000,0.000000,0.000000,0.000000
12905278.000000,-2.335455,-1.662284,1.141845,-1.422492,1.730437,1.216172,-0.576089,0.580885,-0.007096,1.257783,-0.422762,-0.355640,1.146718,-0.132772,-9.451251,37.984051,-19.211624,-8.811769,-0.216586,1.689254,-0.149369,0.000000,0.000000,0.000000,0.000000,0.000000,0.000000
12905279.000000,-2.334902,-1.662316,1.143121,-1.422887,1.730071,1.217330,-0.576226,0.570647,-0.016055,1.264896,-0.412855,-0.356921,1.144410,-0.136536,-8.955340,38.571209,-19.822586,-9.331484,-0.204684,1.825668,-0.097184,0.000000,0.000000,0.000000,0.000000,0.000000,0.000000
12905280.000000,-2.334367,-1.662355,1.144422,-1.423281,1.729708,1.218470,-0.576353,0.564511,-0.023745,1.265365,-0.404787,-0.356602,1.144849,-0.132754,-8.511004,39.205975,-20.512894,-9.775820,-0.109469,1.903487,-0.122819,0.000000,0.000000,0.000000,0.000000,0.000000,0.000000
12905281.000000,-2.333828,-1.662398,1.145714,-1.423675,1.729338,1.219629,-0.576477,0.550320,-0.028766,1.290200,-0.399765,-0.359580,1.141337,-0.133430,-8.090472,39.816936,-21.199234,-10.196352,-0.043551,1.909896,-0.175919,0.000000,0.000000,0.000000,0.000000,0.000000,0.000000
12905282.000000,-2.333295,-1.662444,1.147007,-1.424069,1.728966,1.220770,-0.576612,0.546263,-0.034768,1.274265,-0.396439,-0.356481,1.123730,-0.132849,-7.769122,40.404095,-21.568192,-10.319338,0.022367,1.851302,-0.122819,0.000000,0.000000,0.000000,0.000000,0.000000,0.000000
12905283.000000,-2.332762,-1.662491,1.148309,-1.424469,1.728606,1.221931,-0.576738,0.541168,-0.038725,1.272079,-0.394077,-0.359133,1.134725,-0.129827,-7.495379,40.967449,-21.960953,-10.394716,0.069974,1.735030,-0.155778,0.000000,0.000000,0.000000,0.000000,0.000000,0.000000
12905284.000000,-2.332235,-1.662544,1.149559,-1.424852,1.728250,1.223091,-0.576869,0.536247,-0.042196,1.262764,-0.388825,-0.358227,1.139190,-0.133732,-7.197833,41.554607,-21.786392,-10.493898,0.088285,1.695663,-0.116410,0.000000,0.000000,0.000000,0.000000,0.000000,0.000000
12905285.000000,-2.331717,-1.662594,1.150845,-1.425258,1.727891,1.224222,-0.576995,0.530411,-0.046636,1.257934,-0.392502,-0.365456,1.139242,-0.131118,-6.900286,42.094158,-21.861771,-10.370913,0.093778,1.779891,-0.130143,0.000000,0.000000,0.000000,0.000000,0.000000,0.000000
12905286.000000,-2.331206,-1.662639,1.152093,-1.425653,1.727546,1.225367,-0.577115,0.525913,-0.044749,1.272420,-0.390211,-0.354052,1.142764,-0.127398,-6.555132,42.534527,-21.568192,-10.319338,-0.031649,1.909896,-0.182328,0.000000,0.000000,0.000000,0.000000,0.000000,0.000000
12905287.000000,-2.330707,-1.662682,1.153389,-1.426055,1.727197,1.226522,-0.577246,0.526035,-0.042557,1.268816,-0.395156,-0.349018,1.151804,-0.128380,-6.182208,42.927288,-21.762589,-10.097170,-0.067355,2.007858,-0.103593,0.000000,0.000000,0.000000,0.000000,0.000000,0.000000
12905288.000000,-2.330204,-1.662718,1.154679,-1.426458,1.726854,1.227675,-0.577358,0.517114,-0.037711,1.266332,-0.394685,-0.345438,1.156067,-0.119522,-5.837054,43.173260,-21.861771,-9.898806,-0.109469,1.923629,-0.182328,0.000000,0.000000,0.000000,0.000000,0.000000,0.000000
12905289.000000,-2.329709,-1.662751,1.155955,-1.426872,1.726509,1.228836,-0.577478,0.508797,-0.035729,1.264946,-0.404935,-0.342983,1.156406,-0.119741,-5.539507,43.343853,-22.107742,-9.676638,-0.121371,1.832076,-0.182328,0.000000,0.000000,0.000000,0.000000,0.000000,0.000000
12905290.000000,-2.329226,-1.662776,1.157266,-1.427274,1.726155,1.229974,-0.577603,0.500622,-0.028220,1.267958,-0.404474,-0.341940,1.149588,-0.118470,-5.166583,43.367657,-22.571915,-9.482241,-0.007845,1.858627,-0.110001,0.000000,0.000000,0.000000,0.000000,0.000000,0.000000
12905291.000000,-2.328740,-1.662803,1.158571,-1.427692,1.725820,1.231123,-0.577715,0.494391,-0.029009,1.286083,-0.409159,-0.338626,1.138032,-0.112646,-4.821429,43.391460,-22.917068,-9.184694,0.046171,1.930038,-0.169511,0.000000,0.000000,0.000000,0.000000,0.000000,0.000000
12905292.000000,-2.328267,-1.662827,1.159867,-1.428100,1.725471,1.232285,-0.577830,0.486252,-0.028281,1.285846,-0.408257,-0.346138,1.133906,-0.114302,-4.424700,43.343853,-23.432816,-8.962526,0.135892,1.936446,-0.175919,0.000000,0.000000,0.000000,0.000000,0.000000,0.000000
12905293.000000,-2.327796,-1.662852,1.161159,-1.428520,1.725128,1.233423,-0.577950,0.483902,-0.028083,1.281109,-0.412594,-0.347670,1.128165,-0.118676,-4.055743,43.292278,-23.627213,-8.764162,0.219205,1.962081,-0.136552,0.000000,0.000000,0.000000,0.000000,0.000000,0.000000
12905294.000000,-2.327329,-1.662876,1.162446,-1.428949,1.724786,1.234572,-0.578068,0.478819,-0.025047,1.274518,-0.411457,-0.342586,1.129707,-0.114835,-3.583636,43.220867,-23.996170,-8.518190,0.285123,2.014266,-0.110001,0.000000,0.000000,0.000000,0.000000,0.000000,0.000000
12905295.000000,-2.326868,-1.662897,1.163731,-1.429389,1.724456,1.235699,-0.578174,0.471904,-0.022191,1.262307,-0.421150,-0.344139,1.133018,-0.113737,-3.309893,43.121685,-24.043777,-8.069887,0.237516,2.118636,-0.196061,0.000000,0.000000,0.000000,0.000000,0.000000,0.000000
12905296.000000,-2.326401,-1.662919,1.165025,-1.429834,1.724123,1.236861,-0.578296,0.470341,-0.023857,1.281059,-0.426027,-0.337904,1.135452,-0.112883,-3.040118,43.050274,-24.142960,-7.677125,0.237516,2.060043,-0.163102,0.000000,0.000000,0.000000,0.000000,0.000000,0.000000
12905297.000000,-2.325935,-1.662947,1.166304,-1.430295,1.723789,1.238036,-0.578416,0.468001,-0.027396,1.282436,-0.438223,-0.333649,1.143115,-0.116098,-2.766375,43.074078,-24.313553,-7.058229,0.267728,1.858627,-0.122819,0.000000,0.000000,0.000000,0.000000,0.000000,0.000000
12905298.000000,-2.325482,-1.662971,1.167599,-1.430750,1.723475,1.239180,-0.578525,0.462432,-0.028719,1.273878,-0.439659,-0.322653,1.146405,-0.110939,-2.468829,43.050274,-24.511917,-6.637697,0.195402,1.838485,-0.188737,0.000000,0.000000,0.000000,0.000000,0.000000,0.000000
12905299.000000,-2.325040,-1.662998,1.168907,-1.431216,1.723140,1.240319,-0.578644,0.458355,-0.028017,1.301785,-0.444604,-0.328321,1.140149,-0.111450,-2.072100,43.074078,-25.075272,-6.169557,0.237516,1.968490,-0.122819,0.000000,0.000000,0.000000,0.000000,0.000000,0.000000
12905300.000000,-2.324597,-1.663021,1.170206,-1.431659,1.722810,1.241453,-0.578747,0.452198,-0.026687,1.285344,-0.443365,-0.325976,1.141237,-0.106389,-1.651568,43.074078,-25.396622,-5.919618,0.231107,2.047225,-0.196061,0.000000,0.000000,0.000000,0.000000,0.000000,0.000000
12905301.000000,-2.324166,-1.663055,1.171527,-1.432119,1.722470,1.242592,-0.578860,0.451231,-0.028710,1.285971,-0.445364,-0.334406,1.135935,-0.112041,-1.231036,43.197063,-25.912369,-5.673646,0.369352,2.125045,-0.196061,0.000000,0.000000,0.000000,0.000000,0.000000,0.000000
12905302.000000,-2.323745,-1.663082,1.172815,-1.432554,1.722141,1.243725,-0.578983,0.438633,-0.027561,1.284683,-0.445568,-0.331827,1.137107,-0.121652,-0.711321,43.220867,-26.229752,-5.673646,0.428861,2.300826,-0.122819,0.000000,0.000000,0.000000,0.000000,0.000000,0.000000
12905303.000000,-2.323326,-1.663106,1.174114,-1.433010,1.721810,1.244834,-0.579090,0.431913,-0.028499,1.276942,-0.445512,-0.341606,1.134138,-0.114617,-0.314593,43.197063,-26.475723,-5.550661,0.458158,2.508651,-0.188737,0.000000,0.000000,0.000000,0.000000,0.000000,0.000000
12905304.000000,-2.322904,-1.663126,1.175413,-1.433469,1.721479,1.245978,-0.579204,0.426731,-0.028116,1.296127,-0.449924,-0.332623,1.136532,-0.112658,0.078168,43.121685,-26.598709,-5.352296,0.494779,2.456466,-0.169511,0.000000,0.000000,0.000000,0.000000,0.000000,0.000000
12905305.000000,-2.322496,-1.663148,1.176674,-1.433924,1.721152,1.247133,-0.579317,0.422463,-0.026267,1.275576,-0.452580,-0.330305,1.138057,-0.110142,0.550275,43.097881,-26.499527,-5.205507,0.535978,2.313644,-0.149369,0.000000,0.000000,0.000000,0.000000,0.000000,0.000000
12905306.000000,-2.322074,-1.663167,1.177956,-1.434400,1.720839,1.248266,-0.579427,0.425378,-0.024364,1.268473,-0.460170,-0.326411,1.131219,-0.107700,0.772443,43.050274,-26.424149,-4.784975,0.512174,2.215682,-0.182328,0.000000,0.000000,0.000000,0.000000,0.000000,0.000000
12905307.000000,-2.321645,-1.663184,1.179204,-1.434867,1.720526,1.249403,-0.579540,0.428195,-0.022354,1.256839,-0.469406,-0.321175,1.121977,-0.110318,0.895429,42.974895,-26.154373,-4.388246,0.428861,2.157089,-0.196061,0.000000,0.000000,0.000000,0.000000,0.000000,0.000000
12905308.000000,-2.321237,-1.663201,1.180488,-1.435341,1.720204,1.250535,-0.579648,0.424011,-0.018794,1.249610,-0.472894,-0.321231,1.124634,-0.108570,1.192975,42.927288,-26.229752,-3.967714,0.428861,2.039901,-0.202470,0.000000,0.000000,0.000000,0.000000,0.000000,0.000000
12905309.000000,-2.320821,-1.663221,1.181751,-1.435799,1.719899,1.251694,-0.579761,0.422430,-0.016821,1.262656,-0.462856,-0.320412,1.132440,-0.108478,1.343732,42.903484,-25.983780,-3.769350,0.398649,1.871444,-0.175919,0.000000,0.000000,0.000000,0.000000,0.000000,0.000000
12905310.000000,-2.320419,-1.663239,1.183004,-1.436248,1.719593,1.252851,-0.579864,0.416209,-0.017983,1.252338,-0.460652,-0.315169,1.136713,-0.111004,1.613508,42.875713,-25.912369,-3.670168,0.386747,1.779891,-0.182328,0.000000,0.000000,0.000000,0.000000,0.000000,0.000000
12905311.000000,-2.320019,-1.663254,1.184269,-1.436692,1.719281,1.253961,-0.579968,0.412504,-0.014917,1.252697,-0.455271,-0.314112,1.126798,-0.110562,1.887250,42.804302,-25.884598,-3.598757,0.434354,1.988631,-0.155778,0.000000,0.000000,0.000000,0.000000,0.000000,0.000000
12905312.000000,-2.319611,-1.663276,1.185510,-1.437134,1.718968,1.255094,-0.580067,0.412229,-0.015476,1.264059,-0.449228,-0.314971,1.121565,-0.106797,2.085615,42.851910,-25.860794,-3.670168,0.547880,2.118636,-0.202470,0.000000,0.000000,0.000000,0.000000,0.000000,0.000000
12905313.000000,-2.319209,-1.663297,1.186760,-1.437573,1.718652,1.256221,-0.580169,0.406702,-0.015018,1.247215,-0.444586,-0.315784,1.129502,-0.105725,2.208601,42.875713,-25.813187,-3.598757,0.673307,2.157089,-0.208878,0.000000,0.000000,0.000000,0.000000,0.000000,0.000000
12905314.000000,-2.318799,-1.663311,1.187998,-1.438016,1.718349,1.257375,-0.580279,0.410438,-0.015948,1.253223,-0.439939,-0.314079,1.134582,-0.107884,2.208601,42.828106,-25.591019,-3.547182,0.745634,2.060043,-0.149369,0.000000,0.000000,0.000000,0.000000,0.000000,0.000000
12905315.000000,-2.318388,-1.663325,1.189231,-1.438453,1.718043,1.258545,-0.580374,0.413797,-0.017314,1.247835,-0.436821,-0.309465,1.146208,-0.108392,2.232404,42.804302,-25.614822,-3.376589,0.739225,1.865035,-0.215287,0.000000,0.000000,0.000000,0.000000,0.000000,0.000000
12905316.000000,-2.317969,-1.663335,1.190469,-1.438901,1.717753,1.259702,-0.580482,0.418315,-0.013660,1.234095,-0.438302,-0.298972,1.158746,-0.104915,2.085615,42.705120,-25.567215,-3.178224,0.649503,1.689254,-0.149369,0.000000,0.000000,0.000000,0.000000,0.000000,0.000000
12905317.000000,-2.317560,-1.663344,1.191702,-1.439339,1.717460,1.260863,-0.580580,0.414778,-0.008287,1.247436,-0.435248,-0.293189,1.158443,-0.104236,2.061811,42.609905,-25.368851,-3.027467,0.601896,1.578475,-0.149369,0.000000,0.000000,0.000000,0.000000,0.000000,0.000000
12905318.000000,-2.317161,-1.663352,1.192917,-1.439768,1.717174,1.262007,-0.580677,0.412083,-0.007683,1.228418,-0.432037,-0.287880,1.161366,-0.107323,2.061811,42.534527,-25.249832,-2.904482,0.524076,1.578475,-0.169511,0.000000,0.000000,0.000000,0.000000,0.000000,0.000000
12905319.000000,-2.316758,-1.663364,1.194166,-1.440182,1.716887,1.263150,-0.580776,0.408748,-0.008603,1.228894,-0.424185,-0.286117,1.152842,-0.107572,2.109418,42.510723,-25.491837,-3.003664,0.500272,1.735030,-0.155778,0.000000,0.000000,0.000000,0.000000,0.000000,0.000000
12905320.000000,-2.316361,-1.663375,1.195389,-1.440585,1.716606,1.264297,-0.580868,0.408249,-0.006202,1.223348,-0.424277,-0.278942,1.138442,-0.104139,2.260175,42.486919,-25.690201,-3.178224,0.464567,1.942855,-0.196061,0.000000,0.000000,0.000000,0.000000,0.000000,0.000000
12905321.000000,-2.315965,-1.663379,1.196635,-1.440985,1.716326,1.265428,-0.580968,0.406185,-0.005588,1.220731,-0.418328,-0.285248,1.131998,-0.105533,2.331586,42.387737,-25.912369,-3.325014,0.518583,2.125045,-0.163102,0.000000,0.000000,0.000000,0.000000,0.000000,0.000000
12905322.000000,-2.315568,-1.663389,1.197895,-1.441385,1.716051,1.266584,-0.581061,0.405018,-0.006784,1.241864,-0.410186,-0.283837,1.128971,-0.099055,2.331586,42.363934,-26.376541,-3.499574,0.620206,2.131454,-0.188737,0.000000,0.000000,0.000000,0.000000,0.000000,0.000000
12905323.000000,-2.315175,-1.663399,1.199120,-1.441781,1.715776,1.267740,-0.581157,0.404719,-0.007244,1.236140,-0.408098,-0.283257,1.126096,-0.100641,2.383161,42.316326,-26.547134,-3.523378,0.632108,2.157089,-0.155778,0.000000,0.000000,0.000000,0.000000,0.000000,0.000000
12905324.000000,-2.314758,-1.663412,1.200348,-1.442191,1.715494,1.268866,-0.581255,0.408803,-0.009722,1.223329,-0.404903,-0.280075,1.125920,-0.102685,2.184797,42.363934,-26.622513,-3.448000,0.679716,2.228500,-0.130143,0.000000,0.000000,0.000000,0.000000,0.000000,0.000000
12905325.000000,-2.314352,-1.663419,1.201549,-1.442601,1.715223,1.270016,-0.581345,0.405548,-0.009180,1.214972,-0.404757,-0.278891,1.127287,-0.094697,2.109418,42.316326,-26.547134,-3.301210,0.649503,2.215682,-0.202470,0.000000,0.000000,0.000000,0.000000,0.000000,0.000000
12905326.000000,-2.313952,-1.663429,1.202763,-1.443001,1.714963,1.271148,-0.581446,0.403871,-0.012784,1.203513,-0.402779,-0.271837,1.132139,-0.093330,1.986432,42.316326,-26.376541,-3.202028,0.559781,2.144271,-0.163102,0.000000,0.000000,0.000000,0.000000,0.000000,0.000000
12905327.000000,-2.313555,-1.663435,1.203988,-1.443397,1.714703,1.272295,-0.581538,0.402350,-0.010835,1.206027,-0.399433,-0.267942,1.134276,-0.094716,2.010236,42.240948,-26.253555,-3.154421,0.506681,2.092086,-0.202470,0.000000,0.000000,0.000000,0.000000,0.000000,0.000000
12905328.000000,-2.313160,-1.663441,1.205171,-1.443782,1.714443,1.273434,-0.581644,0.399064,-0.006673,1.188860,-0.395507,-0.267508,1.129396,-0.098418,2.109418,42.169537,-25.836990,-3.202028,0.405057,2.118636,-0.142960,0.000000,0.000000,0.000000,0.000000,0.000000,0.000000
12905329.000000,-2.312768,-1.663445,1.206397,-1.444171,1.714184,1.274562,-0.581735,0.396275,-0.003525,1.191542,-0.389010,-0.262389,1.132989,-0.099000,2.133222,42.094158,-25.884598,-3.126650,0.405057,2.060043,-0.169511,0.000000,0.000000,0.000000,0.000000,0.000000,0.000000
12905330.000000,-2.312391,-1.663444,1.207583,-1.444556,1.713928,1.275705,-0.581826,0.389303,-0.002548,1.205390,-0.385428,-0.258307,1.132373,-0.093710,2.331586,41.947369,-25.666397,-3.126650,0.405057,2.014266,-0.202470,0.000000,0.000000,0.000000,0.000000,0.000000,0.000000
12905331.000000,-2.312010,-1.663444,1.208791,-1.444926,1.713676,1.276843,-0.581925,0.388653,-0.001879,1.196056,-0.379083,-0.256453,1.162632,-0.092947,2.406965,41.800579,-25.567215,-3.154421,0.440763,1.916305,-0.149369,0.000000,0.000000,0.000000,0.000000,0.000000,0.000000
12905332.000000,-2.311630,-1.663439,1.210008,-1.445301,1.713421,1.277979,-0.582015,0.387237,0.001955,1.211387,-0.377646,-0.256571,1.159460,-0.089111,2.553754,41.629986,-25.567215,-3.178224,0.524076,1.942855,-0.188737,0.000000,0.000000,0.000000,0.000000,0.000000,0.000000
12905333.000000,-2.311247,-1.663439,1.211206,-1.445665,1.713154,1.279127,-0.582112,0.383168,0.003593,1.202202,-0.377062,-0.260663,1.158892,-0.092326,2.652936,41.507000,-25.666397,-3.225832,0.601896,1.903487,-0.175919,0.000000,0.000000,0.000000,0.000000,0.000000,0.000000
12905334.000000,-2.310875,-1.663436,1.212401,-1.446027,1.712900,1.280255,-0.582201,0.379457,0.004832,1.190537,-0.375404,-0.264795,1.146469,-0.095188,2.728315,41.384014,-25.591019,-3.301210,0.620206,1.825668,-0.182328,0.000000,0.000000,0.000000,0.000000,0.000000,0.000000
12905335.000000,-2.310497,-1.663437,1.213588,-1.446390,1.712653,1.281397,-0.582291,0.380852,0.004561,1.198207,-0.369156,-0.258334,1.132454,-0.092137,2.779890,41.312603,-25.321243,-3.325014,0.596403,1.812850,-0.182328,0.000000,0.000000,0.000000,0.000000,0.000000,0.000000
12905336.000000,-2.310126,-1.663434,1.214767,-1.446746,1.712408,1.282515,-0.582378,0.383265,0.005113,1.186972,-0.365440,-0.254013,1.121112,-0.089929,2.851301,41.213421,-25.249832,-3.301210,0.578092,1.871444,-0.163102,0.000000,0.000000,0.000000,0.000000,0.000000,0.000000
12905337.000000,-2.309741,-1.663431,1.215936,-1.447100,1.712176,1.283636,-0.582463,0.384926,0.005543,1.169249,-0.359646,-0.247300,1.117605,-0.087379,2.803693,41.114239,-24.904678,-3.400392,0.458158,2.060043,-0.196061,0.000000,0.000000,0.000000,0.000000,0.000000,0.000000
12905338.000000,-2.309359,-1.663425,1.217091,-1.447455,1.711934,1.284785,-0.582555,0.381496,0.005783,1.162540,-0.360671,-0.243763,1.118741,-0.092168,2.752119,41.019024,-24.583328,-3.325014,0.381254,2.079269,-0.155778,0.000000,0.000000,0.000000,0.000000,0.000000,0.000000
12905339.000000,-2.308988,-1.663415,1.218259,-1.447807,1.711694,1.285933,-0.582639,0.380862,0.006628,1.150247,-0.355037,-0.239769,1.129580,-0.088125,2.728315,40.896038,-24.313553,-3.325014,0.374845,1.897079,-0.202470,0.000000,0.000000,0.000000,0.000000,0.000000,0.000000
12905340.000000,-2.308612,-1.663403,1.219456,-1.448157,1.711464,1.287090,-0.582729,0.380404,0.013012,1.175947,-0.351263,-0.235912,1.135294,-0.087865,2.704511,40.773052,-24.365128,-3.301210,0.344633,1.767074,-0.182328,0.000000,0.000000,0.000000,0.000000,0.000000,0.000000
12905341.000000,-2.308239,-1.663389,1.220642,-1.448499,1.711235,1.288235,-0.582812,0.382599,0.013646,1.174104,-0.349230,-0.233817,1.136147,-0.085974,2.652936,40.578655,-24.583328,-3.249635,0.356534,1.741439,-0.182328,0.000000,0.000000,0.000000,0.000000,0.000000,0.000000
12905342.000000,-2.307869,-1.663383,1.221840,-1.448829,1.711004,1.289363,-0.582899,0.381484,0.010622,1.172416,-0.340117,-0.233605,1.136417,-0.080768,2.652936,40.527081,-24.857071,-3.376589,0.398649,1.714889,-0.169511,0.000000,0.000000,0.000000,0.000000,0.000000,0.000000
12905343.000000,-2.307500,-1.663377,1.223021,-1.449158,1.710759,1.290503,-0.582984,0.377357,0.008990,1.187279,-0.342745,-0.239588,1.134620,-0.081872,2.652936,40.455669,-25.222061,-3.424196,0.488370,1.702071,-0.149369,0.000000,0.000000,0.000000,0.000000,0.000000,0.000000
12905344.000000,-2.307138,-1.663373,1.224212,-1.449466,1.710519,1.291619,-0.583064,0.374754,0.006822,1.177369,-0.329284,-0.237524,1.135526,-0.086423,2.680707,40.427898,-25.444229,-3.697939,0.530485,1.806442,-0.169511,0.000000,0.000000,0.000000,0.000000,0.000000,0.000000
12905345.000000,-2.306768,-1.663368,1.225407,-1.449784,1.710299,1.292728,-0.583148,0.372741,0.005796,1.193331,-0.323249,-0.232619,1.123420,-0.086667,2.680707,40.380291,-25.591019,-3.797121,0.482877,1.995040,-0.149369,0.000000,0.000000,0.000000,0.000000,0.000000,0.000000
12905346.000000,-2.306400,-1.663365,1.226584,-1.450095,1.710069,1.293848,-0.583220,0.367797,0.005078,1.180022,-0.321754,-0.225014,1.122519,-0.083120,2.680707,40.332684,-25.714005,-3.920107,0.464567,2.125045,-0.202470,0.000000,0.000000,0.000000,0.000000,0.000000,0.000000
12905347.000000,-2.306040,-1.663368,1.227750,-1.450412,1.709855,1.294967,-0.583303,0.364929,0.002347,1.166758,-0.317218,-0.222983,1.119729,-0.084236,2.680707,40.380291,-25.468033,-3.920107,0.405057,2.039901,-0.182328,0.000000,0.000000,0.000000,0.000000,0.000000,0.000000
12905348.000000,-2.305667,-1.663369,1.228921,-1.450735,1.709627,1.296096,-0.583386,0.371081,0.000508,1.176383,-0.317091,-0.227767,1.112693,-0.084438,2.529951,40.427898,-25.198257,-3.769350,0.381254,2.001449,-0.163102,0.000000,0.000000,0.000000,0.000000,0.000000,0.000000
12905349.000000,-2.305292,-1.663369,1.230076,-1.451053,1.709405,1.297213,-0.583457,0.369069,0.000381,1.162462,-0.318537,-0.225167,1.128263,-0.082473,2.307783,40.427898,-24.952286,-3.670168,0.315336,1.930038,-0.202470,0.000000,0.000000,0.000000,0.000000,0.000000,0.000000
12905350.000000,-2.304917,-1.663368,1.231240,-1.451373,1.709180,1.298359,-0.583539,0.374637,0.000286,1.152807,-0.317352,-0.227279,1.130715,-0.085003,2.133222,40.427898,-24.682510,-3.523378,0.351041,1.767074,-0.149369,0.000000,0.000000,0.000000,0.000000,0.000000,0.000000
12905351.000000,-2.304538,-1.663365,1.232391,-1.451681,1.708956,1.299508,-0.583612,0.375416,0.001328,1.147451,-0.313217,-0.227893,1.130149,-0.082650,1.887250,40.380291,-24.511917,-3.499574,0.386747,1.624252,-0.175919,0.000000,0.000000,0.000000,0.000000,0.000000,0.000000
12905352.000000,-2.304175,-1.663363,1.233538,-1.451991,1.708741,1.300635,-0.583691,0.369227,0.000903,1.136827,-0.309886,-0.229953,1.134079,-0.078535,1.740461,40.380291,-24.119156,-3.499574,0.362943,1.519881,-0.155778,0.000000,0.000000,0.000000,0.000000,0.000000,0.000000
12905353.000000,-2.303807,-1.663365,1.234717,-1.452292,1.708519,1.301762,-0.583771,0.364068,-0.000498,1.158242,-0.306411,-0.236821,1.134490,-0.080579,1.641279,40.427898,-24.166763,-3.547182,0.446256,1.597701,-0.130143,0.000000,0.000000,0.000000,0.000000,0.000000,0.000000
12905354.000000,-2.303445,-1.663363,1.235859,-1.452584,1.708298,1.302883,-0.583844,0.369470,-0.000322,1.146760,-0.302732,-0.232580,1.127725,-0.079701,1.565900,40.427898,-23.996170,-3.646364,0.410551,1.793624,-0.163102,0.000000,0.000000,0.000000,0.000000,0.000000,0.000000
12905355.000000,-2.303079,-1.663355,1.237031,-1.452875,1.708085,1.304000,-0.583924,0.367100,0.001463,1.146320,-0.296856,-0.225478,1.125565,-0.077049,1.466718,40.356487,-24.071548,-3.721742,0.386747,1.897079,-0.130143,0.000000,0.000000,0.000000,0.000000,0.000000,0.000000
12905356.000000,-2.302706,-1.663356,1.238175,-1.453158,1.707870,1.305140,-0.583999,0.366956,0.000424,1.141873,-0.295400,-0.220192,1.130083,-0.077802,1.268354,40.380291,-24.019974,-3.769350,0.381254,1.897079,-0.142960,0.000000,0.000000,0.000000,0.000000,0.000000,0.000000
12905357.000000,-2.302338,-1.663348,1.239335,-1.453451,1.707661,1.306272,-0.584075,0.371519,0.002607,1.134430,-0.296843,-0.216276,1.133247,-0.073637,1.022382,40.281109,-24.019974,-3.769350,0.356534,1.832076,-0.149369,0.000000,0.000000,0.000000,0.000000,0.000000,0.000000
12905358.000000,-2.301960,-1.663338,1.240494,-1.453751,1.707451,1.307401,-0.584146,0.374383,0.004525,1.149542,-0.298181,-0.210938,1.132334,-0.068903,0.772443,40.162090,-23.972366,-3.622560,0.398649,1.865035,-0.202470,0.000000,0.000000,0.000000,0.000000,0.000000,0.000000
12905359.000000,-2.301581,-1.663327,1.241621,-1.454041,1.707240,1.308531,-0.584229,0.378396,0.006453,1.143689,-0.295908,-0.213832,1.130640,-0.074991,0.451093,40.015301,-23.774002,-3.475771,0.386747,1.936446,-0.122819,0.000000,0.000000,0.000000,0.000000,0.000000,0.000000
12905360.000000,-2.301200,-1.663314,1.242755,-1.454337,1.707028,1.309654,-0.584295,0.376956,0.010078,1.128406,-0.293663,-0.217097,1.120948,-0.075272,0.177350,39.892315,-23.480423,-3.325014,0.393156,1.858627,-0.175919,0.000000,0.000000,0.000000,0.000000,0.000000,0.000000
12905361.000000,-2.300823,-1.663307,1.243890,-1.454618,1.706818,1.310798,-0.584367,0.371813,0.008168,1.144805,-0.287095,-0.210484,1.121134,-0.070872,-0.068621,39.840740,-23.333633,-3.400392,0.410551,1.747848,-0.208878,0.000000,0.000000,0.000000,0.000000,0.000000,0.000000
12905362.000000,-2.300450,-1.663289,1.245046,-1.454886,1.706620,1.311907,-0.584448,0.369832,0.012597,1.137581,-0.284271,-0.201994,1.113134,-0.071813,-0.314593,39.670147,-23.381241,-3.523378,0.332731,1.806442,-0.130143,0.000000,0.000000,0.000000,0.000000,0.000000,0.000000
12905363.000000,-2.300081,-1.663276,1.246205,-1.455165,1.706423,1.313031,-0.584514,0.366343,0.011010,1.154928,-0.282909,-0.201245,1.111504,-0.067271,-0.413775,39.574932,-23.456619,-3.622560,0.279630,1.858627,-0.188737,0.000000,0.000000,0.000000,0.000000,0.000000,0.000000
12905364.000000,-2.299711,-1.663268,1.247359,-1.455434,1.706222,1.314164,-0.584587,0.365782,0.010420,1.148707,-0.274916,-0.198604,1.111501,-0.072074,-0.540728,39.574932,-23.702591,-3.769350,0.297025,1.865035,-0.149369,0.000000,0.000000,0.000000,0.000000,0.000000,0.000000
12905365.000000,-2.299348,-1.663262,1.248531,-1.455708,1.706017,1.315278,-0.584657,0.364363,0.009625,1.143024,-0.275623,-0.201295,1.112883,-0.069175,-0.663714,39.598736,-24.019974,-3.769350,0.308927,1.851302,-0.163102,0.000000,0.000000,0.000000,0.000000,0.000000,0.000000
12905366.000000,-2.298988,-1.663252,1.249713,-1.455981,1.705808,1.316399,-0.584723,0.364572,0.007543,1.167416,-0.274741,-0.202970,1.105109,-0.066648,-0.735125,39.574932,-24.412735,-3.820925,0.315336,1.897079,-0.182328,0.000000,0.000000,0.000000,0.000000,0.000000,0.000000
12905367.000000,-2.298632,-1.663241,1.250867,-1.456248,1.705602,1.317508,-0.584799,0.362124,0.008992,1.155194,-0.271925,-0.203788,1.099263,-0.068323,-0.786700,39.547161,-24.658707,-3.844728,0.308927,2.020675,-0.103593,0.000000,0.000000,0.000000,0.000000,0.000000,0.000000
12905368.000000,-2.298270,-1.663237,1.252027,-1.456501,1.705398,1.318625,-0.584856,0.359127,0.008251,1.146652,-0.265493,-0.205894,1.113642,-0.063613,-0.862078,39.598736,-24.734085,-4.043092,0.339139,1.981307,-0.196061,0.000000,0.000000,0.000000,0.000000,0.000000,0.000000
12905369.000000,-2.297911,-1.663228,1.253157,-1.456759,1.705196,1.319741,-0.584929,0.354603,0.009060,1.140078,-0.263759,-0.202598,1.118364,-0.069665,-0.885882,39.598736,-24.634903,-4.118471,0.381254,1.968490,-0.149369,0.000000,0.000000,0.000000,0.000000,0.000000,0.000000
12905370.000000,-2.297557,-1.663217,1.254294,-1.457018,1.705010,1.320831,-0.584992,0.352151,0.010227,1.126416,-0.260686,-0.200072,1.109723,-0.066793,-0.961260,39.574932,-24.388931,-4.142274,0.315336,2.066451,-0.182328,0.000000,0.000000,0.000000,0.000000,0.000000,0.000000
12905371.000000,-2.297212,-1.663211,1.255443,-1.457269,1.704813,1.321937,-0.585068,0.350132,0.012170,1.143077,-0.254302,-0.196804,1.098806,-0.067628,-0.909686,39.622540,-24.095352,-4.189882,0.291532,2.118636,-0.130143,0.000000,0.000000,0.000000,0.000000,0.000000,0.000000
12905372.000000,-2.296866,-1.663198,1.256567,-1.457526,1.704614,1.323057,-0.585128,0.349839,0.015937,1.131492,-0.255368,-0.198835,1.099197,-0.063216,-0.933489,39.574932,-23.750198,-4.118471,0.285123,2.098495,-0.208878,0.000000,0.000000,0.000000,0.000000,0.000000,0.000000
12905373.000000,-2.296524,-1.663189,1.257697,-1.457783,1.704423,1.324172,-0.585195,0.346608,0.015339,1.122301,-0.255252,-0.191537,1.102349,-0.068726,-0.862078,39.547161,-23.409012,-4.043092,0.279630,1.981307,-0.208878,0.000000,0.000000,0.000000,0.000000,0.000000,0.000000
12905374.000000,-2.296183,-1.663170,1.258828,-1.458032,1.704235,1.325304,-0.585271,0.343069,0.017631,1.136590,-0.257702,-0.189348,1.107499,-0.070116,-0.786700,39.400372,-23.309830,-3.967714,0.249418,1.851302,-0.130143,0.000000,0.000000,0.000000,0.000000,0.000000,0.000000
12905375.000000,-2.295859,-1.663156,1.259963,-1.458289,1.704051,1.326419,-0.585329,0.335411,0.017981,1.126737,-0.261025,-0.183992,1.112190,-0.065750,-0.635943,39.305157,-23.135269,-3.868532,0.231107,1.760665,-0.188737,0.000000,0.000000,0.000000,0.000000,0.000000,0.000000
12905376.000000,-2.295534,-1.663140,1.261116,-1.458536,1.703871,1.327540,-0.585400,0.332821,0.018396,1.145298,-0.256847,-0.180830,1.110006,-0.072140,-0.465350,39.205975,-23.135269,-3.920107,0.237516,1.682845,-0.142960,0.000000,0.000000,0.000000,0.000000,0.000000,0.000000
12905377.000000,-2.295213,-1.663122,1.262241,-1.458777,1.703691,1.328666,-0.585463,0.327243,0.016202,1.134881,-0.251125,-0.180747,1.111694,-0.068917,-0.243182,39.082989,-23.063858,-3.967714,0.195402,1.649886,-0.149369,0.000000,0.000000,0.000000,0.000000,0.000000,0.000000
12905378.000000,-2.294897,-1.663109,1.263388,-1.459012,1.703501,1.329770,-0.585522,0.324670,0.012711,1.124113,-0.249183,-0.179609,1.120789,-0.066551,-0.092425,39.035381,-23.135269,-4.043092,0.225614,1.662704,-0.175919,0.000000,0.000000,0.000000,0.000000,0.000000,0.000000
12905379.000000,-2.294590,-1.663090,1.264519,-1.459252,1.703310,1.330887,-0.585591,0.313658,0.011391,1.144012,-0.247558,-0.182236,1.119572,-0.072623,0.153547,38.936199,-23.234451,-4.142274,0.237516,1.714889,-0.122819,0.000000,0.000000,0.000000,0.000000,0.000000,0.000000
12905380.000000,-2.294286,-1.663077,1.265644,-1.459486,1.703122,1.331985,-0.585641,0.312336,0.012586,1.124183,-0.241301,-0.180084,1.121944,-0.066854,0.276533,38.864788,-23.111465,-4.189882,0.261320,1.760665,-0.202470,0.000000,0.000000,0.000000,0.000000,0.000000,0.000000
12905381.000000,-2.293975,-1.663061,1.266785,-1.459728,1.702932,1.333093,-0.585706,0.314441,0.013630,1.136283,-0.239963,-0.179828,1.118107,-0.067359,0.403486,38.789410,-23.063858,-4.090700,0.327238,1.832076,-0.169511,0.000000,0.000000,0.000000,0.000000,0.000000,0.000000
12905382.000000,-2.293666,-1.663042,1.267888,-1.459966,1.702748,1.334220,-0.585766,0.312501,0.015528,1.118306,-0.239948,-0.177114,1.110334,-0.070167,0.526471,38.666424,-22.742508,-4.066896,0.339139,1.735030,-0.182328,0.000000,0.000000,0.000000,0.000000,0.000000,0.000000
12905383.000000,-2.293362,-1.663025,1.269016,-1.460212,1.702574,1.335332,-0.585827,0.310129,0.016231,1.111883,-0.243603,-0.173574,1.109598,-0.068846,0.574079,38.571209,-22.671097,-3.892336,0.297025,1.662704,-0.169511,0.000000,0.000000,0.000000,0.000000,0.000000,0.000000
12905384.000000,-2.293055,-1.663002,1.270143,-1.460449,1.702401,1.336457,-0.585882,0.306359,0.016263,1.122856,-0.240407,-0.174792,1.101701,-0.062246,0.649457,38.372845,-22.472733,-3.820925,0.225614,1.605026,-0.163102,0.000000,0.000000,0.000000,0.000000,0.000000,0.000000
12905385.000000,-2.292762,-1.662982,1.271268,-1.460685,1.702220,1.337580,-0.585937,0.299186,0.017086,1.117750,-0.242956,-0.171240,1.108742,-0.056255,0.796247,38.249859,-22.500504,-3.670168,0.159696,1.474105,-0.182328,0.000000,0.000000,0.000000,0.000000,0.000000,0.000000
12905386.000000,-2.292471,-1.662967,1.272408,-1.460921,1.702035,1.338709,-0.586001,0.299298,0.015526,1.118172,-0.239346,-0.177402,1.106743,-0.060607,0.947004,38.226055,-22.595718,-3.598757,0.195402,1.422836,-0.116410,0.000000,0.000000,0.000000,0.000000,0.000000,0.000000
12905387.000000,-2.292186,-1.662948,1.273549,-1.461152,1.701858,1.339835,-0.586052,0.294494,0.013330,1.117696,-0.234775,-0.175789,1.105634,-0.058323,1.216779,38.130840,-22.940872,-3.499574,0.207303,1.448470,-0.182328,0.000000,0.000000,0.000000,0.000000,0.000000,0.000000
12905388.000000,-2.291901,-1.662927,1.274706,-1.461381,1.701683,1.340934,-0.586112,0.291367,0.015772,1.115097,-0.230523,-0.174026,1.106310,-0.061450,1.343732,37.984051,-23.309830,-3.424196,0.225614,1.617843,-0.130143,0.000000,0.000000,0.000000,0.000000,0.000000,0.000000
12905389.000000,-2.291625,-1.662911,1.275867,-1.461618,1.701504,1.342037,-0.586167,0.284064,0.018201,1.139728,-0.234873,-0.175935,1.101717,-0.061229,1.641279,37.932476,-23.678787,-3.301210,0.308927,1.800033,-0.142960,0.000000,0.000000,0.000000,0.000000,0.000000,0.000000
12905390.000000,-2.291349,-1.662898,1.276996,-1.461843,1.701330,1.343161,-0.586220,0.285043,0.017095,1.129993,-0.230345,-0.175731,1.106252,-0.059761,1.764264,37.884869,-23.774002,-3.249635,0.356534,1.897079,-0.175919,0.000000,0.000000,0.000000,0.000000,0.000000,0.000000
12905391.000000,-2.291076,-1.662884,1.278142,-1.462072,1.701155,1.344263,-0.586278,0.281170,0.015721,1.125436,-0.231126,-0.175147,1.107997,-0.062098,1.887250,37.861065,-23.849380,-3.126650,0.393156,1.942855,-0.142960,0.000000,0.000000,0.000000,0.000000,0.000000,0.000000
12905392.000000,-2.290795,-1.662861,1.279279,-1.462306,1.700991,1.345380,-0.586326,0.279766,0.017773,1.125506,-0.239371,-0.173873,1.110311,-0.059307,1.962629,37.714275,-23.972366,-2.904482,0.291532,2.001449,-0.215287,0.000000,0.000000,0.000000,0.000000,0.000000,0.000000
12905393.000000,-2.290515,-1.662843,1.280408,-1.462548,1.700814,1.346479,-0.586389,0.279955,0.017464,1.110471,-0.242503,-0.176572,1.104308,-0.056717,1.962629,37.638897,-23.801773,-2.583132,0.267728,1.955673,-0.169511,0.000000,0.000000,0.000000,0.000000,0.000000,0.000000
12905394.000000,-2.290232,-1.662831,1.281548,-1.462793,1.700642,1.347598,-0.586446,0.280397,0.016061,1.127128,-0.241377,-0.176925,1.101114,-0.054053,1.911054,37.615093,-23.603409,-2.261781,0.327238,1.865035,-0.142960,0.000000,0.000000,0.000000,0.000000,0.000000,0.000000
12905395.000000,-2.289952,-1.662814,1.282658,-1.463033,1.700467,1.348711,-0.586493,0.279956,0.016219,1.118741,-0.239905,-0.176270,1.094938,-0.053577,1.911054,37.539715,-23.258255,-1.964235,0.369352,1.877853,-0.196061,0.000000,0.000000,0.000000,0.000000,0.000000,0.000000
12905396.000000,-2.289681,-1.662796,1.283792,-1.463273,1.700304,1.349811,-0.586551,0.276537,0.016343,1.110367,-0.239372,-0.169970,1.094800,-0.052342,1.934858,37.468304,-23.135269,-1.769838,0.369352,1.877853,-0.155778,0.000000,0.000000,0.000000,0.000000,0.000000,0.000000
12905397.000000,-2.289413,-1.662778,1.284911,-1.463501,1.700144,1.350923,-0.586605,0.275016,0.016519,1.126456,-0.233697,-0.164422,1.094009,-0.048969,1.986432,37.392925,-23.016251,-1.817445,0.351041,1.865035,-0.169511,0.000000,0.000000,0.000000,0.000000,0.000000,0.000000
12905398.000000,-2.289156,-1.662771,1.286041,-1.463721,1.699983,1.352028,-0.586659,0.271775,0.013084,1.116711,-0.226527,-0.164934,1.125577,-0.048289,2.260175,37.468304,-22.865494,-1.869020,0.332731,1.754256,-0.136552,0.000000,0.000000,0.000000,0.000000,0.000000,0.000000
12905399.000000,-2.288892,-1.662758,1.287192,-1.463938,1.699819,1.353159,-0.586707,0.274511,0.012482,1.136783,-0.224279,-0.166215,1.123354,-0.045258,2.331586,37.468304,-22.988480,-1.940431,0.339139,1.591293,-0.175919,0.000000,0.000000,0.000000,0.000000,0.000000,0.000000
12905400.000000,-2.288627,-1.662742,1.288318,-1.464159,1.699660,1.354269,-0.586758,0.271515,0.013286,1.128492,-0.223710,-0.160742,1.120468,-0.049847,2.383161,37.420696,-23.063858,-1.964235,0.308927,1.662704,-0.155778,0.000000,0.000000,0.000000,0.000000,0.000000,0.000000
12905401.000000,-2.288366,-1.662734,1.289455,-1.464386,1.699495,1.355366,-0.586813,0.270572,0.011590,1.122568,-0.222010,-0.160009,1.121295,-0.054061,2.430768,37.468304,-23.087662,-1.916628,0.351041,1.735030,-0.130143,0.000000,0.000000,0.000000,0.000000,0.000000,0.000000
12905402.000000,-2.288094,-1.662729,1.290596,-1.464609,1.699334,1.356476,-0.586856,0.269811,0.009264,1.138903,-0.220960,-0.154872,1.113766,-0.048921,2.260175,37.567486,-23.135269,-1.869020,0.405057,1.735030,-0.182328,0.000000,0.000000,0.000000,0.000000,0.000000,0.000000
12905403.000000,-2.287840,-1.662721,1.291713,-1.464819,1.699181,1.357588,-0.586911,0.269993,0.009449,1.120804,-0.218316,-0.153019,1.107701,-0.048117,2.283979,37.591290,-23.111465,-1.892824,0.393156,1.637069,-0.155778,0.000000,0.000000,0.000000,0.000000,0.000000,0.000000
12905404.000000,-2.287573,-1.662711,1.292839,-1.465038,1.699034,1.358702,-0.586956,0.270340,0.010160,1.109484,-0.216974,-0.152367,1.107323,-0.050846,2.208601,37.591290,-23.016251,-1.869020,0.393156,1.559249,-0.188737,0.000000,0.000000,0.000000,0.000000,0.000000,0.000000
12905405.000000,-2.287302,-1.662697,1.293946,-1.465250,1.698891,1.359812,-0.587003,0.269058,0.011083,1.108709,-0.219068,-0.149633,1.098528,-0.049341,2.085615,37.567486,-22.865494,-1.817445,0.339139,1.643478,-0.169511,0.000000,0.000000,0.000000,0.000000,0.000000,0.000000
12905406.000000,-2.287040,-1.662685,1.295050,-1.465460,1.698742,1.360907,-0.587053,0.266845,0.014106,1.093845,-0.215407,-0.148272,1.095304,-0.052345,1.986432,37.567486,-22.548111,-1.769838,0.315336,1.708480,-0.175919,0.000000,0.000000,0.000000,0.000000,0.000000,0.000000
12905407.000000,-2.286773,-1.662674,1.296173,-1.465660,1.698587,1.362018,-0.587095,0.265116,0.010600,1.108994,-0.211353,-0.149902,1.094694,-0.048716,1.863447,37.567486,-22.325943,-1.769838,0.339139,1.747848,-0.202470,0.000000,0.000000,0.000000,0.000000,0.000000,0.000000
12905408.000000,-2.286519,-1.662661,1.297282,-1.465863,1.698436,1.363139,-0.587151,0.262134,0.012155,1.105133,-0.209705,-0.149263,1.100768,-0.049333,1.835676,37.515911,-22.254532,-1.718263,0.320829,1.727706,-0.130143,0.000000,0.000000,0.000000,0.000000,0.000000,0.000000
12905409.000000,-2.286253,-1.662644,1.298410,-1.466056,1.698286,1.364248,-0.587193,0.260197,0.013605,1.103955,-0.199486,-0.149737,1.106724,-0.051120,1.665082,37.444500,-22.377518,-1.769838,0.315336,1.662704,-0.175919,0.000000,0.000000,0.000000,0.000000,0.000000,0.000000
12905410.000000,-2.285996,-1.662625,1.299552,-1.466246,1.698138,1.365363,-0.587236,0.258806,0.015775,1.131439,-0.201797,-0.150618,1.107103,-0.048190,1.613508,37.321514,-22.794083,-1.817445,0.332731,1.637069,-0.188737,0.000000,0.000000,0.000000,0.000000,0.000000,0.000000
12905411.000000,-2.285738,-1.662616,1.300699,-1.466432,1.697993,1.366457,-0.587283,0.259064,0.016014,1.127713,-0.194559,-0.146470,1.109055,-0.047467,1.514325,37.369122,-23.111465,-1.841249,0.344633,1.624252,-0.163102,0.000000,0.000000,0.000000,0.000000,0.000000,0.000000
12905412.000000,-2.285481,-1.662604,1.301857,-1.466614,1.697844,1.367564,-0.587327,0.255028,0.014749,1.145617,-0.193159,-0.143995,1.104200,-0.045107,1.490522,37.369122,-23.555801,-1.964235,0.381254,1.649886,-0.188737,0.000000,0.000000,0.000000,0.000000,0.000000,0.000000
12905413.000000,-2.285226,-1.662597,1.302989,-1.466795,1.697697,1.368655,-0.587378,0.255001,0.009751,1.139744,-0.190987,-0.141654,1.091598,-0.046348,1.442914,37.420696,-23.825577,-2.015810,0.410551,1.800033,-0.122819,0.000000,0.000000,0.000000,0.000000,0.000000,0.000000
12905414.000000,-2.284964,-1.662589,1.304129,-1.466970,1.697560,1.369734,-0.587414,0.258201,0.010243,1.127623,-0.184359,-0.141456,1.084651,-0.042334,1.268354,37.420696,-23.972366,-2.138796,0.351041,1.909896,-0.196061,0.000000,0.000000,0.000000,0.000000,0.000000,0.000000
12905415.000000,-2.284705,-1.662587,1.305242,-1.467137,1.697419,1.370833,-0.587465,0.258372,0.008490,1.126522,-0.177260,-0.141948,1.087088,-0.038761,1.145368,37.515911,-23.972366,-2.237978,0.297025,1.884261,-0.149369,0.000000,0.000000,0.000000,0.000000,0.000000,0.000000
12905416.000000,-2.284457,-1.662580,1.306360,-1.467299,1.697267,1.371918,-0.587507,0.251645,0.007010,1.108414,-0.174400,-0.144701,1.111282,-0.038346,1.093793,37.615093,-23.801773,-2.360964,0.303434,1.877853,-0.175919,0.000000,0.000000,0.000000,0.000000,0.000000,0.000000
12905417.000000,-2.284197,-1.662582,1.307482,-1.467467,1.697119,1.373012,-0.587547,0.255470,0.005615,1.120224,-0.171279,-0.142233,1.109397,-0.038395,0.923200,37.738079,-23.528030,-2.384767,0.320829,1.838485,-0.202470,0.000000,0.000000,0.000000,0.000000,0.000000,0.000000
12905418.000000,-2.283934,-1.662580,1.308592,-1.467632,1.696979,1.374107,-0.587599,0.258455,0.005331,1.123529,-0.166369,-0.139075,1.107424,-0.040913,0.724836,37.833294,-23.286026,-2.384767,0.308927,1.871444,-0.155778,0.000000,0.000000,0.000000,0.000000,0.000000,0.000000
12905419.000000,-2.283686,-1.662580,1.309705,-1.467792,1.696836,1.375194,-0.587639,0.253955,0.005066,1.109666,-0.161881,-0.138264,1.105586,-0.044795,0.673261,37.932476,-22.988480,-2.412538,0.332731,1.851302,-0.196061,0.000000,0.000000,0.000000,0.000000,0.000000,0.000000
12905420.000000,-2.283433,-1.662573,1.310821,-1.467944,1.696693,1.376309,-0.587684,0.254317,0.004320,1.112127,-0.156437,-0.141530,1.108438,-0.045823,0.574079,37.932476,-22.940872,-2.535524,0.339139,1.656295,-0.149369,0.000000,0.000000,0.000000,0.000000,0.000000,0.000000
12905421.000000,-2.283186,-1.662570,1.311936,-1.468083,1.696562,1.377441,-0.587725,0.252194,0.002380,1.106495,-0.150781,-0.136256,1.112558,-0.044137,0.474897,37.984051,-22.770279,-2.733888,0.261320,1.429244,-0.163102,0.000000,0.000000,0.000000,0.000000,0.000000,0.000000
12905422.000000,-2.282945,-1.662571,1.313054,-1.468231,1.696425,1.378536,-0.587764,0.246546,-0.000110,1.111896,-0.147147,-0.135766,1.105105,-0.043503,0.474897,38.079266,-22.865494,-2.904482,0.267728,1.357833,-0.169511,0.000000,0.000000,0.000000,0.000000,0.000000,0.000000
12905423.000000,-2.282705,-1.662568,1.314178,-1.468363,1.696287,1.379638,-0.587807,0.244943,0.002662,1.106546,-0.142022,-0.134357,1.091155,-0.044451,0.451093,38.103069,-22.841690,-3.154421,0.261320,1.467696,-0.130143,0.000000,0.000000,0.000000,0.000000,0.000000,0.000000
12905424.000000,-2.282469,-1.662566,1.315317,-1.468504,1.696151,1.380715,-0.587843,0.243700,0.001107,1.104379,-0.142936,-0.137985,1.076030,-0.041974,0.474897,38.154644,-22.964676,-3.249635,0.243009,1.637069,-0.175919,0.000000,0.000000,0.000000,0.000000,0.000000,0.000000
12905425.000000,-2.282225,-1.662566,1.316435,-1.468631,1.696000,1.381820,-0.587886,0.243743,0.000586,1.115097,-0.137946,-0.145068,1.081164,-0.043129,0.403486,38.178448,-22.940872,-3.448000,0.344633,1.773483,-0.149369,0.000000,0.000000,0.000000,0.000000,0.000000,0.000000
12905426.000000,-2.281981,-1.662560,1.317545,-1.468756,1.695867,1.382940,-0.587915,0.237957,0.001808,1.118625,-0.133311,-0.143972,1.084677,-0.040154,0.276533,38.130840,-22.964676,-3.547182,0.291532,1.779891,-0.208878,0.000000,0.000000,0.000000,0.000000,0.000000,0.000000
12905427.000000,-2.281733,-1.662552,1.318669,-1.468884,1.695741,1.384053,-0.587954,0.243335,0.003753,1.118831,-0.130757,-0.140064,1.095119,-0.041662,0.006757,38.031658,-22.988480,-3.598757,0.267728,1.714889,-0.188737,0.000000,0.000000,0.000000,0.000000,0.000000,0.000000
12905428.000000,-2.281478,-1.662548,1.319759,-1.469010,1.695611,1.385171,-0.587998,0.248938,0.003786,1.111196,-0.128514,-0.138060,1.093917,-0.038363,-0.314593,37.984051,-22.817886,-3.670168,0.267728,1.676437,-0.136552,0.000000,0.000000,0.000000,0.000000,0.000000,0.000000
12905429.000000,-2.281231,-1.662541,1.320867,-1.469140,1.695488,1.386263,-0.588026,0.248322,0.004972,1.099586,-0.129396,-0.135450,1.093872,-0.036611,-0.588336,37.884869,-22.647293,-3.622560,0.237516,1.682845,-0.202470,0.000000,0.000000,0.000000,0.000000,0.000000,0.000000
12905430.000000,-2.280987,-1.662537,1.321956,-1.469265,1.695362,1.387367,-0.588070,0.248834,0.004617,1.099200,-0.126777,-0.130529,1.100956,-0.035073,-0.810504,37.833294,-22.401321,-3.570986,0.249418,1.760665,-0.142960,0.000000,0.000000,0.000000,0.000000,0.000000,0.000000
12905431.000000,-2.280741,-1.662536,1.323079,-1.469384,1.695240,1.388473,-0.588100,0.249820,0.003707,1.106778,-0.124049,-0.125171,1.103426,-0.034795,-0.961260,37.809490,-22.500504,-3.547182,0.225614,1.786300,-0.182328,0.000000,0.000000,0.000000,0.000000,0.000000,0.000000
12905432.000000,-2.280504,-1.662537,1.324202,-1.469498,1.695129,1.389572,-0.588138,0.248361,0.001968,1.104668,-0.120617,-0.118572,1.103470,-0.037913,-1.060443,37.833294,-22.571915,-3.570986,0.129484,1.754256,-0.149369,0.000000,0.000000,0.000000,0.000000,0.000000,0.000000
12905433.000000,-2.280267,-1.662533,1.325335,-1.469604,1.695002,1.390677,-0.588171,0.244511,0.001910,1.113530,-0.113250,-0.122371,1.091112,-0.033358,-1.159625,37.809490,-22.964676,-3.670168,0.129484,1.708480,-0.155778,0.000000,0.000000,0.000000,0.000000,0.000000,0.000000
12905434.000000,-2.280038,-1.662533,1.326479,-1.469706,1.694876,1.391771,-0.588201,0.240558,0.001303,1.112602,-0.110003,-0.120521,1.089618,-0.034409,-1.207232,37.809490,-23.357437,-3.820925,0.135892,1.656295,-0.182328,0.000000,0.000000,0.000000,0.000000,0.000000,0.000000
12905435.000000,-2.279811,-1.662536,1.327610,-1.469811,1.694750,1.392864,-0.588239,0.232373,-0.000315,1.097559,-0.105465,-0.115767,1.083204,-0.037959,-1.183428,37.861065,-23.849380,-3.920107,0.178007,1.735030,-0.142960,0.000000,0.000000,0.000000,0.000000,0.000000,0.000000
12905436.000000,-2.279581,-1.662539,1.328747,-1.469911,1.694619,1.393949,-0.588266,0.229086,-0.001306,1.108866,-0.104779,-0.118358,1.082233,-0.032338,-1.254840,37.908672,-24.095352,-4.019289,0.273221,1.942855,-0.175919,0.000000,0.000000,0.000000,0.000000,0.000000,0.000000
12905437.000000,-2.279359,-1.662543,1.329894,-1.470017,1.694492,1.395025,-0.588300,0.227201,-0.001972,1.111073,-0.105479,-0.122787,1.078155,-0.035272,-1.306414,37.956280,-24.313553,-3.967714,0.327238,2.033492,-0.163102,0.000000,0.000000,0.000000,0.000000,0.000000,0.000000
12905438.000000,-2.279127,-1.662551,1.331010,-1.470115,1.694370,1.396123,-0.588330,0.228980,-0.004182,1.114445,-0.103957,-0.119780,1.083794,-0.030701,-1.429400,38.079266,-24.341324,-3.991518,0.320829,1.988631,-0.188737,0.000000,0.000000,0.000000,0.000000,0.000000,0.000000
12905439.000000,-2.278903,-1.662557,1.332144,-1.470210,1.694253,1.397234,-0.588363,0.231800,-0.004544,1.106063,-0.103238,-0.115489,1.090376,-0.034472,-1.528582,38.154644,-24.365128,-3.991518,0.255826,1.884261,-0.163102,0.000000,0.000000,0.000000,0.000000,0.000000,0.000000
12905440.000000,-2.278670,-1.662563,1.333240,-1.470311,1.694143,1.398317,-0.588396,0.231814,-0.005251,1.107561,-0.100973,-0.116047,1.094470,-0.032130,-1.679339,38.249859,-24.071548,-3.920107,0.159696,1.825668,-0.136552,0.000000,0.000000,0.000000,0.000000,0.000000,0.000000
12905441.000000,-2.278444,-1.662576,1.334360,-1.470408,1.694022,1.399399,-0.588419,0.231162,-0.006930,1.106984,-0.101921,-0.115750,1.085004,-0.027228,-1.849932,38.396648,-23.948563,-3.844728,0.166105,1.897079,-0.188737,0.000000,0.000000,0.000000,0.000000,0.000000,0.000000
12905442.000000,-2.278219,-1.662587,1.335465,-1.470505,1.693902,1.400464,-0.588450,0.229963,-0.008051,1.092063,-0.099999,-0.116513,1.075507,-0.026477,-2.000689,38.543438,-23.504227,-3.769350,0.195402,1.968490,-0.169511,0.000000,0.000000,0.000000,0.000000,0.000000,0.000000
12905443.000000,-2.278000,-1.662589,1.336573,-1.470596,1.693783,1.401554,-0.588480,0.224350,-0.006015,1.099760,-0.095374,-0.115542,1.069463,-0.025672,-2.099871,38.571209,-23.381241,-3.820925,0.195402,2.027084,-0.155778,0.000000,0.000000,0.000000,0.000000,0.000000,0.000000
12905444.000000,-2.277789,-1.662591,1.337680,-1.470686,1.693663,1.402667,-0.588511,0.221639,-0.004565,1.099091,-0.092895,-0.113909,1.075506,-0.030020,-2.123675,38.595013,-23.163040,-3.844728,0.171598,1.909896,-0.136552,0.000000,0.000000,0.000000,0.000000,0.000000,0.000000
12905445.000000,-2.277587,-1.662598,1.338818,-1.470766,1.693540,1.403776,-0.588533,0.217954,-0.004712,1.108848,-0.087478,-0.114541,1.087605,-0.026556,-2.072100,38.666424,-23.309830,-4.019289,0.189908,1.702071,-0.169511,0.000000,0.000000,0.000000,0.000000,0.000000,0.000000
12905446.000000,-2.277386,-1.662597,1.339930,-1.470842,1.693418,1.404879,-0.588562,0.213250,-0.002584,1.114383,-0.081249,-0.115702,1.085236,-0.024718,-1.949114,38.642620,-23.357437,-4.166078,0.231107,1.617843,-0.182328,0.000000,0.000000,0.000000,0.000000,0.000000,0.000000
12905447.000000,-2.277180,-1.662608,1.341057,-1.470918,1.693302,1.405953,-0.588594,0.210246,-0.004599,1.107705,-0.081630,-0.115262,1.083886,-0.025708,-1.949114,38.765606,-23.456619,-4.241457,0.237516,1.708480,-0.130143,0.000000,0.000000,0.000000,0.000000,0.000000,0.000000
12905448.000000,-2.276977,-1.662610,1.342163,-1.470999,1.693181,1.407042,-0.588611,0.207988,-0.003622,1.110846,-0.079948,-0.116683,1.089287,-0.021847,-1.925311,38.789410,-23.456619,-4.265260,0.291532,1.767074,-0.202470,0.000000,0.000000,0.000000,0.000000,0.000000,0.000000
12905449.000000,-2.276771,-1.662620,1.343292,-1.471073,1.693067,1.408140,-0.588644,0.208169,-0.004734,1.113316,-0.077940,-0.114706,1.092834,-0.028321,-2.000689,38.888592,-23.627213,-4.312868,0.273221,1.819259,-0.155778,0.000000,0.000000,0.000000,0.000000,0.000000,0.000000
12905450.000000,-2.276567,-1.662624,1.344405,-1.471145,1.692964,1.409231,-0.588670,0.205339,-0.004270,1.109938,-0.076838,-0.106612,1.095924,-0.026732,-2.072100,38.936199,-23.528030,-4.340639,0.195402,1.760665,-0.149369,0.000000,0.000000,0.000000,0.000000,0.000000,0.000000
12905451.000000,-2.276364,-1.662632,1.345507,-1.471219,1.692855,1.410328,-0.588691,0.203049,-0.004609,1.108543,-0.076639,-0.107063,1.087005,-0.024209,-2.171282,39.011578,-23.528030,-4.340639,0.154203,1.689254,-0.175919,0.000000,0.000000,0.000000,0.000000,0.000000,0.000000
12905452.000000,-2.276164,-1.662633,1.346610,-1.471293,1.692747,1.411409,-0.588719,0.196575,-0.002423,1.095956,-0.076417,-0.108597,1.079128,-0.024660,-2.270464,38.983807,-23.357437,-4.340639,0.147794,1.708480,-0.142960,0.000000,0.000000,0.000000,0.000000,0.000000,0.000000
12905453.000000,-2.275966,-1.662638,1.347697,-1.471362,1.692638,1.412500,-0.588738,0.195919,-0.002265,1.098809,-0.072292,-0.105358,1.078320,-0.022104,-2.345843,39.011578,-23.135269,-4.364442,0.147794,1.721298,-0.188737,0.000000,0.000000,0.000000,0.000000,0.000000,0.000000
12905454.000000,-2.275761,-1.662639,1.348799,-1.471429,1.692518,1.413599,-0.588769,0.199470,-0.000860,1.095138,-0.072631,-0.114965,1.083428,-0.023376,-2.445025,38.983807,-22.988480,-4.388246,0.231107,1.779891,-0.149369,0.000000,0.000000,0.000000,0.000000,0.000000,0.000000
12905455.000000,-2.275567,-1.662638,1.349918,-1.471493,1.692409,1.414680,-0.588791,0.196220,-0.002912,1.090280,-0.069066,-0.114193,1.081547,-0.026999,-2.468829,38.960003,-23.040054,-4.439821,0.225614,1.779891,-0.175919,0.000000,0.000000,0.000000,0.000000,0.000000,0.000000
12905456.000000,-2.275373,-1.662634,1.351042,-1.471561,1.692297,1.415795,-0.588815,0.193638,0.000045,1.106052,-0.067754,-0.113175,1.085692,-0.025333,-2.468829,38.864788,-23.409012,-4.439821,0.213712,1.637069,-0.182328,0.000000,0.000000,0.000000,0.000000,0.000000,0.000000
12905457.000000,-2.275191,-1.662633,1.352175,-1.471620,1.692190,1.416908,-0.588843,0.189056,0.000498,1.112676,-0.063012,-0.112448,1.097199,-0.025368,-2.445025,38.837017,-23.750198,-4.463624,0.201810,1.526290,-0.149369,0.000000,0.000000,0.000000,0.000000,0.000000,0.000000
12905458.000000,-2.275004,-1.662628,1.353320,-1.471675,1.692085,1.417998,-0.588864,0.189098,0.001867,1.117008,-0.058223,-0.107351,1.101398,-0.028869,-2.445025,38.765606,-24.166763,-4.535036,0.189908,1.526290,-0.169511,0.000000,0.000000,0.000000,0.000000,0.000000,0.000000
12905459.000000,-2.274822,-1.662628,1.354452,-1.471736,1.691975,1.419080,-0.588891,0.185159,0.001143,1.130816,-0.059810,-0.105351,1.090863,-0.022651,-2.421221,38.765606,-24.559525,-4.511232,0.231107,1.695663,-0.142960,0.000000,0.000000,0.000000,0.000000,0.000000,0.000000
12905460.000000,-2.274647,-1.662635,1.355587,-1.471793,1.691867,1.420126,-0.588907,0.181609,-0.001634,1.119132,-0.058034,-0.106917,1.075058,-0.020393,-2.369647,38.864788,-24.829300,-4.487428,0.219205,2.027084,-0.188737,0.000000,0.000000,0.000000,0.000000,0.000000,0.000000
12905461.000000,-2.274474,-1.662637,1.356690,-1.471845,1.691762,1.421204,-0.588938,0.178952,-0.001147,1.114136,-0.054931,-0.107908,1.064916,-0.023396,-2.322039,38.864788,-24.857071,-4.535036,0.207303,2.222091,-0.116410,0.000000,0.000000,0.000000,0.000000,0.000000,0.000000
12905462.000000,-2.274291,-1.662647,1.357815,-1.471899,1.691661,1.422309,-0.588950,0.180774,-0.003592,1.118881,-0.053958,-0.107206,1.074592,-0.019818,-2.421221,38.983807,-24.952286,-4.535036,0.159696,2.183639,-0.188737,0.000000,0.000000,0.000000,0.000000,0.000000,0.000000
12905463.000000,-2.274115,-1.662649,1.358936,-1.471951,1.691561,1.423408,-0.588970,0.179609,-0.002427,1.114752,-0.053685,-0.102530,1.080423,-0.020428,-2.421221,38.983807,-24.880875,-4.511232,0.112089,2.072860,-0.188737,0.000000,0.000000,0.000000,0.000000,0.000000,0.000000
12905464.000000,-2.273936,-1.662645,1.360040,-1.472012,1.691459,1.424507,-0.588994,0.177182,-0.002868,1.111157,-0.056361,-0.099649,1.084257,-0.021041,-2.492632,38.912395,-24.734085,-4.364442,0.081876,1.995040,-0.175919,0.000000,0.000000,0.000000,0.000000,0.000000,0.000000
12905465.000000,-2.273761,-1.662651,1.361146,-1.472079,1.691340,1.425586,-0.589010,0.178814,-0.005497,1.098860,-0.059795,-0.106666,1.106937,-0.020476,-2.591815,38.936199,-24.436539,-4.142274,0.171598,1.942855,-0.188737,0.000000,0.000000,0.000000,0.000000,0.000000,0.000000
12905466.000000,-2.273593,-1.662658,1.362238,-1.472136,1.691223,1.426670,-0.589033,0.173440,-0.005853,1.099384,-0.059479,-0.111646,1.103179,-0.022405,-2.568011,39.011578,-24.190567,-4.019289,0.267728,1.968490,-0.142960,0.000000,0.000000,0.000000,0.000000,0.000000,0.000000
12905467.000000,-2.273430,-1.662658,1.363358,-1.472191,1.691108,1.427761,-0.589046,0.170370,-0.006467,1.103496,-0.057002,-0.112325,1.104207,-0.025089,-2.544207,38.983807,-24.142960,-3.991518,0.291532,1.995040,-0.196061,0.000000,0.000000,0.000000,0.000000,0.000000,0.000000
12905468.000000,-2.273275,-1.662661,1.364469,-1.472239,1.691010,1.428844,-0.589070,0.166110,-0.004792,1.101509,-0.050415,-0.109032,1.099494,-0.025680,-2.421221,38.983807,-23.972366,-4.043092,0.201810,1.936446,-0.155778,0.000000,0.000000,0.000000,0.000000,0.000000,0.000000
12905469.000000,-2.273130,-1.662664,1.365578,-1.472281,1.690904,1.429939,-0.589091,0.157150,-0.003555,1.106306,-0.047203,-0.109026,1.085035,-0.020891,-2.222857,38.983807,-24.095352,-4.166078,0.171598,1.877853,-0.110001,0.000000,0.000000,0.000000,0.000000,0.000000,0.000000
12905470.000000,-2.272987,-1.662670,1.366704,-1.472323,1.690802,1.431028,-0.589105,0.152228,-0.005514,1.105006,-0.043756,-0.104029,1.081557,-0.014264,-2.048296,38.983807,-24.218338,-4.213686,0.135892,1.779891,-0.142960,0.000000,0.000000,0.000000,0.000000,0.000000,0.000000
12905471.000000,-2.272844,-1.662670,1.367813,-1.472362,1.690702,1.432117,-0.589121,0.147569,-0.006357,1.107062,-0.040465,-0.100707,1.076049,-0.016070,-1.925311,38.960003,-24.313553,-4.289064,0.105680,1.858627,-0.142960,0.000000,0.000000,0.000000,0.000000,0.000000,0.000000
12905472.000000,-2.272702,-1.662675,1.368929,-1.472413,1.690594,1.433203,-0.589128,0.147812,-0.004802,1.108789,-0.043319,-0.100541,1.067564,-0.014864,-1.826129,38.960003,-24.436539,-4.142274,0.141385,2.020675,-0.208878,0.000000,0.000000,0.000000,0.000000,0.000000,0.000000
12905473.000000,-2.272554,-1.662677,1.370042,-1.472459,1.690486,1.434290,-0.589152,0.146134,-0.003068,1.100059,-0.044053,-0.101205,1.073357,-0.019733,-1.802325,38.936199,-24.412735,-4.043092,0.195402,1.968490,-0.122819,0.000000,0.000000,0.000000,0.000000,0.000000,0.000000
12905474.000000,-2.272411,-1.662682,1.371132,-1.472506,1.690377,1.435401,-0.589161,0.145882,-0.002920,1.094901,-0.041959,-0.106570,1.079922,-0.018016,-1.726946,38.960003,-24.289749,-3.920107,0.267728,1.819259,-0.175919,0.000000,0.000000,0.000000,0.000000,0.000000,0.000000
12905475.000000,-2.272267,-1.662681,1.372234,-1.472546,1.690276,1.436509,-0.589179,0.150420,-0.002838,1.094003,-0.041596,-0.101767,1.092176,-0.019855,-1.750750,38.864788,-24.190567,-3.868532,0.237516,1.721298,-0.142960,0.000000,0.000000,0.000000,0.000000,0.000000,0.000000
12905476.000000,-2.272127,-1.662679,1.373332,-1.472586,1.690176,1.437592,-0.589186,0.147827,-0.001104,1.092185,-0.037537,-0.103868,1.092869,-0.017679,-1.726946,38.813213,-23.972366,-3.844728,0.219205,1.714889,-0.208878,0.000000,0.000000,0.000000,0.000000,0.000000,0.000000
12905477.000000,-2.271993,-1.662684,1.374416,-1.472623,1.690069,1.438677,-0.589204,0.143980,-0.001050,1.088338,-0.037561,-0.105924,1.089190,-0.019833,-1.651568,38.813213,-23.774002,-3.820925,0.219205,1.779891,-0.175919,0.000000,0.000000,0.000000,0.000000,0.000000,0.000000
12905478.000000,-2.271863,-1.662689,1.375511,-1.472660,1.689959,1.439758,-0.589224,0.141718,-0.001492,1.079488,-0.035443,-0.104328,1.081066,-0.016581,-1.603961,38.837017,-23.603409,-3.769350,0.249418,1.793624,-0.130143,0.000000,0.000000,0.000000,0.000000,0.000000,0.000000
12905479.000000,-2.271736,-1.662687,1.376602,-1.472698,1.689859,1.440847,-0.589227,0.139183,-0.002295,1.087258,-0.033732,-0.105645,1.076478,-0.009622,-1.504779,38.765606,-23.627213,-3.721742,0.225614,1.884261,-0.202470,0.000000,0.000000,0.000000,0.000000,0.000000,0.000000
12905480.000000,-2.271613,-1.662681,1.377733,-1.472730,1.689760,1.441952,-0.589250,0.133312,0.000425,1.100233,-0.031912,-0.100845,1.075935,-0.009554,-1.405596,38.666424,-23.996170,-3.697939,0.178007,1.909896,-0.142960,0.000000,0.000000,0.000000,0.000000,0.000000,0.000000
12905481.000000,-2.271499,-1.662681,1.378862,-1.472762,1.689669,1.443046,-0.589262,0.128767,0.001123,1.105766,-0.030101,-0.097681,1.083589,-0.012403,-1.231036,38.618816,-24.313553,-3.697939,0.135892,1.838485,-0.142960,0.000000,0.000000,0.000000,0.000000,0.000000,0.000000
12905482.000000,-2.271380,-1.662682,1.379975,-1.472795,1.689568,1.444153,-0.589273,0.126416,0.000543,1.110833,-0.030519,-0.099286,1.087200,-0.008493,-1.108050,38.618816,-24.682510,-3.622560,0.189908,1.767074,-0.163102,0.000000,0.000000,0.000000,0.000000,0.000000,0.000000
12905483.000000,-2.271264,-1.662683,1.381102,-1.472817,1.689472,1.445224,-0.589288,0.125173,-0.000349,1.108778,-0.028286,-0.097897,1.103060,-0.012823,-1.032672,38.642620,-25.003860,-3.646364,0.183500,1.844894,-0.130143,0.000000,0.000000,0.000000,0.000000,0.000000,0.000000
12905484.000000,-2.271159,-1.662689,1.382210,-1.472848,1.689371,1.446309,-0.589290,0.123081,-0.002111,1.111476,-0.025988,-0.099061,1.102620,-0.006850,-0.862078,38.717999,-25.198257,-3.570986,0.237516,1.936446,-0.202470,0.000000,0.000000,0.000000,0.000000,0.000000,0.000000
12905485.000000,-2.271044,-1.662691,1.383322,-1.472873,1.689276,1.447391,-0.589310,0.119658,-0.001494,1.107968,-0.023094,-0.098229,1.095777,-0.012998,-0.786700,38.717999,-25.198257,-3.547182,0.255826,2.066451,-0.136552,0.000000,0.000000,0.000000,0.000000,0.000000,0.000000
12905486.000000,-2.270928,-1.662695,1.384444,-1.472898,1.689183,1.448468,-0.589318,0.115789,-0.002732,1.103103,-0.025245,-0.097215,1.098634,-0.007722,-0.786700,38.789410,-25.273636,-3.475771,0.243009,2.020675,-0.188737,0.000000,0.000000,0.000000,0.000000,0.000000,0.000000
12905487.000000,-2.270816,-1.662702,1.385521,-1.472921,1.689085,1.449569,-0.589329,0.114129,-0.003633,1.101140,-0.026620,-0.101870,1.088873,-0.011105,-0.762896,38.864788,-24.928482,-3.400392,0.261320,1.858627,-0.188737,0.000000,0.000000,0.000000,0.000000,0.000000,0.000000
12905488.000000,-2.270706,-1.662707,1.386625,-1.472950,1.688988,1.450638,-0.589338,0.112118,-0.004129,1.096852,-0.026768,-0.100214,1.082045,-0.013172,-0.762896,38.936199,-24.781693,-3.225832,0.273221,1.838485,-0.196061,0.000000,0.000000,0.000000,0.000000,0.000000,0.000000
12905489.000000,-2.270593,-1.662713,1.387703,-1.472978,1.688896,1.451727,-0.589345,0.110774,-0.006801,1.093797,-0.026749,-0.101870,1.080977,-0.008996,-0.810504,38.983807,-24.436539,-3.055238,0.237516,1.825668,-0.221696,0.000000,0.000000,0.000000,0.000000,0.000000,0.000000
12905490.000000,-2.270485,-1.662718,1.388809,-1.473001,1.688796,1.452814,-0.589365,0.111894,-0.005446,1.098343,-0.027733,-0.104841,1.079665,-0.015449,-0.834307,39.011578,-24.365128,-2.956056,0.249418,1.897079,-0.130143,0.000000,0.000000,0.000000,0.000000,0.000000,0.000000
12905491.000000,-2.270390,-1.662717,1.389906,-1.473019,1.688694,1.453898,-0.589366,0.104886,-0.006062,1.083244,-0.027107,-0.102995,1.085521,-0.008707,-0.735125,38.983807,-24.142960,-2.928285,0.267728,1.858627,-0.202470,0.000000,0.000000,0.000000,0.000000,0.000000,0.000000
12905492.000000,-2.270297,-1.662723,1.390990,-1.473029,1.688601,1.455012,-0.589383,0.097817,-0.007872,1.086232,-0.021674,-0.104821,1.091201,-0.008824,-0.612139,39.011578,-24.019974,-2.979860,0.249418,1.637069,-0.142960,0.000000,0.000000,0.000000,0.000000,0.000000,0.000000
12905493.000000,-2.270205,-1.662722,1.392115,-1.473031,1.688505,1.456125,-0.589395,0.095512,-0.004008,1.101485,-0.016190,-0.102391,1.100932,-0.006257,-0.489153,38.936199,-24.289749,-3.102846,0.261320,1.500655,-0.149369,0.000000,0.000000,0.000000,0.000000,0.000000,0.000000
12905494.000000,-2.270114,-1.662720,1.393224,-1.473036,1.688418,1.457204,-0.589399,0.091237,-0.000745,1.099474,-0.013488,-0.098873,1.098107,-0.003409,-0.366168,38.837017,-24.313553,-3.178224,0.213712,1.526290,-0.182328,0.000000,0.000000,0.000000,0.000000,0.000000,0.000000
12905495.000000,-2.270025,-1.662724,1.394308,-1.473040,1.688318,1.458295,-0.589413,0.089753,-0.003798,1.096354,-0.012304,-0.099218,1.088490,-0.009804,-0.314593,38.837017,-24.242142,-3.225832,0.255826,1.597701,-0.130143,0.000000,0.000000,0.000000,0.000000,0.000000,0.000000
12905496.000000,-2.269935,-1.662736,1.395414,-1.473042,1.688212,1.459362,-0.589417,0.089857,-0.005881,1.093584,-0.010848,-0.097220,1.075555,-0.010489,-0.314593,38.960003,-24.313553,-3.301210,0.356534,1.767074,-0.182328,0.000000,0.000000,0.000000,0.000000,0.000000,0.000000
12905497.000000,-2.269843,-1.662739,1.396492,-1.473048,1.688127,1.460450,-0.589425,0.090426,-0.004274,1.089026,-0.008992,-0.093566,1.070657,-0.008659,-0.342364,38.960003,-24.218338,-3.277406,0.285123,1.903487,-0.163102,0.000000,0.000000,0.000000,0.000000,0.000000,0.000000
12905498.000000,-2.269748,-1.662741,1.397585,-1.473048,1.688039,1.461559,-0.589438,0.089084,-0.002001,1.085493,-0.006341,-0.091129,1.072523,-0.006760,-0.441546,38.912395,-24.142960,-3.301210,0.225614,1.903487,-0.155778,0.000000,0.000000,0.000000,0.000000,0.000000,0.000000
