chaoyuefei/paper-gmrm-data/robot_logs/s2_dq_gmrm_xz_max_0.30_log_20260314_173455.csv
# time_ms,q_0,q_1,q_2,q_3,q_4,q_5,q_6,dq_0,dq_1,dq_2,dq_3,dq_4,dq_5,dq_6,tau_J_0,tau_J_1,tau_J_2,tau_J_3,tau_J_4,tau_J_5,tau_J_6,O_dP_EE_c_0,O_dP_EE_c_1,O_dP_EE_c_2,O_dP_EE_c_3,O_dP_EE_c_4,O_dP_EE_c_5
12357027.000000,-0.344672,0.544240,0.451055,-1.426790,-0.242482,1.916507,0.131705,0.001072,0.000456,-0.000476,0.000511,-0.000129,-0.000002,0.001452,0.030561,-38.390156,5.996506,19.292479,0.805143,1.344100,-0.155778,0.000000,0.000000,0.000000,0.000000,0.000000,0.000000
12357028.000000,-0.344673,0.544237,0.451055,-1.426790,-0.242484,1.916506,0.131700,0.000158,-0.000902,-0.000317,0.000340,-0.000527,-0.000239,-0.000728,0.054365,-38.338581,5.996506,19.292479,0.817045,1.350509,-0.110001,0.000000,0.000000,0.000000,0.000000,0.000000,0.000000
12357029.000000,-0.344677,0.544237,0.451055,-1.426790,-0.242482,1.916510,0.131703,-0.001101,-0.000602,-0.000211,0.000227,0.000293,-0.000159,0.000498,0.105939,-38.338581,5.996506,19.292479,0.799650,1.350509,-0.136552,0.000000,0.000000,0.000000,0.000000,0.000000,0.000000
12357030.000000,-0.344677,0.544239,0.451054,-1.426791,-0.242482,1.916508,0.131707,-0.000734,0.000156,-0.000698,-0.000405,0.000195,0.000131,0.001790,0.105939,-38.362385,6.020309,19.316282,0.799650,1.344100,-0.175919,0.000000,0.000000,0.000000,0.000000,0.000000,0.000000
12357031.000000,-0.344691,0.544242,0.451058,-1.426792,-0.242481,1.916510,0.131701,-0.014436,0.015679,-0.010408,-0.005967,-0.002134,0.000800,0.007660,-0.366168,-37.802998,5.381577,19.018736,0.733732,1.324874,-0.097184,0.000000,0.000000,0.000000,0.000000,0.000000,0.000000
12357032.000000,-0.344710,0.544238,0.451033,-1.426801,-0.242460,1.916506,0.131719,-0.021478,0.021478,-0.027319,-0.017589,0.002947,0.001482,0.015549,-1.802325,-35.720173,3.933517,18.078489,0.351041,1.299239,-0.103593,0.000000,0.000000,0.000000,0.000000,0.000000,0.000000
12357033.000000,-0.344719,0.544242,0.450971,-1.426820,-0.242456,1.916501,0.131744,-0.012390,0.020733,-0.040086,-0.018893,0.003614,-0.003479,0.020155,-3.980364,-32.490803,2.068893,16.225767,0.022367,1.292831,-0.077042,0.000000,0.000000,0.000000,0.000000,0.000000,0.000000
12357034.000000,-0.344737,0.544285,0.450872,-1.426850,-0.242503,1.916499,0.131781,-0.007980,0.023691,-0.053961,-0.023180,-0.011192,0.005459,0.025341,-6.059222,-28.940083,0.156662,13.829527,0.093778,1.324874,-0.097184,0.000000,0.000000,0.000000,0.000000,0.000000,0.000000
12357035.000000,-0.344760,0.544350,0.450758,-1.426913,-0.242550,1.916498,0.131819,-0.003375,0.024039,-0.061432,-0.031081,-0.027163,0.005192,0.028700,-7.669940,-25.659138,-1.565140,11.381712,0.076383,1.422836,-0.103593,0.000000,0.000000,0.000000,0.000000,0.000000,0.000000
12357036.000000,-0.344790,0.544447,0.450634,-1.426996,-0.242606,1.916560,0.131851,-0.002976,0.041616,-0.071044,-0.038865,-0.035694,0.020965,0.029005,-8.558612,-23.064533,-2.739456,9.056883,0.088285,1.096908,-0.050492,0.000000,0.000000,0.000000,0.000000,0.000000,0.000000
12357037.000000,-0.344814,0.544569,0.450528,-1.427073,-0.242705,1.916699,0.131897,-0.003382,0.060899,-0.069733,-0.049451,-0.056171,0.060774,0.032545,-8.832355,-21.108662,-3.453568,6.882811,0.362943,0.239059,-0.083451,0.000000,0.000000,0.000000,0.000000,0.000000,0.000000
12357038.000000,-0.344829,0.544688,0.450432,-1.427168,-0.242801,1.916863,0.131930,-0.004533,0.073921,-0.073619,-0.055498,-0.068919,0.095799,0.030752,-8.582416,-19.565388,-3.501175,5.030089,0.464567,-0.561112,0.001693,0.000000,0.000000,0.000000,0.000000,0.000000,0.000000
12357039.000000,-0.344849,0.544792,0.450369,-1.427271,-0.242890,1.917016,0.131975,-0.013690,0.085445,-0.067460,-0.068755,-0.073801,0.111797,0.037480,-7.741351,-18.145100,-3.306778,3.593931,0.446256,-0.873307,0.009017,0.000000,0.000000,0.000000,0.000000,0.000000,0.000000
12357040.000000,-0.344863,0.544889,0.450334,-1.427385,-0.242980,1.917152,0.132031,-0.014966,0.088984,-0.054485,-0.081951,-0.080620,0.124643,0.039700,-6.753497,-16.823994,-2.985428,2.558470,0.374845,-0.678300,-0.044083,0.000000,0.000000,0.000000,0.000000,0.000000,0.000000
12357041.000000,-0.344851,0.544965,0.450300,-1.427504,-0.243059,1.917314,0.132086,-0.011890,0.088403,-0.053810,-0.090104,-0.076927,0.134786,0.043637,-5.983843,-15.403706,-2.346695,1.792784,0.183500,-0.313920,-0.037675,0.000000,0.000000,0.000000,0.000000,0.000000,0.000000
12357042.000000,-0.344852,0.545024,0.450276,-1.427652,-0.243124,1.917518,0.132149,-0.010428,0.076597,-0.048465,-0.108708,-0.075897,0.153179,0.052742,-5.019793,-13.836628,-1.711929,1.618224,-0.097567,-0.073136,-0.070634,0.000000,0.000000,0.000000,0.000000,0.000000,0.000000
12357043.000000,-0.344860,0.545055,0.450253,-1.427827,-0.243186,1.917748,0.132212,-0.015978,0.061275,-0.046570,-0.130405,-0.066406,0.180071,0.058583,-3.980364,-12.098957,-1.073197,1.864195,-0.384127,0.096236,-0.077042,0.000000,0.000000,0.000000,0.000000,0.000000,0.000000
12357044.000000,-0.344866,0.545083,0.450219,-1.428026,-0.243270,1.918009,0.132282,-0.015332,0.047536,-0.046794,-0.154420,-0.073751,0.204243,0.058614,-3.111529,-10.408894,-0.335281,2.407713,-0.419833,0.277511,-0.097184,0.000000,0.000000,0.000000,0.000000,0.000000,0.000000
12357045.000000,-0.344883,0.545119,0.450172,-1.428239,-0.243378,1.918279,0.132355,-0.019838,0.044567,-0.050510,-0.178447,-0.088071,0.221700,0.067606,-2.171282,-8.893391,0.450241,3.026610,-0.204684,0.505477,-0.116410,0.000000,0.000000,0.000000,0.000000,0.000000,0.000000
12357046.000000,-0.344920,0.545179,0.450127,-1.428457,-0.243493,1.918575,0.132417,-0.025955,0.050777,-0.051278,-0.192911,-0.099540,0.237700,0.066016,-1.084246,-7.889668,1.037399,3.447142,0.058073,0.654708,-0.023942,0.000000,0.000000,0.000000,0.000000,0.000000,0.000000
12357047.000000,-0.344966,0.545262,0.450080,-1.428679,-0.243602,1.918898,0.132495,-0.036400,0.061519,-0.052181,-0.206500,-0.103151,0.262174,0.070234,0.006757,-7.203327,1.505539,3.720885,0.213712,0.727035,-0.056901,0.000000,0.000000,0.000000,0.000000,0.000000,0.000000
12357048.000000,-0.344998,0.545364,0.450047,-1.428914,-0.243711,1.919252,0.132571,-0.035762,0.079432,-0.043583,-0.217311,-0.112284,0.293789,0.075070,0.748639,-6.885944,1.699936,3.891478,0.308927,0.694076,-0.023942,0.000000,0.000000,0.000000,0.000000,0.000000,0.000000
12357049.000000,-0.345023,0.545484,0.450012,-1.429150,-0.243801,1.919640,0.132659,-0.033714,0.094358,-0.039283,-0.222320,-0.107402,0.320169,0.081392,1.268354,-6.786762,1.822922,3.792296,0.195402,0.551253,-0.064225,0.000000,0.000000,0.000000,0.000000,0.000000,0.000000
12357050.000000,-0.345040,0.545618,0.449986,-1.429387,-0.243879,1.920040,0.132745,-0.028279,0.110654,-0.033253,-0.229704,-0.093671,0.346274,0.084695,1.589704,-6.838337,1.799118,3.546324,-0.079257,0.369064,-0.064225,0.000000,0.000000,0.000000,0.000000,0.000000,0.000000
12357051.000000,-0.345067,0.545752,0.449960,-1.429639,-0.243961,1.920460,0.132829,-0.027405,0.120190,-0.029955,-0.234834,-0.090413,0.364190,0.086520,2.010236,-6.838337,1.799118,3.149595,-0.318209,0.343429,-0.050492,0.000000,0.000000,0.000000,0.000000,0.000000,0.000000
12357052.000000,-0.345077,0.545886,0.449920,-1.429893,-0.244067,1.920883,0.132921,-0.020183,0.124144,-0.034459,-0.236016,-0.096687,0.379951,0.085312,2.133222,-6.616169,1.945907,2.852049,-0.330111,0.492660,-0.097184,0.000000,0.000000,0.000000,0.000000,0.000000,0.000000
12357053.000000,-0.345086,0.546008,0.449874,-1.430176,-0.244187,1.921316,0.132996,-0.013939,0.121182,-0.035283,-0.250855,-0.100964,0.398375,0.084975,2.184797,-6.128193,2.116501,2.729063,-0.204684,0.616256,-0.031266,0.000000,0.000000,0.000000,0.000000,0.000000,0.000000
12357054.000000,-0.345113,0.546120,0.449829,-1.430483,-0.244307,1.921799,0.133082,-0.018160,0.118165,-0.038473,-0.263989,-0.105392,0.425869,0.083425,2.454572,-5.465656,2.267257,2.705260,-0.043551,0.629073,-0.037675,0.000000,0.000000,0.000000,0.000000,0.000000,0.000000
12357055.000000,-0.345129,0.546225,0.449788,-1.430794,-0.244429,1.922324,0.133170,-0.017580,0.114003,-0.037921,-0.280398,-0.108080,0.454646,0.082743,2.553754,-4.684101,2.291061,2.828245,0.117582,0.440475,-0.056901,0.000000,0.000000,0.000000,0.000000,0.000000,0.000000
12357056.000000,-0.345145,0.546330,0.449747,-1.431127,-0.244551,1.922870,0.133252,-0.016786,0.113353,-0.036702,-0.295262,-0.113038,0.484699,0.079433,2.629133,-3.850971,2.267257,2.979002,0.237516,0.258285,-0.017533,0.000000,0.000000,0.000000,0.000000,0.000000,0.000000
12357057.000000,-0.345157,0.546468,0.449714,-1.431451,-0.244661,1.923414,0.133343,-0.015235,0.121771,-0.033588,-0.302354,-0.111032,0.501555,0.084482,2.652936,-3.359028,2.144272,2.927428,0.207303,0.304061,-0.056901,0.000000,0.000000,0.000000,0.000000,0.000000,0.000000
12357058.000000,-0.345158,0.546624,0.449684,-1.431770,-0.244762,1.923954,0.133428,-0.011566,0.128419,-0.028036,-0.306135,-0.106591,0.515643,0.086832,2.553754,-3.311421,1.997482,2.681456,0.088285,0.603439,-0.050492,0.000000,0.000000,0.000000,0.000000,0.000000,0.000000
12357059.000000,-0.345154,0.546800,0.449652,-1.432099,-0.244860,1.924528,0.133512,-0.006066,0.140101,-0.026959,-0.305947,-0.103030,0.528064,0.083055,2.454572,-3.997761,1.969711,2.582274,-0.055453,0.889083,-0.023942,0.000000,0.000000,0.000000,0.000000,0.000000,0.000000
12357060.000000,-0.345152,0.546981,0.449630,-1.432404,-0.244959,1.925159,0.133602,-0.004551,0.153367,-0.021108,-0.304302,-0.100221,0.562318,0.082702,2.454572,-5.247456,1.997482,2.530699,-0.204684,0.889083,-0.064225,0.000000,0.000000,0.000000,0.000000,0.000000,0.000000
12357061.000000,-0.345156,0.547161,0.449607,-1.432748,-0.245051,1.925829,0.133685,-0.003748,0.161873,-0.023061,-0.315891,-0.094182,0.594778,0.085273,2.605329,-6.786762,2.168075,3.026610,-0.348422,0.576888,-0.056901,0.000000,0.000000,0.000000,0.000000,0.000000,0.000000
12357062.000000,-0.345149,0.547338,0.449582,-1.433087,-0.245164,1.926538,0.133766,-0.003631,0.168683,-0.025899,-0.321888,-0.101941,0.625447,0.087181,2.652936,-8.330036,2.414047,3.447142,-0.294406,0.154830,-0.050492,0.000000,0.000000,0.000000,0.000000,0.000000,0.000000
12357063.000000,-0.345144,0.547515,0.449551,-1.433433,-0.245295,1.927224,0.133849,-0.001059,0.177092,-0.029786,-0.332602,-0.113589,0.639617,0.088612,2.728315,-9.797932,2.755234,3.891478,-0.067355,-0.033768,-0.031266,0.000000,0.000000,0.000000,0.000000,0.000000,0.000000
12357064.000000,-0.345149,0.547687,0.449523,-1.433804,-0.245436,1.927899,0.133931,-0.001430,0.180361,-0.030091,-0.347061,-0.123734,0.644837,0.085366,2.902875,-11.047626,3.001205,4.264403,0.219205,0.056869,-0.031266,0.000000,0.000000,0.000000,0.000000,0.000000,0.000000
12357065.000000,-0.345148,0.547862,0.449496,-1.434159,-0.245565,1.928563,0.134008,-0.001063,0.175827,-0.027917,-0.350361,-0.125068,0.645990,0.085758,2.926679,-12.269550,3.147995,4.557982,0.362943,0.219833,0.015426,0.000000,0.000000,0.000000,0.000000,0.000000,0.000000
12357066.000000,-0.345126,0.548026,0.449469,-1.434535,-0.245682,1.929240,0.134091,0.003096,0.167161,-0.028445,-0.352961,-0.125743,0.655530,0.088737,2.506147,-13.543049,3.247177,5.129271,0.386747,0.310470,0.001693,0.000000,0.000000,0.000000,0.000000,0.000000,0.000000
12357067.000000,-0.345114,0.548194,0.449441,-1.434922,-0.245786,1.929931,0.134175,0.005348,0.167087,-0.027195,-0.358766,-0.117218,0.667466,0.087351,2.085615,-15.086323,3.270981,6.140929,0.267728,0.388290,-0.050492,0.000000,0.000000,0.000000,0.000000,0.000000,0.000000
12357068.000000,-0.345107,0.548364,0.449417,-1.435300,-0.245878,1.930617,0.134249,0.005824,0.170091,-0.024893,-0.366025,-0.107975,0.673709,0.081842,1.688886,-16.800190,3.223373,7.477904,0.052579,0.446883,0.015426,0.000000,0.000000,0.000000,0.000000,0.000000,0.000000
12357069.000000,-0.345116,0.548540,0.449390,-1.435673,-0.245985,1.931296,0.134332,0.000654,0.175154,-0.027755,-0.367829,-0.106932,0.673588,0.087074,1.514325,-18.660847,3.223373,8.735533,-0.025240,0.641891,-0.037675,0.000000,0.000000,0.000000,0.000000,0.000000,0.000000
12357070.000000,-0.345127,0.548722,0.449353,-1.436034,-0.246103,1.931958,0.134413,-0.000097,0.178705,-0.029164,-0.372808,-0.110860,0.659744,0.088891,1.343732,-20.545307,3.322555,10.096312,0.027860,1.045638,-0.044083,0.000000,0.000000,0.000000,0.000000,0.000000,0.000000
12357071.000000,-0.345132,0.548917,0.449313,-1.436407,-0.246226,1.932614,0.134488,-0.000377,0.188428,-0.033869,-0.377456,-0.113162,0.653548,0.087902,1.169172,-22.477375,3.445541,11.457090,0.195402,1.402694,0.015426,0.000000,0.000000,0.000000,0.000000,0.000000,0.000000
12357072.000000,-0.345147,0.549110,0.449273,-1.436788,-0.246343,1.933288,0.134571,-0.004056,0.193096,-0.036562,-0.379010,-0.114539,0.655875,0.090410,1.145368,-24.191242,3.540756,12.643309,0.243009,1.448470,-0.004716,0.000000,0.000000,0.000000,0.000000,0.000000,0.000000
12357073.000000,-0.345155,0.549327,0.449227,-1.437161,-0.246464,1.933979,0.134652,-0.004194,0.202534,-0.042342,-0.381828,-0.120601,0.666729,0.085461,1.022382,-26.028095,3.663742,13.754148,0.303434,1.350509,0.028243,0.000000,0.000000,0.000000,0.000000,0.000000,0.000000
12357074.000000,-0.345150,0.549557,0.449179,-1.437537,-0.246584,1.934654,0.134739,-0.000121,0.211639,-0.044044,-0.381989,-0.123926,0.672752,0.084455,0.724836,-27.813374,3.810531,14.519835,0.327238,1.175643,-0.004716,0.000000,0.000000,0.000000,0.000000,0.000000,0.000000
12357075.000000,-0.345148,0.549796,0.449119,-1.437921,-0.246706,1.935309,0.134819,0.000853,0.221500,-0.050541,-0.380661,-0.125589,0.663546,0.082151,0.502668,-29.428059,4.056503,15.162535,0.327238,1.188461,0.009017,0.000000,0.000000,0.000000,0.000000,0.000000,0.000000
12357076.000000,-0.345151,0.550042,0.449064,-1.438302,-0.246828,1.935924,0.134900,-0.000739,0.230830,-0.053516,-0.381854,-0.122669,0.650950,0.085450,0.375715,-30.872150,4.227097,15.606871,0.339139,1.383468,-0.011124,0.000000,0.000000,0.000000,0.000000,0.000000,0.000000
12357077.000000,-0.345156,0.550289,0.448998,-1.438705,-0.246948,1.936548,0.134977,-0.003037,0.237052,-0.060651,-0.384183,-0.125738,0.642564,0.081900,0.304304,-32.098042,4.473068,15.955992,0.362943,1.565658,0.015426,0.000000,0.000000,0.000000,0.000000,0.000000,0.000000
12357078.000000,-0.345169,0.550522,0.448931,-1.439102,-0.247078,1.937182,0.135061,-0.007338,0.233455,-0.064713,-0.388064,-0.128424,0.636792,0.081011,0.351911,-32.978779,4.671432,16.348753,0.405057,1.617843,-0.004716,0.000000,0.000000,0.000000,0.000000,0.000000,0.000000
12357079.000000,-0.345180,0.550743,0.448858,-1.439519,-0.247198,1.937815,0.135141,-0.012250,0.226660,-0.065217,-0.394472,-0.123837,0.638868,0.075479,0.351911,-33.617512,4.893600,16.745481,0.393156,1.494247,0.001693,0.000000,0.000000,0.000000,0.000000,0.000000,0.000000
12357080.000000,-0.345198,0.550973,0.448780,-1.439945,-0.247321,1.938436,0.135218,-0.014966,0.227215,-0.068418,-0.403321,-0.119700,0.639804,0.078473,0.451093,-34.176899,5.111801,17.166014,0.356534,1.467696,0.041976,0.000000,0.000000,0.000000,0.000000,0.000000,0.000000
12357081.000000,-0.345220,0.551202,0.448701,-1.440363,-0.247450,1.939042,0.135308,-0.018324,0.225534,-0.073777,-0.408906,-0.119453,0.643279,0.085323,0.625654,-34.593464,5.333969,17.388182,0.393156,1.552840,-0.031266,0.000000,0.000000,0.000000,0.000000,0.000000,0.000000
12357082.000000,-0.345237,0.551436,0.448618,-1.440802,-0.247576,1.939640,0.135386,-0.018316,0.226028,-0.075004,-0.415042,-0.118021,0.627448,0.081780,0.697065,-35.061604,5.556137,17.733335,0.398649,1.727706,-0.004716,0.000000,0.000000,0.000000,0.000000,0.000000,0.000000
12357083.000000,-0.345254,0.551674,0.448535,-1.441221,-0.247712,1.940237,0.135458,-0.018259,0.229548,-0.075223,-0.417703,-0.126478,0.617174,0.078358,0.772443,-35.525776,5.750534,17.931700,0.416959,1.858627,0.054794,0.000000,0.000000,0.000000,0.000000,0.000000,0.000000
12357084.000000,-0.345267,0.551920,0.448447,-1.441654,-0.247843,1.940831,0.135546,-0.017013,0.232681,-0.076654,-0.422118,-0.127023,0.614956,0.080216,0.796247,-35.966145,5.996506,18.229246,0.416959,1.858627,-0.011124,0.000000,0.000000,0.000000,0.000000,0.000000,0.000000
12357085.000000,-0.345274,0.552166,0.448363,-1.442106,-0.247973,1.941447,0.135626,-0.013887,0.237805,-0.078411,-0.426471,-0.126997,0.615200,0.082188,0.724836,-36.358906,6.143295,18.550596,0.386747,1.773483,0.028243,0.000000,0.000000,0.000000,0.000000,0.000000,0.000000
12357086.000000,-0.345287,0.552427,0.448274,-1.442534,-0.248108,1.942046,0.135707,-0.014630,0.243762,-0.079985,-0.430708,-0.129551,0.614143,0.080380,0.772443,-36.870686,6.290085,18.796568,0.422452,1.747848,0.034652,0.000000,0.000000,0.000000,0.000000,0.000000,0.000000
12357087.000000,-0.345297,0.552675,0.448179,-1.442972,-0.248237,1.942636,0.135797,-0.014108,0.246508,-0.083016,-0.430262,-0.126259,0.598747,0.080674,0.772443,-37.287251,6.512253,18.919554,0.446256,1.844894,-0.004716,0.000000,0.000000,0.000000,0.000000,0.000000,0.000000
12357088.000000,-0.345307,0.552936,0.448082,-1.443402,-0.248374,1.943222,0.135879,-0.012999,0.248644,-0.087444,-0.442565,-0.129171,0.595857,0.082513,0.748639,-37.703815,6.706650,18.971128,0.494779,1.942855,0.028243,0.000000,0.000000,0.000000,0.000000,0.000000,0.000000
12357089.000000,-0.345318,0.553193,0.447992,-1.443853,-0.248506,1.943816,0.135972,-0.009736,0.250212,-0.089328,-0.444573,-0.130265,0.601557,0.083013,0.748639,-37.973591,6.829636,19.117918,0.512174,1.981307,-0.031266,0.000000,0.000000,0.000000,0.000000,0.000000,0.000000
12357090.000000,-0.345331,0.553444,0.447898,-1.444313,-0.248626,1.944420,0.136055,-0.010970,0.250301,-0.087136,-0.446211,-0.128247,0.603641,0.085202,0.772443,-38.191792,6.928818,19.268675,0.452665,1.962081,-0.004716,0.000000,0.000000,0.000000,0.000000,0.000000,0.000000
12357091.000000,-0.345338,0.553695,0.447806,-1.444758,-0.248752,1.945040,0.136134,-0.010356,0.249388,-0.087573,-0.448235,-0.132672,0.603108,0.082135,0.724836,-38.314777,6.976425,19.439268,0.428861,1.871444,0.028243,0.000000,0.000000,0.000000,0.000000,0.000000,0.000000
12357092.000000,-0.345346,0.553945,0.447717,-1.445213,-0.248881,1.945642,0.136220,-0.010402,0.249578,-0.087711,-0.453761,-0.133452,0.604146,0.085246,0.697065,-38.362385,7.004196,19.562254,0.452665,1.844894,0.028243,0.000000,0.000000,0.000000,0.000000,0.000000,0.000000
12357093.000000,-0.345356,0.554194,0.447634,-1.445663,-0.249014,1.946250,0.136307,-0.011028,0.247181,-0.082692,-0.450150,-0.132783,0.605086,0.087814,0.697065,-38.362385,6.952621,19.590025,0.446256,1.916305,0.015426,0.000000,0.000000,0.000000,0.000000,0.000000,0.000000
12357094.000000,-0.345364,0.554445,0.447555,-1.446107,-0.249151,1.946849,0.136395,-0.007776,0.249287,-0.081605,-0.448305,-0.133409,0.602316,0.089476,0.673261,-38.390156,6.881210,19.637632,0.470060,1.995040,0.001693,0.000000,0.000000,0.000000,0.000000,0.000000,0.000000
12357095.000000,-0.345368,0.554693,0.447474,-1.446564,-0.249281,1.947462,0.136474,-0.004249,0.251020,-0.079415,-0.443086,-0.128782,0.602647,0.084675,0.601850,-38.413960,6.853439,19.685240,0.482877,2.007858,0.034652,0.000000,0.000000,0.000000,0.000000,0.000000,0.000000
12357096.000000,-0.345366,0.554945,0.447390,-1.447001,-0.249407,1.948074,0.136564,0.000699,0.249018,-0.080992,-0.444840,-0.129278,0.603721,0.088465,0.427289,-38.362385,6.829636,19.661436,0.482877,2.001449,-0.004716,0.000000,0.000000,0.000000,0.000000,0.000000,0.000000
12357097.000000,-0.345361,0.555195,0.447312,-1.447445,-0.249526,1.948685,0.136641,0.000961,0.252487,-0.082350,-0.443881,-0.127310,0.604362,0.083171,0.252729,-38.437763,6.805832,19.685240,0.434354,1.988631,0.048385,0.000000,0.000000,0.000000,0.000000,0.000000,0.000000
12357098.000000,-0.345356,0.555449,0.447243,-1.447890,-0.249648,1.949298,0.136725,0.000985,0.255690,-0.077176,-0.444344,-0.127784,0.609277,0.081080,0.078168,-38.461567,6.659042,19.613829,0.410551,1.949264,0.054794,0.000000,0.000000,0.000000,0.000000,0.000000,0.000000
12357099.000000,-0.345345,0.555715,0.447171,-1.448324,-0.249772,1.949905,0.136818,0.005716,0.256124,-0.076852,-0.440742,-0.124079,0.622652,0.082187,-0.167803,-38.536945,6.536057,19.490843,0.405057,1.968490,-0.011124,0.000000,0.000000,0.000000,0.000000,0.000000,0.000000
12357100.000000,-0.345335,0.555972,0.447098,-1.448768,-0.249898,1.950517,0.136896,0.007929,0.258220,-0.074668,-0.435310,-0.122853,0.623048,0.078645,-0.366168,-38.683735,6.436874,19.292479,0.440763,1.962081,0.034652,0.000000,0.000000,0.000000,0.000000,0.000000,0.000000
12357101.000000,-0.345323,0.556231,0.447035,-1.449189,-0.250019,1.951144,0.136987,0.009536,0.259930,-0.071262,-0.431159,-0.119256,0.622905,0.083350,-0.564532,-38.806721,6.266281,19.169493,0.416959,1.955673,0.009017,0.000000,0.000000,0.000000,0.000000,0.000000,0.000000
12357102.000000,-0.345312,0.556489,0.446973,-1.449615,-0.250147,1.951773,0.137077,0.008941,0.261000,-0.069576,-0.431308,-0.123070,0.626903,0.087005,-0.687518,-38.830524,6.119492,19.042540,0.452665,1.851302,-0.017533,0.000000,0.000000,0.000000,0.000000,0.000000,0.000000
12357103.000000,-0.345297,0.556743,0.446914,-1.450050,-0.250278,1.952413,0.137156,0.011762,0.255006,-0.067705,-0.428345,-0.120637,0.628507,0.086265,-0.810504,-38.925739,5.948898,18.919554,0.458158,1.747848,0.048385,0.000000,0.000000,0.000000,0.000000,0.000000,0.000000
12357104.000000,-0.345284,0.557001,0.446856,-1.450466,-0.250407,1.953040,0.137250,0.012286,0.254614,-0.064405,-0.428990,-0.123959,0.628075,0.085168,-0.862078,-38.977314,5.825912,18.919554,0.476469,1.721298,0.009017,0.000000,0.000000,0.000000,0.000000,0.000000,0.000000
12357105.000000,-0.345268,0.557260,0.446797,-1.450887,-0.250527,1.953660,0.137333,0.012734,0.251762,-0.063049,-0.428055,-0.125192,0.624909,0.086926,-0.909686,-39.048725,5.750534,18.895750,0.458158,1.754256,0.021835,0.000000,0.000000,0.000000,0.000000,0.000000,0.000000
12357106.000000,-0.345248,0.557521,0.446745,-1.451288,-0.250647,1.954283,0.137418,0.015004,0.250710,-0.059543,-0.428099,-0.125460,0.626431,0.087462,-1.032672,-39.147907,5.579941,18.721189,0.422452,1.786300,0.054794,0.000000,0.000000,0.000000,0.000000,0.000000,0.000000
12357107.000000,-0.345227,0.557783,0.446686,-1.451693,-0.250767,1.954896,0.137502,0.017306,0.253613,-0.059414,-0.423987,-0.120052,0.620469,0.089209,-1.183428,-39.270893,5.504562,18.526793,0.356534,1.806442,0.054794,0.000000,0.000000,0.000000,0.000000,0.000000,0.000000
12357108.000000,-0.345211,0.558043,0.446640,-1.452104,-0.250884,1.955518,0.137591,0.017725,0.254391,-0.055834,-0.415539,-0.116750,0.623089,0.086804,-1.282611,-39.342304,5.286362,18.376036,0.308927,1.760665,0.028243,0.000000,0.000000,0.000000,0.000000,0.000000,0.000000
12357109.000000,-0.345194,0.558313,0.446591,-1.452501,-0.251002,1.956154,0.137678,0.018111,0.256495,-0.054953,-0.414786,-0.119764,0.621091,0.083415,-1.381793,-39.489094,5.135605,18.304625,0.285123,1.682845,0.041976,0.000000,0.000000,0.000000,0.000000,0.000000,0.000000
12357110.000000,-0.345177,0.558578,0.446539,-1.452892,-0.251125,1.956778,0.137765,0.017235,0.258801,-0.053554,-0.407046,-0.118974,0.624150,0.086093,-1.429400,-39.659687,5.087997,18.106260,0.303434,1.605026,0.048385,0.000000,0.000000,0.000000,0.000000,0.000000,0.000000
12357111.000000,-0.345160,0.558842,0.446487,-1.453291,-0.251251,1.957397,0.137853,0.016774,0.260315,-0.054612,-0.404232,-0.119924,0.617425,0.083870,-1.480975,-39.635883,5.012619,17.983274,0.362943,1.617843,0.034652,0.000000,0.000000,0.000000,0.000000,0.000000,0.000000
12357112.000000,-0.345147,0.559118,0.446432,-1.453677,-0.251383,1.958001,0.137936,0.015309,0.263423,-0.057218,-0.399230,-0.124868,0.617220,0.084956,-1.480975,-39.735065,5.012619,17.884092,0.416959,1.662704,0.061202,0.000000,0.000000,0.000000,0.000000,0.000000,0.000000
12357113.000000,-0.345133,0.559387,0.446382,-1.454079,-0.251507,1.958632,0.138026,0.014928,0.266189,-0.057310,-0.397751,-0.125972,0.619777,0.088587,-1.504779,-39.858051,4.941208,17.907896,0.405057,1.643478,0.028243,0.000000,0.000000,0.000000,0.000000,0.000000,0.000000
12357114.000000,-0.345124,0.559656,0.446331,-1.454459,-0.251636,1.959269,0.138114,0.013567,0.265094,-0.054203,-0.393567,-0.127300,0.624068,0.090227,-1.480975,-39.881855,4.865829,17.931700,0.410551,1.532699,0.015426,0.000000,0.000000,0.000000,0.000000,0.000000,0.000000
12357115.000000,-0.345121,0.559930,0.446276,-1.454842,-0.251755,1.959890,0.138193,0.010881,0.270963,-0.053682,-0.394399,-0.125370,0.620026,0.088727,-1.381793,-39.981037,4.865829,17.983274,0.351041,1.500655,0.081344,0.000000,0.000000,0.000000,0.000000,0.000000,0.000000
12357116.000000,-0.345113,0.560203,0.446226,-1.455241,-0.251877,1.960498,0.138289,0.010162,0.272445,-0.054443,-0.392238,-0.126085,0.620750,0.092297,-1.330218,-40.127827,4.794418,18.078489,0.320829,1.591293,0.021835,0.000000,0.000000,0.000000,0.000000,0.000000,0.000000
12357117.000000,-0.345109,0.560483,0.446176,-1.455618,-0.252005,1.961101,0.138378,0.008475,0.276437,-0.056024,-0.390950,-0.126768,0.626587,0.087519,-1.231036,-40.250813,4.770615,18.177671,0.297025,1.727706,0.034652,0.000000,0.000000,0.000000,0.000000,0.000000,0.000000
12357118.000000,-0.345109,0.560764,0.446120,-1.456002,-0.252126,1.961721,0.138458,0.005784,0.276597,-0.055401,-0.388401,-0.127426,0.626248,0.088122,-1.060443,-40.421406,4.794418,18.253050,0.273221,1.741439,0.074935,0.000000,0.000000,0.000000,0.000000,0.000000,0.000000
12357119.000000,-0.345108,0.561048,0.446058,-1.456384,-0.252253,1.962348,0.138552,0.005069,0.275690,-0.057052,-0.388434,-0.123691,0.626934,0.086914,-0.933489,-40.691181,4.917404,18.376036,0.267728,1.702071,0.034652,0.000000,0.000000,0.000000,0.000000,0.000000,0.000000
12357120.000000,-0.345107,0.561321,0.445993,-1.456779,-0.252376,1.962956,0.138639,0.005253,0.274176,-0.058120,-0.388331,-0.125042,0.620718,0.083976,-0.834307,-40.786396,5.040390,18.499022,0.243009,1.721298,0.034652,0.000000,0.000000,0.000000,0.000000,0.000000,0.000000
12357121.000000,-0.345105,0.561608,0.445927,-1.457181,-0.252502,1.963574,0.138726,0.005337,0.277969,-0.061790,-0.388263,-0.127358,0.619480,0.082115,-0.735125,-41.056171,5.163376,18.625975,0.255826,1.754256,0.028243,0.000000,0.000000,0.000000,0.000000,0.000000,0.000000
12357122.000000,-0.345112,0.561893,0.445859,-1.457558,-0.252643,1.964189,0.138817,0.000605,0.279425,-0.063800,-0.386995,-0.130398,0.622747,0.080911,-0.564532,-41.325947,5.258591,18.574400,0.308927,1.708480,0.015426,0.000000,0.000000,0.000000,0.000000,0.000000,0.000000
12357123.000000,-0.345110,0.562167,0.445780,-1.457952,-0.252777,1.964813,0.138902,0.001449,0.272214,-0.068224,-0.386148,-0.131809,0.624556,0.083497,-0.441546,-41.373554,5.480759,18.673582,0.339139,1.662704,0.034652,0.000000,0.000000,0.000000,0.000000,0.000000,0.000000
12357124.000000,-0.345122,0.562450,0.445700,-1.458342,-0.252915,1.965431,0.138987,-0.001472,0.273680,-0.067993,-0.394427,-0.133161,0.623401,0.080784,-0.167803,-41.425129,5.702927,18.697386,0.381254,1.637069,0.048385,0.000000,0.000000,0.000000,0.000000,0.000000,0.000000
12357125.000000,-0.345123,0.562734,0.445624,-1.458739,-0.253053,1.966055,0.139075,-0.000448,0.274255,-0.072361,-0.391568,-0.138658,0.625000,0.088573,-0.017047,-41.571918,5.849716,18.772764,0.416959,1.578475,0.041976,0.000000,0.000000,0.000000,0.000000,0.000000,0.000000
12357126.000000,-0.345128,0.563016,0.445541,-1.459147,-0.253180,1.966663,0.139159,-0.003355,0.276480,-0.076193,-0.393029,-0.135564,0.616245,0.085856,0.153547,-41.667133,6.020309,18.871946,0.386747,1.670028,0.034652,0.000000,0.000000,0.000000,0.000000,0.000000,0.000000
12357127.000000,-0.345135,0.563304,0.445449,-1.459531,-0.253313,1.967275,0.139243,-0.006176,0.280612,-0.080788,-0.393150,-0.133199,0.609796,0.082437,0.351911,-41.766315,6.266281,18.919554,0.356534,1.760665,0.067611,0.000000,0.000000,0.000000,0.000000,0.000000,0.000000
12357128.000000,-0.345142,0.563583,0.445361,-1.459927,-0.253444,1.967877,0.139337,-0.006469,0.280488,-0.082335,-0.394719,-0.131563,0.613208,0.087684,0.474897,-41.889301,6.436874,18.919554,0.320829,1.773483,0.009017,0.000000,0.000000,0.000000,0.000000,0.000000,0.000000
12357129.000000,-0.345152,0.563867,0.445269,-1.460326,-0.253569,1.968485,0.139422,-0.007445,0.278963,-0.084005,-0.391663,-0.128814,0.612192,0.082856,0.625654,-41.889301,6.635239,18.971128,0.237516,1.844894,0.048385,0.000000,0.000000,0.000000,0.000000,0.000000,0.000000
12357130.000000,-0.345160,0.564152,0.445181,-1.460726,-0.253704,1.969091,0.139511,-0.013302,0.280434,-0.086230,-0.397701,-0.134823,0.614742,0.080498,0.724836,-41.865498,6.758224,19.117918,0.243009,1.871444,0.067611,0.000000,0.000000,0.000000,0.000000,0.000000,0.000000
12357131.000000,-0.345172,0.564431,0.445090,-1.461127,-0.253847,1.969707,0.139606,-0.014635,0.281962,-0.088562,-0.394222,-0.140879,0.614105,0.081727,0.824018,-41.936909,6.881210,19.094114,0.291532,1.825668,0.001693,0.000000,0.000000,0.000000,0.000000,0.000000,0.000000
12357132.000000,-0.345186,0.564711,0.444992,-1.461520,-0.253989,1.970320,0.139690,-0.011360,0.279344,-0.092031,-0.397757,-0.139521,0.616362,0.082552,0.871625,-41.913105,7.075607,19.169493,0.320829,1.825668,0.054794,0.000000,0.000000,0.000000,0.000000,0.000000,0.000000
12357133.000000,-0.345197,0.564990,0.444897,-1.461927,-0.254133,1.970931,0.139777,-0.012285,0.279594,-0.096136,-0.401424,-0.139748,0.612565,0.081840,0.923200,-41.913105,7.198593,19.292479,0.398649,1.851302,0.028243,0.000000,0.000000,0.000000,0.000000,0.000000,0.000000
12357134.000000,-0.345204,0.565266,0.444802,-1.462330,-0.254275,1.971551,0.139865,-0.008078,0.279340,-0.098506,-0.401246,-0.138885,0.615337,0.085695,0.895429,-41.936909,7.297775,19.292479,0.434354,1.819259,0.009017,0.000000,0.000000,0.000000,0.000000,0.000000,0.000000
12357135.000000,-0.345215,0.565547,0.444704,-1.462721,-0.254412,1.972166,0.139953,-0.006438,0.278111,-0.097451,-0.400035,-0.136158,0.625418,0.087502,0.923200,-41.913105,7.420761,19.363890,0.416959,1.760665,0.015426,0.000000,0.000000,0.000000,0.000000,0.000000,0.000000
12357136.000000,-0.345221,0.565825,0.444610,-1.463119,-0.254545,1.972773,0.140038,-0.007093,0.277687,-0.099094,-0.401254,-0.134137,0.627684,0.088242,0.895429,-41.913105,7.492172,19.439268,0.393156,1.806442,0.041976,0.000000,0.000000,0.000000,0.000000,0.000000,0.000000
12357137.000000,-0.345226,0.566100,0.444506,-1.463516,-0.254678,1.973390,0.140128,-0.007779,0.275547,-0.098866,-0.400351,-0.131759,0.620183,0.089864,0.871625,-41.913105,7.638962,19.538450,0.351041,1.825668,0.034652,0.000000,0.000000,0.000000,0.000000,0.000000,0.000000
12357138.000000,-0.345227,0.566373,0.444409,-1.463917,-0.254812,1.973984,0.140219,-0.004049,0.273661,-0.096676,-0.400431,-0.126728,0.619222,0.087917,0.796247,-41.813923,7.690536,19.661436,0.339139,1.877853,0.009017,0.000000,0.000000,0.000000,0.000000,0.000000,0.000000
12357139.000000,-0.345238,0.566644,0.444320,-1.464336,-0.254947,1.974575,0.140301,-0.003819,0.274147,-0.092707,-0.403061,-0.132978,0.606994,0.087982,0.824018,-41.766315,7.638962,19.911375,0.344633,1.974899,0.048385,0.000000,0.000000,0.000000,0.000000,0.000000,0.000000
12357140.000000,-0.345238,0.566911,0.444224,-1.464726,-0.255091,1.975171,0.140393,-0.003726,0.273083,-0.092463,-0.401335,-0.133447,0.606181,0.085654,0.724836,-41.694904,7.690536,20.006590,0.369352,1.988631,0.028243,0.000000,0.000000,0.000000,0.000000,0.000000,0.000000
12357141.000000,-0.345242,0.567183,0.444135,-1.465131,-0.255238,1.975763,0.140479,-0.005497,0.268906,-0.087390,-0.400267,-0.139032,0.599921,0.087341,0.697065,-41.595722,7.666733,20.133543,0.405057,2.020675,0.041976,0.000000,0.000000,0.000000,0.000000,0.000000,0.000000
12357142.000000,-0.345242,0.567463,0.444048,-1.465530,-0.255384,1.976360,0.140566,-0.005810,0.271393,-0.085421,-0.405598,-0.139361,0.600027,0.092779,0.625654,-41.595722,7.591354,20.327940,0.464567,2.027084,0.067611,0.000000,0.000000,0.000000,0.000000,0.000000,0.000000
12357143.000000,-0.345242,0.567739,0.443956,-1.465941,-0.255522,1.976951,0.140662,-0.006545,0.273161,-0.086691,-0.405580,-0.136546,0.602090,0.099234,0.574079,-41.595722,7.615158,20.526304,0.446256,2.007858,0.015426,0.000000,0.000000,0.000000,0.000000,0.000000,0.000000
12357144.000000,-0.345241,0.568007,0.443873,-1.466351,-0.255657,1.977544,0.140751,-0.004633,0.274430,-0.084696,-0.402503,-0.135144,0.602849,0.097213,0.550275,-41.448933,7.515976,20.625486,0.440763,2.007858,0.034652,0.000000,0.000000,0.000000,0.000000,0.000000,0.000000
12357145.000000,-0.345229,0.568279,0.443787,-1.466750,-0.255797,1.978144,0.140841,-0.000275,0.269993,-0.084561,-0.401454,-0.134664,0.601961,0.096123,0.403486,-41.373554,7.468369,20.748472,0.458158,2.039901,0.041976,0.000000,0.000000,0.000000,0.000000,0.000000,0.000000
12357146.000000,-0.345217,0.568549,0.443699,-1.467152,-0.255935,1.978728,0.140934,0.001671,0.276197,-0.087651,-0.398376,-0.133449,0.595574,0.097241,0.304304,-41.349751,7.420761,20.923033,0.446256,2.104903,0.001693,0.000000,0.000000,0.000000,0.000000,0.000000,0.000000
12357147.000000,-0.345210,0.568821,0.443621,-1.467565,-0.256070,1.979323,0.141019,0.004544,0.277794,-0.084313,-0.402068,-0.132870,0.595461,0.090028,0.276533,-41.202961,7.273972,21.192808,0.440763,2.144271,0.041976,0.000000,0.000000,0.000000,0.000000,0.000000,0.000000
12357148.000000,-0.345203,0.569094,0.443534,-1.467966,-0.256210,1.979903,0.141112,0.005492,0.272528,-0.085166,-0.403428,-0.137209,0.598610,0.091916,0.304304,-41.107746,7.273972,21.418943,0.434354,2.150680,0.021835,0.000000,0.000000,0.000000,0.000000,0.000000,0.000000
12357149.000000,-0.345185,0.569362,0.443461,-1.468372,-0.256352,1.980503,0.141194,0.006240,0.270369,-0.080132,-0.402388,-0.140473,0.596383,0.090494,0.205121,-41.079975,7.150986,21.589537,0.428861,2.137862,0.074935,0.000000,0.000000,0.000000,0.000000,0.000000,0.000000
12357150.000000,-0.345169,0.569636,0.443386,-1.468777,-0.256503,1.981098,0.141288,0.009267,0.271354,-0.079611,-0.403967,-0.144090,0.592951,0.092889,0.129743,-41.056171,7.028000,21.835508,0.464567,2.150680,0.034652,0.000000,0.000000,0.000000,0.000000,0.000000,0.000000
12357151.000000,-0.345156,0.569905,0.443316,-1.469184,-0.256645,1.981679,0.141380,0.007792,0.269610,-0.079452,-0.403893,-0.144786,0.593726,0.088744,0.078168,-41.008564,6.905014,22.033873,0.464567,2.215682,0.028243,0.000000,0.000000,0.000000,0.000000,0.000000,0.000000
12357152.000000,-0.345138,0.570167,0.443245,-1.469589,-0.256786,1.982261,0.141464,0.011526,0.270556,-0.079117,-0.400656,-0.146929,0.587409,0.088745,-0.044818,-40.956989,6.782028,22.085447,0.482877,2.307235,0.061202,0.000000,0.000000,0.000000,0.000000,0.000000,0.000000
12357153.000000,-0.345123,0.570435,0.443178,-1.469988,-0.256930,1.982864,0.141559,0.012875,0.269575,-0.075378,-0.402699,-0.143518,0.588081,0.087206,-0.116229,-40.837971,6.635239,22.184629,0.494779,2.287093,0.015426,0.000000,0.000000,0.000000,0.000000,0.000000,0.000000
12357154.000000,-0.345108,0.570695,0.443114,-1.470389,-0.257070,1.983457,0.141640,0.013650,0.262985,-0.070052,-0.398565,-0.143932,0.584223,0.087914,-0.167803,-40.714985,6.512253,22.208433,0.458158,2.255050,0.041976,0.000000,0.000000,0.000000,0.000000,0.000000,0.000000
12357155.000000,-0.345091,0.570951,0.443051,-1.470787,-0.257209,1.984065,0.141726,0.015300,0.264523,-0.069031,-0.410072,-0.140440,0.586617,0.089138,-0.266986,-40.568195,6.389267,22.232237,0.446256,2.183639,0.067611,0.000000,0.000000,0.000000,0.000000,0.000000,0.000000
12357156.000000,-0.345078,0.571216,0.442993,-1.471188,-0.257351,1.984650,0.141822,0.015971,0.262945,-0.067373,-0.404703,-0.138194,0.585625,0.096860,-0.342364,-40.469013,6.218674,22.232237,0.440763,2.196456,0.021835,0.000000,0.000000,0.000000,0.000000,0.000000,0.000000
12357157.000000,-0.345063,0.571481,0.442935,-1.471598,-0.257499,1.985248,0.141909,0.015790,0.263396,-0.063461,-0.405520,-0.141940,0.588547,0.094883,-0.389971,-40.421406,6.067917,22.156858,0.458158,2.228500,0.054794,0.000000,0.000000,0.000000,0.000000,0.000000,0.000000
12357158.000000,-0.345054,0.571740,0.442873,-1.471979,-0.257653,1.985849,0.142004,0.013427,0.260827,-0.063007,-0.395777,-0.139917,0.583826,0.095001,-0.342364,-40.298420,6.020309,22.033873,0.476469,2.215682,0.048385,0.000000,0.000000,0.000000,0.000000,0.000000,0.000000
12357159.000000,-0.345037,0.572004,0.442814,-1.472377,-0.257808,1.986448,0.142094,0.014709,0.259803,-0.059364,-0.397617,-0.143373,0.591218,0.096737,-0.413775,-40.199238,5.972702,22.061644,0.500272,2.163497,0.034652,0.000000,0.000000,0.000000,0.000000,0.000000,0.000000
12357160.000000,-0.345024,0.572270,0.442763,-1.472761,-0.257959,1.987045,0.142181,0.013948,0.256217,-0.057155,-0.391718,-0.145402,0.590290,0.094707,-0.413775,-40.104023,5.825912,21.887083,0.506681,2.131454,0.067611,0.000000,0.000000,0.000000,0.000000,0.000000,0.000000
12357161.000000,-0.345008,0.572531,0.442710,-1.473139,-0.258103,1.987636,0.142277,0.014645,0.256413,-0.057437,-0.388064,-0.140319,0.593573,0.091195,-0.465350,-40.004841,5.750534,21.740294,0.464567,2.131454,0.021835,0.000000,0.000000,0.000000,0.000000,0.000000,0.000000
12357162.000000,-0.344999,0.572789,0.442657,-1.473519,-0.258247,1.988237,0.142361,0.013373,0.259253,-0.057032,-0.382490,-0.142630,0.595572,0.091227,-0.441546,-39.858051,5.651352,21.613340,0.452665,2.150680,0.054794,0.000000,0.000000,0.000000,0.000000,0.000000,0.000000
12357163.000000,-0.344982,0.573048,0.442600,-1.473886,-0.258395,1.988842,0.142454,0.011604,0.256138,-0.054784,-0.381264,-0.144771,0.598184,0.092647,-0.512957,-39.659687,5.603745,21.442747,0.458158,2.137862,0.054794,0.000000,0.000000,0.000000,0.000000,0.000000,0.000000
12357164.000000,-0.344969,0.573301,0.442544,-1.474250,-0.258533,1.989439,0.142543,0.011678,0.261066,-0.056143,-0.378270,-0.139650,0.600830,0.092101,-0.512957,-39.540668,5.556137,21.192808,0.422452,2.112228,0.081344,0.000000,0.000000,0.000000,0.000000,0.000000,0.000000
12357165.000000,-0.344964,0.573561,0.442488,-1.474624,-0.258672,1.990041,0.142640,0.008320,0.260343,-0.053782,-0.374584,-0.136644,0.599252,0.094525,-0.366168,-39.393879,5.504562,20.998411,0.386747,2.163497,0.028243,0.000000,0.000000,0.000000,0.000000,0.000000,0.000000
12357166.000000,-0.344949,0.573832,0.442430,-1.474975,-0.258822,1.990646,0.142731,0.010178,0.261288,-0.056598,-0.369309,-0.135469,0.601890,0.094474,-0.389971,-39.366108,5.528366,20.700865,0.381254,2.131454,0.028243,0.000000,0.000000,0.000000,0.000000,0.000000,0.000000
12357167.000000,-0.344938,0.574094,0.442371,-1.475330,-0.258965,1.991270,0.142819,0.010334,0.263183,-0.055860,-0.367539,-0.139648,0.612069,0.093295,-0.366168,-39.393879,5.556137,20.502501,0.386747,2.001449,0.054794,0.000000,0.000000,0.000000,0.000000,0.000000,0.000000
12357168.000000,-0.344932,0.574349,0.442308,-1.475678,-0.259110,1.991888,0.142910,0.008713,0.260050,-0.058720,-0.359956,-0.142702,0.611202,0.094189,-0.266986,-39.247089,5.603745,20.304136,0.398649,1.949264,0.034652,0.000000,0.000000,0.000000,0.000000,0.000000,0.000000
12357169.000000,-0.344927,0.574611,0.442250,-1.476030,-0.259247,1.992498,0.142992,0.008203,0.261363,-0.059771,-0.353854,-0.143779,0.615037,0.091757,-0.191607,-39.171711,5.603745,20.204954,0.393156,1.923629,0.100570,0.000000,0.000000,0.000000,0.000000,0.000000,0.000000
12357170.000000,-0.344920,0.574864,0.442183,-1.476387,-0.259388,1.993113,0.143091,0.007877,0.257691,-0.062178,-0.353566,-0.141683,0.610844,0.094412,-0.116229,-39.100300,5.679123,20.034361,0.416959,1.923629,0.054794,0.000000,0.000000,0.000000,0.000000,0.000000,0.000000
12357171.000000,-0.344914,0.575127,0.442117,-1.476718,-0.259531,1.993724,0.143190,0.007738,0.258474,-0.063858,-0.346548,-0.139562,0.623745,0.100055,-0.044818,-39.024921,5.750534,19.835997,0.428861,1.916305,0.028243,0.000000,0.000000,0.000000,0.000000,0.000000,0.000000
12357172.000000,-0.344911,0.575392,0.442054,-1.477052,-0.259664,1.994322,0.143275,0.003307,0.259997,-0.063330,-0.345515,-0.136305,0.613302,0.096041,0.078168,-39.001118,5.750534,19.713011,0.393156,1.936446,0.094161,0.000000,0.000000,0.000000,0.000000,0.000000,0.000000
12357173.000000,-0.344902,0.575654,0.441989,-1.477387,-0.259803,1.994936,0.143378,0.004960,0.265454,-0.064007,-0.350756,-0.133351,0.616631,0.098412,0.129743,-39.001118,5.798141,19.637632,0.344633,1.890670,0.015426,0.000000,0.000000,0.000000,0.000000,0.000000,0.000000
12357174.000000,-0.344897,0.575915,0.441919,-1.477711,-0.259941,1.995537,0.143468,0.005562,0.263141,-0.065826,-0.345356,-0.136049,0.609369,0.091801,0.205121,-38.901936,5.897324,19.490843,0.291532,1.871444,0.034652,0.000000,0.000000,0.000000,0.000000,0.000000,0.000000
12357175.000000,-0.344896,0.576177,0.441849,-1.478045,-0.260090,1.996145,0.143560,0.004790,0.262172,-0.065920,-0.340635,-0.140575,0.609248,0.086702,0.328107,-38.806721,5.948898,19.316282,0.308927,1.825668,0.061202,0.000000,0.000000,0.000000,0.000000,0.000000,0.000000
12357176.000000,-0.344891,0.576432,0.441772,-1.478356,-0.260244,1.996746,0.143655,0.008314,0.256765,-0.067621,-0.332967,-0.143707,0.602214,0.089648,0.427289,-38.683735,6.067917,19.094114,0.327238,1.844894,0.034652,0.000000,0.000000,0.000000,0.000000,0.000000,0.000000
12357177.000000,-0.344893,0.576691,0.441699,-1.478671,-0.260397,1.997338,0.143751,0.006569,0.254568,-0.067222,-0.328725,-0.143236,0.601215,0.090989,0.574079,-38.536945,6.119492,18.947325,0.393156,1.890670,0.028243,0.000000,0.000000,0.000000,0.000000,0.000000,0.000000
12357178.000000,-0.344891,0.576954,0.441629,-1.478987,-0.260545,1.997948,0.143843,0.006394,0.253099,-0.068653,-0.325665,-0.145029,0.598001,0.090867,0.673261,-38.338581,6.119492,18.796568,0.393156,1.851302,0.054794,0.000000,0.000000,0.000000,0.000000,0.000000,0.000000
12357179.000000,-0.344886,0.577220,0.441549,-1.479294,-0.260694,1.998552,0.143934,0.006269,0.255499,-0.072384,-0.317753,-0.146389,0.603796,0.095388,0.772443,-38.290974,6.218674,18.673582,0.393156,1.735030,0.067611,0.000000,0.000000,0.000000,0.000000,0.000000,0.000000
12357180.000000,-0.344878,0.577476,0.441469,-1.479606,-0.260837,1.999152,0.144030,0.007886,0.258514,-0.075006,-0.315712,-0.145845,0.603559,0.096441,0.796247,-38.144184,6.313889,18.475218,0.351041,1.735030,0.034652,0.000000,0.000000,0.000000,0.000000,0.000000,0.000000
12357181.000000,-0.344872,0.577747,0.441394,-1.479914,-0.260981,1.999745,0.144116,0.005719,0.264201,-0.077705,-0.315982,-0.145125,0.601229,0.094039,0.824018,-38.120380,6.313889,18.451414,0.303434,1.793624,0.081344,0.000000,0.000000,0.000000,0.000000,0.000000,0.000000
12357182.000000,-0.344868,0.578010,0.441316,-1.480211,-0.261128,2.000338,0.144213,0.006192,0.264187,-0.080652,-0.313102,-0.150147,0.595332,0.095201,0.895429,-38.144184,6.341660,18.304625,0.291532,1.844894,0.054794,0.000000,0.000000,0.000000,0.000000,0.000000,0.000000
12357183.000000,-0.344860,0.578280,0.441232,-1.480525,-0.261276,2.000940,0.144313,0.007461,0.268801,-0.080619,-0.310485,-0.149338,0.602037,0.100919,0.923200,-38.144184,6.413071,18.276854,0.261320,1.825668,0.015426,0.000000,0.000000,0.000000,0.000000,0.000000,0.000000
12357184.000000,-0.344854,0.578545,0.441148,-1.480818,-0.261431,2.001534,0.144400,0.007925,0.267565,-0.083895,-0.307805,-0.150579,0.609338,0.096491,0.970807,-37.997395,6.512253,18.229246,0.279630,1.812850,0.087753,0.000000,0.000000,0.000000,0.000000,0.000000,0.000000
12357185.000000,-0.344844,0.578807,0.441067,-1.481127,-0.261585,2.002140,0.144505,0.005684,0.263859,-0.082486,-0.307903,-0.148206,0.609931,0.103680,0.994611,-37.997395,6.559860,18.304625,0.339139,1.760665,0.009017,0.000000,0.000000,0.000000,0.000000,0.000000,0.000000
12357186.000000,-0.344833,0.579070,0.440988,-1.481420,-0.261731,2.002754,0.144599,0.008783,0.265365,-0.080265,-0.304565,-0.144185,0.607396,0.095833,0.947004,-37.922016,6.559860,18.205442,0.351041,1.779891,0.021835,0.000000,0.000000,0.000000,0.000000,0.000000,0.000000
12357187.000000,-0.344825,0.579338,0.440908,-1.481714,-0.261881,2.003352,0.144686,0.009264,0.263900,-0.081486,-0.299740,-0.150359,0.608282,0.088693,0.970807,-37.850605,6.536057,18.153868,0.374845,1.747848,0.074935,0.000000,0.000000,0.000000,0.000000,0.000000,0.000000
12357188.000000,-0.344812,0.579600,0.440823,-1.482010,-0.262026,2.003963,0.144786,0.010815,0.260595,-0.084047,-0.296357,-0.150425,0.607241,0.091915,0.947004,-37.826801,6.583664,18.106260,0.374845,1.721298,0.028243,0.000000,0.000000,0.000000,0.000000,0.000000,0.000000
12357189.000000,-0.344794,0.579868,0.440740,-1.482295,-0.262168,2.004571,0.144879,0.009890,0.263442,-0.082400,-0.291425,-0.143710,0.607452,0.090432,0.871625,-37.751423,6.611435,17.955503,0.327238,1.695663,0.081344,0.000000,0.000000,0.000000,0.000000,0.000000,0.000000
12357190.000000,-0.344777,0.580143,0.440665,-1.482585,-0.262309,2.005171,0.144975,0.012735,0.266589,-0.078725,-0.291680,-0.144215,0.605392,0.092625,0.772443,-37.727619,6.536057,17.856321,0.291532,1.727706,0.061202,0.000000,0.000000,0.000000,0.000000,0.000000,0.000000
12357191.000000,-0.344759,0.580418,0.440586,-1.482876,-0.262461,2.005766,0.145073,0.015840,0.264616,-0.076023,-0.299058,-0.145204,0.603387,0.093886,0.625654,-37.751423,6.460678,17.709532,0.273221,1.754256,0.034652,0.000000,0.000000,0.000000,0.000000,0.000000,0.000000
12357192.000000,-0.344746,0.580704,0.440506,-1.483163,-0.262614,2.006367,0.145167,0.015203,0.271256,-0.078571,-0.292148,-0.151458,0.605663,0.089926,0.601850,-37.898212,6.436874,17.487364,0.273221,1.708480,0.015426,0.000000,0.000000,0.000000,0.000000,0.000000,0.000000
12357193.000000,-0.344732,0.580983,0.440430,-1.483461,-0.262768,2.006964,0.145256,0.014861,0.273385,-0.078879,-0.294705,-0.152441,0.606461,0.088944,0.574079,-37.922016,6.341660,17.463560,0.303434,1.689254,0.067611,0.000000,0.000000,0.000000,0.000000,0.000000,0.000000
12357194.000000,-0.344714,0.581256,0.440345,-1.483749,-0.262918,2.007578,0.145346,0.013170,0.272064,-0.080027,-0.291862,-0.148540,0.603669,0.093989,0.474897,-37.850605,6.413071,17.364378,0.344633,1.624252,0.094161,0.000000,0.000000,0.000000,0.000000,0.000000,0.000000
12357195.000000,-0.344692,0.581534,0.440267,-1.484041,-0.263063,2.008172,0.145448,0.015505,0.270672,-0.078967,-0.289258,-0.148897,0.600525,0.096865,0.351911,-37.850605,6.413071,17.265196,0.344633,1.584884,0.021835,0.000000,0.000000,0.000000,0.000000,0.000000,0.000000
12357196.000000,-0.344679,0.581822,0.440190,-1.484338,-0.263214,2.008776,0.145538,0.014812,0.275967,-0.079432,-0.291398,-0.149539,0.594781,0.098628,0.328107,-37.874409,6.341660,17.189817,0.351041,1.597701,0.074935,0.000000,0.000000,0.000000,0.000000,0.000000,0.000000
12357197.000000,-0.344658,0.582113,0.440119,-1.484631,-0.263360,2.009362,0.145641,0.016038,0.280041,-0.079030,-0.290398,-0.148645,0.590591,0.103163,0.228925,-38.045002,6.242477,17.142210,0.320829,1.643478,0.034652,0.000000,0.000000,0.000000,0.000000,0.000000,0.000000
12357198.000000,-0.344630,0.582398,0.440049,-1.484919,-0.263500,2.009968,0.145736,0.019386,0.281411,-0.076146,-0.284485,-0.142546,0.592581,0.101604,0.030561,-38.144184,6.143295,17.043028,0.267728,1.676437,0.028243,0.000000,0.000000,0.000000,0.000000,0.000000,0.000000
12357199.000000,-0.344608,0.582685,0.439975,-1.485208,-0.263651,2.010576,0.145828,0.018767,0.284588,-0.077710,-0.286013,-0.148375,0.587432,0.098303,-0.044818,-38.167988,6.067917,17.019224,0.243009,1.656295,0.081344,0.000000,0.000000,0.000000,0.000000,0.000000,0.000000
12357200.000000,-0.344590,0.582972,0.439903,-1.485499,-0.263797,2.011176,0.145928,0.017153,0.292314,-0.079591,-0.285990,-0.151687,0.592135,0.104053,-0.068621,-38.267170,6.020309,16.967649,0.207303,1.643478,0.028243,0.000000,0.000000,0.000000,0.000000,0.000000,0.000000
12357201.000000,-0.344572,0.583251,0.439830,-1.485784,-0.263947,2.011776,0.146014,0.018750,0.291697,-0.077638,-0.288118,-0.151644,0.590171,0.098413,-0.068621,-38.243366,5.972702,16.868467,0.207303,1.630660,0.107894,0.000000,0.000000,0.000000,0.000000,0.000000,0.000000
12357202.000000,-0.344551,0.583547,0.439755,-1.486079,-0.264098,2.012377,0.146113,0.018028,0.292764,-0.079471,-0.290288,-0.148861,0.604934,0.098800,-0.116229,-38.338581,5.948898,16.920042,0.261320,1.617843,0.074935,0.000000,0.000000,0.000000,0.000000,0.000000,0.000000
12357203.000000,-0.344531,0.583830,0.439681,-1.486372,-0.264246,2.012971,0.146214,0.020178,0.290141,-0.079241,-0.289870,-0.150459,0.594636,0.099428,-0.144000,-38.413960,5.972702,16.920042,0.291532,1.637069,0.028243,0.000000,0.000000,0.000000,0.000000,0.000000,0.000000
12357204.000000,-0.344512,0.584124,0.439609,-1.486665,-0.264393,2.013577,0.146303,0.017370,0.288642,-0.077043,-0.291005,-0.151225,0.589743,0.095562,-0.116229,-38.513142,5.921127,16.967649,0.320829,1.565658,0.087753,0.000000,0.000000,0.000000,0.000000,0.000000,0.000000
12357205.000000,-0.344496,0.584424,0.439539,-1.486960,-0.264536,2.014164,0.146396,0.015556,0.291321,-0.076277,-0.290605,-0.150418,0.585331,0.095289,-0.092425,-38.608356,5.897324,16.967649,0.308927,1.526290,0.087753,0.000000,0.000000,0.000000,0.000000,0.000000,0.000000
12357206.000000,-0.344472,0.584713,0.439477,-1.487254,-0.264677,2.014757,0.146496,0.015998,0.290931,-0.073262,-0.289468,-0.143755,0.587749,0.097407,-0.144000,-38.632160,5.774338,16.943846,0.255826,1.559249,0.041976,0.000000,0.000000,0.000000,0.000000,0.000000,0.000000
12357207.000000,-0.344452,0.585015,0.439408,-1.487547,-0.264823,2.015349,0.146587,0.018007,0.294134,-0.073071,-0.294641,-0.144763,0.582281,0.091277,-0.144000,-38.659931,5.726730,16.892271,0.237516,1.565658,0.054794,0.000000,0.000000,0.000000,0.000000,0.000000,0.000000
12357208.000000,-0.344435,0.585306,0.439336,-1.487858,-0.264971,2.015929,0.146673,0.019224,0.291689,-0.076648,-0.295057,-0.145245,0.585518,0.090298,-0.116229,-38.608356,5.702927,16.991453,0.207303,1.624252,0.100570,0.000000,0.000000,0.000000,0.000000,0.000000,0.000000
12357209.000000,-0.344419,0.585601,0.439263,-1.488148,-0.265125,2.016514,0.146775,0.019580,0.290842,-0.073261,-0.299439,-0.151629,0.578602,0.094066,-0.068621,-38.560749,5.702927,16.920042,0.213712,1.662704,0.034652,0.000000,0.000000,0.000000,0.000000,0.000000,0.000000
12357210.000000,-0.344401,0.585897,0.439193,-1.488456,-0.265279,2.017094,0.146872,0.020499,0.292077,-0.073457,-0.302411,-0.151925,0.584496,0.094432,-0.044818,-38.485371,5.679123,17.019224,0.225614,1.689254,0.021835,0.000000,0.000000,0.000000,0.000000,0.000000,0.000000
12357211.000000,-0.344393,0.586187,0.439121,-1.488758,-0.265434,2.017688,0.146960,0.018231,0.294540,-0.074690,-0.302424,-0.153211,0.586309,0.091945,0.105939,-38.413960,5.702927,17.043028,0.267728,1.656295,0.087753,0.000000,0.000000,0.000000,0.000000,0.000000,0.000000
12357212.000000,-0.344375,0.586480,0.439048,-1.489055,-0.265582,2.018282,0.147058,0.016182,0.294392,-0.074994,-0.300180,-0.151755,0.588446,0.089639,0.153547,-38.338581,5.702927,17.090635,0.255826,1.591293,0.041976,0.000000,0.000000,0.000000,0.000000,0.000000,0.000000
12357213.000000,-0.344362,0.586774,0.438972,-1.489363,-0.265730,2.018858,0.147140,0.013879,0.286046,-0.076314,-0.302123,-0.151205,0.586497,0.088808,0.228925,-38.267170,5.750534,17.166014,0.249418,1.617843,0.094161,0.000000,0.000000,0.000000,0.000000,0.000000,0.000000
12357214.000000,-0.344347,0.587073,0.438898,-1.489668,-0.265882,2.019444,0.147237,0.015917,0.288945,-0.075834,-0.302937,-0.151388,0.586001,0.091347,0.276533,-38.338581,5.750534,17.213621,0.255826,1.591293,0.067611,0.000000,0.000000,0.000000,0.000000,0.000000,0.000000
12357215.000000,-0.344333,0.587371,0.438819,-1.489966,-0.266038,2.020020,0.147330,0.014245,0.292831,-0.077021,-0.303904,-0.155722,0.580449,0.092605,0.328107,-38.362385,5.825912,17.265196,0.249418,1.605026,0.054794,0.000000,0.000000,0.000000,0.000000,0.000000,0.000000
12357216.000000,-0.344318,0.587662,0.438746,-1.490275,-0.266196,2.020597,0.147417,0.013068,0.291732,-0.076407,-0.302378,-0.153869,0.584302,0.091484,0.375715,-38.338581,5.825912,17.388182,0.231107,1.656295,0.094161,0.000000,0.000000,0.000000,0.000000,0.000000,0.000000
12357217.000000,-0.344307,0.587953,0.438667,-1.490581,-0.266359,2.021175,0.147519,0.011521,0.290682,-0.077668,-0.302714,-0.157891,0.582972,0.094558,0.451093,-38.338581,5.897324,17.562742,0.237516,1.714889,0.028243,0.000000,0.000000,0.000000,0.000000,0.000000,0.000000
12357218.000000,-0.344299,0.588253,0.438592,-1.490890,-0.266518,2.021744,0.147608,0.012400,0.292995,-0.077436,-0.307404,-0.160549,0.578596,0.088596,0.574079,-38.314777,5.921127,17.661924,0.255826,1.735030,0.054794,0.000000,0.000000,0.000000,0.000000,0.000000,0.000000
12357219.000000,-0.344288,0.588546,0.438508,-1.491211,-0.266679,2.022328,0.147699,0.011170,0.289507,-0.079447,-0.310997,-0.158061,0.584605,0.084032,0.649457,-38.290974,6.044113,17.884092,0.255826,1.735030,0.087753,0.000000,0.000000,0.000000,0.000000,0.000000,0.000000
12357220.000000,-0.344278,0.588835,0.438426,-1.491516,-0.266843,2.022902,0.147798,0.013586,0.290610,-0.082523,-0.307207,-0.157091,0.581369,0.087978,0.724836,-38.215595,6.095688,17.983274,0.279630,1.714889,0.054794,0.000000,0.000000,0.000000,0.000000,0.000000,0.000000
12357221.000000,-0.344267,0.589124,0.438345,-1.491838,-0.267000,2.023485,0.147894,0.015827,0.292239,-0.081009,-0.310055,-0.155621,0.576189,0.090717,0.772443,-38.144184,6.119492,18.205442,0.285123,1.747848,0.021835,0.000000,0.000000,0.000000,0.000000,0.000000,0.000000
12357222.000000,-0.344254,0.589419,0.438260,-1.492143,-0.267161,2.024061,0.147990,0.014866,0.291152,-0.080857,-0.312621,-0.158791,0.566037,0.090628,0.796247,-38.120380,6.190903,18.253050,0.279630,1.806442,0.041976,0.000000,0.000000,0.000000,0.000000,0.000000,0.000000
12357223.000000,-0.344243,0.589721,0.438180,-1.492457,-0.267330,2.024637,0.148081,0.016001,0.296205,-0.083024,-0.315542,-0.162804,0.569915,0.094459,0.871625,-38.144184,6.218674,18.376036,0.315336,1.844894,0.087753,0.000000,0.000000,0.000000,0.000000,0.000000,0.000000
12357224.000000,-0.344235,0.590020,0.438087,-1.492771,-0.267493,2.025221,0.148187,0.013740,0.300445,-0.087362,-0.312620,-0.163104,0.565408,0.096832,0.947004,-38.120380,6.365463,18.427610,0.279630,1.812850,0.028243,0.000000,0.000000,0.000000,0.000000,0.000000,0.000000
12357225.000000,-0.344221,0.590319,0.438001,-1.493091,-0.267664,2.025813,0.148279,0.013336,0.300308,-0.083850,-0.311734,-0.166646,0.567913,0.099013,0.970807,-38.120380,6.365463,18.649778,0.339139,1.767074,0.074935,0.000000,0.000000,0.000000,0.000000,0.000000,0.000000
12357226.000000,-0.344204,0.590613,0.437907,-1.493398,-0.267826,2.026382,0.148378,0.014571,0.299875,-0.084887,-0.311856,-0.163166,0.567460,0.098816,0.923200,-38.068806,6.512253,18.697386,0.356534,1.773483,0.054794,0.000000,0.000000,0.000000,0.000000,0.000000,0.000000
12357227.000000,-0.344194,0.590914,0.437817,-1.493708,-0.267992,2.026959,0.148474,0.014981,0.302298,-0.084096,-0.312668,-0.165734,0.568980,0.102121,1.022382,-38.068806,6.611435,18.848143,0.386747,1.819259,0.054794,0.000000,0.000000,0.000000,0.000000,0.000000,0.000000
12357228.000000,-0.344179,0.591218,0.437736,-1.494012,-0.268152,2.027526,0.148568,0.014098,0.300896,-0.083956,-0.306675,-0.166925,0.566789,0.103784,1.046186,-38.144184,6.583664,18.871946,0.393156,1.858627,0.067611,0.000000,0.000000,0.000000,0.000000,0.000000,0.000000
12357229.000000,-0.344165,0.591513,0.437641,-1.494328,-0.268306,2.028099,0.148672,0.017025,0.300697,-0.087013,-0.306802,-0.161200,0.571192,0.103074,1.046186,-38.068806,6.682846,18.971128,0.351041,1.871444,0.021835,0.000000,0.000000,0.000000,0.000000,0.000000,0.000000
12357230.000000,-0.344145,0.591813,0.437554,-1.494634,-0.268462,2.028675,0.148765,0.017824,0.294347,-0.086279,-0.306613,-0.161342,0.573280,0.099356,0.970807,-38.068806,6.659042,19.042540,0.303434,1.916305,0.061202,0.000000,0.000000,0.000000,0.000000,0.000000,0.000000
12357231.000000,-0.344129,0.592104,0.437470,-1.494942,-0.268622,2.029244,0.148866,0.016458,0.296669,-0.082273,-0.303331,-0.166262,0.575492,0.099752,0.970807,-38.021198,6.611435,19.117918,0.279630,1.936446,0.048385,0.000000,0.000000,0.000000,0.000000,0.000000,0.000000
12357232.000000,-0.344109,0.592407,0.437375,-1.495257,-0.268785,2.029819,0.148960,0.015987,0.299046,-0.089426,-0.304343,-0.162720,0.570861,0.098400,0.947004,-38.068806,6.734421,19.193296,0.279630,1.981307,0.041976,0.000000,0.000000,0.000000,0.000000,0.000000,0.000000
12357233.000000,-0.344094,0.592699,0.437291,-1.495564,-0.268952,2.030390,0.149055,0.017121,0.294523,-0.087668,-0.304586,-0.162336,0.575160,0.096154,0.994611,-37.949787,6.706650,19.240904,0.344633,1.974899,0.074935,0.000000,0.000000,0.000000,0.000000,0.000000,0.000000
12357234.000000,-0.344073,0.592994,0.437198,-1.495883,-0.269110,2.030975,0.149159,0.020287,0.295806,-0.091431,-0.308383,-0.160374,0.574037,0.097215,0.947004,-37.898212,6.734421,19.340086,0.369352,1.962081,0.041976,0.000000,0.000000,0.000000,0.000000,0.000000,0.000000
12357235.000000,-0.344053,0.593299,0.437103,-1.496196,-0.269270,2.031556,0.149258,0.022040,0.300340,-0.092030,-0.310118,-0.163422,0.573336,0.100494,0.923200,-37.826801,6.805832,19.363890,0.398649,1.936446,0.054794,0.000000,0.000000,0.000000,0.000000,0.000000,0.000000
12357236.000000,-0.344029,0.593609,0.437021,-1.496510,-0.269426,2.032130,0.149360,0.021980,0.305476,-0.089123,-0.308386,-0.164091,0.573158,0.099705,0.824018,-37.874409,6.734421,19.391661,0.405057,1.897079,0.034652,0.000000,0.000000,0.000000,0.000000,0.000000,0.000000
12357237.000000,-0.344011,0.593915,0.436934,-1.496819,-0.269579,2.032703,0.149455,0.019321,0.306243,-0.088667,-0.310020,-0.159418,0.566762,0.096229,0.824018,-37.898212,6.734421,19.268675,0.374845,1.865035,0.087753,0.000000,0.000000,0.000000,0.000000,0.000000,0.000000
12357238.000000,-0.343990,0.594221,0.436846,-1.497124,-0.269740,2.033262,0.149553,0.018220,0.304068,-0.088495,-0.309565,-0.160576,0.564944,0.096246,0.796247,-37.874409,6.734421,19.193296,0.339139,1.909896,0.081344,0.000000,0.000000,0.000000,0.000000,0.000000,0.000000
12357239.000000,-0.343966,0.594517,0.436766,-1.497425,-0.269900,2.033828,0.149655,0.020937,0.303976,-0.082912,-0.306976,-0.162147,0.564349,0.097534,0.748639,-37.751423,6.635239,19.042540,0.315336,1.936446,0.034652,0.000000,0.000000,0.000000,0.000000,0.000000,0.000000
12357240.000000,-0.343941,0.594829,0.436679,-1.497727,-0.270061,2.034401,0.149749,0.020420,0.305826,-0.083576,-0.311011,-0.158344,0.564200,0.095846,0.673261,-37.703815,6.611435,18.919554,0.291532,1.936446,0.048385,0.000000,0.000000,0.000000,0.000000,0.000000,0.000000
12357241.000000,-0.343919,0.595129,0.436601,-1.498032,-0.270229,2.034964,0.149849,0.021342,0.303224,-0.079418,-0.305021,-0.163182,0.562165,0.095406,0.673261,-37.604633,6.512253,18.871946,0.339139,1.890670,0.048385,0.000000,0.000000,0.000000,0.000000,0.000000,0.000000
12357242.000000,-0.343897,0.595427,0.436516,-1.498339,-0.270386,2.035540,0.149943,0.019039,0.301810,-0.078124,-0.308180,-0.165030,0.564734,0.094966,0.673261,-37.533222,6.488449,18.895750,0.344633,1.838485,0.067611,0.000000,0.000000,0.000000,0.000000,0.000000,0.000000
12357243.000000,-0.343875,0.595734,0.436434,-1.498638,-0.270547,2.036109,0.150043,0.020298,0.302017,-0.079589,-0.307291,-0.162279,0.565034,0.096692,0.673261,-37.533222,6.436874,18.919554,0.374845,1.844894,0.034652,0.000000,0.000000,0.000000,0.000000,0.000000,0.000000
12357244.000000,-0.343842,0.596033,0.436353,-1.498934,-0.270706,2.036676,0.150136,0.027403,0.302249,-0.077745,-0.301852,-0.160619,0.564852,0.099516,0.550275,-37.533222,6.389267,18.895750,0.410551,1.851302,0.067611,0.000000,0.000000,0.000000,0.000000,0.000000,0.000000
12357245.000000,-0.343820,0.596336,0.436268,-1.499232,-0.270856,2.037249,0.150230,0.025972,0.305483,-0.077829,-0.301579,-0.155466,0.563002,0.098002,0.574079,-37.457844,6.413071,18.871946,0.344633,1.871444,0.081344,0.000000,0.000000,0.000000,0.000000,0.000000,0.000000
12357246.000000,-0.343792,0.596643,0.436195,-1.499530,-0.271018,2.037813,0.150332,0.026734,0.304879,-0.077047,-0.301350,-0.153740,0.564287,0.099314,0.526471,-37.457844,6.266281,18.848143,0.327238,1.865035,0.028243,0.000000,0.000000,0.000000,0.000000,0.000000,0.000000
12357247.000000,-0.343767,0.596947,0.436119,-1.499826,-0.271176,2.038388,0.150426,0.026684,0.306845,-0.078358,-0.298227,-0.156973,0.560975,0.101327,0.502668,-37.509418,6.190903,18.848143,0.303434,1.851302,0.067611,0.000000,0.000000,0.000000,0.000000,0.000000,0.000000
12357248.000000,-0.343739,0.597256,0.436040,-1.500119,-0.271335,2.038953,0.150529,0.027341,0.305152,-0.076832,-0.296323,-0.155300,0.559833,0.100252,0.451093,-37.509418,6.143295,18.848143,0.303434,1.916305,0.048385,0.000000,0.000000,0.000000,0.000000,0.000000,0.000000
12357249.000000,-0.343712,0.597561,0.435961,-1.500411,-0.271486,2.039517,0.150623,0.027237,0.303717,-0.076345,-0.295775,-0.157847,0.560604,0.096827,0.427289,-37.557026,6.119492,18.772764,0.297025,1.949264,0.100570,0.000000,0.000000,0.000000,0.000000,0.000000,0.000000
12357250.000000,-0.343683,0.597879,0.435888,-1.500705,-0.271640,2.040097,0.150727,0.027031,0.308635,-0.070828,-0.296256,-0.156384,0.563471,0.097398,0.403486,-37.656208,6.020309,18.721189,0.303434,1.884261,0.074935,0.000000,0.000000,0.000000,0.000000,0.000000,0.000000
12357251.000000,-0.343651,0.598192,0.435809,-1.500996,-0.271796,2.040670,0.150829,0.028120,0.309315,-0.072508,-0.294336,-0.159702,0.576873,0.102919,0.328107,-37.604633,6.044113,18.697386,0.303434,1.838485,0.034652,0.000000,0.000000,0.000000,0.000000,0.000000,0.000000
12357252.000000,-0.343623,0.598502,0.435734,-1.501283,-0.271955,2.041249,0.150918,0.030363,0.311154,-0.071217,-0.287367,-0.162703,0.576203,0.102851,0.328107,-37.628437,5.948898,18.598204,0.315336,1.779891,0.100570,0.000000,0.000000,0.000000,0.000000,0.000000,0.000000
12357253.000000,-0.343593,0.598814,0.435657,-1.501567,-0.272112,2.041832,0.151024,0.029472,0.310619,-0.074393,-0.290915,-0.158905,0.577313,0.102808,0.304304,-37.580830,5.897324,18.574400,0.303434,1.793624,0.041976,0.000000,0.000000,0.000000,0.000000,0.000000,0.000000
12357254.000000,-0.343561,0.599131,0.435579,-1.501841,-0.272278,2.042395,0.151120,0.029485,0.308710,-0.074439,-0.283701,-0.170500,0.568353,0.100431,0.252729,-37.580830,5.873520,18.399839,0.320829,1.838485,0.048385,0.000000,0.000000,0.000000,0.000000,0.000000,0.000000
12357255.000000,-0.343530,0.599446,0.435504,-1.502121,-0.272447,2.042981,0.151215,0.028687,0.315261,-0.073074,-0.281258,-0.170822,0.572149,0.098311,0.228925,-37.628437,5.798141,18.328428,0.339139,1.838485,0.061202,0.000000,0.000000,0.000000,0.000000,0.000000,0.000000
12357256.000000,-0.343500,0.599764,0.435426,-1.502402,-0.272606,2.043569,0.151315,0.025180,0.313341,-0.074037,-0.284135,-0.168562,0.567265,0.097792,0.205121,-37.580830,5.798141,18.328428,0.291532,1.786300,0.048385,0.000000,0.000000,0.000000,0.000000,0.000000,0.000000
12357257.000000,-0.343468,0.600082,0.435355,-1.502681,-0.272768,2.044149,0.151406,0.026218,0.316412,-0.073488,-0.278704,-0.163795,0.573167,0.095643,0.153547,-37.703815,5.750534,18.304625,0.279630,1.735030,0.081344,0.000000,0.000000,0.000000,0.000000,0.000000,0.000000
12357258.000000,-0.343433,0.600400,0.435276,-1.502948,-0.272936,2.044731,0.151506,0.027490,0.316881,-0.073442,-0.279221,-0.165709,0.571470,0.097228,0.078168,-37.751423,5.726730,18.253050,0.291532,1.702071,0.034652,0.000000,0.000000,0.000000,0.000000,0.000000,0.000000
12357259.000000,-0.343405,0.600723,0.435193,-1.503216,-0.273098,2.045304,0.151598,0.026607,0.318359,-0.078882,-0.277009,-0.161325,0.574930,0.095124,0.078168,-37.826801,5.798141,18.177671,0.273221,1.702071,0.067611,0.000000,0.000000,0.000000,0.000000,0.000000,0.000000
12357260.000000,-0.343374,0.601040,0.435116,-1.503480,-0.273266,2.045873,0.151697,0.029116,0.318811,-0.074255,-0.273382,-0.165041,0.569985,0.094968,0.078168,-37.898212,5.774338,18.030882,0.315336,1.773483,0.067611,0.000000,0.000000,0.000000,0.000000,0.000000,0.000000
12357261.000000,-0.343341,0.601365,0.435032,-1.503743,-0.273434,2.046454,0.151800,0.031535,0.318740,-0.075780,-0.270591,-0.165288,0.573367,0.100443,0.054365,-37.949787,5.825912,17.983274,0.303434,1.786300,0.041976,0.000000,0.000000,0.000000,0.000000,0.000000,0.000000
12357262.000000,-0.343316,0.601685,0.434958,-1.504015,-0.273606,2.047026,0.151897,0.031160,0.315463,-0.074433,-0.274810,-0.171350,0.571926,0.099067,0.129743,-37.997395,5.774338,17.955503,0.308927,1.779891,0.074935,0.000000,0.000000,0.000000,0.000000,0.000000,0.000000
12357263.000000,-0.343279,0.602008,0.434879,-1.504282,-0.273775,2.047612,0.152000,0.030935,0.317655,-0.077633,-0.274670,-0.166266,0.580776,0.098713,0.078168,-38.045002,5.774338,17.907896,0.308927,1.735030,0.048385,0.000000,0.000000,0.000000,0.000000,0.000000,0.000000
12357264.000000,-0.343251,0.602335,0.434796,-1.504539,-0.273941,2.048192,0.152095,0.031920,0.319423,-0.081461,-0.267938,-0.166257,0.582829,0.100917,0.105939,-38.021198,5.825912,17.856321,0.285123,1.708480,0.067611,0.000000,0.000000,0.000000,0.000000,0.000000,0.000000
12357265.000000,-0.343219,0.602649,0.434716,-1.504800,-0.274105,2.048768,0.152199,0.030201,0.320732,-0.082308,-0.265125,-0.166962,0.582627,0.100762,0.105939,-37.949787,5.798141,17.784910,0.279630,1.727706,0.028243,0.000000,0.000000,0.000000,0.000000,0.000000,0.000000
12357266.000000,-0.343188,0.602973,0.434634,-1.505052,-0.274269,2.049355,0.152302,0.028981,0.319900,-0.084900,-0.262529,-0.162895,0.582025,0.103573,0.105939,-37.874409,5.849716,17.661924,0.285123,1.754256,0.034652,0.000000,0.000000,0.000000,0.000000,0.000000,0.000000
12357267.000000,-0.343157,0.603296,0.434555,-1.505311,-0.274427,2.049927,0.152398,0.030638,0.319542,-0.082950,-0.259077,-0.162982,0.576785,0.096822,0.129743,-37.898212,5.873520,17.610350,0.267728,1.793624,0.054794,0.000000,0.000000,0.000000,0.000000,0.000000,0.000000
12357268.000000,-0.343127,0.603627,0.434474,-1.505569,-0.274590,2.050516,0.152502,0.028722,0.323332,-0.083903,-0.259655,-0.164071,0.579077,0.101943,0.153547,-37.973591,5.873520,17.562742,0.249418,1.760665,0.021835,0.000000,0.000000,0.000000,0.000000,0.000000,0.000000
12357269.000000,-0.343097,0.603964,0.434393,-1.505818,-0.274760,2.051091,0.152594,0.027914,0.326084,-0.083816,-0.255712,-0.160788,0.589171,0.101970,0.153547,-38.068806,5.849716,17.463560,0.249418,1.708480,0.094161,0.000000,0.000000,0.000000,0.000000,0.000000,0.000000
12357270.000000,-0.343068,0.604289,0.434307,-1.506068,-0.274926,2.051675,0.152697,0.029840,0.327323,-0.082863,-0.250365,-0.164336,0.585029,0.106922,0.177350,-38.120380,5.897324,17.411985,0.279630,1.662704,0.048385,0.000000,0.000000,0.000000,0.000000,0.000000,0.000000
12357271.000000,-0.343033,0.604626,0.434220,-1.506310,-0.275088,2.052250,0.152801,0.033230,0.333936,-0.082023,-0.247474,-0.160734,0.575068,0.108760,0.129743,-38.243366,5.948898,17.388182,0.279630,1.656295,0.034652,0.000000,0.000000,0.000000,0.000000,0.000000,0.000000
12357272.000000,-0.343006,0.604962,0.434135,-1.506557,-0.275256,2.052819,0.152899,0.030038,0.330841,-0.083931,-0.244617,-0.166978,0.573079,0.103872,0.177350,-38.338581,5.972702,17.340574,0.291532,1.649886,0.067611,0.000000,0.000000,0.000000,0.000000,0.000000,0.000000
12357273.000000,-0.342972,0.605294,0.434054,-1.506798,-0.275415,2.053384,0.153003,0.033317,0.332744,-0.084132,-0.242904,-0.162160,0.564768,0.102784,0.129743,-38.437763,5.948898,17.312803,0.273221,1.689254,0.034652,0.000000,0.000000,0.000000,0.000000,0.000000,0.000000
12357274.000000,-0.342943,0.605631,0.433962,-1.507036,-0.275581,2.053958,0.153104,0.033257,0.331532,-0.087281,-0.239702,-0.159376,0.565510,0.100681,0.177350,-38.485371,6.044113,17.340574,0.279630,1.682845,0.034652,0.000000,0.000000,0.000000,0.000000,0.000000,0.000000
12357275.000000,-0.342910,0.605960,0.433878,-1.507283,-0.275733,2.054515,0.153200,0.031860,0.336182,-0.083452,-0.242755,-0.160309,0.565493,0.102329,0.153547,-38.485371,6.020309,17.364378,0.237516,1.695663,0.074935,0.000000,0.000000,0.000000,0.000000,0.000000,0.000000
12357276.000000,-0.342880,0.606299,0.433794,-1.507528,-0.275903,2.055076,0.153306,0.032807,0.337448,-0.084258,-0.247942,-0.167065,0.562457,0.101686,0.177350,-38.513142,6.020309,17.411985,0.225614,1.747848,0.034652,0.000000,0.000000,0.000000,0.000000,0.000000,0.000000
12357277.000000,-0.342850,0.606639,0.433710,-1.507771,-0.276074,2.055631,0.153397,0.033620,0.335147,-0.081994,-0.247417,-0.167622,0.562443,0.102496,0.205121,-38.536945,6.020309,17.487364,0.219205,1.786300,0.087753,0.000000,0.000000,0.000000,0.000000,0.000000,0.000000
12357278.000000,-0.342819,0.606979,0.433623,-1.508016,-0.276241,2.056193,0.153504,0.030998,0.337154,-0.084035,-0.246548,-0.168681,0.563404,0.102197,0.228925,-38.584553,6.044113,17.562742,0.231107,1.800033,0.054794,0.000000,0.000000,0.000000,0.000000,0.000000,0.000000
12357279.000000,-0.342787,0.607327,0.433533,-1.508257,-0.276406,2.056762,0.153606,0.029773,0.338689,-0.085506,-0.245007,-0.164249,0.564595,0.101405,0.228925,-38.659931,6.067917,17.586546,0.237516,1.800033,0.041976,0.000000,0.000000,0.000000,0.000000,0.000000,0.000000
12357280.000000,-0.342759,0.607660,0.433447,-1.508506,-0.276573,2.057317,0.153704,0.027725,0.338114,-0.086702,-0.247667,-0.165561,0.561278,0.099539,0.276533,-38.632160,6.095688,17.661924,0.237516,1.786300,0.041976,0.000000,0.000000,0.000000,0.000000,0.000000,0.000000
12357281.000000,-0.342723,0.608010,0.433358,-1.508746,-0.276737,2.057883,0.153801,0.030941,0.344530,-0.087784,-0.247238,-0.166852,0.556928,0.102295,0.252729,-38.683735,6.143295,17.610350,0.243009,1.806442,0.067611,0.000000,0.000000,0.000000,0.000000,0.000000,0.000000
12357282.000000,-0.342687,0.608360,0.433273,-1.508981,-0.276902,2.058435,0.153897,0.030661,0.346091,-0.087126,-0.244185,-0.163245,0.551253,0.100353,0.205121,-38.806721,6.119492,17.435789,0.255826,1.786300,0.074935,0.000000,0.000000,0.000000,0.000000,0.000000,0.000000
12357283.000000,-0.342651,0.608699,0.433183,-1.509231,-0.277065,2.059001,0.154001,0.033526,0.345267,-0.084100,-0.246773,-0.163659,0.547478,0.100341,0.153547,-38.854328,6.119492,17.463560,0.225614,1.741439,0.034652,0.000000,0.000000,0.000000,0.000000,0.000000,0.000000
12357284.000000,-0.342619,0.609044,0.433087,-1.509467,-0.277239,2.059568,0.154096,0.034066,0.337962,-0.082960,-0.243378,-0.164896,0.548479,0.101319,0.177350,-38.901936,6.167099,17.388182,0.225614,1.714889,0.087753,0.000000,0.000000,0.000000,0.000000,0.000000,0.000000
12357285.000000,-0.342584,0.609393,0.433000,-1.509711,-0.277413,2.060131,0.154204,0.035529,0.341257,-0.079822,-0.245130,-0.171255,0.558982,0.102318,0.153547,-38.977314,6.119492,17.364378,0.267728,1.676437,0.015426,0.000000,0.000000,0.000000,0.000000,0.000000,0.000000
12357286.000000,-0.342554,0.609734,0.432913,-1.509958,-0.277579,2.060687,0.154303,0.034726,0.340573,-0.082248,-0.246308,-0.169897,0.547986,0.099506,0.205121,-38.977314,6.143295,17.340574,0.243009,1.741439,0.034652,0.000000,0.000000,0.000000,0.000000,0.000000,0.000000
12357287.000000,-0.342519,0.610075,0.432825,-1.510197,-0.277750,2.061248,0.154397,0.036173,0.340295,-0.083685,-0.243639,-0.170943,0.569252,0.096195,0.177350,-39.001118,6.143295,17.289000,0.273221,1.721298,0.087753,0.000000,0.000000,0.000000,0.000000,0.000000,0.000000
12357288.000000,-0.342484,0.610411,0.432738,-1.510443,-0.277916,2.061815,0.154502,0.036601,0.341483,-0.084154,-0.245998,-0.170054,0.568925,0.098332,0.177350,-38.925739,6.119492,17.312803,0.255826,1.714889,0.021835,0.000000,0.000000,0.000000,0.000000,0.000000,0.000000
12357289.000000,-0.342443,0.610747,0.432647,-1.510691,-0.278081,2.062385,0.154597,0.039164,0.339870,-0.085598,-0.248330,-0.168608,0.572855,0.099902,0.078168,-38.854328,6.143295,17.340574,0.225614,1.708480,0.067611,0.000000,0.000000,0.000000,0.000000,0.000000,0.000000
12357290.000000,-0.342408,0.611092,0.432563,-1.510944,-0.278248,2.062950,0.154696,0.038802,0.339117,-0.087536,-0.248163,-0.168900,0.576557,0.102880,0.078168,-38.806721,6.067917,17.435789,0.219205,1.695663,0.081344,0.000000,0.000000,0.000000,0.000000,0.000000,0.000000
12357291.000000,-0.342372,0.611436,0.432473,-1.511190,-0.278417,2.063511,0.154797,0.038345,0.340672,-0.090870,-0.249393,-0.164050,0.572341,0.105734,0.078168,-38.778950,6.067917,17.463560,0.207303,1.727706,0.074935,0.000000,0.000000,0.000000,0.000000,0.000000,0.000000
12357292.000000,-0.342334,0.611779,0.432379,-1.511431,-0.278597,2.064076,0.154900,0.039421,0.341838,-0.090261,-0.246547,-0.166883,0.569924,0.102648,0.030561,-38.731342,6.067917,17.463560,0.249418,1.760665,0.081344,0.000000,0.000000,0.000000,0.000000,0.000000,0.000000
12357293.000000,-0.342295,0.612126,0.432290,-1.511671,-0.278770,2.064631,0.155002,0.039437,0.339644,-0.089222,-0.243008,-0.169454,0.564701,0.101822,0.006757,-38.731342,6.044113,17.411985,0.303434,1.747848,0.048385,0.000000,0.000000,0.000000,0.000000,0.000000,0.000000
12357294.000000,-0.342256,0.612471,0.432198,-1.511912,-0.278933,2.065196,0.155094,0.040026,0.340414,-0.088815,-0.245091,-0.167575,0.559583,0.098211,-0.044818,-38.755146,6.044113,17.463560,0.261320,1.747848,0.094161,0.000000,0.000000,0.000000,0.000000,0.000000,0.000000
12357295.000000,-0.342222,0.612822,0.432121,-1.512157,-0.279108,2.065752,0.155200,0.038638,0.344493,-0.085791,-0.246091,-0.168414,0.554792,0.099577,-0.017047,-38.755146,5.921127,17.435789,0.267728,1.689254,0.034652,0.000000,0.000000,0.000000,0.000000,0.000000,0.000000
12357296.000000,-0.342183,0.613172,0.432025,-1.512404,-0.279275,2.066316,0.155298,0.039518,0.344030,-0.088378,-0.247308,-0.167908,0.557955,0.097427,-0.068621,-38.878132,5.996506,17.435789,0.243009,1.682845,0.054794,0.000000,0.000000,0.000000,0.000000,0.000000,0.000000
12357297.000000,-0.342146,0.613527,0.431933,-1.512644,-0.279445,2.066878,0.155400,0.038705,0.349291,-0.088812,-0.244809,-0.167507,0.558768,0.096114,-0.068621,-39.048725,6.020309,17.411985,0.225614,1.714889,0.067611,0.000000,0.000000,0.000000,0.000000,0.000000,0.000000
12357298.000000,-0.342115,0.613872,0.431845,-1.512893,-0.279622,2.067430,0.155507,0.036572,0.347171,-0.088005,-0.246298,-0.172479,0.564009,0.096498,0.006757,-39.072529,5.996506,17.534971,0.213712,1.747848,0.048385,0.000000,0.000000,0.000000,0.000000,0.000000,0.000000
12357299.000000,-0.342076,0.614221,0.431759,-1.513144,-0.279807,2.067994,0.155607,0.037462,0.351458,-0.086737,-0.246721,-0.176809,0.559043,0.094928,-0.017047,-39.147907,5.948898,17.634153,0.219205,1.760665,0.067611,0.000000,0.000000,0.000000,0.000000,0.000000,0.000000
12357300.000000,-0.342045,0.614571,0.431670,-1.513391,-0.279989,2.068549,0.155710,0.035855,0.350148,-0.089754,-0.246310,-0.175895,0.566886,0.095555,0.054365,-39.100300,5.948898,17.709532,0.243009,1.741439,0.054794,0.000000,0.000000,0.000000,0.000000,0.000000,0.000000
12357301.000000,-0.342009,0.614911,0.431577,-1.513642,-0.280172,2.069113,0.155813,0.035938,0.347100,-0.089951,-0.249664,-0.180322,0.565888,0.099606,0.078168,-39.100300,5.972702,17.832518,0.279630,1.773483,0.061202,0.000000,0.000000,0.000000,0.000000,0.000000,0.000000
12357302.000000,-0.341973,0.615259,0.431488,-1.513896,-0.280352,2.069677,0.155916,0.032733,0.349910,-0.088235,-0.251923,-0.178043,0.565212,0.102343,0.105939,-39.048725,5.921127,17.931700,0.303434,1.800033,0.081344,0.000000,0.000000,0.000000,0.000000,0.000000,0.000000
12357303.000000,-0.341939,0.615605,0.431393,-1.514155,-0.280525,2.070236,0.156024,0.033602,0.346928,-0.090595,-0.254674,-0.179189,0.564492,0.097682,0.129743,-39.100300,6.020309,18.078489,0.297025,1.832076,0.028243,0.000000,0.000000,0.000000,0.000000,0.000000,0.000000
12357304.000000,-0.341903,0.615951,0.431305,-1.514403,-0.280704,2.070799,0.156124,0.034729,0.346338,-0.092226,-0.251397,-0.176187,0.561593,0.095455,0.129743,-39.024921,5.996506,18.130064,0.285123,1.786300,0.061202,0.000000,0.000000,0.000000,0.000000,0.000000,0.000000
12357305.000000,-0.341864,0.616310,0.431210,-1.514652,-0.280883,2.071360,0.156224,0.036146,0.347669,-0.092272,-0.252946,-0.173064,0.567906,0.094414,0.105939,-39.048725,6.044113,18.205442,0.243009,1.806442,0.081344,0.000000,0.000000,0.000000,0.000000,0.000000,0.000000
12357306.000000,-0.341833,0.616655,0.431122,-1.514903,-0.281066,2.071906,0.156329,0.035246,0.349520,-0.090499,-0.252054,-0.173272,0.557466,0.095800,0.177350,-39.072529,6.020309,18.229246,0.267728,1.832076,0.048385,0.000000,0.000000,0.000000,0.000000,0.000000,0.000000
12357307.000000,-0.341798,0.617014,0.431028,-1.515149,-0.281248,2.072466,0.156430,0.032440,0.352788,-0.090227,-0.249524,-0.173505,0.554758,0.094203,0.205121,-39.124104,6.044113,18.276854,0.303434,1.832076,0.074935,0.000000,0.000000,0.000000,0.000000,0.000000,0.000000
12357308.000000,-0.341767,0.617369,0.430938,-1.515400,-0.281422,2.073014,0.156540,0.029751,0.352045,-0.089658,-0.251088,-0.171220,0.548393,0.100703,0.252729,-39.219318,6.044113,18.328428,0.267728,1.832076,0.028243,0.000000,0.000000,0.000000,0.000000,0.000000,0.000000
12357309.000000,-0.341736,0.617722,0.430850,-1.515652,-0.281600,2.073565,0.156639,0.030176,0.354556,-0.087986,-0.248242,-0.172198,0.554036,0.097066,0.328107,-39.294697,5.996506,18.352232,0.303434,1.800033,0.081344,0.000000,0.000000,0.000000,0.000000,0.000000,0.000000
12357310.000000,-0.341698,0.618080,0.430752,-1.515903,-0.281771,2.074119,0.156745,0.035765,0.348492,-0.089140,-0.248075,-0.170399,0.553105,0.096761,0.304304,-39.366108,6.044113,18.451414,0.285123,1.786300,0.074935,0.000000,0.000000,0.000000,0.000000,0.000000,0.000000
12357311.000000,-0.341666,0.618430,0.430651,-1.516147,-0.281944,2.074661,0.156852,0.035511,0.346719,-0.091153,-0.246007,-0.170194,0.551768,0.102398,0.351911,-39.393879,6.143295,18.499022,0.285123,1.786300,0.034652,0.000000,0.000000,0.000000,0.000000,0.000000,0.000000
12357312.000000,-0.341633,0.618784,0.430556,-1.516397,-0.282123,2.075208,0.156947,0.035670,0.348571,-0.089960,-0.255310,-0.170289,0.547867,0.098042,0.375715,-39.417683,6.143295,18.649778,0.291532,1.832076,0.087753,0.000000,0.000000,0.000000,0.000000,0.000000,0.000000
12357313.000000,-0.341600,0.619132,0.430463,-1.516648,-0.282305,2.075738,0.157055,0.032582,0.350793,-0.089867,-0.253514,-0.170092,0.544985,0.103513,0.403486,-39.342304,6.167099,18.772764,0.291532,1.909896,0.028243,0.000000,0.000000,0.000000,0.000000,0.000000,0.000000
12357314.000000,-0.341562,0.619488,0.430367,-1.516896,-0.282484,2.076284,0.157154,0.034632,0.354792,-0.092938,-0.249940,-0.171319,0.540282,0.105744,0.375715,-39.366108,6.190903,18.820372,0.327238,1.942855,0.041976,0.000000,0.000000,0.000000,0.000000,0.000000,0.000000
12357315.000000,-0.341532,0.619836,0.430268,-1.517146,-0.282657,2.076833,0.157254,0.033300,0.352704,-0.095943,-0.249757,-0.170611,0.538525,0.101640,0.474897,-39.294697,6.242477,18.947325,0.327238,1.936446,0.074935,0.000000,0.000000,0.000000,0.000000,0.000000,0.000000
12357316.000000,-0.341493,0.620185,0.430173,-1.517395,-0.282826,2.077381,0.157358,0.036345,0.360923,-0.097465,-0.247050,-0.170132,0.542797,0.106325,0.403486,-39.195515,6.266281,18.971128,0.320829,1.897079,0.028243,0.000000,0.000000,0.000000,0.000000,0.000000,0.000000
12357317.000000,-0.341457,0.620532,0.430073,-1.517647,-0.282995,2.077923,0.157457,0.036742,0.354488,-0.096532,-0.244966,-0.169159,0.533909,0.101936,0.403486,-39.072529,6.341660,19.117918,0.297025,1.897079,0.067611,0.000000,0.000000,0.000000,0.000000,0.000000,0.000000
12357318.000000,-0.341426,0.620877,0.429973,-1.517885,-0.283170,2.078455,0.157555,0.035955,0.349676,-0.097230,-0.243386,-0.174914,0.535212,0.099286,0.451093,-38.878132,6.365463,19.141722,0.320829,1.962081,0.094161,0.000000,0.000000,0.000000,0.000000,0.000000,0.000000
12357319.000000,-0.341395,0.621233,0.429872,-1.518125,-0.283344,2.078987,0.157655,0.032166,0.350935,-0.099400,-0.239860,-0.173030,0.529066,0.103590,0.502668,-38.878132,6.436874,19.070311,0.303434,2.098495,0.074935,0.000000,0.000000,0.000000,0.000000,0.000000,0.000000
12357320.000000,-0.341358,0.621590,0.429775,-1.518364,-0.283527,2.079534,0.157761,0.031245,0.352268,-0.095627,-0.239495,-0.177346,0.539960,0.105588,0.474897,-38.925739,6.413071,19.070311,0.327238,2.060043,0.081344,0.000000,0.000000,0.000000,0.000000,0.000000,0.000000
12357321.000000,-0.341325,0.621947,0.429673,-1.518604,-0.283697,2.080085,0.157870,0.032301,0.352811,-0.098535,-0.236196,-0.178533,0.545180,0.108697,0.502668,-38.901936,6.488449,19.070311,0.315336,1.988631,0.048385,0.000000,0.000000,0.000000,0.000000,0.000000,0.000000
12357322.000000,-0.341290,0.622297,0.429579,-1.518851,-0.283861,2.080635,0.157970,0.030142,0.351340,-0.094827,-0.238059,-0.174464,0.543271,0.108148,0.526471,-38.977314,6.460678,19.117918,0.267728,1.909896,0.094161,0.000000,0.000000,0.000000,0.000000,0.000000,0.000000
12357323.000000,-0.341259,0.622658,0.429483,-1.519086,-0.284039,2.081180,0.158086,0.027260,0.356661,-0.092501,-0.238107,-0.175594,0.555324,0.107271,0.601850,-39.048725,6.436874,19.117918,0.327238,1.909896,0.028243,0.000000,0.000000,0.000000,0.000000,0.000000,0.000000
12357324.000000,-0.341220,0.623007,0.429377,-1.519323,-0.284203,2.081728,0.158187,0.031301,0.349474,-0.096739,-0.235743,-0.173456,0.548410,0.112316,0.550275,-39.048725,6.536057,19.169493,0.308927,1.923629,0.054794,0.000000,0.000000,0.000000,0.000000,0.000000,0.000000
12357325.000000,-0.341183,0.623360,0.429278,-1.519548,-0.284373,2.082283,0.158292,0.032985,0.350862,-0.097746,-0.233245,-0.176808,0.550127,0.112224,0.550275,-39.024921,6.559860,19.169493,0.303434,1.968490,0.054794,0.000000,0.000000,0.000000,0.000000,0.000000,0.000000
12357326.000000,-0.341147,0.623716,0.429185,-1.519786,-0.284555,2.082824,0.158398,0.034347,0.350241,-0.093472,-0.233095,-0.179882,0.543200,0.112906,0.550275,-38.977314,6.488449,19.240904,0.308927,2.027084,0.041976,0.000000,0.000000,0.000000,0.000000,0.000000,0.000000
12357327.000000,-0.341108,0.624069,0.429079,-1.520020,-0.284733,2.083382,0.158505,0.035968,0.352271,-0.096839,-0.232934,-0.176997,0.550563,0.112421,0.526471,-39.001118,6.559860,19.316282,0.303434,1.988631,0.054794,0.000000,0.000000,0.000000,0.000000,0.000000,0.000000
12357328.000000,-0.341063,0.624439,0.428976,-1.520248,-0.284911,2.083944,0.158613,0.039296,0.356711,-0.098155,-0.229680,-0.175074,0.552394,0.112868,0.403486,-39.072529,6.583664,19.391661,0.308927,1.923629,0.048385,0.000000,0.000000,0.000000,0.000000,0.000000,0.000000
12357329.000000,-0.341025,0.624787,0.428877,-1.520480,-0.285090,2.084486,0.158720,0.038663,0.351731,-0.098095,-0.231200,-0.179942,0.554311,0.112484,0.403486,-39.024921,6.559860,19.391661,0.351041,1.962081,0.061202,0.000000,0.000000,0.000000,0.000000,0.000000,0.000000
12357330.000000,-0.340987,0.625153,0.428778,-1.520700,-0.285270,2.085035,0.158826,0.038325,0.356212,-0.098500,-0.224463,-0.182174,0.551186,0.112143,0.403486,-39.072529,6.559860,19.292479,0.356534,1.968490,0.067611,0.000000,0.000000,0.000000,0.000000,0.000000,0.000000
12357331.000000,-0.340951,0.625512,0.428686,-1.520930,-0.285447,2.085571,0.158937,0.038087,0.355032,-0.097881,-0.222827,-0.178440,0.549907,0.113495,0.403486,-39.072529,6.512253,19.340086,0.344633,1.981307,0.021835,0.000000,0.000000,0.000000,0.000000,0.000000,0.000000
12357332.000000,-0.340910,0.625876,0.428585,-1.521144,-0.285620,2.086117,0.159045,0.039066,0.359780,-0.096079,-0.220467,-0.180366,0.547392,0.116621,0.351911,-39.147907,6.536057,19.217100,0.327238,2.047225,0.054794,0.000000,0.000000,0.000000,0.000000,0.000000,0.000000
12357333.000000,-0.340866,0.626248,0.428487,-1.521362,-0.285797,2.086665,0.159156,0.039684,0.360383,-0.096585,-0.217330,-0.180304,0.547282,0.115676,0.304304,-39.294697,6.512253,19.141722,0.279630,2.053634,0.054794,0.000000,0.000000,0.000000,0.000000,0.000000,0.000000
12357334.000000,-0.340827,0.626616,0.428392,-1.521576,-0.285972,2.087221,0.159270,0.039150,0.371619,-0.097079,-0.217655,-0.180032,0.549253,0.115295,0.304304,-39.441486,6.488449,19.042540,0.237516,2.007858,0.048385,0.000000,0.000000,0.000000,0.000000,0.000000,0.000000
12357336.000000,-0.340746,0.627364,0.428200,-1.522009,-0.286326,2.088336,0.159490,0.039754,0.378443,-0.099166,-0.220590,-0.180532,0.544847,0.114588,0.252729,-39.758869,6.413071,18.947325,0.267728,1.890670,0.028243,0.000000,0.000000,0.000000,0.000000,0.000000,0.000000
12357337.000000,-0.340704,0.627735,0.428101,-1.522226,-0.286509,2.088893,0.159594,0.039021,0.376550,-0.100232,-0.216441,-0.180695,0.545192,0.113048,0.252729,-39.858051,6.436874,18.848143,0.344633,1.897079,0.054794,0.000000,0.000000,0.000000,0.000000,0.000000,0.000000
12357338.000000,-0.340661,0.628105,0.428007,-1.522442,-0.286682,2.089456,0.159703,0.039148,0.372328,-0.099787,-0.215381,-0.177562,0.549617,0.107877,0.228925,-39.981037,6.413071,18.820372,0.351041,1.897079,0.061202,0.000000,0.000000,0.000000,0.000000,0.000000,0.000000
12357339.000000,-0.340619,0.628476,0.427913,-1.522652,-0.286858,2.090010,0.159812,0.042388,0.370043,-0.096430,-0.209931,-0.178950,0.549060,0.109904,0.205121,-39.957233,6.389267,18.721189,0.320829,1.884261,0.041976,0.000000,0.000000,0.000000,0.000000,0.000000,0.000000
12357340.000000,-0.340575,0.628837,0.427818,-1.522868,-0.287034,2.090557,0.159915,0.042255,0.367923,-0.096266,-0.210801,-0.179449,0.546360,0.105175,0.153547,-39.929462,6.341660,18.697386,0.273221,1.916305,0.061202,0.000000,0.000000,0.000000,0.000000,0.000000,0.000000
12357341.000000,-0.340523,0.629206,0.427720,-1.523078,-0.287215,2.091115,0.160025,0.043864,0.369300,-0.098052,-0.207143,-0.180190,0.547052,0.103995,0.030561,-39.858051,6.365463,18.625975,0.237516,1.916305,0.021835,0.000000,0.000000,0.000000,0.000000,0.000000,0.000000
12357342.000000,-0.340481,0.629565,0.427622,-1.523289,-0.287388,2.091653,0.160126,0.045491,0.362445,-0.099252,-0.206914,-0.181372,0.546310,0.104701,0.030561,-39.735065,6.389267,18.550596,0.207303,1.942855,0.061202,0.000000,0.000000,0.000000,0.000000,0.000000,0.000000
12357343.000000,-0.340437,0.629935,0.427529,-1.523491,-0.287572,2.092201,0.160233,0.046440,0.365702,-0.096985,-0.208665,-0.179615,0.540473,0.107090,0.030561,-39.735065,6.290085,18.451414,0.237516,1.968490,0.048385,0.000000,0.000000,0.000000,0.000000,0.000000,0.000000
12357344.000000,-0.340389,0.630311,0.427431,-1.523702,-0.287753,2.092739,0.160345,0.048466,0.366465,-0.094863,-0.208707,-0.178091,0.539108,0.104869,-0.017047,-39.758869,6.290085,18.376036,0.261320,1.942855,0.021835,0.000000,0.000000,0.000000,0.000000,0.000000,0.000000
12357345.000000,-0.340348,0.630678,0.427333,-1.523904,-0.287930,2.093288,0.160448,0.047511,0.367558,-0.093259,-0.204334,-0.177754,0.537862,0.104604,0.030561,-39.782673,6.290085,18.253050,0.308927,1.916305,0.081344,0.000000,0.000000,0.000000,0.000000,0.000000,0.000000
12357346.000000,-0.340298,0.631064,0.427230,-1.524109,-0.288109,2.093843,0.160557,0.049008,0.370032,-0.093229,-0.200973,-0.175732,0.537756,0.102883,-0.017047,-39.929462,6.341660,18.253050,0.320829,1.865035,0.061202,0.000000,0.000000,0.000000,0.000000,0.000000,0.000000
12357347.000000,-0.340252,0.631438,0.427138,-1.524305,-0.288283,2.094386,0.160662,0.049640,0.368412,-0.097522,-0.200072,-0.181152,0.545638,0.100238,-0.017047,-40.076252,6.313889,18.205442,0.255826,1.844894,0.074935,0.000000,0.000000,0.000000,0.000000,0.000000,0.000000
12357348.000000,-0.340201,0.631813,0.427038,-1.524499,-0.288467,2.094936,0.160773,0.050891,0.370408,-0.094896,-0.198580,-0.182780,0.544314,0.105266,-0.068621,-40.076252,6.313889,18.106260,0.243009,1.858627,0.021835,0.000000,0.000000,0.000000,0.000000,0.000000,0.000000
12357349.000000,-0.340152,0.632186,0.426942,-1.524702,-0.288648,2.095471,0.160876,0.048558,0.372694,-0.095838,-0.200281,-0.178892,0.548697,0.104493,-0.116229,-40.127827,6.290085,18.130064,0.225614,1.884261,0.074935,0.000000,0.000000,0.000000,0.000000,0.000000,0.000000
12357350.000000,-0.340108,0.632556,0.426846,-1.524902,-0.288825,2.096021,0.160979,0.048699,0.375584,-0.097084,-0.196628,-0.177263,0.548675,0.106493,-0.116229,-40.052448,6.290085,18.106260,0.237516,1.884261,0.081344,0.000000,0.000000,0.000000,0.000000,0.000000,0.000000
12357351.000000,-0.340059,0.632923,0.426747,-1.525096,-0.289005,2.096571,0.161091,0.046734,0.369911,-0.097373,-0.195469,-0.175854,0.544868,0.110536,-0.144000,-39.957233,6.266281,18.130064,0.261320,1.865035,0.015426,0.000000,0.000000,0.000000,0.000000,0.000000,0.000000
12357352.000000,-0.340013,0.633304,0.426650,-1.525299,-0.289178,2.097114,0.161189,0.047479,0.378469,-0.098210,-0.197403,-0.177646,0.545150,0.104133,-0.144000,-39.929462,6.266281,18.153868,0.249418,1.877853,0.074935,0.000000,0.000000,0.000000,0.000000,0.000000,0.000000
12357353.000000,-0.339964,0.633666,0.426553,-1.525498,-0.289356,2.097654,0.161299,0.048626,0.370047,-0.097495,-0.194711,-0.176619,0.535968,0.103452,-0.167803,-39.782673,6.218674,18.130064,0.273221,1.865035,0.034652,0.000000,0.000000,0.000000,0.000000,0.000000,0.000000
12357354.000000,-0.339917,0.634039,0.426450,-1.525691,-0.289542,2.098188,0.161407,0.049509,0.369754,-0.099456,-0.193385,-0.179078,0.548729,0.105598,-0.167803,-39.687458,6.290085,18.130064,0.261320,1.897079,0.041976,0.000000,0.000000,0.000000,0.000000,0.000000,0.000000
12357355.000000,-0.339874,0.634404,0.426356,-1.525880,-0.289720,2.098735,0.161510,0.047865,0.367220,-0.099157,-0.190386,-0.176180,0.549813,0.106164,-0.092425,-39.564472,6.266281,18.054686,0.243009,1.871444,0.074935,0.000000,0.000000,0.000000,0.000000,0.000000,0.000000
12357356.000000,-0.339830,0.634783,0.426259,-1.526069,-0.289901,2.099277,0.161622,0.044503,0.372052,-0.099406,-0.192163,-0.175359,0.547577,0.108952,-0.044818,-39.635883,6.266281,18.007078,0.267728,1.903487,0.041976,0.000000,0.000000,0.000000,0.000000,0.000000,0.000000
12357357.000000,-0.339778,0.635164,0.426167,-1.526257,-0.290081,2.099810,0.161725,0.044094,0.371389,-0.098634,-0.191197,-0.173410,0.542522,0.103776,-0.092425,-39.635883,6.218674,17.856321,0.255826,1.930038,0.081344,0.000000,0.000000,0.000000,0.000000,0.000000,0.000000
12357358.000000,-0.339732,0.635529,0.426069,-1.526451,-0.290253,2.100350,0.161834,0.042525,0.369607,-0.099073,-0.193373,-0.171575,0.545415,0.101508,-0.092425,-39.612080,6.218674,17.832518,0.231107,1.871444,0.081344,0.000000,0.000000,0.000000,0.000000,0.000000,0.000000
12357359.000000,-0.339689,0.635904,0.425976,-1.526636,-0.290431,2.100907,0.161946,0.043422,0.370448,-0.098311,-0.189747,-0.175909,0.548857,0.101752,-0.044818,-39.588276,6.167099,17.709532,0.237516,1.800033,0.028243,0.000000,0.000000,0.000000,0.000000,0.000000,0.000000
12357360.000000,-0.339648,0.636269,0.425876,-1.526825,-0.290607,2.101448,0.162045,0.043441,0.372891,-0.099542,-0.187900,-0.173089,0.545011,0.102014,0.030561,-39.612080,6.190903,17.634153,0.201810,1.767074,0.094161,0.000000,0.000000,0.000000,0.000000,0.000000,0.000000
12357361.000000,-0.339601,0.636646,0.425779,-1.527009,-0.290793,2.102001,0.162162,0.045392,0.375714,-0.098994,-0.190981,-0.172699,0.539604,0.107568,0.030561,-39.612080,6.167099,17.511168,0.213712,1.767074,0.015426,0.000000,0.000000,0.000000,0.000000,0.000000,0.000000
12357362.000000,-0.339557,0.637013,0.425678,-1.527192,-0.290977,2.102537,0.162261,0.045852,0.370274,-0.100679,-0.188645,-0.173528,0.535539,0.107284,0.078168,-39.489094,6.218674,17.411985,0.249418,1.793624,0.054794,0.000000,0.000000,0.000000,0.000000,0.000000,0.000000
12357363.000000,-0.339513,0.637377,0.425584,-1.527377,-0.291153,2.103090,0.162371,0.043567,0.369466,-0.097499,-0.185482,-0.176423,0.538125,0.104522,0.105939,-39.342304,6.218674,17.388182,0.225614,1.800033,0.041976,0.000000,0.000000,0.000000,0.000000,0.000000,0.000000
12357364.000000,-0.339471,0.637741,0.425494,-1.527551,-0.291331,2.103643,0.162479,0.039998,0.363796,-0.093332,-0.181851,-0.174736,0.536919,0.102431,0.205121,-39.147907,6.143295,17.312803,0.231107,1.767074,0.028243,0.000000,0.000000,0.000000,0.000000,0.000000,0.000000
12357365.000000,-0.339424,0.638105,0.425395,-1.527737,-0.291509,2.104191,0.162583,0.042890,0.364015,-0.096446,-0.184262,-0.178447,0.544557,0.099794,0.205121,-38.953510,6.190903,17.340574,0.237516,1.754256,0.041976,0.000000,0.000000,0.000000,0.000000,0.000000,0.000000
12357366.000000,-0.339377,0.638479,0.425295,-1.527907,-0.291685,2.104740,0.162689,0.045055,0.360803,-0.094781,-0.178190,-0.175802,0.544468,0.103079,0.205121,-38.901936,6.218674,17.166014,0.225614,1.741439,0.034652,0.000000,0.000000,0.000000,0.000000,0.000000,0.000000
12357367.000000,-0.339331,0.638853,0.425208,-1.528083,-0.291867,2.105272,0.162795,0.043357,0.364058,-0.094401,-0.177578,-0.182071,0.543330,0.102991,0.205121,-38.830524,6.143295,17.142210,0.183500,1.786300,0.087753,0.000000,0.000000,0.000000,0.000000,0.000000,0.000000
12357368.000000,-0.339291,0.639228,0.425110,-1.528251,-0.292057,2.105821,0.162911,0.043504,0.365260,-0.096563,-0.171342,-0.183718,0.544205,0.103860,0.276533,-38.854328,6.167099,17.019224,0.178007,1.793624,0.009017,0.000000,0.000000,0.000000,0.000000,0.000000,0.000000
12357369.000000,-0.339245,0.639613,0.425013,-1.528421,-0.292248,2.106370,0.163016,0.042868,0.370890,-0.097048,-0.171942,-0.185907,0.541873,0.099443,0.252729,-38.977314,6.143295,16.967649,0.207303,1.747848,0.054794,0.000000,0.000000,0.000000,0.000000,0.000000,0.000000
12357370.000000,-0.339202,0.639989,0.424915,-1.528592,-0.292430,2.106917,0.163117,0.044514,0.373810,-0.099101,-0.171080,-0.185982,0.544843,0.097456,0.276533,-39.024921,6.190903,16.868467,0.219205,1.708480,0.074935,0.000000,0.000000,0.000000,0.000000,0.000000,0.000000
12357371.000000,-0.339160,0.640366,0.424816,-1.528769,-0.292614,2.107462,0.163226,0.041055,0.375610,-0.099837,-0.171597,-0.186019,0.540376,0.102817,0.351911,-39.147907,6.218674,16.943846,0.207303,1.682845,0.034652,0.000000,0.000000,0.000000,0.000000,0.000000,0.000000
12357372.000000,-0.339113,0.640752,0.424719,-1.528937,-0.292799,2.107999,0.163330,0.041014,0.377648,-0.102475,-0.169664,-0.187009,0.551393,0.103627,0.328107,-39.247089,6.218674,16.943846,0.219205,1.727706,0.081344,0.000000,0.000000,0.000000,0.000000,0.000000,0.000000
12357373.000000,-0.339071,0.641128,0.424620,-1.529107,-0.292983,2.108548,0.163440,0.042319,0.376218,-0.103020,-0.169538,-0.187977,0.550334,0.107557,0.375715,-39.342304,6.266281,17.019224,0.237516,1.741439,0.041976,0.000000,0.000000,0.000000,0.000000,0.000000,0.000000
12357374.000000,-0.339021,0.641505,0.424524,-1.529273,-0.293165,2.109104,0.163542,0.042442,0.375342,-0.101518,-0.167914,-0.186742,0.549469,0.108375,0.328107,-39.318501,6.242477,17.019224,0.207303,1.727706,0.048385,0.000000,0.000000,0.000000,0.000000,0.000000,0.000000
12357375.000000,-0.338974,0.641880,0.424427,-1.529452,-0.293356,2.109648,0.163643,0.048129,0.375311,-0.101265,-0.168947,-0.186732,0.544807,0.103359,0.304304,-39.247089,6.242477,17.114439,0.189908,1.721298,0.087753,0.000000,0.000000,0.000000,0.000000,0.000000,0.000000
12357376.000000,-0.338932,0.642259,0.424329,-1.529628,-0.293542,2.110186,0.163751,0.047465,0.377200,-0.098357,-0.169222,-0.187260,0.539652,0.106931,0.351911,-39.294697,6.266281,17.189817,0.189908,1.727706,0.061202,0.000000,0.000000,0.000000,0.000000,0.000000,0.000000
12357377.000000,-0.338889,0.642638,0.424227,-1.529799,-0.293722,2.110728,0.163854,0.047068,0.374070,-0.098801,-0.171965,-0.182625,0.536607,0.103034,0.403486,-39.270893,6.266281,17.241392,0.189908,1.741439,0.081344,0.000000,0.000000,0.000000,0.000000,0.000000,0.000000
12357378.000000,-0.338840,0.643015,0.424123,-1.529966,-0.293905,2.111259,0.163963,0.046223,0.377546,-0.100320,-0.165282,-0.180926,0.535164,0.106789,0.351911,-39.247089,6.313889,17.213621,0.231107,1.735030,0.048385,0.000000,0.000000,0.000000,0.000000,0.000000,0.000000
12357379.000000,-0.338799,0.643402,0.424020,-1.530132,-0.294088,2.111790,0.164066,0.046051,0.377137,-0.100661,-0.168909,-0.183511,0.531177,0.106298,0.403486,-39.318501,6.341660,17.166014,0.249418,1.767074,0.094161,0.000000,0.000000,0.000000,0.000000,0.000000,0.000000
12357380.000000,-0.338753,0.643790,0.423920,-1.530307,-0.294269,2.112308,0.164180,0.043695,0.381997,-0.100499,-0.168201,-0.183345,0.525602,0.113584,0.427289,-39.393879,6.341660,17.189817,0.213712,1.779891,0.054794,0.000000,0.000000,0.000000,0.000000,0.000000,0.000000
12357381.000000,-0.338711,0.644176,0.423815,-1.530474,-0.294457,2.112837,0.164284,0.041332,0.383243,-0.101556,-0.165224,-0.184410,0.527713,0.107664,0.474897,-39.489094,6.389267,17.114439,0.207303,1.773483,0.081344,0.000000,0.000000,0.000000,0.000000,0.000000,0.000000
12357382.000000,-0.338662,0.644564,0.423709,-1.530648,-0.294645,2.113369,0.164388,0.044322,0.384405,-0.101709,-0.167335,-0.185080,0.528324,0.108335,0.451093,-39.635883,6.413071,17.213621,0.201810,1.760665,0.100570,0.000000,0.000000,0.000000,0.000000,0.000000,0.000000
12357383.000000,-0.338613,0.644954,0.423605,-1.530814,-0.294831,2.113894,0.164503,0.046482,0.388829,-0.101888,-0.166125,-0.186637,0.535162,0.112589,0.427289,-39.758869,6.436874,17.213621,0.219205,1.708480,0.021835,0.000000,0.000000,0.000000,0.000000,0.000000,0.000000
12357384.000000,-0.338574,0.645331,0.423504,-1.530988,-0.295017,2.114428,0.164605,0.045058,0.384894,-0.101144,-0.169808,-0.188513,0.533217,0.105395,0.526471,-39.735065,6.436874,17.265196,0.255826,1.682845,0.081344,0.000000,0.000000,0.000000,0.000000,0.000000,0.000000
12357385.000000,-0.338523,0.645726,0.423399,-1.531163,-0.295195,2.114941,0.164720,0.044704,0.388624,-0.101476,-0.170062,-0.183221,0.536295,0.109099,0.474897,-39.810444,6.460678,17.340574,0.243009,1.735030,0.034652,0.000000,0.000000,0.000000,0.000000,0.000000,0.000000
12357386.000000,-0.338479,0.646106,0.423291,-1.531336,-0.295370,2.115468,0.164826,0.044913,0.388217,-0.102371,-0.172149,-0.183517,0.527675,0.104946,0.526471,-39.782673,6.512253,17.388182,0.213712,1.800033,0.041976,0.000000,0.000000,0.000000,0.000000,0.000000,0.000000
12357387.000000,-0.338432,0.646493,0.423186,-1.531506,-0.295555,2.116001,0.164930,0.050107,0.386784,-0.102180,-0.171029,-0.188383,0.523640,0.105072,0.502668,-39.687458,6.536057,17.435789,0.195402,1.793624,0.087753,0.000000,0.000000,0.000000,0.000000,0.000000,0.000000
12357388.000000,-0.338392,0.646864,0.423080,-1.531684,-0.295739,2.116529,0.165043,0.044874,0.386293,-0.103453,-0.171925,-0.191340,0.526244,0.104680,0.601850,-39.489094,6.611435,17.562742,0.171598,1.773483,0.028243,0.000000,0.000000,0.000000,0.000000,0.000000,0.000000
12357389.000000,-0.338351,0.647248,0.422978,-1.531864,-0.295926,2.117053,0.165149,0.040800,0.388565,-0.101607,-0.174974,-0.186852,0.520161,0.104783,0.697065,-39.342304,6.583664,17.661924,0.195402,1.806442,0.087753,0.000000,0.000000,0.000000,0.000000,0.000000,0.000000
12357390.000000,-0.338305,0.647633,0.422866,-1.532045,-0.296115,2.117559,0.165264,0.043415,0.385570,-0.106686,-0.175218,-0.188362,0.519970,0.107390,0.724836,-39.318501,6.682846,17.808714,0.225614,1.877853,0.074935,0.000000,0.000000,0.000000,0.000000,0.000000,0.000000
12357391.000000,-0.338262,0.648020,0.422763,-1.532213,-0.296302,2.118084,0.165379,0.044330,0.385264,-0.107420,-0.170803,-0.189469,0.521177,0.108861,0.772443,-39.342304,6.659042,17.784910,0.255826,1.916305,0.074935,0.000000,0.000000,0.000000,0.000000,0.000000,0.000000
12357392.000000,-0.338219,0.648414,0.422654,-1.532384,-0.296488,2.118614,0.165494,0.044880,0.386991,-0.106486,-0.170301,-0.184183,0.519452,0.110642,0.824018,-39.489094,6.706650,17.856321,0.255826,1.871444,0.048385,0.000000,0.000000,0.000000,0.000000,0.000000,0.000000
12357393.000000,-0.338173,0.648805,0.422544,-1.532557,-0.296667,2.119144,0.165601,0.046548,0.386142,-0.108616,-0.173890,-0.182794,0.519342,0.110230,0.824018,-39.540668,6.734421,17.955503,0.189908,1.806442,0.074935,0.000000,0.000000,0.000000,0.000000,0.000000,0.000000
12357394.000000,-0.338132,0.649199,0.422440,-1.532727,-0.296857,2.119668,0.165713,0.049539,0.387360,-0.105130,-0.170971,-0.188140,0.516665,0.111265,0.871625,-39.687458,6.682846,17.955503,0.166105,1.800033,0.067611,0.000000,0.000000,0.000000,0.000000,0.000000,0.000000
12357395.000000,-0.338085,0.649587,0.422324,-1.532901,-0.297053,2.120193,0.165828,0.047175,0.386156,-0.106269,-0.171774,-0.192704,0.521960,0.113416,0.847822,-39.735065,6.782028,18.078489,0.166105,1.865035,0.021835,0.000000,0.000000,0.000000,0.000000,0.000000,0.000000
12357396.000000,-0.338045,0.649977,0.422222,-1.533071,-0.297247,2.120709,0.165930,0.045671,0.385423,-0.104118,-0.169624,-0.193257,0.521328,0.111555,0.947004,-39.810444,6.758224,18.106260,0.207303,1.923629,0.067611,0.000000,0.000000,0.000000,0.000000,0.000000,0.000000
12357397.000000,-0.338006,0.650366,0.422110,-1.533246,-0.297444,2.121244,0.166037,0.044205,0.387902,-0.105168,-0.171564,-0.193846,0.527981,0.107558,1.069990,-39.834248,6.853439,18.253050,0.255826,1.897079,0.054794,0.000000,0.000000,0.000000,0.000000,0.000000,0.000000
12357398.000000,-0.337962,0.650755,0.422001,-1.533422,-0.297642,2.121768,0.166143,0.045559,0.385649,-0.108177,-0.172523,-0.194700,0.528824,0.109266,1.093793,-39.735065,6.905014,18.399839,0.320829,1.884261,0.028243,0.000000,0.000000,0.000000,0.000000,0.000000,0.000000
