chaoyuefei/paper-gmrm-data/robot_logs/s2_dq_gmrm_xz_min_0.50_log_20260314_173854.csv
# time_ms,q_0,q_1,q_2,q_3,q_4,q_5,q_6,dq_0,dq_1,dq_2,dq_3,dq_4,dq_5,dq_6,tau_J_0,tau_J_1,tau_J_2,tau_J_3,tau_J_4,tau_J_5,tau_J_6,O_dP_EE_c_0,O_dP_EE_c_1,O_dP_EE_c_2,O_dP_EE_c_3,O_dP_EE_c_4,O_dP_EE_c_5
12596494.000000,-2.415658,-1.662592,1.042889,-1.356092,1.795429,1.081416,-0.548603,-0.000405,0.000166,0.000020,0.000399,-0.000283,0.000339,0.000067,0.030561,41.530804,-21.076248,-5.721254,0.888456,1.324874,0.028243,0.000000,0.000000,0.000000,0.000000,0.000000,0.000000
12596495.000000,-2.415656,-1.662596,1.042889,-1.356092,1.795426,1.081415,-0.548604,0.000287,-0.000446,0.000013,0.000266,-0.000629,0.000226,-0.000464,0.006757,41.554607,-21.076248,-5.721254,0.900358,1.324874,0.041976,0.000000,0.000000,0.000000,0.000000,0.000000,0.000000
12596496.000000,-2.415658,-1.662593,1.042892,-1.356090,1.795426,1.081417,-0.548602,-0.000366,0.000260,0.001123,0.000827,-0.000216,-0.000087,0.000437,0.030561,41.530804,-21.123856,-5.749025,0.894864,1.331283,0.021835,0.000000,0.000000,0.000000,0.000000,0.000000,0.000000
12596497.000000,-2.415656,-1.662591,1.042887,-1.356095,1.795425,1.081416,-0.548604,0.000313,0.000730,-0.000922,-0.001212,-0.000144,0.000180,-0.000455,0.006757,41.507000,-21.052444,-5.673646,0.894864,1.324874,0.041976,0.000000,0.000000,0.000000,0.000000,0.000000,0.000000
12596498.000000,-2.415654,-1.662594,1.042887,-1.356093,1.795427,1.081413,-0.548603,0.005652,-0.002023,-0.000615,-0.000808,-0.007708,-0.001576,-0.002566,0.304304,41.459393,-21.052444,-5.673646,0.847257,1.370651,-0.023942,0.000000,0.000000,0.000000,0.000000,0.000000,0.000000
12596499.000000,-2.415646,-1.662597,1.042889,-1.356089,1.795425,1.081409,-0.548617,0.015051,-0.006922,0.000994,0.001054,-0.003038,-0.001889,-0.006527,1.343732,41.237225,-20.977066,-5.499086,0.769437,1.526290,-0.031266,0.000000,0.000000,0.000000,0.000000,0.000000,0.000000
12596500.000000,-2.415615,-1.662596,1.042901,-1.356086,1.795422,1.081410,-0.548648,0.020692,-0.005734,0.004070,0.000645,-0.003091,0.000127,-0.014408,2.926679,40.796856,-20.977066,-5.229311,0.655912,1.767074,-0.031266,0.000000,0.000000,0.000000,0.000000,0.000000,0.000000
12596501.000000,-2.415573,-1.662595,1.042919,-1.356090,1.795409,1.081430,-0.548690,0.026834,-0.001086,0.008811,-0.001125,-0.005809,0.002681,-0.027198,4.783369,40.308880,-20.953262,-4.884157,0.608304,1.865035,-0.089860,0.000000,0.000000,0.000000,0.000000,0.000000,0.000000
12596502.000000,-2.415509,-1.662596,1.042936,-1.356103,1.795381,1.081481,-0.548757,0.032823,-0.000752,0.012699,-0.008373,-0.015328,0.015696,-0.041495,6.663862,39.793133,-20.806473,-4.511232,0.632108,1.786300,-0.037675,0.000000,0.000000,0.000000,0.000000,0.000000,0.000000
12596503.000000,-2.415419,-1.662598,1.042969,-1.356132,1.795343,1.081560,-0.548833,0.051535,0.000869,0.018842,-0.020101,-0.022338,0.031157,-0.053193,8.223004,39.352764,-20.782669,-4.090700,0.661405,1.552840,-0.077042,0.000000,0.000000,0.000000,0.000000,0.000000,0.000000
12596504.000000,-2.415321,-1.662590,1.043008,-1.356180,1.795297,1.081652,-0.548936,0.064298,0.008460,0.022063,-0.030539,-0.031987,0.049154,-0.070149,9.758344,38.765606,-20.707291,-3.598757,0.691617,1.396285,-0.031266,0.000000,0.000000,0.000000,0.000000,0.000000,0.000000
12596505.000000,-2.415200,-1.662590,1.043057,-1.356225,1.795226,1.081757,-0.549053,0.076894,0.009368,0.028267,-0.035126,-0.044687,0.067689,-0.083225,10.948529,38.372845,-20.659683,-3.348818,0.739225,1.337692,-0.070634,0.000000,0.000000,0.000000,0.000000,0.000000,0.000000
12596506.000000,-2.415068,-1.662585,1.043110,-1.356294,1.795150,1.081887,-0.549195,0.091659,0.007243,0.035047,-0.045126,-0.055638,0.086273,-0.099822,11.987958,37.956280,-20.560501,-2.956056,0.709928,1.331283,-0.083451,0.000000,0.000000,0.000000,0.000000,0.000000,0.000000
12596507.000000,-2.414929,-1.662571,1.043171,-1.356363,1.795063,1.082033,-0.549364,0.106013,0.010441,0.042150,-0.054177,-0.059613,0.109301,-0.123149,12.975812,37.492107,-20.413712,-2.733888,0.566190,1.435653,-0.056901,0.000000,0.000000,0.000000,0.000000,0.000000,0.000000
12596508.000000,-2.414770,-1.662562,1.043256,-1.356445,1.794950,1.082206,-0.549557,0.121191,0.009826,0.054565,-0.062424,-0.076550,0.127997,-0.146945,13.793073,37.150921,-20.437515,-2.559328,0.524076,1.559249,-0.077042,0.000000,0.000000,0.000000,0.000000,0.000000,0.000000
12596509.000000,-2.414610,-1.662544,1.043357,-1.356542,1.794826,1.082406,-0.549776,0.135116,0.014728,0.072610,-0.075309,-0.094268,0.150698,-0.166013,14.586530,36.734356,-20.560501,-2.384767,0.362943,1.617843,-0.103593,0.000000,0.000000,0.000000,0.000000,0.000000,0.000000
12596510.000000,-2.414418,-1.662528,1.043472,-1.356654,1.794668,1.082643,-0.550028,0.151187,0.016067,0.086168,-0.086193,-0.112461,0.182887,-0.196069,15.106244,36.416973,-20.707291,-2.285585,0.327238,1.597701,-0.083451,0.000000,0.000000,0.000000,0.000000,0.000000,0.000000
12596511.000000,-2.414213,-1.662506,1.043599,-1.356785,1.794482,1.082904,-0.550304,0.171317,0.015526,0.098751,-0.099886,-0.139255,0.201294,-0.218055,15.526776,36.024212,-20.830276,-2.162599,0.393156,1.532699,-0.077042,0.000000,0.000000,0.000000,0.000000,0.000000,0.000000
12596512.000000,-2.413991,-1.662485,1.043744,-1.356936,1.794269,1.083200,-0.550585,0.185319,0.017380,0.112769,-0.117722,-0.158099,0.233334,-0.232993,15.871930,35.683025,-21.024673,-2.015810,0.452665,1.442062,-0.070634,0.000000,0.000000,0.000000,0.000000,0.000000,0.000000
12596513.000000,-2.413748,-1.662461,1.043896,-1.357107,1.794032,1.083510,-0.550877,0.202806,0.018946,0.126737,-0.132723,-0.188139,0.258593,-0.249067,16.098066,35.337872,-21.123856,-1.916628,0.584501,1.442062,-0.089860,0.000000,0.000000,0.000000,0.000000,0.000000,0.000000
12596514.000000,-2.413496,-1.662442,1.044060,-1.357281,1.793779,1.083845,-0.551174,0.219515,0.018406,0.141222,-0.145200,-0.208333,0.275836,-0.262582,16.296431,35.068096,-21.246841,-2.015810,0.637601,1.448470,-0.083451,0.000000,0.000000,0.000000,0.000000,0.000000,0.000000
12596515.000000,-2.413223,-1.662427,1.044230,-1.357471,1.793517,1.084201,-0.551476,0.235389,0.016416,0.155107,-0.160257,-0.224485,0.304676,-0.273012,16.419416,34.873699,-21.223038,-2.015810,0.589994,1.442062,-0.070634,0.000000,0.000000,0.000000,0.000000,0.000000,0.000000
12596516.000000,-2.412943,-1.662411,1.044425,-1.357674,1.793240,1.084574,-0.551769,0.253251,0.017569,0.169007,-0.171473,-0.237841,0.322409,-0.273839,16.566206,34.726910,-21.346024,-2.063417,0.559781,1.539108,-0.116410,0.000000,0.000000,0.000000,0.000000,0.000000,0.000000
12596517.000000,-2.412640,-1.662402,1.044611,-1.357905,1.792944,1.084969,-0.552063,0.270797,0.012891,0.173805,-0.194156,-0.252641,0.348064,-0.281180,16.665388,34.679302,-21.223038,-1.964235,0.422452,1.695663,-0.116410,0.000000,0.000000,0.000000,0.000000,0.000000,0.000000
12596518.000000,-2.412312,-1.662396,1.044818,-1.358158,1.792631,1.085388,-0.552368,0.284298,0.009293,0.183816,-0.212019,-0.267420,0.377862,-0.292136,16.590010,34.651531,-21.246841,-1.817445,0.344633,1.747848,-0.070634,0.000000,0.000000,0.000000,0.000000,0.000000,0.000000
12596519.000000,-2.411974,-1.662393,1.045023,-1.358428,1.792305,1.085836,-0.552663,0.300118,0.006232,0.195969,-0.228965,-0.284389,0.396605,-0.297868,16.518599,34.651531,-21.100052,-1.642885,0.303434,1.754256,-0.064225,0.000000,0.000000,0.000000,0.000000,0.000000,0.000000
12596520.000000,-2.411624,-1.662389,1.045247,-1.358710,1.791957,1.086310,-0.552947,0.309213,0.004182,0.205077,-0.249241,-0.303263,0.423261,-0.291792,16.518599,34.651531,-21.024673,-1.496095,0.315336,1.682845,-0.122819,0.000000,0.000000,0.000000,0.000000,0.000000,0.000000
12596521.000000,-2.411255,-1.662384,1.045487,-1.359007,1.791586,1.086808,-0.553239,0.335174,0.003365,0.212030,-0.260940,-0.319442,0.449385,-0.290833,16.443220,34.627728,-20.953262,-1.396913,0.374845,1.559249,-0.089860,0.000000,0.000000,0.000000,0.000000,0.000000,0.000000
12596522.000000,-2.410882,-1.662383,1.045732,-1.359305,1.791202,1.087333,-0.553519,0.341883,0.002259,0.221205,-0.272933,-0.335685,0.473181,-0.289572,16.590010,34.627728,-20.905655,-1.396913,0.434354,1.481429,-0.070634,0.000000,0.000000,0.000000,0.000000,0.000000,0.000000
12596523.000000,-2.410494,-1.662384,1.045986,-1.359624,1.790797,1.087879,-0.553794,0.356378,0.000311,0.233166,-0.289952,-0.358304,0.502278,-0.285492,16.740767,34.679302,-20.830276,-1.420717,0.506681,1.448470,-0.130143,0.000000,0.000000,0.000000,0.000000,0.000000,0.000000
12596524.000000,-2.410101,-1.662382,1.046247,-1.359961,1.790384,1.088440,-0.554069,0.368483,0.000866,0.238386,-0.302728,-0.372586,0.515439,-0.280271,16.887556,34.651531,-20.707291,-1.420717,0.524076,1.448470,-0.110001,0.000000,0.000000,0.000000,0.000000,0.000000,0.000000
12596525.000000,-2.409695,-1.662381,1.046513,-1.360311,1.789955,1.089009,-0.554337,0.380921,-0.000066,0.246227,-0.323034,-0.390662,0.535970,-0.281458,17.109724,34.679302,-20.608109,-1.373109,0.506681,1.519881,-0.097184,0.000000,0.000000,0.000000,0.000000,0.000000,0.000000
12596526.000000,-2.409274,-1.662385,1.046793,-1.360678,1.789520,1.089593,-0.554608,0.391180,-0.001710,0.254582,-0.336083,-0.408914,0.543054,-0.275523,17.335859,34.750713,-20.512894,-1.273927,0.458158,1.565658,-0.130143,0.000000,0.000000,0.000000,0.000000,0.000000,0.000000
12596527.000000,-2.408842,-1.662382,1.047085,-1.361059,1.789062,1.090214,-0.554879,0.403633,-0.000022,0.267027,-0.351785,-0.427102,0.560357,-0.275358,17.506453,34.703106,-20.512894,-1.174745,0.405057,1.481429,-0.122819,0.000000,0.000000,0.000000,0.000000,0.000000,0.000000
12596528.000000,-2.408403,-1.662378,1.047384,-1.361453,1.788592,1.090861,-0.555146,0.411779,0.000545,0.276821,-0.367777,-0.436775,0.590065,-0.272983,17.827803,34.679302,-20.413712,-1.000185,0.374845,1.377059,-0.110001,0.000000,0.000000,0.000000,0.000000,0.000000,0.000000
12596529.000000,-2.407944,-1.662373,1.047695,-1.361873,1.788112,1.091504,-0.555408,0.428166,0.001572,0.289331,-0.381108,-0.447809,0.603532,-0.265311,18.026167,34.627728,-20.389908,-0.754213,0.308927,1.318465,-0.136552,0.000000,0.000000,0.000000,0.000000,0.000000,0.000000
12596530.000000,-2.407465,-1.662368,1.048015,-1.362294,1.787602,1.092173,-0.555671,0.442523,0.006212,0.299699,-0.394643,-0.464273,0.630591,-0.261263,18.248335,34.556316,-20.413712,-0.607423,0.356534,1.324874,-0.116410,0.000000,0.000000,0.000000,0.000000,0.000000,0.000000
12596531.000000,-2.406976,-1.662366,1.048338,-1.362735,1.787083,1.092852,-0.555931,0.455690,0.004434,0.308176,-0.411770,-0.499164,0.660926,-0.255502,18.545881,34.556316,-20.362137,-0.409059,0.440763,1.299239,-0.110001,0.000000,0.000000,0.000000,0.000000,0.000000,0.000000
12596532.000000,-2.406481,-1.662355,1.048674,-1.363190,1.786545,1.093564,-0.556179,0.469200,0.006052,0.318282,-0.423181,-0.511916,0.669748,-0.251469,18.795820,34.433331,-20.314529,-0.262270,0.470060,1.299239,-0.149369,0.000000,0.000000,0.000000,0.000000,0.000000,0.000000
12596533.000000,-2.405970,-1.662341,1.049030,-1.363651,1.785992,1.094295,-0.556435,0.480667,0.007633,0.327783,-0.438672,-0.525528,0.696989,-0.250722,19.093367,34.286541,-20.338333,-0.210695,0.506681,1.337692,-0.130143,0.000000,0.000000,0.000000,0.000000,0.000000,0.000000
12596534.000000,-2.405456,-1.662336,1.049398,-1.364134,1.785429,1.095030,-0.556682,0.489922,0.009182,0.341107,-0.444764,-0.541054,0.700823,-0.249215,19.414717,34.262737,-20.362137,-0.087709,0.535978,1.389877,-0.136552,0.000000,0.000000,0.000000,0.000000,0.000000,0.000000
12596535.000000,-2.404931,-1.662325,1.049773,-1.364623,1.784853,1.095801,-0.556933,0.499548,0.009375,0.352556,-0.461295,-0.550546,0.713821,-0.249382,19.859053,34.139751,-20.461319,-0.012331,0.530485,1.416427,-0.110001,0.000000,0.000000,0.000000,0.000000,0.000000,0.000000
12596536.000000,-2.404375,-1.662319,1.050163,-1.365131,1.784255,1.096589,-0.557176,0.517659,0.006533,0.365529,-0.475711,-0.563172,0.741191,-0.245571,20.132795,34.139751,-20.512894,0.035277,0.500272,1.422836,-0.169511,0.000000,0.000000,0.000000,0.000000,0.000000,0.000000
12596537.000000,-2.403817,-1.662310,1.050573,-1.365659,1.783662,1.097391,-0.557422,0.528492,0.006331,0.384480,-0.488032,-0.566130,0.751891,-0.253654,20.378767,34.064373,-20.631912,0.158263,0.440763,1.402694,-0.169511,0.000000,0.000000,0.000000,0.000000,0.000000,0.000000
12596538.000000,-2.403237,-1.662301,1.050994,-1.366187,1.783038,1.098238,-0.557674,0.545175,0.005493,0.399546,-0.502769,-0.577214,0.789301,-0.254144,20.624739,34.016766,-20.830276,0.233641,0.398649,1.272689,-0.103593,0.000000,0.000000,0.000000,0.000000,0.000000,0.000000
12596539.000000,-2.402653,-1.662286,1.051430,-1.366734,1.782417,1.099088,-0.557912,0.569754,0.006101,0.410913,-0.513680,-0.587596,0.804723,-0.250394,20.898481,33.917583,-21.076248,0.257445,0.362943,1.175643,-0.136552,0.000000,0.000000,0.000000,0.000000,0.000000,0.000000
12596540.000000,-2.402051,-1.662270,1.051862,-1.367288,1.781760,1.099956,-0.558153,0.578700,0.010390,0.419312,-0.529292,-0.605280,0.818304,-0.249575,21.196028,33.794598,-21.147659,0.257445,0.351041,1.207687,-0.130143,0.000000,0.000000,0.000000,0.000000,0.000000,0.000000
12596541.000000,-2.401435,-1.662255,1.052322,-1.367853,1.781094,1.100852,-0.558390,0.587155,0.013524,0.431853,-0.539913,-0.623072,0.847154,-0.242923,21.541182,33.675579,-21.369827,0.209837,0.344633,1.247054,-0.130143,0.000000,0.000000,0.000000,0.000000,0.000000,0.000000
12596542.000000,-2.400803,-1.662247,1.052794,-1.368436,1.780406,1.101757,-0.558631,0.597950,0.013188,0.443228,-0.549829,-0.644599,0.857267,-0.238872,21.739546,33.675579,-21.540421,0.110655,0.422452,1.240646,-0.136552,0.000000,0.000000,0.000000,0.000000,0.000000,0.000000
12596543.000000,-2.400157,-1.662230,1.053259,-1.369013,1.779711,1.102691,-0.558865,0.609691,0.011826,0.449909,-0.553887,-0.660346,0.897836,-0.235981,22.013288,33.576397,-21.639603,0.011473,0.410551,1.272689,-0.136552,0.000000,0.000000,0.000000,0.000000,0.000000,0.000000
12596544.000000,-2.399478,-1.662219,1.053751,-1.369624,1.779006,1.103621,-0.559097,0.632485,0.012475,0.459640,-0.569862,-0.670193,0.896541,-0.233090,22.112471,33.552593,-21.837967,0.110655,0.547880,1.299239,-0.130143,0.000000,0.000000,0.000000,0.000000,0.000000,0.000000
12596545.000000,-2.398788,-1.662206,1.054237,-1.370249,1.778286,1.104593,-0.559324,0.653083,0.013707,0.469543,-0.586448,-0.682505,0.909665,-0.230329,22.187849,33.501019,-21.960953,0.257445,0.709928,1.299239,-0.163102,0.000000,0.000000,0.000000,0.000000,0.000000,0.000000
12596547.000000,-2.397364,-1.662191,1.055251,-1.371504,1.776880,1.106602,-0.559795,0.680693,0.011109,0.487395,-0.602622,-0.683325,0.955928,-0.229922,22.457624,33.600201,-22.155350,0.578795,0.954374,1.247054,-0.130143,0.000000,0.000000,0.000000,0.000000,0.000000,0.000000
12596548.000000,-2.396633,-1.662183,1.055772,-1.372147,1.776189,1.107642,-0.560018,0.683422,0.010742,0.500288,-0.619787,-0.685635,0.999087,-0.225394,22.211653,33.647808,-22.155350,0.531187,0.996488,1.279098,-0.208878,0.000000,0.000000,0.000000,0.000000,0.000000,0.000000
12596549.000000,-2.395887,-1.662185,1.056309,-1.372819,1.775506,1.108696,-0.560250,0.694674,0.005777,0.509682,-0.634006,-0.695380,1.029836,-0.227022,21.295210,33.893780,-22.056168,0.285216,0.918668,1.396285,-0.169511,0.000000,0.000000,0.000000,0.000000,0.000000,0.000000
12596550.000000,-2.395159,-1.662185,1.056861,-1.373499,1.774808,1.109754,-0.560474,0.708600,0.002761,0.522437,-0.644275,-0.695710,1.035877,-0.227553,20.204206,34.139751,-21.861771,-0.357485,0.918668,1.519881,-0.155778,0.000000,0.000000,0.000000,0.000000,0.000000,0.000000
12596551.000000,-2.394400,-1.662188,1.057431,-1.374185,1.774134,1.110841,-0.560697,0.722341,-0.002834,0.536031,-0.660738,-0.682709,1.054616,-0.226750,18.819624,34.385723,-21.568192,-1.075563,0.721830,1.591293,-0.169511,0.000000,0.000000,0.000000,0.000000,0.000000,0.000000
12596552.000000,-2.393650,-1.662189,1.058011,-1.374908,1.773464,1.111930,-0.560926,0.724886,-0.003865,0.545780,-0.670853,-0.682226,1.055654,-0.229038,17.109724,34.504742,-21.100052,-1.718263,0.584501,1.695663,-0.110001,0.000000,0.000000,0.000000,0.000000,0.000000,0.000000
12596553.000000,-2.392884,-1.662185,1.058613,-1.375650,1.772785,1.113054,-0.561138,0.725851,-0.002663,0.568701,-0.696822,-0.672242,1.062080,-0.221958,14.411969,34.385723,-20.461319,-2.190370,0.470060,1.747848,-0.155778,0.000000,0.000000,0.000000,0.000000,0.000000,0.000000
12596554.000000,-2.392125,-1.662179,1.059256,-1.376413,1.772099,1.114229,-0.561358,0.731896,-0.000518,0.590614,-0.715153,-0.671871,1.103214,-0.223903,10.825543,34.040569,-19.628189,-2.781496,0.369352,1.532699,-0.122819,0.000000,0.000000,0.000000,0.000000,0.000000,0.000000
12596555.000000,-2.391393,-1.662171,1.059923,-1.377178,1.771425,1.115401,-0.561574,0.738570,0.001947,0.621557,-0.727526,-0.667478,1.123090,-0.218606,7.112165,33.477215,-18.596695,-3.225832,0.315336,1.364242,-0.155778,0.000000,0.000000,0.000000,0.000000,0.000000,0.000000
12596556.000000,-2.390659,-1.662180,1.060591,-1.377911,1.770758,1.116588,-0.561790,0.744298,0.002416,0.631054,-0.727188,-0.655570,1.150520,-0.216533,3.866926,33.088421,-17.541397,-3.697939,0.195402,1.364242,-0.136552,0.000000,0.000000,0.000000,0.000000,0.000000,0.000000
12596557.000000,-2.389940,-1.662199,1.061280,-1.378643,1.770124,1.117771,-0.562011,0.760098,-0.002710,0.644856,-0.723191,-0.652127,1.154592,-0.214932,1.343732,32.913860,-16.632889,-3.920107,0.064481,1.461288,-0.110001,0.000000,0.000000,0.000000,0.000000,0.000000,0.000000
12596558.000000,-2.389236,-1.662227,1.061962,-1.379343,1.769477,1.118975,-0.562223,0.742451,-0.009360,0.655354,-0.712010,-0.645150,1.164085,-0.210617,-0.290789,32.866253,-15.823563,-4.142274,0.052579,1.656295,-0.175919,0.000000,0.000000,0.000000,0.000000,0.000000,0.000000
12596559.000000,-2.388521,-1.662267,1.062662,-1.380047,1.768829,1.120208,-0.562447,0.733319,-0.018436,0.668736,-0.703991,-0.643237,1.189744,-0.215844,-1.504779,33.013042,-15.284012,-4.213686,0.147794,1.721298,-0.142960,0.000000,0.000000,0.000000,0.000000,0.000000,0.000000
12596560.000000,-2.387809,-1.662313,1.063367,-1.380754,1.768193,1.121442,-0.562660,0.729715,-0.028709,0.676126,-0.696936,-0.637012,1.196864,-0.211867,-2.445025,33.183636,-14.768265,-4.066896,0.249418,1.578475,-0.182328,0.000000,0.000000,0.000000,0.000000,0.000000,0.000000
12596561.000000,-2.387088,-1.662365,1.064061,-1.381447,1.767555,1.122700,-0.562874,0.724563,-0.037022,0.678662,-0.696084,-0.638886,1.224965,-0.211212,-3.210711,33.405804,-14.399307,-3.820925,0.434354,1.305648,-0.175919,0.000000,0.000000,0.000000,0.000000,0.000000,0.000000
12596562.000000,-2.386363,-1.662418,1.064768,-1.382146,1.766925,1.123937,-0.563096,0.721865,-0.045817,0.682757,-0.699482,-0.650182,1.244999,-0.215992,-3.782000,33.600201,-14.081924,-3.475771,0.596403,1.045638,-0.136552,0.000000,0.000000,0.000000,0.000000,0.000000,0.000000
12596563.000000,-2.385649,-1.662470,1.065455,-1.382842,1.766310,1.125178,-0.563304,0.717205,-0.043691,0.685125,-0.702916,-0.648319,1.234038,-0.210524,-4.325518,33.723186,-13.689163,-3.102846,0.644010,0.954086,-0.188737,0.000000,0.000000,0.000000,0.000000,0.000000,0.000000
12596564.000000,-2.384932,-1.662504,1.066142,-1.383512,1.765686,1.126409,-0.563525,0.708885,-0.039013,0.684989,-0.689159,-0.636976,1.243142,-0.212190,-4.698443,33.576397,-13.074234,-2.880678,0.667814,0.980636,-0.130143,0.000000,0.000000,0.000000,0.000000,0.000000,0.000000
12596565.000000,-2.384236,-1.662541,1.066840,-1.384179,1.765103,1.127616,-0.563737,0.701974,-0.036021,0.684896,-0.676855,-0.625496,1.227199,-0.215452,-4.797625,33.429607,-12.606094,-2.757692,0.482877,1.071273,-0.136552,0.000000,0.000000,0.000000,0.000000,0.000000,0.000000
12596566.000000,-2.383530,-1.662560,1.067528,-1.384819,1.764519,1.128827,-0.563937,0.700032,-0.028895,0.686200,-0.666578,-0.606466,1.216107,-0.212181,-4.968218,33.060650,-12.066544,-2.928285,0.273221,1.214095,-0.175919,0.000000,0.000000,0.000000,0.000000,0.000000,0.000000
12596567.000000,-2.382823,-1.662560,1.068229,-1.385468,1.763933,1.130034,-0.564147,0.698305,-0.017991,0.688053,-0.664273,-0.602711,1.219311,-0.210810,-5.095171,32.425884,-11.602371,-3.003664,0.159696,1.422836,-0.163102,0.000000,0.000000,0.000000,0.000000,0.000000,0.000000
12596568.000000,-2.382132,-1.662547,1.068920,-1.386123,1.763357,1.131226,-0.564355,0.697458,-0.005113,0.687120,-0.659581,-0.591901,1.211994,-0.217252,-5.218157,31.691936,-11.158035,-2.979860,0.093778,1.494247,-0.188737,0.000000,0.000000,0.000000,0.000000,0.000000,0.000000
12596569.000000,-2.381421,-1.662526,1.069631,-1.386776,1.762774,1.132453,-0.564567,0.698944,0.005140,0.692720,-0.654670,-0.588254,1.226073,-0.216533,-5.487933,30.906414,-10.816849,-2.781496,0.171598,1.324874,-0.149369,0.000000,0.000000,0.000000,0.000000,0.000000,0.000000
12596570.000000,-2.380732,-1.662493,1.070361,-1.387432,1.762192,1.133668,-0.564773,0.706138,0.014354,0.701768,-0.646398,-0.585965,1.223878,-0.212935,-5.587115,30.025677,-10.717667,-2.634706,0.261320,1.117049,-0.182328,0.000000,0.000000,0.000000,0.000000,0.000000,0.000000
12596571.000000,-2.380042,-1.662453,1.071088,-1.388074,1.761621,1.134902,-0.564981,0.700600,0.026907,0.707634,-0.644762,-0.579210,1.220090,-0.212001,-5.563311,29.168743,-10.594681,-2.535524,0.231107,0.869857,-0.175919,0.000000,0.000000,0.000000,0.000000,0.000000,0.000000
12596572.000000,-2.379357,-1.662415,1.071840,-1.388700,1.761039,1.136129,-0.565187,0.695499,0.033075,0.717015,-0.636781,-0.575845,1.230384,-0.206585,-5.392718,28.434795,-10.618484,-2.706117,0.237516,0.687667,-0.155778,0.000000,0.000000,0.000000,0.000000,0.000000,0.000000
12596573.000000,-2.378696,-1.662377,1.072584,-1.389312,1.760475,1.137335,-0.565381,0.688003,0.035375,0.719590,-0.624194,-0.568201,1.222068,-0.200886,-5.118975,27.800030,-10.277298,-3.055238,0.237516,0.648299,-0.196061,0.000000,0.000000,0.000000,0.000000,0.000000,0.000000
12596574.000000,-2.378026,-1.662347,1.073326,-1.389912,1.759913,1.138534,-0.565586,0.677834,0.032185,0.722042,-0.614996,-0.562904,1.229415,-0.203967,-4.845232,27.383465,-10.078934,-3.448000,0.147794,0.850631,-0.155778,0.000000,0.000000,0.000000,0.000000,0.000000,0.000000
12596575.000000,-2.377353,-1.662319,1.074087,-1.390525,1.759369,1.139713,-0.565780,0.672145,0.029231,0.732131,-0.611967,-0.556491,1.201461,-0.198619,-4.698443,27.014507,-9.884537,-3.670168,0.081876,1.096908,-0.188737,0.000000,0.000000,0.000000,0.000000,0.000000,0.000000
12596576.000000,-2.376675,-1.662295,1.074839,-1.391133,1.758814,1.140944,-0.565976,0.673908,0.027993,0.736547,-0.613023,-0.557091,1.205623,-0.196885,-4.797625,26.772503,-9.638565,-3.797121,0.027860,0.999862,-0.169511,0.000000,0.000000,0.000000,0.000000,0.000000,0.000000
12596577.000000,-2.375979,-1.662276,1.075612,-1.391750,1.758254,1.142197,-0.566174,0.679917,0.025489,0.744500,-0.612252,-0.555185,1.227032,-0.194576,-5.043597,26.625713,-9.344986,-3.721742,0.046171,0.746261,-0.149369,0.000000,0.000000,0.000000,0.000000,0.000000,0.000000
12596578.000000,-2.375281,-1.662260,1.076406,-1.392367,1.757709,1.143429,-0.566362,0.687439,0.020025,0.752298,-0.605468,-0.560596,1.230256,-0.191369,-5.464129,26.502728,-9.245804,-3.646364,0.117582,0.492660,-0.196061,0.000000,0.000000,0.000000,0.000000,0.000000,0.000000
12596579.000000,-2.374582,-1.662253,1.077197,-1.392972,1.757156,1.144666,-0.566550,0.687453,0.012909,0.764589,-0.609097,-0.560182,1.247900,-0.186908,-5.761675,26.526531,-9.146622,-3.547182,0.117582,0.421249,-0.175919,0.000000,0.000000,0.000000,0.000000,0.000000,0.000000
12596580.000000,-2.373887,-1.662251,1.077998,-1.393561,1.756612,1.145872,-0.566746,0.689450,0.009644,0.770697,-0.605426,-0.564769,1.252095,-0.187351,-5.983843,26.625713,-8.999832,-3.697939,0.154203,0.505477,-0.149369,0.000000,0.000000,0.000000,0.000000,0.000000,0.000000
12596581.000000,-2.373201,-1.662252,1.078795,-1.394125,1.756064,1.147097,-0.566929,0.690570,0.003891,0.780113,-0.592835,-0.550248,1.239581,-0.185891,-6.182208,26.748699,-8.829239,-4.066896,0.141385,0.603439,-0.196061,0.000000,0.000000,0.000000,0.000000,0.000000,0.000000
12596582.000000,-2.372514,-1.662256,1.079620,-1.394694,1.755525,1.148315,-0.567128,0.683841,0.002876,0.789183,-0.585181,-0.538937,1.240829,-0.188260,-6.305193,26.895489,-8.777664,-4.487428,0.117582,0.830489,-0.155778,0.000000,0.000000,0.000000,0.000000,0.000000,0.000000
12596583.000000,-2.371821,-1.662253,1.080463,-1.395261,1.754994,1.149505,-0.567316,0.685561,0.001839,0.802318,-0.572584,-0.539307,1.215132,-0.186828,-6.626544,26.919292,-8.853043,-4.884157,0.076383,1.096908,-0.196061,0.000000,0.000000,0.000000,0.000000,0.000000,0.000000
12596584.000000,-2.371123,-1.662251,1.081299,-1.395831,1.754468,1.150721,-0.567506,0.684385,0.001028,0.810332,-0.572935,-0.527471,1.207734,-0.188511,-6.876482,26.943096,-8.853043,-4.955568,-0.013339,1.169235,-0.155778,0.000000,0.000000,0.000000,0.000000,0.000000,0.000000
12596585.000000,-2.370416,-1.662246,1.082166,-1.396396,1.753938,1.151965,-0.567692,0.691403,0.001512,0.825129,-0.570132,-0.526874,1.223145,-0.188083,-7.297015,26.919292,-8.952225,-5.030946,-0.043551,0.987045,-0.163102,0.000000,0.000000,0.000000,0.000000,0.000000,0.000000
12596586.000000,-2.369707,-1.662243,1.083023,-1.396969,1.753413,1.153185,-0.567874,0.697980,0.001767,0.850695,-0.571179,-0.522947,1.219459,-0.191461,-7.792925,26.895489,-8.999832,-4.955568,-0.031649,0.804855,-0.175919,0.000000,0.000000,0.000000,0.000000,0.000000,0.000000
12596587.000000,-2.368989,-1.662230,1.083901,-1.397524,1.752897,1.154402,-0.568063,0.700527,0.004206,0.860716,-0.570536,-0.523552,1.224378,-0.192044,-8.388019,26.772503,-8.952225,-4.931764,-0.031649,0.792037,-0.142960,0.000000,0.000000,0.000000,0.000000,0.000000,0.000000
12596588.000000,-2.368284,-1.662221,1.084786,-1.398083,1.752376,1.155585,-0.568246,0.715106,0.008088,0.862826,-0.559670,-0.522019,1.211368,-0.189657,-8.879962,26.697124,-8.853043,-4.884157,0.027860,0.895492,-0.182328,0.000000,0.000000,0.000000,0.000000,0.000000,0.000000
12596589.000000,-2.367569,-1.662211,1.085665,-1.398630,1.751865,1.156803,-0.568427,0.713694,0.011570,0.862029,-0.549119,-0.514235,1.199318,-0.189901,-9.352069,26.597942,-8.607071,-4.907960,0.040677,0.850631,-0.175919,0.000000,0.000000,0.000000,0.000000,0.000000,0.000000
12596590.000000,-2.366843,-1.662203,1.086575,-1.399178,1.751347,1.158019,-0.568609,0.715744,0.009952,0.874287,-0.552124,-0.516919,1.214771,-0.185010,-9.970965,26.526531,-8.583267,-5.054750,0.034269,0.817672,-0.169511,0.000000,0.000000,0.000000,0.000000,0.000000,0.000000
12596591.000000,-2.366129,-1.662199,1.087497,-1.399727,1.750848,1.159213,-0.568784,0.715095,0.009875,0.886817,-0.547950,-0.513830,1.207912,-0.179990,-10.466876,26.550335,-8.460281,-5.106325,0.010465,0.869857,-0.202470,0.000000,0.000000,0.000000,0.000000,0.000000,0.000000
12596592.000000,-2.365400,-1.662198,1.088412,-1.400276,1.750347,1.160413,-0.568965,0.715315,0.004864,0.901965,-0.545902,-0.511904,1.224097,-0.179769,-11.058002,26.649517,-8.361099,-5.007143,0.022367,0.947677,-0.142960,0.000000,0.000000,0.000000,0.000000,0.000000,0.000000
12596593.000000,-2.364665,-1.662195,1.089358,-1.400833,1.749851,1.161599,-0.569142,0.716969,0.004791,0.909475,-0.551161,-0.510121,1.210345,-0.180616,-11.653094,26.748699,-8.412674,-4.832582,-0.007845,1.031905,-0.169511,0.000000,0.000000,0.000000,0.000000,0.000000,0.000000
12596594.000000,-2.363946,-1.662201,1.090310,-1.401379,1.749357,1.162801,-0.569318,0.716498,-0.001288,0.925404,-0.548859,-0.500016,1.208524,-0.177295,-12.172809,26.966900,-8.559464,-4.685792,-0.019747,1.025497,-0.188737,0.000000,0.000000,0.000000,0.000000,0.000000,0.000000
12596595.000000,-2.363220,-1.662206,1.091268,-1.401936,1.748850,1.164008,-0.569494,0.718478,-0.000924,0.933069,-0.551058,-0.500530,1.222937,-0.179676,-12.593341,27.137493,-8.559464,-4.487428,-0.049044,1.006271,-0.202470,0.000000,0.000000,0.000000,0.000000,0.000000,0.000000
12596596.000000,-2.362510,-1.662213,1.092249,-1.402472,1.748364,1.165191,-0.569674,0.713815,-0.003968,0.942732,-0.543296,-0.493518,1.213341,-0.176753,-12.942462,27.308086,-8.607071,-4.586610,-0.049044,0.966903,-0.208878,0.000000,0.000000,0.000000,0.000000,0.000000,0.000000
12596597.000000,-2.361802,-1.662220,1.093220,-1.402993,1.747870,1.166384,-0.569857,0.707506,-0.005044,0.955877,-0.534170,-0.497952,1.231852,-0.177684,-13.188434,27.431072,-8.630875,-4.808778,-0.001437,1.071273,-0.136552,0.000000,0.000000,0.000000,0.000000,0.000000,0.000000
12596598.000000,-2.361089,-1.662230,1.094194,-1.403526,1.747386,1.167553,-0.570020,0.705706,-0.013310,0.955455,-0.529393,-0.501294,1.236418,-0.171505,-13.386798,27.577862,-8.436478,-4.955568,-0.037142,1.182052,-0.235429,0.000000,0.000000,0.000000,0.000000,0.000000,0.000000
12596599.000000,-2.360391,-1.662234,1.095171,-1.404055,1.746895,1.168737,-0.570195,0.701859,-0.009177,0.965319,-0.530884,-0.496546,1.217815,-0.175606,-13.608966,27.577862,-8.289688,-5.130128,0.034269,1.285506,-0.182328,0.000000,0.000000,0.000000,0.000000,0.000000,0.000000
12596600.000000,-2.359691,-1.662245,1.096159,-1.404572,1.746395,1.169925,-0.570365,0.696407,-0.008109,0.966682,-0.526947,-0.495451,1.220736,-0.174328,-13.783526,27.653240,-7.992142,-5.304689,0.064481,1.259872,-0.175919,0.000000,0.000000,0.000000,0.000000,0.000000,0.000000
12596601.000000,-2.358996,-1.662253,1.097174,-1.405091,1.745914,1.171112,-0.570531,0.695801,-0.006690,0.976794,-0.519154,-0.490377,1.203061,-0.166981,-14.005694,27.700848,-7.797745,-5.499086,0.093778,1.123458,-0.215287,0.000000,0.000000,0.000000,0.000000,0.000000,0.000000
12596602.000000,-2.358299,-1.662255,1.098176,-1.405604,1.745443,1.172313,-0.570696,0.698043,-0.006952,0.988752,-0.520673,-0.483150,1.192770,-0.163970,-14.227862,27.653240,-7.527969,-5.574464,0.046171,0.934859,-0.196061,0.000000,0.000000,0.000000,0.000000,0.000000,0.000000
12596603.000000,-2.357607,-1.662253,1.099198,-1.406122,1.744972,1.173518,-0.570862,0.689846,-0.007288,0.993486,-0.518491,-0.471758,1.199388,-0.165171,-14.279437,27.601665,-7.281998,-5.673646,-0.049044,0.785628,-0.196061,0.000000,0.000000,0.000000,0.000000,0.000000,0.000000
12596604.000000,-2.356944,-1.662263,1.100215,-1.406630,1.744513,1.174705,-0.571029,0.683612,-0.007758,1.020625,-0.513519,-0.465179,1.188568,-0.171123,-14.180255,27.700848,-7.036026,-5.895814,-0.097567,0.662032,-0.169511,0.000000,0.000000,0.000000,0.000000,0.000000,0.000000
12596605.000000,-2.356276,-1.662262,1.101252,-1.407124,1.744053,1.175895,-0.571192,0.674114,-0.005049,1.031701,-0.506759,-0.458984,1.189705,-0.170465,-14.053302,27.677044,-6.790054,-6.141786,-0.162570,0.687667,-0.175919,0.000000,0.000000,0.000000,0.000000,0.000000,0.000000
12596606.000000,-2.355616,-1.662257,1.102310,-1.407616,1.743601,1.177063,-0.571349,0.679013,-0.001929,1.032644,-0.500462,-0.457507,1.163905,-0.169543,-13.981891,27.601665,-6.694839,-6.514711,-0.174471,0.771896,-0.196061,0.000000,0.000000,0.000000,0.000000,0.000000,0.000000
12596607.000000,-2.354956,-1.662251,1.103367,-1.408096,1.743158,1.178257,-0.571509,0.669137,0.000697,1.039227,-0.490400,-0.445331,1.162006,-0.169992,-13.858905,27.506451,-6.643265,-6.812257,-0.222994,0.811263,-0.188737,0.000000,0.000000,0.000000,0.000000,0.000000,0.000000
12596608.000000,-2.354290,-1.662239,1.104451,-1.408576,1.742709,1.179469,-0.571670,0.664498,0.004922,1.052828,-0.483849,-0.446367,1.176466,-0.165131,-13.858905,27.308086,-6.667068,-7.082033,-0.258700,0.687667,-0.188737,0.000000,0.000000,0.000000,0.000000,0.000000,0.000000
12596609.000000,-2.353639,-1.662224,1.105542,-1.409055,1.742254,1.180675,-0.571831,0.658912,0.008248,1.058266,-0.477896,-0.447737,1.182436,-0.161109,-13.858905,27.089886,-6.667068,-7.328004,-0.145175,0.532027,-0.202470,0.000000,0.000000,0.000000,0.000000,0.000000,0.000000
12596610.000000,-2.352980,-1.662212,1.106635,-1.409523,1.741817,1.181880,-0.571994,0.660545,0.008829,1.069438,-0.475103,-0.445562,1.195676,-0.164467,-13.882709,26.943096,-6.766251,-7.454957,-0.204684,0.473434,-0.175919,0.000000,0.000000,0.000000,0.000000,0.000000,0.000000
12596611.000000,-2.352322,-1.662198,1.107745,-1.410008,1.741371,1.183074,-0.572151,0.655898,0.010356,1.082347,-0.475692,-0.447501,1.185544,-0.160265,-13.882709,26.748699,-6.742447,-7.427186,-0.199191,0.453292,-0.188737,0.000000,0.000000,0.000000,0.000000,0.000000,0.000000
12596612.000000,-2.351680,-1.662185,1.108844,-1.410471,1.740922,1.184267,-0.572315,0.651213,0.010373,1.086403,-0.475424,-0.445787,1.181075,-0.159621,-13.858905,26.597942,-6.643265,-7.554140,-0.145175,0.538436,-0.142960,0.000000,0.000000,0.000000,0.000000,0.000000,0.000000
12596613.000000,-2.351042,-1.662176,1.109958,-1.410931,1.740489,1.185469,-0.572461,0.640278,0.013111,1.088581,-0.468559,-0.444863,1.195765,-0.155634,-13.708148,26.478924,-6.397293,-7.724733,-0.216586,0.635482,-0.188737,0.000000,0.000000,0.000000,0.000000,0.000000,0.000000
12596614.000000,-2.350412,-1.662161,1.111095,-1.411389,1.740055,1.186658,-0.572611,0.638169,0.013636,1.102324,-0.460952,-0.439412,1.191281,-0.153499,-13.608966,26.280560,-6.202896,-7.946901,-0.287997,0.648299,-0.215287,0.000000,0.000000,0.000000,0.000000,0.000000,0.000000
12596615.000000,-2.349772,-1.662146,1.112234,-1.411833,1.739622,1.187865,-0.572770,0.638072,0.013829,1.114061,-0.456225,-0.431259,1.188707,-0.156085,-13.585162,26.086163,-6.226700,-8.196840,-0.324618,0.687667,-0.136552,0.000000,0.000000,0.000000,0.000000,0.000000,0.000000
12596616.000000,-2.349131,-1.662129,1.113407,-1.412294,1.739204,1.189059,-0.572911,0.632141,0.013910,1.132298,-0.456015,-0.439572,1.205237,-0.150765,-13.561358,25.891766,-6.325882,-8.292055,-0.438143,0.622665,-0.235429,0.000000,0.000000,0.000000,0.000000,0.000000,0.000000
12596617.000000,-2.348495,-1.662123,1.114584,-1.412758,1.738767,1.190262,-0.573066,0.636923,0.011145,1.150605,-0.456347,-0.435918,1.205367,-0.155514,-13.684344,25.816387,-6.544083,-8.244448,-0.384127,0.609847,-0.196061,0.000000,0.000000,0.000000,0.000000,0.000000,0.000000
12596618.000000,-2.347858,-1.662111,1.115793,-1.413224,1.738340,1.191458,-0.573222,0.636341,0.009831,1.166044,-0.459075,-0.432059,1.208159,-0.156925,-13.684344,25.717205,-6.865433,-8.069887,-0.336520,0.662032,-0.130143,0.000000,0.000000,0.000000,0.000000,0.000000,0.000000
12596619.000000,-2.347226,-1.662110,1.117029,-1.413685,1.737925,1.192626,-0.573362,0.649702,0.009977,1.178349,-0.459842,-0.427590,1.190808,-0.152390,-13.831134,25.717205,-7.404984,-7.998476,-0.342013,0.752670,-0.208878,0.000000,0.000000,0.000000,0.000000,0.000000,0.000000
12596620.000000,-2.346593,-1.662109,1.118245,-1.414145,1.737496,1.193806,-0.573512,0.644961,0.006328,1.189437,-0.458923,-0.427141,1.172891,-0.149514,-13.882709,25.744976,-7.650955,-7.923097,-0.258700,0.850631,-0.142960,0.000000,0.000000,0.000000,0.000000,0.000000,0.000000
12596621.000000,-2.345962,-1.662111,1.119489,-1.414605,1.737087,1.194995,-0.573653,0.637282,0.002792,1.200651,-0.459671,-0.418605,1.189310,-0.144127,-13.882709,25.816387,-7.845352,-7.899293,-0.282504,0.889083,-0.163102,0.000000,0.000000,0.000000,0.000000,0.000000,0.000000
12596622.000000,-2.345343,-1.662111,1.120747,-1.415064,1.736672,1.196168,-0.573786,0.630017,0.000931,1.238211,-0.459022,-0.418220,1.177939,-0.143486,-13.954120,25.863995,-7.992142,-7.899293,-0.258700,0.869857,-0.229020,0.000000,0.000000,0.000000,0.000000,0.000000,0.000000
12596623.000000,-2.344716,-1.662119,1.121987,-1.415527,1.736250,1.197337,-0.573934,0.629580,-0.002119,1.239071,-0.463797,-0.418721,1.189806,-0.143807,-14.029498,25.986980,-7.992142,-7.823915,-0.199191,0.999862,-0.149369,0.000000,0.000000,0.000000,0.000000,0.000000,0.000000
12596624.000000,-2.344092,-1.662128,1.123247,-1.415999,1.735856,1.198489,-0.574068,0.625219,-0.002417,1.238713,-0.462538,-0.407109,1.179975,-0.137051,-14.053302,26.185345,-7.968338,-7.677125,-0.222994,1.077682,-0.221696,0.000000,0.000000,0.000000,0.000000,0.000000,0.000000
12596625.000000,-2.343470,-1.662145,1.124478,-1.416471,1.735444,1.199674,-0.574210,0.630389,-0.002632,1.232348,-0.465222,-0.409217,1.183130,-0.140189,-14.029498,26.697124,-8.019913,-7.526369,-0.216586,1.031905,-0.235429,0.000000,0.000000,0.000000,0.000000,0.000000,0.000000
12596626.000000,-2.342852,-1.662174,1.125721,-1.416944,1.735030,1.200876,-0.574359,0.625678,-0.009613,1.226163,-0.469000,-0.411057,1.197552,-0.144701,-13.783526,27.677044,-8.484085,-7.403383,-0.192782,0.915633,-0.188737,0.000000,0.000000,0.000000,0.000000,0.000000,0.000000
12596627.000000,-2.342253,-1.662193,1.126961,-1.417417,1.734646,1.202060,-0.574508,0.621910,-0.008824,1.220370,-0.463393,-0.399579,1.196424,-0.147876,-13.311419,28.752178,-9.293411,-7.355775,-0.270602,0.817672,-0.142960,0.000000,0.000000,0.000000,0.000000,0.000000,0.000000
12596628.000000,-2.341646,-1.662215,1.128176,-1.417886,1.734256,1.203253,-0.574642,0.614032,-0.015830,1.219709,-0.466609,-0.392448,1.192447,-0.141549,-12.767901,30.049480,-10.301102,-7.280397,-0.294406,0.843307,-0.202470,0.000000,0.000000,0.000000,0.000000,0.000000,0.000000
12596629.000000,-2.341042,-1.662234,1.129404,-1.418339,1.733857,1.204432,-0.574786,0.609444,-0.015058,1.221404,-0.460206,-0.401077,1.190250,-0.139436,-12.149005,31.422161,-11.431778,-7.454957,-0.157076,0.922042,-0.188737,0.000000,0.000000,0.000000,0.000000,0.000000,0.000000
12596630.000000,-2.340440,-1.662246,1.130607,-1.418795,1.733458,1.205620,-0.574928,0.606043,-0.016244,1.218865,-0.460447,-0.396358,1.185961,-0.139001,-11.704669,32.644085,-12.459305,-7.577943,0.010465,1.129867,-0.149369,0.000000,0.000000,0.000000,0.000000,0.000000,0.000000
12596631.000000,-2.339823,-1.662245,1.131833,-1.419252,1.733064,1.206811,-0.575059,0.605816,-0.011467,1.217690,-0.455695,-0.395575,1.201778,-0.134942,-11.407123,33.624004,-13.514603,-7.677125,0.141385,1.383468,-0.208878,0.000000,0.000000,0.000000,0.000000,0.000000,0.000000
12596632.000000,-2.339224,-1.662239,1.133080,-1.419711,1.732679,1.207980,-0.575204,0.604560,-0.005699,1.227358,-0.452821,-0.392211,1.188610,-0.140165,-11.157184,34.357952,-14.669083,-7.800111,0.195402,1.624252,-0.182328,0.000000,0.000000,0.000000,0.000000,0.000000,0.000000
12596633.000000,-2.338611,-1.662236,1.134293,-1.420164,1.732296,1.209178,-0.575344,0.603117,-0.001489,1.223610,-0.454192,-0.383479,1.180953,-0.142952,-11.034198,35.068096,-15.478409,-7.847719,0.231107,1.617843,-0.182328,0.000000,0.000000,0.000000,0.000000,0.000000,0.000000
12596634.000000,-2.337990,-1.662235,1.135520,-1.420623,1.731908,1.210361,-0.575479,0.606610,-0.000440,1.219742,-0.454730,-0.384727,1.197175,-0.138493,-11.010394,35.706829,-16.093338,-7.899293,0.320829,1.546432,-0.221696,0.000000,0.000000,0.000000,0.000000,0.000000,0.000000
12596635.000000,-2.337392,-1.662231,1.136746,-1.421090,1.731535,1.211539,-0.575620,0.604992,0.003238,1.220594,-0.460855,-0.379119,1.187494,-0.138775,-10.935016,36.194805,-16.708267,-7.823915,0.243009,1.611434,-0.175919,0.000000,0.000000,0.000000,0.000000,0.000000,0.000000
12596636.000000,-2.336792,-1.662225,1.137994,-1.421540,1.731172,1.212716,-0.575753,0.603692,0.004778,1.231982,-0.460216,-0.372790,1.184908,-0.139661,-10.788226,36.563763,-17.247818,-7.847719,0.117582,1.676437,-0.221696,0.000000,0.000000,0.000000,0.000000,0.000000,0.000000
12596637.000000,-2.336205,-1.662230,1.139251,-1.421976,1.730820,1.213885,-0.575897,0.605060,0.003389,1.232966,-0.453409,-0.366270,1.170419,-0.138456,-10.665240,37.004131,-17.711990,-8.097658,0.027860,1.552840,-0.202470,0.000000,0.000000,0.000000,0.000000,0.000000,0.000000
12596638.000000,-2.335637,-1.662245,1.140508,-1.422396,1.730451,1.215059,-0.576036,0.590655,0.001097,1.243130,-0.445547,-0.366508,1.157547,-0.138620,-10.193133,37.492107,-18.279312,-8.419008,-0.037142,1.519881,-0.155778,0.000000,0.000000,0.000000,0.000000,0.000000,0.000000
12596639.000000,-2.335068,-1.662261,1.141800,-1.422800,1.730085,1.216219,-0.576167,0.582666,-0.003081,1.248671,-0.431885,-0.362960,1.160112,-0.130369,-9.796405,37.932476,-19.037064,-8.962526,-0.085665,1.617843,-0.182328,0.000000,0.000000,0.000000,0.000000,0.000000,0.000000
12596640.000000,-2.334522,-1.662293,1.143105,-1.423198,1.729726,1.217348,-0.576302,0.566876,-0.009680,1.261411,-0.416601,-0.361508,1.141129,-0.131084,-9.375873,38.519634,-19.751175,-9.482241,-0.103060,1.871444,-0.175919,0.000000,0.000000,0.000000,0.000000,0.000000,0.000000
12596641.000000,-2.333975,-1.662331,1.144393,-1.423582,1.729355,1.218498,-0.576431,0.555880,-0.017925,1.267287,-0.408785,-0.366581,1.149749,-0.130517,-8.907733,39.106792,-20.485123,-10.025759,-0.060946,1.981307,-0.196061,0.000000,0.000000,0.000000,0.000000,0.000000,0.000000
12596642.000000,-2.333443,-1.662376,1.145686,-1.423970,1.728977,1.219658,-0.576565,0.557665,-0.025751,1.266574,-0.399778,-0.365312,1.148609,-0.126460,-8.388019,39.769329,-20.953262,-10.418520,0.088285,1.838485,-0.188737,0.000000,0.000000,0.000000,0.000000,0.000000,0.000000
12596643.000000,-2.332897,-1.662422,1.146963,-1.424357,1.728615,1.220823,-0.576698,0.553123,-0.029629,1.267830,-0.397988,-0.360163,1.151261,-0.126096,-8.161883,40.356487,-21.369827,-10.640688,0.135892,1.747848,-0.196061,0.000000,0.000000,0.000000,0.000000,0.000000,0.000000
12596644.000000,-2.332357,-1.662471,1.148257,-1.424754,1.728259,1.221986,-0.576825,0.547022,-0.035305,1.274207,-0.396897,-0.358993,1.162173,-0.127556,-7.864336,40.919842,-21.762589,-10.692263,0.141385,1.714889,-0.196061,0.000000,0.000000,0.000000,0.000000,0.000000,0.000000
12596645.000000,-2.331834,-1.662527,1.149538,-1.425148,1.727891,1.223118,-0.576956,0.541515,-0.041870,1.269737,-0.391820,-0.364260,1.155238,-0.130614,-7.495379,41.578411,-21.762589,-10.767641,0.171598,1.760665,-0.149369,0.000000,0.000000,0.000000,0.000000,0.000000,0.000000
12596646.000000,-2.331314,-1.662580,1.150799,-1.425546,1.727525,1.224275,-0.577079,0.534983,-0.041693,1.263288,-0.393393,-0.362039,1.152872,-0.129219,-7.174029,42.169537,-21.687210,-10.616884,0.183500,1.747848,-0.196061,0.000000,0.000000,0.000000,0.000000,0.000000,0.000000
12596647.000000,-2.330795,-1.662627,1.152067,-1.425943,1.727180,1.225411,-0.577204,0.526723,-0.041981,1.259860,-0.396502,-0.361002,1.163779,-0.129536,-6.801104,42.633709,-21.469009,-10.493898,0.123990,1.800033,-0.202470,0.000000,0.000000,0.000000,0.000000,0.000000,0.000000
12596648.000000,-2.330295,-1.662669,1.153350,-1.426341,1.726832,1.226558,-0.577336,0.518765,-0.043092,1.269525,-0.394746,-0.356401,1.159328,-0.132508,-6.356768,42.974895,-21.762589,-10.370913,0.015958,1.930038,-0.142960,0.000000,0.000000,0.000000,0.000000,0.000000,0.000000
12596649.000000,-2.329791,-1.662701,1.154638,-1.426746,1.726489,1.227723,-0.577446,0.509378,-0.037587,1.276442,-0.400106,-0.348862,1.177749,-0.124889,-6.059222,43.173260,-21.909378,-10.097170,-0.079257,1.909896,-0.215287,0.000000,0.000000,0.000000,0.000000,0.000000,0.000000
12596650.000000,-2.329307,-1.662742,1.155934,-1.427154,1.726144,1.228875,-0.577569,0.502693,-0.038426,1.276531,-0.398687,-0.344457,1.174365,-0.127942,-5.638690,43.415264,-22.131546,-9.875002,-0.019747,1.819259,-0.188737,0.000000,0.000000,0.000000,0.000000,0.000000,0.000000
12596651.000000,-2.328816,-1.662772,1.157227,-1.427556,1.725793,1.230032,-0.577691,0.494669,-0.035445,1.283726,-0.404364,-0.347433,1.168027,-0.125286,-5.218157,43.490643,-22.524307,-9.652834,0.112089,1.851302,-0.163102,0.000000,0.000000,0.000000,0.000000,0.000000,0.000000
12596652.000000,-2.328330,-1.662801,1.158538,-1.427969,1.725444,1.231178,-0.577807,0.487561,-0.032657,1.281321,-0.405603,-0.346803,1.168397,-0.125218,-4.869036,43.514446,-22.988480,-9.406862,0.147794,1.981307,-0.202470,0.000000,0.000000,0.000000,0.000000,0.000000,0.000000
12596653.000000,-2.327861,-1.662824,1.159835,-1.428392,1.725092,1.232313,-0.577933,0.486013,-0.028829,1.311078,-0.410453,-0.345132,1.150313,-0.126684,-4.424700,43.439068,-23.528030,-9.109316,0.291532,2.033492,-0.169511,0.000000,0.000000,0.000000,0.000000,0.000000,0.000000
12596654.000000,-2.327387,-1.662853,1.161133,-1.428812,1.724747,1.233465,-0.578048,0.481103,-0.027979,1.304145,-0.415841,-0.341122,1.155402,-0.122207,-3.980364,43.439068,-23.774002,-8.863344,0.381254,2.020675,-0.196061,0.000000,0.000000,0.000000,0.000000,0.000000,0.000000
12596655.000000,-2.326921,-1.662876,1.162434,-1.429247,1.724406,1.234618,-0.578165,0.483934,-0.029049,1.295505,-0.423859,-0.341962,1.146112,-0.124923,-3.631243,43.367657,-23.996170,-8.518190,0.428861,1.916305,-0.188737,0.000000,0.000000,0.000000,0.000000,0.000000,0.000000
12596656.000000,-2.326452,-1.662894,1.163713,-1.429686,1.724062,1.235764,-0.578276,0.480489,-0.025687,1.290730,-0.429887,-0.339810,1.137852,-0.120667,-3.337664,43.244671,-24.119156,-8.097658,0.416959,1.981307,-0.221696,0.000000,0.000000,0.000000,0.000000,0.000000,0.000000
12596657.000000,-2.325986,-1.662915,1.165004,-1.430143,1.723728,1.236920,-0.578400,0.473186,-0.023944,1.284325,-0.439112,-0.338668,1.147731,-0.119488,-2.988543,43.145489,-24.218338,-7.577943,0.398649,2.027084,-0.202470,0.000000,0.000000,0.000000,0.000000,0.000000,0.000000
12596658.000000,-2.325525,-1.662940,1.166307,-1.430609,1.723409,1.238064,-0.578517,0.466644,-0.020637,1.290560,-0.445592,-0.335315,1.149186,-0.117964,-2.718768,43.097881,-24.388931,-7.034425,0.308927,1.974899,-0.202470,0.000000,0.000000,0.000000,0.000000,0.000000,0.000000
12596659.000000,-2.325074,-1.662969,1.167587,-1.431067,1.723067,1.239227,-0.578629,0.458568,-0.023401,1.284952,-0.452896,-0.336316,1.174067,-0.111815,-2.345843,43.121685,-24.535721,-6.538515,0.327238,1.916305,-0.208878,0.000000,0.000000,0.000000,0.000000,0.000000,0.000000
12596660.000000,-2.324626,-1.662995,1.168907,-1.431528,1.722732,1.240364,-0.578748,0.456850,-0.024520,1.290077,-0.455003,-0.333788,1.155527,-0.113083,-1.949114,43.121685,-25.027664,-6.141786,0.369352,1.936446,-0.163102,0.000000,0.000000,0.000000,0.000000,0.000000,0.000000
12596661.000000,-2.324179,-1.663019,1.170206,-1.431985,1.722402,1.241502,-0.578854,0.453814,-0.024776,1.293234,-0.458505,-0.330130,1.146569,-0.111043,-1.651568,43.097881,-25.519608,-5.848207,0.362943,2.098495,-0.215287,0.000000,0.000000,0.000000,0.000000,0.000000,0.000000
12596662.000000,-2.323749,-1.663044,1.171522,-1.432441,1.722057,1.242637,-0.578973,0.443459,-0.026169,1.296834,-0.454922,-0.336728,1.152482,-0.116942,-1.183428,43.121685,-26.031387,-5.673646,0.488370,2.228500,-0.202470,0.000000,0.000000,0.000000,0.000000,0.000000,0.000000
12596663.000000,-2.323331,-1.663068,1.172825,-1.432897,1.721706,1.243768,-0.579093,0.432665,-0.023719,1.296488,-0.449788,-0.342957,1.149092,-0.117577,-0.687518,43.145489,-26.253555,-5.598268,0.644010,2.255050,-0.163102,0.000000,0.000000,0.000000,0.000000,0.000000,0.000000
12596664.000000,-2.322905,-1.663091,1.174109,-1.433346,1.721373,1.244904,-0.579200,0.426727,-0.020563,1.292797,-0.447593,-0.342071,1.140713,-0.113704,-0.266986,43.121685,-26.475723,-5.499086,0.685209,2.365829,-0.235429,0.000000,0.000000,0.000000,0.000000,0.000000,0.000000
12596665.000000,-2.322491,-1.663111,1.175406,-1.433808,1.721047,1.246027,-0.579317,0.419266,-0.017270,1.286461,-0.449480,-0.343505,1.156437,-0.114294,0.304304,43.050274,-26.646317,-5.376100,0.679716,2.437240,-0.215287,0.000000,0.000000,0.000000,0.000000,0.000000,0.000000
12596666.000000,-2.322073,-1.663135,1.176675,-1.434277,1.720728,1.247168,-0.579431,0.417621,-0.020090,1.281136,-0.451479,-0.336021,1.150184,-0.114793,0.574079,43.050274,-26.622513,-5.106325,0.644010,2.404281,-0.196061,0.000000,0.000000,0.000000,0.000000,0.000000,0.000000
12596667.000000,-2.321650,-1.663159,1.177958,-1.434747,1.720401,1.248323,-0.579542,0.418263,-0.022643,1.278608,-0.455547,-0.329845,1.162333,-0.114393,0.847822,43.074078,-26.523331,-4.733400,0.596403,2.209274,-0.196061,0.000000,0.000000,0.000000,0.000000,0.000000,0.000000
12596668.000000,-2.321230,-1.663178,1.179232,-1.435226,1.720082,1.249458,-0.579654,0.418117,-0.022883,1.270638,-0.462032,-0.327023,1.149025,-0.114604,1.022382,43.026470,-26.305130,-4.265260,0.578092,2.066451,-0.182328,0.000000,0.000000,0.000000,0.000000,0.000000,0.000000
12596669.000000,-2.320814,-1.663194,1.180500,-1.435693,1.719775,1.250595,-0.579759,0.416573,-0.018445,1.266355,-0.462269,-0.322545,1.135789,-0.108693,1.244550,42.927288,-26.352737,-3.920107,0.512174,2.066451,-0.202470,0.000000,0.000000,0.000000,0.000000,0.000000,0.000000
12596670.000000,-2.320402,-1.663210,1.181761,-1.436160,1.719466,1.251745,-0.579870,0.415734,-0.019860,1.255197,-0.466670,-0.319613,1.144718,-0.106681,1.466718,42.875713,-26.082962,-3.622560,0.446256,2.027084,-0.155778,0.000000,0.000000,0.000000,0.000000,0.000000,0.000000
12596671.000000,-2.319998,-1.663228,1.183015,-1.436608,1.719137,1.252889,-0.579965,0.415592,-0.022134,1.276953,-0.460609,-0.320852,1.143763,-0.105244,1.740461,42.875713,-26.059158,-3.598757,0.589994,1.903487,-0.221696,0.000000,0.000000,0.000000,0.000000,0.000000,0.000000
12596672.000000,-2.319593,-1.663248,1.184280,-1.437053,1.718818,1.254027,-0.580074,0.412158,-0.023698,1.271166,-0.459561,-0.324183,1.157488,-0.108284,2.034040,42.875713,-25.983780,-3.570986,0.709928,1.981307,-0.188737,0.000000,0.000000,0.000000,0.000000,0.000000,0.000000
12596673.000000,-2.319186,-1.663266,1.185546,-1.437499,1.718515,1.255144,-0.580179,0.418805,-0.020876,1.263966,-0.452256,-0.319961,1.138779,-0.108439,2.133222,42.851910,-25.983780,-3.570986,0.763029,2.098495,-0.215287,0.000000,0.000000,0.000000,0.000000,0.000000,0.000000
12596674.000000,-2.318773,-1.663285,1.186785,-1.437944,1.718201,1.256280,-0.580281,0.418958,-0.023192,1.257859,-0.438820,-0.317566,1.125730,-0.109586,2.133222,42.875713,-25.912369,-3.475771,0.835355,2.190048,-0.221696,0.000000,0.000000,0.000000,0.000000,0.000000,0.000000
12596675.000000,-2.318361,-1.663305,1.188033,-1.438389,1.717887,1.257442,-0.580389,0.415768,-0.022104,1.251644,-0.437988,-0.315177,1.146822,-0.111347,2.232404,42.927288,-25.836990,-3.348818,0.900358,2.053634,-0.196061,0.000000,0.000000,0.000000,0.000000,0.000000,0.000000
12596676.000000,-2.317944,-1.663320,1.189278,-1.438845,1.717587,1.258603,-0.580484,0.418649,-0.019442,1.248236,-0.437503,-0.309786,1.150204,-0.104567,2.133222,42.903484,-25.714005,-3.178224,0.864652,1.800033,-0.261979,0.000000,0.000000,0.000000,0.000000,0.000000,0.000000
12596677.000000,-2.317531,-1.663327,1.190490,-1.439288,1.717297,1.259761,-0.580593,0.418673,-0.015042,1.235922,-0.438812,-0.299053,1.144593,-0.104855,2.085615,42.780499,-25.491837,-2.979860,0.781339,1.735030,-0.188737,0.000000,0.000000,0.000000,0.000000,0.000000,0.000000
12596678.000000,-2.317121,-1.663334,1.191736,-1.439729,1.717014,1.260905,-0.580695,0.416552,-0.012142,1.237673,-0.437169,-0.296047,1.145206,-0.102189,2.034040,42.657513,-25.519608,-2.856874,0.679716,1.656295,-0.182328,0.000000,0.000000,0.000000,0.000000,0.000000,0.000000
12596679.000000,-2.316719,-1.663348,1.192960,-1.440149,1.716720,1.262072,-0.580786,0.415532,-0.013005,1.231192,-0.433135,-0.291938,1.147756,-0.100633,2.061811,42.657513,-25.519608,-2.880678,0.655912,1.572067,-0.261979,0.000000,0.000000,0.000000,0.000000,0.000000,0.000000
12596680.000000,-2.316318,-1.663360,1.194193,-1.440575,1.716424,1.263220,-0.580893,0.411392,-0.012357,1.230789,-0.430205,-0.286936,1.156956,-0.102450,2.184797,42.609905,-25.491837,-2.904482,0.703519,1.708480,-0.175919,0.000000,0.000000,0.000000,0.000000,0.000000,0.000000
12596681.000000,-2.315920,-1.663370,1.195438,-1.440986,1.716145,1.264342,-0.580994,0.407479,-0.011956,1.229124,-0.418760,-0.286899,1.142484,-0.100523,2.260175,42.558331,-25.642593,-3.055238,0.727323,1.942855,-0.169511,0.000000,0.000000,0.000000,0.000000,0.000000,0.000000
12596682.000000,-2.315517,-1.663378,1.196682,-1.441391,1.715869,1.265485,-0.581081,0.406210,-0.010932,1.236763,-0.414110,-0.284920,1.127760,-0.095745,2.260175,42.486919,-26.059158,-3.202028,0.721830,2.144271,-0.254655,0.000000,0.000000,0.000000,0.000000,0.000000,0.000000
12596683.000000,-2.315112,-1.663389,1.197931,-1.441794,1.715578,1.266620,-0.581185,0.405143,-0.011886,1.230705,-0.408576,-0.288503,1.142746,-0.097845,2.283979,42.486919,-26.400345,-3.325014,0.751127,2.209274,-0.188737,0.000000,0.000000,0.000000,0.000000,0.000000,0.000000
12596684.000000,-2.314707,-1.663399,1.199144,-1.442205,1.715299,1.267783,-0.581281,0.405924,-0.012063,1.233968,-0.408630,-0.282593,1.137729,-0.096966,2.232404,42.463116,-26.424149,-3.400392,0.757535,2.104903,-0.188737,0.000000,0.000000,0.000000,0.000000,0.000000,0.000000
12596685.000000,-2.314298,-1.663408,1.200378,-1.442616,1.715020,1.268935,-0.581378,0.406919,-0.012180,1.231717,-0.411198,-0.282871,1.146174,-0.096767,2.109418,42.435345,-26.622513,-3.249635,0.774930,2.098495,-0.175919,0.000000,0.000000,0.000000,0.000000,0.000000,0.000000
12596686.000000,-2.313897,-1.663417,1.201607,-1.443024,1.714758,1.270057,-0.581478,0.408650,-0.011699,1.231162,-0.409080,-0.277031,1.128384,-0.095197,2.010236,42.387737,-26.622513,-3.202028,0.745634,2.209274,-0.196061,0.000000,0.000000,0.000000,0.000000,0.000000,0.000000
12596687.000000,-2.313490,-1.663429,1.202806,-1.443425,1.714483,1.271194,-0.581579,0.410655,-0.013157,1.221165,-0.409855,-0.277449,1.125133,-0.096033,1.962629,42.411541,-26.424149,-3.102846,0.727323,2.248641,-0.169511,0.000000,0.000000,0.000000,0.000000,0.000000,0.000000
12596688.000000,-2.313088,-1.663436,1.204015,-1.443827,1.714211,1.272347,-0.581671,0.406794,-0.011655,1.212079,-0.405291,-0.268408,1.149634,-0.093802,2.010236,42.340130,-26.154373,-3.079042,0.698026,2.177230,-0.215287,0.000000,0.000000,0.000000,0.000000,0.000000,0.000000
12596689.000000,-2.312695,-1.663437,1.205232,-1.444218,1.713960,1.273480,-0.581766,0.407483,-0.009434,1.230975,-0.398257,-0.263904,1.146255,-0.097356,2.034040,42.217144,-25.936172,-3.079042,0.608304,2.085677,-0.221696,0.000000,0.000000,0.000000,0.000000,0.000000,0.000000
12596690.000000,-2.312311,-1.663435,1.206445,-1.444600,1.713704,1.274627,-0.581867,0.398013,-0.006792,1.227112,-0.392693,-0.257989,1.155292,-0.098180,2.208601,42.046551,-25.983780,-3.102846,0.578092,2.007858,-0.182328,0.000000,0.000000,0.000000,0.000000,0.000000,0.000000
12596691.000000,-2.311927,-1.663436,1.207647,-1.444980,1.713460,1.275752,-0.581957,0.401682,-0.006090,1.214879,-0.388106,-0.252006,1.140699,-0.095302,2.283979,41.923565,-25.737808,-3.126650,0.500272,1.995040,-0.229020,0.000000,0.000000,0.000000,0.000000,0.000000,0.000000
12596692.000000,-2.311541,-1.663434,1.208848,-1.445358,1.713186,1.276897,-0.582060,0.395266,-0.004699,1.214640,-0.383822,-0.260069,1.143191,-0.096432,2.430768,41.752972,-25.737808,-3.102846,0.625699,1.968490,-0.169511,0.000000,0.000000,0.000000,0.000000,0.000000,0.000000
12596693.000000,-2.311156,-1.663435,1.210050,-1.445729,1.712914,1.278045,-0.582147,0.388620,-0.004872,1.202450,-0.375709,-0.261699,1.160992,-0.095072,2.529951,41.629986,-25.591019,-3.154421,0.774930,1.930038,-0.188737,0.000000,0.000000,0.000000,0.000000,0.000000,0.000000
12596694.000000,-2.310779,-1.663434,1.211263,-1.446104,1.712663,1.279174,-0.582233,0.384506,-0.005008,1.201742,-0.372881,-0.256923,1.157174,-0.093367,2.605329,41.507000,-25.614822,-3.178224,0.769437,1.909896,-0.229020,0.000000,0.000000,0.000000,0.000000,0.000000,0.000000
12596695.000000,-2.310397,-1.663423,1.212451,-1.446467,1.712412,1.280307,-0.582332,0.384627,0.000707,1.197700,-0.370624,-0.247969,1.144594,-0.091785,2.652936,41.284832,-25.614822,-3.225832,0.751127,1.903487,-0.155778,0.000000,0.000000,0.000000,0.000000,0.000000,0.000000
12596696.000000,-2.310014,-1.663425,1.213640,-1.446825,1.712169,1.281439,-0.582413,0.378901,0.000165,1.191040,-0.367055,-0.253093,1.158440,-0.089254,2.752119,41.261028,-25.444229,-3.348818,0.703519,1.844894,-0.221696,0.000000,0.000000,0.000000,0.000000,0.000000,0.000000
12596697.000000,-2.309633,-1.663423,1.214811,-1.447185,1.711917,1.282581,-0.582499,0.379746,0.001133,1.182753,-0.366701,-0.250175,1.147048,-0.090402,2.728315,41.189617,-25.273636,-3.400392,0.679716,1.819259,-0.229020,0.000000,0.000000,0.000000,0.000000,0.000000,0.000000
12596698.000000,-2.309248,-1.663417,1.215975,-1.447544,1.711678,1.283712,-0.582589,0.376660,0.002033,1.169610,-0.362025,-0.241000,1.146323,-0.091769,2.652936,41.114239,-24.829300,-3.376589,0.596403,1.988631,-0.221696,0.000000,0.000000,0.000000,0.000000,0.000000,0.000000
12596699.000000,-2.308878,-1.663406,1.217153,-1.447904,1.711450,1.284835,-0.582680,0.372915,0.004425,1.168789,-0.357856,-0.234955,1.130105,-0.087815,2.680707,40.967449,-24.583328,-3.348818,0.524076,2.085677,-0.221696,0.000000,0.000000,0.000000,0.000000,0.000000,0.000000
12596700.000000,-2.308493,-1.663401,1.218318,-1.448252,1.711216,1.285988,-0.582766,0.375714,0.010775,1.165070,-0.353091,-0.231068,1.130224,-0.088980,2.605329,40.919842,-24.464310,-3.301210,0.488370,1.988631,-0.235429,0.000000,0.000000,0.000000,0.000000,0.000000,0.000000
12596701.000000,-2.308116,-1.663383,1.219506,-1.448598,1.710976,1.287140,-0.582854,0.374690,0.013315,1.165727,-0.349906,-0.236232,1.154699,-0.086031,2.652936,40.673870,-24.464310,-3.348818,0.518583,1.773483,-0.221696,0.000000,0.000000,0.000000,0.000000,0.000000,0.000000
12596702.000000,-2.307744,-1.663374,1.220686,-1.448944,1.710741,1.288293,-0.582943,0.376867,0.011387,1.170993,-0.346204,-0.238216,1.156228,-0.089484,2.581525,40.578655,-24.611099,-3.325014,0.518583,1.656295,-0.169511,0.000000,0.000000,0.000000,0.000000,0.000000,0.000000
12596703.000000,-2.307371,-1.663361,1.221890,-1.449275,1.710503,1.289435,-0.583020,0.373816,0.011887,1.179622,-0.344817,-0.235758,1.161730,-0.088829,2.529951,40.404095,-24.976089,-3.376589,0.542386,1.702071,-0.215287,0.000000,0.000000,0.000000,0.000000,0.000000,0.000000
12596704.000000,-2.307002,-1.663360,1.223088,-1.449590,1.710266,1.290544,-0.583107,0.380797,0.008083,1.179439,-0.334501,-0.236352,1.141262,-0.085976,2.553754,40.404095,-25.249832,-3.670168,0.625699,1.865035,-0.202470,0.000000,0.000000,0.000000,0.000000,0.000000,0.000000
12596705.000000,-2.306631,-1.663358,1.224271,-1.449910,1.710022,1.291679,-0.583192,0.378950,0.005508,1.181953,-0.328621,-0.237289,1.134974,-0.084360,2.581525,40.404095,-25.491837,-3.697939,0.727323,1.930038,-0.175919,0.000000,0.000000,0.000000,0.000000,0.000000,0.000000
12596706.000000,-2.306260,-1.663356,1.225454,-1.450226,1.709799,1.292812,-0.583269,0.375017,0.004319,1.179629,-0.325651,-0.235749,1.153235,-0.080253,2.581525,40.380291,-25.519608,-3.892336,0.649503,1.955673,-0.221696,0.000000,0.000000,0.000000,0.000000,0.000000,0.000000
12596707.000000,-2.305903,-1.663353,1.226651,-1.450552,1.709571,1.293922,-0.583353,0.368779,0.002946,1.198705,-0.326365,-0.236056,1.149813,-0.081114,2.629133,40.380291,-25.690201,-3.844728,0.596403,2.007858,-0.169511,0.000000,0.000000,0.000000,0.000000,0.000000,0.000000
12596708.000000,-2.305525,-1.663349,1.227807,-1.450863,1.709348,1.295046,-0.583428,0.370402,0.003128,1.188311,-0.321595,-0.228685,1.133685,-0.082249,2.482343,40.332684,-25.468033,-3.892336,0.470060,2.001449,-0.221696,0.000000,0.000000,0.000000,0.000000,0.000000,0.000000
12596709.000000,-2.305149,-1.663356,1.228974,-1.451187,1.709122,1.296163,-0.583506,0.367898,-0.000104,1.174787,-0.323813,-0.232759,1.120035,-0.080533,2.383161,40.427898,-25.198257,-3.797121,0.464567,1.962081,-0.221696,0.000000,0.000000,0.000000,0.000000,0.000000,0.000000
12596710.000000,-2.304772,-1.663357,1.230119,-1.451502,1.708895,1.297295,-0.583590,0.370500,-0.000691,1.172331,-0.319835,-0.228417,1.109746,-0.081813,2.208601,40.455669,-24.829300,-3.697939,0.512174,1.903487,-0.155778,0.000000,0.000000,0.000000,0.000000,0.000000,0.000000
12596711.000000,-2.304391,-1.663355,1.231277,-1.451824,1.708669,1.298443,-0.583658,0.373829,0.003667,1.164886,-0.319093,-0.223577,1.125342,-0.076307,1.962629,40.427898,-24.511917,-3.622560,0.524076,1.767074,-0.241837,0.000000,0.000000,0.000000,0.000000,0.000000,0.000000
12596712.000000,-2.304027,-1.663352,1.232458,-1.452143,1.708447,1.299571,-0.583743,0.374073,0.003862,1.166005,-0.313508,-0.224392,1.121647,-0.077936,1.811872,40.380291,-24.464310,-3.523378,0.524076,1.676437,-0.196061,0.000000,0.000000,0.000000,0.000000,0.000000,0.000000
12596713.000000,-2.303652,-1.663345,1.233597,-1.452438,1.708221,1.300719,-0.583819,0.371128,0.004473,1.160337,-0.307381,-0.223725,1.118735,-0.076823,1.641279,40.308880,-24.142960,-3.622560,0.512174,1.526290,-0.208878,0.000000,0.000000,0.000000,0.000000,0.000000,0.000000
12596714.000000,-2.303277,-1.663353,1.234768,-1.452748,1.707993,1.301845,-0.583899,0.372797,0.000369,1.159498,-0.303792,-0.230505,1.142363,-0.077402,1.514325,40.427898,-24.166763,-3.547182,0.589994,1.513473,-0.182328,0.000000,0.000000,0.000000,0.000000,0.000000,0.000000
12596715.000000,-2.302917,-1.663347,1.235911,-1.453041,1.707773,1.302961,-0.583975,0.367396,0.001488,1.152609,-0.297096,-0.224328,1.130121,-0.079592,1.490522,40.380291,-23.972366,-3.646364,0.589994,1.714889,-0.215287,0.000000,0.000000,0.000000,0.000000,0.000000,0.000000
12596716.000000,-2.302550,-1.663344,1.237083,-1.453330,1.707554,1.304084,-0.584054,0.361468,0.001645,1.150802,-0.296040,-0.223952,1.138580,-0.074157,1.367536,40.356487,-24.071548,-3.721742,0.578092,1.923629,-0.208878,0.000000,0.000000,0.000000,0.000000,0.000000,0.000000
12596717.000000,-2.302185,-1.663337,1.238252,-1.453635,1.707348,1.305207,-0.584132,0.360493,0.002932,1.154771,-0.295808,-0.217922,1.131819,-0.074784,1.268354,40.281109,-24.119156,-3.622560,0.530485,1.955673,-0.202470,0.000000,0.000000,0.000000,0.000000,0.000000,0.000000
12596718.000000,-2.301809,-1.663338,1.239393,-1.453918,1.707131,1.306361,-0.584208,0.365237,0.001359,1.149888,-0.291774,-0.218339,1.140874,-0.069991,1.093793,40.308880,-24.019974,-3.697939,0.500272,1.800033,-0.208878,0.000000,0.000000,0.000000,0.000000,0.000000,0.000000
12596719.000000,-2.301422,-1.663327,1.240546,-1.454220,1.706908,1.307503,-0.584281,0.368238,0.003824,1.144354,-0.295376,-0.217843,1.156908,-0.071199,0.772443,40.185894,-23.920792,-3.499574,0.554288,1.747848,-0.208878,0.000000,0.000000,0.000000,0.000000,0.000000,0.000000
12596720.000000,-2.301040,-1.663314,1.241676,-1.454520,1.706702,1.308612,-0.584360,0.373848,0.006570,1.163135,-0.294920,-0.213940,1.150769,-0.077538,0.427289,40.015301,-23.774002,-3.400392,0.518583,1.871444,-0.182328,0.000000,0.000000,0.000000,0.000000,0.000000,0.000000
12596721.000000,-2.300659,-1.663304,1.242815,-1.454809,1.706493,1.309730,-0.584431,0.373679,0.009621,1.151259,-0.292012,-0.212520,1.158504,-0.079951,0.105939,39.939922,-23.555801,-3.301210,0.530485,1.974899,-0.229020,0.000000,0.000000,0.000000,0.000000,0.000000,0.000000
12596722.000000,-2.300280,-1.663292,1.243962,-1.455102,1.706282,1.310853,-0.584507,0.383876,0.009596,1.141496,-0.292759,-0.213643,1.145411,-0.079798,-0.191607,39.816936,-23.309830,-3.301210,0.596403,1.890670,-0.202470,0.000000,0.000000,0.000000,0.000000,0.000000,0.000000
12596723.000000,-2.299906,-1.663282,1.245100,-1.455374,1.706080,1.311988,-0.584580,0.381643,0.008853,1.143883,-0.287262,-0.209897,1.132826,-0.079046,-0.366168,39.721722,-23.286026,-3.475771,0.542386,1.812850,-0.196061,0.000000,0.000000,0.000000,0.000000,0.000000,0.000000
12596724.000000,-2.299534,-1.663266,1.246272,-1.455656,1.705871,1.313123,-0.584650,0.375465,0.012431,1.150337,-0.283457,-0.211321,1.139731,-0.077232,-0.489153,39.598736,-23.579605,-3.523378,0.476469,1.760665,-0.215287,0.000000,0.000000,0.000000,0.000000,0.000000,0.000000
12596725.000000,-2.299166,-1.663250,1.247443,-1.455935,1.705670,1.314236,-0.584726,0.369640,0.011583,1.148379,-0.282181,-0.207692,1.128948,-0.073337,-0.663714,39.475750,-23.774002,-3.622560,0.398649,1.832076,-0.182328,0.000000,0.000000,0.000000,0.000000,0.000000,0.000000
12596726.000000,-2.298798,-1.663240,1.248601,-1.456212,1.705455,1.315356,-0.584793,0.370078,0.011366,1.150704,-0.283349,-0.204545,1.120954,-0.068578,-0.762896,39.475750,-24.095352,-3.646364,0.440763,1.903487,-0.196061,0.000000,0.000000,0.000000,0.000000,0.000000,0.000000
12596727.000000,-2.298431,-1.663233,1.249776,-1.456476,1.705244,1.316464,-0.584859,0.369006,0.010512,1.156280,-0.275031,-0.208729,1.116359,-0.064492,-0.810504,39.523357,-24.388931,-3.797121,0.530485,1.930038,-0.215287,0.000000,0.000000,0.000000,0.000000,0.000000,0.000000
12596728.000000,-2.298068,-1.663229,1.250931,-1.456747,1.705042,1.317572,-0.584929,0.368449,0.006481,1.155904,-0.274730,-0.203364,1.106753,-0.062517,-0.885882,39.574932,-24.658707,-3.844728,0.530485,2.020675,-0.215287,0.000000,0.000000,0.000000,0.000000,0.000000,0.000000
12596729.000000,-2.297708,-1.663213,1.252093,-1.457013,1.704843,1.318698,-0.584998,0.363636,0.010480,1.150268,-0.273285,-0.203315,1.123104,-0.066059,-0.909686,39.475750,-24.734085,-3.943910,0.512174,2.060043,-0.208878,0.000000,0.000000,0.000000,0.000000,0.000000,0.000000
12596730.000000,-2.297355,-1.663206,1.253249,-1.457266,1.704644,1.319807,-0.585072,0.361155,0.007647,1.146535,-0.266767,-0.204013,1.119605,-0.064625,-0.961260,39.475750,-24.682510,-4.118471,0.494779,2.001449,-0.182328,0.000000,0.000000,0.000000,0.000000,0.000000,0.000000
12596731.000000,-2.297006,-1.663204,1.254369,-1.457527,1.704436,1.320926,-0.585136,0.355974,0.006754,1.138399,-0.264178,-0.200747,1.114058,-0.066059,-0.885882,39.574932,-24.388931,-4.118471,0.524076,1.968490,-0.215287,0.000000,0.000000,0.000000,0.000000,0.000000,0.000000
12596732.000000,-2.296649,-1.663191,1.255512,-1.457788,1.704241,1.322015,-0.585214,0.352358,0.009860,1.132165,-0.263647,-0.200772,1.128136,-0.070467,-0.909686,39.523357,-24.119156,-4.043092,0.512174,2.033492,-0.155778,0.000000,0.000000,0.000000,0.000000,0.000000,0.000000
12596733.000000,-2.296301,-1.663182,1.256625,-1.458043,1.704055,1.323121,-0.585278,0.353616,0.007917,1.129197,-0.258941,-0.200090,1.113933,-0.070017,-0.909686,39.499554,-23.651016,-4.019289,0.452665,2.131454,-0.196061,0.000000,0.000000,0.000000,0.000000,0.000000,0.000000
12596734.000000,-2.295962,-1.663170,1.257767,-1.458304,1.703869,1.324254,-0.585342,0.343683,0.006982,1.133282,-0.260495,-0.195901,1.119622,-0.065515,-0.810504,39.451946,-23.432816,-3.892336,0.422452,2.014266,-0.221696,0.000000,0.000000,0.000000,0.000000,0.000000,0.000000
12596735.000000,-2.295637,-1.663157,1.258912,-1.458559,1.703686,1.325383,-0.585413,0.341736,0.009796,1.127706,-0.257192,-0.197529,1.119905,-0.065568,-0.635943,39.400372,-23.258255,-3.920107,0.381254,1.800033,-0.163102,0.000000,0.000000,0.000000,0.000000,0.000000,0.000000
12596736.000000,-2.295299,-1.663137,1.260037,-1.458814,1.703497,1.326516,-0.585473,0.339576,0.013952,1.126907,-0.254966,-0.198191,1.114656,-0.065980,-0.564532,39.253582,-23.111465,-3.844728,0.339139,1.656295,-0.215287,0.000000,0.000000,0.000000,0.000000,0.000000,0.000000
12596737.000000,-2.294972,-1.663119,1.261190,-1.459058,1.703304,1.327634,-0.585540,0.335274,0.016286,1.134341,-0.252351,-0.196360,1.126332,-0.069316,-0.389971,39.130596,-23.186844,-3.920107,0.344633,1.695663,-0.188737,0.000000,0.000000,0.000000,0.000000,0.000000,0.000000
12596738.000000,-2.294651,-1.663104,1.262309,-1.459303,1.703113,1.328733,-0.585602,0.327166,0.016859,1.149816,-0.247264,-0.196368,1.113748,-0.065518,-0.243182,39.059185,-23.063858,-4.019289,0.393156,1.767074,-0.196061,0.000000,0.000000,0.000000,0.000000,0.000000,0.000000
12596739.000000,-2.294340,-1.663088,1.263455,-1.459542,1.702917,1.329848,-0.585667,0.318451,0.014481,1.144735,-0.243704,-0.192465,1.107068,-0.063044,-0.017047,38.960003,-23.135269,-4.118471,0.476469,1.773483,-0.202470,0.000000,0.000000,0.000000,0.000000,0.000000,0.000000
12596740.000000,-2.294030,-1.663074,1.264597,-1.459782,1.702731,1.330964,-0.585737,0.322578,0.015840,1.141064,-0.242001,-0.187482,1.108689,-0.068320,0.129743,38.864788,-23.111465,-4.166078,0.500272,1.695663,-0.142960,0.000000,0.000000,0.000000,0.000000,0.000000,0.000000
12596741.000000,-2.293718,-1.663056,1.265721,-1.460027,1.702544,1.332082,-0.585785,0.316782,0.014228,1.133157,-0.243607,-0.187989,1.115861,-0.061553,0.304304,38.741802,-23.135269,-4.118471,0.512174,1.656295,-0.241837,0.000000,0.000000,0.000000,0.000000,0.000000,0.000000
12596742.000000,-2.293406,-1.663036,1.266855,-1.460272,1.702367,1.333201,-0.585854,0.313918,0.016299,1.132694,-0.245003,-0.184475,1.133311,-0.067809,0.427289,38.618816,-23.040054,-4.043092,0.422452,1.714889,-0.169511,0.000000,0.000000,0.000000,0.000000,0.000000,0.000000
12596743.000000,-2.293095,-1.663024,1.267983,-1.460520,1.702179,1.334302,-0.585908,0.312996,0.015087,1.124860,-0.243404,-0.184827,1.120667,-0.063200,0.502668,38.618816,-22.817886,-3.868532,0.405057,1.714889,-0.215287,0.000000,0.000000,0.000000,0.000000,0.000000,0.000000
12596744.000000,-2.292790,-1.663008,1.269088,-1.460758,1.701991,1.335424,-0.585974,0.308488,0.012655,1.118898,-0.242565,-0.180661,1.112720,-0.062775,0.625654,38.543438,-22.595718,-3.745546,0.405057,1.708480,-0.175919,0.000000,0.000000,0.000000,0.000000,0.000000,0.000000
12596745.000000,-2.292484,-1.662982,1.270220,-1.460999,1.701812,1.336532,-0.586030,0.308998,0.017010,1.114273,-0.241103,-0.177526,1.097785,-0.056606,0.697065,38.349041,-22.548111,-3.646364,0.393156,1.649886,-0.169511,0.000000,0.000000,0.000000,0.000000,0.000000,0.000000
12596746.000000,-2.292191,-1.662958,1.271350,-1.461230,1.701639,1.337668,-0.586083,0.303290,0.020130,1.121680,-0.239025,-0.173536,1.105897,-0.059082,0.895429,38.154644,-22.647293,-3.598757,0.339139,1.526290,-0.229020,0.000000,0.000000,0.000000,0.000000,0.000000,0.000000
12596747.000000,-2.291895,-1.662943,1.272500,-1.461461,1.701460,1.338800,-0.586151,0.296230,0.015481,1.136059,-0.234922,-0.178720,1.125493,-0.061258,1.046186,38.103069,-22.865494,-3.547182,0.381254,1.461288,-0.149369,0.000000,0.000000,0.000000,0.000000,0.000000,0.000000
12596748.000000,-2.291614,-1.662928,1.273656,-1.461704,1.701284,1.339917,-0.586200,0.292659,0.014866,1.135194,-0.236183,-0.173652,1.124244,-0.057292,1.292158,38.079266,-23.111465,-3.400392,0.434354,1.422836,-0.221696,0.000000,0.000000,0.000000,0.000000,0.000000,0.000000
12596749.000000,-2.291325,-1.662916,1.274797,-1.461936,1.701098,1.341030,-0.586259,0.289169,0.014153,1.135143,-0.236516,-0.179377,1.117510,-0.056516,1.442914,38.079266,-23.432816,-3.301210,0.500272,1.565658,-0.241837,0.000000,0.000000,0.000000,0.000000,0.000000,0.000000
12596750.000000,-2.291047,-1.662898,1.275951,-1.462171,1.700920,1.342112,-0.586329,0.282047,0.015457,1.140329,-0.237041,-0.176876,1.129276,-0.064936,1.641279,38.007854,-23.726395,-3.178224,0.506681,1.832076,-0.142960,0.000000,0.000000,0.000000,0.000000,0.000000,0.000000
12596751.000000,-2.290772,-1.662880,1.277086,-1.462410,1.700743,1.343222,-0.586376,0.285263,0.017184,1.139019,-0.238836,-0.179280,1.118908,-0.059879,1.835676,37.908672,-23.920792,-3.003664,0.500272,1.988631,-0.208878,0.000000,0.000000,0.000000,0.000000,0.000000,0.000000
12596752.000000,-2.290491,-1.662865,1.278234,-1.462641,1.700568,1.344345,-0.586435,0.283548,0.016900,1.135819,-0.238777,-0.176883,1.139916,-0.059896,1.962629,37.861065,-23.920792,-2.880678,0.512174,1.995040,-0.188737,0.000000,0.000000,0.000000,0.000000,0.000000,0.000000
12596753.000000,-2.290212,-1.662848,1.279385,-1.462875,1.700398,1.345463,-0.586493,0.281763,0.014617,1.138773,-0.235339,-0.178567,1.139949,-0.059580,2.010236,37.761883,-23.948563,-2.757692,0.482877,1.916305,-0.175919,0.000000,0.000000,0.000000,0.000000,0.000000,0.000000
12596754.000000,-2.289928,-1.662826,1.280507,-1.463112,1.700232,1.346575,-0.586545,0.280302,0.012838,1.130898,-0.236269,-0.174886,1.126990,-0.056804,2.034040,37.662701,-23.849380,-2.511720,0.446256,1.884261,-0.229020,0.000000,0.000000,0.000000,0.000000,0.000000,0.000000
12596755.000000,-2.289640,-1.662812,1.281645,-1.463371,1.700064,1.347689,-0.586604,0.282189,0.013859,1.124769,-0.243123,-0.170022,1.133689,-0.058290,1.934858,37.615093,-23.678787,-2.114992,0.476469,1.884261,-0.188737,0.000000,0.000000,0.000000,0.000000,0.000000,0.000000
12596756.000000,-2.289368,-1.662796,1.282754,-1.463619,1.699893,1.348781,-0.586655,0.280500,0.014435,1.142799,-0.243994,-0.171149,1.111552,-0.052397,1.934858,37.567486,-23.309830,-1.869020,0.512174,1.897079,-0.208878,0.000000,0.000000,0.000000,0.000000,0.000000,0.000000
12596757.000000,-2.289093,-1.662782,1.283876,-1.463855,1.699715,1.349895,-0.586708,0.277344,0.011104,1.134871,-0.242852,-0.172794,1.101090,-0.053780,2.010236,37.539715,-23.040054,-1.718263,0.578092,1.884261,-0.202470,0.000000,0.000000,0.000000,0.000000,0.000000,0.000000
12596758.000000,-2.288823,-1.662764,1.285020,-1.464087,1.699556,1.350992,-0.586763,0.280370,0.016363,1.130325,-0.241804,-0.169720,1.091805,-0.049273,2.085615,37.468304,-23.016251,-1.670656,0.524076,1.877853,-0.215287,0.000000,0.000000,0.000000,0.000000,0.000000,0.000000
12596759.000000,-2.288559,-1.662748,1.286139,-1.464315,1.699399,1.352118,-0.586817,0.276516,0.016530,1.125926,-0.232920,-0.162592,1.101468,-0.052362,2.232404,37.420696,-22.893265,-1.694460,0.458158,1.735030,-0.182328,0.000000,0.000000,0.000000,0.000000,0.000000,0.000000
12596761.000000,-2.288027,-1.662723,1.288427,-1.464762,1.699080,1.354342,-0.586916,0.270142,0.014287,1.130968,-0.224178,-0.161687,1.121096,-0.052569,2.331586,37.444500,-23.040054,-1.869020,0.488370,1.624252,-0.235429,0.000000,0.000000,0.000000,0.000000,0.000000,0.000000
12596762.000000,-2.287766,-1.662715,1.289554,-1.464990,1.698921,1.355447,-0.586976,0.264234,0.013528,1.129162,-0.226824,-0.159000,1.119544,-0.051682,2.383161,37.468304,-23.087662,-1.817445,0.500272,1.754256,-0.163102,0.000000,0.000000,0.000000,0.000000,0.000000,0.000000
12596763.000000,-2.287493,-1.662710,1.290689,-1.465214,1.698768,1.356545,-0.587022,0.269226,0.011211,1.128420,-0.224902,-0.162294,1.116085,-0.051111,2.331586,37.567486,-23.111465,-1.793642,0.542386,1.760665,-0.202470,0.000000,0.000000,0.000000,0.000000,0.000000,0.000000
12596764.000000,-2.287229,-1.662700,1.291801,-1.465437,1.698612,1.357670,-0.587077,0.268321,0.008590,1.124649,-0.223233,-0.158659,1.118020,-0.049019,2.307783,37.567486,-23.063858,-1.670656,0.530485,1.695663,-0.169511,0.000000,0.000000,0.000000,0.000000,0.000000,0.000000
12596765.000000,-2.286963,-1.662684,1.292930,-1.465649,1.698453,1.358792,-0.587125,0.267253,0.011231,1.122058,-0.219657,-0.160349,1.126401,-0.050387,2.283979,37.515911,-22.988480,-1.642885,0.506681,1.591293,-0.182328,0.000000,0.000000,0.000000,0.000000,0.000000,0.000000
12596766.000000,-2.286693,-1.662670,1.294052,-1.465862,1.698299,1.359898,-0.587170,0.268376,0.012877,1.117797,-0.218039,-0.162045,1.108332,-0.050897,2.208601,37.468304,-22.817886,-1.670656,0.488370,1.584884,-0.208878,0.000000,0.000000,0.000000,0.000000,0.000000,0.000000
12596767.000000,-2.286428,-1.662662,1.295146,-1.466069,1.698143,1.361008,-0.587222,0.264649,0.012360,1.112996,-0.215843,-0.159542,1.099970,-0.053675,2.184797,37.492107,-22.548111,-1.642885,0.500272,1.611434,-0.175919,0.000000,0.000000,0.000000,0.000000,0.000000,0.000000
12596768.000000,-2.286160,-1.662647,1.296268,-1.466271,1.697981,1.362122,-0.587260,0.260278,0.010916,1.113051,-0.211671,-0.164977,1.121676,-0.051029,2.085615,37.420696,-22.401321,-1.718263,0.571683,1.714889,-0.261979,0.000000,0.000000,0.000000,0.000000,0.000000,0.000000
12596769.000000,-2.285900,-1.662634,1.297384,-1.466480,1.697831,1.363218,-0.587309,0.258933,0.012038,1.113070,-0.209583,-0.165798,1.115336,-0.049185,2.034040,37.392925,-22.425125,-1.642885,0.571683,1.812850,-0.229020,0.000000,0.000000,0.000000,0.000000,0.000000,0.000000
12596770.000000,-2.285629,-1.662618,1.298518,-1.466678,1.697685,1.364344,-0.587359,0.260217,0.009985,1.119033,-0.208156,-0.159520,1.112575,-0.046266,1.911054,37.345318,-22.571915,-1.670656,0.512174,1.727706,-0.229020,0.000000,0.000000,0.000000,0.000000,0.000000,0.000000
12596771.000000,-2.285366,-1.662601,1.299673,-1.466877,1.697539,1.365454,-0.587409,0.262273,0.013009,1.121238,-0.203991,-0.156310,1.105087,-0.044695,1.788068,37.246136,-22.917068,-1.694460,0.482877,1.617843,-0.215287,0.000000,0.000000,0.000000,0.000000,0.000000,0.000000
12596772.000000,-2.285102,-1.662583,1.300814,-1.467069,1.697388,1.366561,-0.587453,0.263826,0.014585,1.130653,-0.199051,-0.158285,1.110675,-0.042680,1.712690,37.174725,-23.333633,-1.694460,0.446256,1.617843,-0.221696,0.000000,0.000000,0.000000,0.000000,0.000000,0.000000
12596773.000000,-2.284833,-1.662570,1.301971,-1.467256,1.697236,1.367670,-0.587499,0.267093,0.015181,1.139989,-0.193612,-0.155678,1.124335,-0.041084,1.542096,37.127117,-23.726395,-1.769838,0.422452,1.689254,-0.229020,0.000000,0.000000,0.000000,0.000000,0.000000,0.000000
12596774.000000,-2.284575,-1.662563,1.303115,-1.467439,1.697076,1.368742,-0.587556,0.265798,0.012746,1.152662,-0.188369,-0.158064,1.108986,-0.048174,1.391340,37.198528,-23.896988,-1.892824,0.512174,1.838485,-0.142960,0.000000,0.000000,0.000000,0.000000,0.000000,0.000000
12596775.000000,-2.284318,-1.662558,1.304239,-1.467613,1.696923,1.369834,-0.587593,0.261479,0.008365,1.141993,-0.180914,-0.157930,1.094806,-0.042609,1.343732,37.246136,-23.996170,-2.063417,0.571683,1.949264,-0.215287,0.000000,0.000000,0.000000,0.000000,0.000000,0.000000
12596776.000000,-2.284051,-1.662552,1.305372,-1.467787,1.696777,1.370917,-0.587642,0.261792,0.005106,1.136393,-0.178942,-0.151685,1.079063,-0.042120,1.192975,37.297710,-23.996170,-2.190370,0.584501,1.923629,-0.196061,0.000000,0.000000,0.000000,0.000000,0.000000,0.000000
12596777.000000,-2.283792,-1.662551,1.306473,-1.467957,1.696630,1.372015,-0.587689,0.260697,0.004568,1.123472,-0.175698,-0.145368,1.077176,-0.041710,1.093793,37.420696,-23.774002,-2.285585,0.554288,1.930038,-0.175919,0.000000,0.000000,0.000000,0.000000,0.000000,0.000000
12596778.000000,-2.283528,-1.662550,1.307597,-1.468125,1.696488,1.373123,-0.587729,0.258514,0.003652,1.116291,-0.176536,-0.145238,1.096988,-0.039602,0.895429,37.567486,-23.555801,-2.360964,0.518583,1.812850,-0.202470,0.000000,0.000000,0.000000,0.000000,0.000000,0.000000
12596779.000000,-2.283266,-1.662552,1.308721,-1.468295,1.696352,1.374211,-0.587777,0.256685,-0.000192,1.114208,-0.173913,-0.144897,1.094139,-0.044310,0.724836,37.714275,-23.258255,-2.436342,0.470060,1.773483,-0.188737,0.000000,0.000000,0.000000,0.000000,0.000000,0.000000
12596780.000000,-2.283009,-1.662556,1.309821,-1.468466,1.696200,1.375309,-0.587816,0.258061,0.000389,1.106849,-0.171705,-0.147012,1.089074,-0.040471,0.601850,37.861065,-22.988480,-2.412538,0.494779,1.786300,-0.241837,0.000000,0.000000,0.000000,0.000000,0.000000,0.000000
12596781.000000,-2.282759,-1.662553,1.310944,-1.468628,1.696058,1.376404,-0.587860,0.254880,0.000435,1.105213,-0.170437,-0.149555,1.116655,-0.041307,0.502668,37.884869,-22.817886,-2.483949,0.434354,1.676437,-0.202470,0.000000,0.000000,0.000000,0.000000,0.000000,0.000000
12596782.000000,-2.282513,-1.662552,1.312052,-1.468775,1.695912,1.377534,-0.587903,0.252650,-0.000274,1.106820,-0.162240,-0.149921,1.124898,-0.041636,0.526471,37.932476,-22.694901,-2.634706,0.434354,1.422836,-0.169511,0.000000,0.000000,0.000000,0.000000,0.000000,0.000000
12596783.000000,-2.282259,-1.662551,1.313179,-1.468918,1.695764,1.378652,-0.587939,0.253262,-0.000328,1.110044,-0.157997,-0.148028,1.141261,-0.038466,0.451093,37.956280,-22.770279,-2.833071,0.500272,1.312057,-0.221696,0.000000,0.000000,0.000000,0.000000,0.000000,0.000000
12596784.000000,-2.282017,-1.662550,1.314314,-1.469055,1.695631,1.379743,-0.587984,0.246623,-0.000559,1.117138,-0.148766,-0.143841,1.120754,-0.040073,0.427289,37.984051,-22.817886,-3.154421,0.494779,1.370651,-0.175919,0.000000,0.000000,0.000000,0.000000,0.000000,0.000000
12596785.000000,-2.281764,-1.662547,1.315425,-1.469197,1.695489,1.380830,-0.588017,0.247918,0.000509,1.114202,-0.148024,-0.142171,1.097992,-0.037693,0.276533,37.956280,-22.794083,-3.249635,0.535978,1.578475,-0.221696,0.000000,0.000000,0.000000,0.000000,0.000000,0.000000
12596786.000000,-2.281521,-1.662551,1.316540,-1.469331,1.695353,1.381936,-0.588064,0.246134,-0.001250,1.110805,-0.143496,-0.139648,1.103319,-0.045119,0.228925,38.031658,-22.794083,-3.376589,0.542386,1.747848,-0.149369,0.000000,0.000000,0.000000,0.000000,0.000000,0.000000
12596787.000000,-2.281270,-1.662550,1.317639,-1.469460,1.695231,1.383039,-0.588096,0.247695,-0.000146,1.111537,-0.139541,-0.134472,1.099732,-0.039738,-0.017047,38.007854,-22.718704,-3.523378,0.458158,1.779891,-0.229020,0.000000,0.000000,0.000000,0.000000,0.000000,0.000000
12596788.000000,-2.281024,-1.662550,1.318760,-1.469588,1.695111,1.384163,-0.588138,0.247780,0.000000,1.111990,-0.136492,-0.130592,1.094268,-0.041069,-0.167803,38.007854,-22.770279,-3.547182,0.374845,1.741439,-0.182328,0.000000,0.000000,0.000000,0.000000,0.000000,0.000000
12596789.000000,-2.280770,-1.662543,1.319874,-1.469717,1.694986,1.385267,-0.588182,0.255377,0.002394,1.110247,-0.133951,-0.128708,1.089681,-0.041406,-0.413775,37.908672,-22.647293,-3.570986,0.303434,1.689254,-0.149369,0.000000,0.000000,0.000000,0.000000,0.000000,0.000000
12596790.000000,-2.280520,-1.662539,1.320974,-1.469851,1.694854,1.386380,-0.588211,0.254272,0.002764,1.105914,-0.134300,-0.129189,1.095806,-0.033185,-0.588336,37.861065,-22.595718,-3.499574,0.285123,1.670028,-0.215287,0.000000,0.000000,0.000000,0.000000,0.000000,0.000000
12596791.000000,-2.280265,-1.662537,1.322078,-1.469979,1.694711,1.387492,-0.588253,0.252309,0.002534,1.100021,-0.130221,-0.129613,1.109480,-0.035851,-0.862078,37.833294,-22.401321,-3.475771,0.393156,1.702071,-0.175919,0.000000,0.000000,0.000000,0.000000,0.000000,0.000000
12596792.000000,-2.280021,-1.662531,1.323207,-1.470105,1.694581,1.388579,-0.588287,0.251127,0.003947,1.108411,-0.130984,-0.131035,1.111101,-0.034873,-1.008868,37.738079,-22.500504,-3.400392,0.422452,1.786300,-0.215287,0.000000,0.000000,0.000000,0.000000,0.000000,0.000000
12596793.000000,-2.279780,-1.662527,1.324318,-1.470217,1.694452,1.389692,-0.588322,0.245060,0.003212,1.108331,-0.124628,-0.127172,1.107862,-0.035624,-1.084246,37.714275,-22.647293,-3.499574,0.452665,1.741439,-0.215287,0.000000,0.000000,0.000000,0.000000,0.000000,0.000000
12596794.000000,-2.279546,-1.662519,1.325466,-1.470323,1.694329,1.390779,-0.588364,0.236358,0.004478,1.113622,-0.115933,-0.127808,1.099871,-0.038865,-1.084246,37.615093,-23.087662,-3.646364,0.440763,1.714889,-0.142960,0.000000,0.000000,0.000000,0.000000,0.000000,0.000000
12596795.000000,-2.279317,-1.662520,1.326602,-1.470424,1.694211,1.391890,-0.588388,0.237080,0.001885,1.128232,-0.112620,-0.121837,1.096187,-0.035231,-1.108050,37.662701,-23.528030,-3.797121,0.381254,1.649886,-0.229020,0.000000,0.000000,0.000000,0.000000,0.000000,0.000000
12596796.000000,-2.279086,-1.662525,1.327745,-1.470529,1.694089,1.392976,-0.588429,0.236815,-0.000497,1.127911,-0.108632,-0.118665,1.096819,-0.038531,-1.108050,37.738079,-23.948563,-3.892336,0.351041,1.793624,-0.163102,0.000000,0.000000,0.000000,0.000000,0.000000,0.000000
12596797.000000,-2.278851,-1.662531,1.328890,-1.470644,1.693962,1.394046,-0.588464,0.236362,-0.003201,1.127433,-0.108821,-0.119513,1.079818,-0.038730,-1.207232,37.861065,-24.190567,-3.844728,0.405057,2.001449,-0.149369,0.000000,0.000000,0.000000,0.000000,0.000000,0.000000
12596798.000000,-2.278616,-1.662539,1.330014,-1.470750,1.693841,1.395132,-0.588490,0.232477,-0.004356,1.129331,-0.107147,-0.116610,1.072181,-0.035744,-1.306414,37.956280,-24.289749,-3.868532,0.381254,2.092086,-0.221696,0.000000,0.000000,0.000000,0.000000,0.000000,0.000000
12596799.000000,-2.278379,-1.662545,1.331150,-1.470852,1.693717,1.396214,-0.588526,0.235334,-0.004663,1.122637,-0.105904,-0.119847,1.097349,-0.033503,-1.480975,38.031658,-24.412735,-3.892336,0.381254,2.085677,-0.169511,0.000000,0.000000,0.000000,0.000000,0.000000,0.000000
12596800.000000,-2.278149,-1.662550,1.332260,-1.470956,1.693596,1.397330,-0.588557,0.232989,-0.011634,1.115096,-0.106645,-0.117142,1.105528,-0.034269,-1.627764,38.103069,-24.289749,-3.844728,0.351041,1.877853,-0.175919,0.000000,0.000000,0.000000,0.000000,0.000000,0.000000
12596801.000000,-2.277922,-1.662553,1.333376,-1.471054,1.693467,1.398441,-0.588591,0.232712,-0.009532,1.110127,-0.105339,-0.117507,1.124583,-0.030617,-1.750750,38.154644,-24.043777,-3.868532,0.386747,1.735030,-0.169511,0.000000,0.000000,0.000000,0.000000,0.000000,0.000000
12596802.000000,-2.277700,-1.662562,1.334499,-1.471150,1.693338,1.399517,-0.588625,0.229562,-0.009009,1.104759,-0.100559,-0.119144,1.113596,-0.027634,-1.873736,38.249859,-23.849380,-3.920107,0.458158,1.786300,-0.169511,0.000000,0.000000,0.000000,0.000000,0.000000,0.000000
12596803.000000,-2.277478,-1.662575,1.335597,-1.471249,1.693214,1.400590,-0.588654,0.228782,-0.010409,1.101473,-0.102343,-0.118471,1.100920,-0.029692,-1.901507,38.424419,-23.528030,-3.892336,0.488370,1.930038,-0.182328,0.000000,0.000000,0.000000,0.000000,0.000000,0.000000
12596804.000000,-2.277260,-1.662580,1.336710,-1.471340,1.693091,1.401683,-0.588682,0.223548,-0.008850,1.096664,-0.100963,-0.118144,1.114105,-0.025484,-1.873736,38.495831,-23.286026,-3.967714,0.518583,2.001449,-0.221696,0.000000,0.000000,0.000000,0.000000,0.000000,0.000000
12596805.000000,-2.277047,-1.662591,1.337805,-1.471429,1.692978,1.402779,-0.588713,0.220051,-0.013136,1.117211,-0.095997,-0.114219,1.100206,-0.028978,-1.849932,38.642620,-23.087662,-4.090700,0.452665,1.890670,-0.208878,0.000000,0.000000,0.000000,0.000000,0.000000,0.000000
12596806.000000,-2.276832,-1.662591,1.338934,-1.471520,1.692870,1.403897,-0.588746,0.219520,-0.008637,1.118470,-0.094132,-0.109710,1.098462,-0.032352,-1.873736,38.618816,-23.186844,-4.142274,0.344633,1.721298,-0.175919,0.000000,0.000000,0.000000,0.000000,0.000000,0.000000
12596807.000000,-2.276625,-1.662594,1.340069,-1.471607,1.692765,1.404990,-0.588771,0.218813,-0.006086,1.119077,-0.090320,-0.108160,1.093977,-0.032352,-1.826129,38.618816,-23.309830,-4.166078,0.273221,1.624252,-0.208878,0.000000,0.000000,0.000000,0.000000,0.000000,0.000000
12596808.000000,-2.276410,-1.662604,1.341180,-1.471695,1.692652,1.406084,-0.588807,0.216698,-0.007180,1.120284,-0.091078,-0.109013,1.092176,-0.036234,-1.925311,38.741802,-23.357437,-4.166078,0.255826,1.662704,-0.142960,0.000000,0.000000,0.000000,0.000000,0.000000,0.000000
12596809.000000,-2.276198,-1.662608,1.342303,-1.471779,1.692533,1.407184,-0.588832,0.214032,-0.005528,1.113546,-0.088080,-0.112863,1.107988,-0.030227,-2.000689,38.765606,-23.432816,-4.189882,0.320829,1.676437,-0.182328,0.000000,0.000000,0.000000,0.000000,0.000000,0.000000
12596810.000000,-2.275994,-1.662617,1.343433,-1.471860,1.692413,1.408262,-0.588858,0.211557,-0.006700,1.109875,-0.085124,-0.115177,1.103343,-0.026627,-2.048296,38.888592,-23.579605,-4.241457,0.381254,1.779891,-0.202470,0.000000,0.000000,0.000000,0.000000,0.000000,0.000000
12596811.000000,-2.275787,-1.662621,1.344533,-1.471934,1.692293,1.409358,-0.588892,0.208331,-0.005127,1.112259,-0.082612,-0.120532,1.096391,-0.026269,-2.048296,38.912395,-23.480423,-4.312868,0.428861,1.800033,-0.163102,0.000000,0.000000,0.000000,0.000000,0.000000,0.000000
12596812.000000,-2.275574,-1.662626,1.345636,-1.472001,1.692174,1.410446,-0.588914,0.208482,-0.007452,1.103691,-0.075786,-0.119601,1.092408,-0.026853,-2.147479,38.936199,-23.357437,-4.463624,0.458158,1.714889,-0.221696,0.000000,0.000000,0.000000,0.000000,0.000000,0.000000
12596813.000000,-2.275365,-1.662627,1.346729,-1.472073,1.692059,1.411546,-0.588939,0.209080,-0.008664,1.098804,-0.075191,-0.119113,1.083927,-0.024706,-2.270464,38.936199,-23.234451,-4.562807,0.494779,1.670028,-0.229020,0.000000,0.000000,0.000000,0.000000,0.000000,0.000000
12596814.000000,-2.275161,-1.662629,1.347839,-1.472157,1.691948,1.412644,-0.588962,0.204757,-0.006312,1.106037,-0.077144,-0.116001,1.093807,-0.023156,-2.345843,38.936199,-23.163040,-4.439821,0.464567,1.656295,-0.235429,0.000000,0.000000,0.000000,0.000000,0.000000,0.000000
12596815.000000,-2.274951,-1.662631,1.348957,-1.472234,1.691845,1.413719,-0.588990,0.207939,-0.004053,1.103317,-0.075741,-0.112393,1.086427,-0.023444,-2.544207,38.912395,-23.163040,-4.412050,0.386747,1.741439,-0.202470,0.000000,0.000000,0.000000,0.000000,0.000000,0.000000
12596816.000000,-2.274748,-1.662630,1.350066,-1.472314,1.691732,1.414813,-0.589014,0.204283,-0.006065,1.101640,-0.079866,-0.116832,1.084593,-0.017543,-2.643389,38.888592,-23.309830,-4.289064,0.374845,1.767074,-0.202470,0.000000,0.000000,0.000000,0.000000,0.000000,0.000000
12596817.000000,-2.274546,-1.662636,1.351208,-1.472388,1.691628,1.415909,-0.589036,0.201289,-0.005685,1.112962,-0.074602,-0.114069,1.109124,-0.017077,-2.718768,38.936199,-23.702591,-4.265260,0.315336,1.662704,-0.221696,0.000000,0.000000,0.000000,0.000000,0.000000,0.000000
12596818.000000,-2.274361,-1.662628,1.352331,-1.472452,1.691524,1.417014,-0.589066,0.198091,-0.001309,1.117225,-0.071815,-0.111629,1.109164,-0.020251,-2.690997,38.813213,-24.095352,-4.312868,0.249418,1.591293,-0.142960,0.000000,0.000000,0.000000,0.000000,0.000000,0.000000
12596819.000000,-2.274173,-1.662629,1.353484,-1.472510,1.691410,1.418113,-0.589083,0.193487,-0.000612,1.126426,-0.068154,-0.113407,1.098802,-0.022734,-2.619586,38.789410,-24.611099,-4.439821,0.285123,1.605026,-0.188737,0.000000,0.000000,0.000000,0.000000,0.000000,0.000000
12596820.000000,-2.273989,-1.662633,1.354630,-1.472570,1.691288,1.419181,-0.589104,0.187856,-0.001744,1.133701,-0.063336,-0.117321,1.090475,-0.021794,-2.568011,38.837017,-24.904678,-4.535036,0.386747,1.760665,-0.188737,0.000000,0.000000,0.000000,0.000000,0.000000,0.000000
12596821.000000,-2.273801,-1.662640,1.355751,-1.472628,1.691162,1.420246,-0.589127,0.185020,-0.003650,1.131529,-0.063242,-0.120233,1.085416,-0.022298,-2.568011,38.936199,-25.126846,-4.610414,0.500272,2.047225,-0.155778,0.000000,0.000000,0.000000,0.000000,0.000000,0.000000
12596822.000000,-2.273617,-1.662642,1.356870,-1.472693,1.691040,1.421325,-0.589141,0.182704,-0.003115,1.119990,-0.066192,-0.119604,1.093283,-0.018333,-2.568011,38.960003,-25.075272,-4.562807,0.542386,2.248641,-0.235429,0.000000,0.000000,0.000000,0.000000,0.000000,0.000000
12596823.000000,-2.273431,-1.662653,1.357970,-1.472757,1.690927,1.422405,-0.589169,0.183312,-0.005048,1.134693,-0.065364,-0.116253,1.088034,-0.026096,-2.667193,39.082989,-24.976089,-4.511232,0.512174,2.242233,-0.163102,0.000000,0.000000,0.000000,0.000000,0.000000,0.000000
12596824.000000,-2.273251,-1.662654,1.359088,-1.472828,1.690828,1.423517,-0.589183,0.181214,-0.002322,1.125871,-0.070930,-0.110879,1.085390,-0.022229,-2.690997,39.035381,-24.904678,-4.312868,0.398649,2.085677,-0.215287,0.000000,0.000000,0.000000,0.000000,0.000000,0.000000
12596825.000000,-2.273067,-1.662654,1.360213,-1.472893,1.690726,1.424612,-0.589205,0.183990,-0.001044,1.119765,-0.070483,-0.113293,1.088253,-0.021461,-2.817950,39.011578,-24.757889,-4.166078,0.315336,1.903487,-0.215287,0.000000,0.000000,0.000000,0.000000,0.000000,0.000000
12596826.000000,-2.272892,-1.662659,1.361313,-1.472964,1.690621,1.425701,-0.589229,0.182906,-0.004233,1.114633,-0.068463,-0.111835,1.090694,-0.023063,-2.841753,39.011578,-24.511917,-3.967714,0.267728,1.884261,-0.155778,0.000000,0.000000,0.000000,0.000000,0.000000,0.000000
12596827.000000,-2.272721,-1.662671,1.362415,-1.473028,1.690505,1.426786,-0.589243,0.177282,-0.005927,1.105075,-0.067422,-0.115313,1.099841,-0.024147,-2.817950,39.130596,-24.190567,-3.868532,0.344633,1.962081,-0.221696,0.000000,0.000000,0.000000,0.000000,0.000000,0.000000
12596828.000000,-2.272563,-1.662673,1.363534,-1.473085,1.690395,1.427855,-0.589269,0.169768,-0.006566,1.107335,-0.064030,-0.111530,1.097518,-0.024924,-2.643389,39.082989,-24.071548,-3.868532,0.386747,2.039901,-0.169511,0.000000,0.000000,0.000000,0.000000,0.000000,0.000000
12596829.000000,-2.272405,-1.662678,1.364637,-1.473136,1.690292,1.428950,-0.589283,0.166788,-0.007635,1.109825,-0.059504,-0.105853,1.094678,-0.026124,-2.445025,39.059185,-23.996170,-3.967714,0.362943,2.001449,-0.221696,0.000000,0.000000,0.000000,0.000000,0.000000,0.000000
12596830.000000,-2.272247,-1.662677,1.365754,-1.473183,1.690183,1.430038,-0.589304,0.166376,-0.006899,1.104960,-0.053156,-0.112332,1.092604,-0.026108,-2.298235,38.960003,-24.019974,-4.090700,0.386747,1.897079,-0.175919,0.000000,0.000000,0.000000,0.000000,0.000000,0.000000
12596831.000000,-2.272101,-1.662680,1.366869,-1.473224,1.690075,1.431142,-0.589320,0.158457,-0.004251,1.109845,-0.048757,-0.112216,1.092771,-0.023451,-2.099871,38.912395,-24.190567,-4.213686,0.386747,1.747848,-0.196061,0.000000,0.000000,0.000000,0.000000,0.000000,0.000000
12596832.000000,-2.271950,-1.662685,1.367987,-1.473274,1.689964,1.432241,-0.589337,0.154626,-0.006186,1.107737,-0.049587,-0.112562,1.081571,-0.017127,-2.000689,38.888592,-24.265945,-4.166078,0.393156,1.760665,-0.208878,0.000000,0.000000,0.000000,0.000000,0.000000,0.000000
12596833.000000,-2.271799,-1.662691,1.369110,-1.473327,1.689854,1.433318,-0.589358,0.151139,-0.008325,1.112063,-0.051174,-0.113852,1.074812,-0.019279,-2.000689,38.888592,-24.388931,-4.066896,0.428861,1.877853,-0.163102,0.000000,0.000000,0.000000,0.000000,0.000000,0.000000
12596834.000000,-2.271650,-1.662698,1.370199,-1.473380,1.689747,1.434414,-0.589368,0.149762,-0.009863,1.104682,-0.050284,-0.108713,1.071181,-0.017357,-1.925311,38.888592,-24.289749,-3.920107,0.434354,1.923629,-0.208878,0.000000,0.000000,0.000000,0.000000,0.000000,0.000000
12596835.000000,-2.271500,-1.662702,1.371307,-1.473430,1.689643,1.435500,-0.589391,0.151061,-0.010414,1.099820,-0.051840,-0.104383,1.091694,-0.019383,-1.925311,38.864788,-24.265945,-3.797121,0.422452,1.890670,-0.163102,0.000000,0.000000,0.000000,0.000000,0.000000,0.000000
12596836.000000,-2.271358,-1.662700,1.372385,-1.473472,1.689543,1.436610,-0.589401,0.146889,-0.009079,1.096135,-0.047063,-0.101021,1.096462,-0.017509,-1.873736,38.765606,-24.019974,-3.797121,0.398649,1.767074,-0.208878,0.000000,0.000000,0.000000,0.000000,0.000000,0.000000
12596837.000000,-2.271216,-1.662697,1.373485,-1.473510,1.689451,1.437720,-0.589414,0.146134,-0.004195,1.090098,-0.045907,-0.100878,1.093265,-0.017168,-1.802325,38.642620,-23.920792,-3.820925,0.315336,1.682845,-0.229020,0.000000,0.000000,0.000000,0.000000,0.000000,0.000000
12596838.000000,-2.271087,-1.662698,1.374586,-1.473552,1.689350,1.438802,-0.589435,0.141122,-0.005390,1.087185,-0.044184,-0.105332,1.091429,-0.019925,-1.651568,38.571209,-23.750198,-3.769350,0.344633,1.714889,-0.169511,0.000000,0.000000,0.000000,0.000000,0.000000,0.000000
12596839.000000,-2.270955,-1.662703,1.375678,-1.473592,1.689248,1.439890,-0.589443,0.137904,-0.005572,1.092507,-0.042642,-0.104254,1.088621,-0.017674,-1.528582,38.618816,-23.702591,-3.721742,0.393156,1.793624,-0.221696,0.000000,0.000000,0.000000,0.000000,0.000000,0.000000
12596840.000000,-2.270821,-1.662703,1.376787,-1.473634,1.689144,1.440977,-0.589461,0.133032,-0.003250,1.090061,-0.040410,-0.103099,1.096591,-0.014294,-1.429400,38.571209,-23.801773,-3.598757,0.434354,1.949264,-0.196061,0.000000,0.000000,0.000000,0.000000,0.000000,0.000000
12596841.000000,-2.270695,-1.662708,1.377903,-1.473670,1.689047,1.442068,-0.589480,0.128855,-0.003210,1.121422,-0.039139,-0.100680,1.089196,-0.016956,-1.306414,38.595013,-24.142960,-3.570986,0.434354,1.942855,-0.155778,0.000000,0.000000,0.000000,0.000000,0.000000,0.000000
12596842.000000,-2.270571,-1.662699,1.379042,-1.473703,1.688958,1.443182,-0.589489,0.128746,-0.000185,1.128257,-0.035271,-0.101016,1.085818,-0.011088,-1.159625,38.495831,-24.634903,-3.547182,0.374845,1.832076,-0.196061,0.000000,0.000000,0.000000,0.000000,0.000000,0.000000
12596843.000000,-2.270453,-1.662701,1.380172,-1.473736,1.688860,1.444268,-0.589502,0.124728,-0.000954,1.122781,-0.033073,-0.098971,1.083118,-0.008857,-1.032672,38.519634,-25.003860,-3.499574,0.362943,1.800033,-0.182328,0.000000,0.000000,0.000000,0.000000,0.000000,0.000000
12596844.000000,-2.270334,-1.662704,1.381283,-1.473768,1.688758,1.445358,-0.589510,0.124212,-0.002047,1.117456,-0.031020,-0.103090,1.084878,-0.005876,-0.961260,38.571209,-25.273636,-3.475771,0.374845,1.858627,-0.202470,0.000000,0.000000,0.000000,0.000000,0.000000,0.000000
12596845.000000,-2.270216,-1.662712,1.382406,-1.473799,1.688658,1.446444,-0.589522,0.120876,-0.004303,1.118668,-0.032843,-0.101823,1.096290,-0.008671,-0.909686,38.690228,-25.396622,-3.424196,0.398649,1.955673,-0.215287,0.000000,0.000000,0.000000,0.000000,0.000000,0.000000
12596846.000000,-2.270099,-1.662718,1.383521,-1.473829,1.688555,1.447507,-0.589536,0.118384,-0.004747,1.110120,-0.031244,-0.097293,1.087859,-0.012487,-0.862078,38.765606,-25.345047,-3.376589,0.458158,2.098495,-0.182328,0.000000,0.000000,0.000000,0.000000,0.000000,0.000000
12596847.000000,-2.269986,-1.662723,1.384610,-1.473863,1.688454,1.448597,-0.589542,0.116255,-0.004365,1.100551,-0.032399,-0.096855,1.087044,-0.007853,-0.810504,38.813213,-25.126846,-3.225832,0.476469,2.079269,-0.221696,0.000000,0.000000,0.000000,0.000000,0.000000,0.000000
12596848.000000,-2.269867,-1.662726,1.385713,-1.473897,1.688361,1.449681,-0.589559,0.117115,-0.003532,1.095234,-0.035273,-0.095171,1.085287,-0.012139,-0.862078,38.837017,-24.952286,-3.102846,0.470060,1.916305,-0.182328,0.000000,0.000000,0.000000,0.000000,0.000000,0.000000
12596849.000000,-2.269749,-1.662731,1.386802,-1.473930,1.688264,1.450774,-0.589571,0.117815,-0.004166,1.093612,-0.032240,-0.094505,1.083364,-0.008531,-0.933489,38.912395,-24.757889,-2.956056,0.458158,1.773483,-0.196061,0.000000,0.000000,0.000000,0.000000,0.000000,0.000000
12596850.000000,-2.269646,-1.662740,1.387890,-1.473958,1.688165,1.451872,-0.589579,0.110786,-0.005691,1.085432,-0.031652,-0.093997,1.077924,-0.010146,-0.834307,39.035381,-24.365128,-2.856874,0.446256,1.689254,-0.221696,0.000000,0.000000,0.000000,0.000000,0.000000,0.000000
12596851.000000,-2.269540,-1.662745,1.388998,-1.473983,1.688066,1.452940,-0.589600,0.107481,-0.004935,1.083135,-0.030066,-0.094770,1.072107,-0.010129,-0.810504,39.082989,-24.265945,-2.805300,0.464567,1.779891,-0.155778,0.000000,0.000000,0.000000,0.000000,0.000000,0.000000
12596852.000000,-2.269441,-1.662750,1.390084,-1.474003,1.687972,1.454023,-0.589602,0.102974,-0.003867,1.087973,-0.024926,-0.092557,1.073371,-0.009195,-0.687518,39.106792,-24.142960,-2.805300,0.416959,1.884261,-0.235429,0.000000,0.000000,0.000000,0.000000,0.000000,0.000000
12596853.000000,-2.269345,-1.662757,1.391182,-1.474019,1.687874,1.455138,-0.589616,0.102482,-0.003800,1.087499,-0.020036,-0.093337,1.098399,-0.008262,-0.540728,39.158367,-23.972366,-2.856874,0.422452,1.714889,-0.202470,0.000000,0.000000,0.000000,0.000000,0.000000,0.000000
12596854.000000,-2.269250,-1.662751,1.392276,-1.474020,1.687782,1.456238,-0.589632,0.099284,0.000332,1.091283,-0.013146,-0.098047,1.108342,-0.007412,-0.413775,39.035381,-24.019974,-3.055238,0.416959,1.526290,-0.169511,0.000000,0.000000,0.000000,0.000000,0.000000,0.000000
12596855.000000,-2.269157,-1.662751,1.393392,-1.474026,1.687690,1.457344,-0.589634,0.094929,0.001976,1.095386,-0.008489,-0.100682,1.107774,-0.008209,-0.342364,38.960003,-24.242142,-3.126650,0.393156,1.416427,-0.221696,0.000000,0.000000,0.000000,0.000000,0.000000,0.000000
12596856.000000,-2.269062,-1.662750,1.394505,-1.474036,1.687589,1.458424,-0.589647,0.098580,0.002981,1.097074,-0.007263,-0.100951,1.101873,-0.007706,-0.314593,38.888592,-24.313553,-3.102846,0.440763,1.481429,-0.182328,0.000000,0.000000,0.000000,0.000000,0.000000,0.000000
12596857.000000,-2.268966,-1.662759,1.395584,-1.474040,1.687482,1.459505,-0.589656,0.096352,0.000312,1.088202,-0.007323,-0.101755,1.092110,-0.005481,-0.314593,38.960003,-24.218338,-3.154421,0.506681,1.689254,-0.188737,0.000000,0.000000,0.000000,0.000000,0.000000,0.000000
12596858.000000,-2.268870,-1.662763,1.396668,-1.474050,1.687375,1.460596,-0.589667,0.098313,-0.000352,1.077537,-0.009806,-0.101078,1.099500,-0.004802,-0.342364,38.983807,-24.043777,-3.102846,0.542386,1.851302,-0.169511,0.000000,0.000000,0.000000,0.000000,0.000000,0.000000
12596859.000000,-2.268773,-1.662763,1.397749,-1.474047,1.687282,1.461679,-0.589670,0.098695,0.000876,1.081223,-0.005638,-0.097224,1.088321,-0.001087,-0.465350,38.936199,-23.972366,-3.178224,0.494779,1.930038,-0.235429,0.000000,0.000000,0.000000,0.000000,0.000000,0.000000
12596860.000000,-2.268678,-1.662762,1.398844,-1.474051,1.687197,1.462791,-0.589687,0.097473,0.002252,1.078614,-0.004963,-0.092504,1.088465,-0.003649,-0.540728,38.864788,-23.972366,-3.154421,0.393156,1.877853,-0.163102,0.000000,0.000000,0.000000,0.000000,0.000000,0.000000
12596861.000000,-2.268586,-1.662752,1.399928,-1.474047,1.687114,1.463900,-0.589690,0.095801,0.004934,1.073653,-0.002681,-0.089800,1.092057,-0.001396,-0.588336,38.717999,-23.774002,-3.202028,0.303434,1.676437,-0.196061,0.000000,0.000000,0.000000,0.000000,0.000000,0.000000
