chaoyuefei/paper-gmrm-data/robot_logs/s2_dq_mrm_min_0.30_log_20260314_172258.csv
# time_ms,q_0,q_1,q_2,q_3,q_4,q_5,q_6,dq_0,dq_1,dq_2,dq_3,dq_4,dq_5,dq_6,tau_J_0,tau_J_1,tau_J_2,tau_J_3,tau_J_4,tau_J_5,tau_J_6,O_dP_EE_c_0,O_dP_EE_c_1,O_dP_EE_c_2,O_dP_EE_c_3,O_dP_EE_c_4,O_dP_EE_c_5
11640937.000000,-2.418265,-1.662584,1.039419,-1.352483,1.798424,1.078675,-0.546411,0.000117,0.000441,-0.000446,0.000075,-0.000270,-0.000306,0.000530,-0.068621,41.554607,-20.905655,-5.820436,0.913175,1.344100,0.021835,0.000000,0.000000,0.000000,0.000000,0.000000,0.000000
11640938.000000,-2.418268,-1.662584,1.039421,-1.352483,1.798425,1.078675,-0.546410,-0.001685,0.000294,0.000259,0.000050,0.000057,-0.000204,0.000591,0.006757,41.554607,-20.929459,-5.820436,0.906766,1.344100,0.015426,0.000000,0.000000,0.000000,0.000000,0.000000,0.000000
11640939.000000,-2.418268,-1.662586,1.039419,-1.352483,1.798423,1.078678,-0.546413,-0.001123,-0.000361,-0.000384,0.000034,-0.000403,0.000576,-0.000590,0.006757,41.578411,-20.905655,-5.820436,0.918668,1.324874,0.041976,0.000000,0.000000,0.000000,0.000000,0.000000,0.000000
11640940.000000,-2.418268,-1.662586,1.039423,-1.352484,1.798425,1.078673,-0.546414,-0.000192,-0.000240,0.000858,-0.000534,0.000410,-0.000091,0.000353,-0.017047,41.578411,-20.953262,-5.796632,0.900358,1.337692,0.021835,0.000000,0.000000,0.000000,0.000000,0.000000,0.000000
11640941.000000,-2.418263,-1.662586,1.039421,-1.352484,1.798426,1.078674,-0.546417,0.001078,-0.000160,0.000015,-0.000356,0.000477,-0.000298,-0.001223,-0.068621,41.578411,-20.929459,-5.796632,0.894864,1.344100,0.061202,0.000000,0.000000,0.000000,0.000000,0.000000,0.000000
11640942.000000,-2.418259,-1.662585,1.039421,-1.352482,1.798425,1.078675,-0.546411,0.006302,-0.001486,0.005792,0.002371,-0.009348,0.008505,-0.006528,0.228925,41.507000,-20.905655,-5.772829,0.876554,1.370651,-0.037675,0.000000,0.000000,0.000000,0.000000,0.000000,0.000000
11640943.000000,-2.418252,-1.662587,1.039421,-1.352480,1.798424,1.078666,-0.546432,0.015510,-0.004255,0.005787,0.004864,-0.009107,0.004390,-0.015543,1.268354,41.237225,-20.830276,-5.626039,0.786832,1.552840,-0.011124,0.000000,0.000000,0.000000,0.000000,0.000000,0.000000
11640944.000000,-2.418222,-1.662592,1.039431,-1.352475,1.798429,1.078666,-0.546459,0.022090,-0.004558,0.007693,0.004980,-0.006366,0.005101,-0.019695,2.827497,40.872234,-20.830276,-5.399904,0.625699,1.786300,-0.050492,0.000000,0.000000,0.000000,0.000000,0.000000,0.000000
11640945.000000,-2.418173,-1.662589,1.039453,-1.352481,1.798413,1.078686,-0.546499,0.027574,-0.001872,0.013247,-0.001127,-0.009126,0.010746,-0.028118,4.707990,40.356487,-20.877884,-5.030946,0.584501,1.884261,-0.077042,0.000000,0.000000,0.000000,0.000000,0.000000,0.000000
11640946.000000,-2.418111,-1.662587,1.039470,-1.352496,1.798385,1.078737,-0.546559,0.035330,-0.000547,0.012846,-0.008965,-0.018730,0.026201,-0.042042,6.564680,39.840740,-20.731094,-4.634218,0.608304,1.806442,-0.037675,0.000000,0.000000,0.000000,0.000000,0.000000,0.000000
11640947.000000,-2.418017,-1.662586,1.039499,-1.352527,1.798350,1.078818,-0.546631,0.048184,0.002600,0.015523,-0.022454,-0.025798,0.047564,-0.053751,8.123822,39.352764,-20.683487,-4.166078,0.637601,1.578475,-0.070634,0.000000,0.000000,0.000000,0.000000,0.000000,0.000000
11640948.000000,-2.417921,-1.662585,1.039535,-1.352568,1.798300,1.078917,-0.546725,0.067223,0.003637,0.022637,-0.031070,-0.036677,0.065237,-0.068950,9.587750,38.912395,-20.608109,-3.745546,0.679716,1.402694,-0.064225,0.000000,0.000000,0.000000,0.000000,0.000000,0.000000
11640949.000000,-2.417805,-1.662580,1.039580,-1.352621,1.798236,1.079027,-0.546836,0.081197,0.005331,0.033472,-0.042469,-0.049567,0.082590,-0.084121,10.825543,38.424419,-20.512894,-3.376589,0.715421,1.344100,-0.083451,0.000000,0.000000,0.000000,0.000000,0.000000,0.000000
11640950.000000,-2.417676,-1.662582,1.039641,-1.352687,1.798163,1.079162,-0.546975,0.093121,0.005101,0.044995,-0.050453,-0.060476,0.100262,-0.106204,11.936383,38.130840,-20.536697,-3.027467,0.649503,1.324874,-0.064225,0.000000,0.000000,0.000000,0.000000,0.000000,0.000000
11640951.000000,-2.417533,-1.662569,1.039707,-1.352755,1.798070,1.079309,-0.547129,0.108812,0.008785,0.051106,-0.056003,-0.078191,0.117502,-0.121810,12.876630,37.686504,-20.461319,-2.833071,0.554288,1.435653,-0.070634,0.000000,0.000000,0.000000,0.000000,0.000000,0.000000
11640952.000000,-2.417378,-1.662560,1.039793,-1.352843,1.797951,1.079481,-0.547299,0.121954,0.009003,0.063039,-0.066119,-0.092621,0.141151,-0.134530,13.721662,37.345318,-20.560501,-2.658510,0.476469,1.546432,-0.037675,0.000000,0.000000,0.000000,0.000000,0.000000,0.000000
11640953.000000,-2.417207,-1.662547,1.039893,-1.352939,1.797818,1.079692,-0.547470,0.138140,0.009291,0.074605,-0.078243,-0.107312,0.164962,-0.150666,14.463544,37.004131,-20.659683,-2.583132,0.369352,1.611434,-0.064225,0.000000,0.000000,0.000000,0.000000,0.000000,0.000000
11640954.000000,-2.417021,-1.662526,1.040005,-1.353055,1.797660,1.079934,-0.547650,0.155745,0.011919,0.086268,-0.091270,-0.127254,0.190752,-0.160578,15.030866,36.563763,-20.754898,-2.483949,0.381254,1.611434,-0.089860,0.000000,0.000000,0.000000,0.000000,0.000000,0.000000
11640955.000000,-2.416818,-1.662510,1.040132,-1.353193,1.797473,1.080203,-0.547844,0.170343,0.011528,0.098760,-0.109359,-0.145052,0.212686,-0.174082,15.479169,36.218609,-20.877884,-2.313356,0.446256,1.526290,-0.044083,0.000000,0.000000,0.000000,0.000000,0.000000,0.000000
11640956.000000,-2.416594,-1.662491,1.040273,-1.353344,1.797271,1.080495,-0.548020,0.191824,0.011827,0.111560,-0.124716,-0.169458,0.232265,-0.180708,15.748944,35.853619,-21.024673,-2.190370,0.488370,1.461288,-0.089860,0.000000,0.000000,0.000000,0.000000,0.000000,0.000000
11640957.000000,-2.416356,-1.662473,1.040431,-1.353519,1.797044,1.080807,-0.548206,0.210298,0.014108,0.127388,-0.140398,-0.187512,0.258810,-0.182428,15.998883,35.536236,-21.199234,-2.015810,0.584501,1.467696,-0.103593,0.000000,0.000000,0.000000,0.000000,0.000000,0.000000
11640958.000000,-2.416105,-1.662456,1.040599,-1.353699,1.796800,1.081148,-0.548407,0.223986,0.014816,0.135513,-0.157707,-0.207120,0.285273,-0.186688,16.268660,35.266460,-21.322220,-2.015810,0.584501,1.461288,-0.044083,0.000000,0.000000,0.000000,0.000000,0.000000,0.000000
11640959.000000,-2.415837,-1.662447,1.040775,-1.353901,1.796540,1.081511,-0.548593,0.239714,0.011522,0.149820,-0.171139,-0.234103,0.303655,-0.185082,16.443220,35.167278,-21.393631,-2.015810,0.518583,1.461288,-0.097184,0.000000,0.000000,0.000000,0.000000,0.000000,0.000000
11640960.000000,-2.415552,-1.662435,1.040955,-1.354119,1.796259,1.081875,-0.548787,0.254757,0.009495,0.158928,-0.185789,-0.247661,0.325605,-0.190923,16.590010,35.068096,-21.393631,-1.964235,0.494779,1.546432,-0.083451,0.000000,0.000000,0.000000,0.000000,0.000000,0.000000
11640961.000000,-2.415253,-1.662426,1.041151,-1.354348,1.795971,1.082268,-0.548978,0.270256,0.010092,0.169318,-0.199917,-0.256725,0.343781,-0.190045,16.641584,35.020489,-21.417435,-1.916628,0.393156,1.656295,-0.089860,0.000000,0.000000,0.000000,0.000000,0.000000,0.000000
11640962.000000,-2.414928,-1.662425,1.041351,-1.354609,1.795659,1.082675,-0.549167,0.287881,0.005582,0.175507,-0.219917,-0.275674,0.365365,-0.188856,16.617781,35.068096,-21.346024,-1.718263,0.374845,1.714889,-0.110001,0.000000,0.000000,0.000000,0.000000,0.000000,0.000000
11640963.000000,-2.414599,-1.662427,1.041565,-1.354881,1.795323,1.083117,-0.549358,0.302005,0.001934,0.184479,-0.241600,-0.294659,0.393006,-0.189619,16.740767,35.143475,-21.322220,-1.571474,0.356534,1.708480,-0.089860,0.000000,0.000000,0.000000,0.000000,0.000000,0.000000
11640964.000000,-2.414244,-1.662426,1.041780,-1.355168,1.794973,1.083594,-0.549543,0.322861,0.001271,0.190915,-0.253038,-0.310272,0.415835,-0.188487,16.716963,35.143475,-21.147659,-1.420717,0.369352,1.617843,-0.116410,0.000000,0.000000,0.000000,0.000000,0.000000,0.000000
11640965.000000,-2.413885,-1.662426,1.042014,-1.355478,1.794609,1.084071,-0.549734,0.340206,0.001390,0.205244,-0.267105,-0.329102,0.431843,-0.188242,16.764570,35.119671,-21.100052,-1.297731,0.440763,1.565658,-0.110001,0.000000,0.000000,0.000000,0.000000,0.000000,0.000000
11640966.000000,-2.413525,-1.662430,1.042261,-1.355788,1.794214,1.084587,-0.549926,0.350510,-0.000197,0.215633,-0.279464,-0.345785,0.459167,-0.186544,16.939131,35.167278,-21.052444,-1.250124,0.476469,1.532699,-0.070634,0.000000,0.000000,0.000000,0.000000,0.000000,0.000000
11640967.000000,-2.413143,-1.662435,1.042511,-1.356106,1.793815,1.085124,-0.550110,0.364027,-0.001810,0.226332,-0.289879,-0.359202,0.477535,-0.184864,17.062117,35.238689,-21.000870,-1.273927,0.512174,1.487838,-0.130143,0.000000,0.000000,0.000000,0.000000,0.000000,0.000000
11640968.000000,-2.412751,-1.662435,1.042770,-1.356443,1.793395,1.085671,-0.550301,0.372199,-0.001212,0.233234,-0.305166,-0.374542,0.505382,-0.181972,17.335859,35.238689,-20.877884,-1.273927,0.542386,1.494247,-0.077042,0.000000,0.000000,0.000000,0.000000,0.000000,0.000000
11640969.000000,-2.412353,-1.662437,1.043045,-1.356786,1.792959,1.086240,-0.550479,0.380928,-0.001462,0.244421,-0.316099,-0.391779,0.521354,-0.179308,17.605635,35.266460,-20.877884,-1.297731,0.458158,1.584884,-0.064225,0.000000,0.000000,0.000000,0.000000,0.000000,0.000000
11640970.000000,-2.411933,-1.662437,1.043326,-1.357155,1.792514,1.086825,-0.550650,0.396644,-0.000978,0.256062,-0.329385,-0.402141,0.546653,-0.178904,17.780195,35.266460,-20.877884,-1.226320,0.428861,1.624252,-0.122819,0.000000,0.000000,0.000000,0.000000,0.000000,0.000000
11640971.000000,-2.411503,-1.662435,1.043621,-1.357527,1.792048,1.087453,-0.550825,0.409422,-0.000654,0.266483,-0.339758,-0.419655,0.572528,-0.178529,18.026167,35.266460,-20.830276,-1.150941,0.422452,1.565658,-0.083451,0.000000,0.000000,0.000000,0.000000,0.000000,0.000000
11640972.000000,-2.411060,-1.662432,1.043923,-1.357925,1.791571,1.088106,-0.550989,0.425268,0.000212,0.277982,-0.359565,-0.446790,0.600466,-0.174869,18.200727,35.238689,-20.782669,-0.952577,0.416959,1.494247,-0.122819,0.000000,0.000000,0.000000,0.000000,0.000000,0.000000
11640973.000000,-2.410597,-1.662424,1.044233,-1.358334,1.791076,1.088772,-0.551157,0.434627,0.002924,0.286190,-0.372880,-0.456650,0.614906,-0.173469,18.375288,35.119671,-20.731094,-0.829591,0.470060,1.377059,-0.122819,0.000000,0.000000,0.000000,0.000000,0.000000,0.000000
11640974.000000,-2.410130,-1.662415,1.044555,-1.358756,1.790560,1.089460,-0.551330,0.442072,0.004825,0.295314,-0.390766,-0.474415,0.632200,-0.174721,18.573652,34.996685,-20.683487,-0.631227,0.542386,1.279098,-0.077042,0.000000,0.000000,0.000000,0.000000,0.000000,0.000000
11640975.000000,-2.409638,-1.662408,1.044885,-1.359193,1.790048,1.090151,-0.551488,0.449361,0.004979,0.311445,-0.404761,-0.490205,0.644807,-0.166325,18.422895,34.921307,-20.608109,-0.508241,0.667814,1.234237,-0.142960,0.000000,0.000000,0.000000,0.000000,0.000000,0.000000
11640976.000000,-2.409147,-1.662398,1.045225,-1.359643,1.789529,1.090868,-0.551654,0.455384,0.005546,0.321821,-0.421894,-0.499003,0.667010,-0.168321,17.728621,34.826092,-20.191544,-0.532045,0.739225,1.305648,-0.116410,0.000000,0.000000,0.000000,0.000000,0.000000,0.000000
11640977.000000,-2.408674,-1.662386,1.045595,-1.360109,1.788998,1.091594,-0.551809,0.457351,0.008894,0.336741,-0.434720,-0.519320,0.686498,-0.166895,16.518599,34.603924,-19.774979,-0.829591,0.817045,1.396285,-0.163102,0.000000,0.000000,0.000000,0.000000,0.000000,0.000000
11640978.000000,-2.408198,-1.662370,1.045991,-1.360591,1.788485,1.092332,-0.551975,0.463230,0.011297,0.355483,-0.442547,-0.518617,0.702517,-0.168775,14.733319,34.238934,-19.259232,-1.250124,0.817045,1.454879,-0.122819,0.000000,0.000000,0.000000,0.000000,0.000000,0.000000
11640979.000000,-2.407733,-1.662358,1.046406,-1.361076,1.787972,1.093105,-0.552132,0.470586,0.010273,0.371514,-0.455329,-0.511615,0.714836,-0.168216,12.904401,33.846172,-18.572891,-1.670656,0.644010,1.448470,-0.149369,0.000000,0.000000,0.000000,0.000000,0.000000,0.000000
11640980.000000,-2.407274,-1.662347,1.046852,-1.361567,1.787472,1.093874,-0.552297,0.474280,0.012704,0.395974,-0.458039,-0.503804,0.731888,-0.165111,10.996137,33.429607,-17.957962,-2.091188,0.506681,1.357833,-0.116410,0.000000,0.000000,0.000000,0.000000,0.000000,0.000000
11640981.000000,-2.406817,-1.662343,1.047317,-1.362059,1.786975,1.094663,-0.552458,0.472919,0.013695,0.415727,-0.465946,-0.500168,0.742734,-0.160692,9.238629,33.036846,-17.247818,-2.460146,0.297025,1.220504,-0.136552,0.000000,0.000000,0.000000,0.000000,0.000000,0.000000
11640982.000000,-2.406364,-1.662341,1.047804,-1.362565,1.786476,1.095461,-0.552620,0.476005,0.009385,0.431174,-0.476864,-0.496235,0.756239,-0.164662,7.655683,32.719463,-16.708267,-2.606935,0.171598,1.052047,-0.110001,0.000000,0.000000,0.000000,0.000000,0.000000,0.000000
11640983.000000,-2.405914,-1.662345,1.048286,-1.363060,1.785993,1.096229,-0.552782,0.470252,0.004496,0.446147,-0.478560,-0.495659,0.758738,-0.161870,6.294904,32.473492,-16.017960,-2.856874,0.112089,0.960494,-0.083451,0.000000,0.000000,0.000000,0.000000,0.000000,0.000000
11640984.000000,-2.405472,-1.662351,1.048783,-1.363543,1.785496,1.097007,-0.552932,0.464040,0.000922,0.457692,-0.479273,-0.491676,0.758054,-0.161961,5.203901,32.231487,-15.383194,-3.154421,0.117582,0.895492,-0.103593,0.000000,0.000000,0.000000,0.000000,0.000000,0.000000
11640985.000000,-2.405034,-1.662357,1.049274,-1.364013,1.785012,1.097791,-0.553086,0.456058,0.001053,0.477023,-0.474942,-0.487769,0.759833,-0.158622,4.339033,32.009319,-14.768265,-3.523378,0.225614,0.804855,-0.122819,0.000000,0.000000,0.000000,0.000000,0.000000,0.000000
11640986.000000,-2.404584,-1.662364,1.049771,-1.364486,1.784530,1.098548,-0.553241,0.454035,-0.002569,0.482266,-0.470086,-0.487608,0.758791,-0.161673,3.545576,31.814922,-14.153336,-3.844728,0.273221,0.830489,-0.116410,0.000000,0.000000,0.000000,0.000000,0.000000,0.000000
11640987.000000,-2.404138,-1.662369,1.050277,-1.364959,1.784049,1.099306,-0.553394,0.450532,-0.001827,0.484897,-0.475200,-0.480657,0.754089,-0.159451,2.803693,31.616558,-13.637589,-3.943910,0.297025,0.895492,-0.116410,0.000000,0.000000,0.000000,0.000000,0.000000,0.000000
11640988.000000,-2.403676,-1.662382,1.050775,-1.365443,1.783584,1.100047,-0.553546,0.451025,-0.006688,0.487650,-0.473052,-0.476451,0.751078,-0.156262,2.034040,31.521343,-13.121841,-3.820925,0.339139,1.006271,-0.136552,0.000000,0.000000,0.000000,0.000000,0.000000,0.000000
11640989.000000,-2.403208,-1.662386,1.051281,-1.365926,1.783111,1.100814,-0.553695,0.451636,-0.007123,0.489804,-0.478512,-0.474492,0.757310,-0.156060,1.343732,31.299175,-12.657669,-3.547182,0.315336,0.993453,-0.175919,0.000000,0.000000,0.000000,0.000000,0.000000,0.000000
11640990.000000,-2.402733,-1.662382,1.051798,-1.366422,1.782654,1.101582,-0.553852,0.459246,-0.002670,0.495058,-0.482731,-0.475703,0.765514,-0.158316,0.574079,31.005596,-12.312515,-3.102846,0.261320,0.922042,-0.110001,0.000000,0.000000,0.000000,0.000000,0.000000,0.000000
11640991.000000,-2.402255,-1.662374,1.052316,-1.366916,1.782202,1.102339,-0.554004,0.459087,0.000915,0.502306,-0.481545,-0.472939,0.760487,-0.155937,-0.116229,30.688213,-12.141922,-2.805300,0.154203,0.850631,-0.116410,0.000000,0.000000,0.000000,0.000000,0.000000,0.000000
11640992.000000,-2.401790,-1.662358,1.052845,-1.367384,1.781744,1.103099,-0.554148,0.460715,0.005778,0.509540,-0.479843,-0.470168,0.753678,-0.152636,-0.564532,30.271648,-11.971329,-2.658510,0.064481,0.830489,-0.169511,0.000000,0.000000,0.000000,0.000000,0.000000,0.000000
11640993.000000,-2.401320,-1.662346,1.053371,-1.367858,1.781292,1.103838,-0.554302,0.461405,0.009383,0.513371,-0.475495,-0.457518,0.753290,-0.152860,-0.933489,29.978069,-11.848343,-2.606935,0.058073,0.850631,-0.149369,0.000000,0.000000,0.000000,0.000000,0.000000,0.000000
11640994.000000,-2.400856,-1.662328,1.053903,-1.368314,1.780827,1.104581,-0.554464,0.460197,0.011263,0.521088,-0.473114,-0.463518,0.755906,-0.159114,-1.084246,29.585308,-11.673782,-2.706117,0.088285,0.987045,-0.097184,0.000000,0.000000,0.000000,0.000000,0.000000,0.000000
11640995.000000,-2.400395,-1.662306,1.054456,-1.368771,1.780365,1.105322,-0.554612,0.465216,0.016237,0.532102,-0.464287,-0.465130,0.752896,-0.154656,-1.306414,29.168743,-11.626175,-2.856874,0.105680,1.201278,-0.155778,0.000000,0.000000,0.000000,0.000000,0.000000,0.000000
11640996.000000,-2.399921,-1.662285,1.055009,-1.369226,1.779914,1.106053,-0.554772,0.465217,0.015976,0.539772,-0.461509,-0.466349,0.742649,-0.155380,-1.552386,28.779949,-11.550797,-3.003664,0.189908,1.285506,-0.103593,0.000000,0.000000,0.000000,0.000000,0.000000,0.000000
11640997.000000,-2.399453,-1.662262,1.055574,-1.369669,1.779452,1.106822,-0.554926,0.478983,0.019001,0.544445,-0.452945,-0.459936,0.745481,-0.153353,-1.802325,28.387188,-11.479385,-3.154421,0.243009,1.155502,-0.122819,0.000000,0.000000,0.000000,0.000000,0.000000,0.000000
11640998.000000,-2.398972,-1.662241,1.056133,-1.370125,1.779010,1.107596,-0.555087,0.479710,0.018907,0.553250,-0.449288,-0.453486,0.760621,-0.157496,-2.199053,28.093609,-11.308792,-3.178224,0.225614,0.915633,-0.122819,0.000000,0.000000,0.000000,0.000000,0.000000,0.000000
11640999.000000,-2.398488,-1.662228,1.056715,-1.370560,1.778562,1.108366,-0.555244,0.479121,0.015568,0.568676,-0.443712,-0.454242,0.762033,-0.156672,-2.544207,27.946819,-11.209610,-3.225832,0.231107,0.830489,-0.110001,0.000000,0.000000,0.000000,0.000000,0.000000,0.000000
11641000.000000,-2.398008,-1.662209,1.057290,-1.370999,1.778114,1.109123,-0.555387,0.477565,0.017165,0.566135,-0.438378,-0.448086,0.757285,-0.152533,-2.917132,27.776226,-10.963638,-3.301210,0.178007,0.869857,-0.182328,0.000000,0.000000,0.000000,0.000000,0.000000,0.000000
11641001.000000,-2.397519,-1.662204,1.057868,-1.371437,1.777676,1.109863,-0.555546,0.484178,0.010884,0.572733,-0.437621,-0.440411,0.753553,-0.153838,-3.238482,27.800030,-10.646255,-3.348818,0.178007,0.954086,-0.130143,0.000000,0.000000,0.000000,0.000000,0.000000,0.000000
11641002.000000,-2.397024,-1.662197,1.058453,-1.371863,1.777243,1.110623,-0.555698,0.486635,0.009872,0.571765,-0.433418,-0.441559,0.752497,-0.154495,-3.607440,27.823833,-10.277298,-3.448000,0.112089,0.960494,-0.110001,0.000000,0.000000,0.000000,0.000000,0.000000,0.000000
11641003.000000,-2.396532,-1.662190,1.059041,-1.372277,1.776813,1.111378,-0.555846,0.490377,0.009349,0.593169,-0.430466,-0.434023,0.753354,-0.156737,-4.004168,27.847637,-9.983719,-3.670168,0.069974,0.960494,-0.149369,0.000000,0.000000,0.000000,0.000000,0.000000,0.000000
11641004.000000,-2.396033,-1.662186,1.059652,-1.372696,1.776380,1.112127,-0.556001,0.493581,0.006128,0.599020,-0.423960,-0.429817,0.752808,-0.152356,-4.377093,27.871441,-9.809158,-3.820925,0.076383,0.915633,-0.103593,0.000000,0.000000,0.000000,0.000000,0.000000,0.000000
11641005.000000,-2.395541,-1.662187,1.060275,-1.373097,1.775945,1.112886,-0.556140,0.490222,0.005122,0.601793,-0.419564,-0.434397,0.752723,-0.143961,-4.746050,27.970623,-9.686172,-4.090700,0.046171,0.895492,-0.188737,0.000000,0.000000,0.000000,0.000000,0.000000,0.000000
11641006.000000,-2.395034,-1.662188,1.060893,-1.373500,1.775513,1.113621,-0.556302,0.495124,0.002158,0.602897,-0.416570,-0.431965,0.753402,-0.145211,-5.166583,28.046001,-9.515579,-4.312868,0.088285,0.922042,-0.070634,0.000000,0.000000,0.000000,0.000000,0.000000,0.000000
11641007.000000,-2.394534,-1.662191,1.061540,-1.373902,1.775090,1.114373,-0.556442,0.494352,-0.000409,0.616340,-0.416350,-0.426721,0.753337,-0.145067,-5.464129,28.141216,-9.515579,-4.364442,0.081876,0.941268,-0.122819,0.000000,0.000000,0.000000,0.000000,0.000000,0.000000
11641008.000000,-2.394033,-1.662192,1.062201,-1.374300,1.774672,1.115129,-0.556585,0.497117,-0.000545,0.629141,-0.410193,-0.434534,0.757249,-0.141525,-5.785479,28.165020,-9.614761,-4.511232,0.015958,0.993453,-0.130143,0.000000,0.000000,0.000000,0.000000,0.000000,0.000000
11641009.000000,-2.393521,-1.662193,1.062872,-1.374698,1.774250,1.115875,-0.556735,0.502489,-0.000800,0.643436,-0.407285,-0.429062,0.748598,-0.145444,-6.182208,28.192791,-9.809158,-4.610414,-0.019747,0.974227,-0.083451,0.000000,0.000000,0.000000,0.000000,0.000000,0.000000
11641010.000000,-2.393016,-1.662190,1.063558,-1.375088,1.773838,1.116641,-0.556872,0.506033,0.000834,0.652597,-0.401525,-0.422849,0.758059,-0.144431,-6.531329,28.141216,-10.007523,-4.709596,-0.097567,0.850631,-0.142960,0.000000,0.000000,0.000000,0.000000,0.000000,0.000000
11641011.000000,-2.392507,-1.662195,1.064241,-1.375473,1.773416,1.117398,-0.557024,0.511195,-0.001087,0.664254,-0.395709,-0.421693,0.764632,-0.143369,-6.824908,28.216595,-10.102737,-4.832582,-0.091158,0.785628,-0.097184,0.000000,0.000000,0.000000,0.000000,0.000000,0.000000
11641012.000000,-2.391992,-1.662196,1.064949,-1.375855,1.772989,1.118131,-0.557164,0.510257,-0.001192,0.676566,-0.400391,-0.416711,0.750389,-0.143790,-7.197833,28.240398,-10.324905,-4.907960,-0.037142,1.006271,-0.136552,0.000000,0.000000,0.000000,0.000000,0.000000,0.000000
11641013.000000,-2.391481,-1.662205,1.065662,-1.376248,1.772571,1.118866,-0.557304,0.515041,-0.003604,0.687394,-0.399279,-0.419681,0.743792,-0.144030,-7.542986,28.363384,-10.372513,-4.884157,-0.019747,1.214095,-0.175919,0.000000,0.000000,0.000000,0.000000,0.000000,0.000000
11641014.000000,-2.390964,-1.662220,1.066377,-1.376641,1.772141,1.119603,-0.557461,0.509576,-0.007456,0.698760,-0.396213,-0.422306,0.737736,-0.148646,-7.864336,28.581585,-10.424088,-4.931764,0.076383,1.247054,-0.089860,0.000000,0.000000,0.000000,0.000000,0.000000,0.000000
11641015.000000,-2.390450,-1.662228,1.067096,-1.377030,1.771715,1.120363,-0.557597,0.520241,-0.006696,0.701968,-0.396190,-0.421700,0.739098,-0.146060,-8.189654,28.656963,-10.301102,-4.884157,0.147794,1.182052,-0.169511,0.000000,0.000000,0.000000,0.000000,0.000000,0.000000
11641016.000000,-2.389940,-1.662239,1.067825,-1.377434,1.771311,1.121093,-0.557744,0.522842,-0.007312,0.707352,-0.399439,-0.413421,0.743217,-0.144645,-8.388019,28.779949,-10.225723,-4.784975,0.112089,1.155502,-0.116410,0.000000,0.000000,0.000000,0.000000,0.000000,0.000000
11641017.000000,-2.389422,-1.662251,1.068577,-1.377836,1.770888,1.121835,-0.557881,0.520135,-0.007638,0.725696,-0.398740,-0.413862,0.742325,-0.145288,-8.681598,28.898968,-10.253494,-4.709596,0.105680,1.142684,-0.136552,0.000000,0.000000,0.000000,0.000000,0.000000,0.000000
11641018.000000,-2.388917,-1.662264,1.069327,-1.378243,1.770470,1.122582,-0.558018,0.521107,-0.009159,0.730582,-0.400577,-0.408742,0.741306,-0.140951,-8.681598,29.073528,-10.007523,-4.535036,0.100187,1.104232,-0.163102,0.000000,0.000000,0.000000,0.000000,0.000000,0.000000
11641019.000000,-2.388424,-1.662280,1.070077,-1.378643,1.770070,1.123311,-0.558165,0.517986,-0.010641,0.734029,-0.396827,-0.404523,0.734520,-0.140552,-8.733172,29.267925,-9.884537,-4.412050,0.081876,1.019088,-0.116410,0.000000,0.000000,0.000000,0.000000,0.000000,0.000000
11641020.000000,-2.387927,-1.662288,1.070846,-1.379034,1.769659,1.124044,-0.558302,0.507730,-0.008848,0.741460,-0.393360,-0.402320,0.731265,-0.140963,-8.756976,29.343304,-9.761551,-4.340639,0.100187,1.019088,-0.149369,0.000000,0.000000,0.000000,0.000000,0.000000,0.000000
11641021.000000,-2.387443,-1.662297,1.071606,-1.379423,1.769266,1.124776,-0.558442,0.502712,-0.007006,0.759095,-0.391413,-0.398790,0.730813,-0.139114,-8.681598,29.390911,-9.614761,-4.364442,0.058073,1.052047,-0.142960,0.000000,0.000000,0.000000,0.000000,0.000000,0.000000
11641022.000000,-2.386962,-1.662303,1.072384,-1.379809,1.768868,1.125500,-0.558582,0.492265,-0.007842,0.766081,-0.387602,-0.397933,0.728871,-0.137747,-8.534808,29.390911,-9.368790,-4.511232,0.058073,1.064864,-0.130143,0.000000,0.000000,0.000000,0.000000,0.000000,0.000000
11641023.000000,-2.386482,-1.662308,1.073176,-1.380191,1.768459,1.126231,-0.558718,0.481973,-0.004932,0.767301,-0.384104,-0.400294,0.732586,-0.141300,-8.459430,29.367107,-9.122818,-4.562807,0.040677,1.117049,-0.130143,0.000000,0.000000,0.000000,0.000000,0.000000,0.000000
11641024.000000,-2.386002,-1.662305,1.073970,-1.380578,1.768058,1.126963,-0.558858,0.480809,-0.001164,0.777418,-0.383979,-0.393454,0.729172,-0.138052,-8.312640,29.267925,-8.976028,-4.610414,0.027860,1.136276,-0.142960,0.000000,0.000000,0.000000,0.000000,0.000000,0.000000
11641025.000000,-2.385512,-1.662303,1.074783,-1.380954,1.767660,1.127725,-0.558992,0.482325,0.000748,0.785363,-0.379495,-0.393153,0.735445,-0.135743,-8.288836,29.196514,-8.853043,-4.757204,0.015958,1.031905,-0.163102,0.000000,0.000000,0.000000,0.000000,0.000000,0.000000
11641026.000000,-2.385036,-1.662296,1.075613,-1.381350,1.767262,1.128490,-0.559134,0.482730,0.006168,0.791708,-0.383618,-0.401702,0.745369,-0.137987,-8.189654,29.220318,-8.999832,-4.709596,0.010465,0.908309,-0.103593,0.000000,0.000000,0.000000,0.000000,0.000000,0.000000
11641027.000000,-2.384552,-1.662288,1.076420,-1.381742,1.766870,1.129248,-0.559266,0.479791,0.010186,0.789474,-0.382013,-0.399480,0.747963,-0.139179,-7.991290,29.513897,-9.416397,-4.733400,-0.013339,0.889083,-0.149369,0.000000,0.000000,0.000000,0.000000,0.000000,0.000000
11641028.000000,-2.384084,-1.662285,1.077226,-1.382130,1.766482,1.130015,-0.559410,0.477619,0.009486,0.788876,-0.387950,-0.393940,0.745537,-0.143782,-7.471575,30.124859,-10.102737,-4.709596,0.022367,0.941268,-0.103593,0.000000,0.000000,0.000000,0.000000,0.000000,0.000000
11641029.000000,-2.383605,-1.662278,1.078018,-1.382511,1.766099,1.130770,-0.559548,0.478834,0.009400,0.790601,-0.386387,-0.394364,0.740902,-0.139121,-6.975665,30.882610,-11.011246,-4.784975,0.015958,1.006271,-0.142960,0.000000,0.000000,0.000000,0.000000,0.000000,0.000000
11641030.000000,-2.383125,-1.662266,1.078809,-1.382892,1.765708,1.131545,-0.559686,0.476380,0.009537,0.795922,-0.394049,-0.391545,0.751327,-0.136920,-6.380572,31.691936,-11.995132,-4.808778,0.081876,1.090499,-0.155778,0.000000,0.000000,0.000000,0.000000,0.000000,0.000000
11641031.000000,-2.382647,-1.662244,1.079610,-1.383274,1.765325,1.132322,-0.559831,0.468691,0.013140,0.796402,-0.388246,-0.389387,0.757911,-0.137694,-5.912432,32.378277,-13.149612,-4.884157,0.135892,1.201278,-0.103593,0.000000,0.000000,0.000000,0.000000,0.000000,0.000000
11641032.000000,-2.382161,-1.662215,1.080390,-1.383660,1.764946,1.133074,-0.559965,0.468170,0.015488,0.792992,-0.386921,-0.392833,0.747475,-0.133901,-5.614886,32.965435,-14.177139,-4.832582,0.201810,1.344100,-0.155778,0.000000,0.000000,0.000000,0.000000,0.000000,0.000000
11641035.000000,-2.380694,-1.662130,1.082780,-1.384814,1.763794,1.135364,-0.560368,0.474661,0.020086,0.794899,-0.384613,-0.389821,0.750381,-0.132872,-5.019793,34.385723,-16.557510,-4.709596,0.386747,1.572067,-0.169511,0.000000,0.000000,0.000000,0.000000,0.000000,0.000000
11641036.000000,-2.380215,-1.662100,1.083598,-1.385196,1.763408,1.136107,-0.560506,0.479142,0.018849,0.796794,-0.384308,-0.384655,0.746846,-0.134894,-4.797625,34.750713,-17.247818,-4.634218,0.356534,1.760665,-0.110001,0.000000,0.000000,0.000000,0.000000,0.000000,0.000000
11641037.000000,-2.379736,-1.662070,1.084409,-1.385579,1.763035,1.136854,-0.560641,0.484197,0.022626,0.799867,-0.384056,-0.379904,0.745825,-0.133174,-4.523882,35.044292,-17.763565,-4.661989,0.303434,1.760665,-0.122819,0.000000,0.000000,0.000000,0.000000,0.000000,0.000000
11641038.000000,-2.379263,-1.662053,1.085224,-1.385940,1.762663,1.137621,-0.560768,0.480748,0.019541,0.796732,-0.378562,-0.380284,0.752691,-0.131556,-4.226336,35.437054,-18.080948,-4.832582,0.243009,1.611434,-0.136552,0.000000,0.000000,0.000000,0.000000,0.000000,0.000000
11641039.000000,-2.378797,-1.662042,1.086060,-1.386316,1.762280,1.138363,-0.560899,0.478106,0.016636,0.803960,-0.376010,-0.383521,0.750847,-0.131143,-4.004168,35.853619,-18.449905,-4.955568,0.225614,1.676437,-0.149369,0.000000,0.000000,0.000000,0.000000,0.000000,0.000000
11641040.000000,-2.378322,-1.662036,1.086893,-1.386678,1.761900,1.139087,-0.561034,0.474930,0.014494,0.809915,-0.371627,-0.383964,0.739602,-0.133013,-3.829607,36.270184,-18.914078,-5.177736,0.159696,1.806442,-0.103593,0.000000,0.000000,0.000000,0.000000,0.000000,0.000000
11641041.000000,-2.377861,-1.662040,1.087733,-1.387033,1.761510,1.139837,-0.561155,0.469625,0.008685,0.813894,-0.366095,-0.383687,0.735173,-0.129763,-3.508257,36.734356,-19.160049,-5.376100,0.207303,1.760665,-0.182328,0.000000,0.000000,0.000000,0.000000,0.000000,0.000000
11641042.000000,-2.377388,-1.662050,1.088559,-1.387387,1.761102,1.140578,-0.561289,0.466725,0.000687,0.813829,-0.357977,-0.392558,0.731192,-0.126941,-3.361468,37.222332,-19.334610,-5.574464,0.362943,1.611434,-0.142960,0.000000,0.000000,0.000000,0.000000,0.000000,0.000000
11641043.000000,-2.376906,-1.662074,1.089407,-1.387732,1.760709,1.141330,-0.561421,0.472832,-0.007424,0.821179,-0.355590,-0.393564,0.740320,-0.129327,-3.361468,37.809490,-19.576614,-5.796632,0.405057,1.526290,-0.122819,0.000000,0.000000,0.000000,0.000000,0.000000,0.000000
11641044.000000,-2.376422,-1.662095,1.090268,-1.388080,1.760318,1.142067,-0.561540,0.476975,-0.011023,0.824541,-0.350511,-0.397317,0.743296,-0.127463,-3.536028,38.301434,-19.945572,-6.018800,0.422452,1.584884,-0.188737,0.000000,0.000000,0.000000,0.000000,0.000000,0.000000
11641045.000000,-2.375940,-1.662125,1.091112,-1.388424,1.759925,1.142786,-0.561676,0.475810,-0.018561,0.830012,-0.346798,-0.398501,0.735164,-0.130930,-3.631243,38.864788,-20.167740,-6.240968,0.470060,1.624252,-0.122819,0.000000,0.000000,0.000000,0.000000,0.000000,0.000000
11641046.000000,-2.375463,-1.662163,1.091953,-1.388772,1.759542,1.143525,-0.561804,0.477624,-0.025191,0.826250,-0.346592,-0.389461,0.738877,-0.129759,-3.805804,39.475750,-20.266922,-6.363954,0.422452,1.630660,-0.155778,0.000000,0.000000,0.000000,0.000000,0.000000,0.000000
11641047.000000,-2.374971,-1.662203,1.092792,-1.389127,1.759164,1.144239,-0.561939,0.483087,-0.028866,0.829494,-0.347932,-0.385403,0.743108,-0.132144,-4.079546,40.039104,-20.389908,-6.391725,0.416959,1.773483,-0.116410,0.000000,0.000000,0.000000,0.000000,0.000000,0.000000
11641048.000000,-2.374478,-1.662236,1.093641,-1.389474,1.758784,1.144954,-0.562067,0.483730,-0.028716,0.834303,-0.354439,-0.385508,0.728898,-0.130272,-4.301714,40.479473,-20.631912,-6.514711,0.369352,2.007858,-0.163102,0.000000,0.000000,0.000000,0.000000,0.000000,0.000000
11641049.000000,-2.373997,-1.662272,1.094487,-1.389825,1.758400,1.145687,-0.562195,0.485585,-0.031861,0.836976,-0.352398,-0.383075,0.734581,-0.130061,-4.523882,40.919842,-20.683487,-6.613893,0.308927,2.066451,-0.182328,0.000000,0.000000,0.000000,0.000000,0.000000,0.000000
11641050.000000,-2.373503,-1.662313,1.095314,-1.390166,1.758028,1.146425,-0.562337,0.484672,-0.034387,0.835738,-0.351341,-0.381646,0.742056,-0.133243,-4.821429,41.360210,-20.731094,-6.812257,0.327238,1.955673,-0.103593,0.000000,0.000000,0.000000,0.000000,0.000000,0.000000
11641051.000000,-2.373016,-1.662345,1.096154,-1.390500,1.757650,1.147181,-0.562460,0.488724,-0.030444,0.832085,-0.346920,-0.375858,0.741145,-0.126555,-5.095171,41.677593,-20.731094,-7.058229,0.381254,1.786300,-0.169511,0.000000,0.000000,0.000000,0.000000,0.000000,0.000000
11641052.000000,-2.372529,-1.662383,1.096981,-1.390839,1.757273,1.147901,-0.562595,0.489633,-0.035229,0.830531,-0.341913,-0.371251,0.736901,-0.130294,-5.341143,42.046551,-20.731094,-7.232790,0.410551,1.806442,-0.122819,0.000000,0.000000,0.000000,0.000000,0.000000,0.000000
11641053.000000,-2.372043,-1.662412,1.097826,-1.391178,1.756895,1.148633,-0.562724,0.482083,-0.033543,0.833647,-0.338544,-0.373499,0.733016,-0.129480,-5.515704,42.316326,-20.731094,-7.403383,0.452665,1.897079,-0.130143,0.000000,0.000000,0.000000,0.000000,0.000000,0.000000
11641054.000000,-2.371569,-1.662443,1.098672,-1.391498,1.756533,1.149376,-0.562850,0.479272,-0.032415,0.832017,-0.330946,-0.366217,0.733812,-0.129895,-5.614886,42.582134,-20.731094,-7.649354,0.398649,1.871444,-0.136552,0.000000,0.000000,0.000000,0.000000,0.000000,0.000000
11641055.000000,-2.371085,-1.662475,1.099496,-1.391821,1.756166,1.150113,-0.562976,0.477724,-0.031202,0.830979,-0.327285,-0.367771,0.731702,-0.124774,-5.737872,42.828106,-20.560501,-7.923097,0.386747,1.708480,-0.155778,0.000000,0.000000,0.000000,0.000000,0.000000,0.000000
11641056.000000,-2.370606,-1.662498,1.100338,-1.392131,1.755806,1.150849,-0.563110,0.476252,-0.029760,0.827977,-0.321903,-0.361535,0.735587,-0.132200,-5.837054,42.903484,-20.608109,-8.220644,0.332731,1.708480,-0.110001,0.000000,0.000000,0.000000,0.000000,0.000000,0.000000
11641057.000000,-2.370135,-1.662516,1.101184,-1.392453,1.755463,1.151578,-0.563227,0.475966,-0.024733,0.828922,-0.324813,-0.356777,0.728501,-0.124408,-5.912432,42.927288,-20.631912,-8.367434,0.249418,1.779891,-0.188737,0.000000,0.000000,0.000000,0.000000,0.000000,0.000000
11641058.000000,-2.369651,-1.662539,1.102011,-1.392767,1.755108,1.152302,-0.563355,0.476873,-0.022478,0.827621,-0.316547,-0.355578,0.732971,-0.127253,-6.134600,42.998699,-20.659683,-8.664980,0.231107,1.819259,-0.163102,0.000000,0.000000,0.000000,0.000000,0.000000,0.000000
11641059.000000,-2.369191,-1.662563,1.102838,-1.393076,1.754744,1.153037,-0.563487,0.470827,-0.024035,0.823648,-0.314624,-0.357503,0.728182,-0.130893,-6.158404,43.074078,-20.485123,-8.787966,0.279630,1.812850,-0.103593,0.000000,0.000000,0.000000,0.000000,0.000000,0.000000
11641060.000000,-2.368719,-1.662586,1.103663,-1.393383,1.754396,1.153762,-0.563603,0.471679,-0.021707,0.823441,-0.311492,-0.351012,0.713859,-0.128026,-6.257586,43.121685,-20.512894,-9.085512,0.267728,1.838485,-0.175919,0.000000,0.000000,0.000000,0.000000,0.000000,0.000000
11641061.000000,-2.368261,-1.662600,1.104518,-1.393684,1.754053,1.154489,-0.563731,0.465973,-0.016698,0.826134,-0.310631,-0.348790,0.712154,-0.130123,-6.158404,43.026470,-20.806473,-9.355288,0.207303,1.909896,-0.149369,0.000000,0.000000,0.000000,0.000000,0.000000,0.000000
11641062.000000,-2.367803,-1.662618,1.105361,-1.393979,1.753702,1.155224,-0.563857,0.461988,-0.014867,0.823387,-0.308579,-0.356006,0.715644,-0.132880,-6.134600,42.998699,-20.929459,-9.676638,0.129484,1.865035,-0.110001,0.000000,0.000000,0.000000,0.000000,0.000000,0.000000
11641063.000000,-2.367348,-1.662640,1.106191,-1.394284,1.753353,1.155968,-0.563973,0.460246,-0.014922,0.823524,-0.306342,-0.356435,0.726068,-0.130881,-6.059222,43.026470,-21.024673,-9.898806,0.154203,1.735030,-0.149369,0.000000,0.000000,0.000000,0.000000,0.000000,0.000000
11641064.000000,-2.366904,-1.662655,1.107032,-1.394585,1.753010,1.156705,-0.564096,0.458454,-0.013041,0.824481,-0.303372,-0.349314,0.731844,-0.132134,-5.912432,42.974895,-21.223038,-10.049562,0.129484,1.721298,-0.122819,0.000000,0.000000,0.000000,0.000000,0.000000,0.000000
11641065.000000,-2.366451,-1.662673,1.107870,-1.394880,1.752675,1.157409,-0.564214,0.460257,-0.018324,0.827069,-0.301490,-0.344110,0.718014,-0.130555,-5.813250,42.927288,-21.445206,-10.271730,0.093778,1.877853,-0.163102,0.000000,0.000000,0.000000,0.000000,0.000000,0.000000
11641066.000000,-2.366018,-1.662687,1.108711,-1.395177,1.752333,1.158137,-0.564345,0.448078,-0.018999,0.830485,-0.308122,-0.339959,0.718988,-0.132175,-5.487933,42.875713,-21.591995,-10.370913,0.052579,1.942855,-0.130143,0.000000,0.000000,0.000000,0.000000,0.000000,0.000000
11641067.000000,-2.365598,-1.662706,1.109555,-1.395465,1.751991,1.158883,-0.564464,0.440339,-0.020611,0.831347,-0.303067,-0.337458,0.721777,-0.127933,-5.118975,42.875713,-21.663406,-10.569277,0.022367,1.844894,-0.130143,0.000000,0.000000,0.000000,0.000000,0.000000,0.000000
11641068.000000,-2.365177,-1.662718,1.110386,-1.395760,1.751660,1.159610,-0.564585,0.428406,-0.017076,0.829080,-0.300312,-0.332023,0.715969,-0.123199,-4.722247,42.804302,-21.738785,-10.716066,0.034269,1.812850,-0.149369,0.000000,0.000000,0.000000,0.000000,0.000000,0.000000
11641069.000000,-2.364755,-1.662733,1.111225,-1.396053,1.751323,1.160330,-0.564711,0.422362,-0.018902,0.824401,-0.301075,-0.329841,0.716442,-0.122392,-4.377093,42.780499,-21.762589,-10.739870,-0.019747,1.909896,-0.103593,0.000000,0.000000,0.000000,0.000000,0.000000,0.000000
11641070.000000,-2.364351,-1.662743,1.112053,-1.396350,1.750989,1.161046,-0.564827,0.416765,-0.018849,0.839993,-0.302262,-0.326457,0.717457,-0.118487,-3.980364,42.705120,-21.810196,-10.716066,-0.001437,1.968490,-0.142960,0.000000,0.000000,0.000000,0.000000,0.000000,0.000000
11641071.000000,-2.363940,-1.662759,1.112895,-1.396658,1.750648,1.161795,-0.564951,0.413837,-0.018152,0.838990,-0.303159,-0.326660,0.727902,-0.117786,-3.659014,42.728924,-21.885574,-10.569277,0.093778,1.825668,-0.136552,0.000000,0.000000,0.000000,0.000000,0.000000,0.000000
11641072.000000,-2.363540,-1.662771,1.113743,-1.396964,1.750318,1.162536,-0.565066,0.407256,-0.015896,0.838571,-0.306431,-0.321460,0.723642,-0.115724,-3.262286,42.681316,-22.008560,-10.418520,0.052579,1.702071,-0.163102,0.000000,0.000000,0.000000,0.000000,0.000000,0.000000
11641073.000000,-2.363135,-1.662788,1.114586,-1.397285,1.749983,1.163266,-0.565186,0.411390,-0.016394,0.838320,-0.313101,-0.324456,0.721363,-0.117643,-2.964739,42.728924,-22.230728,-10.172548,0.058073,1.714889,-0.089860,0.000000,0.000000,0.000000,0.000000,0.000000,0.000000
11641074.000000,-2.362734,-1.662805,1.115445,-1.397609,1.749647,1.163996,-0.565297,0.407146,-0.016032,0.844120,-0.316497,-0.320345,0.726502,-0.119186,-2.667193,42.756695,-22.524307,-9.875002,0.058073,1.760665,-0.122819,0.000000,0.000000,0.000000,0.000000,0.000000,0.000000
11641075.000000,-2.362347,-1.662826,1.116302,-1.397923,1.749319,1.164730,-0.565409,0.403602,-0.020019,0.845354,-0.314842,-0.327556,0.727130,-0.116688,-2.298235,42.828106,-22.742508,-9.752016,0.081876,1.793624,-0.149369,0.000000,0.000000,0.000000,0.000000,0.000000,0.000000
11641076.000000,-2.361951,-1.662846,1.117149,-1.398256,1.748978,1.165441,-0.565527,0.397911,-0.020226,0.850883,-0.321787,-0.329381,0.725578,-0.116777,-2.000689,42.927288,-23.040054,-9.553652,0.100187,1.955673,-0.122819,0.000000,0.000000,0.000000,0.000000,0.000000,0.000000
11641077.000000,-2.361568,-1.662869,1.118007,-1.398588,1.748635,1.166166,-0.565637,0.393563,-0.020327,0.855401,-0.322940,-0.331142,0.718263,-0.114336,-1.679339,43.026470,-23.409012,-9.383059,0.123990,2.072860,-0.163102,0.000000,0.000000,0.000000,0.000000,0.000000,0.000000
11641078.000000,-2.361181,-1.662895,1.118857,-1.398924,1.748298,1.166896,-0.565751,0.392523,-0.024383,0.860180,-0.325797,-0.334993,0.707891,-0.114501,-1.453204,43.173260,-23.801773,-9.232302,0.213712,2.060043,-0.149369,0.000000,0.000000,0.000000,0.000000,0.000000,0.000000
11641079.000000,-2.360788,-1.662925,1.119713,-1.399265,1.747960,1.167631,-0.565865,0.393977,-0.024784,0.862227,-0.335042,-0.336635,0.717869,-0.114528,-1.282611,43.343853,-24.043777,-8.986330,0.291532,2.001449,-0.149369,0.000000,0.000000,0.000000,0.000000,0.000000,0.000000
11641080.000000,-2.360401,-1.662952,1.120569,-1.399615,1.747621,1.168361,-0.565975,0.393085,-0.023932,0.862130,-0.339490,-0.347979,0.717156,-0.113707,-1.131854,43.466839,-24.190567,-8.664980,0.279630,2.020675,-0.163102,0.000000,0.000000,0.000000,0.000000,0.000000,0.000000
11641081.000000,-2.360015,-1.662979,1.121420,-1.399979,1.747275,1.169075,-0.566091,0.391595,-0.023855,0.861742,-0.346950,-0.346807,0.721067,-0.114276,-0.961260,43.613628,-24.436539,-8.292055,0.362943,2.047225,-0.136552,0.000000,0.000000,0.000000,0.000000,0.000000,0.000000
11641082.000000,-2.359642,-1.663008,1.122275,-1.400329,1.746933,1.169782,-0.566200,0.391228,-0.026099,0.863598,-0.349828,-0.338030,0.709984,-0.113061,-0.735125,43.732647,-24.583328,-8.022280,0.386747,2.033492,-0.163102,0.000000,0.000000,0.000000,0.000000,0.000000,0.000000
11641083.000000,-2.359260,-1.663045,1.123107,-1.400688,1.746609,1.170490,-0.566315,0.389721,-0.027096,0.853383,-0.353341,-0.334667,0.722379,-0.114166,-0.564532,43.954815,-24.559525,-7.800111,0.332731,2.033492,-0.149369,0.000000,0.000000,0.000000,0.000000,0.000000,0.000000
11641084.000000,-2.358885,-1.663071,1.123952,-1.401045,1.746263,1.171203,-0.566424,0.386143,-0.027307,0.853072,-0.362565,-0.334789,0.724440,-0.113896,-0.266986,44.026226,-24.535721,-7.649354,0.351041,2.027084,-0.149369,0.000000,0.000000,0.000000,0.000000,0.000000,0.000000
11641085.000000,-2.358517,-1.663101,1.124806,-1.401403,1.745924,1.171918,-0.566532,0.382283,-0.028329,0.852072,-0.361881,-0.334248,0.716793,-0.113252,0.006757,44.125408,-24.611099,-7.502565,0.356534,2.039901,-0.163102,0.000000,0.000000,0.000000,0.000000,0.000000,0.000000
11641086.000000,-2.358150,-1.663127,1.125637,-1.401773,1.745597,1.172617,-0.566646,0.375119,-0.028664,0.850118,-0.362770,-0.330085,0.720181,-0.108835,0.252729,44.200787,-24.488113,-7.304201,0.393156,2.072860,-0.149369,0.000000,0.000000,0.000000,0.000000,0.000000,0.000000
11641087.000000,-2.357767,-1.663162,1.126476,-1.402144,1.745258,1.173336,-0.566757,0.376350,-0.030539,0.838075,-0.361774,-0.332183,0.713665,-0.105811,0.304304,44.347576,-24.388931,-7.058229,0.458158,2.079269,-0.155778,0.000000,0.000000,0.000000,0.000000,0.000000,0.000000
11641088.000000,-2.357398,-1.663183,1.127301,-1.402524,1.744922,1.174065,-0.566870,0.375921,-0.028002,0.850493,-0.370168,-0.333444,0.716656,-0.107679,0.451093,44.323772,-24.265945,-6.812257,0.500272,1.962081,-0.163102,0.000000,0.000000,0.000000,0.000000,0.000000,0.000000
11641089.000000,-2.357013,-1.663214,1.128147,-1.402917,1.744579,1.174777,-0.566983,0.381298,-0.025874,0.842108,-0.375683,-0.330718,0.716222,-0.107737,0.427289,44.418987,-24.365128,-6.463136,0.578092,1.844894,-0.175919,0.000000,0.000000,0.000000,0.000000,0.000000,0.000000
11641090.000000,-2.356639,-1.663232,1.128987,-1.403303,1.744259,1.175494,-0.567101,0.377979,-0.023576,0.837351,-0.381149,-0.323088,0.712800,-0.111094,0.427289,44.347576,-24.313553,-6.169557,0.506681,1.890670,-0.122819,0.000000,0.000000,0.000000,0.000000,0.000000,0.000000
11641091.000000,-2.356263,-1.663253,1.129817,-1.403701,1.743932,1.176214,-0.567206,0.382251,-0.023299,0.831319,-0.382411,-0.324242,0.716391,-0.109351,0.403486,44.323772,-24.388931,-5.848207,0.476469,1.832076,-0.175919,0.000000,0.000000,0.000000,0.000000,0.000000,0.000000
11641092.000000,-2.355883,-1.663276,1.130661,-1.404091,1.743594,1.176941,-0.567321,0.378956,-0.023636,0.829372,-0.387617,-0.328147,0.720445,-0.110443,0.375715,44.323772,-24.488113,-5.626039,0.542386,1.800033,-0.155778,0.000000,0.000000,0.000000,0.000000,0.000000,0.000000
11641093.000000,-2.355510,-1.663294,1.131498,-1.404482,1.743274,1.177649,-0.567433,0.382728,-0.022697,0.824447,-0.386563,-0.333039,0.712608,-0.115698,0.403486,44.272198,-24.535721,-5.499086,0.559781,1.974899,-0.155778,0.000000,0.000000,0.000000,0.000000,0.000000,0.000000
11641094.000000,-2.355126,-1.663310,1.132314,-1.404879,1.742959,1.178338,-0.567541,0.379909,-0.021245,0.820887,-0.391563,-0.326649,0.702007,-0.114133,0.328107,44.173016,-24.464310,-5.276918,0.542386,2.209274,-0.175919,0.000000,0.000000,0.000000,0.000000,0.000000,0.000000
11641095.000000,-2.354760,-1.663325,1.133154,-1.405269,1.742627,1.179061,-0.567648,0.378903,-0.020798,0.821293,-0.390704,-0.329737,0.700265,-0.115409,0.351911,44.101604,-24.682510,-5.106325,0.596403,2.222091,-0.149369,0.000000,0.000000,0.000000,0.000000,0.000000,0.000000
11641096.000000,-2.354384,-1.663332,1.133972,-1.405663,1.742300,1.179790,-0.567750,0.380434,-0.015571,0.818023,-0.389852,-0.322563,0.712512,-0.107953,0.375715,43.954815,-24.706314,-4.907960,0.667814,2.027084,-0.202470,0.000000,0.000000,0.000000,0.000000,0.000000,0.000000
11641097.000000,-2.354001,-1.663344,1.134809,-1.406056,1.741975,1.180525,-0.567867,0.378331,-0.012907,0.818441,-0.396138,-0.319260,0.717008,-0.111614,0.328107,43.855633,-24.880875,-4.757204,0.673307,1.936446,-0.142960,0.000000,0.000000,0.000000,0.000000,0.000000,0.000000
11641098.000000,-2.353627,-1.663354,1.135635,-1.406451,1.741652,1.181245,-0.567976,0.374378,-0.011261,0.817420,-0.391259,-0.325493,0.719831,-0.112710,0.351911,43.760418,-24.857071,-4.586610,0.679716,1.981307,-0.122819,0.000000,0.000000,0.000000,0.000000,0.000000,0.000000
11641099.000000,-2.353252,-1.663362,1.136446,-1.406844,1.741325,1.181952,-0.568074,0.370027,-0.012340,0.814593,-0.388006,-0.328040,0.712919,-0.108780,0.403486,43.637432,-24.857071,-4.535036,0.703519,2.014266,-0.221696,0.000000,0.000000,0.000000,0.000000,0.000000,0.000000
11641100.000000,-2.352884,-1.663370,1.137263,-1.407225,1.741001,1.182680,-0.568189,0.372817,-0.014386,0.812109,-0.380907,-0.323697,0.718196,-0.108291,0.451093,43.562054,-24.781693,-4.562807,0.715421,1.968490,-0.142960,0.000000,0.000000,0.000000,0.000000,0.000000,0.000000
11641101.000000,-2.352512,-1.663371,1.138058,-1.407617,1.740695,1.183390,-0.568292,0.375460,-0.011069,0.805665,-0.380333,-0.318736,0.726151,-0.103678,0.502668,43.415264,-24.583328,-4.511232,0.667814,2.007858,-0.169511,0.000000,0.000000,0.000000,0.000000,0.000000,0.000000
11641102.000000,-2.352135,-1.663373,1.138873,-1.407988,1.740385,1.184114,-0.568397,0.374881,-0.005516,0.807807,-0.380970,-0.314269,0.726529,-0.104789,0.526471,43.268475,-24.488113,-4.610414,0.589994,2.027084,-0.202470,0.000000,0.000000,0.000000,0.000000,0.000000,0.000000
11641103.000000,-2.351773,-1.663364,1.139692,-1.408374,1.740065,1.184843,-0.568501,0.370203,-0.001569,0.804355,-0.381088,-0.307666,0.731603,-0.107315,0.625654,42.998699,-24.488113,-4.562807,0.559781,2.053634,-0.196061,0.000000,0.000000,0.000000,0.000000,0.000000,0.000000
11641104.000000,-2.351399,-1.663359,1.140489,-1.408756,1.739750,1.185569,-0.568610,0.369904,0.002923,0.802662,-0.378012,-0.305056,0.727889,-0.105059,0.574079,42.780499,-24.365128,-4.511232,0.589994,2.053634,-0.163102,0.000000,0.000000,0.000000,0.000000,0.000000,0.000000
11641105.000000,-2.351023,-1.663356,1.141295,-1.409141,1.739439,1.186306,-0.568713,0.369542,0.001364,0.795662,-0.382431,-0.302538,0.726102,-0.102764,0.550275,42.633709,-24.341324,-4.312868,0.632108,2.001449,-0.149369,0.000000,0.000000,0.000000,0.000000,0.000000,0.000000
11641106.000000,-2.350650,-1.663341,1.142101,-1.409522,1.739132,1.187037,-0.568812,0.369240,0.004910,0.812185,-0.380760,-0.301009,0.726161,-0.099383,0.502668,42.288555,-24.436539,-4.166078,0.667814,1.988631,-0.202470,0.000000,0.000000,0.000000,0.000000,0.000000,0.000000
11641107.000000,-2.350271,-1.663327,1.142923,-1.409902,1.738819,1.187765,-0.568918,0.372250,0.009200,0.809688,-0.382334,-0.298828,0.723279,-0.099773,0.474897,41.994976,-24.658707,-4.043092,0.679716,1.995040,-0.163102,0.000000,0.000000,0.000000,0.000000,0.000000,0.000000
11641108.000000,-2.349905,-1.663322,1.143738,-1.410270,1.738514,1.188496,-0.569019,0.370602,0.009418,0.806291,-0.378832,-0.296313,0.721385,-0.098317,0.474897,41.824383,-24.734085,-3.991518,0.673307,1.974899,-0.163102,0.000000,0.000000,0.000000,0.000000,0.000000,0.000000
11641109.000000,-2.349544,-1.663318,1.144532,-1.410636,1.738224,1.189210,-0.569123,0.363656,0.007976,0.801475,-0.371010,-0.289869,0.715024,-0.097031,0.625654,41.729168,-24.805496,-3.991518,0.673307,1.988631,-0.163102,0.000000,0.000000,0.000000,0.000000,0.000000,0.000000
11641110.000000,-2.349183,-1.663315,1.145347,-1.411010,1.737934,1.189914,-0.569228,0.360049,0.006127,0.802308,-0.371357,-0.288843,0.716453,-0.097336,0.796247,41.677593,-24.976089,-3.892336,0.655912,2.169906,-0.136552,0.000000,0.000000,0.000000,0.000000,0.000000,0.000000
11641111.000000,-2.348822,-1.663315,1.146147,-1.411371,1.737645,1.190616,-0.569324,0.361133,0.009451,0.799254,-0.365759,-0.296023,0.701924,-0.099200,0.923200,41.701397,-24.976089,-3.920107,0.601896,2.313644,-0.208878,0.000000,0.000000,0.000000,0.000000,0.000000,0.000000
11641112.000000,-2.348468,-1.663321,1.146931,-1.411745,1.737348,1.191318,-0.569436,0.357219,0.004276,0.791276,-0.367194,-0.290978,0.702109,-0.100390,1.121564,41.800579,-24.880875,-3.844728,0.632108,2.345687,-0.142960,0.000000,0.000000,0.000000,0.000000,0.000000,0.000000
11641113.000000,-2.348119,-1.663326,1.147715,-1.412111,1.737055,1.192044,-0.569533,0.356089,0.001309,0.783189,-0.368840,-0.287087,0.712365,-0.096803,1.292158,41.875957,-24.706314,-3.745546,0.667814,2.157089,-0.196061,0.000000,0.000000,0.000000,0.000000,0.000000,0.000000
11641114.000000,-2.347762,-1.663322,1.148493,-1.412483,1.736777,1.192766,-0.569636,0.356574,0.002245,0.784051,-0.369231,-0.287841,0.703724,-0.100429,1.415143,41.824383,-24.611099,-3.646364,0.661405,2.060043,-0.208878,0.000000,0.000000,0.000000,0.000000,0.000000,0.000000
11641115.000000,-2.347406,-1.663326,1.149274,-1.412847,1.736482,1.193490,-0.569744,0.354114,0.001064,0.782415,-0.374890,-0.283197,0.709851,-0.106317,1.514325,41.848186,-24.412735,-3.523378,0.661405,1.968490,-0.149369,0.000000,0.000000,0.000000,0.000000,0.000000,0.000000
11641116.000000,-2.347063,-1.663328,1.150056,-1.413208,1.736183,1.194210,-0.569845,0.348727,-0.000404,0.783312,-0.373129,-0.290454,0.713851,-0.103168,1.688886,41.899761,-24.166763,-3.475771,0.715421,1.942855,-0.149369,0.000000,0.000000,0.000000,0.000000,0.000000,0.000000
11641117.000000,-2.346717,-1.663333,1.150825,-1.413568,1.735901,1.194922,-0.569944,0.344006,-0.001313,0.784255,-0.368053,-0.291192,0.715163,-0.099899,1.788068,41.947369,-23.920792,-3.448000,0.733732,1.909896,-0.169511,0.000000,0.000000,0.000000,0.000000,0.000000,0.000000
11641118.000000,-2.346373,-1.663329,1.151594,-1.413914,1.735630,1.195648,-0.570038,0.342281,0.000291,0.781139,-0.358816,-0.282743,0.712353,-0.097348,1.986432,41.899761,-23.579605,-3.523378,0.673307,1.844894,-0.202470,0.000000,0.000000,0.000000,0.000000,0.000000,0.000000
11641119.000000,-2.346036,-1.663321,1.152360,-1.414266,1.735350,1.196362,-0.570140,0.343712,0.002553,0.781697,-0.351906,-0.278140,0.723871,-0.098767,2.160993,41.800579,-23.409012,-3.598757,0.625699,1.832076,-0.149369,0.000000,0.000000,0.000000,0.000000,0.000000,0.000000
11641120.000000,-2.345692,-1.663314,1.153134,-1.414628,1.735062,1.197091,-0.570232,0.342376,0.004052,0.783492,-0.353652,-0.279931,0.731405,-0.096073,2.331586,41.701397,-23.286026,-3.523378,0.584501,1.779891,-0.188737,0.000000,0.000000,0.000000,0.000000,0.000000,0.000000
11641121.000000,-2.345344,-1.663304,1.153903,-1.414982,1.734768,1.197840,-0.570331,0.343221,0.006157,0.776753,-0.355064,-0.278975,0.730459,-0.095622,2.331586,41.554607,-23.111465,-3.448000,0.620206,1.670028,-0.188737,0.000000,0.000000,0.000000,0.000000,0.000000,0.000000
11641122.000000,-2.345000,-1.663292,1.154662,-1.415350,1.734486,1.198563,-0.570437,0.342081,0.008112,0.772811,-0.359093,-0.279202,0.726963,-0.096941,2.359357,41.384014,-22.988480,-3.225832,0.685209,1.656295,-0.136552,0.000000,0.000000,0.000000,0.000000,0.000000,0.000000
11641123.000000,-2.344644,-1.663269,1.155429,-1.415702,1.734203,1.199283,-0.570525,0.345761,0.012288,0.763073,-0.359569,-0.277045,0.717837,-0.094419,2.307783,41.090435,-22.893265,-3.126650,0.703519,1.682845,-0.188737,0.000000,0.000000,0.000000,0.000000,0.000000,0.000000
11641124.000000,-2.344297,-1.663251,1.156206,-1.416056,1.733920,1.200018,-0.570624,0.346472,0.013305,0.777032,-0.356500,-0.276959,0.718950,-0.095777,2.283979,40.872234,-22.917068,-3.154421,0.745634,1.702071,-0.155778,0.000000,0.000000,0.000000,0.000000,0.000000,0.000000
11641125.000000,-2.343944,-1.663229,1.156968,-1.416411,1.733640,1.200746,-0.570714,0.344961,0.018376,0.770852,-0.353470,-0.274364,0.721487,-0.093532,2.260175,40.602459,-22.865494,-3.102846,0.727323,1.611434,-0.202470,0.000000,0.000000,0.000000,0.000000,0.000000,0.000000
11641126.000000,-2.343592,-1.663213,1.157732,-1.416752,1.733367,1.201476,-0.570809,0.346759,0.015955,0.767772,-0.349674,-0.271569,0.719636,-0.093375,2.133222,40.455669,-22.770279,-3.249635,0.679716,1.572067,-0.215287,0.000000,0.000000,0.000000,0.000000,0.000000,0.000000
11641127.000000,-2.343246,-1.663191,1.158497,-1.417104,1.733098,1.202181,-0.570909,0.349277,0.018575,0.766940,-0.347925,-0.272583,0.718141,-0.096446,2.133222,40.257305,-22.841690,-3.202028,0.709928,1.714889,-0.142960,0.000000,0.000000,0.000000,0.000000,0.000000,0.000000
11641128.000000,-2.342889,-1.663166,1.159267,-1.417449,1.732832,1.202883,-0.570999,0.352326,0.021078,0.767380,-0.348390,-0.267707,0.710698,-0.092256,2.034040,40.039104,-22.988480,-3.225832,0.601896,1.930038,-0.221696,0.000000,0.000000,0.000000,0.000000,0.000000,0.000000
11641129.000000,-2.342539,-1.663148,1.160033,-1.417798,1.732564,1.203608,-0.571099,0.354941,0.020682,0.766242,-0.344954,-0.272384,0.707813,-0.094985,1.962629,39.916119,-22.940872,-3.154421,0.608304,1.955673,-0.163102,0.000000,0.000000,0.000000,0.000000,0.000000,0.000000
11641130.000000,-2.342184,-1.663126,1.160786,-1.418143,1.732290,1.204326,-0.571193,0.351458,0.017916,0.759680,-0.345467,-0.267371,0.718461,-0.095250,1.911054,39.769329,-22.917068,-3.079042,0.625699,1.844894,-0.142960,0.000000,0.000000,0.000000,0.000000,0.000000,0.000000
11641131.000000,-2.341831,-1.663106,1.161558,-1.418472,1.732031,1.205065,-0.571281,0.348291,0.016456,0.759363,-0.341040,-0.261294,0.720698,-0.092714,1.764264,39.598736,-22.988480,-3.202028,0.589994,1.741439,-0.202470,0.000000,0.000000,0.000000,0.000000,0.000000,0.000000
11641132.000000,-2.341475,-1.663073,1.162313,-1.418806,1.731767,1.205777,-0.571374,0.352898,0.022538,0.761183,-0.336795,-0.263706,0.705608,-0.088672,1.688886,39.253582,-22.964676,-3.202028,0.589994,1.747848,-0.196061,0.000000,0.000000,0.000000,0.000000,0.000000,0.000000
11641135.000000,-2.340403,-1.663020,1.164563,-1.419767,1.730975,1.207915,-0.571655,0.356191,0.017734,0.756654,-0.327711,-0.260271,0.701592,-0.091498,1.442914,39.059185,-22.377518,-3.670168,0.661405,1.890670,-0.188737,0.000000,0.000000,0.000000,0.000000,0.000000,0.000000
11641136.000000,-2.340042,-1.662997,1.165325,-1.420086,1.730729,1.208625,-0.571748,0.359453,0.019125,0.755000,-0.323312,-0.259278,0.693185,-0.096841,1.244550,38.912395,-22.325943,-3.745546,0.584501,1.942855,-0.188737,0.000000,0.000000,0.000000,0.000000,0.000000,0.000000
11641137.000000,-2.339689,-1.662979,1.166077,-1.420401,1.730481,1.209332,-0.571840,0.357542,0.021628,0.769587,-0.315490,-0.257986,0.709762,-0.096593,1.169172,38.837017,-22.325943,-3.868532,0.464567,1.812850,-0.182328,0.000000,0.000000,0.000000,0.000000,0.000000,0.000000
11641138.000000,-2.339317,-1.662955,1.166825,-1.420719,1.730222,1.210067,-0.571932,0.356618,0.022198,0.759762,-0.316165,-0.255269,0.716452,-0.096057,0.895429,38.690228,-22.155350,-3.991518,0.434354,1.617843,-0.182328,0.000000,0.000000,0.000000,0.000000,0.000000,0.000000
11641139.000000,-2.338957,-1.662946,1.167587,-1.421031,1.729958,1.210792,-0.572026,0.359294,0.017321,0.760039,-0.318507,-0.255764,0.723525,-0.097409,0.748639,38.765606,-22.179153,-4.043092,0.470060,1.519881,-0.149369,0.000000,0.000000,0.000000,0.000000,0.000000,0.000000
11641140.000000,-2.338592,-1.662932,1.168342,-1.421338,1.729711,1.211469,-0.572113,0.359933,0.015845,0.759771,-0.318844,-0.252442,0.709207,-0.089212,0.601850,38.765606,-22.202957,-4.118471,0.416959,1.708480,-0.215287,0.000000,0.000000,0.000000,0.000000,0.000000,0.000000
11641141.000000,-2.338229,-1.662918,1.169107,-1.421638,1.729449,1.212171,-0.572211,0.361285,0.015280,0.760655,-0.312381,-0.248136,0.706540,-0.093021,0.550275,38.741802,-22.325943,-4.241457,0.458158,1.832076,-0.136552,0.000000,0.000000,0.000000,0.000000,0.000000,0.000000
11641142.000000,-2.337873,-1.662908,1.169864,-1.421937,1.729189,1.212886,-0.572304,0.358667,0.013331,0.757500,-0.307784,-0.261864,0.703715,-0.092962,0.550275,38.789410,-22.254532,-4.364442,0.446256,1.767074,-0.142960,0.000000,0.000000,0.000000,0.000000,0.000000,0.000000
11641143.000000,-2.337508,-1.662899,1.170612,-1.422225,1.728924,1.213597,-0.572389,0.360795,0.009408,0.756069,-0.300861,-0.254446,0.710153,-0.090906,0.474897,38.813213,-22.325943,-4.634218,0.470060,1.695663,-0.208878,0.000000,0.000000,0.000000,0.000000,0.000000,0.000000
11641144.000000,-2.337150,-1.662892,1.171374,-1.422523,1.728667,1.214293,-0.572479,0.359632,0.008464,0.757660,-0.299037,-0.252974,0.706775,-0.093657,0.427289,38.888592,-22.448929,-4.634218,0.464567,1.793624,-0.163102,0.000000,0.000000,0.000000,0.000000,0.000000,0.000000
11641145.000000,-2.336787,-1.662883,1.172123,-1.422804,1.728423,1.214974,-0.572563,0.359335,0.008376,0.758458,-0.289230,-0.245607,0.704265,-0.087204,0.276533,38.936199,-22.500504,-4.808778,0.428861,1.955673,-0.208878,0.000000,0.000000,0.000000,0.000000,0.000000,0.000000
11641146.000000,-2.336426,-1.662884,1.172876,-1.423097,1.728159,1.215688,-0.572651,0.358062,0.001936,0.757682,-0.294392,-0.249996,0.716240,-0.089612,0.228925,39.130596,-22.401321,-4.757204,0.530485,1.851302,-0.196061,0.000000,0.000000,0.000000,0.000000,0.000000,0.000000
11641147.000000,-2.336067,-1.662886,1.173620,-1.423379,1.727896,1.216403,-0.572744,0.356378,0.000936,0.755424,-0.286917,-0.258293,0.715430,-0.093375,0.153547,39.305157,-22.179153,-4.907960,0.530485,1.760665,-0.142960,0.000000,0.000000,0.000000,0.000000,0.000000,0.000000
11641148.000000,-2.335701,-1.662886,1.174373,-1.423658,1.727645,1.217100,-0.572825,0.357220,0.001007,0.758177,-0.285208,-0.253927,0.717289,-0.090085,0.030561,39.451946,-22.278336,-5.030946,0.476469,1.793624,-0.215287,0.000000,0.000000,0.000000,0.000000,0.000000,0.000000
11641149.000000,-2.335349,-1.662881,1.175118,-1.423936,1.727396,1.217809,-0.572921,0.360890,-0.000174,0.749532,-0.284296,-0.250400,0.712236,-0.092936,-0.017047,39.523357,-22.131546,-5.153932,0.416959,1.773483,-0.169511,0.000000,0.000000,0.000000,0.000000,0.000000,0.000000
11641150.000000,-2.335002,-1.662888,1.175850,-1.424208,1.727154,1.218531,-0.573006,0.357923,-0.004137,0.745121,-0.278331,-0.249801,0.721985,-0.092500,0.006757,39.721722,-21.984756,-5.328493,0.398649,1.624252,-0.188737,0.000000,0.000000,0.000000,0.000000,0.000000,0.000000
11641151.000000,-2.334649,-1.662892,1.176592,-1.424473,1.726906,1.219249,-0.573094,0.355447,-0.003665,0.740440,-0.279934,-0.254845,0.723688,-0.092385,0.030561,39.916119,-21.786392,-5.475282,0.393156,1.539108,-0.208878,0.000000,0.000000,0.000000,0.000000,0.000000,0.000000
11641152.000000,-2.334294,-1.662888,1.177349,-1.424737,1.726659,1.219963,-0.573181,0.352052,-0.003501,0.742807,-0.274224,-0.245976,0.716180,-0.093724,-0.092425,39.987530,-21.714981,-5.721254,0.320829,1.605026,-0.188737,0.000000,0.000000,0.000000,0.000000,0.000000,0.000000
11641153.000000,-2.333939,-1.662892,1.178088,-1.425009,1.726412,1.220664,-0.573268,0.349405,-0.004751,0.742746,-0.273507,-0.249217,0.714079,-0.094281,-0.144000,40.110516,-21.568192,-5.820436,0.369352,1.662704,-0.169511,0.000000,0.000000,0.000000,0.000000,0.000000,0.000000
11641154.000000,-2.333582,-1.662887,1.178831,-1.425267,1.726166,1.221381,-0.573357,0.349006,-0.000972,0.737976,-0.268183,-0.244483,0.715514,-0.090259,-0.243182,40.162090,-21.417435,-5.994997,0.393156,1.584884,-0.149369,0.000000,0.000000,0.000000,0.000000,0.000000,0.000000
11641155.000000,-2.333231,-1.662886,1.179571,-1.425535,1.725930,1.222108,-0.573436,0.353921,-0.001249,0.753115,-0.265330,-0.240818,0.717122,-0.084066,-0.366168,40.209698,-21.369827,-6.094179,0.405057,1.429244,-0.215287,0.000000,0.000000,0.000000,0.000000,0.000000,0.000000
11641156.000000,-2.332878,-1.662878,1.180319,-1.425799,1.725695,1.222827,-0.573524,0.351979,0.000109,0.748177,-0.263698,-0.235760,0.718646,-0.088378,-0.441546,40.185894,-21.369827,-6.193361,0.351041,1.429244,-0.169511,0.000000,0.000000,0.000000,0.000000,0.000000,0.000000
11641157.000000,-2.332522,-1.662870,1.181077,-1.426059,1.725451,1.223547,-0.573611,0.355975,0.001568,0.747829,-0.262168,-0.232668,0.714198,-0.090370,-0.612139,40.134319,-21.417435,-6.169557,0.303434,1.507064,-0.155778,0.000000,0.000000,0.000000,0.000000,0.000000,0.000000
11641158.000000,-2.332171,-1.662859,1.181820,-1.426326,1.725214,1.224252,-0.573683,0.351763,0.007862,0.747461,-0.262712,-0.236898,0.717495,-0.084115,-0.635943,39.987530,-21.445206,-6.169557,0.303434,1.605026,-0.215287,0.000000,0.000000,0.000000,0.000000,0.000000,0.000000
11641159.000000,-2.331817,-1.662848,1.182576,-1.426592,1.724974,1.224974,-0.573771,0.350774,0.008452,0.746301,-0.264932,-0.240449,0.715739,-0.084418,-0.735125,39.868511,-21.492813,-6.117982,0.315336,1.649886,-0.155778,0.000000,0.000000,0.000000,0.000000,0.000000,0.000000
11641160.000000,-2.331470,-1.662834,1.183338,-1.426852,1.724747,1.225697,-0.573850,0.350178,0.009388,0.751476,-0.264605,-0.240493,0.717658,-0.086019,-0.786700,39.721722,-21.615799,-6.117982,0.291532,1.695663,-0.175919,0.000000,0.000000,0.000000,0.000000,0.000000,0.000000
11641161.000000,-2.331119,-1.662825,1.184092,-1.427123,1.724515,1.226409,-0.573935,0.346905,0.009375,0.754809,-0.265741,-0.238335,0.714109,-0.087512,-0.786700,39.598736,-21.837967,-6.070375,0.308927,1.676437,-0.175919,0.000000,0.000000,0.000000,0.000000,0.000000,0.000000
11641162.000000,-2.330773,-1.662808,1.184856,-1.427386,1.724276,1.227127,-0.574020,0.346213,0.010421,0.754111,-0.265924,-0.235647,0.712526,-0.084531,-0.834307,39.428143,-22.008560,-6.042604,0.303434,1.708480,-0.175919,0.000000,0.000000,0.000000,0.000000,0.000000,0.000000
11641163.000000,-2.330424,-1.662799,1.185612,-1.427657,1.724037,1.227829,-0.574104,0.347402,0.011394,0.755446,-0.264685,-0.229654,0.708979,-0.081519,-0.909686,39.376568,-22.202957,-5.919618,0.320829,1.735030,-0.196061,0.000000,0.000000,0.000000,0.000000,0.000000,0.000000
11641164.000000,-2.330085,-1.662791,1.186373,-1.427926,1.723804,1.228529,-0.574197,0.347401,0.008513,0.753796,-0.265944,-0.229103,0.706231,-0.082311,-0.885882,39.352764,-22.302139,-5.848207,0.327238,1.800033,-0.136552,0.000000,0.000000,0.000000,0.000000,0.000000,0.000000
11641165.000000,-2.329747,-1.662782,1.187141,-1.428193,1.723570,1.229231,-0.574274,0.346193,0.009104,0.752921,-0.265138,-0.228957,0.701953,-0.082924,-0.862078,39.352764,-22.425125,-5.848207,0.356534,1.865035,-0.196061,0.000000,0.000000,0.000000,0.000000,0.000000,0.000000
11641166.000000,-2.329413,-1.662772,1.187899,-1.428462,1.723348,1.229919,-0.574359,0.337859,0.007092,0.755413,-0.264404,-0.225875,0.695756,-0.080915,-0.735125,39.328960,-22.524307,-5.872011,0.285123,1.909896,-0.196061,0.000000,0.000000,0.000000,0.000000,0.000000,0.000000
11641167.000000,-2.329077,-1.662763,1.188662,-1.428734,1.723111,1.230623,-0.574446,0.344293,0.003964,0.751629,-0.268173,-0.225401,0.691649,-0.085968,-0.663714,39.376568,-22.595718,-5.848207,0.255826,1.884261,-0.155778,0.000000,0.000000,0.000000,0.000000,0.000000,0.000000
11641168.000000,-2.328745,-1.662753,1.189405,-1.429014,1.722869,1.231313,-0.574528,0.343245,0.003461,0.747652,-0.267751,-0.222055,0.692053,-0.086908,-0.564532,39.352764,-22.524307,-5.796632,0.279630,1.832076,-0.182328,0.000000,0.000000,0.000000,0.000000,0.000000,0.000000
11641169.000000,-2.328410,-1.662745,1.190161,-1.429293,1.722629,1.232015,-0.574618,0.338860,0.006235,0.744771,-0.269975,-0.223744,0.688285,-0.085273,-0.540728,39.328960,-22.448929,-5.673646,0.279630,1.851302,-0.149369,0.000000,0.000000,0.000000,0.000000,0.000000,0.000000
11641170.000000,-2.328081,-1.662740,1.190927,-1.429581,1.722385,1.232709,-0.574696,0.337135,0.007164,0.747526,-0.277922,-0.227918,0.687960,-0.081250,-0.441546,39.352764,-22.425125,-5.526857,0.351041,1.916305,-0.188737,0.000000,0.000000,0.000000,0.000000,0.000000,0.000000
11641171.000000,-2.327748,-1.662730,1.191675,-1.429879,1.722154,1.233394,-0.574784,0.336528,0.005904,0.748376,-0.279717,-0.227502,0.685381,-0.080501,-0.366168,39.328960,-22.377518,-5.276918,0.339139,1.942855,-0.169511,0.000000,0.000000,0.000000,0.000000,0.000000,0.000000
11641172.000000,-2.327418,-1.662723,1.192442,-1.430165,1.721911,1.234110,-0.574863,0.334830,0.007541,0.753850,-0.279753,-0.233219,0.698425,-0.074482,-0.215411,39.328960,-22.448929,-5.078554,0.362943,1.760665,-0.169511,0.000000,0.000000,0.000000,0.000000,0.000000,0.000000
11641173.000000,-2.327093,-1.662712,1.193198,-1.430460,1.721672,1.234808,-0.574940,0.330541,0.009468,0.767817,-0.284353,-0.237978,0.699541,-0.073461,-0.167803,39.305157,-22.548111,-4.931764,0.386747,1.617843,-0.202470,0.000000,0.000000,0.000000,0.000000,0.000000,0.000000
11641174.000000,-2.326769,-1.662707,1.193970,-1.430762,1.721438,1.235500,-0.575021,0.328125,0.012820,0.769184,-0.290408,-0.240246,0.694005,-0.074975,-0.092425,39.328960,-22.742508,-4.685792,0.374845,1.662704,-0.175919,0.000000,0.000000,0.000000,0.000000,0.000000,0.000000
11641175.000000,-2.326449,-1.662701,1.194743,-1.431059,1.721197,1.236173,-0.575101,0.320918,0.011639,0.767644,-0.291551,-0.237839,0.676173,-0.075831,0.006757,39.376568,-22.865494,-4.439821,0.393156,1.897079,-0.182328,0.000000,0.000000,0.000000,0.000000,0.000000,0.000000
11641176.000000,-2.326129,-1.662699,1.195506,-1.431357,1.720963,1.236863,-0.575186,0.322975,0.010227,0.765908,-0.295809,-0.237962,0.681086,-0.081419,0.129743,39.451946,-23.063858,-4.289064,0.464567,1.955673,-0.149369,0.000000,0.000000,0.000000,0.000000,0.000000,0.000000
11641177.000000,-2.325812,-1.662696,1.196271,-1.431655,1.720725,1.237557,-0.575260,0.316560,0.009940,0.760207,-0.300400,-0.234503,0.685375,-0.081565,0.328107,39.499554,-23.163040,-4.118471,0.458158,1.968490,-0.215287,0.000000,0.000000,0.000000,0.000000,0.000000,0.000000
11641178.000000,-2.325496,-1.662689,1.197053,-1.431954,1.720485,1.238257,-0.575341,0.315038,0.010859,0.761984,-0.300798,-0.242182,0.690139,-0.084801,0.403486,39.499554,-23.432816,-3.943910,0.464567,1.962081,-0.215287,0.000000,0.000000,0.000000,0.000000,0.000000,0.000000
11641179.000000,-2.325179,-1.662691,1.197826,-1.432256,1.720248,1.238938,-0.575431,0.317008,0.007184,0.768406,-0.299460,-0.238723,0.690803,-0.089771,0.451093,39.547161,-23.702591,-3.844728,0.470060,2.007858,-0.142960,0.000000,0.000000,0.000000,0.000000,0.000000,0.000000
11641180.000000,-2.324867,-1.662696,1.198587,-1.432559,1.720011,1.239644,-0.575503,0.318714,0.002707,0.759907,-0.299672,-0.231644,0.691888,-0.083156,0.526471,39.670147,-23.726395,-3.697939,0.482877,1.916305,-0.221696,0.000000,0.000000,0.000000,0.000000,0.000000,0.000000
11641181.000000,-2.324548,-1.662699,1.199337,-1.432862,1.719768,1.240334,-0.575588,0.315135,0.001194,0.756984,-0.301961,-0.240715,0.690591,-0.083222,0.550275,39.721722,-23.678787,-3.570986,0.613798,1.871444,-0.169511,0.000000,0.000000,0.000000,0.000000,0.000000,0.000000
11641182.000000,-2.324227,-1.662706,1.200093,-1.433159,1.719537,1.241013,-0.575668,0.314664,-0.000428,0.749792,-0.302342,-0.236119,0.683132,-0.081111,0.574079,39.793133,-23.651016,-3.523378,0.596403,1.962081,-0.169511,0.000000,0.000000,0.000000,0.000000,0.000000,0.000000
11641183.000000,-2.323918,-1.662710,1.200852,-1.433462,1.719304,1.241708,-0.575741,0.310464,-0.006826,0.749457,-0.300878,-0.236413,0.680206,-0.083187,0.673261,39.816936,-23.579605,-3.424196,0.559781,2.027084,-0.215287,0.000000,0.000000,0.000000,0.000000,0.000000,0.000000
11641184.000000,-2.323609,-1.662723,1.201600,-1.433756,1.719068,1.242401,-0.575827,0.309507,-0.008816,0.752031,-0.301635,-0.235365,0.683736,-0.083066,0.748639,39.987530,-23.480423,-3.523378,0.589994,1.955673,-0.163102,0.000000,0.000000,0.000000,0.000000,0.000000,0.000000
11641185.000000,-2.323313,-1.662729,1.202343,-1.434051,1.718844,1.243110,-0.575898,0.310267,-0.007847,0.748155,-0.297922,-0.226639,0.690009,-0.078888,0.970807,40.062908,-23.186844,-3.547182,0.554288,1.858627,-0.221696,0.000000,0.000000,0.000000,0.000000,0.000000,0.000000
11641186.000000,-2.323003,-1.662734,1.203091,-1.434344,1.718623,1.243805,-0.575978,0.309996,-0.006500,0.752719,-0.291386,-0.226935,0.700530,-0.079010,1.069990,40.110516,-23.111465,-3.570986,0.542386,1.838485,-0.196061,0.000000,0.000000,0.000000,0.000000,0.000000,0.000000
11641187.000000,-2.322687,-1.662739,1.203847,-1.434641,1.718405,1.244502,-0.576057,0.312887,-0.005656,0.752966,-0.292810,-0.226305,0.692683,-0.079115,1.069990,40.162090,-23.063858,-3.499574,0.512174,1.903487,-0.175919,0.000000,0.000000,0.000000,0.000000,0.000000,0.000000
11641188.000000,-2.322382,-1.662741,1.204597,-1.434943,1.718180,1.245222,-0.576126,0.313644,-0.004414,0.748397,-0.295342,-0.226271,0.698628,-0.076700,1.121564,40.185894,-22.841690,-3.348818,0.488370,1.819259,-0.215287,0.000000,0.000000,0.000000,0.000000,0.000000,0.000000
11641189.000000,-2.322075,-1.662737,1.205335,-1.435235,1.717951,1.245932,-0.576209,0.310660,-0.001802,0.745433,-0.291259,-0.229139,0.699246,-0.074027,1.121564,40.134319,-22.742508,-3.301210,0.542386,1.676437,-0.149369,0.000000,0.000000,0.000000,0.000000,0.000000,0.000000
11641190.000000,-2.321768,-1.662729,1.206090,-1.435532,1.717732,1.246650,-0.576277,0.311470,0.001534,0.743803,-0.292769,-0.223098,0.699787,-0.072287,1.145368,40.015301,-22.742508,-3.202028,0.530485,1.605026,-0.202470,0.000000,0.000000,0.000000,0.000000,0.000000,0.000000
11641191.000000,-2.321453,-1.662719,1.206829,-1.435826,1.717519,1.247353,-0.576351,0.315458,0.005069,0.757459,-0.293100,-0.212638,0.697915,-0.073627,1.069990,39.840740,-22.694901,-3.126650,0.488370,1.637069,-0.188737,0.000000,0.000000,0.000000,0.000000,0.000000,0.000000
11641192.000000,-2.321142,-1.662711,1.207576,-1.436110,1.717292,1.248044,-0.576427,0.316105,0.006136,0.758667,-0.291898,-0.215912,0.697609,-0.074571,1.022382,39.721722,-22.623489,-3.126650,0.608304,1.682845,-0.175919,0.000000,0.000000,0.000000,0.000000,0.000000,0.000000
11641193.000000,-2.320833,-1.662699,1.208327,-1.436397,1.717077,1.248738,-0.576502,0.319991,0.007504,0.753651,-0.288965,-0.213625,0.697564,-0.075247,0.994611,39.574932,-22.595718,-3.079042,0.608304,1.779891,-0.163102,0.000000,0.000000,0.000000,0.000000,0.000000,0.000000
11641194.000000,-2.320524,-1.662691,1.209070,-1.436685,1.716860,1.249426,-0.576572,0.314804,0.007307,0.752933,-0.286545,-0.216815,0.692604,-0.074356,0.871625,39.475750,-22.647293,-3.027467,0.596403,1.819259,-0.182328,0.000000,0.000000,0.000000,0.000000,0.000000,0.000000
11641195.000000,-2.320212,-1.662672,1.209832,-1.436970,1.716645,1.250125,-0.576644,0.316812,0.010613,0.752953,-0.285623,-0.213412,0.694371,-0.073960,0.772443,39.229778,-22.794083,-2.956056,0.578092,1.825668,-0.208878,0.000000,0.000000,0.000000,0.000000,0.000000,0.000000
11641196.000000,-2.319908,-1.662659,1.210583,-1.437261,1.716443,1.250825,-0.576718,0.308856,0.011057,0.752089,-0.281226,-0.213351,0.693847,-0.075673,0.772443,39.059185,-22.865494,-2.904482,0.512174,1.773483,-0.175919,0.000000,0.000000,0.000000,0.000000,0.000000,0.000000
11641197.000000,-2.319595,-1.662652,1.211325,-1.437548,1.716229,1.251522,-0.576785,0.308107,0.009685,0.751655,-0.280626,-0.214440,0.696112,-0.073850,0.697065,38.960003,-22.964676,-2.880678,0.571683,1.747848,-0.208878,0.000000,0.000000,0.000000,0.000000,0.000000,0.000000
11641198.000000,-2.319295,-1.662641,1.212077,-1.437830,1.716024,1.252214,-0.576858,0.304963,0.009885,0.753509,-0.283772,-0.212304,0.694799,-0.074790,0.748639,38.813213,-23.087662,-2.833071,0.559781,1.779891,-0.196061,0.000000,0.000000,0.000000,0.000000,0.000000,0.000000
11641199.000000,-2.318986,-1.662633,1.212811,-1.438108,1.715821,1.252901,-0.576927,0.307452,0.008814,0.746804,-0.277573,-0.209026,0.694890,-0.070242,0.697065,38.717999,-23.087662,-2.856874,0.500272,1.819259,-0.196061,0.000000,0.000000,0.000000,0.000000,0.000000,0.000000
11641200.000000,-2.318684,-1.662626,1.213550,-1.438382,1.715603,1.253589,-0.577001,0.307150,0.007080,0.741617,-0.280808,-0.209096,0.702321,-0.071579,0.697065,38.666424,-23.040054,-2.904482,0.506681,1.877853,-0.196061,0.000000,0.000000,0.000000,0.000000,0.000000,0.000000
11641201.000000,-2.318390,-1.662620,1.214297,-1.438652,1.715393,1.254283,-0.577077,0.297959,0.006388,0.737434,-0.277626,-0.212183,0.696266,-0.073748,0.796247,38.595013,-23.016251,-3.003664,0.488370,1.909896,-0.163102,0.000000,0.000000,0.000000,0.000000,0.000000,0.000000
11641202.000000,-2.318087,-1.662612,1.215027,-1.438927,1.715184,1.254975,-0.577143,0.297320,0.006020,0.733457,-0.276237,-0.211200,0.702679,-0.071713,0.847822,38.519634,-22.917068,-3.055238,0.488370,1.832076,-0.221696,0.000000,0.000000,0.000000,0.000000,0.000000,0.000000
11641203.000000,-2.317789,-1.662601,1.215769,-1.439200,1.714979,1.255666,-0.577215,0.295988,0.006889,0.732308,-0.274051,-0.205684,0.697111,-0.074040,0.847822,38.396648,-22.841690,-3.027467,0.506681,1.800033,-0.188737,0.000000,0.000000,0.000000,0.000000,0.000000,0.000000
11641204.000000,-2.317487,-1.662589,1.216493,-1.439471,1.714771,1.256347,-0.577285,0.299962,0.007376,0.728625,-0.271814,-0.202010,0.689448,-0.074110,0.824018,38.277630,-22.694901,-3.003664,0.530485,1.819259,-0.196061,0.000000,0.000000,0.000000,0.000000,0.000000,0.000000
11641205.000000,-2.317191,-1.662583,1.217228,-1.439741,1.714559,1.257039,-0.577354,0.297138,0.007414,0.729699,-0.268726,-0.204314,0.682628,-0.074441,0.824018,38.301434,-22.571915,-2.928285,0.554288,1.812850,-0.196061,0.000000,0.000000,0.000000,0.000000,0.000000,0.000000
11641206.000000,-2.316900,-1.662577,1.217971,-1.440010,1.714346,1.257745,-0.577423,0.297502,0.008224,0.728897,-0.268765,-0.205797,0.683295,-0.070778,0.871625,38.301434,-22.524307,-2.880678,0.578092,1.760665,-0.175919,0.000000,0.000000,0.000000,0.000000,0.000000,0.000000
11641207.000000,-2.316603,-1.662570,1.218699,-1.440271,1.714150,1.258442,-0.577488,0.298748,0.005368,0.731351,-0.265428,-0.203608,0.686655,-0.066111,0.895429,38.325237,-22.472733,-2.956056,0.506681,1.643478,-0.202470,0.000000,0.000000,0.000000,0.000000,0.000000,0.000000
11641208.000000,-2.316305,-1.662562,1.219442,-1.440536,1.713950,1.259148,-0.577558,0.296126,0.006414,0.733306,-0.261547,-0.203515,0.694320,-0.069714,0.923200,38.349041,-22.500504,-2.979860,0.482877,1.572067,-0.169511,0.000000,0.000000,0.000000,0.000000,0.000000,0.000000
11641209.000000,-2.316017,-1.662555,1.220179,-1.440801,1.713752,1.259843,-0.577625,0.294522,0.007842,0.753727,-0.259838,-0.209902,0.697001,-0.065138,0.994611,38.349041,-22.647293,-2.956056,0.476469,1.637069,-0.202470,0.000000,0.000000,0.000000,0.000000,0.000000,0.000000
11641210.000000,-2.315722,-1.662549,1.220915,-1.441056,1.713556,1.260528,-0.577697,0.292350,0.007918,0.747335,-0.258677,-0.203802,0.690552,-0.062989,1.022382,38.396648,-22.623489,-3.055238,0.464567,1.689254,-0.202470,0.000000,0.000000,0.000000,0.000000,0.000000,0.000000
11641211.000000,-2.315436,-1.662544,1.221663,-1.441321,1.713348,1.261226,-0.577767,0.294177,0.007953,0.743234,-0.260919,-0.208024,0.685916,-0.062943,1.046186,38.448223,-22.794083,-3.027467,0.542386,1.714889,-0.182328,0.000000,0.000000,0.000000,0.000000,0.000000,0.000000
11641212.000000,-2.315140,-1.662543,1.222395,-1.441579,1.713143,1.261904,-0.577834,0.296030,0.007062,0.741470,-0.259322,-0.208036,0.682002,-0.064574,1.022382,38.543438,-22.865494,-3.102846,0.547880,1.793624,-0.215287,0.000000,0.000000,0.000000,0.000000,0.000000,0.000000
11641213.000000,-2.314838,-1.662546,1.223138,-1.441829,1.712943,1.262607,-0.577912,0.295639,0.004677,0.741339,-0.258608,-0.202541,0.689919,-0.069270,0.970807,38.717999,-23.016251,-3.202028,0.554288,1.819259,-0.163102,0.000000,0.000000,0.000000,0.000000,0.000000,0.000000
11641214.000000,-2.314540,-1.662546,1.223883,-1.442093,1.712748,1.263314,-0.577975,0.295045,0.001813,0.740907,-0.260507,-0.203095,0.695287,-0.068704,0.871625,38.813213,-23.135269,-3.202028,0.566190,1.793624,-0.215287,0.000000,0.000000,0.000000,0.000000,0.000000,0.000000
11641215.000000,-2.314247,-1.662546,1.224607,-1.442349,1.712548,1.264012,-0.578043,0.290066,-0.000420,0.736492,-0.256482,-0.204525,0.702272,-0.070639,0.871625,38.912395,-23.087662,-3.301210,0.571683,1.767074,-0.208878,0.000000,0.000000,0.000000,0.000000,0.000000,0.000000
11641216.000000,-2.313960,-1.662550,1.225345,-1.442601,1.712358,1.264718,-0.578113,0.287317,-0.002638,0.732806,-0.255057,-0.194320,0.708577,-0.072811,0.847822,39.035381,-23.087662,-3.325014,0.566190,1.786300,-0.182328,0.000000,0.000000,0.000000,0.000000,0.000000,0.000000
11641217.000000,-2.313665,-1.662552,1.226075,-1.442853,1.712172,1.265408,-0.578181,0.291733,-0.003040,0.732140,-0.252102,-0.190550,0.699469,-0.072304,0.824018,39.106792,-23.087662,-3.400392,0.518583,1.838485,-0.208878,0.000000,0.000000,0.000000,0.000000,0.000000,0.000000
11641218.000000,-2.313371,-1.662552,1.226812,-1.443102,1.711977,1.266115,-0.578256,0.294187,-0.002292,0.735365,-0.255882,-0.193794,0.709697,-0.074361,0.824018,39.130596,-23.111465,-3.448000,0.488370,1.800033,-0.175919,0.000000,0.000000,0.000000,0.000000,0.000000,0.000000
11641219.000000,-2.313083,-1.662559,1.227547,-1.443343,1.711785,1.266826,-0.578322,0.293685,-0.003072,0.731206,-0.248418,-0.186563,0.706012,-0.074223,0.847822,39.205975,-23.016251,-3.598757,0.470060,1.702071,-0.196061,0.000000,0.000000,0.000000,0.000000,0.000000,0.000000
11641220.000000,-2.312789,-1.662564,1.228268,-1.443593,1.711601,1.267520,-0.578389,0.293200,-0.002441,0.729429,-0.250904,-0.187455,0.706908,-0.074070,0.824018,39.229778,-22.940872,-3.670168,0.482877,1.695663,-0.202470,0.000000,0.000000,0.000000,0.000000,0.000000,0.000000
11641221.000000,-2.312500,-1.662563,1.228998,-1.443834,1.711415,1.268210,-0.578460,0.298314,-0.000947,0.725431,-0.246681,-0.187068,0.698617,-0.070941,0.772443,39.205975,-22.817886,-3.745546,0.482877,1.714889,-0.169511,0.000000,0.000000,0.000000,0.000000,0.000000,0.000000
11641222.000000,-2.312212,-1.662565,1.229725,-1.444070,1.711235,1.268902,-0.578526,0.297014,-0.001096,0.726105,-0.239222,-0.185935,0.699212,-0.065835,0.724836,39.229778,-22.770279,-3.844728,0.452665,1.760665,-0.208878,0.000000,0.000000,0.000000,0.000000,0.000000,0.000000
11641223.000000,-2.311925,-1.662567,1.230451,-1.444299,1.711051,1.269596,-0.578597,0.291806,-0.001218,0.722834,-0.233640,-0.181909,0.702173,-0.064914,0.748639,39.253582,-22.571915,-3.967714,0.470060,1.682845,-0.175919,0.000000,0.000000,0.000000,0.000000,0.000000,0.000000
11641224.000000,-2.311636,-1.662569,1.231182,-1.444529,1.710864,1.270298,-0.578658,0.291582,-0.001410,0.723161,-0.233300,-0.182875,0.692914,-0.066291,0.724836,39.281353,-22.472733,-4.066896,0.452665,1.624252,-0.208878,0.000000,0.000000,0.000000,0.000000,0.000000,0.000000
11641225.000000,-2.311339,-1.662565,1.231910,-1.444761,1.710677,1.270982,-0.578729,0.290656,0.000305,0.725933,-0.230010,-0.183708,0.693106,-0.069946,0.625654,39.229778,-22.500504,-4.142274,0.446256,1.637069,-0.169511,0.000000,0.000000,0.000000,0.000000,0.000000,0.000000
11641226.000000,-2.311042,-1.662565,1.232644,-1.444987,1.710492,1.271669,-0.578793,0.290149,0.000233,0.722266,-0.229147,-0.178450,0.690261,-0.070072,0.502668,39.229778,-22.500504,-4.166078,0.434354,1.682845,-0.188737,0.000000,0.000000,0.000000,0.000000,0.000000,0.000000
11641227.000000,-2.310746,-1.662567,1.233356,-1.445213,1.710309,1.272370,-0.578859,0.291823,-0.000380,0.720878,-0.230337,-0.177239,0.686625,-0.070906,0.304304,39.253582,-22.353714,-4.241457,0.482877,1.708480,-0.202470,0.000000,0.000000,0.000000,0.000000,0.000000,0.000000
11641228.000000,-2.310449,-1.662562,1.234085,-1.445441,1.710124,1.273053,-0.578929,0.294001,0.001434,0.722560,-0.228235,-0.179850,0.689482,-0.072945,0.129743,39.182171,-22.302139,-4.312868,0.494779,1.695663,-0.175919,0.000000,0.000000,0.000000,0.000000,0.000000,0.000000
11641229.000000,-2.310155,-1.662559,1.234829,-1.445655,1.709949,1.273749,-0.578991,0.288090,0.002731,0.722173,-0.225427,-0.174858,0.691232,-0.071823,0.006757,39.106792,-22.500504,-4.439821,0.452665,1.676437,-0.221696,0.000000,0.000000,0.000000,0.000000,0.000000,0.000000
11641230.000000,-2.309854,-1.662557,1.235563,-1.445871,1.709781,1.274442,-0.579062,0.290940,0.001830,0.725393,-0.220473,-0.169514,0.680008,-0.073837,-0.144000,39.106792,-22.671097,-4.535036,0.362943,1.611434,-0.188737,0.000000,0.000000,0.000000,0.000000,0.000000,0.000000
11641231.000000,-2.309551,-1.662555,1.236301,-1.446092,1.709595,1.275136,-0.579130,0.293785,0.001784,0.722159,-0.220837,-0.169291,0.679907,-0.074990,-0.314593,39.082989,-22.794083,-4.610414,0.374845,1.617843,-0.175919,0.000000,0.000000,0.000000,0.000000,0.000000,0.000000
11641232.000000,-2.309252,-1.662555,1.237038,-1.446307,1.709406,1.275820,-0.579195,0.297989,0.001194,0.727719,-0.217002,-0.174123,0.678356,-0.069506,-0.512957,39.082989,-22.817886,-4.733400,0.405057,1.714889,-0.196061,0.000000,0.000000,0.000000,0.000000,0.000000,0.000000
11641233.000000,-2.308959,-1.662557,1.237774,-1.446519,1.709232,1.276488,-0.579264,0.293273,0.000800,0.729722,-0.213145,-0.176193,0.672588,-0.066719,-0.612139,39.082989,-23.016251,-4.884157,0.374845,1.877853,-0.175919,0.000000,0.000000,0.000000,0.000000,0.000000,0.000000
11641234.000000,-2.308660,-1.662555,1.238509,-1.446730,1.709054,1.277176,-0.579322,0.300994,0.000536,0.723816,-0.214949,-0.178945,0.676276,-0.063153,-0.810504,39.082989,-23.111465,-4.983339,0.381254,1.936446,-0.202470,0.000000,0.000000,0.000000,0.000000,0.000000,0.000000
11641235.000000,-2.308362,-1.662557,1.239240,-1.446941,1.708885,1.277858,-0.579390,0.300320,0.000360,0.730360,-0.210753,-0.174537,0.676177,-0.067222,-0.909686,39.082989,-23.210648,-5.153932,0.339139,1.858627,-0.175919,0.000000,0.000000,0.000000,0.000000,0.000000,0.000000
11641236.000000,-2.308065,-1.662556,1.239981,-1.447154,1.708707,1.278558,-0.579454,0.299027,0.000798,0.735470,-0.215633,-0.178537,0.685951,-0.063772,-0.961260,39.059185,-23.309830,-5.229311,0.356534,1.714889,-0.196061,0.000000,0.000000,0.000000,0.000000,0.000000,0.000000
11641237.000000,-2.307761,-1.662563,1.240718,-1.447360,1.708532,1.279236,-0.579518,0.295934,-0.001787,0.733529,-0.211012,-0.180018,0.682719,-0.063196,-1.207232,39.158367,-23.309830,-5.304689,0.339139,1.754256,-0.163102,0.000000,0.000000,0.000000,0.000000,0.000000,0.000000
11641238.000000,-2.307464,-1.662560,1.241433,-1.447575,1.708354,1.279902,-0.579582,0.295823,0.000016,0.730024,-0.212944,-0.182133,0.685245,-0.060872,-1.330218,39.106792,-23.210648,-5.276918,0.344633,1.858627,-0.175919,0.000000,0.000000,0.000000,0.000000,0.000000,0.000000
11641239.000000,-2.307175,-1.662567,1.242157,-1.447783,1.708171,1.280577,-0.579639,0.293478,-0.002309,0.724482,-0.210538,-0.178615,0.681547,-0.059284,-1.453204,39.205975,-23.040054,-5.276918,0.362943,1.897079,-0.202470,0.000000,0.000000,0.000000,0.000000,0.000000,0.000000
11641240.000000,-2.306878,-1.662570,1.242870,-1.447985,1.707996,1.281252,-0.579705,0.296100,-0.002652,0.720453,-0.206482,-0.176812,0.684095,-0.060184,-1.552386,39.253582,-22.917068,-5.352296,0.393156,1.890670,-0.163102,0.000000,0.000000,0.000000,0.000000,0.000000,0.000000
11641241.000000,-2.306585,-1.662570,1.243602,-1.448189,1.707827,1.281942,-0.579758,0.293197,-0.001211,0.721942,-0.205135,-0.171983,0.690548,-0.056797,-1.552386,39.229778,-22.865494,-5.376100,0.332731,1.819259,-0.215287,0.000000,0.000000,0.000000,0.000000,0.000000,0.000000
11641242.000000,-2.306296,-1.662571,1.244340,-1.448389,1.707661,1.282635,-0.579822,0.292537,-0.000807,0.719514,-0.202471,-0.168361,0.688704,-0.057832,-1.580157,39.229778,-22.940872,-5.451478,0.267728,1.767074,-0.188737,0.000000,0.000000,0.000000,0.000000,0.000000,0.000000
11641243.000000,-2.306007,-1.662580,1.245065,-1.448593,1.707491,1.283313,-0.579882,0.289356,-0.002858,0.722755,-0.202124,-0.163823,0.691568,-0.062666,-1.603961,39.328960,-22.964676,-5.451478,0.291532,1.754256,-0.175919,0.000000,0.000000,0.000000,0.000000,0.000000,0.000000
11641244.000000,-2.305721,-1.662588,1.245798,-1.448794,1.707314,1.283994,-0.579936,0.286636,-0.004225,0.720556,-0.202194,-0.166222,0.687441,-0.064167,-1.580157,39.428143,-22.988480,-5.451478,0.351041,1.825668,-0.208878,0.000000,0.000000,0.000000,0.000000,0.000000,0.000000
11641245.000000,-2.305438,-1.662597,1.246526,-1.449000,1.707138,1.284682,-0.580000,0.285925,-0.005601,0.729251,-0.200695,-0.171621,0.686634,-0.064247,-1.603961,39.547161,-23.111465,-5.376100,0.386747,1.923629,-0.155778,0.000000,0.000000,0.000000,0.000000,0.000000,0.000000
11641246.000000,-2.305160,-1.662604,1.247269,-1.449204,1.706967,1.285356,-0.580057,0.279139,-0.005497,0.730948,-0.200322,-0.168605,0.685687,-0.060932,-1.504779,39.622540,-23.333633,-5.399904,0.351041,1.955673,-0.188737,0.000000,0.000000,0.000000,0.000000,0.000000,0.000000
11641247.000000,-2.304879,-1.662621,1.248016,-1.449397,1.706798,1.286057,-0.580114,0.277676,-0.008212,0.732474,-0.198346,-0.167360,0.691833,-0.059568,-1.480975,39.816936,-23.603409,-5.499086,0.332731,1.851302,-0.202470,0.000000,0.000000,0.000000,0.000000,0.000000,0.000000
11641248.000000,-2.304595,-1.662631,1.248752,-1.449602,1.706630,1.286736,-0.580177,0.283308,-0.007795,0.733355,-0.196388,-0.167310,0.685421,-0.059551,-1.504779,39.916119,-23.825577,-5.475282,0.332731,1.773483,-0.182328,0.000000,0.000000,0.000000,0.000000,0.000000,0.000000
11641249.000000,-2.304311,-1.662643,1.249492,-1.449798,1.706457,1.287418,-0.580233,0.280420,-0.008073,0.732425,-0.197336,-0.168456,0.682145,-0.057806,-1.580157,40.039104,-23.996170,-5.499086,0.374845,1.825668,-0.208878,0.000000,0.000000,0.000000,0.000000,0.000000,0.000000
11641250.000000,-2.304042,-1.662662,1.250237,-1.450010,1.706292,1.288082,-0.580293,0.274363,-0.009929,0.731001,-0.203385,-0.167148,0.677049,-0.058348,-1.504779,40.233501,-24.142960,-5.427675,0.351041,1.988631,-0.188737,0.000000,0.000000,0.000000,0.000000,0.000000,0.000000
11641251.000000,-2.303762,-1.662676,1.250964,-1.450217,1.706125,1.288745,-0.580353,0.275399,-0.013209,0.725432,-0.203474,-0.167637,0.666334,-0.057594,-1.552386,40.380291,-24.218338,-5.399904,0.369352,2.066451,-0.196061,0.000000,0.000000,0.000000,0.000000,0.000000,0.000000
11641252.000000,-2.303497,-1.662692,1.251695,-1.450423,1.705944,1.289427,-0.580413,0.277552,-0.015094,0.724007,-0.204033,-0.167644,0.665453,-0.058842,-1.429400,40.503277,-24.190567,-5.352296,0.386747,2.033492,-0.155778,0.000000,0.000000,0.000000,0.000000,0.000000,0.000000
11641253.000000,-2.303224,-1.662704,1.252424,-1.450618,1.705774,1.290098,-0.580463,0.274764,-0.011636,0.727246,-0.200565,-0.165494,0.667861,-0.055667,-1.381793,40.550884,-24.265945,-5.451478,0.339139,1.962081,-0.221696,0.000000,0.000000,0.000000,0.000000,0.000000,0.000000
11641254.000000,-2.302952,-1.662718,1.253159,-1.450821,1.705599,1.290778,-0.580522,0.274322,-0.011924,0.729039,-0.209035,-0.171643,0.674638,-0.056564,-1.330218,40.578655,-24.313553,-5.451478,0.356534,1.949264,-0.208878,0.000000,0.000000,0.000000,0.000000,0.000000,0.000000
11641255.000000,-2.302692,-1.662731,1.253888,-1.451029,1.705422,1.291458,-0.580584,0.270379,-0.012727,0.729558,-0.207903,-0.171668,0.671481,-0.058645,-1.207232,40.626263,-24.190567,-5.427675,0.393156,1.923629,-0.163102,0.000000,0.000000,0.000000,0.000000,0.000000,0.000000
11641256.000000,-2.302426,-1.662748,1.254607,-1.451232,1.705248,1.292137,-0.580636,0.265975,-0.014637,0.727651,-0.204446,-0.171652,0.674652,-0.055584,-1.183428,40.725445,-24.095352,-5.499086,0.434354,1.897079,-0.215287,0.000000,0.000000,0.000000,0.000000,0.000000,0.000000
11641257.000000,-2.302160,-1.662754,1.255340,-1.451440,1.705076,1.292809,-0.580700,0.267055,-0.009307,0.721676,-0.206243,-0.165676,0.669885,-0.058159,-1.108050,40.673870,-23.996170,-5.399904,0.464567,1.903487,-0.155778,0.000000,0.000000,0.000000,0.000000,0.000000,0.000000
11641258.000000,-2.301905,-1.662766,1.256061,-1.451654,1.704916,1.293487,-0.580754,0.262717,-0.009950,0.733921,-0.207672,-0.163167,0.677877,-0.056651,-0.933489,40.673870,-23.920792,-5.276918,0.398649,1.930038,-0.182328,0.000000,0.000000,0.000000,0.000000,0.000000,0.000000
11641259.000000,-2.301640,-1.662773,1.256786,-1.451857,1.704750,1.294169,-0.580808,0.260643,-0.009382,0.728623,-0.204653,-0.162351,0.686686,-0.055245,-0.834307,40.626263,-23.726395,-5.328493,0.351041,1.838485,-0.221696,0.000000,0.000000,0.000000,0.000000,0.000000,0.000000
11641260.000000,-2.301384,-1.662784,1.257518,-1.452067,1.704575,1.294863,-0.580872,0.260602,-0.010732,0.721830,-0.206518,-0.164459,0.682575,-0.058134,-0.735125,40.650066,-23.702591,-5.205507,0.374845,1.741439,-0.155778,0.000000,0.000000,0.000000,0.000000,0.000000,0.000000
11641261.000000,-2.301119,-1.662789,1.258240,-1.452281,1.704413,1.295541,-0.580926,0.260909,-0.006332,0.721110,-0.205351,-0.164656,0.685874,-0.055953,-0.735125,40.578655,-23.702591,-5.030946,0.369352,1.747848,-0.196061,0.000000,0.000000,0.000000,0.000000,0.000000,0.000000
11641262.000000,-2.300856,-1.662794,1.258965,-1.452494,1.704250,1.296217,-0.580982,0.258958,-0.005594,0.718323,-0.210563,-0.164617,0.677569,-0.055666,-0.735125,40.479473,-23.651016,-4.884157,0.369352,1.812850,-0.202470,0.000000,0.000000,0.000000,0.000000,0.000000,0.000000
11641263.000000,-2.300597,-1.662802,1.259692,-1.452708,1.704080,1.296912,-0.581044,0.259188,-0.004461,0.723770,-0.206876,-0.167718,0.672575,-0.057534,-0.786700,40.479473,-23.603409,-4.784975,0.464567,1.838485,-0.169511,0.000000,0.000000,0.000000,0.000000,0.000000,0.000000
11641264.000000,-2.300336,-1.662801,1.260407,-1.452923,1.703916,1.297595,-0.581094,0.256402,-0.003259,0.724612,-0.211632,-0.167995,0.677673,-0.055910,-0.762896,40.332684,-23.579605,-4.634218,0.482877,1.779891,-0.202470,0.000000,0.000000,0.000000,0.000000,0.000000,0.000000
11641265.000000,-2.300075,-1.662807,1.261138,-1.453138,1.703762,1.298291,-0.581155,0.259232,-0.001085,0.727276,-0.209300,-0.160470,0.677752,-0.062358,-0.786700,40.257305,-23.702591,-4.463624,0.434354,1.747848,-0.163102,0.000000,0.000000,0.000000,0.000000,0.000000,0.000000
11641266.000000,-2.299810,-1.662809,1.261861,-1.453355,1.703599,1.298973,-0.581209,0.262588,-0.001340,0.727171,-0.214732,-0.162048,0.670838,-0.059763,-0.862078,40.134319,-23.801773,-4.364442,0.440763,1.767074,-0.188737,0.000000,0.000000,0.000000,0.000000,0.000000,0.000000
11641267.000000,-2.299554,-1.662813,1.262592,-1.453573,1.703436,1.299670,-0.581266,0.261504,-0.003574,0.726596,-0.216225,-0.161953,0.675060,-0.058830,-0.786700,40.086712,-23.896988,-4.265260,0.416959,1.721298,-0.196061,0.000000,0.000000,0.000000,0.000000,0.000000,0.000000
11641268.000000,-2.299297,-1.662818,1.263323,-1.453794,1.703261,1.300349,-0.581321,0.263844,-0.002561,0.725488,-0.214662,-0.168712,0.680109,-0.057343,-0.810504,40.062908,-23.948563,-4.142274,0.458158,1.793624,-0.221696,0.000000,0.000000,0.000000,0.000000,0.000000,0.000000
11641269.000000,-2.299047,-1.662820,1.264041,-1.454017,1.703092,1.301015,-0.581387,0.259441,-0.003107,0.719520,-0.214304,-0.169343,0.675868,-0.060054,-0.762896,39.963726,-24.071548,-3.991518,0.494779,1.949264,-0.142960,0.000000,0.000000,0.000000,0.000000,0.000000,0.000000
11641270.000000,-2.298794,-1.662822,1.264771,-1.454230,1.702933,1.301698,-0.581439,0.264681,-0.001079,0.720472,-0.213463,-0.166294,0.678368,-0.057304,-0.735125,39.892315,-24.190567,-3.991518,0.446256,2.020675,-0.188737,0.000000,0.000000,0.000000,0.000000,0.000000,0.000000
11641271.000000,-2.298537,-1.662827,1.265492,-1.454449,1.702769,1.302383,-0.581491,0.262898,-0.000021,0.720861,-0.213800,-0.167891,0.689626,-0.056526,-0.735125,39.840740,-24.265945,-3.943910,0.488370,1.897079,-0.208878,0.000000,0.000000,0.000000,0.000000,0.000000,0.000000
11641272.000000,-2.298282,-1.662826,1.266213,-1.454665,1.702605,1.303070,-0.581551,0.258687,-0.001219,0.725347,-0.214619,-0.167846,0.690001,-0.057810,-0.711321,39.745525,-24.242142,-3.892336,0.500272,1.897079,-0.175919,0.000000,0.000000,0.000000,0.000000,0.000000,0.000000
11641273.000000,-2.298027,-1.662822,1.266938,-1.454886,1.702450,1.303756,-0.581605,0.261572,0.000968,0.722445,-0.215794,-0.165867,0.685099,-0.051545,-0.762896,39.646343,-24.218338,-3.820925,0.458158,1.955673,-0.208878,0.000000,0.000000,0.000000,0.000000,0.000000,0.000000
11641274.000000,-2.297767,-1.662823,1.267645,-1.455116,1.702288,1.304433,-0.581661,0.260739,0.001354,0.716664,-0.220173,-0.166383,0.686575,-0.053203,-0.834307,39.598736,-24.166763,-3.721742,0.464567,2.027084,-0.196061,0.000000,0.000000,0.000000,0.000000,0.000000,0.000000
11641275.000000,-2.297518,-1.662818,1.268362,-1.455344,1.702121,1.305124,-0.581715,0.257291,0.002362,0.711949,-0.225167,-0.166592,0.685924,-0.054784,-0.786700,39.523357,-24.019974,-3.570986,0.476469,1.974899,-0.188737,0.000000,0.000000,0.000000,0.000000,0.000000,0.000000
11641276.000000,-2.297268,-1.662810,1.269059,-1.455567,1.701959,1.305816,-0.581768,0.257585,0.003574,0.722969,-0.222754,-0.166754,0.687215,-0.055170,-0.810504,39.428143,-23.801773,-3.523378,0.482877,1.942855,-0.188737,0.000000,0.000000,0.000000,0.000000,0.000000,0.000000
11641277.000000,-2.297016,-1.662804,1.269781,-1.455792,1.701806,1.306494,-0.581821,0.255022,0.003975,0.718054,-0.221849,-0.160462,0.686475,-0.055309,-0.786700,39.352764,-23.774002,-3.448000,0.458158,1.909896,-0.182328,0.000000,0.000000,0.000000,0.000000,0.000000,0.000000
11641278.000000,-2.296772,-1.662793,1.270502,-1.456012,1.701652,1.307179,-0.581869,0.251894,0.005399,0.710651,-0.222912,-0.161977,0.681489,-0.054204,-0.687518,39.229778,-23.750198,-3.424196,0.458158,1.844894,-0.221696,0.000000,0.000000,0.000000,0.000000,0.000000,0.000000
11641279.000000,-2.296534,-1.662787,1.271214,-1.456237,1.701494,1.307852,-0.581928,0.247308,0.005173,0.716084,-0.220986,-0.159202,0.681718,-0.055808,-0.564532,39.158367,-23.750198,-3.376589,0.500272,1.825668,-0.196061,0.000000,0.000000,0.000000,0.000000,0.000000,0.000000
11641280.000000,-2.296286,-1.662787,1.271925,-1.456457,1.701341,1.308529,-0.581980,0.247081,0.006430,0.710681,-0.220756,-0.156195,0.677660,-0.056140,-0.512957,39.158367,-23.651016,-3.301210,0.524076,1.858627,-0.182328,0.000000,0.000000,0.000000,0.000000,0.000000,0.000000
11641281.000000,-2.296046,-1.662778,1.272653,-1.456679,1.701194,1.309209,-0.582028,0.240272,0.006807,0.718865,-0.219927,-0.156714,0.669959,-0.054697,-0.465350,39.059185,-23.801773,-3.249635,0.500272,1.949264,-0.221696,0.000000,0.000000,0.000000,0.000000,0.000000,0.000000
11641282.000000,-2.295809,-1.662776,1.273367,-1.456902,1.701043,1.309874,-0.582083,0.238811,0.005802,0.714060,-0.216147,-0.153470,0.668242,-0.055815,-0.413775,39.011578,-23.896988,-3.202028,0.488370,1.968490,-0.202470,0.000000,0.000000,0.000000,0.000000,0.000000,0.000000
11641283.000000,-2.295576,-1.662776,1.274086,-1.457120,1.700887,1.310566,-0.582131,0.236969,0.003424,0.710064,-0.215834,-0.155602,0.671981,-0.050833,-0.314593,39.035381,-24.043777,-3.178224,0.464567,1.916305,-0.215287,0.000000,0.000000,0.000000,0.000000,0.000000,0.000000
11641284.000000,-2.295335,-1.662786,1.274800,-1.457333,1.700736,1.311242,-0.582187,0.237070,-0.000510,0.713739,-0.211633,-0.148355,0.668406,-0.053959,-0.266986,39.158367,-24.142960,-3.178224,0.476469,1.890670,-0.169511,0.000000,0.000000,0.000000,0.000000,0.000000,0.000000
11641285.000000,-2.295097,-1.662786,1.275516,-1.457546,1.700586,1.311906,-0.582229,0.236124,-0.000833,0.713930,-0.212769,-0.148333,0.662375,-0.047362,-0.191607,39.182171,-24.265945,-3.154421,0.494779,2.014266,-0.235429,0.000000,0.000000,0.000000,0.000000,0.000000,0.000000
11641286.000000,-2.294864,-1.662793,1.276236,-1.457753,1.700436,1.312580,-0.582284,0.236788,-0.002828,0.715790,-0.207899,-0.154291,0.661812,-0.046077,-0.167803,39.281353,-24.341324,-3.249635,0.535978,2.039901,-0.208878,0.000000,0.000000,0.000000,0.000000,0.000000,0.000000
11641287.000000,-2.294635,-1.662798,1.276939,-1.457958,1.700293,1.313255,-0.582334,0.231110,-0.003520,0.714869,-0.205171,-0.146927,0.664881,-0.049061,-0.044818,39.352764,-24.289749,-3.301210,0.547880,1.962081,-0.196061,0.000000,0.000000,0.000000,0.000000,0.000000,0.000000
11641288.000000,-2.294406,-1.662804,1.277656,-1.458168,1.700146,1.313945,-0.582383,0.234937,-0.004640,0.717071,-0.206031,-0.146076,0.672241,-0.046456,-0.017047,39.451946,-24.289749,-3.225832,0.554288,1.865035,-0.188737,0.000000,0.000000,0.000000,0.000000,0.000000,0.000000
11641289.000000,-2.294180,-1.662813,1.278363,-1.458377,1.700010,1.314603,-0.582434,0.231830,-0.005950,0.716907,-0.206944,-0.138942,0.678724,-0.048709,0.078168,39.574932,-24.265945,-3.249635,0.506681,1.890670,-0.196061,0.000000,0.000000,0.000000,0.000000,0.000000,0.000000
11641290.000000,-2.293950,-1.662823,1.279074,-1.458580,1.699869,1.315275,-0.582484,0.231342,-0.006736,0.714127,-0.204432,-0.139977,0.680656,-0.045237,0.177350,39.693951,-24.265945,-3.301210,0.494779,1.916305,-0.215287,0.000000,0.000000,0.000000,0.000000,0.000000,0.000000
11641291.000000,-2.293727,-1.662829,1.279782,-1.458783,1.699723,1.315957,-0.582537,0.229195,-0.006242,0.708004,-0.200696,-0.135874,0.680308,-0.044821,0.276533,39.769329,-24.095352,-3.301210,0.488370,1.916305,-0.182328,0.000000,0.000000,0.000000,0.000000,0.000000,0.000000
11641292.000000,-2.293504,-1.662828,1.280475,-1.458982,1.699578,1.316631,-0.582582,0.226496,-0.003596,0.703686,-0.199562,-0.138207,0.676062,-0.046471,0.375715,39.745525,-23.920792,-3.348818,0.482877,1.890670,-0.208878,0.000000,0.000000,0.000000,0.000000,0.000000,0.000000
11641293.000000,-2.293282,-1.662828,1.281178,-1.459170,1.699436,1.317316,-0.582631,0.224190,-0.002391,0.700263,-0.196722,-0.134950,0.679118,-0.044118,0.502668,39.745525,-23.801773,-3.499574,0.494779,1.819259,-0.208878,0.000000,0.000000,0.000000,0.000000,0.000000,0.000000
11641294.000000,-2.293058,-1.662823,1.281877,-1.459369,1.699304,1.318009,-0.582686,0.224096,0.000174,0.712163,-0.197610,-0.136249,0.682749,-0.044006,0.550275,39.670147,-23.726395,-3.523378,0.452665,1.760665,-0.169511,0.000000,0.000000,0.000000,0.000000,0.000000,0.000000
11641295.000000,-2.292834,-1.662819,1.282581,-1.459565,1.699162,1.318696,-0.582730,0.223595,0.001233,0.710727,-0.197931,-0.140024,0.689413,-0.045446,0.601850,39.622540,-23.579605,-3.570986,0.488370,1.689254,-0.215287,0.000000,0.000000,0.000000,0.000000,0.000000,0.000000
11641296.000000,-2.292616,-1.662818,1.283284,-1.459757,1.699026,1.319383,-0.582783,0.220922,0.001382,0.708751,-0.192814,-0.141696,0.688012,-0.045297,0.601850,39.598736,-23.409012,-3.570986,0.494779,1.662704,-0.169511,0.000000,0.000000,0.000000,0.000000,0.000000,0.000000
11641297.000000,-2.292389,-1.662816,1.283977,-1.459957,1.698887,1.320056,-0.582828,0.224490,0.001480,0.703902,-0.195825,-0.143941,0.684846,-0.041986,0.601850,39.574932,-23.333633,-3.523378,0.530485,1.708480,-0.202470,0.000000,0.000000,0.000000,0.000000,0.000000,0.000000
11641298.000000,-2.292163,-1.662804,1.284680,-1.460148,1.698760,1.320734,-0.582880,0.225024,0.005071,0.699360,-0.194230,-0.141623,0.678129,-0.041959,0.601850,39.400372,-23.258255,-3.523378,0.464567,1.779891,-0.169511,0.000000,0.000000,0.000000,0.000000,0.000000,0.000000
11641299.000000,-2.291933,-1.662796,1.285381,-1.460341,1.698625,1.321438,-0.582926,0.224211,0.006166,0.697192,-0.193497,-0.140129,0.682482,-0.041664,0.526471,39.281353,-23.210648,-3.499574,0.416959,1.676437,-0.155778,0.000000,0.000000,0.000000,0.000000,0.000000,0.000000
11641300.000000,-2.291702,-1.662792,1.286078,-1.460525,1.698487,1.322124,-0.582972,0.227261,0.004761,0.694951,-0.187492,-0.142318,0.680611,-0.044679,0.403486,39.253582,-23.135269,-3.570986,0.428861,1.605026,-0.163102,0.000000,0.000000,0.000000,0.000000,0.000000,0.000000
11641301.000000,-2.291479,-1.662779,1.286785,-1.460706,1.698350,1.322814,-0.583011,0.227302,0.007165,0.695813,-0.184106,-0.137768,0.686350,-0.041194,0.375715,39.082989,-23.210648,-3.598757,0.422452,1.656295,-0.208878,0.000000,0.000000,0.000000,0.000000,0.000000,0.000000
11641302.000000,-2.291257,-1.662770,1.287482,-1.460891,1.698218,1.323491,-0.583056,0.223780,0.007654,0.698927,-0.181515,-0.134493,0.685941,-0.039654,0.375715,38.960003,-23.234451,-3.622560,0.416959,1.767074,-0.229020,0.000000,0.000000,0.000000,0.000000,0.000000,0.000000
11641303.000000,-2.291028,-1.662765,1.288195,-1.461071,1.698078,1.324179,-0.583112,0.224548,0.006774,0.703716,-0.185021,-0.134273,0.683512,-0.042388,0.276533,38.888592,-23.357437,-3.646364,0.476469,1.806442,-0.149369,0.000000,0.000000,0.000000,0.000000,0.000000,0.000000
11641304.000000,-2.290808,-1.662757,1.288901,-1.461245,1.697943,1.324867,-0.583149,0.226504,0.006279,0.702165,-0.181056,-0.132510,0.684731,-0.043134,0.252729,38.813213,-23.432816,-3.721742,0.488370,1.786300,-0.221696,0.000000,0.000000,0.000000,0.000000,0.000000,0.000000
11641305.000000,-2.290584,-1.662750,1.289606,-1.461419,1.697820,1.325542,-0.583201,0.225612,0.006414,0.703371,-0.178865,-0.133811,0.684059,-0.043732,0.252729,38.717999,-23.579605,-3.769350,0.440763,1.786300,-0.169511,0.000000,0.000000,0.000000,0.000000,0.000000,0.000000
11641306.000000,-2.290353,-1.662742,1.290323,-1.461597,1.697693,1.326223,-0.583244,0.227529,0.006039,0.704608,-0.177785,-0.129733,0.686230,-0.041725,0.177350,38.642620,-23.825577,-3.797121,0.393156,1.773483,-0.182328,0.000000,0.000000,0.000000,0.000000,0.000000,0.000000
