chaoyuefei/paper-gmrm-data/robot_logs/s2_dq_gmrm_xz_min_0.50_log_20260314_173916.csv
# time_ms,q_0,q_1,q_2,q_3,q_4,q_5,q_6,dq_0,dq_1,dq_2,dq_3,dq_4,dq_5,dq_6,tau_J_0,tau_J_1,tau_J_2,tau_J_3,tau_J_4,tau_J_5,tau_J_6,O_dP_EE_c_0,O_dP_EE_c_1,O_dP_EE_c_2,O_dP_EE_c_3,O_dP_EE_c_4,O_dP_EE_c_5
12618177.000000,-2.415653,-1.662609,1.042883,-1.356082,1.795451,1.081425,-0.548602,0.000347,-0.000630,0.000686,0.000077,-0.000012,0.000074,-0.002005,0.006757,41.578411,-21.076248,-5.721254,0.840848,1.318465,0.067611,0.000000,0.000000,0.000000,0.000000,0.000000,0.000000
12618178.000000,-2.415651,-1.662604,1.042881,-1.356080,1.795450,1.081425,-0.548593,0.000788,0.001250,-0.000095,0.000701,-0.000008,0.000049,0.001579,-0.017047,41.507000,-21.052444,-5.749025,0.840848,1.318465,-0.011124,0.000000,0.000000,0.000000,0.000000,0.000000,0.000000
12618179.000000,-2.415654,-1.662605,1.042881,-1.356082,1.795454,1.081423,-0.548597,-0.000588,0.000277,-0.000060,-0.000182,0.000198,0.000507,-0.000168,0.030561,41.530804,-21.052444,-5.721254,0.835355,1.305648,0.021835,0.000000,0.000000,0.000000,0.000000,0.000000,0.000000
12618180.000000,-2.415654,-1.662607,1.042881,-1.356082,1.795452,1.081425,-0.548597,-0.000392,-0.000372,-0.000037,-0.000122,0.000132,0.000101,-0.000112,0.030561,41.554607,-21.052444,-5.721254,0.835355,1.312057,0.021835,0.000000,0.000000,0.000000,0.000000,0.000000,0.000000
12618181.000000,-2.415654,-1.662608,1.042883,-1.356081,1.795453,1.081422,-0.548595,0.007950,-0.004864,-0.000023,0.001957,-0.008650,0.007397,0.001621,0.351911,41.483196,-21.052444,-5.673646,0.817045,1.370651,-0.023942,0.000000,0.000000,0.000000,0.000000,0.000000,0.000000
12618182.000000,-2.415645,-1.662608,1.042881,-1.356079,1.795454,1.081419,-0.548614,0.014646,-0.004236,0.000380,0.004311,-0.007727,0.004771,-0.008825,1.367536,41.237225,-20.953262,-5.526857,0.721830,1.526290,-0.011124,0.000000,0.000000,0.000000,0.000000,0.000000,0.000000
12618183.000000,-2.415610,-1.662609,1.042893,-1.356070,1.795447,1.081416,-0.548638,0.023688,-0.003935,0.003341,0.005287,-0.012772,0.004586,-0.013914,2.926679,40.844463,-20.953262,-5.328493,0.644010,1.767074,-0.070634,0.000000,0.000000,0.000000,0.000000,0.000000,0.000000
12618184.000000,-2.415572,-1.662613,1.042911,-1.356079,1.795428,1.081434,-0.548685,0.030785,0.001141,0.010001,0.000951,-0.013819,0.009658,-0.025059,4.858747,40.356487,-20.905655,-4.907960,0.620206,1.877853,-0.064225,0.000000,0.000000,0.000000,0.000000,0.000000,0.000000
12618185.000000,-2.415508,-1.662609,1.042933,-1.356095,1.795402,1.081485,-0.548745,0.039597,0.002820,0.010903,-0.007889,-0.020130,0.020744,-0.037774,6.739240,39.793133,-20.806473,-4.487428,0.620206,1.800033,-0.064225,0.000000,0.000000,0.000000,0.000000,0.000000,0.000000
12618186.000000,-2.415414,-1.662607,1.042962,-1.356122,1.795356,1.081563,-0.548826,0.051949,0.003104,0.015153,-0.014112,-0.027637,0.043557,-0.051070,8.274579,39.253582,-20.731094,-4.066896,0.698026,1.565658,-0.083451,0.000000,0.000000,0.000000,0.000000,0.000000,0.000000
12618187.000000,-2.415316,-1.662607,1.042999,-1.356164,1.795305,1.081655,-0.548928,0.062442,0.004394,0.021251,-0.020971,-0.036035,0.062718,-0.068064,9.782147,38.789410,-20.659683,-3.670168,0.727323,1.383468,-0.050492,0.000000,0.000000,0.000000,0.000000,0.000000,0.000000
12618188.000000,-2.415202,-1.662604,1.043042,-1.356217,1.795236,1.081764,-0.549048,0.076119,0.004230,0.027589,-0.034277,-0.047532,0.077097,-0.083228,11.047711,38.372845,-20.536697,-3.325014,0.769437,1.312057,-0.070634,0.000000,0.000000,0.000000,0.000000,0.000000,0.000000
12618189.000000,-2.415057,-1.662596,1.043104,-1.356280,1.795157,1.081892,-0.549191,0.098539,0.004627,0.038730,-0.044424,-0.061377,0.094346,-0.099744,11.912580,37.932476,-20.560501,-2.979860,0.715421,1.324874,-0.077042,0.000000,0.000000,0.000000,0.000000,0.000000,0.000000
12618190.000000,-2.414925,-1.662589,1.043160,-1.356348,1.795070,1.082035,-0.549356,0.109879,0.006287,0.046353,-0.051147,-0.074343,0.112750,-0.122044,12.975812,37.567486,-20.338333,-2.805300,0.584501,1.454879,-0.077042,0.000000,0.000000,0.000000,0.000000,0.000000,0.000000
12618191.000000,-2.414770,-1.662581,1.043246,-1.356430,1.794954,1.082210,-0.549561,0.125529,0.006636,0.062139,-0.063363,-0.086703,0.131964,-0.144816,13.820844,37.246136,-20.413712,-2.606935,0.518583,1.565658,-0.031266,0.000000,0.000000,0.000000,0.000000,0.000000,0.000000
12618192.000000,-2.414606,-1.662560,1.043346,-1.356530,1.794825,1.082412,-0.549776,0.140917,0.013598,0.074633,-0.075572,-0.103050,0.159330,-0.168026,14.562726,36.781963,-20.512894,-2.412538,0.386747,1.605026,-0.097184,0.000000,0.000000,0.000000,0.000000,0.000000,0.000000
12618193.000000,-2.414416,-1.662543,1.043464,-1.356640,1.794670,1.082644,-0.550024,0.157560,0.016341,0.088318,-0.088258,-0.118946,0.186126,-0.191438,15.130048,36.416973,-20.683487,-2.313356,0.344633,1.605026,-0.116410,0.000000,0.000000,0.000000,0.000000,0.000000,0.000000
12618194.000000,-2.414208,-1.662524,1.043589,-1.356772,1.794485,1.082912,-0.550305,0.173581,0.018577,0.102081,-0.100032,-0.138256,0.214734,-0.216890,15.526776,36.048016,-20.806473,-2.162599,0.381254,1.494247,-0.037675,0.000000,0.000000,0.000000,0.000000,0.000000,0.000000
12618195.000000,-2.413987,-1.662503,1.043739,-1.356922,1.794267,1.083202,-0.550580,0.185391,0.017755,0.114599,-0.113938,-0.163604,0.238734,-0.230718,15.848126,35.655254,-21.024673,-2.063417,0.470060,1.435653,-0.103593,0.000000,0.000000,0.000000,0.000000,0.000000,0.000000
12618196.000000,-2.413744,-1.662481,1.043892,-1.357093,1.794023,1.083519,-0.550876,0.203040,0.019583,0.125076,-0.132017,-0.184625,0.259011,-0.243965,16.046492,35.290264,-21.147659,-1.916628,0.608304,1.416427,-0.097184,0.000000,0.000000,0.000000,0.000000,0.000000,0.000000
12618197.000000,-2.413494,-1.662462,1.044054,-1.357269,1.793775,1.083850,-0.551180,0.223679,0.018772,0.134498,-0.143857,-0.204390,0.279016,-0.259929,16.268660,35.020489,-21.223038,-1.964235,0.632108,1.422836,-0.056901,0.000000,0.000000,0.000000,0.000000,0.000000,0.000000
12618198.000000,-2.413226,-1.662447,1.044228,-1.357459,1.793511,1.084206,-0.551478,0.238190,0.016060,0.145703,-0.161558,-0.223993,0.303382,-0.264962,16.443220,34.849895,-21.246841,-2.015810,0.632108,1.435653,-0.064225,0.000000,0.000000,0.000000,0.000000,0.000000,0.000000
12618199.000000,-2.412932,-1.662434,1.044407,-1.357662,1.793231,1.084585,-0.551774,0.252811,0.013250,0.158302,-0.177383,-0.241386,0.327565,-0.269604,16.490828,34.726910,-21.223038,-2.015810,0.578092,1.539108,-0.044083,0.000000,0.000000,0.000000,0.000000,0.000000,0.000000
12618200.000000,-2.412635,-1.662426,1.044602,-1.357895,1.792935,1.084972,-0.552066,0.266918,0.009139,0.168321,-0.196834,-0.255862,0.348783,-0.276161,16.617781,34.703106,-21.199234,-1.940431,0.422452,1.695663,-0.083451,0.000000,0.000000,0.000000,0.000000,0.000000,0.000000
12618201.000000,-2.412308,-1.662423,1.044806,-1.358142,1.792627,1.085392,-0.552363,0.287431,0.004791,0.176582,-0.212421,-0.270826,0.368065,-0.281348,16.542402,34.750713,-21.175430,-1.841249,0.362943,1.754256,-0.116410,0.000000,0.000000,0.000000,0.000000,0.000000,0.000000
12618202.000000,-2.411969,-1.662419,1.045013,-1.358409,1.792303,1.085837,-0.552670,0.301375,0.003053,0.183445,-0.225714,-0.280635,0.401479,-0.288679,16.542402,34.750713,-21.052444,-1.670656,0.291532,1.760665,-0.064225,0.000000,0.000000,0.000000,0.000000,0.000000,0.000000
12618203.000000,-2.411618,-1.662415,1.045238,-1.358698,1.791953,1.086318,-0.552950,0.313334,0.001930,0.197621,-0.247744,-0.309854,0.428887,-0.284307,16.467024,34.750713,-20.977066,-1.519899,0.344633,1.643478,-0.142960,0.000000,0.000000,0.000000,0.000000,0.000000,0.000000
12618204.000000,-2.411248,-1.662416,1.045474,-1.358994,1.791582,1.086825,-0.553237,0.329709,0.000651,0.212062,-0.260286,-0.324102,0.452671,-0.284292,16.443220,34.774517,-20.953262,-1.396913,0.381254,1.532699,-0.122819,0.000000,0.000000,0.000000,0.000000,0.000000,0.000000
12618205.000000,-2.410880,-1.662412,1.045721,-1.359295,1.791194,1.087346,-0.553523,0.341613,0.000931,0.219544,-0.272958,-0.339706,0.474188,-0.286200,16.590010,34.750713,-20.877884,-1.373109,0.434354,1.461288,-0.070634,0.000000,0.000000,0.000000,0.000000,0.000000,0.000000
12618206.000000,-2.410492,-1.662411,1.045975,-1.359607,1.790796,1.087890,-0.553795,0.357502,0.000576,0.228592,-0.287482,-0.361713,0.498387,-0.282794,16.716963,34.750713,-20.806473,-1.448488,0.518583,1.416427,-0.136552,0.000000,0.000000,0.000000,0.000000,0.000000,0.000000
12618207.000000,-2.410096,-1.662412,1.046232,-1.359947,1.790374,1.088453,-0.554072,0.368008,-0.000206,0.237057,-0.301642,-0.375762,0.514220,-0.279866,16.911360,34.774517,-20.683487,-1.396913,0.559781,1.442062,-0.083451,0.000000,0.000000,0.000000,0.000000,0.000000,0.000000
12618208.000000,-2.409689,-1.662409,1.046503,-1.360298,1.789952,1.089016,-0.554330,0.380058,0.000951,0.242583,-0.316221,-0.389858,0.530042,-0.273085,17.062117,34.726910,-20.584305,-1.420717,0.542386,1.500655,-0.163102,0.000000,0.000000,0.000000,0.000000,0.000000,0.000000
12618209.000000,-2.409266,-1.662407,1.046784,-1.360661,1.789514,1.089605,-0.554608,0.387919,0.001172,0.258648,-0.330701,-0.403713,0.540789,-0.277823,17.236677,34.703106,-20.512894,-1.321535,0.488370,1.559249,-0.103593,0.000000,0.000000,0.000000,0.000000,0.000000,0.000000
12618210.000000,-2.408831,-1.662408,1.047074,-1.361040,1.789054,1.090215,-0.554882,0.405710,-0.000346,0.263938,-0.347345,-0.417169,0.559149,-0.276559,17.506453,34.750713,-20.461319,-1.198549,0.410551,1.507064,-0.089860,0.000000,0.000000,0.000000,0.000000,0.000000,0.000000
12618212.000000,-2.407930,-1.662400,1.047680,-1.361847,1.788100,1.091507,-0.555410,0.429354,0.001130,0.283353,-0.384387,-0.445605,0.604964,-0.271208,18.002363,34.679302,-20.338333,-0.829591,0.356534,1.344100,-0.083451,0.000000,0.000000,0.000000,0.000000,0.000000,0.000000
12618213.000000,-2.407457,-1.662396,1.048001,-1.362278,1.787589,1.092166,-0.555665,0.441498,0.001954,0.294484,-0.395527,-0.463681,0.623018,-0.262976,18.224531,34.627728,-20.362137,-0.655031,0.398649,1.344100,-0.130143,0.000000,0.000000,0.000000,0.000000,0.000000,0.000000
12618214.000000,-2.406972,-1.662385,1.048329,-1.362716,1.787072,1.092861,-0.555924,0.450555,0.007347,0.305605,-0.412012,-0.482607,0.646332,-0.253975,18.522078,34.504742,-20.338333,-0.409059,0.458158,1.299239,-0.130143,0.000000,0.000000,0.000000,0.000000,0.000000,0.000000
12618215.000000,-2.406482,-1.662382,1.048666,-1.363173,1.786531,1.093562,-0.556184,0.465207,0.005159,0.312994,-0.427646,-0.498883,0.660320,-0.252211,18.819624,34.504742,-20.290726,-0.234499,0.488370,1.279098,-0.122819,0.000000,0.000000,0.000000,0.000000,0.000000,0.000000
12618216.000000,-2.405968,-1.662371,1.049025,-1.363640,1.785987,1.094291,-0.556437,0.480103,0.006419,0.323371,-0.440902,-0.513055,0.683175,-0.250838,19.065596,34.385723,-20.362137,-0.186891,0.542386,1.305648,-0.089860,0.000000,0.000000,0.000000,0.000000,0.000000,0.000000
12618217.000000,-2.405447,-1.662364,1.049384,-1.364108,1.785418,1.095037,-0.556682,0.491047,0.005633,0.342109,-0.449233,-0.530517,0.698706,-0.247360,19.438520,34.334148,-20.338333,-0.186891,0.542386,1.364242,-0.122819,0.000000,0.000000,0.000000,0.000000,0.000000,0.000000
12618218.000000,-2.404922,-1.662353,1.049765,-1.364600,1.784842,1.095795,-0.556931,0.498936,0.008592,0.351388,-0.458866,-0.539247,0.716295,-0.246605,19.811445,34.262737,-20.437515,-0.163088,0.542386,1.422836,-0.130143,0.000000,0.000000,0.000000,0.000000,0.000000,0.000000
12618219.000000,-2.404366,-1.662346,1.050157,-1.365105,1.784256,1.096583,-0.557178,0.514594,0.007272,0.363623,-0.474933,-0.554023,0.733706,-0.245477,20.033613,34.211163,-20.485123,-0.063905,0.494779,1.435653,-0.149369,0.000000,0.000000,0.000000,0.000000,0.000000,0.000000
12618220.000000,-2.403795,-1.662337,1.050563,-1.365635,1.783652,1.097395,-0.557432,0.526706,0.009353,0.377788,-0.491292,-0.564959,0.754458,-0.250371,20.255781,34.163555,-20.631912,0.086851,0.476469,1.409103,-0.136552,0.000000,0.000000,0.000000,0.000000,0.000000,0.000000
12618221.000000,-2.403227,-1.662322,1.050986,-1.366171,1.783034,1.098233,-0.557678,0.544101,0.012181,0.390303,-0.501565,-0.592897,0.778058,-0.249780,20.577131,34.064373,-20.806473,0.158263,0.416959,1.299239,-0.116410,0.000000,0.000000,0.000000,0.000000,0.000000,0.000000
12618222.000000,-2.402638,-1.662304,1.051423,-1.366710,1.782408,1.099096,-0.557921,0.555140,0.015329,0.407650,-0.515456,-0.598929,0.803560,-0.243991,20.898481,33.917583,-21.000870,0.209837,0.356534,1.188461,-0.103593,0.000000,0.000000,0.000000,0.000000,0.000000,0.000000
12618223.000000,-2.402042,-1.662292,1.051867,-1.367275,1.781749,1.099954,-0.558162,0.569025,0.015232,0.416517,-0.525265,-0.614388,0.819243,-0.248470,21.172224,33.869976,-21.199234,0.285216,0.356534,1.194869,-0.122819,0.000000,0.000000,0.000000,0.000000,0.000000,0.000000
12618224.000000,-2.401421,-1.662278,1.052322,-1.367829,1.781093,1.100847,-0.558398,0.580294,0.013278,0.427320,-0.535561,-0.635314,0.834540,-0.246154,21.441999,33.770794,-21.322220,0.186034,0.351041,1.227828,-0.163102,0.000000,0.000000,0.000000,0.000000,0.000000,0.000000
12618225.000000,-2.400783,-1.662263,1.052787,-1.368408,1.780395,1.101766,-0.558644,0.592348,0.014721,0.437625,-0.549894,-0.653310,0.857653,-0.247196,21.668135,33.675579,-21.516617,0.086851,0.434354,1.227828,-0.116410,0.000000,0.000000,0.000000,0.000000,0.000000,0.000000
12618226.000000,-2.400136,-1.662249,1.053257,-1.368998,1.779707,1.102685,-0.558879,0.612568,0.017253,0.440408,-0.557977,-0.670344,0.878221,-0.241602,21.814924,33.647808,-21.615799,0.011473,0.446256,1.266280,-0.130143,0.000000,0.000000,0.000000,0.000000,0.000000,0.000000
12618227.000000,-2.399465,-1.662234,1.053752,-1.369599,1.778996,1.103625,-0.559109,0.628254,0.020439,0.452345,-0.571186,-0.681170,0.886076,-0.236996,21.989485,33.576397,-21.786392,0.059080,0.554288,1.324874,-0.149369,0.000000,0.000000,0.000000,0.000000,0.000000,0.000000
12618228.000000,-2.398772,-1.662228,1.054246,-1.370221,1.778273,1.104587,-0.559342,0.661021,0.014365,0.462361,-0.587485,-0.689650,0.906330,-0.239090,22.160078,33.600201,-22.008560,0.209837,0.709928,1.318465,-0.188737,0.000000,0.000000,0.000000,0.000000,0.000000,0.000000
12618229.000000,-2.398069,-1.662214,1.054743,-1.370842,1.777569,1.105583,-0.559581,0.676868,0.012219,0.467880,-0.610911,-0.687354,0.936102,-0.238446,22.287031,33.528790,-22.056168,0.408202,0.847257,1.305648,-0.122819,0.000000,0.000000,0.000000,0.000000,0.000000,0.000000
12618230.000000,-2.397342,-1.662208,1.055251,-1.371479,1.776860,1.106607,-0.559815,0.683290,0.010350,0.482762,-0.614453,-0.687516,0.957746,-0.233668,22.358442,33.600201,-22.155350,0.554991,0.930570,1.259872,-0.155778,0.000000,0.000000,0.000000,0.000000,0.000000,0.000000
12618231.000000,-2.396623,-1.662206,1.055776,-1.372133,1.776157,1.107633,-0.560052,0.683719,0.007457,0.495286,-0.626193,-0.687707,0.986434,-0.233441,22.211653,33.746990,-22.155350,0.554991,1.013883,1.292831,-0.116410,0.000000,0.000000,0.000000,0.000000,0.000000,0.000000
12618232.000000,-2.395885,-1.662199,1.056316,-1.372789,1.775473,1.108679,-0.560276,0.685806,0.008753,0.505910,-0.643099,-0.686721,1.002893,-0.230377,21.096846,33.893780,-21.984756,0.186034,0.925077,1.409103,-0.149369,0.000000,0.000000,0.000000,0.000000,0.000000,0.000000
12618233.000000,-2.395164,-1.662193,1.056873,-1.373476,1.774768,1.109734,-0.560506,0.704043,0.003584,0.523362,-0.653780,-0.691796,1.039322,-0.229560,19.117170,34.040569,-21.615799,-0.532045,0.894864,1.532699,-0.142960,0.000000,0.000000,0.000000,0.000000,0.000000,0.000000
12618234.000000,-2.394441,-1.662191,1.057459,-1.374171,1.774084,1.110821,-0.560726,0.707769,0.002719,0.537759,-0.661382,-0.684164,1.045739,-0.228891,16.590010,34.064373,-21.000870,-1.496095,0.763029,1.630660,-0.142960,0.000000,0.000000,0.000000,0.000000,0.000000,0.000000
12618235.000000,-2.393699,-1.662190,1.058065,-1.374883,1.773393,1.111934,-0.560946,0.720564,-0.000871,0.566502,-0.676384,-0.686930,1.059958,-0.226658,13.622479,33.941387,-20.191544,-2.237978,0.596403,1.695663,-0.175919,0.000000,0.000000,0.000000,0.000000,0.000000,0.000000
12618236.000000,-2.392982,-1.662189,1.058688,-1.375614,1.772716,1.113042,-0.561171,0.730210,-0.000072,0.576474,-0.685864,-0.673183,1.075976,-0.231568,10.948529,33.647808,-19.358414,-2.733888,0.386747,1.786300,-0.142960,0.000000,0.000000,0.000000,0.000000,0.000000,0.000000
12618237.000000,-2.392252,-1.662192,1.059341,-1.376329,1.772055,1.114198,-0.561390,0.732997,-0.001399,0.593357,-0.697391,-0.669002,1.098149,-0.230664,8.373761,33.405804,-18.596695,-3.225832,0.183500,1.670028,-0.130143,0.000000,0.000000,0.000000,0.000000,0.000000,0.000000
12618238.000000,-2.391514,-1.662207,1.059993,-1.377056,1.771394,1.115384,-0.561602,0.735975,-0.006969,0.607532,-0.702083,-0.662204,1.122065,-0.228047,6.044965,33.354229,-17.787369,-3.499574,0.052579,1.500655,-0.169511,0.000000,0.000000,0.000000,0.000000,0.000000,0.000000
12618239.000000,-2.390802,-1.662221,1.060662,-1.377777,1.770738,1.116558,-0.561824,0.729503,-0.007388,0.613405,-0.699340,-0.668850,1.142019,-0.229584,4.188276,33.282818,-17.101028,-3.745546,0.046171,1.422836,-0.122819,0.000000,0.000000,0.000000,0.000000,0.000000,0.000000
12618240.000000,-2.390078,-1.662246,1.061333,-1.378484,1.770089,1.117772,-0.562043,0.729064,-0.010396,0.638388,-0.699558,-0.661499,1.157683,-0.223652,2.529951,33.330425,-16.386917,-3.868532,0.123990,1.383468,-0.122819,0.000000,0.000000,0.000000,0.000000,0.000000,0.000000
12618241.000000,-2.389367,-1.662275,1.061997,-1.379193,1.769436,1.118979,-0.562256,0.721682,-0.013578,0.646216,-0.697366,-0.656460,1.179575,-0.218882,1.145368,33.429607,-15.748184,-3.892336,0.255826,1.402694,-0.149369,0.000000,0.000000,0.000000,0.000000,0.000000,0.000000
12618242.000000,-2.388638,-1.662308,1.062688,-1.379890,1.768792,1.120223,-0.562477,0.720817,-0.022455,0.656764,-0.695149,-0.656488,1.195327,-0.220003,-0.116229,33.552593,-15.331619,-3.844728,0.476469,1.396285,-0.169511,0.000000,0.000000,0.000000,0.000000,0.000000,0.000000
12618243.000000,-2.387909,-1.662342,1.063362,-1.380595,1.768155,1.121477,-0.562695,0.715684,-0.026076,0.672096,-0.699586,-0.648986,1.210318,-0.216568,-1.131854,33.552593,-14.815872,-3.646364,0.535978,1.292831,-0.169511,0.000000,0.000000,0.000000,0.000000,0.000000,0.000000
12618244.000000,-2.387188,-1.662384,1.064053,-1.381308,1.767520,1.122726,-0.562914,0.721729,-0.032799,0.670637,-0.705522,-0.639072,1.217749,-0.221110,-2.099871,33.600201,-14.446915,-3.301210,0.584501,1.077682,-0.116410,0.000000,0.000000,0.000000,0.000000,0.000000,0.000000
12618245.000000,-2.386464,-1.662422,1.064748,-1.381997,1.766905,1.123965,-0.563121,0.717285,-0.035172,0.673724,-0.701919,-0.629451,1.217609,-0.215187,-2.841753,33.528790,-14.006546,-3.027467,0.584501,1.052047,-0.182328,0.000000,0.000000,0.000000,0.000000,0.000000,0.000000
12618246.000000,-2.385743,-1.662453,1.065434,-1.382695,1.766296,1.125173,-0.563340,0.715714,-0.032316,0.674064,-0.695661,-0.622098,1.210754,-0.215456,-3.583636,33.382000,-13.613785,-2.682314,0.476469,1.169235,-0.155778,0.000000,0.000000,0.000000,0.000000,0.000000,0.000000
12618247.000000,-2.385023,-1.662485,1.066134,-1.383376,1.765696,1.126386,-0.563554,0.713004,-0.029417,0.675824,-0.700431,-0.614850,1.210448,-0.213947,-4.103350,33.183636,-13.221024,-2.483949,0.386747,1.305648,-0.142960,0.000000,0.000000,0.000000,0.000000,0.000000,0.000000
12618248.000000,-2.384319,-1.662504,1.066825,-1.384046,1.765105,1.127618,-0.563763,0.705150,-0.024118,0.687967,-0.687308,-0.608085,1.215023,-0.211268,-4.277911,32.842449,-12.804459,-2.483949,0.255826,1.324874,-0.163102,0.000000,0.000000,0.000000,0.000000,0.000000,0.000000
12618249.000000,-2.383623,-1.662514,1.067528,-1.384697,1.764511,1.128830,-0.563969,0.700876,-0.017714,0.687603,-0.674482,-0.598968,1.219214,-0.210955,-4.500079,32.378277,-12.387894,-2.733888,0.159696,1.305648,-0.149369,0.000000,0.000000,0.000000,0.000000,0.000000,0.000000
12618250.000000,-2.382921,-1.662505,1.068245,-1.385342,1.763927,1.130038,-0.564175,0.697954,-0.008905,0.691243,-0.665994,-0.595866,1.205721,-0.204419,-4.646868,31.715740,-12.066544,-2.880678,0.154203,1.396285,-0.175919,0.000000,0.000000,0.000000,0.000000,0.000000,0.000000
12618251.000000,-2.382238,-1.662496,1.068951,-1.385983,1.763332,1.131230,-0.564388,0.707676,-0.000484,0.694319,-0.654725,-0.589988,1.200832,-0.206184,-4.722247,31.080975,-11.772964,-3.079042,0.213712,1.402694,-0.149369,0.000000,0.000000,0.000000,0.000000,0.000000,0.000000
12618252.000000,-2.381533,-1.662480,1.069670,-1.386642,1.762755,1.132465,-0.564598,0.701406,0.002354,0.693516,-0.649489,-0.583076,1.206387,-0.207522,-4.995989,30.442242,-11.431778,-3.055238,0.308927,1.169235,-0.130143,0.000000,0.000000,0.000000,0.000000,0.000000,0.000000
12618253.000000,-2.380837,-1.662457,1.070399,-1.387283,1.762170,1.133700,-0.564804,0.696584,0.010882,0.707918,-0.645674,-0.579664,1.218687,-0.205771,-5.095171,29.783672,-11.185806,-3.003664,0.332731,0.960494,-0.163102,0.000000,0.000000,0.000000,0.000000,0.000000,0.000000
12618254.000000,-2.380155,-1.662428,1.071130,-1.387919,1.761599,1.134907,-0.565015,0.695315,0.017239,0.710759,-0.642044,-0.568858,1.214508,-0.211136,-5.142779,29.121136,-10.987442,-3.055238,0.273221,0.863448,-0.130143,0.000000,0.000000,0.000000,0.000000,0.000000,0.000000
12618255.000000,-2.379468,-1.662401,1.071877,-1.388535,1.761034,1.136117,-0.565211,0.689232,0.018958,0.718527,-0.635815,-0.565113,1.211131,-0.204268,-5.118975,28.581585,-10.864456,-3.178224,0.178007,0.843307,-0.163102,0.000000,0.000000,0.000000,0.000000,0.000000,0.000000
12618256.000000,-2.378794,-1.662379,1.072601,-1.389154,1.760469,1.137316,-0.565414,0.681810,0.020555,0.715236,-0.627098,-0.557443,1.206255,-0.200984,-4.920611,28.165020,-10.372513,-3.348818,0.105680,0.830489,-0.142960,0.000000,0.000000,0.000000,0.000000,0.000000,0.000000
12618257.000000,-2.378122,-1.662358,1.073350,-1.389770,1.759911,1.138519,-0.565614,0.683230,0.020313,0.716990,-0.622791,-0.564009,1.203160,-0.202136,-4.845232,27.823833,-10.055130,-3.570986,0.046171,0.934859,-0.155778,0.000000,0.000000,0.000000,0.000000,0.000000,0.000000
12618258.000000,-2.377440,-1.662335,1.074108,-1.390384,1.759355,1.139734,-0.565809,0.675809,0.020495,0.739686,-0.620818,-0.559938,1.198762,-0.197624,-4.896807,27.482647,-9.737747,-3.622560,0.027860,1.031905,-0.182328,0.000000,0.000000,0.000000,0.000000,0.000000,0.000000
12618259.000000,-2.376756,-1.662314,1.074864,-1.391009,1.758792,1.140949,-0.566012,0.677957,0.019203,0.743258,-0.617056,-0.565855,1.206274,-0.197273,-5.067400,27.212872,-9.515579,-3.570986,0.015958,0.915633,-0.136552,0.000000,0.000000,0.000000,0.000000,0.000000,0.000000
12618260.000000,-2.376051,-1.662295,1.075634,-1.391619,1.758245,1.142192,-0.566200,0.685976,0.020033,0.745751,-0.615737,-0.562336,1.215950,-0.193350,-5.392718,27.014507,-9.198196,-3.499574,0.034269,0.694076,-0.182328,0.000000,0.000000,0.000000,0.000000,0.000000,0.000000
12618261.000000,-2.375344,-1.662286,1.076411,-1.392231,1.757683,1.143441,-0.566391,0.689564,0.017334,0.763956,-0.611739,-0.566974,1.226528,-0.197168,-5.761675,26.966900,-9.099014,-3.523378,0.141385,0.473434,-0.163102,0.000000,0.000000,0.000000,0.000000,0.000000,0.000000
12618262.000000,-2.374663,-1.662279,1.077212,-1.392837,1.757129,1.144657,-0.566583,0.688872,0.012795,0.767609,-0.607733,-0.561646,1.227221,-0.195205,-5.860857,26.919292,-9.047440,-3.598757,0.141385,0.446883,-0.155778,0.000000,0.000000,0.000000,0.000000,0.000000,0.000000
12618263.000000,-2.373975,-1.662274,1.078022,-1.393411,1.756584,1.145873,-0.566774,0.684518,0.007511,0.773046,-0.597748,-0.559498,1.218901,-0.193642,-5.983843,26.966900,-8.999832,-3.844728,0.171598,0.589706,-0.155778,0.000000,0.000000,0.000000,0.000000,0.000000,0.000000
12618264.000000,-2.373295,-1.662278,1.078829,-1.393981,1.756041,1.147079,-0.566967,0.696499,0.002201,0.779004,-0.585322,-0.547662,1.210714,-0.187903,-6.106829,27.089886,-8.924454,-4.265260,0.093778,0.739852,-0.149369,0.000000,0.000000,0.000000,0.000000,0.000000,0.000000
12618265.000000,-2.372605,-1.662276,1.079656,-1.394563,1.755506,1.148296,-0.567151,0.688594,0.000964,0.783448,-0.593448,-0.543973,1.210293,-0.186740,-6.257586,27.113689,-8.924454,-4.535036,0.112089,0.876266,-0.188737,0.000000,0.000000,0.000000,0.000000,0.000000,0.000000
12618266.000000,-2.371906,-1.662276,1.080502,-1.395129,1.754964,1.149512,-0.567348,0.690804,0.003160,0.810298,-0.588078,-0.544743,1.203528,-0.187687,-6.555132,27.137493,-8.976028,-4.784975,0.088285,1.052047,-0.163102,0.000000,0.000000,0.000000,0.000000,0.000000,0.000000
12618267.000000,-2.371211,-1.662271,1.081337,-1.395706,1.754438,1.150718,-0.567534,0.692184,0.004060,0.811250,-0.578135,-0.537551,1.205881,-0.183463,-6.924090,27.066082,-8.952225,-4.856386,-0.001437,1.058456,-0.163102,0.000000,0.000000,0.000000,0.000000,0.000000,0.000000
12618268.000000,-2.370504,-1.662267,1.082206,-1.396269,1.753916,1.151957,-0.567716,0.696116,0.003476,0.826001,-0.574961,-0.539467,1.209325,-0.179539,-7.344622,27.042278,-9.075211,-4.907960,-0.025240,0.922042,-0.175919,0.000000,0.000000,0.000000,0.000000,0.000000,0.000000
12618269.000000,-2.369789,-1.662259,1.083058,-1.396848,1.753382,1.153174,-0.567908,0.698688,0.004796,0.832561,-0.573465,-0.531894,1.242106,-0.183003,-7.816729,26.943096,-9.023636,-4.757204,-0.013339,0.771896,-0.142960,0.000000,0.000000,0.000000,0.000000,0.000000,0.000000
12618270.000000,-2.369079,-1.662254,1.083930,-1.397412,1.752869,1.154392,-0.568090,0.697173,0.005080,0.837475,-0.566015,-0.527957,1.233628,-0.178614,-8.388019,26.867718,-8.853043,-4.733400,0.015958,0.778304,-0.169511,0.000000,0.000000,0.000000,0.000000,0.000000,0.000000
12618271.000000,-2.368362,-1.662241,1.084808,-1.397971,1.752345,1.155592,-0.568273,0.699613,0.006910,0.856444,-0.564751,-0.524945,1.219031,-0.182092,-8.955340,26.720928,-8.654678,-4.661989,0.046171,0.941268,-0.163102,0.000000,0.000000,0.000000,0.000000,0.000000,0.000000
12618272.000000,-2.367665,-1.662228,1.085691,-1.398527,1.751827,1.156789,-0.568455,0.703413,0.008107,0.859355,-0.559428,-0.516744,1.217322,-0.187152,-9.300494,26.574139,-8.507889,-4.709596,0.064481,0.947677,-0.169511,0.000000,0.000000,0.000000,0.000000,0.000000,0.000000
12618273.000000,-2.366944,-1.662219,1.086600,-1.399070,1.751319,1.158005,-0.568637,0.704775,0.009746,0.869749,-0.554855,-0.519308,1.216460,-0.187295,-9.871783,26.526531,-8.436478,-4.832582,0.040677,0.882674,-0.175919,0.000000,0.000000,0.000000,0.000000,0.000000,0.000000
12618274.000000,-2.366225,-1.662215,1.087504,-1.399619,1.750815,1.159221,-0.568816,0.708512,0.009271,0.878817,-0.549433,-0.514823,1.215739,-0.183000,-10.268512,26.550335,-8.337296,-4.931764,-0.007845,0.863448,-0.169511,0.000000,0.000000,0.000000,0.000000,0.000000,0.000000
12618275.000000,-2.365515,-1.662212,1.088438,-1.400176,1.750320,1.160409,-0.568988,0.710674,0.005546,0.891070,-0.549019,-0.513890,1.212898,-0.178726,-10.764422,26.597942,-8.361099,-4.884157,-0.007845,0.895492,-0.196061,0.000000,0.000000,0.000000,0.000000,0.000000,0.000000
12618276.000000,-2.364786,-1.662214,1.089391,-1.400720,1.749820,1.161611,-0.569172,0.712805,0.003704,0.916411,-0.545632,-0.506934,1.206564,-0.177623,-11.355548,26.748699,-8.460281,-4.808778,-0.049044,0.980636,-0.163102,0.000000,0.000000,0.000000,0.000000,0.000000,0.000000
12618277.000000,-2.364075,-1.662215,1.090347,-1.401273,1.749324,1.162796,-0.569353,0.711668,0.002740,0.924908,-0.542382,-0.502411,1.206990,-0.180488,-11.776080,26.895489,-8.630875,-4.709596,-0.055453,0.999862,-0.163102,0.000000,0.000000,0.000000,0.000000,0.000000,0.000000
12618278.000000,-2.363360,-1.662218,1.091312,-1.401812,1.748826,1.164003,-0.569530,0.713334,-0.000942,0.925886,-0.551434,-0.502990,1.210155,-0.178209,-12.149005,27.042278,-8.730057,-4.685792,-0.091158,0.947677,-0.149369,0.000000,0.000000,0.000000,0.000000,0.000000,0.000000
12618279.000000,-2.362644,-1.662231,1.092280,-1.402344,1.748337,1.165206,-0.569705,0.705816,-0.002632,0.952879,-0.542181,-0.495157,1.210739,-0.174212,-12.422748,27.284283,-8.805435,-4.832582,-0.097567,0.908309,-0.188737,0.000000,0.000000,0.000000,0.000000,0.000000,0.000000
12618280.000000,-2.361942,-1.662236,1.093259,-1.402878,1.747843,1.166385,-0.569882,0.707050,-0.003995,0.958815,-0.538284,-0.496130,1.205493,-0.173588,-12.716327,27.407269,-8.777664,-4.983339,-0.049044,1.031905,-0.175919,0.000000,0.000000,0.000000,0.000000,0.000000,0.000000
12618281.000000,-2.361230,-1.662240,1.094231,-1.403398,1.747351,1.167564,-0.570058,0.706148,-0.003299,0.951021,-0.536229,-0.496004,1.197211,-0.174152,-13.041644,27.454876,-8.460281,-5.130128,-0.025240,1.214095,-0.149369,0.000000,0.000000,0.000000,0.000000,0.000000,0.000000
12618282.000000,-2.360533,-1.662248,1.095210,-1.403932,1.746864,1.168732,-0.570221,0.714888,-0.009928,0.954589,-0.529234,-0.486727,1.192593,-0.170515,-13.287616,27.530254,-8.313492,-5.177736,0.040677,1.324874,-0.215287,0.000000,0.000000,0.000000,0.000000,0.000000,0.000000
12618283.000000,-2.359831,-1.662256,1.096193,-1.404462,1.746376,1.169921,-0.570394,0.709232,-0.008547,0.952087,-0.523197,-0.488315,1.190321,-0.171752,-13.509784,27.601665,-7.968338,-5.304689,0.064481,1.266280,-0.196061,0.000000,0.000000,0.000000,0.000000,0.000000,0.000000
12618284.000000,-2.359123,-1.662261,1.097214,-1.404984,1.745890,1.171132,-0.570570,0.704264,-0.005892,0.979267,-0.523812,-0.484596,1.192279,-0.173122,-13.783526,27.601665,-7.821548,-5.352296,0.076383,1.077682,-0.136552,0.000000,0.000000,0.000000,0.000000,0.000000,0.000000
12618285.000000,-2.358431,-1.662267,1.098214,-1.405504,1.745418,1.172316,-0.570730,0.700897,-0.004723,0.980895,-0.517678,-0.479298,1.190281,-0.170533,-14.081073,27.629436,-7.527969,-5.376100,0.022367,0.889083,-0.182328,0.000000,0.000000,0.000000,0.000000,0.000000,0.000000
12618286.000000,-2.357751,-1.662268,1.099235,-1.406017,1.744952,1.173520,-0.570896,0.694760,-0.002608,0.982256,-0.514380,-0.474052,1.181950,-0.170092,-14.029498,27.601665,-7.305801,-5.499086,-0.067355,0.765487,-0.188737,0.000000,0.000000,0.000000,0.000000,0.000000,0.000000
12618287.000000,-2.357071,-1.662275,1.100257,-1.406519,1.744487,1.174693,-0.571061,0.686800,-0.003583,0.989634,-0.511832,-0.466897,1.203948,-0.170309,-14.029498,27.677044,-7.135208,-5.772829,-0.103060,0.713302,-0.182328,0.000000,0.000000,0.000000,0.000000,0.000000,0.000000
12618288.000000,-2.356412,-1.662278,1.101296,-1.407023,1.744035,1.175883,-0.571226,0.676511,-0.003564,0.999153,-0.504659,-0.476501,1.193703,-0.171624,-13.906512,27.724651,-6.913040,-6.042604,-0.199191,0.752670,-0.142960,0.000000,0.000000,0.000000,0.000000,0.000000,0.000000
12618289.000000,-2.355750,-1.662276,1.102356,-1.407508,1.743576,1.177074,-0.571385,0.665563,-0.000751,1.027411,-0.496106,-0.466807,1.181423,-0.169721,-13.731952,27.653240,-6.813858,-6.439332,-0.187289,0.771896,-0.169511,0.000000,0.000000,0.000000,0.000000,0.000000,0.000000
12618290.000000,-2.355091,-1.662273,1.103419,-1.407993,1.743129,1.178258,-0.571542,0.664035,0.000671,1.033821,-0.490881,-0.457798,1.178951,-0.169134,-13.759723,27.601665,-6.841629,-6.760683,-0.211093,0.771896,-0.188737,0.000000,0.000000,0.000000,0.000000,0.000000,0.000000
12618291.000000,-2.354434,-1.662259,1.104503,-1.408465,1.742685,1.179459,-0.571705,0.659498,0.004969,1.046557,-0.484155,-0.451044,1.178652,-0.164992,-13.660541,27.407269,-6.841629,-7.105836,-0.246798,0.706893,-0.175919,0.000000,0.000000,0.000000,0.000000,0.000000,0.000000
12618292.000000,-2.353769,-1.662253,1.105573,-1.408946,1.742225,1.180678,-0.571869,0.660838,0.006170,1.067886,-0.482406,-0.450234,1.186187,-0.161440,-13.759723,27.284283,-6.766251,-7.328004,-0.145175,0.570480,-0.169511,0.000000,0.000000,0.000000,0.000000,0.000000,0.000000
12618293.000000,-2.353119,-1.662240,1.106676,-1.409425,1.741788,1.181872,-0.572027,0.657492,0.008646,1.069734,-0.477759,-0.450712,1.185590,-0.159293,-13.783526,27.089886,-6.841629,-7.427186,-0.150668,0.473434,-0.155778,0.000000,0.000000,0.000000,0.000000,0.000000,0.000000
12618294.000000,-2.352453,-1.662226,1.107790,-1.409902,1.741344,1.183080,-0.572182,0.657720,0.009744,1.080617,-0.479380,-0.444792,1.183521,-0.155246,-13.882709,26.919292,-6.790054,-7.427186,-0.199191,0.466109,-0.202470,0.000000,0.000000,0.000000,0.000000,0.000000,0.000000
12618295.000000,-2.351808,-1.662211,1.108888,-1.410376,1.740899,1.184255,-0.572343,0.657663,0.016911,1.077138,-0.478331,-0.441659,1.176378,-0.156232,-13.906512,26.748699,-6.643265,-7.454957,-0.187289,0.557662,-0.155778,0.000000,0.000000,0.000000,0.000000,0.000000,0.000000
12618296.000000,-2.351162,-1.662197,1.110003,-1.410838,1.740470,1.185454,-0.572494,0.652331,0.016444,1.077830,-0.482653,-0.442292,1.182436,-0.150072,-13.858905,26.550335,-6.373489,-7.577943,-0.252291,0.622665,-0.155778,0.000000,0.000000,0.000000,0.000000,0.000000,0.000000
12618297.000000,-2.350520,-1.662186,1.111135,-1.411292,1.740034,1.186661,-0.572641,0.644468,0.014794,1.107246,-0.476770,-0.437785,1.188537,-0.148054,-13.759723,26.403545,-6.151321,-7.800111,-0.336520,0.654708,-0.208878,0.000000,0.000000,0.000000,0.000000,0.000000,0.000000
12618298.000000,-2.349888,-1.662167,1.112275,-1.411745,1.739595,1.187847,-0.572798,0.640587,0.015914,1.111777,-0.467888,-0.427651,1.186009,-0.151247,-13.731952,26.157574,-6.202896,-8.069887,-0.342013,0.752670,-0.142960,0.000000,0.000000,0.000000,0.000000,0.000000,0.000000
12618299.000000,-2.349246,-1.662157,1.113440,-1.412202,1.739176,1.189051,-0.572943,0.639428,0.013617,1.121479,-0.469332,-0.431083,1.186595,-0.149539,-13.708148,26.038555,-6.202896,-8.169069,-0.443636,0.720626,-0.182328,0.000000,0.000000,0.000000,0.000000,0.000000,0.000000
12618300.000000,-2.348615,-1.662146,1.114628,-1.412666,1.738740,1.190240,-0.573091,0.649435,0.012123,1.138575,-0.464169,-0.428205,1.211263,-0.149742,-13.731952,25.915569,-6.544083,-8.097658,-0.401522,0.668441,-0.188737,0.000000,0.000000,0.000000,0.000000,0.000000,0.000000
12618301.000000,-2.347976,-1.662137,1.115837,-1.413129,1.738318,1.191431,-0.573245,0.644710,0.010528,1.148991,-0.461365,-0.423953,1.201252,-0.151804,-13.759723,25.816387,-6.889236,-8.121462,-0.312716,0.687667,-0.142960,0.000000,0.000000,0.000000,0.000000,0.000000,0.000000
12618302.000000,-2.347340,-1.662133,1.117070,-1.413592,1.737895,1.192626,-0.573386,0.633507,0.007113,1.183126,-0.463788,-0.425651,1.196131,-0.149010,-13.831134,25.816387,-7.357376,-7.946901,-0.336520,0.739852,-0.208878,0.000000,0.000000,0.000000,0.000000,0.000000,0.000000
12618303.000000,-2.346714,-1.662132,1.118291,-1.414052,1.737467,1.193797,-0.573539,0.629631,0.004256,1.188347,-0.456258,-0.421288,1.183246,-0.152379,-13.858905,25.840191,-7.698563,-7.970705,-0.258700,0.817672,-0.116410,0.000000,0.000000,0.000000,0.000000,0.000000,0.000000
12618304.000000,-2.346081,-1.662134,1.119532,-1.414507,1.737062,1.194983,-0.573677,0.626152,0.001127,1.197559,-0.460148,-0.414899,1.178109,-0.145282,-13.906512,25.915569,-7.869156,-7.899293,-0.258700,0.836898,-0.163102,0.000000,0.000000,0.000000,0.000000,0.000000,0.000000
12618305.000000,-2.345452,-1.662140,1.120763,-1.414959,1.736647,1.196155,-0.573812,0.627770,-0.001436,1.201754,-0.455086,-0.417117,1.178147,-0.140062,-13.954120,26.010784,-7.968338,-8.022280,-0.294406,0.817672,-0.208878,0.000000,0.000000,0.000000,0.000000,0.000000,0.000000
12618306.000000,-2.344834,-1.662145,1.122017,-1.415425,1.736230,1.197322,-0.573963,0.627403,0.000485,1.199929,-0.459099,-0.425797,1.176017,-0.145848,-14.053302,26.086163,-7.968338,-7.970705,-0.246798,0.960494,-0.130143,0.000000,0.000000,0.000000,0.000000,0.000000,0.000000
12618307.000000,-2.344213,-1.662154,1.123277,-1.415889,1.735830,1.198496,-0.574098,0.621330,-0.000762,1.223891,-0.463633,-0.416870,1.173666,-0.139129,-13.981891,26.280560,-7.920731,-7.847719,-0.276095,1.077682,-0.208878,0.000000,0.000000,0.000000,0.000000,0.000000,0.000000
12618308.000000,-2.343581,-1.662174,1.124509,-1.416360,1.735418,1.199663,-0.574240,0.636570,-0.004332,1.213797,-0.465481,-0.421144,1.179114,-0.141891,-14.005694,26.867718,-7.968338,-7.724733,-0.276095,1.064864,-0.221696,0.000000,0.000000,0.000000,0.000000,0.000000,0.000000
12618309.000000,-2.342968,-1.662199,1.125751,-1.416827,1.735011,1.200863,-0.574392,0.632015,-0.010399,1.211267,-0.465189,-0.416524,1.191603,-0.146972,-13.759723,27.776226,-8.436478,-7.577943,-0.234896,0.922042,-0.149369,0.000000,0.000000,0.000000,0.000000,0.000000,0.000000
12618310.000000,-2.342367,-1.662220,1.126969,-1.417301,1.734621,1.202068,-0.574532,0.622963,-0.015565,1.223625,-0.467004,-0.404341,1.199912,-0.141712,-13.240008,28.898968,-9.245804,-7.478761,-0.287997,0.824081,-0.182328,0.000000,0.000000,0.000000,0.000000,0.000000,0.000000
12618311.000000,-2.341762,-1.662236,1.128196,-1.417768,1.734229,1.203247,-0.574679,0.616113,-0.014670,1.213448,-0.466093,-0.402152,1.202267,-0.140369,-12.815509,30.124859,-10.253494,-7.454957,-0.306307,0.836898,-0.155778,0.000000,0.000000,0.000000,0.000000,0.000000,0.000000
12618312.000000,-2.341159,-1.662252,1.129433,-1.418228,1.733828,1.204445,-0.574822,0.608054,-0.017918,1.217986,-0.464611,-0.402050,1.203612,-0.143274,-12.172809,31.445965,-11.431778,-7.502565,-0.150668,0.901900,-0.163102,0.000000,0.000000,0.000000,0.000000,0.000000,0.000000
12618313.000000,-2.340564,-1.662258,1.130634,-1.418680,1.733434,1.205619,-0.574961,0.600860,-0.015564,1.207988,-0.459159,-0.394630,1.197637,-0.139887,-11.653094,32.596478,-12.435501,-7.700929,-0.031649,1.117049,-0.175919,0.000000,0.000000,0.000000,0.000000,0.000000,0.000000
12618314.000000,-2.339957,-1.662260,1.131868,-1.419136,1.733049,1.206805,-0.575100,0.601435,-0.012654,1.203648,-0.464155,-0.395169,1.197083,-0.143420,-11.256366,33.576397,-13.566177,-7.724733,0.105680,1.364242,-0.155778,0.000000,0.000000,0.000000,0.000000,0.000000,0.000000
12618315.000000,-2.339351,-1.662249,1.133112,-1.419591,1.732666,1.207990,-0.575234,0.598513,-0.007585,1.229560,-0.461716,-0.391141,1.192255,-0.137899,-10.986590,34.286541,-14.692886,-7.847719,0.141385,1.617843,-0.221696,0.000000,0.000000,0.000000,0.000000,0.000000,0.000000
12618316.000000,-2.338747,-1.662241,1.134333,-1.420048,1.732281,1.209169,-0.575379,0.601850,-0.002546,1.219328,-0.459160,-0.383616,1.192866,-0.138480,-10.835834,34.921307,-15.577591,-7.875490,0.171598,1.643478,-0.169511,0.000000,0.000000,0.000000,0.000000,0.000000,0.000000
12618317.000000,-2.338123,-1.662239,1.135567,-1.420506,1.731899,1.210371,-0.575515,0.604560,-0.002067,1.217038,-0.454640,-0.384453,1.189366,-0.140330,-10.911212,35.536236,-16.263931,-7.875490,0.249418,1.559249,-0.202470,0.000000,0.000000,0.000000,0.000000,0.000000,0.000000
12618318.000000,-2.337528,-1.662234,1.136781,-1.420965,1.731523,1.211534,-0.575653,0.606420,0.000386,1.209594,-0.452008,-0.378973,1.201454,-0.138077,-10.812030,36.048016,-16.708267,-7.823915,0.183500,1.597701,-0.208878,0.000000,0.000000,0.000000,0.000000,0.000000,0.000000
12618319.000000,-2.336934,-1.662229,1.138037,-1.421425,1.731161,1.212709,-0.575788,0.599740,0.001296,1.214198,-0.449480,-0.371098,1.188214,-0.136153,-10.637469,36.440777,-17.319229,-7.823915,0.105680,1.656295,-0.221696,0.000000,0.000000,0.000000,0.000000,0.000000,0.000000
12618320.000000,-2.336336,-1.662239,1.139296,-1.421864,1.730803,1.213893,-0.575929,0.592242,-0.005077,1.234622,-0.450469,-0.365285,1.175931,-0.131230,-10.514483,36.980328,-17.811172,-7.946901,0.027860,1.597701,-0.196061,0.000000,0.000000,0.000000,0.000000,0.000000,0.000000
12618321.000000,-2.335777,-1.662253,1.140548,-1.422287,1.730432,1.215053,-0.576071,0.582599,-0.009156,1.233306,-0.437287,-0.366246,1.167980,-0.133195,-10.070148,37.492107,-18.303116,-8.367434,-0.037142,1.559249,-0.130143,0.000000,0.000000,0.000000,0.000000,0.000000,0.000000
12618322.000000,-2.335209,-1.662275,1.141841,-1.422695,1.730064,1.216210,-0.576200,0.576060,-0.012674,1.241694,-0.432195,-0.369583,1.160503,-0.130715,-9.697223,38.007854,-19.037064,-8.787966,-0.037142,1.605026,-0.182328,0.000000,0.000000,0.000000,0.000000,0.000000,0.000000
12618323.000000,-2.334661,-1.662306,1.143125,-1.423088,1.729708,1.217356,-0.576336,0.562730,-0.020095,1.273859,-0.417913,-0.359353,1.145286,-0.131413,-9.153705,38.595013,-19.751175,-9.406862,-0.103060,1.851302,-0.169511,0.000000,0.000000,0.000000,0.000000,0.000000,0.000000
12618324.000000,-2.334121,-1.662345,1.144427,-1.423487,1.729339,1.218492,-0.576470,0.558317,-0.026121,1.270414,-0.412157,-0.366564,1.144544,-0.132581,-8.681598,39.205975,-20.461319,-9.851198,-0.055453,1.962081,-0.142960,0.000000,0.000000,0.000000,0.000000,0.000000,0.000000
12618325.000000,-2.333580,-1.662394,1.145731,-1.423876,1.728962,1.219665,-0.576600,0.550218,-0.032293,1.291861,-0.402874,-0.368174,1.148991,-0.131089,-8.213458,39.892315,-21.000870,-10.247927,0.034269,1.844894,-0.169511,0.000000,0.000000,0.000000,0.000000,0.000000,0.000000
12618326.000000,-2.333045,-1.662440,1.147004,-1.424272,1.728592,1.220815,-0.576736,0.544157,-0.034382,1.278387,-0.399130,-0.368037,1.155167,-0.131875,-7.939715,40.479473,-21.322220,-10.470095,0.105680,1.727706,-0.155778,0.000000,0.000000,0.000000,0.000000,0.000000,0.000000
12618327.000000,-2.332505,-1.662487,1.148306,-1.424664,1.728236,1.221967,-0.576860,0.542888,-0.037937,1.274288,-0.397010,-0.367203,1.155497,-0.130906,-7.693743,41.019024,-21.786392,-10.541506,0.147794,1.708480,-0.182328,0.000000,0.000000,0.000000,0.000000,0.000000,0.000000
12618328.000000,-2.331973,-1.662537,1.149582,-1.425060,1.727874,1.223121,-0.576991,0.536934,-0.040720,1.286783,-0.396151,-0.363648,1.149426,-0.131409,-7.344622,41.554607,-21.714981,-10.569277,0.112089,1.754256,-0.169511,0.000000,0.000000,0.000000,0.000000,0.000000,0.000000
12618329.000000,-2.331464,-1.662593,1.150846,-1.425464,1.727505,1.224264,-0.577119,0.528128,-0.047174,1.269607,-0.397544,-0.358939,1.156809,-0.132410,-6.951861,42.141766,-21.738785,-10.470095,0.147794,1.735030,-0.149369,0.000000,0.000000,0.000000,0.000000,0.000000,0.000000
12618330.000000,-2.330947,-1.662635,1.152109,-1.425857,1.727156,1.225418,-0.577238,0.523914,-0.044948,1.256371,-0.398913,-0.353356,1.152718,-0.125702,-6.602740,42.558331,-21.469009,-10.347109,0.123990,1.767074,-0.208878,0.000000,0.000000,0.000000,0.000000,0.000000,0.000000
12618331.000000,-2.330445,-1.662678,1.153389,-1.426257,1.726809,1.226548,-0.577370,0.520997,-0.045501,1.256418,-0.399390,-0.349712,1.151418,-0.126347,-6.182208,42.927288,-21.687210,-10.196352,0.004056,1.936446,-0.110001,0.000000,0.000000,0.000000,0.000000,0.000000,0.000000
12618332.000000,-2.329939,-1.662709,1.154684,-1.426655,1.726464,1.227707,-0.577477,0.509923,-0.041614,1.256998,-0.407440,-0.346018,1.156625,-0.119564,-5.936236,43.097881,-21.933182,-10.025759,-0.043551,1.949264,-0.202470,0.000000,0.000000,0.000000,0.000000,0.000000,0.000000
12618333.000000,-2.329444,-1.662746,1.155973,-1.427065,1.726122,1.228877,-0.577600,0.503736,-0.043693,1.276120,-0.407714,-0.345893,1.163982,-0.124073,-5.539507,43.320049,-22.056168,-9.803591,-0.025240,1.858627,-0.163102,0.000000,0.000000,0.000000,0.000000,0.000000,0.000000
12618334.000000,-2.328962,-1.662778,1.157264,-1.427482,1.725767,1.230019,-0.577719,0.496199,-0.039907,1.276210,-0.409817,-0.349455,1.166810,-0.121140,-5.118975,43.439068,-22.472733,-9.482241,0.105680,1.844894,-0.169511,0.000000,0.000000,0.000000,0.000000,0.000000,0.000000
12618335.000000,-2.328465,-1.662803,1.158577,-1.427895,1.725425,1.231165,-0.577841,0.494409,-0.034788,1.273829,-0.409503,-0.352285,1.157449,-0.124344,-4.920611,43.439068,-22.988480,-9.232302,0.117582,1.942855,-0.155778,0.000000,0.000000,0.000000,0.000000,0.000000,0.000000
12618336.000000,-2.327996,-1.662824,1.159875,-1.428314,1.725073,1.232302,-0.577960,0.489136,-0.029047,1.276391,-0.412158,-0.347226,1.172051,-0.126312,-4.500079,43.343853,-23.504227,-8.962526,0.225614,1.995040,-0.155778,0.000000,0.000000,0.000000,0.000000,0.000000,0.000000
12618337.000000,-2.327528,-1.662851,1.161164,-1.428744,1.724730,1.233455,-0.578072,0.480327,-0.030175,1.269624,-0.418020,-0.344375,1.157438,-0.126244,-4.004168,43.320049,-23.651016,-8.712587,0.339139,2.007858,-0.196061,0.000000,0.000000,0.000000,0.000000,0.000000,0.000000
12618338.000000,-2.327052,-1.662874,1.162471,-1.429169,1.724381,1.234620,-0.578196,0.475772,-0.027371,1.288639,-0.421478,-0.345742,1.148309,-0.124392,-3.631243,43.268475,-23.972366,-8.466616,0.416959,1.942855,-0.155778,0.000000,0.000000,0.000000,0.000000,0.000000,0.000000
12618339.000000,-2.326591,-1.662895,1.163750,-1.429616,1.724042,1.235755,-0.578309,0.473728,-0.024465,1.280776,-0.426733,-0.342074,1.142120,-0.123703,-3.286089,43.173260,-24.095352,-8.069887,0.374845,2.020675,-0.208878,0.000000,0.000000,0.000000,0.000000,0.000000,0.000000
12618340.000000,-2.326125,-1.662913,1.165037,-1.430063,1.723711,1.236908,-0.578427,0.466647,-0.022066,1.271557,-0.436568,-0.336304,1.141924,-0.121594,-2.940936,43.050274,-24.166763,-7.577943,0.362943,2.066451,-0.196061,0.000000,0.000000,0.000000,0.000000,0.000000,0.000000
12618341.000000,-2.325654,-1.662940,1.166321,-1.430529,1.723389,1.238075,-0.578546,0.466652,-0.023723,1.295885,-0.441639,-0.329433,1.143931,-0.120435,-2.718768,43.074078,-24.365128,-7.034425,0.308927,1.968490,-0.169511,0.000000,0.000000,0.000000,0.000000,0.000000,0.000000
12618342.000000,-2.325207,-1.662973,1.167612,-1.430987,1.723058,1.239225,-0.578653,0.457067,-0.026759,1.281088,-0.445184,-0.331761,1.144990,-0.116963,-2.369647,43.173260,-24.488113,-6.637697,0.297025,1.877853,-0.215287,0.000000,0.000000,0.000000,0.000000,0.000000,0.000000
12618343.000000,-2.324755,-1.663000,1.168939,-1.431450,1.722716,1.240376,-0.578778,0.455806,-0.026906,1.303889,-0.450124,-0.335477,1.138699,-0.118674,-2.048296,43.197063,-25.003860,-6.141786,0.332731,1.897079,-0.142960,0.000000,0.000000,0.000000,0.000000,0.000000,0.000000
12618344.000000,-2.324306,-1.663021,1.170235,-1.431910,1.722381,1.241497,-0.578890,0.458659,-0.023974,1.294390,-0.454270,-0.331869,1.135139,-0.115208,-1.703143,43.097881,-25.444229,-5.848207,0.344633,2.079269,-0.202470,0.000000,0.000000,0.000000,0.000000,0.000000,0.000000
12618345.000000,-2.323870,-1.663049,1.171551,-1.432362,1.722045,1.242630,-0.579003,0.450500,-0.028070,1.294140,-0.453068,-0.332795,1.130877,-0.114776,-1.330218,43.121685,-25.959976,-5.649843,0.440763,2.215682,-0.202470,0.000000,0.000000,0.000000,0.000000,0.000000,0.000000
12618346.000000,-2.323451,-1.663078,1.172851,-1.432814,1.721696,1.243775,-0.579126,0.439925,-0.031615,1.308311,-0.453389,-0.338859,1.130597,-0.115923,-0.762896,43.173260,-26.130569,-5.550661,0.571683,2.280685,-0.155778,0.000000,0.000000,0.000000,0.000000,0.000000,0.000000
12618347.000000,-2.323026,-1.663103,1.174138,-1.433267,1.721359,1.244905,-0.579239,0.437107,-0.030536,1.297630,-0.447091,-0.336626,1.134812,-0.115159,-0.389971,43.197063,-26.400345,-5.475282,0.637601,2.358505,-0.155778,0.000000,0.000000,0.000000,0.000000,0.000000,0.000000
12618348.000000,-2.322607,-1.663116,1.175436,-1.433725,1.721041,1.246042,-0.579347,0.427338,-0.025581,1.287398,-0.451097,-0.331160,1.138985,-0.107887,0.129743,43.050274,-26.598709,-5.304689,0.613798,2.443649,-0.208878,0.000000,0.000000,0.000000,0.000000,0.000000,0.000000
12618349.000000,-2.322194,-1.663140,1.176700,-1.434189,1.720718,1.247165,-0.579461,0.428515,-0.022560,1.273521,-0.452315,-0.326557,1.139167,-0.109096,0.502668,43.050274,-26.523331,-5.054750,0.578092,2.423507,-0.215287,0.000000,0.000000,0.000000,0.000000,0.000000,0.000000
12618350.000000,-2.321771,-1.663165,1.177978,-1.434661,1.720390,1.248319,-0.579580,0.424942,-0.023855,1.265563,-0.462077,-0.325715,1.142133,-0.112512,0.748639,43.074078,-26.400345,-4.733400,0.589994,2.215682,-0.155778,0.000000,0.000000,0.000000,0.000000,0.000000,0.000000
12618351.000000,-2.321342,-1.663182,1.179252,-1.435130,1.720069,1.249473,-0.579682,0.423642,-0.019988,1.275253,-0.464576,-0.323930,1.140871,-0.104934,0.923200,43.026470,-26.182144,-4.312868,0.578092,2.060043,-0.229020,0.000000,0.000000,0.000000,0.000000,0.000000,0.000000
12618352.000000,-2.320931,-1.663196,1.180523,-1.435606,1.719754,1.250592,-0.579794,0.416658,-0.018590,1.267332,-0.464271,-0.317266,1.129029,-0.103982,1.192975,42.903484,-26.277359,-3.967714,0.542386,2.079269,-0.188737,0.000000,0.000000,0.000000,0.000000,0.000000,0.000000
12618353.000000,-2.320513,-1.663210,1.181781,-1.436067,1.719451,1.251741,-0.579896,0.415131,-0.018740,1.252382,-0.466638,-0.315003,1.125378,-0.105957,1.292158,42.828106,-25.983780,-3.670168,0.446256,2.001449,-0.196061,0.000000,0.000000,0.000000,0.000000,0.000000,0.000000
12618354.000000,-2.320108,-1.663231,1.183036,-1.436521,1.719124,1.252886,-0.580002,0.411637,-0.021160,1.265844,-0.460267,-0.315516,1.128289,-0.103528,1.641279,42.851910,-25.983780,-3.570986,0.547880,1.844894,-0.182328,0.000000,0.000000,0.000000,0.000000,0.000000,0.000000
12618355.000000,-2.319704,-1.663252,1.184295,-1.436968,1.718808,1.254024,-0.580106,0.402997,-0.022854,1.252021,-0.456960,-0.324079,1.127807,-0.105423,1.887250,42.875713,-25.860794,-3.570986,0.655912,1.897079,-0.196061,0.000000,0.000000,0.000000,0.000000,0.000000,0.000000
12618356.000000,-2.319292,-1.663266,1.185563,-1.437407,1.718505,1.255159,-0.580206,0.401546,-0.019282,1.262087,-0.451135,-0.320887,1.126428,-0.105240,2.034040,42.828106,-25.912369,-3.598757,0.721830,2.072860,-0.248246,0.000000,0.000000,0.000000,0.000000,0.000000,0.000000
12618357.000000,-2.318892,-1.663286,1.186800,-1.437863,1.718189,1.256273,-0.580318,0.400359,-0.018338,1.251437,-0.454030,-0.321545,1.122747,-0.106166,2.160993,42.851910,-25.813187,-3.424196,0.751127,2.235824,-0.155778,0.000000,0.000000,0.000000,0.000000,0.000000,0.000000
12618358.000000,-2.318477,-1.663305,1.188043,-1.438292,1.717877,1.257431,-0.580415,0.403899,-0.017410,1.235766,-0.445401,-0.315087,1.134352,-0.100646,2.208601,42.875713,-25.714005,-3.475771,0.840848,2.112228,-0.221696,0.000000,0.000000,0.000000,0.000000,0.000000,0.000000
12618359.000000,-2.318052,-1.663319,1.189288,-1.438741,1.717572,1.258614,-0.580517,0.409853,-0.018781,1.251500,-0.447472,-0.311600,1.150675,-0.099077,2.109418,42.851910,-25.614822,-3.325014,0.859159,1.800033,-0.221696,0.000000,0.000000,0.000000,0.000000,0.000000,0.000000
12618360.000000,-2.317645,-1.663329,1.190501,-1.439185,1.717289,1.259758,-0.580625,0.409299,-0.014951,1.231538,-0.445371,-0.295200,1.154210,-0.100334,2.085615,42.756695,-25.420425,-3.178224,0.745634,1.708480,-0.155778,0.000000,0.000000,0.000000,0.000000,0.000000,0.000000
12618361.000000,-2.317228,-1.663332,1.191747,-1.439622,1.716994,1.260919,-0.580721,0.410659,-0.011161,1.248513,-0.443920,-0.294383,1.154462,-0.096855,1.934858,42.609905,-25.444229,-3.027467,0.673307,1.624252,-0.202470,0.000000,0.000000,0.000000,0.000000,0.000000,0.000000
12618362.000000,-2.316822,-1.663344,1.192967,-1.440050,1.716700,1.262067,-0.580823,0.414509,-0.010761,1.232910,-0.433378,-0.289758,1.164482,-0.101610,1.986432,42.558331,-25.420425,-2.956056,0.632108,1.565658,-0.188737,0.000000,0.000000,0.000000,0.000000,0.000000,0.000000
12618363.000000,-2.316425,-1.663359,1.194203,-1.440469,1.716416,1.263213,-0.580919,0.412034,-0.012187,1.223690,-0.436627,-0.289391,1.161694,-0.104027,2.109418,42.582134,-25.444229,-3.003664,0.649503,1.695663,-0.202470,0.000000,0.000000,0.000000,0.000000,0.000000,0.000000
12618364.000000,-2.316023,-1.663366,1.195449,-1.440879,1.716133,1.264355,-0.581022,0.407413,-0.007124,1.237885,-0.425379,-0.284424,1.154640,-0.102679,2.208601,42.486919,-25.614822,-3.102846,0.679716,1.942855,-0.169511,0.000000,0.000000,0.000000,0.000000,0.000000,0.000000
12618365.000000,-2.315631,-1.663369,1.196690,-1.441284,1.715856,1.265477,-0.581109,0.401766,-0.006517,1.234916,-0.414053,-0.282774,1.141502,-0.093376,2.283979,42.387737,-25.959976,-3.325014,0.637601,2.169906,-0.235429,0.000000,0.000000,0.000000,0.000000,0.000000,0.000000
12618366.000000,-2.315230,-1.663385,1.197952,-1.441680,1.715572,1.266631,-0.581207,0.400712,-0.009466,1.231032,-0.401878,-0.284638,1.136744,-0.094711,2.331586,42.435345,-26.451920,-3.475771,0.679716,2.209274,-0.208878,0.000000,0.000000,0.000000,0.000000,0.000000,0.000000
12618367.000000,-2.314826,-1.663392,1.199157,-1.442091,1.715287,1.267778,-0.581307,0.409809,-0.009207,1.222309,-0.398168,-0.279958,1.130842,-0.094767,2.307783,42.387737,-26.376541,-3.499574,0.709928,2.125045,-0.202470,0.000000,0.000000,0.000000,0.000000,0.000000,0.000000
12618368.000000,-2.314412,-1.663407,1.200391,-1.442502,1.715009,1.268928,-0.581401,0.408399,-0.008232,1.215576,-0.398014,-0.277748,1.132831,-0.093704,2.160993,42.435345,-26.523331,-3.424196,0.757535,2.118636,-0.229020,0.000000,0.000000,0.000000,0.000000,0.000000,0.000000
12618369.000000,-2.314001,-1.663411,1.201618,-1.442912,1.714737,1.270067,-0.581505,0.407033,-0.007165,1.229220,-0.400197,-0.275062,1.124664,-0.100312,1.986432,42.340130,-26.499527,-3.249635,0.781339,2.215682,-0.182328,0.000000,0.000000,0.000000,0.000000,0.000000,0.000000
12618370.000000,-2.313602,-1.663417,1.202820,-1.443314,1.714462,1.271194,-0.581600,0.402768,-0.010862,1.213858,-0.395388,-0.269689,1.127477,-0.102183,1.962629,42.288555,-26.328934,-3.178224,0.715421,2.228500,-0.202470,0.000000,0.000000,0.000000,0.000000,0.000000,0.000000
12618371.000000,-2.313204,-1.663426,1.204032,-1.443715,1.714205,1.272350,-0.581703,0.397292,-0.010452,1.208333,-0.395906,-0.270097,1.130936,-0.101149,2.034040,42.240948,-26.106766,-3.079042,0.632108,2.112228,-0.175919,0.000000,0.000000,0.000000,0.000000,0.000000,0.000000
12618372.000000,-2.312801,-1.663433,1.205225,-1.444102,1.713945,1.273501,-0.581798,0.395613,-0.006983,1.217093,-0.390126,-0.266223,1.131137,-0.104454,2.034040,42.193340,-25.860794,-3.102846,0.566190,2.001449,-0.163102,0.000000,0.000000,0.000000,0.000000,0.000000,0.000000
12618373.000000,-2.312418,-1.663430,1.206450,-1.444490,1.713694,1.274629,-0.581887,0.387731,-0.004814,1.209697,-0.386124,-0.267766,1.130848,-0.099669,2.160993,42.022747,-25.912369,-3.126650,0.524076,1.988631,-0.221696,0.000000,0.000000,0.000000,0.000000,0.000000,0.000000
12618374.000000,-2.312032,-1.663430,1.207656,-1.444869,1.713450,1.275760,-0.581989,0.383330,-0.003854,1.217022,-0.384354,-0.263882,1.127476,-0.100458,2.283979,41.875957,-25.666397,-3.102846,0.428861,2.072860,-0.163102,0.000000,0.000000,0.000000,0.000000,0.000000,0.000000
12618375.000000,-2.311654,-1.663431,1.208857,-1.445251,1.713174,1.276892,-0.582077,0.380932,-0.003929,1.211614,-0.381231,-0.269484,1.135268,-0.096384,2.482343,41.752972,-25.642593,-3.126650,0.566190,2.027084,-0.229020,0.000000,0.000000,0.000000,0.000000,0.000000,0.000000
12618376.000000,-2.311269,-1.663431,1.210060,-1.445622,1.712906,1.278040,-0.582171,0.377070,-0.001283,1.194343,-0.376883,-0.269873,1.137941,-0.091518,2.581525,41.653790,-25.543411,-3.126650,0.733732,1.930038,-0.221696,0.000000,0.000000,0.000000,0.000000,0.000000,0.000000
12618377.000000,-2.310882,-1.663428,1.211280,-1.445987,1.712647,1.279187,-0.582267,0.377535,0.002397,1.209272,-0.375215,-0.268815,1.142822,-0.093591,2.605329,41.483196,-25.642593,-3.202028,0.763029,1.884261,-0.182328,0.000000,0.000000,0.000000,0.000000,0.000000,0.000000
12618378.000000,-2.310506,-1.663421,1.212466,-1.446356,1.712402,1.280312,-0.582358,0.376331,0.005035,1.198986,-0.371420,-0.261702,1.134916,-0.094987,2.680707,41.312603,-25.666397,-3.249635,0.727323,1.890670,-0.149369,0.000000,0.000000,0.000000,0.000000,0.000000,0.000000
12618379.000000,-2.310124,-1.663424,1.213654,-1.446714,1.712153,1.281455,-0.582440,0.375185,0.000969,1.204032,-0.365657,-0.256457,1.129632,-0.087232,2.728315,41.261028,-25.468033,-3.301210,0.698026,1.851302,-0.221696,0.000000,0.000000,0.000000,0.000000,0.000000,0.000000
12618380.000000,-2.309739,-1.663423,1.214822,-1.447080,1.711899,1.282590,-0.582532,0.381200,0.001740,1.187684,-0.360546,-0.252536,1.123192,-0.090055,2.728315,41.189617,-25.249832,-3.348818,0.673307,1.786300,-0.215287,0.000000,0.000000,0.000000,0.000000,0.000000,0.000000
12618381.000000,-2.309356,-1.663417,1.215989,-1.447435,1.711667,1.283713,-0.582627,0.382781,0.003048,1.169696,-0.362738,-0.243351,1.119512,-0.088890,2.629133,41.090435,-24.857071,-3.348818,0.589994,1.962081,-0.149369,0.000000,0.000000,0.000000,0.000000,0.000000,0.000000
12618382.000000,-2.308979,-1.663411,1.217167,-1.447794,1.711437,1.284849,-0.582708,0.381217,0.004028,1.181170,-0.360679,-0.234542,1.112509,-0.082211,2.629133,40.991253,-24.611099,-3.325014,0.458158,2.104903,-0.229020,0.000000,0.000000,0.000000,0.000000,0.000000,0.000000
12618383.000000,-2.308603,-1.663397,1.218329,-1.448144,1.711202,1.285990,-0.582802,0.384074,0.006433,1.165379,-0.354012,-0.232386,1.122035,-0.082824,2.605329,40.820660,-24.436539,-3.376589,0.434354,2.020675,-0.169511,0.000000,0.000000,0.000000,0.000000,0.000000,0.000000
12618384.000000,-2.308224,-1.663391,1.219515,-1.448494,1.710966,1.287155,-0.582888,0.381417,0.005776,1.162703,-0.356004,-0.232525,1.126319,-0.085381,2.605329,40.749249,-24.412735,-3.277406,0.464567,1.800033,-0.175919,0.000000,0.000000,0.000000,0.000000,0.000000,0.000000
12618385.000000,-2.307850,-1.663378,1.220695,-1.448832,1.710726,1.288291,-0.582972,0.379127,0.007148,1.164022,-0.349518,-0.230823,1.154607,-0.081791,2.529951,40.602459,-24.559525,-3.348818,0.464567,1.670028,-0.202470,0.000000,0.000000,0.000000,0.000000,0.000000,0.000000
12618386.000000,-2.307473,-1.663367,1.221908,-1.449164,1.710489,1.289430,-0.583058,0.375015,0.010718,1.169766,-0.342475,-0.231614,1.147750,-0.086030,2.406965,40.479473,-25.027664,-3.424196,0.518583,1.714889,-0.175919,0.000000,0.000000,0.000000,0.000000,0.000000,0.000000
12618387.000000,-2.307104,-1.663361,1.223107,-1.449483,1.710249,1.290559,-0.583138,0.369265,0.009096,1.187067,-0.334213,-0.234048,1.141442,-0.081597,2.506147,40.404095,-25.297440,-3.622560,0.613798,1.865035,-0.221696,0.000000,0.000000,0.000000,0.000000,0.000000,0.000000
12618388.000000,-2.306737,-1.663363,1.224282,-1.449806,1.710011,1.291684,-0.583225,0.367615,0.004442,1.177962,-0.329903,-0.234367,1.139718,-0.085944,2.529951,40.479473,-25.420425,-3.721742,0.685209,1.877853,-0.182328,0.000000,0.000000,0.000000,0.000000,0.000000,0.000000
12618389.000000,-2.306367,-1.663361,1.225468,-1.450117,1.709784,1.292808,-0.583306,0.366440,0.004273,1.170127,-0.327890,-0.231066,1.134841,-0.087775,2.553754,40.427898,-25.491837,-3.920107,0.655912,1.923629,-0.188737,0.000000,0.000000,0.000000,0.000000,0.000000,0.000000
12618390.000000,-2.306002,-1.663360,1.226648,-1.450443,1.709557,1.293933,-0.583385,0.366029,0.003485,1.184878,-0.325987,-0.229562,1.130332,-0.083674,2.581525,40.404095,-25.666397,-3.892336,0.542386,2.033492,-0.215287,0.000000,0.000000,0.000000,0.000000,0.000000,0.000000
12618391.000000,-2.305627,-1.663356,1.227813,-1.450754,1.709340,1.295043,-0.583468,0.368116,0.002940,1.164622,-0.321634,-0.227756,1.122592,-0.083423,2.406965,40.380291,-25.396622,-3.967714,0.416959,2.014266,-0.169511,0.000000,0.000000,0.000000,0.000000,0.000000,0.000000
12618392.000000,-2.305248,-1.663363,1.228985,-1.451077,1.709109,1.296172,-0.583544,0.367479,-0.000316,1.174069,-0.322972,-0.228547,1.110849,-0.085495,2.260175,40.479473,-25.150650,-3.844728,0.428861,1.968490,-0.182328,0.000000,0.000000,0.000000,0.000000,0.000000,0.000000
12618393.000000,-2.304882,-1.663366,1.230131,-1.451401,1.708879,1.297292,-0.583622,0.368293,-0.001291,1.163918,-0.323533,-0.225582,1.110203,-0.083227,2.184797,40.527081,-24.781693,-3.697939,0.482877,1.897079,-0.175919,0.000000,0.000000,0.000000,0.000000,0.000000,0.000000
12618394.000000,-2.304496,-1.663362,1.231294,-1.451708,1.708662,1.298429,-0.583693,0.374559,-0.000279,1.150783,-0.317990,-0.225687,1.114169,-0.079236,1.863447,40.503277,-24.535721,-3.697939,0.476469,1.793624,-0.229020,0.000000,0.000000,0.000000,0.000000,0.000000,0.000000
12618395.000000,-2.304123,-1.663354,1.232468,-1.452030,1.708435,1.299574,-0.583781,0.371955,0.002153,1.166891,-0.316917,-0.225861,1.113679,-0.081349,1.712690,40.404095,-24.388931,-3.570986,0.482877,1.676437,-0.149369,0.000000,0.000000,0.000000,0.000000,0.000000,0.000000
12618396.000000,-2.303754,-1.663354,1.233613,-1.452331,1.708206,1.300708,-0.583853,0.369760,0.001450,1.153883,-0.307871,-0.226147,1.119277,-0.073054,1.565900,40.404095,-24.142960,-3.646364,0.482877,1.513473,-0.202470,0.000000,0.000000,0.000000,0.000000,0.000000,0.000000
12618397.000000,-2.303382,-1.663355,1.234780,-1.452634,1.707978,1.301848,-0.583932,0.366089,0.003588,1.148517,-0.306167,-0.229973,1.120010,-0.074201,1.466718,40.427898,-24.119156,-3.646364,0.578092,1.500655,-0.188737,0.000000,0.000000,0.000000,0.000000,0.000000,0.000000
12618398.000000,-2.303010,-1.663355,1.235923,-1.452931,1.707759,1.302951,-0.584010,0.373284,0.002014,1.137537,-0.299958,-0.222746,1.116246,-0.079076,1.391340,40.455669,-23.920792,-3.697939,0.547880,1.695663,-0.208878,0.000000,0.000000,0.000000,0.000000,0.000000,0.000000
12618399.000000,-2.302644,-1.663353,1.237095,-1.453219,1.707547,1.304068,-0.584089,0.369677,0.002196,1.135107,-0.302425,-0.218360,1.111848,-0.074016,1.292158,40.427898,-24.019974,-3.797121,0.524076,1.949264,-0.196061,0.000000,0.000000,0.000000,0.000000,0.000000,0.000000
12618400.000000,-2.302272,-1.663347,1.238261,-1.453520,1.707335,1.305207,-0.584169,0.374829,0.003288,1.155609,-0.301006,-0.214773,1.121866,-0.070594,1.121564,40.356487,-24.019974,-3.721742,0.494779,1.974899,-0.169511,0.000000,0.000000,0.000000,0.000000,0.000000,0.000000
12618401.000000,-2.301904,-1.663340,1.239403,-1.453811,1.707118,1.306352,-0.584236,0.374201,0.004070,1.141692,-0.294080,-0.211438,1.131483,-0.069500,0.994611,40.281109,-23.948563,-3.745546,0.446256,1.832076,-0.229020,0.000000,0.000000,0.000000,0.000000,0.000000,0.000000
12618402.000000,-2.301518,-1.663334,1.240558,-1.454110,1.706900,1.307491,-0.584317,0.381604,0.007526,1.135452,-0.294809,-0.212311,1.132320,-0.073133,0.649457,40.209698,-23.896988,-3.523378,0.482877,1.747848,-0.175919,0.000000,0.000000,0.000000,0.000000,0.000000,0.000000
12618403.000000,-2.301135,-1.663320,1.241685,-1.454407,1.706688,1.308599,-0.584392,0.386788,0.009327,1.126668,-0.294852,-0.210582,1.154761,-0.073196,0.375715,40.039104,-23.678787,-3.424196,0.482877,1.871444,-0.188737,0.000000,0.000000,0.000000,0.000000,0.000000,0.000000
12618404.000000,-2.300757,-1.663303,1.242828,-1.454701,1.706476,1.309718,-0.584466,0.384020,0.011098,1.116942,-0.291606,-0.214418,1.142684,-0.072785,0.054365,39.840740,-23.528030,-3.348818,0.512174,1.955673,-0.215287,0.000000,0.000000,0.000000,0.000000,0.000000,0.000000
12618405.000000,-2.300372,-1.663296,1.243979,-1.454981,1.706265,1.310861,-0.584545,0.384006,0.008135,1.135627,-0.289240,-0.214453,1.134173,-0.075108,-0.243182,39.816936,-23.357437,-3.400392,0.554288,1.865035,-0.169511,0.000000,0.000000,0.000000,0.000000,0.000000,0.000000
12618406.000000,-2.300008,-1.663281,1.245115,-1.455261,1.706064,1.311985,-0.584613,0.376748,0.011612,1.131078,-0.285424,-0.210955,1.127971,-0.073754,-0.342364,39.693951,-23.309830,-3.523378,0.506681,1.793624,-0.208878,0.000000,0.000000,0.000000,0.000000,0.000000,0.000000
12618407.000000,-2.299628,-1.663267,1.246287,-1.455535,1.705856,1.313117,-0.584688,0.377436,0.010891,1.138484,-0.277808,-0.208711,1.123715,-0.075427,-0.564532,39.574932,-23.603409,-3.622560,0.458158,1.773483,-0.175919,0.000000,0.000000,0.000000,0.000000,0.000000,0.000000
12618408.000000,-2.299259,-1.663251,1.247438,-1.455813,1.705651,1.314218,-0.584759,0.372199,0.009298,1.152733,-0.275667,-0.200468,1.117643,-0.076020,-0.663714,39.499554,-23.825577,-3.697939,0.374845,1.890670,-0.155778,0.000000,0.000000,0.000000,0.000000,0.000000,0.000000
12618409.000000,-2.298901,-1.663245,1.248614,-1.456095,1.705444,1.315338,-0.584822,0.369362,0.009026,1.146748,-0.276127,-0.202924,1.119975,-0.074102,-0.735125,39.523357,-24.142960,-3.697939,0.386747,1.942855,-0.202470,0.000000,0.000000,0.000000,0.000000,0.000000,0.000000
12618410.000000,-2.298529,-1.663235,1.249790,-1.456365,1.705230,1.316466,-0.584896,0.369570,0.005879,1.171409,-0.271776,-0.203397,1.116900,-0.075652,-0.862078,39.547161,-24.365128,-3.769350,0.482877,1.930038,-0.169511,0.000000,0.000000,0.000000,0.000000,0.000000,0.000000
12618411.000000,-2.298171,-1.663226,1.250950,-1.456633,1.705027,1.317566,-0.584961,0.365454,0.007840,1.162267,-0.270266,-0.199924,1.114300,-0.069860,-0.909686,39.523357,-24.658707,-3.868532,0.494779,1.995040,-0.196061,0.000000,0.000000,0.000000,0.000000,0.000000,0.000000
12618412.000000,-2.297806,-1.663217,1.252114,-1.456896,1.704834,1.318681,-0.585034,0.363426,0.005717,1.151798,-0.271953,-0.200419,1.111575,-0.067299,-0.985064,39.523357,-24.757889,-3.943910,0.452665,2.072860,-0.175919,0.000000,0.000000,0.000000,0.000000,0.000000,0.000000
12618413.000000,-2.297452,-1.663205,1.253270,-1.457154,1.704630,1.319802,-0.585102,0.360622,0.007776,1.165187,-0.264281,-0.202129,1.117734,-0.063193,-0.985064,39.499554,-24.682510,-4.066896,0.452665,2.053634,-0.208878,0.000000,0.000000,0.000000,0.000000,0.000000,0.000000
12618414.000000,-2.297105,-1.663205,1.254387,-1.457416,1.704426,1.320909,-0.585174,0.353107,0.003393,1.139244,-0.261119,-0.199464,1.123803,-0.062905,-0.909686,39.598736,-24.313553,-4.090700,0.470060,2.007858,-0.175919,0.000000,0.000000,0.000000,0.000000,0.000000,0.000000
12618415.000000,-2.296751,-1.663198,1.255537,-1.457674,1.704231,1.322018,-0.585240,0.349108,0.002102,1.132215,-0.259738,-0.197674,1.113624,-0.065562,-0.909686,39.622540,-24.119156,-4.066896,0.494779,2.033492,-0.188737,0.000000,0.000000,0.000000,0.000000,0.000000,0.000000
12618416.000000,-2.296402,-1.663180,1.256655,-1.457933,1.704045,1.323115,-0.585307,0.354735,0.005133,1.122862,-0.256149,-0.192242,1.106335,-0.062499,-0.834307,39.475750,-23.726395,-3.991518,0.416959,2.112228,-0.221696,0.000000,0.000000,0.000000,0.000000,0.000000,0.000000
12618417.000000,-2.296065,-1.663165,1.257796,-1.458192,1.703865,1.324235,-0.585378,0.348714,0.005965,1.115286,-0.263026,-0.189438,1.102024,-0.067783,-0.735125,39.376568,-23.480423,-3.844728,0.356534,2.047225,-0.169511,0.000000,0.000000,0.000000,0.000000,0.000000,0.000000
12618418.000000,-2.295733,-1.663154,1.258918,-1.458446,1.703677,1.325382,-0.585439,0.344592,0.008306,1.118001,-0.258625,-0.189181,1.109121,-0.067817,-0.635943,39.328960,-23.286026,-3.892336,0.344633,1.819259,-0.215287,0.000000,0.000000,0.000000,0.000000,0.000000,0.000000
12618419.000000,-2.295407,-1.663138,1.260050,-1.458703,1.703484,1.326504,-0.585508,0.340829,0.011421,1.111690,-0.257668,-0.193666,1.111019,-0.071472,-0.489153,39.229778,-23.040054,-3.844728,0.332731,1.676437,-0.169511,0.000000,0.000000,0.000000,0.000000,0.000000,0.000000
12618420.000000,-2.295076,-1.663120,1.261202,-1.458948,1.703294,1.327621,-0.585576,0.335377,0.014215,1.115085,-0.252209,-0.192016,1.112206,-0.068426,-0.389971,39.106792,-23.063858,-3.868532,0.308927,1.702071,-0.149369,0.000000,0.000000,0.000000,0.000000,0.000000,0.000000
12618421.000000,-2.294759,-1.663109,1.262334,-1.459192,1.703099,1.328720,-0.585635,0.330793,0.010711,1.121083,-0.248697,-0.196537,1.106178,-0.062637,-0.116229,39.082989,-23.040054,-3.991518,0.332731,1.754256,-0.221696,0.000000,0.000000,0.000000,0.000000,0.000000,0.000000
12618422.000000,-2.294446,-1.663092,1.263482,-1.459437,1.702905,1.329839,-0.585704,0.326665,0.012376,1.114821,-0.245167,-0.197264,1.108519,-0.064465,0.054365,39.011578,-23.111465,-4.043092,0.434354,1.727706,-0.142960,0.000000,0.000000,0.000000,0.000000,0.000000,0.000000
12618423.000000,-2.294135,-1.663074,1.264617,-1.459672,1.702715,1.330973,-0.585761,0.324280,0.012320,1.130286,-0.238878,-0.196434,1.110382,-0.060576,0.177350,38.864788,-22.988480,-4.118471,0.476469,1.662704,-0.188737,0.000000,0.000000,0.000000,0.000000,0.000000,0.000000
12618424.000000,-2.293829,-1.663056,1.265742,-1.459916,1.702532,1.332073,-0.585826,0.321190,0.014057,1.131711,-0.238532,-0.188423,1.115968,-0.060591,0.375715,38.765606,-23.063858,-4.118471,0.452665,1.670028,-0.163102,0.000000,0.000000,0.000000,0.000000,0.000000,0.000000
12618425.000000,-2.293519,-1.663040,1.266878,-1.460161,1.702349,1.333187,-0.585884,0.317434,0.014798,1.128571,-0.237351,-0.191829,1.111515,-0.058067,0.502668,38.690228,-22.988480,-4.043092,0.416959,1.760665,-0.202470,0.000000,0.000000,0.000000,0.000000,0.000000,0.000000
12618426.000000,-2.293203,-1.663027,1.267984,-1.460407,1.702163,1.334311,-0.585945,0.319909,0.014276,1.122872,-0.240506,-0.189596,1.113339,-0.062941,0.550275,38.666424,-22.770279,-3.920107,0.381254,1.721298,-0.188737,0.000000,0.000000,0.000000,0.000000,0.000000,0.000000
12618427.000000,-2.292902,-1.663008,1.269106,-1.460648,1.701974,1.335424,-0.586004,0.315548,0.016369,1.113765,-0.239546,-0.189841,1.115942,-0.061883,0.697065,38.543438,-22.595718,-3.797121,0.386747,1.649886,-0.175919,0.000000,0.000000,0.000000,0.000000,0.000000,0.000000
12618428.000000,-2.292597,-1.662988,1.270222,-1.460888,1.701796,1.336541,-0.586057,0.311460,0.018496,1.114474,-0.238845,-0.183936,1.108251,-0.059019,0.748639,38.396648,-22.548111,-3.670168,0.356534,1.637069,-0.215287,0.000000,0.000000,0.000000,0.000000,0.000000,0.000000
12618429.000000,-2.292304,-1.662964,1.271363,-1.461129,1.701622,1.337665,-0.586119,0.308782,0.017799,1.120374,-0.237496,-0.174340,1.114216,-0.059743,0.923200,38.202251,-22.647293,-3.547182,0.320829,1.513473,-0.182328,0.000000,0.000000,0.000000,0.000000,0.000000,0.000000
12618430.000000,-2.292008,-1.662946,1.272517,-1.461358,1.701446,1.338794,-0.586175,0.303510,0.018045,1.122932,-0.232627,-0.174191,1.115798,-0.058733,1.093793,38.103069,-22.841690,-3.475771,0.332731,1.474105,-0.188737,0.000000,0.000000,0.000000,0.000000,0.000000,0.000000
12618431.000000,-2.291716,-1.662925,1.273658,-1.461598,1.701265,1.339925,-0.586238,0.297743,0.021893,1.128200,-0.235889,-0.175694,1.115627,-0.058561,1.216779,37.984051,-23.111465,-3.376589,0.405057,1.454879,-0.175919,0.000000,0.000000,0.000000,0.000000,0.000000,0.000000
12618432.000000,-2.291437,-1.662909,1.274811,-1.461836,1.701084,1.341028,-0.586296,0.290555,0.023112,1.125112,-0.235273,-0.180244,1.110277,-0.053332,1.466718,37.932476,-23.409012,-3.277406,0.446256,1.591293,-0.175919,0.000000,0.000000,0.000000,0.000000,0.000000,0.000000
12618433.000000,-2.291155,-1.662896,1.275952,-1.462063,1.700903,1.342124,-0.586351,0.284872,0.020368,1.135557,-0.230746,-0.182590,1.105519,-0.057871,1.589704,37.908672,-23.726395,-3.225832,0.458158,1.838485,-0.202470,0.000000,0.000000,0.000000,0.000000,0.000000,0.000000
12618434.000000,-2.290875,-1.662881,1.277106,-1.462302,1.700726,1.343220,-0.586414,0.290340,0.019113,1.140374,-0.233787,-0.178484,1.103106,-0.064497,1.764264,37.861065,-23.948563,-3.003664,0.446256,1.988631,-0.155778,0.000000,0.000000,0.000000,0.000000,0.000000,0.000000
12618435.000000,-2.290601,-1.662867,1.278256,-1.462541,1.700554,1.344337,-0.586465,0.286427,0.015162,1.131685,-0.237097,-0.176533,1.111679,-0.060180,1.962629,37.809490,-23.948563,-2.880678,0.452665,2.007858,-0.215287,0.000000,0.000000,0.000000,0.000000,0.000000,0.000000
12618436.000000,-2.290317,-1.662852,1.279386,-1.462773,1.700384,1.345468,-0.586520,0.284215,0.015297,1.134755,-0.237056,-0.175486,1.114288,-0.063219,2.010236,37.761883,-23.920792,-2.733888,0.464567,1.968490,-0.235429,0.000000,0.000000,0.000000,0.000000,0.000000,0.000000
12618437.000000,-2.290037,-1.662834,1.280521,-1.463018,1.700219,1.346567,-0.586581,0.286032,0.015961,1.130237,-0.239420,-0.172013,1.107645,-0.063902,2.034040,37.686504,-23.825577,-2.460146,0.405057,1.903487,-0.175919,0.000000,0.000000,0.000000,0.000000,0.000000,0.000000
12618438.000000,-2.289758,-1.662813,1.281663,-1.463262,1.700053,1.347684,-0.586637,0.283499,0.018082,1.131356,-0.245775,-0.168059,1.099797,-0.058008,2.061811,37.539715,-23.651016,-2.138796,0.434354,1.858627,-0.155778,0.000000,0.000000,0.000000,0.000000,0.000000,0.000000
12618439.000000,-2.289474,-1.662801,1.282770,-1.463508,1.699879,1.348780,-0.586692,0.281313,0.016182,1.124177,-0.244020,-0.170691,1.095434,-0.057175,1.962629,37.539715,-23.258255,-1.940431,0.506681,1.825668,-0.163102,0.000000,0.000000,0.000000,0.000000,0.000000,0.000000
12618440.000000,-2.289207,-1.662794,1.283899,-1.463752,1.699707,1.349888,-0.586738,0.276716,0.013188,1.113752,-0.243706,-0.174373,1.094106,-0.049890,2.109418,37.615093,-23.063858,-1.718263,0.518583,1.865035,-0.229020,0.000000,0.000000,0.000000,0.000000,0.000000,0.000000
12618441.000000,-2.288931,-1.662774,1.285019,-1.463979,1.699543,1.350999,-0.586800,0.275933,0.015293,1.116012,-0.238816,-0.172556,1.096711,-0.054364,2.133222,37.515911,-22.964676,-1.694460,0.506681,1.903487,-0.155778,0.000000,0.000000,0.000000,0.000000,0.000000,0.000000
12618442.000000,-2.288668,-1.662760,1.286149,-1.464208,1.699389,1.352110,-0.586847,0.271161,0.014823,1.115747,-0.237026,-0.163741,1.101414,-0.053135,2.232404,37.492107,-22.817886,-1.718263,0.416959,1.773483,-0.202470,0.000000,0.000000,0.000000,0.000000,0.000000,0.000000
12618443.000000,-2.288405,-1.662745,1.287294,-1.464425,1.699229,1.353247,-0.586902,0.265946,0.017683,1.126151,-0.230110,-0.162053,1.108041,-0.054833,2.406965,37.468304,-22.841690,-1.869020,0.446256,1.539108,-0.182328,0.000000,0.000000,0.000000,0.000000,0.000000,0.000000
12618444.000000,-2.288131,-1.662732,1.288423,-1.464649,1.699071,1.354359,-0.586954,0.268069,0.019349,1.125984,-0.227998,-0.159479,1.106913,-0.054941,2.331586,37.468304,-22.940872,-1.916628,0.452665,1.591293,-0.188737,0.000000,0.000000,0.000000,0.000000,0.000000,0.000000
12618445.000000,-2.287871,-1.662723,1.289570,-1.464880,1.698919,1.355446,-0.587000,0.262881,0.016931,1.117970,-0.229476,-0.160998,1.107381,-0.049402,2.331586,37.492107,-23.087662,-1.841249,0.422452,1.747848,-0.221696,0.000000,0.000000,0.000000,0.000000,0.000000,0.000000
12618446.000000,-2.287602,-1.662715,1.290685,-1.465103,1.698762,1.356560,-0.587061,0.261737,0.015281,1.102641,-0.229166,-0.160679,1.110463,-0.054114,2.307783,37.515911,-23.040054,-1.817445,0.476469,1.767074,-0.142960,0.000000,0.000000,0.000000,0.000000,0.000000,0.000000
12618447.000000,-2.287340,-1.662705,1.291808,-1.465324,1.698599,1.357668,-0.587102,0.262021,0.013969,1.104466,-0.222287,-0.159367,1.109943,-0.047206,2.307783,37.539715,-22.988480,-1.793642,0.512174,1.695663,-0.215287,0.000000,0.000000,0.000000,0.000000,0.000000,0.000000
12618448.000000,-2.287073,-1.662691,1.292945,-1.465538,1.698446,1.358791,-0.587148,0.261162,0.011651,1.109096,-0.223648,-0.155528,1.106731,-0.048895,2.232404,37.492107,-22.964676,-1.718263,0.470060,1.565658,-0.235429,0.000000,0.000000,0.000000,0.000000,0.000000,0.000000
12618449.000000,-2.286799,-1.662681,1.294046,-1.465750,1.698290,1.359910,-0.587206,0.265788,0.011267,1.108855,-0.221299,-0.153723,1.103261,-0.054030,2.061811,37.515911,-22.742508,-1.694460,0.446256,1.578475,-0.149369,0.000000,0.000000,0.000000,0.000000,0.000000,0.000000
12618450.000000,-2.286536,-1.662667,1.295152,-1.465961,1.698134,1.361009,-0.587247,0.264115,0.012761,1.096109,-0.218928,-0.154482,1.100563,-0.052323,1.962629,37.468304,-22.448929,-1.694460,0.482877,1.605026,-0.208878,0.000000,0.000000,0.000000,0.000000,0.000000,0.000000
12618451.000000,-2.286272,-1.662657,1.296259,-1.466160,1.697981,1.362124,-0.587297,0.263060,0.012771,1.101892,-0.213402,-0.155026,1.099492,-0.049507,1.835676,37.468304,-22.302139,-1.742067,0.518583,1.670028,-0.188737,0.000000,0.000000,0.000000,0.000000,0.000000,0.000000
12618452.000000,-2.286007,-1.662639,1.297390,-1.466360,1.697827,1.363213,-0.587345,0.269367,0.011841,1.108610,-0.206332,-0.149210,1.119085,-0.051630,1.740461,37.369122,-22.377518,-1.769838,0.530485,1.819259,-0.188737,0.000000,0.000000,0.000000,0.000000,0.000000,0.000000
12618453.000000,-2.285747,-1.662625,1.298532,-1.466561,1.697690,1.364333,-0.587397,0.265973,0.012933,1.108577,-0.205770,-0.146463,1.120172,-0.049391,1.688886,37.321514,-22.571915,-1.742067,0.446256,1.786300,-0.155778,0.000000,0.000000,0.000000,0.000000,0.000000,0.000000
12618454.000000,-2.285481,-1.662612,1.299665,-1.466751,1.697544,1.365459,-0.587438,0.264391,0.013732,1.118098,-0.201657,-0.146006,1.122891,-0.044087,1.565900,37.273907,-22.893265,-1.869020,0.398649,1.676437,-0.215287,0.000000,0.000000,0.000000,0.000000,0.000000,0.000000
12618455.000000,-2.285225,-1.662598,1.300822,-1.466948,1.697388,1.366557,-0.587487,0.265224,0.010691,1.127979,-0.199357,-0.148620,1.122324,-0.048535,1.514325,37.246136,-23.357437,-1.817445,0.428861,1.637069,-0.175919,0.000000,0.000000,0.000000,0.000000,0.000000,0.000000
12618456.000000,-2.284959,-1.662588,1.301985,-1.467135,1.697239,1.367658,-0.587535,0.264375,0.010960,1.141427,-0.196154,-0.148107,1.120236,-0.046262,1.391340,37.246136,-23.750198,-1.841249,0.393156,1.702071,-0.163102,0.000000,0.000000,0.000000,0.000000,0.000000,0.000000
12618457.000000,-2.284693,-1.662581,1.303113,-1.467312,1.697080,1.368752,-0.587579,0.264602,0.010007,1.135475,-0.191992,-0.151710,1.113174,-0.047530,1.216779,37.297710,-23.948563,-1.940431,0.470060,1.832076,-0.196061,0.000000,0.000000,0.000000,0.000000,0.000000,0.000000
12618458.000000,-2.284445,-1.662573,1.304246,-1.467491,1.696930,1.369830,-0.587632,0.257998,0.010247,1.120189,-0.185397,-0.149170,1.100428,-0.051566,1.192975,37.321514,-23.972366,-2.063417,0.535978,1.949264,-0.155778,0.000000,0.000000,0.000000,0.000000,0.000000,0.000000
12618459.000000,-2.284187,-1.662569,1.305362,-1.467655,1.696783,1.370927,-0.587668,0.256210,0.008471,1.124329,-0.178135,-0.149786,1.086051,-0.045252,1.145368,37.420696,-23.972366,-2.285585,0.542386,1.909896,-0.229020,0.000000,0.000000,0.000000,0.000000,0.000000,0.000000
12618460.000000,-2.283928,-1.662569,1.306483,-1.467822,1.696640,1.372005,-0.587714,0.260875,0.006310,1.116485,-0.172435,-0.148157,1.083666,-0.044294,1.022382,37.567486,-23.801773,-2.384767,0.500272,1.930038,-0.208878,0.000000,0.000000,0.000000,0.000000,0.000000,0.000000
12618461.000000,-2.283665,-1.662567,1.307607,-1.467990,1.696497,1.373108,-0.587766,0.259070,0.002384,1.111487,-0.170090,-0.143456,1.081325,-0.044399,0.847822,37.686504,-23.504227,-2.412538,0.476469,1.825668,-0.163102,0.000000,0.000000,0.000000,0.000000,0.000000,0.000000
12618462.000000,-2.283403,-1.662568,1.308715,-1.468155,1.696355,1.374213,-0.587798,0.259913,0.002575,1.115763,-0.171354,-0.139877,1.091086,-0.039654,0.697065,37.809490,-23.258255,-2.436342,0.452665,1.779891,-0.241837,0.000000,0.000000,0.000000,0.000000,0.000000,0.000000
12618463.000000,-2.283145,-1.662572,1.309822,-1.468326,1.696210,1.375294,-0.587851,0.260179,-0.000915,1.098614,-0.172927,-0.142129,1.090023,-0.042781,0.526471,37.956280,-22.917068,-2.436342,0.434354,1.819259,-0.149369,0.000000,0.000000,0.000000,0.000000,0.000000,0.000000
12618464.000000,-2.282898,-1.662570,1.310936,-1.468479,1.696067,1.376401,-0.587891,0.253777,-0.001771,1.084657,-0.164821,-0.143061,1.097579,-0.040584,0.474897,38.031658,-22.817886,-2.559328,0.393156,1.721298,-0.169511,0.000000,0.000000,0.000000,0.000000,0.000000,0.000000
12618465.000000,-2.282655,-1.662567,1.312052,-1.468632,1.695924,1.377516,-0.587927,0.253034,0.000752,1.095320,-0.156153,-0.144102,1.112271,-0.038376,0.451093,38.103069,-22.647293,-2.658510,0.374845,1.448470,-0.208878,0.000000,0.000000,0.000000,0.000000,0.000000,0.000000
12618466.000000,-2.282409,-1.662562,1.313188,-1.468768,1.695780,1.378633,-0.587971,0.248569,0.004167,1.094880,-0.151845,-0.143168,1.113045,-0.040013,0.451093,38.103069,-22.770279,-2.904482,0.422452,1.299239,-0.163102,0.000000,0.000000,0.000000,0.000000,0.000000,0.000000
12618467.000000,-2.282163,-1.662562,1.314302,-1.468904,1.695643,1.379741,-0.588007,0.246523,0.005544,1.102759,-0.147022,-0.141181,1.110806,-0.037384,0.427289,38.154644,-22.742508,-3.126650,0.440763,1.350509,-0.215287,0.000000,0.000000,0.000000,0.000000,0.000000,0.000000
12618468.000000,-2.281919,-1.662557,1.315433,-1.469038,1.695502,1.380817,-0.588052,0.246625,0.008118,1.099542,-0.144087,-0.141151,1.094078,-0.044134,0.328107,38.130840,-22.817886,-3.325014,0.500272,1.565658,-0.163102,0.000000,0.000000,0.000000,0.000000,0.000000,0.000000
12618469.000000,-2.281672,-1.662555,1.316533,-1.469171,1.695366,1.381921,-0.588086,0.246501,0.005712,1.103809,-0.140074,-0.139113,1.087697,-0.040763,0.205121,38.154644,-22.794083,-3.475771,0.512174,1.721298,-0.208878,0.000000,0.000000,0.000000,0.000000,0.000000,0.000000
12618470.000000,-2.281420,-1.662554,1.317649,-1.469301,1.695243,1.383017,-0.588121,0.249539,0.004451,1.103437,-0.135802,-0.134421,1.088075,-0.040315,0.006757,38.154644,-22.770279,-3.547182,0.440763,1.806442,-0.208878,0.000000,0.000000,0.000000,0.000000,0.000000,0.000000
12618471.000000,-2.281169,-1.662548,1.318769,-1.469434,1.695123,1.384142,-0.588158,0.250047,0.005212,1.095996,-0.134050,-0.125887,1.097424,-0.039513,-0.290789,38.079266,-22.742508,-3.547182,0.351041,1.760665,-0.215287,0.000000,0.000000,0.000000,0.000000,0.000000,0.000000
12618472.000000,-2.280926,-1.662540,1.319872,-1.469556,1.695006,1.385264,-0.588198,0.252578,0.006713,1.100697,-0.132485,-0.123769,1.098985,-0.039766,-0.441546,37.956280,-22.718704,-3.547182,0.237516,1.695663,-0.196061,0.000000,0.000000,0.000000,0.000000,0.000000,0.000000
12618473.000000,-2.280678,-1.662536,1.320983,-1.469682,1.694871,1.386364,-0.588233,0.252844,0.005860,1.100779,-0.131423,-0.126267,1.104664,-0.039029,-0.663714,37.908672,-22.671097,-3.523378,0.231107,1.662704,-0.196061,0.000000,0.000000,0.000000,0.000000,0.000000,0.000000
12618474.000000,-2.280426,-1.662529,1.322089,-1.469803,1.694735,1.387470,-0.588268,0.252945,0.006430,1.094962,-0.129569,-0.131871,1.098863,-0.037983,-0.862078,37.809490,-22.425125,-3.547182,0.327238,1.702071,-0.215287,0.000000,0.000000,0.000000,0.000000,0.000000,0.000000
12618475.000000,-2.280183,-1.662531,1.323197,-1.469925,1.694599,1.388570,-0.588308,0.248902,0.003882,1.102512,-0.125069,-0.129246,1.103575,-0.039841,-1.008868,37.833294,-22.500504,-3.570986,0.393156,1.806442,-0.163102,0.000000,0.000000,0.000000,0.000000,0.000000,0.000000
12618476.000000,-2.279942,-1.662520,1.324327,-1.470043,1.694475,1.389670,-0.588339,0.248174,0.005487,1.094883,-0.122251,-0.125487,1.103206,-0.038056,-1.131854,37.714275,-22.694901,-3.570986,0.405057,1.773483,-0.196061,0.000000,0.000000,0.000000,0.000000,0.000000,0.000000
12618477.000000,-2.279705,-1.662516,1.325460,-1.470148,1.694350,1.390773,-0.588374,0.242710,0.004950,1.107583,-0.114052,-0.127820,1.101597,-0.038457,-1.183428,37.662701,-23.135269,-3.697939,0.422452,1.741439,-0.182328,0.000000,0.000000,0.000000,0.000000,0.000000,0.000000
12618478.000000,-2.279478,-1.662515,1.326611,-1.470252,1.694234,1.391870,-0.588408,0.237935,0.002808,1.121507,-0.110950,-0.125482,1.094440,-0.038290,-1.183428,37.686504,-23.579605,-3.820925,0.339139,1.649886,-0.182328,0.000000,0.000000,0.000000,0.000000,0.000000,0.000000
12618479.000000,-2.279251,-1.662518,1.327766,-1.470351,1.694114,1.392955,-0.588439,0.234615,0.003884,1.126810,-0.105965,-0.121239,1.080545,-0.037396,-1.183428,37.738079,-24.095352,-3.943910,0.303434,1.786300,-0.202470,0.000000,0.000000,0.000000,0.000000,0.000000,0.000000
12618480.000000,-2.279019,-1.662528,1.328889,-1.470457,1.693987,1.394040,-0.588477,0.230171,-0.000544,1.130009,-0.105681,-0.124828,1.075684,-0.038921,-1.231036,37.884869,-24.313553,-3.920107,0.327238,2.020675,-0.163102,0.000000,0.000000,0.000000,0.000000,0.000000,0.000000
12618481.000000,-2.278789,-1.662537,1.330023,-1.470562,1.693865,1.395118,-0.588504,0.230191,-0.003014,1.122417,-0.104732,-0.121960,1.078817,-0.037267,-1.330218,38.007854,-24.388931,-3.920107,0.327238,2.098495,-0.196061,0.000000,0.000000,0.000000,0.000000,0.000000,0.000000
12618482.000000,-2.278553,-1.662537,1.331139,-1.470663,1.693740,1.396209,-0.588534,0.229689,-0.001841,1.119765,-0.103341,-0.125066,1.080682,-0.032951,-1.528582,38.007854,-24.412735,-3.943910,0.339139,2.118636,-0.188737,0.000000,0.000000,0.000000,0.000000,0.000000,0.000000
12618483.000000,-2.278322,-1.662544,1.332276,-1.470769,1.693620,1.397307,-0.588566,0.237024,-0.002771,1.119591,-0.104368,-0.120695,1.087646,-0.034157,-1.679339,38.079266,-24.436539,-3.868532,0.303434,1.936446,-0.188737,0.000000,0.000000,0.000000,0.000000,0.000000,0.000000
12618484.000000,-2.278095,-1.662550,1.333392,-1.470868,1.693495,1.398415,-0.588596,0.232862,-0.003515,1.105394,-0.106456,-0.119162,1.101526,-0.030552,-1.802325,38.154644,-24.095352,-3.844728,0.308927,1.754256,-0.182328,0.000000,0.000000,0.000000,0.000000,0.000000,0.000000
12618485.000000,-2.277865,-1.662562,1.334494,-1.470963,1.693365,1.399507,-0.588629,0.231415,-0.006263,1.103196,-0.101256,-0.121370,1.098385,-0.032239,-1.972918,38.325237,-23.873184,-3.868532,0.410551,1.773483,-0.182328,0.000000,0.000000,0.000000,0.000000,0.000000,0.000000
12618486.000000,-2.277650,-1.662567,1.335598,-1.471059,1.693241,1.400572,-0.588654,0.224309,-0.005792,1.101423,-0.097893,-0.120906,1.089052,-0.027460,-2.024493,38.396648,-23.456619,-3.868532,0.458158,1.890670,-0.221696,0.000000,0.000000,0.000000,0.000000,0.000000,0.000000
12618487.000000,-2.277435,-1.662578,1.336729,-1.471151,1.693123,1.401655,-0.588693,0.223208,-0.007255,1.102382,-0.095473,-0.118013,1.078609,-0.027565,-2.000689,38.543438,-23.409012,-3.868532,0.440763,2.039901,-0.163102,0.000000,0.000000,0.000000,0.000000,0.000000,0.000000
12618488.000000,-2.277223,-1.662585,1.337817,-1.471232,1.693009,1.402750,-0.588722,0.218495,-0.006570,1.098295,-0.093208,-0.115538,1.105247,-0.029978,-1.925311,38.618816,-23.087662,-4.019289,0.416959,1.930038,-0.169511,0.000000,0.000000,0.000000,0.000000,0.000000,0.000000
12618489.000000,-2.277013,-1.662587,1.338947,-1.471320,1.692900,1.403872,-0.588749,0.213543,-0.007978,1.096217,-0.090546,-0.115753,1.105899,-0.030902,-1.901507,38.642620,-23.186844,-4.090700,0.327238,1.727706,-0.196061,0.000000,0.000000,0.000000,0.000000,0.000000,0.000000
12618490.000000,-2.276804,-1.662590,1.340066,-1.471405,1.692795,1.404981,-0.588778,0.210327,-0.005557,1.105393,-0.089046,-0.111883,1.105709,-0.032802,-1.901507,38.642620,-23.357437,-4.142274,0.231107,1.630660,-0.188737,0.000000,0.000000,0.000000,0.000000,0.000000,0.000000
12618491.000000,-2.276597,-1.662600,1.341188,-1.471494,1.692688,1.406058,-0.588805,0.208622,-0.006204,1.110698,-0.088811,-0.106132,1.100845,-0.029745,-1.925311,38.741802,-23.381241,-4.142274,0.183500,1.702071,-0.175919,0.000000,0.000000,0.000000,0.000000,0.000000,0.000000
12618492.000000,-2.276386,-1.662607,1.342308,-1.471575,1.692565,1.407160,-0.588837,0.207975,-0.006497,1.107622,-0.085158,-0.117288,1.094174,-0.031925,-1.972918,38.837017,-23.357437,-4.166078,0.291532,1.682845,-0.169511,0.000000,0.000000,0.000000,0.000000,0.000000,0.000000
12618493.000000,-2.276174,-1.662618,1.343414,-1.471653,1.692444,1.408253,-0.588863,0.209156,-0.007309,1.108311,-0.084329,-0.118539,1.091364,-0.032020,-2.099871,38.960003,-23.409012,-4.241457,0.356534,1.760665,-0.202470,0.000000,0.000000,0.000000,0.000000,0.000000,0.000000
12618494.000000,-2.275979,-1.662623,1.344533,-1.471727,1.692326,1.409337,-0.588896,0.207124,-0.008565,1.103661,-0.080778,-0.118332,1.091496,-0.030321,-2.099871,38.983807,-23.432816,-4.312868,0.386747,1.786300,-0.163102,0.000000,0.000000,0.000000,0.000000,0.000000,0.000000
12618495.000000,-2.275768,-1.662626,1.345625,-1.471797,1.692212,1.410439,-0.588919,0.207402,-0.009203,1.099734,-0.077446,-0.116250,1.093974,-0.026452,-2.199053,38.983807,-23.357437,-4.412050,0.374845,1.708480,-0.188737,0.000000,0.000000,0.000000,0.000000,0.000000,0.000000
12618496.000000,-2.275565,-1.662629,1.346723,-1.471867,1.692095,1.411523,-0.588944,0.204196,-0.007284,1.096677,-0.072390,-0.116877,1.092288,-0.023645,-2.270464,39.011578,-23.163040,-4.487428,0.422452,1.649886,-0.215287,0.000000,0.000000,0.000000,0.000000,0.000000,0.000000
12618497.000000,-2.275361,-1.662632,1.347831,-1.471940,1.691985,1.412620,-0.588974,0.201030,-0.005230,1.100685,-0.071640,-0.115698,1.089352,-0.024285,-2.322039,39.011578,-22.988480,-4.439821,0.416959,1.624252,-0.169511,0.000000,0.000000,0.000000,0.000000,0.000000,0.000000
12618498.000000,-2.275155,-1.662633,1.348934,-1.472012,1.691874,1.413710,-0.588995,0.201678,-0.003118,1.104836,-0.072682,-0.112903,1.085488,-0.021557,-2.492632,38.983807,-23.063858,-4.439821,0.362943,1.773483,-0.202470,0.000000,0.000000,0.000000,0.000000,0.000000,0.000000
12618499.000000,-2.274958,-1.662630,1.350054,-1.472090,1.691770,1.414788,-0.589020,0.198625,-0.001175,1.096358,-0.076335,-0.110464,1.081286,-0.021465,-2.520403,38.936199,-23.210648,-4.312868,0.291532,1.825668,-0.188737,0.000000,0.000000,0.000000,0.000000,0.000000,0.000000
12618500.000000,-2.274762,-1.662631,1.351177,-1.472155,1.691657,1.415902,-0.589041,0.196393,-0.000385,1.111844,-0.075312,-0.112169,1.086490,-0.019805,-2.591815,38.912395,-23.627213,-4.340639,0.308927,1.611434,-0.215287,0.000000,0.000000,0.000000,0.000000,0.000000,0.000000
12618501.000000,-2.274571,-1.662627,1.352311,-1.472225,1.691554,1.416997,-0.589070,0.194912,0.001945,1.117456,-0.072151,-0.110900,1.092325,-0.022108,-2.591815,38.813213,-24.119156,-4.340639,0.267728,1.389877,-0.149369,0.000000,0.000000,0.000000,0.000000,0.000000,0.000000
12618502.000000,-2.274390,-1.662625,1.353459,-1.472286,1.691447,1.418071,-0.589089,0.189513,0.002322,1.113471,-0.070756,-0.107329,1.089603,-0.024657,-2.568011,38.765606,-24.682510,-4.439821,0.273221,1.454879,-0.182328,0.000000,0.000000,0.000000,0.000000,0.000000,0.000000
12618503.000000,-2.274208,-1.662630,1.354580,-1.472345,1.691331,1.419125,-0.589111,0.186570,-0.000189,1.122174,-0.064642,-0.106934,1.078110,-0.023596,-2.520403,38.837017,-24.976089,-4.487428,0.344633,1.806442,-0.169511,0.000000,0.000000,0.000000,0.000000,0.000000,0.000000
12618504.000000,-2.274028,-1.662635,1.355706,-1.472408,1.691209,1.420156,-0.589132,0.182165,-0.001939,1.119860,-0.062373,-0.111233,1.064630,-0.022810,-2.445025,38.912395,-25.150650,-4.439821,0.422452,2.190048,-0.155778,0.000000,0.000000,0.000000,0.000000,0.000000,0.000000
12618505.000000,-2.273851,-1.662650,1.356830,-1.472458,1.691089,1.421219,-0.589149,0.177973,-0.005321,1.117504,-0.059639,-0.113578,1.058551,-0.020047,-2.369647,39.082989,-25.126846,-4.562807,0.476469,2.404281,-0.202470,0.000000,0.000000,0.000000,0.000000,0.000000,0.000000
12618506.000000,-2.273669,-1.662652,1.357937,-1.472519,1.690983,1.422293,-0.589173,0.179116,-0.007153,1.117174,-0.058681,-0.110119,1.062044,-0.022195,-2.421221,39.106792,-25.075272,-4.511232,0.398649,2.378646,-0.142960,0.000000,0.000000,0.000000,0.000000,0.000000,0.000000
12618507.000000,-2.273489,-1.662646,1.359056,-1.472583,1.690887,1.423407,-0.589183,0.179171,-0.004783,1.107916,-0.059633,-0.109188,1.074891,-0.022238,-2.492632,38.960003,-25.003860,-4.388246,0.249418,2.157089,-0.241837,0.000000,0.000000,0.000000,0.000000,0.000000,0.000000
12618508.000000,-2.273309,-1.662653,1.360162,-1.472651,1.690782,1.424527,-0.589204,0.180157,-0.004865,1.108410,-0.062406,-0.109876,1.079649,-0.021866,-2.591815,39.011578,-24.829300,-4.166078,0.231107,1.903487,-0.235429,0.000000,0.000000,0.000000,0.000000,0.000000,0.000000
12618509.000000,-2.273130,-1.662660,1.361265,-1.472726,1.690664,1.425610,-0.589235,0.178773,-0.004709,1.103448,-0.068250,-0.109037,1.085984,-0.024797,-2.718768,39.059185,-24.412735,-3.892336,0.308927,1.844894,-0.136552,0.000000,0.000000,0.000000,0.000000,0.000000,0.000000
12618510.000000,-2.272960,-1.662662,1.362377,-1.472791,1.690548,1.426685,-0.589246,0.177829,-0.002289,1.100829,-0.069871,-0.113356,1.077263,-0.020448,-2.718768,39.011578,-24.142960,-3.721742,0.393156,1.981307,-0.208878,0.000000,0.000000,0.000000,0.000000,0.000000,0.000000
12618511.000000,-2.272799,-1.662671,1.363482,-1.472847,1.690435,1.427771,-0.589270,0.171603,-0.003395,1.107225,-0.067190,-0.114316,1.082447,-0.021592,-2.619586,39.082989,-24.071548,-3.721742,0.428861,2.098495,-0.169511,0.000000,0.000000,0.000000,0.000000,0.000000,0.000000
12618512.000000,-2.272651,-1.662675,1.364595,-1.472886,1.690338,1.428865,-0.589285,0.161488,-0.004951,1.095171,-0.057126,-0.110311,1.094668,-0.020905,-2.397418,39.059185,-23.972366,-3.943910,0.339139,1.988631,-0.169511,0.000000,0.000000,0.000000,0.000000,0.000000,0.000000
12618513.000000,-2.272508,-1.662676,1.365700,-1.472924,1.690237,1.429982,-0.589307,0.154689,-0.001907,1.099323,-0.046494,-0.109367,1.095354,-0.021340,-2.072100,38.983807,-24.019974,-4.189882,0.291532,1.793624,-0.142960,0.000000,0.000000,0.000000,0.000000,0.000000,0.000000
12618514.000000,-2.272358,-1.662677,1.366826,-1.472963,1.690131,1.431076,-0.589319,0.151334,0.000122,1.106632,-0.044161,-0.114329,1.093130,-0.018391,-1.925311,38.912395,-24.142960,-4.340639,0.273221,1.708480,-0.202470,0.000000,0.000000,0.000000,0.000000,0.000000,0.000000
12618515.000000,-2.272206,-1.662683,1.367955,-1.473015,1.690019,1.432165,-0.589337,0.150407,-0.003183,1.107736,-0.047755,-0.115102,1.083669,-0.019328,-1.849932,38.912395,-24.265945,-4.265260,0.291532,1.838485,-0.182328,0.000000,0.000000,0.000000,0.000000,0.000000,0.000000
12618516.000000,-2.272054,-1.662690,1.369058,-1.473073,1.689905,1.433259,-0.589355,0.151525,-0.001976,1.109781,-0.049565,-0.117053,1.080583,-0.020434,-1.849932,38.888592,-24.341324,-4.090700,0.351041,2.001449,-0.149369,0.000000,0.000000,0.000000,0.000000,0.000000,0.000000
12618517.000000,-2.271903,-1.662696,1.370155,-1.473124,1.689787,1.434356,-0.589368,0.153146,-0.003602,1.102525,-0.049934,-0.119213,1.086832,-0.018185,-1.901507,38.837017,-24.166763,-3.943910,0.434354,1.962081,-0.196061,0.000000,0.000000,0.000000,0.000000,0.000000,0.000000
12618518.000000,-2.271753,-1.662698,1.371264,-1.473171,1.689683,1.435475,-0.589388,0.149413,-0.004395,1.100316,-0.049327,-0.112674,1.092312,-0.019971,-1.925311,38.765606,-24.095352,-3.820925,0.434354,1.812850,-0.155778,0.000000,0.000000,0.000000,0.000000,0.000000,0.000000
12618519.000000,-2.271606,-1.662697,1.372360,-1.473214,1.689588,1.436579,-0.589397,0.148249,-0.003294,1.103841,-0.047125,-0.110429,1.098850,-0.017629,-1.901507,38.618816,-24.071548,-3.769350,0.381254,1.656295,-0.208878,0.000000,0.000000,0.000000,0.000000,0.000000,0.000000
12618520.000000,-2.271471,-1.662695,1.373451,-1.473254,1.689498,1.437685,-0.589414,0.144202,-0.003110,1.086363,-0.044844,-0.102768,1.104746,-0.013101,-1.826129,38.495831,-23.849380,-3.745546,0.279630,1.605026,-0.215287,0.000000,0.000000,0.000000,0.000000,0.000000,0.000000
12618521.000000,-2.271339,-1.662700,1.374529,-1.473290,1.689393,1.438781,-0.589437,0.139847,-0.002883,1.086782,-0.042639,-0.102250,1.101850,-0.017076,-1.703143,38.495831,-23.627213,-3.745546,0.315336,1.714889,-0.149369,0.000000,0.000000,0.000000,0.000000,0.000000,0.000000
12618522.000000,-2.271211,-1.662709,1.375628,-1.473327,1.689282,1.439855,-0.589444,0.137004,-0.004293,1.090016,-0.041617,-0.104074,1.093888,-0.014870,-1.580157,38.571209,-23.528030,-3.721742,0.410551,1.877853,-0.215287,0.000000,0.000000,0.000000,0.000000,0.000000,0.000000
12618523.000000,-2.271087,-1.662710,1.376741,-1.473362,1.689188,1.440937,-0.589464,0.134073,-0.002668,1.091313,-0.037905,-0.100284,1.076900,-0.012959,-1.429400,38.543438,-23.627213,-3.697939,0.374845,2.060043,-0.169511,0.000000,0.000000,0.000000,0.000000,0.000000,0.000000
12618524.000000,-2.270959,-1.662709,1.377861,-1.473401,1.689095,1.442028,-0.589474,0.130072,-0.002120,1.099075,-0.036756,-0.097625,1.074567,-0.014187,-1.306414,38.543438,-24.043777,-3.598757,0.344633,2.014266,-0.175919,0.000000,0.000000,0.000000,0.000000,0.000000,0.000000
12618525.000000,-2.270838,-1.662709,1.378995,-1.473437,1.689007,1.443157,-0.589486,0.126224,-0.001113,1.104459,-0.034798,-0.095489,1.090351,-0.014891,-1.159625,38.519634,-24.488113,-3.547182,0.303434,1.760665,-0.188737,0.000000,0.000000,0.000000,0.000000,0.000000,0.000000
12618526.000000,-2.270722,-1.662712,1.380113,-1.473474,1.688910,1.444276,-0.589500,0.119520,-0.001491,1.108867,-0.034341,-0.095133,1.094499,-0.012140,-1.008868,38.543438,-24.952286,-3.448000,0.291532,1.637069,-0.163102,0.000000,0.000000,0.000000,0.000000,0.000000,0.000000
12618527.000000,-2.270604,-1.662708,1.381234,-1.473501,1.688803,1.445346,-0.589514,0.120198,-0.000581,1.108146,-0.031646,-0.097473,1.088695,-0.009550,-0.933489,38.519634,-25.174454,-3.448000,0.356534,1.786300,-0.149369,0.000000,0.000000,0.000000,0.000000,0.000000,0.000000
12618528.000000,-2.270487,-1.662719,1.382361,-1.473532,1.688705,1.446419,-0.589524,0.117369,-0.004486,1.116281,-0.031595,-0.096820,1.083237,-0.006840,-0.862078,38.690228,-25.297440,-3.376589,0.362943,1.981307,-0.155778,0.000000,0.000000,0.000000,0.000000,0.000000,0.000000
12618529.000000,-2.270372,-1.662723,1.383456,-1.473559,1.688602,1.447501,-0.589532,0.119467,-0.004278,1.111908,-0.030925,-0.098508,1.081272,-0.007794,-0.834307,38.741802,-25.198257,-3.325014,0.428861,2.137862,-0.208878,0.000000,0.000000,0.000000,0.000000,0.000000,0.000000
12618530.000000,-2.270261,-1.662726,1.384560,-1.473583,1.688499,1.448582,-0.589548,0.117391,-0.003470,1.103592,-0.029770,-0.103004,1.083826,-0.012586,-0.786700,38.765606,-25.051468,-3.301210,0.458158,2.066451,-0.163102,0.000000,0.000000,0.000000,0.000000,0.000000,0.000000
12618531.000000,-2.270143,-1.662732,1.385644,-1.473611,1.688408,1.449680,-0.589553,0.117105,-0.004029,1.080829,-0.027443,-0.098738,1.082901,-0.006712,-0.810504,38.837017,-24.805496,-3.202028,0.410551,1.877853,-0.235429,0.000000,0.000000,0.000000,0.000000,0.000000,0.000000
12618532.000000,-2.270030,-1.662738,1.386751,-1.473637,1.688314,1.450754,-0.589566,0.116813,-0.004484,1.085107,-0.025556,-0.096515,1.075180,-0.010742,-0.834307,38.912395,-24.706314,-3.102846,0.386747,1.800033,-0.215287,0.000000,0.000000,0.000000,0.000000,0.000000,0.000000
12618533.000000,-2.269918,-1.662741,1.387845,-1.473677,1.688216,1.451846,-0.589581,0.113788,-0.004128,1.082312,-0.031753,-0.096819,1.078717,-0.014576,-0.862078,38.960003,-24.313553,-2.805300,0.405057,1.721298,-0.169511,0.000000,0.000000,0.000000,0.000000,0.000000,0.000000
12618534.000000,-2.269815,-1.662750,1.388924,-1.473704,1.688114,1.452929,-0.589586,0.109508,-0.005091,1.083118,-0.028308,-0.098082,1.074655,-0.009376,-0.810504,39.059185,-24.043777,-2.706117,0.458158,1.812850,-0.208878,0.000000,0.000000,0.000000,0.000000,0.000000,0.000000
12618535.000000,-2.269711,-1.662754,1.390023,-1.473725,1.688020,1.454003,-0.589601,0.106856,-0.004522,1.082955,-0.024171,-0.095550,1.072871,-0.008784,-0.786700,39.106792,-23.920792,-2.682314,0.416959,1.871444,-0.163102,0.000000,0.000000,0.000000,0.000000,0.000000,0.000000
12618536.000000,-2.269624,-1.662758,1.391117,-1.473731,1.687929,1.455113,-0.589609,0.100215,-0.003583,1.087858,-0.017207,-0.093153,1.078291,-0.006010,-0.588336,39.130596,-23.948563,-2.833071,0.356534,1.702071,-0.175919,0.000000,0.000000,0.000000,0.000000,0.000000,0.000000
12618537.000000,-2.269534,-1.662751,1.392226,-1.473728,1.687838,1.456215,-0.589615,0.097536,0.001037,1.091926,-0.010219,-0.091842,1.113017,-0.003257,-0.441546,38.983807,-24.043777,-3.079042,0.315336,1.474105,-0.208878,0.000000,0.000000,0.000000,0.000000,0.000000,0.000000
12618538.000000,-2.269449,-1.662752,1.393339,-1.473732,1.687742,1.457323,-0.589631,0.094568,0.001242,1.081650,-0.008936,-0.089086,1.121264,-0.004491,-0.266986,38.960003,-24.119156,-3.178224,0.339139,1.377059,-0.155778,0.000000,0.000000,0.000000,0.000000,0.000000,0.000000
12618539.000000,-2.269354,-1.662754,1.394437,-1.473731,1.687643,1.458413,-0.589634,0.095622,0.001380,1.089914,-0.004859,-0.092247,1.118863,-0.001293,-0.215411,38.936199,-24.218338,-3.277406,0.381254,1.500655,-0.208878,0.000000,0.000000,0.000000,0.000000,0.000000,0.000000
12618540.000000,-2.269260,-1.662759,1.395536,-1.473741,1.687536,1.459474,-0.589645,0.095043,0.000360,1.092248,-0.008501,-0.095213,1.101977,-0.001298,-0.243182,38.960003,-24.190567,-3.225832,0.452665,1.793624,-0.202470,0.000000,0.000000,0.000000,0.000000,0.000000,0.000000
12618541.000000,-2.269168,-1.662760,1.396624,-1.473741,1.687433,1.460557,-0.589653,0.094726,0.000237,1.086461,-0.006059,-0.096941,1.088264,-0.000777,-0.290789,38.960003,-24.019974,-3.249635,0.506681,1.974899,-0.208878,0.000000,0.000000,0.000000,0.000000,0.000000,0.000000
12618542.000000,-2.269065,-1.662763,1.397705,-1.473744,1.687339,1.461658,-0.589664,0.097472,0.000713,1.086696,-0.005308,-0.098870,1.090090,-0.005653,-0.489153,38.936199,-23.948563,-3.225832,0.464567,1.903487,-0.202470,0.000000,0.000000,0.000000,0.000000,0.000000,0.000000
12618543.000000,-2.268971,-1.662756,1.398799,-1.473740,1.687257,1.462779,-0.589669,0.096681,0.003351,1.078819,0.002836,-0.092061,1.092892,-0.004014,-0.564532,38.813213,-23.920792,-3.249635,0.327238,1.735030,-0.208878,0.000000,0.000000,0.000000,0.000000,0.000000,0.000000
