chaoyuefei/paper-gmrm-data/robot_logs/s2_dq_gmrm_xz_max_0.50_log_20260314_175159.csv
# time_ms,q_0,q_1,q_2,q_3,q_4,q_5,q_6,dq_0,dq_1,dq_2,dq_3,dq_4,dq_5,dq_6,tau_J_0,tau_J_1,tau_J_2,tau_J_3,tau_J_4,tau_J_5,tau_J_6,O_dP_EE_c_0,O_dP_EE_c_1,O_dP_EE_c_2,O_dP_EE_c_3,O_dP_EE_c_4,O_dP_EE_c_5
13381060.000000,-0.258962,0.525646,0.336245,-1.429397,-0.177870,1.925872,0.097033,0.000983,-0.001063,0.000061,0.000119,-0.000503,0.000540,0.000588,-0.044818,-39.024921,4.619858,19.590025,1.032194,1.318465,-0.163102,0.000000,0.000000,0.000000,0.000000,0.000000,0.000000
13381061.000000,-0.258959,0.525650,0.336242,-1.429394,-0.177868,1.925875,0.097031,0.000655,0.001055,-0.000609,0.000729,0.000105,0.000360,-0.000117,-0.044818,-39.100300,4.647629,19.562254,1.020292,1.318465,-0.149369,0.000000,0.000000,0.000000,0.000000,0.000000,0.000000
13381062.000000,-0.258963,0.525646,0.336244,-1.429400,-0.177867,1.925873,0.097026,-0.000213,-0.000503,0.000244,-0.000721,0.000308,0.000240,-0.001773,-0.017047,-39.048725,4.619858,19.613829,1.013883,1.318465,-0.103593,0.000000,0.000000,0.000000,0.000000,0.000000,0.000000
13381063.000000,-0.258963,0.525648,0.336242,-1.429400,-0.177869,1.925875,0.097036,-0.000142,-0.000335,-0.000487,-0.000480,-0.000270,-0.000077,0.001971,-0.017047,-39.048725,4.647629,19.613829,1.026700,1.324874,-0.188737,0.000000,0.000000,0.000000,0.000000,0.000000,0.000000
13381064.000000,-0.258989,0.525646,0.336242,-1.429399,-0.177866,1.925874,0.097032,-0.023937,0.008408,-0.010384,-0.002182,-0.006848,0.000423,0.007186,-0.441546,-38.461567,4.008896,19.292479,0.942472,1.312057,-0.097184,0.000000,0.000000,0.000000,0.000000,0.000000,0.000000
13381065.000000,-0.259014,0.525639,0.336222,-1.429401,-0.177849,1.925873,0.097048,-0.040497,0.014557,-0.031871,-0.009986,-0.005939,0.001265,0.009530,-2.591815,-36.358906,2.021286,18.276854,0.571683,1.285506,-0.077042,0.000000,0.000000,0.000000,0.000000,0.000000,0.000000
13381066.000000,-0.259044,0.525659,0.336139,-1.429420,-0.177828,1.925864,0.097087,-0.033080,0.018613,-0.047976,-0.018715,0.001866,0.000572,0.023909,-6.158404,-33.248554,-0.751846,16.523314,0.105680,1.292831,-0.142960,0.000000,0.000000,0.000000,0.000000,0.000000,0.000000
13381067.000000,-0.259093,0.525719,0.336001,-1.429439,-0.177851,1.925861,0.097124,-0.022086,0.026023,-0.064596,-0.019717,-0.005885,-0.000805,0.030345,-9.526629,-29.896198,-3.255203,14.000120,-0.013339,1.324874,-0.097184,0.000000,0.000000,0.000000,0.000000,0.000000,0.000000
13381068.000000,-0.259173,0.525800,0.335867,-1.429511,-0.177907,1.925863,0.097180,-0.020507,0.031186,-0.070150,-0.030052,-0.023257,0.000493,0.038169,-11.530108,-26.885029,-5.195206,11.750669,0.189908,1.422836,-0.130143,0.000000,0.000000,0.000000,0.000000,0.000000,0.000000
13381069.000000,-0.259263,0.525885,0.335754,-1.429615,-0.177983,1.925920,0.097228,-0.026890,0.038142,-0.062537,-0.045770,-0.043092,0.022190,0.043501,-12.125201,-24.191242,-6.302078,9.774961,0.476469,1.096908,-0.023942,0.000000,0.000000,0.000000,0.000000,0.000000,0.000000
13381070.000000,-0.259323,0.525994,0.335652,-1.429727,-0.178071,1.926057,0.097292,-0.033371,0.051621,-0.062545,-0.062151,-0.059438,0.061717,0.051799,-11.974444,-22.136189,-6.302078,7.823058,0.709928,0.245467,-0.023942,0.000000,0.000000,0.000000,0.000000,0.000000,0.000000
13381071.000000,-0.259372,0.526089,0.335597,-1.429831,-0.178166,1.926230,0.097362,-0.037803,0.060424,-0.060119,-0.070328,-0.076849,0.101817,0.057130,-11.157184,-20.346943,-6.004532,5.843382,0.828947,-0.697526,-0.004716,0.000000,0.000000,0.000000,0.000000,0.000000,0.000000
13381072.000000,-0.259419,0.526198,0.335577,-1.429937,-0.178236,1.926368,0.097432,-0.042064,0.075283,-0.047541,-0.082130,-0.072466,0.120122,0.060924,-9.871783,-18.879047,-5.516556,4.137450,0.500272,-0.990495,0.021835,0.000000,0.000000,0.000000,0.000000,0.000000,0.000000
13381073.000000,-0.259432,0.526305,0.335568,-1.430044,-0.178306,1.926482,0.097517,-0.036222,0.082513,-0.041166,-0.088459,-0.070628,0.119464,0.066179,-8.832355,-17.486530,-4.802444,2.681456,0.058073,-0.632523,-0.011124,0.000000,0.000000,0.000000,0.000000,0.000000,0.000000
13381074.000000,-0.259439,0.526390,0.335578,-1.430164,-0.178402,1.926614,0.097605,-0.032615,0.080193,-0.030425,-0.093563,-0.077441,0.128332,0.069762,-7.816729,-15.990864,-4.139908,1.542845,-0.234896,-0.098771,-0.044083,0.000000,0.000000,0.000000,0.000000,0.000000,0.000000
13381075.000000,-0.259449,0.526439,0.335574,-1.430311,-0.178497,1.926794,0.097702,-0.031418,0.068109,-0.027331,-0.108865,-0.081530,0.140086,0.083260,-6.824908,-14.181782,-3.207596,1.074705,-0.545260,0.264693,-0.116410,0.000000,0.000000,0.000000,0.000000,0.000000,0.000000
13381076.000000,-0.259478,0.526462,0.335556,-1.430505,-0.178606,1.927034,0.097796,-0.034421,0.054455,-0.029724,-0.135583,-0.088143,0.167433,0.084548,-5.638690,-12.122761,-2.152298,1.344481,-0.641390,0.264693,-0.089860,0.000000,0.000000,0.000000,0.000000,0.000000,0.000000
13381077.000000,-0.259510,0.526477,0.335532,-1.430723,-0.178761,1.927300,0.097900,-0.037796,0.040822,-0.032468,-0.162307,-0.106508,0.197310,0.089401,-4.500079,-10.043903,-1.144608,2.014952,-0.360323,0.141097,-0.130143,0.000000,0.000000,0.000000,0.000000,0.000000,0.000000
13381078.000000,-0.259558,0.526509,0.335493,-1.430951,-0.178936,1.927573,0.097995,-0.042154,0.036765,-0.041284,-0.187625,-0.129995,0.220154,0.092449,-3.262286,-8.353840,-0.089310,2.756834,0.069974,0.226241,-0.056901,0.000000,0.000000,0.000000,0.000000,0.000000,0.000000
13381079.000000,-0.259613,0.526572,0.335452,-1.431173,-0.179113,1.927866,0.098096,-0.050100,0.044093,-0.045320,-0.201896,-0.148967,0.239086,0.091607,-2.072100,-7.254902,0.743820,3.125792,0.452665,0.421249,-0.017533,0.000000,0.000000,0.000000,0.000000,0.000000,0.000000
13381080.000000,-0.259680,0.526656,0.335420,-1.431396,-0.179283,1.928174,0.098202,-0.056265,0.058348,-0.041009,-0.212568,-0.153805,0.260681,0.097477,-0.862078,-6.568562,1.259567,3.371763,0.625699,0.544845,-0.023942,0.000000,0.000000,0.000000,0.000000,0.000000,0.000000
13381081.000000,-0.259728,0.526763,0.335404,-1.431626,-0.179418,1.928518,0.098312,-0.053531,0.075242,-0.029265,-0.217757,-0.144503,0.280422,0.100867,-0.092425,-6.251179,1.382553,3.494749,0.440763,0.551253,-0.011124,0.000000,0.000000,0.000000,0.000000,0.000000,0.000000
13381082.000000,-0.259762,0.526894,0.335393,-1.431862,-0.179540,1.928888,0.098432,-0.047107,0.095790,-0.024463,-0.225423,-0.137697,0.311511,0.110043,0.328107,-6.199604,1.358749,3.371763,0.064481,0.518295,-0.064225,0.000000,0.000000,0.000000,0.000000,0.000000,0.000000
13381083.000000,-0.259796,0.527037,0.335381,-1.432099,-0.179655,1.929289,0.098544,-0.041753,0.113210,-0.018193,-0.225777,-0.125631,0.333281,0.110031,0.673261,-6.199604,1.307175,3.125792,-0.372225,0.518295,-0.044083,0.000000,0.000000,0.000000,0.000000,0.000000,0.000000
13381084.000000,-0.259832,0.527172,0.335358,-1.432336,-0.179780,1.929703,0.098666,-0.036984,0.120037,-0.018956,-0.226281,-0.121815,0.351910,0.112980,0.947004,-6.052814,1.453964,2.756834,-0.623080,0.583297,-0.103593,0.000000,0.000000,0.000000,0.000000,0.000000,0.000000
13381085.000000,-0.259872,0.527306,0.335336,-1.432605,-0.179931,1.930131,0.098776,-0.038430,0.124592,-0.019097,-0.247327,-0.132992,0.374864,0.110213,1.268354,-5.783039,1.576950,2.629881,-0.563571,0.662032,-0.031266,0.000000,0.000000,0.000000,0.000000,0.000000,0.000000
13381086.000000,-0.259917,0.527419,0.335302,-1.432901,-0.180111,1.930598,0.098896,-0.038529,0.118782,-0.022744,-0.263507,-0.153366,0.399263,0.115821,1.665082,-5.172077,1.846725,2.705260,-0.264193,0.654708,-0.037675,0.000000,0.000000,0.000000,0.000000,0.000000,0.000000
13381087.000000,-0.259951,0.527523,0.335269,-1.433212,-0.180304,1.931088,0.099020,-0.034693,0.112970,-0.024723,-0.277223,-0.167594,0.428934,0.114441,1.887250,-4.438129,2.092697,2.879820,0.112089,0.486251,-0.017533,0.000000,0.000000,0.000000,0.000000,0.000000,0.000000
13381088.000000,-0.259984,0.527628,0.335240,-1.433541,-0.180496,1.931627,0.099141,-0.034794,0.108385,-0.025889,-0.294762,-0.173324,0.466598,0.114016,2.085615,-3.581196,2.191879,3.101988,0.410551,0.271102,-0.011124,0.000000,0.000000,0.000000,0.000000,0.000000,0.000000
13381089.000000,-0.260015,0.527737,0.335222,-1.433860,-0.180666,1.932179,0.099264,-0.033948,0.112884,-0.022402,-0.301680,-0.174045,0.489182,0.114558,2.232404,-2.799641,2.092697,2.979002,0.482877,0.180465,-0.031266,0.000000,0.000000,0.000000,0.000000,0.000000,0.000000
13381090.000000,-0.260034,0.527874,0.335208,-1.434189,-0.180814,1.932729,0.099379,-0.029111,0.119375,-0.017461,-0.318525,-0.163425,0.508094,0.112737,2.184797,-2.359272,1.874496,2.729063,0.267728,0.316879,0.009017,0.000000,0.000000,0.000000,0.000000,0.000000,0.000000
13381091.000000,-0.260046,0.528028,0.335203,-1.434506,-0.180952,1.933277,0.099510,-0.023109,0.130605,-0.011401,-0.315554,-0.158046,0.510797,0.115667,2.010236,-2.212483,1.529343,2.237120,-0.043551,0.609847,-0.056901,0.000000,0.000000,0.000000,0.000000,0.000000,0.000000
13381092.000000,-0.260050,0.528192,0.335192,-1.434842,-0.181079,1.933858,0.099629,-0.017029,0.142969,-0.012909,-0.323116,-0.143605,0.530336,0.113278,1.740461,-2.137104,1.283371,1.864195,-0.426241,0.869857,-0.011124,0.000000,0.000000,0.000000,0.000000,0.000000,0.000000
13381093.000000,-0.260064,0.528373,0.335172,-1.435169,-0.181221,1.934476,0.099753,-0.016437,0.154943,-0.014605,-0.322501,-0.138101,0.553514,0.120303,1.613508,-2.089497,1.184189,1.320677,-0.665194,0.785628,-0.070634,0.000000,0.000000,0.000000,0.000000,0.000000,0.000000
13381094.000000,-0.260081,0.528572,0.335157,-1.435517,-0.181389,1.935136,0.099870,-0.014826,0.169516,-0.014663,-0.329536,-0.144274,0.581524,0.112479,1.565900,-2.160908,1.037399,0.951720,-0.634982,0.499068,-0.044083,0.000000,0.000000,0.000000,0.000000,0.000000,0.000000
13381095.000000,-0.260100,0.528779,0.335129,-1.435873,-0.181574,1.935795,0.099979,-0.014675,0.180060,-0.018660,-0.333955,-0.160613,0.604413,0.110286,1.565900,-2.307698,1.061203,0.554991,-0.438143,0.277511,0.048385,0.000000,0.000000,0.000000,0.000000,0.000000,0.000000
13381096.000000,-0.260113,0.528995,0.335105,-1.436225,-0.181768,1.936489,0.100106,-0.015263,0.192434,-0.020235,-0.337447,-0.176367,0.629406,0.113419,1.466718,-2.478291,1.037399,0.158263,-0.109469,0.076095,-0.011124,0.000000,0.000000,0.000000,0.000000,0.000000,0.000000
13381097.000000,-0.260132,0.529222,0.335085,-1.436596,-0.181961,1.937206,0.100220,-0.018124,0.202345,-0.020152,-0.344020,-0.178946,0.657439,0.116313,1.466718,-2.676655,0.965988,-0.186891,0.154203,-0.106095,0.034652,0.000000,0.000000,0.000000,0.000000,0.000000,0.000000
13381098.000000,-0.260137,0.529459,0.335066,-1.436953,-0.182133,1.937942,0.100336,-0.016033,0.214375,-0.018765,-0.346209,-0.180974,0.682367,0.114205,1.292158,-2.771870,0.843002,-0.678835,0.171598,-0.268143,0.074935,0.000000,0.000000,0.000000,0.000000,0.000000,0.000000
13381099.000000,-0.260136,0.529696,0.335052,-1.437340,-0.182283,1.938688,0.100455,-0.009898,0.217297,-0.016781,-0.355211,-0.170439,0.702969,0.114978,1.046186,-2.799641,0.668442,-1.000185,-0.019747,-0.287370,0.048385,0.000000,0.000000,0.000000,0.000000,0.000000,0.000000
13381100.000000,-0.260127,0.529933,0.335036,-1.437738,-0.182426,1.939442,0.100578,-0.003868,0.226754,-0.019209,-0.363699,-0.160583,0.717058,0.121904,0.724836,-2.724262,0.521652,-1.226320,-0.312716,-0.203141,-0.017533,0.000000,0.000000,0.000000,0.000000,0.000000,0.000000
13381101.000000,-0.260126,0.530179,0.335015,-1.438145,-0.182579,1.940210,0.100692,-0.002557,0.234265,-0.019197,-0.377715,-0.154899,0.727256,0.118892,0.526471,-2.529866,0.426437,-1.396913,-0.551669,0.031234,-0.004716,0.000000,0.000000,0.000000,0.000000,0.000000,0.000000
13381102.000000,-0.260134,0.530428,0.334987,-1.438568,-0.182748,1.941007,0.100800,-0.001879,0.234828,-0.021885,-0.386522,-0.158676,0.749240,0.115085,0.474897,-2.359272,0.450241,-1.448488,-0.611178,0.154830,0.054794,0.000000,0.000000,0.000000,0.000000,0.000000,0.000000
13381103.000000,-0.260151,0.530686,0.334957,-1.439018,-0.182922,1.941820,0.100919,-0.007780,0.244696,-0.023678,-0.414446,-0.160063,0.770750,0.117097,0.574079,-2.212483,0.474045,-1.297731,-0.545260,0.161239,-0.004716,0.000000,0.000000,0.000000,0.000000,0.000000,0.000000
13381104.000000,-0.260176,0.530958,0.334922,-1.439487,-0.183105,1.942671,0.101030,-0.013986,0.250698,-0.026567,-0.434167,-0.166471,0.787798,0.113945,0.772443,-2.089497,0.573227,-1.027956,-0.348422,0.089828,0.048385,0.000000,0.000000,0.000000,0.000000,0.000000,0.000000
13381105.000000,-0.260203,0.531248,0.334892,-1.439975,-0.183292,1.943535,0.101146,-0.018149,0.259481,-0.026642,-0.444678,-0.174736,0.818785,0.110220,0.970807,-2.236286,0.597031,-0.778017,-0.157076,-0.060319,0.021835,0.000000,0.000000,0.000000,0.000000,0.000000,0.000000
13381106.000000,-0.260221,0.531557,0.334861,-1.440458,-0.183466,1.944433,0.101257,-0.018073,0.276608,-0.026737,-0.460989,-0.175842,0.837010,0.111010,1.046186,-2.529866,0.620834,-0.678835,-0.091158,-0.222367,0.021835,0.000000,0.000000,0.000000,0.000000,0.000000,0.000000
13381107.000000,-0.260243,0.531884,0.334825,-1.440953,-0.183629,1.945346,0.101366,-0.018552,0.292826,-0.027339,-0.466187,-0.172793,0.854274,0.109244,1.145368,-2.894856,0.668442,-0.706606,-0.133273,-0.248917,0.087753,0.000000,0.000000,0.000000,0.000000,0.000000,0.000000
13381108.000000,-0.260265,0.532217,0.334798,-1.441470,-0.183791,1.946249,0.101489,-0.019429,0.304249,-0.028081,-0.489129,-0.166871,0.867966,0.112671,1.268354,-3.263813,0.597031,-0.754213,-0.270602,-0.150956,0.028243,0.000000,0.000000,0.000000,0.000000,0.000000,0.000000
13381109.000000,-0.260278,0.532560,0.334758,-1.441996,-0.183953,1.947189,0.101602,-0.017163,0.316943,-0.031628,-0.504832,-0.169799,0.887416,0.116695,1.268354,-3.628803,0.644638,-0.754213,-0.443636,-0.060319,0.048385,0.000000,0.000000,0.000000,0.000000,0.000000,0.000000
13381110.000000,-0.260297,0.532894,0.334715,-1.442561,-0.184124,1.948148,0.101718,-0.017943,0.324088,-0.035310,-0.523144,-0.168777,0.906322,0.115139,1.367536,-3.751789,0.743820,-0.583620,-0.509554,-0.033768,0.067611,0.000000,0.000000,0.000000,0.000000,0.000000,0.000000
13381111.000000,-0.260330,0.533228,0.334673,-1.443140,-0.184294,1.949121,0.101835,-0.021902,0.325987,-0.040595,-0.545588,-0.169483,0.921837,0.120958,1.613508,-3.727986,0.819198,-0.333681,-0.515963,-0.066727,0.028243,0.000000,0.000000,0.000000,0.000000,0.000000,0.000000
13381112.000000,-0.260371,0.533567,0.334624,-1.443748,-0.184475,1.950119,0.101945,-0.027485,0.330966,-0.045585,-0.566844,-0.174003,0.941129,0.117383,1.986432,-3.557392,0.942184,-0.012331,-0.407931,-0.073136,0.067611,0.000000,0.000000,0.000000,0.000000,0.000000,0.000000
13381113.000000,-0.260407,0.533915,0.334569,-1.444378,-0.184661,1.951115,0.102065,-0.031897,0.341050,-0.047715,-0.583287,-0.178707,0.963045,0.114285,2.260175,-3.509785,1.136581,0.356627,-0.252291,-0.001725,0.021835,0.000000,0.000000,0.000000,0.000000,0.000000,0.000000
13381114.000000,-0.260446,0.534267,0.334515,-1.445005,-0.184844,1.952140,0.102171,-0.035141,0.342215,-0.051128,-0.597977,-0.184189,0.981157,0.111009,2.529951,-3.335224,1.283371,0.554991,-0.168978,0.141097,0.100570,0.000000,0.000000,0.000000,0.000000,0.000000,0.000000
13381115.000000,-0.260487,0.534627,0.334457,-1.445662,-0.185012,1.953195,0.102288,-0.034453,0.345089,-0.054052,-0.613482,-0.177685,1.006405,0.112164,2.803693,-3.240010,1.453964,0.729552,-0.246798,0.121871,0.087753,0.000000,0.000000,0.000000,0.000000,0.000000,0.000000
13381116.000000,-0.260523,0.535007,0.334404,-1.446311,-0.185187,1.954248,0.102406,-0.034739,0.354708,-0.053249,-0.623599,-0.172123,1.017835,0.115084,2.978254,-3.359028,1.505539,0.777159,-0.348422,0.050460,0.028243,0.000000,0.000000,0.000000,0.000000,0.000000,0.000000
13381117.000000,-0.260554,0.535396,0.334348,-1.446976,-0.185356,1.955300,0.102523,-0.034619,0.351638,-0.057330,-0.629609,-0.168911,1.019424,0.114298,3.002058,-4.045368,1.604721,1.150084,-0.426241,0.076095,0.028243,0.000000,0.000000,0.000000,0.000000,0.000000,0.000000
13381118.000000,-0.260591,0.535784,0.334296,-1.447635,-0.185530,1.956364,0.102639,-0.037870,0.355178,-0.051398,-0.626684,-0.170848,1.034222,0.113933,3.025861,-5.588642,1.723740,1.887999,-0.426241,0.076095,0.028243,0.000000,0.000000,0.000000,0.000000,0.000000,0.000000
13381119.000000,-0.260640,0.536178,0.334242,-1.448282,-0.185703,1.957446,0.102754,-0.039475,0.367746,-0.048870,-0.625746,-0.168379,1.044454,0.112530,3.125043,-7.814289,1.922104,3.272581,-0.365817,0.115462,0.061202,0.000000,0.000000,0.000000,0.000000,0.000000,0.000000
13381120.000000,-0.260687,0.536552,0.334186,-1.448923,-0.185884,1.958538,0.102874,-0.043225,0.372103,-0.054121,-0.627888,-0.175936,1.058281,0.113248,3.200422,-10.190693,2.168075,5.030089,-0.192782,0.219833,0.054794,0.000000,0.000000,0.000000,0.000000,0.000000,0.000000
13381121.000000,-0.260725,0.536912,0.334125,-1.449553,-0.186067,1.959612,0.102985,-0.042104,0.373445,-0.056430,-0.640641,-0.180687,1.059086,0.111536,3.101240,-12.539326,2.485458,7.029601,-0.001437,0.336105,0.100570,0.000000,0.000000,0.000000,0.000000,0.000000,0.000000
13381122.000000,-0.260758,0.537257,0.334060,-1.450189,-0.186248,1.960674,0.103109,-0.039820,0.372102,-0.061648,-0.645892,-0.182894,1.053136,0.113773,2.926679,-14.645954,2.830612,9.207640,0.129484,0.681258,0.054794,0.000000,0.000000,0.000000,0.000000,0.000000,0.000000
13381123.000000,-0.260795,0.537598,0.334005,-1.450821,-0.186425,1.961719,0.103225,-0.036084,0.368962,-0.058046,-0.644894,-0.179670,1.073918,0.112352,2.779890,-16.530415,3.001205,11.234922,0.129484,1.045638,0.087753,0.000000,0.000000,0.000000,0.000000,0.000000,0.000000
13381124.000000,-0.260819,0.537957,0.333943,-1.451437,-0.186604,1.962780,0.103348,-0.030541,0.368928,-0.057403,-0.637588,-0.175975,1.070586,0.113705,2.506147,-18.414875,3.247177,12.865477,0.117582,1.227828,0.061202,0.000000,0.000000,0.000000,0.000000,0.000000,0.000000
13381125.000000,-0.260835,0.538310,0.333879,-1.452041,-0.186774,1.963828,0.103469,-0.024994,0.370713,-0.056297,-0.629779,-0.172590,1.053773,0.113848,2.160993,-20.152546,3.469345,14.027891,0.076383,1.513473,0.048385,0.000000,0.000000,0.000000,0.000000,0.000000,0.000000
13381126.000000,-0.260856,0.538680,0.333825,-1.452658,-0.186946,1.964848,0.103583,-0.024090,0.370661,-0.057095,-0.625173,-0.173697,1.038093,0.112757,1.934858,-21.743427,3.493149,15.015745,0.004056,1.779891,0.074935,0.000000,0.000000,0.000000,0.000000,0.000000,0.000000
13381127.000000,-0.260866,0.539073,0.333750,-1.453270,-0.187125,1.965903,0.103713,-0.020129,0.380844,-0.064442,-0.619097,-0.177341,1.038147,0.115666,1.565900,-23.358112,3.786728,15.733824,-0.013339,1.793624,0.001693,0.000000,0.000000,0.000000,0.000000,0.000000,0.000000
13381128.000000,-0.260883,0.539469,0.333682,-1.453878,-0.187314,1.966951,0.103830,-0.020874,0.386572,-0.063547,-0.612745,-0.179705,1.037204,0.112684,1.343732,-24.877583,3.957321,16.078978,0.076383,1.747848,0.061202,0.000000,0.000000,0.000000,0.000000,0.000000,0.000000
13381129.000000,-0.260899,0.539895,0.333600,-1.454465,-0.187508,1.967978,0.103956,-0.019358,0.398277,-0.071889,-0.601202,-0.183666,1.042770,0.113668,1.169172,-26.444660,4.254868,16.178160,0.135892,1.637069,0.041976,0.000000,0.000000,0.000000,0.000000,0.000000,0.000000
13381130.000000,-0.260909,0.540336,0.333524,-1.455069,-0.187712,1.969015,0.104080,-0.017424,0.408285,-0.071710,-0.598557,-0.185978,1.038117,0.117811,0.970807,-27.912556,4.401657,16.201963,0.231107,1.565658,0.048385,0.000000,0.000000,0.000000,0.000000,0.000000,0.000000
13381131.000000,-0.260913,0.540780,0.333452,-1.455677,-0.187920,1.970028,0.104205,-0.014226,0.422680,-0.069420,-0.593954,-0.186930,1.036956,0.116739,0.697065,-29.309040,4.449265,16.201963,0.339139,1.487838,0.048385,0.000000,0.000000,0.000000,0.000000,0.000000,0.000000
13381132.000000,-0.260908,0.541239,0.333372,-1.456269,-0.188120,1.971059,0.104323,-0.006552,0.431555,-0.070349,-0.595506,-0.187155,1.033154,0.113793,0.328107,-30.578571,4.596054,16.102781,0.344633,1.467696,0.107894,0.000000,0.000000,0.000000,0.000000,0.000000,0.000000
13381133.000000,-0.260901,0.541689,0.333301,-1.456868,-0.188313,1.972100,0.104451,-0.004773,0.438233,-0.071190,-0.590538,-0.186290,1.032397,0.118533,-0.017047,-31.657673,4.619858,16.027403,0.308927,1.396285,0.107894,0.000000,0.000000,0.000000,0.000000,0.000000,0.000000
13381134.000000,-0.260889,0.542154,0.333233,-1.457463,-0.188503,1.973123,0.104583,-0.000347,0.446170,-0.069993,-0.590724,-0.188023,1.033578,0.120662,-0.366168,-32.586018,4.548447,15.928221,0.189908,1.409103,0.021835,0.000000,0.000000,0.000000,0.000000,0.000000,0.000000
13381135.000000,-0.260867,0.542613,0.333168,-1.458070,-0.188697,1.974141,0.104699,0.004050,0.449089,-0.066161,-0.596807,-0.190363,1.024491,0.120668,-0.762896,-33.347736,4.473068,15.928221,0.112089,1.507064,0.087753,0.000000,0.000000,0.000000,0.000000,0.000000,0.000000
13381136.000000,-0.260848,0.543080,0.333098,-1.458694,-0.188906,1.975148,0.104826,0.009657,0.449059,-0.067203,-0.602766,-0.190886,1.021450,0.120904,-1.131854,-34.129292,4.425461,16.126585,0.123990,1.572067,0.034652,0.000000,0.000000,0.000000,0.000000,0.000000,0.000000
13381137.000000,-0.260831,0.543563,0.333025,-1.459310,-0.189114,1.976168,0.104948,0.009009,0.457956,-0.066156,-0.603616,-0.192261,1.020912,0.121842,-1.429400,-35.010029,4.425461,16.424131,0.166105,1.591293,0.081344,0.000000,0.000000,0.000000,0.000000,0.000000,0.000000
13381138.000000,-0.260824,0.544037,0.332955,-1.459937,-0.189317,1.977187,0.105076,0.007680,0.464421,-0.067907,-0.606458,-0.196352,1.011978,0.124903,-1.552386,-35.672565,4.401657,16.646299,0.231107,1.578475,0.081344,0.000000,0.000000,0.000000,0.000000,0.000000,0.000000
13381139.000000,-0.260822,0.544534,0.332893,-1.460562,-0.189523,1.978197,0.105202,0.004218,0.476295,-0.063869,-0.627323,-0.202327,1.008387,0.126818,-1.552386,-36.529499,4.278671,16.967649,0.320829,1.617843,0.081344,0.000000,0.000000,0.000000,0.000000,0.000000,0.000000
13381140.000000,-0.260814,0.545040,0.332839,-1.461188,-0.189720,1.979210,0.105329,0.003899,0.482242,-0.062465,-0.627461,-0.203452,1.003310,0.122895,-1.627764,-37.386433,4.080307,17.166014,0.356534,1.662704,0.094161,0.000000,0.000000,0.000000,0.000000,0.000000,0.000000
13381141.000000,-0.260805,0.545566,0.332780,-1.461817,-0.189910,1.980214,0.105461,0.003298,0.501558,-0.062629,-0.622661,-0.202530,1.021440,0.122546,-1.679339,-38.513142,3.933517,17.312803,0.279630,1.637069,0.041976,0.000000,0.000000,0.000000,0.000000,0.000000,0.000000
13381142.000000,-0.260794,0.546101,0.332734,-1.462432,-0.190102,1.981250,0.105581,0.006077,0.505579,-0.059653,-0.618086,-0.199731,1.027487,0.118485,-1.726946,-39.465290,3.639938,17.364378,0.171598,1.474105,0.087753,0.000000,0.000000,0.000000,0.000000,0.000000,0.000000
13381143.000000,-0.260786,0.546624,0.332681,-1.463064,-0.190294,1.982266,0.105708,0.006581,0.517896,-0.055414,-0.619915,-0.198623,1.021384,0.122403,-1.703143,-40.199238,3.516952,17.534971,0.076383,1.448470,0.067611,0.000000,0.000000,0.000000,0.000000,0.000000,0.000000
13381144.000000,-0.260782,0.547148,0.332624,-1.463703,-0.190490,1.983278,0.105831,0.006003,0.519022,-0.052734,-0.624559,-0.201701,1.011206,0.124275,-1.627764,-40.810200,3.417770,17.808714,0.088285,1.448470,0.081344,0.000000,0.000000,0.000000,0.000000,0.000000,0.000000
13381145.000000,-0.260780,0.547688,0.332574,-1.464325,-0.190689,1.984290,0.105961,0.002125,0.521467,-0.053817,-0.620089,-0.200947,1.004192,0.126996,-1.528582,-41.425129,3.322555,18.030882,0.141385,1.532699,0.061202,0.000000,0.000000,0.000000,0.000000,0.000000,0.000000
13381146.000000,-0.260779,0.548219,0.332520,-1.464969,-0.190885,1.985305,0.106087,-0.000571,0.523688,-0.052293,-0.621545,-0.200752,1.005351,0.128614,-1.429400,-42.036091,3.270981,18.376036,0.201810,1.617843,0.054794,0.000000,0.000000,0.000000,0.000000,0.000000,0.000000
13381147.000000,-0.260786,0.548743,0.332464,-1.465603,-0.191083,1.986316,0.106213,-0.004772,0.525407,-0.058257,-0.626341,-0.195054,1.006425,0.128733,-1.231036,-42.428852,3.270981,18.721189,0.267728,1.578475,0.074935,0.000000,0.000000,0.000000,0.000000,0.000000,0.000000
13381148.000000,-0.260787,0.549276,0.332413,-1.466251,-0.191277,1.987331,0.106339,-0.005315,0.527183,-0.055527,-0.635045,-0.197941,1.008878,0.128207,-1.131854,-42.746235,3.223373,19.141722,0.261320,1.559249,0.107894,0.000000,0.000000,0.000000,0.000000,0.000000,0.000000
13381149.000000,-0.260795,0.549792,0.332362,-1.466904,-0.191474,1.988326,0.106470,-0.007393,0.523804,-0.052724,-0.635916,-0.195241,1.001356,0.129427,-0.961260,-42.964436,3.147995,19.590025,0.243009,1.597701,0.087753,0.000000,0.000000,0.000000,0.000000,0.000000,0.000000
13381150.000000,-0.260807,0.550326,0.332303,-1.467544,-0.191671,1.989330,0.106600,-0.006946,0.520276,-0.053759,-0.638271,-0.193449,0.994394,0.130589,-0.735125,-43.309589,3.199569,19.982786,0.237516,1.682845,0.081344,0.000000,0.000000,0.000000,0.000000,0.000000,0.000000
13381151.000000,-0.260821,0.550857,0.332240,-1.468184,-0.191860,1.990326,0.106727,-0.008835,0.524586,-0.058288,-0.638593,-0.192133,0.992622,0.125209,-0.540728,-43.626972,3.294784,20.256529,0.201810,1.916305,0.107894,0.000000,0.000000,0.000000,0.000000,0.000000,0.000000
13381152.000000,-0.260832,0.551386,0.332180,-1.468818,-0.192049,1.991308,0.106861,-0.009159,0.525072,-0.060072,-0.640417,-0.188872,0.985875,0.128847,-0.389971,-43.797565,3.322555,20.526304,0.141385,2.066451,0.061202,0.000000,0.000000,0.000000,0.000000,0.000000,0.000000
13381153.000000,-0.260842,0.551922,0.332116,-1.469462,-0.192237,1.992308,0.106984,-0.007677,0.525403,-0.059745,-0.637414,-0.187526,0.986792,0.122998,-0.314593,-43.968159,3.417770,20.871458,0.093778,2.104903,0.120712,0.000000,0.000000,0.000000,0.000000,0.000000,0.000000
13381154.000000,-0.260855,0.552450,0.332043,-1.470109,-0.192427,1.993301,0.107115,-0.006644,0.527978,-0.064729,-0.635131,-0.192504,0.987719,0.125861,-0.243182,-44.214130,3.616134,21.097593,0.046171,2.079269,0.107894,0.000000,0.000000,0.000000,0.000000,0.000000,0.000000
13381155.000000,-0.260869,0.552996,0.331970,-1.470745,-0.192633,1.994298,0.107244,-0.009804,0.533263,-0.070290,-0.637358,-0.194908,0.984500,0.124785,-0.144000,-44.531513,3.762924,21.319761,0.105680,2.027084,0.054794,0.000000,0.000000,0.000000,0.000000,0.000000,0.000000
13381156.000000,-0.260886,0.553526,0.331889,-1.471384,-0.192837,1.995310,0.107367,-0.012807,0.534704,-0.075459,-0.637715,-0.194325,0.990686,0.124817,-0.017047,-44.702106,3.957321,21.418943,0.195402,1.962081,0.094161,0.000000,0.000000,0.000000,0.000000,0.000000,0.000000
13381157.000000,-0.260894,0.554055,0.331800,-1.472008,-0.193042,1.996294,0.107494,-0.011420,0.534218,-0.080941,-0.640911,-0.201347,0.988168,0.123845,-0.044818,-44.801289,4.227097,21.466551,0.303434,1.962081,0.081344,0.000000,0.000000,0.000000,0.000000,0.000000,0.000000
13381158.000000,-0.260910,0.554589,0.331711,-1.472640,-0.193246,1.997285,0.107619,-0.010492,0.526039,-0.081737,-0.636305,-0.205714,0.987494,0.124989,0.054365,-44.825092,4.500839,21.442747,0.381254,2.001449,0.107894,0.000000,0.000000,0.000000,0.000000,0.000000,0.000000
13381159.000000,-0.260923,0.555121,0.331616,-1.473272,-0.193440,1.998266,0.107751,-0.012318,0.528133,-0.085585,-0.631817,-0.205302,0.993142,0.124339,0.129743,-44.900471,4.794418,21.391172,0.339139,1.974899,0.048385,0.000000,0.000000,0.000000,0.000000,0.000000,0.000000
13381160.000000,-0.260928,0.555640,0.331527,-1.473878,-0.193637,1.999260,0.107870,-0.011369,0.523217,-0.086750,-0.626880,-0.202030,0.988218,0.120300,0.105939,-44.753681,5.012619,21.220579,0.243009,1.909896,0.081344,0.000000,0.000000,0.000000,0.000000,0.000000,0.000000
13381161.000000,-0.260931,0.556157,0.331425,-1.474488,-0.193842,2.000250,0.107996,-0.010180,0.520396,-0.088928,-0.615787,-0.206784,0.987312,0.122978,0.054365,-44.606892,5.286362,21.022215,0.201810,2.001449,0.081344,0.000000,0.000000,0.000000,0.000000,0.000000,0.000000
13381162.000000,-0.260937,0.556682,0.331321,-1.475089,-0.194047,2.001225,0.108118,-0.010659,0.520521,-0.092919,-0.605519,-0.200868,0.984710,0.120332,0.054365,-44.507710,5.528366,20.700865,0.159696,2.039901,0.087753,0.000000,0.000000,0.000000,0.000000,0.000000,0.000000
13381163.000000,-0.260949,0.557204,0.331221,-1.475678,-0.194259,2.002219,0.108247,-0.009712,0.515915,-0.094331,-0.599277,-0.207975,0.988501,0.120197,0.129743,-44.384724,5.702927,20.427122,0.166105,2.039901,0.041976,0.000000,0.000000,0.000000,0.000000,0.000000,0.000000
13381164.000000,-0.260958,0.557715,0.331119,-1.476270,-0.194467,2.003224,0.108371,-0.008869,0.515179,-0.094709,-0.601003,-0.205269,0.991888,0.122919,0.205121,-44.166523,5.849716,20.204954,0.201810,2.020675,0.048385,0.000000,0.000000,0.000000,0.000000,0.000000,0.000000
13381165.000000,-0.260965,0.558227,0.331009,-1.476841,-0.194680,2.004227,0.108487,-0.007500,0.515656,-0.102065,-0.587601,-0.207881,0.991368,0.124494,0.252729,-43.944355,6.044113,19.958982,0.261320,1.838485,0.067611,0.000000,0.000000,0.000000,0.000000,0.000000,0.000000
13381166.000000,-0.260969,0.558745,0.330900,-1.477419,-0.194896,2.005254,0.108614,-0.005356,0.515436,-0.104654,-0.582574,-0.209214,0.994609,0.126871,0.252729,-43.872944,6.218674,19.784422,0.297025,1.643478,0.048385,0.000000,0.000000,0.000000,0.000000,0.000000,0.000000
13381167.000000,-0.260974,0.559262,0.330792,-1.477987,-0.195115,2.006245,0.108731,-0.004394,0.517018,-0.108349,-0.573271,-0.215681,0.999832,0.121055,0.276533,-43.773762,6.341660,19.514647,0.308927,1.662704,0.120712,0.000000,0.000000,0.000000,0.000000,0.000000,0.000000
13381168.000000,-0.260984,0.559785,0.330684,-1.478527,-0.195333,2.007246,0.108871,-0.005449,0.514935,-0.108267,-0.564428,-0.214978,1.001830,0.126954,0.375715,-43.702351,6.460678,19.169493,0.320829,1.727706,0.041976,0.000000,0.000000,0.000000,0.000000,0.000000,0.000000
13381169.000000,-0.260985,0.560296,0.330582,-1.479072,-0.195549,2.008255,0.108994,-0.003783,0.504422,-0.105367,-0.556177,-0.218130,1.005991,0.125635,0.375715,-43.626972,6.460678,18.919554,0.320829,1.741439,0.107894,0.000000,0.000000,0.000000,0.000000,0.000000,0.000000
13381170.000000,-0.260991,0.560822,0.330475,-1.479610,-0.195759,2.009253,0.109121,-0.003841,0.512349,-0.108024,-0.558931,-0.214267,1.000477,0.124171,0.427289,-43.527790,6.512253,18.748960,0.297025,1.721298,0.100570,0.000000,0.000000,0.000000,0.000000,0.000000,0.000000
13381171.000000,-0.260992,0.561347,0.330379,-1.480147,-0.195956,2.010267,0.109253,-0.002645,0.513877,-0.103900,-0.552423,-0.209067,0.993881,0.127440,0.427289,-43.527790,6.436874,18.625975,0.195402,1.702071,0.067611,0.000000,0.000000,0.000000,0.000000,0.000000,0.000000
13381172.000000,-0.260990,0.561864,0.330284,-1.480694,-0.196169,2.011275,0.109384,-0.001270,0.512915,-0.100448,-0.549087,-0.214075,0.996730,0.128157,0.403486,-43.579365,6.341660,18.697386,0.171598,1.682845,0.081344,0.000000,0.000000,0.000000,0.000000,0.000000,0.000000
13381173.000000,-0.260992,0.562410,0.330186,-1.481222,-0.196382,2.012287,0.109517,-0.001451,0.529307,-0.099929,-0.544603,-0.211563,0.999834,0.131167,0.427289,-43.849140,6.313889,18.697386,0.141385,1.747848,0.028243,0.000000,0.000000,0.000000,0.000000,0.000000,0.000000
13381174.000000,-0.260999,0.562938,0.330090,-1.481761,-0.196588,2.013296,0.109640,-0.003880,0.530001,-0.098512,-0.541247,-0.207995,0.997642,0.129577,0.550275,-44.019733,6.242477,18.895750,0.171598,1.819259,0.081344,0.000000,0.000000,0.000000,0.000000,0.000000,0.000000
13381175.000000,-0.261000,0.563474,0.329992,-1.482302,-0.196803,2.014291,0.109771,-0.003170,0.526911,-0.099108,-0.550411,-0.205440,1.004507,0.130828,0.574079,-44.190327,6.242477,19.169493,0.231107,1.812850,0.067611,0.000000,0.000000,0.000000,0.000000,0.000000,0.000000
13381176.000000,-0.261001,0.564016,0.329903,-1.482845,-0.197011,2.015296,0.109897,0.002945,0.533980,-0.098508,-0.549526,-0.206223,0.993467,0.130174,0.625654,-44.360920,6.190903,19.538450,0.243009,1.786300,0.094161,0.000000,0.000000,0.000000,0.000000,0.000000,0.000000
13381177.000000,-0.261003,0.564550,0.329816,-1.483399,-0.197217,2.016288,0.110031,0.001358,0.533061,-0.094212,-0.545947,-0.211752,0.991485,0.131200,0.673261,-44.531513,6.119492,19.958982,0.261320,1.793624,0.081344,0.000000,0.000000,0.000000,0.000000,0.000000,0.000000
13381178.000000,-0.261007,0.565093,0.329734,-1.483942,-0.197433,2.017282,0.110161,0.000081,0.530029,-0.086947,-0.543612,-0.215459,0.990770,0.131507,0.724836,-44.654499,5.996506,20.256529,0.273221,1.890670,0.081344,0.000000,0.000000,0.000000,0.000000,0.000000,0.000000
13381179.000000,-0.261003,0.565649,0.329653,-1.484492,-0.197646,2.018260,0.110290,0.000989,0.540141,-0.084754,-0.546819,-0.213460,0.981726,0.126289,0.697065,-44.971882,5.873520,20.526304,0.255826,2.060043,0.094161,0.000000,0.000000,0.000000,0.000000,0.000000,0.000000
13381180.000000,-0.261000,0.566191,0.329576,-1.485054,-0.197851,2.019227,0.110421,0.001431,0.543658,-0.082521,-0.549240,-0.211281,0.982376,0.129643,0.673261,-45.146442,5.726730,20.899229,0.189908,2.183639,0.048385,0.000000,0.000000,0.000000,0.000000,0.000000,0.000000
13381181.000000,-0.260994,0.566738,0.329498,-1.485603,-0.198062,2.020222,0.110550,0.002229,0.540945,-0.076469,-0.551980,-0.215153,0.977514,0.129139,0.625654,-45.265461,5.651352,21.169004,0.183500,2.066451,0.074935,0.000000,0.000000,0.000000,0.000000,0.000000,0.000000
13381182.000000,-0.260986,0.567273,0.329417,-1.486166,-0.198266,2.021211,0.110680,0.006501,0.544547,-0.078603,-0.556956,-0.208630,0.976343,0.129956,0.550275,-45.317036,5.603745,21.514158,0.147794,2.007858,0.074935,0.000000,0.000000,0.000000,0.000000,0.000000,0.000000
13381183.000000,-0.260980,0.567816,0.329340,-1.486720,-0.198485,2.022184,0.110803,0.005799,0.543067,-0.079198,-0.554671,-0.215105,0.977598,0.129333,0.502668,-45.340839,5.528366,21.811705,0.201810,2.014266,0.107894,0.000000,0.000000,0.000000,0.000000,0.000000,0.000000
13381184.000000,-0.260974,0.568377,0.329260,-1.487275,-0.198708,2.023154,0.110937,0.007241,0.548574,-0.078134,-0.553178,-0.218168,0.969305,0.127182,0.502668,-45.487629,5.504562,21.962461,0.279630,2.072860,0.054794,0.000000,0.000000,0.000000,0.000000,0.000000,0.000000
13381185.000000,-0.260961,0.568911,0.329182,-1.487837,-0.198938,2.024110,0.111062,0.010116,0.550799,-0.076533,-0.558613,-0.225322,0.969790,0.126164,0.427289,-45.412251,5.456955,22.133055,0.374845,2.150680,0.094161,0.000000,0.000000,0.000000,0.000000,0.000000,0.000000
13381186.000000,-0.260955,0.569449,0.329104,-1.488385,-0.199163,2.025086,0.111195,0.009396,0.541258,-0.076604,-0.551693,-0.222356,0.964147,0.127202,0.474897,-45.293232,5.456955,22.232237,0.422452,2.150680,0.120712,0.000000,0.000000,0.000000,0.000000,0.000000,0.000000
13381187.000000,-0.260937,0.569974,0.329026,-1.488945,-0.199377,2.026079,0.111337,0.013004,0.535296,-0.075844,-0.550184,-0.218449,0.969125,0.126256,0.351911,-45.047260,5.433151,22.382994,0.393156,2.039901,0.054794,0.000000,0.000000,0.000000,0.000000,0.000000,0.000000
13381188.000000,-0.260917,0.570503,0.328947,-1.489496,-0.199590,2.027052,0.111464,0.015513,0.535538,-0.075943,-0.564715,-0.213287,0.969235,0.125222,0.228925,-44.852863,5.433151,22.505980,0.339139,2.007858,0.120712,0.000000,0.000000,0.000000,0.000000,0.000000,0.000000
13381189.000000,-0.260896,0.571031,0.328873,-1.490045,-0.199806,2.028020,0.111603,0.017854,0.528777,-0.074733,-0.552582,-0.217721,0.968890,0.130288,0.078168,-44.606892,5.381577,22.553587,0.273221,2.072860,0.048385,0.000000,0.000000,0.000000,0.000000,0.000000,0.000000
13381190.000000,-0.260878,0.571559,0.328792,-1.490584,-0.200033,2.028965,0.111739,0.015686,0.522883,-0.075506,-0.543491,-0.220897,0.967528,0.130365,-0.044818,-44.436298,5.405380,22.454405,0.261320,2.215682,0.054794,0.000000,0.000000,0.000000,0.000000,0.000000,0.000000
13381191.000000,-0.260857,0.572095,0.328719,-1.491126,-0.200259,2.029921,0.111867,0.017169,0.529978,-0.077031,-0.548726,-0.218885,0.956898,0.128641,-0.167803,-44.384724,5.333969,22.577391,0.291532,2.391464,0.114303,0.000000,0.000000,0.000000,0.000000,0.000000,0.000000
13381192.000000,-0.260841,0.572605,0.328639,-1.491669,-0.200482,2.030898,0.112005,0.016440,0.523608,-0.077390,-0.541266,-0.222590,0.953657,0.126900,-0.215411,-44.043537,5.357773,22.676573,0.339139,2.417098,0.054794,0.000000,0.000000,0.000000,0.000000,0.000000,0.000000
13381193.000000,-0.260820,0.573129,0.328558,-1.492217,-0.200707,2.031875,0.112130,0.021635,0.527654,-0.076383,-0.539265,-0.229976,0.956777,0.122917,-0.366168,-43.749958,5.333969,22.874937,0.356534,2.287093,0.100570,0.000000,0.000000,0.000000,0.000000,0.000000,0.000000
13381194.000000,-0.260796,0.573648,0.328480,-1.492751,-0.200932,2.032866,0.112264,0.022177,0.527790,-0.075662,-0.542609,-0.235416,0.962452,0.126636,-0.512957,-43.432575,5.310165,23.025694,0.356534,2.131454,0.061202,0.000000,0.000000,0.000000,0.000000,0.000000,0.000000
13381195.000000,-0.260777,0.574182,0.328401,-1.493280,-0.201164,2.033822,0.112392,0.020284,0.529788,-0.077417,-0.532221,-0.235590,0.963795,0.125521,-0.564532,-43.432575,5.258591,23.073301,0.393156,2.104903,0.127120,0.000000,0.000000,0.000000,0.000000,0.000000,0.000000
13381196.000000,-0.260756,0.574733,0.328330,-1.493801,-0.201399,2.034770,0.112535,0.019444,0.536428,-0.075023,-0.526584,-0.234635,0.952016,0.130071,-0.635943,-43.579365,5.187180,23.172483,0.416959,2.280685,0.054794,0.000000,0.000000,0.000000,0.000000,0.000000,0.000000
13381197.000000,-0.260731,0.575285,0.328254,-1.494312,-0.201632,2.035731,0.112665,0.022594,0.542535,-0.074156,-0.519581,-0.233103,0.944184,0.133426,-0.735125,-43.773762,5.135605,23.172483,0.434354,2.397872,0.094161,0.000000,0.000000,0.000000,0.000000,0.000000,0.000000
13381198.000000,-0.260709,0.575827,0.328177,-1.494825,-0.201863,2.036685,0.112799,0.023753,0.542992,-0.074148,-0.514315,-0.232171,0.948804,0.133246,-0.786700,-43.944355,5.111801,23.148680,0.410551,2.430831,0.094161,0.000000,0.000000,0.000000,0.000000,0.000000,0.000000
13381199.000000,-0.260684,0.576371,0.328106,-1.495337,-0.202092,2.037666,0.112938,0.025372,0.541590,-0.072365,-0.515388,-0.229939,0.958452,0.134541,-0.862078,-43.944355,5.012619,23.319273,0.386747,2.255050,0.054794,0.000000,0.000000,0.000000,0.000000,0.000000,0.000000
13381200.000000,-0.260672,0.576900,0.328028,-1.495850,-0.202321,2.038644,0.113071,0.022536,0.540520,-0.072761,-0.508472,-0.232995,0.953131,0.132387,-0.762896,-43.896748,4.988815,23.493834,0.344633,2.144271,0.094161,0.000000,0.000000,0.000000,0.000000,0.000000,0.000000
13381201.000000,-0.260651,0.577436,0.327951,-1.496357,-0.202564,2.039591,0.113208,0.023074,0.530459,-0.076337,-0.508109,-0.238637,0.953139,0.129446,-0.762896,-43.749958,4.965012,23.569212,0.393156,2.215682,0.048385,0.000000,0.000000,0.000000,0.000000,0.000000,0.000000
13381202.000000,-0.260638,0.577978,0.327880,-1.496859,-0.202800,2.040550,0.113339,0.017399,0.533315,-0.073995,-0.506041,-0.235858,0.945275,0.128766,-0.635943,-43.626972,4.865829,23.541441,0.452665,2.287093,0.074935,0.000000,0.000000,0.000000,0.000000,0.000000,0.000000
13381203.000000,-0.260622,0.578507,0.327806,-1.497354,-0.203039,2.041493,0.113471,0.017298,0.538858,-0.076021,-0.500607,-0.237221,0.951332,0.128942,-0.540728,-43.480183,4.794418,23.370848,0.506681,2.397872,0.094161,0.000000,0.000000,0.000000,0.000000,0.000000,0.000000
13381204.000000,-0.260600,0.579048,0.327733,-1.497844,-0.203265,2.042446,0.113611,0.017006,0.530561,-0.073913,-0.501635,-0.227817,0.951979,0.130812,-0.564532,-43.381001,4.695236,23.247862,0.458158,2.489425,0.067611,0.000000,0.000000,0.000000,0.000000,0.000000,0.000000
13381205.000000,-0.260582,0.579579,0.327656,-1.498334,-0.203482,2.043433,0.113750,0.018579,0.533428,-0.076713,-0.492799,-0.224625,0.957189,0.130122,-0.540728,-43.210407,4.647629,23.148680,0.369352,2.307235,0.087753,0.000000,0.000000,0.000000,0.000000,0.000000,0.000000
13381206.000000,-0.260572,0.580110,0.327586,-1.498810,-0.203708,2.044414,0.113891,0.017426,0.535291,-0.074469,-0.495392,-0.226394,0.967492,0.131943,-0.413775,-43.039814,4.548447,22.997923,0.285123,2.079269,0.054794,0.000000,0.000000,0.000000,0.000000,0.000000,0.000000
13381207.000000,-0.260563,0.580655,0.327514,-1.499282,-0.203932,2.045390,0.114025,0.013104,0.532007,-0.074139,-0.488723,-0.229854,0.966268,0.135757,-0.266986,-42.940632,4.500839,22.751951,0.273221,2.027084,0.087753,0.000000,0.000000,0.000000,0.000000,0.000000,0.000000
13381208.000000,-0.260549,0.581196,0.327438,-1.499752,-0.204160,2.046341,0.114169,0.011172,0.527351,-0.074646,-0.479318,-0.227611,0.985826,0.135424,-0.167803,-42.869221,4.500839,22.454405,0.327238,2.072860,0.074935,0.000000,0.000000,0.000000,0.000000,0.000000,0.000000
13381209.000000,-0.260547,0.581726,0.327365,-1.500209,-0.204394,2.047296,0.114303,0.009990,0.526929,-0.073872,-0.475262,-0.230532,0.975274,0.133957,0.054365,-42.599445,4.449265,22.232237,0.410551,2.215682,0.094161,0.000000,0.000000,0.000000,0.000000,0.000000,0.000000
13381210.000000,-0.260535,0.582247,0.327285,-1.500656,-0.204620,2.048267,0.114444,0.009624,0.529981,-0.075090,-0.461371,-0.230591,0.964088,0.134058,0.129743,-42.258259,4.473068,21.863279,0.446256,2.280685,0.074935,0.000000,0.000000,0.000000,0.000000,0.000000,0.000000
13381211.000000,-0.260526,0.582770,0.327205,-1.501111,-0.204851,2.049240,0.114578,0.008712,0.533597,-0.075286,-0.457819,-0.227275,0.967538,0.135791,0.228925,-41.865498,4.473068,21.613340,0.393156,2.183639,0.054794,0.000000,0.000000,0.000000,0.000000,0.000000,0.000000
13381212.000000,-0.260512,0.583288,0.327128,-1.501557,-0.205072,2.050235,0.114712,0.009765,0.529766,-0.075446,-0.453966,-0.223518,0.975230,0.133838,0.252729,-41.448933,4.473068,21.442747,0.291532,2.047225,0.081344,0.000000,0.000000,0.000000,0.000000,0.000000,0.000000
13381213.000000,-0.260496,0.583792,0.327055,-1.501995,-0.205288,2.051228,0.114852,0.010932,0.519882,-0.076233,-0.444931,-0.222704,0.979192,0.133920,0.252729,-40.956989,4.377853,21.169004,0.213712,1.968490,0.067611,0.000000,0.000000,0.000000,0.000000,0.000000,0.000000
13381214.000000,-0.260486,0.584312,0.326970,-1.502416,-0.205509,2.052186,0.114990,0.008789,0.518749,-0.080642,-0.434915,-0.219516,0.973052,0.133254,0.375715,-40.615803,4.449265,20.871458,0.207303,2.020675,0.074935,0.000000,0.000000,0.000000,0.000000,0.000000,0.000000
13381215.000000,-0.260475,0.584829,0.326889,-1.502839,-0.205730,2.053152,0.115131,0.008944,0.518512,-0.079904,-0.427736,-0.219550,0.965728,0.133530,0.427289,-40.274616,4.473068,20.577879,0.267728,2.118636,0.054794,0.000000,0.000000,0.000000,0.000000,0.000000,0.000000
13381216.000000,-0.260460,0.585340,0.326800,-1.503253,-0.205954,2.054115,0.115263,0.010177,0.514362,-0.081047,-0.423394,-0.223800,0.970081,0.131713,0.427289,-39.905659,4.572250,20.327940,0.285123,2.131454,0.094161,0.000000,0.000000,0.000000,0.000000,0.000000,0.000000
13381217.000000,-0.260449,0.585851,0.326714,-1.503656,-0.206184,2.055096,0.115406,0.009273,0.511069,-0.084329,-0.417414,-0.224958,0.971581,0.133737,0.502668,-39.417683,4.647629,20.105772,0.279630,2.039901,0.048385,0.000000,0.000000,0.000000,0.000000,0.000000,0.000000
13381218.000000,-0.260428,0.586339,0.326627,-1.504063,-0.206411,2.056077,0.115547,0.011648,0.500991,-0.083360,-0.412605,-0.221210,0.977383,0.133914,0.451093,-38.806721,4.719040,19.911375,0.285123,1.962081,0.028243,0.000000,0.000000,0.000000,0.000000,0.000000,0.000000
13381219.000000,-0.260413,0.586849,0.326540,-1.504449,-0.206631,2.057027,0.115673,0.014583,0.502286,-0.084806,-0.404042,-0.220070,0.973205,0.135215,0.474897,-38.390156,4.742844,19.590025,0.231107,1.962081,0.107894,0.000000,0.000000,0.000000,0.000000,0.000000,0.000000
13381220.000000,-0.260395,0.587367,0.326458,-1.504835,-0.206852,2.057993,0.115819,0.014727,0.505422,-0.081639,-0.401962,-0.219219,0.961683,0.136854,0.451093,-38.144184,4.719040,19.316282,0.219205,2.014266,0.041976,0.000000,0.000000,0.000000,0.000000,0.000000,0.000000
13381221.000000,-0.260371,0.587884,0.326367,-1.505217,-0.207075,2.058950,0.115953,0.015973,0.502695,-0.081038,-0.393683,-0.221630,0.958927,0.138834,0.375715,-38.045002,4.770615,19.018736,0.207303,1.981307,0.081344,0.000000,0.000000,0.000000,0.000000,0.000000,0.000000
13381222.000000,-0.260349,0.588413,0.326277,-1.505596,-0.207306,2.059929,0.116099,0.018713,0.505641,-0.083758,-0.393028,-0.221960,0.968536,0.143388,0.351911,-37.997395,4.818222,18.820372,0.178007,1.877853,0.041976,0.000000,0.000000,0.000000,0.000000,0.000000,0.000000
13381223.000000,-0.260322,0.588922,0.326190,-1.505974,-0.207533,2.060903,0.116247,0.022448,0.511189,-0.087132,-0.385733,-0.225072,0.969045,0.145476,0.252729,-37.802998,4.794418,18.649778,0.195402,1.819259,0.028243,0.000000,0.000000,0.000000,0.000000,0.000000,0.000000
13381224.000000,-0.260297,0.589448,0.326090,-1.506346,-0.207764,2.061864,0.116390,0.023935,0.518850,-0.089624,-0.390803,-0.221071,0.966045,0.146075,0.205121,-37.751423,4.893600,18.598204,0.213712,1.741439,0.048385,0.000000,0.000000,0.000000,0.000000,0.000000,0.000000
13381225.000000,-0.260275,0.589981,0.325999,-1.506714,-0.207994,2.062842,0.116528,0.023930,0.522862,-0.092117,-0.382365,-0.225123,0.964571,0.145908,0.205121,-37.628437,4.893600,18.475218,0.273221,1.714889,0.100570,0.000000,0.000000,0.000000,0.000000,0.000000,0.000000
13381226.000000,-0.260249,0.590500,0.325907,-1.507079,-0.208226,2.063792,0.116674,0.025251,0.522316,-0.093905,-0.377276,-0.221997,0.980827,0.143280,0.153547,-37.509418,4.893600,18.427610,0.315336,1.760665,0.081344,0.000000,0.000000,0.000000,0.000000,0.000000,0.000000
13381227.000000,-0.260221,0.591024,0.325815,-1.507438,-0.208457,2.064762,0.116823,0.026759,0.519630,-0.095959,-0.372148,-0.225817,0.986670,0.142317,0.078168,-37.334858,4.917404,18.304625,0.273221,1.735030,0.034652,0.000000,0.000000,0.000000,0.000000,0.000000,0.000000
13381228.000000,-0.260197,0.591561,0.325728,-1.507801,-0.208695,2.065724,0.116958,0.026025,0.536997,-0.092030,-0.368032,-0.231096,0.974116,0.141000,0.078168,-37.287251,4.842026,18.328428,0.267728,1.754256,0.114303,0.000000,0.000000,0.000000,0.000000,0.000000,0.000000
13381229.000000,-0.260166,0.592096,0.325641,-1.508164,-0.208931,2.066673,0.117102,0.029880,0.540354,-0.088710,-0.364998,-0.228752,0.965693,0.142564,0.030561,-37.362629,4.742844,18.352232,0.237516,1.779891,0.054794,0.000000,0.000000,0.000000,0.000000,0.000000,0.000000
13381230.000000,-0.260138,0.592641,0.325553,-1.508509,-0.209162,2.067636,0.117245,0.029039,0.540597,-0.087676,-0.359638,-0.227417,0.962634,0.140092,0.006757,-37.509418,4.695236,18.253050,0.195402,1.800033,0.048385,0.000000,0.000000,0.000000,0.000000,0.000000,0.000000
13381231.000000,-0.260109,0.593195,0.325468,-1.508860,-0.209394,2.068591,0.117388,0.028400,0.551414,-0.085490,-0.358874,-0.228167,0.960139,0.137113,-0.017047,-37.703815,4.596054,18.177671,0.213712,1.884261,0.074935,0.000000,0.000000,0.000000,0.000000,0.000000,0.000000
13381232.000000,-0.260082,0.593744,0.325380,-1.509211,-0.209625,2.069528,0.117531,0.027429,0.549701,-0.084344,-0.355054,-0.230386,0.957500,0.136462,-0.017047,-37.775227,4.524643,18.078489,0.141385,1.981307,0.061202,0.000000,0.000000,0.000000,0.000000,0.000000,0.000000
13381233.000000,-0.260053,0.594301,0.325295,-1.509559,-0.209862,2.070493,0.117671,0.027344,0.551271,-0.083814,-0.349998,-0.232207,0.946438,0.138869,-0.044818,-37.802998,4.449265,18.007078,0.117582,1.897079,0.087753,0.000000,0.000000,0.000000,0.000000,0.000000,0.000000
13381234.000000,-0.260026,0.594854,0.325201,-1.509907,-0.210105,2.071457,0.117814,0.028942,0.550693,-0.088886,-0.347352,-0.235115,0.956537,0.142221,-0.017047,-37.775227,4.473068,17.856321,0.178007,1.747848,0.061202,0.000000,0.000000,0.000000,0.000000,0.000000,0.000000
13381235.000000,-0.259999,0.595419,0.325113,-1.510248,-0.210345,2.072422,0.117955,0.026840,0.553138,-0.088902,-0.343287,-0.238191,0.956690,0.143896,0.030561,-37.898212,4.473068,17.733335,0.189908,1.656295,0.074935,0.000000,0.000000,0.000000,0.000000,0.000000,0.000000
13381236.000000,-0.259978,0.595977,0.325029,-1.510588,-0.210580,2.073380,0.118099,0.023576,0.546994,-0.086997,-0.339735,-0.238302,0.957919,0.140892,0.153547,-38.021198,4.401657,17.487364,0.243009,1.656295,0.074935,0.000000,0.000000,0.000000,0.000000,0.000000,0.000000
13381237.000000,-0.259952,0.596559,0.324947,-1.510926,-0.210819,2.074319,0.118233,0.023071,0.558474,-0.085812,-0.337639,-0.240414,0.949670,0.137879,0.205121,-38.267170,4.326279,17.364378,0.261320,1.656295,0.100570,0.000000,0.000000,0.000000,0.000000,0.000000,0.000000
13381238.000000,-0.259924,0.597141,0.324860,-1.511266,-0.211051,2.075278,0.118376,0.026955,0.562260,-0.086145,-0.336190,-0.242706,0.941941,0.142463,0.205121,-38.513142,4.302475,17.241392,0.207303,1.624252,0.061202,0.000000,0.000000,0.000000,0.000000,0.000000,0.000000
13381239.000000,-0.259891,0.597719,0.324774,-1.511600,-0.211286,2.076226,0.118522,0.027904,0.560638,-0.085547,-0.333473,-0.243746,0.949972,0.140037,0.153547,-38.778950,4.254868,17.066832,0.166105,1.539108,0.054794,0.000000,0.000000,0.000000,0.000000,0.000000,0.000000
13381240.000000,-0.259864,0.598301,0.324685,-1.511935,-0.211519,2.077182,0.118663,0.029185,0.563671,-0.086988,-0.338768,-0.237601,0.949581,0.141801,0.205121,-38.925739,4.278671,17.043028,0.105680,1.500655,0.081344,0.000000,0.000000,0.000000,0.000000,0.000000,0.000000
13381241.000000,-0.259839,0.598873,0.324598,-1.512278,-0.211748,2.078126,0.118813,0.026564,0.567220,-0.083620,-0.337488,-0.228091,0.945349,0.140695,0.276533,-38.953510,4.254868,16.991453,0.100187,1.559249,0.061202,0.000000,0.000000,0.000000,0.000000,0.000000,0.000000
13381242.000000,-0.259808,0.599451,0.324503,-1.512612,-0.211984,2.079046,0.118954,0.029598,0.572871,-0.085928,-0.341597,-0.232922,0.936453,0.142099,0.276533,-38.953510,4.302475,16.943846,0.117582,1.676437,0.094161,0.000000,0.000000,0.000000,0.000000,0.000000,0.000000
13381243.000000,-0.259780,0.600047,0.324408,-1.512941,-0.212225,2.079998,0.119106,0.030598,0.571525,-0.090712,-0.338641,-0.237484,0.933257,0.146079,0.328107,-39.124104,4.350082,16.820860,0.147794,1.637069,0.054794,0.000000,0.000000,0.000000,0.000000,0.000000,0.000000
13381244.000000,-0.259754,0.600641,0.324312,-1.513276,-0.212462,2.080926,0.119251,0.028349,0.578129,-0.091418,-0.337559,-0.240239,0.930581,0.142011,0.375715,-39.366108,4.425461,16.769285,0.135892,1.676437,0.081344,0.000000,0.000000,0.000000,0.000000,0.000000,0.000000
13381245.000000,-0.259726,0.601245,0.324219,-1.513614,-0.212698,2.081880,0.119399,0.029722,0.586626,-0.087711,-0.340554,-0.236375,0.936868,0.140608,0.427289,-39.659687,4.449265,16.844664,0.129484,1.611434,0.054794,0.000000,0.000000,0.000000,0.000000,0.000000,0.000000
13381246.000000,-0.259696,0.601857,0.324123,-1.513947,-0.212930,2.082838,0.119546,0.031324,0.589592,-0.088797,-0.338391,-0.233841,0.934575,0.143601,0.451093,-39.929462,4.500839,16.769285,0.129484,1.467696,0.034652,0.000000,0.000000,0.000000,0.000000,0.000000,0.000000
13381247.000000,-0.259670,0.602457,0.324025,-1.514280,-0.213163,2.083783,0.119686,0.028767,0.590130,-0.089446,-0.332899,-0.238873,0.940514,0.143259,0.502668,-40.127827,4.548447,16.769285,0.123990,1.370651,0.094161,0.000000,0.000000,0.000000,0.000000,0.000000,0.000000
13381248.000000,-0.259640,0.603053,0.323920,-1.514598,-0.213411,2.084725,0.119842,0.030688,0.593999,-0.094329,-0.330866,-0.240414,0.933295,0.146852,0.526471,-40.076252,4.647629,16.598692,0.123990,1.416427,0.054794,0.000000,0.000000,0.000000,0.000000,0.000000,0.000000
13381249.000000,-0.259609,0.603640,0.323813,-1.514929,-0.213656,2.085659,0.119991,0.032610,0.584404,-0.101361,-0.326471,-0.243479,0.933957,0.146552,0.526471,-40.028645,4.770615,16.598692,0.147794,1.487838,0.087753,0.000000,0.000000,0.000000,0.000000,0.000000,0.000000
13381250.000000,-0.259582,0.604242,0.323707,-1.515250,-0.213901,2.086575,0.120137,0.032242,0.586619,-0.105488,-0.325146,-0.244059,0.921989,0.147493,0.601850,-40.076252,4.865829,16.523314,0.166105,1.624252,0.094161,0.000000,0.000000,0.000000,0.000000,0.000000,0.000000
13381251.000000,-0.259552,0.604855,0.323599,-1.515580,-0.214135,2.087506,0.120294,0.033236,0.588473,-0.105495,-0.323002,-0.242966,0.918176,0.150188,0.625654,-40.127827,4.941208,16.523314,0.129484,1.702071,0.041976,0.000000,0.000000,0.000000,0.000000,0.000000,0.000000
13381252.000000,-0.259520,0.605453,0.323487,-1.515907,-0.214379,2.088443,0.120440,0.031848,0.593372,-0.105978,-0.321954,-0.244676,0.923578,0.145434,0.601850,-40.175434,5.040390,16.570921,0.112089,1.611434,0.048385,0.000000,0.000000,0.000000,0.000000,0.000000,0.000000
13381253.000000,-0.259494,0.606048,0.323381,-1.516236,-0.214630,2.089399,0.120584,0.028569,0.594982,-0.105787,-0.326308,-0.248767,0.939012,0.145482,0.673261,-40.052448,5.111801,16.697874,0.081876,1.481429,0.081344,0.000000,0.000000,0.000000,0.000000,0.000000,0.000000
13381254.000000,-0.259466,0.606644,0.323265,-1.516567,-0.214881,2.090330,0.120728,0.029294,0.592547,-0.107361,-0.325156,-0.241727,0.938034,0.145654,0.748639,-39.981037,5.258591,16.820860,0.081876,1.532699,0.114303,0.000000,0.000000,0.000000,0.000000,0.000000,0.000000
13381255.000000,-0.259429,0.607256,0.323157,-1.516889,-0.215133,2.091250,0.120884,0.032898,0.603436,-0.108902,-0.333746,-0.243864,0.927136,0.150703,0.697065,-39.981037,5.286362,16.868467,0.129484,1.624252,0.021835,0.000000,0.000000,0.000000,0.000000,0.000000,0.000000
13381256.000000,-0.259401,0.607859,0.323043,-1.517218,-0.215378,2.092170,0.121029,0.032903,0.606475,-0.111695,-0.329759,-0.246680,0.914801,0.148453,0.748639,-39.810444,5.381577,16.920042,0.159696,1.767074,0.074935,0.000000,0.000000,0.000000,0.000000,0.000000,0.000000
13381257.000000,-0.259367,0.608447,0.322925,-1.517542,-0.215627,2.093082,0.121184,0.034251,0.601786,-0.113565,-0.326994,-0.248640,0.918294,0.149897,0.748639,-39.588276,5.480759,16.991453,0.183500,1.773483,0.054794,0.000000,0.000000,0.000000,0.000000,0.000000,0.000000
13381258.000000,-0.259329,0.609049,0.322803,-1.517872,-0.215882,2.094007,0.121331,0.033834,0.595177,-0.118925,-0.330193,-0.247942,0.922947,0.145704,0.673261,-39.441486,5.603745,17.142210,0.154203,1.735030,0.048385,0.000000,0.000000,0.000000,0.000000,0.000000,0.000000
13381259.000000,-0.259294,0.609649,0.322687,-1.518193,-0.216133,2.094937,0.121477,0.034656,0.607328,-0.114252,-0.325479,-0.242340,0.915198,0.145986,0.673261,-39.318501,5.627548,17.166014,0.141385,1.708480,0.067611,0.000000,0.000000,0.000000,0.000000,0.000000,0.000000
13381260.000000,-0.259265,0.610250,0.322574,-1.518520,-0.216386,2.095844,0.121627,0.034176,0.607901,-0.109842,-0.331879,-0.243669,0.917589,0.148988,0.724836,-39.195515,5.603745,17.265196,0.166105,1.735030,0.021835,0.000000,0.000000,0.000000,0.000000,0.000000,0.000000
13381261.000000,-0.259234,0.610854,0.322457,-1.518845,-0.216631,2.096763,0.121767,0.030884,0.604671,-0.111612,-0.328638,-0.246079,0.916473,0.146745,0.772443,-39.072529,5.651352,17.340574,0.183500,1.773483,0.094161,0.000000,0.000000,0.000000,0.000000,0.000000,0.000000
13381262.000000,-0.259199,0.611451,0.322343,-1.519165,-0.216882,2.097661,0.121919,0.032133,0.598812,-0.111457,-0.322637,-0.248923,0.914053,0.149358,0.796247,-38.925739,5.651352,17.411985,0.219205,1.779891,0.054794,0.000000,0.000000,0.000000,0.000000,0.000000,0.000000
13381263.000000,-0.259167,0.612044,0.322228,-1.519489,-0.217138,2.098585,0.122063,0.033030,0.596331,-0.111751,-0.327839,-0.253498,0.911149,0.150338,0.824018,-38.608356,5.651352,17.610350,0.225614,1.682845,0.041976,0.000000,0.000000,0.000000,0.000000,0.000000,0.000000
13381264.000000,-0.259134,0.612638,0.322115,-1.519817,-0.217393,2.099502,0.122206,0.033696,0.598804,-0.111353,-0.328142,-0.252748,0.903397,0.150049,0.847822,-38.290974,5.627548,17.808714,0.255826,1.695663,0.067611,0.000000,0.000000,0.000000,0.000000,0.000000,0.000000
13381265.000000,-0.259101,0.613230,0.322001,-1.520134,-0.217643,2.100391,0.122357,0.034316,0.597435,-0.113742,-0.321824,-0.251792,0.900217,0.151346,0.871625,-38.120380,5.579941,17.856321,0.231107,1.793624,0.041976,0.000000,0.000000,0.000000,0.000000,0.000000,0.000000
13381266.000000,-0.259065,0.613835,0.321884,-1.520454,-0.217889,2.101296,0.122507,0.031619,0.592280,-0.117344,-0.321059,-0.244493,0.898821,0.150727,0.895429,-38.068806,5.603745,17.931700,0.195402,1.877853,0.054794,0.000000,0.000000,0.000000,0.000000,0.000000,0.000000
13381267.000000,-0.259030,0.614442,0.321778,-1.520776,-0.218133,2.102206,0.122660,0.033286,0.596859,-0.113706,-0.316713,-0.244571,0.895121,0.151822,0.895429,-38.096577,5.504562,18.007078,0.166105,1.923629,0.028243,0.000000,0.000000,0.000000,0.000000,0.000000,0.000000
13381268.000000,-0.258992,0.615061,0.321670,-1.521092,-0.218385,2.103114,0.122802,0.035046,0.602771,-0.114547,-0.318458,-0.244577,0.897136,0.147586,0.871625,-38.243366,5.433151,18.130064,0.141385,1.844894,0.054794,0.000000,0.000000,0.000000,0.000000,0.000000,0.000000
13381270.000000,-0.258926,0.616286,0.321459,-1.521737,-0.218898,2.104937,0.123093,0.033248,0.602856,-0.105439,-0.320005,-0.253303,0.901798,0.146633,0.994611,-38.338581,5.286362,18.352232,0.219205,1.727706,0.081344,0.000000,0.000000,0.000000,0.000000,0.000000,0.000000
13381271.000000,-0.258886,0.616906,0.321350,-1.522053,-0.219161,2.105844,0.123241,0.035122,0.605585,-0.104634,-0.320937,-0.249577,0.905364,0.149090,0.970807,-38.338581,5.286362,18.352232,0.303434,1.800033,0.048385,0.000000,0.000000,0.000000,0.000000,0.000000,0.000000
13381272.000000,-0.258844,0.617523,0.321243,-1.522371,-0.219413,2.106753,0.123391,0.036960,0.609860,-0.105679,-0.318035,-0.252083,0.898492,0.149387,0.923200,-38.413960,5.234787,18.352232,0.315336,1.877853,0.048385,0.000000,0.000000,0.000000,0.000000,0.000000,0.000000
13381273.000000,-0.258797,0.618137,0.321133,-1.522680,-0.219673,2.107647,0.123540,0.040107,0.614293,-0.107259,-0.323837,-0.250447,0.898824,0.149718,0.796247,-38.338581,5.210983,18.328428,0.291532,1.942855,0.048385,0.000000,0.000000,0.000000,0.000000,0.000000,0.000000
13381274.000000,-0.258764,0.618751,0.321028,-1.522997,-0.219920,2.108558,0.123692,0.037441,0.610185,-0.104727,-0.321466,-0.250899,0.898946,0.145247,0.871625,-38.267170,5.163376,18.328428,0.201810,1.968490,0.048385,0.000000,0.000000,0.000000,0.000000,0.000000,0.000000
13381275.000000,-0.258715,0.619377,0.320924,-1.523315,-0.220170,2.109474,0.123838,0.040376,0.610789,-0.103635,-0.316243,-0.249825,0.923561,0.145500,0.748639,-38.413960,5.163376,18.328428,0.159696,1.871444,0.081344,0.000000,0.000000,0.000000,0.000000,0.000000,0.000000
13381276.000000,-0.258673,0.620002,0.320828,-1.523627,-0.220415,2.110392,0.123992,0.042026,0.618580,-0.103382,-0.317810,-0.248919,0.923096,0.150053,0.772443,-38.437763,5.040390,18.276854,0.129484,1.793624,0.001693,0.000000,0.000000,0.000000,0.000000,0.000000,0.000000
13381277.000000,-0.258633,0.620615,0.320725,-1.523943,-0.220666,2.111309,0.124137,0.043294,0.632668,-0.102413,-0.313213,-0.248196,0.922973,0.147540,0.796247,-38.413960,5.012619,18.276854,0.123990,1.812850,0.061202,0.000000,0.000000,0.000000,0.000000,0.000000,0.000000
13381278.000000,-0.258584,0.621242,0.320619,-1.524243,-0.220940,2.112198,0.124280,0.043497,0.625061,-0.102165,-0.304909,-0.251123,0.908725,0.142724,0.724836,-38.390156,5.012619,18.177671,0.219205,1.838485,0.087753,0.000000,0.000000,0.000000,0.000000,0.000000,0.000000
13381279.000000,-0.258539,0.621877,0.320516,-1.524547,-0.221200,2.113098,0.124432,0.041878,0.622925,-0.102652,-0.303670,-0.255880,0.905100,0.142716,0.724836,-38.413960,5.040390,18.153868,0.249418,1.903487,0.021835,0.000000,0.000000,0.000000,0.000000,0.000000,0.000000
13381280.000000,-0.258489,0.622502,0.320410,-1.524847,-0.221459,2.114012,0.124572,0.045627,0.630475,-0.105148,-0.301862,-0.253033,0.901803,0.142064,0.649457,-38.390156,5.040390,18.106260,0.225614,1.897079,0.087753,0.000000,0.000000,0.000000,0.000000,0.000000,0.000000
13381281.000000,-0.258438,0.623138,0.320306,-1.525141,-0.221717,2.114911,0.124725,0.048919,0.631267,-0.105963,-0.300797,-0.250973,0.907344,0.145191,0.550275,-38.461567,5.012619,18.054686,0.213712,1.806442,0.067611,0.000000,0.000000,0.000000,0.000000,0.000000,0.000000
13381282.000000,-0.258383,0.623788,0.320197,-1.525446,-0.221977,2.115824,0.124879,0.052264,0.633427,-0.108419,-0.298768,-0.252294,0.907874,0.147327,0.403486,-38.683735,5.040390,18.078489,0.195402,1.721298,0.054794,0.000000,0.000000,0.000000,0.000000,0.000000,0.000000
13381283.000000,-0.258334,0.624440,0.320094,-1.525741,-0.222245,2.116719,0.125026,0.051623,0.638332,-0.108274,-0.292051,-0.253194,0.908293,0.143550,0.375715,-38.953510,4.988815,18.007078,0.201810,1.702071,0.054794,0.000000,0.000000,0.000000,0.000000,0.000000,0.000000
13381284.000000,-0.258281,0.625085,0.319991,-1.526032,-0.222512,2.117614,0.125175,0.049433,0.641098,-0.106506,-0.292208,-0.257507,0.905055,0.144710,0.304304,-38.977314,4.988815,18.030882,0.225614,1.754256,0.074935,0.000000,0.000000,0.000000,0.000000,0.000000,0.000000
13381285.000000,-0.258231,0.625719,0.319884,-1.526325,-0.222771,2.118519,0.125335,0.049866,0.636726,-0.104871,-0.290331,-0.256152,0.903703,0.148687,0.276533,-38.977314,4.988815,18.007078,0.273221,1.779891,0.009017,0.000000,0.000000,0.000000,0.000000,0.000000,0.000000
13381286.000000,-0.258180,0.626367,0.319777,-1.526615,-0.223036,2.119416,0.125478,0.050173,0.642816,-0.106426,-0.290197,-0.258687,0.901402,0.146805,0.252729,-39.001118,4.965012,18.007078,0.308927,1.754256,0.074935,0.000000,0.000000,0.000000,0.000000,0.000000,0.000000
13381287.000000,-0.258125,0.627014,0.319673,-1.526919,-0.223294,2.120319,0.125629,0.050362,0.637129,-0.108173,-0.297572,-0.257349,0.895227,0.147442,0.228925,-39.024921,4.965012,18.177671,0.237516,1.773483,0.081344,0.000000,0.000000,0.000000,0.000000,0.000000,0.000000
13381288.000000,-0.258065,0.627667,0.319564,-1.527218,-0.223560,2.121215,0.125786,0.052996,0.641047,-0.109245,-0.293858,-0.260591,0.903518,0.150737,0.105939,-39.147907,4.965012,18.253050,0.225614,1.767074,0.021835,0.000000,0.000000,0.000000,0.000000,0.000000,0.000000
13381289.000000,-0.258015,0.628321,0.319449,-1.527506,-0.223831,2.122115,0.125935,0.054495,0.644456,-0.112060,-0.291632,-0.263761,0.896398,0.148500,0.129743,-39.219318,5.040390,18.352232,0.249418,1.741439,0.081344,0.000000,0.000000,0.000000,0.000000,0.000000,0.000000
13381290.000000,-0.257962,0.628959,0.319343,-1.527801,-0.224091,2.123027,0.126097,0.053155,0.646252,-0.108379,-0.292339,-0.258065,0.899529,0.149584,0.129743,-39.195515,5.012619,18.451414,0.261320,1.714889,0.067611,0.000000,0.000000,0.000000,0.000000,0.000000,0.000000
13381291.000000,-0.257919,0.629595,0.319235,-1.528087,-0.224358,2.123915,0.126251,0.049398,0.644131,-0.108389,-0.297226,-0.262162,0.895547,0.150466,0.252729,-38.953510,4.965012,18.526793,0.308927,1.741439,0.054794,0.000000,0.000000,0.000000,0.000000,0.000000,0.000000
13381292.000000,-0.257866,0.630243,0.319131,-1.528376,-0.224633,2.124808,0.126411,0.050261,0.636895,-0.104203,-0.290226,-0.265646,0.894584,0.155353,0.228925,-38.806721,4.865829,18.598204,0.381254,1.786300,0.048385,0.000000,0.000000,0.000000,0.000000,0.000000,0.000000
13381293.000000,-0.257811,0.630888,0.319017,-1.528662,-0.224898,2.125688,0.126569,0.050882,0.632051,-0.103928,-0.286115,-0.267015,0.904879,0.155318,0.205121,-38.707539,4.893600,18.598204,0.393156,1.844894,0.021835,0.000000,0.000000,0.000000,0.000000,0.000000,0.000000
13381294.000000,-0.257760,0.631544,0.318913,-1.528944,-0.225153,2.126584,0.126716,0.052758,0.640190,-0.101468,-0.285305,-0.262726,0.898716,0.151737,0.252729,-38.707539,4.818222,18.673582,0.308927,1.909896,0.087753,0.000000,0.000000,0.000000,0.000000,0.000000,0.000000
13381295.000000,-0.257707,0.632184,0.318798,-1.529209,-0.225400,2.127490,0.126874,0.051533,0.656845,-0.105083,-0.274464,-0.260819,0.901876,0.149186,0.276533,-38.632160,4.842026,18.598204,0.243009,1.877853,0.021835,0.000000,0.000000,0.000000,0.000000,0.000000,0.000000
13381296.000000,-0.257651,0.632835,0.318684,-1.529489,-0.225654,2.128378,0.127018,0.051932,0.654155,-0.107741,-0.273055,-0.258612,0.898372,0.148113,0.252729,-38.536945,4.865829,18.649778,0.159696,1.884261,0.061202,0.000000,0.000000,0.000000,0.000000,0.000000,0.000000
13381297.000000,-0.257604,0.633492,0.318577,-1.529759,-0.225922,2.129270,0.127173,0.049220,0.649680,-0.107506,-0.271781,-0.257459,0.888507,0.149820,0.351911,-38.461567,4.794418,18.697386,0.195402,1.923629,0.034652,0.000000,0.000000,0.000000,0.000000,0.000000,0.000000
13381298.000000,-0.257557,0.634140,0.318468,-1.530015,-0.226185,2.130171,0.127328,0.047352,0.648085,-0.109861,-0.263693,-0.258370,0.887657,0.145674,0.451093,-38.314777,4.842026,18.598204,0.273221,1.942855,0.021835,0.000000,0.000000,0.000000,0.000000,0.000000,0.000000
13381299.000000,-0.257509,0.634789,0.318365,-1.530278,-0.226448,2.131061,0.127476,0.046115,0.647875,-0.108345,-0.263086,-0.256870,0.893309,0.146488,0.550275,-38.096577,4.770615,18.574400,0.327238,1.930038,0.034652,0.000000,0.000000,0.000000,0.000000,0.000000,0.000000
13381300.000000,-0.257462,0.635432,0.318257,-1.530538,-0.226704,2.131951,0.127626,0.045723,0.645496,-0.108998,-0.258889,-0.259164,0.884278,0.148419,0.625654,-37.850605,4.742844,18.526793,0.339139,1.851302,0.028243,0.000000,0.000000,0.000000,0.000000,0.000000,0.000000
13381301.000000,-0.257407,0.636056,0.318143,-1.530787,-0.226968,2.132839,0.127773,0.050667,0.636905,-0.110788,-0.251884,-0.265901,0.881989,0.152355,0.601850,-37.481647,4.770615,18.427610,0.303434,1.800033,0.041976,0.000000,0.000000,0.000000,0.000000,0.000000,0.000000
13381302.000000,-0.257357,0.636704,0.318039,-1.531028,-0.227225,2.133722,0.127928,0.050297,0.631882,-0.106582,-0.249412,-0.263462,0.881245,0.152908,0.625654,-37.334858,4.695236,18.304625,0.237516,1.851302,0.021835,0.000000,0.000000,0.000000,0.000000,0.000000,0.000000
13381303.000000,-0.257298,0.637341,0.317921,-1.531270,-0.227481,2.134593,0.128071,0.051682,0.626063,-0.109974,-0.243735,-0.262800,0.878208,0.150035,0.574079,-37.092854,4.770615,18.177671,0.189908,1.968490,0.081344,0.000000,0.000000,0.000000,0.000000,0.000000,0.000000
13381304.000000,-0.257252,0.637987,0.317810,-1.531500,-0.227734,2.135461,0.128221,0.052272,0.634025,-0.107020,-0.238420,-0.262186,0.874190,0.152570,0.673261,-36.823078,4.742844,17.983274,0.166105,2.039901,0.041976,0.000000,0.000000,0.000000,0.000000,0.000000,0.000000
13381305.000000,-0.257198,0.638616,0.317698,-1.531730,-0.227993,2.136353,0.128369,0.051868,0.632254,-0.105448,-0.239455,-0.263390,0.878334,0.151018,0.673261,-36.331135,4.742844,17.856321,0.171598,1.988631,0.067611,0.000000,0.000000,0.000000,0.000000,0.000000,0.000000
13381306.000000,-0.257148,0.639253,0.317584,-1.531965,-0.228264,2.137231,0.128525,0.050378,0.635084,-0.107811,-0.234520,-0.266260,0.889983,0.151081,0.724836,-36.136738,4.770615,17.757139,0.195402,1.871444,0.067611,0.000000,0.000000,0.000000,0.000000,0.000000,0.000000
13381307.000000,-0.257097,0.639909,0.317479,-1.532184,-0.228535,2.138124,0.128679,0.049397,0.637522,-0.109982,-0.226751,-0.271595,0.888105,0.152313,0.772443,-36.136738,4.671432,17.610350,0.219205,1.773483,0.034652,0.000000,0.000000,0.000000,0.000000,0.000000,0.000000
13381308.000000,-0.257041,0.640569,0.317360,-1.532393,-0.228801,2.139010,0.128824,0.050309,0.643495,-0.109404,-0.219788,-0.264649,0.882558,0.149295,0.748639,-36.283527,4.742844,17.435789,0.255826,1.767074,0.100570,0.000000,0.000000,0.000000,0.000000,0.000000,0.000000
13381309.000000,-0.256988,0.641240,0.317244,-1.532602,-0.229065,2.139883,0.128987,0.049877,0.659001,-0.110926,-0.220657,-0.266312,0.888238,0.153136,0.772443,-36.477924,4.770615,17.289000,0.320829,1.773483,0.015426,0.000000,0.000000,0.000000,0.000000,0.000000,0.000000
13381310.000000,-0.256932,0.641915,0.317129,-1.532809,-0.229322,2.140771,0.129135,0.053759,0.662987,-0.114584,-0.216364,-0.265184,0.890592,0.150704,0.748639,-36.700092,4.770615,17.142210,0.279630,1.779891,0.061202,0.000000,0.000000,0.000000,0.000000,0.000000,0.000000
13381311.000000,-0.256872,0.642579,0.317007,-1.533020,-0.229586,2.141651,0.129286,0.057266,0.665733,-0.116038,-0.213396,-0.259812,0.897532,0.150099,0.697065,-36.799274,4.865829,17.142210,0.231107,1.702071,0.081344,0.000000,0.000000,0.000000,0.000000,0.000000,0.000000
13381312.000000,-0.256812,0.643247,0.316896,-1.533221,-0.229846,2.142552,0.129434,0.060262,0.665216,-0.114561,-0.210438,-0.259518,0.897620,0.149818,0.625654,-36.823078,4.842026,17.114439,0.189908,1.617843,0.100570,0.000000,0.000000,0.000000,0.000000,0.000000,0.000000
13381313.000000,-0.256759,0.643911,0.316782,-1.533420,-0.230102,2.143444,0.129596,0.059465,0.672497,-0.117803,-0.209146,-0.256015,0.898687,0.152034,0.673261,-36.894489,4.865829,17.019224,0.166105,1.611434,0.041976,0.000000,0.000000,0.000000,0.000000,0.000000,0.000000
13381314.000000,-0.256703,0.644598,0.316666,-1.533621,-0.230362,2.144308,0.129754,0.057103,0.679199,-0.117085,-0.203869,-0.257163,0.888291,0.152836,0.673261,-37.116657,4.893600,16.991453,0.207303,1.689254,0.015426,0.000000,0.000000,0.000000,0.000000,0.000000,0.000000
13381315.000000,-0.256647,0.645278,0.316551,-1.533806,-0.230631,2.145185,0.129901,0.055417,0.681338,-0.116054,-0.196987,-0.256207,0.878095,0.150054,0.673261,-37.239643,4.893600,16.844664,0.255826,1.793624,0.074935,0.000000,0.000000,0.000000,0.000000,0.000000,0.000000
13381316.000000,-0.256584,0.645964,0.316438,-1.533995,-0.230890,2.146073,0.130057,0.058921,0.686705,-0.117443,-0.194423,-0.258434,0.875193,0.151196,0.601850,-37.509418,4.865829,16.820860,0.243009,1.812850,0.048385,0.000000,0.000000,0.000000,0.000000,0.000000,0.000000
13381317.000000,-0.256520,0.646651,0.316321,-1.534183,-0.231145,2.146948,0.130204,0.058388,0.691492,-0.115743,-0.195826,-0.256691,0.883665,0.150020,0.526471,-37.580830,4.865829,16.793089,0.171598,1.786300,0.081344,0.000000,0.000000,0.000000,0.000000,0.000000,0.000000
13381318.000000,-0.256456,0.647344,0.316196,-1.534365,-0.231397,2.147839,0.130355,0.060332,0.686504,-0.120587,-0.191500,-0.257126,0.875795,0.151381,0.474897,-37.656208,4.965012,16.670103,0.123990,1.735030,0.061202,0.000000,0.000000,0.000000,0.000000,0.000000,0.000000
13381319.000000,-0.256388,0.648035,0.316074,-1.534546,-0.231652,2.148714,0.130503,0.062664,0.687802,-0.122063,-0.185185,-0.260658,0.879287,0.154884,0.375715,-37.802998,4.988815,16.547117,0.100187,1.721298,0.067611,0.000000,0.000000,0.000000,0.000000,0.000000,0.000000
13381320.000000,-0.256331,0.648743,0.315959,-1.534716,-0.231917,2.149597,0.130651,0.057985,0.693125,-0.119080,-0.182725,-0.263387,0.881910,0.154999,0.427289,-38.068806,4.965012,16.376524,0.129484,1.721298,0.041976,0.000000,0.000000,0.000000,0.000000,0.000000,0.000000
13381321.000000,-0.256272,0.649459,0.315841,-1.534887,-0.232179,2.150485,0.130800,0.058447,0.707000,-0.122425,-0.176720,-0.262148,0.878003,0.153102,0.451093,-38.560749,4.917404,16.178160,0.178007,1.721298,0.061202,0.000000,0.000000,0.000000,0.000000,0.000000,0.000000
13381322.000000,-0.256210,0.650185,0.315721,-1.535061,-0.232440,2.151361,0.130950,0.060074,0.712774,-0.120152,-0.174577,-0.259972,0.873892,0.149801,0.427289,-39.048725,4.917404,16.055174,0.201810,1.649886,0.054794,0.000000,0.000000,0.000000,0.000000,0.000000,0.000000
13381323.000000,-0.256143,0.650916,0.315600,-1.535243,-0.232684,2.152247,0.131106,0.061787,0.718806,-0.121516,-0.176295,-0.252809,0.877434,0.151135,0.375715,-39.465290,4.917404,16.078978,0.154203,1.578475,0.021835,0.000000,0.000000,0.000000,0.000000,0.000000,0.000000
13381324.000000,-0.256079,0.651625,0.315474,-1.535422,-0.232940,2.153129,0.131251,0.061272,0.714963,-0.123385,-0.177096,-0.255180,0.884673,0.148642,0.403486,-39.659687,4.965012,16.102781,0.100187,1.442062,0.087753,0.000000,0.000000,0.000000,0.000000,0.000000,0.000000
13381325.000000,-0.256010,0.652349,0.315352,-1.535592,-0.233210,2.154001,0.131406,0.063391,0.711102,-0.123830,-0.176985,-0.252212,0.871479,0.151164,0.328107,-39.858051,4.965012,16.102781,0.081876,1.435653,0.041976,0.000000,0.000000,0.000000,0.000000,0.000000,0.000000
13381326.000000,-0.255947,0.653078,0.315225,-1.535765,-0.233482,2.154869,0.131558,0.062375,0.716654,-0.126527,-0.176613,-0.256593,0.860162,0.150656,0.351911,-40.199238,5.064194,16.102781,0.154203,1.591293,0.048385,0.000000,0.000000,0.000000,0.000000,0.000000,0.000000
13381327.000000,-0.255885,0.653822,0.315104,-1.535945,-0.233747,2.155725,0.131705,0.061830,0.727192,-0.125547,-0.181594,-0.252704,0.864178,0.146333,0.375715,-40.591999,5.040390,16.225767,0.135892,1.682845,0.041976,0.000000,0.000000,0.000000,0.000000,0.000000,0.000000
13381328.000000,-0.255817,0.654563,0.314983,-1.536131,-0.234013,2.156594,0.131854,0.062637,0.731648,-0.124244,-0.184674,-0.263222,0.860944,0.146611,0.351911,-40.861774,4.988815,16.424131,0.154203,1.643478,0.067611,0.000000,0.000000,0.000000,0.000000,0.000000,0.000000
13381329.000000,-0.255754,0.655273,0.314857,-1.536321,-0.234289,2.157457,0.132001,0.065234,0.728088,-0.121800,-0.186987,-0.264801,0.864055,0.146084,0.375715,-40.810200,5.012619,16.646299,0.147794,1.617843,0.114303,0.000000,0.000000,0.000000,0.000000,0.000000,0.000000
13381330.000000,-0.255688,0.655994,0.314733,-1.536497,-0.234566,2.158326,0.132162,0.064656,0.725099,-0.122633,-0.185713,-0.268873,0.866340,0.149999,0.375715,-40.762592,5.040390,16.745481,0.141385,1.584884,0.048385,0.000000,0.000000,0.000000,0.000000,0.000000,0.000000
13381331.000000,-0.255625,0.656722,0.314601,-1.536681,-0.234839,2.159185,0.132314,0.062840,0.722739,-0.126976,-0.185354,-0.268008,0.863486,0.153259,0.427289,-40.786396,5.064194,16.868467,0.147794,1.656295,0.081344,0.000000,0.000000,0.000000,0.000000,0.000000,0.000000
13381332.000000,-0.255558,0.657459,0.314467,-1.536864,-0.235109,2.160023,0.132474,0.066213,0.723517,-0.128191,-0.184223,-0.267104,0.853885,0.154562,0.403486,-41.032368,5.135605,16.943846,0.154203,1.832076,0.034652,0.000000,0.000000,0.000000,0.000000,0.000000,0.000000
13381333.000000,-0.255492,0.658201,0.314345,-1.537045,-0.235386,2.160882,0.132624,0.065375,0.725109,-0.123134,-0.181226,-0.272826,0.851253,0.151401,0.403486,-41.226765,5.087997,17.066832,0.171598,1.877853,0.094161,0.000000,0.000000,0.000000,0.000000,0.000000,0.000000
13381334.000000,-0.255423,0.658928,0.314214,-1.537228,-0.235660,2.161764,0.132783,0.068470,0.723978,-0.127070,-0.178562,-0.276037,0.862009,0.151339,0.375715,-41.278339,5.111801,17.189817,0.141385,1.708480,0.087753,0.000000,0.000000,0.000000,0.000000,0.000000,0.000000
13381335.000000,-0.255359,0.659675,0.314074,-1.537406,-0.235941,2.162631,0.132944,0.065844,0.726973,-0.131877,-0.179632,-0.278518,0.861128,0.153246,0.427289,-41.401325,5.234787,17.289000,0.178007,1.532699,0.034652,0.000000,0.000000,0.000000,0.000000,0.000000,0.000000
13381336.000000,-0.255296,0.660415,0.313942,-1.537584,-0.236225,2.163487,0.133090,0.063290,0.729855,-0.131307,-0.178686,-0.275453,0.854794,0.150674,0.502668,-41.373554,5.286362,17.312803,0.255826,1.572067,0.100570,0.000000,0.000000,0.000000,0.000000,0.000000,0.000000
13381337.000000,-0.255229,0.661144,0.313817,-1.537758,-0.236504,2.164320,0.133247,0.062865,0.729926,-0.130358,-0.174312,-0.276042,0.854928,0.156030,0.526471,-41.373554,5.187180,17.312803,0.303434,1.662704,0.067611,0.000000,0.000000,0.000000,0.000000,0.000000,0.000000
13381338.000000,-0.255160,0.661877,0.313680,-1.537927,-0.236785,2.165160,0.133409,0.066134,0.732485,-0.130857,-0.173856,-0.277433,0.853786,0.160269,0.526471,-41.278339,5.258591,17.289000,0.291532,1.806442,0.048385,0.000000,0.000000,0.000000,0.000000,0.000000,0.000000
13381339.000000,-0.255088,0.662588,0.313544,-1.538099,-0.237059,2.166022,0.133567,0.066578,0.725719,-0.130977,-0.171397,-0.271968,0.848914,0.157567,0.474897,-41.008564,5.333969,17.312803,0.267728,1.800033,0.054794,0.000000,0.000000,0.000000,0.000000,0.000000,0.000000
13381340.000000,-0.255016,0.663305,0.313406,-1.538272,-0.237322,2.166877,0.133720,0.067292,0.721459,-0.131169,-0.176269,-0.267007,0.852551,0.151993,0.403486,-40.738789,5.405380,17.388182,0.159696,1.721298,0.074935,0.000000,0.000000,0.000000,0.000000,0.000000,0.000000
13381341.000000,-0.254950,0.664020,0.313281,-1.538451,-0.237578,2.167741,0.133880,0.064838,0.715948,-0.127794,-0.175761,-0.267307,0.855848,0.157010,0.451093,-40.369831,5.333969,17.511168,0.088285,1.689254,0.054794,0.000000,0.000000,0.000000,0.000000,0.000000,0.000000
13381342.000000,-0.254880,0.664721,0.313143,-1.538622,-0.237858,2.168573,0.134038,0.064358,0.706050,-0.127953,-0.173737,-0.275377,0.846338,0.155802,0.451093,-40.004841,5.381577,17.586546,0.147794,1.786300,0.048385,0.000000,0.000000,0.000000,0.000000,0.000000,0.000000
13381343.000000,-0.254812,0.665437,0.313005,-1.538782,-0.238145,2.169414,0.134189,0.066522,0.704663,-0.131651,-0.170260,-0.275330,0.841894,0.154116,0.474897,-39.735065,5.433151,17.562742,0.219205,1.949264,0.061202,0.000000,0.000000,0.000000,0.000000,0.000000,0.000000
13381344.000000,-0.254742,0.666145,0.312871,-1.538937,-0.238420,2.170268,0.134342,0.069182,0.705521,-0.128285,-0.159885,-0.279822,0.842927,0.153365,0.451093,-39.540668,5.357773,17.487364,0.267728,1.995040,0.054794,0.000000,0.000000,0.000000,0.000000,0.000000,0.000000
13381345.000000,-0.254680,0.666874,0.312737,-1.539104,-0.238688,2.171103,0.134494,0.068980,0.712088,-0.127053,-0.166273,-0.274240,0.838484,0.157078,0.526471,-39.512897,5.333969,17.586546,0.237516,1.936446,0.067611,0.000000,0.000000,0.000000,0.000000,0.000000,0.000000
13381346.000000,-0.254605,0.667615,0.312599,-1.539269,-0.238957,2.171961,0.134654,0.073051,0.720874,-0.131008,-0.166888,-0.270600,0.838515,0.156947,0.427289,-39.659687,5.381577,17.661924,0.201810,1.851302,0.034652,0.000000,0.000000,0.000000,0.000000,0.000000,0.000000
13381347.000000,-0.254534,0.668343,0.312461,-1.539425,-0.239229,2.172805,0.134807,0.073538,0.726730,-0.129335,-0.161883,-0.274843,0.867519,0.153592,0.427289,-39.782673,5.381577,17.634153,0.189908,1.779891,0.081344,0.000000,0.000000,0.000000,0.000000,0.000000,0.000000
13381348.000000,-0.254467,0.669083,0.312326,-1.539580,-0.239504,2.173646,0.134964,0.072839,0.732668,-0.128943,-0.162080,-0.272471,0.854587,0.155077,0.474897,-39.929462,5.405380,17.634153,0.207303,1.754256,0.028243,0.000000,0.000000,0.000000,0.000000,0.000000,0.000000
13381349.000000,-0.254401,0.669828,0.312185,-1.539730,-0.239775,2.174491,0.135114,0.071598,0.736496,-0.131210,-0.157947,-0.272731,0.853412,0.151797,0.550275,-40.104023,5.405380,17.586546,0.249418,1.838485,0.081344,0.000000,0.000000,0.000000,0.000000,0.000000,0.000000
13381350.000000,-0.254335,0.670558,0.312048,-1.539887,-0.240044,2.175319,0.135262,0.071075,0.735702,-0.132267,-0.160460,-0.268102,0.850035,0.145973,0.601850,-40.151630,5.381577,17.634153,0.255826,1.923629,0.107894,0.000000,0.000000,0.000000,0.000000,0.000000,0.000000
13381351.000000,-0.254262,0.671297,0.311917,-1.540046,-0.240319,2.176152,0.135424,0.073021,0.734598,-0.133270,-0.159598,-0.269888,0.839792,0.150446,0.574079,-40.223042,5.357773,17.709532,0.201810,1.949264,0.028243,0.000000,0.000000,0.000000,0.000000,0.000000,0.000000
13381352.000000,-0.254196,0.672033,0.311783,-1.540204,-0.240591,2.177009,0.135571,0.069361,0.732258,-0.134256,-0.159296,-0.267221,0.846444,0.148219,0.625654,-40.298420,5.357773,17.808714,0.166105,1.858627,0.081344,0.000000,0.000000,0.000000,0.000000,0.000000,0.000000
13381353.000000,-0.254131,0.672771,0.311647,-1.540359,-0.240871,2.177844,0.135728,0.069938,0.723887,-0.132785,-0.159807,-0.266233,0.844110,0.150187,0.673261,-40.250813,5.381577,17.931700,0.166105,1.806442,0.048385,0.000000,0.000000,0.000000,0.000000,0.000000,0.000000
13381354.000000,-0.254058,0.673507,0.311515,-1.540511,-0.241143,2.178672,0.135890,0.071925,0.724722,-0.134710,-0.159487,-0.265663,0.831853,0.151500,0.649457,-40.076252,5.405380,18.030882,0.159696,1.871444,0.028243,0.000000,0.000000,0.000000,0.000000,0.000000,0.000000
13381355.000000,-0.253992,0.674250,0.311382,-1.540651,-0.241425,2.179499,0.136041,0.073760,0.731220,-0.134825,-0.153292,-0.269385,0.824288,0.148863,0.724836,-40.151630,5.381577,18.007078,0.213712,1.942855,0.094161,0.000000,0.000000,0.000000,0.000000,0.000000,0.000000
13381356.000000,-0.253924,0.675003,0.311250,-1.540787,-0.241714,2.180335,0.136202,0.074275,0.742353,-0.135679,-0.147444,-0.279577,0.825382,0.151453,0.724836,-40.274616,5.381577,17.931700,0.261320,1.981307,0.041976,0.000000,0.000000,0.000000,0.000000,0.000000,0.000000
13381357.000000,-0.253854,0.675754,0.311116,-1.540928,-0.241991,2.181180,0.136352,0.074579,0.749795,-0.136254,-0.144326,-0.274450,0.829403,0.148667,0.724836,-40.469013,5.381577,17.907896,0.261320,1.936446,0.107894,0.000000,0.000000,0.000000,0.000000,0.000000,0.000000
13381358.000000,-0.253786,0.676526,0.310976,-1.541067,-0.242264,2.182023,0.136513,0.074241,0.765069,-0.134857,-0.142659,-0.271169,0.834245,0.152069,0.748639,-40.861774,5.433151,17.931700,0.219205,1.838485,0.081344,0.000000,0.000000,0.000000,0.000000,0.000000,0.000000
13381359.000000,-0.253715,0.677302,0.310840,-1.541200,-0.242536,2.182875,0.136664,0.074627,0.769199,-0.136687,-0.140818,-0.275228,0.835313,0.145554,0.748639,-41.179157,5.480759,17.907896,0.195402,1.735030,0.120712,0.000000,0.000000,0.000000,0.000000,0.000000,0.000000
13381360.000000,-0.253641,0.678064,0.310703,-1.541336,-0.242815,2.183704,0.136829,0.072333,0.767503,-0.137120,-0.138023,-0.278249,0.838457,0.149999,0.724836,-41.425129,5.504562,17.955503,0.183500,1.741439,0.041976,0.000000,0.000000,0.000000,0.000000,0.000000,0.000000
13381361.000000,-0.253570,0.678836,0.310566,-1.541458,-0.243101,2.184534,0.136982,0.069448,0.765919,-0.138466,-0.133036,-0.275031,0.833045,0.148553,0.748639,-41.595722,5.556137,17.884092,0.189908,1.844894,0.087753,0.000000,0.000000,0.000000,0.000000,0.000000,0.000000
13381362.000000,-0.253497,0.679609,0.310427,-1.541588,-0.243383,2.185372,0.137143,0.071389,0.782278,-0.138845,-0.131528,-0.273905,0.826669,0.148970,0.724836,-41.960712,5.579941,17.907896,0.231107,1.897079,0.087753,0.000000,0.000000,0.000000,0.000000,0.000000,0.000000
13381363.000000,-0.253426,0.680391,0.310288,-1.541729,-0.243660,2.186199,0.137305,0.072366,0.774147,-0.139663,-0.131783,-0.270848,0.837729,0.150252,0.724836,-42.230488,5.627548,18.106260,0.225614,1.897079,0.067611,0.000000,0.000000,0.000000,0.000000,0.000000,0.000000
13381364.000000,-0.253354,0.681162,0.310151,-1.541869,-0.243943,2.187040,0.137460,0.073103,0.762964,-0.136016,-0.131877,-0.275589,0.829144,0.149265,0.724836,-42.305866,5.627548,18.328428,0.243009,1.903487,0.100570,0.000000,0.000000,0.000000,0.000000,0.000000,0.000000
13381365.000000,-0.253274,0.681908,0.310007,-1.542008,-0.244221,2.187883,0.137629,0.075979,0.754753,-0.138506,-0.132749,-0.278259,0.833601,0.156838,0.625654,-42.107502,5.726730,18.598204,0.237516,1.819259,0.034652,0.000000,0.000000,0.000000,0.000000,0.000000,0.000000
13381366.000000,-0.253202,0.682671,0.309868,-1.542135,-0.244503,2.188721,0.137777,0.075054,0.751382,-0.138623,-0.132993,-0.281614,0.837455,0.152918,0.649457,-41.988483,5.774338,18.721189,0.267728,1.838485,0.100570,0.000000,0.000000,0.000000,0.000000,0.000000,0.000000
13381367.000000,-0.253121,0.683439,0.309725,-1.542268,-0.244779,2.189537,0.137937,0.076617,0.752669,-0.138295,-0.134372,-0.282831,0.822919,0.153001,0.574079,-41.865498,5.774338,18.895750,0.279630,2.020675,0.081344,0.000000,0.000000,0.000000,0.000000,0.000000,0.000000
13381368.000000,-0.253042,0.684201,0.309583,-1.542387,-0.245056,2.190347,0.138095,0.077341,0.755395,-0.136823,-0.131355,-0.286025,0.816759,0.158316,0.502668,-41.841694,5.726730,18.895750,0.308927,2.131454,0.054794,0.000000,0.000000,0.000000,0.000000,0.000000,0.000000
13381369.000000,-0.252961,0.684966,0.309445,-1.542511,-0.245332,2.191172,0.138256,0.078941,0.761521,-0.139898,-0.127965,-0.283521,0.820300,0.160355,0.403486,-41.766315,5.702927,18.971128,0.243009,2.144271,0.074935,0.000000,0.000000,0.000000,0.000000,0.000000,0.000000
13381370.000000,-0.252880,0.685728,0.309302,-1.542634,-0.245606,2.192008,0.138423,0.078808,0.769265,-0.142403,-0.127534,-0.280881,0.819465,0.163724,0.351911,-41.742512,5.702927,19.018736,0.189908,1.995040,0.041976,0.000000,0.000000,0.000000,0.000000,0.000000,0.000000
13381371.000000,-0.252799,0.686499,0.309151,-1.542753,-0.245884,2.192829,0.138576,0.081862,0.774942,-0.146211,-0.124016,-0.276242,0.821802,0.158295,0.304304,-41.694904,5.774338,19.042540,0.183500,1.890670,0.100570,0.000000,0.000000,0.000000,0.000000,0.000000,0.000000
13381372.000000,-0.252718,0.687272,0.309011,-1.542865,-0.246159,2.193646,0.138742,0.079747,0.774753,-0.147148,-0.120407,-0.269747,0.819986,0.158293,0.304304,-41.619526,5.774338,19.018736,0.213712,1.942855,0.067611,0.000000,0.000000,0.000000,0.000000,0.000000,0.000000
13381373.000000,-0.252638,0.688024,0.308873,-1.542970,-0.246447,2.194446,0.138899,0.078416,0.769762,-0.142310,-0.116098,-0.276838,0.806056,0.155792,0.304304,-41.472736,5.679123,18.919554,0.291532,2.014266,0.087753,0.000000,0.000000,0.000000,0.000000,0.000000,0.000000
13381374.000000,-0.252560,0.688780,0.308728,-1.543073,-0.246737,2.195263,0.139066,0.077550,0.763331,-0.140014,-0.114268,-0.276199,0.808308,0.156669,0.304304,-41.254536,5.750534,18.871946,0.339139,2.001449,0.034652,0.000000,0.000000,0.000000,0.000000,0.000000,0.000000
13381375.000000,-0.252474,0.689521,0.308588,-1.543174,-0.247014,2.196085,0.139217,0.079063,0.759276,-0.138807,-0.109524,-0.272926,0.809039,0.151978,0.205121,-40.984760,5.726730,18.820372,0.369352,2.001449,0.114303,0.000000,0.000000,0.000000,0.000000,0.000000,0.000000
13381376.000000,-0.252403,0.690266,0.308449,-1.543281,-0.247285,2.196892,0.139380,0.078139,0.755479,-0.140060,-0.111376,-0.272560,0.806640,0.154257,0.328107,-40.544392,5.651352,18.871946,0.315336,1.974899,0.100570,0.000000,0.000000,0.000000,0.000000,0.000000,0.000000
13381377.000000,-0.252317,0.691018,0.308319,-1.543382,-0.247551,2.197720,0.139547,0.078644,0.752145,-0.136935,-0.108863,-0.274323,0.809919,0.159723,0.276533,-40.199238,5.528366,18.871946,0.243009,1.884261,0.061202,0.000000,0.000000,0.000000,0.000000,0.000000,0.000000
13381378.000000,-0.252232,0.691751,0.308182,-1.543472,-0.247837,2.198524,0.139709,0.079429,0.744834,-0.136300,-0.101291,-0.273194,0.831435,0.161680,0.205121,-39.758869,5.480759,18.772764,0.237516,1.936446,0.074935,0.000000,0.000000,0.000000,0.000000,0.000000,0.000000
13381379.000000,-0.252149,0.692503,0.308045,-1.543559,-0.248121,2.199323,0.139867,0.078928,0.740399,-0.136002,-0.096469,-0.276918,0.816365,0.159539,0.177350,-39.564472,5.433151,18.697386,0.237516,2.092086,0.061202,0.000000,0.000000,0.000000,0.000000,0.000000,0.000000
13381380.000000,-0.252073,0.693255,0.307911,-1.543639,-0.248400,2.200137,0.140024,0.075960,0.753828,-0.134615,-0.091645,-0.277554,0.813217,0.155855,0.252729,-39.540668,5.333969,18.574400,0.225614,2.131454,0.094161,0.000000,0.000000,0.000000,0.000000,0.000000,0.000000
13381381.000000,-0.251994,0.694023,0.307774,-1.543720,-0.248679,2.200955,0.140185,0.074672,0.753992,-0.134736,-0.087606,-0.274480,0.821968,0.156407,0.304304,-39.612080,5.286362,18.550596,0.231107,2.027084,0.048385,0.000000,0.000000,0.000000,0.000000,0.000000,0.000000
13381382.000000,-0.251906,0.694797,0.307637,-1.543800,-0.248968,2.201789,0.140345,0.078758,0.756453,-0.132206,-0.085352,-0.283935,0.820104,0.156275,0.276533,-39.711262,5.258591,18.574400,0.267728,1.865035,0.021835,0.000000,0.000000,0.000000,0.000000,0.000000,0.000000
13381383.000000,-0.251821,0.695561,0.307500,-1.543874,-0.249249,2.202618,0.140492,0.081613,0.761282,-0.136831,-0.081811,-0.280483,0.821564,0.151150,0.252729,-39.782673,5.258591,18.526793,0.279630,1.760665,0.120712,0.000000,0.000000,0.000000,0.000000,0.000000,0.000000
13381384.000000,-0.251745,0.696338,0.307369,-1.543936,-0.249538,2.203431,0.140656,0.078272,0.765454,-0.137485,-0.076910,-0.279164,0.824535,0.158728,0.328107,-39.905659,5.163376,18.376036,0.369352,1.735030,0.067611,0.000000,0.000000,0.000000,0.000000,0.000000,0.000000
13381385.000000,-0.251670,0.697118,0.307233,-1.543990,-0.249812,2.204235,0.140813,0.075761,0.771729,-0.136836,-0.068493,-0.276211,0.808786,0.159640,0.403486,-40.028645,5.111801,18.153868,0.386747,1.877853,0.107894,0.000000,0.000000,0.000000,0.000000,0.000000,0.000000
13381386.000000,-0.251588,0.697886,0.307098,-1.544054,-0.250087,2.205037,0.140977,0.078528,0.777250,-0.136246,-0.069249,-0.282666,0.805570,0.163127,0.403486,-40.199238,5.064194,18.078489,0.327238,2.001449,0.061202,0.000000,0.000000,0.000000,0.000000,0.000000,0.000000
13381387.000000,-0.251507,0.698665,0.306972,-1.544117,-0.250371,2.205866,0.141129,0.080494,0.777062,-0.132191,-0.067291,-0.281719,0.815051,0.157776,0.427289,-40.274616,4.988815,18.030882,0.279630,1.942855,0.120712,0.000000,0.000000,0.000000,0.000000,0.000000,0.000000
13381388.000000,-0.251426,0.699422,0.306840,-1.544177,-0.250636,2.206702,0.141293,0.079315,0.773904,-0.132719,-0.066543,-0.271518,0.818493,0.157447,0.427289,-40.127827,4.941208,18.030882,0.154203,1.832076,0.100570,0.000000,0.000000,0.000000,0.000000,0.000000,0.000000
13381390.000000,-0.251276,0.700968,0.306572,-1.544274,-0.251190,2.208328,0.141609,0.079691,0.771259,-0.135914,-0.055835,-0.273319,0.814098,0.156537,0.601850,-39.929462,4.917404,17.856321,0.219205,1.949264,0.048385,0.000000,0.000000,0.000000,0.000000,0.000000,0.000000
13381391.000000,-0.251194,0.701756,0.306436,-1.544317,-0.251525,2.209427,0.141801,0.077836,0.778879,-0.136413,-0.052700,-0.295958,0.903933,0.166539,0.649457,-40.175434,4.917404,17.757139,0.709928,-0.613297,-0.261979,0.000000,0.000000,0.000000,0.000000,0.000000,0.000000
13381392.000000,-0.251109,0.702551,0.306289,-1.544360,-0.252023,2.210594,0.142018,0.078112,0.783862,-0.140524,-0.048337,-0.365292,0.994866,0.180445,0.625654,-40.421406,5.064194,17.709532,2.585844,-3.402909,-0.769181,0.000000,0.000000,0.000000,0.000000,0.000000,0.000000
13381393.000000,-0.251036,0.703335,0.306173,-1.544347,-0.252279,2.211709,0.142070,0.074028,0.800675,-0.133467,-0.027549,-0.328058,1.041022,0.136489,0.772443,-40.591999,4.794418,16.920042,2.072233,-5.119523,0.279098,0.000000,0.000000,0.000000,0.000000,0.000000,0.000000
13381394.000000,-0.250934,0.704176,0.306069,-1.544239,-0.252637,2.212748,0.142278,0.084782,0.814174,-0.124222,0.016288,-0.332305,1.046854,0.163178,0.474897,-41.401325,4.326279,14.864988,2.334989,-5.659684,-0.110001,0.000000,0.000000,0.000000,0.000000,0.000000,0.000000
13381395.000000,-0.250770,0.704998,0.305820,-1.544076,-0.252998,2.213796,0.142460,0.111943,0.813077,-0.167491,0.065753,-0.342799,1.039792,0.171005,-0.663714,-41.813923,5.972702,12.222776,2.472318,-5.737504,-0.274796,0.000000,0.000000,0.000000,0.000000,0.000000,0.000000
13381396.000000,-0.250737,0.705723,0.305722,-1.543924,-0.253331,2.214907,0.142600,0.084499,0.783144,-0.143568,0.097143,-0.338280,1.071991,0.158604,0.153547,-40.984760,5.381577,10.072508,2.221464,-5.978288,-0.064225,0.000000,0.000000,0.000000,0.000000,0.000000,0.000000
13381397.000000,-0.250706,0.706458,0.305696,-1.543787,-0.253619,2.215881,0.142693,0.065691,0.760917,-0.105911,0.112055,-0.310834,1.034050,0.135760,0.994611,-40.127827,3.715317,8.513365,1.623624,-4.956559,0.509811,0.000000,0.000000,0.000000,0.000000,0.000000,0.000000
13381398.000000,-0.250562,0.707142,0.305552,-1.543516,-0.254038,2.216965,0.142899,0.089255,0.732644,-0.119833,0.165918,-0.343571,1.033738,0.158343,0.153547,-38.778950,3.838302,5.399046,2.269071,-4.832963,0.048385,0.000000,0.000000,0.000000,0.000000,0.000000,0.000000
13381399.000000,-0.250532,0.707744,0.305512,-1.543279,-0.254475,2.217896,0.143089,0.070356,0.681364,-0.093107,0.192882,-0.372592,0.995363,0.167661,0.923200,-36.160542,2.560837,3.149595,3.028043,-3.650101,-0.254655,0.000000,0.000000,0.000000,0.000000,0.000000,0.000000
13381400.000000,-0.250550,0.708244,0.305567,-1.543055,-0.254719,2.218836,0.143204,0.039177,0.609302,-0.043255,0.200978,-0.323035,0.964255,0.152000,2.359357,-32.268635,0.057480,1.542845,2.065824,-2.686967,0.160079,0.000000,0.000000,0.000000,0.000000,0.000000,0.000000
13381401.000000,-0.250386,0.708683,0.305467,-1.542814,-0.254973,2.219807,0.143418,0.083283,0.548712,-0.064091,0.209370,-0.299141,0.959525,0.170801,1.145368,-27.960163,0.033676,0.134459,1.372770,-2.414140,-0.334306,0.000000,0.000000,0.000000,0.000000,0.000000,0.000000
13381402.000000,-0.250232,0.709042,0.305367,-1.542600,-0.255328,2.220589,0.143570,0.106889,0.481557,-0.077345,0.207734,-0.315071,0.886670,0.167030,0.054365,-22.846333,0.156662,-0.607423,1.594327,-1.068314,-0.268388,0.000000,0.000000,0.000000,0.000000,0.000000,0.000000
13381403.000000,-0.250197,0.709340,0.305331,-1.542377,-0.255610,2.221259,0.143681,0.083624,0.416801,-0.066362,0.209695,-0.298222,0.803717,0.150257,0.748639,-17.339741,-0.557449,-1.127138,1.379179,0.928451,0.180221,0.000000,0.000000,0.000000,0.000000,0.000000,0.000000
13381404.000000,-0.250145,0.709626,0.305247,-1.542107,-0.255888,2.222015,0.143896,0.077413,0.373046,-0.075165,0.229176,-0.292976,0.781637,0.174954,1.169172,-12.269550,-0.557449,-2.063417,1.241849,1.370651,-0.320573,0.000000,0.000000,0.000000,0.000000,0.000000,0.000000
13381405.000000,-0.250086,0.709885,0.305193,-1.541838,-0.256255,2.222731,0.144040,0.070723,0.328251,-0.067739,0.240417,-0.323418,0.751595,0.168043,1.466718,-7.326313,-0.974014,-2.833071,2.053922,1.605026,-0.188737,0.000000,0.000000,0.000000,0.000000,0.000000,0.000000
13381406.000000,-0.250048,0.710109,0.305163,-1.541624,-0.256560,2.223320,0.144152,0.059000,0.293439,-0.055809,0.228240,-0.314344,0.693254,0.147875,2.061811,-2.383076,-1.660355,-2.733888,2.275480,2.612106,0.252548,0.000000,0.000000,0.000000,0.000000,0.000000,0.000000
13381407.000000,-0.250023,0.710312,0.305142,-1.541369,-0.256767,2.223976,0.144366,0.045723,0.263809,-0.042188,0.233897,-0.273288,0.680446,0.171500,2.752119,2.318157,-2.445877,-3.154421,1.564115,2.430831,-0.202470,0.000000,0.000000,0.000000,0.000000,0.000000,0.000000
13381408.000000,-0.250007,0.710535,0.305154,-1.541099,-0.257006,2.224670,0.144533,0.031401,0.243251,-0.024378,0.244695,-0.268322,0.689788,0.172025,3.521772,6.281475,-3.576554,-3.697939,1.253751,1.747848,-0.248246,0.000000,0.000000,0.000000,0.000000,0.000000,0.000000
13381409.000000,-0.249963,0.710690,0.305117,-1.540835,-0.257207,2.225253,0.144660,0.036213,0.217678,-0.030370,0.244566,-0.250281,0.656707,0.159864,3.791547,10.736736,-3.917740,-4.166078,0.679716,1.838485,0.081344,0.000000,0.000000,0.000000,0.000000,0.000000,0.000000
13381410.000000,-0.249895,0.710786,0.305038,-1.540589,-0.257365,2.225734,0.144856,0.048465,0.174894,-0.046433,0.242731,-0.220899,0.603167,0.174030,3.668561,15.632366,-3.600357,-4.412050,-0.180880,2.963668,-0.215287,0.000000,0.000000,0.000000,0.000000,0.000000,0.000000
13381411.000000,-0.249836,0.710875,0.304988,-1.540338,-0.257546,2.226263,0.145023,0.052938,0.156252,-0.047445,0.244641,-0.209848,0.571085,0.169011,3.692365,20.186810,-3.675736,-4.661989,-0.665194,3.562423,-0.254655,0.000000,0.000000,0.000000,0.000000,0.000000,0.000000
13381412.000000,-0.249812,0.710934,0.304938,-1.540103,-0.257758,2.226796,0.145170,0.041093,0.125701,-0.050476,0.246560,-0.211830,0.560698,0.158838,4.216047,24.741253,-3.770951,-4.685792,-0.730197,3.946029,-0.110001,0.000000,0.000000,0.000000,0.000000,0.000000,0.000000
13381413.000000,-0.249793,0.710931,0.304888,-1.539902,-0.257943,2.227398,0.145338,0.031859,0.083843,-0.051843,0.228749,-0.204244,0.575368,0.159775,4.783369,29.831280,-3.893936,-4.340639,-0.873934,3.678695,-0.182328,0.000000,0.000000,0.000000,0.000000,0.000000,0.000000
13381414.000000,-0.249751,0.710925,0.304837,-1.539723,-0.258123,2.228104,0.145487,0.033454,0.051999,-0.051284,0.207959,-0.198092,0.625499,0.156748,5.005537,34.580120,-4.068497,-3.769350,-0.916049,2.573653,-0.037675,0.000000,0.000000,0.000000,0.000000,0.000000,0.000000
13381415.000000,-0.249699,0.710936,0.304790,-1.539524,-0.258341,2.228826,0.145672,0.039081,0.038044,-0.050572,0.204212,-0.208849,0.665614,0.167793,5.029340,38.618816,-4.262894,-3.646364,-0.604769,1.429244,-0.235429,0.000000,0.000000,0.000000,0.000000,0.000000,0.000000
13381416.000000,-0.249662,0.710979,0.304747,-1.539307,-0.258505,2.229534,0.145812,0.038436,0.038288,-0.047204,0.206124,-0.193359,0.685425,0.158800,5.227705,41.899761,-4.580276,-3.868532,-0.766818,0.830489,0.009017,0.000000,0.000000,0.000000,0.000000,0.000000,0.000000
13381417.000000,-0.249614,0.711074,0.304685,-1.539052,-0.258718,2.230220,0.145973,0.044262,0.059891,-0.050108,0.223399,-0.204170,0.689497,0.158658,5.279279,44.149212,-4.679459,-4.784975,-0.641390,0.674850,-0.023942,0.000000,0.000000,0.000000,0.000000,0.000000,0.000000
13381418.000000,-0.249515,0.711194,0.304585,-1.538768,-0.258945,2.230943,0.146143,0.061734,0.083237,-0.065264,0.245311,-0.217241,0.699130,0.159874,4.636579,45.791668,-4.215286,-6.169557,-0.455538,0.622665,-0.103593,0.000000,0.000000,0.000000,0.000000,0.000000,0.000000
13381419.000000,-0.249423,0.711338,0.304503,-1.538458,-0.259148,2.231720,0.146273,0.073478,0.110020,-0.070865,0.270675,-0.213527,0.718935,0.147775,4.116865,47.037395,-4.068497,-7.776308,-0.515963,0.388290,0.160079,0.000000,0.000000,0.000000,0.000000,0.000000,0.000000
13381420.000000,-0.249349,0.711509,0.304435,-1.538146,-0.259364,2.232533,0.146432,0.073509,0.136301,-0.072011,0.286003,-0.210353,0.750004,0.152958,3.942304,48.017315,-4.163712,-9.283876,-0.551669,-0.014542,0.067611,0.000000,0.000000,0.000000,0.000000,0.000000,0.000000
13381421.000000,-0.249279,0.711708,0.304364,-1.537814,-0.259593,2.233403,0.146595,0.074275,0.158859,-0.070473,0.302489,-0.213766,0.787705,0.156042,3.866926,48.628277,-4.262894,-10.914431,-0.503146,-0.619706,-0.031266,0.000000,0.000000,0.000000,0.000000,0.000000,0.000000
13381422.000000,-0.249221,0.711924,0.304316,-1.537454,-0.259834,2.234284,0.146728,0.070256,0.185272,-0.062819,0.322820,-0.227380,0.815978,0.152881,3.989912,48.997234,-4.778641,-12.667971,-0.527865,-1.198319,0.120712,0.000000,0.000000,0.000000,0.000000,0.000000,0.000000
13381423.000000,-0.249159,0.712169,0.304255,-1.537086,-0.260088,2.235182,0.146888,0.066171,0.209040,-0.059638,0.341577,-0.233432,0.837559,0.155321,4.065290,49.215435,-5.096024,-14.326296,-0.611178,-1.536149,0.054794,0.000000,0.000000,0.000000,0.000000,0.000000,0.000000
13381424.000000,-0.249090,0.712419,0.304179,-1.536697,-0.260337,2.236082,0.147044,0.068296,0.221905,-0.065690,0.358119,-0.230373,0.851100,0.151683,4.065290,49.461407,-5.195206,-16.004457,-0.743014,-1.672562,-0.004716,0.000000,0.000000,0.000000,0.000000,0.000000,0.000000
13381425.000000,-0.249018,0.712695,0.304102,-1.536315,-0.260587,2.236982,0.147183,0.069990,0.243307,-0.068006,0.369111,-0.233465,0.871202,0.140954,4.065290,49.560589,-5.246780,-17.341433,-0.892245,-1.776932,0.054794,0.000000,0.000000,0.000000,0.000000,0.000000,0.000000
13381426.000000,-0.248942,0.713013,0.304023,-1.535904,-0.260834,2.237890,0.147323,0.069207,0.270518,-0.069580,0.382058,-0.242172,0.871225,0.141940,4.017683,49.413799,-5.294388,-18.726015,-1.053378,-1.783341,0.094161,0.000000,0.000000,0.000000,0.000000,0.000000,0.000000
13381427.000000,-0.248844,0.713358,0.303920,-1.535476,-0.261096,2.238780,0.147472,0.075659,0.292472,-0.082911,0.396534,-0.246578,0.891107,0.140171,3.668561,49.021038,-5.072220,-20.182009,-1.155001,-1.640519,0.081344,0.000000,0.000000,0.000000,0.000000,0.000000,0.000000
13381428.000000,-0.248754,0.713762,0.303833,-1.535040,-0.261392,2.239690,0.147621,0.079431,0.328173,-0.083644,0.409309,-0.263939,0.887912,0.145059,3.470197,48.116497,-5.096024,-21.566591,-0.958163,-1.581925,0.048385,0.000000,0.000000,0.000000,0.000000,0.000000,0.000000
13381429.000000,-0.248685,0.714192,0.303760,-1.534607,-0.261658,2.240617,0.147764,0.075023,0.368278,-0.077811,0.412490,-0.263207,0.897922,0.146021,3.569379,47.037395,-5.393570,-22.705202,-0.987460,-1.744889,0.054794,0.000000,0.000000,0.000000,0.000000,0.000000,0.000000
13381430.000000,-0.248603,0.714663,0.303693,-1.534175,-0.261921,2.241551,0.147910,0.076348,0.404730,-0.072425,0.423828,-0.262481,0.906654,0.148000,3.497968,45.716290,-5.758560,-23.593874,-1.046969,-2.187089,0.034652,0.000000,0.000000,0.000000,0.000000,0.000000,0.000000
13381431.000000,-0.248505,0.715182,0.303609,-1.533748,-0.262193,2.242490,0.148065,0.082137,0.439037,-0.078314,0.421658,-0.262468,0.910746,0.150182,3.224226,44.149212,-5.857742,-24.311953,-1.077181,-2.518510,-0.004716,0.000000,0.000000,0.000000,0.000000,0.000000,0.000000
13381432.000000,-0.248406,0.715719,0.303507,-1.533318,-0.262449,2.243363,0.148223,0.088021,0.471820,-0.084382,0.419670,-0.263123,0.901086,0.152152,3.002058,42.510723,-5.734756,-24.978456,-1.262118,-2.440690,-0.056901,0.000000,0.000000,0.000000,0.000000,0.000000,0.000000
