chaoyuefei/paper-gmrm-data/robot_logs/s2_dq_gmrm_xz_min_0.30_log_20260314_173202.csv
# time_ms,q_0,q_1,q_2,q_3,q_4,q_5,q_6,dq_0,dq_1,dq_2,dq_3,dq_4,dq_5,dq_6,tau_J_0,tau_J_1,tau_J_2,tau_J_3,tau_J_4,tau_J_5,tau_J_6,O_dP_EE_c_0,O_dP_EE_c_1,O_dP_EE_c_2,O_dP_EE_c_3,O_dP_EE_c_4,O_dP_EE_c_5
12184668.000000,-2.415953,-1.662597,1.042296,-1.355834,1.795770,1.080866,-0.548491,-0.000009,-0.000390,-0.000959,-0.000486,0.000066,-0.000024,0.000692,-0.044818,41.578411,-20.953262,-5.697450,0.852750,1.344100,0.009017,0.000000,0.000000,0.000000,0.000000,0.000000,0.000000
12184669.000000,-2.415956,-1.662594,1.042299,-1.355832,1.795768,1.080867,-0.548494,-0.001213,0.000297,0.000474,-0.000324,0.000248,0.000221,0.000224,0.006757,41.554607,-21.000870,-5.697450,0.847257,1.337692,0.015426,0.000000,0.000000,0.000000,0.000000,0.000000,0.000000
12184670.000000,-2.415955,-1.662598,1.042301,-1.355831,1.795768,1.080863,-0.548497,-0.000252,-0.000359,0.000873,-0.000216,0.000606,-0.001073,-0.000325,-0.017047,41.578411,-21.024673,-5.697450,0.835355,1.370651,0.028243,0.000000,0.000000,0.000000,0.000000,0.000000,0.000000
12184671.000000,-2.415950,-1.662600,1.042301,-1.355830,1.795769,1.080862,-0.548489,0.001596,-0.000889,0.000582,0.001063,-0.000037,0.000031,0.001241,-0.092425,41.606182,-21.024673,-5.749025,0.847257,1.350509,-0.011124,0.000000,0.000000,0.000000,0.000000,0.000000,0.000000
12184672.000000,-2.415949,-1.662600,1.042298,-1.355833,1.795769,1.080864,-0.548496,0.009263,-0.002095,0.005014,0.005379,0.000654,0.007090,-0.008605,0.228925,41.530804,-20.953262,-5.649843,0.828947,1.383468,-0.004716,0.000000,0.000000,0.000000,0.000000,0.000000,0.000000
12184673.000000,-2.415939,-1.662603,1.042304,-1.355830,1.795769,1.080860,-0.548510,0.017680,-0.003248,0.007547,0.007543,-0.001348,0.007742,-0.014934,1.268354,41.312603,-20.977066,-5.499086,0.733732,1.552840,-0.031266,0.000000,0.000000,0.000000,0.000000,0.000000,0.000000
12184674.000000,-2.415910,-1.662605,1.042310,-1.355829,1.795762,1.080858,-0.548537,0.022603,-0.003148,0.009426,0.003008,-0.003795,0.006654,-0.023410,2.851301,40.919842,-20.877884,-5.229311,0.655912,1.779891,-0.077042,0.000000,0.000000,0.000000,0.000000,0.000000,0.000000
12184675.000000,-2.415864,-1.662601,1.042329,-1.355832,1.795750,1.080881,-0.548587,0.029047,0.000034,0.013531,0.001799,-0.006656,0.015330,-0.033425,4.684186,40.356487,-20.877884,-4.884157,0.601896,1.877853,-0.037675,0.000000,0.000000,0.000000,0.000000,0.000000,0.000000
12184676.000000,-2.415803,-1.662604,1.042349,-1.355849,1.795721,1.080934,-0.548645,0.033839,0.003395,0.017646,-0.007851,-0.017158,0.028606,-0.043050,6.592451,39.868511,-20.806473,-4.439821,0.632108,1.793624,-0.056901,0.000000,0.000000,0.000000,0.000000,0.000000,0.000000
12184677.000000,-2.415719,-1.662602,1.042378,-1.355873,1.795688,1.081013,-0.548723,0.045834,0.003569,0.021628,-0.012950,-0.024949,0.050701,-0.056253,8.223004,39.328960,-20.754898,-4.066896,0.655912,1.578475,-0.023942,0.000000,0.000000,0.000000,0.000000,0.000000,0.000000
12184679.000000,-2.415498,-1.662599,1.042457,-1.355965,1.795568,1.081220,-0.548946,0.075872,0.008057,0.032598,-0.033800,-0.049511,0.081578,-0.085214,10.948529,38.424419,-20.631912,-3.348818,0.715421,1.318465,-0.037675,0.000000,0.000000,0.000000,0.000000,0.000000,0.000000
12184680.000000,-2.415372,-1.662593,1.042513,-1.356025,1.795487,1.081349,-0.549088,0.090260,0.007583,0.038713,-0.044088,-0.063266,0.098565,-0.102042,12.035565,37.984051,-20.560501,-3.055238,0.703519,1.331283,-0.023942,0.000000,0.000000,0.000000,0.000000,0.000000,0.000000
12184681.000000,-2.415231,-1.662588,1.042577,-1.356099,1.795391,1.081494,-0.549237,0.105357,0.005522,0.048657,-0.050933,-0.074649,0.113418,-0.120255,13.027387,37.615093,-20.485123,-2.805300,0.578092,1.422836,-0.103593,0.000000,0.000000,0.000000,0.000000,0.000000,0.000000
12184682.000000,-2.415084,-1.662578,1.042657,-1.356182,1.795274,1.081663,-0.549418,0.115197,0.007195,0.056188,-0.058397,-0.087444,0.131847,-0.144267,13.943830,37.246136,-20.512894,-2.606935,0.518583,1.546432,-0.050492,0.000000,0.000000,0.000000,0.000000,0.000000,0.000000
12184683.000000,-2.414910,-1.662562,1.042758,-1.356278,1.795144,1.081856,-0.549612,0.134743,0.012154,0.069717,-0.072702,-0.099324,0.152733,-0.162073,14.586530,36.857342,-20.608109,-2.483949,0.405057,1.624252,-0.089860,0.000000,0.000000,0.000000,0.000000,0.000000,0.000000
12184684.000000,-2.414723,-1.662547,1.042869,-1.356396,1.794981,1.082093,-0.549824,0.149676,0.015430,0.082911,-0.085009,-0.117126,0.181080,-0.176515,15.153852,36.488384,-20.707291,-2.313356,0.381254,1.591293,-0.097184,0.000000,0.000000,0.000000,0.000000,0.000000,0.000000
12184685.000000,-2.414523,-1.662524,1.042998,-1.356527,1.794796,1.082361,-0.550048,0.165863,0.018497,0.097182,-0.097290,-0.132844,0.201202,-0.190921,15.625958,36.095623,-20.877884,-2.162599,0.422452,1.519881,-0.017533,0.000000,0.000000,0.000000,0.000000,0.000000,0.000000
12184686.000000,-2.414298,-1.662504,1.043136,-1.356678,1.794592,1.082647,-0.550251,0.184604,0.019579,0.108619,-0.112548,-0.155108,0.226770,-0.191311,15.899701,35.754436,-21.000870,-2.039613,0.476469,1.448470,-0.103593,0.000000,0.000000,0.000000,0.000000,0.000000,0.000000
12184687.000000,-2.414065,-1.662485,1.043291,-1.356843,1.794361,1.082952,-0.550452,0.201215,0.019371,0.121654,-0.127256,-0.183819,0.252155,-0.191521,16.197248,35.460857,-21.175430,-1.940431,0.554288,1.435653,-0.083451,0.000000,0.000000,0.000000,0.000000,0.000000,0.000000
12184688.000000,-2.413808,-1.662472,1.043453,-1.357024,1.794103,1.083291,-0.550651,0.219818,0.017049,0.131148,-0.143179,-0.209105,0.278934,-0.192550,16.344038,35.266460,-21.223038,-1.940431,0.601896,1.454879,-0.031266,0.000000,0.000000,0.000000,0.000000,0.000000,0.000000
12184689.000000,-2.413539,-1.662456,1.043631,-1.357224,1.793835,1.083646,-0.550840,0.234457,0.015697,0.146575,-0.159941,-0.225806,0.299486,-0.193124,16.518599,35.068096,-21.270645,-1.892824,0.589994,1.467696,-0.097184,0.000000,0.000000,0.000000,0.000000,0.000000,0.000000
12184690.000000,-2.413253,-1.662443,1.043813,-1.357430,1.793553,1.084017,-0.551028,0.248853,0.016259,0.158942,-0.170980,-0.234577,0.312817,-0.192648,16.566206,34.945110,-21.246841,-1.916628,0.559781,1.559249,-0.083451,0.000000,0.000000,0.000000,0.000000,0.000000,0.000000
12184691.000000,-2.412947,-1.662434,1.044003,-1.357655,1.793262,1.084410,-0.551215,0.269184,0.012598,0.167073,-0.186852,-0.252299,0.340285,-0.191119,16.590010,34.873699,-21.175430,-1.892824,0.458158,1.637069,-0.083451,0.000000,0.000000,0.000000,0.000000,0.000000,0.000000
12184692.000000,-2.412621,-1.662427,1.044207,-1.357906,1.792947,1.084831,-0.551400,0.287996,0.009579,0.176710,-0.211102,-0.271549,0.365360,-0.188046,16.590010,34.826092,-21.147659,-1.742067,0.339139,1.702071,-0.103593,0.000000,0.000000,0.000000,0.000000,0.000000,0.000000
12184693.000000,-2.412287,-1.662428,1.044418,-1.358175,1.792621,1.085278,-0.551587,0.306043,0.009152,0.185002,-0.230630,-0.293816,0.386550,-0.185441,16.542402,34.849895,-21.052444,-1.595277,0.303434,1.695663,-0.044083,0.000000,0.000000,0.000000,0.000000,0.000000,0.000000
12184694.000000,-2.411929,-1.662422,1.044641,-1.358454,1.792274,1.085750,-0.551758,0.320914,0.007618,0.197327,-0.244233,-0.310437,0.412469,-0.182690,16.467024,34.798321,-20.953262,-1.496095,0.285123,1.656295,-0.136552,0.000000,0.000000,0.000000,0.000000,0.000000,0.000000
12184695.000000,-2.411570,-1.662424,1.044868,-1.358750,1.791908,1.086252,-0.551945,0.341590,0.004105,0.207906,-0.260774,-0.323396,0.436615,-0.182401,16.490828,34.849895,-20.877884,-1.420717,0.339139,1.597701,-0.064225,0.000000,0.000000,0.000000,0.000000,0.000000,0.000000
12184696.000000,-2.411195,-1.662419,1.045111,-1.359059,1.791521,1.086766,-0.552130,0.352171,0.004674,0.217875,-0.272606,-0.341245,0.463749,-0.178851,16.566206,34.774517,-20.830276,-1.349306,0.386747,1.532699,-0.056901,0.000000,0.000000,0.000000,0.000000,0.000000,0.000000
12184697.000000,-2.410810,-1.662424,1.045363,-1.359372,1.791113,1.087312,-0.552305,0.362686,0.001484,0.228651,-0.293755,-0.366006,0.491749,-0.177425,16.740767,34.849895,-20.707291,-1.420717,0.470060,1.474105,-0.130143,0.000000,0.000000,0.000000,0.000000,0.000000,0.000000
12184698.000000,-2.410419,-1.662420,1.045628,-1.359700,1.790698,1.087879,-0.552491,0.372052,0.002294,0.237123,-0.302468,-0.389304,0.514306,-0.181920,16.939131,34.798321,-20.631912,-1.448488,0.530485,1.474105,-0.089860,0.000000,0.000000,0.000000,0.000000,0.000000,0.000000
12184699.000000,-2.410007,-1.662422,1.045900,-1.360045,1.790271,1.088456,-0.552672,0.383094,0.000953,0.248615,-0.308735,-0.401642,0.536188,-0.177817,17.062117,34.826092,-20.560501,-1.472292,0.482877,1.487838,-0.103593,0.000000,0.000000,0.000000,0.000000,0.000000,0.000000
12184700.000000,-2.409591,-1.662418,1.046185,-1.360411,1.789833,1.089057,-0.552845,0.393063,0.001340,0.257202,-0.326799,-0.403481,0.557553,-0.174590,17.284285,34.798321,-20.536697,-1.396913,0.476469,1.467696,-0.130143,0.000000,0.000000,0.000000,0.000000,0.000000,0.000000
12184701.000000,-2.409154,-1.662416,1.046479,-1.360794,1.789379,1.089670,-0.553022,0.405862,0.001492,0.268159,-0.339463,-0.423734,0.573879,-0.174378,17.458845,34.774517,-20.512894,-1.198549,0.398649,1.461288,-0.097184,0.000000,0.000000,0.000000,0.000000,0.000000,0.000000
12184702.000000,-2.408703,-1.662413,1.046773,-1.361191,1.788906,1.090311,-0.553199,0.415808,0.001026,0.277966,-0.355160,-0.439637,0.596209,-0.172677,17.681013,34.774517,-20.413712,-1.027956,0.362943,1.409103,-0.089860,0.000000,0.000000,0.000000,0.000000,0.000000,0.000000
12184703.000000,-2.408253,-1.662409,1.047087,-1.361601,1.788432,1.090973,-0.553371,0.432271,0.001821,0.286292,-0.372065,-0.445291,0.606716,-0.168809,17.978559,34.726910,-20.389908,-0.778017,0.327238,1.357833,-0.110001,0.000000,0.000000,0.000000,0.000000,0.000000,0.000000
12184704.000000,-2.407776,-1.662402,1.047406,-1.362028,1.787924,1.091634,-0.553540,0.447495,0.002994,0.298015,-0.388087,-0.459216,0.627921,-0.168414,18.276106,34.651531,-20.314529,-0.607423,0.386747,1.344100,-0.116410,0.000000,0.000000,0.000000,0.000000,0.000000,0.000000
12184705.000000,-2.407292,-1.662396,1.047731,-1.362462,1.787414,1.092324,-0.553708,0.453957,0.002009,0.304511,-0.400530,-0.474394,0.647574,-0.168723,18.399092,34.651531,-20.239151,-0.456667,0.535978,1.337692,-0.122819,0.000000,0.000000,0.000000,0.000000,0.000000,0.000000
12184706.000000,-2.406811,-1.662380,1.048067,-1.362918,1.786896,1.093047,-0.553877,0.451800,0.007309,0.314171,-0.416608,-0.498312,0.672339,-0.164935,17.855574,34.532513,-19.997147,-0.484438,0.613798,1.305648,-0.110001,0.000000,0.000000,0.000000,0.000000,0.000000,0.000000
12184707.000000,-2.406325,-1.662365,1.048433,-1.363392,1.786359,1.093763,-0.554045,0.452410,0.008578,0.338509,-0.432934,-0.507888,0.683488,-0.165364,16.590010,34.385723,-19.651993,-0.778017,0.774930,1.357833,-0.110001,0.000000,0.000000,0.000000,0.000000,0.000000,0.000000
12184708.000000,-2.405854,-1.662350,1.048822,-1.363878,1.785833,1.094518,-0.554197,0.458761,0.011120,0.351718,-0.447253,-0.510738,0.697783,-0.159145,14.884076,34.163555,-19.211624,-1.174745,0.876554,1.416427,-0.163102,0.000000,0.000000,0.000000,0.000000,0.000000,0.000000
12184709.000000,-2.405382,-1.662334,1.049239,-1.364378,1.785312,1.095280,-0.554363,0.466731,0.014099,0.369104,-0.462756,-0.513507,0.717982,-0.162121,12.928205,33.746990,-18.644302,-1.642885,0.799650,1.416427,-0.149369,0.000000,0.000000,0.000000,0.000000,0.000000,0.000000
12184710.000000,-2.404919,-1.662325,1.049674,-1.364869,1.784808,1.096063,-0.554534,0.469478,0.012086,0.385298,-0.477428,-0.512808,0.735537,-0.164202,11.019940,33.354229,-18.057144,-2.190370,0.613798,1.344100,-0.110001,0.000000,0.000000,0.000000,0.000000,0.000000,0.000000
12184711.000000,-2.404476,-1.662317,1.050140,-1.365384,1.784310,1.096849,-0.554696,0.464372,0.010832,0.401763,-0.480002,-0.505887,0.749889,-0.159430,9.361615,32.937664,-17.394608,-2.535524,0.386747,1.227828,-0.136552,0.000000,0.000000,0.000000,0.000000,0.000000,0.000000
12184712.000000,-2.404024,-1.662319,1.050637,-1.365891,1.783818,1.097625,-0.554866,0.462147,0.006091,0.436767,-0.485054,-0.494760,0.759420,-0.158018,7.854047,32.671856,-16.902664,-2.880678,0.171598,1.129867,-0.103593,0.000000,0.000000,0.000000,0.000000,0.000000,0.000000
12184713.000000,-2.403572,-1.662322,1.051124,-1.366383,1.783334,1.098415,-0.555035,0.464460,0.004806,0.448726,-0.483698,-0.482852,0.766221,-0.161515,6.540876,32.449688,-16.315506,-3.178224,0.015958,1.006271,-0.089860,0.000000,0.000000,0.000000,0.000000,0.000000,0.000000
12184714.000000,-2.403122,-1.662327,1.051626,-1.366884,1.782841,1.099190,-0.555198,0.462058,0.004432,0.458592,-0.483589,-0.487070,0.773294,-0.158016,5.354658,32.203716,-15.700577,-3.400392,-0.013339,0.876266,-0.103593,0.000000,0.000000,0.000000,0.000000,0.000000,0.000000
12184715.000000,-2.402672,-1.662338,1.052124,-1.367362,1.782344,1.099959,-0.555365,0.458726,-0.001791,0.471351,-0.488478,-0.488080,0.769267,-0.156435,4.386640,32.084698,-15.085648,-3.745546,0.088285,0.869857,-0.070634,0.000000,0.000000,0.000000,0.000000,0.000000,0.000000
12184716.000000,-2.402229,-1.662349,1.052625,-1.367827,1.781849,1.100732,-0.555518,0.457108,-0.005365,0.474757,-0.481125,-0.495861,0.768093,-0.157192,3.597150,31.937908,-14.522293,-4.090700,0.243009,0.908309,-0.136552,0.000000,0.000000,0.000000,0.000000,0.000000,0.000000
12184717.000000,-2.401772,-1.662357,1.053132,-1.368297,1.781361,1.101487,-0.555681,0.454057,-0.004128,0.486258,-0.477213,-0.491571,0.769783,-0.159836,2.851301,31.763348,-13.958939,-4.364442,0.327238,0.922042,-0.149369,0.000000,0.000000,0.000000,0.000000,0.000000,0.000000
12184718.000000,-2.401303,-1.662363,1.053630,-1.368767,1.780884,1.102257,-0.555850,0.457258,-0.002815,0.487420,-0.470479,-0.486659,0.771610,-0.165062,2.061811,31.568951,-13.443192,-4.364442,0.393156,0.901900,-0.077042,0.000000,0.000000,0.000000,0.000000,0.000000,0.000000
12184719.000000,-2.400845,-1.662372,1.054136,-1.369254,1.780403,1.103024,-0.556000,0.456712,-0.002963,0.492298,-0.474134,-0.482445,0.763692,-0.163963,1.415143,31.422161,-13.050430,-4.118471,0.381254,0.901900,-0.130143,0.000000,0.000000,0.000000,0.000000,0.000000,0.000000
12184720.000000,-2.400370,-1.662375,1.054642,-1.369737,1.779941,1.103768,-0.556157,0.461320,-0.001988,0.495783,-0.472610,-0.476646,0.758199,-0.159845,0.724836,31.227764,-12.681473,-3.892336,0.297025,0.908309,-0.155778,0.000000,0.000000,0.000000,0.000000,0.000000,0.000000
12184721.000000,-2.399898,-1.662377,1.055159,-1.370227,1.779483,1.104530,-0.556316,0.466189,-0.003119,0.500656,-0.478052,-0.464654,0.752249,-0.163383,0.105939,30.981792,-12.336319,-3.475771,0.189908,0.915633,-0.130143,0.000000,0.000000,0.000000,0.000000,0.000000,0.000000
12184722.000000,-2.399421,-1.662372,1.055683,-1.370710,1.779031,1.105280,-0.556475,0.465172,-0.000278,0.516057,-0.482542,-0.457026,0.757539,-0.160390,-0.441546,30.712017,-12.066544,-3.126650,0.088285,0.941268,-0.116410,0.000000,0.000000,0.000000,0.000000,0.000000,0.000000
12184723.000000,-2.398951,-1.662363,1.056206,-1.371170,1.778581,1.106038,-0.556620,0.461365,0.005898,0.514701,-0.473236,-0.461677,0.754623,-0.156918,-0.834307,30.394634,-11.820572,-3.055238,0.069974,0.922042,-0.142960,0.000000,0.000000,0.000000,0.000000,0.000000,0.000000
12184724.000000,-2.398484,-1.662343,1.056749,-1.371630,1.778121,1.106795,-0.556775,0.460825,0.012670,0.521275,-0.470913,-0.465079,0.758058,-0.155363,-1.159625,29.978069,-11.673782,-3.102846,0.064481,0.974227,-0.142960,0.000000,0.000000,0.000000,0.000000,0.000000,0.000000
12184725.000000,-2.398017,-1.662326,1.057292,-1.372082,1.777664,1.107540,-0.556936,0.460822,0.016323,0.531489,-0.461404,-0.463327,0.756171,-0.159791,-1.405596,29.609112,-11.503189,-3.202028,0.123990,1.045638,-0.110001,0.000000,0.000000,0.000000,0.000000,0.000000,0.000000
12184726.000000,-2.397548,-1.662313,1.057842,-1.372523,1.777212,1.108303,-0.557089,0.462039,0.017740,0.537953,-0.452938,-0.461816,0.750171,-0.156135,-1.627764,29.291729,-11.380203,-3.348818,0.225614,1.071273,-0.149369,0.000000,0.000000,0.000000,0.000000,0.000000,0.000000
12184727.000000,-2.397075,-1.662292,1.058405,-1.372967,1.776758,1.109051,-0.557243,0.466043,0.018046,0.546005,-0.442804,-0.460737,0.757994,-0.153500,-1.849932,28.875164,-11.257217,-3.499574,0.279630,1.058456,-0.163102,0.000000,0.000000,0.000000,0.000000,0.000000,0.000000
12184728.000000,-2.396587,-1.662276,1.058960,-1.373414,1.776308,1.109812,-0.557407,0.472679,0.018878,0.547639,-0.452760,-0.455466,0.756844,-0.158627,-2.222857,28.557781,-11.086624,-3.547182,0.344633,0.999862,-0.103593,0.000000,0.000000,0.000000,0.000000,0.000000,0.000000
12184729.000000,-2.396100,-1.662261,1.059543,-1.373856,1.775867,1.110594,-0.557552,0.479746,0.017907,0.554868,-0.450161,-0.453000,0.761842,-0.154650,-2.667193,28.311810,-10.987442,-3.570986,0.308927,0.850631,-0.155778,0.000000,0.000000,0.000000,0.000000,0.000000,0.000000
12184730.000000,-2.395607,-1.662252,1.060137,-1.374304,1.775435,1.111339,-0.557708,0.478058,0.015047,0.571849,-0.445534,-0.452193,0.762318,-0.154722,-3.087725,28.165020,-10.939835,-3.547182,0.183500,0.817672,-0.130143,0.000000,0.000000,0.000000,0.000000,0.000000,0.000000
12184731.000000,-2.395118,-1.662243,1.060724,-1.374740,1.775013,1.112093,-0.557861,0.492015,0.017675,0.580175,-0.441830,-0.435543,0.750529,-0.153283,-3.484454,28.093609,-10.793045,-3.547182,0.088285,0.830489,-0.097184,0.000000,0.000000,0.000000,0.000000,0.000000,0.000000
12184732.000000,-2.394623,-1.662240,1.061321,-1.375176,1.774584,1.112832,-0.558007,0.491855,0.011005,0.581734,-0.437103,-0.434648,0.750361,-0.150445,-3.857378,28.141216,-10.570877,-3.598757,-0.055453,0.901900,-0.130143,0.000000,0.000000,0.000000,0.000000,0.000000,0.000000
12184733.000000,-2.394123,-1.662235,1.061926,-1.375609,1.774152,1.113569,-0.558168,0.492742,0.011224,0.589802,-0.442282,-0.433195,0.748737,-0.152664,-4.202532,28.117413,-10.523270,-3.622560,-0.091158,0.999862,-0.077042,0.000000,0.000000,0.000000,0.000000,0.000000,0.000000
12184734.000000,-2.393631,-1.662233,1.062558,-1.376029,1.773730,1.114314,-0.558311,0.495236,0.007371,0.598933,-0.433742,-0.438354,0.736940,-0.149318,-4.547686,28.141216,-10.523270,-3.697939,-0.097567,1.104232,-0.149369,0.000000,0.000000,0.000000,0.000000,0.000000,0.000000
12184735.000000,-2.393120,-1.662232,1.063195,-1.376458,1.773288,1.115061,-0.558462,0.499475,0.005248,0.619918,-0.433739,-0.437869,0.747373,-0.150048,-4.995989,28.141216,-10.471695,-3.769350,-0.037142,1.117049,-0.130143,0.000000,0.000000,0.000000,0.000000,0.000000,0.000000
12184736.000000,-2.392607,-1.662238,1.063824,-1.376880,1.772847,1.115805,-0.558620,0.504797,0.001429,0.620584,-0.431661,-0.441956,0.740746,-0.154213,-5.416522,28.240398,-10.447891,-3.820925,0.123990,1.149093,-0.103593,0.000000,0.000000,0.000000,0.000000,0.000000,0.000000
12184737.000000,-2.392111,-1.662240,1.064485,-1.377305,1.772414,1.116556,-0.558764,0.504407,0.000584,0.634351,-0.430058,-0.446710,0.742765,-0.150799,-5.686297,28.264202,-10.547073,-3.892336,0.195402,1.123458,-0.169511,0.000000,0.000000,0.000000,0.000000,0.000000,0.000000
12184738.000000,-2.391598,-1.662245,1.065143,-1.377730,1.771975,1.117295,-0.558917,0.506716,-0.001233,0.643659,-0.425897,-0.443266,0.743630,-0.151588,-6.059222,28.339581,-10.717667,-3.943910,0.249418,1.110641,-0.136552,0.000000,0.000000,0.000000,0.000000,0.000000,0.000000
12184739.000000,-2.391101,-1.662252,1.065819,-1.378152,1.771549,1.118047,-0.559062,0.506037,-0.002944,0.653844,-0.423479,-0.431653,0.733418,-0.153756,-6.281390,28.434795,-10.816849,-3.943910,0.249418,1.104232,-0.136552,0.000000,0.000000,0.000000,0.000000,0.000000,0.000000
12184740.000000,-2.390598,-1.662266,1.066513,-1.378559,1.771133,1.118785,-0.559209,0.501680,-0.006523,0.661564,-0.413821,-0.432021,0.740889,-0.152185,-6.455950,28.633160,-10.916031,-4.090700,0.159696,1.084090,-0.149369,0.000000,0.000000,0.000000,0.000000,0.000000,0.000000
12184741.000000,-2.390094,-1.662283,1.067199,-1.378966,1.770707,1.119536,-0.559357,0.501457,-0.009394,0.665778,-0.413462,-0.430570,0.736991,-0.148456,-6.626544,28.851360,-10.916031,-4.189882,0.123990,1.077682,-0.116410,0.000000,0.000000,0.000000,0.000000,0.000000,0.000000
12184742.000000,-2.389600,-1.662291,1.067894,-1.379376,1.770299,1.120286,-0.559505,0.497919,-0.008538,0.666470,-0.413168,-0.428655,0.735606,-0.143438,-6.777300,28.950542,-10.741470,-4.265260,0.069974,1.155502,-0.142960,0.000000,0.000000,0.000000,0.000000,0.000000,0.000000
12184743.000000,-2.389085,-1.662305,1.068611,-1.379795,1.769890,1.121017,-0.559654,0.500733,-0.009649,0.684971,-0.410929,-0.426187,0.731715,-0.139815,-7.051043,29.121136,-10.741470,-4.241457,0.004056,1.194869,-0.149369,0.000000,0.000000,0.000000,0.000000,0.000000,0.000000
12184744.000000,-2.388587,-1.662313,1.069313,-1.380199,1.769471,1.121777,-0.559804,0.501774,-0.011429,0.689942,-0.405604,-0.415467,0.733158,-0.145803,-7.245440,29.196514,-10.495499,-4.241457,0.046171,1.077682,-0.136552,0.000000,0.000000,0.000000,0.000000,0.000000,0.000000
12184745.000000,-2.388080,-1.662323,1.070030,-1.380607,1.769051,1.122526,-0.559952,0.501586,-0.010656,0.690988,-0.402992,-0.416654,0.743397,-0.147664,-7.420001,29.315533,-10.253494,-4.289064,0.117582,0.974227,-0.110001,0.000000,0.000000,0.000000,0.000000,0.000000,0.000000
12184746.000000,-2.387562,-1.662333,1.070742,-1.381012,1.768631,1.123267,-0.560098,0.507147,-0.009057,0.696984,-0.411235,-0.420317,0.739501,-0.146233,-7.693743,29.390911,-9.932144,-4.265260,0.123990,0.947677,-0.122819,0.000000,0.000000,0.000000,0.000000,0.000000,0.000000
12184747.000000,-2.387059,-1.662340,1.071478,-1.381418,1.768212,1.124006,-0.560239,0.504703,-0.007294,0.700215,-0.410613,-0.417353,0.735272,-0.142116,-7.939715,29.438519,-9.686172,-4.340639,0.135892,1.058456,-0.130143,0.000000,0.000000,0.000000,0.000000,0.000000,0.000000
12184748.000000,-2.386554,-1.662338,1.072205,-1.381821,1.767795,1.124738,-0.560386,0.502418,-0.003299,0.709677,-0.402572,-0.415486,0.740683,-0.140273,-8.090472,29.367107,-9.317215,-4.439821,0.166105,1.090499,-0.103593,0.000000,0.000000,0.000000,0.000000,0.000000,0.000000
12184749.000000,-2.386057,-1.662343,1.072956,-1.382215,1.767388,1.125494,-0.560522,0.504705,-0.006000,0.720528,-0.399933,-0.410102,0.742952,-0.140202,-8.237262,29.390911,-9.075211,-4.562807,0.141385,1.012679,-0.136552,0.000000,0.000000,0.000000,0.000000,0.000000,0.000000
12184750.000000,-2.385552,-1.662336,1.073727,-1.382605,1.766979,1.126235,-0.560667,0.502956,-0.000890,0.738790,-0.390255,-0.407907,0.746894,-0.138462,-8.360248,29.244122,-8.999832,-4.709596,0.088285,1.019088,-0.122819,0.000000,0.000000,0.000000,0.000000,0.000000,0.000000
12184751.000000,-2.385051,-1.662327,1.074492,-1.383001,1.766585,1.126993,-0.560807,0.500205,0.003154,0.748047,-0.398574,-0.404102,0.747761,-0.135052,-8.459430,29.073528,-8.900650,-4.832582,-0.025240,0.966903,-0.149369,0.000000,0.000000,0.000000,0.000000,0.000000,0.000000
12184752.000000,-2.384560,-1.662323,1.075283,-1.383385,1.766188,1.127767,-0.560945,0.499997,0.004241,0.762287,-0.392132,-0.402276,0.743600,-0.134495,-8.558612,28.974346,-8.924454,-4.884157,-0.060946,0.857040,-0.142960,0.000000,0.000000,0.000000,0.000000,0.000000,0.000000
12184753.000000,-2.384068,-1.662319,1.076083,-1.383777,1.765776,1.128514,-0.561090,0.496364,0.005011,0.786415,-0.390723,-0.409892,0.747580,-0.139492,-8.534808,28.875164,-8.829239,-4.884157,-0.025240,0.850631,-0.110001,0.000000,0.000000,0.000000,0.000000,0.000000,0.000000
12184754.000000,-2.383581,-1.662308,1.076888,-1.384152,1.765389,1.129269,-0.561226,0.490066,0.006672,0.793153,-0.384559,-0.407252,0.748570,-0.136181,-8.459430,28.728374,-8.876846,-4.983339,-0.067355,0.895492,-0.149369,0.000000,0.000000,0.000000,0.000000,0.000000,0.000000
12184755.000000,-2.383096,-1.662294,1.077720,-1.384527,1.764994,1.130026,-0.561370,0.492865,0.015444,0.795804,-0.382124,-0.403844,0.745637,-0.136762,-8.435626,28.533978,-9.023636,-5.153932,-0.079257,0.934859,-0.110001,0.000000,0.000000,0.000000,0.000000,0.000000,0.000000
12184756.000000,-2.382608,-1.662284,1.078540,-1.384908,1.764596,1.130770,-0.561509,0.492395,0.015343,0.802455,-0.378016,-0.404987,0.749710,-0.135036,-8.312640,28.605389,-9.344986,-5.276918,-0.067355,0.922042,-0.103593,0.000000,0.000000,0.000000,0.000000,0.000000,0.000000
12184757.000000,-2.382140,-1.662274,1.079358,-1.385279,1.764215,1.131532,-0.561638,0.484613,0.016170,0.794852,-0.379286,-0.398032,0.745573,-0.136428,-7.991290,28.926739,-9.809158,-5.352296,-0.049044,0.922042,-0.169511,0.000000,0.000000,0.000000,0.000000,0.000000,0.000000
12184758.000000,-2.381655,-1.662270,1.080170,-1.385653,1.763834,1.132278,-0.561790,0.485507,0.010666,0.791019,-0.378578,-0.397074,0.749330,-0.142419,-7.642169,29.537701,-10.570877,-5.451478,-0.055453,1.039230,-0.103593,0.000000,0.000000,0.000000,0.000000,0.000000,0.000000
12184759.000000,-2.381163,-1.662260,1.080956,-1.386038,1.763447,1.133027,-0.561928,0.487597,0.010939,0.785437,-0.389478,-0.392094,0.741382,-0.138954,-7.221636,30.295452,-11.431778,-5.304689,0.010465,1.207687,-0.122819,0.000000,0.000000,0.000000,0.000000,0.000000,0.000000
12184760.000000,-2.380680,-1.662243,1.081748,-1.386427,1.763068,1.133794,-0.562073,0.487836,0.013646,0.780679,-0.388227,-0.385681,0.742539,-0.141660,-6.777300,31.104778,-12.435501,-5.205507,0.100187,1.292831,-0.136552,0.000000,0.000000,0.000000,0.000000,0.000000,0.000000
12184761.000000,-2.380194,-1.662231,1.082530,-1.386829,1.762698,1.134559,-0.562218,0.483825,0.008437,0.789681,-0.392048,-0.386510,0.752290,-0.143415,-6.281390,31.985516,-13.296402,-4.884157,0.135892,1.279098,-0.130143,0.000000,0.000000,0.000000,0.000000,0.000000,0.000000
12184762.000000,-2.379706,-1.662200,1.083305,-1.387211,1.762317,1.135330,-0.562357,0.486152,0.014680,0.785560,-0.385635,-0.389275,0.752737,-0.144785,-5.936236,32.596478,-14.228714,-4.784975,0.166105,1.292831,-0.149369,0.000000,0.000000,0.000000,0.000000,0.000000,0.000000
12184764.000000,-2.378730,-1.662153,1.084882,-1.388010,1.761547,1.136827,-0.562644,0.481593,0.018733,0.790262,-0.397299,-0.387806,0.745004,-0.145831,-5.166583,33.770794,-15.799759,-4.412050,0.243009,1.526290,-0.136552,0.000000,0.000000,0.000000,0.000000,0.000000,0.000000
12184765.000000,-2.378255,-1.662122,1.085678,-1.388400,1.761150,1.137583,-0.562777,0.477545,0.023169,0.795017,-0.393486,-0.387402,0.744763,-0.140889,-4.797625,34.211163,-16.386917,-4.289064,0.344633,1.624252,-0.175919,0.000000,0.000000,0.000000,0.000000,0.000000,0.000000
12184766.000000,-2.377771,-1.662095,1.086476,-1.388786,1.760758,1.138319,-0.562925,0.476791,0.023318,0.797525,-0.389103,-0.387196,0.745717,-0.145373,-4.547686,34.627728,-16.950272,-4.364442,0.386747,1.727706,-0.122819,0.000000,0.000000,0.000000,0.000000,0.000000,0.000000
12184767.000000,-2.377303,-1.662070,1.087294,-1.389171,1.760372,1.139068,-0.563057,0.476172,0.027730,0.799350,-0.388151,-0.383812,0.743344,-0.139221,-4.250140,34.996685,-17.565201,-4.388246,0.393156,1.773483,-0.196061,0.000000,0.000000,0.000000,0.000000,0.000000,0.000000
12184768.000000,-2.376825,-1.662051,1.088125,-1.389564,1.759983,1.139820,-0.563199,0.475931,0.021195,0.805755,-0.390544,-0.380834,0.742434,-0.142990,-4.004168,35.361675,-18.080948,-4.412050,0.386747,1.695663,-0.169511,0.000000,0.000000,0.000000,0.000000,0.000000,0.000000
12184769.000000,-2.376344,-1.662043,1.088957,-1.389950,1.759593,1.140579,-0.563345,0.478643,0.016886,0.819751,-0.382468,-0.380572,0.747947,-0.142668,-3.829607,35.829815,-18.695877,-4.586610,0.339139,1.552840,-0.110001,0.000000,0.000000,0.000000,0.000000,0.000000,0.000000
12184770.000000,-2.375871,-1.662041,1.089798,-1.390326,1.759209,1.141338,-0.563472,0.474221,0.013733,0.815413,-0.382949,-0.379373,0.744528,-0.137059,-3.706622,36.293987,-19.088638,-4.784975,0.339139,1.526290,-0.188737,0.000000,0.000000,0.000000,0.000000,0.000000,0.000000
12184771.000000,-2.375406,-1.662052,1.090650,-1.390698,1.758818,1.142059,-0.563612,0.471158,0.005961,0.831807,-0.380206,-0.381749,0.741934,-0.136160,-3.460650,36.857342,-19.576614,-5.106325,0.315336,1.676437,-0.169511,0.000000,0.000000,0.000000,0.000000,0.000000,0.000000
12184772.000000,-2.374928,-1.662068,1.091495,-1.391071,1.758425,1.142783,-0.563750,0.475372,0.002436,0.829926,-0.379142,-0.388301,0.729743,-0.132373,-3.361468,37.468304,-20.020950,-5.276918,0.315336,1.779891,-0.116410,0.000000,0.000000,0.000000,0.000000,0.000000,0.000000
12184773.000000,-2.374466,-1.662095,1.092336,-1.391433,1.758039,1.143525,-0.563876,0.475933,-0.007415,0.829191,-0.368118,-0.381232,0.733988,-0.129731,-3.186907,38.130840,-20.215347,-5.598268,0.362943,1.760665,-0.182328,0.000000,0.000000,0.000000,0.000000,0.000000,0.000000
12184774.000000,-2.373991,-1.662125,1.093173,-1.391794,1.757651,1.144257,-0.564013,0.473859,-0.013324,0.826123,-0.365351,-0.389308,0.741430,-0.131008,-3.210711,38.741802,-20.437515,-5.848207,0.410551,1.735030,-0.155778,0.000000,0.000000,0.000000,0.000000,0.000000,0.000000
12184775.000000,-2.373517,-1.662160,1.094012,-1.392148,1.757260,1.144990,-0.564144,0.471653,-0.019745,0.821276,-0.360481,-0.392013,0.733634,-0.132777,-3.309893,39.305157,-20.536697,-6.070375,0.452665,1.786300,-0.188737,0.000000,0.000000,0.000000,0.000000,0.000000,0.000000
12184776.000000,-2.373037,-1.662195,1.094850,-1.392506,1.756869,1.145710,-0.564275,0.473712,-0.023398,0.823993,-0.360945,-0.389612,0.733809,-0.137241,-3.436846,39.816936,-20.512894,-6.217165,0.518583,1.838485,-0.182328,0.000000,0.000000,0.000000,0.000000,0.000000,0.000000
12184777.000000,-2.372552,-1.662233,1.095674,-1.392857,1.756486,1.146447,-0.564414,0.474843,-0.026360,0.819584,-0.362678,-0.392820,0.730818,-0.137962,-3.682818,40.332684,-20.485123,-6.391725,0.506681,1.865035,-0.130143,0.000000,0.000000,0.000000,0.000000,0.000000,0.000000
12184778.000000,-2.372075,-1.662270,1.096503,-1.393204,1.756101,1.147198,-0.564541,0.472988,-0.027454,0.811568,-0.356363,-0.393399,0.731013,-0.133979,-3.881182,40.796856,-20.362137,-6.538515,0.518583,1.812850,-0.196061,0.000000,0.000000,0.000000,0.000000,0.000000,0.000000
12184779.000000,-2.371592,-1.662307,1.097346,-1.393557,1.755731,1.147927,-0.564682,0.478174,-0.030669,0.832579,-0.353876,-0.388405,0.730709,-0.135397,-4.079546,41.213421,-20.362137,-6.713075,0.452665,1.773483,-0.136552,0.000000,0.000000,0.000000,0.000000,0.000000,0.000000
12184780.000000,-2.371111,-1.662337,1.098179,-1.393896,1.755373,1.148676,-0.564811,0.489045,-0.033240,0.827521,-0.348856,-0.377572,0.733566,-0.133564,-4.301714,41.507000,-20.389908,-6.911439,0.386747,1.721298,-0.149369,0.000000,0.000000,0.000000,0.000000,0.000000,0.000000
12184781.000000,-2.370628,-1.662369,1.099019,-1.394232,1.755005,1.149409,-0.564938,0.487163,-0.032619,0.832261,-0.342400,-0.374155,0.736615,-0.131853,-4.500079,41.800579,-20.362137,-7.205019,0.308927,1.702071,-0.175919,0.000000,0.000000,0.000000,0.000000,0.000000,0.000000
12184782.000000,-2.370141,-1.662397,1.099838,-1.394572,1.754627,1.150147,-0.565074,0.485894,-0.028008,0.831194,-0.344154,-0.376711,0.735509,-0.132188,-4.722247,42.046551,-20.239151,-7.427186,0.362943,1.649886,-0.149369,0.000000,0.000000,0.000000,0.000000,0.000000,0.000000
12184783.000000,-2.369662,-1.662424,1.100684,-1.394895,1.754273,1.150887,-0.565198,0.482263,-0.027363,0.837997,-0.339518,-0.368661,0.734442,-0.126602,-4.944415,42.264751,-20.338333,-7.700929,0.297025,1.676437,-0.149369,0.000000,0.000000,0.000000,0.000000,0.000000,0.000000
12184784.000000,-2.369178,-1.662443,1.101527,-1.395225,1.753917,1.151614,-0.565320,0.478924,-0.021672,0.847515,-0.333350,-0.366072,0.735852,-0.121880,-5.194354,42.387737,-20.413712,-7.923097,0.267728,1.702071,-0.175919,0.000000,0.000000,0.000000,0.000000,0.000000,0.000000
12184785.000000,-2.368695,-1.662465,1.102360,-1.395545,1.753553,1.152350,-0.565448,0.478679,-0.020899,0.852064,-0.325824,-0.372789,0.735787,-0.124605,-5.416522,42.510723,-20.536697,-8.145266,0.303434,1.727706,-0.142960,0.000000,0.000000,0.000000,0.000000,0.000000,0.000000
12184786.000000,-2.368216,-1.662489,1.103199,-1.395863,1.753191,1.153078,-0.565566,0.479863,-0.023622,0.847155,-0.323020,-0.368816,0.742989,-0.124154,-5.638690,42.633709,-20.584305,-8.391237,0.327238,1.702071,-0.202470,0.000000,0.000000,0.000000,0.000000,0.000000,0.000000
12184787.000000,-2.367731,-1.662507,1.104031,-1.396182,1.752833,1.153810,-0.565697,0.483104,-0.020594,0.848557,-0.319783,-0.369383,0.736585,-0.126547,-5.860857,42.657513,-20.707291,-8.565798,0.374845,1.747848,-0.175919,0.000000,0.000000,0.000000,0.000000,0.000000,0.000000
12184788.000000,-2.367254,-1.662525,1.104878,-1.396484,1.752481,1.154536,-0.565826,0.482711,-0.021029,0.842186,-0.318548,-0.364429,0.722209,-0.129371,-6.059222,42.657513,-20.854080,-8.811769,0.351041,1.884261,-0.116410,0.000000,0.000000,0.000000,0.000000,0.000000,0.000000
12184789.000000,-2.366772,-1.662545,1.105728,-1.396800,1.752129,1.155256,-0.565942,0.481490,-0.019648,0.855456,-0.317030,-0.359075,0.723642,-0.127043,-6.233782,42.705120,-21.000870,-8.910952,0.297025,1.890670,-0.182328,0.000000,0.000000,0.000000,0.000000,0.000000,0.000000
12184790.000000,-2.366295,-1.662569,1.106562,-1.397098,1.751779,1.155991,-0.566069,0.475080,-0.022305,0.849416,-0.309284,-0.361611,0.729323,-0.125401,-6.305193,42.780499,-21.223038,-9.160891,0.303434,1.865035,-0.136552,0.000000,0.000000,0.000000,0.000000,0.000000,0.000000
12184791.000000,-2.365831,-1.662592,1.107409,-1.397399,1.751440,1.156728,-0.566189,0.469503,-0.024314,0.847261,-0.306430,-0.356384,0.732915,-0.121253,-6.332964,42.851910,-21.417435,-9.430666,0.213712,1.858627,-0.163102,0.000000,0.000000,0.000000,0.000000,0.000000,0.000000
12184792.000000,-2.365360,-1.662610,1.108239,-1.397702,1.751098,1.157437,-0.566309,0.472644,-0.023481,0.842265,-0.302628,-0.350128,0.728085,-0.123557,-6.356768,42.828106,-21.540421,-9.629030,0.135892,1.936446,-0.169511,0.000000,0.000000,0.000000,0.000000,0.000000,0.000000
12184793.000000,-2.364904,-1.662632,1.109082,-1.397993,1.750763,1.158166,-0.566433,0.472048,-0.024689,0.834431,-0.295993,-0.346112,0.725055,-0.125429,-6.281390,42.875713,-21.639603,-9.851198,0.123990,1.962081,-0.136552,0.000000,0.000000,0.000000,0.000000,0.000000,0.000000
12184794.000000,-2.364458,-1.662653,1.109922,-1.398289,1.750430,1.158890,-0.566557,0.464075,-0.021973,0.823264,-0.289012,-0.341870,0.722606,-0.126978,-6.011614,42.903484,-21.687210,-10.124941,0.088285,1.930038,-0.130143,0.000000,0.000000,0.000000,0.000000,0.000000,0.000000
12184795.000000,-2.364008,-1.662673,1.110753,-1.398577,1.750089,1.159619,-0.566677,0.460490,-0.019438,0.823176,-0.293195,-0.338058,0.723563,-0.124950,-5.813250,42.903484,-21.738785,-10.394716,0.027860,1.930038,-0.169511,0.000000,0.000000,0.000000,0.000000,0.000000,0.000000
12184796.000000,-2.363575,-1.662690,1.111585,-1.398865,1.749756,1.160347,-0.566804,0.452863,-0.016955,0.813477,-0.290903,-0.336687,0.727247,-0.123036,-5.539507,42.875713,-21.687210,-10.692263,0.015958,1.936446,-0.142960,0.000000,0.000000,0.000000,0.000000,0.000000,0.000000
12184797.000000,-2.363143,-1.662711,1.112433,-1.399159,1.749422,1.161072,-0.566932,0.444870,-0.016490,0.831967,-0.288056,-0.332565,0.727477,-0.120920,-5.194354,42.903484,-21.762589,-10.862856,0.010465,1.909896,-0.116410,0.000000,0.000000,0.000000,0.000000,0.000000,0.000000
12184798.000000,-2.362718,-1.662721,1.113262,-1.399449,1.749093,1.161808,-0.567047,0.445984,-0.013118,0.823535,-0.288660,-0.338198,0.731461,-0.116774,-4.920611,42.804302,-21.762589,-10.938234,0.015958,1.851302,-0.175919,0.000000,0.000000,0.000000,0.000000,0.000000,0.000000
12184799.000000,-2.362292,-1.662738,1.114105,-1.399754,1.748755,1.162533,-0.567175,0.437838,-0.015875,0.827819,-0.290889,-0.335190,0.715671,-0.116810,-4.698443,42.780499,-21.861771,-10.890627,-0.031649,1.741439,-0.136552,0.000000,0.000000,0.000000,0.000000,0.000000,0.000000
12184800.000000,-2.361878,-1.662760,1.114943,-1.400059,1.748417,1.163266,-0.567299,0.426773,-0.016883,0.826699,-0.294829,-0.336064,0.717493,-0.120474,-4.277911,42.851910,-22.056168,-10.767641,-0.001437,1.741439,-0.136552,0.000000,0.000000,0.000000,0.000000,0.000000,0.000000
12184801.000000,-2.361460,-1.662778,1.115793,-1.400362,1.748094,1.163998,-0.567424,0.423308,-0.019475,0.819921,-0.300904,-0.330205,0.715617,-0.118277,-4.055743,42.875713,-22.202957,-10.616884,-0.001437,1.786300,-0.130143,0.000000,0.000000,0.000000,0.000000,0.000000,0.000000
12184802.000000,-2.361051,-1.662796,1.116650,-1.400680,1.747765,1.164709,-0.567546,0.418619,-0.018224,0.835666,-0.305504,-0.334529,0.714967,-0.121375,-3.730425,42.903484,-22.500504,-10.418520,-0.019747,1.877853,-0.130143,0.000000,0.000000,0.000000,0.000000,0.000000,0.000000
12184803.000000,-2.360641,-1.662815,1.117487,-1.400991,1.747429,1.165434,-0.567661,0.417462,-0.017957,0.838511,-0.305625,-0.338383,0.713431,-0.118674,-3.460650,42.951092,-22.694901,-10.247927,-0.001437,1.981307,-0.142960,0.000000,0.000000,0.000000,0.000000,0.000000,0.000000
12184804.000000,-2.360234,-1.662843,1.118340,-1.401317,1.747090,1.166160,-0.567780,0.416628,-0.019909,0.840075,-0.311004,-0.334193,0.716800,-0.116773,-3.238482,43.097881,-23.040054,-9.974184,0.064481,1.995040,-0.142960,0.000000,0.000000,0.000000,0.000000,0.000000,0.000000
12184805.000000,-2.359832,-1.662869,1.119196,-1.401650,1.746752,1.166893,-0.567896,0.411048,-0.020589,0.850729,-0.317869,-0.334315,0.717298,-0.119416,-2.917132,43.220867,-23.309830,-9.728212,0.154203,2.039901,-0.175919,0.000000,0.000000,0.000000,0.000000,0.000000,0.000000
12184806.000000,-2.359437,-1.662899,1.120030,-1.401983,1.746414,1.167621,-0.568020,0.409019,-0.025109,0.846211,-0.319661,-0.335695,0.716309,-0.119498,-2.718768,43.391460,-23.456619,-9.454470,0.201810,2.079269,-0.136552,0.000000,0.000000,0.000000,0.000000,0.000000,0.000000
12184807.000000,-2.359040,-1.662928,1.120874,-1.402330,1.746068,1.168345,-0.568142,0.408494,-0.027926,0.850636,-0.327153,-0.336660,0.715649,-0.118003,-2.445025,43.538250,-23.702591,-9.184694,0.267728,2.039901,-0.122819,0.000000,0.000000,0.000000,0.000000,0.000000,0.000000
12184808.000000,-2.358655,-1.662963,1.121723,-1.402674,1.745722,1.169071,-0.568258,0.402419,-0.031873,0.843939,-0.332875,-0.341765,0.719075,-0.118965,-2.048296,43.760418,-23.896988,-8.934755,0.356534,2.014266,-0.155778,0.000000,0.000000,0.000000,0.000000,0.000000,0.000000
12184809.000000,-2.358272,-1.662997,1.122572,-1.403030,1.745397,1.169792,-0.568373,0.400520,-0.029588,0.839697,-0.338162,-0.338386,0.713774,-0.117137,-1.703143,43.907207,-23.948563,-8.641176,0.344633,1.974899,-0.169511,0.000000,0.000000,0.000000,0.000000,0.000000,0.000000
12184810.000000,-2.357895,-1.663033,1.123413,-1.403395,1.745064,1.170505,-0.568498,0.391023,-0.032074,0.843369,-0.341325,-0.342333,0.712592,-0.118201,-1.354022,44.101604,-23.920792,-8.367434,0.297025,1.962081,-0.110001,0.000000,0.000000,0.000000,0.000000,0.000000,0.000000
12184811.000000,-2.357523,-1.663066,1.124254,-1.403755,1.744726,1.171227,-0.568606,0.379709,-0.032272,0.835459,-0.343378,-0.340125,0.714188,-0.116918,-0.985064,44.224590,-24.019974,-8.121462,0.308927,1.949264,-0.188737,0.000000,0.000000,0.000000,0.000000,0.000000,0.000000
12184812.000000,-2.357152,-1.663094,1.125097,-1.404124,1.744395,1.171939,-0.568729,0.374932,-0.031074,0.833861,-0.346659,-0.332348,0.717994,-0.118279,-0.588336,44.296001,-24.019974,-7.923097,0.291532,1.923629,-0.122819,0.000000,0.000000,0.000000,0.000000,0.000000,0.000000
12184813.000000,-2.356772,-1.663123,1.125925,-1.404494,1.744061,1.172657,-0.568836,0.375444,-0.030205,0.830698,-0.359831,-0.332183,0.723550,-0.114451,-0.342364,44.347576,-23.920792,-7.649354,0.285123,1.936446,-0.169511,0.000000,0.000000,0.000000,0.000000,0.000000,0.000000
12184814.000000,-2.356404,-1.663146,1.126768,-1.404864,1.743722,1.173382,-0.568951,0.372587,-0.027830,0.829149,-0.366093,-0.329345,0.719374,-0.114704,-0.116229,44.323772,-23.948563,-7.478761,0.344633,1.936446,-0.155778,0.000000,0.000000,0.000000,0.000000,0.000000,0.000000
12184815.000000,-2.356029,-1.663172,1.127606,-1.405247,1.743380,1.174101,-0.569065,0.372412,-0.027007,0.832566,-0.366105,-0.330716,0.718691,-0.118321,0.030561,44.323772,-24.071548,-7.181215,0.446256,1.871444,-0.163102,0.000000,0.000000,0.000000,0.000000,0.000000,0.000000
12184816.000000,-2.355652,-1.663190,1.128443,-1.405624,1.743058,1.174819,-0.569179,0.381562,-0.020867,0.832356,-0.371974,-0.327096,0.714109,-0.120057,0.078168,44.224590,-24.095352,-6.959047,0.482877,1.858627,-0.175919,0.000000,0.000000,0.000000,0.000000,0.000000,0.000000
12184817.000000,-2.355274,-1.663205,1.129287,-1.406015,1.742726,1.175532,-0.569296,0.379039,-0.019476,0.828283,-0.373686,-0.333063,0.714882,-0.118958,0.177350,44.101604,-24.119156,-6.685304,0.470060,1.909896,-0.155778,0.000000,0.000000,0.000000,0.000000,0.000000,0.000000
12184818.000000,-2.354896,-1.663226,1.130122,-1.406406,1.742387,1.176264,-0.569411,0.377183,-0.017484,0.831459,-0.375129,-0.337126,0.718924,-0.117465,0.252729,44.077801,-24.265945,-6.439332,0.506681,1.877853,-0.155778,0.000000,0.000000,0.000000,0.000000,0.000000,0.000000
12184819.000000,-2.354517,-1.663241,1.130968,-1.406796,1.742062,1.176988,-0.569520,0.383363,-0.014750,0.829114,-0.379252,-0.329554,0.709515,-0.115380,0.228925,44.002422,-24.388931,-6.193361,0.476469,1.884261,-0.182328,0.000000,0.000000,0.000000,0.000000,0.000000,0.000000
12184820.000000,-2.354143,-1.663256,1.131813,-1.407192,1.741738,1.177694,-0.569635,0.379760,-0.015360,0.839245,-0.380670,-0.328570,0.709285,-0.119649,0.328107,43.907207,-24.535721,-5.971193,0.446256,1.995040,-0.169511,0.000000,0.000000,0.000000,0.000000,0.000000,0.000000
12184821.000000,-2.353759,-1.663266,1.132644,-1.407587,1.741408,1.178407,-0.569749,0.382562,-0.014680,0.828902,-0.381673,-0.336924,0.705266,-0.122414,0.351911,43.760418,-24.611099,-5.796632,0.422452,2.104903,-0.149369,0.000000,0.000000,0.000000,0.000000,0.000000,0.000000
12184822.000000,-2.353387,-1.663278,1.133491,-1.407982,1.741070,1.179135,-0.569858,0.379866,-0.012955,0.830487,-0.379336,-0.332994,0.708086,-0.118542,0.427289,43.685040,-24.857071,-5.626039,0.482877,2.066451,-0.188737,0.000000,0.000000,0.000000,0.000000,0.000000,0.000000
12184823.000000,-2.353009,-1.663293,1.134318,-1.408382,1.740740,1.179849,-0.569973,0.378593,-0.012844,0.828266,-0.384200,-0.331926,0.710278,-0.113014,0.451093,43.661236,-24.928482,-5.475282,0.535978,2.014266,-0.155778,0.000000,0.000000,0.000000,0.000000,0.000000,0.000000
12184824.000000,-2.352634,-1.663302,1.135144,-1.408774,1.740417,1.180577,-0.570080,0.376324,-0.010725,0.823159,-0.381204,-0.333395,0.712315,-0.109060,0.427289,43.562054,-24.904678,-5.304689,0.566190,2.014266,-0.136552,0.000000,0.000000,0.000000,0.000000,0.000000,0.000000
12184825.000000,-2.352258,-1.663314,1.135985,-1.409167,1.740084,1.181291,-0.570180,0.376268,-0.011214,0.820920,-0.383517,-0.334828,0.715543,-0.102380,0.451093,43.538250,-25.003860,-5.205507,0.625699,2.007858,-0.208878,0.000000,0.000000,0.000000,0.000000,0.000000,0.000000
12184826.000000,-2.351881,-1.663319,1.136795,-1.409549,1.739744,1.182007,-0.570287,0.375261,-0.008489,0.817877,-0.381517,-0.336542,0.710050,-0.100723,0.526471,43.391460,-24.928482,-5.153932,0.685209,1.981307,-0.202470,0.000000,0.000000,0.000000,0.000000,0.000000,0.000000
12184827.000000,-2.351509,-1.663331,1.137612,-1.409939,1.739430,1.182734,-0.570395,0.373322,-0.010164,0.807163,-0.382014,-0.329815,0.713314,-0.104758,0.526471,43.391460,-24.781693,-5.030946,0.679716,1.981307,-0.182328,0.000000,0.000000,0.000000,0.000000,0.000000,0.000000
12184828.000000,-2.351126,-1.663333,1.138414,-1.410329,1.739114,1.183443,-0.570506,0.374444,-0.007581,0.806378,-0.381823,-0.325611,0.710800,-0.106955,0.451093,43.244671,-24.634903,-4.931764,0.644010,2.007858,-0.163102,0.000000,0.000000,0.000000,0.000000,0.000000,0.000000
12184829.000000,-2.350758,-1.663342,1.139241,-1.410712,1.738794,1.184170,-0.570611,0.370155,-0.008781,0.803942,-0.382468,-0.321932,0.713343,-0.106794,0.526471,43.220867,-24.634903,-4.808778,0.637601,2.001449,-0.175919,0.000000,0.000000,0.000000,0.000000,0.000000,0.000000
12184830.000000,-2.350373,-1.663341,1.140061,-1.411101,1.738483,1.184882,-0.570714,0.370786,-0.006534,0.805724,-0.382082,-0.318508,0.719485,-0.102410,0.451093,43.074078,-24.583328,-4.685792,0.608304,2.027084,-0.202470,0.000000,0.000000,0.000000,0.000000,0.000000,0.000000
12184831.000000,-2.349992,-1.663337,1.140862,-1.411485,1.738186,1.185618,-0.570826,0.371288,-0.003417,0.802813,-0.389160,-0.304738,0.721042,-0.105958,0.375715,42.851910,-24.464310,-4.610414,0.559781,2.014266,-0.142960,0.000000,0.000000,0.000000,0.000000,0.000000,0.000000
12184832.000000,-2.349618,-1.663341,1.141684,-1.411874,1.737879,1.186356,-0.570930,0.373466,-0.004182,0.807350,-0.389259,-0.307294,0.722480,-0.107119,0.351911,42.756695,-24.559525,-4.412050,0.571683,1.968490,-0.155778,0.000000,0.000000,0.000000,0.000000,0.000000,0.000000
12184833.000000,-2.349245,-1.663344,1.142495,-1.412254,1.737570,1.187076,-0.571035,0.371688,-0.001534,0.806538,-0.384703,-0.305790,0.718908,-0.106871,0.427289,42.657513,-24.682510,-4.388246,0.596403,1.974899,-0.196061,0.000000,0.000000,0.000000,0.000000,0.000000,0.000000
12184834.000000,-2.348871,-1.663336,1.143315,-1.412648,1.737270,1.187802,-0.571145,0.380799,0.000226,0.807100,-0.386717,-0.302733,0.716247,-0.105079,0.403486,42.435345,-24.857071,-4.166078,0.613798,2.060043,-0.163102,0.000000,0.000000,0.000000,0.000000,0.000000,0.000000
12184835.000000,-2.348504,-1.663341,1.144129,-1.413024,1.736971,1.188519,-0.571244,0.377255,-0.002657,0.804037,-0.379662,-0.300722,0.722616,-0.100913,0.526471,42.387737,-24.904678,-4.142274,0.637601,2.072860,-0.188737,0.000000,0.000000,0.000000,0.000000,0.000000,0.000000
12184836.000000,-2.348134,-1.663347,1.144934,-1.413410,1.736671,1.189239,-0.571348,0.373048,-0.002116,0.803173,-0.379684,-0.301314,0.719419,-0.099078,0.574079,42.363934,-25.027664,-4.066896,0.661405,2.060043,-0.196061,0.000000,0.000000,0.000000,0.000000,0.000000,0.000000
12184837.000000,-2.347772,-1.663349,1.145746,-1.413791,1.736371,1.189956,-0.571452,0.371523,-0.003021,0.797254,-0.381265,-0.303766,0.713059,-0.098178,0.697065,42.264751,-25.099075,-3.920107,0.655912,2.112228,-0.175919,0.000000,0.000000,0.000000,0.000000,0.000000,0.000000
12184838.000000,-2.347402,-1.663354,1.146541,-1.414175,1.736071,1.190655,-0.571556,0.368814,-0.002235,0.811380,-0.379383,-0.300517,0.704980,-0.096699,0.748639,42.240948,-25.150650,-3.844728,0.673307,2.183639,-0.182328,0.000000,0.000000,0.000000,0.000000,0.000000,0.000000
12184839.000000,-2.347041,-1.663361,1.147333,-1.414551,1.735778,1.191363,-0.571666,0.364973,-0.005364,0.796116,-0.379404,-0.295508,0.699243,-0.100136,0.895429,42.240948,-24.976089,-3.745546,0.655912,2.248641,-0.163102,0.000000,0.000000,0.000000,0.000000,0.000000,0.000000
12184840.000000,-2.346690,-1.663364,1.148132,-1.414927,1.735494,1.192079,-0.571769,0.358472,-0.003174,0.789814,-0.378051,-0.293790,0.703731,-0.098392,1.022382,42.193340,-24.880875,-3.721742,0.637601,2.202865,-0.169511,0.000000,0.000000,0.000000,0.000000,0.000000,0.000000
12184841.000000,-2.346335,-1.663369,1.148915,-1.415310,1.735200,1.192794,-0.571871,0.353910,-0.002650,0.787417,-0.375635,-0.298708,0.706635,-0.100718,1.169172,42.193340,-24.757889,-3.622560,0.584501,2.163497,-0.196061,0.000000,0.000000,0.000000,0.000000,0.000000,0.000000
12184844.000000,-2.345298,-1.663367,1.151261,-1.416421,1.734309,1.194947,-0.572178,0.347511,-0.000928,0.779805,-0.378260,-0.294304,0.716098,-0.101958,1.887250,42.070354,-24.095352,-3.598757,0.703519,1.955673,-0.202470,0.000000,0.000000,0.000000,0.000000,0.000000,0.000000
12184845.000000,-2.344957,-1.663358,1.152038,-1.416799,1.734020,1.195680,-0.572285,0.347606,0.002504,0.772314,-0.377676,-0.293310,0.716741,-0.102019,2.034040,41.923565,-23.801773,-3.570986,0.703519,1.851302,-0.149369,0.000000,0.000000,0.000000,0.000000,0.000000,0.000000
12184846.000000,-2.344614,-1.663347,1.152827,-1.417175,1.733727,1.196407,-0.572378,0.342318,0.004313,0.782802,-0.374571,-0.296210,0.721396,-0.098350,2.208601,41.800579,-23.726395,-3.499574,0.751127,1.754256,-0.188737,0.000000,0.000000,0.000000,0.000000,0.000000,0.000000
12184847.000000,-2.344271,-1.663342,1.153594,-1.417547,1.733456,1.197133,-0.572477,0.343591,0.004371,0.779165,-0.372276,-0.286098,0.724608,-0.097145,2.383161,41.729168,-23.555801,-3.424196,0.661405,1.747848,-0.196061,0.000000,0.000000,0.000000,0.000000,0.000000,0.000000
12184848.000000,-2.343928,-1.663331,1.154372,-1.417922,1.733176,1.197862,-0.572582,0.343222,0.006309,0.775065,-0.368009,-0.282857,0.730265,-0.098710,2.529951,41.578411,-23.456619,-3.277406,0.673307,1.702071,-0.122819,0.000000,0.000000,0.000000,0.000000,0.000000,0.000000
12184849.000000,-2.343581,-1.663317,1.155133,-1.418303,1.732899,1.198592,-0.572670,0.341288,0.008655,0.773124,-0.378522,-0.277454,0.731490,-0.099112,2.629133,41.384014,-23.286026,-3.079042,0.601896,1.727706,-0.202470,0.000000,0.000000,0.000000,0.000000,0.000000,0.000000
12184850.000000,-2.343240,-1.663305,1.155906,-1.418669,1.732618,1.199324,-0.572767,0.341862,0.009687,0.769358,-0.371972,-0.281226,0.724617,-0.098489,2.752119,41.213421,-23.210648,-2.979860,0.601896,1.714889,-0.188737,0.000000,0.000000,0.000000,0.000000,0.000000,0.000000
12184851.000000,-2.342897,-1.663284,1.156675,-1.419035,1.732334,1.200042,-0.572873,0.339180,0.012713,0.768969,-0.368462,-0.280090,0.723287,-0.098088,2.902875,40.943645,-23.186844,-2.928285,0.649503,1.760665,-0.163102,0.000000,0.000000,0.000000,0.000000,0.000000,0.000000
12184852.000000,-2.342545,-1.663267,1.157447,-1.419395,1.732068,1.200778,-0.572966,0.347205,0.012424,0.762649,-0.363427,-0.280362,0.725318,-0.094800,2.902875,40.773052,-23.087662,-2.880678,0.632108,1.702071,-0.202470,0.000000,0.000000,0.000000,0.000000,0.000000,0.000000
12184853.000000,-2.342196,-1.663251,1.158229,-1.419751,1.731781,1.201511,-0.573068,0.346629,0.012242,0.766302,-0.361568,-0.281862,0.727286,-0.096442,2.879072,40.602459,-23.163040,-2.904482,0.733732,1.637069,-0.155778,0.000000,0.000000,0.000000,0.000000,0.000000,0.000000
12184854.000000,-2.341848,-1.663229,1.158998,-1.420114,1.731494,1.202221,-0.573162,0.346281,0.017062,0.766070,-0.360310,-0.288547,0.727751,-0.098325,2.827497,40.356487,-23.258255,-2.928285,0.793241,1.714889,-0.202470,0.000000,0.000000,0.000000,0.000000,0.000000,0.000000
12184855.000000,-2.341500,-1.663207,1.159769,-1.420467,1.731231,1.202935,-0.573261,0.345887,0.016818,0.769356,-0.356788,-0.287345,0.717666,-0.098224,2.779890,40.134319,-23.309830,-2.928285,0.745634,1.812850,-0.182328,0.000000,0.000000,0.000000,0.000000,0.000000,0.000000
12184856.000000,-2.341149,-1.663186,1.160541,-1.420823,1.730963,1.203645,-0.573362,0.347874,0.015388,0.778698,-0.351643,-0.280834,0.718711,-0.098381,2.752119,39.963726,-23.286026,-3.003664,0.709928,1.851302,-0.142960,0.000000,0.000000,0.000000,0.000000,0.000000,0.000000
12184857.000000,-2.340793,-1.663167,1.161301,-1.421161,1.730706,1.204368,-0.573451,0.350545,0.016901,0.770180,-0.346329,-0.277859,0.716765,-0.099577,2.680707,39.816936,-23.286026,-3.178224,0.596403,1.838485,-0.208878,0.000000,0.000000,0.000000,0.000000,0.000000,0.000000
12184858.000000,-2.340443,-1.663144,1.162068,-1.421511,1.730442,1.205104,-0.573547,0.349437,0.019346,0.759913,-0.345925,-0.278595,0.719296,-0.098376,2.605329,39.622540,-23.258255,-3.225832,0.524076,1.832076,-0.202470,0.000000,0.000000,0.000000,0.000000,0.000000,0.000000
12184859.000000,-2.340083,-1.663122,1.162838,-1.421852,1.730170,1.205815,-0.573646,0.355945,0.020481,0.766435,-0.340208,-0.271956,0.723028,-0.099328,2.359357,39.451946,-23.258255,-3.348818,0.482877,1.897079,-0.149369,0.000000,0.000000,0.000000,0.000000,0.000000,0.000000
12184860.000000,-2.339735,-1.663097,1.163586,-1.422198,1.729906,1.206541,-0.573733,0.352723,0.022224,0.758572,-0.340680,-0.271652,0.720399,-0.096461,2.307783,39.253582,-23.063858,-3.277406,0.476469,1.832076,-0.188737,0.000000,0.000000,0.000000,0.000000,0.000000,0.000000
12184861.000000,-2.339368,-1.663076,1.164340,-1.422538,1.729633,1.207260,-0.573828,0.355756,0.021572,0.751467,-0.333496,-0.274644,0.723904,-0.095711,2.061811,39.130596,-22.841690,-3.325014,0.559781,1.773483,-0.188737,0.000000,0.000000,0.000000,0.000000,0.000000,0.000000
12184862.000000,-2.339005,-1.663050,1.165097,-1.422866,1.729364,1.207975,-0.573928,0.354030,0.020319,0.753288,-0.334422,-0.274353,0.718447,-0.096408,1.934858,38.912395,-22.742508,-3.348818,0.578092,1.793624,-0.142960,0.000000,0.000000,0.000000,0.000000,0.000000,0.000000
12184863.000000,-2.338646,-1.663027,1.165860,-1.423195,1.729096,1.208695,-0.574013,0.359294,0.020108,0.754707,-0.331677,-0.272326,0.720471,-0.093080,1.764264,38.789410,-22.671097,-3.448000,0.547880,1.779891,-0.208878,0.000000,0.000000,0.000000,0.000000,0.000000,0.000000
12184864.000000,-2.338286,-1.663010,1.166626,-1.423512,1.728826,1.209407,-0.574113,0.359705,0.018407,0.762521,-0.324073,-0.268525,0.720400,-0.093949,1.613508,38.741802,-22.595718,-3.646364,0.559781,1.689254,-0.188737,0.000000,0.000000,0.000000,0.000000,0.000000,0.000000
12184865.000000,-2.337928,-1.662999,1.167375,-1.423830,1.728567,1.210126,-0.574204,0.361606,0.015129,0.758940,-0.322084,-0.263735,0.719760,-0.093071,1.490522,38.789410,-22.500504,-3.697939,0.554288,1.676437,-0.215287,0.000000,0.000000,0.000000,0.000000,0.000000,0.000000
12184866.000000,-2.337567,-1.662985,1.168144,-1.424149,1.728312,1.210822,-0.574303,0.361154,0.013560,0.759454,-0.319353,-0.259377,0.704039,-0.093916,1.367536,38.813213,-22.548111,-3.769350,0.524076,1.760665,-0.182328,0.000000,0.000000,0.000000,0.000000,0.000000,0.000000
12184867.000000,-2.337193,-1.662972,1.168899,-1.424474,1.728049,1.211516,-0.574404,0.364777,0.011914,0.753078,-0.322128,-0.261429,0.696352,-0.094307,1.145368,38.864788,-22.595718,-3.721742,0.500272,1.884261,-0.155778,0.000000,0.000000,0.000000,0.000000,0.000000,0.000000
12184868.000000,-2.336835,-1.662962,1.169663,-1.424781,1.727788,1.212236,-0.574493,0.360864,0.010942,0.749636,-0.318414,-0.257725,0.700113,-0.087665,0.994611,38.912395,-22.694901,-3.844728,0.470060,1.844894,-0.202470,0.000000,0.000000,0.000000,0.000000,0.000000,0.000000
12184869.000000,-2.336465,-1.662957,1.170409,-1.425089,1.727520,1.212948,-0.574590,0.361639,0.008446,0.748149,-0.311982,-0.256717,0.702525,-0.094623,0.796247,39.035381,-22.718704,-3.967714,0.512174,1.721298,-0.182328,0.000000,0.000000,0.000000,0.000000,0.000000,0.000000
12184870.000000,-2.336092,-1.662951,1.171174,-1.425384,1.727268,1.213663,-0.574691,0.362628,0.007548,0.756043,-0.309943,-0.262837,0.704766,-0.099901,0.601850,39.130596,-22.817886,-4.142274,0.488370,1.676437,-0.136552,0.000000,0.000000,0.000000,0.000000,0.000000,0.000000
12184871.000000,-2.335723,-1.662944,1.171937,-1.425688,1.727012,1.214344,-0.574777,0.363551,0.008124,0.757020,-0.301869,-0.260270,0.700428,-0.095070,0.427289,39.182171,-22.865494,-4.312868,0.506681,1.812850,-0.221696,0.000000,0.000000,0.000000,0.000000,0.000000,0.000000
12184872.000000,-2.335353,-1.662946,1.172680,-1.425989,1.726750,1.215044,-0.574875,0.363421,0.001895,0.754191,-0.296845,-0.259686,0.698795,-0.094886,0.252729,39.376568,-22.770279,-4.439821,0.518583,1.916305,-0.208878,0.000000,0.000000,0.000000,0.000000,0.000000,0.000000
12184873.000000,-2.334994,-1.662951,1.173422,-1.426276,1.726495,1.215753,-0.574971,0.365979,-0.003163,0.740666,-0.295662,-0.257820,0.699924,-0.097383,0.105939,39.598736,-22.500504,-4.610414,0.535978,1.923629,-0.142960,0.000000,0.000000,0.000000,0.000000,0.000000,0.000000
12184874.000000,-2.334625,-1.662951,1.174170,-1.426566,1.726243,1.216450,-0.575061,0.366914,-0.001796,0.756121,-0.290391,-0.254662,0.695601,-0.094851,0.006757,39.745525,-22.500504,-4.784975,0.518583,1.871444,-0.182328,0.000000,0.000000,0.000000,0.000000,0.000000,0.000000
12184875.000000,-2.334252,-1.662947,1.174918,-1.426846,1.726006,1.217161,-0.575153,0.369979,-0.001613,0.749845,-0.288056,-0.252556,0.699365,-0.099010,-0.167803,39.793133,-22.353714,-4.931764,0.398649,1.851302,-0.175919,0.000000,0.000000,0.000000,0.000000,0.000000,0.000000
12184876.000000,-2.333890,-1.662943,1.175667,-1.427129,1.725765,1.217883,-0.575246,0.363849,0.000982,0.744583,-0.286128,-0.245997,0.705156,-0.097330,-0.266986,39.868511,-22.230728,-5.078554,0.374845,1.741439,-0.188737,0.000000,0.000000,0.000000,0.000000,0.000000,0.000000
12184877.000000,-2.333520,-1.662946,1.176418,-1.427416,1.725513,1.218602,-0.575342,0.363026,0.000500,0.752326,-0.286875,-0.248201,0.710549,-0.096538,-0.489153,40.039104,-22.079971,-5.130128,0.362943,1.597701,-0.188737,0.000000,0.000000,0.000000,0.000000,0.000000,0.000000
12184878.000000,-2.333159,-1.662947,1.177155,-1.427683,1.725267,1.219317,-0.575439,0.365376,-0.001780,0.741303,-0.277085,-0.248674,0.715425,-0.092760,-0.612139,40.162090,-21.909378,-5.328493,0.351041,1.617843,-0.149369,0.000000,0.000000,0.000000,0.000000,0.000000,0.000000
12184879.000000,-2.332791,-1.662942,1.177901,-1.427963,1.725013,1.220024,-0.575529,0.366700,-0.001170,0.742234,-0.278633,-0.245596,0.712816,-0.090974,-0.711321,40.185894,-21.738785,-5.427675,0.393156,1.637069,-0.188737,0.000000,0.000000,0.000000,0.000000,0.000000,0.000000
12184880.000000,-2.332425,-1.662937,1.178634,-1.428221,1.724768,1.220737,-0.575621,0.367040,0.001706,0.736695,-0.274577,-0.247194,0.707154,-0.090345,-0.786700,40.233501,-21.591995,-5.697450,0.416959,1.630660,-0.196061,0.000000,0.000000,0.000000,0.000000,0.000000,0.000000
12184881.000000,-2.332079,-1.662935,1.179378,-1.428483,1.724533,1.221463,-0.575718,0.360257,0.000610,0.734439,-0.267605,-0.242886,0.706865,-0.092955,-0.687518,40.281109,-21.469009,-5.919618,0.422452,1.519881,-0.142960,0.000000,0.000000,0.000000,0.000000,0.000000,0.000000
12184882.000000,-2.331717,-1.662928,1.180122,-1.428757,1.724286,1.222185,-0.575805,0.360602,0.001403,0.741616,-0.270556,-0.243906,0.714240,-0.091651,-0.810504,40.257305,-21.516617,-6.070375,0.422452,1.442062,-0.182328,0.000000,0.000000,0.000000,0.000000,0.000000,0.000000
12184883.000000,-2.331361,-1.662920,1.180866,-1.429029,1.724049,1.222893,-0.575900,0.367055,0.005537,0.741093,-0.272335,-0.237940,0.712053,-0.096957,-0.885882,40.209698,-21.469009,-6.117982,0.369352,1.526290,-0.149369,0.000000,0.000000,0.000000,0.000000,0.000000,0.000000
12184884.000000,-2.330997,-1.662919,1.181619,-1.429309,1.723809,1.223599,-0.575992,0.365610,0.004202,0.741494,-0.272884,-0.240700,0.715021,-0.091504,-1.008868,40.209698,-21.445206,-6.018800,0.362943,1.643478,-0.142960,0.000000,0.000000,0.000000,0.000000,0.000000,0.000000
12184885.000000,-2.330630,-1.662903,1.182358,-1.429588,1.723577,1.224315,-0.576078,0.361897,0.007732,0.739221,-0.279311,-0.238412,0.719943,-0.085901,-1.159625,40.015301,-21.469009,-6.018800,0.320829,1.695663,-0.182328,0.000000,0.000000,0.000000,0.000000,0.000000,0.000000
12184886.000000,-2.330278,-1.662893,1.183117,-1.429867,1.723356,1.225044,-0.576171,0.357001,0.008319,0.741576,-0.281106,-0.237997,0.714525,-0.089770,-1.231036,39.892315,-21.591995,-5.919618,0.219205,1.611434,-0.136552,0.000000,0.000000,0.000000,0.000000,0.000000,0.000000
12184887.000000,-2.329920,-1.662884,1.183865,-1.430133,1.723120,1.225765,-0.576248,0.356767,0.008638,0.746097,-0.274197,-0.239612,0.715412,-0.088286,-1.306414,39.769329,-21.762589,-5.994997,0.183500,1.539108,-0.196061,0.000000,0.000000,0.000000,0.000000,0.000000,0.000000
12184888.000000,-2.329566,-1.662872,1.184631,-1.430399,1.722876,1.226479,-0.576335,0.354562,0.009354,0.750070,-0.273272,-0.242564,0.714892,-0.090448,-1.282611,39.622540,-21.960953,-6.070375,0.219205,1.597701,-0.182328,0.000000,0.000000,0.000000,0.000000,0.000000,0.000000
12184889.000000,-2.329221,-1.662859,1.185395,-1.430675,1.722637,1.227182,-0.576427,0.349461,0.009791,0.747223,-0.272396,-0.240320,0.709679,-0.092149,-1.231036,39.475750,-22.107742,-6.018800,0.243009,1.806442,-0.155778,0.000000,0.000000,0.000000,0.000000,0.000000,0.000000
12184890.000000,-2.328873,-1.662848,1.186138,-1.430945,1.722388,1.227873,-0.576512,0.345039,0.011553,0.745744,-0.269743,-0.242803,0.709692,-0.086941,-1.159625,39.400372,-22.131546,-6.042604,0.332731,1.936446,-0.182328,0.000000,0.000000,0.000000,0.000000,0.000000,0.000000
12184891.000000,-2.328535,-1.662839,1.186897,-1.431218,1.722148,1.228581,-0.576603,0.339138,0.012220,0.744758,-0.269469,-0.241563,0.705182,-0.093484,-1.084246,39.352764,-22.202957,-5.994997,0.393156,1.909896,-0.142960,0.000000,0.000000,0.000000,0.000000,0.000000,0.000000
12184892.000000,-2.328191,-1.662825,1.187666,-1.431487,1.721909,1.229284,-0.576686,0.340636,0.010323,0.761870,-0.266765,-0.241399,0.709984,-0.087599,-0.985064,39.281353,-22.377518,-6.018800,0.356534,1.832076,-0.169511,0.000000,0.000000,0.000000,0.000000,0.000000,0.000000
12184893.000000,-2.327846,-1.662816,1.188419,-1.431757,1.721664,1.229985,-0.576768,0.341226,0.007261,0.756683,-0.272303,-0.246299,0.702537,-0.088308,-0.862078,39.281353,-22.472733,-5.971193,0.332731,1.786300,-0.175919,0.000000,0.000000,0.000000,0.000000,0.000000,0.000000
12184894.000000,-2.327512,-1.662799,1.189179,-1.432040,1.721432,1.230694,-0.576853,0.338392,0.010060,0.758017,-0.272864,-0.244364,0.700311,-0.090539,-0.687518,39.205975,-22.500504,-5.848207,0.267728,1.747848,-0.155778,0.000000,0.000000,0.000000,0.000000,0.000000,0.000000
12184895.000000,-2.327172,-1.662796,1.189926,-1.432324,1.721195,1.231380,-0.576936,0.339221,0.008498,0.760598,-0.272387,-0.237193,0.696409,-0.085888,-0.612139,39.281353,-22.325943,-5.749025,0.273221,1.793624,-0.169511,0.000000,0.000000,0.000000,0.000000,0.000000,0.000000
12184896.000000,-2.326846,-1.662782,1.190669,-1.432609,1.720964,1.232073,-0.577017,0.337298,0.008043,0.760454,-0.277814,-0.236062,0.694012,-0.081825,-0.489153,39.205975,-22.254532,-5.550661,0.297025,1.897079,-0.182328,0.000000,0.000000,0.000000,0.000000,0.000000,0.000000
12184897.000000,-2.326512,-1.662769,1.191429,-1.432893,1.720735,1.232763,-0.577103,0.338702,0.010035,0.756261,-0.277164,-0.237110,0.697592,-0.081482,-0.413775,39.158367,-22.254532,-5.526857,0.231107,1.909896,-0.142960,0.000000,0.000000,0.000000,0.000000,0.000000,0.000000
12184898.000000,-2.326176,-1.662763,1.192178,-1.433184,1.720492,1.233468,-0.577180,0.334070,0.009357,0.754031,-0.285125,-0.240621,0.698969,-0.082407,-0.314593,39.205975,-22.302139,-5.399904,0.237516,1.832076,-0.188737,0.000000,0.000000,0.000000,0.000000,0.000000,0.000000
12184899.000000,-2.325850,-1.662752,1.192940,-1.433468,1.720255,1.234186,-0.577267,0.332837,0.010842,0.749822,-0.284320,-0.238954,0.705630,-0.082086,-0.167803,39.182171,-22.325943,-5.328493,0.267728,1.695663,-0.136552,0.000000,0.000000,0.000000,0.000000,0.000000,0.000000
12184900.000000,-2.325520,-1.662741,1.193710,-1.433766,1.720017,1.234877,-0.577345,0.329618,0.011773,0.760655,-0.284365,-0.238036,0.697210,-0.079847,-0.092425,39.158367,-22.472733,-5.205507,0.327238,1.689254,-0.142960,0.000000,0.000000,0.000000,0.000000,0.000000,0.000000
12184901.000000,-2.325191,-1.662733,1.194469,-1.434070,1.719782,1.235566,-0.577419,0.338383,0.011924,0.762508,-0.292538,-0.237892,0.689388,-0.081489,-0.144000,39.158367,-22.623489,-4.907960,0.393156,1.819259,-0.196061,0.000000,0.000000,0.000000,0.000000,0.000000,0.000000
12184902.000000,-2.324864,-1.662726,1.195241,-1.434363,1.719549,1.236240,-0.577502,0.336709,0.011485,0.761755,-0.293821,-0.240793,0.685038,-0.081286,-0.044818,39.182171,-22.817886,-4.784975,0.398649,1.949264,-0.155778,0.000000,0.000000,0.000000,0.000000,0.000000,0.000000
12184903.000000,-2.324533,-1.662724,1.196003,-1.434669,1.719304,1.236951,-0.577579,0.333709,0.006943,0.761193,-0.297754,-0.241307,0.689672,-0.083321,-0.017047,39.253582,-23.040054,-4.562807,0.440763,1.871444,-0.188737,0.000000,0.000000,0.000000,0.000000,0.000000,0.000000
12184904.000000,-2.324206,-1.662720,1.196772,-1.434957,1.719074,1.237658,-0.577663,0.331444,0.003583,0.758357,-0.296386,-0.236739,0.698640,-0.087063,0.030561,39.328960,-23.210648,-4.511232,0.410551,1.819259,-0.163102,0.000000,0.000000,0.000000,0.000000,0.000000,0.000000
12184905.000000,-2.323887,-1.662722,1.197553,-1.435254,1.718842,1.238345,-0.577745,0.327244,0.000050,0.774712,-0.296987,-0.228495,0.694957,-0.084189,0.153547,39.451946,-23.504227,-4.364442,0.393156,1.877853,-0.155778,0.000000,0.000000,0.000000,0.000000,0.000000,0.000000
12184906.000000,-2.323561,-1.662718,1.198312,-1.435547,1.718615,1.239031,-0.577823,0.324610,0.002495,0.771127,-0.292470,-0.233157,0.693192,-0.083604,0.153547,39.499554,-23.627213,-4.312868,0.405057,2.014266,-0.215287,0.000000,0.000000,0.000000,0.000000,0.000000,0.000000
12184907.000000,-2.323249,-1.662723,1.199070,-1.435844,1.718382,1.239726,-0.577909,0.321663,-0.000646,0.771448,-0.290772,-0.233472,0.687894,-0.083668,0.328107,39.622540,-23.603409,-4.189882,0.446256,2.027084,-0.155778,0.000000,0.000000,0.000000,0.000000,0.000000,0.000000
12184908.000000,-2.322927,-1.662728,1.199819,-1.436141,1.718137,1.240417,-0.577989,0.317988,-0.002882,0.767323,-0.292400,-0.237033,0.689151,-0.081034,0.403486,39.745525,-23.603409,-4.090700,0.524076,2.014266,-0.155778,0.000000,0.000000,0.000000,0.000000,0.000000,0.000000
12184909.000000,-2.322613,-1.662732,1.200582,-1.436441,1.717910,1.241109,-0.578066,0.318040,-0.002716,0.755021,-0.295351,-0.232947,0.688927,-0.077855,0.526471,39.793133,-23.627213,-3.920107,0.482877,2.001449,-0.202470,0.000000,0.000000,0.000000,0.000000,0.000000,0.000000
12184910.000000,-2.322301,-1.662738,1.201342,-1.436742,1.717682,1.241806,-0.578152,0.314364,-0.002685,0.750027,-0.296577,-0.230840,0.691585,-0.078812,0.673261,39.840740,-23.555801,-3.769350,0.458158,1.936446,-0.155778,0.000000,0.000000,0.000000,0.000000,0.000000,0.000000
12184911.000000,-2.321989,-1.662744,1.202083,-1.437033,1.717448,1.242509,-0.578226,0.309480,-0.003374,0.744623,-0.302252,-0.231484,0.699435,-0.076414,0.772443,39.916119,-23.409012,-3.797121,0.488370,1.825668,-0.196061,0.000000,0.000000,0.000000,0.000000,0.000000,0.000000
12184912.000000,-2.321683,-1.662749,1.202835,-1.437334,1.717222,1.243218,-0.578310,0.308859,-0.003785,0.744620,-0.300543,-0.231481,0.704233,-0.076307,0.895429,39.987530,-23.210648,-3.721742,0.506681,1.741439,-0.196061,0.000000,0.000000,0.000000,0.000000,0.000000,0.000000
12184913.000000,-2.321372,-1.662758,1.203592,-1.437631,1.716996,1.243904,-0.578396,0.306378,-0.004743,0.752436,-0.295985,-0.231545,0.701259,-0.077538,0.994611,40.086712,-23.063858,-3.646364,0.494779,1.832076,-0.155778,0.000000,0.000000,0.000000,0.000000,0.000000,0.000000
12184914.000000,-2.321059,-1.662757,1.204334,-1.437928,1.716770,1.244599,-0.578473,0.309282,-0.002529,0.748781,-0.295659,-0.225527,0.693137,-0.081126,0.994611,40.062908,-22.865494,-3.598757,0.494779,1.930038,-0.169511,0.000000,0.000000,0.000000,0.000000,0.000000,0.000000
12184915.000000,-2.320757,-1.662763,1.205082,-1.438227,1.716547,1.245308,-0.578552,0.308184,-0.003300,0.745057,-0.295183,-0.221518,0.696170,-0.078719,1.121564,40.134319,-22.742508,-3.523378,0.500272,1.832076,-0.188737,0.000000,0.000000,0.000000,0.000000,0.000000,0.000000
12184916.000000,-2.320445,-1.662756,1.205831,-1.438525,1.716321,1.246027,-0.578630,0.307880,0.000070,0.745846,-0.300786,-0.219487,0.704441,-0.081757,1.093793,40.039104,-22.770279,-3.448000,0.535978,1.682845,-0.182328,0.000000,0.000000,0.000000,0.000000,0.000000,0.000000
12184917.000000,-2.320139,-1.662755,1.206583,-1.438828,1.716110,1.246741,-0.578706,0.310040,0.001285,0.743879,-0.301300,-0.215350,0.700746,-0.079645,1.093793,39.987530,-22.770279,-3.301210,0.506681,1.649886,-0.196061,0.000000,0.000000,0.000000,0.000000,0.000000,0.000000
12184918.000000,-2.319830,-1.662750,1.207324,-1.439132,1.715897,1.247435,-0.578785,0.309785,0.002551,0.746583,-0.301066,-0.212237,0.701368,-0.079266,1.145368,39.916119,-22.742508,-3.154421,0.488370,1.682845,-0.175919,0.000000,0.000000,0.000000,0.000000,0.000000,0.000000
12184919.000000,-2.319520,-1.662740,1.208076,-1.439430,1.715667,1.248136,-0.578862,0.309434,0.005152,0.744986,-0.301979,-0.219612,0.700079,-0.077320,1.093793,39.769329,-22.742508,-2.979860,0.559781,1.714889,-0.202470,0.000000,0.000000,0.000000,0.000000,0.000000,0.000000
12184920.000000,-2.319209,-1.662730,1.208833,-1.439730,1.715450,1.248821,-0.578941,0.304964,0.006882,0.749014,-0.297581,-0.215447,0.700217,-0.076299,1.069990,39.622540,-22.794083,-2.856874,0.530485,1.779891,-0.215287,0.000000,0.000000,0.000000,0.000000,0.000000,0.000000
12184921.000000,-2.318896,-1.662716,1.209577,-1.440024,1.715230,1.249516,-0.579027,0.302413,0.008589,0.750446,-0.292893,-0.214838,0.698062,-0.078660,0.994611,39.451946,-22.794083,-2.805300,0.518583,1.773483,-0.149369,0.000000,0.000000,0.000000,0.000000,0.000000,0.000000
12184922.000000,-2.318594,-1.662705,1.210339,-1.440316,1.715013,1.250220,-0.579100,0.305642,0.009167,0.748927,-0.296724,-0.214064,0.694609,-0.075244,0.994611,39.305157,-23.016251,-2.757692,0.542386,1.773483,-0.215287,0.000000,0.000000,0.000000,0.000000,0.000000,0.000000
12184923.000000,-2.318285,-1.662691,1.211077,-1.440612,1.714801,1.250904,-0.579181,0.306208,0.010757,0.758268,-0.294490,-0.216315,0.688792,-0.076103,1.046186,39.106792,-23.016251,-2.733888,0.518583,1.793624,-0.188737,0.000000,0.000000,0.000000,0.000000,0.000000,0.000000
12184924.000000,-2.317970,-1.662686,1.211828,-1.440907,1.714578,1.251596,-0.579263,0.307663,0.015065,0.748887,-0.295823,-0.226011,0.686006,-0.076873,0.947004,39.035381,-23.163040,-2.634706,0.584501,1.877853,-0.142960,0.000000,0.000000,0.000000,0.000000,0.000000,0.000000
12184925.000000,-2.317669,-1.662672,1.212582,-1.441203,1.714361,1.252290,-0.579334,0.302416,0.014555,0.750046,-0.294864,-0.221782,0.686889,-0.074151,0.970807,38.864788,-23.186844,-2.606935,0.596403,1.903487,-0.196061,0.000000,0.000000,0.000000,0.000000,0.000000,0.000000
12184926.000000,-2.317365,-1.662662,1.213323,-1.441506,1.714147,1.252976,-0.579414,0.298624,0.012971,0.745952,-0.296815,-0.219260,0.683741,-0.071020,0.970807,38.741802,-23.234451,-2.483949,0.584501,1.903487,-0.163102,0.000000,0.000000,0.000000,0.000000,0.000000,0.000000
12184927.000000,-2.317068,-1.662651,1.214069,-1.441790,1.713939,1.253666,-0.579487,0.296285,0.011818,0.734981,-0.290077,-0.215651,0.687729,-0.070638,0.970807,38.618816,-23.210648,-2.559328,0.566190,1.923629,-0.202470,0.000000,0.000000,0.000000,0.000000,0.000000,0.000000
12184928.000000,-2.316774,-1.662636,1.214820,-1.442087,1.713739,1.254350,-0.579565,0.295250,0.012089,0.730969,-0.289396,-0.210228,0.685237,-0.072189,1.069990,38.448223,-23.234451,-2.559328,0.476469,1.897079,-0.188737,0.000000,0.000000,0.000000,0.000000,0.000000,0.000000
12184929.000000,-2.316472,-1.662630,1.215550,-1.442371,1.713532,1.255048,-0.579643,0.295086,0.009987,0.729883,-0.292668,-0.209627,0.688810,-0.073869,1.145368,38.372845,-23.087662,-2.658510,0.470060,1.832076,-0.149369,0.000000,0.000000,0.000000,0.000000,0.000000,0.000000
12184930.000000,-2.316176,-1.662625,1.216285,-1.442660,1.713323,1.255743,-0.579712,0.298580,0.009956,0.727768,-0.288334,-0.211643,0.685642,-0.068474,1.216779,38.372845,-22.917068,-2.682314,0.518583,1.793624,-0.175919,0.000000,0.000000,0.000000,0.000000,0.000000,0.000000
12184931.000000,-2.315876,-1.662613,1.217024,-1.442953,1.713114,1.256420,-0.579785,0.296299,0.013050,0.736663,-0.285567,-0.209396,0.687547,-0.070146,1.216779,38.249859,-22.770279,-2.682314,0.500272,1.884261,-0.169511,0.000000,0.000000,0.000000,0.000000,0.000000,0.000000
12184932.000000,-2.315585,-1.662603,1.217757,-1.443233,1.712910,1.257110,-0.579853,0.293589,0.013930,0.736237,-0.282008,-0.204694,0.687579,-0.073978,1.268354,38.178448,-22.671097,-2.757692,0.524076,1.871444,-0.202470,0.000000,0.000000,0.000000,0.000000,0.000000,0.000000
12184933.000000,-2.315289,-1.662598,1.218491,-1.443519,1.712703,1.257814,-0.579928,0.296340,0.008825,0.733587,-0.280931,-0.201959,0.679486,-0.075207,1.292158,38.226055,-22.571915,-2.733888,0.571683,1.747848,-0.175919,0.000000,0.000000,0.000000,0.000000,0.000000,0.000000
12184934.000000,-2.314992,-1.662583,1.219224,-1.443804,1.712505,1.258525,-0.579997,0.292805,0.010659,0.733270,-0.276357,-0.196798,0.692221,-0.075223,1.367536,38.178448,-22.571915,-2.757692,0.535978,1.591293,-0.175919,0.000000,0.000000,0.000000,0.000000,0.000000,0.000000
12184935.000000,-2.314698,-1.662576,1.219969,-1.444084,1.712309,1.259228,-0.580066,0.295097,0.009774,0.733758,-0.275033,-0.194737,0.694862,-0.074548,1.367536,38.226055,-22.671097,-2.682314,0.547880,1.572067,-0.196061,0.000000,0.000000,0.000000,0.000000,0.000000,0.000000
12184936.000000,-2.314394,-1.662570,1.220706,-1.444358,1.712117,1.259912,-0.580139,0.295128,0.009865,0.734076,-0.274943,-0.195205,0.694093,-0.075150,1.292158,38.249859,-22.742508,-2.682314,0.482877,1.662704,-0.182328,0.000000,0.000000,0.000000,0.000000,0.000000,0.000000
12184937.000000,-2.314102,-1.662565,1.221450,-1.444633,1.711915,1.260611,-0.580212,0.292038,0.009343,0.727505,-0.272638,-0.202961,0.687653,-0.075809,1.367536,38.301434,-22.817886,-2.658510,0.494779,1.676437,-0.169511,0.000000,0.000000,0.000000,0.000000,0.000000,0.000000
12184938.000000,-2.313812,-1.662564,1.222193,-1.444901,1.711709,1.261301,-0.580281,0.291374,0.007398,0.726834,-0.269095,-0.201952,0.688044,-0.074383,1.391340,38.424419,-22.917068,-2.706117,0.571683,1.682845,-0.196061,0.000000,0.000000,0.000000,0.000000,0.000000,0.000000
12184939.000000,-2.313519,-1.662567,1.222926,-1.445168,1.711524,1.261989,-0.580358,0.293227,0.005152,0.727838,-0.269498,-0.197670,0.684618,-0.076415,1.415143,38.595013,-23.063858,-2.781496,0.518583,1.793624,-0.149369,0.000000,0.000000,0.000000,0.000000,0.000000,0.000000
12184940.000000,-2.313230,-1.662564,1.223670,-1.445428,1.711332,1.262686,-0.580425,0.291533,0.002729,0.732371,-0.269408,-0.195444,0.680835,-0.075155,1.466718,38.666424,-23.186844,-2.880678,0.524076,1.903487,-0.163102,0.000000,0.000000,0.000000,0.000000,0.000000,0.000000
12184941.000000,-2.312929,-1.662566,1.224400,-1.445688,1.711139,1.263381,-0.580492,0.293116,0.002168,0.746888,-0.261480,-0.193873,0.684224,-0.073684,1.391340,38.813213,-23.234451,-3.003664,0.535978,1.890670,-0.196061,0.000000,0.000000,0.000000,0.000000,0.000000,0.000000
12184942.000000,-2.312635,-1.662571,1.225129,-1.445944,1.710942,1.264098,-0.580564,0.292594,-0.001191,0.743059,-0.257858,-0.202239,0.694137,-0.074858,1.367536,38.960003,-23.135269,-3.055238,0.559781,1.779891,-0.163102,0.000000,0.000000,0.000000,0.000000,0.000000,0.000000
12184943.000000,-2.312343,-1.662572,1.225873,-1.446201,1.710752,1.264803,-0.580630,0.292125,-0.002516,0.736539,-0.256769,-0.202471,0.701531,-0.073173,1.268354,39.059185,-23.163040,-3.178224,0.530485,1.773483,-0.208878,0.000000,0.000000,0.000000,0.000000,0.000000,0.000000
12184944.000000,-2.312052,-1.662572,1.226616,-1.446461,1.710556,1.265495,-0.580703,0.290982,-0.001785,0.740950,-0.254369,-0.197214,0.697807,-0.069479,1.268354,39.082989,-23.210648,-3.225832,0.506681,1.800033,-0.196061,0.000000,0.000000,0.000000,0.000000,0.000000,0.000000
12184945.000000,-2.311764,-1.662578,1.227342,-1.446712,1.710366,1.266204,-0.580771,0.290643,-0.003174,0.732465,-0.255584,-0.194739,0.696748,-0.070997,1.268354,39.182171,-23.087662,-3.301210,0.506681,1.735030,-0.196061,0.000000,0.000000,0.000000,0.000000,0.000000,0.000000
12184946.000000,-2.311466,-1.662578,1.228067,-1.446959,1.710172,1.266900,-0.580845,0.291447,-0.001864,0.728024,-0.249843,-0.193476,0.698213,-0.068243,1.216779,39.182171,-22.917068,-3.475771,0.524076,1.656295,-0.169511,0.000000,0.000000,0.000000,0.000000,0.000000,0.000000
12184947.000000,-2.311176,-1.662578,1.228790,-1.447204,1.709986,1.267601,-0.580913,0.286992,-0.000496,0.729977,-0.252322,-0.191254,0.695978,-0.068959,1.244550,39.158367,-22.841690,-3.622560,0.506681,1.662704,-0.169511,0.000000,0.000000,0.000000,0.000000,0.000000,0.000000
12184948.000000,-2.310885,-1.662575,1.229525,-1.447445,1.709805,1.268292,-0.580977,0.289396,0.001018,0.727487,-0.242642,-0.193021,0.691237,-0.069218,1.169172,39.106792,-22.794083,-3.745546,0.440763,1.727706,-0.202470,0.000000,0.000000,0.000000,0.000000,0.000000,0.000000
12184949.000000,-2.310593,-1.662577,1.230257,-1.447685,1.709619,1.268980,-0.581052,0.288352,0.000228,0.733210,-0.239228,-0.190079,0.690837,-0.072202,1.121564,39.130596,-22.623489,-3.844728,0.405057,1.735030,-0.163102,0.000000,0.000000,0.000000,0.000000,0.000000,0.000000
12184950.000000,-2.310299,-1.662574,1.230976,-1.447923,1.709426,1.269682,-0.581118,0.296342,0.001345,0.731863,-0.238138,-0.190179,0.692234,-0.072316,0.994611,39.082989,-22.448929,-3.892336,0.416959,1.656295,-0.182328,0.000000,0.000000,0.000000,0.000000,0.000000,0.000000
12184951.000000,-2.309993,-1.662571,1.231705,-1.448155,1.709239,1.270366,-0.581186,0.295550,0.002070,0.734160,-0.235552,-0.190312,0.707898,-0.072874,0.796247,39.035381,-22.377518,-3.991518,0.434354,1.670028,-0.182328,0.000000,0.000000,0.000000,0.000000,0.000000,0.000000
12184952.000000,-2.309695,-1.662567,1.232432,-1.448390,1.709057,1.271058,-0.581257,0.295469,0.002632,0.731916,-0.237511,-0.189827,0.702634,-0.069046,0.697065,38.983807,-22.448929,-4.019289,0.398649,1.695663,-0.175919,0.000000,0.000000,0.000000,0.000000,0.000000,0.000000
12184953.000000,-2.309394,-1.662562,1.233155,-1.448621,1.708877,1.271755,-0.581324,0.296010,0.003459,0.721560,-0.232812,-0.184011,0.695419,-0.069994,0.451093,38.912395,-22.401321,-4.066896,0.398649,1.670028,-0.182328,0.000000,0.000000,0.000000,0.000000,0.000000,0.000000
12184954.000000,-2.309096,-1.662559,1.233878,-1.448846,1.708690,1.272452,-0.581396,0.292970,0.003445,0.723046,-0.227687,-0.186978,0.695460,-0.071635,0.328107,38.864788,-22.353714,-4.166078,0.470060,1.630660,-0.169511,0.000000,0.000000,0.000000,0.000000,0.000000,0.000000
12184955.000000,-2.308798,-1.662560,1.234618,-1.449063,1.708518,1.273145,-0.581470,0.294072,0.001759,0.722158,-0.224403,-0.188138,0.692149,-0.073308,0.205121,38.888592,-22.500504,-4.265260,0.393156,1.670028,-0.149369,0.000000,0.000000,0.000000,0.000000,0.000000,0.000000
12184956.000000,-2.308501,-1.662553,1.235356,-1.449285,1.708332,1.273828,-0.581535,0.297220,0.003507,0.725855,-0.224975,-0.187111,0.694273,-0.067629,0.054365,38.789410,-22.571915,-4.388246,0.374845,1.727706,-0.182328,0.000000,0.000000,0.000000,0.000000,0.000000,0.000000
12184957.000000,-2.308197,-1.662555,1.236102,-1.449503,1.708145,1.274523,-0.581607,0.297355,0.001792,0.734197,-0.225747,-0.184181,0.697798,-0.069903,-0.092425,38.813213,-22.770279,-4.562807,0.398649,1.735030,-0.175919,0.000000,0.000000,0.000000,0.000000,0.000000,0.000000
12184958.000000,-2.307893,-1.662559,1.236829,-1.449719,1.707963,1.275210,-0.581671,0.302355,-0.000004,0.729003,-0.220333,-0.185593,0.692906,-0.070130,-0.290789,38.864788,-22.817886,-4.634218,0.416959,1.779891,-0.208878,0.000000,0.000000,0.000000,0.000000,0.000000,0.000000
12184959.000000,-2.307585,-1.662560,1.237571,-1.449929,1.707785,1.275893,-0.581744,0.304002,-0.000554,0.732817,-0.217237,-0.180638,0.691913,-0.073071,-0.540728,38.888592,-22.964676,-4.784975,0.416959,1.793624,-0.163102,0.000000,0.000000,0.000000,0.000000,0.000000,0.000000
12184960.000000,-2.307283,-1.662562,1.238300,-1.450144,1.707612,1.276576,-0.581814,0.300638,-0.000921,0.734727,-0.221954,-0.179950,0.686395,-0.073843,-0.711321,38.912395,-23.111465,-4.907960,0.351041,1.812850,-0.136552,0.000000,0.000000,0.000000,0.000000,0.000000,0.000000
12184961.000000,-2.306983,-1.662567,1.239037,-1.450358,1.707441,1.277274,-0.581874,0.303344,-0.002281,0.733942,-0.216764,-0.176360,0.688268,-0.071382,-0.862078,38.983807,-23.186844,-5.007143,0.339139,1.793624,-0.202470,0.000000,0.000000,0.000000,0.000000,0.000000,0.000000
12184962.000000,-2.306680,-1.662573,1.239774,-1.450564,1.707267,1.277953,-0.581945,0.300696,-0.002725,0.736765,-0.211580,-0.173428,0.680135,-0.068933,-0.961260,39.035381,-23.258255,-5.153932,0.327238,1.793624,-0.169511,0.000000,0.000000,0.000000,0.000000,0.000000,0.000000
12184963.000000,-2.306382,-1.662577,1.240494,-1.450766,1.707089,1.278644,-0.582014,0.296091,-0.002928,0.724441,-0.208560,-0.170965,0.681851,-0.070153,-1.060443,39.082989,-23.186844,-5.276918,0.303434,1.779891,-0.182328,0.000000,0.000000,0.000000,0.000000,0.000000,0.000000
12184964.000000,-2.306084,-1.662582,1.241224,-1.450970,1.706911,1.279314,-0.582079,0.294601,-0.003714,0.722051,-0.203921,-0.170062,0.686641,-0.066625,-1.108050,39.158367,-23.163040,-5.475282,0.303434,1.844894,-0.175919,0.000000,0.000000,0.000000,0.000000,0.000000,0.000000
12184965.000000,-2.305786,-1.662582,1.241937,-1.451181,1.706734,1.279996,-0.582143,0.294185,-0.002475,0.720600,-0.210888,-0.170210,0.687504,-0.068247,-1.183428,39.158367,-23.016251,-5.499086,0.327238,1.851302,-0.169511,0.000000,0.000000,0.000000,0.000000,0.000000,0.000000
12184966.000000,-2.305491,-1.662589,1.242665,-1.451385,1.706561,1.280675,-0.582202,0.298495,-0.003876,0.717230,-0.209699,-0.170341,0.687706,-0.064095,-1.306414,39.253582,-22.964676,-5.550661,0.356534,1.871444,-0.202470,0.000000,0.000000,0.000000,0.000000,0.000000,0.000000
12184967.000000,-2.305187,-1.662595,1.243396,-1.451589,1.706391,1.281354,-0.582268,0.295463,-0.003790,0.727205,-0.211091,-0.168403,0.685362,-0.067146,-1.453204,39.305157,-22.865494,-5.626039,0.339139,1.838485,-0.196061,0.000000,0.000000,0.000000,0.000000,0.000000,0.000000
12184968.000000,-2.304889,-1.662594,1.244123,-1.451795,1.706231,1.282047,-0.582336,0.297943,-0.001969,0.728719,-0.210900,-0.160691,0.688604,-0.070546,-1.480975,39.281353,-22.893265,-5.626039,0.285123,1.767074,-0.163102,0.000000,0.000000,0.000000,0.000000,0.000000,0.000000
12184969.000000,-2.304594,-1.662596,1.244854,-1.452000,1.706063,1.282728,-0.582398,0.300764,-0.001869,0.729400,-0.210188,-0.160511,0.686687,-0.066663,-1.580157,39.305157,-22.917068,-5.626039,0.237516,1.714889,-0.169511,0.000000,0.000000,0.000000,0.000000,0.000000,0.000000
12184970.000000,-2.304292,-1.662601,1.245573,-1.452209,1.705885,1.283412,-0.582458,0.300992,-0.002916,0.729093,-0.208150,-0.168400,0.689983,-0.068152,-1.750750,39.376568,-22.893265,-5.574464,0.225614,1.760665,-0.188737,0.000000,0.000000,0.000000,0.000000,0.000000,0.000000
12184971.000000,-2.304004,-1.662607,1.246312,-1.452411,1.705709,1.284097,-0.582519,0.292105,-0.006211,0.721803,-0.205414,-0.168433,0.690676,-0.069749,-1.802325,39.428143,-23.111465,-5.550661,0.237516,1.825668,-0.196061,0.000000,0.000000,0.000000,0.000000,0.000000,0.000000
12184972.000000,-2.303710,-1.662618,1.247040,-1.452613,1.705535,1.284781,-0.582584,0.293009,-0.007829,0.737660,-0.200875,-0.168825,0.688638,-0.066887,-1.901507,39.574932,-23.210648,-5.598268,0.273221,1.890670,-0.175919,0.000000,0.000000,0.000000,0.000000,0.000000,0.000000
12184973.000000,-2.303421,-1.662627,1.247783,-1.452808,1.705354,1.285464,-0.582650,0.291280,-0.007638,0.738060,-0.197397,-0.179385,0.688816,-0.070231,-1.873736,39.670147,-23.456619,-5.673646,0.320829,1.903487,-0.142960,0.000000,0.000000,0.000000,0.000000,0.000000,0.000000
12184974.000000,-2.303131,-1.662633,1.248529,-1.453011,1.705183,1.286155,-0.582706,0.289026,-0.006442,0.736583,-0.197463,-0.177319,0.685488,-0.064679,-1.949114,39.721722,-23.651016,-5.649843,0.356534,1.909896,-0.196061,0.000000,0.000000,0.000000,0.000000,0.000000,0.000000
12184975.000000,-2.302842,-1.662655,1.249264,-1.453216,1.705007,1.286835,-0.582772,0.285147,-0.010620,0.733463,-0.200674,-0.177476,0.687686,-0.063509,-1.925311,39.987530,-23.873184,-5.626039,0.405057,1.890670,-0.169511,0.000000,0.000000,0.000000,0.000000,0.000000,0.000000
12184976.000000,-2.302559,-1.662672,1.250007,-1.453425,1.704840,1.287514,-0.582836,0.282493,-0.011801,0.731709,-0.204415,-0.179272,0.681380,-0.062291,-1.925311,40.185894,-24.071548,-5.550661,0.393156,1.923629,-0.149369,0.000000,0.000000,0.000000,0.000000,0.000000,0.000000
12184977.000000,-2.302272,-1.662689,1.250747,-1.453635,1.704662,1.288180,-0.582895,0.279081,-0.014971,0.732821,-0.203195,-0.181055,0.678081,-0.059402,-1.972918,40.356487,-24.166763,-5.475282,0.398649,1.949264,-0.182328,0.000000,0.000000,0.000000,0.000000,0.000000,0.000000
12184978.000000,-2.301987,-1.662711,1.251474,-1.453837,1.704487,1.288850,-0.582955,0.280208,-0.015477,0.736290,-0.206934,-0.182870,0.666894,-0.063130,-1.925311,40.578655,-24.265945,-5.451478,0.405057,1.981307,-0.175919,0.000000,0.000000,0.000000,0.000000,0.000000,0.000000
12184979.000000,-2.301709,-1.662735,1.252209,-1.454044,1.704319,1.289529,-0.583013,0.282902,-0.018141,0.733265,-0.207460,-0.177710,0.667371,-0.060994,-1.849932,40.773052,-24.289749,-5.427675,0.381254,2.001449,-0.175919,0.000000,0.000000,0.000000,0.000000,0.000000,0.000000
12184980.000000,-2.301434,-1.662752,1.252947,-1.454249,1.704152,1.290189,-0.583074,0.278778,-0.017890,0.736648,-0.206651,-0.172930,0.664241,-0.059705,-1.750750,40.872234,-24.365128,-5.451478,0.339139,2.020675,-0.175919,0.000000,0.000000,0.000000,0.000000,0.000000,0.000000
12184981.000000,-2.301161,-1.662767,1.253669,-1.454446,1.703990,1.290875,-0.583133,0.276007,-0.016813,0.731171,-0.203989,-0.170287,0.671583,-0.059222,-1.651568,40.919842,-24.242142,-5.574464,0.308927,1.968490,-0.169511,0.000000,0.000000,0.000000,0.000000,0.000000,0.000000
12184982.000000,-2.300886,-1.662783,1.254400,-1.454652,1.703817,1.291550,-0.583194,0.271681,-0.016637,0.726295,-0.201059,-0.171182,0.675356,-0.058426,-1.580157,40.991253,-24.190567,-5.574464,0.356534,1.884261,-0.169511,0.000000,0.000000,0.000000,0.000000,0.000000,0.000000
12184983.000000,-2.300618,-1.662796,1.255121,-1.454867,1.703652,1.292227,-0.583250,0.267695,-0.018801,0.726785,-0.210337,-0.170558,0.674205,-0.056206,-1.480975,41.019024,-24.043777,-5.499086,0.369352,1.897079,-0.196061,0.000000,0.000000,0.000000,0.000000,0.000000,0.000000
12184984.000000,-2.300345,-1.662802,1.255857,-1.455078,1.703479,1.292901,-0.583311,0.270589,-0.017656,0.729292,-0.209818,-0.174389,0.672346,-0.058467,-1.480975,40.919842,-24.019974,-5.499086,0.362943,1.916305,-0.136552,0.000000,0.000000,0.000000,0.000000,0.000000,0.000000
12184985.000000,-2.300074,-1.662809,1.256575,-1.455297,1.703305,1.293575,-0.583370,0.270517,-0.015182,0.725678,-0.215165,-0.172436,0.673441,-0.052573,-1.405596,40.872234,-23.849380,-5.376100,0.374845,1.884261,-0.149369,0.000000,0.000000,0.000000,0.000000,0.000000,0.000000
12184986.000000,-2.299807,-1.662818,1.257303,-1.455511,1.703134,1.294270,-0.583430,0.271131,-0.010197,0.725202,-0.212017,-0.172910,0.680939,-0.053751,-1.354022,40.820660,-23.750198,-5.276918,0.422452,1.779891,-0.130143,0.000000,0.000000,0.000000,0.000000,0.000000,0.000000
12184987.000000,-2.299538,-1.662818,1.258037,-1.455726,1.702969,1.294944,-0.583481,0.271318,-0.006989,0.726177,-0.211506,-0.168986,0.676004,-0.051911,-1.282611,40.650066,-23.726395,-5.229311,0.369352,1.760665,-0.188737,0.000000,0.000000,0.000000,0.000000,0.000000,0.000000
12184988.000000,-2.299268,-1.662823,1.258762,-1.455952,1.702804,1.295624,-0.583540,0.270659,-0.004536,0.728693,-0.210706,-0.163235,0.680936,-0.058180,-1.282611,40.602459,-23.774002,-5.078554,0.339139,1.825668,-0.182328,0.000000,0.000000,0.000000,0.000000,0.000000,0.000000
12184989.000000,-2.299008,-1.662826,1.259484,-1.456171,1.702641,1.296310,-0.583598,0.268162,-0.004471,0.715456,-0.211802,-0.159514,0.676940,-0.059264,-1.254840,40.503277,-23.726395,-4.983339,0.351041,1.858627,-0.142960,0.000000,0.000000,0.000000,0.000000,0.000000,0.000000
12184990.000000,-2.298741,-1.662828,1.260201,-1.456393,1.702474,1.296996,-0.583650,0.266902,-0.004520,0.729659,-0.213330,-0.162225,0.680419,-0.056918,-1.231036,40.404095,-23.678787,-4.832582,0.386747,1.865035,-0.182328,0.000000,0.000000,0.000000,0.000000,0.000000,0.000000
12184991.000000,-2.298466,-1.662829,1.260932,-1.456620,1.702303,1.297684,-0.583710,0.267800,-0.000997,0.720063,-0.219552,-0.168155,0.679400,-0.057520,-1.282611,40.281109,-23.750198,-4.634218,0.405057,1.844894,-0.163102,0.000000,0.000000,0.000000,0.000000,0.000000,0.000000
12184992.000000,-2.298200,-1.662827,1.261669,-1.456852,1.702137,1.298376,-0.583772,0.264621,0.002680,0.723373,-0.223682,-0.166685,0.681250,-0.062472,-1.306414,40.110516,-23.825577,-4.439821,0.381254,1.871444,-0.149369,0.000000,0.000000,0.000000,0.000000,0.000000,0.000000
12184993.000000,-2.297931,-1.662831,1.262404,-1.457077,1.701964,1.299063,-0.583825,0.264549,0.002416,0.728263,-0.224019,-0.169599,0.690774,-0.059014,-1.330218,40.062908,-23.896988,-4.364442,0.428861,1.800033,-0.196061,0.000000,0.000000,0.000000,0.000000,0.000000,0.000000
12184994.000000,-2.297671,-1.662837,1.263126,-1.457296,1.701799,1.299757,-0.583886,0.263756,0.001248,0.722529,-0.220858,-0.169587,0.687390,-0.059542,-1.306414,40.062908,-23.948563,-4.312868,0.458158,1.735030,-0.169511,0.000000,0.000000,0.000000,0.000000,0.000000,0.000000
12184995.000000,-2.297413,-1.662846,1.263857,-1.457528,1.701635,1.300430,-0.583944,0.259577,-0.003102,0.725436,-0.222655,-0.164846,0.689855,-0.058632,-1.254840,40.086712,-24.119156,-4.189882,0.500272,1.793624,-0.169511,0.000000,0.000000,0.000000,0.000000,0.000000,0.000000
12184996.000000,-2.297158,-1.662847,1.264578,-1.457747,1.701478,1.301099,-0.584001,0.257258,-0.004032,0.729271,-0.224481,-0.158233,0.680001,-0.056843,-1.084246,40.015301,-24.265945,-4.166078,0.458158,1.955673,-0.196061,0.000000,0.000000,0.000000,0.000000,0.000000,0.000000
12184997.000000,-2.296906,-1.662849,1.265304,-1.457970,1.701318,1.301782,-0.584062,0.253456,-0.002650,0.724888,-0.224393,-0.155043,0.680106,-0.057600,-0.961260,39.987530,-24.289749,-4.118471,0.464567,2.033492,-0.175919,0.000000,0.000000,0.000000,0.000000,0.000000,0.000000
12184998.000000,-2.296651,-1.662853,1.266011,-1.458192,1.701161,1.302461,-0.584121,0.251455,-0.001669,0.718048,-0.223279,-0.162128,0.679967,-0.057549,-0.885882,39.963726,-24.242142,-4.118471,0.452665,2.001449,-0.169511,0.000000,0.000000,0.000000,0.000000,0.000000,0.000000
12184999.000000,-2.296399,-1.662853,1.266736,-1.458423,1.701004,1.303152,-0.584181,0.252005,0.000771,0.717001,-0.224319,-0.161729,0.677237,-0.058294,-0.810504,39.868511,-24.218338,-4.043092,0.410551,1.981307,-0.142960,0.000000,0.000000,0.000000,0.000000,0.000000,0.000000
12185000.000000,-2.296143,-1.662847,1.267460,-1.458657,1.700844,1.303832,-0.584234,0.252228,0.003690,0.717055,-0.226545,-0.157041,0.671265,-0.057123,-0.810504,39.721722,-24.218338,-3.892336,0.386747,1.981307,-0.155778,0.000000,0.000000,0.000000,0.000000,0.000000,0.000000
12185001.000000,-2.295893,-1.662840,1.268173,-1.458887,1.700687,1.304525,-0.584287,0.247695,0.005700,0.718631,-0.230409,-0.154626,0.677047,-0.055423,-0.762896,39.574932,-24.142960,-3.745546,0.393156,1.955673,-0.188737,0.000000,0.000000,0.000000,0.000000,0.000000,0.000000
12185002.000000,-2.295644,-1.662840,1.268877,-1.459115,1.700526,1.305218,-0.584349,0.249272,0.001820,0.703996,-0.230119,-0.155808,0.682214,-0.052473,-0.762896,39.523357,-23.896988,-3.646364,0.482877,1.871444,-0.149369,0.000000,0.000000,0.000000,0.000000,0.000000,0.000000
12185003.000000,-2.295396,-1.662832,1.269584,-1.459348,1.700375,1.305898,-0.584401,0.248146,0.003078,0.707834,-0.229145,-0.153352,0.684907,-0.056318,-0.687518,39.428143,-23.774002,-3.547182,0.500272,1.858627,-0.196061,0.000000,0.000000,0.000000,0.000000,0.000000,0.000000
12185004.000000,-2.295148,-1.662821,1.270306,-1.459573,1.700224,1.306581,-0.584455,0.247010,0.004657,0.710740,-0.226788,-0.159982,0.684934,-0.055870,-0.588336,39.305157,-23.774002,-3.547182,0.482877,1.884261,-0.202470,0.000000,0.000000,0.000000,0.000000,0.000000,0.000000
12185005.000000,-2.294909,-1.662808,1.271028,-1.459800,1.700083,1.307252,-0.584518,0.243644,0.006984,0.712648,-0.226136,-0.154285,0.678027,-0.058276,-0.512957,39.130596,-23.774002,-3.499574,0.434354,1.877853,-0.142960,0.000000,0.000000,0.000000,0.000000,0.000000,0.000000
12185006.000000,-2.294666,-1.662802,1.271734,-1.460030,1.699932,1.307933,-0.584567,0.240952,0.005617,0.707067,-0.225362,-0.148152,0.680107,-0.055999,-0.441546,39.082989,-23.726395,-3.475771,0.434354,1.897079,-0.188737,0.000000,0.000000,0.000000,0.000000,0.000000,0.000000
12185007.000000,-2.294427,-1.662801,1.272448,-1.460255,1.699783,1.308617,-0.584622,0.240061,0.003630,0.700225,-0.224852,-0.152830,0.676453,-0.056119,-0.389971,39.082989,-23.726395,-3.448000,0.434354,1.903487,-0.169511,0.000000,0.000000,0.000000,0.000000,0.000000,0.000000
12185008.000000,-2.294192,-1.662794,1.273167,-1.460485,1.699629,1.309287,-0.584678,0.238540,0.004654,0.716773,-0.226389,-0.151534,0.672963,-0.057121,-0.314593,38.983807,-23.873184,-3.325014,0.452665,1.988631,-0.136552,0.000000,0.000000,0.000000,0.000000,0.000000,0.000000
12185009.000000,-2.293948,-1.662792,1.273894,-1.460709,1.699483,1.309966,-0.584725,0.239281,0.003595,0.715343,-0.227104,-0.155163,0.678818,-0.054984,-0.314593,38.960003,-24.071548,-3.225832,0.446256,1.968490,-0.188737,0.000000,0.000000,0.000000,0.000000,0.000000,0.000000
12185010.000000,-2.293717,-1.662794,1.274614,-1.460933,1.699342,1.310660,-0.584781,0.238772,0.001142,0.713223,-0.230221,-0.152628,0.683878,-0.051632,-0.144000,39.011578,-24.142960,-3.178224,0.440763,1.897079,-0.163102,0.000000,0.000000,0.000000,0.000000,0.000000,0.000000
12185011.000000,-2.293483,-1.662795,1.275325,-1.461154,1.699193,1.311340,-0.584830,0.233621,0.000725,0.714252,-0.224641,-0.152731,0.690613,-0.052243,-0.044818,39.011578,-24.289749,-3.154421,0.494779,1.858627,-0.169511,0.000000,0.000000,0.000000,0.000000,0.000000,0.000000
12185012.000000,-2.293252,-1.662800,1.276041,-1.461366,1.699054,1.312009,-0.584877,0.230138,-0.001771,0.718614,-0.219761,-0.150540,0.681631,-0.051631,0.054365,39.106792,-24.365128,-3.178224,0.482877,1.949264,-0.208878,0.000000,0.000000,0.000000,0.000000,0.000000,0.000000
12185013.000000,-2.293018,-1.662807,1.276762,-1.461580,1.698919,1.312672,-0.584936,0.231322,-0.003521,0.718050,-0.215476,-0.142493,0.681978,-0.055020,0.129743,39.205975,-24.365128,-3.202028,0.440763,1.988631,-0.149369,0.000000,0.000000,0.000000,0.000000,0.000000,0.000000
12185014.000000,-2.292789,-1.662813,1.277467,-1.461791,1.698774,1.313348,-0.584981,0.227728,-0.004683,0.714012,-0.218592,-0.144330,0.675503,-0.052524,0.276533,39.305157,-24.365128,-3.225832,0.464567,1.995040,-0.215287,0.000000,0.000000,0.000000,0.000000,0.000000,0.000000
12185015.000000,-2.292563,-1.662820,1.278178,-1.462004,1.698631,1.314028,-0.585039,0.227266,-0.004804,0.707802,-0.219700,-0.144341,0.673810,-0.055242,0.328107,39.376568,-24.265945,-3.202028,0.458158,2.014266,-0.169511,0.000000,0.000000,0.000000,0.000000,0.000000,0.000000
12185016.000000,-2.292334,-1.662830,1.278883,-1.462209,1.698486,1.314688,-0.585093,0.227904,-0.006088,0.703409,-0.216033,-0.143894,0.669923,-0.055650,0.427289,39.499554,-24.242142,-3.225832,0.446256,2.001449,-0.163102,0.000000,0.000000,0.000000,0.000000,0.000000,0.000000
12185017.000000,-2.292109,-1.662833,1.279589,-1.462418,1.698342,1.315373,-0.585141,0.233970,-0.005179,0.703568,-0.215110,-0.143999,0.672232,-0.054412,0.526471,39.547161,-24.095352,-3.178224,0.434354,1.930038,-0.202470,0.000000,0.000000,0.000000,0.000000,0.000000,0.000000
12185018.000000,-2.291885,-1.662833,1.280300,-1.462623,1.698202,1.316058,-0.585199,0.229774,-0.003457,0.700021,-0.208543,-0.140038,0.672793,-0.056468,0.649457,39.547161,-24.043777,-3.225832,0.458158,1.786300,-0.155778,0.000000,0.000000,0.000000,0.000000,0.000000,0.000000
12185019.000000,-2.291663,-1.662839,1.281000,-1.462829,1.698057,1.316744,-0.585249,0.227151,-0.004072,0.705444,-0.210414,-0.138235,0.678560,-0.055299,0.748639,39.622540,-23.948563,-3.225832,0.488370,1.741439,-0.175919,0.000000,0.000000,0.000000,0.000000,0.000000,0.000000
12185020.000000,-2.291437,-1.662833,1.281706,-1.463027,1.697918,1.317429,-0.585300,0.224273,-0.001604,0.704511,-0.205053,-0.139536,0.680313,-0.054827,0.748639,39.574932,-23.825577,-3.277406,0.476469,1.727706,-0.196061,0.000000,0.000000,0.000000,0.000000,0.000000,0.000000
12185021.000000,-2.291220,-1.662831,1.282397,-1.463228,1.697780,1.318101,-0.585357,0.219209,0.000135,0.701060,-0.204791,-0.135192,0.681606,-0.052034,0.871625,39.523357,-23.651016,-3.301210,0.464567,1.754256,-0.155778,0.000000,0.000000,0.000000,0.000000,0.000000,0.000000
12185022.000000,-2.290999,-1.662830,1.283097,-1.463423,1.697644,1.318793,-0.585405,0.218115,0.000645,0.697901,-0.200182,-0.135922,0.683042,-0.052131,0.895429,39.499554,-23.432816,-3.400392,0.434354,1.754256,-0.169511,0.000000,0.000000,0.000000,0.000000,0.000000,0.000000
12185023.000000,-2.290777,-1.662830,1.283802,-1.463624,1.697508,1.319465,-0.585451,0.220411,0.000429,0.695184,-0.195757,-0.133372,0.681104,-0.052260,0.923200,39.499554,-23.333633,-3.376589,0.434354,1.747848,-0.188737,0.000000,0.000000,0.000000,0.000000,0.000000,0.000000
12185024.000000,-2.290548,-1.662820,1.284502,-1.463821,1.697372,1.320155,-0.585503,0.222512,0.003719,0.697607,-0.195526,-0.134683,0.683735,-0.048930,0.895429,39.352764,-23.309830,-3.376589,0.393156,1.727706,-0.182328,0.000000,0.000000,0.000000,0.000000,0.000000,0.000000
12185025.000000,-2.290327,-1.662813,1.285204,-1.464020,1.697228,1.320846,-0.585548,0.220146,0.004799,0.690800,-0.197154,-0.138149,0.682054,-0.045656,0.923200,39.253582,-23.309830,-3.301210,0.405057,1.682845,-0.196061,0.000000,0.000000,0.000000,0.000000,0.000000,0.000000
12185026.000000,-2.290102,-1.662806,1.285890,-1.464218,1.697083,1.321533,-0.585605,0.219996,0.004869,0.693771,-0.195869,-0.136383,0.685333,-0.050471,0.871625,39.182171,-23.135269,-3.301210,0.446256,1.637069,-0.136552,0.000000,0.000000,0.000000,0.000000,0.000000,0.000000
12185027.000000,-2.289866,-1.662795,1.286600,-1.464416,1.696942,1.322217,-0.585647,0.224610,0.006679,0.702202,-0.198730,-0.144369,0.680341,-0.044935,0.748639,39.035381,-23.210648,-3.249635,0.482877,1.670028,-0.196061,0.000000,0.000000,0.000000,0.000000,0.000000,0.000000
12185028.000000,-2.289640,-1.662784,1.287308,-1.464608,1.696810,1.322906,-0.585694,0.224342,0.007886,0.700999,-0.196956,-0.138514,0.679003,-0.047631,0.673261,38.888592,-23.286026,-3.277406,0.464567,1.760665,-0.202470,0.000000,0.000000,0.000000,0.000000,0.000000,0.000000
12185029.000000,-2.289413,-1.662778,1.288006,-1.464798,1.696674,1.323593,-0.585750,0.223377,0.009656,0.700169,-0.194326,-0.134269,0.685757,-0.052108,0.574079,38.837017,-23.333633,-3.348818,0.446256,1.767074,-0.136552,0.000000,0.000000,0.000000,0.000000,0.000000,0.000000
12185030.000000,-2.289196,-1.662771,1.288713,-1.464988,1.696544,1.324296,-0.585788,0.223041,0.008930,0.700245,-0.196155,-0.130263,0.684495,-0.046114,0.601850,38.741802,-23.432816,-3.424196,0.398649,1.670028,-0.196061,0.000000,0.000000,0.000000,0.000000,0.000000,0.000000
12185031.000000,-2.288968,-1.662763,1.289433,-1.465173,1.696411,1.324967,-0.585838,0.224452,0.011013,0.702841,-0.186833,-0.128570,0.683450,-0.044935,0.574079,38.666424,-23.627213,-3.499574,0.386747,1.735030,-0.169511,0.000000,0.000000,0.000000,0.000000,0.000000,0.000000
12185032.000000,-2.288736,-1.662754,1.290133,-1.465358,1.696282,1.325635,-0.585888,0.226058,0.009977,0.699176,-0.187861,-0.131219,0.676910,-0.043446,0.526471,38.571209,-23.750198,-3.499574,0.339139,1.838485,-0.149369,0.000000,0.000000,0.000000,0.000000,0.000000,0.000000
12185033.000000,-2.288515,-1.662747,1.290844,-1.465545,1.696142,1.326317,-0.585930,0.220195,0.011871,0.704238,-0.186573,-0.135684,0.671383,-0.040165,0.502668,38.495831,-23.849380,-3.475771,0.356534,1.851302,-0.196061,0.000000,0.000000,0.000000,0.000000,0.000000,0.000000
12185034.000000,-2.288284,-1.662741,1.291540,-1.465729,1.695994,1.326979,-0.585981,0.220269,0.012128,0.701020,-0.184297,-0.136078,0.663995,-0.040609,0.403486,38.472027,-23.873184,-3.499574,0.440763,1.832076,-0.169511,0.000000,0.000000,0.000000,0.000000,0.000000,0.000000
12185035.000000,-2.288064,-1.662738,1.292243,-1.465903,1.695859,1.327653,-0.586025,0.223495,0.012348,0.698201,-0.181169,-0.138142,0.666313,-0.039636,0.403486,38.448223,-23.873184,-3.598757,0.434354,1.800033,-0.175919,0.000000,0.000000,0.000000,0.000000,0.000000,0.000000
12185036.000000,-2.287837,-1.662726,1.292956,-1.466078,1.695727,1.328312,-0.586069,0.225768,0.011283,0.696996,-0.178708,-0.139944,0.667469,-0.042733,0.328107,38.349041,-23.896988,-3.697939,0.440763,1.819259,-0.202470,0.000000,0.000000,0.000000,0.000000,0.000000,0.000000
12185037.000000,-2.287623,-1.662722,1.293647,-1.466249,1.695595,1.328983,-0.586120,0.220461,0.010563,0.698041,-0.179044,-0.137045,0.669334,-0.042587,0.403486,38.372845,-23.873184,-3.820925,0.434354,1.812850,-0.169511,0.000000,0.000000,0.000000,0.000000,0.000000,0.000000
