chaoyuefei/paper-gmrm-data/robot_logs/s2_dq_gmrm_xz_min_0.50_log_20260314_174353.csv
# time_ms,q_0,q_1,q_2,q_3,q_4,q_5,q_6,dq_0,dq_1,dq_2,dq_3,dq_4,dq_5,dq_6,tau_J_0,tau_J_1,tau_J_2,tau_J_3,tau_J_4,tau_J_5,tau_J_6,O_dP_EE_c_0,O_dP_EE_c_1,O_dP_EE_c_2,O_dP_EE_c_3,O_dP_EE_c_4,O_dP_EE_c_5
12895538.000000,-2.415664,-1.662596,1.042897,-1.356104,1.795469,1.081424,-0.548613,0.000530,-0.000826,-0.000304,0.000471,-0.000050,0.000165,-0.000364,0.030561,41.578411,-21.052444,-5.721254,0.805143,1.324874,0.034652,0.000000,0.000000,0.000000,0.000000,0.000000,0.000000
12895539.000000,-2.415666,-1.662592,1.042899,-1.356109,1.795468,1.081424,-0.548609,-0.000203,0.000563,0.000354,-0.001356,-0.000270,0.000110,0.000978,0.054365,41.530804,-21.076248,-5.649843,0.811552,1.324874,0.001693,0.000000,0.000000,0.000000,0.000000,0.000000,0.000000
12895540.000000,-2.415664,-1.662592,1.042893,-1.356107,1.795469,1.081425,-0.548614,0.000421,0.000375,-0.000970,-0.000348,0.000261,0.000311,-0.001077,0.030561,41.530804,-21.024673,-5.673646,0.799650,1.318465,0.048385,0.000000,0.000000,0.000000,0.000000,0.000000,0.000000
12895541.000000,-2.415666,-1.662592,1.042894,-1.356106,1.795471,1.081424,-0.548612,-0.000276,0.000250,0.000003,0.000325,0.000852,-0.000030,0.000265,0.054365,41.530804,-21.052444,-5.697450,0.781339,1.324874,0.021835,0.000000,0.000000,0.000000,0.000000,0.000000,0.000000
12895542.000000,-2.415662,-1.662593,1.042896,-1.356109,1.795470,1.081422,-0.548612,0.006264,-0.001773,0.000002,-0.001454,-0.008374,0.007785,0.000923,0.328107,41.483196,-21.052444,-5.626039,0.769437,1.370651,0.001693,0.000000,0.000000,0.000000,0.000000,0.000000,0.000000
12895543.000000,-2.415652,-1.662598,1.042896,-1.356106,1.795471,1.081418,-0.548629,0.014516,-0.006142,-0.002319,0.001631,-0.003482,0.004593,-0.003782,1.367536,41.284832,-20.953262,-5.475282,0.691617,1.532699,-0.004716,0.000000,0.000000,0.000000,0.000000,0.000000,0.000000
12895544.000000,-2.415623,-1.662597,1.042909,-1.356102,1.795460,1.081414,-0.548652,0.020202,-0.001024,0.002508,0.002173,-0.009820,0.004019,-0.010635,2.950483,40.820660,-20.977066,-5.229311,0.625699,1.786300,-0.050492,0.000000,0.000000,0.000000,0.000000,0.000000,0.000000
12895545.000000,-2.415580,-1.662595,1.042928,-1.356109,1.795443,1.081433,-0.548696,0.020610,0.001184,0.008218,-0.003751,-0.015298,0.009930,-0.017596,4.858747,40.281109,-20.953262,-4.832582,0.578092,1.884261,-0.050492,0.000000,0.000000,0.000000,0.000000,0.000000,0.000000
12895546.000000,-2.415515,-1.662600,1.042949,-1.356121,1.795414,1.081483,-0.548749,0.031250,0.000603,0.010797,-0.006478,-0.021729,0.025329,-0.030642,6.739240,39.816936,-20.854080,-4.487428,0.596403,1.812850,-0.083451,0.000000,0.000000,0.000000,0.000000,0.000000,0.000000
12895547.000000,-2.415428,-1.662599,1.042979,-1.356146,1.795372,1.081562,-0.548830,0.045868,0.001563,0.016961,-0.018759,-0.028209,0.042606,-0.048237,8.349957,39.281353,-20.782669,-4.090700,0.667814,1.572067,-0.044083,0.000000,0.000000,0.000000,0.000000,0.000000,0.000000
12895548.000000,-2.415327,-1.662596,1.043017,-1.356193,1.795319,1.081658,-0.548919,0.059054,0.004574,0.021636,-0.030082,-0.035753,0.061842,-0.061879,9.833722,38.765606,-20.707291,-3.598757,0.698026,1.383468,-0.103593,0.000000,0.000000,0.000000,0.000000,0.000000,0.000000
12895549.000000,-2.415207,-1.662593,1.043059,-1.356236,1.795251,1.081762,-0.549044,0.079350,0.004144,0.028032,-0.038015,-0.046020,0.076019,-0.082026,11.019940,38.325237,-20.608109,-3.376589,0.727323,1.312057,-0.037675,0.000000,0.000000,0.000000,0.000000,0.000000,0.000000
12895550.000000,-2.415076,-1.662590,1.043118,-1.356299,1.795169,1.081890,-0.549178,0.096017,0.006509,0.038089,-0.050573,-0.056736,0.092851,-0.102218,12.087140,37.932476,-20.584305,-3.027467,0.698026,1.337692,-0.083451,0.000000,0.000000,0.000000,0.000000,0.000000,0.000000
12895551.000000,-2.414937,-1.662585,1.043178,-1.356364,1.795083,1.082037,-0.549341,0.106498,0.007192,0.045690,-0.056233,-0.070111,0.111194,-0.121820,13.051190,37.591290,-20.413712,-2.833071,0.547880,1.467696,-0.122819,0.000000,0.000000,0.000000,0.000000,0.000000,0.000000
12895552.000000,-2.414787,-1.662572,1.043264,-1.356450,1.794967,1.082210,-0.549547,0.119499,0.008956,0.060264,-0.068453,-0.083381,0.131397,-0.148434,13.943830,37.198528,-20.461319,-2.583132,0.482877,1.572067,-0.037675,0.000000,0.000000,0.000000,0.000000,0.000000,0.000000
12895553.000000,-2.414614,-1.662560,1.043369,-1.356542,1.794837,1.082416,-0.549758,0.135105,0.012927,0.076069,-0.074003,-0.103645,0.154350,-0.164212,14.610333,36.833538,-20.584305,-2.483949,0.362943,1.597701,-0.103593,0.000000,0.000000,0.000000,0.000000,0.000000,0.000000
12895554.000000,-2.414429,-1.662541,1.043484,-1.356657,1.794682,1.082655,-0.550004,0.152647,0.016619,0.091577,-0.088958,-0.114408,0.182477,-0.197084,15.229230,36.440777,-20.731094,-2.337160,0.315336,1.572067,-0.103593,0.000000,0.000000,0.000000,0.000000,0.000000,0.000000
12895555.000000,-2.414229,-1.662518,1.043609,-1.356787,1.794497,1.082914,-0.550283,0.168410,0.019377,0.104944,-0.104102,-0.140839,0.210179,-0.219978,15.677533,36.048016,-20.830276,-2.162599,0.381254,1.500655,-0.056901,0.000000,0.000000,0.000000,0.000000,0.000000,0.000000
12895556.000000,-2.414003,-1.662498,1.043751,-1.356936,1.794288,1.083210,-0.550563,0.185867,0.020232,0.116941,-0.119857,-0.164585,0.240274,-0.232737,15.998883,35.706829,-21.000870,-2.063417,0.434354,1.402694,-0.110001,0.000000,0.000000,0.000000,0.000000,0.000000,0.000000
12895557.000000,-2.413760,-1.662476,1.043906,-1.357105,1.794046,1.083522,-0.550858,0.208411,0.021618,0.131466,-0.134745,-0.186306,0.259928,-0.251763,16.169477,35.337872,-21.123856,-1.964235,0.535978,1.402694,-0.070634,0.000000,0.000000,0.000000,0.000000,0.000000,0.000000
12895558.000000,-2.413513,-1.662459,1.044069,-1.357278,1.793794,1.083857,-0.551154,0.221335,0.019791,0.140832,-0.143637,-0.213159,0.283067,-0.263412,16.443220,35.091900,-21.175430,-1.992006,0.566190,1.429244,-0.083451,0.000000,0.000000,0.000000,0.000000,0.000000,0.000000
12895559.000000,-2.413242,-1.662442,1.044239,-1.357468,1.793533,1.084212,-0.551456,0.233526,0.017459,0.150207,-0.155210,-0.229921,0.301853,-0.267320,16.566206,34.897503,-21.175430,-2.039613,0.554288,1.429244,-0.103593,0.000000,0.000000,0.000000,0.000000,0.000000,0.000000
12895560.000000,-2.412955,-1.662428,1.044429,-1.357669,1.793255,1.084586,-0.551755,0.250862,0.014862,0.162211,-0.172404,-0.242689,0.325911,-0.276922,16.641584,34.750713,-21.246841,-2.063417,0.488370,1.546432,-0.077042,0.000000,0.000000,0.000000,0.000000,0.000000,0.000000
12895561.000000,-2.412650,-1.662418,1.044620,-1.357900,1.792957,1.084978,-0.552052,0.267181,0.014581,0.176998,-0.190056,-0.262937,0.345894,-0.281024,16.716963,34.679302,-21.175430,-2.015810,0.386747,1.708480,-0.110001,0.000000,0.000000,0.000000,0.000000,0.000000,0.000000
12895562.000000,-2.412322,-1.662408,1.044817,-1.358157,1.792647,1.085394,-0.552354,0.291055,0.014559,0.182227,-0.210539,-0.275231,0.366716,-0.287716,16.641584,34.627728,-21.076248,-1.793642,0.320829,1.754256,-0.070634,0.000000,0.000000,0.000000,0.000000,0.000000,0.000000
12895563.000000,-2.411987,-1.662407,1.045032,-1.358417,1.792319,1.085849,-0.552653,0.304062,0.011509,0.190645,-0.229108,-0.285649,0.390281,-0.290094,16.617781,34.703106,-21.024673,-1.670656,0.303434,1.708480,-0.089860,0.000000,0.000000,0.000000,0.000000,0.000000,0.000000
12895564.000000,-2.411628,-1.662399,1.045259,-1.358703,1.791973,1.086335,-0.552943,0.319463,0.009442,0.204608,-0.248874,-0.309851,0.414732,-0.287507,16.490828,34.651531,-20.977066,-1.547670,0.327238,1.591293,-0.110001,0.000000,0.000000,0.000000,0.000000,0.000000,0.000000
12895565.000000,-2.411265,-1.662398,1.045496,-1.359008,1.791598,1.086837,-0.553234,0.334608,0.010133,0.213346,-0.272169,-0.325362,0.443055,-0.287023,16.467024,34.651531,-20.877884,-1.349306,0.374845,1.461288,-0.064225,0.000000,0.000000,0.000000,0.000000,0.000000,0.000000
12895566.000000,-2.410895,-1.662392,1.045742,-1.359303,1.791212,1.087360,-0.553510,0.342460,0.008470,0.221184,-0.281400,-0.349512,0.468021,-0.281296,16.641584,34.603924,-20.806473,-1.373109,0.434354,1.429244,-0.130143,0.000000,0.000000,0.000000,0.000000,0.000000,0.000000
12895567.000000,-2.410505,-1.662394,1.045990,-1.359621,1.790813,1.087899,-0.553791,0.360188,0.004335,0.228944,-0.288846,-0.368410,0.496745,-0.280609,16.764570,34.679302,-20.683487,-1.448488,0.500272,1.454879,-0.122819,0.000000,0.000000,0.000000,0.000000,0.000000,0.000000
12895568.000000,-2.410114,-1.662391,1.046252,-1.359947,1.790396,1.088450,-0.554068,0.370254,0.003878,0.235227,-0.300369,-0.380016,0.516433,-0.277836,16.939131,34.651531,-20.584305,-1.496095,0.494779,1.507064,-0.083451,0.000000,0.000000,0.000000,0.000000,0.000000,0.000000
12895569.000000,-2.409706,-1.662395,1.046519,-1.360299,1.789966,1.089017,-0.554332,0.379554,0.001632,0.244755,-0.315783,-0.399845,0.525136,-0.271630,17.109724,34.703106,-20.512894,-1.496095,0.464567,1.584884,-0.155778,0.000000,0.000000,0.000000,0.000000,0.000000,0.000000
12895570.000000,-2.409289,-1.662391,1.046806,-1.360665,1.789528,1.089608,-0.554613,0.391670,0.001835,0.257525,-0.329380,-0.407894,0.546117,-0.274050,17.284285,34.679302,-20.536697,-1.420717,0.428861,1.559249,-0.089860,0.000000,0.000000,0.000000,0.000000,0.000000,0.000000
12895571.000000,-2.408853,-1.662392,1.047100,-1.361042,1.789069,1.090226,-0.554881,0.398819,0.000810,0.267774,-0.348177,-0.431070,0.557603,-0.275959,17.482649,34.703106,-20.461319,-1.250124,0.393156,1.474105,-0.077042,0.000000,0.000000,0.000000,0.000000,0.000000,0.000000
12895572.000000,-2.408412,-1.662384,1.047397,-1.361443,1.788604,1.090871,-0.555147,0.421146,0.002410,0.275644,-0.362783,-0.438231,0.582428,-0.264849,17.704817,34.627728,-20.389908,-1.027956,0.398649,1.377059,-0.122819,0.000000,0.000000,0.000000,0.000000,0.000000,0.000000
12895573.000000,-2.407947,-1.662383,1.047709,-1.361858,1.788110,1.091512,-0.555411,0.435080,0.001687,0.285600,-0.381074,-0.453295,0.599108,-0.261549,17.926985,34.627728,-20.362137,-0.754213,0.398649,1.305648,-0.083451,0.000000,0.000000,0.000000,0.000000,0.000000,0.000000
12895574.000000,-2.407462,-1.662372,1.048025,-1.362285,1.787605,1.092186,-0.555667,0.449240,0.004062,0.294511,-0.394393,-0.473981,0.616894,-0.258820,18.125349,34.504742,-20.362137,-0.607423,0.440763,1.285506,-0.142960,0.000000,0.000000,0.000000,0.000000,0.000000,0.000000
12895575.000000,-2.406970,-1.662368,1.048352,-1.362728,1.787079,1.092866,-0.555935,0.466947,0.003867,0.306924,-0.410080,-0.492792,0.636175,-0.260064,18.399092,34.457134,-20.338333,-0.409059,0.482877,1.292831,-0.070634,0.000000,0.000000,0.000000,0.000000,0.000000,0.000000
12895576.000000,-2.406477,-1.662366,1.048696,-1.363176,1.786537,1.093574,-0.556181,0.475582,0.002612,0.317299,-0.422506,-0.503272,0.653692,-0.257991,18.696638,34.457134,-20.338333,-0.309877,0.488370,1.331283,-0.136552,0.000000,0.000000,0.000000,0.000000,0.000000,0.000000
12895577.000000,-2.405968,-1.662358,1.049045,-1.363642,1.785993,1.094303,-0.556432,0.483027,0.003437,0.324757,-0.433916,-0.521547,0.677493,-0.255031,19.041792,34.385723,-20.338333,-0.262270,0.542386,1.364242,-0.130143,0.000000,0.000000,0.000000,0.000000,0.000000,0.000000
12895578.000000,-2.405453,-1.662345,1.049403,-1.364113,1.785424,1.095036,-0.556681,0.494787,0.004630,0.334620,-0.442541,-0.527477,0.689925,-0.247776,19.363142,34.286541,-20.266922,-0.210695,0.535978,1.422836,-0.103593,0.000000,0.000000,0.000000,0.000000,0.000000,0.000000
12895579.000000,-2.404919,-1.662336,1.049785,-1.364610,1.784853,1.095810,-0.556926,0.503811,0.008020,0.355043,-0.454759,-0.537415,0.709417,-0.244887,19.684492,34.211163,-20.362137,-0.111513,0.542386,1.422836,-0.136552,0.000000,0.000000,0.000000,0.000000,0.000000,0.000000
12895580.000000,-2.404370,-1.662333,1.050172,-1.365125,1.784255,1.096591,-0.557172,0.522062,0.009098,0.365856,-0.472382,-0.543950,0.737017,-0.244899,19.910627,34.211163,-20.461319,0.011473,0.506681,1.377059,-0.136552,0.000000,0.000000,0.000000,0.000000,0.000000,0.000000
12895581.000000,-2.403804,-1.662322,1.050582,-1.365645,1.783649,1.097400,-0.557425,0.534754,0.008231,0.377448,-0.491414,-0.556815,0.756449,-0.245737,20.180403,34.139751,-20.608109,0.134459,0.476469,1.337692,-0.116410,0.000000,0.000000,0.000000,0.000000,0.000000,0.000000
12895582.000000,-2.403220,-1.662311,1.051002,-1.366183,1.783030,1.098248,-0.557670,0.545377,0.010198,0.390952,-0.504092,-0.567789,0.777565,-0.243848,20.430342,34.088177,-20.782669,0.233641,0.446256,1.240646,-0.136552,0.000000,0.000000,0.000000,0.000000,0.000000,0.000000
12895583.000000,-2.402644,-1.662297,1.051430,-1.366728,1.782401,1.099095,-0.557909,0.558961,0.012846,0.399966,-0.527597,-0.573948,0.801839,-0.245479,20.850874,33.992962,-20.929459,0.233641,0.386747,1.162826,-0.103593,0.000000,0.000000,0.000000,0.000000,0.000000,0.000000
12895584.000000,-2.402041,-1.662287,1.051881,-1.367278,1.781742,1.099960,-0.558151,0.573220,0.010449,0.425520,-0.532618,-0.606302,0.813839,-0.244175,21.144453,33.941387,-21.123856,0.186034,0.386747,1.214095,-0.097184,0.000000,0.000000,0.000000,0.000000,0.000000,0.000000
12895585.000000,-2.401418,-1.662271,1.052333,-1.367843,1.781083,1.100855,-0.558383,0.594752,0.012840,0.432892,-0.538508,-0.624712,0.828862,-0.238025,21.418196,33.846172,-21.294449,0.086851,0.369352,1.299239,-0.142960,0.000000,0.000000,0.000000,0.000000,0.000000,0.000000
12895586.000000,-2.400782,-1.662257,1.052793,-1.368414,1.780385,1.101755,-0.558629,0.607711,0.011523,0.435512,-0.556487,-0.641328,0.847410,-0.237654,21.568953,33.746990,-21.369827,0.011473,0.440763,1.312057,-0.077042,0.000000,0.000000,0.000000,0.000000,0.000000,0.000000
12895587.000000,-2.400129,-1.662244,1.053255,-1.368999,1.779691,1.102688,-0.558862,0.625211,0.012872,0.442145,-0.559336,-0.661683,0.868384,-0.233307,21.739546,33.675579,-21.445206,-0.063905,0.500272,1.318465,-0.110001,0.000000,0.000000,0.000000,0.000000,0.000000,0.000000
12895588.000000,-2.399460,-1.662226,1.053745,-1.369615,1.778985,1.103626,-0.559086,0.647033,0.015432,0.456180,-0.574547,-0.672530,0.888759,-0.230202,21.862532,33.552593,-21.615799,0.086851,0.596403,1.285506,-0.149369,0.000000,0.000000,0.000000,0.000000,0.000000,0.000000
12895589.000000,-2.398767,-1.662219,1.054246,-1.370235,1.778276,1.104606,-0.559319,0.657886,0.009358,0.467742,-0.586729,-0.683171,0.912387,-0.233333,22.013288,33.624004,-21.837967,0.309019,0.721830,1.227828,-0.149369,0.000000,0.000000,0.000000,0.000000,0.000000,0.000000
12895590.000000,-2.398051,-1.662206,1.054740,-1.370858,1.777573,1.105613,-0.559557,0.674788,0.011590,0.478264,-0.598793,-0.681241,0.934914,-0.232717,22.136274,33.552593,-21.984756,0.455809,0.852750,1.201278,-0.122819,0.000000,0.000000,0.000000,0.000000,0.000000,0.000000
12895591.000000,-2.397342,-1.662204,1.055255,-1.371483,1.776869,1.106613,-0.559789,0.684391,0.006177,0.484410,-0.605341,-0.682669,0.954516,-0.236063,22.358442,33.647808,-22.107742,0.578795,0.918668,1.227828,-0.110001,0.000000,0.000000,0.000000,0.000000,0.000000,0.000000
12895592.000000,-2.396615,-1.662198,1.055773,-1.372130,1.776186,1.107648,-0.560017,0.682353,0.008077,0.508246,-0.619599,-0.682571,0.982921,-0.230485,22.160078,33.770794,-22.107742,0.479613,0.948881,1.312057,-0.169511,0.000000,0.000000,0.000000,0.000000,0.000000,0.000000
12895593.000000,-2.395878,-1.662191,1.056310,-1.372798,1.775490,1.108676,-0.560247,0.690603,0.009971,0.517147,-0.639220,-0.674363,1.000250,-0.232717,20.922285,33.917583,-21.885574,0.059080,0.918668,1.487838,-0.149369,0.000000,0.000000,0.000000,0.000000,0.000000,0.000000
12895594.000000,-2.395159,-1.662187,1.056875,-1.373471,1.774791,1.109740,-0.560472,0.701880,0.007654,0.530999,-0.652632,-0.681046,1.012525,-0.231720,18.819624,34.064373,-21.516617,-0.778017,0.888456,1.670028,-0.130143,0.000000,0.000000,0.000000,0.000000,0.000000,0.000000
12895595.000000,-2.394433,-1.662188,1.057453,-1.374169,1.774108,1.110839,-0.560692,0.707713,0.005115,0.550178,-0.661831,-0.676462,1.023891,-0.226776,16.098066,34.115948,-20.877884,-1.670656,0.781339,1.676437,-0.175919,0.000000,0.000000,0.000000,0.000000,0.000000,0.000000
12895596.000000,-2.393705,-1.662182,1.058061,-1.374878,1.773422,1.111939,-0.560915,0.720060,0.005874,0.565518,-0.674128,-0.670459,1.045788,-0.228449,13.150373,33.917583,-20.143936,-2.412538,0.613798,1.695663,-0.136552,0.000000,0.000000,0.000000,0.000000,0.000000,0.000000
12895597.000000,-2.392978,-1.662179,1.058697,-1.375610,1.772764,1.113060,-0.561141,0.727029,0.008052,0.594258,-0.684755,-0.660900,1.058512,-0.222553,10.401044,33.624004,-19.334610,-2.880678,0.393156,1.754256,-0.110001,0.000000,0.000000,0.000000,0.000000,0.000000,0.000000
12895598.000000,-2.392251,-1.662191,1.059341,-1.376346,1.772101,1.114202,-0.561352,0.735272,0.004948,0.604268,-0.698057,-0.650147,1.086214,-0.217462,7.925458,33.501019,-18.572891,-3.202028,0.201810,1.649886,-0.142960,0.000000,0.000000,0.000000,0.000000,0.000000,0.000000
12895599.000000,-2.391530,-1.662204,1.060007,-1.377057,1.771445,1.115382,-0.561566,0.738314,0.002248,0.614704,-0.701566,-0.634465,1.111098,-0.215711,5.699811,33.405804,-17.834976,-3.523378,0.058073,1.519881,-0.122819,0.000000,0.000000,0.000000,0.000000,0.000000,0.000000
12895600.000000,-2.390815,-1.662220,1.060666,-1.377771,1.770796,1.116579,-0.561787,0.733341,-0.000745,0.621239,-0.699387,-0.636388,1.132217,-0.213529,3.918500,33.354229,-17.101028,-3.797121,0.022367,1.435653,-0.097184,0.000000,0.000000,0.000000,0.000000,0.000000,0.000000
12895601.000000,-2.390098,-1.662246,1.061334,-1.378483,1.770150,1.117774,-0.562002,0.731322,-0.009516,0.630710,-0.707681,-0.636371,1.146488,-0.216961,2.232404,33.429607,-16.410721,-3.920107,0.117582,1.402694,-0.142960,0.000000,0.000000,0.000000,0.000000,0.000000,0.000000
12895602.000000,-2.389386,-1.662276,1.062021,-1.379180,1.769500,1.118986,-0.562223,0.715334,-0.015331,0.654842,-0.704769,-0.645465,1.163807,-0.214602,0.970807,33.501019,-15.946548,-3.943910,0.261320,1.519881,-0.136552,0.000000,0.000000,0.000000,0.000000,0.000000,0.000000
12895603.000000,-2.388663,-1.662313,1.062687,-1.379880,1.768858,1.120231,-0.562442,0.721848,-0.021180,0.663829,-0.695658,-0.644025,1.178774,-0.218856,-0.167803,33.647808,-15.331619,-3.943910,0.512174,1.500655,-0.142960,0.000000,0.000000,0.000000,0.000000,0.000000,0.000000
12895604.000000,-2.387948,-1.662353,1.063376,-1.380575,1.768218,1.121483,-0.562658,0.720221,-0.023689,0.669140,-0.698669,-0.642640,1.200156,-0.215907,-1.183428,33.723186,-14.867447,-3.697939,0.637601,1.234237,-0.130143,0.000000,0.000000,0.000000,0.000000,0.000000,0.000000
12895605.000000,-2.387225,-1.662389,1.064065,-1.381280,1.767601,1.122739,-0.562871,0.719720,-0.028816,0.672229,-0.703362,-0.633822,1.205806,-0.212841,-2.072100,33.675579,-14.597672,-3.376589,0.685209,1.045638,-0.149369,0.000000,0.000000,0.000000,0.000000,0.000000,0.000000
12895606.000000,-2.386507,-1.662428,1.064765,-1.381985,1.766986,1.123952,-0.563087,0.724677,-0.030579,0.678582,-0.706352,-0.621980,1.212585,-0.212902,-2.889361,33.624004,-14.228714,-3.003664,0.620206,1.084090,-0.116410,0.000000,0.000000,0.000000,0.000000,0.000000,0.000000
12895607.000000,-2.385790,-1.662466,1.065457,-1.382676,1.766391,1.125182,-0.563301,0.712987,-0.032592,0.681237,-0.700832,-0.623911,1.202229,-0.206210,-3.460650,33.501019,-13.784378,-2.634706,0.512174,1.117049,-0.122819,0.000000,0.000000,0.000000,0.000000,0.000000,0.000000
12895608.000000,-2.385076,-1.662497,1.066143,-1.383360,1.765782,1.126406,-0.563509,0.713180,-0.032581,0.681971,-0.689722,-0.611202,1.204929,-0.204054,-4.055743,33.306622,-13.268631,-2.483949,0.405057,1.194869,-0.155778,0.000000,0.000000,0.000000,0.000000,0.000000,0.000000
12895609.000000,-2.384378,-1.662515,1.066847,-1.384021,1.765196,1.127604,-0.563722,0.711109,-0.028444,0.679867,-0.680200,-0.592910,1.200089,-0.205445,-4.250140,32.913860,-12.879837,-2.460146,0.213712,1.331283,-0.110001,0.000000,0.000000,0.000000,0.000000,0.000000,0.000000
12895610.000000,-2.383675,-1.662522,1.067544,-1.384669,1.764614,1.128809,-0.563922,0.700487,-0.019512,0.700285,-0.672615,-0.589258,1.197831,-0.198378,-4.476275,32.378277,-12.510880,-2.706117,0.129484,1.487838,-0.175919,0.000000,0.000000,0.000000,0.000000,0.000000,0.000000
12895611.000000,-2.382970,-1.662518,1.068256,-1.385312,1.764031,1.130007,-0.564124,0.708501,-0.008453,0.699613,-0.661098,-0.579213,1.196109,-0.204900,-4.646868,31.739544,-12.141922,-2.956056,0.117582,1.500655,-0.182328,0.000000,0.000000,0.000000,0.000000,0.000000,0.000000
12895612.000000,-2.382293,-1.662510,1.068970,-1.385947,1.763433,1.131231,-0.564340,0.696457,-0.003411,0.704698,-0.650519,-0.577471,1.205095,-0.203051,-4.698443,31.104778,-11.772964,-3.079042,0.207303,1.331283,-0.116410,0.000000,0.000000,0.000000,0.000000,0.000000,0.000000
12895613.000000,-2.381592,-1.662499,1.069682,-1.386598,1.762852,1.132469,-0.564539,0.690797,-0.000402,0.704563,-0.646125,-0.575956,1.204760,-0.201603,-4.944415,30.493816,-11.479385,-3.126650,0.362943,1.084090,-0.182328,0.000000,0.000000,0.000000,0.000000,0.000000,0.000000
12895614.000000,-2.380903,-1.662479,1.070410,-1.387240,1.762269,1.133673,-0.564752,0.687442,0.004831,0.707813,-0.641770,-0.569937,1.208466,-0.205339,-5.118975,29.855083,-11.281021,-3.027467,0.410551,0.960494,-0.130143,0.000000,0.000000,0.000000,0.000000,0.000000,0.000000
12895615.000000,-2.380212,-1.662453,1.071146,-1.387878,1.761710,1.134891,-0.564960,0.684571,0.008279,0.725804,-0.637354,-0.561739,1.201761,-0.201304,-5.218157,29.244122,-10.987442,-3.027467,0.344633,0.895492,-0.110001,0.000000,0.000000,0.000000,0.000000,0.000000,0.000000
12895616.000000,-2.379540,-1.662431,1.071878,-1.388498,1.761144,1.136091,-0.565151,0.677116,0.011521,0.723213,-0.625383,-0.563164,1.227502,-0.195057,-5.142779,28.728374,-10.741470,-3.178224,0.231107,0.804855,-0.188737,0.000000,0.000000,0.000000,0.000000,0.000000,0.000000
12895617.000000,-2.378871,-1.662411,1.072618,-1.389107,1.760583,1.137309,-0.565358,0.675982,0.014464,0.723177,-0.627159,-0.557647,1.217506,-0.200449,-4.968218,28.339581,-10.324905,-3.376589,0.123990,0.778304,-0.130143,0.000000,0.000000,0.000000,0.000000,0.000000,0.000000
12895618.000000,-2.378192,-1.662388,1.073355,-1.389719,1.760038,1.138510,-0.565558,0.668893,0.017096,0.723880,-0.620732,-0.550404,1.213144,-0.201772,-4.896807,27.946819,-10.007523,-3.622560,-0.001437,0.915633,-0.142960,0.000000,0.000000,0.000000,0.000000,0.000000,0.000000
12895619.000000,-2.377520,-1.662367,1.074112,-1.390344,1.759487,1.139702,-0.565751,0.666240,0.017521,0.728079,-0.618953,-0.542525,1.206340,-0.197030,-4.920611,27.629436,-9.686172,-3.598757,-0.055453,1.058456,-0.163102,0.000000,0.000000,0.000000,0.000000,0.000000,0.000000
12895620.000000,-2.376826,-1.662345,1.074875,-1.390953,1.758930,1.140932,-0.565946,0.669500,0.017573,0.735405,-0.614972,-0.558114,1.206679,-0.198101,-5.118975,27.335857,-9.392593,-3.622560,-0.019747,0.980636,-0.169511,0.000000,0.000000,0.000000,0.000000,0.000000,0.000000
12895621.000000,-2.376118,-1.662330,1.075632,-1.391573,1.758376,1.142185,-0.566145,0.686755,0.015067,0.743867,-0.610527,-0.555085,1.214928,-0.199945,-5.515704,27.161297,-9.075211,-3.523378,0.088285,0.727035,-0.149369,0.000000,0.000000,0.000000,0.000000,0.000000,0.000000
12895622.000000,-2.375428,-1.662318,1.076423,-1.392173,1.757823,1.143416,-0.566334,0.691225,0.011724,0.750357,-0.606222,-0.556344,1.225229,-0.197799,-5.837054,27.066082,-9.023636,-3.523378,0.189908,0.479842,-0.130143,0.000000,0.000000,0.000000,0.000000,0.000000,0.000000
12895623.000000,-2.374730,-1.662309,1.077218,-1.392769,1.757268,1.144656,-0.566516,0.694118,0.012203,0.761530,-0.605236,-0.560722,1.220474,-0.188516,-6.106829,26.990704,-9.047440,-3.646364,0.195402,0.381881,-0.175919,0.000000,0.000000,0.000000,0.000000,0.000000,0.000000
12895624.000000,-2.374056,-1.662305,1.078017,-1.393352,1.756729,1.145864,-0.566703,0.688792,0.007523,0.766243,-0.594190,-0.552385,1.218149,-0.188901,-6.182208,27.014507,-8.900650,-3.868532,0.219205,0.446883,-0.169511,0.000000,0.000000,0.000000,0.000000,0.000000,0.000000
12895625.000000,-2.373366,-1.662306,1.078832,-1.393914,1.756194,1.147079,-0.566901,0.684091,0.003210,0.777272,-0.583936,-0.558839,1.210228,-0.194611,-6.305193,27.089886,-8.805435,-4.312868,0.141385,0.662032,-0.130143,0.000000,0.000000,0.000000,0.000000,0.000000,0.000000
12895626.000000,-2.372676,-1.662306,1.079652,-1.394490,1.755657,1.148288,-0.567080,0.680260,0.003572,0.786600,-0.579837,-0.549944,1.201664,-0.188450,-6.432147,27.161297,-8.876846,-4.562807,0.100187,0.980636,-0.221696,0.000000,0.000000,0.000000,0.000000,0.000000,0.000000
12895627.000000,-2.371988,-1.662304,1.080498,-1.395046,1.755128,1.149482,-0.567276,0.679866,0.002619,0.797952,-0.572984,-0.542857,1.195911,-0.195328,-6.725726,27.161297,-8.976028,-4.907960,0.010465,1.188461,-0.169511,0.000000,0.000000,0.000000,0.000000,0.000000,0.000000
12895628.000000,-2.371294,-1.662296,1.081333,-1.395621,1.754615,1.150715,-0.567470,0.680997,0.003595,0.822113,-0.570917,-0.531140,1.201186,-0.195013,-6.975665,27.089886,-8.999832,-4.955568,-0.097567,1.071273,-0.122819,0.000000,0.000000,0.000000,0.000000,0.000000,0.000000
12895629.000000,-2.370582,-1.662290,1.082201,-1.396193,1.754093,1.151942,-0.567646,0.697705,0.004293,0.834054,-0.567017,-0.526607,1.210240,-0.191507,-7.443804,27.014507,-9.122818,-4.983339,-0.109469,0.882674,-0.169511,0.000000,0.000000,0.000000,0.000000,0.000000,0.000000
12895630.000000,-2.369879,-1.662283,1.083066,-1.396767,1.753554,1.153165,-0.567836,0.701778,0.004633,0.837764,-0.573596,-0.526218,1.212622,-0.191819,-7.915911,26.943096,-9.047440,-4.733400,-0.019747,0.798446,-0.122819,0.000000,0.000000,0.000000,0.000000,0.000000,0.000000
12895631.000000,-2.369160,-1.662270,1.083929,-1.397324,1.753045,1.154381,-0.568021,0.700743,0.007154,0.844123,-0.564149,-0.516990,1.207858,-0.189018,-8.511004,26.772503,-8.924454,-4.709596,0.015958,0.857040,-0.130143,0.000000,0.000000,0.000000,0.000000,0.000000,0.000000
12895632.000000,-2.368462,-1.662264,1.084804,-1.397890,1.752524,1.155571,-0.568198,0.702960,0.006032,0.846113,-0.570107,-0.515788,1.205067,-0.184275,-8.955340,26.720928,-8.730057,-4.661989,0.052579,0.915633,-0.188737,0.000000,0.000000,0.000000,0.000000,0.000000,0.000000
12895633.000000,-2.367756,-1.662248,1.085698,-1.398433,1.752006,1.156793,-0.568389,0.691232,0.007498,0.874611,-0.565933,-0.523325,1.205561,-0.183031,-9.328265,26.574139,-8.531693,-4.733400,0.112089,0.843307,-0.116410,0.000000,0.000000,0.000000,0.000000,0.000000,0.000000
12895634.000000,-2.367037,-1.662241,1.086595,-1.398977,1.751509,1.157981,-0.568561,0.706792,0.006144,0.882829,-0.556280,-0.522646,1.230066,-0.184829,-9.871783,26.526531,-8.460281,-4.884157,0.064481,0.876266,-0.182328,0.000000,0.000000,0.000000,0.000000,0.000000,0.000000
12895635.000000,-2.366331,-1.662232,1.087516,-1.399520,1.751005,1.159179,-0.568744,0.707443,0.004676,0.888395,-0.559749,-0.511318,1.220861,-0.182735,-10.292315,26.502728,-8.412674,-4.983339,-0.019747,0.966903,-0.136552,0.000000,0.000000,0.000000,0.000000,0.000000,0.000000
12895636.000000,-2.365618,-1.662234,1.088442,-1.400069,1.750519,1.160387,-0.568917,0.705673,0.003407,0.901727,-0.557175,-0.506264,1.214768,-0.176787,-10.736651,26.625713,-8.507889,-4.983339,-0.025240,0.966903,-0.175919,0.000000,0.000000,0.000000,0.000000,0.000000,0.000000
12895637.000000,-2.364902,-1.662235,1.089392,-1.400625,1.750023,1.161583,-0.569090,0.713164,0.002604,0.911642,-0.549441,-0.498683,1.213161,-0.179552,-11.307940,26.772503,-8.630875,-4.808778,-0.103060,0.960494,-0.188737,0.000000,0.000000,0.000000,0.000000,0.000000,0.000000
12895638.000000,-2.364191,-1.662238,1.090360,-1.401173,1.749524,1.162785,-0.569278,0.708438,0.001415,0.926407,-0.550046,-0.501579,1.212951,-0.179199,-11.629291,26.943096,-8.777664,-4.685792,-0.091158,0.980636,-0.110001,0.000000,0.000000,0.000000,0.000000,0.000000,0.000000
12895639.000000,-2.363478,-1.662241,1.091311,-1.401716,1.749038,1.163992,-0.569453,0.715013,0.001399,0.930524,-0.547632,-0.501711,1.205373,-0.182131,-12.002215,27.089886,-8.829239,-4.661989,-0.114962,0.947677,-0.142960,0.000000,0.000000,0.000000,0.000000,0.000000,0.000000
12895640.000000,-2.362776,-1.662247,1.092298,-1.402241,1.748544,1.165176,-0.569627,0.713273,-0.001752,0.937273,-0.540882,-0.494199,1.206268,-0.182510,-12.271991,27.236675,-8.976028,-4.733400,-0.126864,0.922042,-0.175919,0.000000,0.000000,0.000000,0.000000,0.000000,0.000000
12895641.000000,-2.362073,-1.662257,1.093263,-1.402767,1.748067,1.166361,-0.569810,0.704198,-0.004040,0.950766,-0.529889,-0.490763,1.202329,-0.181396,-12.521930,27.383465,-8.924454,-4.983339,-0.072848,1.077682,-0.122819,0.000000,0.000000,0.000000,0.000000,0.000000,0.000000
12895642.000000,-2.361371,-1.662261,1.094233,-1.403293,1.747573,1.167524,-0.569977,0.709350,-0.003385,0.948170,-0.526700,-0.495788,1.197908,-0.178711,-12.744098,27.431072,-8.607071,-5.130128,-0.037142,1.227828,-0.188737,0.000000,0.000000,0.000000,0.000000,0.000000,0.000000
12895643.000000,-2.360671,-1.662269,1.095234,-1.403811,1.747088,1.168715,-0.570143,0.706333,-0.003704,0.962491,-0.524403,-0.492591,1.198226,-0.175158,-13.041644,27.506451,-8.507889,-5.276918,0.040677,1.272689,-0.196061,0.000000,0.000000,0.000000,0.000000,0.000000,0.000000
12895644.000000,-2.359986,-1.662286,1.096199,-1.404351,1.746600,1.169903,-0.570315,0.706029,-0.009349,0.961256,-0.522423,-0.493847,1.192188,-0.180284,-13.240008,27.677044,-8.067520,-5.229311,0.100187,1.247054,-0.149369,0.000000,0.000000,0.000000,0.000000,0.000000,0.000000
12895645.000000,-2.359288,-1.662291,1.097216,-1.404878,1.746118,1.171088,-0.570480,0.703729,-0.006872,0.972892,-0.529537,-0.481999,1.191687,-0.176676,-13.533587,27.700848,-7.896927,-5.276918,0.058073,1.123458,-0.175919,0.000000,0.000000,0.000000,0.000000,0.000000,0.000000
12895646.000000,-2.358587,-1.662292,1.098230,-1.405393,1.745646,1.172289,-0.570649,0.695441,-0.004643,1.000060,-0.523950,-0.476532,1.186164,-0.176159,-13.858905,27.700848,-7.551773,-5.304689,0.027860,0.901900,-0.136552,0.000000,0.000000,0.000000,0.000000,0.000000,0.000000
12895647.000000,-2.357906,-1.662302,1.099238,-1.405909,1.745182,1.173479,-0.570809,0.697775,-0.005462,0.997848,-0.519072,-0.469526,1.188562,-0.175267,-13.858905,27.800030,-7.305801,-5.427675,-0.037142,0.713302,-0.196061,0.000000,0.000000,0.000000,0.000000,0.000000,0.000000
12895648.000000,-2.357241,-1.662308,1.100273,-1.406407,1.744721,1.174675,-0.570978,0.681494,-0.007955,1.000679,-0.510329,-0.466918,1.181047,-0.175936,-13.831134,27.847637,-7.111404,-5.649843,-0.126864,0.616256,-0.122819,0.000000,0.000000,0.000000,0.000000,0.000000,0.000000
12895649.000000,-2.356569,-1.662311,1.101298,-1.406908,1.744270,1.175864,-0.571143,0.677322,-0.006150,1.010031,-0.504794,-0.466356,1.171875,-0.174700,-13.807330,27.871441,-6.865433,-5.919618,-0.240389,0.687667,-0.097184,0.000000,0.000000,0.000000,0.000000,0.000000,0.000000
12895650.000000,-2.355920,-1.662305,1.102356,-1.407391,1.743815,1.177034,-0.571295,0.670334,-0.001441,1.017808,-0.502603,-0.462819,1.162115,-0.167290,-13.632770,27.748455,-6.813858,-6.316347,-0.240389,0.771896,-0.136552,0.000000,0.000000,0.000000,0.000000,0.000000,0.000000
12895651.000000,-2.355259,-1.662299,1.103428,-1.407866,1.743369,1.178229,-0.571456,0.660248,0.001660,1.024057,-0.485572,-0.457353,1.164396,-0.166632,-13.632770,27.629436,-6.766251,-6.760683,-0.204684,0.798446,-0.136552,0.000000,0.000000,0.000000,0.000000,0.000000,0.000000
12895652.000000,-2.354606,-1.662287,1.104494,-1.408351,1.742931,1.179418,-0.571614,0.661772,0.006181,1.040087,-0.480572,-0.455511,1.203004,-0.168045,-13.632770,27.407269,-6.667068,-7.082033,-0.234896,0.713302,-0.175919,0.000000,0.000000,0.000000,0.000000,0.000000,0.000000
12895653.000000,-2.353952,-1.662277,1.105590,-1.408828,1.742476,1.180629,-0.571779,0.654651,0.007463,1.048544,-0.482988,-0.452609,1.202946,-0.170218,-13.660541,27.260479,-6.813858,-7.256593,-0.168978,0.597030,-0.130143,0.000000,0.000000,0.000000,0.000000,0.000000,0.000000
12895654.000000,-2.353283,-1.662268,1.106680,-1.409311,1.742038,1.181841,-0.571932,0.654790,0.008340,1.062568,-0.477598,-0.448416,1.194905,-0.163646,-13.831134,27.113689,-6.889236,-7.304201,-0.162570,0.479842,-0.175919,0.000000,0.000000,0.000000,0.000000,0.000000,0.000000
12895655.000000,-2.352619,-1.662256,1.107786,-1.409792,1.741600,1.183039,-0.572084,0.663323,0.009499,1.076331,-0.477960,-0.442712,1.194847,-0.159019,-13.930316,26.943096,-6.813858,-7.355775,-0.234896,0.421249,-0.202470,0.000000,0.000000,0.000000,0.000000,0.000000,0.000000
12895656.000000,-2.351972,-1.662242,1.108900,-1.410255,1.741161,1.184234,-0.572253,0.657476,0.010284,1.077920,-0.476893,-0.440714,1.185852,-0.159871,-14.005694,26.772503,-6.667068,-7.427186,-0.240389,0.518295,-0.103593,0.000000,0.000000,0.000000,0.000000,0.000000,0.000000
12895657.000000,-2.351328,-1.662229,1.110003,-1.410721,1.740733,1.185431,-0.572401,0.660256,0.014040,1.080636,-0.470537,-0.435346,1.186571,-0.153447,-13.954120,26.597942,-6.421097,-7.554140,-0.287997,0.641891,-0.163102,0.000000,0.000000,0.000000,0.000000,0.000000,0.000000
12895658.000000,-2.350692,-1.662211,1.111134,-1.411165,1.740302,1.186613,-0.572549,0.651919,0.014703,1.084782,-0.460725,-0.436137,1.187893,-0.152112,-13.954120,26.379742,-6.250504,-7.800111,-0.389620,0.739852,-0.182328,0.000000,0.000000,0.000000,0.000000,0.000000,0.000000
12895659.000000,-2.350046,-1.662198,1.112271,-1.411619,1.739876,1.187813,-0.572703,0.651695,0.013972,1.119680,-0.455675,-0.434353,1.185743,-0.153181,-14.005694,26.209148,-6.274307,-8.022280,-0.438143,0.824081,-0.136552,0.000000,0.000000,0.000000,0.000000,0.000000,0.000000
12895660.000000,-2.349416,-1.662184,1.113438,-1.412073,1.739458,1.189007,-0.572848,0.634031,0.013440,1.127814,-0.453661,-0.426814,1.190115,-0.151127,-13.954120,26.038555,-6.274307,-8.244448,-0.509554,0.720626,-0.175919,0.000000,0.000000,0.000000,0.000000,0.000000,0.000000
12895661.000000,-2.348777,-1.662172,1.114647,-1.412533,1.739027,1.190215,-0.573000,0.632521,0.011937,1.145795,-0.456624,-0.427525,1.191959,-0.152090,-14.005694,25.915569,-6.667068,-8.169069,-0.431735,0.648299,-0.142960,0.000000,0.000000,0.000000,0.000000,0.000000,0.000000
12895662.000000,-2.348136,-1.662164,1.115847,-1.413001,1.738597,1.191400,-0.573144,0.625716,0.009797,1.160623,-0.458526,-0.427282,1.180969,-0.145345,-14.053302,25.840191,-7.111404,-8.022280,-0.360323,0.739852,-0.188737,0.000000,0.000000,0.000000,0.000000,0.000000,0.000000
12895663.000000,-2.347508,-1.662164,1.117070,-1.413454,1.738186,1.192568,-0.573296,0.623397,0.005382,1.169926,-0.458632,-0.418197,1.179151,-0.149094,-14.081073,25.891766,-7.504166,-7.970705,-0.377719,0.836898,-0.130143,0.000000,0.000000,0.000000,0.000000,0.000000,0.000000
12895664.000000,-2.346877,-1.662154,1.118309,-1.413911,1.737762,1.193759,-0.573441,0.623560,0.005394,1.208050,-0.456651,-0.423173,1.174690,-0.149160,-14.081073,25.816387,-7.797745,-7.998476,-0.324618,0.817672,-0.122819,0.000000,0.000000,0.000000,0.000000,0.000000,0.000000
12895665.000000,-2.346247,-1.662164,1.119538,-1.414364,1.737350,1.194928,-0.573578,0.631559,-0.000363,1.213951,-0.451632,-0.417217,1.194977,-0.142315,-14.053302,25.986980,-8.019913,-7.998476,-0.294406,0.817672,-0.188737,0.000000,0.000000,0.000000,0.000000,0.000000,0.000000
12895666.000000,-2.345634,-1.662161,1.120785,-1.414812,1.736946,1.196102,-0.573724,0.625014,-0.000218,1.220461,-0.450487,-0.415371,1.184738,-0.141464,-14.053302,25.986980,-8.091324,-8.069887,-0.330111,0.895492,-0.136552,0.000000,0.000000,0.000000,0.000000,0.000000,0.000000
12895667.000000,-2.345009,-1.662169,1.122017,-1.415268,1.736532,1.197268,-0.573865,0.621399,-0.003004,1.217144,-0.453839,-0.417402,1.172025,-0.139502,-14.128680,26.109966,-7.992142,-8.046083,-0.353915,1.077682,-0.122819,0.000000,0.000000,0.000000,0.000000,0.000000,0.000000
12895669.000000,-2.343778,-1.662197,1.124520,-1.416205,1.735733,1.199627,-0.574146,0.613593,-0.005557,1.244539,-0.470079,-0.410102,1.178634,-0.139601,-14.081073,26.772503,-7.750137,-7.724733,-0.276095,0.947677,-0.163102,0.000000,0.000000,0.000000,0.000000,0.000000,0.000000
12895670.000000,-2.343157,-1.662215,1.125768,-1.416679,1.735332,1.200799,-0.574289,0.623647,-0.011925,1.248995,-0.469194,-0.408863,1.181221,-0.145813,-14.005694,27.284283,-7.896927,-7.554140,-0.336520,0.830489,-0.169511,0.000000,0.000000,0.000000,0.000000,0.000000,0.000000
12895671.000000,-2.342562,-1.662233,1.127038,-1.417150,1.734924,1.201983,-0.574429,0.614374,-0.015490,1.246994,-0.476064,-0.405801,1.181047,-0.143292,-13.807330,27.776226,-8.115128,-7.502565,-0.336520,0.727035,-0.149369,0.000000,0.000000,0.000000,0.000000,0.000000,0.000000
12895672.000000,-2.341960,-1.662243,1.128297,-1.417598,1.734531,1.203186,-0.574571,0.604706,-0.014178,1.254678,-0.463420,-0.404072,1.186232,-0.144396,-13.632770,28.117413,-8.289688,-7.577943,-0.324618,0.557662,-0.142960,0.000000,0.000000,0.000000,0.000000,0.000000,0.000000
12895673.000000,-2.341366,-1.662258,1.129592,-1.418050,1.734128,1.204351,-0.574709,0.604351,-0.016511,1.258492,-0.457330,-0.408650,1.180433,-0.144443,-13.311419,28.458599,-8.583267,-7.724733,-0.252291,0.583297,-0.188737,0.000000,0.000000,0.000000,0.000000,0.000000,0.000000
12895674.000000,-2.340789,-1.662271,1.130893,-1.418487,1.733733,1.205510,-0.574857,0.599025,-0.014293,1.261756,-0.451927,-0.406563,1.164012,-0.143128,-12.942462,28.898968,-9.023636,-7.923097,-0.246798,0.901900,-0.122819,0.000000,0.000000,0.000000,0.000000,0.000000,0.000000
12895675.000000,-2.340208,-1.662290,1.132172,-1.418930,1.733359,1.206680,-0.574987,0.607761,-0.014624,1.252897,-0.446729,-0.395959,1.157893,-0.142514,-12.422748,29.831280,-10.031326,-8.145266,-0.246798,1.201278,-0.182328,0.000000,0.000000,0.000000,0.000000,0.000000,0.000000
12895676.000000,-2.339620,-1.662309,1.133429,-1.419360,1.732984,1.207857,-0.575124,0.603452,-0.011015,1.239611,-0.442577,-0.390207,1.161672,-0.139736,-11.653094,31.322979,-11.380203,-8.391237,-0.270602,1.350509,-0.188737,0.000000,0.000000,0.000000,0.000000,0.000000,0.000000
12895677.000000,-2.339017,-1.662327,1.134644,-1.419805,1.732621,1.209068,-0.575272,0.596883,-0.013030,1.245275,-0.438127,-0.379010,1.164640,-0.139886,-10.935016,33.354229,-13.197220,-8.518190,-0.234896,1.402694,-0.130143,0.000000,0.000000,0.000000,0.000000,0.000000,0.000000
12895678.000000,-2.338402,-1.662344,1.135824,-1.420271,1.732258,1.210277,-0.575407,0.610629,-0.019619,1.222175,-0.450341,-0.373479,1.172226,-0.140497,-10.292315,35.560040,-14.990433,-8.343630,-0.168978,1.383468,-0.149369,0.000000,0.000000,0.000000,0.000000,0.000000,0.000000
12895679.000000,-2.337794,-1.662343,1.137004,-1.420728,1.731882,1.211500,-0.575551,0.608519,-0.018529,1.206246,-0.452405,-0.378057,1.178250,-0.138743,-9.895587,37.321514,-16.656693,-8.169069,0.046171,1.337692,-0.130143,0.000000,0.000000,0.000000,0.000000,0.000000,0.000000
12895680.000000,-2.337173,-1.662325,1.138181,-1.421203,1.731505,1.212719,-0.575687,0.607135,-0.012586,1.205642,-0.458652,-0.375458,1.173729,-0.135066,-9.772601,38.472027,-18.180130,-7.823915,0.255826,1.350509,-0.163102,0.000000,0.000000,0.000000,0.000000,0.000000,0.000000
12895681.000000,-2.336563,-1.662297,1.139382,-1.421663,1.731141,1.213903,-0.575826,0.606941,-0.002407,1.203074,-0.462103,-0.364521,1.170354,-0.134393,-9.772601,39.059185,-19.306839,-7.601747,0.315336,1.429244,-0.163102,0.000000,0.000000,0.000000,0.000000,0.000000,0.000000
12895682.000000,-2.335962,-1.662267,1.140619,-1.422118,1.730781,1.215077,-0.575968,0.598409,0.007423,1.237220,-0.454771,-0.371017,1.153753,-0.134449,-9.748797,39.229778,-20.191544,-7.577943,0.320829,1.662704,-0.136552,0.000000,0.000000,0.000000,0.000000,0.000000,0.000000
12895683.000000,-2.335387,-1.662246,1.141876,-1.422553,1.730412,1.216218,-0.576097,0.594414,0.010497,1.247329,-0.439977,-0.367378,1.165554,-0.130327,-9.598041,39.229778,-20.953262,-7.776308,0.267728,1.923629,-0.196061,0.000000,0.000000,0.000000,0.000000,0.000000,0.000000
12895684.000000,-2.334815,-1.662241,1.143172,-1.422973,1.730055,1.217349,-0.576230,0.582839,0.010602,1.263816,-0.427025,-0.362963,1.143032,-0.131112,-9.375873,39.253582,-21.687210,-8.121462,0.081876,2.332870,-0.188737,0.000000,0.000000,0.000000,0.000000,0.000000,0.000000
12895685.000000,-2.334255,-1.662246,1.144461,-1.423386,1.729706,1.218484,-0.576366,0.571840,0.007869,1.271339,-0.416802,-0.354967,1.132695,-0.133207,-9.102130,39.352764,-22.278336,-8.490419,-0.067355,2.580062,-0.136552,0.000000,0.000000,0.000000,0.000000,0.000000,0.000000
12895686.000000,-2.333714,-1.662275,1.145793,-1.423790,1.729337,1.219627,-0.576493,0.565172,-0.000395,1.280043,-0.417227,-0.357452,1.133069,-0.131033,-8.709369,39.693951,-22.964676,-8.934755,-0.150668,2.508651,-0.188737,0.000000,0.000000,0.000000,0.000000,0.000000,0.000000
12895687.000000,-2.333186,-1.662314,1.147111,-1.424195,1.728958,1.220787,-0.576627,0.549604,-0.013173,1.280738,-0.413248,-0.364641,1.131272,-0.132309,-8.138080,40.185894,-23.210648,-9.256105,-0.114962,2.267867,-0.155778,0.000000,0.000000,0.000000,0.000000,0.000000,0.000000
12895688.000000,-2.332660,-1.662363,1.148411,-1.424592,1.728592,1.221946,-0.576761,0.547367,-0.021463,1.280644,-0.404916,-0.359909,1.134624,-0.136176,-7.669940,40.773052,-23.409012,-9.676638,-0.043551,2.020675,-0.122819,0.000000,0.000000,0.000000,0.000000,0.000000,0.000000
12895689.000000,-2.332156,-1.662421,1.149715,-1.424974,1.728226,1.223076,-0.576884,0.537155,-0.031526,1.282749,-0.402807,-0.361845,1.133206,-0.134020,-7.074847,41.407818,-23.309830,-10.172548,0.015958,1.884261,-0.149369,0.000000,0.000000,0.000000,0.000000,0.000000,0.000000
12895690.000000,-2.331662,-1.662492,1.151000,-1.425353,1.727852,1.224229,-0.577016,0.516973,-0.042777,1.277643,-0.392150,-0.364662,1.139678,-0.134681,-6.332964,42.217144,-23.186844,-10.541506,0.117582,1.735030,-0.116410,0.000000,0.000000,0.000000,0.000000,0.000000,0.000000
12895691.000000,-2.331178,-1.662565,1.152277,-1.425721,1.727488,1.225363,-0.577133,0.505509,-0.053025,1.267092,-0.382837,-0.359934,1.143336,-0.126984,-5.714068,42.998699,-22.671097,-10.962038,0.123990,1.689254,-0.169511,0.000000,0.000000,0.000000,0.000000,0.000000,0.000000
12895692.000000,-2.330692,-1.662634,1.153580,-1.426098,1.727143,1.226501,-0.577264,0.495867,-0.057593,1.262666,-0.380400,-0.359913,1.144035,-0.126001,-5.095171,43.661236,-22.524307,-11.112795,0.069974,1.800033,-0.103593,0.000000,0.000000,0.000000,0.000000,0.000000,0.000000
12895693.000000,-2.330193,-1.662696,1.154836,-1.426479,1.726796,1.227654,-0.577377,0.498785,-0.053853,1.256398,-0.377669,-0.353676,1.146547,-0.119316,-4.746050,44.149212,-22.107742,-11.112795,-0.049044,1.858627,-0.175919,0.000000,0.000000,0.000000,0.000000,0.000000,0.000000
12895694.000000,-2.329711,-1.662757,1.156133,-1.426880,1.726445,1.228793,-0.577500,0.495357,-0.056661,1.257778,-0.386258,-0.354221,1.148039,-0.119681,-4.448504,44.589581,-22.155350,-10.791445,-0.072848,1.844894,-0.130143,0.000000,0.000000,0.000000,0.000000,0.000000,0.000000
12895695.000000,-2.329219,-1.662803,1.157405,-1.427292,1.726096,1.229955,-0.577618,0.491452,-0.052071,1.282743,-0.391166,-0.352090,1.141335,-0.117732,-4.277911,44.736370,-22.179153,-10.295534,-0.031649,1.819259,-0.130143,0.000000,0.000000,0.000000,0.000000,0.000000,0.000000
12895696.000000,-2.328714,-1.662841,1.158704,-1.427718,1.725761,1.231104,-0.577730,0.498621,-0.045535,1.283731,-0.400176,-0.348338,1.136546,-0.115118,-4.250140,44.712566,-22.448929,-9.728212,-0.037142,1.747848,-0.169511,0.000000,0.000000,0.000000,0.000000,0.000000,0.000000
12895697.000000,-2.328237,-1.662869,1.160014,-1.428131,1.725412,1.232268,-0.577855,0.496064,-0.041682,1.283588,-0.403312,-0.348559,1.136041,-0.116715,-4.055743,44.565777,-22.893265,-9.283876,0.027860,1.708480,-0.116410,0.000000,0.000000,0.000000,0.000000,0.000000,0.000000
12895698.000000,-2.327756,-1.662893,1.161295,-1.428551,1.725066,1.233429,-0.577968,0.486225,-0.034089,1.286847,-0.407287,-0.349996,1.127029,-0.108854,-3.782000,44.323772,-23.135269,-8.962526,0.135892,1.754256,-0.175919,0.000000,0.000000,0.000000,0.000000,0.000000,0.000000
12895699.000000,-2.327293,-1.662911,1.162596,-1.428981,1.724724,1.234568,-0.578085,0.478486,-0.027937,1.281261,-0.419851,-0.341473,1.128558,-0.110261,-3.385272,44.026226,-23.528030,-8.641176,0.255826,1.877853,-0.169511,0.000000,0.000000,0.000000,0.000000,0.000000,0.000000
12895700.000000,-2.326830,-1.662922,1.163895,-1.429410,1.724389,1.235713,-0.578204,0.463987,-0.022342,1.307465,-0.426199,-0.340916,1.124381,-0.111721,-3.040118,43.661236,-23.750198,-8.319826,0.267728,2.047225,-0.142960,0.000000,0.000000,0.000000,0.000000,0.000000,0.000000
12895701.000000,-2.326370,-1.662937,1.165187,-1.429853,1.724051,1.236857,-0.578314,0.467017,-0.020411,1.299505,-0.425710,-0.334343,1.147773,-0.110285,-2.667193,43.367657,-24.142960,-7.923097,0.291532,2.060043,-0.188737,0.000000,0.000000,0.000000,0.000000,0.000000,0.000000
12895702.000000,-2.325919,-1.662953,1.166502,-1.430297,1.723718,1.238031,-0.578437,0.463915,-0.017059,1.296502,-0.433142,-0.330157,1.148764,-0.117014,-2.298235,43.121685,-24.583328,-7.478761,0.279630,1.923629,-0.142960,0.000000,0.000000,0.000000,0.000000,0.000000,0.000000
12895703.000000,-2.325458,-1.662970,1.167802,-1.430755,1.723398,1.239193,-0.578551,0.460732,-0.016880,1.299028,-0.437058,-0.325451,1.149169,-0.115092,-2.072100,42.974895,-25.003860,-6.982851,0.219205,1.903487,-0.163102,0.000000,0.000000,0.000000,0.000000,0.000000,0.000000
12895704.000000,-2.325008,-1.662996,1.169129,-1.431226,1.723063,1.240331,-0.578671,0.455622,-0.022102,1.301593,-0.447947,-0.329544,1.147086,-0.117162,-1.849932,42.927288,-25.591019,-6.316347,0.249418,1.955673,-0.097184,0.000000,0.000000,0.000000,0.000000,0.000000,0.000000
12895705.000000,-2.324554,-1.663027,1.170448,-1.431685,1.722732,1.241476,-0.578772,0.452933,-0.025973,1.298283,-0.446213,-0.328330,1.142408,-0.111544,-1.603961,43.026470,-26.007584,-5.895814,0.273221,2.039901,-0.208878,0.000000,0.000000,0.000000,0.000000,0.000000,0.000000
12895706.000000,-2.324104,-1.663057,1.171752,-1.432163,1.722393,1.242615,-0.578895,0.454693,-0.027796,1.300966,-0.452374,-0.329424,1.134578,-0.118129,-1.330218,43.097881,-26.475723,-5.427675,0.351041,2.157089,-0.136552,0.000000,0.000000,0.000000,0.000000,0.000000,0.000000
12895707.000000,-2.323675,-1.663091,1.173055,-1.432620,1.722059,1.243724,-0.579011,0.444751,-0.030607,1.292529,-0.458568,-0.329499,1.135981,-0.121545,-0.985064,43.244671,-26.646317,-5.253114,0.416959,2.358505,-0.130143,0.000000,0.000000,0.000000,0.000000,0.000000,0.000000
12895708.000000,-2.323238,-1.663119,1.174340,-1.433077,1.721720,1.244851,-0.579118,0.435677,-0.030188,1.287196,-0.457459,-0.330197,1.131699,-0.116290,-0.687518,43.292278,-26.769302,-5.106325,0.500272,2.540694,-0.202470,0.000000,0.000000,0.000000,0.000000,0.000000,0.000000
12895709.000000,-2.322803,-1.663148,1.175620,-1.433544,1.721385,1.245977,-0.579236,0.440312,-0.032969,1.271791,-0.461567,-0.327183,1.133381,-0.116664,-0.366168,43.343853,-26.622513,-4.907960,0.571683,2.527877,-0.175919,0.000000,0.000000,0.000000,0.000000,0.000000,0.000000
12895710.000000,-2.322383,-1.663168,1.176915,-1.434007,1.721062,1.247114,-0.579343,0.432657,-0.029039,1.270781,-0.461085,-0.326130,1.130832,-0.113784,0.006757,43.268475,-26.598709,-4.757204,0.596403,2.482101,-0.215287,0.000000,0.000000,0.000000,0.000000,0.000000,0.000000
12895711.000000,-2.321959,-1.663183,1.178174,-1.434488,1.720735,1.248251,-0.579462,0.430178,-0.025036,1.262328,-0.468288,-0.325666,1.119362,-0.114771,0.276533,43.145489,-26.352737,-4.388246,0.625699,2.404281,-0.169511,0.000000,0.000000,0.000000,0.000000,0.000000,0.000000
12895712.000000,-2.321539,-1.663201,1.179453,-1.434963,1.720413,1.249381,-0.579575,0.431651,-0.023094,1.257085,-0.468734,-0.321683,1.118013,-0.114833,0.526471,43.050274,-26.253555,-3.991518,0.566190,2.261459,-0.155778,0.000000,0.000000,0.000000,0.000000,0.000000,0.000000
12895713.000000,-2.321133,-1.663216,1.180717,-1.435445,1.720090,1.250532,-0.579681,0.420445,-0.020986,1.282804,-0.469766,-0.320570,1.116357,-0.112347,0.994611,42.927288,-26.277359,-3.622560,0.530485,2.066451,-0.202470,0.000000,0.000000,0.000000,0.000000,0.000000,0.000000
12895714.000000,-2.320730,-1.663224,1.181987,-1.435905,1.719798,1.251673,-0.579795,0.413688,-0.018387,1.272558,-0.459831,-0.307475,1.125076,-0.114091,1.315961,42.756695,-26.182144,-3.523378,0.362943,1.909896,-0.136552,0.000000,0.000000,0.000000,0.000000,0.000000,0.000000
12895715.000000,-2.320329,-1.663242,1.183267,-1.436348,1.719487,1.252823,-0.579897,0.409734,-0.016832,1.260285,-0.452282,-0.309298,1.133474,-0.108445,1.665082,42.728924,-26.182144,-3.570986,0.308927,1.806442,-0.149369,0.000000,0.000000,0.000000,0.000000,0.000000,0.000000
12895716.000000,-2.319934,-1.663258,1.184521,-1.436792,1.719179,1.253954,-0.579999,0.399371,-0.015127,1.257020,-0.442820,-0.304723,1.125800,-0.103570,2.133222,42.681316,-26.154373,-3.622560,0.344633,1.942855,-0.169511,0.000000,0.000000,0.000000,0.000000,0.000000,0.000000
12895717.000000,-2.319538,-1.663272,1.185781,-1.437233,1.718862,1.255071,-0.580097,0.399278,-0.013696,1.249262,-0.447596,-0.303661,1.116872,-0.100132,2.430768,42.633709,-26.106766,-3.769350,0.470060,2.092086,-0.202470,0.000000,0.000000,0.000000,0.000000,0.000000,0.000000
12895718.000000,-2.319131,-1.663291,1.187022,-1.437666,1.718553,1.256207,-0.580204,0.398752,-0.014801,1.234480,-0.440249,-0.308510,1.114104,-0.103991,2.529951,42.681316,-25.789383,-3.820925,0.589994,2.196456,-0.182328,0.000000,0.000000,0.000000,0.000000,0.000000,0.000000
12895719.000000,-2.318730,-1.663306,1.188251,-1.438112,1.718239,1.257347,-0.580311,0.399511,-0.013837,1.227958,-0.437234,-0.316956,1.122658,-0.107611,2.605329,42.657513,-25.666397,-3.721742,0.745634,2.112228,-0.130143,0.000000,0.000000,0.000000,0.000000,0.000000,0.000000
12895720.000000,-2.318310,-1.663323,1.189488,-1.438557,1.717928,1.258521,-0.580408,0.407356,-0.014686,1.216689,-0.443967,-0.314068,1.139111,-0.106461,2.506147,42.705120,-25.519608,-3.475771,0.786832,1.844894,-0.196061,0.000000,0.000000,0.000000,0.000000,0.000000,0.000000
12895721.000000,-2.317884,-1.663333,1.190693,-1.439007,1.717635,1.259699,-0.580511,0.412516,-0.013055,1.209997,-0.442747,-0.308149,1.151719,-0.103706,2.307783,42.657513,-25.198257,-3.225832,0.721830,1.630660,-0.188737,0.000000,0.000000,0.000000,0.000000,0.000000,0.000000
12895722.000000,-2.317471,-1.663346,1.191924,-1.439453,1.717345,1.260857,-0.580610,0.415398,-0.012489,1.208890,-0.449141,-0.302950,1.165926,-0.106692,2.232404,42.633709,-25.099075,-2.904482,0.644010,1.487838,-0.175919,0.000000,0.000000,0.000000,0.000000,0.000000,0.000000
12895723.000000,-2.317069,-1.663363,1.193164,-1.439886,1.717058,1.262019,-0.580713,0.411389,-0.013757,1.208715,-0.445246,-0.299716,1.163502,-0.108996,2.208601,42.681316,-25.075272,-2.781496,0.554288,1.474105,-0.149369,0.000000,0.000000,0.000000,0.000000,0.000000,0.000000
12895724.000000,-2.316664,-1.663374,1.194394,-1.440304,1.716773,1.263168,-0.580807,0.414759,-0.012988,1.213151,-0.436018,-0.291850,1.149129,-0.102424,2.260175,42.657513,-25.297440,-2.904482,0.494779,1.695663,-0.208878,0.000000,0.000000,0.000000,0.000000,0.000000,0.000000
12895725.000000,-2.316275,-1.663382,1.195637,-1.440719,1.716491,1.264292,-0.580912,0.406808,-0.014333,1.210417,-0.432646,-0.284404,1.135702,-0.102903,2.454572,42.582134,-25.519608,-3.027467,0.470060,1.942855,-0.142960,0.000000,0.000000,0.000000,0.000000,0.000000,0.000000
12895726.000000,-2.315887,-1.663393,1.196869,-1.441110,1.716216,1.265438,-0.581004,0.398819,-0.014189,1.213271,-0.419935,-0.279903,1.124902,-0.099076,2.629133,42.582134,-25.860794,-3.348818,0.476469,2.131454,-0.182328,0.000000,0.000000,0.000000,0.000000,0.000000,0.000000
12895727.000000,-2.315497,-1.663396,1.198129,-1.441511,1.715933,1.266588,-0.581097,0.399013,-0.011014,1.222164,-0.411102,-0.282441,1.127947,-0.096774,2.704511,42.463116,-26.352737,-3.523378,0.584501,2.125045,-0.208878,0.000000,0.000000,0.000000,0.000000,0.000000,0.000000
12895728.000000,-2.315093,-1.663401,1.199369,-1.441908,1.715651,1.267743,-0.581199,0.399625,-0.010096,1.221325,-0.410820,-0.284907,1.123229,-0.098260,2.680707,42.387737,-26.523331,-3.622560,0.649503,2.137862,-0.149369,0.000000,0.000000,0.000000,0.000000,0.000000,0.000000
12895729.000000,-2.314678,-1.663413,1.200591,-1.442315,1.715365,1.268893,-0.581293,0.402203,-0.011055,1.222232,-0.408925,-0.281232,1.124144,-0.095064,2.506147,42.387737,-26.745499,-3.598757,0.698026,2.190048,-0.196061,0.000000,0.000000,0.000000,0.000000,0.000000,0.000000
12895730.000000,-2.314275,-1.663422,1.201809,-1.442720,1.715091,1.270028,-0.581394,0.401518,-0.011065,1.211529,-0.411178,-0.280157,1.122528,-0.101182,2.383161,42.363934,-26.646317,-3.448000,0.679716,2.177230,-0.155778,0.000000,0.000000,0.000000,0.000000,0.000000,0.000000
12895731.000000,-2.313875,-1.663430,1.203042,-1.443121,1.714822,1.271182,-0.581497,0.403805,-0.011100,1.235137,-0.405802,-0.275345,1.120654,-0.100018,2.307783,42.340130,-26.598709,-3.400392,0.632108,2.085677,-0.130143,0.000000,0.000000,0.000000,0.000000,0.000000,0.000000
12895732.000000,-2.313467,-1.663434,1.204236,-1.443527,1.714566,1.272317,-0.581586,0.408483,-0.008778,1.219936,-0.404738,-0.266348,1.146671,-0.095742,2.232404,42.217144,-26.253555,-3.249635,0.512174,2.039901,-0.202470,0.000000,0.000000,0.000000,0.000000,0.000000,0.000000
12895733.000000,-2.313069,-1.663441,1.205450,-1.443914,1.714307,1.273450,-0.581689,0.406532,-0.008991,1.207047,-0.397300,-0.261375,1.136225,-0.102404,2.208601,42.169537,-26.059158,-3.249635,0.386747,2.079269,-0.142960,0.000000,0.000000,0.000000,0.000000,0.000000,0.000000
12895734.000000,-2.312678,-1.663445,1.206653,-1.444306,1.714056,1.274593,-0.581780,0.398271,-0.008449,1.198839,-0.396207,-0.256111,1.129401,-0.098694,2.283979,42.094158,-25.983780,-3.154421,0.332731,2.072860,-0.188737,0.000000,0.000000,0.000000,0.000000,0.000000,0.000000
12895735.000000,-2.312294,-1.663453,1.207854,-1.444688,1.713800,1.275722,-0.581881,0.394770,-0.009428,1.189455,-0.396080,-0.253872,1.130646,-0.098937,2.331586,42.070354,-25.690201,-3.178224,0.339139,2.047225,-0.142960,0.000000,0.000000,0.000000,0.000000,0.000000,0.000000
12895736.000000,-2.311896,-1.663454,1.209069,-1.445066,1.713546,1.276866,-0.581973,0.393465,-0.007639,1.190612,-0.391533,-0.255687,1.134504,-0.095898,2.307783,41.947369,-25.614822,-3.126650,0.428861,1.995040,-0.175919,0.000000,0.000000,0.000000,0.000000,0.000000,0.000000
12895737.000000,-2.311511,-1.663448,1.210267,-1.445443,1.713278,1.277988,-0.582068,0.393419,-0.004193,1.187723,-0.385937,-0.260912,1.158858,-0.095796,2.454572,41.729168,-25.591019,-3.154421,0.518583,2.020675,-0.155778,0.000000,0.000000,0.000000,0.000000,0.000000,0.000000
12895738.000000,-2.311129,-1.663445,1.211486,-1.445810,1.713009,1.279131,-0.582157,0.389905,-0.003498,1.185047,-0.380085,-0.261676,1.149701,-0.088627,2.506147,41.578411,-25.789383,-3.126650,0.649503,1.949264,-0.208878,0.000000,0.000000,0.000000,0.000000,0.000000,0.000000
12895739.000000,-2.310752,-1.663446,1.212665,-1.446174,1.712755,1.280284,-0.582253,0.384816,-0.003647,1.184225,-0.371281,-0.262505,1.143725,-0.091533,2.605329,41.459393,-25.690201,-3.249635,0.673307,1.819259,-0.169511,0.000000,0.000000,0.000000,0.000000,0.000000,0.000000
12895740.000000,-2.310367,-1.663446,1.213856,-1.446542,1.712506,1.281410,-0.582345,0.389414,-0.004324,1.182519,-0.369113,-0.260636,1.132291,-0.093378,2.652936,41.360210,-25.491837,-3.277406,0.637601,1.779891,-0.136552,0.000000,0.000000,0.000000,0.000000,0.000000,0.000000
12895741.000000,-2.309986,-1.663444,1.215050,-1.446900,1.712260,1.282541,-0.582425,0.386044,-0.001614,1.175820,-0.364435,-0.264243,1.117118,-0.090780,2.652936,41.261028,-25.368851,-3.348818,0.625699,1.871444,-0.202470,0.000000,0.000000,0.000000,0.000000,0.000000,0.000000
12895742.000000,-2.309604,-1.663439,1.216211,-1.447261,1.712027,1.283663,-0.582523,0.385285,0.001013,1.172102,-0.359084,-0.252876,1.112621,-0.093901,2.652936,41.138042,-25.027664,-3.400392,0.452665,2.092086,-0.130143,0.000000,0.000000,0.000000,0.000000,0.000000,0.000000
12895743.000000,-2.309225,-1.663438,1.217390,-1.447616,1.711783,1.284798,-0.582611,0.381175,0.000641,1.162171,-0.358762,-0.244405,1.114452,-0.094093,2.605329,41.114239,-24.781693,-3.348818,0.398649,2.079269,-0.122819,0.000000,0.000000,0.000000,0.000000,0.000000,0.000000
12895744.000000,-2.308843,-1.663422,1.218544,-1.447968,1.711553,1.285956,-0.582693,0.378309,0.005645,1.188381,-0.356049,-0.243327,1.121573,-0.090674,2.553754,40.872234,-24.464310,-3.376589,0.339139,1.930038,-0.196061,0.000000,0.000000,0.000000,0.000000,0.000000,0.000000
12895745.000000,-2.308472,-1.663409,1.219730,-1.448321,1.711319,1.287096,-0.582784,0.376804,0.006864,1.180182,-0.353207,-0.231411,1.133274,-0.092968,2.605329,40.725445,-24.488113,-3.301210,0.297025,1.800033,-0.163102,0.000000,0.000000,0.000000,0.000000,0.000000,0.000000
12895746.000000,-2.308086,-1.663398,1.220935,-1.448668,1.711085,1.288234,-0.582868,0.378926,0.010252,1.182050,-0.348865,-0.231989,1.132747,-0.087357,2.506147,40.602459,-24.706314,-3.202028,0.332731,1.773483,-0.188737,0.000000,0.000000,0.000000,0.000000,0.000000,0.000000
12895747.000000,-2.307706,-1.663389,1.222116,-1.449002,1.710844,1.289381,-0.582954,0.380570,0.008665,1.183580,-0.340645,-0.237949,1.127657,-0.090477,2.406965,40.527081,-24.928482,-3.277406,0.398649,1.735030,-0.155778,0.000000,0.000000,0.000000,0.000000,0.000000,0.000000
12895748.000000,-2.307342,-1.663388,1.223306,-1.449327,1.710593,1.290506,-0.583038,0.375202,0.005827,1.177467,-0.334800,-0.240290,1.127771,-0.089576,2.454572,40.527081,-25.174454,-3.376589,0.554288,1.741439,-0.169511,0.000000,0.000000,0.000000,0.000000,0.000000,0.000000
12895749.000000,-2.306969,-1.663388,1.224511,-1.449638,1.710357,1.291633,-0.583116,0.376904,0.003922,1.203403,-0.324957,-0.242879,1.125977,-0.085379,2.506147,40.527081,-25.444229,-3.646364,0.566190,1.844894,-0.182328,0.000000,0.000000,0.000000,0.000000,0.000000,0.000000
12895750.000000,-2.306607,-1.663390,1.225684,-1.449957,1.710131,1.292733,-0.583200,0.372805,0.002086,1.198500,-0.318792,-0.230460,1.142576,-0.086601,2.581525,40.550884,-25.519608,-3.769350,0.518583,2.007858,-0.188737,0.000000,0.000000,0.000000,0.000000,0.000000,0.000000
12895751.000000,-2.306240,-1.663388,1.226874,-1.450269,1.709911,1.293853,-0.583280,0.371907,0.001969,1.195073,-0.314147,-0.222191,1.135962,-0.088460,2.629133,40.527081,-25.591019,-3.943910,0.446256,2.098495,-0.182328,0.000000,0.000000,0.000000,0.000000,0.000000,0.000000
12895752.000000,-2.305878,-1.663390,1.228019,-1.450590,1.709686,1.294989,-0.583360,0.360962,0.003912,1.177317,-0.311937,-0.222297,1.133931,-0.089139,2.652936,40.550884,-25.297440,-3.892336,0.410551,1.995040,-0.188737,0.000000,0.000000,0.000000,0.000000,0.000000,0.000000
12895753.000000,-2.305508,-1.663388,1.229198,-1.450902,1.709457,1.296106,-0.583438,0.365783,0.003439,1.170828,-0.318358,-0.220785,1.130342,-0.085767,2.553754,40.527081,-25.198257,-3.868532,0.344633,1.962081,-0.188737,0.000000,0.000000,0.000000,0.000000,0.000000,0.000000
12895754.000000,-2.305130,-1.663384,1.230359,-1.451228,1.709238,1.297234,-0.583520,0.364976,0.003055,1.161315,-0.320958,-0.220489,1.114408,-0.084618,2.406965,40.503277,-24.829300,-3.721742,0.285123,1.930038,-0.136552,0.000000,0.000000,0.000000,0.000000,0.000000,0.000000
12895755.000000,-2.304755,-1.663383,1.231513,-1.451545,1.709009,1.298385,-0.583594,0.369016,0.002190,1.152277,-0.316899,-0.223525,1.120273,-0.084430,2.208601,40.503277,-24.634903,-3.622560,0.344633,1.767074,-0.169511,0.000000,0.000000,0.000000,0.000000,0.000000,0.000000
12895756.000000,-2.304378,-1.663380,1.232676,-1.451857,1.708785,1.299526,-0.583671,0.369826,0.002689,1.145508,-0.315763,-0.221058,1.129656,-0.081862,1.986432,40.455669,-24.436539,-3.598757,0.374845,1.565658,-0.163102,0.000000,0.000000,0.000000,0.000000,0.000000,0.000000
12895757.000000,-2.304009,-1.663381,1.233821,-1.452165,1.708564,1.300671,-0.583750,0.369696,0.001323,1.141848,-0.311387,-0.224911,1.130550,-0.079706,1.863447,40.479473,-24.190567,-3.598757,0.398649,1.467696,-0.175919,0.000000,0.000000,0.000000,0.000000,0.000000,0.000000
12895758.000000,-2.303643,-1.663372,1.234991,-1.452466,1.708339,1.301783,-0.583827,0.370598,0.006421,1.147237,-0.306864,-0.226883,1.124375,-0.083438,1.740461,40.380291,-24.142960,-3.646364,0.452665,1.591293,-0.175919,0.000000,0.000000,0.000000,0.000000,0.000000,0.000000
12895759.000000,-2.303274,-1.663368,1.236150,-1.452765,1.708120,1.302899,-0.583905,0.369277,0.005149,1.144867,-0.301886,-0.229741,1.121759,-0.081489,1.665082,40.356487,-23.972366,-3.670168,0.440763,1.793624,-0.169511,0.000000,0.000000,0.000000,0.000000,0.000000,0.000000
12895760.000000,-2.302907,-1.663361,1.237310,-1.453054,1.707908,1.304038,-0.583984,0.363828,0.007920,1.148791,-0.292187,-0.222572,1.120500,-0.079011,1.589704,40.308880,-24.043777,-3.769350,0.398649,1.897079,-0.182328,0.000000,0.000000,0.000000,0.000000,0.000000,0.000000
12895761.000000,-2.302538,-1.663356,1.238466,-1.453350,1.707694,1.305162,-0.584063,0.365678,0.009535,1.144797,-0.301896,-0.216053,1.128113,-0.078577,1.367536,40.281109,-23.948563,-3.745546,0.374845,1.903487,-0.169511,0.000000,0.000000,0.000000,0.000000,0.000000,0.000000
12895762.000000,-2.302166,-1.663345,1.239611,-1.453649,1.707483,1.306308,-0.584142,0.365608,0.010382,1.164670,-0.300755,-0.215278,1.128213,-0.078369,1.169172,40.134319,-23.996170,-3.646364,0.362943,1.858627,-0.149369,0.000000,0.000000,0.000000,0.000000,0.000000,0.000000
12895763.000000,-2.301787,-1.663339,1.240770,-1.453948,1.707272,1.307421,-0.584212,0.371514,0.008479,1.156514,-0.297692,-0.216843,1.127475,-0.076403,0.871625,40.086712,-23.972366,-3.499574,0.356534,1.884261,-0.182328,0.000000,0.000000,0.000000,0.000000,0.000000,0.000000
12895764.000000,-2.301402,-1.663324,1.241918,-1.454245,1.707055,1.308553,-0.584292,0.375317,0.009976,1.146526,-0.297951,-0.214602,1.126499,-0.081620,0.574079,39.916119,-23.774002,-3.325014,0.351041,1.916305,-0.149369,0.000000,0.000000,0.000000,0.000000,0.000000,0.000000
12895765.000000,-2.301022,-1.663319,1.243043,-1.454538,1.706843,1.309693,-0.584363,0.374398,0.007457,1.141663,-0.294950,-0.209776,1.124403,-0.079360,0.328107,39.892315,-23.504227,-3.249635,0.393156,1.851302,-0.169511,0.000000,0.000000,0.000000,0.000000,0.000000,0.000000
12895766.000000,-2.300645,-1.663307,1.244195,-1.454815,1.706631,1.310823,-0.584441,0.375183,0.010570,1.133744,-0.288219,-0.209855,1.125142,-0.079061,0.006757,39.793133,-23.432816,-3.325014,0.422452,1.760665,-0.142960,0.000000,0.000000,0.000000,0.000000,0.000000,0.000000
12895767.000000,-2.300269,-1.663294,1.245356,-1.455099,1.706428,1.311942,-0.584512,0.374410,0.009765,1.160073,-0.288637,-0.208376,1.106918,-0.077041,-0.167803,39.693951,-23.432816,-3.400392,0.351041,1.825668,-0.163102,0.000000,0.000000,0.000000,0.000000,0.000000,0.000000
12895768.000000,-2.299891,-1.663286,1.246507,-1.455379,1.706230,1.313053,-0.584583,0.379742,0.007365,1.159210,-0.282302,-0.201253,1.127866,-0.075727,-0.389971,39.670147,-23.603409,-3.547182,0.320829,1.884261,-0.175919,0.000000,0.000000,0.000000,0.000000,0.000000,0.000000
12895769.000000,-2.299527,-1.663273,1.247678,-1.455655,1.706017,1.314185,-0.584658,0.374659,0.009962,1.153958,-0.281297,-0.203941,1.124660,-0.071875,-0.465350,39.598736,-23.896988,-3.547182,0.344633,1.865035,-0.149369,0.000000,0.000000,0.000000,0.000000,0.000000,0.000000
12895770.000000,-2.299155,-1.663265,1.248832,-1.455935,1.705806,1.315314,-0.584721,0.370520,0.009772,1.157334,-0.281337,-0.211285,1.121071,-0.071019,-0.663714,39.622540,-24.095352,-3.598757,0.344633,1.851302,-0.196061,0.000000,0.000000,0.000000,0.000000,0.000000,0.000000
12895771.000000,-2.298794,-1.663254,1.250015,-1.456212,1.705596,1.316416,-0.584793,0.369651,0.010830,1.161530,-0.282705,-0.210707,1.116074,-0.073422,-0.735125,39.598736,-24.511917,-3.646364,0.362943,1.936446,-0.155778,0.000000,0.000000,0.000000,0.000000,0.000000,0.000000
12895772.000000,-2.298423,-1.663241,1.251182,-1.456475,1.705393,1.317521,-0.584862,0.370271,0.012295,1.155187,-0.279153,-0.205252,1.103321,-0.068335,-0.862078,39.547161,-24.706314,-3.745546,0.356534,2.047225,-0.169511,0.000000,0.000000,0.000000,0.000000,0.000000,0.000000
12895773.000000,-2.298061,-1.663235,1.252327,-1.456747,1.705188,1.318656,-0.584929,0.367303,0.010911,1.146909,-0.275483,-0.202389,1.112921,-0.069254,-0.961260,39.598736,-24.757889,-3.820925,0.386747,2.007858,-0.182328,0.000000,0.000000,0.000000,0.000000,0.000000,0.000000
12895774.000000,-2.297706,-1.663220,1.253472,-1.457004,1.704987,1.319761,-0.585001,0.362250,0.013609,1.136463,-0.266378,-0.203388,1.113450,-0.072275,-0.933489,39.499554,-24.611099,-3.943910,0.381254,1.981307,-0.142960,0.000000,0.000000,0.000000,0.000000,0.000000,0.000000
12895775.000000,-2.297349,-1.663208,1.254597,-1.457261,1.704792,1.320870,-0.585068,0.357201,0.011092,1.136486,-0.260964,-0.198814,1.108153,-0.071499,-0.985064,39.451946,-24.341324,-4.019289,0.356534,2.039901,-0.175919,0.000000,0.000000,0.000000,0.000000,0.000000,0.000000
12895776.000000,-2.296999,-1.663197,1.255740,-1.457524,1.704591,1.321952,-0.585139,0.353131,0.012322,1.128041,-0.258169,-0.199662,1.102064,-0.071677,-0.985064,39.400372,-24.119156,-4.019289,0.327238,2.112228,-0.175919,0.000000,0.000000,0.000000,0.000000,0.000000,0.000000
12895777.000000,-2.296654,-1.663189,1.256873,-1.457779,1.704403,1.323066,-0.585206,0.347005,0.012019,1.119537,-0.256243,-0.191036,1.098991,-0.067998,-0.909686,39.400372,-23.651016,-3.991518,0.291532,2.125045,-0.163102,0.000000,0.000000,0.000000,0.000000,0.000000,0.000000
12895778.000000,-2.296312,-1.663175,1.258001,-1.458037,1.704210,1.324199,-0.585274,0.350620,0.012641,1.119520,-0.256792,-0.191020,1.098938,-0.064727,-0.834307,39.376568,-23.409012,-3.892336,0.303434,1.968490,-0.175919,0.000000,0.000000,0.000000,0.000000,0.000000,0.000000
12895779.000000,-2.295971,-1.663162,1.259136,-1.458290,1.704030,1.325321,-0.585341,0.346171,0.010987,1.115132,-0.257303,-0.187243,1.107368,-0.063184,-0.762896,39.305157,-23.210648,-3.943910,0.219205,1.838485,-0.163102,0.000000,0.000000,0.000000,0.000000,0.000000,0.000000
12895780.000000,-2.295641,-1.663148,1.260283,-1.458543,1.703847,1.326446,-0.585408,0.338345,0.012798,1.143187,-0.252925,-0.182936,1.107244,-0.061603,-0.612139,39.229778,-23.111465,-3.920107,0.207303,1.760665,-0.155778,0.000000,0.000000,0.000000,0.000000,0.000000,0.000000
12895781.000000,-2.295313,-1.663134,1.261416,-1.458798,1.703662,1.327557,-0.585474,0.335817,0.014106,1.136071,-0.250903,-0.183142,1.110944,-0.065038,-0.465350,39.158367,-23.087662,-3.844728,0.201810,1.702071,-0.136552,0.000000,0.000000,0.000000,0.000000,0.000000,0.000000
12895782.000000,-2.294991,-1.663124,1.262554,-1.459029,1.703472,1.328680,-0.585528,0.330227,0.013393,1.130128,-0.243190,-0.184851,1.102469,-0.064817,-0.290789,39.158367,-23.016251,-4.019289,0.201810,1.662704,-0.208878,0.000000,0.000000,0.000000,0.000000,0.000000,0.000000
12895783.000000,-2.294676,-1.663117,1.263684,-1.459275,1.703275,1.329806,-0.585600,0.320887,0.009813,1.124108,-0.242854,-0.188768,1.108498,-0.064665,-0.017047,39.158367,-23.087662,-4.066896,0.279630,1.643478,-0.155778,0.000000,0.000000,0.000000,0.000000,0.000000,0.000000
12895784.000000,-2.294362,-1.663097,1.264817,-1.459511,1.703089,1.330914,-0.585664,0.318101,0.010639,1.121304,-0.243383,-0.183271,1.111486,-0.062850,0.078168,39.011578,-23.016251,-4.189882,0.273221,1.695663,-0.149369,0.000000,0.000000,0.000000,0.000000,0.000000,0.000000
12895785.000000,-2.294052,-1.663083,1.265958,-1.459745,1.702898,1.332022,-0.585721,0.316204,0.009354,1.153114,-0.241688,-0.188174,1.106810,-0.059192,0.252729,38.936199,-23.016251,-4.213686,0.308927,1.760665,-0.196061,0.000000,0.000000,0.000000,0.000000,0.000000,0.000000
12895786.000000,-2.293743,-1.663069,1.267070,-1.459991,1.702713,1.333124,-0.585787,0.311332,0.010423,1.135008,-0.242654,-0.184945,1.133218,-0.060822,0.375715,38.912395,-22.865494,-4.166078,0.344633,1.806442,-0.136552,0.000000,0.000000,0.000000,0.000000,0.000000,0.000000
12895787.000000,-2.293431,-1.663049,1.268186,-1.460228,1.702533,1.334248,-0.585845,0.309401,0.014096,1.119307,-0.239160,-0.185368,1.127475,-0.058406,0.427289,38.765606,-22.571915,-4.118471,0.332731,1.682845,-0.169511,0.000000,0.000000,0.000000,0.000000,0.000000,0.000000
12895788.000000,-2.293118,-1.663029,1.269301,-1.460472,1.702358,1.335379,-0.585904,0.305753,0.017210,1.123612,-0.239210,-0.183755,1.120197,-0.053023,0.526471,38.595013,-22.500504,-3.943910,0.267728,1.624252,-0.169511,0.000000,0.000000,0.000000,0.000000,0.000000,0.000000
12895789.000000,-2.292816,-1.662999,1.270428,-1.460709,1.702173,1.336487,-0.585964,0.300397,0.021714,1.119231,-0.237085,-0.181189,1.109874,-0.050003,0.625654,38.325237,-22.425125,-3.844728,0.207303,1.605026,-0.149369,0.000000,0.000000,0.000000,0.000000,0.000000,0.000000
12895790.000000,-2.292515,-1.662979,1.271573,-1.460950,1.701992,1.337630,-0.586015,0.298597,0.018750,1.122760,-0.237904,-0.179846,1.113800,-0.049292,0.724836,38.178448,-22.500504,-3.670168,0.166105,1.461288,-0.208878,0.000000,0.000000,0.000000,0.000000,0.000000,0.000000
12895791.000000,-2.292228,-1.662956,1.272707,-1.461186,1.701814,1.338766,-0.586079,0.299334,0.022144,1.123066,-0.236574,-0.177539,1.110300,-0.057281,0.947004,38.055462,-22.671097,-3.547182,0.183500,1.402694,-0.149369,0.000000,0.000000,0.000000,0.000000,0.000000,0.000000
12895792.000000,-2.291935,-1.662940,1.273859,-1.461414,1.701633,1.339874,-0.586140,0.293737,0.017417,1.121060,-0.238054,-0.178085,1.112741,-0.062721,1.121564,37.984051,-22.988480,-3.499574,0.243009,1.461288,-0.122819,0.000000,0.000000,0.000000,0.000000,0.000000,0.000000
12895793.000000,-2.291647,-1.662915,1.275007,-1.461648,1.701461,1.340987,-0.586189,0.292851,0.019041,1.127851,-0.236106,-0.176683,1.099624,-0.058204,1.315961,37.833294,-23.409012,-3.424196,0.261320,1.637069,-0.196061,0.000000,0.000000,0.000000,0.000000,0.000000,0.000000
12895794.000000,-2.291368,-1.662901,1.276157,-1.461875,1.701285,1.342074,-0.586248,0.288402,0.014625,1.130453,-0.233167,-0.174883,1.100775,-0.057945,1.514325,37.785686,-23.651016,-3.400392,0.303434,1.838485,-0.182328,0.000000,0.000000,0.000000,0.000000,0.000000,0.000000
12895795.000000,-2.291095,-1.662887,1.277306,-1.462103,1.701104,1.343191,-0.586306,0.281031,0.010920,1.130571,-0.230313,-0.175348,1.100542,-0.057559,1.740461,37.761883,-23.774002,-3.277406,0.356534,1.923629,-0.182328,0.000000,0.000000,0.000000,0.000000,0.000000,0.000000
12895796.000000,-2.290817,-1.662873,1.278441,-1.462332,1.700928,1.344310,-0.586369,0.281478,0.011426,1.129943,-0.227936,-0.176957,1.101605,-0.054389,1.863447,37.738079,-23.873184,-3.154421,0.320829,1.995040,-0.130143,0.000000,0.000000,0.000000,0.000000,0.000000,0.000000
12895797.000000,-2.290537,-1.662857,1.279578,-1.462569,1.700755,1.345418,-0.586419,0.279228,0.009986,1.122155,-0.228665,-0.172907,1.110352,-0.052302,1.962629,37.662701,-23.750198,-2.956056,0.273221,1.988631,-0.196061,0.000000,0.000000,0.000000,0.000000,0.000000,0.000000
12895798.000000,-2.290250,-1.662843,1.280719,-1.462812,1.700583,1.346530,-0.586477,0.276330,0.010154,1.150699,-0.233927,-0.174649,1.101838,-0.049932,1.934858,37.662701,-23.678787,-2.634706,0.273221,1.916305,-0.163102,0.000000,0.000000,0.000000,0.000000,0.000000,0.000000
12895799.000000,-2.289969,-1.662828,1.281832,-1.463052,1.700407,1.347630,-0.586539,0.276405,0.011066,1.134605,-0.233889,-0.175910,1.096473,-0.057277,1.934858,37.638897,-23.432816,-2.360964,0.339139,1.890670,-0.116410,0.000000,0.000000,0.000000,0.000000,0.000000,0.000000
12895800.000000,-2.289692,-1.662815,1.282966,-1.463294,1.700237,1.348744,-0.586583,0.275433,0.011361,1.126010,-0.236079,-0.171312,1.097957,-0.058475,1.986432,37.638897,-23.210648,-2.114992,0.386747,1.825668,-0.202470,0.000000,0.000000,0.000000,0.000000,0.000000,0.000000
12895801.000000,-2.289417,-1.662802,1.284081,-1.463531,1.700072,1.349863,-0.586638,0.270483,0.012078,1.126394,-0.231358,-0.168648,1.096630,-0.055173,1.986432,37.615093,-23.040054,-1.992006,0.398649,1.806442,-0.155778,0.000000,0.000000,0.000000,0.000000,0.000000,0.000000
12895802.000000,-2.289158,-1.662783,1.285215,-1.463761,1.699913,1.350965,-0.586686,0.266823,0.014521,1.124293,-0.233283,-0.165912,1.095726,-0.054034,2.208601,37.515911,-22.964676,-1.992006,0.332731,1.793624,-0.188737,0.000000,0.000000,0.000000,0.000000,0.000000,0.000000
12895803.000000,-2.288886,-1.662772,1.286361,-1.463982,1.699743,1.352080,-0.586744,0.267359,0.013084,1.148708,-0.227313,-0.165832,1.097680,-0.055313,2.283979,37.539715,-22.940872,-1.992006,0.351041,1.767074,-0.169511,0.000000,0.000000,0.000000,0.000000,0.000000,0.000000
12895804.000000,-2.288625,-1.662755,1.287488,-1.464210,1.699584,1.353194,-0.586797,0.265648,0.014586,1.142857,-0.225101,-0.165242,1.123502,-0.055622,2.359357,37.468304,-22.940872,-2.015810,0.308927,1.630660,-0.149369,0.000000,0.000000,0.000000,0.000000,0.000000,0.000000
12895805.000000,-2.288356,-1.662740,1.288627,-1.464433,1.699425,1.354302,-0.586842,0.265035,0.017598,1.130483,-0.221697,-0.157910,1.119437,-0.053572,2.406965,37.444500,-23.016251,-2.015810,0.327238,1.656295,-0.208878,0.000000,0.000000,0.000000,0.000000,0.000000,0.000000
12895806.000000,-2.288085,-1.662727,1.289756,-1.464660,1.699266,1.355416,-0.586901,0.268341,0.016147,1.131168,-0.217455,-0.157619,1.112468,-0.051974,2.359357,37.444500,-23.087662,-1.940431,0.362943,1.727706,-0.149369,0.000000,0.000000,0.000000,0.000000,0.000000,0.000000
12895807.000000,-2.287824,-1.662715,1.290890,-1.464888,1.699109,1.356515,-0.586947,0.268416,0.015022,1.125699,-0.217310,-0.159121,1.117613,-0.051672,2.307783,37.444500,-23.111465,-1.841249,0.362943,1.727706,-0.182328,0.000000,0.000000,0.000000,0.000000,0.000000,0.000000
12895808.000000,-2.287553,-1.662705,1.292022,-1.465110,1.698953,1.357639,-0.586999,0.268109,0.013229,1.119225,-0.216854,-0.162428,1.114024,-0.053827,2.260175,37.492107,-23.040054,-1.793642,0.405057,1.637069,-0.149369,0.000000,0.000000,0.000000,0.000000,0.000000,0.000000
12895809.000000,-2.287288,-1.662694,1.293131,-1.465327,1.698800,1.358760,-0.587048,0.273446,0.009398,1.109852,-0.215577,-0.159507,1.101194,-0.048532,2.208601,37.515911,-22.917068,-1.742067,0.405057,1.565658,-0.175919,0.000000,0.000000,0.000000,0.000000,0.000000,0.000000
12895810.000000,-2.287021,-1.662680,1.294252,-1.465542,1.698653,1.359851,-0.587097,0.272847,0.011402,1.103433,-0.216796,-0.153926,1.089896,-0.046084,2.133222,37.468304,-22.742508,-1.694460,0.320829,1.676437,-0.169511,0.000000,0.000000,0.000000,0.000000,0.000000,0.000000
12895811.000000,-2.286754,-1.662670,1.295355,-1.465747,1.698493,1.360957,-0.587146,0.271509,0.011541,1.107378,-0.214978,-0.156383,1.081489,-0.045059,2.061811,37.468304,-22.548111,-1.694460,0.339139,1.727706,-0.136552,0.000000,0.000000,0.000000,0.000000,0.000000,0.000000
12895812.000000,-2.286493,-1.662659,1.296467,-1.465948,1.698335,1.362063,-0.587186,0.268470,0.009181,1.098421,-0.209360,-0.151581,1.090704,-0.045391,1.986432,37.444500,-22.302139,-1.769838,0.374845,1.702071,-0.202470,0.000000,0.000000,0.000000,0.000000,0.000000,0.000000
12895813.000000,-2.286229,-1.662650,1.297596,-1.466149,1.698186,1.363179,-0.587236,0.266768,0.008870,1.097159,-0.206372,-0.150799,1.091621,-0.044046,1.835676,37.492107,-22.254532,-1.769838,0.356534,1.695663,-0.182328,0.000000,0.000000,0.000000,0.000000,0.000000,0.000000
12895814.000000,-2.285969,-1.662629,1.298731,-1.466347,1.698039,1.364295,-0.587282,0.263702,0.009020,1.112592,-0.200113,-0.151232,1.090867,-0.047629,1.788068,37.392925,-22.571915,-1.793642,0.362943,1.721298,-0.169511,0.000000,0.000000,0.000000,0.000000,0.000000,0.000000
12895815.000000,-2.285709,-1.662619,1.299876,-1.466537,1.697890,1.365400,-0.587326,0.262085,0.009048,1.113441,-0.196300,-0.145628,1.093877,-0.044380,1.712690,37.420696,-22.893265,-1.841249,0.344633,1.670028,-0.188737,0.000000,0.000000,0.000000,0.000000,0.000000,0.000000
12895816.000000,-2.285449,-1.662611,1.301036,-1.466738,1.697745,1.366518,-0.587378,0.260117,0.009336,1.145038,-0.195057,-0.146745,1.098872,-0.043676,1.641279,37.444500,-23.309830,-1.817445,0.339139,1.578475,-0.155778,0.000000,0.000000,0.000000,0.000000,0.000000,0.000000
12895817.000000,-2.285193,-1.662601,1.302176,-1.466923,1.697595,1.367609,-0.587423,0.259380,0.010161,1.145079,-0.189965,-0.144998,1.100395,-0.041030,1.565900,37.444500,-23.651016,-1.916628,0.386747,1.637069,-0.175919,0.000000,0.000000,0.000000,0.000000,0.000000,0.000000
12895818.000000,-2.284932,-1.662597,1.303316,-1.467102,1.697448,1.368692,-0.587472,0.259582,0.009112,1.134453,-0.184524,-0.145371,1.092645,-0.046395,1.466718,37.515911,-23.873184,-2.015810,0.356534,1.793624,-0.136552,0.000000,0.000000,0.000000,0.000000,0.000000,0.000000
12895819.000000,-2.284670,-1.662584,1.304441,-1.467274,1.697304,1.369785,-0.587521,0.256936,0.011342,1.129659,-0.175874,-0.145917,1.078564,-0.043501,1.315961,37.468304,-23.972366,-2.138796,0.332731,1.936446,-0.149369,0.000000,0.000000,0.000000,0.000000,0.000000,0.000000
12895820.000000,-2.284419,-1.662577,1.305569,-1.467441,1.697151,1.370872,-0.587564,0.253454,0.007396,1.122496,-0.177998,-0.143259,1.075353,-0.048501,1.244550,37.515911,-23.948563,-2.285585,0.356534,1.897079,-0.202470,0.000000,0.000000,0.000000,0.000000,0.000000,0.000000
12895821.000000,-2.284153,-1.662573,1.306687,-1.467616,1.697004,1.371970,-0.587609,0.253552,0.007042,1.135377,-0.175480,-0.140752,1.073087,-0.050608,1.046186,37.591290,-23.678787,-2.337160,0.362943,1.897079,-0.196061,0.000000,0.000000,0.000000,0.000000,0.000000,0.000000
12895822.000000,-2.283892,-1.662572,1.307803,-1.467785,1.696859,1.373055,-0.587656,0.252075,0.006387,1.129241,-0.174295,-0.143641,1.076027,-0.048247,0.895429,37.686504,-23.528030,-2.384767,0.369352,1.844894,-0.169511,0.000000,0.000000,0.000000,0.000000,0.000000,0.000000
12895823.000000,-2.283631,-1.662569,1.308917,-1.467952,1.696717,1.374148,-0.587704,0.252902,0.003353,1.117443,-0.172670,-0.140087,1.079789,-0.046048,0.724836,37.761883,-23.186844,-2.412538,0.351041,1.865035,-0.155778,0.000000,0.000000,0.000000,0.000000,0.000000,0.000000
12895824.000000,-2.283367,-1.662563,1.310026,-1.468116,1.696574,1.375253,-0.587744,0.255847,0.004922,1.113153,-0.170929,-0.145085,1.082977,-0.042403,0.550275,37.809490,-23.016251,-2.384767,0.339139,1.819259,-0.196061,0.000000,0.000000,0.000000,0.000000,0.000000,0.000000
12895825.000000,-2.283122,-1.662564,1.311146,-1.468275,1.696440,1.376355,-0.587788,0.251108,0.003640,1.106102,-0.165155,-0.138609,1.103006,-0.042542,0.526471,37.956280,-22.865494,-2.535524,0.279630,1.637069,-0.163102,0.000000,0.000000,0.000000,0.000000,0.000000,0.000000
12895826.000000,-2.282877,-1.662558,1.312277,-1.468424,1.696302,1.377482,-0.587830,0.250203,0.002590,1.107253,-0.157975,-0.145087,1.111673,-0.041158,0.502668,37.984051,-22.841690,-2.706117,0.261320,1.422836,-0.163102,0.000000,0.000000,0.000000,0.000000,0.000000,0.000000
12895827.000000,-2.282634,-1.662552,1.313399,-1.468566,1.696161,1.378590,-0.587868,0.251340,0.006000,1.114726,-0.151185,-0.146582,1.106749,-0.039274,0.502668,37.956280,-22.940872,-2.928285,0.255826,1.396285,-0.182328,0.000000,0.000000,0.000000,0.000000,0.000000,0.000000
12895828.000000,-2.282389,-1.662553,1.314524,-1.468701,1.696017,1.379677,-0.587911,0.248156,0.002945,1.105123,-0.146568,-0.143125,1.099487,-0.040393,0.474897,38.031658,-22.940872,-3.154421,0.255826,1.487838,-0.142960,0.000000,0.000000,0.000000,0.000000,0.000000,0.000000
12895829.000000,-2.282141,-1.662555,1.315635,-1.468837,1.695871,1.380769,-0.587945,0.248319,0.000825,1.122621,-0.142139,-0.141751,1.084740,-0.038149,0.375715,38.103069,-22.940872,-3.301210,0.339139,1.656295,-0.182328,0.000000,0.000000,0.000000,0.000000,0.000000,0.000000
12895830.000000,-2.281897,-1.662553,1.316755,-1.468962,1.695730,1.381862,-0.587990,0.248395,0.000299,1.123022,-0.136628,-0.140174,1.087569,-0.040311,0.252729,38.130840,-22.940872,-3.547182,0.393156,1.767074,-0.122819,0.000000,0.000000,0.000000,0.000000,0.000000,0.000000
12895831.000000,-2.281645,-1.662554,1.317880,-1.469097,1.695601,1.382978,-0.588022,0.250193,-0.000059,1.115792,-0.136287,-0.132180,1.094146,-0.032782,0.054365,38.154644,-22.964676,-3.598757,0.362943,1.760665,-0.175919,0.000000,0.000000,0.000000,0.000000,0.000000,0.000000
12895832.000000,-2.281391,-1.662547,1.318985,-1.469229,1.695480,1.384104,-0.588060,0.250043,0.002505,1.110134,-0.136300,-0.129108,1.104600,-0.029060,-0.215411,38.055462,-22.940872,-3.622560,0.285123,1.735030,-0.182328,0.000000,0.000000,0.000000,0.000000,0.000000,0.000000
12895833.000000,-2.281144,-1.662545,1.320094,-1.469359,1.695358,1.385207,-0.588102,0.245563,0.002395,1.103810,-0.136554,-0.127162,1.098628,-0.033283,-0.465350,38.031658,-22.794083,-3.598757,0.213712,1.708480,-0.122819,0.000000,0.000000,0.000000,0.000000,0.000000,0.000000
12895834.000000,-2.280888,-1.662543,1.321198,-1.469488,1.695234,1.386319,-0.588130,0.245288,0.002280,1.119635,-0.135532,-0.131024,1.099415,-0.030962,-0.735125,38.007854,-22.524307,-3.523378,0.195402,1.702071,-0.208878,0.000000,0.000000,0.000000,0.000000,0.000000,0.000000
12895835.000000,-2.280640,-1.662542,1.322301,-1.469606,1.695110,1.387411,-0.588176,0.247126,0.002171,1.108147,-0.128125,-0.126784,1.118484,-0.035390,-0.933489,37.984051,-22.425125,-3.570986,0.189908,1.741439,-0.130143,0.000000,0.000000,0.000000,0.000000,0.000000,0.000000
12895836.000000,-2.280398,-1.662536,1.323420,-1.469728,1.694982,1.388511,-0.588203,0.242902,0.003282,1.103736,-0.128034,-0.128233,1.114925,-0.028467,-1.032672,37.908672,-22.448929,-3.547182,0.183500,1.793624,-0.202470,0.000000,0.000000,0.000000,0.000000,0.000000,0.000000
12895837.000000,-2.280155,-1.662529,1.324533,-1.469841,1.694858,1.389632,-0.588242,0.241297,0.004561,1.111632,-0.124423,-0.128566,1.115771,-0.031342,-1.183428,37.809490,-22.647293,-3.646364,0.166105,1.727706,-0.188737,0.000000,0.000000,0.000000,0.000000,0.000000,0.000000
12895838.000000,-2.279922,-1.662526,1.325686,-1.469951,1.694726,1.390718,-0.588275,0.239810,0.007360,1.120965,-0.121924,-0.130911,1.106740,-0.033494,-1.183428,37.761883,-23.111465,-3.745546,0.207303,1.708480,-0.175919,0.000000,0.000000,0.000000,0.000000,0.000000,0.000000
12895839.000000,-2.279689,-1.662526,1.326839,-1.470058,1.694596,1.391826,-0.588307,0.235962,0.005200,1.127911,-0.114609,-0.127602,1.093101,-0.033993,-1.207232,37.761883,-23.528030,-3.844728,0.237516,1.662704,-0.188737,0.000000,0.000000,0.000000,0.000000,0.000000,0.000000
12895840.000000,-2.279467,-1.662524,1.327965,-1.470161,1.694472,1.392918,-0.588346,0.232812,0.004244,1.127748,-0.108801,-0.124808,1.079280,-0.036638,-1.183428,37.738079,-23.920792,-3.943910,0.261320,1.786300,-0.130143,0.000000,0.000000,0.000000,0.000000,0.000000,0.000000
12895841.000000,-2.279236,-1.662531,1.329112,-1.470265,1.694344,1.393992,-0.588376,0.232760,0.000118,1.127211,-0.106816,-0.123370,1.076051,-0.030498,-1.254840,37.861065,-24.265945,-3.967714,0.303434,1.968490,-0.169511,0.000000,0.000000,0.000000,0.000000,0.000000,0.000000
12895842.000000,-2.279002,-1.662537,1.330232,-1.470364,1.694224,1.395084,-0.588410,0.232432,-0.002025,1.123712,-0.104086,-0.124696,1.077683,-0.033767,-1.330218,37.956280,-24.365128,-4.019289,0.285123,2.007858,-0.130143,0.000000,0.000000,0.000000,0.000000,0.000000,0.000000
12895843.000000,-2.278768,-1.662543,1.331363,-1.470468,1.694106,1.396166,-0.588438,0.230699,-0.003577,1.119328,-0.101232,-0.119074,1.077819,-0.033107,-1.480975,38.055462,-24.412735,-3.967714,0.243009,2.001449,-0.169511,0.000000,0.000000,0.000000,0.000000,0.000000,0.000000
12895844.000000,-2.278538,-1.662552,1.332486,-1.470566,1.693992,1.397269,-0.588470,0.228866,-0.005192,1.110647,-0.103526,-0.119351,1.079696,-0.033634,-1.603961,38.178448,-24.218338,-3.991518,0.178007,1.909896,-0.182328,0.000000,0.000000,0.000000,0.000000,0.000000,0.000000
12895845.000000,-2.278308,-1.662563,1.333592,-1.470674,1.693874,1.398368,-0.588508,0.228941,-0.006286,1.105686,-0.102513,-0.122077,1.087835,-0.032468,-1.802325,38.301434,-24.043777,-3.868532,0.159696,1.877853,-0.116410,0.000000,0.000000,0.000000,0.000000,0.000000,0.000000
12895846.000000,-2.278077,-1.662567,1.334712,-1.470776,1.693750,1.399443,-0.588527,0.228118,-0.005265,1.105794,-0.100225,-0.120020,1.087332,-0.030460,-1.972918,38.349041,-23.825577,-3.797121,0.166105,1.909896,-0.202470,0.000000,0.000000,0.000000,0.000000,0.000000,0.000000
12895847.000000,-2.277854,-1.662579,1.335800,-1.470871,1.693619,1.400532,-0.588559,0.225618,-0.007471,1.115217,-0.099226,-0.123589,1.082507,-0.028386,-2.072100,38.519634,-23.456619,-3.820925,0.225614,1.897079,-0.182328,0.000000,0.000000,0.000000,0.000000,0.000000,0.000000
12895848.000000,-2.277642,-1.662583,1.336917,-1.470965,1.693491,1.401610,-0.588590,0.219121,-0.005515,1.108232,-0.095635,-0.122389,1.080146,-0.026988,-2.099871,38.543438,-23.309830,-3.844728,0.285123,1.897079,-0.155778,0.000000,0.000000,0.000000,0.000000,0.000000,0.000000
12895849.000000,-2.277432,-1.662587,1.338035,-1.471048,1.693371,1.402713,-0.588616,0.215499,-0.004867,1.108183,-0.090396,-0.119766,1.079974,-0.028412,-2.024493,38.595013,-23.135269,-3.967714,0.279630,1.851302,-0.182328,0.000000,0.000000,0.000000,0.000000,0.000000,0.000000
12895850.000000,-2.277222,-1.662591,1.339153,-1.471132,1.693255,1.403830,-0.588648,0.212814,-0.004346,1.110236,-0.086501,-0.122724,1.085716,-0.031745,-1.925311,38.642620,-23.286026,-4.090700,0.279630,1.767074,-0.155778,0.000000,0.000000,0.000000,0.000000,0.000000,0.000000
12895851.000000,-2.277008,-1.662594,1.340274,-1.471213,1.693138,1.404921,-0.588673,0.211003,-0.004002,1.105244,-0.087201,-0.119343,1.089692,-0.031790,-1.972918,38.690228,-23.286026,-4.189882,0.261320,1.714889,-0.188737,0.000000,0.000000,0.000000,0.000000,0.000000,0.000000
12895852.000000,-2.276807,-1.662598,1.341413,-1.471296,1.693025,1.406018,-0.588707,0.206458,-0.003310,1.134145,-0.086946,-0.121388,1.087434,-0.034912,-1.901507,38.717999,-23.480423,-4.213686,0.231107,1.708480,-0.142960,0.000000,0.000000,0.000000,0.000000,0.000000,0.000000
12895853.000000,-2.276600,-1.662608,1.342524,-1.471380,1.692912,1.407098,-0.588733,0.209321,-0.004429,1.126098,-0.086168,-0.118483,1.105828,-0.029653,-1.949114,38.813213,-23.579605,-4.265260,0.207303,1.721298,-0.169511,0.000000,0.000000,0.000000,0.000000,0.000000,0.000000
12895854.000000,-2.276391,-1.662611,1.343647,-1.471461,1.692800,1.408189,-0.588763,0.209579,-0.003505,1.121096,-0.082840,-0.116197,1.109550,-0.028464,-2.048296,38.837017,-23.651016,-4.289064,0.178007,1.793624,-0.130143,0.000000,0.000000,0.000000,0.000000,0.000000,0.000000
12895855.000000,-2.276184,-1.662617,1.344746,-1.471544,1.692694,1.409295,-0.588786,0.205612,-0.003540,1.112872,-0.081247,-0.113234,1.105992,-0.029076,-2.123675,38.888592,-23.579605,-4.265260,0.154203,1.747848,-0.169511,0.000000,0.000000,0.000000,0.000000,0.000000,0.000000
12895856.000000,-2.275979,-1.662621,1.345843,-1.471614,1.692576,1.410380,-0.588815,0.207533,-0.006073,1.104233,-0.077404,-0.114871,1.099948,-0.026799,-2.270464,38.912395,-23.381241,-4.340639,0.195402,1.702071,-0.163102,0.000000,0.000000,0.000000,0.000000,0.000000,0.000000
12895857.000000,-2.275774,-1.662626,1.346955,-1.471687,1.692462,1.411470,-0.588841,0.206261,-0.008026,1.098301,-0.073105,-0.114560,1.089388,-0.025020,-2.322039,38.936199,-23.234451,-4.364442,0.195402,1.747848,-0.155778,0.000000,0.000000,0.000000,0.000000,0.000000,0.000000
12895858.000000,-2.275568,-1.662627,1.348047,-1.471759,1.692349,1.412570,-0.588867,0.207765,-0.005810,1.093403,-0.073109,-0.110146,1.087181,-0.027658,-2.397418,38.936199,-23.040054,-4.388246,0.207303,1.721298,-0.169511,0.000000,0.000000,0.000000,0.000000,0.000000,0.000000
12895859.000000,-2.275365,-1.662631,1.349157,-1.471827,1.692231,1.413651,-0.588896,0.208076,-0.004775,1.087775,-0.073221,-0.113540,1.087522,-0.026710,-2.468829,38.960003,-23.016251,-4.412050,0.279630,1.747848,-0.136552,0.000000,0.000000,0.000000,0.000000,0.000000,0.000000
12895860.000000,-2.275172,-1.662632,1.350259,-1.471900,1.692121,1.414752,-0.588914,0.202902,-0.002885,1.095832,-0.071766,-0.112970,1.082891,-0.022411,-2.492632,38.936199,-23.087662,-4.364442,0.273221,1.714889,-0.196061,0.000000,0.000000,0.000000,0.000000,0.000000,0.000000
12895861.000000,-2.274981,-1.662632,1.351400,-1.471965,1.692014,1.415843,-0.588944,0.202666,-0.001560,1.098471,-0.068269,-0.106167,1.083845,-0.023669,-2.492632,38.912395,-23.504227,-4.412050,0.237516,1.624252,-0.142960,0.000000,0.000000,0.000000,0.000000,0.000000,0.000000
12895862.000000,-2.274789,-1.662633,1.352536,-1.472028,1.691911,1.416948,-0.588965,0.195518,-0.003908,1.100104,-0.066166,-0.106744,1.086826,-0.021362,-2.492632,38.888592,-23.825577,-4.439821,0.201810,1.572067,-0.169511,0.000000,0.000000,0.000000,0.000000,0.000000,0.000000
12895863.000000,-2.274608,-1.662632,1.353678,-1.472088,1.691805,1.418050,-0.588988,0.189887,-0.002430,1.115482,-0.063618,-0.107735,1.096592,-0.020255,-2.468829,38.864788,-24.388931,-4.511232,0.178007,1.591293,-0.182328,0.000000,0.000000,0.000000,0.000000,0.000000,0.000000
12895864.000000,-2.274427,-1.662634,1.354819,-1.472149,1.691698,1.419118,-0.589013,0.185438,-0.002464,1.114555,-0.064255,-0.108172,1.094404,-0.021634,-2.445025,38.888592,-24.757889,-4.586610,0.154203,1.760665,-0.136552,0.000000,0.000000,0.000000,0.000000,0.000000,0.000000
12895865.000000,-2.274244,-1.662639,1.355928,-1.472209,1.691588,1.420185,-0.589033,0.186170,-0.003528,1.134131,-0.064141,-0.115196,1.081410,-0.019604,-2.421221,38.960003,-24.880875,-4.586610,0.178007,2.033492,-0.169511,0.000000,0.000000,0.000000,0.000000,0.000000,0.000000
12895866.000000,-2.274063,-1.662641,1.357048,-1.472273,1.691480,1.421254,-0.589057,0.186256,-0.002513,1.120807,-0.064336,-0.115401,1.070936,-0.020482,-2.397418,38.960003,-24.904678,-4.562807,0.195402,2.183639,-0.136552,0.000000,0.000000,0.000000,0.000000,0.000000,0.000000
12895867.000000,-2.273883,-1.662647,1.358175,-1.472327,1.691372,1.422346,-0.589071,0.181260,-0.003003,1.119584,-0.063241,-0.114806,1.067773,-0.018019,-2.421221,39.011578,-24.928482,-4.586610,0.189908,2.190048,-0.188737,0.000000,0.000000,0.000000,0.000000,0.000000,0.000000
12895868.000000,-2.273699,-1.662640,1.359273,-1.472390,1.691262,1.423458,-0.589092,0.181437,0.001341,1.116013,-0.065741,-0.114556,1.077397,-0.018867,-2.492632,38.864788,-24.757889,-4.463624,0.189908,2.112228,-0.169511,0.000000,0.000000,0.000000,0.000000,0.000000,0.000000
12895869.000000,-2.273520,-1.662641,1.360389,-1.472453,1.691150,1.424556,-0.589110,0.179479,0.000826,1.109533,-0.067702,-0.112917,1.083845,-0.019439,-2.619586,38.864788,-24.611099,-4.312868,0.183500,1.949264,-0.155778,0.000000,0.000000,0.000000,0.000000,0.000000,0.000000
12895870.000000,-2.273340,-1.662647,1.361493,-1.472518,1.691035,1.425649,-0.589123,0.180288,-0.000614,1.095579,-0.067372,-0.109349,1.079622,-0.017468,-2.742571,38.912395,-24.242142,-4.118471,0.213712,1.909896,-0.202470,0.000000,0.000000,0.000000,0.000000,0.000000,0.000000
12895871.000000,-2.273170,-1.662650,1.362603,-1.472582,1.690920,1.426720,-0.589143,0.178308,-0.004019,1.102139,-0.065827,-0.112588,1.099627,-0.019649,-2.766375,38.936199,-24.190567,-3.967714,0.279630,1.949264,-0.155778,0.000000,0.000000,0.000000,0.000000,0.000000,0.000000
12895872.000000,-2.273012,-1.662649,1.363714,-1.472636,1.690814,1.427809,-0.589159,0.171362,-0.001846,1.091829,-0.061118,-0.106587,1.101599,-0.018666,-2.643389,38.888592,-24.071548,-3.967714,0.249418,1.988631,-0.175919,0.000000,0.000000,0.000000,0.000000,0.000000,0.000000
12895873.000000,-2.272857,-1.662656,1.364818,-1.472685,1.690716,1.428908,-0.589177,0.165540,-0.003111,1.089310,-0.059058,-0.105140,1.100204,-0.018540,-2.468829,38.960003,-24.071548,-4.043092,0.171598,1.936446,-0.182328,0.000000,0.000000,0.000000,0.000000,0.000000,0.000000
12895874.000000,-2.272712,-1.662665,1.365935,-1.472727,1.690607,1.429991,-0.589195,0.160682,-0.003995,1.094722,-0.055793,-0.107082,1.095346,-0.019125,-2.270464,39.035381,-24.095352,-4.189882,0.171598,1.890670,-0.163102,0.000000,0.000000,0.000000,0.000000,0.000000,0.000000
12895875.000000,-2.272563,-1.662664,1.367064,-1.472771,1.690506,1.431089,-0.589211,0.157014,-0.001575,1.097732,-0.052678,-0.110782,1.085997,-0.018273,-2.072100,38.983807,-24.190567,-4.265260,0.117582,1.819259,-0.182328,0.000000,0.000000,0.000000,0.000000,0.000000,0.000000
12895876.000000,-2.272412,-1.662670,1.368173,-1.472814,1.690402,1.432184,-0.589232,0.154817,-0.004265,1.093601,-0.051139,-0.107735,1.081068,-0.020011,-2.000689,38.983807,-24.313553,-4.312868,0.135892,1.858627,-0.136552,0.000000,0.000000,0.000000,0.000000,0.000000,0.000000
12895877.000000,-2.272265,-1.662674,1.369292,-1.472858,1.690296,1.433263,-0.589247,0.152695,-0.003170,1.094889,-0.048891,-0.110628,1.081305,-0.018583,-1.901507,38.983807,-24.436539,-4.265260,0.171598,1.936446,-0.163102,0.000000,0.000000,0.000000,0.000000,0.000000,0.000000
12895878.000000,-2.272115,-1.662681,1.370382,-1.472908,1.690187,1.434366,-0.589263,0.151588,-0.006165,1.090065,-0.048371,-0.113996,1.088086,-0.017952,-1.849932,39.011578,-24.341324,-4.166078,0.243009,1.897079,-0.182328,0.000000,0.000000,0.000000,0.000000,0.000000,0.000000
12895879.000000,-2.271968,-1.662682,1.371488,-1.472957,1.690074,1.435453,-0.589283,0.152408,-0.006073,1.088502,-0.048227,-0.110345,1.092011,-0.019220,-1.873736,38.936199,-24.242142,-4.043092,0.303434,1.819259,-0.149369,0.000000,0.000000,0.000000,0.000000,0.000000,0.000000
12895880.000000,-2.271822,-1.662685,1.372592,-1.472996,1.689968,1.436556,-0.589296,0.149229,-0.004100,1.086202,-0.041912,-0.104986,1.094398,-0.018567,-1.873736,38.912395,-24.095352,-4.043092,0.273221,1.741439,-0.163102,0.000000,0.000000,0.000000,0.000000,0.000000,0.000000
12895881.000000,-2.271679,-1.662682,1.373673,-1.473038,1.689868,1.437660,-0.589307,0.146051,-0.003449,1.080538,-0.042290,-0.104564,1.099295,-0.017415,-1.849932,38.789410,-23.873184,-3.967714,0.207303,1.702071,-0.196061,0.000000,0.000000,0.000000,0.000000,0.000000,0.000000
12895882.000000,-2.271544,-1.662679,1.374772,-1.473077,1.689759,1.438738,-0.589326,0.143211,-0.003006,1.075241,-0.038993,-0.103399,1.095249,-0.013435,-1.802325,38.666424,-23.702591,-3.920107,0.243009,1.747848,-0.188737,0.000000,0.000000,0.000000,0.000000,0.000000,0.000000
12895883.000000,-2.271415,-1.662682,1.375875,-1.473117,1.689661,1.439832,-0.589344,0.135920,-0.005310,1.095421,-0.039992,-0.102735,1.086132,-0.015776,-1.679339,38.642620,-23.579605,-3.844728,0.201810,1.793624,-0.163102,0.000000,0.000000,0.000000,0.000000,0.000000,0.000000
12895884.000000,-2.271289,-1.662682,1.376972,-1.473157,1.689564,1.440901,-0.589360,0.128970,-0.005813,1.095433,-0.041346,-0.100405,1.075106,-0.016737,-1.552386,38.571209,-23.702591,-3.745546,0.189908,1.909896,-0.155778,0.000000,0.000000,0.000000,0.000000,0.000000,0.000000
12895885.000000,-2.271169,-1.662679,1.378101,-1.473193,1.689467,1.441998,-0.589366,0.124598,-0.002410,1.100776,-0.038709,-0.099213,1.074708,-0.015683,-1.381793,38.472027,-23.996170,-3.670168,0.189908,1.930038,-0.196061,0.000000,0.000000,0.000000,0.000000,0.000000,0.000000
12895886.000000,-2.271048,-1.662679,1.379222,-1.473224,1.689375,1.443110,-0.589385,0.122369,-0.001691,1.103236,-0.034764,-0.096837,1.076952,-0.018282,-1.231036,38.448223,-24.464310,-3.670168,0.159696,1.865035,-0.149369,0.000000,0.000000,0.000000,0.000000,0.000000,0.000000
12895887.000000,-2.270934,-1.662679,1.380347,-1.473255,1.689278,1.444203,-0.589397,0.118739,-0.001608,1.100922,-0.032789,-0.096539,1.078696,-0.017773,-1.008868,38.448223,-24.857071,-3.622560,0.166105,1.812850,-0.163102,0.000000,0.000000,0.000000,0.000000,0.000000,0.000000
12895888.000000,-2.270817,-1.662683,1.381473,-1.473286,1.689181,1.445292,-0.589411,0.114967,-0.002546,1.134674,-0.032076,-0.097421,1.073378,-0.018695,-0.885882,38.495831,-25.099075,-3.547182,0.201810,1.858627,-0.142960,0.000000,0.000000,0.000000,0.000000,0.000000,0.000000
12895889.000000,-2.270703,-1.662688,1.382582,-1.473311,1.689081,1.446363,-0.589416,0.118474,-0.003731,1.126646,-0.029444,-0.103196,1.076547,-0.017183,-0.786700,38.571209,-25.249832,-3.570986,0.249418,1.942855,-0.182328,0.000000,0.000000,0.000000,0.000000,0.000000,0.000000
12895890.000000,-2.270585,-1.662697,1.383692,-1.473334,1.688980,1.447437,-0.589425,0.117738,-0.005474,1.111129,-0.025044,-0.102547,1.080648,-0.012723,-0.762896,38.690228,-25.249832,-3.570986,0.297025,2.072860,-0.188737,0.000000,0.000000,0.000000,0.000000,0.000000,0.000000
12895891.000000,-2.270471,-1.662706,1.384784,-1.473367,1.688889,1.448535,-0.589442,0.116237,-0.006122,1.106895,-0.028167,-0.098847,1.080710,-0.016465,-0.735125,38.789410,-25.099075,-3.424196,0.261320,1.988631,-0.130143,0.000000,0.000000,0.000000,0.000000,0.000000,0.000000
12895892.000000,-2.270358,-1.662710,1.385873,-1.473394,1.688789,1.449621,-0.589447,0.116725,-0.005309,1.091548,-0.026049,-0.102252,1.080669,-0.014519,-0.762896,38.837017,-24.757889,-3.325014,0.267728,1.838485,-0.196061,0.000000,0.000000,0.000000,0.000000,0.000000,0.000000
12895893.000000,-2.270248,-1.662720,1.386982,-1.473423,1.688692,1.450704,-0.589462,0.118555,-0.010109,1.089668,-0.024932,-0.099795,1.073579,-0.017144,-0.735125,38.983807,-24.611099,-3.202028,0.267728,1.825668,-0.155778,0.000000,0.000000,0.000000,0.000000,0.000000,0.000000
12895894.000000,-2.270136,-1.662724,1.388065,-1.473456,1.688596,1.451796,-0.589468,0.117325,-0.007707,1.086573,-0.025776,-0.097374,1.073266,-0.015965,-0.762896,39.011578,-24.341324,-3.003664,0.237516,1.832076,-0.196061,0.000000,0.000000,0.000000,0.000000,0.000000,0.000000
12895895.000000,-2.270033,-1.662730,1.389161,-1.473480,1.688496,1.452871,-0.589483,0.111628,-0.010211,1.078787,-0.023364,-0.092993,1.068521,-0.018541,-0.687518,39.082989,-24.142960,-2.928285,0.267728,1.844894,-0.149369,0.000000,0.000000,0.000000,0.000000,0.000000,0.000000
12895896.000000,-2.269932,-1.662736,1.390249,-1.473495,1.688398,1.453969,-0.589490,0.108323,-0.010960,1.102540,-0.022559,-0.093855,1.068732,-0.013077,-0.635943,39.106792,-24.071548,-2.956056,0.279630,1.806442,-0.169511,0.000000,0.000000,0.000000,0.000000,0.000000,0.000000
12895897.000000,-2.269839,-1.662740,1.391351,-1.473503,1.688304,1.455068,-0.589498,0.101706,-0.007901,1.096875,-0.017295,-0.093010,1.077422,-0.012900,-0.512957,39.106792,-24.019974,-3.055238,0.255826,1.611434,-0.208878,0.000000,0.000000,0.000000,0.000000,0.000000,0.000000
12895898.000000,-2.269750,-1.662737,1.392475,-1.473509,1.688212,1.456173,-0.589514,0.095215,-0.003486,1.098291,-0.013574,-0.096813,1.084576,-0.012480,-0.366168,39.011578,-24.218338,-3.154421,0.225614,1.519881,-0.136552,0.000000,0.000000,0.000000,0.000000,0.000000,0.000000
12895899.000000,-2.269664,-1.662737,1.393568,-1.473515,1.688118,1.457276,-0.589518,0.094609,-0.003908,1.095826,-0.011691,-0.095781,1.090902,-0.012528,-0.243182,38.936199,-24.265945,-3.225832,0.207303,1.513473,-0.175919,0.000000,0.000000,0.000000,0.000000,0.000000,0.000000
12895900.000000,-2.269569,-1.662737,1.394674,-1.473523,1.688019,1.458354,-0.589528,0.094179,-0.001994,1.087158,-0.012178,-0.097683,1.088073,-0.009424,-0.266986,38.888592,-24.313553,-3.225832,0.267728,1.591293,-0.175919,0.000000,0.000000,0.000000,0.000000,0.000000,0.000000
12895901.000000,-2.269479,-1.662746,1.395777,-1.473527,1.687919,1.459434,-0.589539,0.091715,-0.002819,1.105756,-0.009296,-0.098740,1.079489,-0.012135,-0.215411,38.936199,-24.289749,-3.225832,0.315336,1.779891,-0.163102,0.000000,0.000000,0.000000,0.000000,0.000000,0.000000
12895902.000000,-2.269387,-1.662752,1.396859,-1.473533,1.687828,1.460509,-0.589546,0.094954,-0.005859,1.094234,-0.010162,-0.097092,1.091641,-0.008362,-0.243182,38.960003,-24.218338,-3.225832,0.303434,1.903487,-0.182328,0.000000,0.000000,0.000000,0.000000,0.000000,0.000000
12895903.000000,-2.269287,-1.662750,1.397947,-1.473535,1.687736,1.461615,-0.589557,0.094087,-0.005874,1.085591,-0.007694,-0.093970,1.093544,-0.007771,-0.389971,38.888592,-24.095352,-3.225832,0.243009,1.890670,-0.142960,0.000000,0.000000,0.000000,0.000000,0.000000,0.000000
12895904.000000,-2.269195,-1.662748,1.399022,-1.473532,1.687650,1.462734,-0.589559,0.093044,-0.002771,1.085485,-0.005262,-0.095688,1.092115,-0.003531,-0.413775,38.813213,-23.972366,-3.249635,0.154203,1.806442,-0.202470,0.000000,0.000000,0.000000,0.000000,0.000000,0.000000
