chaoyuefei/paper-gmrm-data/robot_logs/s2_dq_gmrm_xz_min_0.50_log_20260314_173935.csv
# time_ms,q_0,q_1,q_2,q_3,q_4,q_5,q_6,dq_0,dq_1,dq_2,dq_3,dq_4,dq_5,dq_6,tau_J_0,tau_J_1,tau_J_2,tau_J_3,tau_J_4,tau_J_5,tau_J_6,O_dP_EE_c_0,O_dP_EE_c_1,O_dP_EE_c_2,O_dP_EE_c_3,O_dP_EE_c_4,O_dP_EE_c_5
12637521.000000,-2.415659,-1.662610,1.042882,-1.356088,1.795450,1.081426,-0.548598,0.000657,0.000003,-0.000593,-0.001887,-0.000252,0.000117,0.000984,0.006757,41.554607,-21.024673,-5.673646,0.847257,1.312057,0.001693,0.000000,0.000000,0.000000,0.000000,0.000000,0.000000
12637522.000000,-2.415663,-1.662610,1.042884,-1.356081,1.795450,1.081424,-0.548598,-0.000676,0.000002,0.000255,0.001062,0.000070,-0.000397,0.001131,0.054365,41.554607,-21.052444,-5.772829,0.840848,1.324874,-0.011124,0.000000,0.000000,0.000000,0.000000,0.000000,0.000000
12637523.000000,-2.415661,-1.662608,1.042891,-1.356085,1.795451,1.081425,-0.548605,0.000106,0.000558,0.001840,-0.000499,0.000250,-0.000027,-0.001450,0.030561,41.530804,-21.123856,-5.721254,0.835355,1.318465,0.048385,0.000000,0.000000,0.000000,0.000000,0.000000,0.000000
12637524.000000,-2.415664,-1.662608,1.042881,-1.356083,1.795452,1.081425,-0.548600,-0.001043,0.000372,-0.001650,0.000317,0.000404,-0.000018,0.000491,0.078168,41.530804,-21.000870,-5.749025,0.828947,1.318465,0.009017,0.000000,0.000000,0.000000,0.000000,0.000000,0.000000
12637525.000000,-2.415658,-1.662611,1.042885,-1.356082,1.795450,1.081425,-0.548601,0.005847,-0.005015,-0.000543,-0.001552,0.000710,0.008279,-0.008430,0.328107,41.483196,-21.024673,-5.673646,0.817045,1.350509,-0.011124,0.000000,0.000000,0.000000,0.000000,0.000000,0.000000
12637526.000000,-2.415653,-1.662612,1.042886,-1.356083,1.795449,1.081418,-0.548622,0.011111,-0.003918,0.001679,-0.003446,-0.001366,0.004327,-0.011304,1.391340,41.213421,-20.977066,-5.451478,0.727323,1.532699,-0.004716,0.000000,0.000000,0.000000,0.000000,0.000000,0.000000
12637527.000000,-2.415621,-1.662617,1.042897,-1.356075,1.795447,1.081413,-0.548644,0.021787,-0.005165,0.003333,-0.000399,-0.008454,-0.000126,-0.020226,2.926679,40.872234,-20.929459,-5.276918,0.632108,1.767074,-0.070634,0.000000,0.000000,0.000000,0.000000,0.000000,0.000000
12637528.000000,-2.415580,-1.662613,1.042917,-1.356083,1.795427,1.081432,-0.548696,0.026279,-0.001634,0.008449,-0.003764,-0.015621,0.005809,-0.030594,4.858747,40.308880,-20.905655,-4.856386,0.596403,1.890670,-0.037675,0.000000,0.000000,0.000000,0.000000,0.000000,0.000000
12637529.000000,-2.415513,-1.662618,1.042942,-1.356094,1.795400,1.081479,-0.548754,0.036605,0.001408,0.014632,-0.006838,-0.018455,0.022325,-0.042162,6.715436,39.840740,-20.854080,-4.511232,0.625699,1.819259,-0.031266,0.000000,0.000000,0.000000,0.000000,0.000000,0.000000
12637530.000000,-2.415428,-1.662612,1.042970,-1.356121,1.795358,1.081561,-0.548827,0.047774,0.005672,0.018405,-0.013441,-0.031280,0.040627,-0.052748,8.349957,39.281353,-20.754898,-4.090700,0.673307,1.572067,-0.097184,0.000000,0.000000,0.000000,0.000000,0.000000,0.000000
12637531.000000,-2.415323,-1.662611,1.043010,-1.356166,1.795306,1.081654,-0.548934,0.060641,0.006866,0.026139,-0.024324,-0.035623,0.060134,-0.069644,9.782147,38.789410,-20.731094,-3.646364,0.715421,1.389877,-0.031266,0.000000,0.000000,0.000000,0.000000,0.000000,0.000000
12637532.000000,-2.415213,-1.662608,1.043056,-1.356218,1.795236,1.081760,-0.549046,0.070892,0.003217,0.030092,-0.032864,-0.050030,0.079860,-0.088480,11.071515,38.349041,-20.631912,-3.301210,0.769437,1.318465,-0.070634,0.000000,0.000000,0.000000,0.000000,0.000000,0.000000
12637533.000000,-2.415070,-1.662606,1.043107,-1.356277,1.795158,1.081888,-0.549188,0.093090,0.001139,0.035991,-0.043329,-0.060069,0.096813,-0.103106,11.987958,38.007854,-20.512894,-3.027467,0.703519,1.318465,-0.097184,0.000000,0.000000,0.000000,0.000000,0.000000,0.000000
12637534.000000,-2.414935,-1.662597,1.043170,-1.356348,1.795070,1.082035,-0.549359,0.102709,0.005072,0.043332,-0.055837,-0.066636,0.109840,-0.126455,13.027387,37.591290,-20.389908,-2.805300,0.584501,1.442062,-0.050492,0.000000,0.000000,0.000000,0.000000,0.000000,0.000000
12637535.000000,-2.414781,-1.662586,1.043254,-1.356432,1.794954,1.082205,-0.549548,0.121818,0.010019,0.059321,-0.064885,-0.084272,0.124416,-0.147743,13.844647,37.222332,-20.437515,-2.606935,0.518583,1.578475,-0.083451,0.000000,0.000000,0.000000,0.000000,0.000000,0.000000
12637536.000000,-2.414611,-1.662572,1.043361,-1.356526,1.794832,1.082409,-0.549773,0.136821,0.013722,0.071447,-0.075202,-0.093970,0.148346,-0.167457,14.562726,36.857342,-20.631912,-2.511720,0.351041,1.617843,-0.077042,0.000000,0.000000,0.000000,0.000000,0.000000,0.000000
12637537.000000,-2.414428,-1.662552,1.043472,-1.356647,1.794675,1.082649,-0.550017,0.153860,0.017215,0.083433,-0.092114,-0.118319,0.182202,-0.190637,15.153852,36.464581,-20.707291,-2.285585,0.332731,1.578475,-0.110001,0.000000,0.000000,0.000000,0.000000,0.000000,0.000000
12637538.000000,-2.414219,-1.662530,1.043598,-1.356776,1.794487,1.082909,-0.550300,0.173661,0.020380,0.097179,-0.104458,-0.142701,0.205387,-0.221663,15.550580,36.048016,-20.854080,-2.190370,0.369352,1.500655,-0.031266,0.000000,0.000000,0.000000,0.000000,0.000000,0.000000
12637539.000000,-2.413994,-1.662509,1.043741,-1.356923,1.794274,1.083205,-0.550577,0.189036,0.018894,0.113174,-0.119424,-0.167209,0.230964,-0.233348,15.871930,35.655254,-21.000870,-2.114992,0.446256,1.435653,-0.116410,0.000000,0.000000,0.000000,0.000000,0.000000,0.000000
12637540.000000,-2.413755,-1.662493,1.043892,-1.357101,1.794030,1.083517,-0.550876,0.205976,0.018719,0.124638,-0.136097,-0.193610,0.253625,-0.253822,16.098066,35.361675,-21.147659,-1.916628,0.584501,1.416427,-0.037675,0.000000,0.000000,0.000000,0.000000,0.000000,0.000000
12637541.000000,-2.413503,-1.662470,1.044053,-1.357274,1.793783,1.083852,-0.551174,0.220131,0.019346,0.134981,-0.149210,-0.216674,0.273973,-0.264420,16.320234,35.044292,-21.199234,-1.964235,0.601896,1.429244,-0.064225,0.000000,0.000000,0.000000,0.000000,0.000000,0.000000
12637542.000000,-2.413236,-1.662453,1.044228,-1.357465,1.793520,1.084208,-0.551470,0.240651,0.019601,0.145498,-0.162436,-0.230330,0.299011,-0.267373,16.467024,34.873699,-21.246841,-1.992006,0.589994,1.448470,-0.116410,0.000000,0.000000,0.000000,0.000000,0.000000,0.000000
12637543.000000,-2.412947,-1.662444,1.044412,-1.357674,1.793236,1.084582,-0.551770,0.255854,0.014778,0.156978,-0.176172,-0.250104,0.324197,-0.278806,16.542402,34.798321,-21.294449,-1.992006,0.571683,1.546432,-0.050492,0.000000,0.000000,0.000000,0.000000,0.000000,0.000000
12637544.000000,-2.412642,-1.662434,1.044602,-1.357899,1.792948,1.084974,-0.552064,0.272107,0.011483,0.168376,-0.192328,-0.264994,0.335731,-0.281443,16.641584,34.726910,-21.199234,-1.992006,0.410551,1.702071,-0.122819,0.000000,0.000000,0.000000,0.000000,0.000000,0.000000
12637545.000000,-2.412318,-1.662426,1.044808,-1.358155,1.792633,1.085386,-0.552359,0.291926,0.008182,0.179957,-0.213878,-0.275635,0.358515,-0.286890,16.566206,34.703106,-21.199234,-1.817445,0.339139,1.754256,-0.122819,0.000000,0.000000,0.000000,0.000000,0.000000,0.000000
12637546.000000,-2.411976,-1.662427,1.045011,-1.358417,1.792304,1.085839,-0.552666,0.304608,0.003762,0.188083,-0.228893,-0.298314,0.382541,-0.293186,16.518599,34.774517,-21.052444,-1.694460,0.320829,1.754256,-0.056901,0.000000,0.000000,0.000000,0.000000,0.000000,0.000000
12637547.000000,-2.411620,-1.662420,1.045239,-1.358707,1.791956,1.086321,-0.552952,0.320148,0.003605,0.202602,-0.250909,-0.313533,0.409055,-0.287796,16.443220,34.726910,-21.000870,-1.496095,0.327238,1.643478,-0.110001,0.000000,0.000000,0.000000,0.000000,0.000000,0.000000
12637548.000000,-2.411257,-1.662419,1.045474,-1.359008,1.791585,1.086821,-0.553242,0.333783,0.001834,0.214168,-0.261809,-0.331586,0.438569,-0.287949,16.467024,34.750713,-20.953262,-1.373109,0.381254,1.519881,-0.077042,0.000000,0.000000,0.000000,0.000000,0.000000,0.000000
12637549.000000,-2.410880,-1.662416,1.045721,-1.359308,1.791204,1.087350,-0.553525,0.347704,0.001770,0.219435,-0.274077,-0.344745,0.461801,-0.286091,16.566206,34.726910,-20.905655,-1.349306,0.446256,1.442062,-0.083451,0.000000,0.000000,0.000000,0.000000,0.000000,0.000000
12637550.000000,-2.410499,-1.662419,1.045975,-1.359629,1.790803,1.087888,-0.553800,0.361450,0.000059,0.229727,-0.284409,-0.367615,0.498857,-0.284922,16.716963,34.774517,-20.854080,-1.373109,0.512174,1.409103,-0.130143,0.000000,0.000000,0.000000,0.000000,0.000000,0.000000
12637551.000000,-2.410103,-1.662422,1.046231,-1.359957,1.790381,1.088447,-0.554075,0.371102,-0.001172,0.234775,-0.298230,-0.375315,0.512982,-0.282118,16.887556,34.826092,-20.683487,-1.420717,0.542386,1.461288,-0.077042,0.000000,0.000000,0.000000,0.000000,0.000000,0.000000
12637552.000000,-2.409699,-1.662422,1.046500,-1.360306,1.789959,1.089015,-0.554334,0.378291,-0.000785,0.242905,-0.311930,-0.390411,0.526783,-0.279304,17.161299,34.826092,-20.584305,-1.448488,0.524076,1.546432,-0.163102,0.000000,0.000000,0.000000,0.000000,0.000000,0.000000
12637553.000000,-2.409279,-1.662420,1.046779,-1.360679,1.789519,1.089600,-0.554606,0.391363,-0.000527,0.253968,-0.328972,-0.405155,0.544188,-0.278165,17.284285,34.826092,-20.536697,-1.297731,0.458158,1.584884,-0.103593,0.000000,0.000000,0.000000,0.000000,0.000000,0.000000
12637554.000000,-2.408843,-1.662414,1.047072,-1.361055,1.789064,1.090219,-0.554877,0.403572,0.001410,0.264906,-0.344138,-0.417065,0.561031,-0.271742,17.506453,34.750713,-20.461319,-1.174745,0.416959,1.494247,-0.122819,0.000000,0.000000,0.000000,0.000000,0.000000,0.000000
12637555.000000,-2.408403,-1.662415,1.047372,-1.361456,1.788599,1.090865,-0.555143,0.414803,0.000382,0.276473,-0.360241,-0.428499,0.594943,-0.265897,17.728621,34.774517,-20.413712,-0.976381,0.374845,1.389877,-0.110001,0.000000,0.000000,0.000000,0.000000,0.000000,0.000000
12637556.000000,-2.407937,-1.662412,1.047673,-1.361870,1.788104,1.091510,-0.555407,0.430110,0.001367,0.284157,-0.379276,-0.444992,0.608824,-0.260997,17.926985,34.726910,-20.314529,-0.829591,0.344633,1.312057,-0.103593,0.000000,0.000000,0.000000,0.000000,0.000000,0.000000
12637557.000000,-2.407458,-1.662403,1.047997,-1.362301,1.787599,1.092173,-0.555667,0.442894,0.003230,0.295796,-0.394130,-0.461397,0.623399,-0.255595,18.176924,34.627728,-20.362137,-0.555849,0.405057,1.337692,-0.136552,0.000000,0.000000,0.000000,0.000000,0.000000,0.000000
12637558.000000,-2.406971,-1.662395,1.048322,-1.362744,1.787075,1.092857,-0.555925,0.452906,0.007039,0.309553,-0.410543,-0.484920,0.647001,-0.254503,18.422895,34.556316,-20.290726,-0.357485,0.458158,1.318465,-0.097184,0.000000,0.000000,0.000000,0.000000,0.000000,0.000000
12637559.000000,-2.406476,-1.662392,1.048660,-1.363186,1.786545,1.093573,-0.556180,0.461358,0.008728,0.317208,-0.423634,-0.507848,0.659023,-0.251046,18.744246,34.532513,-20.290726,-0.286073,0.482877,1.299239,-0.122819,0.000000,0.000000,0.000000,0.000000,0.000000,0.000000
12637560.000000,-2.405964,-1.662380,1.049014,-1.363653,1.785991,1.094301,-0.556428,0.487462,0.009721,0.326070,-0.441860,-0.525625,0.685728,-0.253469,19.065596,34.385723,-20.290726,-0.234499,0.547880,1.337692,-0.155778,0.000000,0.000000,0.000000,0.000000,0.000000,0.000000
12637561.000000,-2.405455,-1.662370,1.049378,-1.364132,1.785421,1.095037,-0.556679,0.495455,0.012400,0.336850,-0.449697,-0.539340,0.701276,-0.253111,19.486128,34.286541,-20.338333,-0.186891,0.530485,1.370651,-0.116410,0.000000,0.000000,0.000000,0.000000,0.000000,0.000000
12637562.000000,-2.404919,-1.662363,1.049760,-1.364622,1.784852,1.095810,-0.556926,0.504119,0.009358,0.349728,-0.465224,-0.550810,0.715247,-0.250029,19.783674,34.262737,-20.461319,-0.111513,0.542386,1.409103,-0.136552,0.000000,0.000000,0.000000,0.000000,0.000000,0.000000
12637563.000000,-2.404369,-1.662352,1.050149,-1.365134,1.784258,1.096587,-0.557169,0.520067,0.008402,0.362800,-0.479109,-0.559991,0.738761,-0.247809,19.958235,34.187359,-20.461319,-0.012331,0.506681,1.409103,-0.163102,0.000000,0.000000,0.000000,0.000000,0.000000,0.000000
12637564.000000,-2.403801,-1.662344,1.050559,-1.365656,1.783654,1.097395,-0.557426,0.530653,0.010349,0.380461,-0.493954,-0.580626,0.752379,-0.249464,20.180403,34.139751,-20.659683,0.110655,0.464567,1.383468,-0.110001,0.000000,0.000000,0.000000,0.000000,0.000000,0.000000
12637565.000000,-2.403224,-1.662329,1.050984,-1.366188,1.783031,1.098244,-0.557672,0.541366,0.009722,0.391631,-0.506070,-0.591464,0.775093,-0.248232,20.529524,34.040569,-20.830276,0.158263,0.446256,1.279098,-0.116410,0.000000,0.000000,0.000000,0.000000,0.000000,0.000000
12637566.000000,-2.402644,-1.662319,1.051416,-1.366738,1.782410,1.099092,-0.557911,0.556333,0.007973,0.408741,-0.518607,-0.601864,0.805646,-0.247390,20.898481,33.992962,-21.076248,0.233641,0.339139,1.188461,-0.116410,0.000000,0.000000,0.000000,0.000000,0.000000,0.000000
12637567.000000,-2.402040,-1.662305,1.051857,-1.367289,1.781761,1.099964,-0.558155,0.568006,0.010700,0.418346,-0.529095,-0.613631,0.817976,-0.246827,21.172224,33.917583,-21.175430,0.209837,0.339139,1.207687,-0.103593,0.000000,0.000000,0.000000,0.000000,0.000000,0.000000
12637568.000000,-2.401431,-1.662293,1.052316,-1.367859,1.781094,1.100845,-0.558391,0.577715,0.011945,0.430123,-0.539081,-0.632269,0.850827,-0.249262,21.469770,33.869976,-21.346024,0.186034,0.369352,1.253463,-0.116410,0.000000,0.000000,0.000000,0.000000,0.000000,0.000000
12637569.000000,-2.400790,-1.662274,1.052777,-1.368426,1.780398,1.101755,-0.558633,0.594606,0.014863,0.440618,-0.553817,-0.642242,0.867607,-0.248337,21.640364,33.746990,-21.445206,0.059080,0.410551,1.272689,-0.083451,0.000000,0.000000,0.000000,0.000000,0.000000,0.000000
12637570.000000,-2.400137,-1.662267,1.053254,-1.369015,1.779706,1.102693,-0.558871,0.607930,0.013368,0.446109,-0.561671,-0.660670,0.889968,-0.246818,21.838728,33.770794,-21.615799,0.035277,0.452665,1.285506,-0.103593,0.000000,0.000000,0.000000,0.000000,0.000000,0.000000
12637571.000000,-2.399466,-1.662246,1.053736,-1.369630,1.778997,1.103626,-0.559097,0.631388,0.015855,0.460889,-0.575638,-0.672976,0.897801,-0.245301,21.914106,33.647808,-21.786392,0.158263,0.578092,1.292831,-0.136552,0.000000,0.000000,0.000000,0.000000,0.000000,0.000000
12637572.000000,-2.398775,-1.662238,1.054233,-1.370245,1.778289,1.104598,-0.559329,0.651296,0.014795,0.471464,-0.589515,-0.686863,0.912237,-0.244865,22.088667,33.647808,-21.960953,0.285216,0.721830,1.266280,-0.142960,0.000000,0.000000,0.000000,0.000000,0.000000,0.000000
12637573.000000,-2.398060,-1.662227,1.054726,-1.370873,1.777583,1.105600,-0.559564,0.672708,0.011372,0.478699,-0.601076,-0.683678,0.956264,-0.239555,22.211653,33.624004,-21.984756,0.479613,0.859159,1.259872,-0.142960,0.000000,0.000000,0.000000,0.000000,0.000000,0.000000
12637574.000000,-2.397350,-1.662222,1.055240,-1.371506,1.776878,1.106605,-0.559796,0.678299,0.007088,0.488778,-0.607254,-0.687309,0.971218,-0.236648,22.433821,33.675579,-22.179153,0.578795,0.930570,1.253463,-0.136552,0.000000,0.000000,0.000000,0.000000,0.000000,0.000000
12637575.000000,-2.396620,-1.662218,1.055767,-1.372147,1.776190,1.107637,-0.560027,0.677147,0.004399,0.500750,-0.619357,-0.689694,0.992096,-0.232779,22.187849,33.846172,-22.202957,0.479613,1.001981,1.331283,-0.163102,0.000000,0.000000,0.000000,0.000000,0.000000,0.000000
12637576.000000,-2.395891,-1.662209,1.056303,-1.372818,1.775493,1.108671,-0.560253,0.679207,0.002821,0.521927,-0.638352,-0.688656,1.008335,-0.227016,20.922285,34.016766,-21.909378,0.110655,0.954374,1.448470,-0.155778,0.000000,0.000000,0.000000,0.000000,0.000000,0.000000
12637577.000000,-2.395172,-1.662203,1.056859,-1.373492,1.774805,1.109742,-0.560481,0.685990,-0.000231,0.539279,-0.652486,-0.711850,1.020491,-0.223383,18.867231,34.139751,-21.492813,-0.730409,0.888456,1.565658,-0.122819,0.000000,0.000000,0.000000,0.000000,0.000000,0.000000
12637578.000000,-2.394435,-1.662200,1.057445,-1.374192,1.774118,1.110836,-0.560698,0.710125,-0.005406,0.552919,-0.663110,-0.701996,1.031788,-0.222332,16.022688,34.115948,-20.854080,-1.619081,0.739225,1.643478,-0.169511,0.000000,0.000000,0.000000,0.000000,0.000000,0.000000
12637579.000000,-2.393715,-1.662197,1.058041,-1.374917,1.773429,1.111933,-0.560918,0.717840,-0.005455,0.567652,-0.675885,-0.697853,1.045157,-0.224023,13.201947,33.917583,-20.044754,-2.313356,0.566190,1.695663,-0.155778,0.000000,0.000000,0.000000,0.000000,0.000000,0.000000
12637580.000000,-2.392991,-1.662196,1.058675,-1.375640,1.772772,1.113058,-0.561145,0.726912,-0.004343,0.582507,-0.692465,-0.677073,1.057711,-0.222174,10.500226,33.647808,-19.235428,-2.757692,0.332731,1.754256,-0.089860,0.000000,0.000000,0.000000,0.000000,0.000000,0.000000
12637581.000000,-2.392274,-1.662202,1.059327,-1.376358,1.772106,1.114202,-0.561358,0.729388,-0.005196,0.598822,-0.702215,-0.671654,1.079337,-0.217160,8.000836,33.429607,-18.473709,-3.277406,0.129484,1.643478,-0.122819,0.000000,0.000000,0.000000,0.000000,0.000000,0.000000
12637582.000000,-2.391546,-1.662215,1.059983,-1.377077,1.771448,1.115380,-0.561572,0.731890,-0.009049,0.614772,-0.708861,-0.678581,1.106550,-0.220044,5.798994,33.330425,-17.711990,-3.499574,0.022367,1.507064,-0.110001,0.000000,0.000000,0.000000,0.000000,0.000000,0.000000
12637583.000000,-2.390821,-1.662232,1.060653,-1.377788,1.770796,1.116569,-0.561794,0.730222,-0.013647,0.621189,-0.704739,-0.666849,1.132172,-0.222244,3.890729,33.306622,-17.049454,-3.820925,0.027860,1.461288,-0.077042,0.000000,0.000000,0.000000,0.000000,0.000000,0.000000
12637584.000000,-2.390110,-1.662255,1.061311,-1.378497,1.770148,1.117773,-0.562008,0.725601,-0.014583,0.629270,-0.698562,-0.661298,1.153036,-0.222321,2.307783,33.330425,-16.339310,-3.991518,0.129484,1.389877,-0.103593,0.000000,0.000000,0.000000,0.000000,0.000000,0.000000
12637585.000000,-2.389398,-1.662283,1.061992,-1.379199,1.769506,1.118998,-0.562227,0.717804,-0.019586,0.643695,-0.699590,-0.654047,1.166588,-0.222005,1.022382,33.405804,-15.823563,-3.943910,0.297025,1.409103,-0.130143,0.000000,0.000000,0.000000,0.000000,0.000000,0.000000
12637586.000000,-2.388680,-1.662322,1.062674,-1.379900,1.768863,1.120220,-0.562444,0.716652,-0.027854,0.656364,-0.696582,-0.657601,1.205993,-0.223976,-0.191607,33.552593,-15.284012,-3.892336,0.494779,1.422836,-0.163102,0.000000,0.000000,0.000000,0.000000,0.000000,0.000000
12637587.000000,-2.387955,-1.662358,1.063351,-1.380595,1.768224,1.121471,-0.562658,0.716071,-0.034184,0.664057,-0.699185,-0.651233,1.219261,-0.216029,-1.254840,33.576397,-14.792068,-3.646364,0.559781,1.285506,-0.142960,0.000000,0.000000,0.000000,0.000000,0.000000,0.000000
12637588.000000,-2.387223,-1.662396,1.064043,-1.381305,1.767603,1.122738,-0.562868,0.716902,-0.035123,0.664798,-0.708260,-0.641821,1.227134,-0.212320,-2.222857,33.576397,-14.446915,-3.277406,0.632108,1.071273,-0.182328,0.000000,0.000000,0.000000,0.000000,0.000000,0.000000
12637589.000000,-2.386512,-1.662433,1.064729,-1.382006,1.766988,1.123962,-0.563084,0.716314,-0.037336,0.671851,-0.702803,-0.630433,1.232080,-0.212008,-2.917132,33.501019,-14.054153,-2.979860,0.559781,1.025497,-0.169511,0.000000,0.000000,0.000000,0.000000,0.000000,0.000000
12637590.000000,-2.385792,-1.662468,1.065421,-1.382697,1.766393,1.125184,-0.563302,0.707259,-0.038661,0.676877,-0.698086,-0.619312,1.224174,-0.211365,-3.559832,33.382000,-13.661392,-2.606935,0.446256,1.136276,-0.116410,0.000000,0.000000,0.000000,0.000000,0.000000,0.000000
12637591.000000,-2.385087,-1.662496,1.066115,-1.383381,1.765783,1.126399,-0.563510,0.717017,-0.033120,0.677381,-0.690389,-0.615095,1.243466,-0.212660,-4.027972,33.136028,-13.149612,-2.436342,0.374845,1.299239,-0.182328,0.000000,0.000000,0.000000,0.000000,0.000000,0.000000
12637592.000000,-2.384381,-1.662516,1.066803,-1.384048,1.765196,1.127606,-0.563723,0.711602,-0.027074,0.679280,-0.679617,-0.603186,1.230798,-0.213033,-4.277911,32.790874,-12.681473,-2.460146,0.243009,1.383468,-0.142960,0.000000,0.000000,0.000000,0.000000,0.000000,0.000000
12637593.000000,-2.383676,-1.662517,1.067513,-1.384694,1.764609,1.128825,-0.563929,0.707886,-0.017988,0.688512,-0.671545,-0.596782,1.221618,-0.207370,-4.523882,32.231487,-12.336319,-2.658510,0.183500,1.396285,-0.122819,0.000000,0.000000,0.000000,0.000000,0.000000,0.000000
12637594.000000,-2.382983,-1.662513,1.068229,-1.385340,1.764024,1.130025,-0.564127,0.705297,-0.010595,0.696019,-0.664938,-0.595657,1.217893,-0.204957,-4.698443,31.616558,-11.971329,-2.833071,0.154203,1.389877,-0.188737,0.000000,0.000000,0.000000,0.000000,0.000000,0.000000
12637595.000000,-2.382295,-1.662504,1.068934,-1.385970,1.763427,1.131241,-0.564344,0.693090,0.000156,0.702966,-0.652750,-0.603092,1.217523,-0.208143,-4.746050,31.029400,-11.673782,-3.027467,0.231107,1.285506,-0.122819,0.000000,0.000000,0.000000,0.000000,0.000000,0.000000
12637596.000000,-2.381594,-1.662491,1.069653,-1.386622,1.762850,1.132477,-0.564548,0.689471,0.005259,0.705786,-0.650671,-0.592899,1.216936,-0.210780,-4.944415,30.418438,-11.332596,-3.027467,0.344633,1.084090,-0.175919,0.000000,0.000000,0.000000,0.000000,0.000000,0.000000
12637597.000000,-2.380907,-1.662467,1.070369,-1.387267,1.762271,1.133683,-0.564759,0.684869,0.013154,0.709011,-0.646257,-0.591356,1.217457,-0.212403,-5.067400,29.755901,-11.110428,-3.027467,0.351041,0.974227,-0.116410,0.000000,0.000000,0.000000,0.000000,0.000000,0.000000
12637598.000000,-2.380218,-1.662440,1.071108,-1.387899,1.761710,1.134900,-0.564968,0.685180,0.020846,0.714446,-0.646390,-0.577717,1.208782,-0.210555,-5.142779,29.144939,-10.916031,-3.003664,0.303434,0.908309,-0.116410,0.000000,0.000000,0.000000,0.000000,0.000000,0.000000
12637599.000000,-2.379540,-1.662414,1.071849,-1.388517,1.761146,1.136097,-0.565160,0.682638,0.024207,0.717889,-0.632830,-0.572480,1.208478,-0.203350,-5.142779,28.633160,-10.670059,-3.178224,0.201810,0.843307,-0.163102,0.000000,0.000000,0.000000,0.000000,0.000000,0.000000
12637600.000000,-2.378871,-1.662387,1.072586,-1.389124,1.760581,1.137319,-0.565360,0.679130,0.026400,0.724664,-0.636526,-0.567642,1.204684,-0.204484,-4.968218,28.141216,-10.348709,-3.376589,0.105680,0.771896,-0.163102,0.000000,0.000000,0.000000,0.000000,0.000000,0.000000
12637601.000000,-2.378189,-1.662364,1.073324,-1.389739,1.760029,1.138525,-0.565562,0.679751,0.025203,0.725268,-0.628796,-0.564931,1.203032,-0.205880,-4.920611,27.776226,-9.908340,-3.570986,0.046171,0.895492,-0.155778,0.000000,0.000000,0.000000,0.000000,0.000000,0.000000
12637602.000000,-2.377518,-1.662341,1.074078,-1.390362,1.759480,1.139714,-0.565755,0.673608,0.024175,0.737161,-0.626216,-0.558823,1.197816,-0.205093,-4.944415,27.431072,-9.737747,-3.598757,-0.001437,1.052047,-0.169511,0.000000,0.000000,0.000000,0.000000,0.000000,0.000000
12637603.000000,-2.376819,-1.662325,1.074834,-1.390977,1.758936,1.140942,-0.565947,0.683211,0.020138,0.742078,-0.624300,-0.561380,1.201262,-0.205052,-5.218157,27.236675,-9.416397,-3.547182,0.010465,0.947677,-0.175919,0.000000,0.000000,0.000000,0.000000,0.000000,0.000000
12637604.000000,-2.376129,-1.662307,1.075612,-1.391592,1.758378,1.142170,-0.566142,0.688103,0.017579,0.750856,-0.621089,-0.562019,1.235610,-0.205804,-5.487933,27.042278,-9.170425,-3.523378,0.069974,0.739852,-0.149369,0.000000,0.000000,0.000000,0.000000,0.000000,0.000000
12637605.000000,-2.375430,-1.662294,1.076390,-1.392199,1.757827,1.143417,-0.566333,0.691960,0.016892,0.757855,-0.618380,-0.555674,1.237602,-0.196739,-5.813250,26.943096,-9.075211,-3.424196,0.147794,0.459701,-0.130143,0.000000,0.000000,0.000000,0.000000,0.000000,0.000000
12637606.000000,-2.374728,-1.662284,1.077189,-1.392795,1.757284,1.144657,-0.566515,0.693549,0.012416,0.767394,-0.616103,-0.551772,1.235156,-0.191661,-6.083025,26.895489,-8.999832,-3.547182,0.135892,0.369064,-0.208878,0.000000,0.000000,0.000000,0.000000,0.000000,0.000000
12637607.000000,-2.374059,-1.662283,1.077986,-1.393376,1.756735,1.145852,-0.566710,0.685598,0.006637,0.788610,-0.601928,-0.546759,1.224210,-0.193578,-6.083025,26.966900,-8.976028,-3.820925,0.166105,0.551253,-0.142960,0.000000,0.000000,0.000000,0.000000,0.000000,0.000000
12637608.000000,-2.373374,-1.662282,1.078796,-1.393937,1.756198,1.147068,-0.566904,0.680610,0.003334,0.791108,-0.588095,-0.543586,1.210729,-0.193124,-6.182208,27.014507,-8.853043,-4.265260,0.105680,0.765487,-0.116410,0.000000,0.000000,0.000000,0.000000,0.000000,0.000000
12637609.000000,-2.372692,-1.662287,1.079634,-1.394505,1.755661,1.148286,-0.567088,0.691330,-0.000637,0.800071,-0.580817,-0.538613,1.212843,-0.188612,-6.356768,27.137493,-8.952225,-4.634218,0.093778,0.941268,-0.182328,0.000000,0.000000,0.000000,0.000000,0.000000,0.000000
12637610.000000,-2.371998,-1.662284,1.080466,-1.395077,1.755125,1.149482,-0.567276,0.691464,-0.000412,0.812627,-0.578005,-0.539826,1.200525,-0.188925,-6.654315,27.137493,-8.999832,-4.884157,0.076383,1.104232,-0.182328,0.000000,0.000000,0.000000,0.000000,0.000000,0.000000
12637611.000000,-2.371298,-1.662278,1.081311,-1.395643,1.754608,1.150708,-0.567472,0.693988,0.001406,0.815350,-0.574850,-0.526950,1.207496,-0.185574,-6.975665,27.066082,-8.976028,-4.931764,-0.019747,1.052047,-0.136552,0.000000,0.000000,0.000000,0.000000,0.000000,0.000000
12637612.000000,-2.370599,-1.662270,1.082181,-1.396218,1.754084,1.151930,-0.567657,0.695809,0.006484,0.826463,-0.569957,-0.528643,1.208372,-0.187704,-7.420001,26.966900,-9.023636,-4.907960,-0.025240,0.901900,-0.103593,0.000000,0.000000,0.000000,0.000000,0.000000,0.000000
12637613.000000,-2.369888,-1.662263,1.083035,-1.396786,1.753552,1.153158,-0.567836,0.695960,0.006267,0.836079,-0.573467,-0.524079,1.215799,-0.181970,-7.892107,26.895489,-8.999832,-4.733400,0.004056,0.778304,-0.136552,0.000000,0.000000,0.000000,0.000000,0.000000,0.000000
12637614.000000,-2.369175,-1.662257,1.083908,-1.397344,1.753041,1.154380,-0.568019,0.696993,0.006147,0.842684,-0.565196,-0.519794,1.212360,-0.178384,-8.360248,26.820110,-8.853043,-4.733400,0.022367,0.778304,-0.155778,0.000000,0.000000,0.000000,0.000000,0.000000,0.000000
12637615.000000,-2.368471,-1.662246,1.084769,-1.397910,1.752522,1.155563,-0.568203,0.701839,0.007129,0.850144,-0.560583,-0.515622,1.205940,-0.182580,-8.879962,26.697124,-8.607071,-4.661989,0.027860,0.901900,-0.116410,0.000000,0.000000,0.000000,0.000000,0.000000,0.000000
12637616.000000,-2.367763,-1.662238,1.085663,-1.398454,1.752013,1.156772,-0.568382,0.698576,0.006538,0.858728,-0.559846,-0.514047,1.197859,-0.181903,-9.300494,26.625713,-8.484085,-4.709596,0.064481,0.922042,-0.169511,0.000000,0.000000,0.000000,0.000000,0.000000,0.000000
12637617.000000,-2.367055,-1.662228,1.086572,-1.399000,1.751507,1.157965,-0.568555,0.700690,0.006209,0.872537,-0.551396,-0.511779,1.204805,-0.181650,-9.847980,26.550335,-8.412674,-4.832582,0.027860,0.922042,-0.229020,0.000000,0.000000,0.000000,0.000000,0.000000,0.000000
12637618.000000,-2.366343,-1.662220,1.087479,-1.399546,1.750999,1.159173,-0.568743,0.702298,0.004761,0.882862,-0.550724,-0.508019,1.204202,-0.182297,-10.268512,26.526531,-8.337296,-4.884157,-0.007845,0.928451,-0.142960,0.000000,0.000000,0.000000,0.000000,0.000000,0.000000
12637619.000000,-2.365620,-1.662218,1.088412,-1.400092,1.750513,1.160385,-0.568915,0.702352,0.004167,0.900855,-0.550020,-0.501084,1.204830,-0.177998,-10.788226,26.625713,-8.384903,-4.931764,-0.019747,0.901900,-0.163102,0.000000,0.000000,0.000000,0.000000,0.000000,0.000000
12637620.000000,-2.364907,-1.662218,1.089351,-1.400644,1.750013,1.161582,-0.569092,0.708392,0.003573,0.907959,-0.546953,-0.495789,1.210783,-0.176005,-11.284137,26.748699,-8.507889,-4.808778,-0.055453,0.882674,-0.163102,0.000000,0.000000,0.000000,0.000000,0.000000,0.000000
12637621.000000,-2.364191,-1.662220,1.090315,-1.401188,1.749517,1.162774,-0.569272,0.706590,0.002250,0.923916,-0.547447,-0.493897,1.205142,-0.175498,-11.676898,26.919292,-8.654678,-4.733400,-0.013339,0.960494,-0.130143,0.000000,0.000000,0.000000,0.000000,0.000000,0.000000
12637622.000000,-2.363488,-1.662225,1.091287,-1.401728,1.749028,1.163976,-0.569444,0.702630,-0.001827,0.934966,-0.545769,-0.495685,1.224650,-0.176024,-12.049823,27.089886,-8.777664,-4.733400,-0.079257,0.999862,-0.182328,0.000000,0.000000,0.000000,0.000000,0.000000,0.000000
12637623.000000,-2.362779,-1.662234,1.092251,-1.402251,1.748536,1.165161,-0.569623,0.699731,-0.005825,0.943537,-0.539274,-0.491774,1.220906,-0.176072,-12.295794,27.308086,-8.777664,-4.856386,-0.097567,0.966903,-0.136552,0.000000,0.000000,0.000000,0.000000,0.000000,0.000000
12637624.000000,-2.362075,-1.662237,1.093231,-1.402780,1.748052,1.166360,-0.569796,0.697668,-0.005274,0.956270,-0.535849,-0.487945,1.214764,-0.172195,-12.545733,27.383465,-8.706253,-5.030946,-0.013339,0.999862,-0.196061,0.000000,0.000000,0.000000,0.000000,0.000000,0.000000
12637625.000000,-2.361383,-1.662244,1.094193,-1.403308,1.747564,1.167524,-0.569967,0.696264,-0.006113,0.976355,-0.533057,-0.491805,1.206839,-0.171614,-12.767901,27.506451,-8.484085,-5.177736,-0.037142,1.169235,-0.202470,0.000000,0.000000,0.000000,0.000000,0.000000,0.000000
12637626.000000,-2.360673,-1.662248,1.095186,-1.403828,1.747080,1.168706,-0.570143,0.696150,-0.004423,0.977801,-0.527157,-0.503026,1.195577,-0.172805,-13.113055,27.530254,-8.361099,-5.276918,-0.001437,1.305648,-0.142960,0.000000,0.000000,0.000000,0.000000,0.000000,0.000000
12637627.000000,-2.359980,-1.662258,1.096168,-1.404360,1.746591,1.169896,-0.570309,0.710878,-0.007603,0.978152,-0.527719,-0.501438,1.191491,-0.171558,-13.386798,27.601665,-7.944534,-5.304689,0.081876,1.259872,-0.155778,0.000000,0.000000,0.000000,0.000000,0.000000,0.000000
12637628.000000,-2.359282,-1.662265,1.097165,-1.404894,1.746106,1.171089,-0.570472,0.704705,-0.009699,0.980386,-0.532287,-0.497194,1.192503,-0.169395,-13.632770,27.653240,-7.698563,-5.229311,0.076383,1.064864,-0.202470,0.000000,0.000000,0.000000,0.000000,0.000000,0.000000
12637629.000000,-2.358575,-1.662271,1.098182,-1.405400,1.745640,1.172291,-0.570636,0.704212,-0.010091,0.988785,-0.524752,-0.487803,1.185619,-0.169220,-14.005694,27.653240,-7.504166,-5.399904,0.076383,0.869857,-0.208878,0.000000,0.000000,0.000000,0.000000,0.000000,0.000000
12637630.000000,-2.357905,-1.662273,1.099210,-1.405917,1.745179,1.173474,-0.570806,0.696134,-0.009941,0.996561,-0.519961,-0.483389,1.183148,-0.166971,-14.005694,27.629436,-7.305801,-5.499086,-0.043551,0.778304,-0.149369,0.000000,0.000000,0.000000,0.000000,0.000000,0.000000
12637631.000000,-2.357234,-1.662274,1.100234,-1.406412,1.744712,1.174665,-0.570969,0.679248,-0.007313,1.002432,-0.514602,-0.475702,1.175514,-0.166499,-13.954120,27.629436,-7.135208,-5.721254,-0.114962,0.713302,-0.182328,0.000000,0.000000,0.000000,0.000000,0.000000,0.000000
12637632.000000,-2.356566,-1.662279,1.101270,-1.406913,1.744266,1.175864,-0.571137,0.675179,-0.005946,1.011537,-0.509541,-0.470327,1.172728,-0.168660,-13.831134,27.653240,-6.865433,-5.994997,-0.168978,0.694076,-0.149369,0.000000,0.000000,0.000000,0.000000,0.000000,0.000000
12637633.000000,-2.355910,-1.662276,1.102318,-1.407407,1.743811,1.177037,-0.571295,0.666258,-0.003143,1.020849,-0.504372,-0.462455,1.164415,-0.164754,-13.708148,27.601665,-6.841629,-6.340150,-0.216586,0.746261,-0.136552,0.000000,0.000000,0.000000,0.000000,0.000000,0.000000
12637634.000000,-2.355246,-1.662273,1.103393,-1.407875,1.743366,1.178225,-0.571448,0.662112,-0.001270,1.030974,-0.490133,-0.452372,1.159735,-0.159304,-13.731952,27.554058,-6.841629,-6.784486,-0.216586,0.836898,-0.182328,0.000000,0.000000,0.000000,0.000000,0.000000,0.000000
12637635.000000,-2.354594,-1.662258,1.104484,-1.408360,1.742923,1.179410,-0.571610,0.662452,0.000931,1.050724,-0.483654,-0.451540,1.168741,-0.158853,-13.708148,27.335857,-6.841629,-7.034425,-0.204684,0.759078,-0.142960,0.000000,0.000000,0.000000,0.000000,0.000000,0.000000
12637636.000000,-2.353940,-1.662251,1.105557,-1.408830,1.742470,1.180631,-0.571765,0.654476,0.002519,1.057606,-0.481819,-0.450260,1.180379,-0.154737,-13.731952,27.236675,-6.813858,-7.280397,-0.162570,0.544845,-0.202470,0.000000,0.000000,0.000000,0.000000,0.000000,0.000000
12637637.000000,-2.353279,-1.662242,1.106661,-1.409311,1.742034,1.181843,-0.571927,0.652147,0.004240,1.066116,-0.479458,-0.443914,1.179857,-0.154939,-13.807330,27.113689,-6.865433,-7.355775,-0.138766,0.446883,-0.175919,0.000000,0.000000,0.000000,0.000000,0.000000,0.000000
12637638.000000,-2.352626,-1.662227,1.107759,-1.409789,1.741591,1.183033,-0.572085,0.654280,0.007694,1.082259,-0.480159,-0.447392,1.185267,-0.154421,-13.882709,26.895489,-6.841629,-7.403383,-0.187289,0.440475,-0.149369,0.000000,0.000000,0.000000,0.000000,0.000000,0.000000
12637639.000000,-2.351979,-1.662218,1.108869,-1.410253,1.741154,1.184221,-0.572238,0.650782,0.007828,1.084184,-0.475023,-0.444866,1.180782,-0.151695,-13.831134,26.772503,-6.667068,-7.454957,-0.211093,0.564071,-0.188737,0.000000,0.000000,0.000000,0.000000,0.000000,0.000000
12637640.000000,-2.351337,-1.662204,1.109986,-1.410721,1.740724,1.185404,-0.572397,0.653369,0.009169,1.089480,-0.469304,-0.439779,1.209471,-0.154185,-13.882709,26.597942,-6.373489,-7.554140,-0.222994,0.662032,-0.122819,0.000000,0.000000,0.000000,0.000000,0.000000,0.000000
12637641.000000,-2.350700,-1.662189,1.111104,-1.411177,1.740289,1.186602,-0.572547,0.645777,0.010560,1.104441,-0.465630,-0.437180,1.207056,-0.151507,-13.831134,26.403545,-6.226700,-7.748537,-0.306307,0.681258,-0.149369,0.000000,0.000000,0.000000,0.000000,0.000000,0.000000
12637642.000000,-2.350054,-1.662175,1.112252,-1.411621,1.739866,1.187804,-0.572692,0.640945,0.011512,1.112123,-0.461686,-0.429903,1.202560,-0.149710,-13.831134,26.209148,-6.202896,-8.022280,-0.396029,0.765487,-0.188737,0.000000,0.000000,0.000000,0.000000,0.000000,0.000000
12637643.000000,-2.349419,-1.662159,1.113409,-1.412079,1.739446,1.188997,-0.572842,0.635051,0.014695,1.151494,-0.461117,-0.420681,1.200675,-0.145656,-13.858905,26.038555,-6.302078,-8.169069,-0.467440,0.713302,-0.182328,0.000000,0.000000,0.000000,0.000000,0.000000,0.000000
12637644.000000,-2.348782,-1.662149,1.114608,-1.412538,1.739006,1.190204,-0.572995,0.634688,0.012888,1.163428,-0.459943,-0.422766,1.197801,-0.147267,-13.858905,25.915569,-6.619461,-8.121462,-0.414340,0.654708,-0.175919,0.000000,0.000000,0.000000,0.000000,0.000000,0.000000
12637645.000000,-2.348156,-1.662145,1.115821,-1.412999,1.738576,1.191399,-0.573145,0.641966,0.009310,1.173765,-0.461712,-0.422043,1.189540,-0.147869,-13.882709,25.891766,-6.964615,-8.069887,-0.287997,0.694076,-0.169511,0.000000,0.000000,0.000000,0.000000,0.000000,0.000000
12637646.000000,-2.347517,-1.662142,1.117030,-1.413464,1.738164,1.192565,-0.573290,0.645590,0.009478,1.181934,-0.461217,-0.415466,1.183440,-0.143774,-13.954120,25.891766,-7.381180,-7.946901,-0.306307,0.817672,-0.175919,0.000000,0.000000,0.000000,0.000000,0.000000,0.000000
12637647.000000,-2.346890,-1.662135,1.118264,-1.413917,1.737748,1.193747,-0.573440,0.639385,0.007321,1.195795,-0.458159,-0.417615,1.179563,-0.142208,-13.930316,25.863995,-7.698563,-7.946901,-0.276095,0.876266,-0.130143,0.000000,0.000000,0.000000,0.000000,0.000000,0.000000
12637648.000000,-2.346266,-1.662138,1.119514,-1.414371,1.737335,1.194920,-0.573576,0.637107,0.003382,1.212457,-0.452006,-0.414846,1.177333,-0.137935,-13.954120,25.939373,-7.920731,-7.946901,-0.270602,0.850631,-0.175919,0.000000,0.000000,0.000000,0.000000,0.000000,0.000000
12637649.000000,-2.345649,-1.662143,1.120745,-1.414817,1.736925,1.196109,-0.573712,0.628027,0.000783,1.220111,-0.449569,-0.409964,1.176997,-0.135267,-13.954120,26.010784,-7.968338,-8.022280,-0.287997,0.785628,-0.208878,0.000000,0.000000,0.000000,0.000000,0.000000,0.000000
12637650.000000,-2.345022,-1.662149,1.121993,-1.415271,1.736519,1.197280,-0.573857,0.623786,-0.001649,1.217136,-0.453226,-0.410486,1.168312,-0.136713,-14.029498,26.109966,-7.869156,-7.998476,-0.342013,0.928451,-0.155778,0.000000,0.000000,0.000000,0.000000,0.000000,0.000000
12637651.000000,-2.344406,-1.662162,1.123238,-1.415742,1.736102,1.198433,-0.573991,0.621045,-0.004043,1.220913,-0.457883,-0.406748,1.168084,-0.133960,-14.029498,26.379742,-7.869156,-7.875490,-0.240389,1.077682,-0.196061,0.000000,0.000000,0.000000,0.000000,0.000000,0.000000
12637652.000000,-2.343789,-1.662186,1.124483,-1.416207,1.735712,1.199616,-0.574135,0.619102,-0.006519,1.216493,-0.464523,-0.404224,1.171920,-0.138688,-13.954120,26.990704,-7.968338,-7.724733,-0.252291,1.064864,-0.182328,0.000000,0.000000,0.000000,0.000000,0.000000,0.000000
12637653.000000,-2.343183,-1.662208,1.125723,-1.416678,1.735309,1.200804,-0.574284,0.618282,-0.009519,1.214306,-0.465425,-0.403642,1.181805,-0.147569,-13.708148,27.946819,-8.384903,-7.601747,-0.276095,0.908309,-0.130143,0.000000,0.000000,0.000000,0.000000,0.000000,0.000000
12637654.000000,-2.342580,-1.662229,1.126943,-1.417144,1.734909,1.202004,-0.574420,0.606390,-0.014203,1.214339,-0.468952,-0.401741,1.190712,-0.146697,-13.212237,29.073528,-9.293411,-7.502565,-0.306307,0.811263,-0.175919,0.000000,0.000000,0.000000,0.000000,0.000000,0.000000
12637655.000000,-2.341969,-1.662250,1.128161,-1.417600,1.734529,1.203213,-0.574566,0.603830,-0.017861,1.208152,-0.462378,-0.396029,1.193489,-0.143854,-12.692523,30.394634,-10.225723,-7.554140,-0.306307,0.771896,-0.142960,0.000000,0.000000,0.000000,0.000000,0.000000,0.000000
12637656.000000,-2.341371,-1.662262,1.129384,-1.418063,1.734126,1.204393,-0.574706,0.598654,-0.018036,1.222407,-0.459817,-0.398022,1.191088,-0.144375,-12.125201,31.640362,-11.526993,-7.601747,-0.150668,0.876266,-0.175919,0.000000,0.000000,0.000000,0.000000,0.000000,0.000000
12637657.000000,-2.340773,-1.662265,1.130598,-1.418512,1.733738,1.205576,-0.574848,0.594231,-0.016728,1.216137,-0.455312,-0.391958,1.183701,-0.141926,-11.577716,32.743267,-12.558487,-7.677125,-0.031649,1.169235,-0.155778,0.000000,0.000000,0.000000,0.000000,0.000000,0.000000
12637658.000000,-2.340175,-1.662261,1.131829,-1.418971,1.733350,1.206768,-0.574988,0.608384,-0.014571,1.217601,-0.454975,-0.388061,1.202963,-0.138895,-11.208758,33.647808,-13.613785,-7.748537,0.093778,1.389877,-0.155778,0.000000,0.000000,0.000000,0.000000,0.000000,0.000000
12637659.000000,-2.339569,-1.662256,1.133052,-1.419422,1.732965,1.207940,-0.575123,0.603018,-0.010467,1.223471,-0.456385,-0.387444,1.197491,-0.141618,-10.935016,34.433331,-14.716690,-7.875490,0.166105,1.591293,-0.163102,0.000000,0.000000,0.000000,0.000000,0.000000,0.000000
12637660.000000,-2.338962,-1.662245,1.134286,-1.419874,1.732589,1.209129,-0.575264,0.601670,-0.006140,1.222773,-0.457473,-0.384771,1.191231,-0.140139,-10.788226,35.020489,-15.625198,-7.899293,0.166105,1.670028,-0.136552,0.000000,0.000000,0.000000,0.000000,0.000000,0.000000
12637661.000000,-2.338352,-1.662239,1.135505,-1.420337,1.732214,1.210314,-0.575397,0.607425,-0.003475,1.220756,-0.459702,-0.384150,1.184615,-0.140907,-10.812030,35.583843,-16.315506,-7.823915,0.178007,1.584884,-0.188737,0.000000,0.000000,0.000000,0.000000,0.000000,0.000000
12637664.000000,-2.336577,-1.662241,1.139242,-1.421683,1.731111,1.213827,-0.575814,0.592565,-0.003075,1.235784,-0.449077,-0.363265,1.148294,-0.138523,-10.339923,37.004131,-17.957962,-7.998476,0.027860,1.643478,-0.116410,0.000000,0.000000,0.000000,0.000000,0.000000,0.000000
12637665.000000,-2.336006,-1.662255,1.140504,-1.422107,1.730763,1.215003,-0.575950,0.584767,-0.007043,1.237779,-0.439556,-0.363853,1.148009,-0.135919,-10.018573,37.492107,-18.398331,-8.292055,-0.072848,1.597701,-0.136552,0.000000,0.000000,0.000000,0.000000,0.000000,0.000000
12637666.000000,-2.335463,-1.662279,1.141806,-1.422512,1.730391,1.216154,-0.576075,0.571753,-0.012160,1.251775,-0.421701,-0.375559,1.143809,-0.132805,-9.475055,38.055462,-19.183853,-8.787966,-0.049044,1.572067,-0.196061,0.000000,0.000000,0.000000,0.000000,0.000000,0.000000
12637667.000000,-2.334909,-1.662315,1.143092,-1.422903,1.730028,1.217292,-0.576217,0.561164,-0.020821,1.266306,-0.410119,-0.370641,1.136151,-0.135561,-9.030719,38.690228,-19.897964,-9.383059,-0.079257,1.812850,-0.122819,0.000000,0.000000,0.000000,0.000000,0.000000,0.000000
12637668.000000,-2.334366,-1.662351,1.144391,-1.423291,1.729674,1.218439,-0.576342,0.553660,-0.024901,1.266447,-0.402378,-0.367346,1.133955,-0.132729,-8.459430,39.229778,-20.536697,-9.851198,-0.091158,1.981307,-0.175919,0.000000,0.000000,0.000000,0.000000,0.000000,0.000000
12637669.000000,-2.333832,-1.662402,1.145675,-1.423682,1.729299,1.219591,-0.576472,0.549413,-0.034012,1.274022,-0.395715,-0.374077,1.141834,-0.132689,-7.915911,39.892315,-21.076248,-10.247927,0.010465,1.897079,-0.175919,0.000000,0.000000,0.000000,0.000000,0.000000,0.000000
12637670.000000,-2.333290,-1.662449,1.146967,-1.424077,1.728930,1.220752,-0.576608,0.544226,-0.038456,1.272248,-0.397303,-0.378091,1.143143,-0.133397,-7.471575,40.455669,-21.417435,-10.347109,0.081876,1.773483,-0.149369,0.000000,0.000000,0.000000,0.000000,0.000000,0.000000
12637671.000000,-2.332757,-1.662500,1.148261,-1.424478,1.728566,1.221899,-0.576734,0.545019,-0.041857,1.275218,-0.397091,-0.369674,1.168923,-0.127167,-7.174029,41.019024,-21.663406,-10.370913,0.112089,1.689254,-0.182328,0.000000,0.000000,0.000000,0.000000,0.000000,0.000000
12637672.000000,-2.332225,-1.662547,1.149526,-1.424867,1.728208,1.223043,-0.576872,0.538985,-0.043831,1.273698,-0.395833,-0.371515,1.156504,-0.130993,-6.876482,41.554607,-21.714981,-10.418520,0.100187,1.727706,-0.116410,0.000000,0.000000,0.000000,0.000000,0.000000,0.000000
12637673.000000,-2.331699,-1.662600,1.150809,-1.425271,1.727841,1.224204,-0.576998,0.531819,-0.046608,1.265714,-0.397432,-0.373934,1.159797,-0.130133,-6.479754,42.141766,-21.714981,-10.347109,0.105680,1.714889,-0.142960,0.000000,0.000000,0.000000,0.000000,0.000000,0.000000
12637674.000000,-2.331191,-1.662647,1.152057,-1.425673,1.727478,1.225352,-0.577124,0.525579,-0.046236,1.283824,-0.392831,-0.370063,1.160758,-0.130367,-6.158404,42.633709,-21.445206,-10.220156,0.093778,1.714889,-0.142960,0.000000,0.000000,0.000000,0.000000,0.000000,0.000000
12637675.000000,-2.330683,-1.662683,1.153352,-1.426074,1.727132,1.226494,-0.577247,0.517411,-0.044521,1.285139,-0.395683,-0.366105,1.153083,-0.129612,-5.761675,42.903484,-21.639603,-10.097170,0.064481,1.890670,-0.169511,0.000000,0.000000,0.000000,0.000000,0.000000,0.000000
12637676.000000,-2.330179,-1.662718,1.154645,-1.426478,1.726784,1.227655,-0.577370,0.522560,-0.038556,1.286876,-0.395014,-0.359921,1.176996,-0.126371,-5.515704,43.097881,-21.786392,-9.950380,-0.060946,1.949264,-0.149369,0.000000,0.000000,0.000000,0.000000,0.000000,0.000000
12637677.000000,-2.329685,-1.662751,1.155927,-1.426893,1.726424,1.228810,-0.577491,0.514811,-0.037209,1.286304,-0.398455,-0.356770,1.169245,-0.128929,-5.194354,43.268475,-22.079971,-9.728212,-0.007845,1.844894,-0.116410,0.000000,0.000000,0.000000,0.000000,0.000000,0.000000
12637678.000000,-2.329194,-1.662783,1.157230,-1.427296,1.726073,1.229970,-0.577605,0.504438,-0.035079,1.283535,-0.399566,-0.355949,1.161836,-0.126425,-4.821429,43.367657,-22.425125,-9.577456,0.105680,1.851302,-0.196061,0.000000,0.000000,0.000000,0.000000,0.000000,0.000000
12637679.000000,-2.328704,-1.662804,1.158546,-1.427726,1.725734,1.231106,-0.577728,0.497114,-0.030249,1.283899,-0.408361,-0.356713,1.152279,-0.130025,-4.575457,43.320049,-22.893265,-9.184694,0.100187,1.897079,-0.142960,0.000000,0.000000,0.000000,0.000000,0.000000,0.000000
12637680.000000,-2.328221,-1.662827,1.159849,-1.428141,1.725386,1.232254,-0.577846,0.492147,-0.023357,1.292591,-0.411611,-0.354511,1.140753,-0.129138,-4.277911,43.244671,-23.480423,-8.934755,0.171598,2.001449,-0.182328,0.000000,0.000000,0.000000,0.000000,0.000000,0.000000
12637681.000000,-2.327746,-1.662852,1.161145,-1.428568,1.725031,1.233412,-0.577965,0.482523,-0.022578,1.287671,-0.415905,-0.353698,1.133694,-0.124218,-3.829607,43.197063,-23.702591,-8.712587,0.273221,2.027084,-0.196061,0.000000,0.000000,0.000000,0.000000,0.000000,0.000000
12637682.000000,-2.327270,-1.662871,1.162429,-1.429005,1.724682,1.234565,-0.578087,0.483398,-0.020974,1.284761,-0.420587,-0.352793,1.135657,-0.123451,-3.559832,43.097881,-23.972366,-8.419008,0.369352,1.942855,-0.149369,0.000000,0.000000,0.000000,0.000000,0.000000,0.000000
12637683.000000,-2.326802,-1.662895,1.163719,-1.429447,1.724342,1.235714,-0.578200,0.472150,-0.022113,1.283411,-0.429052,-0.353723,1.135022,-0.118593,-3.238482,43.074078,-24.043777,-8.046083,0.374845,1.995040,-0.202470,0.000000,0.000000,0.000000,0.000000,0.000000,0.000000
12637684.000000,-2.326338,-1.662912,1.165017,-1.429906,1.724006,1.236851,-0.578322,0.469190,-0.020172,1.281791,-0.434993,-0.348573,1.135446,-0.119109,-2.964739,42.951092,-24.166763,-7.526369,0.339139,2.072860,-0.155778,0.000000,0.000000,0.000000,0.000000,0.000000,0.000000
12637685.000000,-2.325870,-1.662947,1.166307,-1.430363,1.723667,1.238017,-0.578439,0.468601,-0.025045,1.288309,-0.449682,-0.339719,1.142353,-0.117327,-2.667193,43.074078,-24.464310,-7.082033,0.320829,1.974899,-0.163102,0.000000,0.000000,0.000000,0.000000,0.000000,0.000000
12637686.000000,-2.325411,-1.662972,1.167599,-1.430820,1.723342,1.239182,-0.578551,0.464739,-0.025218,1.279767,-0.451224,-0.339299,1.147737,-0.114847,-2.322039,43.074078,-24.583328,-6.661500,0.327238,1.890670,-0.202470,0.000000,0.000000,0.000000,0.000000,0.000000,0.000000
12637687.000000,-2.324962,-1.663001,1.168908,-1.431295,1.723004,1.240321,-0.578672,0.459800,-0.026349,1.293136,-0.456501,-0.334058,1.145959,-0.117549,-2.024493,43.121685,-25.150650,-6.169557,0.332731,1.923629,-0.122819,0.000000,0.000000,0.000000,0.000000,0.000000,0.000000
12637688.000000,-2.324522,-1.663027,1.170223,-1.431747,1.722669,1.241455,-0.578778,0.451624,-0.026429,1.293657,-0.452636,-0.330054,1.132046,-0.108546,-1.580157,43.121685,-25.614822,-5.895814,0.344633,2.098495,-0.202470,0.000000,0.000000,0.000000,0.000000,0.000000,0.000000
12637689.000000,-2.324082,-1.663059,1.171545,-1.432215,1.722327,1.242573,-0.578895,0.448795,-0.028572,1.301149,-0.455664,-0.336003,1.148514,-0.114918,-1.231036,43.220867,-26.106766,-5.626039,0.440763,2.235824,-0.175919,0.000000,0.000000,0.000000,0.000000,0.000000,0.000000
12637690.000000,-2.323656,-1.663086,1.172826,-1.432673,1.721986,1.243718,-0.579013,0.440421,-0.028779,1.298122,-0.455283,-0.339469,1.146461,-0.114347,-0.762896,43.268475,-26.277359,-5.475282,0.530485,2.287093,-0.182328,0.000000,0.000000,0.000000,0.000000,0.000000,0.000000
12637691.000000,-2.323228,-1.663109,1.174124,-1.433130,1.721648,1.244858,-0.579127,0.433859,-0.027424,1.291248,-0.451628,-0.341289,1.146598,-0.113254,-0.266986,43.244671,-26.451920,-5.376100,0.596403,2.410690,-0.196061,0.000000,0.000000,0.000000,0.000000,0.000000,0.000000
12637692.000000,-2.322806,-1.663133,1.175403,-1.433593,1.721315,1.245984,-0.579243,0.430247,-0.026344,1.287268,-0.455179,-0.335584,1.147142,-0.113356,0.129743,43.220867,-26.547134,-5.229311,0.608304,2.437240,-0.196061,0.000000,0.000000,0.000000,0.000000,0.000000,0.000000
12637693.000000,-2.322389,-1.663151,1.176690,-1.434052,1.720999,1.247125,-0.579357,0.422681,-0.021208,1.282552,-0.456234,-0.319724,1.141693,-0.112995,0.601850,43.145489,-26.547134,-5.054750,0.596403,2.404281,-0.202470,0.000000,0.000000,0.000000,0.000000,0.000000,0.000000
12637694.000000,-2.321970,-1.663172,1.177977,-1.434531,1.720668,1.248279,-0.579472,0.430763,-0.021904,1.278871,-0.464586,-0.324223,1.140796,-0.113966,0.847822,43.121685,-26.451920,-4.685792,0.601896,2.242233,-0.175919,0.000000,0.000000,0.000000,0.000000,0.000000,0.000000
12637695.000000,-2.321543,-1.663193,1.179218,-1.435009,1.720346,1.249414,-0.579581,0.430597,-0.022433,1.265266,-0.465557,-0.325578,1.133888,-0.112954,1.046186,43.097881,-26.059158,-4.289064,0.554288,2.079269,-0.196061,0.000000,0.000000,0.000000,0.000000,0.000000,0.000000
12637696.000000,-2.321119,-1.663207,1.180508,-1.435483,1.720027,1.250561,-0.579693,0.426492,-0.020831,1.262226,-0.468773,-0.323383,1.127627,-0.113454,1.268354,42.974895,-26.205948,-3.892336,0.547880,2.014266,-0.182328,0.000000,0.000000,0.000000,0.000000,0.000000,0.000000
12637697.000000,-2.320711,-1.663224,1.181779,-1.435948,1.719721,1.251695,-0.579802,0.419169,-0.021415,1.257830,-0.464765,-0.319179,1.125545,-0.109353,1.514325,42.927288,-26.031387,-3.622560,0.470060,1.955673,-0.163102,0.000000,0.000000,0.000000,0.000000,0.000000,0.000000
12637698.000000,-2.320300,-1.663241,1.183030,-1.436402,1.719408,1.252852,-0.579902,0.417559,-0.019199,1.253045,-0.461420,-0.319433,1.130472,-0.108625,1.712690,42.903484,-25.936172,-3.499574,0.482877,1.825668,-0.188737,0.000000,0.000000,0.000000,0.000000,0.000000,0.000000
12637699.000000,-2.319890,-1.663262,1.184295,-1.436851,1.719082,1.253994,-0.580009,0.412949,-0.019062,1.253957,-0.456561,-0.317875,1.126261,-0.105849,1.986432,42.951092,-25.860794,-3.499574,0.601896,1.909896,-0.169511,0.000000,0.000000,0.000000,0.000000,0.000000,0.000000
12637700.000000,-2.319482,-1.663282,1.185540,-1.437300,1.718763,1.255114,-0.580105,0.413753,-0.018068,1.249502,-0.452380,-0.316138,1.121608,-0.100111,2.160993,42.974895,-25.860794,-3.547182,0.703519,2.039901,-0.248246,0.000000,0.000000,0.000000,0.000000,0.000000,0.000000
12637701.000000,-2.319072,-1.663298,1.186798,-1.437741,1.718461,1.256245,-0.580213,0.408596,-0.015948,1.251305,-0.452372,-0.311870,1.117520,-0.104394,2.260175,42.927288,-25.836990,-3.499574,0.733732,2.196456,-0.221696,0.000000,0.000000,0.000000,0.000000,0.000000,0.000000
12637702.000000,-2.318662,-1.663313,1.188033,-1.438193,1.718142,1.257387,-0.580318,0.411570,-0.014745,1.240277,-0.446498,-0.317182,1.128192,-0.102881,2.260175,42.903484,-25.567215,-3.400392,0.847257,2.131454,-0.196061,0.000000,0.000000,0.000000,0.000000,0.000000,0.000000
12637703.000000,-2.318245,-1.663326,1.189265,-1.438639,1.717830,1.258565,-0.580423,0.412634,-0.013252,1.245585,-0.447667,-0.311773,1.139459,-0.100747,2.260175,42.851910,-25.567215,-3.225832,0.859159,1.832076,-0.196061,0.000000,0.000000,0.000000,0.000000,0.000000,0.000000
12637704.000000,-2.317823,-1.663335,1.190500,-1.439082,1.717541,1.259739,-0.580523,0.412078,-0.011055,1.231047,-0.443092,-0.297912,1.147800,-0.103393,2.184797,42.756695,-25.468033,-3.154421,0.751127,1.656295,-0.208878,0.000000,0.000000,0.000000,0.000000,0.000000,0.000000
12637705.000000,-2.317407,-1.663339,1.191721,-1.439532,1.717253,1.260883,-0.580627,0.413510,-0.010957,1.230546,-0.445878,-0.299347,1.154596,-0.106725,2.034040,42.582134,-25.368851,-2.928285,0.655912,1.584884,-0.188737,0.000000,0.000000,0.000000,0.000000,0.000000,0.000000
12637706.000000,-2.317002,-1.663353,1.192959,-1.439960,1.716961,1.262043,-0.580731,0.408646,-0.012021,1.229580,-0.442117,-0.297466,1.157083,-0.104635,2.061811,42.582134,-25.368851,-2.833071,0.608304,1.572067,-0.155778,0.000000,0.000000,0.000000,0.000000,0.000000,0.000000
12637707.000000,-2.316602,-1.663359,1.194214,-1.440382,1.716668,1.263195,-0.580826,0.407934,-0.010848,1.235479,-0.437439,-0.292103,1.174162,-0.104234,2.160993,42.510723,-25.591019,-2.928285,0.596403,1.702071,-0.208878,0.000000,0.000000,0.000000,0.000000,0.000000,0.000000
12637708.000000,-2.316199,-1.663373,1.195442,-1.440790,1.716380,1.264321,-0.580926,0.404096,-0.014997,1.235586,-0.428363,-0.289722,1.153915,-0.102836,2.260175,42.510723,-25.761612,-3.055238,0.637601,1.936446,-0.182328,0.000000,0.000000,0.000000,0.000000,0.000000,0.000000
12637709.000000,-2.315796,-1.663383,1.196695,-1.441191,1.716112,1.265460,-0.581030,0.398207,-0.010388,1.238766,-0.422097,-0.284520,1.139532,-0.102100,2.359357,42.463116,-26.059158,-3.301210,0.589994,2.157089,-0.142960,0.000000,0.000000,0.000000,0.000000,0.000000,0.000000
12637710.000000,-2.315399,-1.663391,1.197960,-1.441599,1.715825,1.266597,-0.581115,0.399158,-0.009514,1.263201,-0.414183,-0.286202,1.130866,-0.096852,2.383161,42.387737,-26.475723,-3.424196,0.679716,2.209274,-0.221696,0.000000,0.000000,0.000000,0.000000,0.000000,0.000000
12637711.000000,-2.314993,-1.663401,1.199176,-1.441999,1.715538,1.267751,-0.581216,0.400709,-0.008014,1.255461,-0.412383,-0.285546,1.125753,-0.098275,2.406965,42.411541,-26.523331,-3.523378,0.739225,2.177230,-0.169511,0.000000,0.000000,0.000000,0.000000,0.000000,0.000000
12637712.000000,-2.314577,-1.663411,1.200404,-1.442416,1.715257,1.268903,-0.581309,0.413022,-0.008787,1.242956,-0.413444,-0.283255,1.121885,-0.100022,2.208601,42.387737,-26.574905,-3.400392,0.757535,2.196456,-0.221696,0.000000,0.000000,0.000000,0.000000,0.000000,0.000000
12637713.000000,-2.314163,-1.663417,1.201614,-1.442833,1.714979,1.270030,-0.581408,0.411730,-0.008799,1.239546,-0.418399,-0.280954,1.116692,-0.099244,2.010236,42.340130,-26.523331,-3.225832,0.751127,2.242233,-0.208878,0.000000,0.000000,0.000000,0.000000,0.000000,0.000000
12637714.000000,-2.313755,-1.663426,1.202836,-1.443235,1.714711,1.271177,-0.581514,0.409176,-0.008988,1.229948,-0.415637,-0.277709,1.120657,-0.100162,1.986432,42.288555,-26.424149,-3.154421,0.715421,2.190048,-0.149369,0.000000,0.000000,0.000000,0.000000,0.000000,0.000000
12637715.000000,-2.313357,-1.663435,1.204049,-1.443639,1.714444,1.272311,-0.581605,0.406312,-0.009087,1.228753,-0.410434,-0.279303,1.126054,-0.095598,2.034040,42.240948,-26.130569,-3.079042,0.613798,2.112228,-0.229020,0.000000,0.000000,0.000000,0.000000,0.000000,0.000000
12637716.000000,-2.312956,-1.663440,1.205241,-1.444028,1.714188,1.273456,-0.581710,0.400233,-0.008780,1.216511,-0.402109,-0.274635,1.124532,-0.097871,2.061811,42.169537,-25.836990,-3.079042,0.494779,2.027084,-0.163102,0.000000,0.000000,0.000000,0.000000,0.000000,0.000000
12637717.000000,-2.312568,-1.663443,1.206471,-1.444419,1.713925,1.274608,-0.581805,0.396143,-0.005126,1.217209,-0.399711,-0.269097,1.126766,-0.096047,2.260175,42.094158,-25.884598,-3.055238,0.476469,1.968490,-0.175919,0.000000,0.000000,0.000000,0.000000,0.000000,0.000000
12637718.000000,-2.312174,-1.663442,1.207654,-1.444803,1.713669,1.275728,-0.581898,0.395876,-0.000204,1.213258,-0.392969,-0.264966,1.125430,-0.095776,2.232404,41.923565,-25.614822,-3.102846,0.452665,2.001449,-0.169511,0.000000,0.000000,0.000000,0.000000,0.000000,0.000000
12637719.000000,-2.311792,-1.663444,1.208872,-1.445181,1.713405,1.276872,-0.581991,0.391459,-0.001236,1.216283,-0.392453,-0.266783,1.130575,-0.093522,2.454572,41.800579,-25.642593,-3.102846,0.559781,2.001449,-0.215287,0.000000,0.000000,0.000000,0.000000,0.000000,0.000000
12637720.000000,-2.311411,-1.663442,1.210081,-1.445554,1.713133,1.277998,-0.582088,0.387889,0.001333,1.204191,-0.383708,-0.268202,1.130677,-0.095146,2.605329,41.677593,-25.491837,-3.202028,0.673307,1.981307,-0.182328,0.000000,0.000000,0.000000,0.000000,0.000000,0.000000
12637721.000000,-2.311023,-1.663436,1.211284,-1.445921,1.712867,1.279147,-0.582186,0.387353,0.004896,1.205627,-0.380035,-0.266516,1.133707,-0.095660,2.652936,41.483196,-25.614822,-3.202028,0.733732,1.877853,-0.163102,0.000000,0.000000,0.000000,0.000000,0.000000,0.000000
12637722.000000,-2.310639,-1.663436,1.212484,-1.446295,1.712615,1.280295,-0.582273,0.384226,0.002431,1.200363,-0.377164,-0.262725,1.132893,-0.088900,2.704511,41.360210,-25.591019,-3.202028,0.727323,1.838485,-0.208878,0.000000,0.000000,0.000000,0.000000,0.000000,0.000000
12637723.000000,-2.310258,-1.663435,1.213648,-1.446656,1.712368,1.281422,-0.582367,0.383034,0.002805,1.188813,-0.369333,-0.259795,1.122719,-0.092421,2.704511,41.284832,-25.273636,-3.301210,0.703519,1.825668,-0.155778,0.000000,0.000000,0.000000,0.000000,0.000000,0.000000
12637724.000000,-2.309871,-1.663434,1.214836,-1.447023,1.712119,1.282572,-0.582450,0.380343,0.003106,1.182322,-0.369914,-0.261985,1.113616,-0.085542,2.728315,41.213421,-25.150650,-3.277406,0.661405,1.786300,-0.221696,0.000000,0.000000,0.000000,0.000000,0.000000,0.000000
12637725.000000,-2.309489,-1.663429,1.216009,-1.447383,1.711876,1.283686,-0.582542,0.380881,0.004622,1.173727,-0.364968,-0.256435,1.132477,-0.083678,2.680707,41.090435,-24.757889,-3.348818,0.566190,1.955673,-0.208878,0.000000,0.000000,0.000000,0.000000,0.000000,0.000000
12637726.000000,-2.309109,-1.663423,1.217171,-1.447748,1.711639,1.284819,-0.582636,0.377041,0.005157,1.171678,-0.364443,-0.247538,1.126744,-0.088455,2.652936,40.991253,-24.535721,-3.277406,0.470060,2.085677,-0.155778,0.000000,0.000000,0.000000,0.000000,0.000000,0.000000
12637727.000000,-2.308724,-1.663418,1.218349,-1.448093,1.711408,1.285979,-0.582718,0.377817,0.004368,1.164117,-0.358295,-0.241730,1.135262,-0.086992,2.605329,40.943645,-24.412735,-3.348818,0.398649,1.995040,-0.229020,0.000000,0.000000,0.000000,0.000000,0.000000,0.000000
12637728.000000,-2.308349,-1.663405,1.219521,-1.448442,1.711169,1.287130,-0.582812,0.374013,0.006209,1.191430,-0.357218,-0.237517,1.141877,-0.091190,2.629133,40.796856,-24.388931,-3.348818,0.452665,1.779891,-0.169511,0.000000,0.000000,0.000000,0.000000,0.000000,0.000000
12637729.000000,-2.307967,-1.663390,1.220725,-1.448782,1.710937,1.288278,-0.582897,0.373378,0.011854,1.193949,-0.354060,-0.237068,1.139162,-0.090743,2.581525,40.602459,-24.682510,-3.348818,0.458158,1.708480,-0.182328,0.000000,0.000000,0.000000,0.000000,0.000000,0.000000
12637730.000000,-2.307593,-1.663384,1.221929,-1.449117,1.710700,1.289421,-0.582981,0.379810,0.009304,1.194433,-0.347715,-0.236630,1.135442,-0.091903,2.506147,40.550884,-24.976089,-3.400392,0.464567,1.741439,-0.175919,0.000000,0.000000,0.000000,0.000000,0.000000,0.000000
12637731.000000,-2.307218,-1.663377,1.223118,-1.449449,1.710448,1.290540,-0.583065,0.378495,0.008577,1.194083,-0.342103,-0.241274,1.130645,-0.087295,2.506147,40.455669,-25.368851,-3.499574,0.608304,1.812850,-0.188737,0.000000,0.000000,0.000000,0.000000,0.000000,0.000000
12637732.000000,-2.306847,-1.663380,1.224308,-1.449766,1.710211,1.291675,-0.583146,0.375532,0.004714,1.191782,-0.333277,-0.240860,1.132993,-0.088243,2.605329,40.503277,-25.491837,-3.670168,0.661405,1.858627,-0.202470,0.000000,0.000000,0.000000,0.000000,0.000000,0.000000
12637733.000000,-2.306479,-1.663378,1.225500,-1.450082,1.709980,1.292778,-0.583232,0.372131,0.003782,1.187571,-0.329149,-0.237725,1.123948,-0.086317,2.629133,40.479473,-25.543411,-3.844728,0.632108,1.962081,-0.169511,0.000000,0.000000,0.000000,0.000000,0.000000,0.000000
12637734.000000,-2.306109,-1.663373,1.226679,-1.450402,1.709754,1.293893,-0.583311,0.369654,0.003789,1.185512,-0.326696,-0.228404,1.120927,-0.087658,2.629133,40.427898,-25.666397,-3.892336,0.554288,2.085677,-0.188737,0.000000,0.000000,0.000000,0.000000,0.000000,0.000000
12637735.000000,-2.305737,-1.663375,1.227850,-1.450718,1.709531,1.295029,-0.583391,0.372430,0.001366,1.173176,-0.320080,-0.225670,1.120619,-0.084134,2.581525,40.479473,-25.444229,-3.892336,0.446256,2.033492,-0.202470,0.000000,0.000000,0.000000,0.000000,0.000000,0.000000
12637736.000000,-2.305363,-1.663375,1.229000,-1.451042,1.709300,1.296147,-0.583470,0.377446,0.000389,1.168849,-0.322110,-0.222622,1.116173,-0.077294,2.454572,40.503277,-25.150650,-3.844728,0.440763,1.955673,-0.196061,0.000000,0.000000,0.000000,0.000000,0.000000,0.000000
12637737.000000,-2.304983,-1.663376,1.230161,-1.451369,1.709077,1.297276,-0.583553,0.376601,-0.000272,1.167609,-0.324078,-0.219815,1.107617,-0.078480,2.307783,40.527081,-24.781693,-3.646364,0.428861,1.903487,-0.149369,0.000000,0.000000,0.000000,0.000000,0.000000,0.000000
12637738.000000,-2.304599,-1.663375,1.231334,-1.451686,1.708849,1.298400,-0.583623,0.376697,-0.000162,1.161134,-0.323908,-0.224931,1.106976,-0.079597,2.010236,40.527081,-24.583328,-3.598757,0.458158,1.806442,-0.208878,0.000000,0.000000,0.000000,0.000000,0.000000,0.000000
12637739.000000,-2.304223,-1.663367,1.232492,-1.452006,1.708626,1.299544,-0.583703,0.374295,0.002784,1.162019,-0.322972,-0.222329,1.112237,-0.079637,1.811872,40.404095,-24.464310,-3.475771,0.470060,1.662704,-0.182328,0.000000,0.000000,0.000000,0.000000,0.000000,0.000000
12637740.000000,-2.303847,-1.663366,1.233645,-1.452312,1.708404,1.300698,-0.583781,0.374028,0.001310,1.155196,-0.318943,-0.225298,1.125207,-0.078114,1.665082,40.427898,-24.119156,-3.499574,0.476469,1.513473,-0.196061,0.000000,0.000000,0.000000,0.000000,0.000000,0.000000
12637741.000000,-2.303478,-1.663367,1.234797,-1.452615,1.708168,1.301824,-0.583860,0.374120,0.000232,1.152353,-0.314016,-0.230561,1.126584,-0.078089,1.542096,40.455669,-24.043777,-3.598757,0.559781,1.487838,-0.182328,0.000000,0.000000,0.000000,0.000000,0.000000,0.000000
12637742.000000,-2.303108,-1.663365,1.235965,-1.452910,1.707948,1.302938,-0.583941,0.370451,0.000810,1.155219,-0.309046,-0.227073,1.115004,-0.082208,1.514325,40.427898,-24.019974,-3.646364,0.559781,1.708480,-0.175919,0.000000,0.000000,0.000000,0.000000,0.000000,0.000000
12637743.000000,-2.302741,-1.663363,1.237132,-1.453201,1.707736,1.304061,-0.584015,0.375148,0.000545,1.151339,-0.304300,-0.220685,1.132227,-0.079047,1.391340,40.427898,-23.920792,-3.745546,0.488370,1.942855,-0.215287,0.000000,0.000000,0.000000,0.000000,0.000000,0.000000
12637744.000000,-2.302370,-1.663360,1.238282,-1.453505,1.707519,1.305187,-0.584102,0.375222,0.000924,1.153866,-0.303504,-0.219042,1.135114,-0.080508,1.244550,40.404095,-23.920792,-3.721742,0.488370,1.962081,-0.155778,0.000000,0.000000,0.000000,0.000000,0.000000,0.000000
12637745.000000,-2.301987,-1.663351,1.239439,-1.453799,1.707307,1.306343,-0.584180,0.376564,0.002846,1.145320,-0.300274,-0.222114,1.143058,-0.079302,1.022382,40.308880,-23.873184,-3.697939,0.476469,1.812850,-0.149369,0.000000,0.000000,0.000000,0.000000,0.000000,0.000000
12637746.000000,-2.301607,-1.663338,1.240585,-1.454098,1.707085,1.307465,-0.584250,0.379212,0.005982,1.167760,-0.300317,-0.220402,1.145602,-0.075082,0.748639,40.134319,-23.873184,-3.547182,0.488370,1.786300,-0.215287,0.000000,0.000000,0.000000,0.000000,0.000000,0.000000
12637747.000000,-2.301216,-1.663326,1.241726,-1.454400,1.706878,1.308590,-0.584333,0.380885,0.007423,1.156834,-0.298594,-0.211406,1.135603,-0.077419,0.375715,39.987530,-23.651016,-3.348818,0.446256,1.884261,-0.155778,0.000000,0.000000,0.000000,0.000000,0.000000,0.000000
12637748.000000,-2.300838,-1.663312,1.242865,-1.454694,1.706659,1.309723,-0.584404,0.383521,0.011033,1.144483,-0.296269,-0.213361,1.129697,-0.074733,0.078168,39.868511,-23.381241,-3.301210,0.488370,1.884261,-0.215287,0.000000,0.000000,0.000000,0.000000,0.000000,0.000000
12637749.000000,-2.300458,-1.663307,1.244004,-1.454975,1.706441,1.310850,-0.584482,0.379138,0.008281,1.144252,-0.294107,-0.220553,1.124038,-0.071990,-0.167803,39.840740,-23.309830,-3.400392,0.547880,1.786300,-0.169511,0.000000,0.000000,0.000000,0.000000,0.000000,0.000000
12637750.000000,-2.300074,-1.663289,1.245163,-1.455257,1.706246,1.311976,-0.584551,0.378735,0.009718,1.145558,-0.292170,-0.215145,1.108757,-0.071440,-0.389971,39.670147,-23.381241,-3.523378,0.458158,1.819259,-0.202470,0.000000,0.000000,0.000000,0.000000,0.000000,0.000000
12637751.000000,-2.299704,-1.663270,1.246332,-1.455539,1.706042,1.313095,-0.584627,0.376509,0.013315,1.153188,-0.286867,-0.213114,1.109123,-0.073790,-0.512957,39.523357,-23.555801,-3.570986,0.410551,1.806442,-0.169511,0.000000,0.000000,0.000000,0.000000,0.000000,0.000000
12637752.000000,-2.299332,-1.663267,1.247492,-1.455813,1.705827,1.314215,-0.584694,0.371595,0.007500,1.152064,-0.287723,-0.213323,1.107493,-0.068018,-0.635943,39.598736,-23.873184,-3.670168,0.398649,1.865035,-0.208878,0.000000,0.000000,0.000000,0.000000,0.000000,0.000000
12637753.000000,-2.298964,-1.663257,1.248669,-1.456097,1.705618,1.315336,-0.584762,0.367579,0.008607,1.152023,-0.285100,-0.207590,1.105215,-0.069726,-0.711321,39.598736,-24.190567,-3.670168,0.393156,1.942855,-0.215287,0.000000,0.000000,0.000000,0.000000,0.000000,0.000000
12637754.000000,-2.298594,-1.663244,1.249827,-1.456371,1.705402,1.316449,-0.584838,0.371347,0.007439,1.161973,-0.281285,-0.211888,1.101292,-0.069143,-0.834307,39.547161,-24.464310,-3.745546,0.470060,1.962081,-0.142960,0.000000,0.000000,0.000000,0.000000,0.000000,0.000000
12637755.000000,-2.298222,-1.663235,1.250997,-1.456638,1.705197,1.317562,-0.584901,0.367544,0.005886,1.159886,-0.277942,-0.207359,1.099045,-0.063340,-0.961260,39.523357,-24.734085,-3.844728,0.482877,2.020675,-0.208878,0.000000,0.000000,0.000000,0.000000,0.000000,0.000000
12637756.000000,-2.297865,-1.663226,1.252169,-1.456910,1.705002,1.318669,-0.584974,0.363562,0.007358,1.156819,-0.276300,-0.202323,1.127642,-0.063158,-0.985064,39.523357,-24.857071,-3.892336,0.452665,2.060043,-0.169511,0.000000,0.000000,0.000000,0.000000,0.000000,0.000000
12637757.000000,-2.297501,-1.663220,1.253306,-1.457163,1.704799,1.319782,-0.585045,0.359139,0.007374,1.153376,-0.267414,-0.204819,1.123230,-0.061715,-1.084246,39.574932,-24.757889,-4.043092,0.446256,2.053634,-0.163102,0.000000,0.000000,0.000000,0.000000,0.000000,0.000000
12637758.000000,-2.297146,-1.663215,1.254441,-1.457427,1.704597,1.320905,-0.585109,0.357854,0.008504,1.143132,-0.266628,-0.201390,1.121552,-0.058921,-1.008868,39.598736,-24.412735,-4.066896,0.446256,2.014266,-0.202470,0.000000,0.000000,0.000000,0.000000,0.000000,0.000000
12637759.000000,-2.296797,-1.663207,1.255573,-1.457693,1.704398,1.321997,-0.585180,0.356459,0.005871,1.141456,-0.264551,-0.198103,1.113216,-0.059711,-1.008868,39.622540,-24.166763,-4.019289,0.422452,2.039901,-0.169511,0.000000,0.000000,0.000000,0.000000,0.000000,0.000000
12637760.000000,-2.296445,-1.663193,1.256704,-1.457949,1.704208,1.323107,-0.585245,0.353210,0.009652,1.135579,-0.262372,-0.191499,1.107693,-0.056880,-0.961260,39.547161,-23.726395,-3.991518,0.398649,2.118636,-0.221696,0.000000,0.000000,0.000000,0.000000,0.000000,0.000000
12637761.000000,-2.296105,-1.663184,1.257850,-1.458207,1.704021,1.324235,-0.585317,0.347458,0.007702,1.139747,-0.261943,-0.189994,1.119579,-0.058196,-0.862078,39.523357,-23.480423,-3.920107,0.356534,2.053634,-0.188737,0.000000,0.000000,0.000000,0.000000,0.000000,0.000000
12637762.000000,-2.295771,-1.663172,1.258968,-1.458466,1.703834,1.325361,-0.585383,0.340325,0.010060,1.131415,-0.259478,-0.183869,1.120748,-0.058515,-0.762896,39.475750,-23.163040,-3.920107,0.320829,1.838485,-0.169511,0.000000,0.000000,0.000000,0.000000,0.000000,0.000000
12637763.000000,-2.295439,-1.663153,1.260114,-1.458723,1.703648,1.326497,-0.585445,0.331808,0.009700,1.132810,-0.259715,-0.186125,1.117464,-0.056467,-0.564532,39.376568,-23.087662,-3.844728,0.327238,1.682845,-0.208878,0.000000,0.000000,0.000000,0.000000,0.000000,0.000000
12637764.000000,-2.295108,-1.663133,1.261263,-1.458965,1.703455,1.327600,-0.585509,0.328498,0.010962,1.157877,-0.251643,-0.191810,1.114693,-0.061554,-0.441546,39.205975,-23.063858,-3.967714,0.297025,1.695663,-0.202470,0.000000,0.000000,0.000000,0.000000,0.000000,0.000000
12637765.000000,-2.294783,-1.663115,1.262390,-1.459213,1.703264,1.328719,-0.585575,0.326260,0.010563,1.148515,-0.251635,-0.192701,1.106271,-0.060120,-0.243182,39.082989,-23.040054,-3.991518,0.308927,1.727706,-0.202470,0.000000,0.000000,0.000000,0.000000,0.000000,0.000000
12637766.000000,-2.294465,-1.663101,1.263536,-1.459457,1.703065,1.329844,-0.585640,0.326998,0.015647,1.144434,-0.247246,-0.196084,1.108133,-0.064503,-0.044818,39.011578,-23.040054,-4.066896,0.405057,1.702071,-0.188737,0.000000,0.000000,0.000000,0.000000,0.000000,0.000000
12637769.000000,-2.293527,-1.663052,1.266929,-1.460180,1.702503,1.333169,-0.585830,0.313733,0.015487,1.128222,-0.242573,-0.192607,1.107360,-0.064884,0.351911,38.765606,-22.917068,-4.166078,0.405057,1.786300,-0.142960,0.000000,0.000000,0.000000,0.000000,0.000000,0.000000
12637770.000000,-2.293211,-1.663035,1.268038,-1.460420,1.702317,1.334296,-0.585882,0.312578,0.016239,1.120868,-0.241936,-0.191423,1.108506,-0.064514,0.427289,38.690228,-22.671097,-4.066896,0.374845,1.662704,-0.221696,0.000000,0.000000,0.000000,0.000000,0.000000,0.000000
12637771.000000,-2.292901,-1.663013,1.269158,-1.460666,1.702129,1.335427,-0.585950,0.311140,0.019075,1.117581,-0.245901,-0.191448,1.104819,-0.065667,0.550275,38.519634,-22.472733,-3.892336,0.374845,1.617843,-0.142960,0.000000,0.000000,0.000000,0.000000,0.000000,0.000000
12637772.000000,-2.292599,-1.662991,1.270278,-1.460908,1.701951,1.336533,-0.586004,0.307999,0.020885,1.115685,-0.243482,-0.188673,1.096057,-0.060890,0.601850,38.349041,-22.472733,-3.797121,0.291532,1.624252,-0.202470,0.000000,0.000000,0.000000,0.000000,0.000000,0.000000
12637773.000000,-2.292299,-1.662972,1.271417,-1.461148,1.701776,1.337666,-0.586061,0.303448,0.021155,1.122532,-0.243886,-0.178033,1.104728,-0.059114,0.847822,38.226055,-22.548111,-3.622560,0.237516,1.539108,-0.221696,0.000000,0.000000,0.000000,0.000000,0.000000,0.000000
12637774.000000,-2.292007,-1.662959,1.272577,-1.461379,1.701591,1.338785,-0.586126,0.299416,0.019378,1.133598,-0.236974,-0.183879,1.126905,-0.060811,1.169172,38.178448,-22.794083,-3.598757,0.291532,1.448470,-0.155778,0.000000,0.000000,0.000000,0.000000,0.000000,0.000000
12637775.000000,-2.291712,-1.662936,1.273719,-1.461614,1.701405,1.339912,-0.586183,0.293891,0.017924,1.133969,-0.239244,-0.189101,1.122924,-0.063057,1.466718,38.007854,-23.111465,-3.523378,0.369352,1.422836,-0.188737,0.000000,0.000000,0.000000,0.000000,0.000000,0.000000
12637776.000000,-2.291419,-1.662918,1.274885,-1.461859,1.701234,1.341031,-0.586249,0.291134,0.014474,1.134878,-0.240554,-0.184210,1.108136,-0.062653,1.712690,37.932476,-23.555801,-3.348818,0.369352,1.572067,-0.155778,0.000000,0.000000,0.000000,0.000000,0.000000,0.000000
12637777.000000,-2.291140,-1.662902,1.276023,-1.462095,1.701048,1.342111,-0.586307,0.283408,0.015133,1.141772,-0.238527,-0.182074,1.098952,-0.060877,1.934858,37.861065,-23.801773,-3.277406,0.410551,1.838485,-0.163102,0.000000,0.000000,0.000000,0.000000,0.000000,0.000000
12637778.000000,-2.290852,-1.662890,1.277172,-1.462329,1.700862,1.343224,-0.586369,0.285191,0.014208,1.138397,-0.239166,-0.185837,1.094849,-0.059958,2.085615,37.861065,-23.948563,-3.126650,0.446256,1.974899,-0.155778,0.000000,0.000000,0.000000,0.000000,0.000000,0.000000
12637779.000000,-2.290571,-1.662873,1.278329,-1.462570,1.700682,1.344344,-0.586421,0.288285,0.015460,1.138722,-0.238933,-0.182014,1.124942,-0.056878,2.232404,37.785686,-23.996170,-3.003664,0.452665,2.007858,-0.215287,0.000000,0.000000,0.000000,0.000000,0.000000,0.000000
12637780.000000,-2.290286,-1.662853,1.279468,-1.462816,1.700511,1.345456,-0.586488,0.285159,0.016678,1.137805,-0.238341,-0.176713,1.122600,-0.058952,2.283979,37.686504,-24.043777,-2.781496,0.393156,1.981307,-0.163102,0.000000,0.000000,0.000000,0.000000,0.000000,0.000000
12637781.000000,-2.289992,-1.662835,1.280595,-1.463065,1.700343,1.346572,-0.586545,0.287952,0.017247,1.131058,-0.240035,-0.174182,1.117494,-0.062444,2.232404,37.615093,-23.774002,-2.460146,0.362943,1.909896,-0.175919,0.000000,0.000000,0.000000,0.000000,0.000000,0.000000
12637782.000000,-2.289708,-1.662819,1.281717,-1.463319,1.700162,1.347677,-0.586600,0.285827,0.020112,1.128146,-0.244996,-0.176320,1.113581,-0.063800,2.208601,37.567486,-23.603409,-2.190370,0.440763,1.844894,-0.208878,0.000000,0.000000,0.000000,0.000000,0.000000,0.000000
12637783.000000,-2.289423,-1.662804,1.282847,-1.463570,1.699993,1.348782,-0.586660,0.286413,0.018616,1.125119,-0.249100,-0.175862,1.100983,-0.064126,2.133222,37.539715,-23.286026,-1.916628,0.470060,1.871444,-0.155778,0.000000,0.000000,0.000000,0.000000,0.000000,0.000000
12637784.000000,-2.289142,-1.662788,1.283984,-1.463817,1.699822,1.349893,-0.586709,0.285987,0.018085,1.123556,-0.246900,-0.167961,1.096879,-0.055080,2.184797,37.492107,-23.063858,-1.742067,0.446256,1.923629,-0.221696,0.000000,0.000000,0.000000,0.000000,0.000000,0.000000
12637785.000000,-2.288871,-1.662770,1.285105,-1.464055,1.699649,1.350997,-0.586764,0.284279,0.020912,1.121863,-0.244797,-0.168453,1.097631,-0.055696,2.283979,37.444500,-22.964676,-1.718263,0.446256,1.865035,-0.215287,0.000000,0.000000,0.000000,0.000000,0.000000,0.000000
12637786.000000,-2.288600,-1.662755,1.286241,-1.464284,1.699484,1.352126,-0.586819,0.279845,0.019240,1.119238,-0.240747,-0.163000,1.104348,-0.056580,2.383161,37.420696,-22.865494,-1.817445,0.434354,1.702071,-0.196061,0.000000,0.000000,0.000000,0.000000,0.000000,0.000000
12637787.000000,-2.288333,-1.662742,1.287393,-1.464517,1.699322,1.353244,-0.586875,0.276155,0.020608,1.126533,-0.238309,-0.159025,1.105326,-0.056281,2.506147,37.420696,-22.988480,-1.892824,0.422452,1.559249,-0.202470,0.000000,0.000000,0.000000,0.000000,0.000000,0.000000
12637788.000000,-2.288053,-1.662734,1.288518,-1.464748,1.699160,1.354352,-0.586929,0.275530,0.017575,1.126109,-0.233122,-0.161206,1.108341,-0.052923,2.406965,37.468304,-23.016251,-1.892824,0.405057,1.624252,-0.169511,0.000000,0.000000,0.000000,0.000000,0.000000,0.000000
12637789.000000,-2.287790,-1.662721,1.289659,-1.464982,1.698996,1.355471,-0.586976,0.270516,0.017041,1.125504,-0.235475,-0.160599,1.110956,-0.052087,2.482343,37.444500,-23.016251,-1.869020,0.470060,1.689254,-0.208878,0.000000,0.000000,0.000000,0.000000,0.000000,0.000000
12637790.000000,-2.287520,-1.662719,1.290784,-1.465222,1.698836,1.356565,-0.587033,0.269739,0.013094,1.125827,-0.236205,-0.159438,1.108913,-0.054791,2.454572,37.567486,-23.063858,-1.769838,0.518583,1.741439,-0.169511,0.000000,0.000000,0.000000,0.000000,0.000000,0.000000
12637791.000000,-2.287241,-1.662707,1.291911,-1.465446,1.698686,1.357683,-0.587083,0.273668,0.013311,1.120553,-0.232654,-0.160853,1.107513,-0.049414,2.331586,37.567486,-23.016251,-1.718263,0.458158,1.747848,-0.196061,0.000000,0.000000,0.000000,0.000000,0.000000,0.000000
12637792.000000,-2.286969,-1.662697,1.293040,-1.465666,1.698529,1.358797,-0.587134,0.270215,0.013277,1.117353,-0.229249,-0.155893,1.127481,-0.051462,2.232404,37.567486,-22.865494,-1.694460,0.398649,1.578475,-0.182328,0.000000,0.000000,0.000000,0.000000,0.000000,0.000000
12637793.000000,-2.286697,-1.662683,1.294149,-1.465888,1.698360,1.359918,-0.587181,0.270174,0.014563,1.114767,-0.229741,-0.156181,1.114206,-0.052191,2.160993,37.515911,-22.694901,-1.670656,0.440763,1.532699,-0.196061,0.000000,0.000000,0.000000,0.000000,0.000000,0.000000
12637794.000000,-2.286424,-1.662671,1.295260,-1.466107,1.698203,1.361032,-0.587225,0.268182,0.014294,1.109409,-0.225260,-0.159973,1.102340,-0.047317,2.034040,37.515911,-22.448929,-1.619081,0.446256,1.578475,-0.229020,0.000000,0.000000,0.000000,0.000000,0.000000,0.000000
12637795.000000,-2.286156,-1.662659,1.296367,-1.466317,1.698048,1.362126,-0.587276,0.267367,0.014503,1.107912,-0.218983,-0.162890,1.103356,-0.050731,1.863447,37.492107,-22.325943,-1.670656,0.452665,1.741439,-0.202470,0.000000,0.000000,0.000000,0.000000,0.000000,0.000000
12637796.000000,-2.285885,-1.662644,1.297491,-1.466524,1.697891,1.363234,-0.587325,0.266201,0.015780,1.107524,-0.219320,-0.161524,1.095303,-0.047630,1.811872,37.420696,-22.278336,-1.642885,0.506681,1.832076,-0.196061,0.000000,0.000000,0.000000,0.000000,0.000000,0.000000
12637797.000000,-2.285619,-1.662629,1.298644,-1.466731,1.697741,1.364368,-0.587376,0.271315,0.016165,1.124651,-0.214177,-0.157493,1.125763,-0.045168,1.740461,37.369122,-22.595718,-1.718263,0.482877,1.714889,-0.196061,0.000000,0.000000,0.000000,0.000000,0.000000,0.000000
12637798.000000,-2.285354,-1.662610,1.299781,-1.466937,1.697602,1.365477,-0.587420,0.270592,0.018059,1.126204,-0.212372,-0.151927,1.124506,-0.042603,1.665082,37.246136,-22.988480,-1.718263,0.386747,1.649886,-0.215287,0.000000,0.000000,0.000000,0.000000,0.000000,0.000000
12637799.000000,-2.285083,-1.662598,1.300938,-1.467132,1.697453,1.366580,-0.587477,0.273266,0.013713,1.129625,-0.207209,-0.156225,1.119547,-0.043599,1.589704,37.222332,-23.432816,-1.769838,0.362943,1.670028,-0.155778,0.000000,0.000000,0.000000,0.000000,0.000000,0.000000
12637800.000000,-2.284818,-1.662588,1.302104,-1.467328,1.697295,1.367677,-0.587521,0.270836,0.012677,1.142122,-0.206863,-0.155144,1.117226,-0.045235,1.466718,37.246136,-23.849380,-1.769838,0.374845,1.676437,-0.196061,0.000000,0.000000,0.000000,0.000000,0.000000,0.000000
12637801.000000,-2.284556,-1.662583,1.303233,-1.467516,1.697130,1.368762,-0.587567,0.266304,0.010983,1.136904,-0.201839,-0.151859,1.109831,-0.046817,1.415143,37.321514,-24.071548,-1.869020,0.470060,1.819259,-0.221696,0.000000,0.000000,0.000000,0.000000,0.000000,0.000000
12637802.000000,-2.284292,-1.662578,1.304367,-1.467695,1.696976,1.369852,-0.587623,0.267029,0.006609,1.129909,-0.196132,-0.152180,1.099009,-0.052349,1.343732,37.392925,-24.071548,-2.063417,0.506681,2.007858,-0.142960,0.000000,0.000000,0.000000,0.000000,0.000000,0.000000
12637803.000000,-2.284025,-1.662571,1.305483,-1.467871,1.696830,1.370934,-0.587663,0.269445,0.007723,1.128710,-0.189588,-0.149830,1.089442,-0.050349,1.192975,37.420696,-24.019974,-2.237978,0.470060,1.988631,-0.221696,0.000000,0.000000,0.000000,0.000000,0.000000,0.000000
12637804.000000,-2.283762,-1.662570,1.306608,-1.468049,1.696686,1.372038,-0.587712,0.265437,0.006592,1.125822,-0.185576,-0.150358,1.086623,-0.048693,1.121564,37.539715,-23.896988,-2.261781,0.458158,1.909896,-0.182328,0.000000,0.000000,0.000000,0.000000,0.000000,0.000000
12637805.000000,-2.283497,-1.662568,1.307735,-1.468225,1.696536,1.373126,-0.587761,0.265576,0.005017,1.119222,-0.183474,-0.151103,1.087937,-0.051376,0.947004,37.686504,-23.579605,-2.337160,0.482877,1.786300,-0.163102,0.000000,0.000000,0.000000,0.000000,0.000000,0.000000
12637806.000000,-2.283231,-1.662572,1.308838,-1.468400,1.696394,1.374224,-0.587798,0.262220,0.003598,1.114300,-0.180187,-0.143077,1.093103,-0.045454,0.772443,37.861065,-23.186844,-2.384767,0.422452,1.806442,-0.229020,0.000000,0.000000,0.000000,0.000000,0.000000,0.000000
12637807.000000,-2.282966,-1.662572,1.309956,-1.468578,1.696252,1.375319,-0.587848,0.262989,0.001154,1.108506,-0.179182,-0.149422,1.085828,-0.045897,0.601850,37.956280,-22.940872,-2.360964,0.398649,1.858627,-0.169511,0.000000,0.000000,0.000000,0.000000,0.000000,0.000000
12637808.000000,-2.282718,-1.662571,1.311071,-1.468738,1.696104,1.376423,-0.587885,0.257324,0.003007,1.110893,-0.171735,-0.153886,1.097896,-0.041754,0.550275,38.031658,-22.865494,-2.483949,0.374845,1.702071,-0.221696,0.000000,0.000000,0.000000,0.000000,0.000000,0.000000
12637809.000000,-2.282464,-1.662568,1.312189,-1.468888,1.695957,1.377561,-0.587934,0.254420,0.002273,1.112924,-0.164715,-0.153074,1.105681,-0.047396,0.550275,38.055462,-22.671097,-2.682314,0.351041,1.396285,-0.169511,0.000000,0.000000,0.000000,0.000000,0.000000,0.000000
12637810.000000,-2.282214,-1.662560,1.313324,-1.469037,1.695809,1.378662,-0.587973,0.253994,0.002691,1.116666,-0.161946,-0.149169,1.131432,-0.047847,0.526471,38.031658,-22.718704,-2.904482,0.405057,1.266280,-0.208878,0.000000,0.000000,0.000000,0.000000,0.000000,0.000000
12637811.000000,-2.281965,-1.662562,1.314443,-1.469177,1.695671,1.379760,-0.588021,0.250771,0.000587,1.117518,-0.153310,-0.143980,1.116027,-0.046871,0.474897,38.103069,-22.817886,-3.178224,0.410551,1.370651,-0.169511,0.000000,0.000000,0.000000,0.000000,0.000000,0.000000
12637812.000000,-2.281705,-1.662558,1.315566,-1.469320,1.695529,1.380854,-0.588056,0.253466,0.000740,1.109481,-0.150196,-0.147600,1.100578,-0.043015,0.328107,38.103069,-22.794083,-3.325014,0.470060,1.591293,-0.208878,0.000000,0.000000,0.000000,0.000000,0.000000,0.000000
12637813.000000,-2.281452,-1.662566,1.316668,-1.469461,1.695391,1.381944,-0.588100,0.254047,-0.002123,1.112142,-0.147997,-0.142628,1.088499,-0.042215,0.129743,38.226055,-22.742508,-3.448000,0.470060,1.747848,-0.196061,0.000000,0.000000,0.000000,0.000000,0.000000,0.000000
12637814.000000,-2.281209,-1.662562,1.317783,-1.469596,1.695266,1.383058,-0.588141,0.250249,-0.000106,1.107055,-0.145222,-0.137041,1.091965,-0.041533,0.078168,38.178448,-22.694901,-3.499574,0.410551,1.773483,-0.182328,0.000000,0.000000,0.000000,0.000000,0.000000,0.000000
12637815.000000,-2.280954,-1.662555,1.318915,-1.469726,1.695144,1.384187,-0.588177,0.257505,0.002396,1.105192,-0.138297,-0.136426,1.098554,-0.039591,-0.167803,38.079266,-22.794083,-3.622560,0.308927,1.754256,-0.208878,0.000000,0.000000,0.000000,0.000000,0.000000,0.000000
12637816.000000,-2.280694,-1.662546,1.320011,-1.469863,1.695022,1.385291,-0.588220,0.257641,0.004585,1.108654,-0.138778,-0.130557,1.099918,-0.040897,-0.413775,37.956280,-22.647293,-3.622560,0.201810,1.695663,-0.163102,0.000000,0.000000,0.000000,0.000000,0.000000,0.000000
12637817.000000,-2.280433,-1.662544,1.321117,-1.470001,1.694886,1.386408,-0.588253,0.257530,0.003696,1.102518,-0.139166,-0.131035,1.101837,-0.038019,-0.663714,37.932476,-22.472733,-3.499574,0.213712,1.670028,-0.215287,0.000000,0.000000,0.000000,0.000000,0.000000,0.000000
12637818.000000,-2.280181,-1.662541,1.322233,-1.470136,1.694742,1.387504,-0.588295,0.256897,0.003639,1.098687,-0.138151,-0.140283,1.099085,-0.038907,-0.885882,37.884869,-22.377518,-3.400392,0.327238,1.670028,-0.182328,0.000000,0.000000,0.000000,0.000000,0.000000,0.000000
12637819.000000,-2.279925,-1.662536,1.323346,-1.470262,1.694609,1.388604,-0.588329,0.256542,0.004236,1.107383,-0.132929,-0.138154,1.102464,-0.038088,-1.084246,37.809490,-22.524307,-3.376589,0.356534,1.767074,-0.196061,0.000000,0.000000,0.000000,0.000000,0.000000,0.000000
12637820.000000,-2.279680,-1.662527,1.324477,-1.470376,1.694483,1.389715,-0.588361,0.251943,0.005086,1.107836,-0.127771,-0.135250,1.108778,-0.032818,-1.131854,37.714275,-22.742508,-3.523378,0.351041,1.773483,-0.208878,0.000000,0.000000,0.000000,0.000000,0.000000,0.000000
12637821.000000,-2.279443,-1.662529,1.325613,-1.470480,1.694352,1.390809,-0.588401,0.245599,0.002303,1.118121,-0.119513,-0.134264,1.111690,-0.031312,-1.183428,37.761883,-23.186844,-3.745546,0.381254,1.727706,-0.155778,0.000000,0.000000,0.000000,0.000000,0.000000,0.000000
12637822.000000,-2.279211,-1.662527,1.326760,-1.470591,1.694233,1.391922,-0.588429,0.241597,0.005415,1.124010,-0.118797,-0.130986,1.102721,-0.029797,-1.131854,37.738079,-23.603409,-3.868532,0.315336,1.656295,-0.235429,0.000000,0.000000,0.000000,0.000000,0.000000,0.000000
12637823.000000,-2.278975,-1.662527,1.327912,-1.470702,1.694106,1.392990,-0.588468,0.238071,0.003343,1.132795,-0.113233,-0.130237,1.088729,-0.029824,-1.159625,37.761883,-24.071548,-3.967714,0.308927,1.825668,-0.163102,0.000000,0.000000,0.000000,0.000000,0.000000,0.000000
12637824.000000,-2.278728,-1.662530,1.329048,-1.470817,1.693983,1.394069,-0.588500,0.241991,0.001332,1.135587,-0.114695,-0.129961,1.081152,-0.026731,-1.330218,37.809490,-24.412735,-3.920107,0.308927,2.047225,-0.169511,0.000000,0.000000,0.000000,0.000000,0.000000,0.000000
12637825.000000,-2.278491,-1.662538,1.330188,-1.470927,1.693863,1.395167,-0.588526,0.239527,0.001035,1.130259,-0.115168,-0.128155,1.078399,-0.026700,-1.429400,37.956280,-24.535721,-3.920107,0.273221,2.098495,-0.241837,0.000000,0.000000,0.000000,0.000000,0.000000,0.000000
12637826.000000,-2.278249,-1.662546,1.331304,-1.471038,1.693732,1.396252,-0.588565,0.241930,-0.001223,1.122169,-0.112984,-0.129395,1.083157,-0.031651,-1.627764,38.055462,-24.535721,-3.892336,0.303434,2.079269,-0.188737,0.000000,0.000000,0.000000,0.000000,0.000000,0.000000
12637827.000000,-2.278013,-1.662553,1.332427,-1.471141,1.693608,1.397361,-0.588599,0.240138,-0.002830,1.116667,-0.110133,-0.124154,1.083667,-0.033080,-1.778521,38.154644,-24.365128,-3.920107,0.285123,1.942855,-0.188737,0.000000,0.000000,0.000000,0.000000,0.000000,0.000000
12637828.000000,-2.277785,-1.662553,1.333556,-1.471247,1.693483,1.398448,-0.588633,0.238695,-0.008153,1.112794,-0.109650,-0.124520,1.107669,-0.034510,-1.901507,38.154644,-24.190567,-3.868532,0.261320,1.819259,-0.182328,0.000000,0.000000,0.000000,0.000000,0.000000,0.000000
12637829.000000,-2.277554,-1.662560,1.334664,-1.471347,1.693350,1.399541,-0.588662,0.237505,-0.008032,1.113381,-0.105880,-0.129184,1.103160,-0.033828,-2.024493,38.249859,-23.972366,-3.967714,0.356534,1.819259,-0.221696,0.000000,0.000000,0.000000,0.000000,0.000000,0.000000
12637830.000000,-2.277326,-1.662576,1.335760,-1.471451,1.693221,1.400624,-0.588699,0.233774,-0.010272,1.099793,-0.108474,-0.132471,1.100502,-0.036103,-2.024493,38.448223,-23.409012,-3.967714,0.452665,1.909896,-0.188737,0.000000,0.000000,0.000000,0.000000,0.000000,0.000000
12637831.000000,-2.277100,-1.662582,1.336867,-1.471554,1.693102,1.401691,-0.588727,0.229044,-0.008726,1.122684,-0.107188,-0.129903,1.088315,-0.030987,-2.072100,38.519634,-23.286026,-3.967714,0.422452,2.053634,-0.208878,0.000000,0.000000,0.000000,0.000000,0.000000,0.000000
12637832.000000,-2.276888,-1.662589,1.337984,-1.471650,1.692986,1.402794,-0.588763,0.221873,-0.008293,1.122577,-0.102837,-0.122672,1.086709,-0.033699,-1.972918,38.618816,-23.135269,-3.991518,0.381254,1.968490,-0.182328,0.000000,0.000000,0.000000,0.000000,0.000000,0.000000
12637833.000000,-2.276666,-1.662595,1.339114,-1.471745,1.692879,1.403924,-0.588794,0.224336,-0.006759,1.116250,-0.099542,-0.114389,1.097130,-0.034914,-1.972918,38.666424,-23.186844,-4.019289,0.267728,1.721298,-0.175919,0.000000,0.000000,0.000000,0.000000,0.000000,0.000000
12637834.000000,-2.276451,-1.662603,1.340222,-1.471834,1.692768,1.405029,-0.588820,0.222176,-0.006357,1.111098,-0.095488,-0.115273,1.102218,-0.029847,-2.000689,38.741802,-23.186844,-4.118471,0.183500,1.526290,-0.202470,0.000000,0.000000,0.000000,0.000000,0.000000,0.000000
12637835.000000,-2.276241,-1.662607,1.341356,-1.471924,1.692655,1.406121,-0.588857,0.218395,-0.005418,1.120185,-0.094307,-0.114598,1.093259,-0.033526,-1.949114,38.789410,-23.357437,-4.142274,0.183500,1.617843,-0.155778,0.000000,0.000000,0.000000,0.000000,0.000000,0.000000
12637836.000000,-2.276030,-1.662618,1.342479,-1.472006,1.692535,1.407192,-0.588880,0.215727,-0.006538,1.114916,-0.090876,-0.114854,1.087876,-0.028503,-2.000689,38.912395,-23.381241,-4.265260,0.231107,1.727706,-0.188737,0.000000,0.000000,0.000000,0.000000,0.000000,0.000000
12637837.000000,-2.275813,-1.662624,1.343580,-1.472085,1.692412,1.408280,-0.588904,0.216346,-0.009476,1.111333,-0.088762,-0.115728,1.089962,-0.024609,-2.072100,38.983807,-23.333633,-4.388246,0.303434,1.832076,-0.229020,0.000000,0.000000,0.000000,0.000000,0.000000,0.000000
12637838.000000,-2.275603,-1.662632,1.344695,-1.472163,1.692285,1.409391,-0.588944,0.211830,-0.008392,1.110734,-0.086630,-0.117185,1.097441,-0.026081,-2.048296,39.059185,-23.286026,-4.535036,0.410551,1.773483,-0.155778,0.000000,0.000000,0.000000,0.000000,0.000000,0.000000
12637839.000000,-2.275393,-1.662631,1.345793,-1.472245,1.692174,1.410477,-0.588966,0.213653,-0.004715,1.109305,-0.081658,-0.117894,1.098861,-0.022973,-2.099871,39.011578,-23.258255,-4.586610,0.374845,1.702071,-0.188737,0.000000,0.000000,0.000000,0.000000,0.000000,0.000000
12637840.000000,-2.275178,-1.662631,1.346903,-1.472328,1.692063,1.411575,-0.588994,0.214653,-0.002112,1.104949,-0.079555,-0.114400,1.087111,-0.021964,-2.270464,38.960003,-23.210648,-4.562807,0.339139,1.670028,-0.188737,0.000000,0.000000,0.000000,0.000000,0.000000,0.000000
12637841.000000,-2.274964,-1.662638,1.348007,-1.472413,1.691950,1.412667,-0.589019,0.214678,-0.002746,1.104313,-0.079362,-0.118347,1.087480,-0.020757,-2.445025,39.011578,-22.988480,-4.463624,0.351041,1.565658,-0.196061,0.000000,0.000000,0.000000,0.000000,0.000000,0.000000
12637842.000000,-2.274754,-1.662637,1.349107,-1.472495,1.691834,1.413759,-0.589048,0.210059,-0.001280,1.100433,-0.081943,-0.120556,1.080734,-0.021783,-2.568011,38.983807,-23.016251,-4.364442,0.339139,1.649886,-0.155778,0.000000,0.000000,0.000000,0.000000,0.000000,0.000000
12637843.000000,-2.274547,-1.662634,1.350234,-1.472580,1.691732,1.414848,-0.589069,0.205901,0.000743,1.105025,-0.081397,-0.119204,1.074211,-0.018942,-2.643389,38.912395,-23.210648,-4.241457,0.243009,1.773483,-0.208878,0.000000,0.000000,0.000000,0.000000,0.000000,0.000000
12637844.000000,-2.274354,-1.662636,1.351357,-1.472647,1.691622,1.415938,-0.589098,0.204077,0.000997,1.110741,-0.078407,-0.114957,1.080090,-0.024468,-2.643389,38.888592,-23.579605,-4.340639,0.201810,1.735030,-0.175919,0.000000,0.000000,0.000000,0.000000,0.000000,0.000000
12637845.000000,-2.274155,-1.662630,1.352493,-1.472713,1.691515,1.417051,-0.589121,0.199588,0.002943,1.115130,-0.076038,-0.113775,1.081155,-0.023457,-2.643389,38.789410,-23.948563,-4.463624,0.195402,1.597701,-0.163102,0.000000,0.000000,0.000000,0.000000,0.000000,0.000000
12637846.000000,-2.273968,-1.662630,1.353652,-1.472779,1.691398,1.418140,-0.589139,0.199218,0.002488,1.128537,-0.072780,-0.114632,1.110729,-0.020521,-2.544207,38.765606,-24.511917,-4.535036,0.261320,1.591293,-0.208878,0.000000,0.000000,0.000000,0.000000,0.000000,0.000000
12637847.000000,-2.273778,-1.662631,1.354787,-1.472842,1.691275,1.419218,-0.589167,0.195958,0.001635,1.131751,-0.070383,-0.114766,1.103393,-0.021947,-2.520403,38.765606,-24.928482,-4.610414,0.320829,1.793624,-0.163102,0.000000,0.000000,0.000000,0.000000,0.000000,0.000000
12637848.000000,-2.273586,-1.662636,1.355923,-1.472915,1.691151,1.420288,-0.589187,0.195439,-0.000598,1.130332,-0.069257,-0.115557,1.089622,-0.019705,-2.544207,38.837017,-25.174454,-4.535036,0.398649,2.085677,-0.196061,0.000000,0.000000,0.000000,0.000000,0.000000,0.000000
12637849.000000,-2.273401,-1.662643,1.357024,-1.472986,1.691029,1.421354,-0.589214,0.194694,-0.002732,1.141910,-0.070334,-0.120340,1.076367,-0.020337,-2.544207,38.936199,-25.075272,-4.487428,0.458158,2.235824,-0.175919,0.000000,0.000000,0.000000,0.000000,0.000000,0.000000
12637850.000000,-2.273211,-1.662647,1.358150,-1.473056,1.690918,1.422450,-0.589236,0.194469,-0.002945,1.136100,-0.069356,-0.115502,1.072721,-0.020389,-2.619586,38.983807,-25.099075,-4.388246,0.422452,2.209274,-0.163102,0.000000,0.000000,0.000000,0.000000,0.000000,0.000000
12637851.000000,-2.273024,-1.662647,1.359272,-1.473129,1.690818,1.423557,-0.589250,0.193890,-0.004836,1.127846,-0.072531,-0.113361,1.077400,-0.018047,-2.667193,38.960003,-24.976089,-4.241457,0.285123,2.112228,-0.215287,0.000000,0.000000,0.000000,0.000000,0.000000,0.000000
12637852.000000,-2.272839,-1.662650,1.360378,-1.473200,1.690715,1.424655,-0.589278,0.192332,-0.003515,1.118853,-0.068398,-0.113182,1.083087,-0.020298,-2.766375,38.960003,-24.805496,-4.118471,0.171598,1.930038,-0.163102,0.000000,0.000000,0.000000,0.000000,0.000000,0.000000
12637853.000000,-2.272666,-1.662660,1.361487,-1.473276,1.690598,1.425749,-0.589295,0.186568,-0.004882,1.110947,-0.070879,-0.114619,1.078661,-0.018602,-2.718768,39.059185,-24.488113,-3.868532,0.219205,1.903487,-0.196061,0.000000,0.000000,0.000000,0.000000,0.000000,0.000000
12637854.000000,-2.272492,-1.662665,1.362598,-1.473341,1.690480,1.426811,-0.589319,0.183272,-0.006701,1.113285,-0.071095,-0.121620,1.072847,-0.020187,-2.690997,39.059185,-24.142960,-3.797121,0.315336,2.007858,-0.155778,0.000000,0.000000,0.000000,0.000000,0.000000,0.000000
12637855.000000,-2.272321,-1.662669,1.363699,-1.473400,1.690367,1.427890,-0.589334,0.179415,-0.004864,1.110254,-0.066441,-0.118784,1.074318,-0.018264,-2.619586,39.059185,-24.019974,-3.820925,0.344633,2.104903,-0.196061,0.000000,0.000000,0.000000,0.000000,0.000000,0.000000
12637856.000000,-2.272157,-1.662670,1.364808,-1.473454,1.690260,1.428996,-0.589352,0.171148,-0.001776,1.101112,-0.062075,-0.115792,1.083228,-0.017240,-2.445025,38.983807,-23.873184,-3.892336,0.351041,2.001449,-0.229020,0.000000,0.000000,0.000000,0.000000,0.000000,0.000000
12637857.000000,-2.272008,-1.662674,1.365921,-1.473503,1.690149,1.430093,-0.589372,0.163780,-0.004125,1.113016,-0.057785,-0.119131,1.092130,-0.018579,-2.199053,38.960003,-23.996170,-4.019289,0.362943,1.832076,-0.208878,0.000000,0.000000,0.000000,0.000000,0.000000,0.000000
12637858.000000,-2.271852,-1.662680,1.367047,-1.473551,1.690043,1.431199,-0.589389,0.161133,-0.006495,1.112546,-0.055425,-0.110150,1.090629,-0.018341,-2.072100,38.960003,-24.142960,-4.118471,0.332731,1.670028,-0.215287,0.000000,0.000000,0.000000,0.000000,0.000000,0.000000
12637859.000000,-2.271694,-1.662680,1.368174,-1.473605,1.689934,1.432274,-0.589412,0.158541,-0.002708,1.106974,-0.054509,-0.108290,1.100822,-0.016239,-2.024493,38.864788,-24.265945,-4.066896,0.297025,1.727706,-0.149369,0.000000,0.000000,0.000000,0.000000,0.000000,0.000000
12637860.000000,-2.271543,-1.662683,1.369274,-1.473657,1.689818,1.433361,-0.589424,0.158821,-0.004370,1.111376,-0.056365,-0.109588,1.087144,-0.014504,-1.949114,38.813213,-24.313553,-4.019289,0.332731,1.890670,-0.208878,0.000000,0.000000,0.000000,0.000000,0.000000,0.000000
12637861.000000,-2.271390,-1.662696,1.370373,-1.473707,1.689710,1.434461,-0.589444,0.156238,-0.005850,1.104363,-0.054956,-0.109387,1.090318,-0.016990,-1.901507,38.912395,-24.166763,-3.967714,0.344633,1.949264,-0.169511,0.000000,0.000000,0.000000,0.000000,0.000000,0.000000
12637862.000000,-2.271238,-1.662698,1.371468,-1.473759,1.689609,1.435553,-0.589459,0.155400,-0.005310,1.122653,-0.054921,-0.103372,1.091968,-0.012903,-1.901507,38.813213,-24.119156,-3.868532,0.351041,1.909896,-0.163102,0.000000,0.000000,0.000000,0.000000,0.000000,0.000000
12637865.000000,-2.270807,-1.662700,1.374748,-1.473894,1.689307,1.438851,-0.589502,0.147467,0.000319,1.100326,-0.051174,-0.093554,1.115944,-0.014989,-1.651568,38.595013,-23.579605,-3.797121,0.320829,1.695663,-0.208878,0.000000,0.000000,0.000000,0.000000,0.000000,0.000000
12637866.000000,-2.270666,-1.662700,1.375846,-1.473940,1.689205,1.439947,-0.589520,0.144403,0.001158,1.094964,-0.049128,-0.093445,1.109516,-0.012538,-1.580157,38.543438,-23.480423,-3.697939,0.356534,1.767074,-0.175919,0.000000,0.000000,0.000000,0.000000,0.000000,0.000000
12637867.000000,-2.270533,-1.662704,1.376967,-1.473986,1.689104,1.441018,-0.589532,0.137139,0.000576,1.118967,-0.047318,-0.096891,1.094397,-0.008370,-1.453204,38.543438,-23.702591,-3.598757,0.369352,1.916305,-0.202470,0.000000,0.000000,0.000000,0.000000,0.000000,0.000000
12637868.000000,-2.270404,-1.662702,1.378086,-1.474024,1.689016,1.442119,-0.589547,0.131670,0.001351,1.120223,-0.043615,-0.092169,1.083780,-0.011269,-1.330218,38.495831,-24.043777,-3.598757,0.315336,1.909896,-0.196061,0.000000,0.000000,0.000000,0.000000,0.000000,0.000000
12637869.000000,-2.270280,-1.662702,1.379217,-1.474059,1.688923,1.443234,-0.589562,0.128617,0.001347,1.122139,-0.040449,-0.094355,1.090009,-0.013436,-1.108050,38.472027,-24.488113,-3.622560,0.267728,1.819259,-0.188737,0.000000,0.000000,0.000000,0.000000,0.000000,0.000000
12637870.000000,-2.270157,-1.662703,1.380334,-1.474091,1.688823,1.444321,-0.589579,0.128668,0.000259,1.124467,-0.035419,-0.096421,1.086666,-0.015769,-0.834307,38.495831,-24.952286,-3.646364,0.237516,1.793624,-0.163102,0.000000,0.000000,0.000000,0.000000,0.000000,0.000000
12637871.000000,-2.270034,-1.662709,1.381459,-1.474124,1.688722,1.445410,-0.589592,0.123553,-0.002210,1.123690,-0.036183,-0.095470,1.081801,-0.015929,-0.612139,38.595013,-25.198257,-3.598757,0.261320,1.890670,-0.175919,0.000000,0.000000,0.000000,0.000000,0.000000,0.000000
12637872.000000,-2.269909,-1.662711,1.382579,-1.474161,1.688612,1.446476,-0.589604,0.122996,-0.002076,1.119868,-0.037278,-0.096694,1.075064,-0.015639,-0.512957,38.618816,-25.249832,-3.523378,0.356534,2.014266,-0.202470,0.000000,0.000000,0.000000,0.000000,0.000000,0.000000
12637873.000000,-2.269782,-1.662718,1.383683,-1.474201,1.688509,1.447556,-0.589620,0.123731,-0.003739,1.116261,-0.037070,-0.100962,1.075713,-0.017306,-0.489153,38.717999,-25.297440,-3.376589,0.405057,2.118636,-0.182328,0.000000,0.000000,0.000000,0.000000,0.000000,0.000000
12637874.000000,-2.269656,-1.662725,1.384792,-1.474241,1.688409,1.448657,-0.589633,0.122349,-0.004189,1.107949,-0.039003,-0.102318,1.083759,-0.016919,-0.512957,38.789410,-25.174454,-3.249635,0.410551,2.014266,-0.202470,0.000000,0.000000,0.000000,0.000000,0.000000,0.000000
12637875.000000,-2.269536,-1.662729,1.385878,-1.474280,1.688315,1.449748,-0.589647,0.121219,-0.003926,1.101746,-0.036610,-0.102244,1.094682,-0.013724,-0.540728,38.837017,-24.928482,-3.154421,0.386747,1.786300,-0.175919,0.000000,0.000000,0.000000,0.000000,0.000000,0.000000
12637876.000000,-2.269416,-1.662734,1.386982,-1.474318,1.688217,1.450835,-0.589657,0.119938,-0.004395,1.099217,-0.038445,-0.092726,1.084861,-0.013992,-0.540728,38.912395,-24.734085,-3.027467,0.369352,1.702071,-0.202470,0.000000,0.000000,0.000000,0.000000,0.000000,0.000000
12637877.000000,-2.269299,-1.662742,1.388080,-1.474356,1.688119,1.451899,-0.589671,0.118485,-0.004612,1.094540,-0.036880,-0.090519,1.092681,-0.010544,-0.540728,38.983807,-24.388931,-2.904482,0.351041,1.741439,-0.202470,0.000000,0.000000,0.000000,0.000000,0.000000,0.000000
12637878.000000,-2.269189,-1.662748,1.389167,-1.474390,1.688019,1.452974,-0.589688,0.115772,-0.004846,1.090690,-0.037351,-0.095510,1.082687,-0.014596,-0.489153,39.059185,-24.190567,-2.833071,0.374845,1.890670,-0.149369,0.000000,0.000000,0.000000,0.000000,0.000000,0.000000
12637879.000000,-2.269077,-1.662753,1.390258,-1.474417,1.687926,1.454068,-0.589690,0.115121,-0.004351,1.084485,-0.032685,-0.092178,1.083987,-0.008126,-0.489153,39.106792,-23.920792,-2.856874,0.344633,1.930038,-0.221696,0.000000,0.000000,0.000000,0.000000,0.000000,0.000000
12637880.000000,-2.268972,-1.662756,1.391349,-1.474439,1.687820,1.455174,-0.589707,0.112671,-0.002905,1.087877,-0.028160,-0.096923,1.090482,-0.012382,-0.389971,39.106792,-23.873184,-2.928285,0.369352,1.689254,-0.182328,0.000000,0.000000,0.000000,0.000000,0.000000,0.000000
12637881.000000,-2.268867,-1.662754,1.392475,-1.474452,1.687732,1.456286,-0.589716,0.108560,-0.000270,1.097306,-0.023282,-0.097274,1.094585,-0.013175,-0.342364,39.035381,-24.142960,-3.079042,0.308927,1.507064,-0.202470,0.000000,0.000000,0.000000,0.000000,0.000000,0.000000
12637882.000000,-2.268775,-1.662747,1.393591,-1.474466,1.687636,1.457401,-0.589728,0.106210,0.003251,1.098811,-0.021274,-0.099170,1.122941,-0.014379,-0.215411,38.888592,-24.265945,-3.178224,0.291532,1.389877,-0.208878,0.000000,0.000000,0.000000,0.000000,0.000000,0.000000
12637883.000000,-2.268670,-1.662752,1.394683,-1.474480,1.687524,1.458484,-0.589745,0.106185,-0.001800,1.095232,-0.020888,-0.105121,1.116607,-0.017545,-0.243182,38.912395,-24.265945,-3.225832,0.393156,1.448470,-0.155778,0.000000,0.000000,0.000000,0.000000,0.000000,0.000000
12637884.000000,-2.268568,-1.662762,1.395777,-1.474497,1.687417,1.459560,-0.589748,0.105055,-0.006466,1.090793,-0.020559,-0.108713,1.102102,-0.015414,-0.243182,38.983807,-24.166763,-3.154421,0.458158,1.708480,-0.215287,0.000000,0.000000,0.000000,0.000000,0.000000,0.000000
12637885.000000,-2.268468,-1.662770,1.396878,-1.474506,1.687316,1.460623,-0.589760,0.104826,-0.009287,1.090184,-0.014942,-0.102438,1.085778,-0.016836,-0.266986,39.035381,-24.119156,-3.178224,0.458158,1.955673,-0.202470,0.000000,0.000000,0.000000,0.000000,0.000000,0.000000
12637886.000000,-2.268368,-1.662768,1.397959,-1.474508,1.687225,1.461728,-0.589769,0.104576,-0.005069,1.086611,-0.012638,-0.094756,1.079163,-0.017347,-0.314593,38.960003,-24.043777,-3.249635,0.369352,1.949264,-0.202470,0.000000,0.000000,0.000000,0.000000,0.000000,0.000000
12637887.000000,-2.268265,-1.662764,1.399044,-1.474517,1.687142,1.462858,-0.589777,0.105230,-0.005512,1.083132,-0.009684,-0.089146,1.084248,-0.012314,-0.389971,38.888592,-23.873184,-3.249635,0.267728,1.773483,-0.221696,0.000000,0.000000,0.000000,0.000000,0.000000,0.000000
12637888.000000,-2.268165,-1.662763,1.400117,-1.474521,1.687051,1.463963,-0.589788,0.105786,-0.003106,1.083804,-0.009078,-0.087168,1.091946,-0.013573,-0.465350,38.837017,-23.726395,-3.301210,0.231107,1.624252,-0.235429,0.000000,0.000000,0.000000,0.000000,0.000000,0.000000
12637889.000000,-2.268058,-1.662759,1.401218,-1.474533,1.686959,1.465060,-0.589803,0.108137,-0.000321,1.082311,-0.008764,-0.088969,1.087450,-0.017668,-0.635943,38.741802,-23.801773,-3.225832,0.255826,1.662704,-0.163102,0.000000,0.000000,0.000000,0.000000,0.000000,0.000000
12637890.000000,-2.267959,-1.662755,1.402319,-1.474542,1.686861,1.466128,-0.589812,0.104952,0.001190,1.085522,-0.008874,-0.090664,1.080713,-0.013087,-0.735125,38.666424,-23.801773,-3.126650,0.320829,1.851302,-0.163102,0.000000,0.000000,0.000000,0.000000,0.000000,0.000000
12637891.000000,-2.267863,-1.662749,1.403416,-1.474545,1.686762,1.467222,-0.589817,0.101401,0.002752,1.093923,-0.007006,-0.092253,1.080197,-0.008010,-0.786700,38.571209,-24.043777,-3.102846,0.393156,1.923629,-0.208878,0.000000,0.000000,0.000000,0.000000,0.000000,0.000000
12637892.000000,-2.267770,-1.662744,1.404545,-1.474543,1.686669,1.468331,-0.589833,0.100077,0.003396,1.098611,-0.004514,-0.096593,1.085827,-0.008280,-0.762896,38.495831,-24.488113,-3.126650,0.416959,1.858627,-0.149369,0.000000,0.000000,0.000000,0.000000,0.000000,0.000000
