chaoyuefei/paper-gmrm-data/robot_logs/s2_dq_gmrm_xz_min_0.50_log_20260314_174327.csv
# time_ms,q_0,q_1,q_2,q_3,q_4,q_5,q_6,dq_0,dq_1,dq_2,dq_3,dq_4,dq_5,dq_6,tau_J_0,tau_J_1,tau_J_2,tau_J_3,tau_J_4,tau_J_5,tau_J_6,O_dP_EE_c_0,O_dP_EE_c_1,O_dP_EE_c_2,O_dP_EE_c_3,O_dP_EE_c_4,O_dP_EE_c_5
12869790.000000,-2.415659,-1.662599,1.042887,-1.356084,1.795469,1.081426,-0.548611,0.000979,0.000929,-0.000208,-0.000058,-0.000001,0.000138,-0.001432,0.006757,41.530804,-21.052444,-5.721254,0.805143,1.312057,0.061202,0.000000,0.000000,0.000000,0.000000,0.000000,0.000000
12869791.000000,-2.415663,-1.662599,1.042889,-1.356085,1.795469,1.081424,-0.548608,-0.000461,0.000619,0.000418,-0.000039,-0.000001,-0.000383,0.000029,0.054365,41.530804,-21.076248,-5.721254,0.805143,1.324874,0.034652,0.000000,0.000000,0.000000,0.000000,0.000000,0.000000
12869792.000000,-2.415664,-1.662599,1.042891,-1.356083,1.795468,1.081425,-0.548610,-0.000864,0.000413,0.000836,0.000624,-0.000238,-0.000018,-0.000727,0.078168,41.530804,-21.100052,-5.749025,0.811552,1.318465,0.054794,0.000000,0.000000,0.000000,0.000000,0.000000,0.000000
12869793.000000,-2.415661,-1.662599,1.042887,-1.356083,1.795469,1.081424,-0.548610,0.000537,0.000832,-0.000557,-0.000234,0.000079,-0.000249,-0.000484,0.030561,41.507000,-21.052444,-5.721254,0.805143,1.324874,0.054794,0.000000,0.000000,0.000000,0.000000,0.000000,0.000000
12869794.000000,-2.415658,-1.662602,1.042890,-1.356080,1.795468,1.081424,-0.548615,0.005870,-0.001965,-0.000371,-0.000713,-0.008645,0.008121,-0.009022,0.328107,41.483196,-21.052444,-5.697450,0.786832,1.357833,0.034652,0.000000,0.000000,0.000000,0.000000,0.000000,0.000000
12869795.000000,-2.415649,-1.662607,1.042891,-1.356079,1.795467,1.081418,-0.548623,0.015448,-0.003198,0.001719,0.001753,-0.003018,0.004162,-0.009402,1.343732,41.284832,-21.000870,-5.526857,0.691617,1.539108,-0.023942,0.000000,0.000000,0.000000,0.000000,0.000000,0.000000
12869796.000000,-2.415623,-1.662608,1.042903,-1.356077,1.795460,1.081417,-0.548648,0.020126,-0.002919,0.004549,0.001558,-0.004217,0.000264,-0.014964,2.950483,40.872234,-21.000870,-5.253114,0.608304,1.760665,-0.070634,0.000000,0.000000,0.000000,0.000000,0.000000,0.000000
12869797.000000,-2.415576,-1.662609,1.042919,-1.356085,1.795442,1.081433,-0.548693,0.026796,-0.004629,0.011898,-0.004159,-0.012060,0.005885,-0.026609,4.807172,40.380291,-20.953262,-4.856386,0.584501,1.890670,-0.044083,0.000000,0.000000,0.000000,0.000000,0.000000,0.000000
12869798.000000,-2.415515,-1.662605,1.042940,-1.356097,1.795412,1.081484,-0.548749,0.035262,-0.001157,0.016230,-0.006734,-0.019928,0.022865,-0.037525,6.739240,39.793133,-20.854080,-4.511232,0.613798,1.806442,-0.077042,0.000000,0.000000,0.000000,0.000000,0.000000,0.000000
12869799.000000,-2.415430,-1.662606,1.042969,-1.356124,1.795370,1.081558,-0.548827,0.047647,0.001370,0.020331,-0.013352,-0.031863,0.040097,-0.053339,8.349957,39.328960,-20.782669,-4.090700,0.679716,1.584884,-0.037675,0.000000,0.000000,0.000000,0.000000,0.000000,0.000000
12869800.000000,-2.415329,-1.662603,1.043011,-1.356163,1.795320,1.081657,-0.548916,0.063014,0.004369,0.027745,-0.023583,-0.038875,0.060298,-0.065269,9.833722,38.813213,-20.754898,-3.697939,0.709928,1.389877,-0.116410,0.000000,0.000000,0.000000,0.000000,0.000000,0.000000
12869801.000000,-2.415212,-1.662600,1.043055,-1.356212,1.795252,1.081761,-0.549042,0.082835,0.004879,0.034512,-0.032123,-0.048436,0.075416,-0.084515,11.047711,38.372845,-20.659683,-3.400392,0.727323,1.318465,-0.056901,0.000000,0.000000,0.000000,0.000000,0.000000,0.000000
12869802.000000,-2.415074,-1.662597,1.043108,-1.356277,1.795172,1.081887,-0.549177,0.098148,0.003798,0.040008,-0.042953,-0.057672,0.097868,-0.099818,12.011762,37.984051,-20.560501,-3.055238,0.673307,1.331283,-0.089860,0.000000,0.000000,0.000000,0.000000,0.000000,0.000000
12869803.000000,-2.414934,-1.662588,1.043174,-1.356345,1.795079,1.082038,-0.549343,0.107717,0.006501,0.049627,-0.050712,-0.068389,0.115712,-0.121075,13.003583,37.591290,-20.437515,-2.856874,0.584501,1.448470,-0.103593,0.000000,0.000000,0.000000,0.000000,0.000000,0.000000
12869804.000000,-2.414784,-1.662575,1.043260,-1.356426,1.794968,1.082211,-0.549540,0.123514,0.008829,0.061030,-0.062791,-0.085240,0.129648,-0.149812,13.892255,37.174725,-20.485123,-2.658510,0.476469,1.565658,-0.044083,0.000000,0.000000,0.000000,0.000000,0.000000,0.000000
12869805.000000,-2.414617,-1.662562,1.043359,-1.356523,1.794838,1.082416,-0.549755,0.138651,0.009538,0.076204,-0.074834,-0.097416,0.152822,-0.166122,14.610333,36.805767,-20.560501,-2.483949,0.356534,1.597701,-0.116410,0.000000,0.000000,0.000000,0.000000,0.000000,0.000000
12869806.000000,-2.414431,-1.662544,1.043475,-1.356634,1.794682,1.082652,-0.550012,0.156255,0.013351,0.088981,-0.085387,-0.115031,0.185150,-0.197803,15.181623,36.440777,-20.707291,-2.384767,0.320829,1.572067,-0.056901,0.000000,0.000000,0.000000,0.000000,0.000000,0.000000
12869807.000000,-2.414227,-1.662522,1.043604,-1.356767,1.794498,1.082917,-0.550281,0.174347,0.017486,0.101254,-0.097643,-0.135109,0.212768,-0.218089,15.625958,36.024212,-20.854080,-2.237978,0.351041,1.494247,-0.083451,0.000000,0.000000,0.000000,0.000000,0.000000,0.000000
12869808.000000,-2.414000,-1.662505,1.043746,-1.356918,1.794282,1.083212,-0.550563,0.189816,0.015579,0.113247,-0.116372,-0.165836,0.237560,-0.234110,15.947309,35.683025,-20.977066,-2.091188,0.428861,1.416427,-0.116410,0.000000,0.000000,0.000000,0.000000,0.000000,0.000000
12869809.000000,-2.413763,-1.662485,1.043901,-1.357085,1.794044,1.083528,-0.550855,0.210142,0.014362,0.124749,-0.131685,-0.194562,0.259111,-0.259727,16.169477,35.337872,-21.100052,-2.015810,0.535978,1.389877,-0.097184,0.000000,0.000000,0.000000,0.000000,0.000000,0.000000
12869810.000000,-2.413505,-1.662462,1.044060,-1.357260,1.793790,1.083861,-0.551156,0.224212,0.016046,0.134832,-0.149171,-0.212956,0.281934,-0.270976,16.344038,35.020489,-21.123856,-2.063417,0.589994,1.429244,-0.070634,0.000000,0.000000,0.000000,0.000000,0.000000,0.000000
12869811.000000,-2.413234,-1.662449,1.044234,-1.357453,1.793533,1.084215,-0.551460,0.236888,0.013416,0.145399,-0.162376,-0.231951,0.310039,-0.278519,16.467024,34.873699,-21.147659,-2.039613,0.554288,1.448470,-0.064225,0.000000,0.000000,0.000000,0.000000,0.000000,0.000000
12869812.000000,-2.412954,-1.662434,1.044418,-1.357661,1.793256,1.084590,-0.551748,0.254590,0.015613,0.156576,-0.177647,-0.242444,0.337288,-0.277586,16.617781,34.703106,-21.175430,-2.039613,0.500272,1.552840,-0.116410,0.000000,0.000000,0.000000,0.000000,0.000000,0.000000
12869813.000000,-2.412648,-1.662427,1.044614,-1.357886,1.792959,1.084982,-0.552056,0.271989,0.013418,0.166991,-0.193267,-0.257009,0.351510,-0.285241,16.689192,34.703106,-21.147659,-2.015810,0.374845,1.689254,-0.064225,0.000000,0.000000,0.000000,0.000000,0.000000,0.000000
12869814.000000,-2.412321,-1.662418,1.044817,-1.358142,1.792653,1.085396,-0.552353,0.293739,0.012755,0.177171,-0.211580,-0.275184,0.362051,-0.287714,16.617781,34.679302,-21.100052,-1.817445,0.297025,1.741439,-0.110001,0.000000,0.000000,0.000000,0.000000,0.000000,0.000000
12869815.000000,-2.411984,-1.662412,1.045029,-1.358410,1.792322,1.085855,-0.552647,0.303973,0.009531,0.188477,-0.227543,-0.290641,0.387568,-0.286092,16.566206,34.651531,-21.052444,-1.670656,0.285123,1.689254,-0.122819,0.000000,0.000000,0.000000,0.000000,0.000000,0.000000
12869816.000000,-2.411625,-1.662410,1.045252,-1.358694,1.791975,1.086340,-0.552948,0.318999,0.005989,0.202115,-0.245858,-0.314077,0.412664,-0.287309,16.467024,34.679302,-20.929459,-1.519899,0.315336,1.591293,-0.056901,0.000000,0.000000,0.000000,0.000000,0.000000,0.000000
12869817.000000,-2.411259,-1.662407,1.045492,-1.358994,1.791600,1.086841,-0.553227,0.334767,0.004205,0.210545,-0.261851,-0.332363,0.445731,-0.283751,16.419416,34.679302,-20.877884,-1.373109,0.386747,1.467696,-0.116410,0.000000,0.000000,0.000000,0.000000,0.000000,0.000000
12869818.000000,-2.410890,-1.662404,1.045737,-1.359289,1.791215,1.087361,-0.553515,0.343500,0.002963,0.222638,-0.273650,-0.344118,0.466256,-0.289599,16.617781,34.679302,-20.806473,-1.396913,0.422452,1.435653,-0.083451,0.000000,0.000000,0.000000,0.000000,0.000000,0.000000
12869819.000000,-2.410505,-1.662402,1.045988,-1.359613,1.790814,1.087895,-0.553800,0.363643,0.001538,0.233846,-0.289981,-0.359807,0.486415,-0.288220,16.716963,34.703106,-20.707291,-1.373109,0.494779,1.435653,-0.070634,0.000000,0.000000,0.000000,0.000000,0.000000,0.000000
12869820.000000,-2.410107,-1.662406,1.046248,-1.359944,1.790394,1.088455,-0.554064,0.372678,-0.000555,0.247330,-0.296571,-0.373665,0.507519,-0.281040,16.887556,34.774517,-20.608109,-1.472292,0.518583,1.500655,-0.122819,0.000000,0.000000,0.000000,0.000000,0.000000,0.000000
12869821.000000,-2.409701,-1.662404,1.046519,-1.360294,1.789964,1.089023,-0.554341,0.384714,0.000254,0.256837,-0.314804,-0.391982,0.524784,-0.278108,17.109724,34.750713,-20.536697,-1.420717,0.482877,1.572067,-0.077042,0.000000,0.000000,0.000000,0.000000,0.000000,0.000000
12869822.000000,-2.409283,-1.662399,1.046806,-1.360662,1.789531,1.089612,-0.554608,0.395650,0.001890,0.264917,-0.328362,-0.410133,0.540591,-0.281001,17.284285,34.679302,-20.512894,-1.321535,0.434354,1.572067,-0.110001,0.000000,0.000000,0.000000,0.000000,0.000000,0.000000
12869823.000000,-2.408843,-1.662395,1.047095,-1.361038,1.789068,1.090229,-0.554879,0.406040,0.001948,0.269522,-0.346449,-0.418797,0.563381,-0.282405,17.458845,34.651531,-20.437515,-1.198549,0.410551,1.487838,-0.083451,0.000000,0.000000,0.000000,0.000000,0.000000,0.000000
12869824.000000,-2.408398,-1.662394,1.047399,-1.361439,1.788604,1.090874,-0.555153,0.415966,0.001327,0.281296,-0.361362,-0.431779,0.596592,-0.278584,17.728621,34.651531,-20.437515,-1.000185,0.398649,1.396285,-0.064225,0.000000,0.000000,0.000000,0.000000,0.000000,0.000000
12869825.000000,-2.407937,-1.662390,1.047709,-1.361854,1.788107,1.091516,-0.555410,0.432148,0.001463,0.288254,-0.381402,-0.450931,0.610695,-0.273796,17.954756,34.627728,-20.362137,-0.805788,0.398649,1.312057,-0.089860,0.000000,0.000000,0.000000,0.000000,0.000000,0.000000
12869826.000000,-2.407455,-1.662384,1.048024,-1.362281,1.787595,1.092190,-0.555668,0.448646,0.002662,0.299100,-0.393180,-0.466495,0.632870,-0.269443,18.149153,34.556316,-20.362137,-0.607423,0.434354,1.285506,-0.130143,0.000000,0.000000,0.000000,0.000000,0.000000,0.000000
12869827.000000,-2.406969,-1.662377,1.048350,-1.362719,1.787077,1.092873,-0.555926,0.461464,0.003550,0.307904,-0.409305,-0.487884,0.654291,-0.271801,18.375288,34.480938,-20.314529,-0.456667,0.470060,1.266280,-0.122819,0.000000,0.000000,0.000000,0.000000,0.000000,0.000000
12869828.000000,-2.406473,-1.662372,1.048686,-1.363168,1.786538,1.093579,-0.556183,0.470134,0.002932,0.315943,-0.429230,-0.502742,0.663400,-0.265650,18.720442,34.457134,-20.266922,-0.309877,0.500272,1.299239,-0.103593,0.000000,0.000000,0.000000,0.000000,0.000000,0.000000
12869829.000000,-2.405956,-1.662360,1.049042,-1.363635,1.785993,1.094306,-0.556432,0.482910,0.004282,0.326492,-0.444770,-0.525890,0.684161,-0.258486,18.994184,34.357952,-20.314529,-0.262270,0.542386,1.370651,-0.149369,0.000000,0.000000,0.000000,0.000000,0.000000,0.000000
12869830.000000,-2.405447,-1.662353,1.049406,-1.364111,1.785425,1.095038,-0.556681,0.489704,0.007336,0.340752,-0.448570,-0.534944,0.695517,-0.256475,19.414717,34.310345,-20.314529,-0.262270,0.530485,1.422836,-0.116410,0.000000,0.000000,0.000000,0.000000,0.000000,0.000000
12869831.000000,-2.404911,-1.662344,1.049783,-1.364604,1.784845,1.095808,-0.556935,0.502951,0.009878,0.356146,-0.461520,-0.546810,0.713510,-0.250021,19.712263,34.238934,-20.437515,-0.135317,0.530485,1.448470,-0.083451,0.000000,0.000000,0.000000,0.000000,0.000000,0.000000
12869832.000000,-2.404356,-1.662337,1.050174,-1.365116,1.784252,1.096590,-0.557177,0.526641,0.007700,0.370461,-0.475080,-0.560023,0.736192,-0.246177,20.005842,34.211163,-20.485123,-0.063905,0.506681,1.389877,-0.155778,0.000000,0.000000,0.000000,0.000000,0.000000,0.000000
12869833.000000,-2.403793,-1.662326,1.050581,-1.365645,1.783649,1.097398,-0.557428,0.537862,0.007153,0.382329,-0.487473,-0.568650,0.752472,-0.247678,20.180403,34.139751,-20.659683,0.059080,0.464567,1.331283,-0.116410,0.000000,0.000000,0.000000,0.000000,0.000000,0.000000
12869834.000000,-2.403212,-1.662318,1.051003,-1.366179,1.783019,1.098245,-0.557677,0.549844,0.005588,0.394606,-0.500720,-0.586641,0.776255,-0.247869,20.430342,34.115948,-20.806473,0.209837,0.452665,1.234237,-0.077042,0.000000,0.000000,0.000000,0.000000,0.000000,0.000000
12869835.000000,-2.402635,-1.662301,1.051433,-1.366724,1.782398,1.099095,-0.557908,0.562110,0.006798,0.403291,-0.515045,-0.597990,0.801371,-0.244630,20.823103,33.992962,-20.977066,0.209837,0.386747,1.155502,-0.142960,0.000000,0.000000,0.000000,0.000000,0.000000,0.000000
12869836.000000,-2.402029,-1.662289,1.051869,-1.367276,1.781742,1.099960,-0.558153,0.576266,0.009673,0.417343,-0.526999,-0.611766,0.813782,-0.240944,21.096846,33.917583,-21.076248,0.209837,0.374845,1.214095,-0.122819,0.000000,0.000000,0.000000,0.000000,0.000000,0.000000
12869837.000000,-2.401420,-1.662273,1.052328,-1.367837,1.781082,1.100835,-0.558394,0.599915,0.009056,0.429587,-0.536684,-0.629531,0.838036,-0.237549,21.394392,33.822369,-21.270645,0.086851,0.398649,1.305648,-0.116410,0.000000,0.000000,0.000000,0.000000,0.000000,0.000000
12869838.000000,-2.400788,-1.662262,1.052789,-1.368420,1.780389,1.101746,-0.558630,0.608774,0.010701,0.444775,-0.552528,-0.643018,0.859749,-0.239902,21.668135,33.770794,-21.417435,0.035277,0.440763,1.305648,-0.122819,0.000000,0.000000,0.000000,0.000000,0.000000,0.000000
12869839.000000,-2.400133,-1.662250,1.053264,-1.369003,1.779690,1.102686,-0.558868,0.622183,0.012052,0.455363,-0.558794,-0.660837,0.890652,-0.236993,21.862532,33.723186,-21.540421,0.035277,0.440763,1.305648,-0.097184,0.000000,0.000000,0.000000,0.000000,0.000000,0.000000
12869840.000000,-2.399461,-1.662230,1.053757,-1.369611,1.778983,1.103627,-0.559094,0.642745,0.015412,0.467512,-0.570802,-0.676421,0.905849,-0.240112,21.937910,33.576397,-21.738785,0.134459,0.620206,1.266280,-0.155778,0.000000,0.000000,0.000000,0.000000,0.000000,0.000000
12869841.000000,-2.398765,-1.662223,1.054245,-1.370232,1.778268,1.104601,-0.559334,0.659326,0.013756,0.475366,-0.586734,-0.683821,0.931191,-0.238808,22.037092,33.600201,-21.861771,0.356627,0.733732,1.234237,-0.103593,0.000000,0.000000,0.000000,0.000000,0.000000,0.000000
12869842.000000,-2.398050,-1.662215,1.054747,-1.370854,1.777568,1.105588,-0.559564,0.679164,0.009452,0.485082,-0.598700,-0.683433,0.966502,-0.239023,22.160078,33.624004,-22.008560,0.455809,0.900358,1.214095,-0.136552,0.000000,0.000000,0.000000,0.000000,0.000000,0.000000
12869843.000000,-2.397344,-1.662212,1.055257,-1.371490,1.776867,1.106602,-0.559793,0.683711,0.007870,0.490247,-0.604812,-0.683237,0.983425,-0.239571,22.410017,33.723186,-22.056168,0.578795,0.966276,1.227828,-0.163102,0.000000,0.000000,0.000000,0.000000,0.000000,0.000000
12869844.000000,-2.396619,-1.662205,1.055776,-1.372130,1.776174,1.107643,-0.560031,0.680842,0.007501,0.506565,-0.617934,-0.681860,1.006479,-0.238715,22.211653,33.794598,-22.056168,0.507384,0.984586,1.318465,-0.122819,0.000000,0.000000,0.000000,0.000000,0.000000,0.000000
12869845.000000,-2.395876,-1.662199,1.056311,-1.372796,1.775488,1.108676,-0.560252,0.693791,0.005454,0.517722,-0.636012,-0.683306,1.023166,-0.234267,20.874678,33.941387,-21.810196,0.059080,0.936979,1.474105,-0.163102,0.000000,0.000000,0.000000,0.000000,0.000000,0.000000
12869846.000000,-2.395159,-1.662193,1.056868,-1.373470,1.774791,1.109745,-0.560481,0.696400,0.001074,0.531735,-0.667409,-0.688007,1.035855,-0.233685,18.768049,34.088177,-21.417435,-0.778017,0.888456,1.624252,-0.122819,0.000000,0.000000,0.000000,0.000000,0.000000,0.000000
12869847.000000,-2.394433,-1.662187,1.057460,-1.374167,1.774113,1.110844,-0.560704,0.706193,0.002484,0.553504,-0.673010,-0.694687,1.045836,-0.231358,16.046492,34.040569,-20.854080,-1.670656,0.739225,1.656295,-0.122819,0.000000,0.000000,0.000000,0.000000,0.000000,0.000000
12869848.000000,-2.393704,-1.662184,1.058065,-1.374894,1.773422,1.111940,-0.560919,0.719876,0.002909,0.572049,-0.683134,-0.691121,1.057013,-0.224691,13.126569,33.869976,-20.044754,-2.360964,0.613798,1.695663,-0.142960,0.000000,0.000000,0.000000,0.000000,0.000000,0.000000
12869849.000000,-2.392978,-1.662185,1.058693,-1.375620,1.772756,1.113066,-0.561146,0.726011,0.001950,0.589969,-0.694331,-0.674382,1.073118,-0.221727,10.401044,33.600201,-19.283035,-2.805300,0.381254,1.735030,-0.103593,0.000000,0.000000,0.000000,0.000000,0.000000,0.000000
12869850.000000,-2.392264,-1.662191,1.059342,-1.376345,1.772098,1.114207,-0.561359,0.726956,0.002026,0.600455,-0.704632,-0.664160,1.097018,-0.216482,7.953229,33.405804,-18.497513,-3.225832,0.171598,1.637069,-0.149369,0.000000,0.000000,0.000000,0.000000,0.000000,0.000000
12869851.000000,-2.391535,-1.662204,1.060001,-1.377069,1.771443,1.115384,-0.561569,0.728784,0.000429,0.617434,-0.705832,-0.649942,1.120003,-0.214336,5.723615,33.282818,-17.811172,-3.547182,0.058073,1.513473,-0.149369,0.000000,0.000000,0.000000,0.000000,0.000000,0.000000
12869852.000000,-2.390817,-1.662221,1.060669,-1.377773,1.770784,1.116582,-0.561794,0.726322,-0.002538,0.629767,-0.702150,-0.647758,1.140325,-0.219441,3.918500,33.235210,-17.101028,-3.797121,0.010465,1.416427,-0.077042,0.000000,0.000000,0.000000,0.000000,0.000000,0.000000
12869853.000000,-2.390099,-1.662243,1.061337,-1.378483,1.770146,1.117780,-0.562006,0.726288,-0.010062,0.635460,-0.693199,-0.641071,1.162636,-0.219627,2.232404,33.282818,-16.386917,-3.967714,0.112089,1.383468,-0.116410,0.000000,0.000000,0.000000,0.000000,0.000000,0.000000
12869854.000000,-2.389385,-1.662276,1.062011,-1.379182,1.769498,1.118998,-0.562222,0.717040,-0.016987,0.645354,-0.694562,-0.640514,1.171015,-0.220062,0.923200,33.405804,-15.894974,-3.967714,0.267728,1.481429,-0.149369,0.000000,0.000000,0.000000,0.000000,0.000000,0.000000
12869855.000000,-2.388669,-1.662313,1.062687,-1.379884,1.768858,1.120215,-0.562446,0.718913,-0.025528,0.652355,-0.693700,-0.639825,1.208657,-0.218462,-0.243182,33.552593,-15.307816,-3.892336,0.506681,1.519881,-0.110001,0.000000,0.000000,0.000000,0.000000,0.000000,0.000000
12869857.000000,-2.387218,-1.662389,1.064063,-1.381291,1.767593,1.122746,-0.562866,0.718439,-0.036920,0.666845,-0.700418,-0.633844,1.237067,-0.215543,-2.199053,33.624004,-14.546097,-3.277406,0.632108,1.012679,-0.188737,0.000000,0.000000,0.000000,0.000000,0.000000,0.000000
12869858.000000,-2.386505,-1.662428,1.064766,-1.381993,1.766982,1.123964,-0.563085,0.718601,-0.036334,0.672813,-0.699013,-0.624241,1.237825,-0.219265,-2.917132,33.576397,-14.177139,-2.880678,0.608304,1.019088,-0.136552,0.000000,0.000000,0.000000,0.000000,0.000000,0.000000
12869859.000000,-2.385783,-1.662465,1.065452,-1.382681,1.766377,1.125181,-0.563304,0.713788,-0.037435,0.678011,-0.690961,-0.617866,1.226775,-0.217558,-3.559832,33.477215,-13.812149,-2.559328,0.506681,1.162826,-0.097184,0.000000,0.000000,0.000000,0.000000,0.000000,0.000000
12869860.000000,-2.385067,-1.662495,1.066145,-1.383367,1.765779,1.126400,-0.563511,0.711478,-0.032715,0.684920,-0.687035,-0.621417,1.220197,-0.212230,-4.027972,33.259014,-13.296402,-2.384767,0.410551,1.318465,-0.169511,0.000000,0.000000,0.000000,0.000000,0.000000,0.000000
12869861.000000,-2.384370,-1.662513,1.066843,-1.384032,1.765194,1.127604,-0.563723,0.704985,-0.026093,0.684863,-0.675557,-0.606522,1.217446,-0.213287,-4.277911,32.890057,-12.828262,-2.460146,0.255826,1.435653,-0.110001,0.000000,0.000000,0.000000,0.000000,0.000000,0.000000
12869862.000000,-2.383673,-1.662523,1.067544,-1.384676,1.764604,1.128821,-0.563923,0.700214,-0.022393,0.692715,-0.670432,-0.597322,1.225518,-0.209199,-4.424700,32.425884,-12.510880,-2.682314,0.141385,1.467696,-0.169511,0.000000,0.000000,0.000000,0.000000,0.000000,0.000000
12869863.000000,-2.382981,-1.662518,1.068253,-1.385316,1.764027,1.130031,-0.564129,0.710336,-0.010585,0.694555,-0.659106,-0.585245,1.219740,-0.212432,-4.500079,31.814922,-12.165726,-2.928285,0.129484,1.402694,-0.169511,0.000000,0.000000,0.000000,0.000000,0.000000,0.000000
12869864.000000,-2.382286,-1.662506,1.068965,-1.385950,1.763430,1.131255,-0.564346,0.700244,-0.000789,0.705770,-0.661329,-0.581810,1.226938,-0.213523,-4.575457,31.128582,-11.995132,-3.055238,0.195402,1.240646,-0.103593,0.000000,0.000000,0.000000,0.000000,0.000000,0.000000
12869865.000000,-2.381580,-1.662496,1.069677,-1.386604,1.762850,1.132487,-0.564547,0.697932,0.003920,0.704679,-0.654544,-0.589707,1.227612,-0.208610,-4.746050,30.541424,-11.602371,-3.003664,0.344633,1.077682,-0.182328,0.000000,0.000000,0.000000,0.000000,0.000000,0.000000
12869866.000000,-2.380892,-1.662476,1.070406,-1.387253,1.762262,1.133688,-0.564761,0.694097,0.008268,0.711030,-0.648762,-0.590296,1.220497,-0.210805,-4.845232,29.902691,-11.380203,-2.956056,0.410551,0.987045,-0.122819,0.000000,0.000000,0.000000,0.000000,0.000000,0.000000
12869867.000000,-2.380201,-1.662453,1.071132,-1.387888,1.761689,1.134907,-0.564968,0.689586,0.014048,0.714491,-0.647497,-0.575284,1.216056,-0.204943,-4.869036,29.291729,-11.110428,-2.928285,0.339139,0.922042,-0.122819,0.000000,0.000000,0.000000,0.000000,0.000000,0.000000
12869868.000000,-2.379528,-1.662427,1.071871,-1.388504,1.761123,1.136110,-0.565172,0.699481,0.019782,0.718161,-0.633776,-0.574120,1.218022,-0.201186,-4.773821,28.752178,-10.816849,-3.126650,0.237516,0.804855,-0.116410,0.000000,0.000000,0.000000,0.000000,0.000000,0.000000
12869869.000000,-2.378853,-1.662403,1.072604,-1.389117,1.760562,1.137333,-0.565365,0.692450,0.019268,0.723474,-0.626100,-0.566777,1.218163,-0.196439,-4.674639,28.288006,-10.424088,-3.424196,0.112089,0.733443,-0.163102,0.000000,0.000000,0.000000,0.000000,0.000000,0.000000
12869870.000000,-2.378179,-1.662383,1.073346,-1.389728,1.760003,1.138541,-0.565571,0.685786,0.019883,0.730691,-0.619406,-0.562340,1.214973,-0.195871,-4.547686,27.923016,-10.007523,-3.622560,-0.013339,0.869857,-0.116410,0.000000,0.000000,0.000000,0.000000,0.000000,0.000000
12869871.000000,-2.377499,-1.662358,1.074108,-1.390351,1.759451,1.139727,-0.565763,0.681780,0.020761,0.738681,-0.620327,-0.554501,1.206275,-0.193269,-4.674639,27.554058,-9.737747,-3.670168,-0.007845,1.052047,-0.136552,0.000000,0.000000,0.000000,0.000000,0.000000,0.000000
12869872.000000,-2.376801,-1.662340,1.074855,-1.390965,1.758897,1.140955,-0.565957,0.686983,0.018750,0.742194,-0.620595,-0.556071,1.207612,-0.194954,-4.968218,27.308086,-9.416397,-3.622560,-0.013339,0.987045,-0.188737,0.000000,0.000000,0.000000,0.000000,0.000000,0.000000
12869873.000000,-2.376110,-1.662323,1.075629,-1.391591,1.758341,1.142189,-0.566163,0.691511,0.016415,0.749612,-0.616470,-0.557155,1.243746,-0.196357,-5.241961,27.113689,-9.170425,-3.475771,0.076383,0.733443,-0.110001,0.000000,0.000000,0.000000,0.000000,0.000000,0.000000
12869874.000000,-2.375407,-1.662315,1.076424,-1.392205,1.757786,1.143440,-0.566345,0.694031,0.014841,0.760297,-0.609932,-0.558232,1.251721,-0.188537,-5.638690,27.066082,-9.122818,-3.475771,0.178007,0.427657,-0.155778,0.000000,0.000000,0.000000,0.000000,0.000000,0.000000
12869875.000000,-2.374712,-1.662302,1.077219,-1.392795,1.757231,1.144684,-0.566530,0.695196,0.012687,0.772583,-0.604648,-0.553390,1.246637,-0.186454,-5.813250,26.943096,-9.099014,-3.622560,0.154203,0.329696,-0.202470,0.000000,0.000000,0.000000,0.000000,0.000000,0.000000
12869876.000000,-2.374032,-1.662302,1.078023,-1.393377,1.756688,1.145886,-0.566727,0.689382,0.006724,0.778318,-0.594119,-0.551964,1.240315,-0.193829,-5.936236,27.014507,-8.999832,-3.868532,0.171598,0.486251,-0.122819,0.000000,0.000000,0.000000,0.000000,0.000000,0.000000
12869877.000000,-2.373339,-1.662301,1.078825,-1.393941,1.756137,1.147102,-0.566917,0.686737,0.003229,0.785759,-0.581259,-0.543674,1.226866,-0.195965,-6.134600,27.066082,-8.853043,-4.289064,0.147794,0.713302,-0.155778,0.000000,0.000000,0.000000,0.000000,0.000000,0.000000
12869878.000000,-2.372644,-1.662303,1.079662,-1.394513,1.755600,1.148315,-0.567106,0.685862,0.000446,0.800051,-0.576448,-0.549596,1.222012,-0.189333,-6.305193,27.137493,-8.976028,-4.634218,0.117582,0.993453,-0.155778,0.000000,0.000000,0.000000,0.000000,0.000000,0.000000
12869879.000000,-2.371957,-1.662300,1.080501,-1.395090,1.755066,1.149510,-0.567295,0.686438,0.000271,0.810426,-0.576006,-0.546649,1.212716,-0.188489,-6.578936,27.137493,-8.952225,-4.832582,0.058073,1.188461,-0.175919,0.000000,0.000000,0.000000,0.000000,0.000000,0.000000
12869880.000000,-2.371259,-1.662297,1.081341,-1.395659,1.754539,1.150746,-0.567489,0.684648,0.000717,0.823548,-0.569645,-0.533112,1.214564,-0.190105,-6.852679,27.113689,-8.976028,-4.907960,-0.043551,1.077682,-0.155778,0.000000,0.000000,0.000000,0.000000,0.000000,0.000000
12869881.000000,-2.370554,-1.662286,1.082207,-1.396237,1.754023,1.151973,-0.567673,0.691776,0.003897,0.835018,-0.566194,-0.530571,1.221931,-0.185859,-7.420001,26.966900,-9.047440,-4.856386,-0.085665,0.869857,-0.136552,0.000000,0.000000,0.000000,0.000000,0.000000,0.000000
12869882.000000,-2.369839,-1.662281,1.083062,-1.396814,1.753486,1.153203,-0.567856,0.695033,0.006836,0.830491,-0.572867,-0.531645,1.222548,-0.184722,-7.892107,26.919292,-9.023636,-4.733400,-0.013339,0.746261,-0.182328,0.000000,0.000000,0.000000,0.000000,0.000000,0.000000
12869883.000000,-2.369122,-1.662273,1.083933,-1.397375,1.752973,1.154425,-0.568046,0.696134,0.007130,0.843075,-0.566832,-0.527172,1.212454,-0.186148,-8.435626,26.820110,-8.876846,-4.634218,-0.001437,0.792037,-0.163102,0.000000,0.000000,0.000000,0.000000,0.000000,0.000000
12869884.000000,-2.368414,-1.662266,1.084812,-1.397939,1.752451,1.155609,-0.568226,0.704840,0.009965,0.851180,-0.563071,-0.523411,1.211123,-0.181810,-8.955340,26.748699,-8.682449,-4.610414,0.022367,0.915633,-0.169511,0.000000,0.000000,0.000000,0.000000,0.000000,0.000000
12869885.000000,-2.367708,-1.662256,1.085696,-1.398489,1.751928,1.156823,-0.568418,0.703009,0.009385,0.858538,-0.563156,-0.521506,1.208224,-0.185785,-9.300494,26.649517,-8.507889,-4.634218,0.100187,0.922042,-0.103593,0.000000,0.000000,0.000000,0.000000,0.000000,0.000000
12869886.000000,-2.366988,-1.662244,1.086605,-1.399037,1.751428,1.158011,-0.568594,0.716349,0.012008,0.873236,-0.555957,-0.524050,1.207407,-0.180379,-9.820209,26.550335,-8.484085,-4.808778,0.004056,0.947677,-0.169511,0.000000,0.000000,0.000000,0.000000,0.000000,0.000000
12869887.000000,-2.366275,-1.662232,1.087515,-1.399592,1.750920,1.159229,-0.568772,0.718637,0.013419,0.885917,-0.550141,-0.513428,1.208831,-0.182330,-10.268512,26.478924,-8.484085,-4.907960,-0.031649,0.922042,-0.175919,0.000000,0.000000,0.000000,0.000000,0.000000,0.000000
12869888.000000,-2.365561,-1.662232,1.088449,-1.400139,1.750417,1.160441,-0.568956,0.713854,0.010004,0.903730,-0.551754,-0.512675,1.210265,-0.180911,-10.712848,26.597942,-8.531693,-4.884157,-0.031649,0.876266,-0.122819,0.000000,0.000000,0.000000,0.000000,0.000000,0.000000
12869889.000000,-2.364845,-1.662234,1.089402,-1.400688,1.749923,1.161632,-0.569126,0.714974,0.003892,0.913211,-0.546127,-0.505377,1.211889,-0.175262,-11.232562,26.748699,-8.654678,-4.808778,-0.085665,0.941268,-0.196061,0.000000,0.000000,0.000000,0.000000,0.000000,0.000000
12869890.000000,-2.364120,-1.662237,1.090358,-1.401248,1.749424,1.162820,-0.569310,0.717209,0.002879,0.931454,-0.549709,-0.501743,1.209730,-0.181130,-11.704669,26.895489,-8.805435,-4.586610,-0.055453,1.058456,-0.130143,0.000000,0.000000,0.000000,0.000000,0.000000,0.000000
12869891.000000,-2.363415,-1.662243,1.091327,-1.401784,1.748929,1.164006,-0.569493,0.714506,-0.000830,0.935253,-0.547595,-0.502652,1.227653,-0.183364,-12.073627,27.042278,-8.924454,-4.685792,-0.079257,1.039230,-0.116410,0.000000,0.000000,0.000000,0.000000,0.000000,0.000000
12869892.000000,-2.362706,-1.662249,1.092306,-1.402324,1.748440,1.165214,-0.569665,0.705255,-0.003474,0.942832,-0.541294,-0.492634,1.228557,-0.183522,-12.295794,27.189068,-8.900650,-4.733400,-0.133273,0.908309,-0.169511,0.000000,0.000000,0.000000,0.000000,0.000000,0.000000
12869893.000000,-2.361995,-1.662251,1.093282,-1.402849,1.747942,1.166413,-0.569849,0.702565,-0.003044,0.959528,-0.536421,-0.495117,1.214164,-0.181667,-12.569537,27.236675,-8.952225,-4.931764,-0.049044,1.006271,-0.116410,0.000000,0.000000,0.000000,0.000000,0.000000,0.000000
12869894.000000,-2.361300,-1.662260,1.094254,-1.403380,1.747459,1.167566,-0.570010,0.704055,-0.004061,0.954387,-0.533447,-0.493363,1.203857,-0.179126,-12.791705,27.335857,-8.682449,-5.054750,-0.067355,1.247054,-0.202470,0.000000,0.000000,0.000000,0.000000,0.000000,0.000000
12869895.000000,-2.360594,-1.662269,1.095235,-1.403897,1.746965,1.168747,-0.570184,0.699582,-0.004718,0.967928,-0.537790,-0.489810,1.199271,-0.178439,-13.089252,27.431072,-8.531693,-5.229311,0.022367,1.377059,-0.163102,0.000000,0.000000,0.000000,0.000000,0.000000,0.000000
12869896.000000,-2.359894,-1.662286,1.096208,-1.404434,1.746476,1.169942,-0.570356,0.700181,-0.010811,0.971573,-0.535687,-0.503952,1.197822,-0.176668,-13.263812,27.629436,-8.043716,-5.229311,0.093778,1.279098,-0.155778,0.000000,0.000000,0.000000,0.000000,0.000000,0.000000
12869897.000000,-2.359194,-1.662289,1.097228,-1.404970,1.745989,1.171131,-0.570519,0.697801,-0.007908,0.984844,-0.534944,-0.495342,1.197730,-0.173975,-13.585162,27.653240,-7.896927,-5.205507,0.100187,1.096908,-0.182328,0.000000,0.000000,0.000000,0.000000,0.000000,0.000000
12869898.000000,-2.358498,-1.662298,1.098227,-1.405481,1.745521,1.172334,-0.570685,0.693890,-0.007607,0.994361,-0.524417,-0.486205,1.201821,-0.174751,-13.858905,27.748455,-7.551773,-5.328493,0.034269,0.876266,-0.155778,0.000000,0.000000,0.000000,0.000000,0.000000,0.000000
12869899.000000,-2.357814,-1.662299,1.099253,-1.405997,1.745054,1.173523,-0.570849,0.699638,-0.004596,0.999200,-0.517980,-0.475050,1.193349,-0.172436,-13.858905,27.724651,-7.381180,-5.475282,-0.043551,0.727035,-0.182328,0.000000,0.000000,0.000000,0.000000,0.000000,0.000000
12869900.000000,-2.357149,-1.662308,1.100265,-1.406498,1.744592,1.174719,-0.571019,0.683713,-0.004888,0.983924,-0.525452,-0.465992,1.187232,-0.173644,-13.831134,27.800030,-7.059830,-5.697450,-0.121371,0.616256,-0.155778,0.000000,0.000000,0.000000,0.000000,0.000000,0.000000
12869901.000000,-2.356482,-1.662313,1.101300,-1.407000,1.744139,1.175912,-0.571178,0.676674,-0.007046,1.000625,-0.516850,-0.465354,1.179595,-0.166605,-13.731952,27.823833,-6.790054,-5.971193,-0.199191,0.674850,-0.182328,0.000000,0.000000,0.000000,0.000000,0.000000,0.000000
12869902.000000,-2.355830,-1.662314,1.102367,-1.407497,1.743681,1.177080,-0.571340,0.666875,-0.008336,1.019732,-0.505676,-0.461852,1.168115,-0.169586,-13.533587,27.823833,-6.813858,-6.316347,-0.216586,0.785628,-0.122819,0.000000,0.000000,0.000000,0.000000,0.000000,0.000000
12869903.000000,-2.355165,-1.662303,1.103429,-1.407969,1.743237,1.178278,-0.571500,0.663372,-0.001513,1.032442,-0.493509,-0.452934,1.165462,-0.164521,-13.561358,27.629436,-6.813858,-6.736879,-0.252291,0.817672,-0.130143,0.000000,0.000000,0.000000,0.000000,0.000000,0.000000
12869904.000000,-2.354508,-1.662295,1.104505,-1.408451,1.742790,1.179470,-0.571659,0.676785,0.002048,1.044451,-0.486251,-0.453606,1.167735,-0.166026,-13.585162,27.482647,-6.718643,-7.058229,-0.240389,0.687667,-0.155778,0.000000,0.000000,0.000000,0.000000,0.000000,0.000000
12869905.000000,-2.353850,-1.662286,1.105579,-1.408934,1.742331,1.180685,-0.571823,0.669688,0.005166,1.047139,-0.483744,-0.456694,1.174198,-0.163490,-13.660541,27.308086,-6.742447,-7.304201,-0.157076,0.532027,-0.122819,0.000000,0.000000,0.000000,0.000000,0.000000,0.000000
12869906.000000,-2.353182,-1.662275,1.106682,-1.409408,1.741890,1.181899,-0.571977,0.663349,0.007222,1.065153,-0.478836,-0.449970,1.176304,-0.162170,-13.783526,27.137493,-6.790054,-7.379579,-0.180880,0.440475,-0.188737,0.000000,0.000000,0.000000,0.000000,0.000000,0.000000
12869907.000000,-2.352529,-1.662260,1.107800,-1.409896,1.741447,1.183094,-0.572137,0.662567,0.009203,1.083847,-0.476989,-0.448935,1.179032,-0.165605,-13.831134,26.943096,-6.790054,-7.328004,-0.228488,0.434066,-0.155778,0.000000,0.000000,0.000000,0.000000,0.000000,0.000000
12869908.000000,-2.351878,-1.662248,1.108892,-1.410359,1.741003,1.184287,-0.572298,0.656055,0.008893,1.084345,-0.472373,-0.439524,1.179660,-0.167729,-13.831134,26.820110,-6.595657,-7.427186,-0.222994,0.532027,-0.122819,0.000000,0.000000,0.000000,0.000000,0.000000,0.000000
12869909.000000,-2.351222,-1.662234,1.110008,-1.410830,1.740575,1.185472,-0.572446,0.655744,0.010386,1.086152,-0.469689,-0.436549,1.205107,-0.156505,-13.858905,26.625713,-6.349686,-7.502565,-0.258700,0.609847,-0.182328,0.000000,0.000000,0.000000,0.000000,0.000000,0.000000
12869910.000000,-2.350592,-1.662221,1.111146,-1.411290,1.740138,1.186673,-0.572601,0.646890,0.010940,1.105378,-0.464396,-0.432207,1.199063,-0.156897,-13.783526,26.451153,-6.226700,-7.700929,-0.353915,0.687667,-0.142960,0.000000,0.000000,0.000000,0.000000,0.000000,0.000000
12869911.000000,-2.349947,-1.662204,1.112281,-1.411733,1.739706,1.187876,-0.572753,0.641000,0.012347,1.115860,-0.458285,-0.430241,1.196996,-0.154818,-13.783526,26.232952,-6.226700,-8.022280,-0.426241,0.792037,-0.149369,0.000000,0.000000,0.000000,0.000000,0.000000,0.000000
12869912.000000,-2.349309,-1.662184,1.113450,-1.412190,1.739283,1.189072,-0.572899,0.638371,0.017291,1.126918,-0.456692,-0.430261,1.200093,-0.152783,-13.807330,25.986980,-6.302078,-8.169069,-0.473849,0.687667,-0.182328,0.000000,0.000000,0.000000,0.000000,0.000000,0.000000
12869913.000000,-2.348666,-1.662176,1.114634,-1.412650,1.738848,1.190275,-0.573051,0.634193,0.016728,1.146121,-0.464607,-0.432366,1.197118,-0.148714,-13.882709,25.915569,-6.619461,-8.121462,-0.426241,0.662032,-0.155778,0.000000,0.000000,0.000000,0.000000,0.000000,0.000000
12869914.000000,-2.348025,-1.662167,1.115853,-1.413115,1.738424,1.191466,-0.573201,0.636729,0.013376,1.168449,-0.463291,-0.433436,1.188352,-0.149329,-13.906512,25.840191,-7.083633,-8.069887,-0.348422,0.739852,-0.149369,0.000000,0.000000,0.000000,0.000000,0.000000,0.000000
12869915.000000,-2.347394,-1.662162,1.117083,-1.413585,1.738008,1.192638,-0.573346,0.633940,0.009820,1.180130,-0.461317,-0.431929,1.186274,-0.149657,-14.005694,25.816387,-7.527969,-7.899293,-0.377719,0.804855,-0.149369,0.000000,0.000000,0.000000,0.000000,0.000000,0.000000
12869916.000000,-2.346763,-1.662162,1.118305,-1.414041,1.737578,1.193823,-0.573492,0.629823,0.005692,1.199591,-0.458189,-0.429871,1.179202,-0.144806,-13.954120,25.863995,-7.869156,-7.923097,-0.306307,0.836898,-0.169511,0.000000,0.000000,0.000000,0.000000,0.000000,0.000000
12869917.000000,-2.346132,-1.662159,1.119551,-1.414498,1.737172,1.194992,-0.573641,0.635233,0.006555,1.208681,-0.458951,-0.421577,1.177578,-0.143198,-13.930316,25.891766,-8.091324,-7.923097,-0.294406,0.843307,-0.130143,0.000000,0.000000,0.000000,0.000000,0.000000,0.000000
12869918.000000,-2.345513,-1.662166,1.120786,-1.414946,1.736766,1.196170,-0.573772,0.630015,0.002000,1.200798,-0.455722,-0.421371,1.174583,-0.137981,-14.005694,26.010784,-8.190506,-7.998476,-0.360323,0.889083,-0.196061,0.000000,0.000000,0.000000,0.000000,0.000000,0.000000
12869919.000000,-2.344886,-1.662170,1.122032,-1.415406,1.736350,1.197337,-0.573919,0.625560,-0.000120,1.208399,-0.458040,-0.421197,1.167236,-0.138418,-14.104877,26.086163,-8.091324,-7.998476,-0.330111,1.064864,-0.142960,0.000000,0.000000,0.000000,0.000000,0.000000,0.000000
12869920.000000,-2.344273,-1.662183,1.123295,-1.415873,1.735940,1.198500,-0.574060,0.623214,-0.002267,1.215492,-0.457327,-0.411801,1.167386,-0.140736,-14.029498,26.332134,-8.019913,-7.923097,-0.270602,1.090499,-0.163102,0.000000,0.000000,0.000000,0.000000,0.000000,0.000000
12869921.000000,-2.343647,-1.662200,1.124529,-1.416346,1.735540,1.199685,-0.574200,0.623286,-0.004117,1.214246,-0.463594,-0.409669,1.174467,-0.142160,-14.005694,26.867718,-8.043716,-7.724733,-0.324618,0.999862,-0.196061,0.000000,0.000000,0.000000,0.000000,0.000000,0.000000
12869922.000000,-2.343030,-1.662219,1.125770,-1.416819,1.735135,1.200861,-0.574352,0.638589,-0.006211,1.214430,-0.464154,-0.406943,1.181034,-0.142429,-13.807330,27.724651,-8.460281,-7.554140,-0.312716,0.928451,-0.122819,0.000000,0.000000,0.000000,0.000000,0.000000,0.000000
12869923.000000,-2.342429,-1.662242,1.126991,-1.417296,1.734737,1.202060,-0.574491,0.623909,-0.009046,1.234840,-0.465550,-0.398793,1.190791,-0.138247,-13.263812,28.851360,-9.293411,-7.478761,-0.324618,0.830489,-0.163102,0.000000,0.000000,0.000000,0.000000,0.000000,0.000000
12869924.000000,-2.341817,-1.662263,1.128211,-1.417752,1.734345,1.203271,-0.574637,0.613955,-0.014646,1.229768,-0.464386,-0.393022,1.198298,-0.137799,-12.767901,30.172466,-10.201920,-7.502565,-0.330111,0.746261,-0.142960,0.000000,0.000000,0.000000,0.000000,0.000000,0.000000
12869925.000000,-2.341226,-1.662275,1.129446,-1.418212,1.733947,1.204455,-0.574777,0.604031,-0.016131,1.236043,-0.461364,-0.393888,1.201777,-0.140803,-12.073627,31.422161,-11.404007,-7.577943,-0.192782,0.824081,-0.149369,0.000000,0.000000,0.000000,0.000000,0.000000,0.000000
12869926.000000,-2.340619,-1.662282,1.130646,-1.418665,1.733556,1.205629,-0.574921,0.600300,-0.017393,1.231444,-0.459793,-0.391060,1.187740,-0.139095,-11.605487,32.596478,-12.387894,-7.677125,-0.126864,1.169235,-0.136552,0.000000,0.000000,0.000000,0.000000,0.000000,0.000000
12869927.000000,-2.340009,-1.662280,1.131876,-1.419123,1.733171,1.206799,-0.575062,0.600981,-0.017052,1.230725,-0.456544,-0.393022,1.210649,-0.137553,-11.184955,33.576397,-13.514603,-7.748537,0.034269,1.416427,-0.130143,0.000000,0.000000,0.000000,0.000000,0.000000,0.000000
12869928.000000,-2.339418,-1.662275,1.133115,-1.419573,1.732784,1.207989,-0.575191,0.595917,-0.009701,1.232251,-0.454497,-0.390010,1.201551,-0.138172,-10.835834,34.385723,-14.597672,-7.923097,0.081876,1.572067,-0.202470,0.000000,0.000000,0.000000,0.000000,0.000000,0.000000
12869929.000000,-2.338802,-1.662268,1.134325,-1.420022,1.732402,1.209194,-0.575338,0.600586,-0.008296,1.229994,-0.450987,-0.386783,1.198281,-0.143391,-10.736651,35.068096,-15.383194,-7.946901,0.105680,1.572067,-0.142960,0.000000,0.000000,0.000000,0.000000,0.000000,0.000000
12869930.000000,-2.338190,-1.662262,1.135559,-1.420494,1.732024,1.210377,-0.575475,0.604367,-0.003897,1.227439,-0.453985,-0.381781,1.194220,-0.143511,-10.764422,35.607647,-16.093338,-7.800111,0.178007,1.519881,-0.169511,0.000000,0.000000,0.000000,0.000000,0.000000,0.000000
12869931.000000,-2.337585,-1.662256,1.136777,-1.420946,1.731639,1.211560,-0.575617,0.604217,-0.003362,1.224725,-0.459576,-0.379363,1.186515,-0.141491,-10.712848,36.095623,-16.632889,-7.700929,0.178007,1.546432,-0.149369,0.000000,0.000000,0.000000,0.000000,0.000000,0.000000
12869932.000000,-2.336990,-1.662257,1.138025,-1.421398,1.731276,1.212742,-0.575752,0.597106,-0.003082,1.233000,-0.458913,-0.386319,1.171954,-0.137648,-10.514483,36.563763,-17.148636,-7.776308,0.076383,1.597701,-0.182328,0.000000,0.000000,0.000000,0.000000,0.000000,0.000000
12869933.000000,-2.336402,-1.662258,1.139285,-1.421843,1.730921,1.213908,-0.575895,0.592429,-0.002170,1.235827,-0.453330,-0.375920,1.164899,-0.138812,-10.339923,36.980328,-17.688187,-7.923097,-0.007845,1.539108,-0.116410,0.000000,0.000000,0.000000,0.000000,0.000000,0.000000
12869934.000000,-2.335836,-1.662272,1.140543,-1.422263,1.730560,1.215077,-0.576027,0.579122,-0.004276,1.248651,-0.441960,-0.376517,1.155009,-0.139432,-9.919391,37.492107,-18.303116,-8.292055,-0.121371,1.539108,-0.175919,0.000000,0.000000,0.000000,0.000000,0.000000,0.000000
12869935.000000,-2.335268,-1.662288,1.141836,-1.422674,1.730197,1.216221,-0.576164,0.580250,-0.008321,1.254731,-0.434279,-0.370689,1.152083,-0.138161,-9.526629,37.984051,-19.088638,-8.740358,-0.162570,1.597701,-0.163102,0.000000,0.000000,0.000000,0.000000,0.000000,0.000000
12869936.000000,-2.334723,-1.662321,1.143118,-1.423072,1.729836,1.217361,-0.576300,0.564845,-0.014255,1.249347,-0.416962,-0.365869,1.137509,-0.138388,-9.030719,38.595013,-19.822586,-9.331484,-0.204684,1.865035,-0.116410,0.000000,0.000000,0.000000,0.000000,0.000000,0.000000
12869937.000000,-2.334178,-1.662353,1.144422,-1.423464,1.729468,1.218517,-0.576427,0.557252,-0.016840,1.259529,-0.414137,-0.366514,1.137345,-0.134167,-8.610187,39.130596,-20.560501,-9.775820,-0.150668,1.988631,-0.175919,0.000000,0.000000,0.000000,0.000000,0.000000,0.000000
12869938.000000,-2.333643,-1.662403,1.145729,-1.423855,1.729091,1.219675,-0.576565,0.550599,-0.032725,1.263735,-0.402904,-0.369562,1.140903,-0.136151,-8.161883,39.840740,-21.123856,-10.196352,-0.019747,1.890670,-0.110001,0.000000,0.000000,0.000000,0.000000,0.000000,0.000000
12869939.000000,-2.333101,-1.662445,1.147011,-1.424249,1.728719,1.220840,-0.576694,0.540347,-0.036740,1.268890,-0.404404,-0.369166,1.145156,-0.133583,-7.892107,40.380291,-21.568192,-10.370913,0.076383,1.786300,-0.149369,0.000000,0.000000,0.000000,0.000000,0.000000,0.000000
12869940.000000,-2.332567,-1.662496,1.148303,-1.424646,1.728371,1.221981,-0.576824,0.547144,-0.041602,1.275496,-0.399741,-0.360020,1.149241,-0.133765,-7.693743,40.991253,-21.885574,-10.470095,0.052579,1.727706,-0.155778,0.000000,0.000000,0.000000,0.000000,0.000000,0.000000
12869941.000000,-2.332040,-1.662543,1.149563,-1.425045,1.728004,1.223135,-0.576956,0.545262,-0.043040,1.299788,-0.401225,-0.364374,1.149017,-0.135311,-7.320818,41.507000,-21.885574,-10.493898,0.064481,1.741439,-0.103593,0.000000,0.000000,0.000000,0.000000,0.000000,0.000000
12869942.000000,-2.331522,-1.662601,1.150850,-1.425439,1.727631,1.224292,-0.577073,0.533576,-0.046411,1.297103,-0.399521,-0.364177,1.149678,-0.131261,-6.951861,42.117962,-21.960953,-10.493898,0.105680,1.754256,-0.182328,0.000000,0.000000,0.000000,0.000000,0.000000,0.000000
12869943.000000,-2.331011,-1.662644,1.152115,-1.425837,1.727290,1.225425,-0.577197,0.529341,-0.045320,1.283718,-0.402215,-0.353932,1.150510,-0.127307,-6.602740,42.582134,-21.615799,-10.394716,0.004056,1.871444,-0.182328,0.000000,0.000000,0.000000,0.000000,0.000000,0.000000
12869944.000000,-2.330500,-1.662682,1.153394,-1.426239,1.726938,1.226567,-0.577329,0.524428,-0.040952,1.284790,-0.401121,-0.352506,1.147156,-0.130802,-6.206011,42.875713,-21.810196,-10.172548,-0.043551,2.053634,-0.122819,0.000000,0.000000,0.000000,0.000000,0.000000,0.000000
12869945.000000,-2.329990,-1.662717,1.154681,-1.426636,1.726599,1.227736,-0.577443,0.515403,-0.036955,1.282569,-0.399984,-0.348618,1.151764,-0.124785,-5.936236,43.121685,-21.909378,-10.073366,-0.133273,1.981307,-0.163102,0.000000,0.000000,0.000000,0.000000,0.000000,0.000000
12869946.000000,-2.329505,-1.662755,1.155981,-1.427054,1.726252,1.228895,-0.577556,0.508375,-0.037509,1.286117,-0.406781,-0.347832,1.163560,-0.125780,-5.539507,43.367657,-22.179153,-9.775820,-0.103060,1.819259,-0.188737,0.000000,0.000000,0.000000,0.000000,0.000000,0.000000
12869949.000000,-2.328055,-1.662830,1.159870,-1.428293,1.725208,1.232334,-0.577913,0.486341,-0.029599,1.291749,-0.420019,-0.344944,1.146906,-0.124688,-4.424700,43.343853,-23.381241,-8.934755,0.147794,1.949264,-0.169511,0.000000,0.000000,0.000000,0.000000,0.000000,0.000000
12869950.000000,-2.327585,-1.662857,1.161166,-1.428716,1.724863,1.233489,-0.578036,0.478240,-0.030835,1.301256,-0.421406,-0.350210,1.132566,-0.123225,-3.928790,43.320049,-23.603409,-8.764162,0.261320,1.988631,-0.130143,0.000000,0.000000,0.000000,0.000000,0.000000,0.000000
12869951.000000,-2.327117,-1.662886,1.162463,-1.429152,1.724526,1.234631,-0.578149,0.475916,-0.029452,1.293401,-0.422451,-0.347984,1.128864,-0.119649,-3.559832,43.320049,-23.801773,-8.442812,0.291532,1.968490,-0.155778,0.000000,0.000000,0.000000,0.000000,0.000000,0.000000
12869952.000000,-2.326649,-1.662902,1.163742,-1.429591,1.724182,1.235776,-0.578266,0.474501,-0.025006,1.290855,-0.427989,-0.339770,1.124542,-0.117424,-3.262286,43.173260,-23.972366,-8.069887,0.285123,2.047225,-0.169511,0.000000,0.000000,0.000000,0.000000,0.000000,0.000000
12869953.000000,-2.326180,-1.662919,1.165032,-1.430046,1.723849,1.236916,-0.578389,0.480672,-0.022139,1.283987,-0.437249,-0.334907,1.127905,-0.117516,-2.917132,43.050274,-24.071548,-7.554140,0.291532,2.039901,-0.142960,0.000000,0.000000,0.000000,0.000000,0.000000,0.000000
12869954.000000,-2.325712,-1.662945,1.166315,-1.430506,1.723526,1.238088,-0.578495,0.477345,-0.025983,1.269554,-0.443650,-0.328149,1.136166,-0.114158,-2.667193,43.026470,-24.289749,-7.082033,0.219205,1.865035,-0.202470,0.000000,0.000000,0.000000,0.000000,0.000000,0.000000
12869955.000000,-2.325259,-1.662974,1.167610,-1.430960,1.723188,1.239249,-0.578619,0.465380,-0.025989,1.273584,-0.448824,-0.329949,1.136385,-0.115834,-2.199053,43.026470,-24.464310,-6.590089,0.195402,1.832076,-0.149369,0.000000,0.000000,0.000000,0.000000,0.000000,0.000000
12869956.000000,-2.324811,-1.662999,1.168935,-1.431427,1.722848,1.240382,-0.578732,0.456835,-0.024698,1.279068,-0.451269,-0.334403,1.136331,-0.115319,-1.750750,42.974895,-24.952286,-6.117982,0.249418,1.930038,-0.142960,0.000000,0.000000,0.000000,0.000000,0.000000,0.000000
12869957.000000,-2.324360,-1.663028,1.170232,-1.431882,1.722508,1.241522,-0.578843,0.453156,-0.025173,1.279405,-0.453499,-0.335205,1.133387,-0.112573,-1.306414,42.974895,-25.396622,-5.796632,0.261320,2.060043,-0.202470,0.000000,0.000000,0.000000,0.000000,0.000000,0.000000
12869958.000000,-2.323922,-1.663053,1.171548,-1.432337,1.722170,1.242643,-0.578968,0.458542,-0.024906,1.291276,-0.450866,-0.340000,1.156874,-0.114887,-0.885882,42.951092,-25.884598,-5.649843,0.362943,2.163497,-0.149369,0.000000,0.000000,0.000000,0.000000,0.000000,0.000000
12869959.000000,-2.323498,-1.663078,1.172833,-1.432798,1.721820,1.243780,-0.579082,0.447041,-0.022733,1.319910,-0.452879,-0.343215,1.152906,-0.113629,-0.342364,42.974895,-26.106766,-5.499086,0.464567,2.261459,-0.169511,0.000000,0.000000,0.000000,0.000000,0.000000,0.000000
12869960.000000,-2.323065,-1.663107,1.174139,-1.433242,1.721480,1.244916,-0.579199,0.440522,-0.021537,1.318609,-0.447781,-0.338817,1.147790,-0.113810,0.078168,43.026470,-26.424149,-5.526857,0.518583,2.410690,-0.155778,0.000000,0.000000,0.000000,0.000000,0.000000,0.000000
12869961.000000,-2.322644,-1.663126,1.175436,-1.433709,1.721153,1.246044,-0.579307,0.433515,-0.021962,1.309808,-0.450559,-0.334256,1.143551,-0.111195,0.502668,42.998699,-26.547134,-5.376100,0.535978,2.450057,-0.221696,0.000000,0.000000,0.000000,0.000000,0.000000,0.000000
12869962.000000,-2.322220,-1.663147,1.176706,-1.434172,1.720826,1.247189,-0.579431,0.430129,-0.022061,1.296715,-0.452674,-0.333570,1.142054,-0.110156,0.824018,42.951092,-26.499527,-5.130128,0.518583,2.385055,-0.142960,0.000000,0.000000,0.000000,0.000000,0.000000,0.000000
12869963.000000,-2.321791,-1.663168,1.177985,-1.434651,1.720497,1.248329,-0.579547,0.430593,-0.019257,1.285667,-0.457051,-0.337119,1.151729,-0.111281,1.022382,42.927288,-26.352737,-4.757204,0.506681,2.209274,-0.130143,0.000000,0.000000,0.000000,0.000000,0.000000,0.000000
12869964.000000,-2.321364,-1.663183,1.179269,-1.435130,1.720175,1.249472,-0.579654,0.425381,-0.019159,1.282614,-0.461082,-0.335628,1.146202,-0.109947,1.169172,42.851910,-26.253555,-4.340639,0.458158,2.098495,-0.175919,0.000000,0.000000,0.000000,0.000000,0.000000,0.000000
12869965.000000,-2.320940,-1.663198,1.180538,-1.435606,1.719856,1.250622,-0.579769,0.422440,-0.018531,1.277709,-0.466189,-0.325887,1.134828,-0.111340,1.367536,42.756695,-26.305130,-3.943910,0.422452,2.020675,-0.169511,0.000000,0.000000,0.000000,0.000000,0.000000,0.000000
12869966.000000,-2.320531,-1.663214,1.181796,-1.436076,1.719548,1.251762,-0.579875,0.417505,-0.020126,1.268132,-0.466787,-0.322114,1.133445,-0.112155,1.565900,42.728924,-25.983780,-3.646364,0.356534,1.916305,-0.163102,0.000000,0.000000,0.000000,0.000000,0.000000,0.000000
12869967.000000,-2.320115,-1.663235,1.183059,-1.436526,1.719220,1.252920,-0.579982,0.417054,-0.019282,1.267576,-0.469466,-0.319313,1.136315,-0.113747,1.764264,42.756695,-26.031387,-3.598757,0.428861,1.806442,-0.142960,0.000000,0.000000,0.000000,0.000000,0.000000,0.000000
12869968.000000,-2.319704,-1.663253,1.184324,-1.436974,1.718899,1.254052,-0.580084,0.411236,-0.021489,1.275243,-0.462636,-0.326097,1.128782,-0.111118,2.061811,42.780499,-25.959976,-3.646364,0.524076,1.988631,-0.202470,0.000000,0.000000,0.000000,0.000000,0.000000,0.000000
12869969.000000,-2.319293,-1.663268,1.185588,-1.437426,1.718586,1.255175,-0.580192,0.411347,-0.021300,1.266671,-0.456307,-0.323238,1.124888,-0.107667,2.160993,42.728924,-25.912369,-3.622560,0.625699,2.125045,-0.188737,0.000000,0.000000,0.000000,0.000000,0.000000,0.000000
12869970.000000,-2.318875,-1.663290,1.186820,-1.437875,1.718271,1.256314,-0.580297,0.408510,-0.024728,1.259973,-0.457117,-0.318971,1.122249,-0.104002,2.208601,42.828106,-25.737808,-3.523378,0.685209,2.196456,-0.196061,0.000000,0.000000,0.000000,0.000000,0.000000,0.000000
12869971.000000,-2.318457,-1.663305,1.188068,-1.438326,1.717952,1.257458,-0.580402,0.417640,-0.018438,1.249959,-0.450703,-0.316823,1.129906,-0.106313,2.260175,42.828106,-25.642593,-3.424196,0.757535,2.066451,-0.208878,0.000000,0.000000,0.000000,0.000000,0.000000,0.000000
12869972.000000,-2.318037,-1.663323,1.189289,-1.438782,1.717644,1.258635,-0.580508,0.417117,-0.017035,1.226818,-0.450939,-0.317005,1.145398,-0.109617,2.184797,42.828106,-25.491837,-3.249635,0.757535,1.793624,-0.169511,0.000000,0.000000,0.000000,0.000000,0.000000,0.000000
12869973.000000,-2.317611,-1.663331,1.190524,-1.439229,1.717348,1.259802,-0.580604,0.420429,-0.012912,1.223318,-0.445821,-0.304330,1.150061,-0.108313,2.034040,42.705120,-25.368851,-3.055238,0.655912,1.695663,-0.221696,0.000000,0.000000,0.000000,0.000000,0.000000,0.000000
12869974.000000,-2.317196,-1.663339,1.191772,-1.439672,1.717056,1.260953,-0.580714,0.424389,-0.013355,1.226035,-0.441422,-0.300691,1.158495,-0.112813,1.986432,42.582134,-25.368851,-2.956056,0.584501,1.584884,-0.136552,0.000000,0.000000,0.000000,0.000000,0.000000,0.000000
12869975.000000,-2.316790,-1.663353,1.192997,-1.440102,1.716762,1.262121,-0.580810,0.421170,-0.013432,1.225400,-0.435700,-0.298074,1.160763,-0.110021,2.010236,42.582134,-25.368851,-2.880678,0.518583,1.539108,-0.208878,0.000000,0.000000,0.000000,0.000000,0.000000,0.000000
12869976.000000,-2.316392,-1.663362,1.194238,-1.440525,1.716476,1.263250,-0.580912,0.422750,-0.012387,1.227939,-0.426601,-0.294224,1.182607,-0.106448,2.160993,42.534527,-25.420425,-3.027467,0.512174,1.714889,-0.202470,0.000000,0.000000,0.000000,0.000000,0.000000,0.000000
12869977.000000,-2.315988,-1.663370,1.195467,-1.440944,1.716191,1.264386,-0.581012,0.418884,-0.014216,1.253157,-0.417951,-0.292145,1.169628,-0.109291,2.260175,42.463116,-25.642593,-3.126650,0.530485,1.981307,-0.182328,0.000000,0.000000,0.000000,0.000000,0.000000,0.000000
12869978.000000,-2.315582,-1.663379,1.196721,-1.441346,1.715909,1.265533,-0.581111,0.413895,-0.013515,1.256252,-0.411460,-0.289028,1.162213,-0.106049,2.283979,42.435345,-25.959976,-3.376589,0.512174,2.169906,-0.163102,0.000000,0.000000,0.000000,0.000000,0.000000,0.000000
12869979.000000,-2.315182,-1.663391,1.197979,-1.441757,1.715615,1.266679,-0.581208,0.415936,-0.013601,1.250315,-0.410215,-0.291398,1.151173,-0.107405,2.430768,42.435345,-26.328934,-3.448000,0.613798,2.177230,-0.155778,0.000000,0.000000,0.000000,0.000000,0.000000,0.000000
12869980.000000,-2.314768,-1.663397,1.199204,-1.442160,1.715332,1.267836,-0.581301,0.414149,-0.011982,1.250737,-0.405564,-0.284044,1.141956,-0.102085,2.307783,42.363934,-26.451920,-3.570986,0.620206,2.144271,-0.208878,0.000000,0.000000,0.000000,0.000000,0.000000,0.000000
12869981.000000,-2.314351,-1.663407,1.200440,-1.442578,1.715048,1.268984,-0.581409,0.410388,-0.011744,1.242597,-0.407982,-0.292561,1.129020,-0.107285,2.184797,42.340130,-26.622513,-3.448000,0.655912,2.169906,-0.142960,0.000000,0.000000,0.000000,0.000000,0.000000,0.000000
12869982.000000,-2.313950,-1.663414,1.201669,-1.442996,1.714773,1.270114,-0.581503,0.409326,-0.010948,1.238339,-0.409362,-0.285012,1.124425,-0.101993,2.133222,42.288555,-26.574905,-3.325014,0.655912,2.209274,-0.196061,0.000000,0.000000,0.000000,0.000000,0.000000,0.000000
12869983.000000,-2.313541,-1.663422,1.202873,-1.443400,1.714498,1.271263,-0.581603,0.408002,-0.007343,1.228753,-0.406414,-0.282239,1.126981,-0.100289,2.085615,42.240948,-26.400345,-3.249635,0.608304,2.150680,-0.202470,0.000000,0.000000,0.000000,0.000000,0.000000,0.000000
12869984.000000,-2.313135,-1.663431,1.204095,-1.443808,1.714233,1.272399,-0.581709,0.409540,-0.008491,1.231035,-0.403997,-0.275068,1.130603,-0.101558,2.133222,42.217144,-26.229752,-3.126650,0.535978,2.085677,-0.130143,0.000000,0.000000,0.000000,0.000000,0.000000,0.000000
12869985.000000,-2.312739,-1.663433,1.205288,-1.444195,1.713977,1.273535,-0.581801,0.403419,-0.003152,1.219619,-0.403389,-0.267563,1.130796,-0.097080,2.184797,42.070354,-25.959976,-3.154421,0.416959,2.085677,-0.196061,0.000000,0.000000,0.000000,0.000000,0.000000,0.000000
12869986.000000,-2.312354,-1.663436,1.206511,-1.444592,1.713715,1.274685,-0.581905,0.395830,-0.004250,1.224572,-0.400923,-0.262348,1.131965,-0.103427,2.383161,41.994976,-25.936172,-3.102846,0.405057,2.053634,-0.130143,0.000000,0.000000,0.000000,0.000000,0.000000,0.000000
12869987.000000,-2.311966,-1.663436,1.207718,-1.444970,1.713462,1.275810,-0.581997,0.392788,-0.004203,1.215011,-0.388948,-0.261810,1.132443,-0.099637,2.482343,41.875957,-25.666397,-3.202028,0.374845,2.033492,-0.169511,0.000000,0.000000,0.000000,0.000000,0.000000,0.000000
12869988.000000,-2.311578,-1.663437,1.208922,-1.445359,1.713187,1.276956,-0.582091,0.387971,-0.004379,1.219005,-0.387847,-0.265680,1.131272,-0.097550,2.652936,41.776775,-25.666397,-3.126650,0.470060,1.995040,-0.188737,0.000000,0.000000,0.000000,0.000000,0.000000,0.000000
12869989.000000,-2.311192,-1.663437,1.210130,-1.445733,1.712917,1.278084,-0.582191,0.392253,-0.003506,1.209956,-0.380443,-0.270175,1.137240,-0.093431,2.704511,41.629986,-25.567215,-3.178224,0.608304,1.968490,-0.155778,0.000000,0.000000,0.000000,0.000000,0.000000,0.000000
12869990.000000,-2.310808,-1.663430,1.211332,-1.446114,1.712660,1.279233,-0.582284,0.386375,0.001920,1.192714,-0.379647,-0.264221,1.138779,-0.089165,2.779890,41.407818,-25.666397,-3.178224,0.632108,1.903487,-0.149369,0.000000,0.000000,0.000000,0.000000,0.000000,0.000000
12869991.000000,-2.310422,-1.663430,1.212533,-1.446479,1.712404,1.280387,-0.582376,0.381187,0.002803,1.191342,-0.374835,-0.258648,1.146518,-0.085976,2.827497,41.312603,-25.591019,-3.225832,0.625699,1.793624,-0.142960,0.000000,0.000000,0.000000,0.000000,0.000000,0.000000
12869992.000000,-2.310040,-1.663430,1.213727,-1.446849,1.712151,1.281518,-0.582459,0.380282,0.000604,1.192995,-0.376648,-0.258680,1.140120,-0.086355,2.851301,41.213421,-25.368851,-3.277406,0.601896,1.735030,-0.188737,0.000000,0.000000,0.000000,0.000000,0.000000,0.000000
12869993.000000,-2.309647,-1.663431,1.214896,-1.447213,1.711898,1.282651,-0.582552,0.377013,0.000865,1.182769,-0.372456,-0.252249,1.123202,-0.089434,2.779890,41.165813,-25.150650,-3.325014,0.535978,1.819259,-0.163102,0.000000,0.000000,0.000000,0.000000,0.000000,0.000000
12869994.000000,-2.309274,-1.663425,1.216072,-1.447573,1.711657,1.283755,-0.582643,0.372636,0.002409,1.180564,-0.370193,-0.251866,1.133560,-0.089675,2.851301,41.066631,-24.829300,-3.348818,0.452665,2.072860,-0.188737,0.000000,0.000000,0.000000,0.000000,0.000000,0.000000
12869995.000000,-2.308887,-1.663424,1.217248,-1.447934,1.711421,1.284900,-0.582737,0.375937,0.001797,1.205545,-0.368354,-0.242324,1.128583,-0.092636,2.779890,41.042828,-24.511917,-3.376589,0.362943,2.092086,-0.149369,0.000000,0.000000,0.000000,0.000000,0.000000,0.000000
12869996.000000,-2.308498,-1.663415,1.218415,-1.448285,1.711185,1.286067,-0.582822,0.378324,0.003243,1.196663,-0.361722,-0.242737,1.131833,-0.091105,2.728315,40.943645,-24.388931,-3.348818,0.339139,1.903487,-0.196061,0.000000,0.000000,0.000000,0.000000,0.000000,0.000000
12869997.000000,-2.308117,-1.663400,1.219601,-1.448640,1.710949,1.287215,-0.582912,0.379957,0.005947,1.189809,-0.355966,-0.243241,1.137540,-0.092356,2.652936,40.773052,-24.388931,-3.325014,0.332731,1.741439,-0.175919,0.000000,0.000000,0.000000,0.000000,0.000000,0.000000
12869998.000000,-2.307730,-1.663387,1.220790,-1.448979,1.710699,1.288359,-0.582999,0.382010,0.007800,1.194839,-0.351262,-0.240448,1.136067,-0.088455,2.529951,40.602459,-24.682510,-3.348818,0.381254,1.708480,-0.169511,0.000000,0.000000,0.000000,0.000000,0.000000,0.000000
12869999.000000,-2.307349,-1.663382,1.221986,-1.449321,1.710460,1.289506,-0.583083,0.381645,0.006848,1.195759,-0.347339,-0.242948,1.138334,-0.084434,2.482343,40.527081,-24.904678,-3.376589,0.446256,1.741439,-0.188737,0.000000,0.000000,0.000000,0.000000,0.000000,0.000000
12870000.000000,-2.306975,-1.663374,1.223194,-1.449642,1.710215,1.290629,-0.583171,0.383179,0.006149,1.201817,-0.336081,-0.242030,1.130152,-0.088433,2.506147,40.455669,-25.273636,-3.622560,0.542386,1.786300,-0.149369,0.000000,0.000000,0.000000,0.000000,0.000000,0.000000
12870001.000000,-2.306602,-1.663377,1.224383,-1.449967,1.709973,1.291763,-0.583250,0.376634,0.002920,1.203461,-0.332569,-0.238961,1.126339,-0.083370,2.553754,40.503277,-25.567215,-3.697939,0.584501,1.838485,-0.202470,0.000000,0.000000,0.000000,0.000000,0.000000,0.000000
12870002.000000,-2.306230,-1.663372,1.225570,-1.450289,1.709753,1.292863,-0.583339,0.377459,0.003661,1.199559,-0.323133,-0.235776,1.118820,-0.088225,2.529951,40.427898,-25.591019,-3.892336,0.470060,1.974899,-0.149369,0.000000,0.000000,0.000000,0.000000,0.000000,0.000000
12870003.000000,-2.305861,-1.663373,1.226746,-1.450608,1.709520,1.293984,-0.583418,0.370877,0.001198,1.194402,-0.325384,-0.235276,1.118789,-0.085597,2.553754,40.479473,-25.714005,-3.920107,0.405057,2.072860,-0.142960,0.000000,0.000000,0.000000,0.000000,0.000000,0.000000
12870004.000000,-2.305485,-1.663378,1.227916,-1.450931,1.709286,1.295118,-0.583491,0.370846,-0.000343,1.186037,-0.325355,-0.232260,1.124554,-0.080179,2.506147,40.527081,-25.468033,-3.943910,0.374845,2.027084,-0.215287,0.000000,0.000000,0.000000,0.000000,0.000000,0.000000
12870005.000000,-2.305104,-1.663376,1.229094,-1.451258,1.709059,1.296233,-0.583576,0.369986,-0.000249,1.178338,-0.326827,-0.230063,1.122919,-0.081590,2.331586,40.527081,-25.273636,-3.892336,0.356534,2.020675,-0.149369,0.000000,0.000000,0.000000,0.000000,0.000000,0.000000
12870006.000000,-2.304715,-1.663375,1.230240,-1.451577,1.708835,1.297363,-0.583652,0.375847,-0.000181,1.170949,-0.326120,-0.228200,1.112877,-0.078460,2.109418,40.527081,-24.857071,-3.797121,0.332731,1.949264,-0.188737,0.000000,0.000000,0.000000,0.000000,0.000000,0.000000
12870007.000000,-2.304329,-1.663374,1.231406,-1.451903,1.708608,1.298495,-0.583732,0.380259,0.000424,1.162031,-0.322219,-0.225819,1.115329,-0.077354,1.863447,40.503277,-24.634903,-3.697939,0.398649,1.773483,-0.202470,0.000000,0.000000,0.000000,0.000000,0.000000,0.000000
12870008.000000,-2.303948,-1.663367,1.232572,-1.452230,1.708378,1.299640,-0.583811,0.383328,0.002594,1.188044,-0.324123,-0.230674,1.116220,-0.077286,1.613508,40.404095,-24.583328,-3.523378,0.405057,1.624252,-0.196061,0.000000,0.000000,0.000000,0.000000,0.000000,0.000000
12870009.000000,-2.303565,-1.663368,1.233723,-1.452533,1.708147,1.300792,-0.583896,0.384518,0.000516,1.177904,-0.316508,-0.229760,1.119700,-0.083074,1.442914,40.455669,-24.190567,-3.598757,0.410551,1.513473,-0.149369,0.000000,0.000000,0.000000,0.000000,0.000000,0.000000
12870010.000000,-2.303196,-1.663371,1.234902,-1.452842,1.707916,1.301906,-0.583971,0.379271,-0.000774,1.176006,-0.311960,-0.231497,1.119591,-0.080063,1.367536,40.503277,-24.190567,-3.598757,0.476469,1.605026,-0.175919,0.000000,0.000000,0.000000,0.000000,0.000000,0.000000
12870011.000000,-2.302825,-1.663369,1.236055,-1.453128,1.707701,1.303023,-0.584046,0.374766,0.003319,1.167733,-0.302634,-0.222592,1.111644,-0.077002,1.343732,40.479473,-24.119156,-3.745546,0.416959,1.832076,-0.229020,0.000000,0.000000,0.000000,0.000000,0.000000,0.000000
12870012.000000,-2.302451,-1.663367,1.237223,-1.453432,1.707487,1.304138,-0.584138,0.375496,0.002483,1.160021,-0.302007,-0.223573,1.135260,-0.080440,1.192975,40.479473,-24.095352,-3.769350,0.416959,1.949264,-0.130143,0.000000,0.000000,0.000000,0.000000,0.000000,0.000000
12870013.000000,-2.302082,-1.663366,1.238385,-1.453734,1.707269,1.305277,-0.584205,0.370444,0.001858,1.159041,-0.302189,-0.218290,1.135960,-0.076510,1.121564,40.479473,-24.019974,-3.769350,0.381254,1.930038,-0.196061,0.000000,0.000000,0.000000,0.000000,0.000000,0.000000
12870014.000000,-2.301696,-1.663355,1.239531,-1.454025,1.707051,1.306435,-0.584284,0.372870,0.004825,1.159749,-0.299099,-0.213775,1.133995,-0.077087,0.895429,40.332684,-23.996170,-3.769350,0.327238,1.825668,-0.169511,0.000000,0.000000,0.000000,0.000000,0.000000,0.000000
12870015.000000,-2.301311,-1.663344,1.240690,-1.454335,1.706827,1.307554,-0.584364,0.376883,0.006208,1.156184,-0.301374,-0.220342,1.133308,-0.077966,0.601850,40.209698,-23.920792,-3.547182,0.410551,1.838485,-0.142960,0.000000,0.000000,0.000000,0.000000,0.000000,0.000000
12870016.000000,-2.300923,-1.663331,1.241820,-1.454629,1.706615,1.308681,-0.584439,0.376207,0.007658,1.152347,-0.303711,-0.210647,1.128928,-0.075803,0.304304,40.062908,-23.702591,-3.499574,0.374845,1.930038,-0.182328,0.000000,0.000000,0.000000,0.000000,0.000000,0.000000
12870017.000000,-2.300534,-1.663323,1.242959,-1.454926,1.706401,1.309819,-0.584518,0.379689,0.007489,1.145602,-0.298848,-0.215022,1.131908,-0.077084,-0.017047,39.963726,-23.456619,-3.400392,0.416959,1.884261,-0.142960,0.000000,0.000000,0.000000,0.000000,0.000000,0.000000
12870018.000000,-2.300158,-1.663314,1.244112,-1.455220,1.706187,1.310950,-0.584584,0.378004,0.010637,1.144573,-0.294761,-0.214128,1.130737,-0.079137,-0.167803,39.868511,-23.333633,-3.448000,0.452665,1.773483,-0.202470,0.000000,0.000000,0.000000,0.000000,0.000000,0.000000
12870019.000000,-2.299779,-1.663299,1.245251,-1.455502,1.705983,1.312076,-0.584662,0.377226,0.013988,1.145704,-0.286860,-0.212406,1.119067,-0.078982,-0.342364,39.721722,-23.309830,-3.570986,0.332731,1.786300,-0.182328,0.000000,0.000000,0.000000,0.000000,0.000000,0.000000
12870020.000000,-2.299406,-1.663288,1.246424,-1.455789,1.705769,1.313189,-0.584735,0.376318,0.011589,1.160622,-0.289609,-0.210506,1.117509,-0.078105,-0.489153,39.646343,-23.603409,-3.598757,0.308927,1.793624,-0.182328,0.000000,0.000000,0.000000,0.000000,0.000000,0.000000
12870021.000000,-2.299039,-1.663274,1.247572,-1.456066,1.705557,1.314315,-0.584813,0.371246,0.013026,1.154587,-0.284316,-0.209558,1.109525,-0.074681,-0.564532,39.574932,-23.774002,-3.697939,0.308927,1.851302,-0.130143,0.000000,0.000000,0.000000,0.000000,0.000000,0.000000
12870022.000000,-2.298668,-1.663267,1.248743,-1.456348,1.705343,1.315449,-0.584881,0.370010,0.012006,1.163999,-0.282131,-0.209629,1.115896,-0.068398,-0.612139,39.598736,-24.019974,-3.721742,0.327238,1.858627,-0.169511,0.000000,0.000000,0.000000,0.000000,0.000000,0.000000
12870023.000000,-2.298294,-1.663256,1.249932,-1.456620,1.705135,1.316551,-0.584952,0.369182,0.009252,1.170040,-0.279947,-0.210052,1.112290,-0.074743,-0.786700,39.574932,-24.464310,-3.868532,0.356534,1.955673,-0.175919,0.000000,0.000000,0.000000,0.000000,0.000000,0.000000
12870024.000000,-2.297925,-1.663239,1.251080,-1.456897,1.704929,1.317663,-0.585028,0.364691,0.012234,1.163710,-0.279428,-0.205273,1.102978,-0.076432,-0.834307,39.475750,-24.634903,-3.868532,0.386747,2.053634,-0.136552,0.000000,0.000000,0.000000,0.000000,0.000000,0.000000
12870025.000000,-2.297558,-1.663234,1.252251,-1.457164,1.704729,1.318776,-0.585098,0.374596,0.007144,1.156753,-0.273048,-0.204224,1.112920,-0.074376,-0.961260,39.547161,-24.805496,-3.967714,0.351041,2.014266,-0.182328,0.000000,0.000000,0.000000,0.000000,0.000000,0.000000
12870026.000000,-2.297205,-1.663231,1.253381,-1.457417,1.704515,1.319895,-0.585171,0.366661,0.007214,1.157321,-0.268073,-0.201814,1.120533,-0.075797,-0.885882,39.598736,-24.634903,-4.118471,0.393156,1.968490,-0.155778,0.000000,0.000000,0.000000,0.000000,0.000000,0.000000
12870027.000000,-2.296845,-1.663218,1.254526,-1.457680,1.704321,1.321009,-0.585240,0.360569,0.009169,1.152816,-0.266785,-0.196101,1.116262,-0.074784,-0.885882,39.574932,-24.436539,-4.142274,0.332731,2.047225,-0.175919,0.000000,0.000000,0.000000,0.000000,0.000000,0.000000
12870028.000000,-2.296493,-1.663212,1.255673,-1.457947,1.704129,1.322102,-0.585314,0.357321,0.009474,1.140957,-0.263886,-0.193669,1.114068,-0.075817,-0.862078,39.598736,-24.166763,-4.090700,0.308927,2.104903,-0.155778,0.000000,0.000000,0.000000,0.000000,0.000000,0.000000
12870029.000000,-2.296143,-1.663199,1.256791,-1.458210,1.703933,1.323219,-0.585380,0.350760,0.011418,1.132626,-0.266391,-0.191830,1.111775,-0.074862,-0.786700,39.547161,-23.726395,-3.991518,0.303434,2.112228,-0.175919,0.000000,0.000000,0.000000,0.000000,0.000000,0.000000
12870030.000000,-2.295800,-1.663183,1.257940,-1.458477,1.703749,1.324334,-0.585446,0.345159,0.014359,1.137978,-0.266759,-0.192752,1.130678,-0.069648,-0.711321,39.428143,-23.555801,-3.943910,0.255826,1.955673,-0.196061,0.000000,0.000000,0.000000,0.000000,0.000000,0.000000
12870031.000000,-2.295463,-1.663169,1.259080,-1.458743,1.703560,1.325464,-0.585513,0.341839,0.014792,1.130179,-0.264338,-0.190108,1.126712,-0.067630,-0.612139,39.376568,-23.333633,-3.868532,0.207303,1.812850,-0.163102,0.000000,0.000000,0.000000,0.000000,0.000000,0.000000
12870032.000000,-2.295126,-1.663149,1.260217,-1.458999,1.703363,1.326593,-0.585584,0.337395,0.014236,1.137371,-0.265584,-0.189193,1.119323,-0.064993,-0.465350,39.229778,-23.258255,-3.797121,0.189908,1.754256,-0.155778,0.000000,0.000000,0.000000,0.000000,0.000000,0.000000
12870033.000000,-2.294800,-1.663134,1.261361,-1.459251,1.703165,1.327698,-0.585648,0.334908,0.015178,1.134538,-0.259199,-0.195346,1.117172,-0.062824,-0.314593,39.158367,-23.186844,-3.892336,0.225614,1.760665,-0.155778,0.000000,0.000000,0.000000,0.000000,0.000000,0.000000
12870034.000000,-2.294478,-1.663119,1.262486,-1.459498,1.702970,1.328819,-0.585710,0.326875,0.016512,1.134383,-0.260302,-0.195082,1.116284,-0.060167,-0.116229,39.059185,-23.087662,-3.967714,0.273221,1.747848,-0.196061,0.000000,0.000000,0.000000,0.000000,0.000000,0.000000
12870035.000000,-2.294159,-1.663107,1.263634,-1.459743,1.702775,1.329948,-0.585776,0.324396,0.012998,1.133882,-0.256293,-0.199368,1.116164,-0.064723,0.030561,39.011578,-23.186844,-4.043092,0.339139,1.702071,-0.175919,0.000000,0.000000,0.000000,0.000000,0.000000,0.000000
12870036.000000,-2.293847,-1.663085,1.264782,-1.459994,1.702588,1.331061,-0.585844,0.320652,0.013406,1.135146,-0.253332,-0.191370,1.111242,-0.064466,0.252729,38.837017,-23.186844,-4.118471,0.332731,1.676437,-0.130143,0.000000,0.000000,0.000000,0.000000,0.000000,0.000000
12870037.000000,-2.293529,-1.663070,1.265901,-1.460237,1.702401,1.332174,-0.585902,0.315883,0.013749,1.135404,-0.249587,-0.189245,1.107925,-0.062110,0.403486,38.789410,-23.087662,-4.142274,0.308927,1.721298,-0.136552,0.000000,0.000000,0.000000,0.000000,0.000000,0.000000
12870038.000000,-2.293216,-1.663060,1.267028,-1.460485,1.702208,1.333278,-0.585959,0.317163,0.013042,1.129328,-0.245851,-0.188323,1.113346,-0.058976,0.502668,38.789410,-22.893265,-4.043092,0.297025,1.747848,-0.182328,0.000000,0.000000,0.000000,0.000000,0.000000,0.000000
12870039.000000,-2.292902,-1.663043,1.268139,-1.460738,1.702018,1.334398,-0.586020,0.314668,0.015019,1.123678,-0.248214,-0.187017,1.116171,-0.053541,0.625654,38.690228,-22.718704,-3.868532,0.267728,1.695663,-0.188737,0.000000,0.000000,0.000000,0.000000,0.000000,0.000000
12870040.000000,-2.292592,-1.663025,1.269255,-1.460979,1.701830,1.335521,-0.586087,0.314260,0.016836,1.130160,-0.247194,-0.182836,1.116862,-0.057003,0.673261,38.571209,-22.448929,-3.797121,0.267728,1.689254,-0.116410,0.000000,0.000000,0.000000,0.000000,0.000000,0.000000
12870041.000000,-2.292291,-1.663001,1.270401,-1.461225,1.701652,1.336634,-0.586139,0.308115,0.019309,1.128296,-0.247754,-0.178110,1.114977,-0.053755,0.824018,38.396648,-22.548111,-3.646364,0.231107,1.597701,-0.196061,0.000000,0.000000,0.000000,0.000000,0.000000,0.000000
12870042.000000,-2.291990,-1.662979,1.271523,-1.461455,1.701477,1.337776,-0.586207,0.301979,0.020506,1.129571,-0.241964,-0.174484,1.113016,-0.056538,1.022382,38.249859,-22.500504,-3.646364,0.201810,1.442062,-0.142960,0.000000,0.000000,0.000000,0.000000,0.000000,0.000000
12870043.000000,-2.291694,-1.662960,1.272678,-1.461704,1.701296,1.338894,-0.586269,0.307517,0.020619,1.135253,-0.240970,-0.175349,1.131958,-0.057406,1.145368,38.130840,-22.770279,-3.499574,0.255826,1.370651,-0.116410,0.000000,0.000000,0.000000,0.000000,0.000000,0.000000
12870044.000000,-2.291404,-1.662942,1.273813,-1.461946,1.701115,1.340016,-0.586323,0.299143,0.019770,1.138729,-0.239123,-0.179114,1.129292,-0.054648,1.343732,38.055462,-23.016251,-3.400392,0.273221,1.448470,-0.182328,0.000000,0.000000,0.000000,0.000000,0.000000,0.000000
12870045.000000,-2.291109,-1.662925,1.274972,-1.462182,1.700926,1.341131,-0.586387,0.295326,0.019720,1.141778,-0.238167,-0.187520,1.117493,-0.052154,1.415143,37.956280,-23.357437,-3.277406,0.315336,1.649886,-0.136552,0.000000,0.000000,0.000000,0.000000,0.000000,0.000000
12870046.000000,-2.290828,-1.662910,1.276130,-1.462415,1.700743,1.342222,-0.586440,0.293711,0.018593,1.143671,-0.238530,-0.183800,1.108102,-0.056239,1.688886,37.908672,-23.627213,-3.225832,0.344633,1.890670,-0.182328,0.000000,0.000000,0.000000,0.000000,0.000000,0.000000
12870047.000000,-2.290544,-1.662897,1.277265,-1.462652,1.700565,1.343341,-0.586499,0.293243,0.016610,1.138150,-0.237135,-0.179395,1.109318,-0.056852,1.835676,37.908672,-23.825577,-3.126650,0.339139,1.955673,-0.169511,0.000000,0.000000,0.000000,0.000000,0.000000,0.000000
12870048.000000,-2.290261,-1.662878,1.278415,-1.462890,1.700394,1.344470,-0.586559,0.289765,0.017639,1.135408,-0.237383,-0.180616,1.137235,-0.057737,1.962629,37.809490,-23.896988,-2.979860,0.339139,1.936446,-0.142960,0.000000,0.000000,0.000000,0.000000,0.000000,0.000000
12870049.000000,-2.289976,-1.662858,1.279572,-1.463131,1.700223,1.345584,-0.586610,0.289558,0.018907,1.138436,-0.241737,-0.177246,1.133120,-0.055192,2.010236,37.686504,-23.948563,-2.781496,0.327238,1.903487,-0.202470,0.000000,0.000000,0.000000,0.000000,0.000000,0.000000
12870050.000000,-2.289686,-1.662840,1.280695,-1.463384,1.700056,1.346690,-0.586664,0.287794,0.019072,1.141083,-0.244055,-0.169771,1.121901,-0.055572,1.962629,37.591290,-23.825577,-2.483949,0.303434,1.923629,-0.202470,0.000000,0.000000,0.000000,0.000000,0.000000,0.000000
12870051.000000,-2.289406,-1.662829,1.281830,-1.463635,1.699882,1.347788,-0.586724,0.286281,0.016391,1.133600,-0.244768,-0.175475,1.115150,-0.056928,1.934858,37.615093,-23.651016,-2.190370,0.332731,1.930038,-0.175919,0.000000,0.000000,0.000000,0.000000,0.000000,0.000000
12870052.000000,-2.289123,-1.662811,1.282938,-1.463882,1.699701,1.348894,-0.586786,0.281539,0.013100,1.110315,-0.247095,-0.171677,1.101206,-0.058499,1.986432,37.567486,-23.286026,-1.916628,0.405057,1.909896,-0.130143,0.000000,0.000000,0.000000,0.000000,0.000000,0.000000
12870053.000000,-2.288839,-1.662796,1.284075,-1.464124,1.699530,1.350016,-0.586832,0.280025,0.013842,1.120254,-0.246366,-0.175146,1.101703,-0.054876,2.010236,37.515911,-23.163040,-1.793642,0.422452,1.858627,-0.208878,0.000000,0.000000,0.000000,0.000000,0.000000,0.000000
12870054.000000,-2.288569,-1.662774,1.285219,-1.464364,1.699377,1.351113,-0.586891,0.277762,0.015788,1.127487,-0.240481,-0.169694,1.100215,-0.057612,2.085615,37.420696,-23.163040,-1.769838,0.320829,1.858627,-0.149369,0.000000,0.000000,0.000000,0.000000,0.000000,0.000000
12870055.000000,-2.288297,-1.662761,1.286340,-1.464591,1.699213,1.352240,-0.586945,0.271005,0.014647,1.125720,-0.233738,-0.165082,1.106432,-0.052861,2.232404,37.420696,-23.016251,-1.869020,0.320829,1.741439,-0.142960,0.000000,0.000000,0.000000,0.000000,0.000000,0.000000
12870056.000000,-2.288023,-1.662750,1.287478,-1.464820,1.699048,1.353357,-0.586996,0.274039,0.013424,1.131815,-0.230034,-0.163232,1.108911,-0.047305,2.184797,37.444500,-22.988480,-1.916628,0.362943,1.591293,-0.188737,0.000000,0.000000,0.000000,0.000000,0.000000,0.000000
12870057.000000,-2.287768,-1.662744,1.288605,-1.465057,1.698890,1.354459,-0.587047,0.267026,0.011531,1.131057,-0.232051,-0.159733,1.110704,-0.049672,2.383161,37.515911,-23.063858,-1.916628,0.356534,1.670028,-0.188737,0.000000,0.000000,0.000000,0.000000,0.000000,0.000000
12870058.000000,-2.287496,-1.662729,1.289752,-1.465284,1.698732,1.355568,-0.587100,0.268971,0.013026,1.134466,-0.231457,-0.157197,1.101883,-0.051815,2.430768,37.468304,-23.163040,-1.869020,0.351041,1.806442,-0.175919,0.000000,0.000000,0.000000,0.000000,0.000000,0.000000
12870059.000000,-2.287222,-1.662720,1.290890,-1.465507,1.698571,1.356673,-0.587155,0.269997,0.011814,1.133245,-0.227127,-0.155404,1.111358,-0.050329,2.359357,37.515911,-23.111465,-1.841249,0.351041,1.767074,-0.122819,0.000000,0.000000,0.000000,0.000000,0.000000,0.000000
12870060.000000,-2.286952,-1.662714,1.292001,-1.465731,1.698405,1.357808,-0.587197,0.269392,0.010436,1.135103,-0.228505,-0.155015,1.120895,-0.048361,2.307783,37.591290,-22.988480,-1.769838,0.381254,1.584884,-0.215287,0.000000,0.000000,0.000000,0.000000,0.000000,0.000000
12870061.000000,-2.286682,-1.662704,1.293126,-1.465953,1.698243,1.358907,-0.587250,0.275263,0.008011,1.124632,-0.225097,-0.155932,1.116629,-0.047342,2.208601,37.591290,-22.893265,-1.742067,0.434354,1.513473,-0.175919,0.000000,0.000000,0.000000,0.000000,0.000000,0.000000
12870062.000000,-2.286409,-1.662684,1.294229,-1.466165,1.698092,1.360008,-0.587301,0.272706,0.012230,1.121156,-0.221564,-0.151921,1.105746,-0.045694,2.061811,37.468304,-22.671097,-1.769838,0.369352,1.630660,-0.155778,0.000000,0.000000,0.000000,0.000000,0.000000,0.000000
12870063.000000,-2.286149,-1.662677,1.295339,-1.466375,1.697934,1.361117,-0.587347,0.268338,0.011094,1.118246,-0.216417,-0.152813,1.095383,-0.046482,2.061811,37.515911,-22.377518,-1.769838,0.398649,1.695663,-0.202470,0.000000,0.000000,0.000000,0.000000,0.000000,0.000000
12870064.000000,-2.285879,-1.662669,1.296460,-1.466577,1.697776,1.362219,-0.587399,0.268724,0.010333,1.111544,-0.212172,-0.149900,1.098669,-0.050372,1.962629,37.567486,-22.230728,-1.892824,0.464567,1.741439,-0.169511,0.000000,0.000000,0.000000,0.000000,0.000000,0.000000
12870065.000000,-2.285607,-1.662654,1.297578,-1.466789,1.697638,1.363337,-0.587443,0.269454,0.012332,1.112527,-0.211425,-0.140291,1.096575,-0.045720,1.863447,37.515911,-22.278336,-1.817445,0.339139,1.727706,-0.208878,0.000000,0.000000,0.000000,0.000000,0.000000,0.000000
12870066.000000,-2.285336,-1.662633,1.298725,-1.466995,1.697492,1.364468,-0.587501,0.266703,0.013200,1.126757,-0.209944,-0.144382,1.124716,-0.050466,1.740461,37.345318,-22.548111,-1.769838,0.273221,1.662704,-0.155778,0.000000,0.000000,0.000000,0.000000,0.000000,0.000000
12870067.000000,-2.285069,-1.662618,1.299882,-1.467191,1.697331,1.365571,-0.587549,0.265314,0.017077,1.129163,-0.203225,-0.147626,1.117694,-0.051608,1.613508,37.297710,-22.988480,-1.817445,0.308927,1.630660,-0.163102,0.000000,0.000000,0.000000,0.000000,0.000000,0.000000
12870068.000000,-2.284803,-1.662610,1.301022,-1.467388,1.697179,1.366681,-0.587597,0.262867,0.013941,1.141618,-0.200075,-0.146730,1.115684,-0.047037,1.514325,37.369122,-23.357437,-1.793642,0.261320,1.617843,-0.188737,0.000000,0.000000,0.000000,0.000000,0.000000,0.000000
12870069.000000,-2.284544,-1.662599,1.302175,-1.467574,1.697022,1.367769,-0.587652,0.261739,0.012991,1.143170,-0.193264,-0.150735,1.111782,-0.046702,1.415143,37.392925,-23.678787,-1.940431,0.339139,1.708480,-0.142960,0.000000,0.000000,0.000000,0.000000,0.000000,0.000000
12870070.000000,-2.284282,-1.662588,1.303300,-1.467757,1.696864,1.368860,-0.587698,0.262277,0.012893,1.124876,-0.194391,-0.152538,1.107984,-0.043893,1.343732,37.392925,-23.873184,-2.063417,0.398649,1.825668,-0.155778,0.000000,0.000000,0.000000,0.000000,0.000000,0.000000
12870071.000000,-2.284015,-1.662578,1.304438,-1.467930,1.696715,1.369963,-0.587743,0.261483,0.012958,1.124089,-0.185531,-0.151800,1.102808,-0.042010,1.244550,37.392925,-23.972366,-2.261781,0.393156,1.884261,-0.163102,0.000000,0.000000,0.000000,0.000000,0.000000,0.000000
12870072.000000,-2.283751,-1.662572,1.305572,-1.468102,1.696564,1.371041,-0.587783,0.261540,0.011675,1.125281,-0.182694,-0.152762,1.091705,-0.038750,1.121564,37.444500,-23.948563,-2.436342,0.434354,1.890670,-0.221696,0.000000,0.000000,0.000000,0.000000,0.000000,0.000000
12870073.000000,-2.283481,-1.662569,1.306675,-1.468281,1.696423,1.372133,-0.587835,0.264931,0.009129,1.118340,-0.180807,-0.145122,1.079330,-0.041094,0.947004,37.567486,-23.702591,-2.483949,0.381254,1.916305,-0.155778,0.000000,0.000000,0.000000,0.000000,0.000000,0.000000
12870074.000000,-2.283217,-1.662569,1.307805,-1.468456,1.696279,1.373224,-0.587875,0.262504,0.006800,1.122868,-0.178636,-0.144871,1.087207,-0.039204,0.748639,37.714275,-23.555801,-2.535524,0.339139,1.832076,-0.182328,0.000000,0.000000,0.000000,0.000000,0.000000,0.000000
12870075.000000,-2.282952,-1.662570,1.308914,-1.468634,1.696128,1.374318,-0.587916,0.260311,0.006057,1.120374,-0.179538,-0.146276,1.092892,-0.043135,0.550275,37.833294,-23.286026,-2.483949,0.332731,1.865035,-0.202470,0.000000,0.000000,0.000000,0.000000,0.000000,0.000000
12870076.000000,-2.282693,-1.662567,1.310036,-1.468799,1.695980,1.375423,-0.587965,0.260384,0.004452,1.117652,-0.175011,-0.146046,1.095333,-0.043722,0.427289,37.861065,-23.111465,-2.511720,0.291532,1.832076,-0.149369,0.000000,0.000000,0.000000,0.000000,0.000000,0.000000
12870077.000000,-2.282436,-1.662561,1.311162,-1.468956,1.695841,1.376535,-0.588000,0.258866,0.003208,1.113726,-0.172299,-0.141200,1.103363,-0.040335,0.351911,37.884869,-22.988480,-2.634706,0.249418,1.605026,-0.196061,0.000000,0.000000,0.000000,0.000000,0.000000,0.000000
12870078.000000,-2.282183,-1.662559,1.312272,-1.469109,1.695695,1.377663,-0.588046,0.255300,0.001623,1.114396,-0.165884,-0.141292,1.111028,-0.040951,0.375715,37.932476,-22.893265,-2.833071,0.320829,1.383468,-0.163102,0.000000,0.000000,0.000000,0.000000,0.000000,0.000000
12870079.000000,-2.281933,-1.662557,1.313403,-1.469253,1.695556,1.378753,-0.588092,0.256585,0.000324,1.120074,-0.160774,-0.143970,1.133116,-0.041065,0.328107,37.984051,-22.917068,-3.055238,0.332731,1.377059,-0.136552,0.000000,0.000000,0.000000,0.000000,0.000000,0.000000
12870080.000000,-2.281680,-1.662558,1.314513,-1.469393,1.695418,1.379849,-0.588126,0.254278,0.001934,1.118487,-0.151652,-0.141613,1.126748,-0.038430,0.228925,38.055462,-22.893265,-3.249635,0.351041,1.519881,-0.182328,0.000000,0.000000,0.000000,0.000000,0.000000,0.000000
12870081.000000,-2.281428,-1.662560,1.315637,-1.469535,1.695281,1.380944,-0.588167,0.252132,0.000033,1.112913,-0.147541,-0.144509,1.110894,-0.038965,0.105939,38.130840,-22.893265,-3.325014,0.369352,1.695663,-0.163102,0.000000,0.000000,0.000000,0.000000,0.000000,0.000000
12870082.000000,-2.281184,-1.662563,1.316762,-1.469667,1.695151,1.382040,-0.588206,0.249970,0.001610,1.113440,-0.142130,-0.139873,1.105172,-0.037494,0.006757,38.226055,-22.865494,-3.475771,0.332731,1.767074,-0.188737,0.000000,0.000000,0.000000,0.000000,0.000000,0.000000
12870083.000000,-2.280934,-1.662561,1.317869,-1.469799,1.695027,1.383152,-0.588252,0.249592,0.002758,1.109774,-0.139717,-0.138865,1.096870,-0.039781,-0.116229,38.178448,-22.865494,-3.570986,0.243009,1.767074,-0.130143,0.000000,0.000000,0.000000,0.000000,0.000000,0.000000
12870084.000000,-2.280676,-1.662560,1.318991,-1.469937,1.694900,1.384278,-0.588285,0.250156,0.002824,1.111434,-0.140569,-0.134350,1.098520,-0.037183,-0.314593,38.154644,-22.893265,-3.547182,0.178007,1.727706,-0.182328,0.000000,0.000000,0.000000,0.000000,0.000000,0.000000
12870085.000000,-2.280423,-1.662555,1.320107,-1.470073,1.694765,1.385377,-0.588326,0.251139,0.003967,1.110363,-0.138302,-0.133225,1.103032,-0.038063,-0.512957,38.079266,-22.742508,-3.499574,0.154203,1.708480,-0.163102,0.000000,0.000000,0.000000,0.000000,0.000000,0.000000
12870086.000000,-2.280168,-1.662553,1.321188,-1.470203,1.694623,1.386491,-0.588357,0.248704,0.003443,1.102349,-0.137123,-0.136466,1.099461,-0.036445,-0.735125,38.055462,-22.448929,-3.424196,0.243009,1.695663,-0.202470,0.000000,0.000000,0.000000,0.000000,0.000000,0.000000
12870087.000000,-2.279916,-1.662544,1.322307,-1.470324,1.694492,1.387584,-0.588395,0.249800,0.005353,1.105419,-0.129696,-0.137420,1.097550,-0.037479,-0.933489,37.932476,-22.425125,-3.475771,0.303434,1.727706,-0.188737,0.000000,0.000000,0.000000,0.000000,0.000000,0.000000
12870088.000000,-2.279671,-1.662537,1.323415,-1.470440,1.694367,1.388691,-0.588435,0.247614,0.005374,1.092537,-0.129609,-0.134755,1.096969,-0.039280,-1.032672,37.861065,-22.500504,-3.547182,0.279630,1.727706,-0.142960,0.000000,0.000000,0.000000,0.000000,0.000000,0.000000
12870089.000000,-2.279433,-1.662533,1.324546,-1.470558,1.694239,1.389810,-0.588466,0.242111,0.004891,1.097927,-0.127076,-0.129271,1.098169,-0.031855,-1.060443,37.809490,-22.718704,-3.622560,0.279630,1.682845,-0.202470,0.000000,0.000000,0.000000,0.000000,0.000000,0.000000
12870090.000000,-2.279197,-1.662529,1.325699,-1.470671,1.694121,1.390898,-0.588505,0.242523,0.004451,1.113430,-0.120800,-0.123308,1.101131,-0.031128,-1.131854,37.761883,-23.111465,-3.745546,0.231107,1.702071,-0.136552,0.000000,0.000000,0.000000,0.000000,0.000000,0.000000
12870091.000000,-2.278958,-1.662534,1.326830,-1.470782,1.693998,1.392005,-0.588541,0.241378,0.001354,1.119524,-0.120269,-0.124105,1.097295,-0.032613,-1.159625,37.833294,-23.456619,-3.844728,0.195402,1.708480,-0.136552,0.000000,0.000000,0.000000,0.000000,0.000000,0.000000
12870092.000000,-2.278718,-1.662534,1.327971,-1.470890,1.693875,1.393068,-0.588571,0.247717,0.000945,1.119893,-0.116983,-0.126225,1.086061,-0.032380,-1.254840,37.833294,-23.873184,-3.920107,0.195402,1.877853,-0.175919,0.000000,0.000000,0.000000,0.000000,0.000000,0.000000
12870093.000000,-2.278481,-1.662538,1.329104,-1.471001,1.693753,1.394155,-0.588607,0.244942,-0.000544,1.126391,-0.112902,-0.121318,1.074570,-0.030811,-1.381793,37.884869,-24.190567,-3.943910,0.154203,2.014266,-0.130143,0.000000,0.000000,0.000000,0.000000,0.000000,0.000000
12870094.000000,-2.278243,-1.662543,1.330241,-1.471109,1.693624,1.395259,-0.588633,0.239971,-0.002009,1.130137,-0.110181,-0.120961,1.075891,-0.025661,-1.528582,37.956280,-24.313553,-3.943910,0.189908,2.001449,-0.188737,0.000000,0.000000,0.000000,0.000000,0.000000,0.000000
12870095.000000,-2.278008,-1.662543,1.331373,-1.471213,1.693493,1.396349,-0.588672,0.239973,-0.001321,1.125270,-0.107181,-0.125654,1.078703,-0.030719,-1.703143,37.956280,-24.289749,-3.967714,0.237516,1.942855,-0.136552,0.000000,0.000000,0.000000,0.000000,0.000000,0.000000
12870096.000000,-2.277775,-1.662546,1.332489,-1.471310,1.693367,1.397453,-0.588699,0.239444,-0.002074,1.119740,-0.103428,-0.122954,1.079930,-0.025440,-1.873736,38.007854,-24.265945,-4.066896,0.255826,1.844894,-0.196061,0.000000,0.000000,0.000000,0.000000,0.000000,0.000000
12870097.000000,-2.277550,-1.662553,1.333610,-1.471409,1.693246,1.398529,-0.588737,0.242899,-0.003600,1.114784,-0.101266,-0.121239,1.103207,-0.025635,-1.925311,38.103069,-24.095352,-4.142274,0.279630,1.884261,-0.149369,0.000000,0.000000,0.000000,0.000000,0.000000,0.000000
12870098.000000,-2.277320,-1.662565,1.334727,-1.471516,1.693120,1.399611,-0.588763,0.236452,-0.006475,1.114490,-0.102593,-0.124622,1.093935,-0.027139,-2.000689,38.277630,-23.750198,-4.090700,0.308927,1.968490,-0.188737,0.000000,0.000000,0.000000,0.000000,0.000000,0.000000
12870099.000000,-2.277090,-1.662576,1.335823,-1.471616,1.692998,1.400708,-0.588796,0.233082,-0.013509,1.103388,-0.099569,-0.121796,1.094124,-0.025142,-2.048296,38.396648,-23.456619,-4.066896,0.315336,1.962081,-0.188737,0.000000,0.000000,0.000000,0.000000,0.000000,0.000000
12870100.000000,-2.276876,-1.662582,1.336943,-1.471718,1.692887,1.401794,-0.588829,0.223864,-0.011300,1.105681,-0.100685,-0.116638,1.095944,-0.029391,-2.024493,38.472027,-23.381241,-4.019289,0.237516,1.916305,-0.155778,0.000000,0.000000,0.000000,0.000000,0.000000,0.000000
12870101.000000,-2.276656,-1.662588,1.338048,-1.471811,1.692781,1.402898,-0.588859,0.221616,-0.009044,1.111533,-0.100534,-0.110834,1.089561,-0.030436,-2.048296,38.519634,-23.286026,-4.019289,0.112089,1.812850,-0.182328,0.000000,0.000000,0.000000,0.000000,0.000000,0.000000
12870102.000000,-2.276439,-1.662594,1.339170,-1.471900,1.692670,1.404012,-0.588895,0.215287,-0.008091,1.109864,-0.098867,-0.110461,1.085678,-0.034551,-2.024493,38.595013,-23.309830,-4.090700,0.088285,1.702071,-0.122819,0.000000,0.000000,0.000000,0.000000,0.000000,0.000000
12870103.000000,-2.276232,-1.662599,1.340301,-1.471987,1.692548,1.405103,-0.588919,0.210742,-0.007288,1.108444,-0.096357,-0.113092,1.084703,-0.033497,-1.972918,38.666424,-23.357437,-4.213686,0.129484,1.662704,-0.169511,0.000000,0.000000,0.000000,0.000000,0.000000,0.000000
12870104.000000,-2.276023,-1.662608,1.341418,-1.472071,1.692431,1.406189,-0.588953,0.207891,-0.010973,1.110411,-0.092921,-0.113538,1.081596,-0.030477,-1.972918,38.789410,-23.432816,-4.289064,0.141385,1.767074,-0.155778,0.000000,0.000000,0.000000,0.000000,0.000000,0.000000
12870105.000000,-2.275814,-1.662615,1.342532,-1.472150,1.692307,1.407273,-0.588979,0.208733,-0.009460,1.107517,-0.091347,-0.111537,1.079870,-0.026318,-1.949114,38.864788,-23.409012,-4.439821,0.219205,1.773483,-0.188737,0.000000,0.000000,0.000000,0.000000,0.000000,0.000000
12870106.000000,-2.275602,-1.662621,1.343644,-1.472229,1.692184,1.408370,-0.589007,0.207460,-0.010957,1.106403,-0.090157,-0.109163,1.083876,-0.025230,-1.972918,38.912395,-23.504227,-4.586610,0.285123,1.767074,-0.169511,0.000000,0.000000,0.000000,0.000000,0.000000,0.000000
12870107.000000,-2.275386,-1.662626,1.344760,-1.472318,1.692067,1.409481,-0.589039,0.208324,-0.012131,1.105436,-0.091506,-0.110510,1.089762,-0.030103,-2.072100,38.960003,-23.480423,-4.535036,0.303434,1.676437,-0.130143,0.000000,0.000000,0.000000,0.000000,0.000000,0.000000
12870108.000000,-2.275174,-1.662632,1.345864,-1.472403,1.691955,1.410564,-0.589058,0.209790,-0.009927,1.099401,-0.088842,-0.115453,1.095911,-0.024987,-2.222857,39.011578,-23.309830,-4.487428,0.303434,1.670028,-0.188737,0.000000,0.000000,0.000000,0.000000,0.000000,0.000000
12870109.000000,-2.274960,-1.662636,1.346955,-1.472483,1.691847,1.411659,-0.589087,0.206501,-0.007650,1.099964,-0.086775,-0.111366,1.092420,-0.028775,-2.345843,39.035381,-23.135269,-4.439821,0.219205,1.682845,-0.175919,0.000000,0.000000,0.000000,0.000000,0.000000,0.000000
12870110.000000,-2.274756,-1.662638,1.348062,-1.472563,1.691738,1.412742,-0.589111,0.209170,-0.004899,1.096707,-0.084956,-0.110946,1.090045,-0.030553,-2.445025,39.011578,-22.988480,-4.388246,0.189908,1.637069,-0.188737,0.000000,0.000000,0.000000,0.000000,0.000000,0.000000
12870111.000000,-2.274546,-1.662641,1.349164,-1.472645,1.691629,1.413832,-0.589139,0.206992,-0.006894,1.116324,-0.083784,-0.114537,1.084054,-0.033788,-2.591815,39.011578,-23.063858,-4.340639,0.141385,1.702071,-0.155778,0.000000,0.000000,0.000000,0.000000,0.000000,0.000000
12870112.000000,-2.274348,-1.662640,1.350285,-1.472717,1.691523,1.414933,-0.589159,0.202629,-0.007074,1.117169,-0.077246,-0.112524,1.080912,-0.028714,-2.619586,38.960003,-23.163040,-4.388246,0.093778,1.735030,-0.188737,0.000000,0.000000,0.000000,0.000000,0.000000,0.000000
12870113.000000,-2.274154,-1.662638,1.351426,-1.472783,1.691407,1.416034,-0.589187,0.198078,-0.004230,1.119157,-0.073711,-0.109904,1.087750,-0.027518,-2.591815,38.912395,-23.504227,-4.511232,0.141385,1.637069,-0.155778,0.000000,0.000000,0.000000,0.000000,0.000000,0.000000
12870114.000000,-2.273955,-1.662635,1.352553,-1.472850,1.691281,1.417134,-0.589208,0.196007,-0.002177,1.122819,-0.073779,-0.113531,1.083245,-0.024349,-2.619586,38.864788,-23.948563,-4.535036,0.219205,1.617843,-0.182328,0.000000,0.000000,0.000000,0.000000,0.000000,0.000000
12870115.000000,-2.273768,-1.662632,1.353700,-1.472924,1.691163,1.418213,-0.589232,0.191693,-0.000041,1.129741,-0.074973,-0.118730,1.094316,-0.022996,-2.520403,38.789410,-24.388931,-4.511232,0.243009,1.676437,-0.182328,0.000000,0.000000,0.000000,0.000000,0.000000,0.000000
12870116.000000,-2.273579,-1.662634,1.354846,-1.472989,1.691037,1.419297,-0.589262,0.188550,-0.001406,1.133433,-0.071346,-0.115061,1.094027,-0.023960,-2.544207,38.837017,-24.706314,-4.535036,0.315336,1.819259,-0.130143,0.000000,0.000000,0.000000,0.000000,0.000000,0.000000
12870117.000000,-2.273394,-1.662639,1.355970,-1.473058,1.690917,1.420384,-0.589279,0.190389,-0.002899,1.131616,-0.069892,-0.115339,1.088297,-0.020052,-2.520403,38.912395,-24.976089,-4.511232,0.344633,1.981307,-0.196061,0.000000,0.000000,0.000000,0.000000,0.000000,0.000000
12870118.000000,-2.273206,-1.662643,1.357089,-1.473124,1.690807,1.421458,-0.589306,0.191275,-0.002638,1.129461,-0.069247,-0.112517,1.086542,-0.021995,-2.591815,38.936199,-24.976089,-4.463624,0.297025,2.098495,-0.136552,0.000000,0.000000,0.000000,0.000000,0.000000,0.000000
12870119.000000,-2.273027,-1.662650,1.358195,-1.473189,1.690704,1.422548,-0.589330,0.187020,-0.004190,1.121085,-0.068309,-0.109231,1.081777,-0.025990,-2.568011,39.035381,-24.928482,-4.412050,0.213712,2.144271,-0.130143,0.000000,0.000000,0.000000,0.000000,0.000000,0.000000
12870120.000000,-2.272844,-1.662647,1.359311,-1.473258,1.690600,1.423648,-0.589343,0.185470,-0.001114,1.125859,-0.067048,-0.111324,1.073505,-0.021619,-2.619586,38.960003,-24.805496,-4.265260,0.129484,2.112228,-0.196061,0.000000,0.000000,0.000000,0.000000,0.000000,0.000000
12870121.000000,-2.272662,-1.662654,1.360435,-1.473323,1.690490,1.424739,-0.589367,0.185435,-0.002012,1.118447,-0.068033,-0.111779,1.077405,-0.022544,-2.718768,39.011578,-24.706314,-4.166078,0.117582,2.027084,-0.155778,0.000000,0.000000,0.000000,0.000000,0.000000,0.000000
12870122.000000,-2.272486,-1.662653,1.361526,-1.473389,1.690375,1.425829,-0.589381,0.184357,-0.000182,1.109892,-0.069588,-0.113710,1.080011,-0.019827,-2.667193,38.960003,-24.341324,-4.019289,0.154203,2.014266,-0.202470,0.000000,0.000000,0.000000,0.000000,0.000000,0.000000
12870123.000000,-2.272318,-1.662660,1.362645,-1.473453,1.690260,1.426902,-0.589402,0.176745,-0.004050,1.112081,-0.066370,-0.117075,1.074202,-0.020587,-2.568011,38.983807,-24.242142,-3.920107,0.249418,2.014266,-0.182328,0.000000,0.000000,0.000000,0.000000,0.000000,0.000000
12870124.000000,-2.272148,-1.662662,1.363746,-1.473512,1.690148,1.427995,-0.589419,0.171594,-0.005689,1.092872,-0.064517,-0.112284,1.081014,-0.019474,-2.520403,38.960003,-24.166763,-3.920107,0.285123,1.981307,-0.202470,0.000000,0.000000,0.000000,0.000000,0.000000,0.000000
12870125.000000,-2.271988,-1.662664,1.364863,-1.473568,1.690034,1.429095,-0.589444,0.166437,-0.003735,1.093756,-0.063677,-0.117462,1.087152,-0.021281,-2.369647,38.936199,-24.142960,-3.920107,0.297025,1.903487,-0.149369,0.000000,0.000000,0.000000,0.000000,0.000000,0.000000
12870126.000000,-2.271836,-1.662666,1.365993,-1.473613,1.689926,1.430181,-0.589459,0.158830,-0.005477,1.102707,-0.056526,-0.115080,1.091058,-0.019092,-2.199053,38.912395,-24.218338,-4.066896,0.267728,1.844894,-0.188737,0.000000,0.000000,0.000000,0.000000,0.000000,0.000000
12870127.000000,-2.271682,-1.662669,1.367102,-1.473658,1.689822,1.431282,-0.589479,0.157398,-0.004196,1.107614,-0.053269,-0.112028,1.087427,-0.019299,-2.072100,38.912395,-24.265945,-4.142274,0.207303,1.760665,-0.182328,0.000000,0.000000,0.000000,0.000000,0.000000,0.000000
12870128.000000,-2.271537,-1.662672,1.368226,-1.473705,1.689716,1.432356,-0.589500,0.154908,-0.003206,1.105053,-0.052088,-0.107534,1.077868,-0.019646,-1.901507,38.912395,-24.365128,-4.166078,0.201810,1.812850,-0.169511,0.000000,0.000000,0.000000,0.000000,0.000000,0.000000
12870129.000000,-2.271384,-1.662677,1.369322,-1.473756,1.689614,1.433440,-0.589516,0.156559,-0.003000,1.107926,-0.053051,-0.104096,1.067930,-0.019448,-1.849932,38.936199,-24.365128,-4.118471,0.195402,1.942855,-0.169511,0.000000,0.000000,0.000000,0.000000,0.000000,0.000000
12870130.000000,-2.271235,-1.662684,1.370428,-1.473804,1.689512,1.434540,-0.589532,0.157145,-0.003344,1.107395,-0.053009,-0.101554,1.069674,-0.018748,-1.778521,38.983807,-24.313553,-4.090700,0.195402,1.955673,-0.182328,0.000000,0.000000,0.000000,0.000000,0.000000,0.000000
12870131.000000,-2.271091,-1.662687,1.371534,-1.473856,1.689407,1.435636,-0.589552,0.154865,-0.005566,1.103122,-0.051892,-0.106994,1.079347,-0.019021,-1.726946,38.983807,-24.119156,-3.967714,0.261320,1.865035,-0.175919,0.000000,0.000000,0.000000,0.000000,0.000000,0.000000
12870132.000000,-2.270943,-1.662680,1.372628,-1.473903,1.689312,1.436745,-0.589575,0.149821,-0.000113,1.100246,-0.049773,-0.106881,1.076633,-0.021443,-1.679339,38.813213,-24.071548,-3.892336,0.225614,1.727706,-0.110001,0.000000,0.000000,0.000000,0.000000,0.000000,0.000000
12870133.000000,-2.270798,-1.662675,1.373714,-1.473950,1.689214,1.437830,-0.589580,0.145668,0.002507,1.095036,-0.051200,-0.102947,1.103999,-0.017134,-1.603961,38.690228,-23.801773,-3.820925,0.201810,1.689254,-0.202470,0.000000,0.000000,0.000000,0.000000,0.000000,0.000000
12870134.000000,-2.270661,-1.662678,1.374820,-1.473993,1.689111,1.438922,-0.589603,0.142063,0.002564,1.096831,-0.048611,-0.101515,1.104365,-0.024162,-1.504779,38.642620,-23.678787,-3.769350,0.225614,1.741439,-0.155778,0.000000,0.000000,0.000000,0.000000,0.000000,0.000000
12870135.000000,-2.270526,-1.662681,1.375910,-1.474033,1.689011,1.440027,-0.589619,0.138407,-0.002205,1.092508,-0.043135,-0.100649,1.104158,-0.023023,-1.405596,38.666424,-23.627213,-3.745546,0.249418,1.741439,-0.149369,0.000000,0.000000,0.000000,0.000000,0.000000,0.000000
12870136.000000,-2.270398,-1.662675,1.377018,-1.474075,1.688914,1.441107,-0.589629,0.135661,0.001016,1.097761,-0.043140,-0.099081,1.098175,-0.020513,-1.282611,38.543438,-23.726395,-3.670168,0.249418,1.832076,-0.188737,0.000000,0.000000,0.000000,0.000000,0.000000,0.000000
12870137.000000,-2.270274,-1.662677,1.378136,-1.474108,1.688818,1.442198,-0.589647,0.130892,0.000942,1.105219,-0.038325,-0.095595,1.085775,-0.016694,-1.159625,38.519634,-24.071548,-3.670168,0.195402,1.897079,-0.155778,0.000000,0.000000,0.000000,0.000000,0.000000,0.000000
12870138.000000,-2.270152,-1.662674,1.379274,-1.474145,1.688722,1.443304,-0.589653,0.125959,0.001522,1.121273,-0.038454,-0.097522,1.085351,-0.015483,-0.985064,38.472027,-24.559525,-3.646364,0.141385,1.884261,-0.202470,0.000000,0.000000,0.000000,0.000000,0.000000,0.000000
12870139.000000,-2.270033,-1.662678,1.380396,-1.474174,1.688620,1.444391,-0.589673,0.120542,-0.000264,1.115452,-0.036807,-0.098602,1.083022,-0.018684,-0.862078,38.519634,-24.829300,-3.697939,0.189908,1.884261,-0.142960,0.000000,0.000000,0.000000,0.000000,0.000000,0.000000
12870140.000000,-2.269909,-1.662683,1.381511,-1.474208,1.688515,1.445487,-0.589685,0.121946,-0.002063,1.121356,-0.038281,-0.099132,1.083587,-0.017885,-0.834307,38.595013,-25.126846,-3.646364,0.237516,1.903487,-0.163102,0.000000,0.000000,0.000000,0.000000,0.000000,0.000000
12870141.000000,-2.269792,-1.662685,1.382634,-1.474238,1.688417,1.446559,-0.589697,0.122044,-0.002024,1.117884,-0.035994,-0.098938,1.079932,-0.013676,-0.762896,38.618816,-25.273636,-3.598757,0.273221,1.955673,-0.155778,0.000000,0.000000,0.000000,0.000000,0.000000,0.000000
12870142.000000,-2.269675,-1.662687,1.383740,-1.474275,1.688319,1.447643,-0.589705,0.118930,-0.001976,1.100610,-0.036799,-0.098010,1.081827,-0.013272,-0.711321,38.642620,-25.368851,-3.448000,0.291532,2.027084,-0.202470,0.000000,0.000000,0.000000,0.000000,0.000000,0.000000
12870143.000000,-2.269555,-1.662697,1.384832,-1.474305,1.688223,1.448740,-0.589721,0.122275,-0.004803,1.094663,-0.035053,-0.100842,1.088899,-0.010825,-0.762896,38.789410,-25.075272,-3.376589,0.267728,1.955673,-0.182328,0.000000,0.000000,0.000000,0.000000,0.000000,0.000000
12870144.000000,-2.269445,-1.662710,1.385941,-1.474334,1.688124,1.449824,-0.589734,0.118540,-0.006675,1.093667,-0.033918,-0.099923,1.095493,-0.013295,-0.687518,38.936199,-24.904678,-3.301210,0.285123,1.819259,-0.169511,0.000000,0.000000,0.000000,0.000000,0.000000,0.000000
12870145.000000,-2.269326,-1.662714,1.387033,-1.474364,1.688025,1.450906,-0.589741,0.118008,-0.005593,1.092197,-0.033783,-0.101567,1.088154,-0.013696,-0.711321,38.983807,-24.734085,-3.202028,0.255826,1.819259,-0.196061,0.000000,0.000000,0.000000,0.000000,0.000000,0.000000
12870146.000000,-2.269218,-1.662718,1.388124,-1.474395,1.687934,1.451974,-0.589758,0.115135,-0.004400,1.086654,-0.034063,-0.098588,1.101445,-0.011557,-0.663714,39.011578,-24.412735,-3.079042,0.219205,1.838485,-0.163102,0.000000,0.000000,0.000000,0.000000,0.000000,0.000000
12870147.000000,-2.269105,-1.662723,1.389213,-1.474421,1.687830,1.453060,-0.589765,0.116054,-0.006742,1.090851,-0.032526,-0.099527,1.090156,-0.012410,-0.711321,39.035381,-24.289749,-3.027467,0.267728,1.865035,-0.188737,0.000000,0.000000,0.000000,0.000000,0.000000,0.000000
12870148.000000,-2.269003,-1.662727,1.390311,-1.474441,1.687734,1.454165,-0.589780,0.109800,-0.005334,1.097370,-0.030118,-0.097662,1.087795,-0.010806,-0.612139,39.059185,-24.119156,-3.027467,0.255826,1.800033,-0.149369,0.000000,0.000000,0.000000,0.000000,0.000000,0.000000
12870150.000000,-2.268806,-1.662730,1.392520,-1.474469,1.687531,1.456366,-0.589801,0.103110,-0.005620,1.100245,-0.022292,-0.099377,1.092596,-0.007391,-0.441546,38.936199,-24.190567,-3.126650,0.255826,1.546432,-0.130143,0.000000,0.000000,0.000000,0.000000,0.000000,0.000000
12870151.000000,-2.268713,-1.662729,1.393631,-1.474479,1.687431,1.457473,-0.589809,0.099914,-0.002031,1.100220,-0.018707,-0.098250,1.094245,-0.004906,-0.314593,38.837017,-24.265945,-3.178224,0.273221,1.481429,-0.142960,0.000000,0.000000,0.000000,0.000000,0.000000,0.000000
12870152.000000,-2.268617,-1.662736,1.394746,-1.474490,1.687329,1.458554,-0.589812,0.100252,-0.001807,1.101231,-0.017437,-0.102627,1.094183,-0.005930,-0.290789,38.837017,-24.365128,-3.178224,0.291532,1.584884,-0.208878,0.000000,0.000000,0.000000,0.000000,0.000000,0.000000
12870153.000000,-2.268519,-1.662740,1.395826,-1.474496,1.687224,1.459634,-0.589830,0.097945,-0.004668,1.094215,-0.015772,-0.101805,1.085625,-0.012178,-0.314593,38.837017,-24.265945,-3.202028,0.332731,1.779891,-0.130143,0.000000,0.000000,0.000000,0.000000,0.000000,0.000000
12870154.000000,-2.268424,-1.662746,1.396916,-1.474503,1.687132,1.460712,-0.589828,0.097252,-0.003627,1.092220,-0.014954,-0.099369,1.080224,-0.011118,-0.290789,38.837017,-24.095352,-3.202028,0.320829,1.884261,-0.202470,0.000000,0.000000,0.000000,0.000000,0.000000,0.000000
12870155.000000,-2.268325,-1.662750,1.397992,-1.474504,1.687043,1.461814,-0.589846,0.096768,-0.002248,1.085693,-0.010169,-0.095749,1.079445,-0.010436,-0.366168,38.813213,-23.996170,-3.249635,0.261320,1.884261,-0.149369,0.000000,0.000000,0.000000,0.000000,0.000000,0.000000
12870156.000000,-2.268229,-1.662749,1.399083,-1.474504,1.686954,1.462922,-0.589852,0.096373,-0.000118,1.090186,-0.006559,-0.092015,1.082058,-0.007242,-0.314593,38.741802,-23.920792,-3.301210,0.171598,1.832076,-0.163102,0.000000,0.000000,0.000000,0.000000,0.000000,0.000000
12870157.000000,-2.268133,-1.662749,1.400166,-1.474510,1.686866,1.464025,-0.589863,0.095097,0.000910,1.092196,-0.006875,-0.092172,1.090415,-0.006169,-0.342364,38.690228,-23.678787,-3.225832,0.147794,1.708480,-0.142960,0.000000,0.000000,0.000000,0.000000,0.000000,0.000000
12870158.000000,-2.268030,-1.662744,1.401245,-1.474512,1.686770,1.465128,-0.589867,0.096113,0.003228,1.091142,-0.005694,-0.094452,1.090108,-0.003101,-0.465350,38.571209,-23.627213,-3.202028,0.195402,1.670028,-0.182328,0.000000,0.000000,0.000000,0.000000,0.000000,0.000000
12870159.000000,-2.267938,-1.662744,1.402346,-1.474516,1.686679,1.466210,-0.589873,0.095000,0.003236,1.089327,-0.005975,-0.095684,1.087337,-0.005943,-0.512957,38.519634,-23.726395,-3.126650,0.225614,1.754256,-0.215287,0.000000,0.000000,0.000000,0.000000,0.000000,0.000000
