chaoyuefei/paper-gmrm-data/robot_logs/s2_dq_mrm_min_0.30_log_20260314_172534.csv
# time_ms,q_0,q_1,q_2,q_3,q_4,q_5,q_6,dq_0,dq_1,dq_2,dq_3,dq_4,dq_5,dq_6,tau_J_0,tau_J_1,tau_J_2,tau_J_3,tau_J_4,tau_J_5,tau_J_6,O_dP_EE_c_0,O_dP_EE_c_1,O_dP_EE_c_2,O_dP_EE_c_3,O_dP_EE_c_4,O_dP_EE_c_5
11796827.000000,-2.418267,-1.662602,1.039417,-1.352483,1.798444,1.078659,-0.546415,-0.000374,0.000672,-0.001178,0.000788,-0.000216,0.000045,0.001154,-0.044818,41.578411,-20.877884,-5.820436,0.876554,1.364242,0.009017,0.000000,0.000000,0.000000,0.000000,0.000000,0.000000
11796828.000000,-2.418267,-1.662608,1.039421,-1.352483,1.798447,1.078658,-0.546416,-0.000249,-0.000758,0.000421,0.000525,0.000060,-0.000208,0.000295,-0.044818,41.629986,-20.929459,-5.820436,0.871061,1.370651,0.021835,0.000000,0.000000,0.000000,0.000000,0.000000,0.000000
11796829.000000,-2.418267,-1.662608,1.039421,-1.352484,1.798448,1.078659,-0.546417,-0.000166,-0.001062,0.000281,-0.000207,0.000277,0.000099,-0.000041,-0.044818,41.653790,-20.929459,-5.796632,0.864652,1.364242,0.028243,0.000000,0.000000,0.000000,0.000000,0.000000,0.000000
11796830.000000,-2.418265,-1.662602,1.039417,-1.352479,1.798446,1.078660,-0.546417,0.000446,0.001055,-0.001019,0.001625,0.000626,0.000574,-0.000027,-0.068621,41.578411,-20.877884,-5.872011,0.852750,1.350509,0.028243,0.000000,0.000000,0.000000,0.000000,0.000000,0.000000
11796831.000000,-2.418262,-1.662607,1.039419,-1.352488,1.798445,1.078658,-0.546418,0.005299,-0.001516,-0.000679,-0.002443,0.000180,-0.001550,-0.008682,0.252729,41.554607,-20.877884,-5.721254,0.859159,1.402694,0.009017,0.000000,0.000000,0.000000,0.000000,0.000000,0.000000
11796832.000000,-2.418252,-1.662611,1.039424,-1.352479,1.798446,1.078651,-0.546428,0.015301,-0.004815,0.002394,0.003172,-0.000778,-0.003094,-0.013799,1.268354,41.336407,-20.877884,-5.649843,0.757535,1.584884,-0.050492,0.000000,0.000000,0.000000,0.000000,0.000000,0.000000
11796833.000000,-2.418218,-1.662610,1.039437,-1.352477,1.798442,1.078651,-0.546460,0.022529,-0.002394,0.007462,-0.000588,-0.001728,-0.000404,-0.020273,2.779890,40.896038,-20.877884,-5.376100,0.649503,1.806442,-0.044083,0.000000,0.000000,0.000000,0.000000,0.000000,0.000000
11796834.000000,-2.418173,-1.662611,1.039452,-1.352481,1.798425,1.078675,-0.546506,0.027318,-0.002960,0.010056,-0.001567,-0.010047,0.002617,-0.029377,4.684186,40.404095,-20.830276,-5.030946,0.608304,1.884261,-0.044083,0.000000,0.000000,0.000000,0.000000,0.000000,0.000000
11796835.000000,-2.418112,-1.662610,1.039473,-1.352496,1.798397,1.078725,-0.546560,0.034460,-0.000613,0.013850,-0.005509,-0.018052,0.015679,-0.040838,6.540876,39.892315,-20.731094,-4.661989,0.625699,1.793624,-0.064225,0.000000,0.000000,0.000000,0.000000,0.000000,0.000000
11796836.000000,-2.418017,-1.662609,1.039501,-1.352528,1.798361,1.078810,-0.546636,0.045809,0.000743,0.019686,-0.013689,-0.024764,0.039688,-0.050236,8.076215,39.376568,-20.631912,-4.189882,0.667814,1.552840,-0.044083,0.000000,0.000000,0.000000,0.000000,0.000000,0.000000
11796837.000000,-2.417919,-1.662609,1.039537,-1.352569,1.798309,1.078910,-0.546724,0.059399,-0.000173,0.027443,-0.025090,-0.033781,0.059466,-0.064621,9.512372,38.936199,-20.560501,-3.745546,0.698026,1.377059,-0.077042,0.000000,0.000000,0.000000,0.000000,0.000000,0.000000
11796838.000000,-2.417809,-1.662603,1.039587,-1.352618,1.798240,1.079024,-0.546841,0.074365,0.001991,0.034957,-0.033710,-0.050425,0.079201,-0.082868,10.873151,38.495831,-20.560501,-3.424196,0.739225,1.305648,-0.044083,0.000000,0.000000,0.000000,0.000000,0.000000,0.000000
11796839.000000,-2.417668,-1.662603,1.039647,-1.352681,1.798165,1.079161,-0.546976,0.095408,0.001205,0.042843,-0.043857,-0.063782,0.100787,-0.097687,11.813397,38.154644,-20.536697,-3.079042,0.679716,1.312057,-0.064225,0.000000,0.000000,0.000000,0.000000,0.000000,0.000000
11796840.000000,-2.417532,-1.662593,1.039713,-1.352751,1.798074,1.079306,-0.547130,0.108059,0.001945,0.050477,-0.054263,-0.071484,0.117965,-0.110098,12.852826,37.761883,-20.461319,-2.880678,0.559781,1.429244,-0.089860,0.000000,0.000000,0.000000,0.000000,0.000000,0.000000
11796841.000000,-2.417381,-1.662584,1.039796,-1.352833,1.797954,1.079483,-0.547299,0.122351,0.004211,0.059324,-0.063999,-0.086701,0.135664,-0.126598,13.769269,37.420696,-20.512894,-2.733888,0.494779,1.546432,-0.050492,0.000000,0.000000,0.000000,0.000000,0.000000,0.000000
11796842.000000,-2.417209,-1.662568,1.039897,-1.352937,1.797817,1.079696,-0.547468,0.140513,0.007240,0.072597,-0.075810,-0.100735,0.164183,-0.135683,14.463544,37.027935,-20.631912,-2.559328,0.393156,1.611434,-0.089860,0.000000,0.000000,0.000000,0.000000,0.000000,0.000000
11796843.000000,-2.417024,-1.662548,1.040009,-1.353052,1.797654,1.079935,-0.547657,0.154197,0.012373,0.085043,-0.088770,-0.114655,0.190421,-0.153036,15.030866,36.635174,-20.731094,-2.483949,0.410551,1.584884,-0.050492,0.000000,0.000000,0.000000,0.000000,0.000000,0.000000
11796844.000000,-2.416821,-1.662530,1.040136,-1.353190,1.797468,1.080210,-0.547839,0.166103,0.012794,0.098086,-0.101774,-0.134254,0.212324,-0.156714,15.479169,36.270184,-20.877884,-2.285585,0.482877,1.487838,-0.064225,0.000000,0.000000,0.000000,0.000000,0.000000,0.000000
11796845.000000,-2.416594,-1.662510,1.040278,-1.353342,1.797264,1.080497,-0.548021,0.189559,0.013172,0.113766,-0.115774,-0.153552,0.235932,-0.163301,15.701337,35.901226,-21.052444,-2.162599,0.518583,1.448470,-0.103593,0.000000,0.000000,0.000000,0.000000,0.000000,0.000000
11796846.000000,-2.416358,-1.662494,1.040438,-1.353509,1.797037,1.080815,-0.548213,0.204661,0.014548,0.126232,-0.132996,-0.174828,0.261037,-0.172015,15.971112,35.607647,-21.246841,-2.039613,0.608304,1.454879,-0.050492,0.000000,0.000000,0.000000,0.000000,0.000000,0.000000
11796847.000000,-2.416103,-1.662476,1.040602,-1.353692,1.796795,1.081155,-0.548396,0.219675,0.015183,0.137548,-0.149687,-0.200650,0.280534,-0.173433,16.197248,35.337872,-21.322220,-2.015810,0.584501,1.448470,-0.116410,0.000000,0.000000,0.000000,0.000000,0.000000,0.000000
11796848.000000,-2.415839,-1.662461,1.040781,-1.353893,1.796529,1.081510,-0.548585,0.234715,0.013493,0.150386,-0.164235,-0.218756,0.308852,-0.176937,16.391645,35.167278,-21.417435,-2.039613,0.518583,1.454879,-0.103593,0.000000,0.000000,0.000000,0.000000,0.000000,0.000000
11796849.000000,-2.415558,-1.662459,1.040966,-1.354111,1.796250,1.081880,-0.548784,0.248039,0.010872,0.161692,-0.184430,-0.233792,0.325794,-0.181603,16.590010,35.191082,-21.469009,-1.964235,0.482877,1.552840,-0.056901,0.000000,0.000000,0.000000,0.000000,0.000000,0.000000
11796850.000000,-2.415253,-1.662450,1.041161,-1.354341,1.795970,1.082265,-0.548973,0.266105,0.008255,0.174272,-0.198856,-0.245259,0.343873,-0.181006,16.590010,35.143475,-21.469009,-1.916628,0.339139,1.670028,-0.116410,0.000000,0.000000,0.000000,0.000000,0.000000,0.000000
11796851.000000,-2.414935,-1.662446,1.041359,-1.354601,1.795656,1.082679,-0.549166,0.284031,0.008323,0.183947,-0.218617,-0.270485,0.364543,-0.184312,16.641584,35.143475,-21.369827,-1.769838,0.356534,1.727706,-0.083451,0.000000,0.000000,0.000000,0.000000,0.000000,0.000000
11796852.000000,-2.414604,-1.662448,1.041574,-1.354870,1.795318,1.083128,-0.549356,0.296995,0.004616,0.190103,-0.235627,-0.296349,0.388771,-0.186054,16.716963,35.191082,-21.322220,-1.642885,0.362943,1.682845,-0.064225,0.000000,0.000000,0.000000,0.000000,0.000000,0.000000
11796853.000000,-2.414257,-1.662449,1.041794,-1.355161,1.794970,1.083594,-0.549544,0.316022,0.005008,0.198051,-0.248826,-0.307832,0.416671,-0.183462,16.740767,35.238689,-21.246841,-1.472292,0.381254,1.611434,-0.122819,0.000000,0.000000,0.000000,0.000000,0.000000,0.000000
11796854.000000,-2.413893,-1.662449,1.042024,-1.355464,1.794609,1.084078,-0.549742,0.330530,0.004240,0.209004,-0.267595,-0.319427,0.435921,-0.191497,16.764570,35.214886,-21.147659,-1.349306,0.458158,1.559249,-0.070634,0.000000,0.000000,0.000000,0.000000,0.000000,0.000000
11796855.000000,-2.413529,-1.662455,1.042273,-1.355776,1.794220,1.084583,-0.549925,0.348468,0.001322,0.217439,-0.279356,-0.346660,0.464577,-0.188432,16.939131,35.290264,-21.100052,-1.321535,0.464567,1.532699,-0.122819,0.000000,0.000000,0.000000,0.000000,0.000000,0.000000
11796856.000000,-2.413147,-1.662453,1.042525,-1.356098,1.793811,1.085121,-0.550124,0.359702,0.001632,0.233088,-0.291348,-0.364817,0.486654,-0.193710,17.062117,35.266460,-20.977066,-1.297731,0.500272,1.474105,-0.050492,0.000000,0.000000,0.000000,0.000000,0.000000,0.000000
11796857.000000,-2.412758,-1.662458,1.042782,-1.356428,1.793396,1.085677,-0.550299,0.367125,-0.000437,0.240686,-0.299886,-0.378249,0.504897,-0.189210,17.359663,35.337872,-20.877884,-1.297731,0.524076,1.481429,-0.136552,0.000000,0.000000,0.000000,0.000000,0.000000,0.000000
11796858.000000,-2.412354,-1.662460,1.043059,-1.356778,1.792963,1.086236,-0.550478,0.378987,-0.000739,0.252410,-0.309992,-0.396916,0.521427,-0.190067,17.530256,35.361675,-20.905655,-1.250124,0.422452,1.578475,-0.142960,0.000000,0.000000,0.000000,0.000000,0.000000,0.000000
11796859.000000,-2.411932,-1.662460,1.043338,-1.357141,1.792513,1.086830,-0.550655,0.390017,-0.000411,0.262958,-0.331315,-0.407674,0.543246,-0.186934,17.704817,35.361675,-20.877884,-1.226320,0.428861,1.624252,-0.097184,0.000000,0.000000,0.000000,0.000000,0.000000,0.000000
11796860.000000,-2.411505,-1.662456,1.043631,-1.357516,1.792055,1.087442,-0.550826,0.403503,0.000901,0.271863,-0.343762,-0.431337,0.564737,-0.179566,18.002363,35.314068,-20.830276,-1.174745,0.386747,1.591293,-0.142960,0.000000,0.000000,0.000000,0.000000,0.000000,0.000000
11796861.000000,-2.411060,-1.662455,1.043931,-1.357910,1.791565,1.088097,-0.551001,0.416468,0.001203,0.277581,-0.357525,-0.448156,0.591911,-0.179016,18.149153,35.290264,-20.683487,-1.051759,0.422452,1.494247,-0.097184,0.000000,0.000000,0.000000,0.000000,0.000000,0.000000
11796862.000000,-2.410600,-1.662451,1.044244,-1.358319,1.791078,1.088772,-0.551167,0.427112,0.002043,0.288619,-0.373764,-0.460259,0.616209,-0.175833,18.375288,35.238689,-20.707291,-0.829591,0.464567,1.377059,-0.122819,0.000000,0.000000,0.000000,0.000000,0.000000,0.000000
11796863.000000,-2.410137,-1.662441,1.044570,-1.358745,1.790561,1.089455,-0.551335,0.438546,0.004822,0.295110,-0.390213,-0.477851,0.640064,-0.174532,18.621260,35.091900,-20.683487,-0.655031,0.542386,1.266280,-0.122819,0.000000,0.000000,0.000000,0.000000,0.000000,0.000000
11796864.000000,-2.409648,-1.662433,1.044896,-1.359187,1.790048,1.090155,-0.551507,0.448666,0.007241,0.311281,-0.406538,-0.490205,0.658889,-0.174885,18.522078,35.044292,-20.584305,-0.484438,0.667814,1.214095,-0.083451,0.000000,0.000000,0.000000,0.000000,0.000000,0.000000
11796865.000000,-2.409155,-1.662418,1.045241,-1.359638,1.789524,1.090873,-0.551661,0.456303,0.009073,0.324531,-0.424271,-0.502464,0.675063,-0.165835,17.855574,34.873699,-20.266922,-0.508241,0.751127,1.285506,-0.155778,0.000000,0.000000,0.000000,0.000000,0.000000,0.000000
11796866.000000,-2.408680,-1.662405,1.045615,-1.360104,1.788995,1.091590,-0.551821,0.457473,0.005647,0.340527,-0.439765,-0.510398,0.690889,-0.162934,16.665388,34.651531,-19.874161,-0.778017,0.805143,1.383468,-0.142960,0.000000,0.000000,0.000000,0.000000,0.000000,0.000000
11796867.000000,-2.408197,-1.662389,1.046008,-1.360577,1.788481,1.092337,-0.551988,0.463144,0.009176,0.358708,-0.448759,-0.510275,0.702878,-0.165119,14.860272,34.286541,-19.382217,-1.226320,0.817045,1.448470,-0.130143,0.000000,0.000000,0.000000,0.000000,0.000000,0.000000
11796868.000000,-2.407733,-1.662381,1.046420,-1.361066,1.787963,1.093098,-0.552149,0.466971,0.011475,0.372341,-0.459447,-0.503055,0.720099,-0.159585,13.003583,33.917583,-18.672073,-1.670656,0.655912,1.461288,-0.182328,0.000000,0.000000,0.000000,0.000000,0.000000,0.000000
11796869.000000,-2.407266,-1.662371,1.046869,-1.361561,1.787461,1.093876,-0.552314,0.469213,0.011000,0.404766,-0.463367,-0.500285,0.732216,-0.164749,11.095319,33.501019,-18.080948,-2.063417,0.518583,1.383468,-0.116410,0.000000,0.000000,0.000000,0.000000,0.000000,0.000000
11796870.000000,-2.406807,-1.662368,1.047335,-1.362055,1.786958,1.094671,-0.552475,0.468424,0.008650,0.422126,-0.469331,-0.500993,0.742351,-0.164703,9.361615,33.159832,-17.370804,-2.460146,0.332731,1.253463,-0.149369,0.000000,0.000000,0.000000,0.000000,0.000000,0.000000
11796871.000000,-2.406354,-1.662362,1.047817,-1.362558,1.786461,1.095454,-0.552637,0.467428,0.010314,0.435969,-0.477526,-0.497970,0.755524,-0.163069,7.778669,32.790874,-16.755875,-2.658510,0.183500,1.090499,-0.130143,0.000000,0.000000,0.000000,0.000000,0.000000,0.000000
11796872.000000,-2.405903,-1.662367,1.048304,-1.363049,1.785976,1.096235,-0.552800,0.465006,0.005603,0.450141,-0.480898,-0.487148,0.757476,-0.162181,6.441694,32.548870,-16.168716,-2.856874,0.105680,0.954086,-0.064225,0.000000,0.000000,0.000000,0.000000,0.000000,0.000000
11796873.000000,-2.405461,-1.662371,1.048800,-1.363537,1.785481,1.097005,-0.552943,0.464593,0.002484,0.456089,-0.477332,-0.487730,0.773624,-0.154923,5.326887,32.302898,-15.502213,-3.178224,0.088285,0.869857,-0.169511,0.000000,0.000000,0.000000,0.000000,0.000000,0.000000
11796874.000000,-2.405017,-1.662382,1.049306,-1.364013,1.784989,1.097783,-0.553102,0.455874,-0.001516,0.475023,-0.475091,-0.484678,0.774525,-0.156114,4.410444,32.132305,-14.962662,-3.499574,0.207303,0.804855,-0.116410,0.000000,0.000000,0.000000,0.000000,0.000000,0.000000
11796875.000000,-2.404569,-1.662385,1.049794,-1.364481,1.784507,1.098556,-0.553256,0.451007,-0.002478,0.476761,-0.470127,-0.483767,0.767651,-0.154849,3.620954,31.886333,-14.276321,-3.820925,0.255826,0.824081,-0.116410,0.000000,0.000000,0.000000,0.000000,0.000000,0.000000
11796876.000000,-2.404124,-1.662389,1.050305,-1.364959,1.784024,1.099307,-0.553406,0.446361,-0.003897,0.486162,-0.470466,-0.476977,0.761007,-0.151994,2.902875,31.668133,-13.812149,-3.943910,0.303434,0.908309,-0.169511,0.000000,0.000000,0.000000,0.000000,0.000000,0.000000
11796877.000000,-2.403661,-1.662400,1.050797,-1.365439,1.783561,1.100057,-0.553558,0.446726,-0.007241,0.484424,-0.480166,-0.476977,0.749255,-0.152202,2.133222,31.545147,-13.197220,-3.820925,0.332731,1.006271,-0.163102,0.000000,0.000000,0.000000,0.000000,0.000000,0.000000
11796878.000000,-2.403190,-1.662405,1.051301,-1.365925,1.783086,1.100812,-0.553716,0.451813,-0.005490,0.485088,-0.479433,-0.472841,0.765130,-0.157264,1.367536,31.374554,-12.657669,-3.598757,0.291532,1.012679,-0.142960,0.000000,0.000000,0.000000,0.000000,0.000000,0.000000
11796879.000000,-2.402715,-1.662404,1.051820,-1.366424,1.782619,1.101575,-0.553870,0.458349,-0.002366,0.492976,-0.482966,-0.467309,0.765728,-0.160429,0.625654,31.128582,-12.336319,-3.154421,0.267728,0.928451,-0.116410,0.000000,0.000000,0.000000,0.000000,0.000000,0.000000
11796880.000000,-2.402238,-1.662398,1.052338,-1.366911,1.782171,1.102342,-0.554021,0.460746,0.004430,0.499079,-0.482439,-0.467422,0.759423,-0.157283,-0.044818,30.811199,-12.141922,-2.833071,0.154203,0.857040,-0.136552,0.000000,0.000000,0.000000,0.000000,0.000000,0.000000
11796881.000000,-2.401768,-1.662382,1.052871,-1.367391,1.781708,1.103093,-0.554170,0.463292,0.011635,0.508326,-0.482234,-0.465694,0.757440,-0.156565,-0.564532,30.394634,-12.018936,-2.606935,0.093778,0.863448,-0.142960,0.000000,0.000000,0.000000,0.000000,0.000000,0.000000
11796882.000000,-2.401297,-1.662367,1.053395,-1.367857,1.781258,1.103840,-0.554324,0.464864,0.012244,0.520967,-0.475630,-0.465130,0.754715,-0.155731,-0.933489,30.049480,-11.848343,-2.658510,0.088285,0.882674,-0.130143,0.000000,0.000000,0.000000,0.000000,0.000000,0.000000
11796883.000000,-2.400830,-1.662351,1.053926,-1.368318,1.780795,1.104594,-0.554481,0.463111,0.012984,0.519891,-0.473989,-0.466164,0.750866,-0.154501,-1.131854,29.684490,-11.673782,-2.733888,0.088285,0.980636,-0.122819,0.000000,0.000000,0.000000,0.000000,0.000000,0.000000
11796884.000000,-2.400377,-1.662329,1.054481,-1.368778,1.780327,1.105329,-0.554637,0.460496,0.014647,0.526693,-0.464798,-0.466815,0.745972,-0.154463,-1.254840,29.267925,-11.626175,-2.856874,0.117582,1.142684,-0.103593,0.000000,0.000000,0.000000,0.000000,0.000000,0.000000
11796885.000000,-2.399900,-1.662305,1.055027,-1.369226,1.779876,1.106071,-0.554787,0.462199,0.016400,0.534389,-0.461713,-0.465407,0.734698,-0.151086,-1.528582,28.827557,-11.479385,-3.003664,0.166105,1.214095,-0.169511,0.000000,0.000000,0.000000,0.000000,0.000000,0.000000
11796886.000000,-2.399433,-1.662283,1.055589,-1.369672,1.779418,1.106827,-0.554951,0.465768,0.018666,0.537329,-0.452334,-0.461808,0.738875,-0.152448,-1.726946,28.458599,-11.404007,-3.202028,0.166105,1.117049,-0.136552,0.000000,0.000000,0.000000,0.000000,0.000000,0.000000
11796887.000000,-2.398956,-1.662265,1.056161,-1.370128,1.778960,1.107604,-0.555109,0.465375,0.017432,0.556975,-0.448552,-0.456421,0.753591,-0.152651,-2.072100,28.216595,-11.281021,-3.277406,0.207303,0.954086,-0.122819,0.000000,0.000000,0.000000,0.000000,0.000000,0.000000
11796888.000000,-2.398470,-1.662248,1.056732,-1.370570,1.778517,1.108379,-0.555257,0.469291,0.016313,0.564382,-0.447299,-0.454467,0.755897,-0.150183,-2.445025,27.994427,-11.134232,-3.277406,0.189908,0.863448,-0.175919,0.000000,0.000000,0.000000,0.000000,0.000000,0.000000
11796889.000000,-2.397986,-1.662232,1.057307,-1.371005,1.778065,1.109126,-0.555416,0.472968,0.016165,0.566399,-0.438869,-0.453240,0.753692,-0.156807,-2.865557,27.871441,-10.916031,-3.424196,0.183500,0.889083,-0.130143,0.000000,0.000000,0.000000,0.000000,0.000000,0.000000
11796890.000000,-2.397495,-1.662223,1.057883,-1.371436,1.777626,1.109882,-0.555569,0.475415,0.011282,0.568966,-0.438714,-0.448549,0.746324,-0.155142,-3.186907,27.847637,-10.618484,-3.475771,0.195402,0.915633,-0.136552,0.000000,0.000000,0.000000,0.000000,0.000000,0.000000
11796891.000000,-2.397008,-1.662215,1.058468,-1.371868,1.777190,1.110634,-0.555724,0.489221,0.010374,0.567260,-0.433406,-0.447073,0.758709,-0.153437,-3.559832,27.847637,-10.277298,-3.598757,0.123990,0.901900,-0.116410,0.000000,0.000000,0.000000,0.000000,0.000000,0.000000
11796892.000000,-2.396509,-1.662209,1.059065,-1.372291,1.776753,1.111386,-0.555870,0.492959,0.009356,0.590095,-0.430080,-0.441336,0.757095,-0.151255,-3.956561,27.871441,-9.983719,-3.697939,0.058073,0.908309,-0.155778,0.000000,0.000000,0.000000,0.000000,0.000000,0.000000
11796893.000000,-2.396001,-1.662203,1.059669,-1.372704,1.776326,1.112146,-0.556020,0.497027,0.006628,0.592460,-0.423243,-0.435446,0.751207,-0.151667,-4.400897,27.871441,-9.785355,-3.868532,0.064481,0.895492,-0.149369,0.000000,0.000000,0.000000,0.000000,0.000000,0.000000
11796894.000000,-2.395507,-1.662203,1.060288,-1.373115,1.775894,1.112892,-0.556170,0.495539,0.002392,0.598277,-0.419672,-0.431941,0.751251,-0.152125,-4.773821,27.970623,-9.662369,-4.066896,-0.001437,0.915633,-0.136552,0.000000,0.000000,0.000000,0.000000,0.000000,0.000000
11796895.000000,-2.395004,-1.662204,1.060908,-1.373514,1.775467,1.113639,-0.556318,0.496767,0.002285,0.605987,-0.421480,-0.428854,0.744609,-0.150859,-5.166583,28.069805,-9.539383,-4.289064,0.022367,0.954086,-0.142960,0.000000,0.000000,0.000000,0.000000,0.000000,0.000000
11796896.000000,-2.394507,-1.662203,1.061556,-1.373919,1.775037,1.114398,-0.556465,0.495022,0.000807,0.615247,-0.416060,-0.427115,0.742486,-0.149905,-5.416522,28.117413,-9.563187,-4.364442,0.058073,0.954086,-0.163102,0.000000,0.000000,0.000000,0.000000,0.000000,0.000000
11796897.000000,-2.394004,-1.662203,1.062219,-1.374319,1.774613,1.115143,-0.556610,0.495386,-0.000277,0.628977,-0.408989,-0.425944,0.748116,-0.155069,-5.714068,28.165020,-9.662369,-4.535036,-0.025240,1.006271,-0.136552,0.000000,0.000000,0.000000,0.000000,0.000000,0.000000
11796898.000000,-2.393492,-1.662201,1.062893,-1.374712,1.774192,1.115899,-0.556754,0.497511,0.000039,0.641675,-0.408410,-0.430138,0.740512,-0.154401,-6.134600,28.165020,-9.884537,-4.661989,-0.031649,0.974227,-0.130143,0.000000,0.000000,0.000000,0.000000,0.000000,0.000000
11796899.000000,-2.392989,-1.662205,1.063575,-1.375110,1.773776,1.116656,-0.556902,0.500855,-0.001013,0.651966,-0.402994,-0.423737,0.749023,-0.149216,-6.455950,28.216595,-9.983719,-4.709596,-0.085665,0.843307,-0.116410,0.000000,0.000000,0.000000,0.000000,0.000000,0.000000
11796900.000000,-2.392471,-1.662208,1.064267,-1.375501,1.773346,1.117419,-0.557047,0.502154,-0.001663,0.674507,-0.402041,-0.435029,0.751627,-0.149681,-6.852679,28.264202,-10.201920,-4.784975,-0.043551,0.778304,-0.116410,0.000000,0.000000,0.000000,0.000000,0.000000,0.000000
11796901.000000,-2.391959,-1.662213,1.064973,-1.375888,1.772923,1.118157,-0.557191,0.500381,-0.002778,0.677269,-0.399389,-0.431457,0.743006,-0.144077,-7.150225,28.339581,-10.372513,-4.832582,-0.013339,1.012679,-0.142960,0.000000,0.000000,0.000000,0.000000,0.000000,0.000000
11796902.000000,-2.391445,-1.662220,1.065684,-1.376278,1.772503,1.118885,-0.557342,0.504554,-0.009706,0.689490,-0.398854,-0.427821,0.735736,-0.148116,-7.519183,28.434795,-10.400284,-4.884157,0.004056,1.175643,-0.116410,0.000000,0.000000,0.000000,0.000000,0.000000,0.000000
11796903.000000,-2.390922,-1.662230,1.066395,-1.376665,1.772073,1.119631,-0.557483,0.509121,-0.010326,0.697628,-0.390260,-0.427778,0.733084,-0.146795,-7.892107,28.581585,-10.372513,-4.955568,0.088285,1.220504,-0.163102,0.000000,0.000000,0.000000,0.000000,0.000000,0.000000
11796904.000000,-2.390415,-1.662241,1.067121,-1.377060,1.771644,1.120373,-0.557626,0.508279,-0.010077,0.698150,-0.395018,-0.425351,0.735783,-0.147471,-8.138080,28.704571,-10.348709,-4.907960,0.123990,1.188461,-0.169511,0.000000,0.000000,0.000000,0.000000,0.000000,0.000000
11796905.000000,-2.389900,-1.662254,1.067862,-1.377468,1.771231,1.121110,-0.557768,0.507418,-0.010389,0.716370,-0.396868,-0.420898,0.735372,-0.144016,-8.411822,28.851360,-10.277298,-4.784975,0.069974,1.207687,-0.163102,0.000000,0.000000,0.000000,0.000000,0.000000,0.000000
11796906.000000,-2.389382,-1.662262,1.068601,-1.377870,1.770812,1.121853,-0.557916,0.504206,-0.009424,0.719715,-0.401242,-0.419987,0.731109,-0.147699,-8.681598,28.950542,-10.253494,-4.661989,0.081876,1.188461,-0.110001,0.000000,0.000000,0.000000,0.000000,0.000000,0.000000
11796907.000000,-2.388879,-1.662278,1.069351,-1.378282,1.770396,1.122590,-0.558058,0.503588,-0.010964,0.724610,-0.401515,-0.414118,0.734532,-0.143258,-8.756976,29.144939,-10.055130,-4.487428,0.093778,1.123458,-0.122819,0.000000,0.000000,0.000000,0.000000,0.000000,0.000000
11796908.000000,-2.388383,-1.662291,1.070099,-1.378676,1.769991,1.123333,-0.558194,0.499164,-0.010843,0.730240,-0.396832,-0.409721,0.731881,-0.143712,-8.733172,29.291729,-9.884537,-4.412050,0.081876,1.025497,-0.163102,0.000000,0.000000,0.000000,0.000000,0.000000,0.000000
11796909.000000,-2.387886,-1.662300,1.070873,-1.379070,1.769576,1.124060,-0.558342,0.506669,-0.008510,0.732663,-0.394193,-0.410549,0.749681,-0.142286,-8.780780,29.343304,-9.709976,-4.439821,0.064481,1.084090,-0.122819,0.000000,0.000000,0.000000,0.000000,0.000000,0.000000
11796910.000000,-2.387394,-1.662307,1.071654,-1.379462,1.769165,1.124799,-0.558481,0.499487,-0.006843,0.740385,-0.392417,-0.410757,0.749075,-0.141986,-8.681598,29.390911,-9.515579,-4.463624,0.040677,1.123458,-0.155778,0.000000,0.000000,0.000000,0.000000,0.000000,0.000000
11796911.000000,-2.386906,-1.662313,1.072434,-1.379847,1.768761,1.125550,-0.558621,0.492361,-0.007372,0.749056,-0.388640,-0.415785,0.741946,-0.139339,-8.582416,29.390911,-9.293411,-4.586610,0.015958,1.077682,-0.163102,0.000000,0.000000,0.000000,0.000000,0.000000,0.000000
11796912.000000,-2.386422,-1.662315,1.073225,-1.380235,1.768343,1.126286,-0.558767,0.489990,-0.004620,0.753957,-0.383997,-0.415931,0.745644,-0.138670,-8.511004,29.367107,-9.047440,-4.634218,0.034269,1.058456,-0.136552,0.000000,0.000000,0.000000,0.000000,0.000000,0.000000
11796913.000000,-2.385936,-1.662312,1.074019,-1.380619,1.767943,1.127041,-0.558905,0.490478,-0.003407,0.782217,-0.391718,-0.410778,0.742471,-0.136278,-8.411822,29.244122,-8.876846,-4.685792,0.027860,1.019088,-0.155778,0.000000,0.000000,0.000000,0.000000,0.000000,0.000000
11796914.000000,-2.385446,-1.662311,1.074835,-1.381011,1.767537,1.127807,-0.559041,0.487700,-0.000349,0.784536,-0.388349,-0.411252,0.743365,-0.130330,-8.411822,29.144939,-8.805435,-4.685792,0.058073,0.941268,-0.155778,0.000000,0.000000,0.000000,0.000000,0.000000,0.000000
11796915.000000,-2.384968,-1.662299,1.075662,-1.381409,1.767127,1.128562,-0.559181,0.485179,0.006254,0.791028,-0.388975,-0.403269,0.753455,-0.135447,-8.336444,29.097332,-8.924454,-4.661989,0.069974,0.850631,-0.136552,0.000000,0.000000,0.000000,0.000000,0.000000,0.000000
11796916.000000,-2.384491,-1.662295,1.076468,-1.381792,1.766741,1.129330,-0.559320,0.478365,0.007977,0.787538,-0.387541,-0.395747,0.751891,-0.134394,-8.038898,29.438519,-9.317215,-4.733400,0.046171,0.830489,-0.136552,0.000000,0.000000,0.000000,0.000000,0.000000,0.000000
11796917.000000,-2.384017,-1.662292,1.077281,-1.382180,1.766361,1.130087,-0.559461,0.477352,0.006530,0.786281,-0.387476,-0.388855,0.753364,-0.133294,-7.570757,30.049480,-10.055130,-4.784975,-0.001437,0.922042,-0.149369,0.000000,0.000000,0.000000,0.000000,0.000000,0.000000
11796918.000000,-2.383542,-1.662289,1.078081,-1.382565,1.765970,1.130844,-0.559598,0.475311,0.004650,0.797652,-0.384120,-0.398874,0.753562,-0.133097,-7.023272,30.858807,-10.939835,-4.832582,0.027860,1.039230,-0.149369,0.000000,0.000000,0.000000,0.000000,0.000000,0.000000
11796919.000000,-2.383062,-1.662271,1.078865,-1.382943,1.765588,1.131614,-0.559740,0.470700,0.008866,0.795026,-0.387477,-0.390323,0.753867,-0.134155,-6.432147,31.592754,-11.919754,-4.931764,0.064481,1.162826,-0.110001,0.000000,0.000000,0.000000,0.000000,0.000000,0.000000
11796920.000000,-2.382576,-1.662255,1.079658,-1.383327,1.765213,1.132377,-0.559875,0.472071,0.012219,0.793236,-0.384485,-0.377955,0.755996,-0.136183,-6.035418,32.350506,-12.998856,-4.931764,0.088285,1.253463,-0.149369,0.000000,0.000000,0.000000,0.000000,0.000000,0.000000
11796921.000000,-2.382090,-1.662231,1.080440,-1.383711,1.764827,1.133142,-0.560011,0.473063,0.011719,0.790625,-0.388459,-0.381944,0.747470,-0.134414,-5.686297,33.013042,-14.054153,-4.832582,0.201810,1.318465,-0.169511,0.000000,0.000000,0.000000,0.000000,0.000000,0.000000
11796922.000000,-2.381605,-1.662204,1.081234,-1.384094,1.764440,1.133906,-0.560149,0.476845,0.013098,0.784269,-0.386311,-0.387263,0.751919,-0.134536,-5.440325,33.600201,-14.962662,-4.808778,0.297025,1.383468,-0.149369,0.000000,0.000000,0.000000,0.000000,0.000000,0.000000
11796923.000000,-2.381112,-1.662172,1.082034,-1.384489,1.764052,1.134676,-0.560279,0.480220,0.018098,0.799795,-0.388229,-0.388651,0.757006,-0.133488,-5.218157,34.016766,-15.799759,-4.634218,0.410551,1.402694,-0.163102,0.000000,0.000000,0.000000,0.000000,0.000000,0.000000
11796924.000000,-2.380617,-1.662139,1.082838,-1.384877,1.763676,1.135424,-0.560413,0.481446,0.022421,0.801766,-0.387439,-0.390292,0.742429,-0.133523,-5.118975,34.385723,-16.557510,-4.535036,0.422452,1.532699,-0.155778,0.000000,0.000000,0.000000,0.000000,0.000000,0.000000
11796925.000000,-2.380141,-1.662111,1.083648,-1.385262,1.763296,1.136155,-0.560547,0.481346,0.025471,0.800582,-0.387618,-0.383880,0.738980,-0.133190,-4.845232,34.750713,-17.196243,-4.511232,0.362943,1.721298,-0.155778,0.000000,0.000000,0.000000,0.000000,0.000000,0.000000
11796926.000000,-2.379663,-1.662087,1.084452,-1.385631,1.762927,1.136905,-0.560676,0.477543,0.024561,0.813461,-0.380729,-0.376078,0.736025,-0.136962,-4.575457,35.119671,-17.640579,-4.685792,0.315336,1.773483,-0.175919,0.000000,0.000000,0.000000,0.000000,0.000000,0.000000
11796927.000000,-2.379196,-1.662065,1.085265,-1.386003,1.762553,1.137649,-0.560814,0.471852,0.024251,0.805320,-0.377268,-0.373209,0.748424,-0.136931,-4.277911,35.460857,-17.957962,-4.808778,0.225614,1.721298,-0.136552,0.000000,0.000000,0.000000,0.000000,0.000000,0.000000
11796928.000000,-2.378728,-1.662046,1.086105,-1.386372,1.762165,1.138388,-0.560941,0.467761,0.021208,0.809073,-0.369090,-0.373326,0.743277,-0.130998,-3.980364,35.802044,-18.398331,-5.030946,0.201810,1.773483,-0.136552,0.000000,0.000000,0.000000,0.000000,0.000000,0.000000
11796929.000000,-2.378250,-1.662045,1.086934,-1.386736,1.761782,1.139126,-0.561070,0.467762,0.015117,0.809236,-0.363402,-0.373949,0.734017,-0.130268,-3.829607,36.293987,-18.842667,-5.130128,0.178007,1.819259,-0.163102,0.000000,0.000000,0.000000,0.000000,0.000000,0.000000
11796930.000000,-2.377784,-1.662046,1.087776,-1.387099,1.761393,1.139870,-0.561206,0.467100,0.008596,0.814308,-0.362203,-0.375921,0.733718,-0.131588,-3.631243,36.758160,-19.160049,-5.328493,0.219205,1.721298,-0.142960,0.000000,0.000000,0.000000,0.000000,0.000000,0.000000
11796931.000000,-2.377313,-1.662059,1.088599,-1.387449,1.760993,1.140619,-0.561333,0.469172,-0.000756,0.825355,-0.360803,-0.381873,0.739556,-0.126733,-3.559832,37.297710,-19.334610,-5.526857,0.369352,1.552840,-0.149369,0.000000,0.000000,0.000000,0.000000,0.000000,0.000000
11796932.000000,-2.376833,-1.662073,1.089455,-1.387799,1.760598,1.141373,-0.561455,0.472796,-0.007476,0.824247,-0.356739,-0.384700,0.740833,-0.121888,-3.583636,37.833294,-19.699600,-5.796632,0.416959,1.481429,-0.182328,0.000000,0.000000,0.000000,0.000000,0.000000,0.000000
11796933.000000,-2.376349,-1.662096,1.090314,-1.388148,1.760213,1.142095,-0.561583,0.476442,-0.012363,0.824990,-0.350574,-0.382340,0.740395,-0.121242,-3.782000,38.372845,-20.044754,-6.042604,0.410551,1.559249,-0.149369,0.000000,0.000000,0.000000,0.000000,0.000000,0.000000
11796934.000000,-2.375872,-1.662125,1.091159,-1.388486,1.759821,1.142818,-0.561719,0.473609,-0.016039,0.825944,-0.347261,-0.381839,0.724991,-0.125391,-3.881182,38.912395,-20.290726,-6.268739,0.446256,1.643478,-0.110001,0.000000,0.000000,0.000000,0.000000,0.000000,0.000000
11796935.000000,-2.375392,-1.662163,1.091995,-1.388837,1.759441,1.143542,-0.561851,0.475368,-0.023294,0.816645,-0.346244,-0.378527,0.724838,-0.132244,-4.055743,39.523357,-20.314529,-6.415529,0.405057,1.727706,-0.122819,0.000000,0.000000,0.000000,0.000000,0.000000,0.000000
11796936.000000,-2.374905,-1.662203,1.092849,-1.389183,1.759068,1.144257,-0.561974,0.480664,-0.027439,0.835123,-0.342630,-0.384869,0.719926,-0.129740,-4.277911,40.086712,-20.512894,-6.562318,0.393156,1.923629,-0.188737,0.000000,0.000000,0.000000,0.000000,0.000000,0.000000
11796937.000000,-2.374416,-1.662240,1.093685,-1.389531,1.758689,1.144976,-0.562113,0.482686,-0.028849,0.828546,-0.344074,-0.380420,0.712716,-0.132322,-4.424700,40.578655,-20.683487,-6.661500,0.327238,2.118636,-0.136552,0.000000,0.000000,0.000000,0.000000,0.000000,0.000000
11796938.000000,-2.373929,-1.662276,1.094531,-1.389879,1.758304,1.145703,-0.562245,0.484591,-0.030516,0.829099,-0.341677,-0.379669,0.726382,-0.133623,-4.722247,40.967449,-20.782669,-6.736879,0.327238,2.053634,-0.122819,0.000000,0.000000,0.000000,0.000000,0.000000,0.000000
11796939.000000,-2.373437,-1.662318,1.095354,-1.390222,1.757934,1.146454,-0.562376,0.486982,-0.036589,0.824498,-0.343106,-0.375181,0.724662,-0.132205,-4.995989,41.431622,-20.782669,-6.836061,0.344633,1.884261,-0.142960,0.000000,0.000000,0.000000,0.000000,0.000000,0.000000
11796940.000000,-2.372955,-1.662349,1.096192,-1.390568,1.757558,1.147199,-0.562506,0.495497,-0.034507,0.821150,-0.340726,-0.380575,0.746750,-0.127309,-5.218157,41.729168,-20.806473,-6.935243,0.381254,1.747848,-0.142960,0.000000,0.000000,0.000000,0.000000,0.000000,0.000000
11796941.000000,-2.372469,-1.662385,1.097033,-1.390901,1.757179,1.147924,-0.562631,0.492219,-0.034204,0.834660,-0.337828,-0.375997,0.741880,-0.123205,-5.464129,42.070354,-20.830276,-7.205019,0.410551,1.779891,-0.163102,0.000000,0.000000,0.000000,0.000000,0.000000,0.000000
11796942.000000,-2.371988,-1.662417,1.097872,-1.391230,1.756812,1.148663,-0.562763,0.486090,-0.033658,0.831859,-0.334705,-0.375779,0.737468,-0.126070,-5.563311,42.387737,-20.877884,-7.403383,0.398649,1.838485,-0.130143,0.000000,0.000000,0.000000,0.000000,0.000000,0.000000
11796943.000000,-2.371514,-1.662455,1.098705,-1.391544,1.756447,1.149388,-0.562884,0.485251,-0.034610,0.823107,-0.328216,-0.374928,0.741044,-0.125888,-5.662493,42.756695,-20.754898,-7.748537,0.386747,1.858627,-0.175919,0.000000,0.000000,0.000000,0.000000,0.000000,0.000000
11796944.000000,-2.371033,-1.662485,1.099525,-1.391859,1.756085,1.150124,-0.563010,0.486818,-0.034588,0.831391,-0.324585,-0.370258,0.730955,-0.122084,-5.785479,42.974895,-20.560501,-8.022280,0.369352,1.786300,-0.196061,0.000000,0.000000,0.000000,0.000000,0.000000,0.000000
11796945.000000,-2.370558,-1.662508,1.100365,-1.392180,1.755731,1.150857,-0.563144,0.481864,-0.031609,0.825774,-0.322340,-0.365003,0.744448,-0.127524,-5.837054,43.050274,-20.608109,-8.220644,0.303434,1.838485,-0.116410,0.000000,0.000000,0.000000,0.000000,0.000000,0.000000
11796946.000000,-2.370085,-1.662527,1.101210,-1.392498,1.755376,1.151581,-0.563265,0.478614,-0.030906,0.824271,-0.319931,-0.363129,0.743070,-0.129838,-5.912432,43.050274,-20.631912,-8.442812,0.285123,1.819259,-0.182328,0.000000,0.000000,0.000000,0.000000,0.000000,0.000000
11796947.000000,-2.369604,-1.662554,1.102033,-1.392810,1.755025,1.152324,-0.563396,0.476182,-0.030131,0.818361,-0.315993,-0.361963,0.737564,-0.132331,-6.106829,43.145489,-20.608109,-8.613405,0.273221,1.754256,-0.136552,0.000000,0.000000,0.000000,0.000000,0.000000,0.000000
11796948.000000,-2.369144,-1.662578,1.102865,-1.393118,1.754664,1.153048,-0.563523,0.467818,-0.028814,0.811081,-0.311694,-0.363728,0.742007,-0.127958,-6.158404,43.197063,-20.536697,-8.811769,0.303434,1.735030,-0.122819,0.000000,0.000000,0.000000,0.000000,0.000000,0.000000
11796949.000000,-2.368678,-1.662601,1.103711,-1.393430,1.754318,1.153777,-0.563638,0.463938,-0.030121,0.827693,-0.309153,-0.364232,0.730617,-0.122083,-6.206011,43.220867,-20.683487,-9.010134,0.279630,1.825668,-0.182328,0.000000,0.000000,0.000000,0.000000,0.000000,0.000000
11796950.000000,-2.368214,-1.662616,1.104552,-1.393725,1.753978,1.154511,-0.563761,0.459823,-0.025997,0.823985,-0.304271,-0.359985,0.724532,-0.119682,-6.182208,43.145489,-20.877884,-9.331484,0.189908,1.897079,-0.188737,0.000000,0.000000,0.000000,0.000000,0.000000,0.000000
11796951.000000,-2.367760,-1.662636,1.105391,-1.394025,1.753630,1.155234,-0.563884,0.458336,-0.024666,0.820230,-0.300780,-0.357336,0.720100,-0.115425,-6.134600,43.121685,-20.977066,-9.629030,0.117582,1.844894,-0.136552,0.000000,0.000000,0.000000,0.000000,0.000000,0.000000
11796952.000000,-2.367306,-1.662656,1.106217,-1.394319,1.753285,1.155986,-0.564006,0.453590,-0.024315,0.813400,-0.298299,-0.348448,0.726793,-0.115568,-6.059222,43.121685,-21.024673,-9.950380,0.112089,1.708480,-0.116410,0.000000,0.000000,0.000000,0.000000,0.000000,0.000000
11796953.000000,-2.366858,-1.662673,1.107059,-1.394616,1.752943,1.156710,-0.564127,0.454583,-0.023427,0.812387,-0.296937,-0.341480,0.731665,-0.115205,-5.983843,43.097881,-21.246841,-10.124941,0.105680,1.747848,-0.130143,0.000000,0.000000,0.000000,0.000000,0.000000,0.000000
11796954.000000,-2.366410,-1.662686,1.107903,-1.394916,1.752608,1.157420,-0.564249,0.449723,-0.020513,0.828031,-0.299410,-0.339322,0.719969,-0.119940,-5.813250,42.974895,-21.393631,-10.271730,0.052579,1.942855,-0.116410,0.000000,0.000000,0.000000,0.000000,0.000000,0.000000
11796955.000000,-2.365975,-1.662704,1.108729,-1.395209,1.752260,1.158155,-0.564368,0.441474,-0.021287,0.826988,-0.297930,-0.340349,0.718593,-0.116782,-5.539507,42.974895,-21.469009,-10.418520,0.064481,1.955673,-0.155778,0.000000,0.000000,0.000000,0.000000,0.000000,0.000000
11796956.000000,-2.365558,-1.662719,1.109572,-1.395500,1.751919,1.158891,-0.564490,0.433024,-0.020811,0.825992,-0.292917,-0.340244,0.723000,-0.114964,-5.166583,42.927288,-21.591995,-10.569277,0.076383,1.825668,-0.175919,0.000000,0.000000,0.000000,0.000000,0.000000,0.000000
11796957.000000,-2.365134,-1.662733,1.110395,-1.395786,1.751595,1.159627,-0.564619,0.426715,-0.016836,0.819597,-0.289653,-0.333400,0.725543,-0.117124,-4.821429,42.851910,-21.615799,-10.716066,0.022367,1.793624,-0.110001,0.000000,0.000000,0.000000,0.000000,0.000000,0.000000
11796958.000000,-2.364719,-1.662745,1.111236,-1.396086,1.751257,1.160339,-0.564735,0.430277,-0.016915,0.813819,-0.291696,-0.333555,0.738959,-0.119130,-4.476275,42.780499,-21.714981,-10.668459,-0.025240,1.871444,-0.149369,0.000000,0.000000,0.000000,0.000000,0.000000,0.000000
11796959.000000,-2.364312,-1.662758,1.112072,-1.396375,1.750920,1.161069,-0.564859,0.421254,-0.014706,0.828506,-0.289131,-0.336170,0.737158,-0.123779,-4.055743,42.728924,-21.714981,-10.791445,-0.007845,1.890670,-0.110001,0.000000,0.000000,0.000000,0.000000,0.000000,0.000000
11796960.000000,-2.363903,-1.662775,1.112904,-1.396681,1.750584,1.161815,-0.564976,0.414713,-0.015321,0.824743,-0.293349,-0.336028,0.740117,-0.119930,-3.659014,42.780499,-21.762589,-10.640688,0.081876,1.800033,-0.142960,0.000000,0.000000,0.000000,0.000000,0.000000,0.000000
11796961.000000,-2.363494,-1.662784,1.113750,-1.396987,1.750258,1.162536,-0.565093,0.411340,-0.012181,0.827512,-0.298444,-0.334019,0.736228,-0.117334,-3.409075,42.681316,-21.933182,-10.493898,0.022367,1.754256,-0.169511,0.000000,0.000000,0.000000,0.000000,0.000000,0.000000
11796962.000000,-2.363091,-1.662801,1.114608,-1.397302,1.749927,1.163274,-0.565215,0.409303,-0.015756,0.842051,-0.312322,-0.334626,0.737991,-0.119426,-3.087725,42.705120,-22.202957,-10.271730,-0.001437,1.773483,-0.089860,0.000000,0.000000,0.000000,0.000000,0.000000,0.000000
11796963.000000,-2.362696,-1.662815,1.115457,-1.397628,1.749589,1.164010,-0.565321,0.406992,-0.014837,0.847689,-0.315604,-0.333017,0.742101,-0.113806,-2.718768,42.705120,-22.548111,-9.997988,0.046171,1.767074,-0.169511,0.000000,0.000000,0.000000,0.000000,0.000000,0.000000
11796964.000000,-2.362305,-1.662839,1.116312,-1.397949,1.749260,1.164735,-0.565435,0.403759,-0.019772,0.846779,-0.317134,-0.334948,0.735014,-0.113898,-2.421221,42.828106,-22.794083,-9.752016,0.058073,1.760665,-0.169511,0.000000,0.000000,0.000000,0.000000,0.000000,0.000000
11796965.000000,-2.361912,-1.662856,1.117154,-1.398278,1.748922,1.165455,-0.565551,0.396845,-0.018635,0.846716,-0.320293,-0.337990,0.727877,-0.114079,-2.099871,42.875713,-23.087662,-9.553652,0.105680,1.916305,-0.163102,0.000000,0.000000,0.000000,0.000000,0.000000,0.000000
11796966.000000,-2.361522,-1.662881,1.118011,-1.398608,1.748582,1.166168,-0.565666,0.394266,-0.020069,0.842278,-0.324160,-0.335748,0.715374,-0.119645,-1.849932,43.026470,-23.432816,-9.406862,0.123990,2.053634,-0.163102,0.000000,0.000000,0.000000,0.000000,0.000000,0.000000
11796967.000000,-2.361139,-1.662906,1.118875,-1.398945,1.748246,1.166902,-0.565774,0.387837,-0.020295,0.862600,-0.328231,-0.342480,0.714397,-0.116849,-1.552386,43.145489,-23.801773,-9.256105,0.207303,2.085677,-0.196061,0.000000,0.000000,0.000000,0.000000,0.000000,0.000000
11796968.000000,-2.360751,-1.662934,1.119717,-1.399289,1.747912,1.167641,-0.565891,0.387779,-0.021667,0.857423,-0.330798,-0.342510,0.722225,-0.116896,-1.330218,43.320049,-24.019974,-8.962526,0.273221,2.027084,-0.169511,0.000000,0.000000,0.000000,0.000000,0.000000,0.000000
11796969.000000,-2.360365,-1.662965,1.120568,-1.399639,1.747566,1.168361,-0.566003,0.389743,-0.023015,0.855339,-0.332572,-0.346242,0.720658,-0.116937,-1.183428,43.514446,-24.142960,-8.641176,0.279630,2.027084,-0.169511,0.000000,0.000000,0.000000,0.000000,0.000000,0.000000
11796970.000000,-2.359981,-1.662994,1.121421,-1.399995,1.747221,1.169077,-0.566114,0.384442,-0.026209,0.856108,-0.341134,-0.347305,0.716880,-0.115369,-0.985064,43.685040,-24.464310,-8.292055,0.362943,2.053634,-0.188737,0.000000,0.000000,0.000000,0.000000,0.000000,0.000000
11796971.000000,-2.359608,-1.663021,1.122269,-1.400351,1.746888,1.169774,-0.566232,0.379053,-0.026763,0.850699,-0.343211,-0.339275,0.711233,-0.112206,-0.786700,43.784222,-24.535721,-7.998476,0.344633,2.085677,-0.130143,0.000000,0.000000,0.000000,0.000000,0.000000,0.000000
11796972.000000,-2.359228,-1.663053,1.123118,-1.400706,1.746552,1.170491,-0.566343,0.378918,-0.029064,0.859314,-0.347906,-0.339531,0.708291,-0.112474,-0.612139,43.954815,-24.583328,-7.823915,0.344633,2.072860,-0.130143,0.000000,0.000000,0.000000,0.000000,0.000000,0.000000
11796973.000000,-2.358856,-1.663083,1.123954,-1.401062,1.746213,1.171212,-0.566444,0.372474,-0.029575,0.852265,-0.352932,-0.339610,0.707600,-0.110616,-0.314593,44.077801,-24.583328,-7.649354,0.351041,2.014266,-0.182328,0.000000,0.000000,0.000000,0.000000,0.000000,0.000000
11796974.000000,-2.358493,-1.663114,1.124804,-1.401419,1.745880,1.171920,-0.566560,0.366988,-0.030034,0.846137,-0.354492,-0.338718,0.705715,-0.112424,0.030561,44.200787,-24.611099,-7.502565,0.344633,1.988631,-0.155778,0.000000,0.000000,0.000000,0.000000,0.000000,0.000000
11796975.000000,-2.358128,-1.663143,1.125642,-1.401778,1.745549,1.172628,-0.566665,0.364446,-0.029777,0.857916,-0.355795,-0.337289,0.708650,-0.110589,0.276533,44.296001,-24.611099,-7.379579,0.428861,2.047225,-0.208878,0.000000,0.000000,0.000000,0.000000,0.000000,0.000000
11796976.000000,-2.357754,-1.663174,1.126471,-1.402154,1.745216,1.173331,-0.566784,0.374739,-0.030157,0.840498,-0.360849,-0.338199,0.718805,-0.112915,0.351911,44.418987,-24.388931,-7.082033,0.440763,2.092086,-0.163102,0.000000,0.000000,0.000000,0.000000,0.000000,0.000000
11796977.000000,-2.357384,-1.663198,1.127313,-1.402537,1.744872,1.174059,-0.566897,0.372338,-0.027581,0.850136,-0.366339,-0.341546,0.717950,-0.113477,0.526471,44.418987,-24.341324,-6.836061,0.530485,1.974899,-0.149369,0.000000,0.000000,0.000000,0.000000,0.000000,0.000000
11796978.000000,-2.357003,-1.663220,1.128150,-1.402922,1.744540,1.174784,-0.567001,0.373781,-0.025294,0.842716,-0.372384,-0.340991,0.711433,-0.111160,0.550275,44.395184,-24.436539,-6.514711,0.535978,1.858627,-0.208878,0.000000,0.000000,0.000000,0.000000,0.000000,0.000000
11796979.000000,-2.356625,-1.663244,1.128987,-1.403313,1.744219,1.175498,-0.567122,0.373870,-0.024938,0.834620,-0.376227,-0.332800,0.717807,-0.114338,0.474897,44.418987,-24.388931,-6.193361,0.470060,1.844894,-0.142960,0.000000,0.000000,0.000000,0.000000,0.000000,0.000000
11796980.000000,-2.356250,-1.663268,1.129826,-1.403702,1.743892,1.176229,-0.567231,0.376132,-0.024266,0.841422,-0.391030,-0.334967,0.721127,-0.117912,0.474897,44.418987,-24.388931,-5.919618,0.476469,1.812850,-0.163102,0.000000,0.000000,0.000000,0.000000,0.000000,0.000000
11796981.000000,-2.355870,-1.663288,1.130654,-1.404100,1.743558,1.176953,-0.567344,0.377728,-0.022630,0.829706,-0.396868,-0.331165,0.719253,-0.111685,0.427289,44.371380,-24.436539,-5.649843,0.542386,1.819259,-0.169511,0.000000,0.000000,0.000000,0.000000,0.000000,0.000000
11796982.000000,-2.355499,-1.663309,1.131489,-1.404494,1.743236,1.177653,-0.567455,0.377039,-0.022089,0.820745,-0.394020,-0.328380,0.715945,-0.107794,0.451093,44.347576,-24.488113,-5.475282,0.542386,2.001449,-0.169511,0.000000,0.000000,0.000000,0.000000,0.000000,0.000000
11796983.000000,-2.355123,-1.663321,1.132309,-1.404886,1.742924,1.178360,-0.567566,0.373499,-0.019401,0.815540,-0.394721,-0.321555,0.703687,-0.110183,0.451093,44.224590,-24.488113,-5.229311,0.535978,2.177230,-0.142960,0.000000,0.000000,0.000000,0.000000,0.000000,0.000000
11796984.000000,-2.354751,-1.663337,1.133152,-1.405277,1.742596,1.179079,-0.567671,0.371977,-0.015948,0.812462,-0.394425,-0.321916,0.704496,-0.110556,0.427289,44.149212,-24.734085,-5.106325,0.571683,2.137862,-0.149369,0.000000,0.000000,0.000000,0.000000,0.000000,0.000000
11796985.000000,-2.354378,-1.663352,1.133987,-1.405664,1.742268,1.179817,-0.567770,0.371831,-0.013614,0.826409,-0.389510,-0.331513,0.714056,-0.109096,0.474897,44.077801,-24.829300,-4.983339,0.644010,1.955673,-0.208878,0.000000,0.000000,0.000000,0.000000,0.000000,0.000000
11796986.000000,-2.353997,-1.663359,1.134801,-1.406055,1.741950,1.180548,-0.567885,0.370984,-0.012772,0.820017,-0.385310,-0.324130,0.714906,-0.112161,0.427289,43.931011,-24.829300,-4.856386,0.655912,1.936446,-0.155778,0.000000,0.000000,0.000000,0.000000,0.000000,0.000000
11796987.000000,-2.353626,-1.663373,1.135629,-1.406454,1.741622,1.181254,-0.567992,0.368919,-0.011243,0.818561,-0.387173,-0.324318,0.716358,-0.106657,0.474897,43.855633,-24.880875,-4.634218,0.698026,2.020675,-0.182328,0.000000,0.000000,0.000000,0.000000,0.000000,0.000000
11796988.000000,-2.353249,-1.663379,1.136432,-1.406840,1.741295,1.181969,-0.568098,0.367296,-0.008952,0.809025,-0.385484,-0.323058,0.710321,-0.103621,0.474897,43.732647,-24.805496,-4.562807,0.691617,2.020675,-0.182328,0.000000,0.000000,0.000000,0.000000,0.000000,0.000000
11796989.000000,-2.352883,-1.663384,1.137251,-1.407223,1.740967,1.182693,-0.568206,0.368909,-0.007391,0.799567,-0.383099,-0.323532,0.715516,-0.106423,0.502668,43.613628,-24.757889,-4.586610,0.727323,1.930038,-0.169511,0.000000,0.000000,0.000000,0.000000,0.000000,0.000000
11796990.000000,-2.352514,-1.663384,1.138058,-1.407611,1.740661,1.183416,-0.568310,0.366453,-0.007873,0.804929,-0.384232,-0.315042,0.715629,-0.102953,0.550275,43.439068,-24.535721,-4.586610,0.644010,1.916305,-0.182328,0.000000,0.000000,0.000000,0.000000,0.000000,0.000000
11796991.000000,-2.352140,-1.663383,1.138862,-1.407992,1.740354,1.184138,-0.568418,0.368472,-0.005429,0.801672,-0.379888,-0.314286,0.716884,-0.106323,0.574079,43.268475,-24.436539,-4.562807,0.584501,2.001449,-0.163102,0.000000,0.000000,0.000000,0.000000,0.000000,0.000000
11796992.000000,-2.351774,-1.663376,1.139675,-1.408371,1.740035,1.184847,-0.568519,0.366506,-0.002139,0.798652,-0.378165,-0.315776,0.723400,-0.106638,0.625654,43.026470,-24.436539,-4.562807,0.589994,2.079269,-0.196061,0.000000,0.000000,0.000000,0.000000,0.000000,0.000000
11796993.000000,-2.351404,-1.663372,1.140473,-1.408748,1.739727,1.185581,-0.568629,0.366100,-0.001434,0.808409,-0.380281,-0.311960,0.720175,-0.105165,0.601850,42.851910,-24.313553,-4.463624,0.566190,2.085677,-0.155778,0.000000,0.000000,0.000000,0.000000,0.000000,0.000000
11796994.000000,-2.351031,-1.663363,1.141280,-1.409129,1.739416,1.186313,-0.568729,0.377947,0.000673,0.796761,-0.381699,-0.307155,0.738208,-0.101301,0.526471,42.609905,-24.313553,-4.364442,0.625699,1.981307,-0.182328,0.000000,0.000000,0.000000,0.000000,0.000000,0.000000
11796995.000000,-2.350655,-1.663352,1.142105,-1.409517,1.739102,1.187043,-0.568831,0.378077,0.003209,0.799104,-0.382459,-0.307837,0.729163,-0.099841,0.502668,42.316326,-24.488113,-4.142274,0.667814,1.942855,-0.175919,0.000000,0.000000,0.000000,0.000000,0.000000,0.000000
11796996.000000,-2.350272,-1.663337,1.142914,-1.409890,1.738802,1.187780,-0.568935,0.376724,0.008582,0.797807,-0.383695,-0.305705,0.728117,-0.099702,0.375715,41.994976,-24.682510,-4.019289,0.655912,1.981307,-0.142960,0.000000,0.000000,0.000000,0.000000,0.000000,0.000000
11796997.000000,-2.349908,-1.663330,1.143726,-1.410265,1.738498,1.188493,-0.569031,0.372159,0.006563,0.793338,-0.378841,-0.305170,0.723694,-0.096611,0.427289,41.800579,-24.805496,-3.967714,0.679716,2.014266,-0.188737,0.000000,0.000000,0.000000,0.000000,0.000000,0.000000
11796998.000000,-2.349543,-1.663331,1.144533,-1.410634,1.738208,1.189217,-0.569131,0.367883,0.001851,0.803036,-0.384301,-0.302568,0.715974,-0.096212,0.526471,41.752972,-24.857071,-3.868532,0.679716,2.020675,-0.188737,0.000000,0.000000,0.000000,0.000000,0.000000,0.000000
11796999.000000,-2.349184,-1.663329,1.145333,-1.410998,1.737920,1.189919,-0.569238,0.363490,0.000924,0.799796,-0.377540,-0.301286,0.710301,-0.100750,0.724836,41.729168,-24.952286,-3.920107,0.649503,2.183639,-0.163102,0.000000,0.000000,0.000000,0.000000,0.000000,0.000000
11797000.000000,-2.348828,-1.663323,1.146134,-1.411365,1.737625,1.190611,-0.569344,0.359386,0.001172,0.794869,-0.371815,-0.300687,0.697405,-0.103562,0.923200,41.677593,-25.027664,-3.868532,0.620206,2.320052,-0.155778,0.000000,0.000000,0.000000,0.000000,0.000000,0.000000
11797001.000000,-2.348471,-1.663331,1.146916,-1.411731,1.737337,1.191323,-0.569440,0.354264,-0.002583,0.790390,-0.371322,-0.296583,0.695544,-0.103954,1.046186,41.800579,-24.928482,-3.820925,0.620206,2.352096,-0.208878,0.000000,0.000000,0.000000,0.000000,0.000000,0.000000
11797002.000000,-2.348127,-1.663337,1.147705,-1.412101,1.737047,1.192031,-0.569549,0.356959,-0.004408,0.782261,-0.365608,-0.293484,0.697773,-0.108871,1.244550,41.899761,-24.805496,-3.721742,0.644010,2.202865,-0.142960,0.000000,0.000000,0.000000,0.000000,0.000000,0.000000
11797003.000000,-2.347774,-1.663337,1.148495,-1.412471,1.736766,1.192762,-0.569642,0.352611,-0.003213,0.796012,-0.367960,-0.294903,0.707243,-0.102761,1.415143,41.899761,-24.682510,-3.670168,0.667814,2.072860,-0.208878,0.000000,0.000000,0.000000,0.000000,0.000000,0.000000
11797004.000000,-2.347417,-1.663339,1.149269,-1.412836,1.736475,1.193485,-0.569743,0.353877,-0.002348,0.786920,-0.366676,-0.295622,0.716262,-0.105417,1.514325,41.899761,-24.511917,-3.547182,0.644010,2.001449,-0.208878,0.000000,0.000000,0.000000,0.000000,0.000000,0.000000
11797005.000000,-2.347073,-1.663340,1.150050,-1.413196,1.736180,1.194197,-0.569853,0.349877,-0.001720,0.782904,-0.363751,-0.289319,0.713057,-0.104771,1.688886,41.899761,-24.289749,-3.475771,0.691617,1.942855,-0.155778,0.000000,0.000000,0.000000,0.000000,0.000000,0.000000
11797006.000000,-2.346735,-1.663347,1.150811,-1.413551,1.735901,1.194921,-0.569943,0.348235,-0.003489,0.774523,-0.361330,-0.287581,0.713734,-0.100686,1.863447,41.994976,-23.972366,-3.448000,0.691617,1.877853,-0.196061,0.000000,0.000000,0.000000,0.000000,0.000000,0.000000
11797007.000000,-2.346393,-1.663340,1.151580,-1.413903,1.735625,1.195635,-0.570045,0.346290,-0.000743,0.765507,-0.354280,-0.285270,0.710547,-0.100022,2.010236,41.923565,-23.651016,-3.499574,0.667814,1.838485,-0.169511,0.000000,0.000000,0.000000,0.000000,0.000000,0.000000
11797008.000000,-2.346055,-1.663332,1.152357,-1.414261,1.735346,1.196357,-0.570137,0.340169,0.001760,0.774099,-0.353827,-0.281923,0.711566,-0.097900,2.232404,41.824383,-23.456619,-3.499574,0.589994,1.838485,-0.188737,0.000000,0.000000,0.000000,0.000000,0.000000,0.000000
11797009.000000,-2.345708,-1.663325,1.153112,-1.414614,1.735062,1.197087,-0.570234,0.341288,0.003352,0.767097,-0.353951,-0.282442,0.717649,-0.096784,2.331586,41.729168,-23.210648,-3.475771,0.589994,1.806442,-0.196061,0.000000,0.000000,0.000000,0.000000,0.000000,0.000000
11797010.000000,-2.345364,-1.663318,1.153886,-1.414972,1.734769,1.197823,-0.570333,0.343640,0.004518,0.763580,-0.358530,-0.282968,0.725475,-0.102301,2.383161,41.629986,-23.135269,-3.376589,0.613798,1.702071,-0.175919,0.000000,0.000000,0.000000,0.000000,0.000000,0.000000
11797011.000000,-2.345019,-1.663304,1.154653,-1.415327,1.734488,1.198556,-0.570428,0.345628,0.010522,0.771069,-0.363288,-0.281177,0.726636,-0.099431,2.383161,41.431622,-22.988480,-3.277406,0.691617,1.676437,-0.188737,0.000000,0.000000,0.000000,0.000000,0.000000,0.000000
11797012.000000,-2.344668,-1.663287,1.155409,-1.415687,1.734206,1.199273,-0.570529,0.347679,0.012340,0.757279,-0.366933,-0.282398,0.734833,-0.098765,2.383161,41.213421,-22.865494,-3.126650,0.721830,1.649886,-0.169511,0.000000,0.000000,0.000000,0.000000,0.000000,0.000000
11797013.000000,-2.344322,-1.663269,1.156183,-1.416044,1.733920,1.200004,-0.570619,0.343880,0.013589,0.756130,-0.363124,-0.282606,0.733966,-0.096350,2.331586,40.991253,-22.917068,-3.102846,0.727323,1.662704,-0.208878,0.000000,0.000000,0.000000,0.000000,0.000000,0.000000
11797014.000000,-2.343971,-1.663249,1.156948,-1.416391,1.733646,1.200743,-0.570718,0.342498,0.017815,0.753957,-0.356885,-0.277837,0.726714,-0.096975,2.331586,40.749249,-22.940872,-3.102846,0.727323,1.584884,-0.175919,0.000000,0.000000,0.000000,0.000000,0.000000,0.000000
11797015.000000,-2.343627,-1.663231,1.157715,-1.416736,1.733376,1.201462,-0.570811,0.343340,0.016208,0.748206,-0.348881,-0.271970,0.724793,-0.095660,2.283979,40.578655,-22.893265,-3.225832,0.673307,1.565658,-0.196061,0.000000,0.000000,0.000000,0.000000,0.000000,0.000000
11797016.000000,-2.343276,-1.663210,1.158488,-1.417082,1.733108,1.202176,-0.570908,0.345368,0.019148,0.760016,-0.347326,-0.270104,0.720011,-0.095674,2.184797,40.356487,-22.893265,-3.202028,0.667814,1.714889,-0.188737,0.000000,0.000000,0.000000,0.000000,0.000000,0.000000
11797017.000000,-2.342926,-1.663188,1.159248,-1.417432,1.732838,1.202882,-0.571000,0.344274,0.020641,0.753888,-0.349918,-0.267322,0.711717,-0.094008,2.160993,40.162090,-22.988480,-3.178224,0.625699,1.930038,-0.221696,0.000000,0.000000,0.000000,0.000000,0.000000,0.000000
11797018.000000,-2.342571,-1.663170,1.160015,-1.417779,1.732568,1.203593,-0.571101,0.349431,0.020098,0.751549,-0.347053,-0.265515,0.712057,-0.095049,2.010236,40.039104,-23.016251,-3.178224,0.596403,1.968490,-0.175919,0.000000,0.000000,0.000000,0.000000,0.000000,0.000000
11797019.000000,-2.342218,-1.663150,1.160767,-1.418121,1.732302,1.204324,-0.571192,0.346389,0.017497,0.747190,-0.350887,-0.265265,0.716109,-0.089585,1.986432,39.892315,-22.964676,-3.079042,0.584501,1.851302,-0.188737,0.000000,0.000000,0.000000,0.000000,0.000000,0.000000
11797020.000000,-2.341869,-1.663123,1.161532,-1.418450,1.732040,1.205051,-0.571282,0.347221,0.020260,0.743614,-0.341308,-0.261748,0.724833,-0.089160,1.863447,39.670147,-22.964676,-3.225832,0.584501,1.747848,-0.229020,0.000000,0.000000,0.000000,0.000000,0.000000,0.000000
11797021.000000,-2.341510,-1.663099,1.162299,-1.418786,1.731779,1.205776,-0.571382,0.351344,0.021563,0.757878,-0.338958,-0.263236,0.722154,-0.093060,1.712690,39.475750,-22.940872,-3.202028,0.601896,1.747848,-0.163102,0.000000,0.000000,0.000000,0.000000,0.000000,0.000000
11797022.000000,-2.341153,-1.663075,1.163046,-1.419107,1.731509,1.206498,-0.571470,0.349444,0.022502,0.753109,-0.335199,-0.263461,0.720039,-0.092052,1.613508,39.281353,-22.794083,-3.376589,0.608304,1.760665,-0.196061,0.000000,0.000000,0.000000,0.000000,0.000000,0.000000
11797023.000000,-2.340803,-1.663059,1.163791,-1.419438,1.731243,1.207213,-0.571566,0.351442,0.019311,0.746364,-0.332388,-0.260015,0.723857,-0.088509,1.565900,39.253582,-22.500504,-3.400392,0.644010,1.760665,-0.182328,0.000000,0.000000,0.000000,0.000000,0.000000,0.000000
11797024.000000,-2.340447,-1.663038,1.164540,-1.419747,1.730990,1.207918,-0.571659,0.348780,0.019455,0.759220,-0.326331,-0.260668,0.708463,-0.090429,1.490522,39.130596,-22.401321,-3.622560,0.637601,1.838485,-0.169511,0.000000,0.000000,0.000000,0.000000,0.000000,0.000000
11797025.000000,-2.340095,-1.663016,1.165294,-1.420064,1.730746,1.208614,-0.571749,0.356527,0.018949,0.749871,-0.320612,-0.258180,0.703330,-0.089625,1.343732,39.035381,-22.278336,-3.769350,0.547880,1.916305,-0.215287,0.000000,0.000000,0.000000,0.000000,0.000000,0.000000
11797026.000000,-2.339735,-1.662995,1.166056,-1.420381,1.730491,1.209330,-0.571850,0.357652,0.018724,0.758741,-0.318138,-0.257172,0.709770,-0.093851,1.216779,38.936199,-22.254532,-3.844728,0.476469,1.819259,-0.136552,0.000000,0.000000,0.000000,0.000000,0.000000,0.000000
11797027.000000,-2.339364,-1.662975,1.166799,-1.420689,1.730237,1.210066,-0.571933,0.361060,0.018587,0.748906,-0.313818,-0.257088,0.717554,-0.091127,0.970807,38.837017,-22.131546,-4.019289,0.416959,1.649886,-0.208878,0.000000,0.000000,0.000000,0.000000,0.000000,0.000000
11797028.000000,-2.339007,-1.662960,1.167559,-1.421006,1.729975,1.210778,-0.572024,0.360202,0.019002,0.745905,-0.314445,-0.256060,0.715961,-0.091697,0.871625,38.837017,-22.179153,-4.019289,0.470060,1.539108,-0.215287,0.000000,0.000000,0.000000,0.000000,0.000000,0.000000
11797029.000000,-2.338639,-1.662938,1.168330,-1.421308,1.729725,1.211470,-0.572122,0.359091,0.019067,0.760218,-0.317131,-0.256887,0.699399,-0.090010,0.625654,38.741802,-22.278336,-4.118471,0.428861,1.689254,-0.155778,0.000000,0.000000,0.000000,0.000000,0.000000,0.000000
11797030.000000,-2.338276,-1.662928,1.169078,-1.421613,1.729474,1.212163,-0.572209,0.360456,0.015603,0.749538,-0.311062,-0.256084,0.709122,-0.089673,0.451093,38.789410,-22.325943,-4.241457,0.428861,1.812850,-0.188737,0.000000,0.000000,0.000000,0.000000,0.000000,0.000000
11797031.000000,-2.337921,-1.662919,1.169840,-1.421919,1.729208,1.212878,-0.572303,0.362087,0.011952,0.746906,-0.308011,-0.259661,0.703853,-0.091127,0.375715,38.888592,-22.425125,-4.289064,0.458158,1.747848,-0.163102,0.000000,0.000000,0.000000,0.000000,0.000000,0.000000
11797032.000000,-2.337561,-1.662911,1.170585,-1.422203,1.728946,1.213595,-0.572386,0.359887,0.010221,0.741616,-0.300567,-0.256434,0.702623,-0.090510,0.304304,38.960003,-22.500504,-4.562807,0.470060,1.708480,-0.202470,0.000000,0.000000,0.000000,0.000000,0.000000,0.000000
11797033.000000,-2.337199,-1.662898,1.171344,-1.422497,1.728690,1.214277,-0.572473,0.360500,0.010727,0.738332,-0.299023,-0.253293,0.695972,-0.091458,0.177350,38.960003,-22.571915,-4.661989,0.470060,1.851302,-0.208878,0.000000,0.000000,0.000000,0.000000,0.000000,0.000000
11797034.000000,-2.336837,-1.662889,1.172100,-1.422785,1.728448,1.214967,-0.572560,0.354839,0.009746,0.748695,-0.291806,-0.253545,0.684789,-0.088053,0.030561,39.011578,-22.571915,-4.757204,0.440763,2.020675,-0.196061,0.000000,0.000000,0.000000,0.000000,0.000000,0.000000
11797035.000000,-2.336478,-1.662891,1.172840,-1.423071,1.728194,1.215682,-0.572647,0.356310,0.008618,0.742684,-0.294660,-0.258084,0.692078,-0.089411,-0.017047,39.205975,-22.425125,-4.808778,0.494779,1.936446,-0.196061,0.000000,0.000000,0.000000,0.000000,0.000000,0.000000
11797036.000000,-2.336118,-1.662890,1.173590,-1.423349,1.727935,1.216384,-0.572737,0.357363,0.006322,0.740717,-0.289417,-0.260671,0.697804,-0.091809,-0.116229,39.352764,-22.353714,-4.983339,0.530485,1.825668,-0.163102,0.000000,0.000000,0.000000,0.000000,0.000000,0.000000
11797037.000000,-2.335760,-1.662888,1.174332,-1.423626,1.727691,1.217090,-0.572819,0.359123,0.005263,0.749740,-0.285946,-0.258076,0.696058,-0.090903,-0.167803,39.475750,-22.325943,-5.030946,0.440763,1.819259,-0.202470,0.000000,0.000000,0.000000,0.000000,0.000000,0.000000
11797038.000000,-2.335410,-1.662890,1.175082,-1.423903,1.727444,1.217792,-0.572914,0.357821,0.003396,0.742265,-0.283873,-0.253294,0.694111,-0.088987,-0.191607,39.646343,-22.278336,-5.177736,0.398649,1.760665,-0.149369,0.000000,0.000000,0.000000,0.000000,0.000000,0.000000
11797039.000000,-2.335062,-1.662894,1.175832,-1.424176,1.727201,1.218515,-0.572994,0.352571,0.001664,0.750326,-0.279627,-0.246748,0.698426,-0.083004,-0.191607,39.840740,-22.202957,-5.328493,0.393156,1.656295,-0.215287,0.000000,0.000000,0.000000,0.000000,0.000000,0.000000
11797040.000000,-2.334714,-1.662897,1.176559,-1.424437,1.726959,1.219236,-0.573082,0.347029,0.000828,0.737909,-0.272656,-0.246083,0.704263,-0.086412,-0.116229,40.015301,-21.885574,-5.499086,0.381254,1.584884,-0.202470,0.000000,0.000000,0.000000,0.000000,0.000000,0.000000
11797041.000000,-2.334367,-1.662896,1.177310,-1.424702,1.726714,1.219945,-0.573171,0.342149,0.002771,0.736590,-0.269848,-0.243810,0.706592,-0.090589,-0.116229,40.086712,-21.786392,-5.697450,0.327238,1.597701,-0.149369,0.000000,0.000000,0.000000,0.000000,0.000000,0.000000
11797042.000000,-2.334012,-1.662897,1.178050,-1.424960,1.726473,1.220653,-0.573248,0.345316,0.000520,0.746090,-0.264792,-0.239787,0.704734,-0.089708,-0.144000,40.185894,-21.687210,-5.895814,0.332731,1.649886,-0.196061,0.000000,0.000000,0.000000,0.000000,0.000000,0.000000
11797043.000000,-2.333664,-1.662895,1.178785,-1.425215,1.726233,1.221359,-0.573337,0.352930,0.003432,0.735084,-0.262787,-0.241676,0.715098,-0.092067,-0.215411,40.209698,-21.445206,-6.070375,0.339139,1.578475,-0.163102,0.000000,0.000000,0.000000,0.000000,0.000000,0.000000
11797044.000000,-2.333311,-1.662894,1.179532,-1.425484,1.725992,1.222091,-0.573423,0.352992,0.001417,0.744815,-0.266463,-0.239500,0.719716,-0.088146,-0.366168,40.281109,-21.346024,-6.117982,0.374845,1.448470,-0.155778,0.000000,0.000000,0.000000,0.000000,0.000000,0.000000
11797045.000000,-2.332961,-1.662884,1.180263,-1.425744,1.725762,1.222809,-0.573506,0.349302,0.004329,0.736433,-0.262566,-0.235411,0.717555,-0.083668,-0.389971,40.162090,-21.270645,-6.169557,0.356534,1.454879,-0.188737,0.000000,0.000000,0.000000,0.000000,0.000000,0.000000
11797046.000000,-2.332603,-1.662881,1.181020,-1.426013,1.725525,1.223517,-0.573590,0.351699,0.003985,0.740396,-0.265309,-0.236430,0.714583,-0.083187,-0.612139,40.134319,-21.393631,-6.070375,0.320829,1.526290,-0.149369,0.000000,0.000000,0.000000,0.000000,0.000000,0.000000
11797047.000000,-2.332257,-1.662869,1.181773,-1.426271,1.725293,1.224233,-0.573664,0.347052,0.006428,0.750677,-0.269472,-0.232520,0.715112,-0.078413,-0.588336,39.987530,-21.393631,-6.094179,0.279630,1.605026,-0.215287,0.000000,0.000000,0.000000,0.000000,0.000000,0.000000
11797048.000000,-2.331909,-1.662860,1.182517,-1.426531,1.725057,1.224963,-0.573753,0.345341,0.007322,0.749061,-0.264646,-0.233176,0.716406,-0.085045,-0.612139,39.868511,-21.469009,-6.117982,0.285123,1.578475,-0.142960,0.000000,0.000000,0.000000,0.000000,0.000000,0.000000
11797049.000000,-2.331566,-1.662849,1.183278,-1.426789,1.724829,1.225676,-0.573827,0.347398,0.010845,0.747938,-0.260291,-0.230519,0.715112,-0.084292,-0.663714,39.745525,-21.639603,-6.169557,0.255826,1.605026,-0.208878,0.000000,0.000000,0.000000,0.000000,0.000000,0.000000
11797050.000000,-2.331219,-1.662837,1.184025,-1.427051,1.724600,1.226390,-0.573914,0.344199,0.013255,0.743538,-0.262298,-0.230073,0.713159,-0.083984,-0.663714,39.622540,-21.810196,-6.141786,0.267728,1.637069,-0.155778,0.000000,0.000000,0.000000,0.000000,0.000000,0.000000
11797051.000000,-2.330872,-1.662824,1.184791,-1.427318,1.724359,1.227094,-0.573994,0.345182,0.012788,0.739970,-0.262731,-0.235018,0.710331,-0.084731,-0.762896,39.475750,-22.032364,-6.070375,0.308927,1.741439,-0.202470,0.000000,0.000000,0.000000,0.000000,0.000000,0.000000
11797052.000000,-2.330524,-1.662815,1.185549,-1.427580,1.724124,1.227799,-0.574078,0.344977,0.012922,0.750816,-0.264647,-0.237391,0.704724,-0.082016,-0.834307,39.428143,-22.107742,-5.994997,0.344633,1.800033,-0.215287,0.000000,0.000000,0.000000,0.000000,0.000000,0.000000
11797053.000000,-2.330190,-1.662805,1.186304,-1.427848,1.723893,1.228508,-0.574169,0.336153,0.013234,0.751033,-0.267399,-0.234756,0.703373,-0.082905,-0.810504,39.376568,-22.254532,-5.895814,0.344633,1.806442,-0.149369,0.000000,0.000000,0.000000,0.000000,0.000000,0.000000
11797054.000000,-2.329854,-1.662800,1.187070,-1.428117,1.723666,1.229206,-0.574249,0.338891,0.011149,0.748827,-0.264648,-0.231252,0.702490,-0.083895,-0.810504,39.428143,-22.401321,-5.820436,0.315336,1.800033,-0.188737,0.000000,0.000000,0.000000,0.000000,0.000000,0.000000
11797055.000000,-2.329515,-1.662790,1.187823,-1.428379,1.723444,1.229902,-0.574335,0.336619,0.012258,0.760645,-0.264310,-0.228564,0.698913,-0.086640,-0.762896,39.376568,-22.500504,-5.820436,0.273221,1.819259,-0.188737,0.000000,0.000000,0.000000,0.000000,0.000000,0.000000
11797056.000000,-2.329192,-1.662781,1.188584,-1.428648,1.723213,1.230590,-0.574423,0.329721,0.011294,0.754749,-0.270440,-0.231130,0.697344,-0.090226,-0.588336,39.400372,-22.571915,-5.820436,0.231107,1.865035,-0.142960,0.000000,0.000000,0.000000,0.000000,0.000000,0.000000
11797057.000000,-2.328856,-1.662778,1.189336,-1.428928,1.722969,1.231283,-0.574499,0.331860,0.009389,0.760703,-0.270605,-0.231339,0.692666,-0.084303,-0.564532,39.475750,-22.448929,-5.749025,0.255826,1.884261,-0.202470,0.000000,0.000000,0.000000,0.000000,0.000000,0.000000
11797058.000000,-2.328528,-1.662769,1.190082,-1.429202,1.722731,1.231985,-0.574587,0.329213,0.009324,0.752659,-0.270671,-0.231384,0.697469,-0.083407,-0.512957,39.499554,-22.353714,-5.673646,0.285123,1.903487,-0.169511,0.000000,0.000000,0.000000,0.000000,0.000000,0.000000
11797059.000000,-2.328197,-1.662757,1.190837,-1.429488,1.722494,1.232671,-0.574666,0.330528,0.010986,0.749626,-0.275963,-0.230572,0.693338,-0.080227,-0.465350,39.451946,-22.278336,-5.475282,0.308927,1.897079,-0.202470,0.000000,0.000000,0.000000,0.000000,0.000000,0.000000
11797060.000000,-2.327861,-1.662749,1.191603,-1.429773,1.722265,1.233369,-0.574749,0.325468,0.008766,0.763634,-0.279201,-0.229715,0.689204,-0.079466,-0.441546,39.428143,-22.302139,-5.328493,0.315336,1.871444,-0.196061,0.000000,0.000000,0.000000,0.000000,0.000000,0.000000
11797061.000000,-2.327535,-1.662735,1.192358,-1.430069,1.722032,1.234073,-0.574833,0.326466,0.008271,0.757629,-0.288680,-0.233916,0.711670,-0.079453,-0.290789,39.352764,-22.377518,-5.078554,0.320829,1.708480,-0.169511,0.000000,0.000000,0.000000,0.000000,0.000000,0.000000
11797062.000000,-2.327216,-1.662727,1.193117,-1.430360,1.721786,1.234780,-0.574909,0.323433,0.008908,0.764626,-0.288227,-0.238427,0.705802,-0.077459,-0.144000,39.352764,-22.448929,-4.931764,0.369352,1.624252,-0.196061,0.000000,0.000000,0.000000,0.000000,0.000000,0.000000
11797063.000000,-2.326890,-1.662721,1.193875,-1.430656,1.721548,1.235474,-0.574991,0.325135,0.006553,0.759490,-0.290309,-0.236863,0.694578,-0.077698,-0.167803,39.352764,-22.623489,-4.685792,0.410551,1.702071,-0.175919,0.000000,0.000000,0.000000,0.000000,0.000000,0.000000
11797064.000000,-2.326572,-1.662711,1.194641,-1.430952,1.721318,1.236136,-0.575074,0.323999,0.008176,0.753761,-0.290632,-0.232332,0.681727,-0.078603,-0.092425,39.328960,-22.770279,-4.463624,0.369352,1.936446,-0.136552,0.000000,0.000000,0.000000,0.000000,0.000000,0.000000
11797065.000000,-2.326256,-1.662705,1.195420,-1.431245,1.721086,1.236836,-0.575147,0.319729,0.008366,0.767487,-0.301286,-0.233050,0.684294,-0.075561,0.105939,39.352764,-23.016251,-4.289064,0.428861,1.955673,-0.196061,0.000000,0.000000,0.000000,0.000000,0.000000,0.000000
11797066.000000,-2.325932,-1.662704,1.196180,-1.431541,1.720854,1.237539,-0.575229,0.320428,0.004489,0.760121,-0.300363,-0.231032,0.694648,-0.080347,0.177350,39.428143,-23.186844,-4.142274,0.428861,1.909896,-0.188737,0.000000,0.000000,0.000000,0.000000,0.000000,0.000000
11797067.000000,-2.325620,-1.662699,1.196953,-1.431833,1.720619,1.238230,-0.575305,0.316373,0.002942,0.757318,-0.295627,-0.228956,0.695950,-0.078061,0.304304,39.451946,-23.432816,-4.043092,0.410551,1.897079,-0.208878,0.000000,0.000000,0.000000,0.000000,0.000000,0.000000
11797068.000000,-2.325311,-1.662699,1.197723,-1.432137,1.720382,1.238908,-0.575393,0.313218,0.002990,0.770627,-0.302336,-0.230252,0.685688,-0.078921,0.403486,39.547161,-23.702591,-3.797121,0.458158,2.033492,-0.169511,0.000000,0.000000,0.000000,0.000000,0.000000,0.000000
11797069.000000,-2.324997,-1.662705,1.198486,-1.432433,1.720147,1.239591,-0.575468,0.313813,0.001879,0.757718,-0.299387,-0.230211,0.678689,-0.076150,0.427289,39.693951,-23.750198,-3.721742,0.494779,2.053634,-0.202470,0.000000,0.000000,0.000000,0.000000,0.000000,0.000000
11797070.000000,-2.324683,-1.662709,1.199243,-1.432735,1.719911,1.240296,-0.575549,0.311301,-0.000441,0.763347,-0.296681,-0.235274,0.682268,-0.076122,0.550275,39.793133,-23.678787,-3.570986,0.571683,1.955673,-0.202470,0.000000,0.000000,0.000000,0.000000,0.000000,0.000000
11797071.000000,-2.324360,-1.662713,1.199997,-1.433031,1.719683,1.240990,-0.575631,0.315153,-0.000938,0.760065,-0.295783,-0.233092,0.677003,-0.081870,0.526471,39.840740,-23.702591,-3.523378,0.589994,1.942855,-0.169511,0.000000,0.000000,0.000000,0.000000,0.000000,0.000000
11797072.000000,-2.324057,-1.662719,1.200756,-1.433326,1.719455,1.241678,-0.575706,0.311827,-0.001480,0.757328,-0.289242,-0.228672,0.681419,-0.078589,0.673261,39.892315,-23.678787,-3.547182,0.524076,1.962081,-0.215287,0.000000,0.000000,0.000000,0.000000,0.000000,0.000000
11797073.000000,-2.323755,-1.662728,1.201501,-1.433614,1.719220,1.242369,-0.575788,0.306256,-0.003599,0.765695,-0.288869,-0.229052,0.680371,-0.083623,0.796247,40.015301,-23.579605,-3.547182,0.554288,1.930038,-0.175919,0.000000,0.000000,0.000000,0.000000,0.000000,0.000000
11797074.000000,-2.323455,-1.662737,1.202245,-1.433912,1.718995,1.243062,-0.575866,0.307099,-0.004429,0.752146,-0.288979,-0.227640,0.685517,-0.080593,0.923200,40.110516,-23.333633,-3.547182,0.535978,1.897079,-0.202470,0.000000,0.000000,0.000000,0.000000,0.000000,0.000000
11797075.000000,-2.323156,-1.662742,1.203004,-1.434210,1.718770,1.243761,-0.575940,0.304647,-0.004010,0.757171,-0.289236,-0.226907,0.687643,-0.079295,1.121564,40.162090,-23.234451,-3.547182,0.524076,1.903487,-0.202470,0.000000,0.000000,0.000000,0.000000,0.000000,0.000000
11797076.000000,-2.322840,-1.662742,1.203742,-1.434498,1.718558,1.244462,-0.576022,0.307969,-0.002562,0.747100,-0.289727,-0.221025,0.687581,-0.080164,1.093793,40.162090,-23.040054,-3.523378,0.488370,1.949264,-0.155778,0.000000,0.000000,0.000000,0.000000,0.000000,0.000000
11797077.000000,-2.322544,-1.662744,1.204487,-1.434801,1.718339,1.245174,-0.576091,0.303112,-0.001624,0.737378,-0.288535,-0.217471,0.694560,-0.081463,1.244550,40.162090,-22.841690,-3.400392,0.488370,1.832076,-0.215287,0.000000,0.000000,0.000000,0.000000,0.000000,0.000000
11797078.000000,-2.322232,-1.662739,1.205239,-1.435088,1.718119,1.245896,-0.576167,0.305693,0.000186,0.746687,-0.286620,-0.214950,0.691776,-0.076023,1.169172,40.110516,-22.742508,-3.348818,0.488370,1.624252,-0.196061,0.000000,0.000000,0.000000,0.000000,0.000000,0.000000
11797079.000000,-2.321925,-1.662738,1.205985,-1.435379,1.717893,1.246597,-0.576240,0.310006,0.001285,0.739739,-0.290285,-0.215075,0.703283,-0.071291,1.145368,40.062908,-22.770279,-3.277406,0.542386,1.591293,-0.188737,0.000000,0.000000,0.000000,0.000000,0.000000,0.000000
11797080.000000,-2.321624,-1.662725,1.206733,-1.435675,1.717678,1.247288,-0.576314,0.310938,0.005439,0.735691,-0.289349,-0.216170,0.697142,-0.072950,1.145368,39.868511,-22.718704,-3.154421,0.494779,1.689254,-0.169511,0.000000,0.000000,0.000000,0.000000,0.000000,0.000000
11797081.000000,-2.321315,-1.662719,1.207466,-1.435959,1.717461,1.247993,-0.576383,0.308672,0.004859,0.732089,-0.287829,-0.216170,0.694313,-0.067780,1.121564,39.816936,-22.623489,-3.079042,0.547880,1.735030,-0.196061,0.000000,0.000000,0.000000,0.000000,0.000000,0.000000
11797082.000000,-2.321007,-1.662709,1.208212,-1.436245,1.717244,1.248679,-0.576455,0.309192,0.007250,0.729808,-0.287935,-0.210846,0.698570,-0.065019,1.022382,39.646343,-22.595718,-3.055238,0.596403,1.773483,-0.196061,0.000000,0.000000,0.000000,0.000000,0.000000,0.000000
11797083.000000,-2.320703,-1.662697,1.208969,-1.436523,1.717036,1.249381,-0.576523,0.307682,0.008282,0.744497,-0.284768,-0.208104,0.692370,-0.062460,0.994611,39.499554,-22.694901,-3.055238,0.547880,1.786300,-0.202470,0.000000,0.000000,0.000000,0.000000,0.000000,0.000000
11797084.000000,-2.320393,-1.662684,1.209714,-1.436805,1.716819,1.250085,-0.576597,0.308639,0.009523,0.741643,-0.283106,-0.207693,0.700192,-0.065356,0.871625,39.328960,-22.770279,-3.027467,0.535978,1.760665,-0.208878,0.000000,0.000000,0.000000,0.000000,0.000000,0.000000
11797085.000000,-2.320092,-1.662672,1.210468,-1.437094,1.716610,1.250772,-0.576665,0.306475,0.010347,0.740962,-0.282240,-0.207361,0.694404,-0.068378,0.871625,39.158367,-22.893265,-2.979860,0.524076,1.760665,-0.215287,0.000000,0.000000,0.000000,0.000000,0.000000,0.000000
11797086.000000,-2.319780,-1.662666,1.211203,-1.437378,1.716404,1.251473,-0.576736,0.309045,0.008111,0.735395,-0.284929,-0.207881,0.689013,-0.069750,0.796247,39.106792,-22.940872,-2.928285,0.535978,1.767074,-0.221696,0.000000,0.000000,0.000000,0.000000,0.000000,0.000000
11797087.000000,-2.319476,-1.662657,1.211951,-1.437658,1.716199,1.252151,-0.576813,0.307711,0.008289,0.728116,-0.281788,-0.203919,0.684409,-0.068224,0.748639,38.983807,-23.040054,-2.880678,0.559781,1.832076,-0.175919,0.000000,0.000000,0.000000,0.000000,0.000000,0.000000
11797088.000000,-2.319174,-1.662648,1.212701,-1.437939,1.716003,1.252846,-0.576884,0.305929,0.008313,0.739327,-0.281024,-0.203129,0.682237,-0.070943,0.748639,38.864788,-23.111465,-2.856874,0.512174,1.858627,-0.149369,0.000000,0.000000,0.000000,0.000000,0.000000,0.000000
11797089.000000,-2.318871,-1.662641,1.213439,-1.438210,1.715797,1.253540,-0.576944,0.301412,0.007308,0.734740,-0.276146,-0.203586,0.686424,-0.069236,0.748639,38.789410,-23.163040,-2.904482,0.494779,1.851302,-0.221696,0.000000,0.000000,0.000000,0.000000,0.000000,0.000000
11797090.000000,-2.318577,-1.662631,1.214179,-1.438476,1.715587,1.254224,-0.577019,0.301126,0.007751,0.728196,-0.266698,-0.203430,0.689262,-0.072148,0.796247,38.666424,-23.087662,-3.027467,0.470060,1.851302,-0.175919,0.000000,0.000000,0.000000,0.000000,0.000000,0.000000
11797091.000000,-2.318279,-1.662624,1.214906,-1.438749,1.715384,1.254916,-0.577084,0.299644,0.006839,0.732738,-0.269562,-0.203948,0.689603,-0.067019,0.847822,38.595013,-22.988480,-3.027467,0.446256,1.851302,-0.208878,0.000000,0.000000,0.000000,0.000000,0.000000,0.000000
11797092.000000,-2.317983,-1.662617,1.215638,-1.439018,1.715175,1.255597,-0.577154,0.301517,0.005767,0.723737,-0.266731,-0.205682,0.686956,-0.068824,0.847822,38.543438,-22.817886,-3.102846,0.470060,1.851302,-0.215287,0.000000,0.000000,0.000000,0.000000,0.000000,0.000000
11797093.000000,-2.317678,-1.662606,1.216374,-1.439295,1.714968,1.256286,-0.577229,0.303354,0.006630,0.731855,-0.266509,-0.203108,0.683005,-0.072825,0.772443,38.424419,-22.671097,-2.979860,0.512174,1.897079,-0.155778,0.000000,0.000000,0.000000,0.000000,0.000000,0.000000
11797094.000000,-2.317381,-1.662597,1.217100,-1.439560,1.714767,1.256984,-0.577291,0.299795,0.005627,0.727269,-0.266545,-0.200299,0.678889,-0.065622,0.748639,38.372845,-22.524307,-2.956056,0.535978,1.838485,-0.235429,0.000000,0.000000,0.000000,0.000000,0.000000,0.000000
11797095.000000,-2.317096,-1.662588,1.217840,-1.439831,1.714559,1.257683,-0.577368,0.295189,0.007659,0.726408,-0.264208,-0.202061,0.683163,-0.071230,0.824018,38.325237,-22.472733,-2.880678,0.547880,1.727706,-0.155778,0.000000,0.000000,0.000000,0.000000,0.000000,0.000000
11797096.000000,-2.316804,-1.662578,1.218578,-1.440088,1.714358,1.258390,-0.577429,0.295058,0.008682,0.736143,-0.265066,-0.196758,0.684843,-0.065449,0.871625,38.301434,-22.401321,-2.904482,0.500272,1.597701,-0.208878,0.000000,0.000000,0.000000,0.000000,0.000000,0.000000
11797097.000000,-2.316511,-1.662570,1.219308,-1.440351,1.714157,1.259089,-0.577502,0.292233,0.008429,0.728307,-0.265569,-0.198951,0.704736,-0.064952,0.947004,38.325237,-22.425125,-2.928285,0.476469,1.526290,-0.163102,0.000000,0.000000,0.000000,0.000000,0.000000,0.000000
11797098.000000,-2.316217,-1.662566,1.220049,-1.440613,1.713959,1.259776,-0.577564,0.291692,0.007271,0.724424,-0.264193,-0.201012,0.703291,-0.065768,0.947004,38.396648,-22.500504,-2.979860,0.470060,1.617843,-0.208878,0.000000,0.000000,0.000000,0.000000,0.000000,0.000000
11797099.000000,-2.315927,-1.662560,1.220781,-1.440868,1.713761,1.260468,-0.577636,0.289555,0.007049,0.723959,-0.260890,-0.203137,0.696419,-0.064391,0.994611,38.448223,-22.548111,-3.003664,0.476469,1.735030,-0.188737,0.000000,0.000000,0.000000,0.000000,0.000000,0.000000
11797100.000000,-2.315636,-1.662561,1.221519,-1.441123,1.713564,1.261160,-0.577712,0.290671,0.002530,0.720240,-0.262722,-0.196060,0.696855,-0.068609,0.947004,38.571209,-22.623489,-3.079042,0.512174,1.741439,-0.149369,0.000000,0.000000,0.000000,0.000000,0.000000,0.000000
11797101.000000,-2.315348,-1.662554,1.222270,-1.441380,1.713373,1.261850,-0.577773,0.289452,0.005110,0.734274,-0.261738,-0.197209,0.694871,-0.067622,0.970807,38.571209,-22.865494,-3.079042,0.500272,1.773483,-0.221696,0.000000,0.000000,0.000000,0.000000,0.000000,0.000000
11797102.000000,-2.315052,-1.662553,1.222999,-1.441633,1.713167,1.262558,-0.577848,0.290438,0.002375,0.727490,-0.257692,-0.195615,0.690996,-0.066544,0.923200,38.642620,-23.016251,-3.154421,0.512174,1.767074,-0.175919,0.000000,0.000000,0.000000,0.000000,0.000000,0.000000
11797103.000000,-2.314761,-1.662550,1.223737,-1.441887,1.712969,1.263247,-0.577914,0.290325,0.000949,0.723276,-0.257926,-0.194216,0.692013,-0.068123,0.923200,38.690228,-23.111465,-3.225832,0.524076,1.779891,-0.196061,0.000000,0.000000,0.000000,0.000000,0.000000,0.000000
11797104.000000,-2.314459,-1.662552,1.224462,-1.442140,1.712773,1.263957,-0.577980,0.292312,0.001000,0.733453,-0.255622,-0.198550,0.691792,-0.069322,0.796247,38.813213,-23.087662,-3.277406,0.547880,1.773483,-0.215287,0.000000,0.000000,0.000000,0.000000,0.000000,0.000000
11797105.000000,-2.314170,-1.662556,1.225199,-1.442398,1.712581,1.264648,-0.578054,0.292017,0.001098,0.730942,-0.255659,-0.195990,0.691392,-0.063686,0.748639,38.936199,-23.111465,-3.277406,0.547880,1.819259,-0.155778,0.000000,0.000000,0.000000,0.000000,0.000000,0.000000
11797106.000000,-2.313882,-1.662560,1.225937,-1.442644,1.712397,1.265353,-0.578113,0.291724,-0.000972,0.739713,-0.252033,-0.193920,0.687937,-0.063819,0.724836,39.035381,-23.063858,-3.400392,0.535978,1.825668,-0.229020,0.000000,0.000000,0.000000,0.000000,0.000000,0.000000
11797107.000000,-2.313593,-1.662560,1.226668,-1.442893,1.712210,1.266060,-0.578190,0.291102,-0.001300,0.738476,-0.251574,-0.191803,0.690765,-0.069067,0.796247,39.082989,-23.163040,-3.448000,0.512174,1.800033,-0.169511,0.000000,0.000000,0.000000,0.000000,0.000000,0.000000
11797108.000000,-2.313304,-1.662569,1.227396,-1.443135,1.712023,1.266754,-0.578258,0.288070,-0.003397,0.734075,-0.247778,-0.188444,0.685401,-0.070659,0.772443,39.205975,-23.016251,-3.598757,0.446256,1.727706,-0.169511,0.000000,0.000000,0.000000,0.000000,0.000000,0.000000
11797109.000000,-2.313016,-1.662568,1.228132,-1.443372,1.711832,1.267451,-0.578321,0.286929,-0.001448,0.739285,-0.243804,-0.184711,0.682136,-0.065366,0.796247,39.182171,-22.988480,-3.697939,0.458158,1.735030,-0.208878,0.000000,0.000000,0.000000,0.000000,0.000000,0.000000
11797110.000000,-2.312727,-1.662572,1.228851,-1.443610,1.711647,1.268133,-0.578395,0.285330,-0.001327,0.731398,-0.242993,-0.186022,0.695158,-0.064474,0.796247,39.205975,-22.841690,-3.844728,0.464567,1.754256,-0.175919,0.000000,0.000000,0.000000,0.000000,0.000000,0.000000
11797111.000000,-2.312440,-1.662574,1.229587,-1.443847,1.711465,1.268824,-0.578459,0.284208,-0.001296,0.737437,-0.240803,-0.186190,0.695117,-0.062220,0.748639,39.229778,-22.817886,-3.920107,0.452665,1.754256,-0.182328,0.000000,0.000000,0.000000,0.000000,0.000000,0.000000
11797112.000000,-2.312153,-1.662578,1.230297,-1.444074,1.711290,1.269525,-0.578533,0.282833,-0.001961,0.734184,-0.236198,-0.180807,0.693045,-0.062082,0.697065,39.281353,-22.548111,-3.991518,0.416959,1.689254,-0.149369,0.000000,0.000000,0.000000,0.000000,0.000000,0.000000
11797113.000000,-2.311868,-1.662582,1.231033,-1.444304,1.711109,1.270219,-0.578595,0.282835,-0.002339,0.729303,-0.235212,-0.178913,0.697009,-0.059872,0.625654,39.328960,-22.548111,-4.066896,0.446256,1.605026,-0.169511,0.000000,0.000000,0.000000,0.000000,0.000000,0.000000
11797114.000000,-2.311575,-1.662580,1.231752,-1.444530,1.710932,1.270911,-0.578661,0.282752,-0.000941,0.730078,-0.236938,-0.180128,0.694842,-0.058872,0.574079,39.305157,-22.472733,-4.142274,0.410551,1.605026,-0.175919,0.000000,0.000000,0.000000,0.000000,0.000000,0.000000
11797115.000000,-2.311276,-1.662578,1.232482,-1.444755,1.710751,1.271601,-0.578721,0.287339,-0.000024,0.723101,-0.231932,-0.180983,0.688076,-0.061970,0.427289,39.281353,-22.448929,-4.189882,0.374845,1.695663,-0.202470,0.000000,0.000000,0.000000,0.000000,0.000000,0.000000
11797116.000000,-2.310990,-1.662580,1.233205,-1.444979,1.710563,1.272283,-0.578787,0.286029,-0.000538,0.716704,-0.227064,-0.180050,0.688321,-0.065192,0.328107,39.305157,-22.353714,-4.213686,0.422452,1.741439,-0.208878,0.000000,0.000000,0.000000,0.000000,0.000000,0.000000
11797117.000000,-2.310693,-1.662580,1.233925,-1.445196,1.710384,1.272974,-0.578856,0.286655,0.000224,0.715666,-0.224427,-0.178240,0.676402,-0.068893,0.153547,39.281353,-22.325943,-4.340639,0.446256,1.727706,-0.182328,0.000000,0.000000,0.000000,0.000000,0.000000,0.000000
11797118.000000,-2.310402,-1.662579,1.234663,-1.445416,1.710200,1.273665,-0.578920,0.287047,0.000818,0.715063,-0.219555,-0.176870,0.678535,-0.069364,0.006757,39.253582,-22.448929,-4.439821,0.476469,1.689254,-0.215287,0.000000,0.000000,0.000000,0.000000,0.000000,0.000000
11797119.000000,-2.310110,-1.662572,1.235403,-1.445635,1.710037,1.274364,-0.578993,0.289061,0.002231,0.729680,-0.221816,-0.175110,0.684379,-0.068456,-0.092425,39.182171,-22.548111,-4.487428,0.374845,1.630660,-0.155778,0.000000,0.000000,0.000000,0.000000,0.000000,0.000000
11797120.000000,-2.309804,-1.662573,1.236136,-1.445847,1.709859,1.275065,-0.579056,0.291075,0.000941,0.729562,-0.218580,-0.179062,0.687757,-0.069404,-0.342364,39.205975,-22.742508,-4.562807,0.381254,1.624252,-0.169511,0.000000,0.000000,0.000000,0.000000,0.000000,0.000000
11797121.000000,-2.309511,-1.662571,1.236869,-1.446061,1.709676,1.275745,-0.579115,0.288827,0.001193,0.728798,-0.220957,-0.182530,0.688359,-0.068763,-0.441546,39.182171,-22.794083,-4.733400,0.405057,1.662704,-0.229020,0.000000,0.000000,0.000000,0.000000,0.000000,0.000000
11797122.000000,-2.309217,-1.662573,1.237603,-1.446273,1.709500,1.276425,-0.579188,0.290080,0.000244,0.733178,-0.218045,-0.182356,0.678794,-0.068564,-0.564532,39.205975,-23.016251,-4.808778,0.356534,1.800033,-0.149369,0.000000,0.000000,0.000000,0.000000,0.000000,0.000000
11797123.000000,-2.308923,-1.662575,1.238343,-1.446482,1.709325,1.277098,-0.579248,0.290584,0.000168,0.732726,-0.215392,-0.177907,0.679704,-0.063396,-0.762896,39.205975,-23.163040,-4.931764,0.320829,1.909896,-0.202470,0.000000,0.000000,0.000000,0.000000,0.000000,0.000000
11797124.000000,-2.308632,-1.662574,1.239074,-1.446687,1.709151,1.277785,-0.579311,0.290189,0.000672,0.732738,-0.211768,-0.180571,0.671319,-0.061755,-0.810504,39.182171,-23.286026,-5.106325,0.315336,1.890670,-0.202470,0.000000,0.000000,0.000000,0.000000,0.000000,0.000000
11797125.000000,-2.308337,-1.662579,1.239804,-1.446893,1.708975,1.278485,-0.579375,0.290782,-0.001220,0.724700,-0.209836,-0.179047,0.677988,-0.060696,-0.885882,39.253582,-23.309830,-5.276918,0.344633,1.767074,-0.196061,0.000000,0.000000,0.000000,0.000000,0.000000,0.000000
11797126.000000,-2.308039,-1.662573,1.240538,-1.447101,1.708803,1.279156,-0.579436,0.294191,-0.001485,0.723442,-0.205733,-0.176256,0.673272,-0.059240,-1.084246,39.158367,-23.286026,-5.376100,0.339139,1.779891,-0.202470,0.000000,0.000000,0.000000,0.000000,0.000000,0.000000
11797127.000000,-2.307740,-1.662580,1.241256,-1.447311,1.708632,1.279835,-0.579495,0.292360,-0.002901,0.722536,-0.206099,-0.175235,0.671196,-0.058439,-1.231036,39.229778,-23.234451,-5.352296,0.351041,1.825668,-0.208878,0.000000,0.000000,0.000000,0.000000,0.000000,0.000000
11797128.000000,-2.307448,-1.662582,1.241985,-1.447520,1.708454,1.280495,-0.579557,0.298837,-0.003320,0.717083,-0.209463,-0.178810,0.681270,-0.058154,-1.381793,39.281353,-23.135269,-5.304689,0.351041,1.884261,-0.202470,0.000000,0.000000,0.000000,0.000000,0.000000,0.000000
11797129.000000,-2.307160,-1.662585,1.242695,-1.447729,1.708274,1.281184,-0.579622,0.293996,-0.003462,0.715570,-0.207602,-0.182585,0.682120,-0.059003,-1.453204,39.328960,-22.964676,-5.304689,0.374845,1.851302,-0.169511,0.000000,0.000000,0.000000,0.000000,0.000000,0.000000
11797130.000000,-2.306867,-1.662589,1.243423,-1.447924,1.708106,1.281872,-0.579676,0.294063,-0.002966,0.715899,-0.203989,-0.177077,0.686101,-0.056597,-1.552386,39.352764,-22.865494,-5.399904,0.315336,1.825668,-0.215287,0.000000,0.000000,0.000000,0.000000,0.000000,0.000000
11797131.000000,-2.306583,-1.662588,1.244163,-1.448124,1.707938,1.282555,-0.579741,0.291608,-0.001497,0.719355,-0.199083,-0.173283,0.685711,-0.058886,-1.528582,39.328960,-22.940872,-5.451478,0.267728,1.786300,-0.155778,0.000000,0.000000,0.000000,0.000000,0.000000,0.000000
11797132.000000,-2.306297,-1.662590,1.244891,-1.448322,1.707774,1.283237,-0.579796,0.290666,-0.004504,0.728057,-0.201512,-0.167226,0.682148,-0.057250,-1.552386,39.352764,-23.016251,-5.475282,0.249418,1.800033,-0.182328,0.000000,0.000000,0.000000,0.000000,0.000000,0.000000
11797133.000000,-2.306006,-1.662597,1.245614,-1.448527,1.707602,1.283922,-0.579849,0.289042,-0.005050,0.719672,-0.202422,-0.169581,0.680200,-0.055534,-1.580157,39.428143,-22.940872,-5.451478,0.291532,1.832076,-0.221696,0.000000,0.000000,0.000000,0.000000,0.000000,0.000000
11797134.000000,-2.305727,-1.662610,1.246342,-1.448729,1.707427,1.284601,-0.579911,0.285449,-0.009905,0.725193,-0.202264,-0.171995,0.678222,-0.058316,-1.580157,39.574932,-23.111465,-5.451478,0.356534,1.865035,-0.149369,0.000000,0.000000,0.000000,0.000000,0.000000,0.000000
11797135.000000,-2.305450,-1.662615,1.247077,-1.448930,1.707266,1.285279,-0.579960,0.284484,-0.008118,0.728043,-0.200333,-0.170293,0.670263,-0.055043,-1.528582,39.622540,-23.234451,-5.399904,0.327238,1.930038,-0.221696,0.000000,0.000000,0.000000,0.000000,0.000000,0.000000
11797136.000000,-2.305176,-1.662624,1.247826,-1.449128,1.707093,1.285963,-0.580022,0.278384,-0.010934,0.725136,-0.202989,-0.174590,0.679210,-0.056290,-1.480975,39.721722,-23.528030,-5.427675,0.327238,1.884261,-0.202470,0.000000,0.000000,0.000000,0.000000,0.000000,0.000000
11797137.000000,-2.304891,-1.662637,1.248562,-1.449328,1.706923,1.286658,-0.580082,0.278867,-0.011190,0.729738,-0.199147,-0.173628,0.681747,-0.057884,-1.528582,39.868511,-23.726395,-5.475282,0.332731,1.800033,-0.163102,0.000000,0.000000,0.000000,0.000000,0.000000,0.000000
11797138.000000,-2.304611,-1.662649,1.249305,-1.449525,1.706753,1.287347,-0.580137,0.277510,-0.013464,0.730279,-0.196671,-0.173052,0.679750,-0.055335,-1.504779,39.987530,-23.972366,-5.475282,0.344633,1.806442,-0.208878,0.000000,0.000000,0.000000,0.000000,0.000000,0.000000
11797139.000000,-2.304337,-1.662664,1.250050,-1.449729,1.706587,1.288002,-0.580203,0.274391,-0.016456,0.733965,-0.195726,-0.172411,0.678879,-0.057418,-1.528582,40.162090,-24.119156,-5.427675,0.356534,1.942855,-0.163102,0.000000,0.000000,0.000000,0.000000,0.000000,0.000000
11797140.000000,-2.304063,-1.662680,1.250780,-1.449929,1.706423,1.288673,-0.580258,0.270907,-0.017928,0.737171,-0.198408,-0.170941,0.669614,-0.050979,-1.528582,40.308880,-24.265945,-5.376100,0.332731,2.033492,-0.202470,0.000000,0.000000,0.000000,0.000000,0.000000,0.000000
11797141.000000,-2.303800,-1.662696,1.251513,-1.450131,1.706254,1.289345,-0.580316,0.270332,-0.018882,0.733199,-0.198224,-0.167321,0.672486,-0.052306,-1.453204,40.455669,-24.313553,-5.427675,0.369352,2.020675,-0.196061,0.000000,0.000000,0.000000,0.000000,0.000000,0.000000
11797142.000000,-2.303530,-1.662711,1.252234,-1.450336,1.706090,1.290022,-0.580375,0.267787,-0.018360,0.730560,-0.199626,-0.167306,0.665499,-0.052692,-1.405596,40.550884,-24.289749,-5.399904,0.351041,1.995040,-0.215287,0.000000,0.000000,0.000000,0.000000,0.000000,0.000000
11797143.000000,-2.303258,-1.662726,1.252968,-1.450536,1.705924,1.290704,-0.580437,0.270346,-0.017020,0.727151,-0.196972,-0.166586,0.669855,-0.055940,-1.354022,40.602459,-24.365128,-5.399904,0.308927,1.968490,-0.155778,0.000000,0.000000,0.000000,0.000000,0.000000,0.000000
11797144.000000,-2.302994,-1.662738,1.253700,-1.450739,1.705746,1.291371,-0.580494,0.268121,-0.015637,0.727471,-0.198159,-0.168321,0.668087,-0.054785,-1.306414,40.626263,-24.289749,-5.376100,0.332731,1.942855,-0.188737,0.000000,0.000000,0.000000,0.000000,0.000000,0.000000
11797145.000000,-2.302737,-1.662756,1.254417,-1.450944,1.705573,1.292057,-0.580546,0.259782,-0.017067,0.723642,-0.202204,-0.170641,0.666175,-0.053914,-1.131854,40.749249,-24.166763,-5.376100,0.386747,1.903487,-0.215287,0.000000,0.000000,0.000000,0.000000,0.000000,0.000000
11797146.000000,-2.302473,-1.662760,1.255147,-1.451152,1.705401,1.292729,-0.580610,0.264642,-0.011063,0.720243,-0.203038,-0.170735,0.679424,-0.052341,-1.084246,40.697674,-24.019974,-5.328493,0.398649,1.897079,-0.149369,0.000000,0.000000,0.000000,0.000000,0.000000,0.000000
11797147.000000,-2.302219,-1.662771,1.255877,-1.451357,1.705232,1.293396,-0.580661,0.259169,-0.010834,0.708894,-0.202631,-0.170619,0.677020,-0.051365,-0.985064,40.697674,-24.043777,-5.328493,0.405057,1.936446,-0.202470,0.000000,0.000000,0.000000,0.000000,0.000000,0.000000
11797148.000000,-2.301960,-1.662780,1.256598,-1.451562,1.705068,1.294080,-0.580717,0.258193,-0.010272,0.711728,-0.203912,-0.169748,0.683871,-0.052342,-0.885882,40.673870,-23.849380,-5.253114,0.393156,1.877853,-0.215287,0.000000,0.000000,0.000000,0.000000,0.000000,0.000000
11797149.000000,-2.301701,-1.662788,1.257326,-1.451768,1.704906,1.294766,-0.580779,0.258178,-0.009356,0.706529,-0.202394,-0.164330,0.686728,-0.054913,-0.810504,40.626263,-23.750198,-5.276918,0.381254,1.760665,-0.175919,0.000000,0.000000,0.000000,0.000000,0.000000,0.000000
11797150.000000,-2.301442,-1.662795,1.258043,-1.451977,1.704741,1.295453,-0.580831,0.259974,-0.005952,0.712963,-0.207592,-0.168694,0.688719,-0.054577,-0.762896,40.578655,-23.678787,-5.130128,0.362943,1.741439,-0.196061,0.000000,0.000000,0.000000,0.000000,0.000000,0.000000
11797151.000000,-2.301184,-1.662800,1.258770,-1.452192,1.704579,1.296134,-0.580891,0.260289,-0.005717,0.715074,-0.210410,-0.167531,0.683924,-0.056027,-0.711321,40.503277,-23.651016,-4.955568,0.320829,1.806442,-0.169511,0.000000,0.000000,0.000000,0.000000,0.000000,0.000000
11797152.000000,-2.300924,-1.662804,1.259482,-1.452408,1.704411,1.296812,-0.580940,0.262302,-0.005651,0.714948,-0.211762,-0.170382,0.685296,-0.054421,-0.735125,40.427898,-23.627213,-4.757204,0.381254,1.851302,-0.208878,0.000000,0.000000,0.000000,0.000000,0.000000,0.000000
11797153.000000,-2.300668,-1.662813,1.260203,-1.452620,1.704244,1.297507,-0.580999,0.259498,-0.006316,0.712951,-0.211247,-0.172747,0.680091,-0.055722,-0.762896,40.380291,-23.555801,-4.634218,0.446256,1.786300,-0.188737,0.000000,0.000000,0.000000,0.000000,0.000000,0.000000
11797154.000000,-2.300411,-1.662814,1.260940,-1.452835,1.704087,1.298196,-0.581059,0.257833,-0.002710,0.710910,-0.211434,-0.166445,0.681751,-0.052160,-0.786700,40.281109,-23.726395,-4.487428,0.434354,1.735030,-0.163102,0.000000,0.000000,0.000000,0.000000,0.000000,0.000000
11797155.000000,-2.300153,-1.662821,1.261659,-1.453045,1.703931,1.298883,-0.581106,0.256410,-0.004872,0.712234,-0.213309,-0.162812,0.680661,-0.050730,-0.786700,40.257305,-23.750198,-4.412050,0.440763,1.741439,-0.229020,0.000000,0.000000,0.000000,0.000000,0.000000,0.000000
11797156.000000,-2.299899,-1.662825,1.262389,-1.453258,1.703778,1.299574,-0.581163,0.254474,-0.005621,0.714443,-0.215796,-0.159709,0.678688,-0.053806,-0.762896,40.209698,-23.825577,-4.289064,0.434354,1.760665,-0.188737,0.000000,0.000000,0.000000,0.000000,0.000000,0.000000
11797157.000000,-2.299643,-1.662830,1.263119,-1.453476,1.703614,1.300246,-0.581219,0.253623,-0.006854,0.718575,-0.216773,-0.162176,0.676677,-0.054234,-0.762896,40.185894,-23.920792,-4.189882,0.440763,1.812850,-0.196061,0.000000,0.000000,0.000000,0.000000,0.000000,0.000000
11797158.000000,-2.299396,-1.662835,1.263836,-1.453691,1.703451,1.300928,-0.581277,0.250111,-0.004828,0.721751,-0.217698,-0.164220,0.671726,-0.056196,-0.663714,40.162090,-23.996170,-4.090700,0.440763,1.916305,-0.155778,0.000000,0.000000,0.000000,0.000000,0.000000,0.000000
11797159.000000,-2.299146,-1.662838,1.264570,-1.453909,1.703290,1.301597,-0.581330,0.247890,-0.004862,0.721371,-0.215862,-0.165113,0.675810,-0.055145,-0.687518,40.086712,-24.242142,-3.991518,0.428861,1.995040,-0.182328,0.000000,0.000000,0.000000,0.000000,0.000000,0.000000
11797160.000000,-2.298893,-1.662842,1.265283,-1.454120,1.703128,1.302287,-0.581381,0.249449,-0.002263,0.722817,-0.212851,-0.161025,0.674424,-0.054579,-0.711321,40.015301,-24.265945,-3.943910,0.410551,1.936446,-0.208878,0.000000,0.000000,0.000000,0.000000,0.000000,0.000000
11797161.000000,-2.298642,-1.662841,1.266002,-1.454338,1.702960,1.302984,-0.581441,0.245134,-0.002030,0.714133,-0.217729,-0.166173,0.676829,-0.056502,-0.635943,39.892315,-24.265945,-3.868532,0.488370,1.884261,-0.175919,0.000000,0.000000,0.000000,0.000000,0.000000,0.000000
11797162.000000,-2.298393,-1.662838,1.266733,-1.454559,1.702803,1.303658,-0.581496,0.244324,-0.001449,0.716631,-0.217373,-0.161285,0.676682,-0.055601,-0.635943,39.745525,-24.289749,-3.797121,0.470060,1.916305,-0.196061,0.000000,0.000000,0.000000,0.000000,0.000000,0.000000
11797163.000000,-2.298136,-1.662832,1.267438,-1.454767,1.702647,1.304346,-0.581549,0.247818,0.001754,0.716262,-0.213690,-0.163634,0.673409,-0.056401,-0.711321,39.598736,-24.190567,-3.797121,0.476469,1.981307,-0.182328,0.000000,0.000000,0.000000,0.000000,0.000000,0.000000
11797164.000000,-2.297882,-1.662832,1.268157,-1.454987,1.702489,1.305022,-0.581603,0.245995,0.001841,0.709692,-0.217856,-0.160967,0.679963,-0.056123,-0.735125,39.547161,-24.095352,-3.745546,0.488370,1.988631,-0.188737,0.000000,0.000000,0.000000,0.000000,0.000000,0.000000
11797165.000000,-2.297634,-1.662829,1.268857,-1.455217,1.702332,1.305710,-0.581658,0.247901,0.001939,0.706931,-0.219245,-0.157087,0.685456,-0.051761,-0.762896,39.499554,-23.920792,-3.622560,0.452665,1.962081,-0.182328,0.000000,0.000000,0.000000,0.000000,0.000000,0.000000
11797166.000000,-2.297388,-1.662821,1.269565,-1.455433,1.702177,1.306395,-0.581708,0.248328,0.003869,0.707705,-0.218135,-0.154019,0.682597,-0.047530,-0.762896,39.376568,-23.726395,-3.598757,0.410551,1.968490,-0.202470,0.000000,0.000000,0.000000,0.000000,0.000000,0.000000
11797167.000000,-2.297146,-1.662816,1.270292,-1.455656,1.702017,1.307073,-0.581760,0.248060,0.003467,0.709351,-0.219305,-0.157431,0.678860,-0.044692,-0.711321,39.328960,-23.750198,-3.475771,0.398649,1.923629,-0.215287,0.000000,0.000000,0.000000,0.000000,0.000000,0.000000
11797168.000000,-2.296899,-1.662806,1.270996,-1.455880,1.701865,1.307756,-0.581813,0.245070,0.004462,0.709291,-0.221794,-0.159550,0.680407,-0.048985,-0.687518,39.229778,-23.678787,-3.424196,0.386747,1.844894,-0.182328,0.000000,0.000000,0.000000,0.000000,0.000000,0.000000
11797169.000000,-2.296657,-1.662804,1.271707,-1.456101,1.701707,1.308443,-0.581866,0.241840,0.003405,0.708791,-0.219251,-0.160091,0.677321,-0.050035,-0.612139,39.205975,-23.579605,-3.325014,0.458158,1.773483,-0.202470,0.000000,0.000000,0.000000,0.000000,0.000000,0.000000
11797170.000000,-2.296418,-1.662798,1.272430,-1.456320,1.701552,1.309111,-0.581919,0.239607,0.003938,0.710976,-0.215202,-0.155013,0.674458,-0.052422,-0.540728,39.130596,-23.702591,-3.277406,0.512174,1.851302,-0.175919,0.000000,0.000000,0.000000,0.000000,0.000000,0.000000
11797171.000000,-2.296178,-1.662795,1.273146,-1.456527,1.701408,1.309786,-0.581967,0.237493,0.003667,0.714418,-0.214049,-0.157141,0.663233,-0.052226,-0.465350,39.082989,-23.801773,-3.301210,0.476469,1.897079,-0.208878,0.000000,0.000000,0.000000,0.000000,0.000000,0.000000
11797172.000000,-2.295946,-1.662796,1.273869,-1.456742,1.701259,1.310454,-0.582020,0.233362,0.001835,0.709380,-0.213218,-0.156283,0.660731,-0.053306,-0.389971,39.106792,-23.972366,-3.325014,0.500272,1.942855,-0.208878,0.000000,0.000000,0.000000,0.000000,0.000000,0.000000
11797173.000000,-2.295716,-1.662794,1.274572,-1.456959,1.701111,1.311133,-0.582071,0.232531,0.001183,0.707295,-0.214019,-0.154341,0.660707,-0.054990,-0.290789,39.106792,-23.996170,-3.301210,0.482877,1.942855,-0.188737,0.000000,0.000000,0.000000,0.000000,0.000000,0.000000
11797174.000000,-2.295479,-1.662802,1.275291,-1.457168,1.700967,1.311814,-0.582120,0.233046,-0.002118,0.709406,-0.214544,-0.151660,0.663490,-0.054203,-0.243182,39.229778,-24.166763,-3.277406,0.434354,1.988631,-0.215287,0.000000,0.000000,0.000000,0.000000,0.000000,0.000000
11797175.000000,-2.295248,-1.662805,1.276011,-1.457378,1.700815,1.312475,-0.582171,0.232454,-0.002641,0.711846,-0.212149,-0.147829,0.666685,-0.055583,-0.144000,39.281353,-24.289749,-3.225832,0.464567,2.014266,-0.196061,0.000000,0.000000,0.000000,0.000000,0.000000,0.000000
11797176.000000,-2.295011,-1.662807,1.276721,-1.457585,1.700670,1.313155,-0.582221,0.231088,-0.002335,0.714087,-0.209306,-0.143541,0.665614,-0.050367,-0.167803,39.305157,-24.388931,-3.225832,0.452665,1.968490,-0.215287,0.000000,0.000000,0.000000,0.000000,0.000000,0.000000
11797177.000000,-2.294780,-1.662819,1.277431,-1.457797,1.700519,1.313834,-0.582273,0.238193,-0.005003,0.703306,-0.209775,-0.147870,0.687086,-0.048268,-0.167803,39.451946,-24.365128,-3.154421,0.518583,1.877853,-0.182328,0.000000,0.000000,0.000000,0.000000,0.000000,0.000000
11797178.000000,-2.294554,-1.662825,1.278138,-1.457997,1.700370,1.314507,-0.582317,0.233015,-0.005015,0.707419,-0.206512,-0.150044,0.674447,-0.045055,-0.068621,39.523357,-24.313553,-3.202028,0.559781,1.884261,-0.196061,0.000000,0.000000,0.000000,0.000000,0.000000,0.000000
11797179.000000,-2.294331,-1.662832,1.278848,-1.458195,1.700231,1.315177,-0.582362,0.229865,-0.005671,0.704952,-0.205362,-0.144586,0.673145,-0.042512,0.054365,39.622540,-24.265945,-3.202028,0.542386,1.930038,-0.215287,0.000000,0.000000,0.000000,0.000000,0.000000,0.000000
11797180.000000,-2.294112,-1.662839,1.279557,-1.458393,1.700097,1.315844,-0.582414,0.229799,-0.006106,0.703372,-0.201149,-0.139471,0.670530,-0.042880,0.153547,39.721722,-24.142960,-3.325014,0.494779,1.923629,-0.175919,0.000000,0.000000,0.000000,0.000000,0.000000,0.000000
11797181.000000,-2.293892,-1.662843,1.280256,-1.458583,1.699964,1.316532,-0.582461,0.225569,-0.005188,0.702435,-0.193372,-0.136874,0.666980,-0.044165,0.304304,39.769329,-24.071548,-3.475771,0.470060,1.897079,-0.215287,0.000000,0.000000,0.000000,0.000000,0.000000,0.000000
11797182.000000,-2.293669,-1.662848,1.280952,-1.458782,1.699825,1.317214,-0.582511,0.221815,-0.004575,0.697231,-0.192709,-0.138537,0.677877,-0.043083,0.403486,39.816936,-23.825577,-3.475771,0.416959,1.838485,-0.202470,0.000000,0.000000,0.000000,0.000000,0.000000,0.000000
11797183.000000,-2.293448,-1.662847,1.281657,-1.458975,1.699680,1.317889,-0.582559,0.219081,-0.003053,0.701817,-0.191397,-0.137743,0.673281,-0.046524,0.451093,39.816936,-23.825577,-3.499574,0.428861,1.825668,-0.202470,0.000000,0.000000,0.000000,0.000000,0.000000,0.000000
11797184.000000,-2.293229,-1.662841,1.282357,-1.459169,1.699542,1.318575,-0.582607,0.218534,-0.000366,0.699038,-0.194621,-0.136622,0.679958,-0.044134,0.550275,39.745525,-23.678787,-3.475771,0.434354,1.779891,-0.208878,0.000000,0.000000,0.000000,0.000000,0.000000,0.000000
11797185.000000,-2.293005,-1.662837,1.283055,-1.459362,1.699405,1.319262,-0.582659,0.218444,0.000961,0.687951,-0.193179,-0.136937,0.677837,-0.048757,0.526471,39.693951,-23.432816,-3.499574,0.476469,1.695663,-0.169511,0.000000,0.000000,0.000000,0.000000,0.000000,0.000000
11797186.000000,-2.292780,-1.662832,1.283749,-1.459550,1.699265,1.319948,-0.582701,0.218922,0.002310,0.687764,-0.191954,-0.141802,0.682538,-0.043962,0.502668,39.622540,-23.357437,-3.523378,0.535978,1.662704,-0.221696,0.000000,0.000000,0.000000,0.000000,0.000000,0.000000
11797187.000000,-2.292561,-1.662825,1.284452,-1.459734,1.699140,1.320639,-0.582752,0.218170,0.003859,0.690157,-0.189461,-0.136147,0.681271,-0.043382,0.502668,39.523357,-23.286026,-3.598757,0.458158,1.662704,-0.196061,0.000000,0.000000,0.000000,0.000000,0.000000,0.000000
11797188.000000,-2.292341,-1.662817,1.285157,-1.459920,1.699008,1.321327,-0.582800,0.220364,0.005449,0.690534,-0.187126,-0.134344,0.686867,-0.043224,0.502668,39.400372,-23.258255,-3.697939,0.434354,1.605026,-0.163102,0.000000,0.000000,0.000000,0.000000,0.000000,0.000000
11797189.000000,-2.292114,-1.662815,1.285848,-1.460110,1.698878,1.322014,-0.582846,0.221821,0.004189,0.698527,-0.188621,-0.133835,0.677945,-0.046043,0.474897,39.376568,-23.186844,-3.670168,0.428861,1.605026,-0.175919,0.000000,0.000000,0.000000,0.000000,0.000000,0.000000
11797190.000000,-2.291894,-1.662805,1.286551,-1.460298,1.698752,1.322685,-0.582892,0.220786,0.006226,0.693630,-0.186304,-0.126934,0.677829,-0.043462,0.427289,39.229778,-23.163040,-3.646364,0.386747,1.741439,-0.188737,0.000000,0.000000,0.000000,0.000000,0.000000,0.000000
11797191.000000,-2.291665,-1.662794,1.287248,-1.460482,1.698618,1.323363,-0.582933,0.221532,0.007027,0.698454,-0.183804,-0.127876,0.677931,-0.045009,0.304304,39.106792,-23.258255,-3.646364,0.374845,1.871444,-0.221696,0.000000,0.000000,0.000000,0.000000,0.000000,0.000000
11797192.000000,-2.291437,-1.662785,1.287954,-1.460656,1.698484,1.324064,-0.582984,0.223339,0.007562,0.697399,-0.181566,-0.129880,0.680246,-0.050502,0.252729,38.983807,-23.286026,-3.670168,0.393156,1.832076,-0.155778,0.000000,0.000000,0.000000,0.000000,0.000000,0.000000
