chaoyuefei/paper-gmrm-data/robot_logs/s2_dq_gmrm_xz_max_0.50_log_20260314_175022.csv
# time_ms,q_0,q_1,q_2,q_3,q_4,q_5,q_6,dq_0,dq_1,dq_2,dq_3,dq_4,dq_5,dq_6,tau_J_0,tau_J_1,tau_J_2,tau_J_3,tau_J_4,tau_J_5,tau_J_6,O_dP_EE_c_0,O_dP_EE_c_1,O_dP_EE_c_2,O_dP_EE_c_3,O_dP_EE_c_4,O_dP_EE_c_5
13287560.000000,-0.258885,0.525340,0.336291,-1.429412,-0.177850,1.925150,0.097039,-0.000322,-0.000269,-0.000725,-0.000493,0.000391,-0.000016,-0.001294,-0.092425,-38.707539,4.647629,19.590025,0.972684,2.293502,-0.136552,0.000000,0.000000,0.000000,0.000000,0.000000,0.000000
13287561.000000,-0.258883,0.525340,0.336292,-1.429414,-0.177852,1.925149,0.097044,0.000342,-0.000180,0.000166,-0.000886,-0.000621,-0.000282,0.000596,-0.116229,-38.707539,4.619858,19.613829,0.996488,2.300826,-0.175919,0.000000,0.000000,0.000000,0.000000,0.000000,0.000000
13287562.000000,-0.258881,0.525342,0.336292,-1.429414,-0.177850,1.925151,0.097045,0.000878,0.000437,0.000111,-0.000590,0.000027,0.000320,-0.000349,-0.144000,-38.731342,4.619858,19.613829,0.984586,2.287093,-0.155778,0.000000,0.000000,0.000000,0.000000,0.000000,0.000000
13287563.000000,-0.258883,0.525342,0.336292,-1.429410,-0.177852,1.925146,0.097044,0.000585,0.000291,0.000074,0.000813,0.000459,-0.000295,-0.000945,-0.144000,-38.731342,4.619858,19.562254,0.972684,2.300826,-0.136552,0.000000,0.000000,0.000000,0.000000,0.000000,0.000000
13287564.000000,-0.258904,0.525344,0.336295,-1.429411,-0.177853,1.925147,0.097047,-0.020785,0.011678,-0.012147,-0.002140,-0.002387,0.000549,0.008738,-0.588336,-38.144184,3.933517,19.268675,0.918668,2.280685,-0.136552,0.000000,0.000000,0.000000,0.000000,0.000000,0.000000
13287565.000000,-0.258937,0.525343,0.336276,-1.429418,-0.177829,1.925148,0.097064,-0.040723,0.021803,-0.030810,-0.011556,0.002709,0.002774,0.016037,-2.643389,-35.966145,1.846725,18.328428,0.535978,2.215682,-0.136552,0.000000,0.000000,0.000000,0.000000,0.000000,0.000000
13287566.000000,-0.258959,0.525364,0.336193,-1.429440,-0.177811,1.925153,0.097088,-0.033401,0.025072,-0.051497,-0.017879,0.013661,0.004257,0.019037,-6.356768,-32.831989,-0.926407,16.622496,0.058073,2.150680,-0.070634,0.000000,0.000000,0.000000,0.000000,0.000000,0.000000
13287567.000000,-0.259013,0.525423,0.336060,-1.429456,-0.177831,1.925149,0.097131,-0.023356,0.026682,-0.065106,-0.014716,0.003116,0.009992,0.028871,-9.697223,-29.404255,-3.501175,14.051695,-0.067355,2.209274,-0.077042,0.000000,0.000000,0.000000,0.000000,0.000000,0.000000
13287568.000000,-0.259096,0.525502,0.335921,-1.429526,-0.177886,1.925151,0.097186,-0.024615,0.034905,-0.074585,-0.026068,-0.016158,0.012172,0.035441,-11.974444,-26.246296,-5.687149,11.778440,0.123990,2.339278,-0.064225,0.000000,0.000000,0.000000,0.000000,0.000000,0.000000
13287569.000000,-0.259182,0.525603,0.335788,-1.429624,-0.177965,1.925214,0.097250,-0.027550,0.045659,-0.072840,-0.044984,-0.033078,0.029496,0.040004,-12.966266,-23.679462,-6.936844,9.751158,0.416959,2.053634,-0.044083,0.000000,0.000000,0.000000,0.000000,0.000000,0.000000
13287570.000000,-0.259242,0.525707,0.335661,-1.429732,-0.178050,1.925360,0.097314,-0.032710,0.055365,-0.077075,-0.060406,-0.052261,0.076501,0.047044,-12.914691,-21.497456,-6.813858,7.747679,0.644010,1.207687,0.009017,0.000000,0.000000,0.000000,0.000000,0.000000,0.000000
13287571.000000,-0.259306,0.525820,0.335613,-1.429844,-0.178154,1.925556,0.097382,-0.042750,0.067552,-0.063120,-0.069025,-0.069523,0.120932,0.052630,-11.776080,-19.811359,-6.595657,5.894957,0.852750,0.174056,0.067611,0.000000,0.000000,0.000000,0.000000,0.000000,0.000000
13287572.000000,-0.259351,0.525927,0.335584,-1.429959,-0.178225,1.925738,0.097459,-0.049313,0.074857,-0.053505,-0.079162,-0.066862,0.145253,0.058852,-10.339923,-18.391071,-5.833939,4.312010,0.524076,-0.274552,0.061202,0.000000,0.000000,0.000000,0.000000,0.000000,0.000000
13287573.000000,-0.259370,0.526031,0.335578,-1.430067,-0.178300,1.925885,0.097543,-0.048007,0.081558,-0.040475,-0.085300,-0.067836,0.146849,0.070361,-9.030719,-17.042194,-4.949234,2.828245,0.105680,-0.020951,-0.004716,0.000000,0.000000,0.000000,0.000000,0.000000,0.000000
13287574.000000,-0.259380,0.526116,0.335597,-1.430189,-0.178394,1.926033,0.097639,-0.040906,0.081790,-0.027073,-0.095105,-0.072877,0.146643,0.074894,-7.892107,-15.550495,-4.239090,1.717406,-0.222994,0.583297,-0.097184,0.000000,0.000000,0.000000,0.000000,0.000000,0.000000
13287575.000000,-0.259388,0.526172,0.335594,-1.430331,-0.178477,1.926234,0.097726,-0.038674,0.071083,-0.027794,-0.110942,-0.074549,0.167590,0.082537,-6.824908,-13.741413,-3.159989,1.150084,-0.611178,0.941268,-0.070634,0.000000,0.000000,0.000000,0.000000,0.000000,0.000000
13287576.000000,-0.259410,0.526202,0.335582,-1.430512,-0.178587,1.926501,0.097822,-0.038057,0.054650,-0.030109,-0.132436,-0.088663,0.201740,0.085988,-5.686297,-11.781574,-2.076920,1.221495,-0.718295,0.960494,-0.089860,0.000000,0.000000,0.000000,0.000000,0.000000,0.000000
13287577.000000,-0.259442,0.526217,0.335562,-1.430735,-0.178737,1.926811,0.097928,-0.037546,0.040369,-0.033469,-0.168698,-0.106620,0.237557,0.095214,-4.523882,-9.750324,-1.021622,2.014952,-0.450045,0.817672,-0.163102,0.000000,0.000000,0.000000,0.000000,0.000000,0.000000
13287578.000000,-0.259486,0.526240,0.335520,-1.430973,-0.178909,1.927131,0.098019,-0.043095,0.034863,-0.040147,-0.194181,-0.129707,0.262577,0.090552,-3.361468,-7.889668,0.105087,2.828245,-0.013339,0.720626,-0.050492,0.000000,0.000000,0.000000,0.000000,0.000000,0.000000
13287579.000000,-0.259551,0.526299,0.335480,-1.431197,-0.179098,1.927458,0.098119,-0.053638,0.044324,-0.041579,-0.205019,-0.145305,0.284716,0.094694,-2.048296,-6.739155,0.965988,3.248778,0.422452,0.778304,-0.011124,0.000000,0.000000,0.000000,0.000000,0.000000,0.000000
13287580.000000,-0.259624,0.526387,0.335454,-1.431424,-0.179275,1.927812,0.098229,-0.063012,0.057809,-0.041803,-0.213176,-0.155244,0.304538,0.099995,-0.786700,-6.052814,1.382553,3.546324,0.673307,0.863448,-0.023942,0.000000,0.000000,0.000000,0.000000,0.000000,0.000000
13287581.000000,-0.259676,0.526500,0.335422,-1.431642,-0.179422,1.928179,0.098338,-0.058875,0.077764,-0.037563,-0.213850,-0.153055,0.325950,0.103116,0.006757,-5.759235,1.699936,3.494749,0.571683,0.915633,-0.017533,0.000000,0.000000,0.000000,0.000000,0.000000,0.000000
13287582.000000,-0.259709,0.526639,0.335415,-1.431876,-0.179545,1.928581,0.098455,-0.050405,0.096750,-0.023777,-0.219173,-0.145980,0.347156,0.106974,0.403486,-5.834614,1.529343,3.347960,0.171598,0.836898,-0.056901,0.000000,0.000000,0.000000,0.000000,0.000000,0.000000
13287583.000000,-0.259743,0.526779,0.335407,-1.432113,-0.179657,1.929029,0.098574,-0.042370,0.113850,-0.015530,-0.225034,-0.134932,0.380153,0.113415,0.673261,-5.858418,1.382553,3.125792,-0.300814,0.662032,-0.064225,0.000000,0.000000,0.000000,0.000000,0.000000,0.000000
13287584.000000,-0.259776,0.526918,0.335386,-1.432344,-0.179778,1.929472,0.098697,-0.037009,0.124907,-0.017436,-0.224200,-0.132716,0.401656,0.115695,0.923200,-5.735432,1.406357,2.681456,-0.653292,0.687667,-0.130143,0.000000,0.000000,0.000000,0.000000,0.000000,0.000000
13287585.000000,-0.259816,0.527054,0.335350,-1.432605,-0.179932,1.929929,0.098810,-0.038547,0.124428,-0.024852,-0.237023,-0.140868,0.419177,0.113086,1.244550,-5.418049,1.676132,2.483092,-0.616671,0.792037,-0.083451,0.000000,0.000000,0.000000,0.000000,0.000000,0.000000
13287586.000000,-0.259856,0.527174,0.335329,-1.432898,-0.180113,1.930413,0.098924,-0.039484,0.126223,-0.022540,-0.253143,-0.156510,0.440798,0.115844,1.542096,-4.830891,1.751511,2.558470,-0.300814,0.836898,-0.031266,0.000000,0.000000,0.000000,0.000000,0.000000,0.000000
13287587.000000,-0.259892,0.527280,0.335282,-1.433207,-0.180307,1.930928,0.099052,-0.039347,0.114833,-0.033504,-0.269395,-0.169244,0.458354,0.115715,1.788068,-4.021564,2.092697,2.705260,0.088285,0.713302,-0.050492,0.000000,0.000000,0.000000,0.000000,0.000000,0.000000
13287588.000000,-0.259926,0.527393,0.335256,-1.433531,-0.180500,1.931496,0.099168,-0.034655,0.116108,-0.030768,-0.285704,-0.179946,0.490279,0.117830,1.962629,-3.335224,2.116501,2.903624,0.428861,0.440475,0.001693,0.000000,0.000000,0.000000,0.000000,0.000000,0.000000
13287589.000000,-0.259962,0.527507,0.335241,-1.433860,-0.180675,1.932070,0.099293,-0.035225,0.116685,-0.027674,-0.296145,-0.184000,0.516603,0.117285,2.160993,-2.625080,1.945907,2.951231,0.530485,0.226241,-0.011124,0.000000,0.000000,0.000000,0.000000,0.000000,0.000000
13287590.000000,-0.259979,0.527648,0.335226,-1.434179,-0.180827,1.932652,0.099418,-0.032015,0.120657,-0.024674,-0.307178,-0.171864,0.531541,0.121898,2.061811,-2.212483,1.723740,2.705260,0.339139,0.258285,-0.017533,0.000000,0.000000,0.000000,0.000000,0.000000,0.000000
13287591.000000,-0.259992,0.527803,0.335219,-1.434490,-0.180964,1.933212,0.099540,-0.025272,0.130365,-0.017527,-0.304144,-0.159160,0.545483,0.119655,1.887250,-1.942707,1.406357,2.086363,0.022367,0.518295,-0.017533,0.000000,0.000000,0.000000,0.000000,0.000000,0.000000
13287592.000000,-0.259998,0.527976,0.335203,-1.434820,-0.181095,1.933791,0.099666,-0.019182,0.143107,-0.012510,-0.310459,-0.144331,0.557462,0.119763,1.641279,-1.942707,1.211960,1.642027,-0.353915,0.869857,-0.070634,0.000000,0.000000,0.000000,0.000000,0.000000,0.000000
13287593.000000,-0.260010,0.528160,0.335190,-1.435144,-0.181234,1.934417,0.099780,-0.014343,0.155436,-0.014480,-0.312650,-0.142266,0.573439,0.120025,1.490522,-1.990315,0.989792,1.074705,-0.629489,0.915633,-0.017533,0.000000,0.000000,0.000000,0.000000,0.000000,0.000000
13287594.000000,-0.260027,0.528352,0.335172,-1.435495,-0.181399,1.935083,0.099898,-0.016460,0.166739,-0.015304,-0.321027,-0.150034,0.607662,0.118866,1.442914,-2.014118,0.866806,0.800963,-0.658785,0.609847,-0.031266,0.000000,0.000000,0.000000,0.000000,0.000000,0.000000
13287595.000000,-0.260043,0.528562,0.335144,-1.435844,-0.181584,1.935760,0.100017,-0.017871,0.180623,-0.019246,-0.325626,-0.159308,0.625394,0.117265,1.391340,-2.089497,0.890610,0.432005,-0.450045,0.323287,-0.031266,0.000000,0.000000,0.000000,0.000000,0.000000,0.000000
13287596.000000,-0.260064,0.528783,0.335122,-1.436199,-0.181774,1.936455,0.100132,-0.020620,0.190680,-0.020172,-0.331669,-0.169034,0.651967,0.116574,1.415143,-2.236286,0.843002,0.035277,-0.138766,0.089828,0.009017,0.000000,0.000000,0.000000,0.000000,0.000000,0.000000
13287597.000000,-0.260078,0.529015,0.335100,-1.436562,-0.181964,1.937172,0.100252,-0.017726,0.205616,-0.020711,-0.337918,-0.178065,0.673140,0.115684,1.367536,-2.478291,0.791427,-0.409059,0.117582,-0.073136,0.009017,0.000000,0.000000,0.000000,0.000000,0.000000,0.000000
13287598.000000,-0.260086,0.529257,0.335083,-1.436925,-0.182139,1.937920,0.100368,-0.013144,0.213561,-0.018766,-0.341792,-0.178388,0.692105,0.113873,1.216779,-2.625080,0.644638,-0.778017,0.178007,-0.222367,0.041976,0.000000,0.000000,0.000000,0.000000,0.000000,0.000000
13287599.000000,-0.260082,0.529492,0.335060,-1.437307,-0.182295,1.938668,0.100485,-0.006557,0.225407,-0.016686,-0.353957,-0.170169,0.717944,0.113742,0.923200,-2.577473,0.597031,-1.127138,0.040677,-0.268143,0.041976,0.000000,0.000000,0.000000,0.000000,0.000000,0.000000
13287600.000000,-0.260074,0.529737,0.335048,-1.437708,-0.182445,1.939437,0.100606,-0.000778,0.227207,-0.017819,-0.364098,-0.164979,0.728790,0.115354,0.574079,-2.553669,0.398666,-1.321535,-0.216586,-0.215958,-0.011124,0.000000,0.000000,0.000000,0.000000,0.000000,0.000000
13287601.000000,-0.260072,0.529987,0.335022,-1.438118,-0.182587,1.940215,0.100719,-0.000341,0.232909,-0.020361,-0.379430,-0.160890,0.741837,0.113912,0.375715,-2.430683,0.398666,-1.420717,-0.503146,-0.001725,0.009017,0.000000,0.000000,0.000000,0.000000,0.000000,0.000000
13287602.000000,-0.260080,0.530241,0.334993,-1.438545,-0.182760,1.941001,0.100839,-0.004103,0.238799,-0.022684,-0.388485,-0.162072,0.760013,0.115487,0.351911,-2.236286,0.426437,-1.448488,-0.569064,0.128280,-0.037675,0.000000,0.000000,0.000000,0.000000,0.000000,0.000000
13287603.000000,-0.260093,0.530506,0.334961,-1.438993,-0.182940,1.941819,0.100951,-0.008855,0.244343,-0.027708,-0.405651,-0.164365,0.764148,0.113442,0.427289,-2.137104,0.474045,-1.321535,-0.461947,0.206100,-0.004716,0.000000,0.000000,0.000000,0.000000,0.000000,0.000000
13287604.000000,-0.260117,0.530776,0.334932,-1.439460,-0.183116,1.942658,0.101056,-0.014265,0.255795,-0.030279,-0.422609,-0.166063,0.787137,0.111185,0.601850,-1.990315,0.474045,-1.127138,-0.336520,0.167648,0.054794,0.000000,0.000000,0.000000,0.000000,0.000000,0.000000
13287605.000000,-0.260145,0.531072,0.334900,-1.439948,-0.183300,1.943533,0.101176,-0.018338,0.268977,-0.032782,-0.439654,-0.167856,0.818978,0.113504,0.796247,-2.113301,0.497848,-0.853395,-0.174471,-0.001725,0.001693,0.000000,0.000000,0.000000,0.000000,0.000000,0.000000
13287606.000000,-0.260169,0.531375,0.334863,-1.440430,-0.183476,1.944438,0.101287,-0.020002,0.280114,-0.035728,-0.457538,-0.168328,0.839058,0.111593,0.947004,-2.307698,0.573227,-0.754213,-0.060946,-0.196732,0.034652,0.000000,0.000000,0.000000,0.000000,0.000000,0.000000
13287607.000000,-0.260187,0.531694,0.334826,-1.440933,-0.183639,1.945336,0.101399,-0.019344,0.292719,-0.037757,-0.468422,-0.165757,0.857397,0.110084,1.022382,-2.553669,0.644638,-0.706606,-0.121371,-0.248917,0.087753,0.000000,0.000000,0.000000,0.000000,0.000000,0.000000
13287608.000000,-0.260212,0.532033,0.334792,-1.441443,-0.183804,1.946248,0.101523,-0.020591,0.302761,-0.034331,-0.483375,-0.163029,0.867610,0.119094,1.169172,-2.918659,0.644638,-0.706606,-0.234896,-0.144547,0.015426,0.000000,0.000000,0.000000,0.000000,0.000000,0.000000
13287609.000000,-0.260229,0.532380,0.334755,-1.441977,-0.183976,1.947167,0.101637,-0.018973,0.317575,-0.035621,-0.498299,-0.160788,0.904738,0.121769,1.216779,-3.287617,0.668442,-0.678835,-0.348422,-0.008134,0.028243,0.000000,0.000000,0.000000,0.000000,0.000000,0.000000
13287610.000000,-0.260248,0.532716,0.334716,-1.442542,-0.184143,1.948116,0.101755,-0.021213,0.324602,-0.036639,-0.513969,-0.155907,0.918303,0.120099,1.268354,-3.410603,0.696213,-0.583620,-0.426241,0.037643,0.009017,0.000000,0.000000,0.000000,0.000000,0.000000,0.000000
13287611.000000,-0.260281,0.533050,0.334668,-1.443125,-0.184313,1.949100,0.101865,-0.025002,0.326674,-0.039622,-0.533295,-0.159654,0.930156,0.120839,1.542096,-3.410603,0.819198,-0.309877,-0.438143,-0.008134,0.048385,0.000000,0.000000,0.000000,0.000000,0.000000,0.000000
13287612.000000,-0.260317,0.533386,0.334620,-1.443729,-0.184491,1.950091,0.101982,-0.027394,0.329201,-0.041074,-0.557483,-0.164882,0.949483,0.124100,1.811872,-3.263813,0.914413,-0.087709,-0.377719,-0.060319,0.034652,0.000000,0.000000,0.000000,0.000000,0.000000,0.000000
13287613.000000,-0.260351,0.533739,0.334564,-1.444345,-0.184676,1.951101,0.102104,-0.031624,0.331592,-0.043878,-0.573833,-0.169932,0.957506,0.122422,2.061811,-3.188435,1.088974,0.257445,-0.270602,0.017501,0.001693,0.000000,0.000000,0.000000,0.000000,0.000000,0.000000
13287614.000000,-0.260392,0.534101,0.334509,-1.444986,-0.184856,1.952127,0.102209,-0.036276,0.338353,-0.048334,-0.592393,-0.170886,0.977197,0.117570,2.383161,-3.117024,1.235763,0.531187,-0.174471,0.167648,0.067611,0.000000,0.000000,0.000000,0.000000,0.000000,0.000000
13287615.000000,-0.260433,0.534467,0.334452,-1.445635,-0.185033,1.953162,0.102326,-0.038945,0.345595,-0.051546,-0.609896,-0.173675,0.998468,0.117324,2.680707,-3.017842,1.382553,0.578795,-0.211093,0.161239,0.048385,0.000000,0.000000,0.000000,0.000000,0.000000,0.000000
13287616.000000,-0.260472,0.534838,0.334401,-1.446289,-0.185210,1.954217,0.102443,-0.037864,0.346833,-0.050946,-0.623738,-0.175824,1.010064,0.117086,2.851301,-3.041645,1.406357,0.729552,-0.282504,0.128280,0.028243,0.000000,0.000000,0.000000,0.000000,0.000000,0.000000
13287617.000000,-0.260509,0.535225,0.334344,-1.446952,-0.185384,1.955265,0.102554,-0.035455,0.357137,-0.049988,-0.629386,-0.172811,1.015027,0.114857,2.950483,-3.727986,1.529343,1.098509,-0.330111,0.063277,0.061202,0.000000,0.000000,0.000000,0.000000,0.000000,0.000000
13287618.000000,-0.260546,0.535620,0.334293,-1.447617,-0.185554,1.956337,0.102678,-0.035612,0.360257,-0.048656,-0.629394,-0.171271,1.031356,0.115998,2.978254,-5.318867,1.628525,1.939574,-0.353915,0.063277,0.015426,0.000000,0.000000,0.000000,0.000000,0.000000,0.000000
13287619.000000,-0.260593,0.536017,0.334239,-1.448264,-0.185724,1.957418,0.102789,-0.037032,0.370180,-0.049328,-0.627350,-0.173561,1.036178,0.113741,3.049665,-7.572285,1.799118,3.300352,-0.287997,0.109054,0.054794,0.000000,0.000000,0.000000,0.000000,0.000000,0.000000
13287620.000000,-0.260643,0.536390,0.334187,-1.448902,-0.185904,1.958486,0.102911,-0.041858,0.371274,-0.050377,-0.628118,-0.172503,1.046087,0.119275,3.148847,-9.920918,1.997482,5.006285,-0.162570,0.251876,0.028243,0.000000,0.000000,0.000000,0.000000,0.000000,0.000000
13287621.000000,-0.260681,0.536757,0.334122,-1.449536,-0.186088,1.959567,0.103028,-0.040481,0.372695,-0.058534,-0.632745,-0.173310,1.050474,0.116849,3.025861,-12.321125,2.390243,7.081175,0.015958,0.427657,0.048385,0.000000,0.000000,0.000000,0.000000,0.000000,0.000000
13287622.000000,-0.260719,0.537107,0.334066,-1.450166,-0.186266,1.960616,0.103144,-0.039209,0.367564,-0.057666,-0.634741,-0.175639,1.055235,0.120450,2.879072,-14.475361,2.632248,9.156065,0.123990,0.752670,0.054794,0.000000,0.000000,0.000000,0.000000,0.000000,0.000000
13287623.000000,-0.260750,0.537448,0.334007,-1.450799,-0.186444,1.961679,0.103263,-0.034376,0.365425,-0.057097,-0.635114,-0.177923,1.054778,0.118418,2.680707,-16.383625,2.878219,11.234922,0.129484,1.090499,0.054794,0.000000,0.000000,0.000000,0.000000,0.000000,0.000000
13287624.000000,-0.260774,0.537808,0.333945,-1.451413,-0.186619,1.962750,0.103383,-0.031911,0.366202,-0.056079,-0.632663,-0.175744,1.057386,0.121346,2.383161,-18.268085,3.100387,12.841673,0.112089,1.247054,0.048385,0.000000,0.000000,0.000000,0.000000,0.000000,0.000000
13287625.000000,-0.260800,0.538171,0.333880,-1.452026,-0.186796,1.963787,0.103502,-0.028406,0.366653,-0.055908,-0.628471,-0.173825,1.050060,0.120239,2.133222,-20.005756,3.346359,14.127073,0.105680,1.507064,0.021835,0.000000,0.000000,0.000000,0.000000,0.000000,0.000000
13287626.000000,-0.260815,0.538546,0.333822,-1.452633,-0.186972,1.964815,0.103620,-0.024319,0.370819,-0.059049,-0.622376,-0.171154,1.031115,0.117895,1.811872,-21.695820,3.469345,15.063353,0.069974,1.812850,0.034652,0.000000,0.000000,0.000000,0.000000,0.000000,0.000000
13287627.000000,-0.260832,0.538941,0.333755,-1.453251,-0.187146,1.965851,0.103746,-0.019458,0.379052,-0.062841,-0.620126,-0.169315,1.050311,0.122826,1.542096,-23.310505,3.639938,15.757627,0.027860,1.890670,0.001693,0.000000,0.000000,0.000000,0.000000,0.000000,0.000000
13287628.000000,-0.260849,0.539342,0.333679,-1.453865,-0.187335,1.966895,0.103868,-0.017037,0.384398,-0.068092,-0.615281,-0.177457,1.048470,0.124193,1.315961,-24.853779,3.909714,16.150389,0.100187,1.832076,0.015426,0.000000,0.000000,0.000000,0.000000,0.000000,0.000000
13287629.000000,-0.260860,0.539766,0.333602,-1.454452,-0.187531,1.967947,0.103987,-0.014696,0.399324,-0.073737,-0.602300,-0.182895,1.051362,0.123508,1.069990,-26.420856,4.131882,16.201963,0.171598,1.670028,0.067611,0.000000,0.000000,0.000000,0.000000,0.000000,0.000000
13287630.000000,-0.260872,0.540205,0.333522,-1.455052,-0.187729,1.968981,0.104117,-0.014593,0.418572,-0.074859,-0.593649,-0.186004,1.048910,0.126460,0.895429,-27.864948,4.350082,16.126585,0.213712,1.532699,0.048385,0.000000,0.000000,0.000000,0.000000,0.000000,0.000000
13287631.000000,-0.260873,0.540657,0.333444,-1.455643,-0.187939,1.970006,0.104240,-0.011016,0.427272,-0.073496,-0.590048,-0.190746,1.037639,0.122223,0.574079,-29.281269,4.473068,16.055174,0.339139,1.481429,0.067611,0.000000,0.000000,0.000000,0.000000,0.000000,0.000000
13287632.000000,-0.260871,0.541120,0.333368,-1.456243,-0.188135,1.971039,0.104368,-0.008534,0.438329,-0.075243,-0.594213,-0.193626,1.032318,0.125701,0.252729,-30.554768,4.572250,16.003599,0.369352,1.494247,0.041976,0.000000,0.000000,0.000000,0.000000,0.000000,0.000000
13287633.000000,-0.260867,0.541579,0.333298,-1.456844,-0.188336,1.972069,0.104490,-0.004202,0.443395,-0.074402,-0.586816,-0.196403,1.031947,0.121416,-0.044818,-31.681477,4.572250,15.904417,0.362943,1.416427,0.067611,0.000000,0.000000,0.000000,0.000000,0.000000,0.000000
13287634.000000,-0.260850,0.542046,0.333225,-1.457444,-0.188525,1.973106,0.104614,0.001889,0.446616,-0.070745,-0.590280,-0.197190,1.026678,0.119246,-0.465350,-32.586018,4.572250,15.880613,0.279630,1.422836,0.074935,0.000000,0.000000,0.000000,0.000000,0.000000,0.000000
13287635.000000,-0.260832,0.542502,0.333157,-1.458060,-0.188718,1.974113,0.104744,0.005006,0.452338,-0.066672,-0.595559,-0.196365,1.021651,0.124313,-0.834307,-33.248554,4.500839,15.979795,0.183500,1.513473,0.021835,0.000000,0.000000,0.000000,0.000000,0.000000,0.000000
13287636.000000,-0.260813,0.542974,0.333087,-1.458678,-0.188922,1.975128,0.104864,0.010477,0.454321,-0.067510,-0.600915,-0.197708,1.022479,0.120424,-1.207232,-34.081684,4.449265,16.126585,0.141385,1.611434,0.041976,0.000000,0.000000,0.000000,0.000000,0.000000,0.000000
13287637.000000,-0.260798,0.543445,0.333017,-1.459282,-0.189128,1.976146,0.104990,0.011550,0.453573,-0.065284,-0.597966,-0.197886,1.009556,0.124260,-1.453204,-34.791828,4.401657,16.249571,0.195402,1.682845,0.015426,0.000000,0.000000,0.000000,0.000000,0.000000,0.000000
13287638.000000,-0.260788,0.543930,0.332946,-1.459912,-0.189332,1.977152,0.105113,0.010336,0.466942,-0.067910,-0.605279,-0.198051,1.003970,0.119867,-1.603961,-35.573383,4.401657,16.547117,0.243009,1.656295,0.054794,0.000000,0.000000,0.000000,0.000000,0.000000,0.000000
13287639.000000,-0.260783,0.544424,0.332882,-1.460540,-0.189540,1.978182,0.105238,0.007985,0.472701,-0.067349,-0.615780,-0.199418,1.007514,0.121349,-1.679339,-36.382710,4.302475,16.920042,0.344633,1.611434,0.094161,0.000000,0.000000,0.000000,0.000000,0.000000,0.000000
13287640.000000,-0.260774,0.544933,0.332824,-1.461168,-0.189734,1.979186,0.105368,0.009641,0.479615,-0.062542,-0.621318,-0.202632,1.005588,0.125645,-1.750750,-37.211872,4.131882,17.189817,0.381254,1.630660,0.054794,0.000000,0.000000,0.000000,0.000000,0.000000,0.000000
13287641.000000,-0.260769,0.545462,0.332770,-1.461794,-0.189932,1.980200,0.105492,0.006963,0.492984,-0.062212,-0.617699,-0.202276,1.008443,0.121749,-1.778521,-38.390156,3.957321,17.289000,0.356534,1.656295,0.067611,0.000000,0.000000,0.000000,0.000000,0.000000,0.000000
13287642.000000,-0.260763,0.546002,0.332720,-1.462412,-0.190129,1.981224,0.105616,0.007051,0.504177,-0.059855,-0.618860,-0.203030,1.018054,0.118838,-1.750750,-39.417683,3.687546,17.388182,0.291532,1.611434,0.074935,0.000000,0.000000,0.000000,0.000000,0.000000,0.000000
13287643.000000,-0.260756,0.546537,0.332666,-1.463045,-0.190321,1.982226,0.105742,0.007451,0.513365,-0.057595,-0.624116,-0.200446,1.015038,0.121621,-1.726946,-40.346027,3.516952,17.562742,0.189908,1.578475,0.087753,0.000000,0.000000,0.000000,0.000000,0.000000,0.000000
13287644.000000,-0.260748,0.547064,0.332614,-1.463671,-0.190513,1.983257,0.105869,0.010854,0.511693,-0.056371,-0.638535,-0.197383,1.010780,0.125276,-1.703143,-40.984760,3.370163,17.784910,0.135892,1.507064,0.074935,0.000000,0.000000,0.000000,0.000000,0.000000,0.000000
13287645.000000,-0.260748,0.547601,0.332564,-1.464308,-0.190703,1.984284,0.105997,0.005725,0.518679,-0.052920,-0.635745,-0.196609,1.009013,0.127738,-1.603961,-41.520344,3.247177,18.078489,0.159696,1.487838,0.054794,0.000000,0.000000,0.000000,0.000000,0.000000,0.000000
13287646.000000,-0.260752,0.548125,0.332509,-1.464957,-0.190894,1.985285,0.106118,0.007079,0.518993,-0.052578,-0.638531,-0.196090,1.009413,0.127269,-1.453204,-42.036091,3.223373,18.451414,0.195402,1.559249,0.087753,0.000000,0.000000,0.000000,0.000000,0.000000,0.000000
13287647.000000,-0.260755,0.548656,0.332454,-1.465598,-0.191097,1.986297,0.106250,0.002256,0.516401,-0.055135,-0.644115,-0.203223,1.008148,0.129937,-1.306414,-42.476460,3.199569,18.848143,0.308927,1.637069,0.048385,0.000000,0.000000,0.000000,0.000000,0.000000,0.000000
13287648.000000,-0.260761,0.549173,0.332401,-1.466250,-0.191298,1.987289,0.106378,0.001271,0.524436,-0.056953,-0.648064,-0.211594,1.004697,0.128957,-1.131854,-42.770039,3.171798,19.292479,0.362943,1.702071,0.087753,0.000000,0.000000,0.000000,0.000000,0.000000,0.000000
13287649.000000,-0.260773,0.549701,0.332351,-1.466907,-0.191497,1.988290,0.106509,-0.002987,0.520257,-0.057117,-0.645242,-0.208970,0.995474,0.125288,-0.933489,-43.039814,3.100387,19.736814,0.339139,1.779891,0.074935,0.000000,0.000000,0.000000,0.000000,0.000000,0.000000
13287650.000000,-0.260783,0.550241,0.332291,-1.467550,-0.191688,1.989306,0.106634,-0.004821,0.524423,-0.060013,-0.645030,-0.199993,0.993193,0.121585,-0.786700,-43.404804,3.147995,20.105772,0.297025,1.793624,0.094161,0.000000,0.000000,0.000000,0.000000,0.000000,0.000000
13287651.000000,-0.260793,0.550769,0.332233,-1.468198,-0.191880,1.990298,0.106762,-0.006287,0.529166,-0.058986,-0.645790,-0.199470,0.991923,0.124255,-0.635943,-43.726154,3.199569,20.427122,0.231107,1.903487,0.094161,0.000000,0.000000,0.000000,0.000000,0.000000,0.000000
13287652.000000,-0.260807,0.551309,0.332178,-1.468836,-0.192068,1.991293,0.106898,-0.007842,0.523557,-0.059164,-0.647651,-0.193818,0.984618,0.128389,-0.465350,-43.968159,3.171798,20.748472,0.147794,2.027084,0.034652,0.000000,0.000000,0.000000,0.000000,0.000000,0.000000
13287653.000000,-0.260823,0.551852,0.332108,-1.469472,-0.192257,1.992275,0.107020,-0.007850,0.535592,-0.064242,-0.639610,-0.197290,0.991447,0.127660,-0.342364,-44.214130,3.346359,20.970640,0.135892,2.112228,0.074935,0.000000,0.000000,0.000000,0.000000,0.000000,0.000000
13287654.000000,-0.260833,0.552383,0.332035,-1.470122,-0.192451,1.993267,0.107146,-0.009394,0.532915,-0.065017,-0.641488,-0.199375,0.987749,0.129018,-0.290789,-44.460102,3.540756,21.220579,0.129484,2.196456,0.061202,0.000000,0.000000,0.000000,0.000000,0.000000,0.000000
13287655.000000,-0.260848,0.552925,0.331959,-1.470764,-0.192651,1.994261,0.107268,-0.011870,0.530789,-0.068589,-0.642842,-0.198530,0.981763,0.128741,-0.191607,-44.702106,3.739120,21.466551,0.171598,2.209274,0.087753,0.000000,0.000000,0.000000,0.000000,0.000000,0.000000
13287656.000000,-0.260863,0.553453,0.331881,-1.471407,-0.192856,1.995260,0.107397,-0.013171,0.530579,-0.070398,-0.642861,-0.199090,0.985702,0.126075,-0.116229,-44.852863,3.909714,21.589537,0.249418,2.104903,0.054794,0.000000,0.000000,0.000000,0.000000,0.000000,0.000000
13287657.000000,-0.260877,0.553984,0.331792,-1.472029,-0.193061,1.996259,0.107521,-0.011627,0.529195,-0.077525,-0.635079,-0.194076,0.986678,0.126490,-0.017047,-44.948078,4.203293,21.589537,0.320829,2.001449,0.081344,0.000000,0.000000,0.000000,0.000000,0.000000,0.000000
13287658.000000,-0.260890,0.554523,0.331703,-1.472661,-0.193261,1.997240,0.107650,-0.009260,0.527611,-0.084904,-0.629491,-0.195144,1.012173,0.127637,0.030561,-44.999653,4.473068,21.589537,0.386747,1.995040,0.087753,0.000000,0.000000,0.000000,0.000000,0.000000,0.000000
13287659.000000,-0.260902,0.555050,0.331610,-1.473292,-0.193461,1.998234,0.107781,-0.008233,0.525146,-0.087572,-0.624136,-0.197790,1.000836,0.125432,0.105939,-44.999653,4.742844,21.514158,0.393156,1.981307,0.041976,0.000000,0.000000,0.000000,0.000000,0.000000,0.000000
13287660.000000,-0.260909,0.555578,0.331513,-1.473907,-0.193663,1.999223,0.107895,-0.008207,0.522278,-0.092559,-0.623474,-0.205130,0.989920,0.123852,0.078168,-44.971882,5.012619,21.418943,0.351041,2.007858,0.107894,0.000000,0.000000,0.000000,0.000000,0.000000,0.000000
13287661.000000,-0.260916,0.556097,0.331414,-1.474510,-0.193870,2.000191,0.108024,-0.005900,0.528458,-0.095755,-0.614257,-0.203612,0.986846,0.122781,0.078168,-44.777485,5.258591,21.145201,0.297025,2.169906,0.067611,0.000000,0.000000,0.000000,0.000000,0.000000,0.000000
13287662.000000,-0.260922,0.556612,0.331310,-1.475105,-0.194077,2.001181,0.108149,-0.006147,0.520124,-0.098034,-0.617659,-0.203000,0.985973,0.125862,0.030561,-44.555317,5.504562,20.871458,0.255826,2.163497,0.061202,0.000000,0.000000,0.000000,0.000000,0.000000,0.000000
13287663.000000,-0.260930,0.557129,0.331208,-1.475700,-0.194278,2.002175,0.108271,-0.008206,0.516677,-0.101921,-0.605614,-0.203237,0.994847,0.126641,0.054365,-44.360920,5.702927,20.601683,0.225614,2.060043,0.081344,0.000000,0.000000,0.000000,0.000000,0.000000,0.000000
13287664.000000,-0.260941,0.557644,0.331101,-1.476295,-0.194486,2.003174,0.108397,-0.010479,0.516487,-0.102278,-0.603213,-0.204964,0.992651,0.129437,0.105939,-44.166523,5.921127,20.355711,0.219205,2.027084,0.034652,0.000000,0.000000,0.000000,0.000000,0.000000,0.000000
13287665.000000,-0.260949,0.558158,0.330994,-1.476864,-0.194704,2.004185,0.108514,-0.008275,0.510236,-0.103779,-0.591251,-0.208260,0.987864,0.123076,0.129743,-43.995930,6.067917,20.034361,0.285123,1.923629,0.094161,0.000000,0.000000,0.000000,0.000000,0.000000,0.000000
13287666.000000,-0.260953,0.558677,0.330886,-1.477434,-0.194926,2.005196,0.108645,-0.006066,0.512448,-0.105937,-0.579098,-0.211201,0.996230,0.122666,0.129743,-43.920551,6.242477,19.760618,0.362943,1.773483,0.041976,0.000000,0.000000,0.000000,0.000000,0.000000,0.000000
13287667.000000,-0.260967,0.559205,0.330775,-1.478006,-0.195148,2.006196,0.108771,-0.007890,0.517309,-0.106905,-0.572412,-0.215457,0.994365,0.124165,0.276533,-43.944355,6.389267,19.538450,0.393156,1.806442,0.054794,0.000000,0.000000,0.000000,0.000000,0.000000,0.000000
13287668.000000,-0.260972,0.559720,0.330667,-1.478554,-0.195362,2.007212,0.108894,-0.006219,0.515034,-0.106743,-0.565877,-0.211494,1.002951,0.120852,0.304304,-43.773762,6.488449,19.268675,0.398649,1.767074,0.107894,0.000000,0.000000,0.000000,0.000000,0.000000,0.000000
13287669.000000,-0.260975,0.560228,0.330564,-1.479104,-0.195578,2.008211,0.109025,-0.004378,0.511076,-0.105448,-0.556388,-0.209757,1.009576,0.124550,0.304304,-43.626972,6.536057,19.094114,0.381254,1.708480,0.087753,0.000000,0.000000,0.000000,0.000000,0.000000,0.000000
13287670.000000,-0.260980,0.560756,0.330458,-1.479635,-0.195791,2.009213,0.109148,-0.004206,0.513051,-0.103884,-0.547155,-0.203111,1.000638,0.125217,0.351911,-43.555561,6.559860,18.796568,0.344633,1.735030,0.120712,0.000000,0.000000,0.000000,0.000000,0.000000,0.000000
13287671.000000,-0.260982,0.561278,0.330361,-1.480169,-0.195993,2.010212,0.109286,-0.003491,0.519749,-0.100980,-0.542530,-0.201993,0.998405,0.125451,0.375715,-43.480183,6.488449,18.625975,0.279630,1.800033,0.034652,0.000000,0.000000,0.000000,0.000000,0.000000,0.000000
13287672.000000,-0.260982,0.561806,0.330264,-1.480700,-0.196205,2.011226,0.109410,-0.002425,0.517773,-0.098985,-0.534256,-0.206563,1.000188,0.120322,0.375715,-43.603168,6.413071,18.475218,0.237516,1.819259,0.074935,0.000000,0.000000,0.000000,0.000000,0.000000,0.000000
13287673.000000,-0.260986,0.562342,0.330165,-1.481237,-0.196413,2.012247,0.109542,-0.002897,0.525093,-0.098281,-0.534689,-0.210030,0.999625,0.124007,0.427289,-43.773762,6.365463,18.625975,0.219205,1.825668,0.054794,0.000000,0.000000,0.000000,0.000000,0.000000,0.000000
13287674.000000,-0.260989,0.562865,0.330071,-1.481773,-0.196620,2.013246,0.109663,-0.003749,0.523302,-0.096603,-0.533772,-0.209513,1.000113,0.124188,0.502668,-43.872944,6.266281,18.820372,0.213712,1.832076,0.100570,0.000000,0.000000,0.000000,0.000000,0.000000,0.000000
13287675.000000,-0.260992,0.563408,0.329972,-1.482312,-0.196831,2.014259,0.109793,-0.003654,0.524815,-0.094538,-0.534628,-0.206226,1.001300,0.126803,0.550275,-44.091145,6.266281,19.193296,0.261320,1.754256,0.081344,0.000000,0.000000,0.000000,0.000000,0.000000,0.000000
13287676.000000,-0.260994,0.563954,0.329882,-1.482862,-0.197046,2.015247,0.109929,-0.004230,0.531672,-0.094676,-0.542681,-0.209595,0.990473,0.129058,0.625654,-44.337116,6.218674,19.613829,0.339139,1.793624,0.054794,0.000000,0.000000,0.000000,0.000000,0.000000,0.000000
13287677.000000,-0.260997,0.564494,0.329797,-1.483408,-0.197254,2.016240,0.110054,-0.003957,0.529705,-0.094055,-0.541758,-0.213697,0.987909,0.126720,0.673261,-44.531513,6.119492,19.911375,0.351041,1.936446,0.127120,0.000000,0.000000,0.000000,0.000000,0.000000,0.000000
13287678.000000,-0.261000,0.565038,0.329716,-1.483945,-0.197468,2.017232,0.110192,-0.003862,0.530729,-0.089380,-0.543073,-0.218221,0.986465,0.130020,0.724836,-44.654499,5.972702,20.157347,0.339139,2.072860,0.061202,0.000000,0.000000,0.000000,0.000000,0.000000,0.000000
13287679.000000,-0.260997,0.565578,0.329639,-1.484497,-0.197678,2.018210,0.110324,-0.001381,0.545839,-0.085524,-0.546930,-0.214546,0.988544,0.130824,0.673261,-44.825092,5.798141,20.454893,0.315336,2.131454,0.048385,0.000000,0.000000,0.000000,0.000000,0.000000,0.000000
13287680.000000,-0.260992,0.566128,0.329558,-1.485046,-0.197883,2.019192,0.110448,0.000740,0.539204,-0.084563,-0.552847,-0.214204,0.992806,0.134657,0.601850,-45.023457,5.702927,20.823851,0.225614,2.177230,0.094161,0.000000,0.000000,0.000000,0.000000,0.000000,0.000000
13287681.000000,-0.260991,0.566683,0.329484,-1.485602,-0.198089,2.020195,0.110580,-0.000071,0.540444,-0.082752,-0.552514,-0.212142,0.991227,0.134809,0.625654,-45.194050,5.556137,21.145201,0.201810,2.033492,0.074935,0.000000,0.000000,0.000000,0.000000,0.000000,0.000000
13287682.000000,-0.260985,0.567223,0.329406,-1.486168,-0.198297,2.021170,0.110712,0.001154,0.540268,-0.083677,-0.559346,-0.206715,0.989639,0.134814,0.574079,-45.340839,5.504562,21.514158,0.207303,2.027084,0.048385,0.000000,0.000000,0.000000,0.000000,0.000000,0.000000
13287683.000000,-0.260984,0.567777,0.329327,-1.486723,-0.198520,2.022149,0.110842,0.000115,0.533181,-0.080977,-0.556865,-0.210638,0.983789,0.134263,0.601850,-45.487629,5.456955,21.811705,0.303434,2.098495,0.041976,0.000000,0.000000,0.000000,0.000000,0.000000,0.000000
13287684.000000,-0.260973,0.568334,0.329246,-1.487277,-0.198746,2.023103,0.110962,0.004984,0.545887,-0.082669,-0.551938,-0.218748,0.975682,0.126696,0.526471,-45.586811,5.433151,21.986265,0.405057,2.190048,0.100570,0.000000,0.000000,0.000000,0.000000,0.000000,0.000000
13287685.000000,-0.260963,0.568862,0.329163,-1.487842,-0.198969,2.024078,0.111096,0.007934,0.543008,-0.082399,-0.556352,-0.220981,0.976412,0.128531,0.474897,-45.440022,5.480759,22.208433,0.440763,2.235824,0.081344,0.000000,0.000000,0.000000,0.000000,0.000000,0.000000
13287686.000000,-0.260955,0.569387,0.329086,-1.488392,-0.199186,2.025061,0.111224,0.008894,0.528401,-0.080253,-0.551045,-0.216692,0.970853,0.127745,0.474897,-45.071064,5.456955,22.331419,0.476469,2.196456,0.127120,0.000000,0.000000,0.000000,0.000000,0.000000,0.000000
13287687.000000,-0.260939,0.569911,0.329013,-1.488953,-0.199406,2.026044,0.111363,0.008205,0.530158,-0.074320,-0.550311,-0.213345,0.974442,0.131127,0.403486,-44.825092,5.381577,22.505980,0.458158,2.066451,0.081344,0.000000,0.000000,0.000000,0.000000,0.000000,0.000000
13287688.000000,-0.260918,0.570438,0.328936,-1.489494,-0.199619,2.027020,0.111500,0.012628,0.527143,-0.074171,-0.550079,-0.209484,0.971303,0.132309,0.252729,-44.630695,5.357773,22.505980,0.386747,2.079269,0.054794,0.000000,0.000000,0.000000,0.000000,0.000000,0.000000
13287689.000000,-0.260903,0.570970,0.328860,-1.490046,-0.199835,2.027973,0.111625,0.013893,0.531077,-0.074157,-0.543140,-0.206721,0.969576,0.134948,0.177350,-44.460102,5.333969,22.605162,0.320829,2.190048,0.107894,0.000000,0.000000,0.000000,0.000000,0.000000,0.000000
13287690.000000,-0.260888,0.571496,0.328784,-1.490593,-0.200068,2.028930,0.111766,0.011645,0.528108,-0.073603,-0.539540,-0.213158,0.969452,0.136699,0.105939,-44.289509,5.286362,22.628965,0.362943,2.345687,0.034652,0.000000,0.000000,0.000000,0.000000,0.000000,0.000000
13287691.000000,-0.260866,0.572026,0.328703,-1.491129,-0.200289,2.029893,0.111893,0.014362,0.529684,-0.072261,-0.543245,-0.220553,0.959223,0.133345,-0.017047,-44.190327,5.333969,22.628965,0.374845,2.462875,0.067611,0.000000,0.000000,0.000000,0.000000,0.000000,0.000000
13287692.000000,-0.260847,0.572545,0.328625,-1.491669,-0.200512,2.030865,0.112025,0.015128,0.528594,-0.076865,-0.535677,-0.223847,0.963474,0.127684,-0.092425,-43.968159,5.357773,22.676573,0.405057,2.423507,0.081344,0.000000,0.000000,0.000000,0.000000,0.000000,0.000000
13287693.000000,-0.260824,0.573071,0.328542,-1.492206,-0.200733,2.031858,0.112162,0.017514,0.525703,-0.076959,-0.536635,-0.219637,0.967569,0.129800,-0.243182,-43.726154,5.381577,22.799559,0.405057,2.261459,0.054794,0.000000,0.000000,0.000000,0.000000,0.000000,0.000000
13287694.000000,-0.260799,0.573592,0.328465,-1.492738,-0.200953,2.032827,0.112288,0.019621,0.523059,-0.081176,-0.536330,-0.221299,0.992434,0.128896,-0.413775,-43.480183,5.333969,22.874937,0.398649,2.157089,0.094161,0.000000,0.000000,0.000000,0.000000,0.000000,0.000000
13287695.000000,-0.260777,0.574124,0.328385,-1.493269,-0.201193,2.033788,0.112423,0.022587,0.519877,-0.079822,-0.528802,-0.229607,0.983678,0.125385,-0.512957,-43.432575,5.333969,22.926512,0.464567,2.190048,0.074935,0.000000,0.000000,0.000000,0.000000,0.000000,0.000000
13287696.000000,-0.260758,0.574672,0.328310,-1.493782,-0.201432,2.034744,0.112558,0.021153,0.524665,-0.076913,-0.522197,-0.230272,0.967288,0.131067,-0.588336,-43.527790,5.258591,22.926512,0.500272,2.320052,0.094161,0.000000,0.000000,0.000000,0.000000,0.000000,0.000000
13287697.000000,-0.260739,0.575212,0.328238,-1.494307,-0.201664,2.035692,0.112699,0.018936,0.538775,-0.078738,-0.524135,-0.229290,0.962707,0.132965,-0.612139,-43.555561,5.210983,23.120909,0.506681,2.423507,0.048385,0.000000,0.000000,0.000000,0.000000,0.000000,0.000000
13287698.000000,-0.260714,0.575744,0.328167,-1.494826,-0.201900,2.036659,0.112826,0.022636,0.533854,-0.078906,-0.529384,-0.224129,0.961240,0.129976,-0.735125,-43.579365,5.111801,23.319273,0.530485,2.437240,0.114303,0.000000,0.000000,0.000000,0.000000,0.000000,0.000000
13287699.000000,-0.260692,0.576296,0.328092,-1.495338,-0.202125,2.037639,0.112963,0.023781,0.536908,-0.076769,-0.527716,-0.227211,0.966170,0.133338,-0.786700,-43.726154,5.040390,23.418455,0.470060,2.332870,0.087753,0.000000,0.000000,0.000000,0.000000,0.000000,0.000000
13287700.000000,-0.260672,0.576826,0.328018,-1.495852,-0.202353,2.038590,0.113104,0.024228,0.534885,-0.075072,-0.520282,-0.229137,0.962126,0.134040,-0.810504,-43.702351,4.965012,23.541441,0.393156,2.293502,0.054794,0.000000,0.000000,0.000000,0.000000,0.000000,0.000000
13287701.000000,-0.260656,0.577365,0.327945,-1.496349,-0.202596,2.039545,0.113235,0.022881,0.529821,-0.073070,-0.514073,-0.234817,0.957297,0.131965,-0.762896,-43.603168,4.865829,23.493834,0.428861,2.372237,0.094161,0.000000,0.000000,0.000000,0.000000,0.000000,0.000000
13287702.000000,-0.260642,0.577909,0.327870,-1.496853,-0.202834,2.040497,0.113370,0.021483,0.539625,-0.069833,-0.509828,-0.235471,0.953743,0.133247,-0.687518,-43.503986,4.818222,23.470030,0.500272,2.385055,0.061202,0.000000,0.000000,0.000000,0.000000,0.000000,0.000000
13287703.000000,-0.260626,0.578436,0.327793,-1.497348,-0.203068,2.041466,0.113504,0.017534,0.536953,-0.071110,-0.504984,-0.233226,0.960983,0.131757,-0.612139,-43.357197,4.794418,23.319273,0.512174,2.365829,0.081344,0.000000,0.000000,0.000000,0.000000,0.000000,0.000000
13287704.000000,-0.260613,0.578980,0.327721,-1.497841,-0.203299,2.042425,0.113644,0.017291,0.531454,-0.069136,-0.502955,-0.228841,0.959390,0.133220,-0.512957,-43.285786,4.647629,23.247862,0.571683,2.423507,0.041976,0.000000,0.000000,0.000000,0.000000,0.000000,0.000000
13287705.000000,-0.260595,0.579516,0.327649,-1.498325,-0.203526,2.043388,0.113780,0.015276,0.533149,-0.070051,-0.492909,-0.230288,0.959922,0.131063,-0.465350,-43.210407,4.596054,23.097105,0.500272,2.313644,0.087753,0.000000,0.000000,0.000000,0.000000,0.000000,0.000000
13287706.000000,-0.260580,0.580051,0.327573,-1.498804,-0.203756,2.044379,0.113921,0.016312,0.527678,-0.070545,-0.490818,-0.226456,0.962028,0.132206,-0.389971,-43.063618,4.548447,22.997923,0.428861,2.144271,0.067611,0.000000,0.000000,0.000000,0.000000,0.000000,0.000000
13287707.000000,-0.260566,0.580589,0.327503,-1.499277,-0.203977,2.045337,0.114060,0.017087,0.524621,-0.070422,-0.482607,-0.226181,0.962288,0.137743,-0.314593,-42.869221,4.473068,22.751951,0.410551,2.131454,0.041976,0.000000,0.000000,0.000000,0.000000,0.000000,0.000000
13287708.000000,-0.260557,0.581127,0.327427,-1.499744,-0.204201,2.046302,0.114195,0.015922,0.526456,-0.075297,-0.475604,-0.224781,0.964913,0.138329,-0.167803,-42.746235,4.473068,22.454405,0.374845,2.183639,0.100570,0.000000,0.000000,0.000000,0.000000,0.000000,0.000000
13287709.000000,-0.260556,0.581650,0.327355,-1.500198,-0.204428,2.047267,0.114337,0.010424,0.521545,-0.073395,-0.471405,-0.226751,0.961645,0.142465,0.054365,-42.377277,4.377853,22.184629,0.434354,2.255050,0.054794,0.000000,0.000000,0.000000,0.000000,0.000000,0.000000
13287710.000000,-0.260543,0.582169,0.327280,-1.500645,-0.204658,2.048227,0.114466,0.013161,0.522217,-0.074345,-0.458782,-0.227685,0.956047,0.142462,0.129743,-42.012287,4.377853,21.835508,0.464567,2.287093,0.107894,0.000000,0.000000,0.000000,0.000000,0.000000,0.000000
13287711.000000,-0.260533,0.582693,0.327200,-1.501090,-0.204887,2.049213,0.114604,0.014518,0.518809,-0.075323,-0.455325,-0.225029,0.962788,0.140102,0.228925,-41.643330,4.401657,21.541929,0.410551,2.222091,0.100570,0.000000,0.000000,0.000000,0.000000,0.000000,0.000000
13287712.000000,-0.260522,0.583215,0.327129,-1.501533,-0.205108,2.050192,0.114736,0.012901,0.515686,-0.074336,-0.447614,-0.224094,0.990107,0.142828,0.304304,-41.302143,4.350082,21.291990,0.374845,2.104903,0.100570,0.000000,0.000000,0.000000,0.000000,0.000000,0.000000
13287713.000000,-0.260513,0.583729,0.327052,-1.501972,-0.205330,2.051181,0.114880,0.014871,0.509848,-0.074248,-0.444190,-0.223474,0.991808,0.145700,0.375715,-40.933186,4.326279,21.022215,0.344633,2.020675,0.067611,0.000000,0.000000,0.000000,0.000000,0.000000,0.000000
13287714.000000,-0.260501,0.584250,0.326967,-1.502398,-0.205549,2.052157,0.115019,0.013611,0.511516,-0.076408,-0.440131,-0.224939,0.981488,0.146665,0.427289,-40.639606,4.401657,20.823851,0.315336,2.072860,0.074935,0.000000,0.000000,0.000000,0.000000,0.000000,0.000000
13287715.000000,-0.260489,0.584767,0.326886,-1.502818,-0.205767,2.053122,0.115152,0.012621,0.518880,-0.076738,-0.430776,-0.226440,0.970574,0.142185,0.474897,-40.298420,4.425461,20.526304,0.344633,2.118636,0.094161,0.000000,0.000000,0.000000,0.000000,0.000000,0.000000
13287716.000000,-0.260474,0.585275,0.326799,-1.503232,-0.205993,2.054096,0.115295,0.011610,0.509143,-0.075519,-0.424941,-0.226507,0.967761,0.140896,0.526471,-39.834248,4.524643,20.379515,0.351041,2.131454,0.054794,0.000000,0.000000,0.000000,0.000000,0.000000,0.000000
13287717.000000,-0.260463,0.585776,0.326714,-1.503639,-0.206221,2.055077,0.115429,0.011098,0.505878,-0.076878,-0.414732,-0.226480,0.968140,0.137096,0.574079,-39.247089,4.596054,20.133543,0.344633,2.092086,0.094161,0.000000,0.000000,0.000000,0.000000,0.000000,0.000000
13287718.000000,-0.260442,0.586271,0.326629,-1.504042,-0.206448,2.056040,0.115573,0.016029,0.502071,-0.081195,-0.413099,-0.226692,0.972800,0.138000,0.526471,-38.707539,4.671432,19.883604,0.351041,2.053634,0.048385,0.000000,0.000000,0.000000,0.000000,0.000000,0.000000
13287719.000000,-0.260424,0.586780,0.326541,-1.504425,-0.206667,2.057012,0.115709,0.019000,0.493413,-0.082917,-0.399604,-0.224538,0.964312,0.141127,0.502668,-38.243366,4.695236,19.490843,0.297025,2.020675,0.048385,0.000000,0.000000,0.000000,0.000000,0.000000,0.000000
13287720.000000,-0.260406,0.587304,0.326459,-1.504809,-0.206882,2.057963,0.115838,0.018063,0.509948,-0.083927,-0.395621,-0.223930,0.957423,0.137072,0.474897,-38.068806,4.695236,19.217100,0.261320,2.085677,0.094161,0.000000,0.000000,0.000000,0.000000,0.000000,0.000000
13287721.000000,-0.260386,0.587816,0.326372,-1.505190,-0.207109,2.058938,0.115985,0.017221,0.510267,-0.084807,-0.388555,-0.229050,0.957964,0.142165,0.451093,-37.898212,4.695236,18.895750,0.261320,2.001449,0.041976,0.000000,0.000000,0.000000,0.000000,0.000000,0.000000
13287722.000000,-0.260362,0.588340,0.326275,-1.505570,-0.207336,2.059925,0.116123,0.020780,0.511370,-0.088393,-0.386608,-0.226245,0.969323,0.142650,0.375715,-37.775227,4.818222,18.721189,0.249418,1.851302,0.087753,0.000000,0.000000,0.000000,0.000000,0.000000,0.000000
13287723.000000,-0.260343,0.588852,0.326186,-1.505953,-0.207566,2.060884,0.116269,0.018540,0.522788,-0.091688,-0.382932,-0.227633,0.969233,0.144646,0.375715,-37.628437,4.842026,18.625975,0.279630,1.800033,0.087753,0.000000,0.000000,0.000000,0.000000,0.000000,0.000000
13287724.000000,-0.260320,0.589375,0.326095,-1.506323,-0.207796,2.061851,0.116419,0.018064,0.518916,-0.093485,-0.381332,-0.224147,0.963778,0.147789,0.328107,-37.533222,4.842026,18.550596,0.320829,1.786300,0.048385,0.000000,0.000000,0.000000,0.000000,0.000000,0.000000
13287725.000000,-0.260292,0.589905,0.325996,-1.506691,-0.208028,2.062812,0.116561,0.025073,0.518991,-0.093806,-0.376007,-0.226676,0.962154,0.148009,0.228925,-37.362629,4.941208,18.451414,0.374845,1.793624,0.061202,0.000000,0.000000,0.000000,0.000000,0.000000,0.000000
13287726.000000,-0.260272,0.590425,0.325905,-1.507054,-0.208258,2.063769,0.116703,0.024114,0.518294,-0.091578,-0.368766,-0.227363,0.959574,0.147721,0.252729,-37.287251,4.917404,18.352232,0.386747,1.877853,0.081344,0.000000,0.000000,0.000000,0.000000,0.000000,0.000000
13287727.000000,-0.260239,0.590947,0.325822,-1.507411,-0.208486,2.064743,0.116845,0.027091,0.511827,-0.088259,-0.362573,-0.234997,0.966158,0.151592,0.129743,-37.140461,4.818222,18.229246,0.344633,1.844894,0.100570,0.000000,0.000000,0.000000,0.000000,0.000000,0.000000
13287728.000000,-0.260212,0.591492,0.325732,-1.507774,-0.208714,2.065697,0.116992,0.024301,0.528854,-0.090941,-0.357178,-0.236837,0.963099,0.148921,0.078168,-37.140461,4.794418,18.229246,0.261320,1.779891,0.041976,0.000000,0.000000,0.000000,0.000000,0.000000,0.000000
13287729.000000,-0.260182,0.592029,0.325644,-1.508128,-0.208951,2.066661,0.117127,0.028490,0.528600,-0.091557,-0.366580,-0.233541,0.962209,0.141991,0.030561,-37.263447,4.719040,18.205442,0.243009,1.754256,0.107894,0.000000,0.000000,0.000000,0.000000,0.000000,0.000000
13287730.000000,-0.260153,0.592566,0.325554,-1.508474,-0.209185,2.067610,0.117274,0.028447,0.524838,-0.090383,-0.360001,-0.237254,0.978828,0.141837,-0.017047,-37.311054,4.695236,18.054686,0.255826,1.793624,0.048385,0.000000,0.000000,0.000000,0.000000,0.000000,0.000000
13287731.000000,-0.260125,0.593120,0.325470,-1.508826,-0.209425,2.068558,0.117422,0.030519,0.536849,-0.090815,-0.360488,-0.236330,0.971261,0.144428,-0.017047,-37.533222,4.596054,18.007078,0.303434,1.897079,0.028243,0.000000,0.000000,0.000000,0.000000,0.000000,0.000000
13287732.000000,-0.260102,0.593676,0.325376,-1.509173,-0.209662,2.069511,0.117556,0.027856,0.537022,-0.090332,-0.356233,-0.240051,0.965727,0.137953,0.030561,-37.680012,4.596054,17.884092,0.297025,1.981307,0.120712,0.000000,0.000000,0.000000,0.000000,0.000000,0.000000
13287733.000000,-0.260072,0.594233,0.325290,-1.509525,-0.209902,2.070467,0.117708,0.027689,0.543086,-0.088338,-0.355282,-0.240724,0.960512,0.144049,0.006757,-37.703815,4.524643,17.884092,0.279630,1.877853,0.048385,0.000000,0.000000,0.000000,0.000000,0.000000,0.000000
13287734.000000,-0.260040,0.594785,0.325199,-1.509874,-0.210144,2.071444,0.117846,0.027574,0.543363,-0.087990,-0.349837,-0.242104,0.960804,0.143448,-0.017047,-37.656208,4.500839,17.784910,0.291532,1.721298,0.100570,0.000000,0.000000,0.000000,0.000000,0.000000,0.000000
13287735.000000,-0.260014,0.595339,0.325114,-1.510216,-0.210379,2.072414,0.117984,0.025760,0.542014,-0.086432,-0.348457,-0.242488,0.963523,0.145409,0.030561,-37.628437,4.425461,17.685728,0.273221,1.656295,0.100570,0.000000,0.000000,0.000000,0.000000,0.000000,0.000000
13287736.000000,-0.259990,0.595906,0.325037,-1.510550,-0.210618,2.073349,0.118132,0.023725,0.547434,-0.084332,-0.342567,-0.240154,0.960946,0.144570,0.105939,-37.874409,4.302475,17.388182,0.308927,1.708480,0.041976,0.000000,0.000000,0.000000,0.000000,0.000000,0.000000
13287737.000000,-0.259961,0.596486,0.324956,-1.510886,-0.210852,2.074288,0.118263,0.027420,0.553909,-0.083176,-0.338793,-0.239832,0.947893,0.138391,0.105939,-38.096577,4.203293,17.213621,0.267728,1.779891,0.120712,0.000000,0.000000,0.000000,0.000000,0.000000,0.000000
13287738.000000,-0.259932,0.597058,0.324874,-1.511226,-0.211093,2.075233,0.118411,0.026224,0.563915,-0.083229,-0.341482,-0.242464,0.944744,0.144346,0.129743,-38.215595,4.131882,17.142210,0.255826,1.721298,0.048385,0.000000,0.000000,0.000000,0.000000,0.000000,0.000000
13287739.000000,-0.259903,0.597631,0.324788,-1.511559,-0.211328,2.076200,0.118554,0.029226,0.566159,-0.084924,-0.337036,-0.241828,0.944947,0.141006,0.129743,-38.461567,4.131882,16.943846,0.231107,1.584884,0.041976,0.000000,0.000000,0.000000,0.000000,0.000000,0.000000
13287740.000000,-0.259877,0.598218,0.324698,-1.511888,-0.211555,2.077163,0.118697,0.030343,0.568842,-0.086516,-0.334528,-0.239661,0.958855,0.142538,0.177350,-38.659931,4.155685,16.892271,0.183500,1.494247,0.067611,0.000000,0.000000,0.000000,0.000000,0.000000,0.000000
13287741.000000,-0.259853,0.598793,0.324612,-1.512219,-0.211794,2.078094,0.118842,0.030025,0.579608,-0.089618,-0.328756,-0.238304,0.949708,0.143461,0.276533,-38.755146,4.131882,16.721678,0.225614,1.500655,0.100570,0.000000,0.000000,0.000000,0.000000,0.000000,0.000000
13287742.000000,-0.259821,0.599381,0.324518,-1.512555,-0.212031,2.079025,0.118992,0.028812,0.578801,-0.090363,-0.329275,-0.240062,0.945924,0.142495,0.276533,-38.878132,4.179489,16.721678,0.219205,1.637069,0.054794,0.000000,0.000000,0.000000,0.000000,0.000000,0.000000
13287743.000000,-0.259793,0.599983,0.324427,-1.512875,-0.212277,2.079967,0.119141,0.026881,0.580097,-0.092944,-0.327931,-0.239175,0.946721,0.145014,0.328107,-39.124104,4.203293,16.523314,0.285123,1.605026,0.041976,0.000000,0.000000,0.000000,0.000000,0.000000,0.000000
13287744.000000,-0.259765,0.600574,0.324332,-1.513213,-0.212515,2.080911,0.119281,0.026188,0.582297,-0.093469,-0.332162,-0.239606,0.945547,0.143308,0.351911,-39.294697,4.278671,16.547117,0.267728,1.624252,0.114303,0.000000,0.000000,0.000000,0.000000,0.000000,0.000000
13287745.000000,-0.259737,0.601164,0.324237,-1.513543,-0.212744,2.081863,0.119432,0.028065,0.580572,-0.093555,-0.331511,-0.238548,0.949758,0.151270,0.403486,-39.393879,4.350082,16.547117,0.201810,1.611434,0.061202,0.000000,0.000000,0.000000,0.000000,0.000000,0.000000
13287746.000000,-0.259711,0.601773,0.324149,-1.513888,-0.212970,2.082803,0.119574,0.029064,0.592827,-0.090861,-0.332669,-0.230646,0.937083,0.150346,0.474897,-39.659687,4.302475,16.646299,0.178007,1.532699,0.081344,0.000000,0.000000,0.000000,0.000000,0.000000,0.000000
13287747.000000,-0.259681,0.602370,0.324047,-1.514217,-0.213207,2.083761,0.119718,0.028370,0.590602,-0.095399,-0.336265,-0.234331,0.940696,0.149059,0.474897,-39.834248,4.401657,16.670103,0.178007,1.448470,0.114303,0.000000,0.000000,0.000000,0.000000,0.000000,0.000000
13287748.000000,-0.259653,0.602972,0.323941,-1.514541,-0.213449,2.084707,0.119874,0.026530,0.593033,-0.099399,-0.334751,-0.235322,0.938491,0.151358,0.526471,-39.905659,4.524643,16.570921,0.159696,1.507064,0.067611,0.000000,0.000000,0.000000,0.000000,0.000000,0.000000
13287749.000000,-0.259625,0.603563,0.323838,-1.514875,-0.213695,2.085630,0.120019,0.025310,0.590048,-0.098373,-0.330453,-0.234489,0.937766,0.154071,0.574079,-39.905659,4.619858,16.598692,0.195402,1.559249,0.107894,0.000000,0.000000,0.000000,0.000000,0.000000,0.000000
13287750.000000,-0.259591,0.604167,0.323729,-1.515192,-0.213945,2.086560,0.120175,0.029214,0.582465,-0.101115,-0.327420,-0.239770,0.926161,0.155925,0.550275,-39.957233,4.742844,16.499510,0.255826,1.630660,0.041976,0.000000,0.000000,0.000000,0.000000,0.000000,0.000000
13287751.000000,-0.259566,0.604778,0.323621,-1.515521,-0.214182,2.087486,0.120318,0.029087,0.597459,-0.102861,-0.323512,-0.240857,0.924423,0.153515,0.649457,-40.028645,4.842026,16.471739,0.249418,1.695663,0.067611,0.000000,0.000000,0.000000,0.000000,0.000000,0.000000
13287752.000000,-0.259536,0.605374,0.323508,-1.515851,-0.214428,2.088433,0.120464,0.030695,0.594980,-0.105173,-0.322563,-0.246566,0.928388,0.150843,0.673261,-40.076252,4.988815,16.499510,0.255826,1.611434,0.114303,0.000000,0.000000,0.000000,0.000000,0.000000,0.000000
13287753.000000,-0.259499,0.605975,0.323397,-1.516175,-0.214673,2.089389,0.120610,0.031194,0.590903,-0.105741,-0.324954,-0.249069,0.936359,0.151976,0.601850,-40.028645,5.087997,16.547117,0.201810,1.513473,0.087753,0.000000,0.000000,0.000000,0.000000,0.000000,0.000000
13287754.000000,-0.259476,0.606574,0.323292,-1.516507,-0.214922,2.090309,0.120761,0.029984,0.588534,-0.104449,-0.324524,-0.246816,0.931963,0.153580,0.724836,-39.981037,5.111801,16.670103,0.159696,1.559249,0.048385,0.000000,0.000000,0.000000,0.000000,0.000000,0.000000
13287755.000000,-0.259444,0.607189,0.323182,-1.516824,-0.215176,2.091241,0.120905,0.028982,0.591566,-0.104047,-0.321772,-0.247847,0.925216,0.151516,0.724836,-40.004841,5.163376,16.670103,0.189908,1.649886,0.081344,0.000000,0.000000,0.000000,0.000000,0.000000,0.000000
13287756.000000,-0.259408,0.607786,0.323064,-1.517158,-0.215415,2.092150,0.121053,0.031930,0.601004,-0.106225,-0.326101,-0.247008,0.921027,0.151107,0.697065,-39.758869,5.310165,16.793089,0.183500,1.779891,0.087753,0.000000,0.000000,0.000000,0.000000,0.000000,0.000000
13287757.000000,-0.259375,0.608376,0.322949,-1.517488,-0.215667,2.093079,0.121212,0.029673,0.594449,-0.106513,-0.325770,-0.252633,0.923352,0.153082,0.724836,-39.512897,5.405380,16.920042,0.231107,1.773483,0.021835,0.000000,0.000000,0.000000,0.000000,0.000000,0.000000
13287758.000000,-0.259343,0.608967,0.322832,-1.517818,-0.215921,2.094011,0.121351,0.030561,0.581981,-0.112081,-0.330149,-0.258731,0.923029,0.149890,0.772443,-39.195515,5.456955,17.114439,0.231107,1.747848,0.087753,0.000000,0.000000,0.000000,0.000000,0.000000,0.000000
13287759.000000,-0.259305,0.609570,0.322711,-1.518147,-0.216178,2.094923,0.121500,0.034272,0.601321,-0.114191,-0.328238,-0.256125,0.919889,0.150616,0.697065,-39.100300,5.556137,17.241392,0.255826,1.741439,0.074935,0.000000,0.000000,0.000000,0.000000,0.000000,0.000000
13287760.000000,-0.259273,0.610169,0.322596,-1.518468,-0.216434,2.095840,0.121651,0.031285,0.596510,-0.113249,-0.322578,-0.255317,0.912750,0.151602,0.724836,-38.977314,5.556137,17.312803,0.303434,1.793624,0.048385,0.000000,0.000000,0.000000,0.000000,0.000000,0.000000
13287761.000000,-0.259241,0.610780,0.322482,-1.518795,-0.216678,2.096743,0.121792,0.031746,0.598028,-0.115933,-0.323012,-0.252653,0.932480,0.149575,0.772443,-39.001118,5.579941,17.312803,0.303434,1.844894,0.094161,0.000000,0.000000,0.000000,0.000000,0.000000,0.000000
13287762.000000,-0.259206,0.611381,0.322367,-1.519127,-0.216925,2.097655,0.121945,0.033398,0.593119,-0.115039,-0.324754,-0.254222,0.922508,0.152626,0.772443,-38.901936,5.579941,17.487364,0.273221,1.832076,0.015426,0.000000,0.000000,0.000000,0.000000,0.000000,0.000000
13287763.000000,-0.259172,0.611977,0.322252,-1.519448,-0.217182,2.098580,0.122085,0.034009,0.588220,-0.113791,-0.324973,-0.253557,0.915407,0.150041,0.796247,-38.584553,5.556137,17.634153,0.308927,1.754256,0.048385,0.000000,0.000000,0.000000,0.000000,0.000000,0.000000
13287764.000000,-0.259139,0.612568,0.322140,-1.519777,-0.217435,2.099489,0.122232,0.034357,0.595932,-0.112955,-0.325232,-0.251542,0.908746,0.148991,0.824018,-38.215595,5.528366,17.808714,0.303434,1.735030,0.081344,0.000000,0.000000,0.000000,0.000000,0.000000,0.000000
13287765.000000,-0.259106,0.613161,0.322022,-1.520098,-0.217688,2.100387,0.122385,0.034796,0.592614,-0.113499,-0.329337,-0.249333,0.907044,0.146119,0.847822,-38.045002,5.556137,17.931700,0.297025,1.838485,0.041976,0.000000,0.000000,0.000000,0.000000,0.000000,0.000000
13287766.000000,-0.259076,0.613764,0.321907,-1.520416,-0.217935,2.101292,0.122530,0.033896,0.590426,-0.111623,-0.323850,-0.244307,0.899704,0.145798,0.923200,-37.973591,5.480759,17.884092,0.315336,1.909896,0.081344,0.000000,0.000000,0.000000,0.000000,0.000000,0.000000
13287767.000000,-0.259037,0.614375,0.321794,-1.520741,-0.218180,2.102189,0.122678,0.035758,0.599149,-0.111580,-0.323303,-0.242804,0.899843,0.147876,0.895429,-38.021198,5.456955,17.983274,0.267728,1.962081,0.054794,0.000000,0.000000,0.000000,0.000000,0.000000,0.000000
13287768.000000,-0.259003,0.614985,0.321689,-1.521054,-0.218434,2.103111,0.122823,0.035703,0.601550,-0.110135,-0.323113,-0.247658,0.899145,0.146649,0.923200,-38.068806,5.381577,18.078489,0.249418,1.858627,0.107894,0.000000,0.000000,0.000000,0.000000,0.000000,0.000000
13287769.000000,-0.258965,0.615604,0.321584,-1.521380,-0.218691,2.104025,0.122979,0.036262,0.610938,-0.105859,-0.323546,-0.248040,0.910159,0.146546,0.923200,-38.144184,5.286362,18.229246,0.267728,1.741439,0.015426,0.000000,0.000000,0.000000,0.000000,0.000000,0.000000
13287770.000000,-0.258929,0.616214,0.321478,-1.521701,-0.218948,2.104931,0.123118,0.036172,0.604627,-0.106308,-0.322747,-0.248272,0.903784,0.139434,0.947004,-38.144184,5.210983,18.304625,0.291532,1.735030,0.094161,0.000000,0.000000,0.000000,0.000000,0.000000,0.000000
13287771.000000,-0.258896,0.616827,0.321366,-1.522015,-0.219201,2.105843,0.123261,0.034768,0.603257,-0.105828,-0.323093,-0.250477,0.900943,0.142629,1.022382,-38.068806,5.234787,18.304625,0.369352,1.819259,0.087753,0.000000,0.000000,0.000000,0.000000,0.000000,0.000000
13287772.000000,-0.258849,0.617434,0.321266,-1.522333,-0.219460,2.106739,0.123416,0.038594,0.614907,-0.104991,-0.319260,-0.254157,0.899437,0.146891,0.895429,-38.045002,5.111801,18.276854,0.381254,1.897079,0.041976,0.000000,0.000000,0.000000,0.000000,0.000000,0.000000
13287773.000000,-0.258811,0.618053,0.321155,-1.522644,-0.219720,2.107640,0.123564,0.038810,0.608381,-0.104127,-0.314871,-0.256195,0.902151,0.146500,0.871625,-38.045002,5.111801,18.276854,0.369352,1.968490,0.074935,0.000000,0.000000,0.000000,0.000000,0.000000,0.000000
13287774.000000,-0.258768,0.618678,0.321055,-1.522965,-0.219965,2.108540,0.123718,0.039311,0.604396,-0.104394,-0.315594,-0.250706,0.898896,0.149160,0.824018,-38.096577,5.012619,18.304625,0.291532,1.974899,0.034652,0.000000,0.000000,0.000000,0.000000,0.000000,0.000000
13287775.000000,-0.258725,0.619306,0.320950,-1.523282,-0.220216,2.109468,0.123863,0.039983,0.611715,-0.100110,-0.315470,-0.247108,0.900318,0.147681,0.772443,-38.267170,4.988815,18.304625,0.237516,1.871444,0.074935,0.000000,0.000000,0.000000,0.000000,0.000000,0.000000
13287776.000000,-0.258677,0.619934,0.320846,-1.523595,-0.220460,2.110393,0.124015,0.044145,0.616840,-0.102491,-0.315344,-0.248938,0.904627,0.149567,0.697065,-38.338581,4.941208,18.304625,0.225614,1.793624,0.048385,0.000000,0.000000,0.000000,0.000000,0.000000,0.000000
13287777.000000,-0.258639,0.620559,0.320744,-1.523910,-0.220719,2.111287,0.124165,0.041032,0.622496,-0.101782,-0.310621,-0.258216,0.903236,0.150636,0.748639,-38.267170,4.917404,18.276854,0.237516,1.844894,0.028243,0.000000,0.000000,0.000000,0.000000,0.000000,0.000000
13287778.000000,-0.258591,0.621174,0.320639,-1.524209,-0.220987,2.112185,0.124310,0.044306,0.612077,-0.104581,-0.302058,-0.261876,0.896152,0.149157,0.697065,-38.120380,4.917404,18.205442,0.297025,1.897079,0.067611,0.000000,0.000000,0.000000,0.000000,0.000000,0.000000
13287779.000000,-0.258545,0.621798,0.320537,-1.524511,-0.221250,2.113072,0.124458,0.046158,0.610080,-0.103253,-0.303602,-0.264507,0.911262,0.142980,0.673261,-37.973591,4.893600,18.130064,0.356534,1.942855,0.041976,0.000000,0.000000,0.000000,0.000000,0.000000,0.000000
13287780.000000,-0.258499,0.622426,0.320431,-1.524810,-0.221506,2.113982,0.124604,0.047649,0.614391,-0.106461,-0.297992,-0.258197,0.913104,0.142877,0.649457,-38.045002,4.917404,18.030882,0.308927,1.903487,0.087753,0.000000,0.000000,0.000000,0.000000,0.000000,0.000000
13287781.000000,-0.258445,0.623062,0.320327,-1.525104,-0.221762,2.114891,0.124763,0.047327,0.618186,-0.103772,-0.298857,-0.258512,0.910006,0.151937,0.550275,-38.120380,4.865829,18.007078,0.273221,1.806442,0.028243,0.000000,0.000000,0.000000,0.000000,0.000000,0.000000
13287782.000000,-0.258387,0.623712,0.320221,-1.525398,-0.222026,2.115794,0.124907,0.051820,0.632003,-0.107000,-0.294161,-0.264520,0.906984,0.149772,0.375715,-38.338581,4.893600,17.907896,0.255826,1.727706,0.074935,0.000000,0.000000,0.000000,0.000000,0.000000,0.000000
13287783.000000,-0.258337,0.624364,0.320120,-1.525684,-0.222293,2.116701,0.125061,0.048885,0.636813,-0.104687,-0.292244,-0.264368,0.902851,0.150426,0.328107,-38.608356,4.865829,17.856321,0.255826,1.682845,0.061202,0.000000,0.000000,0.000000,0.000000,0.000000,0.000000
13287784.000000,-0.258288,0.625011,0.320019,-1.525972,-0.222557,2.117600,0.125213,0.049394,0.642060,-0.102190,-0.291904,-0.266175,0.902182,0.151230,0.304304,-38.683735,4.794418,17.856321,0.303434,1.735030,0.041976,0.000000,0.000000,0.000000,0.000000,0.000000,0.000000
13287785.000000,-0.258236,0.625641,0.319908,-1.526266,-0.222818,2.118482,0.125362,0.049903,0.647199,-0.103682,-0.291699,-0.262998,0.900677,0.149963,0.276533,-38.632160,4.865829,17.884092,0.356534,1.806442,0.067611,0.000000,0.000000,0.000000,0.000000,0.000000,0.000000
13287786.000000,-0.258182,0.626294,0.319802,-1.526556,-0.223087,2.119391,0.125519,0.050865,0.643323,-0.105876,-0.292826,-0.269158,0.897627,0.151561,0.228925,-38.731342,4.865829,17.955503,0.393156,1.786300,0.034652,0.000000,0.000000,0.000000,0.000000,0.000000,0.000000
13287787.000000,-0.258131,0.626935,0.319693,-1.526852,-0.223349,2.120281,0.125666,0.053514,0.642204,-0.108934,-0.294504,-0.266128,0.895533,0.150262,0.228925,-38.632160,4.917404,18.078489,0.351041,1.786300,0.061202,0.000000,0.000000,0.000000,0.000000,0.000000,0.000000
13287788.000000,-0.258076,0.627587,0.319583,-1.527148,-0.223610,2.121191,0.125819,0.053118,0.644663,-0.110009,-0.292715,-0.264113,0.907932,0.150365,0.205121,-38.755146,4.917404,18.177671,0.291532,1.760665,0.054794,0.000000,0.000000,0.000000,0.000000,0.000000,0.000000
13287789.000000,-0.258017,0.628249,0.319476,-1.527442,-0.223875,2.122092,0.125975,0.054332,0.647390,-0.109529,-0.289306,-0.265177,0.898119,0.152994,0.105939,-38.953510,4.865829,18.352232,0.315336,1.760665,0.028243,0.000000,0.000000,0.000000,0.000000,0.000000,0.000000
13287790.000000,-0.257963,0.628888,0.319366,-1.527730,-0.224134,2.122988,0.126126,0.053015,0.658406,-0.110433,-0.290756,-0.261055,0.900205,0.155025,0.105939,-38.953510,4.865829,18.451414,0.308927,1.767074,0.081344,0.000000,0.000000,0.000000,0.000000,0.000000,0.000000
13287791.000000,-0.257913,0.629527,0.319261,-1.528013,-0.224409,2.123892,0.126286,0.051026,0.644367,-0.106826,-0.287653,-0.263978,0.895859,0.154966,0.153547,-38.755146,4.818222,18.499022,0.362943,1.767074,0.054794,0.000000,0.000000,0.000000,0.000000,0.000000,0.000000
13287792.000000,-0.257862,0.630176,0.319151,-1.528293,-0.224679,2.124774,0.126441,0.050101,0.635364,-0.110498,-0.284642,-0.266728,0.894463,0.153997,0.177350,-38.632160,4.794418,18.499022,0.434354,1.767074,0.054794,0.000000,0.000000,0.000000,0.000000,0.000000,0.000000
13287793.000000,-0.257811,0.630825,0.319040,-1.528578,-0.224946,2.125665,0.126599,0.052362,0.638629,-0.108205,-0.286697,-0.266519,0.885712,0.153128,0.205121,-38.584553,4.794418,18.550596,0.470060,1.838485,0.048385,0.000000,0.000000,0.000000,0.000000,0.000000,0.000000
13287794.000000,-0.257757,0.631478,0.318932,-1.528855,-0.225203,2.126562,0.126752,0.051941,0.639703,-0.108270,-0.280933,-0.263842,0.888548,0.160548,0.205121,-38.513142,4.742844,18.550596,0.410551,1.923629,0.061202,0.000000,0.000000,0.000000,0.000000,0.000000,0.000000
13287795.000000,-0.257706,0.632134,0.318820,-1.529128,-0.225450,2.127449,0.126908,0.053571,0.653754,-0.109620,-0.276005,-0.261599,0.894706,0.159734,0.252729,-38.513142,4.742844,18.550596,0.344633,1.916305,0.015426,0.000000,0.000000,0.000000,0.000000,0.000000,0.000000
13287796.000000,-0.257655,0.632786,0.318706,-1.529396,-0.225709,2.128355,0.127055,0.054883,0.650268,-0.110488,-0.276665,-0.259833,0.901697,0.156685,0.304304,-38.513142,4.742844,18.574400,0.273221,1.890670,0.034652,0.000000,0.000000,0.000000,0.000000,0.000000,0.000000
13287797.000000,-0.257604,0.633441,0.318598,-1.529660,-0.225968,2.129243,0.127203,0.052169,0.642769,-0.109706,-0.272511,-0.261696,0.916189,0.154065,0.375715,-38.413960,4.671432,18.526793,0.279630,1.903487,0.067611,0.000000,0.000000,0.000000,0.000000,0.000000,0.000000
13287798.000000,-0.257550,0.634080,0.318491,-1.529922,-0.226232,2.130141,0.127362,0.051341,0.638162,-0.107662,-0.269104,-0.259710,0.910260,0.155024,0.403486,-38.120380,4.671432,18.475218,0.332731,1.890670,0.015426,0.000000,0.000000,0.000000,0.000000,0.000000,0.000000
13287799.000000,-0.257505,0.634725,0.318380,-1.530176,-0.226492,2.131041,0.127508,0.048987,0.633491,-0.106369,-0.266327,-0.257711,0.907417,0.152561,0.502668,-37.826801,4.695236,18.399839,0.374845,1.923629,0.054794,0.000000,0.000000,0.000000,0.000000,0.000000,0.000000
13287800.000000,-0.257460,0.635372,0.318279,-1.530432,-0.226752,2.131919,0.127654,0.046694,0.644460,-0.102690,-0.263714,-0.261167,0.898682,0.152477,0.625654,-37.604633,4.596054,18.328428,0.422452,1.909896,0.048385,0.000000,0.000000,0.000000,0.000000,0.000000,0.000000
13287801.000000,-0.257408,0.636006,0.318166,-1.530684,-0.227010,2.132813,0.127805,0.051274,0.635907,-0.106002,-0.259553,-0.258292,0.896708,0.151490,0.625654,-37.362629,4.619858,18.276854,0.339139,1.871444,0.054794,0.000000,0.000000,0.000000,0.000000,0.000000,0.000000
13287802.000000,-0.257349,0.636659,0.318051,-1.530926,-0.227268,2.133706,0.127954,0.053135,0.630651,-0.108538,-0.253773,-0.258627,0.894420,0.152620,0.550275,-37.287251,4.647629,18.229246,0.303434,1.884261,0.021835,0.000000,0.000000,0.000000,0.000000,0.000000,0.000000
13287803.000000,-0.257298,0.637305,0.317941,-1.531169,-0.227527,2.134570,0.128101,0.050754,0.645604,-0.109781,-0.250723,-0.259082,0.891176,0.151779,0.625654,-37.116657,4.647629,18.130064,0.273221,1.930038,0.028243,0.000000,0.000000,0.000000,0.000000,0.000000,0.000000
13287804.000000,-0.257249,0.637941,0.317827,-1.531403,-0.227782,2.135452,0.128246,0.052893,0.638590,-0.110502,-0.246040,-0.255085,0.883758,0.149228,0.673261,-36.676289,4.647629,18.030882,0.249418,1.981307,0.087753,0.000000,0.000000,0.000000,0.000000,0.000000,0.000000
13287805.000000,-0.257194,0.638574,0.317713,-1.531628,-0.228046,2.136329,0.128405,0.051856,0.643310,-0.108696,-0.237561,-0.258860,0.881116,0.152660,0.697065,-36.235920,4.671432,17.856321,0.279630,1.962081,0.009017,0.000000,0.000000,0.000000,0.000000,0.000000,0.000000
13287806.000000,-0.257144,0.639214,0.317601,-1.531863,-0.228319,2.137207,0.128554,0.054194,0.642217,-0.109852,-0.233313,-0.261077,0.889031,0.149854,0.724836,-36.013752,4.671432,17.757139,0.308927,1.942855,0.061202,0.000000,0.000000,0.000000,0.000000,0.000000,0.000000
13287807.000000,-0.257088,0.639873,0.317489,-1.532079,-0.228584,2.138098,0.128701,0.056950,0.636721,-0.110092,-0.227773,-0.269492,0.881477,0.148903,0.697065,-36.013752,4.647629,17.562742,0.303434,1.877853,0.100570,0.000000,0.000000,0.000000,0.000000,0.000000,0.000000
13287808.000000,-0.257039,0.640545,0.317378,-1.532293,-0.228850,2.138974,0.128861,0.053483,0.652755,-0.107124,-0.221875,-0.264998,0.878960,0.152217,0.772443,-36.136738,4.619858,17.435789,0.320829,1.851302,0.028243,0.000000,0.000000,0.000000,0.000000,0.000000,0.000000
13287809.000000,-0.256981,0.641214,0.317257,-1.532500,-0.229109,2.139864,0.129015,0.057177,0.656186,-0.110755,-0.217724,-0.265179,0.881830,0.150687,0.724836,-36.358906,4.719040,17.312803,0.332731,1.773483,0.054794,0.000000,0.000000,0.000000,0.000000,0.000000,0.000000
13287810.000000,-0.256925,0.641881,0.317144,-1.532702,-0.229368,2.140739,0.129170,0.055321,0.656983,-0.114428,-0.212955,-0.263926,0.888869,0.155686,0.724836,-36.477924,4.719040,17.114439,0.308927,1.754256,0.048385,0.000000,0.000000,0.000000,0.000000,0.000000,0.000000
13287811.000000,-0.256870,0.642541,0.317021,-1.532906,-0.229633,2.141627,0.129314,0.056723,0.656539,-0.116481,-0.211872,-0.258807,0.881061,0.147279,0.748639,-36.529499,4.818222,17.019224,0.303434,1.702071,0.107894,0.000000,0.000000,0.000000,0.000000,0.000000,0.000000
13287812.000000,-0.256811,0.643213,0.316907,-1.533109,-0.229892,2.142524,0.129474,0.056405,0.652277,-0.114767,-0.209469,-0.255868,0.884667,0.151262,0.697065,-36.577106,4.794418,16.991453,0.303434,1.656295,0.034652,0.000000,0.000000,0.000000,0.000000,0.000000,0.000000
13287813.000000,-0.256757,0.643894,0.316796,-1.533299,-0.230153,2.143402,0.129625,0.056736,0.664414,-0.113751,-0.207548,-0.257898,0.889593,0.149106,0.748639,-36.700092,4.770615,16.844664,0.297025,1.662704,0.087753,0.000000,0.000000,0.000000,0.000000,0.000000,0.000000
13287814.000000,-0.256700,0.644571,0.316681,-1.533489,-0.230415,2.144276,0.129787,0.057609,0.667280,-0.113438,-0.206379,-0.260292,0.882973,0.151160,0.748639,-36.894489,4.770615,16.745481,0.320829,1.689254,0.048385,0.000000,0.000000,0.000000,0.000000,0.000000,0.000000
13287815.000000,-0.256638,0.645258,0.316563,-1.533684,-0.230678,2.145150,0.129940,0.061185,0.671102,-0.113995,-0.202801,-0.261567,0.883011,0.151554,0.649457,-37.140461,4.794418,16.745481,0.327238,1.727706,0.034652,0.000000,0.000000,0.000000,0.000000,0.000000,0.000000
13287816.000000,-0.256576,0.645937,0.316451,-1.533868,-0.230938,2.146029,0.130083,0.063196,0.671148,-0.113194,-0.197839,-0.260852,0.879137,0.153504,0.574079,-37.287251,4.770615,16.670103,0.297025,1.741439,0.094161,0.000000,0.000000,0.000000,0.000000,0.000000,0.000000
13287817.000000,-0.256515,0.646620,0.316331,-1.534056,-0.231192,2.146913,0.130243,0.063400,0.669463,-0.120338,-0.197221,-0.258848,0.875146,0.155984,0.550275,-37.311054,4.818222,16.721678,0.213712,1.741439,0.015426,0.000000,0.000000,0.000000,0.000000,0.000000,0.000000
13287818.000000,-0.256449,0.647315,0.316208,-1.534230,-0.231444,2.147786,0.130385,0.061561,0.675870,-0.120341,-0.190947,-0.260125,0.867769,0.151844,0.474897,-37.362629,4.893600,16.547117,0.195402,1.773483,0.087753,0.000000,0.000000,0.000000,0.000000,0.000000,0.000000
13287819.000000,-0.256387,0.648007,0.316090,-1.534406,-0.231706,2.148670,0.130534,0.059005,0.678679,-0.118344,-0.188208,-0.261612,0.867858,0.146695,0.451093,-37.533222,4.893600,16.424131,0.207303,1.773483,0.087753,0.000000,0.000000,0.000000,0.000000,0.000000,0.000000
13287820.000000,-0.256328,0.648721,0.315973,-1.534580,-0.231974,2.149553,0.130683,0.056054,0.690327,-0.119391,-0.182511,-0.264041,0.871996,0.148984,0.474897,-37.850605,4.865829,16.277342,0.255826,1.793624,0.054794,0.000000,0.000000,0.000000,0.000000,0.000000,0.000000
13287821.000000,-0.256266,0.649425,0.315853,-1.534754,-0.232231,2.150426,0.130835,0.058253,0.705887,-0.120938,-0.175924,-0.258461,0.872987,0.148679,0.451093,-38.167988,4.865829,16.178160,0.231107,1.747848,0.074935,0.000000,0.000000,0.000000,0.000000,0.000000,0.000000
13287822.000000,-0.256205,0.650157,0.315735,-1.534926,-0.232492,2.151312,0.130993,0.059308,0.711972,-0.120265,-0.178143,-0.261872,0.866710,0.150812,0.451093,-38.778950,4.794418,16.102781,0.267728,1.630660,0.034652,0.000000,0.000000,0.000000,0.000000,0.000000,0.000000
13287823.000000,-0.256138,0.650888,0.315614,-1.535097,-0.232740,2.152185,0.131141,0.060562,0.722566,-0.119804,-0.174072,-0.261280,0.869578,0.149773,0.427289,-39.171711,4.842026,15.928221,0.237516,1.552840,0.061202,0.000000,0.000000,0.000000,0.000000,0.000000,0.000000
13287824.000000,-0.256074,0.651602,0.315489,-1.535275,-0.232996,2.153067,0.131289,0.063732,0.715639,-0.121349,-0.172317,-0.263176,0.877422,0.149386,0.427289,-39.393879,4.842026,15.928221,0.154203,1.494247,0.067611,0.000000,0.000000,0.000000,0.000000,0.000000,0.000000
13287825.000000,-0.256006,0.652342,0.315363,-1.535443,-0.233266,2.153940,0.131439,0.064459,0.714681,-0.119901,-0.170141,-0.265770,0.864824,0.149281,0.375715,-39.810444,4.865829,15.904417,0.201810,1.500655,0.081344,0.000000,0.000000,0.000000,0.000000,0.000000,0.000000
13287826.000000,-0.255942,0.653084,0.315237,-1.535615,-0.233534,2.154798,0.131591,0.063272,0.726121,-0.119970,-0.169173,-0.266497,0.866717,0.150886,0.403486,-40.151630,4.941208,15.928221,0.207303,1.597701,0.067611,0.000000,0.000000,0.000000,0.000000,0.000000,0.000000
13287827.000000,-0.255879,0.653811,0.315114,-1.535789,-0.233803,2.155673,0.131745,0.065797,0.725611,-0.124112,-0.169853,-0.266485,0.870428,0.151567,0.427289,-40.369831,4.941208,16.003599,0.219205,1.597701,0.048385,0.000000,0.000000,0.000000,0.000000,0.000000,0.000000
13287828.000000,-0.255817,0.654541,0.314994,-1.535971,-0.234071,2.156528,0.131892,0.064305,0.722477,-0.126260,-0.175492,-0.265482,0.875866,0.150368,0.451093,-40.516621,4.917404,16.178160,0.243009,1.559249,0.074935,0.000000,0.000000,0.000000,0.000000,0.000000,0.000000
13287829.000000,-0.255747,0.655266,0.314863,-1.536156,-0.234352,2.157398,0.132049,0.065823,0.720898,-0.124700,-0.177281,-0.269786,0.873130,0.155356,0.375715,-40.691181,4.988815,16.400328,0.249418,1.605026,0.061202,0.000000,0.000000,0.000000,0.000000,0.000000,0.000000
13287830.000000,-0.255681,0.655986,0.314739,-1.536335,-0.234631,2.158261,0.132205,0.064307,0.715416,-0.124153,-0.177265,-0.270673,0.870449,0.157503,0.403486,-40.615803,4.965012,16.570921,0.255826,1.670028,0.074935,0.000000,0.000000,0.000000,0.000000,0.000000,0.000000
13287831.000000,-0.255619,0.656724,0.314609,-1.536515,-0.234900,2.159108,0.132359,0.065827,0.725416,-0.125753,-0.176338,-0.267869,0.863416,0.156791,0.451093,-40.738789,5.012619,16.721678,0.225614,1.721298,0.048385,0.000000,0.000000,0.000000,0.000000,0.000000,0.000000
13287832.000000,-0.255553,0.657458,0.314480,-1.536685,-0.235166,2.159968,0.132511,0.067530,0.721665,-0.125441,-0.178263,-0.272401,0.851768,0.153887,0.451093,-40.933186,5.012619,16.745481,0.225614,1.800033,0.081344,0.000000,0.000000,0.000000,0.000000,0.000000,0.000000
13287833.000000,-0.255486,0.658195,0.314351,-1.536867,-0.235439,2.160831,0.132669,0.066975,0.716550,-0.125578,-0.177359,-0.274809,0.850669,0.154419,0.427289,-41.032368,5.012619,16.892271,0.213712,1.844894,0.048385,0.000000,0.000000,0.000000,0.000000,0.000000,0.000000
13287834.000000,-0.255421,0.658927,0.314220,-1.537048,-0.235716,2.161695,0.132825,0.064942,0.727727,-0.130514,-0.176014,-0.278602,0.865259,0.152824,0.474897,-41.131550,5.087997,17.019224,0.189908,1.708480,0.061202,0.000000,0.000000,0.000000,0.000000,0.000000,0.000000
13287835.000000,-0.255354,0.659684,0.314085,-1.537221,-0.236000,2.162567,0.132975,0.064533,0.728208,-0.129992,-0.173947,-0.277040,0.859777,0.150881,0.474897,-41.373554,5.135605,17.090635,0.237516,1.584884,0.100570,0.000000,0.000000,0.000000,0.000000,0.000000,0.000000
13287836.000000,-0.255286,0.660427,0.313954,-1.537395,-0.236279,2.163412,0.133128,0.066551,0.742262,-0.129384,-0.172766,-0.278011,0.856171,0.156674,0.502668,-41.373554,5.163376,17.189817,0.327238,1.643478,0.074935,0.000000,0.000000,0.000000,0.000000,0.000000,0.000000
13287837.000000,-0.255223,0.661154,0.313820,-1.537566,-0.236560,2.164261,0.133283,0.067218,0.739019,-0.132091,-0.172590,-0.280627,0.856486,0.153655,0.574079,-41.278339,5.187180,17.166014,0.386747,1.708480,0.107894,0.000000,0.000000,0.000000,0.000000,0.000000,0.000000
13287838.000000,-0.255154,0.661890,0.313681,-1.537733,-0.236837,2.165110,0.133449,0.066349,0.734480,-0.134641,-0.169938,-0.274019,0.853139,0.161228,0.574079,-41.202961,5.234787,17.166014,0.381254,1.779891,0.015426,0.000000,0.000000,0.000000,0.000000,0.000000,0.000000
13287839.000000,-0.255081,0.662621,0.313553,-1.537900,-0.237114,2.165958,0.133596,0.070516,0.741537,-0.135434,-0.168358,-0.270229,0.857066,0.150257,0.502668,-41.032368,5.234787,17.189817,0.351041,1.779891,0.107894,0.000000,0.000000,0.000000,0.000000,0.000000,0.000000
13287840.000000,-0.255010,0.663339,0.313417,-1.538073,-0.237375,2.166817,0.133754,0.069785,0.733180,-0.136956,-0.166960,-0.263800,0.862021,0.150466,0.451093,-40.861774,5.286362,17.312803,0.219205,1.747848,0.107894,0.000000,0.000000,0.000000,0.000000,0.000000,0.000000
13287841.000000,-0.254942,0.664058,0.313285,-1.538243,-0.237635,2.167668,0.133912,0.070376,0.722444,-0.137162,-0.171439,-0.262528,0.856103,0.151856,0.474897,-40.568195,5.286362,17.411985,0.171598,1.714889,0.074935,0.000000,0.000000,0.000000,0.000000,0.000000,0.000000
13287842.000000,-0.254873,0.664753,0.313154,-1.538416,-0.237919,2.168515,0.134075,0.071801,0.708318,-0.136813,-0.174138,-0.270171,0.848865,0.153010,0.451093,-40.076252,5.258591,17.487364,0.237516,1.812850,0.028243,0.000000,0.000000,0.000000,0.000000,0.000000,0.000000
13287843.000000,-0.254806,0.665462,0.313007,-1.538578,-0.238201,2.169358,0.134221,0.070726,0.695038,-0.143236,-0.167914,-0.279329,0.842616,0.150902,0.526471,-39.635883,5.381577,17.487364,0.308927,1.974899,0.041976,0.000000,0.000000,0.000000,0.000000,0.000000,0.000000
13287844.000000,-0.254734,0.666187,0.312875,-1.538737,-0.238481,2.170196,0.134370,0.072537,0.702936,-0.137601,-0.162496,-0.278531,0.843387,0.149246,0.502668,-39.465290,5.333969,17.463560,0.369352,2.020675,0.100570,0.000000,0.000000,0.000000,0.000000,0.000000,0.000000
13287845.000000,-0.254662,0.666910,0.312739,-1.538900,-0.238746,2.171044,0.134534,0.071410,0.703581,-0.136375,-0.164885,-0.272771,0.837330,0.152246,0.451093,-39.441486,5.286362,17.562742,0.320829,1.949264,0.034652,0.000000,0.000000,0.000000,0.000000,0.000000,0.000000
13287846.000000,-0.254598,0.667650,0.312603,-1.539063,-0.239013,2.171890,0.134683,0.070925,0.710934,-0.136973,-0.163486,-0.274910,0.853459,0.149885,0.502668,-39.564472,5.286362,17.661924,0.303434,1.858627,0.087753,0.000000,0.000000,0.000000,0.000000,0.000000,0.000000
13287847.000000,-0.254523,0.668385,0.312464,-1.539222,-0.239288,2.172743,0.134839,0.073927,0.719818,-0.137367,-0.159342,-0.275678,0.855970,0.155291,0.427289,-39.758869,5.286362,17.634153,0.273221,1.779891,0.067611,0.000000,0.000000,0.000000,0.000000,0.000000,0.000000
13287848.000000,-0.254458,0.669128,0.312323,-1.539376,-0.239566,2.173587,0.134995,0.074988,0.720900,-0.138590,-0.156585,-0.274247,0.845175,0.158941,0.526471,-39.905659,5.333969,17.610350,0.297025,1.779891,0.041976,0.000000,0.000000,0.000000,0.000000,0.000000,0.000000
13287849.000000,-0.254387,0.669871,0.312186,-1.539529,-0.239836,2.174413,0.135143,0.075142,0.734122,-0.138388,-0.154249,-0.272725,0.840883,0.159501,0.526471,-40.004841,5.333969,17.586546,0.320829,1.909896,0.094161,0.000000,0.000000,0.000000,0.000000,0.000000,0.000000
13287850.000000,-0.254315,0.670595,0.312050,-1.539684,-0.240103,2.175251,0.135300,0.074518,0.732770,-0.137561,-0.156876,-0.269828,0.836241,0.158483,0.526471,-39.957233,5.310165,17.634153,0.315336,1.988631,0.061202,0.000000,0.000000,0.000000,0.000000,0.000000,0.000000
13287851.000000,-0.254253,0.671343,0.311918,-1.539836,-0.240375,2.176086,0.135451,0.072517,0.729025,-0.133461,-0.156498,-0.272361,0.831243,0.157318,0.625654,-40.127827,5.258591,17.685728,0.291532,1.981307,0.054794,0.000000,0.000000,0.000000,0.000000,0.000000,0.000000
13287852.000000,-0.254184,0.672085,0.311784,-1.539996,-0.240650,2.176930,0.135602,0.069805,0.739218,-0.132347,-0.157671,-0.273430,0.835909,0.159970,0.649457,-40.274616,5.286362,17.808714,0.243009,1.865035,0.061202,0.000000,0.000000,0.000000,0.000000,0.000000,0.000000
13287853.000000,-0.254118,0.672820,0.311650,-1.540150,-0.240927,2.177778,0.135759,0.067221,0.723937,-0.129845,-0.154902,-0.269736,0.840013,0.156606,0.697065,-40.199238,5.258591,17.907896,0.201810,1.793624,0.087753,0.000000,0.000000,0.000000,0.000000,0.000000,0.000000
13287854.000000,-0.254047,0.673563,0.311512,-1.540300,-0.241208,2.178592,0.135926,0.066283,0.730273,-0.134378,-0.154305,-0.271051,0.834630,0.162553,0.697065,-40.104023,5.357773,17.955503,0.267728,1.871444,0.015426,0.000000,0.000000,0.000000,0.000000,0.000000,0.000000
13287855.000000,-0.253982,0.674299,0.311384,-1.540441,-0.241494,2.179427,0.136079,0.063840,0.728340,-0.132938,-0.149426,-0.275886,0.836055,0.158608,0.772443,-40.052448,5.258591,17.931700,0.332731,1.949264,0.028243,0.000000,0.000000,0.000000,0.000000,0.000000,0.000000
13287856.000000,-0.253916,0.675046,0.311241,-1.540582,-0.241782,2.180260,0.136229,0.062661,0.730953,-0.136771,-0.147156,-0.279463,0.834930,0.154162,0.824018,-40.052448,5.357773,17.955503,0.381254,2.039901,0.094161,0.000000,0.000000,0.000000,0.000000,0.000000,0.000000
13287857.000000,-0.253843,0.675808,0.311108,-1.540714,-0.242061,2.181087,0.136395,0.063683,0.747444,-0.134561,-0.143493,-0.280077,0.831769,0.159895,0.796247,-40.223042,5.381577,17.907896,0.381254,1.988631,0.048385,0.000000,0.000000,0.000000,0.000000,0.000000,0.000000
13287858.000000,-0.253773,0.676575,0.310971,-1.540851,-0.242333,2.181937,0.136551,0.066820,0.753294,-0.132556,-0.139110,-0.273242,0.836008,0.156206,0.796247,-40.639606,5.405380,17.907896,0.297025,1.890670,0.081344,0.000000,0.000000,0.000000,0.000000,0.000000,0.000000
13287859.000000,-0.253703,0.677345,0.310838,-1.540981,-0.242599,2.182777,0.136709,0.069006,0.755006,-0.133333,-0.137231,-0.268648,0.839716,0.160740,0.796247,-40.909382,5.381577,17.832518,0.231107,1.773483,0.054794,0.000000,0.000000,0.000000,0.000000,0.000000,0.000000
13287860.000000,-0.253630,0.678108,0.310697,-1.541111,-0.242883,2.183615,0.136865,0.073355,0.758772,-0.136428,-0.132098,-0.271729,0.839632,0.157345,0.796247,-41.179157,5.456955,17.856321,0.213712,1.741439,0.067611,0.000000,0.000000,0.000000,0.000000,0.000000,0.000000
13287861.000000,-0.253556,0.678894,0.310556,-1.541230,-0.243167,2.184458,0.137024,0.074381,0.759879,-0.137885,-0.128353,-0.280458,0.836035,0.160995,0.772443,-41.548115,5.504562,17.757139,0.279630,1.779891,0.054794,0.000000,0.000000,0.000000,0.000000,0.000000,0.000000
13287862.000000,-0.253488,0.679678,0.310417,-1.541355,-0.243450,2.185274,0.137186,0.070224,0.773256,-0.137843,-0.125353,-0.278781,0.826788,0.157369,0.824018,-41.865498,5.504562,17.784910,0.327238,1.890670,0.081344,0.000000,0.000000,0.000000,0.000000,0.000000,0.000000
13287863.000000,-0.253422,0.680448,0.310276,-1.541481,-0.243731,2.186105,0.137343,0.066843,0.767827,-0.139308,-0.127693,-0.280325,0.834245,0.160437,0.895429,-42.083698,5.579941,17.907896,0.351041,1.936446,0.107894,0.000000,0.000000,0.000000,0.000000,0.000000,0.000000
13287864.000000,-0.253341,0.681225,0.310139,-1.541617,-0.244013,2.186938,0.137508,0.071876,0.758781,-0.138851,-0.132414,-0.286740,0.840286,0.160363,0.772443,-42.282063,5.579941,18.130064,0.356534,1.916305,0.048385,0.000000,0.000000,0.000000,0.000000,0.000000,0.000000
13287865.000000,-0.253263,0.681974,0.309996,-1.541757,-0.244296,2.187792,0.137664,0.075001,0.745872,-0.143445,-0.133436,-0.280196,0.841467,0.155666,0.673261,-42.135273,5.651352,18.399839,0.339139,1.819259,0.100570,0.000000,0.000000,0.000000,0.000000,0.000000,0.000000
13287866.000000,-0.253188,0.682733,0.309855,-1.541892,-0.244576,2.188636,0.137825,0.074898,0.734850,-0.142914,-0.132828,-0.277117,0.843815,0.158782,0.673261,-41.960712,5.702927,18.625975,0.332731,1.786300,0.087753,0.000000,0.000000,0.000000,0.000000,0.000000,0.000000
13287867.000000,-0.253116,0.683499,0.309712,-1.542022,-0.244853,2.189443,0.137988,0.074204,0.744907,-0.142214,-0.131410,-0.275322,0.829413,0.159229,0.697065,-41.813923,5.726730,18.820372,0.369352,1.962081,0.021835,0.000000,0.000000,0.000000,0.000000,0.000000,0.000000
13287868.000000,-0.253036,0.684261,0.309574,-1.542141,-0.245127,2.190254,0.138139,0.073433,0.746361,-0.141780,-0.130009,-0.272691,0.816194,0.158495,0.601850,-41.790119,5.627548,18.871946,0.381254,2.144271,0.100570,0.000000,0.000000,0.000000,0.000000,0.000000,0.000000
13287869.000000,-0.252956,0.685032,0.309432,-1.542263,-0.245405,2.191074,0.138300,0.074946,0.747082,-0.144013,-0.127268,-0.274574,0.818715,0.157200,0.550275,-41.766315,5.627548,18.971128,0.362943,2.202865,0.087753,0.000000,0.000000,0.000000,0.000000,0.000000,0.000000
13287870.000000,-0.252871,0.685800,0.309285,-1.542381,-0.245686,2.191894,0.138467,0.077750,0.766452,-0.143913,-0.124017,-0.276071,0.817862,0.157341,0.427289,-41.790119,5.679123,19.018736,0.327238,2.085677,0.041976,0.000000,0.000000,0.000000,0.000000,0.000000,0.000000
13287871.000000,-0.252791,0.686569,0.309134,-1.542498,-0.245958,2.192725,0.138628,0.077320,0.766296,-0.143787,-0.124536,-0.271622,0.815631,0.155316,0.403486,-41.667133,5.750534,19.042540,0.285123,1.936446,0.048385,0.000000,0.000000,0.000000,0.000000,0.000000,0.000000
13287872.000000,-0.252710,0.687335,0.308993,-1.542613,-0.246235,2.193529,0.138781,0.080219,0.773580,-0.144887,-0.121328,-0.275453,0.823506,0.151755,0.375715,-41.472736,5.726730,19.042540,0.303434,1.955673,0.114303,0.000000,0.000000,0.000000,0.000000,0.000000,0.000000
13287873.000000,-0.252630,0.688091,0.308845,-1.542720,-0.246523,2.194342,0.138949,0.078772,0.770806,-0.147478,-0.116150,-0.284502,0.814422,0.153482,0.375715,-41.349751,5.774338,18.919554,0.381254,2.001449,0.054794,0.000000,0.000000,0.000000,0.000000,0.000000,0.000000
13287874.000000,-0.252552,0.688855,0.308702,-1.542818,-0.246810,2.195159,0.139104,0.077806,0.762749,-0.147671,-0.106266,-0.289719,0.809717,0.156939,0.375715,-41.226765,5.750534,18.796568,0.452665,2.047225,0.067611,0.000000,0.000000,0.000000,0.000000,0.000000,0.000000
13287875.000000,-0.252471,0.689623,0.308564,-1.542920,-0.247088,2.195964,0.139257,0.077609,0.770549,-0.144728,-0.103838,-0.284127,0.810822,0.158529,0.351911,-41.131550,5.726730,18.748960,0.476469,2.047225,0.107894,0.000000,0.000000,0.000000,0.000000,0.000000,0.000000
13287876.000000,-0.252388,0.690363,0.308428,-1.543023,-0.247362,2.196782,0.139427,0.081215,0.758926,-0.140647,-0.104364,-0.276640,0.811150,0.163291,0.304304,-40.738789,5.627548,18.796568,0.422452,2.014266,0.054794,0.000000,0.000000,0.000000,0.000000,0.000000,0.000000
13287877.000000,-0.252304,0.691105,0.308290,-1.543123,-0.247628,2.197599,0.139584,0.080084,0.746766,-0.139309,-0.104196,-0.275318,0.812770,0.163539,0.276533,-40.250813,5.579941,18.820372,0.339139,1.877853,0.087753,0.000000,0.000000,0.000000,0.000000,0.000000,0.000000
13287878.000000,-0.252224,0.691832,0.308153,-1.543211,-0.247917,2.198413,0.139747,0.081408,0.736393,-0.138127,-0.101028,-0.277665,0.813275,0.161541,0.276533,-39.711262,5.528366,18.721189,0.327238,1.909896,0.048385,0.000000,0.000000,0.000000,0.000000,0.000000,0.000000
13287879.000000,-0.252146,0.692579,0.308012,-1.543296,-0.248199,2.199218,0.139906,0.079020,0.733320,-0.137928,-0.098353,-0.279388,0.801536,0.162750,0.304304,-39.393879,5.504562,18.598204,0.327238,2.092086,0.048385,0.000000,0.000000,0.000000,0.000000,0.000000,0.000000
13287880.000000,-0.252066,0.693350,0.307881,-1.543378,-0.248478,2.200012,0.140058,0.079434,0.749890,-0.132291,-0.093739,-0.276278,0.797028,0.163379,0.375715,-39.417683,5.381577,18.499022,0.327238,2.196456,0.100570,0.000000,0.000000,0.000000,0.000000,0.000000,0.000000
13287881.000000,-0.251983,0.694103,0.307745,-1.543461,-0.248763,2.200837,0.140223,0.081808,0.742830,-0.129711,-0.091740,-0.283264,0.798204,0.167033,0.375715,-39.417683,5.333969,18.475218,0.351041,2.104903,0.041976,0.000000,0.000000,0.000000,0.000000,0.000000,0.000000
13287882.000000,-0.251896,0.694880,0.307606,-1.543540,-0.249048,2.201670,0.140377,0.080985,0.744309,-0.134811,-0.085043,-0.289069,0.808802,0.162629,0.328107,-39.564472,5.310165,18.475218,0.381254,1.858627,0.048385,0.000000,0.000000,0.000000,0.000000,0.000000,0.000000
13287883.000000,-0.251821,0.695638,0.307467,-1.543614,-0.249333,2.202503,0.140534,0.077874,0.753155,-0.135997,-0.079157,-0.283296,0.814074,0.164085,0.403486,-39.564472,5.310165,18.451414,0.398649,1.721298,0.048385,0.000000,0.000000,0.000000,0.000000,0.000000,0.000000
13287884.000000,-0.251740,0.696417,0.307334,-1.543679,-0.249622,2.203325,0.140692,0.076869,0.754618,-0.136925,-0.072987,-0.287152,0.816631,0.163405,0.427289,-39.711262,5.187180,18.352232,0.482877,1.727706,0.107894,0.000000,0.000000,0.000000,0.000000,0.000000,0.000000
13287885.000000,-0.251662,0.697201,0.307198,-1.543738,-0.249893,2.204118,0.140859,0.074744,0.769518,-0.136012,-0.067268,-0.280946,0.803999,0.167397,0.502668,-39.858051,5.111801,18.205442,0.476469,1.916305,0.048385,0.000000,0.000000,0.000000,0.000000,0.000000,0.000000
13287886.000000,-0.251581,0.697979,0.307065,-1.543791,-0.250176,2.204925,0.141012,0.077671,0.772738,-0.135841,-0.063200,-0.284827,0.800794,0.161292,0.502668,-40.104023,5.064194,18.054686,0.446256,2.066451,0.094161,0.000000,0.000000,0.000000,0.000000,0.000000,0.000000
13287887.000000,-0.251499,0.698756,0.306935,-1.543847,-0.250450,2.205759,0.141170,0.077306,0.769538,-0.135135,-0.059618,-0.276703,0.807659,0.160042,0.502668,-40.127827,4.988815,18.007078,0.362943,1.981307,0.100570,0.000000,0.000000,0.000000,0.000000,0.000000,0.000000
13287888.000000,-0.251420,0.699512,0.306801,-1.543908,-0.250717,2.206588,0.141337,0.075845,0.777455,-0.136317,-0.058849,-0.274176,0.813496,0.160573,0.550275,-39.929462,4.988815,18.054686,0.243009,1.858627,0.021835,0.000000,0.000000,0.000000,0.000000,0.000000,0.000000
13287889.000000,-0.251344,0.700276,0.306672,-1.543955,-0.250996,2.207417,0.141481,0.074165,0.763491,-0.135124,-0.054640,-0.277326,0.812534,0.158888,0.625654,-39.687458,4.917404,17.955503,0.243009,1.819259,0.120712,0.000000,0.000000,0.000000,0.000000,0.000000,0.000000
13287890.000000,-0.251270,0.701060,0.306537,-1.543993,-0.251275,2.208216,0.141643,0.071723,0.779055,-0.136329,-0.049269,-0.277024,0.814169,0.159746,0.748639,-39.711262,4.917404,17.757139,0.308927,1.936446,0.048385,0.000000,0.000000,0.000000,0.000000,0.000000,0.000000
13287891.000000,-0.251186,0.701852,0.306404,-1.544026,-0.251578,2.209298,0.141839,0.073627,0.779526,-0.132184,-0.041767,-0.286367,0.898226,0.170207,0.724836,-40.028645,4.842026,17.534971,0.530485,-0.339555,-0.307755,0.000000,0.000000,0.000000,0.000000,0.000000,0.000000
13287892.000000,-0.251106,0.702642,0.306262,-1.544076,-0.252046,2.210538,0.142009,0.076333,0.778327,-0.133237,-0.045844,-0.355503,1.022532,0.167124,0.772443,-40.223042,4.941208,17.586546,2.227872,-3.747147,-0.386491,0.000000,0.000000,0.000000,0.000000,0.000000,0.000000
13287893.000000,-0.251025,0.703425,0.306134,-1.544086,-0.252332,2.211506,0.142091,0.078971,0.781667,-0.132158,-0.033885,-0.336494,1.016635,0.135218,0.796247,-40.346027,4.842026,17.142210,2.101530,-4.260758,0.338607,0.000000,0.000000,0.000000,0.000000,0.000000,0.000000
13287894.000000,-0.250940,0.704267,0.306040,-1.543951,-0.252697,2.212520,0.142332,0.079427,0.792900,-0.119252,0.023875,-0.348573,1.012141,0.171373,0.748639,-41.131550,4.227097,14.718199,2.496122,-4.560136,-0.367265,0.000000,0.000000,0.000000,0.000000,0.000000,0.000000
13287895.000000,-0.250797,0.705116,0.305820,-1.543791,-0.253074,2.213687,0.142465,0.097975,0.805806,-0.157113,0.072532,-0.358950,1.058612,0.156042,-0.092425,-41.865498,5.480759,12.147398,2.800992,-5.991105,-0.122819,0.000000,0.000000,0.000000,0.000000,0.000000,0.000000
13287896.000000,-0.250743,0.705829,0.305704,-1.543655,-0.253355,2.214830,0.142615,0.083648,0.775834,-0.143491,0.098477,-0.329168,1.077804,0.151479,0.328107,-40.837971,5.163376,10.294676,2.089628,-6.667680,-0.044083,0.000000,0.000000,0.000000,0.000000,0.000000,0.000000
13287897.000000,-0.250676,0.706562,0.305653,-1.543512,-0.253662,2.215793,0.142708,0.074325,0.751553,-0.110812,0.114054,-0.316552,1.024930,0.133974,0.625654,-39.905659,3.838302,8.711729,1.665739,-5.379533,0.536361,0.000000,0.000000,0.000000,0.000000,0.000000,0.000000
13287898.000000,-0.250539,0.707274,0.305506,-1.543217,-0.254083,2.216844,0.142882,0.091696,0.737685,-0.118866,0.175289,-0.354370,1.023116,0.147181,-0.092425,-38.901936,4.056503,5.276061,2.323087,-4.989518,0.345016,0.000000,0.000000,0.000000,0.000000,0.000000,0.000000
13287899.000000,-0.250556,0.707884,0.305499,-1.542959,-0.254497,2.217756,0.143076,0.056086,0.690513,-0.080198,0.205299,-0.374433,0.973224,0.166948,1.343732,-36.382710,2.291061,2.756834,2.878812,-3.467911,0.001693,0.000000,0.000000,0.000000,0.000000,0.000000,0.000000
13287900.000000,-0.250552,0.708397,0.305543,-1.542745,-0.254705,2.218635,0.143194,0.035335,0.619436,-0.034930,0.208070,-0.319921,0.933925,0.155131,2.506147,-32.637592,-0.041702,1.344481,1.684049,-1.926163,0.324874,0.000000,0.000000,0.000000,0.000000,0.000000,0.000000
13287901.000000,-0.250359,0.708833,0.305411,-1.542484,-0.254985,2.219559,0.143387,0.084121,0.557896,-0.065305,0.222731,-0.310887,0.927510,0.167646,0.871625,-28.277546,0.374863,-0.262270,1.247343,-1.477555,-0.031266,0.000000,0.000000,0.000000,0.000000,0.000000,0.000000
13287902.000000,-0.250238,0.709203,0.305331,-1.542258,-0.255352,2.220363,0.143518,0.095041,0.478994,-0.070349,0.224060,-0.331007,0.873569,0.160803,0.276533,-23.262897,0.180466,-1.000185,1.647428,-0.391740,0.147262,0.000000,0.000000,0.000000,0.000000,0.000000,0.000000
13287903.000000,-0.250252,0.709501,0.305324,-1.542032,-0.255587,2.221065,0.143649,0.058996,0.418005,-0.050944,0.224275,-0.296929,0.813989,0.151325,1.665082,-17.752338,-0.974014,-1.373109,1.032194,1.019088,0.338607,0.000000,0.000000,0.000000,0.000000,0.000000,0.000000
13287904.000000,-0.250173,0.709782,0.305229,-1.541770,-0.255873,2.221834,0.143863,0.070221,0.366659,-0.065382,0.232078,-0.291706,0.803803,0.171731,1.665082,-12.467915,-0.803421,-2.091188,1.055997,1.247054,-0.208878,0.000000,0.000000,0.000000,0.000000,0.000000,0.000000
13287905.000000,-0.250085,0.710053,0.305157,-1.541504,-0.256217,2.222554,0.143966,0.076710,0.331323,-0.067603,0.241307,-0.312029,0.778802,0.154352,1.490522,-7.619892,-0.926407,-2.781496,1.749052,1.402694,0.213180,0.000000,0.000000,0.000000,0.000000,0.000000,0.000000
13287906.000000,-0.250047,0.710264,0.305132,-1.541272,-0.256498,2.223102,0.144128,0.066653,0.288158,-0.054346,0.235664,-0.306231,0.709360,0.161315,2.061811,-2.506062,-1.660355,-2.805300,1.785673,2.619430,0.153671,0.000000,0.000000,0.000000,0.000000,0.000000,0.000000
13287907.000000,-0.250045,0.710486,0.305117,-1.540989,-0.256680,2.223735,0.144312,0.046567,0.260413,-0.039463,0.249341,-0.259288,0.684537,0.167631,3.073469,2.024578,-2.497452,-3.499574,0.948881,2.749435,-0.083451,0.000000,0.000000,0.000000,0.000000,0.000000,0.000000
13287908.000000,-0.250024,0.710713,0.305134,-1.540700,-0.256949,2.224358,0.144457,0.036661,0.242553,-0.017572,0.258383,-0.266929,0.672312,0.158393,3.791547,5.841106,-3.699539,-4.289064,1.050504,2.560836,0.034652,0.000000,0.000000,0.000000,0.000000,0.000000,0.000000
13287909.000000,-0.249980,0.710865,0.305097,-1.540441,-0.257155,2.224926,0.144616,0.040696,0.211127,-0.025615,0.256195,-0.242113,0.646033,0.155293,4.041486,10.470928,-4.040726,-4.562807,0.637601,2.762252,0.054794,0.000000,0.000000,0.000000,0.000000,0.000000,0.000000
13287910.000000,-0.249921,0.710961,0.305044,-1.540191,-0.257272,2.225446,0.144783,0.048959,0.173643,-0.034924,0.249686,-0.203638,0.613767,0.156858,4.041486,15.461773,-4.068497,-4.610414,-0.443636,3.334457,-0.017533,0.000000,0.000000,0.000000,0.000000,0.000000,0.000000
13287911.000000,-0.249869,0.711056,0.305000,-1.539943,-0.257472,2.226011,0.144950,0.051392,0.146696,-0.037968,0.247239,-0.202888,0.609207,0.156838,4.164472,19.992413,-4.215286,-4.733400,-0.743014,3.366500,-0.064225,0.000000,0.000000,0.000000,0.000000,0.000000,0.000000
13287912.000000,-0.249828,0.711115,0.304943,-1.539707,-0.257706,2.226561,0.145107,0.049321,0.119068,-0.044717,0.243568,-0.213784,0.596226,0.153262,4.438215,24.566692,-4.139908,-4.733400,-0.592867,3.542281,-0.017533,0.000000,0.000000,0.000000,0.000000,0.000000,0.000000
13287913.000000,-0.249804,0.711120,0.304895,-1.539507,-0.257888,2.227140,0.145276,0.039511,0.085799,-0.048357,0.230949,-0.208162,0.604602,0.155795,4.930158,29.561504,-4.215286,-4.289064,-0.766818,3.464462,-0.103593,0.000000,0.000000,0.000000,0.000000,0.000000,0.000000
13287914.000000,-0.249760,0.711117,0.304841,-1.539313,-0.258090,2.227816,0.145421,0.042888,0.056746,-0.054445,0.215789,-0.206724,0.639076,0.153047,5.104719,34.262737,-4.286697,-3.820925,-0.724703,2.599288,0.048385,0.000000,0.000000,0.000000,0.000000,0.000000,0.000000
13287915.000000,-0.249704,0.711132,0.304785,-1.539105,-0.258320,2.228524,0.145603,0.046861,0.041658,-0.056086,0.212659,-0.214496,0.665074,0.162704,5.080915,38.325237,-4.338272,-3.797121,-0.431735,1.735030,-0.089860,0.000000,0.000000,0.000000,0.000000,0.000000,0.000000
13287916.000000,-0.249665,0.711168,0.304746,-1.538888,-0.258495,2.229229,0.145756,0.044070,0.044013,-0.049883,0.215333,-0.205949,0.687666,0.159639,5.279279,41.729168,-4.703262,-4.019289,-0.623080,1.136276,0.061202,0.000000,0.000000,0.000000,0.000000,0.000000,0.000000
13287917.000000,-0.249626,0.711241,0.304705,-1.538646,-0.258709,2.229963,0.145934,0.045902,0.058121,-0.045559,0.229668,-0.211819,0.705843,0.166362,5.449872,44.272198,-5.072220,-4.685792,-0.611178,0.706893,-0.050492,0.000000,0.000000,0.000000,0.000000,0.000000,0.000000
13287918.000000,-0.249541,0.711364,0.304618,-1.538348,-0.258931,2.230722,0.146100,0.058127,0.088518,-0.058818,0.251755,-0.213478,0.729427,0.167901,5.005537,45.962261,-4.754837,-6.117982,-0.545260,0.388290,-0.070634,0.000000,0.000000,0.000000,0.000000,0.000000,0.000000
13287919.000000,-0.249438,0.711508,0.304534,-1.538036,-0.259157,2.231491,0.146242,0.071658,0.112622,-0.068551,0.274141,-0.217916,0.740612,0.156478,4.339033,47.307171,-4.532669,-7.776308,-0.509554,0.154830,0.120712,0.000000,0.000000,0.000000,0.000000,0.000000,0.000000
13287920.000000,-0.249370,0.711676,0.304468,-1.537718,-0.259388,2.232303,0.146416,0.074089,0.134062,-0.068818,0.291472,-0.220136,0.756671,0.160122,4.216047,48.287090,-4.580276,-9.406862,-0.503146,-0.033768,-0.004716,0.000000,0.000000,0.000000,0.000000,0.000000,0.000000
13287921.000000,-0.249301,0.711866,0.304394,-1.537377,-0.259621,2.233159,0.146572,0.074903,0.154755,-0.070468,0.314898,-0.227548,0.790425,0.156722,4.140668,48.921856,-4.580276,-11.136599,-0.473849,-0.502518,0.021835,0.000000,0.000000,0.000000,0.000000,0.000000,0.000000
13287922.000000,-0.249231,0.712087,0.304336,-1.537018,-0.259881,2.234068,0.146726,0.074633,0.178914,-0.064779,0.330721,-0.238876,0.817144,0.153643,4.089094,49.314617,-4.877823,-12.818727,-0.414340,-1.152543,0.054794,0.000000,0.000000,0.000000,0.000000,0.000000,0.000000
13287923.000000,-0.249159,0.712320,0.304267,-1.536661,-0.260138,2.234992,0.146884,0.072695,0.196476,-0.067186,0.343933,-0.242080,0.843128,0.158649,4.017683,49.754986,-5.048416,-14.326296,-0.497653,-1.634110,0.034652,0.000000,0.000000,0.000000,0.000000,0.000000,0.000000
13287924.000000,-0.249082,0.712559,0.304186,-1.536271,-0.260392,2.235900,0.147039,0.074480,0.212999,-0.072605,0.357886,-0.243162,0.869671,0.156268,3.942304,50.123943,-5.072220,-15.905275,-0.646884,-1.906937,0.048385,0.000000,0.000000,0.000000,0.000000,0.000000,0.000000
13287925.000000,-0.249017,0.712850,0.304111,-1.535871,-0.260658,2.236819,0.147194,0.068715,0.239652,-0.070267,0.369700,-0.242081,0.881999,0.151101,4.041486,50.100140,-5.219009,-17.389040,-0.706393,-1.991166,0.021835,0.000000,0.000000,0.000000,0.000000,0.000000,0.000000
13287926.000000,-0.248941,0.713163,0.304033,-1.535453,-0.260917,2.237703,0.147332,0.070106,0.256590,-0.073659,0.385433,-0.248777,0.866496,0.147402,4.041486,49.953350,-5.294388,-18.872805,-0.831820,-1.789750,0.120712,0.000000,0.000000,0.000000,0.000000,0.000000,0.000000
13287927.000000,-0.248842,0.713521,0.303940,-1.535009,-0.261186,2.238597,0.147484,0.078867,0.290810,-0.078972,0.405666,-0.253433,0.864042,0.149078,3.720136,49.389996,-5.246780,-20.455751,-0.951754,-1.497697,0.094161,0.000000,0.000000,0.000000,0.000000,0.000000,0.000000
13287928.000000,-0.248752,0.713913,0.303844,-1.534584,-0.261458,2.239535,0.147637,0.085156,0.323243,-0.082159,0.411627,-0.258937,0.881820,0.154961,3.521772,48.679852,-5.219009,-21.665773,-0.970065,-1.646928,0.054794,0.000000,0.000000,0.000000,0.000000,0.000000,0.000000
13287929.000000,-0.248666,0.714339,0.303761,-1.534153,-0.261717,2.240479,0.147782,0.084094,0.358268,-0.083579,0.418919,-0.255520,0.896701,0.152521,3.422590,47.600750,-5.365799,-22.606020,-1.119296,-2.024125,0.087753,0.000000,0.000000,0.000000,0.000000,0.000000,0.000000
13287930.000000,-0.248578,0.714812,0.303679,-1.533713,-0.261986,2.241425,0.147928,0.087220,0.395726,-0.084526,0.425002,-0.258505,0.909869,0.151136,3.299604,46.327251,-5.516556,-23.617678,-1.112887,-2.394913,0.114303,0.000000,0.000000,0.000000,0.000000,0.000000,0.000000
