chaoyuefei/paper-gmrm-data/robot_logs/s2_dq_mrm_min_0.30_log_20260314_172523.csv
# time_ms,q_0,q_1,q_2,q_3,q_4,q_5,q_6,dq_0,dq_1,dq_2,dq_3,dq_4,dq_5,dq_6,tau_J_0,tau_J_1,tau_J_2,tau_J_3,tau_J_4,tau_J_5,tau_J_6,O_dP_EE_c_0,O_dP_EE_c_1,O_dP_EE_c_2,O_dP_EE_c_3,O_dP_EE_c_4,O_dP_EE_c_5
11785970.000000,-2.418270,-1.662607,1.039420,-1.352487,1.798444,1.078671,-0.546409,-0.000172,-0.000029,-0.000165,0.000728,0.000336,0.000351,0.001412,-0.044818,41.606182,-20.929459,-5.848207,0.864652,1.337692,-0.011124,0.000000,0.000000,0.000000,0.000000,0.000000,0.000000
11785971.000000,-2.418270,-1.662604,1.039418,-1.352489,1.798444,1.078669,-0.546411,-0.000115,0.001187,-0.000110,-0.000174,0.000428,-0.000512,-0.000042,-0.044818,41.554607,-20.929459,-5.820436,0.859159,1.357833,0.015426,0.000000,0.000000,0.000000,0.000000,0.000000,0.000000
11785972.000000,-2.418268,-1.662607,1.039422,-1.352487,1.798444,1.078670,-0.546411,0.000480,-0.000415,0.000484,0.000527,0.000082,-0.000070,-0.000028,-0.068621,41.606182,-20.953262,-5.848207,0.864652,1.350509,0.015426,0.000000,0.000000,0.000000,0.000000,0.000000,0.000000
11785973.000000,-2.418270,-1.662609,1.039422,-1.352491,1.798443,1.078671,-0.546411,-0.000237,-0.000833,0.000322,-0.000861,-0.000183,0.000428,-0.000256,-0.044818,41.629986,-20.953262,-5.796632,0.871061,1.337692,0.021835,0.000000,0.000000,0.000000,0.000000,0.000000,0.000000
11785974.000000,-2.418263,-1.662614,1.039421,-1.352485,1.798442,1.078668,-0.546413,0.005842,-0.003359,-0.000342,0.003141,-0.008634,0.007469,-0.007954,0.228925,41.606182,-20.929459,-5.820436,0.847257,1.396285,-0.023942,0.000000,0.000000,0.000000,0.000000,0.000000,0.000000
11785975.000000,-2.418250,-1.662613,1.039420,-1.352485,1.798443,1.078663,-0.546428,0.012911,-0.003681,0.001308,0.004515,-0.002775,0.008791,-0.015063,1.216779,41.360210,-20.854080,-5.649843,0.745634,1.565658,-0.044083,0.000000,0.000000,0.000000,0.000000,0.000000,0.000000
11785976.000000,-2.418226,-1.662612,1.039434,-1.352485,1.798439,1.078664,-0.546460,0.023219,-0.002999,0.005082,0.003109,-0.008061,0.008899,-0.020823,2.827497,40.919842,-20.877884,-5.352296,0.637601,1.773483,-0.044083,0.000000,0.000000,0.000000,0.000000,0.000000,0.000000
11785979.000000,-2.418022,-1.662607,1.039498,-1.352533,1.798358,1.078812,-0.546633,0.048769,0.002306,0.019671,-0.017174,-0.029383,0.040130,-0.054414,8.100019,39.352764,-20.659683,-4.118471,0.661405,1.591293,-0.064225,0.000000,0.000000,0.000000,0.000000,0.000000,0.000000
11785980.000000,-2.417923,-1.662604,1.039539,-1.352575,1.798307,1.078914,-0.546722,0.061048,0.000333,0.024240,-0.027000,-0.038180,0.059565,-0.068306,9.559979,38.864788,-20.631912,-3.697939,0.709928,1.416427,-0.089860,0.000000,0.000000,0.000000,0.000000,0.000000,0.000000
11785981.000000,-2.417800,-1.662607,1.039582,-1.352618,1.798241,1.079027,-0.546842,0.081129,0.002290,0.030139,-0.033403,-0.053117,0.074957,-0.090653,10.773969,38.519634,-20.560501,-3.448000,0.733732,1.337692,-0.037675,0.000000,0.000000,0.000000,0.000000,0.000000,0.000000
11785982.000000,-2.417673,-1.662602,1.039637,-1.352685,1.798166,1.079157,-0.546973,0.093406,0.001427,0.041073,-0.044870,-0.065302,0.097825,-0.111251,11.864972,38.130840,-20.512894,-3.055238,0.667814,1.344100,-0.116410,0.000000,0.000000,0.000000,0.000000,0.000000,0.000000
11785983.000000,-2.417535,-1.662592,1.039704,-1.352754,1.798074,1.079304,-0.547148,0.105599,0.004299,0.046707,-0.051220,-0.077351,0.111421,-0.133055,12.928205,37.738079,-20.461319,-2.880678,0.559781,1.448470,-0.056901,0.000000,0.000000,0.000000,0.000000,0.000000,0.000000
11785984.000000,-2.417386,-1.662584,1.039787,-1.352838,1.797957,1.079476,-0.547345,0.118313,0.004812,0.059425,-0.062820,-0.092933,0.130724,-0.152874,13.820844,37.420696,-20.512894,-2.706117,0.470060,1.578475,-0.023942,0.000000,0.000000,0.000000,0.000000,0.000000,0.000000
11785985.000000,-2.417215,-1.662568,1.039890,-1.352938,1.797818,1.079689,-0.547538,0.134813,0.007130,0.073819,-0.074088,-0.104792,0.152274,-0.158733,14.534955,37.027935,-20.659683,-2.559328,0.386747,1.637069,-0.103593,0.000000,0.000000,0.000000,0.000000,0.000000,0.000000
11785986.000000,-2.417022,-1.662550,1.040000,-1.353057,1.797659,1.079927,-0.547750,0.154148,0.011757,0.087095,-0.089098,-0.122163,0.185653,-0.173360,15.058637,36.658978,-20.731094,-2.412538,0.398649,1.591293,-0.037675,0.000000,0.000000,0.000000,0.000000,0.000000,0.000000
11785987.000000,-2.416822,-1.662530,1.040132,-1.353188,1.797471,1.080200,-0.547943,0.166938,0.012872,0.101960,-0.102630,-0.141664,0.218257,-0.180049,15.479169,36.242413,-20.929459,-2.313356,0.464567,1.494247,-0.097184,0.000000,0.000000,0.000000,0.000000,0.000000,0.000000
11785988.000000,-2.416596,-1.662511,1.040273,-1.353344,1.797263,1.080490,-0.548137,0.185027,0.015913,0.116048,-0.119810,-0.160762,0.239690,-0.183749,15.748944,35.877422,-21.100052,-2.162599,0.530485,1.461288,-0.064225,0.000000,0.000000,0.000000,0.000000,0.000000,0.000000
11785989.000000,-2.416361,-1.662494,1.040431,-1.353509,1.797037,1.080799,-0.548338,0.205305,0.017129,0.132467,-0.136883,-0.175311,0.263467,-0.191310,15.998883,35.560040,-21.246841,-2.091188,0.613798,1.487838,-0.037675,0.000000,0.000000,0.000000,0.000000,0.000000,0.000000
11785990.000000,-2.416109,-1.662478,1.040600,-1.353695,1.796793,1.081139,-0.548528,0.220313,0.016494,0.139415,-0.153211,-0.195954,0.291145,-0.194063,16.244856,35.314068,-21.346024,-2.039613,0.601896,1.494247,-0.070634,0.000000,0.000000,0.000000,0.000000,0.000000,0.000000
11785991.000000,-2.415838,-1.662463,1.040774,-1.353900,1.796533,1.081503,-0.548720,0.238618,0.015035,0.149249,-0.165594,-0.210502,0.312680,-0.191549,16.419416,35.119671,-21.417435,-1.992006,0.535978,1.487838,-0.103593,0.000000,0.000000,0.000000,0.000000,0.000000,0.000000
11785992.000000,-2.415559,-1.662454,1.040965,-1.354112,1.796255,1.081870,-0.548915,0.251950,0.010848,0.162469,-0.177329,-0.231121,0.330941,-0.190688,16.590010,35.068096,-21.516617,-1.992006,0.482877,1.546432,-0.116410,0.000000,0.000000,0.000000,0.000000,0.000000,0.000000
11785993.000000,-2.415255,-1.662449,1.041157,-1.354349,1.795966,1.082259,-0.549114,0.263929,0.010277,0.176324,-0.194915,-0.244757,0.346654,-0.197570,16.641584,35.068096,-21.492813,-1.869020,0.369352,1.670028,-0.064225,0.000000,0.000000,0.000000,0.000000,0.000000,0.000000
11785994.000000,-2.414939,-1.662446,1.041359,-1.354610,1.795658,1.082668,-0.549297,0.280325,0.006358,0.180487,-0.216115,-0.267664,0.367108,-0.192947,16.665388,35.091900,-21.417435,-1.694460,0.332731,1.721298,-0.116410,0.000000,0.000000,0.000000,0.000000,0.000000,0.000000
11785995.000000,-2.414606,-1.662450,1.041566,-1.354877,1.795321,1.083114,-0.549495,0.294856,0.001966,0.186334,-0.232767,-0.285387,0.390476,-0.194321,16.716963,35.191082,-21.270645,-1.595277,0.332731,1.689254,-0.056901,0.000000,0.000000,0.000000,0.000000,0.000000,0.000000
11785996.000000,-2.414255,-1.662448,1.041785,-1.355168,1.794972,1.083585,-0.549683,0.315397,0.001346,0.192606,-0.249133,-0.306340,0.413220,-0.191850,16.740767,35.191082,-21.223038,-1.448488,0.386747,1.624252,-0.083451,0.000000,0.000000,0.000000,0.000000,0.000000,0.000000
11785997.000000,-2.413893,-1.662453,1.042018,-1.355467,1.794608,1.084065,-0.549870,0.334250,-0.000839,0.207712,-0.263206,-0.322303,0.429719,-0.193963,16.740767,35.266460,-21.123856,-1.373109,0.452665,1.565658,-0.130143,0.000000,0.000000,0.000000,0.000000,0.000000,0.000000
11785998.000000,-2.413524,-1.662455,1.042264,-1.355777,1.794216,1.084580,-0.550068,0.343679,-0.000540,0.218676,-0.275743,-0.341815,0.454750,-0.195124,16.911360,35.266460,-21.024673,-1.349306,0.488370,1.519881,-0.070634,0.000000,0.000000,0.000000,0.000000,0.000000,0.000000
11785999.000000,-2.413144,-1.662459,1.042513,-1.356102,1.793812,1.085110,-0.550252,0.361179,-0.001459,0.223427,-0.291815,-0.362135,0.484802,-0.191691,17.109724,35.314068,-20.953262,-1.321535,0.547880,1.474105,-0.110001,0.000000,0.000000,0.000000,0.000000,0.000000,0.000000
11786000.000000,-2.412752,-1.662460,1.042775,-1.356431,1.793395,1.085666,-0.550425,0.370306,-0.000961,0.233197,-0.302144,-0.373207,0.509301,-0.188431,17.308088,35.314068,-20.854080,-1.373109,0.524076,1.467696,-0.155778,0.000000,0.000000,0.000000,0.000000,0.000000,0.000000
11786001.000000,-2.412345,-1.662461,1.043047,-1.356787,1.792968,1.086232,-0.550609,0.379871,-0.001746,0.239669,-0.316333,-0.389781,0.523955,-0.186287,17.506453,35.361675,-20.877884,-1.250124,0.428861,1.572067,-0.097184,0.000000,0.000000,0.000000,0.000000,0.000000,0.000000
11786002.000000,-2.411933,-1.662457,1.043327,-1.357150,1.792517,1.086818,-0.550785,0.390611,-0.000044,0.254427,-0.329122,-0.409862,0.550973,-0.181623,17.728621,35.314068,-20.830276,-1.198549,0.410551,1.630660,-0.110001,0.000000,0.000000,0.000000,0.000000,0.000000,0.000000
11786003.000000,-2.411504,-1.662460,1.043623,-1.357528,1.792055,1.087446,-0.550961,0.403951,-0.001138,0.267870,-0.339070,-0.428165,0.574342,-0.179184,17.978559,35.361675,-20.806473,-1.127138,0.369352,1.578475,-0.097184,0.000000,0.000000,0.000000,0.000000,0.000000,0.000000
11786004.000000,-2.411057,-1.662453,1.043918,-1.357923,1.791574,1.088091,-0.551125,0.418572,0.001472,0.272572,-0.357352,-0.440171,0.599254,-0.174633,18.200727,35.266460,-20.683487,-1.000185,0.386747,1.494247,-0.149369,0.000000,0.000000,0.000000,0.000000,0.000000,0.000000
11786005.000000,-2.410598,-1.662448,1.044236,-1.358328,1.791076,1.088764,-0.551296,0.431501,0.002747,0.286120,-0.372035,-0.454385,0.618335,-0.175438,18.323713,35.191082,-20.707291,-0.829591,0.446256,1.370651,-0.122819,0.000000,0.000000,0.000000,0.000000,0.000000,0.000000
11786006.000000,-2.410128,-1.662436,1.044560,-1.358756,1.790558,1.089459,-0.551465,0.440607,0.005824,0.300669,-0.385999,-0.471354,0.635711,-0.174382,18.545881,35.020489,-20.731094,-0.631227,0.524076,1.266280,-0.116410,0.000000,0.000000,0.000000,0.000000,0.000000,0.000000
11786007.000000,-2.409643,-1.662428,1.044889,-1.359190,1.790041,1.090151,-0.551627,0.448877,0.008489,0.304033,-0.406379,-0.485760,0.651534,-0.168213,18.498274,34.972881,-20.631912,-0.456667,0.655912,1.234237,-0.136552,0.000000,0.000000,0.000000,0.000000,0.000000,0.000000
11786008.000000,-2.409153,-1.662421,1.045232,-1.359641,1.789513,1.090868,-0.551790,0.454811,0.007158,0.320519,-0.421552,-0.498992,0.668443,-0.163800,17.926985,34.921307,-20.314529,-0.532045,0.774930,1.299239,-0.142960,0.000000,0.000000,0.000000,0.000000,0.000000,0.000000
11786009.000000,-2.408667,-1.662408,1.045593,-1.360112,1.788988,1.091595,-0.551955,0.457154,0.009538,0.332580,-0.435563,-0.502583,0.686831,-0.164746,16.816145,34.726910,-19.897964,-0.754213,0.817045,1.383468,-0.155778,0.000000,0.000000,0.000000,0.000000,0.000000,0.000000
11786010.000000,-2.408194,-1.662391,1.045987,-1.360585,1.788465,1.092336,-0.552124,0.459766,0.011660,0.356409,-0.445599,-0.507930,0.701400,-0.166668,15.205426,34.357952,-19.382217,-1.174745,0.828947,1.442062,-0.142960,0.000000,0.000000,0.000000,0.000000,0.000000,0.000000
11786011.000000,-2.407717,-1.662380,1.046405,-1.361069,1.787944,1.093106,-0.552288,0.465755,0.013239,0.378976,-0.458177,-0.506900,0.717584,-0.167316,13.273358,33.969158,-18.767288,-1.642885,0.667814,1.442062,-0.149369,0.000000,0.000000,0.000000,0.000000,0.000000,0.000000
11786012.000000,-2.407251,-1.662371,1.046845,-1.361575,1.787436,1.093879,-0.552448,0.475905,0.011213,0.394912,-0.466870,-0.502341,0.726051,-0.166657,11.345258,33.552593,-18.080948,-1.940431,0.524076,1.344100,-0.175919,0.000000,0.000000,0.000000,0.000000,0.000000,0.000000
11786013.000000,-2.406787,-1.662363,1.047307,-1.362067,1.786928,1.094666,-0.552619,0.478043,0.008801,0.417270,-0.471226,-0.501998,0.741986,-0.165361,9.559979,33.159832,-17.343033,-2.337160,0.351041,1.234237,-0.110001,0.000000,0.000000,0.000000,0.000000,0.000000,0.000000
11786014.000000,-2.406329,-1.662362,1.047788,-1.362572,1.786435,1.095464,-0.552776,0.474205,0.008709,0.432220,-0.477783,-0.494694,0.754988,-0.160978,7.977033,32.842449,-16.803482,-2.559328,0.195402,1.090499,-0.130143,0.000000,0.000000,0.000000,0.000000,0.000000,0.000000
11786015.000000,-2.405879,-1.662360,1.048283,-1.363063,1.785942,1.096235,-0.552939,0.470134,0.005822,0.451078,-0.480268,-0.496560,0.759020,-0.164283,6.592451,32.497295,-16.192520,-2.805300,0.105680,0.960494,-0.097184,0.000000,0.000000,0.000000,0.000000,0.000000,0.000000
11786016.000000,-2.405432,-1.662361,1.048783,-1.363551,1.785446,1.097019,-0.553091,0.464098,0.005806,0.466674,-0.478807,-0.489997,0.759154,-0.164633,5.477643,32.203716,-15.577591,-3.154421,0.069974,0.863448,-0.122819,0.000000,0.000000,0.000000,0.000000,0.000000,0.000000
11786017.000000,-2.404986,-1.662370,1.049275,-1.364030,1.784955,1.097790,-0.553247,0.459493,0.002978,0.470784,-0.471930,-0.491288,0.783566,-0.165255,4.537397,32.033123,-14.938858,-3.499574,0.201810,0.785628,-0.136552,0.000000,0.000000,0.000000,0.000000,0.000000,0.000000
11786018.000000,-2.404539,-1.662377,1.049778,-1.364501,1.784461,1.098550,-0.553406,0.453895,0.001158,0.481243,-0.471741,-0.493460,0.772030,-0.167079,3.720136,31.862530,-14.327896,-3.797121,0.285123,0.863448,-0.097184,0.000000,0.000000,0.000000,0.000000,0.000000,0.000000
11786019.000000,-2.404091,-1.662384,1.050279,-1.364984,1.783982,1.099309,-0.553554,0.447724,-0.003436,0.483563,-0.475007,-0.489902,0.763213,-0.165807,3.002058,31.691936,-13.812149,-3.892336,0.320829,0.966903,-0.149369,0.000000,0.000000,0.000000,0.000000,0.000000,0.000000
11786020.000000,-2.403629,-1.662390,1.050783,-1.365461,1.783503,1.100060,-0.553708,0.450318,-0.002679,0.494018,-0.472626,-0.491322,0.754942,-0.161148,2.160993,31.493572,-13.244827,-3.820925,0.356534,1.012679,-0.175919,0.000000,0.000000,0.000000,0.000000,0.000000,0.000000
11786021.000000,-2.403160,-1.662398,1.051293,-1.365955,1.783026,1.100829,-0.553862,0.452115,-0.003821,0.501183,-0.477776,-0.478629,0.755638,-0.158879,1.442914,31.374554,-12.780655,-3.547182,0.291532,0.954086,-0.175919,0.000000,0.000000,0.000000,0.000000,0.000000,0.000000
11786022.000000,-2.402677,-1.662396,1.051808,-1.366449,1.782559,1.101602,-0.554024,0.458046,-0.000536,0.503628,-0.482697,-0.472093,0.763418,-0.159511,0.697065,31.080975,-12.487076,-3.202028,0.279630,0.857040,-0.103593,0.000000,0.000000,0.000000,0.000000,0.000000,0.000000
11786023.000000,-2.402201,-1.662390,1.052327,-1.366940,1.782102,1.102352,-0.554180,0.461728,-0.001650,0.513105,-0.485354,-0.466096,0.755709,-0.158138,0.006757,30.787395,-12.189529,-2.856874,0.141385,0.857040,-0.083451,0.000000,0.000000,0.000000,0.000000,0.000000,0.000000
11786024.000000,-2.401724,-1.662380,1.052858,-1.367419,1.781636,1.103109,-0.554326,0.465613,0.001959,0.524431,-0.482564,-0.460734,0.747867,-0.158502,-0.512957,30.442242,-12.018936,-2.658510,0.076383,0.895492,-0.149369,0.000000,0.000000,0.000000,0.000000,0.000000,0.000000
11786025.000000,-2.401254,-1.662364,1.053382,-1.367887,1.781179,1.103849,-0.554489,0.468050,0.007831,0.522827,-0.490559,-0.455278,0.748650,-0.159238,-0.933489,30.101055,-11.848343,-2.634706,0.093778,0.915633,-0.089860,0.000000,0.000000,0.000000,0.000000,0.000000,0.000000
11786026.000000,-2.400793,-1.662346,1.053912,-1.368354,1.780712,1.104601,-0.554638,0.463780,0.009702,0.526471,-0.487767,-0.457798,0.747024,-0.159101,-1.060443,29.708294,-11.626175,-2.706117,0.076383,0.980636,-0.163102,0.000000,0.000000,0.000000,0.000000,0.000000,0.000000
11786027.000000,-2.400321,-1.662323,1.054458,-1.368813,1.780251,1.105351,-0.554802,0.463942,0.016205,0.533762,-0.474434,-0.458760,0.744131,-0.159278,-1.306414,29.244122,-11.602371,-2.856874,0.123990,1.110641,-0.110001,0.000000,0.000000,0.000000,0.000000,0.000000,0.000000
11786028.000000,-2.399853,-1.662299,1.055017,-1.369261,1.779790,1.106084,-0.554959,0.463833,0.016787,0.547829,-0.468303,-0.458887,0.738963,-0.160474,-1.528582,28.803753,-11.550797,-3.027467,0.166105,1.207687,-0.149369,0.000000,0.000000,0.000000,0.000000,0.000000,0.000000
11786029.000000,-2.399378,-1.662280,1.055583,-1.369715,1.779325,1.106850,-0.555114,0.463319,0.015028,0.556521,-0.461747,-0.458669,0.745268,-0.162939,-1.750750,28.458599,-11.479385,-3.126650,0.195402,1.117049,-0.163102,0.000000,0.000000,0.000000,0.000000,0.000000,0.000000
11786030.000000,-2.398900,-1.662263,1.056141,-1.370169,1.778872,1.107616,-0.555277,0.471759,0.015270,0.551707,-0.456953,-0.458893,0.757888,-0.161736,-2.147479,28.192791,-11.257217,-3.249635,0.243009,0.974227,-0.110001,0.000000,0.000000,0.000000,0.000000,0.000000,0.000000
11786031.000000,-2.398414,-1.662243,1.056725,-1.370613,1.778421,1.108385,-0.555425,0.473799,0.014652,0.565453,-0.453069,-0.459052,0.754432,-0.162605,-2.520403,27.970623,-11.209610,-3.249635,0.195402,0.908309,-0.142960,0.000000,0.000000,0.000000,0.000000,0.000000,0.000000
11786032.000000,-2.397926,-1.662229,1.057291,-1.371056,1.777974,1.109150,-0.555579,0.473325,0.015568,0.560728,-0.447458,-0.458934,0.753183,-0.164766,-2.841753,27.847637,-10.963638,-3.325014,0.171598,0.908309,-0.136552,0.000000,0.000000,0.000000,0.000000,0.000000,0.000000
11786033.000000,-2.397438,-1.662221,1.057873,-1.371484,1.777527,1.109898,-0.555734,0.479901,0.010260,0.575540,-0.446100,-0.453260,0.748220,-0.160825,-3.163104,27.847637,-10.646255,-3.448000,0.171598,0.908309,-0.149369,0.000000,0.000000,0.000000,0.000000,0.000000,0.000000
11786034.000000,-2.396940,-1.662214,1.058461,-1.371917,1.777085,1.110660,-0.555887,0.486435,0.006751,0.583237,-0.439260,-0.449398,0.743731,-0.163796,-3.583636,27.847637,-10.301102,-3.547182,0.076383,0.889083,-0.130143,0.000000,0.000000,0.000000,0.000000,0.000000,0.000000
11786035.000000,-2.396440,-1.662207,1.059049,-1.372340,1.776646,1.111404,-0.556036,0.487784,0.007374,0.583905,-0.432786,-0.446274,0.759868,-0.159198,-3.928790,27.871441,-10.007523,-3.697939,0.081876,0.901900,-0.163102,0.000000,0.000000,0.000000,0.000000,0.000000,0.000000
11786036.000000,-2.395939,-1.662203,1.059660,-1.372749,1.776211,1.112155,-0.556186,0.493643,0.007431,0.596150,-0.427168,-0.443195,0.756628,-0.157528,-4.377093,27.923016,-9.809158,-3.920107,0.093778,0.954086,-0.136552,0.000000,0.000000,0.000000,0.000000,0.000000,0.000000
11786037.000000,-2.395442,-1.662203,1.060273,-1.373170,1.775777,1.112915,-0.556338,0.490525,0.006651,0.593865,-0.425489,-0.444637,0.751048,-0.151668,-4.698443,28.018230,-9.686172,-3.991518,0.052579,0.954086,-0.122819,0.000000,0.000000,0.000000,0.000000,0.000000,0.000000
11786038.000000,-2.394945,-1.662204,1.060899,-1.373570,1.775341,1.113659,-0.556486,0.493325,0.006236,0.594577,-0.417822,-0.443209,0.753642,-0.150666,-5.043597,28.117413,-9.515579,-4.241457,0.076383,0.915633,-0.142960,0.000000,0.000000,0.000000,0.000000,0.000000,0.000000
11786039.000000,-2.394443,-1.662205,1.061548,-1.373979,1.774911,1.114419,-0.556629,0.497430,0.003814,0.614379,-0.415527,-0.439610,0.752882,-0.150012,-5.364947,28.165020,-9.515579,-4.340639,0.052579,0.895492,-0.163102,0.000000,0.000000,0.000000,0.000000,0.000000,0.000000
11786040.000000,-2.393934,-1.662208,1.062201,-1.374375,1.774492,1.115179,-0.556779,0.497126,0.001358,0.626536,-0.407364,-0.430619,0.751436,-0.150950,-5.662493,28.240398,-9.662369,-4.562807,-0.037142,0.934859,-0.142960,0.000000,0.000000,0.000000,0.000000,0.000000,0.000000
11786041.000000,-2.393424,-1.662203,1.062884,-1.374773,1.774069,1.115920,-0.556929,0.503392,0.002452,0.648937,-0.408559,-0.420566,0.746528,-0.147126,-6.083025,28.192791,-9.908340,-4.634218,-0.067355,0.954086,-0.130143,0.000000,0.000000,0.000000,0.000000,0.000000,0.000000
11786042.000000,-2.392917,-1.662206,1.063567,-1.375173,1.773643,1.116687,-0.557072,0.499571,0.000846,0.665715,-0.405663,-0.422832,0.751512,-0.146413,-6.356768,28.240398,-10.007523,-4.685792,-0.103060,0.857040,-0.175919,0.000000,0.000000,0.000000,0.000000,0.000000,0.000000
11786043.000000,-2.392403,-1.662208,1.064255,-1.375560,1.773208,1.117439,-0.557227,0.501512,0.000251,0.668177,-0.411091,-0.423978,0.757698,-0.150725,-6.753497,28.264202,-10.178116,-4.757204,-0.037142,0.836898,-0.089860,0.000000,0.000000,0.000000,0.000000,0.000000,0.000000
11786044.000000,-2.391888,-1.662212,1.064961,-1.375953,1.772778,1.118169,-0.557369,0.504439,-0.000206,0.681560,-0.402014,-0.422756,0.747788,-0.148741,-7.098650,28.288006,-10.372513,-4.808778,0.015958,1.071273,-0.142960,0.000000,0.000000,0.000000,0.000000,0.000000,0.000000
11786045.000000,-2.391368,-1.662221,1.065664,-1.376343,1.772361,1.118914,-0.557511,0.505763,-0.002877,0.688109,-0.399940,-0.425597,0.745819,-0.142745,-7.420001,28.410992,-10.447891,-4.907960,0.022367,1.175643,-0.196061,0.000000,0.000000,0.000000,0.000000,0.000000,0.000000
11786046.000000,-2.390849,-1.662233,1.066383,-1.376732,1.771927,1.119655,-0.557667,0.508403,-0.005806,0.704860,-0.396128,-0.425805,0.738861,-0.148749,-7.792925,28.581585,-10.424088,-4.983339,0.093778,1.175643,-0.097184,0.000000,0.000000,0.000000,0.000000,0.000000,0.000000
11786047.000000,-2.390331,-1.662244,1.067108,-1.377136,1.771494,1.120414,-0.557802,0.504814,-0.007227,0.715173,-0.399671,-0.420237,0.739279,-0.146054,-8.114276,28.728374,-10.348709,-4.884157,0.147794,1.110641,-0.182328,0.000000,0.000000,0.000000,0.000000,0.000000,0.000000
11786048.000000,-2.389820,-1.662253,1.067840,-1.377546,1.771080,1.121134,-0.557953,0.514963,-0.007080,0.714591,-0.401183,-0.421394,0.739705,-0.149388,-8.388019,28.827557,-10.301102,-4.733400,0.088285,1.201278,-0.122819,0.000000,0.000000,0.000000,0.000000,0.000000,0.000000
11786049.000000,-2.389309,-1.662269,1.068588,-1.377951,1.770655,1.121874,-0.558092,0.510472,-0.013144,0.722566,-0.402251,-0.420455,0.738326,-0.149344,-8.534808,29.045757,-10.277298,-4.562807,0.123990,1.220504,-0.130143,0.000000,0.000000,0.000000,0.000000,0.000000,0.000000
11786050.000000,-2.388793,-1.662282,1.069329,-1.378363,1.770248,1.122626,-0.558236,0.509722,-0.015357,0.722505,-0.401031,-0.424282,0.736091,-0.147791,-8.657794,29.168743,-10.078934,-4.412050,0.076383,1.136276,-0.182328,0.000000,0.000000,0.000000,0.000000,0.000000,0.000000
11786051.000000,-2.388294,-1.662292,1.070084,-1.378754,1.769831,1.123364,-0.558387,0.507710,-0.016527,0.743241,-0.398034,-0.426766,0.735893,-0.151647,-8.709369,29.267925,-9.908340,-4.388246,0.069974,1.006271,-0.103593,0.000000,0.000000,0.000000,0.000000,0.000000,0.000000
11786052.000000,-2.387791,-1.662306,1.070859,-1.379146,1.769416,1.124103,-0.558524,0.503789,-0.014542,0.754345,-0.394065,-0.417603,0.732297,-0.149220,-8.756976,29.390911,-9.709976,-4.439821,0.040677,1.039230,-0.163102,0.000000,0.000000,0.000000,0.000000,0.000000,0.000000
11786053.000000,-2.387298,-1.662309,1.071631,-1.379543,1.769011,1.124844,-0.558667,0.496563,-0.009624,0.757011,-0.392659,-0.416495,0.745012,-0.144570,-8.610187,29.367107,-9.590958,-4.439821,0.015958,1.090499,-0.169511,0.000000,0.000000,0.000000,0.000000,0.000000,0.000000
11786054.000000,-2.386816,-1.662314,1.072405,-1.379928,1.768594,1.125577,-0.558812,0.495540,-0.010275,0.766489,-0.388678,-0.419513,0.736930,-0.143120,-8.511004,29.367107,-9.170425,-4.562807,0.015958,1.104232,-0.130143,0.000000,0.000000,0.000000,0.000000,0.000000,0.000000
11786055.000000,-2.386322,-1.662317,1.073190,-1.380316,1.768173,1.126325,-0.558958,0.491999,-0.009544,0.779134,-0.384144,-0.415720,0.741656,-0.141596,-8.459430,29.315533,-8.976028,-4.610414,0.058073,1.084090,-0.097184,0.000000,0.000000,0.000000,0.000000,0.000000,0.000000
11786056.000000,-2.385837,-1.662315,1.073997,-1.380705,1.767767,1.127072,-0.559096,0.490187,-0.007760,0.781747,-0.385286,-0.411395,0.737437,-0.142895,-8.411822,29.196514,-8.829239,-4.634218,0.069974,1.031905,-0.116410,0.000000,0.000000,0.000000,0.000000,0.000000,0.000000
11786057.000000,-2.385349,-1.662309,1.074816,-1.381097,1.767355,1.127845,-0.559225,0.484687,-0.002463,0.795218,-0.382308,-0.411334,0.745809,-0.137731,-8.435626,29.045757,-8.753860,-4.661989,0.064481,0.869857,-0.182328,0.000000,0.000000,0.000000,0.000000,0.000000,0.000000
11786058.000000,-2.384861,-1.662297,1.075638,-1.381497,1.766954,1.128617,-0.559373,0.482780,0.010566,0.793742,-0.380799,-0.407858,0.750756,-0.143401,-8.312640,28.950542,-8.900650,-4.661989,0.076383,0.765487,-0.122819,0.000000,0.000000,0.000000,0.000000,0.000000,0.000000
11786059.000000,-2.384382,-1.662296,1.076457,-1.381875,1.766564,1.129374,-0.559512,0.486466,0.009822,0.796289,-0.373942,-0.403339,0.756071,-0.139404,-8.114276,29.291729,-9.245804,-4.784975,0.027860,0.746261,-0.155778,0.000000,0.000000,0.000000,0.000000,0.000000,0.000000
11786060.000000,-2.383903,-1.662296,1.077274,-1.382268,1.766167,1.130131,-0.559658,0.481798,0.010740,0.802180,-0.377287,-0.401634,0.750877,-0.139400,-7.642169,29.902691,-9.908340,-4.784975,0.022367,0.941268,-0.110001,0.000000,0.000000,0.000000,0.000000,0.000000,0.000000
11786061.000000,-2.383430,-1.662291,1.078066,-1.382649,1.765782,1.130870,-0.559797,0.479210,0.009132,0.788511,-0.384025,-0.395036,0.748721,-0.141203,-7.122454,30.640606,-10.765274,-4.808778,-0.001437,1.149093,-0.142960,0.000000,0.000000,0.000000,0.000000,0.000000,0.000000
11786062.000000,-2.382952,-1.662281,1.078858,-1.383036,1.765405,1.131647,-0.559934,0.479035,0.010645,0.798120,-0.383792,-0.389451,0.749049,-0.138932,-6.503558,31.469769,-11.725357,-4.884157,-0.013339,1.182052,-0.142960,0.000000,0.000000,0.000000,0.000000,0.000000,0.000000
11786063.000000,-2.382460,-1.662256,1.079648,-1.383422,1.765023,1.132431,-0.560077,0.477113,0.008945,0.793948,-0.381713,-0.394406,0.752149,-0.137829,-6.059222,32.156109,-12.852066,-4.884157,0.069974,1.155502,-0.130143,0.000000,0.000000,0.000000,0.000000,0.000000,0.000000
11786064.000000,-2.381972,-1.662232,1.080443,-1.383799,1.764633,1.133192,-0.560210,0.482163,0.014949,0.804989,-0.379767,-0.393868,0.756323,-0.135116,-5.761675,32.842449,-13.982742,-4.931764,0.166105,1.194869,-0.163102,0.000000,0.000000,0.000000,0.000000,0.000000,0.000000
11786065.000000,-2.381479,-1.662202,1.081240,-1.384191,1.764241,1.133960,-0.560343,0.479323,0.015975,0.808297,-0.379079,-0.388965,0.754221,-0.130489,-5.515704,33.382000,-14.891251,-4.784975,0.279630,1.324874,-0.149369,0.000000,0.000000,0.000000,0.000000,0.000000,0.000000
11786066.000000,-2.380980,-1.662176,1.082029,-1.384587,1.763855,1.134713,-0.560476,0.491882,0.016300,0.799516,-0.384430,-0.386754,0.759822,-0.130389,-5.317339,33.917583,-15.700577,-4.661989,0.434354,1.442062,-0.155778,0.000000,0.000000,0.000000,0.000000,0.000000,0.000000
11786067.000000,-2.380493,-1.662144,1.082835,-1.384977,1.763463,1.135461,-0.560608,0.492539,0.020261,0.804947,-0.387425,-0.384225,0.749285,-0.130381,-5.166583,34.310345,-16.386917,-4.562807,0.464567,1.578475,-0.169511,0.000000,0.000000,0.000000,0.000000,0.000000,0.000000
11786068.000000,-2.380008,-1.662114,1.083642,-1.385362,1.763087,1.136213,-0.560744,0.486630,0.026882,0.805574,-0.383610,-0.391915,0.751042,-0.126600,-4.896807,34.679302,-17.124832,-4.562807,0.410551,1.708480,-0.155778,0.000000,0.000000,0.000000,0.000000,0.000000,0.000000
11786069.000000,-2.379532,-1.662086,1.084455,-1.385735,1.762720,1.136954,-0.560874,0.482029,0.029447,0.818950,-0.382385,-0.383030,0.756353,-0.126486,-4.599261,34.996685,-17.589005,-4.661989,0.267728,1.735030,-0.196061,0.000000,0.000000,0.000000,0.000000,0.000000,0.000000
11786070.000000,-2.379061,-1.662070,1.085277,-1.386107,1.762333,1.137712,-0.561009,0.474083,0.024667,0.820068,-0.377513,-0.387946,0.752754,-0.129548,-4.277911,35.437054,-18.005569,-4.808778,0.189908,1.662704,-0.155778,0.000000,0.000000,0.000000,0.000000,0.000000,0.000000
11786071.000000,-2.378584,-1.662057,1.086097,-1.386484,1.761949,1.138439,-0.561142,0.473971,0.017523,0.816920,-0.374779,-0.385678,0.764087,-0.130723,-4.027972,35.877422,-18.374527,-4.931764,0.183500,1.741439,-0.155778,0.000000,0.000000,0.000000,0.000000,0.000000,0.000000
11786072.000000,-2.378111,-1.662045,1.086937,-1.386848,1.761566,1.139167,-0.561274,0.473459,0.014094,0.821780,-0.373645,-0.381307,0.748434,-0.131326,-3.904986,36.242413,-18.791092,-5.030946,0.147794,1.851302,-0.149369,0.000000,0.000000,0.000000,0.000000,0.000000,0.000000
11786073.000000,-2.377639,-1.662050,1.087765,-1.387213,1.761158,1.139920,-0.561401,0.469440,0.007685,0.819305,-0.366665,-0.389879,0.746751,-0.130856,-3.682818,36.758160,-19.064835,-5.205507,0.273221,1.812850,-0.169511,0.000000,0.000000,0.000000,0.000000,0.000000,0.000000
11786074.000000,-2.377171,-1.662058,1.088609,-1.387559,1.760758,1.140671,-0.561534,0.467923,0.000438,0.816059,-0.367065,-0.390881,0.749490,-0.127522,-3.607440,37.246136,-19.382217,-5.499086,0.386747,1.552840,-0.136552,0.000000,0.000000,0.000000,0.000000,0.000000,0.000000
11786075.000000,-2.376690,-1.662075,1.089471,-1.387912,1.760367,1.141431,-0.561661,0.468863,-0.006263,0.832390,-0.360411,-0.387319,0.749827,-0.127609,-3.631243,37.785686,-19.774979,-5.796632,0.410551,1.396285,-0.163102,0.000000,0.000000,0.000000,0.000000,0.000000,0.000000
11786076.000000,-2.376202,-1.662097,1.090315,-1.388260,1.759977,1.142165,-0.561794,0.474317,-0.015035,0.829192,-0.352712,-0.390166,0.742798,-0.123915,-3.758196,38.349041,-20.068558,-6.070375,0.434354,1.474105,-0.163102,0.000000,0.000000,0.000000,0.000000,0.000000,0.000000
11786077.000000,-2.375726,-1.662131,1.091169,-1.388608,1.759585,1.142870,-0.561935,0.474214,-0.022576,0.842151,-0.353674,-0.391437,0.728916,-0.127608,-3.857378,38.960003,-20.290726,-6.217165,0.434354,1.643478,-0.122819,0.000000,0.000000,0.000000,0.000000,0.000000,0.000000
11786078.000000,-2.375238,-1.662171,1.092012,-1.388958,1.759200,1.143597,-0.562060,0.477442,-0.025236,0.843888,-0.347077,-0.387567,0.723813,-0.126326,-4.027972,39.598736,-20.362137,-6.363954,0.428861,1.793624,-0.188737,0.000000,0.000000,0.000000,0.000000,0.000000,0.000000
11786079.000000,-2.374756,-1.662206,1.092859,-1.389310,1.758822,1.144305,-0.562199,0.481083,-0.027530,0.840294,-0.349601,-0.387446,0.719743,-0.129918,-4.202532,40.110516,-20.584305,-6.490907,0.369352,1.995040,-0.130143,0.000000,0.000000,0.000000,0.000000,0.000000,0.000000
11786080.000000,-2.374269,-1.662242,1.093701,-1.389657,1.758437,1.145029,-0.562327,0.481061,-0.031723,0.841003,-0.350843,-0.382292,0.716943,-0.129204,-4.400897,40.578655,-20.683487,-6.637697,0.320829,2.066451,-0.163102,0.000000,0.000000,0.000000,0.000000,0.000000,0.000000
11786081.000000,-2.373774,-1.662284,1.094537,-1.390005,1.758059,1.145777,-0.562459,0.482579,-0.036171,0.834918,-0.346702,-0.382587,0.727570,-0.128763,-4.674639,41.090435,-20.754898,-6.713075,0.339139,1.936446,-0.196061,0.000000,0.000000,0.000000,0.000000,0.000000,0.000000
11786082.000000,-2.373284,-1.662318,1.095373,-1.390348,1.757685,1.146513,-0.562598,0.484001,-0.032711,0.845324,-0.345966,-0.382360,0.724244,-0.127385,-4.968218,41.459393,-20.806473,-6.836061,0.362943,1.825668,-0.130143,0.000000,0.000000,0.000000,0.000000,0.000000,0.000000
11786083.000000,-2.372796,-1.662348,1.096217,-1.390692,1.757300,1.147260,-0.562719,0.481578,-0.031565,0.851021,-0.344668,-0.382108,0.727480,-0.121947,-5.166583,41.729168,-20.806473,-6.982851,0.381254,1.760665,-0.182328,0.000000,0.000000,0.000000,0.000000,0.000000,0.000000
11786084.000000,-2.372300,-1.662386,1.097046,-1.391033,1.756926,1.147980,-0.562852,0.493224,-0.033132,0.838785,-0.341780,-0.377535,0.722276,-0.121147,-5.487933,42.094158,-20.806473,-7.205019,0.410551,1.812850,-0.142960,0.000000,0.000000,0.000000,0.000000,0.000000,0.000000
11786085.000000,-2.371828,-1.662428,1.097888,-1.391363,1.756554,1.148715,-0.562980,0.485837,-0.032309,0.845285,-0.338159,-0.372747,0.723855,-0.119998,-5.539507,42.510723,-20.754898,-7.379579,0.434354,1.858627,-0.130143,0.000000,0.000000,0.000000,0.000000,0.000000,0.000000
11786086.000000,-2.371348,-1.662460,1.098716,-1.391679,1.756189,1.149454,-0.563105,0.483539,-0.031674,0.835336,-0.333578,-0.371473,0.726580,-0.121076,-5.587115,42.780499,-20.707291,-7.724733,0.369352,1.858627,-0.182328,0.000000,0.000000,0.000000,0.000000,0.000000,0.000000
11786087.000000,-2.370870,-1.662483,1.099553,-1.391995,1.755823,1.150181,-0.563242,0.481449,-0.028472,0.824449,-0.329481,-0.367088,0.727535,-0.126080,-5.737872,42.927288,-20.584305,-8.022280,0.332731,1.767074,-0.122819,0.000000,0.000000,0.000000,0.000000,0.000000,0.000000
11786088.000000,-2.370399,-1.662503,1.100395,-1.392310,1.755466,1.150921,-0.563362,0.477667,-0.024268,0.832331,-0.323948,-0.362646,0.728263,-0.126294,-5.737872,42.974895,-20.584305,-8.292055,0.273221,1.741439,-0.155778,0.000000,0.000000,0.000000,0.000000,0.000000,0.000000
11786089.000000,-2.369916,-1.662530,1.101230,-1.392637,1.755108,1.151660,-0.563485,0.476784,-0.023234,0.826247,-0.325419,-0.363390,0.744806,-0.126545,-5.860857,43.097881,-20.608109,-8.442812,0.308927,1.727706,-0.196061,0.000000,0.000000,0.000000,0.000000,0.000000,0.000000
11786090.000000,-2.369439,-1.662552,1.102062,-1.392950,1.754752,1.152381,-0.563611,0.474195,-0.020857,0.834265,-0.320748,-0.355987,0.735034,-0.128403,-6.059222,43.145489,-20.560501,-8.589602,0.267728,1.793624,-0.188737,0.000000,0.000000,0.000000,0.000000,0.000000,0.000000
11786091.000000,-2.368965,-1.662572,1.102885,-1.393259,1.754385,1.153116,-0.563744,0.472945,-0.017616,0.837894,-0.317161,-0.358365,0.738670,-0.132095,-6.182208,43.121685,-20.485123,-8.811769,0.297025,1.800033,-0.116410,0.000000,0.000000,0.000000,0.000000,0.000000,0.000000
11786092.000000,-2.368504,-1.662592,1.103732,-1.393563,1.754042,1.153844,-0.563861,0.470389,-0.016102,0.829027,-0.319273,-0.357112,0.734014,-0.124620,-6.206011,43.121685,-20.659683,-9.061708,0.255826,1.793624,-0.182328,0.000000,0.000000,0.000000,0.000000,0.000000,0.000000
11786093.000000,-2.368035,-1.662610,1.104584,-1.393863,1.753694,1.154579,-0.563982,0.468626,-0.014132,0.832591,-0.309260,-0.353516,0.727914,-0.121684,-6.206011,43.074078,-20.830276,-9.355288,0.159696,1.812850,-0.188737,0.000000,0.000000,0.000000,0.000000,0.000000,0.000000
11786094.000000,-2.367572,-1.662629,1.105413,-1.394166,1.753347,1.155319,-0.564111,0.463515,-0.012987,0.822872,-0.304474,-0.348197,0.731084,-0.127182,-6.182208,43.026470,-20.905655,-9.652834,0.105680,1.773483,-0.110001,0.000000,0.000000,0.000000,0.000000,0.000000,0.000000
11786095.000000,-2.367120,-1.662649,1.106258,-1.394466,1.752995,1.156052,-0.564231,0.459530,-0.013371,0.830818,-0.299461,-0.343103,0.732662,-0.121917,-6.134600,43.026470,-21.052444,-9.898806,0.141385,1.747848,-0.169511,0.000000,0.000000,0.000000,0.000000,0.000000,0.000000
11786096.000000,-2.366667,-1.662665,1.107102,-1.394767,1.752649,1.156781,-0.564359,0.456024,-0.015737,0.838940,-0.297338,-0.346002,0.728455,-0.126607,-5.983843,42.974895,-21.223038,-10.049562,0.112089,1.838485,-0.116410,0.000000,0.000000,0.000000,0.000000,0.000000,0.000000
11786097.000000,-2.366218,-1.662682,1.107939,-1.395062,1.752305,1.157486,-0.564484,0.460373,-0.014756,0.833827,-0.294487,-0.343930,0.716918,-0.122589,-5.912432,42.951092,-21.417435,-10.271730,0.093778,1.942855,-0.136552,0.000000,0.000000,0.000000,0.000000,0.000000,0.000000
11786098.000000,-2.365784,-1.662698,1.108776,-1.395359,1.751960,1.158226,-0.564603,0.451611,-0.013996,0.836798,-0.295342,-0.342158,0.723617,-0.124031,-5.614886,42.927288,-21.492813,-10.370913,0.088285,1.890670,-0.163102,0.000000,0.000000,0.000000,0.000000,0.000000,0.000000
11786099.000000,-2.365353,-1.662715,1.109611,-1.395647,1.751627,1.158976,-0.564731,0.440872,-0.013548,0.830942,-0.295214,-0.340645,0.730998,-0.127366,-5.265765,42.903484,-21.663406,-10.593081,0.058073,1.773483,-0.130143,0.000000,0.000000,0.000000,0.000000,0.000000,0.000000
11786100.000000,-2.364931,-1.662724,1.110453,-1.395943,1.751286,1.159698,-0.564852,0.433011,-0.011463,0.843231,-0.297288,-0.344218,0.730141,-0.127573,-4.896807,42.804302,-21.762589,-10.616884,0.022367,1.825668,-0.155778,0.000000,0.000000,0.000000,0.000000,0.000000,0.000000
11786101.000000,-2.364517,-1.662739,1.111297,-1.396234,1.750946,1.160418,-0.564976,0.421760,-0.011788,0.847970,-0.294417,-0.342288,0.727127,-0.125367,-4.448504,42.780499,-21.837967,-10.668459,0.004056,1.897079,-0.130143,0.000000,0.000000,0.000000,0.000000,0.000000,0.000000
11786102.000000,-2.364098,-1.662758,1.112122,-1.396536,1.750617,1.161141,-0.565092,0.426282,-0.017001,0.839004,-0.296189,-0.337455,0.724908,-0.120660,-4.103350,42.828106,-21.837967,-10.692263,0.010465,1.897079,-0.169511,0.000000,0.000000,0.000000,0.000000,0.000000,0.000000
11786103.000000,-2.363693,-1.662771,1.112966,-1.396836,1.750280,1.161881,-0.565208,0.419287,-0.018687,0.845333,-0.296742,-0.339269,0.724598,-0.123702,-3.706622,42.780499,-21.909378,-10.616884,0.076383,1.858627,-0.149369,0.000000,0.000000,0.000000,0.000000,0.000000,0.000000
11786104.000000,-2.363283,-1.662785,1.113805,-1.397143,1.749949,1.162612,-0.565324,0.414417,-0.013593,0.844425,-0.300193,-0.343970,0.724383,-0.120633,-3.361468,42.756695,-22.107742,-10.493898,-0.001437,1.800033,-0.163102,0.000000,0.000000,0.000000,0.000000,0.000000,0.000000
11786105.000000,-2.362883,-1.662796,1.114657,-1.397460,1.749609,1.163349,-0.565441,0.409856,-0.012186,0.841596,-0.305540,-0.343917,0.729164,-0.123801,-3.063921,42.681316,-22.302139,-10.271730,0.022367,1.741439,-0.155778,0.000000,0.000000,0.000000,0.000000,0.000000,0.000000
11786107.000000,-2.362087,-1.662841,1.116358,-1.398110,1.748938,1.164812,-0.565672,0.401796,-0.017437,0.849315,-0.318368,-0.336779,0.733273,-0.119545,-2.421221,42.903484,-22.794083,-9.775820,0.093778,1.767074,-0.155778,0.000000,0.000000,0.000000,0.000000,0.000000,0.000000
11786108.000000,-2.361695,-1.662858,1.117216,-1.398435,1.748593,1.165518,-0.565790,0.400474,-0.017305,0.865725,-0.323360,-0.338560,0.725438,-0.123922,-2.147479,42.951092,-23.111465,-9.605227,0.123990,1.981307,-0.122819,0.000000,0.000000,0.000000,0.000000,0.000000,0.000000
11786109.000000,-2.361307,-1.662884,1.118066,-1.398767,1.748257,1.166247,-0.565898,0.393396,-0.019053,0.871117,-0.322924,-0.334660,0.718988,-0.118994,-1.802325,43.074078,-23.504227,-9.454470,0.135892,2.072860,-0.188737,0.000000,0.000000,0.000000,0.000000,0.000000,0.000000
11786110.000000,-2.360920,-1.662912,1.118925,-1.399103,1.747926,1.166979,-0.566018,0.392336,-0.024995,0.867037,-0.331858,-0.337918,0.720656,-0.118981,-1.580157,43.244671,-23.825577,-9.256105,0.189908,2.039901,-0.149369,0.000000,0.000000,0.000000,0.000000,0.000000,0.000000
11786111.000000,-2.360530,-1.662938,1.119786,-1.399448,1.747579,1.167715,-0.566131,0.391147,-0.028402,0.872033,-0.338324,-0.339484,0.721607,-0.116980,-1.354022,43.391460,-24.071548,-9.010134,0.237516,1.981307,-0.163102,0.000000,0.000000,0.000000,0.000000,0.000000,0.000000
11786112.000000,-2.360137,-1.662967,1.120625,-1.399804,1.747237,1.168439,-0.566244,0.391793,-0.027406,0.862037,-0.342556,-0.335980,0.719022,-0.111905,-1.183428,43.538250,-24.166763,-8.641176,0.273221,2.020675,-0.149369,0.000000,0.000000,0.000000,0.000000,0.000000,0.000000
11786113.000000,-2.359755,-1.662995,1.121487,-1.400156,1.746888,1.169144,-0.566360,0.387675,-0.025494,0.872631,-0.344436,-0.336088,0.711169,-0.112935,-0.961260,43.637432,-24.412735,-8.319826,0.386747,2.092086,-0.136552,0.000000,0.000000,0.000000,0.000000,0.000000,0.000000
11786114.000000,-2.359368,-1.663027,1.122339,-1.400513,1.746553,1.169846,-0.566461,0.387282,-0.025322,0.873406,-0.344528,-0.339815,0.704630,-0.110648,-0.786700,43.784222,-24.464310,-8.022280,0.356534,2.137862,-0.202470,0.000000,0.000000,0.000000,0.000000,0.000000,0.000000
11786115.000000,-2.358998,-1.663061,1.123175,-1.400871,1.746214,1.170564,-0.566584,0.388450,-0.026202,0.855331,-0.345663,-0.338963,0.707251,-0.114744,-0.465350,43.978619,-24.488113,-7.847719,0.344633,2.027084,-0.110001,0.000000,0.000000,0.000000,0.000000,0.000000,0.000000
11786116.000000,-2.358622,-1.663093,1.124026,-1.401225,1.745871,1.171290,-0.566692,0.383814,-0.029073,0.859139,-0.345862,-0.334380,0.713664,-0.112036,-0.191607,44.125408,-24.511917,-7.700929,0.374845,1.923629,-0.169511,0.000000,0.000000,0.000000,0.000000,0.000000,0.000000
11786117.000000,-2.358249,-1.663122,1.124864,-1.401588,1.745546,1.172004,-0.566801,0.379481,-0.026040,0.845105,-0.349451,-0.325509,0.708264,-0.110697,0.105939,44.200787,-24.535721,-7.526369,0.351041,1.955673,-0.215287,0.000000,0.000000,0.000000,0.000000,0.000000,0.000000
11786118.000000,-2.357875,-1.663154,1.125708,-1.401955,1.745203,1.172701,-0.566925,0.377575,-0.028643,0.834397,-0.353970,-0.335966,0.709818,-0.114449,0.228925,44.323772,-24.412735,-7.304201,0.410551,2.092086,-0.136552,0.000000,0.000000,0.000000,0.000000,0.000000,0.000000
11786119.000000,-2.357504,-1.663182,1.126545,-1.402330,1.744859,1.173418,-0.567036,0.376541,-0.029362,0.836043,-0.360824,-0.333324,0.705872,-0.112817,0.427289,44.395184,-24.242142,-7.058229,0.452665,2.085677,-0.175919,0.000000,0.000000,0.000000,0.000000,0.000000,0.000000
11786120.000000,-2.357127,-1.663209,1.127381,-1.402712,1.744520,1.174146,-0.567150,0.375670,-0.029338,0.829391,-0.365737,-0.331916,0.725411,-0.113819,0.526471,44.442791,-24.265945,-6.836061,0.506681,1.909896,-0.149369,0.000000,0.000000,0.000000,0.000000,0.000000,0.000000
11786121.000000,-2.356748,-1.663226,1.128228,-1.403099,1.744187,1.174875,-0.567264,0.377485,-0.026247,0.837368,-0.375572,-0.328152,0.728453,-0.109053,0.502668,44.347576,-24.388931,-6.490907,0.518583,1.760665,-0.155778,0.000000,0.000000,0.000000,0.000000,0.000000,0.000000
11786122.000000,-2.356362,-1.663250,1.129051,-1.403495,1.743861,1.175597,-0.567381,0.380136,-0.023423,0.827862,-0.380483,-0.327995,0.726500,-0.111126,0.375715,44.371380,-24.265945,-6.193361,0.446256,1.832076,-0.130143,0.000000,0.000000,0.000000,0.000000,0.000000,0.000000
11786123.000000,-2.355992,-1.663274,1.129889,-1.403884,1.743519,1.176317,-0.567495,0.378260,-0.021338,0.823782,-0.381303,-0.334408,0.728645,-0.111048,0.427289,44.395184,-24.341324,-5.919618,0.530485,1.825668,-0.142960,0.000000,0.000000,0.000000,0.000000,0.000000,0.000000
11786124.000000,-2.355609,-1.663295,1.130726,-1.404284,1.743188,1.177033,-0.567602,0.380355,-0.022419,0.827318,-0.384278,-0.331439,0.721442,-0.111216,0.375715,44.371380,-24.289749,-5.673646,0.566190,1.884261,-0.155778,0.000000,0.000000,0.000000,0.000000,0.000000,0.000000
11786125.000000,-2.355227,-1.663312,1.131561,-1.404681,1.742871,1.177748,-0.567709,0.376254,-0.021847,0.823160,-0.385896,-0.332142,0.734224,-0.111364,0.375715,44.296001,-24.488113,-5.451478,0.530485,2.020675,-0.175919,0.000000,0.000000,0.000000,0.000000,0.000000,0.000000
11786126.000000,-2.354851,-1.663327,1.132395,-1.405072,1.742538,1.178458,-0.567821,0.374511,-0.018187,0.830622,-0.388894,-0.329965,0.722280,-0.111441,0.328107,44.224590,-24.488113,-5.304689,0.554288,2.098495,-0.188737,0.000000,0.000000,0.000000,0.000000,0.000000,0.000000
11786127.000000,-2.354476,-1.663340,1.133226,-1.405469,1.742203,1.179188,-0.567935,0.373126,-0.014302,0.841196,-0.388573,-0.329243,0.721182,-0.112696,0.375715,44.101604,-24.682510,-5.106325,0.596403,2.066451,-0.169511,0.000000,0.000000,0.000000,0.000000,0.000000,0.000000
11786128.000000,-2.354101,-1.663350,1.134059,-1.405860,1.741877,1.179904,-0.568042,0.371245,-0.011722,0.833914,-0.398144,-0.328695,0.721846,-0.111396,0.375715,43.978619,-24.781693,-4.955568,0.637601,2.020675,-0.202470,0.000000,0.000000,0.000000,0.000000,0.000000,0.000000
11786129.000000,-2.353715,-1.663360,1.134888,-1.406256,1.741545,1.180630,-0.568152,0.374024,-0.006410,0.836228,-0.394411,-0.331029,0.714983,-0.113182,0.328107,43.855633,-24.805496,-4.832582,0.649503,2.020675,-0.169511,0.000000,0.000000,0.000000,0.000000,0.000000,0.000000
11786130.000000,-2.353337,-1.663368,1.135712,-1.406656,1.741213,1.181359,-0.568259,0.372942,-0.005852,0.832922,-0.396701,-0.329486,0.716659,-0.107423,0.403486,43.732647,-24.880875,-4.634218,0.685209,1.988631,-0.196061,0.000000,0.000000,0.000000,0.000000,0.000000,0.000000
11786131.000000,-2.352963,-1.663377,1.136537,-1.407043,1.740883,1.182072,-0.568369,0.375346,-0.006827,0.836555,-0.394547,-0.328514,0.714710,-0.109256,0.351911,43.661236,-24.904678,-4.610414,0.721830,1.909896,-0.188737,0.000000,0.000000,0.000000,0.000000,0.000000,0.000000
11786132.000000,-2.352591,-1.663382,1.137356,-1.407434,1.740563,1.182798,-0.568479,0.373603,-0.006124,0.839607,-0.393214,-0.326084,0.712670,-0.106481,0.427289,43.538250,-24.781693,-4.562807,0.721830,1.923629,-0.163102,0.000000,0.000000,0.000000,0.000000,0.000000,0.000000
11786133.000000,-2.352222,-1.663384,1.138153,-1.407823,1.740253,1.183505,-0.568586,0.380345,-0.005174,0.823048,-0.391942,-0.326032,0.710464,-0.102617,0.474897,43.391460,-24.583328,-4.562807,0.625699,2.001449,-0.188737,0.000000,0.000000,0.000000,0.000000,0.000000,0.000000
11786134.000000,-2.351847,-1.663378,1.138967,-1.408197,1.739926,1.184222,-0.568691,0.375424,-0.002308,0.826321,-0.386830,-0.323652,0.709860,-0.106123,0.526471,43.145489,-24.464310,-4.610414,0.625699,2.066451,-0.169511,0.000000,0.000000,0.000000,0.000000,0.000000,0.000000
11786135.000000,-2.351474,-1.663374,1.139771,-1.408578,1.739610,1.184950,-0.568791,0.372119,-0.001598,0.816709,-0.383188,-0.330357,0.716213,-0.106126,0.550275,42.951092,-24.436539,-4.610414,0.613798,2.085677,-0.215287,0.000000,0.000000,0.000000,0.000000,0.000000,0.000000
11786136.000000,-2.351100,-1.663368,1.140583,-1.408960,1.739303,1.185676,-0.568903,0.374582,-0.000491,0.808907,-0.382509,-0.322533,0.717575,-0.105546,0.526471,42.728924,-24.341324,-4.439821,0.589994,2.060043,-0.155778,0.000000,0.000000,0.000000,0.000000,0.000000,0.000000
11786137.000000,-2.350721,-1.663359,1.141404,-1.409352,1.738983,1.186419,-0.569006,0.372387,0.000837,0.818398,-0.381581,-0.323941,0.719829,-0.108126,0.474897,42.486919,-24.464310,-4.265260,0.637601,1.962081,-0.149369,0.000000,0.000000,0.000000,0.000000,0.000000,0.000000
11786138.000000,-2.350338,-1.663352,1.142213,-1.409730,1.738670,1.187140,-0.569103,0.381240,0.001130,0.811623,-0.378668,-0.319853,0.733882,-0.102017,0.451093,42.264751,-24.583328,-4.166078,0.673307,1.936446,-0.215287,0.000000,0.000000,0.000000,0.000000,0.000000,0.000000
11786139.000000,-2.349965,-1.663340,1.143032,-1.410113,1.738368,1.187871,-0.569209,0.377893,0.002426,0.819325,-0.378552,-0.314749,0.732287,-0.104862,0.403486,41.994976,-24.757889,-3.991518,0.673307,1.988631,-0.202470,0.000000,0.000000,0.000000,0.000000,0.000000,0.000000
11786140.000000,-2.349595,-1.663340,1.143832,-1.410487,1.738074,1.188597,-0.569320,0.371732,0.002138,0.806993,-0.371394,-0.305541,0.730285,-0.104262,0.474897,41.923565,-24.805496,-3.943910,0.637601,2.039901,-0.149369,0.000000,0.000000,0.000000,0.000000,0.000000,0.000000
11786141.000000,-2.349235,-1.663337,1.144641,-1.410857,1.737776,1.189304,-0.569422,0.366707,-0.000469,0.802739,-0.372665,-0.304944,0.720713,-0.100415,0.601850,41.824383,-24.928482,-3.920107,0.644010,2.072860,-0.182328,0.000000,0.000000,0.000000,0.000000,0.000000,0.000000
11786142.000000,-2.348875,-1.663336,1.145459,-1.411226,1.737472,1.190011,-0.569520,0.364148,-0.001239,0.809558,-0.369528,-0.304836,0.713869,-0.097519,0.847822,41.824383,-25.075272,-3.943910,0.667814,2.190048,-0.221696,0.000000,0.000000,0.000000,0.000000,0.000000,0.000000
11786143.000000,-2.348513,-1.663335,1.146249,-1.411599,1.737188,1.190713,-0.569631,0.361375,-0.001520,0.797362,-0.372666,-0.297044,0.706051,-0.104209,0.994611,41.824383,-25.051468,-3.868532,0.601896,2.313644,-0.163102,0.000000,0.000000,0.000000,0.000000,0.000000,0.000000
11786144.000000,-2.348159,-1.663337,1.147039,-1.411966,1.736894,1.191417,-0.569733,0.360057,-0.002741,0.801532,-0.368336,-0.295254,0.709158,-0.100726,1.121564,41.875957,-24.904678,-3.820925,0.644010,2.320052,-0.188737,0.000000,0.000000,0.000000,0.000000,0.000000,0.000000
11786145.000000,-2.347809,-1.663346,1.147819,-1.412337,1.736597,1.192144,-0.569838,0.354860,-0.005651,0.802533,-0.368808,-0.297802,0.716521,-0.104346,1.391340,42.022747,-24.805496,-3.721742,0.667814,2.150680,-0.196061,0.000000,0.000000,0.000000,0.000000,0.000000,0.000000
11786146.000000,-2.347454,-1.663348,1.148609,-1.412705,1.736305,1.192862,-0.569940,0.354117,-0.004060,0.790153,-0.373229,-0.293517,0.720514,-0.101712,1.442914,42.022747,-24.706314,-3.646364,0.655912,2.039901,-0.196061,0.000000,0.000000,0.000000,0.000000,0.000000,0.000000
11786147.000000,-2.347098,-1.663347,1.149396,-1.413074,1.736014,1.193586,-0.570038,0.354987,-0.002277,0.793192,-0.367544,-0.290821,0.720115,-0.099872,1.542096,41.994976,-24.511917,-3.499574,0.673307,1.988631,-0.196061,0.000000,0.000000,0.000000,0.000000,0.000000,0.000000
11786148.000000,-2.346753,-1.663351,1.150159,-1.413441,1.735734,1.194305,-0.570141,0.346761,-0.009721,0.781419,-0.363221,-0.283499,0.715083,-0.099810,1.740461,42.046551,-24.119156,-3.475771,0.655912,1.955673,-0.163102,0.000000,0.000000,0.000000,0.000000,0.000000,0.000000
11786149.000000,-2.346410,-1.663352,1.150947,-1.413797,1.735446,1.195026,-0.570234,0.347327,-0.007730,0.774675,-0.359996,-0.287902,0.718325,-0.101776,1.934858,42.070354,-23.996170,-3.475771,0.644010,1.865035,-0.202470,0.000000,0.000000,0.000000,0.000000,0.000000,0.000000
11786150.000000,-2.346068,-1.663349,1.151717,-1.414157,1.735153,1.195752,-0.570338,0.343096,-0.004560,0.781114,-0.359711,-0.290913,0.711722,-0.101462,2.160993,42.022747,-23.603409,-3.499574,0.632108,1.838485,-0.163102,0.000000,0.000000,0.000000,0.000000,0.000000,0.000000
11786151.000000,-2.345724,-1.663342,1.152481,-1.414514,1.734865,1.196468,-0.570434,0.354426,0.005029,0.776730,-0.357329,-0.288434,0.717572,-0.102749,2.260175,41.947369,-23.381241,-3.523378,0.613798,1.825668,-0.202470,0.000000,0.000000,0.000000,0.000000,0.000000,0.000000
11786152.000000,-2.345379,-1.663333,1.153259,-1.414871,1.734572,1.197197,-0.570532,0.351122,0.007052,0.786437,-0.361105,-0.287681,0.722330,-0.101027,2.406965,41.800579,-23.258255,-3.448000,0.661405,1.800033,-0.196061,0.000000,0.000000,0.000000,0.000000,0.000000,0.000000
11786153.000000,-2.345035,-1.663321,1.154019,-1.415229,1.734287,1.197946,-0.570634,0.346655,0.008334,0.778521,-0.361637,-0.292720,0.724668,-0.101130,2.482343,41.653790,-23.135269,-3.424196,0.691617,1.676437,-0.149369,0.000000,0.000000,0.000000,0.000000,0.000000,0.000000
11786154.000000,-2.344691,-1.663303,1.154783,-1.415594,1.733996,1.198681,-0.570722,0.345259,0.011459,0.772498,-0.365490,-0.291871,0.730303,-0.096597,2.506147,41.407818,-22.964676,-3.154421,0.733732,1.578475,-0.221696,0.000000,0.000000,0.000000,0.000000,0.000000,0.000000
11786155.000000,-2.344333,-1.663287,1.155559,-1.415953,1.733710,1.199409,-0.570824,0.342338,0.015770,0.777752,-0.357790,-0.294000,0.720213,-0.098377,2.430768,41.213421,-22.917068,-3.178224,0.727323,1.565658,-0.163102,0.000000,0.000000,0.000000,0.000000,0.000000,0.000000
11786156.000000,-2.343976,-1.663269,1.156327,-1.416316,1.733430,1.200130,-0.570919,0.343872,0.016641,0.774055,-0.355507,-0.287438,0.735696,-0.095882,2.383161,40.967449,-22.964676,-3.055238,0.751127,1.637069,-0.196061,0.000000,0.000000,0.000000,0.000000,0.000000,0.000000
11786157.000000,-2.343631,-1.663249,1.157097,-1.416667,1.733160,1.200857,-0.571015,0.343593,0.019967,0.777858,-0.356831,-0.278648,0.734747,-0.090752,2.359357,40.749249,-22.940872,-3.079042,0.679716,1.643478,-0.208878,0.000000,0.000000,0.000000,0.000000,0.000000,0.000000
11786158.000000,-2.343277,-1.663230,1.157851,-1.417018,1.732886,1.201587,-0.571113,0.347046,0.019009,0.760541,-0.350119,-0.277381,0.729194,-0.087512,2.260175,40.527081,-22.841690,-3.126650,0.613798,1.637069,-0.196061,0.000000,0.000000,0.000000,0.000000,0.000000,0.000000
11786159.000000,-2.342933,-1.663205,1.158632,-1.417364,1.732604,1.202298,-0.571212,0.347448,0.018802,0.759490,-0.357789,-0.276529,0.722282,-0.095030,2.283979,40.281109,-22.988480,-3.126650,0.667814,1.735030,-0.163102,0.000000,0.000000,0.000000,0.000000,0.000000,0.000000
11786160.000000,-2.342575,-1.663183,1.159404,-1.417712,1.732337,1.203008,-0.571299,0.352852,0.017921,0.769656,-0.351621,-0.275145,0.709337,-0.092609,2.133222,40.062908,-23.040054,-3.178224,0.601896,1.884261,-0.221696,0.000000,0.000000,0.000000,0.000000,0.000000,0.000000
11786161.000000,-2.342215,-1.663157,1.160161,-1.418066,1.732066,1.203732,-0.571395,0.353514,0.020840,0.764869,-0.351965,-0.269359,0.710394,-0.093640,2.061811,39.840740,-23.016251,-3.027467,0.637601,1.923629,-0.208878,0.000000,0.000000,0.000000,0.000000,0.000000,0.000000
11786162.000000,-2.341862,-1.663140,1.160926,-1.418403,1.731796,1.204454,-0.571498,0.349202,0.020073,0.770756,-0.346770,-0.268893,0.719844,-0.096645,1.934858,39.745525,-22.988480,-3.102846,0.655912,1.832076,-0.136552,0.000000,0.000000,0.000000,0.000000,0.000000,0.000000
11786163.000000,-2.341506,-1.663118,1.161685,-1.418747,1.731524,1.205191,-0.571582,0.349844,0.020887,0.777493,-0.344699,-0.267820,0.721488,-0.091872,1.863447,39.598736,-22.964676,-3.079042,0.661405,1.735030,-0.248246,0.000000,0.000000,0.000000,0.000000,0.000000,0.000000
11786164.000000,-2.341152,-1.663090,1.162453,-1.419074,1.731264,1.205903,-0.571687,0.356782,0.023841,0.766025,-0.349579,-0.265980,0.723705,-0.095670,1.764264,39.352764,-23.016251,-3.249635,0.632108,1.767074,-0.163102,0.000000,0.000000,0.000000,0.000000,0.000000,0.000000
11786165.000000,-2.340789,-1.663065,1.163211,-1.419405,1.731005,1.206614,-0.571779,0.357947,0.028266,0.768862,-0.345154,-0.263338,0.710646,-0.095015,1.641279,39.158367,-22.841690,-3.348818,0.589994,1.793624,-0.169511,0.000000,0.000000,0.000000,0.000000,0.000000,0.000000
11786166.000000,-2.340431,-1.663052,1.163950,-1.419733,1.730755,1.207339,-0.571871,0.357219,0.023548,0.754976,-0.338833,-0.262680,0.711453,-0.093816,1.589704,39.158367,-22.548111,-3.424196,0.559781,1.812850,-0.196061,0.000000,0.000000,0.000000,0.000000,0.000000,0.000000
11786167.000000,-2.340075,-1.663029,1.164709,-1.420049,1.730485,1.208037,-0.571968,0.356560,0.023838,0.751591,-0.332312,-0.264414,0.705072,-0.094419,1.415143,39.011578,-22.401321,-3.598757,0.584501,1.884261,-0.182328,0.000000,0.000000,0.000000,0.000000,0.000000,0.000000
11786168.000000,-2.339720,-1.663011,1.165470,-1.420373,1.730221,1.208750,-0.572057,0.354590,0.022187,0.757659,-0.329602,-0.257083,0.701293,-0.093406,1.391340,38.936199,-22.302139,-3.670168,0.518583,1.897079,-0.208878,0.000000,0.000000,0.000000,0.000000,0.000000,0.000000
11786169.000000,-2.339348,-1.662987,1.166221,-1.420695,1.729970,1.209457,-0.572157,0.363118,0.022352,0.756846,-0.328495,-0.256632,0.708933,-0.095039,1.145368,38.813213,-22.254532,-3.844728,0.446256,1.793624,-0.169511,0.000000,0.000000,0.000000,0.000000,0.000000,0.000000
11786170.000000,-2.338984,-1.662969,1.166986,-1.421008,1.729705,1.210189,-0.572247,0.363642,0.021232,0.762945,-0.326163,-0.254400,0.712594,-0.094180,0.970807,38.741802,-22.325943,-3.943910,0.464567,1.611434,-0.188737,0.000000,0.000000,0.000000,0.000000,0.000000,0.000000
11786171.000000,-2.338621,-1.662954,1.167735,-1.421320,1.729452,1.210910,-0.572337,0.359671,0.018783,0.755298,-0.318085,-0.256874,0.710490,-0.089317,0.824018,38.741802,-22.302139,-4.019289,0.458158,1.539108,-0.196061,0.000000,0.000000,0.000000,0.000000,0.000000,0.000000
11786172.000000,-2.338263,-1.662938,1.168501,-1.421626,1.729184,1.211596,-0.572429,0.361001,0.013688,0.750994,-0.314488,-0.258223,0.701492,-0.090582,0.673261,38.741802,-22.401321,-4.142274,0.440763,1.676437,-0.196061,0.000000,0.000000,0.000000,0.000000,0.000000,0.000000
11786173.000000,-2.337895,-1.662926,1.169266,-1.421938,1.728916,1.212298,-0.572521,0.364382,0.012928,0.758090,-0.311444,-0.255662,0.697843,-0.088369,0.502668,38.765606,-22.472733,-4.166078,0.464567,1.832076,-0.155778,0.000000,0.000000,0.000000,0.000000,0.000000,0.000000
11786174.000000,-2.337531,-1.662918,1.170014,-1.422233,1.728663,1.213010,-0.572603,0.362751,0.010624,0.750775,-0.307306,-0.252774,0.713769,-0.088146,0.403486,38.864788,-22.472733,-4.388246,0.452665,1.806442,-0.196061,0.000000,0.000000,0.000000,0.000000,0.000000,0.000000
11786175.000000,-2.337171,-1.662911,1.170773,-1.422536,1.728401,1.213715,-0.572692,0.360388,0.005847,0.762414,-0.306229,-0.253443,0.711056,-0.084725,0.351911,38.960003,-22.571915,-4.412050,0.518583,1.767074,-0.208878,0.000000,0.000000,0.000000,0.000000,0.000000,0.000000
11786176.000000,-2.336806,-1.662905,1.171519,-1.422821,1.728151,1.214408,-0.572784,0.357467,0.005774,0.770000,-0.297263,-0.254455,0.707424,-0.087919,0.177350,39.059185,-22.595718,-4.610414,0.476469,1.884261,-0.188737,0.000000,0.000000,0.000000,0.000000,0.000000,0.000000
11786177.000000,-2.336447,-1.662903,1.172275,-1.423110,1.727893,1.215095,-0.572873,0.357889,0.005313,0.759029,-0.304332,-0.256345,0.698032,-0.083945,0.078168,39.182171,-22.595718,-4.709596,0.458158,1.962081,-0.208878,0.000000,0.000000,0.000000,0.000000,0.000000,0.000000
11786178.000000,-2.336082,-1.662900,1.173025,-1.423398,1.727630,1.215810,-0.572968,0.358071,0.005628,0.760931,-0.295820,-0.255418,0.700975,-0.083100,-0.017047,39.281353,-22.448929,-4.808778,0.524076,1.865035,-0.175919,0.000000,0.000000,0.000000,0.000000,0.000000,0.000000
11786179.000000,-2.335722,-1.662904,1.173770,-1.423679,1.727375,1.216524,-0.573054,0.355587,0.000188,0.754215,-0.289047,-0.257470,0.699658,-0.084147,-0.017047,39.475750,-22.377518,-4.907960,0.518583,1.760665,-0.221696,0.000000,0.000000,0.000000,0.000000,0.000000,0.000000
11786180.000000,-2.335363,-1.662904,1.174524,-1.423963,1.727134,1.217224,-0.573145,0.357157,0.001061,0.748772,-0.287645,-0.247470,0.697469,-0.083290,-0.116229,39.622540,-22.325943,-4.983339,0.458158,1.793624,-0.188737,0.000000,0.000000,0.000000,0.000000,0.000000,0.000000
11786181.000000,-2.335011,-1.662904,1.175273,-1.424241,1.726888,1.217934,-0.573237,0.354316,0.001031,0.754865,-0.281186,-0.244151,0.696874,-0.083091,-0.116229,39.793133,-22.179153,-5.130128,0.374845,1.767074,-0.149369,0.000000,0.000000,0.000000,0.000000,0.000000,0.000000
11786182.000000,-2.334661,-1.662907,1.176010,-1.424509,1.726638,1.218649,-0.573317,0.352918,0.001609,0.751444,-0.275555,-0.244356,0.705752,-0.083595,-0.092425,39.939922,-22.032364,-5.352296,0.362943,1.656295,-0.202470,0.000000,0.000000,0.000000,0.000000,0.000000,0.000000
11786183.000000,-2.334306,-1.662908,1.176753,-1.424776,1.726392,1.219372,-0.573408,0.349858,-0.001378,0.755555,-0.271426,-0.242905,0.716035,-0.083060,-0.116229,40.086712,-21.837967,-5.574464,0.327238,1.565658,-0.163102,0.000000,0.000000,0.000000,0.000000,0.000000,0.000000
11786184.000000,-2.333948,-1.662909,1.177486,-1.425037,1.726152,1.220091,-0.573488,0.347499,-0.003058,0.744666,-0.267995,-0.244013,0.715788,-0.083783,-0.144000,40.209698,-21.687210,-5.796632,0.332731,1.552840,-0.215287,0.000000,0.000000,0.000000,0.000000,0.000000,0.000000
11786185.000000,-2.333596,-1.662912,1.178233,-1.425298,1.725909,1.220792,-0.573577,0.344553,-0.003806,0.737245,-0.267643,-0.236384,0.713645,-0.082594,-0.243182,40.308880,-21.540421,-5.947389,0.362943,1.591293,-0.196061,0.000000,0.000000,0.000000,0.000000,0.000000,0.000000
11786186.000000,-2.333239,-1.662908,1.178977,-1.425562,1.725664,1.221510,-0.573665,0.345869,-0.002122,0.741182,-0.264132,-0.239213,0.714057,-0.082646,-0.389971,40.308880,-21.346024,-6.094179,0.374845,1.539108,-0.149369,0.000000,0.000000,0.000000,0.000000,0.000000,0.000000
11786187.000000,-2.332883,-1.662903,1.179714,-1.425828,1.725420,1.222229,-0.573739,0.352280,-0.000454,0.741094,-0.266988,-0.241135,0.716481,-0.077965,-0.441546,40.281109,-21.270645,-6.141786,0.381254,1.481429,-0.221696,0.000000,0.000000,0.000000,0.000000,0.000000,0.000000
11786188.000000,-2.332527,-1.662897,1.180462,-1.426089,1.725180,1.222948,-0.573830,0.354735,0.001601,0.749736,-0.263893,-0.240278,0.716795,-0.084907,-0.588336,40.209698,-21.270645,-6.141786,0.344633,1.467696,-0.136552,0.000000,0.000000,0.000000,0.000000,0.000000,0.000000
11786189.000000,-2.332170,-1.662882,1.181200,-1.426355,1.724947,1.223674,-0.573907,0.351330,0.005233,0.745189,-0.266290,-0.240012,0.715527,-0.079667,-0.663714,40.039104,-21.246841,-6.169557,0.291532,1.481429,-0.208878,0.000000,0.000000,0.000000,0.000000,0.000000,0.000000
11786190.000000,-2.331828,-1.662876,1.181956,-1.426617,1.724708,1.224387,-0.573995,0.348375,0.005383,0.740055,-0.263691,-0.233159,0.714386,-0.079428,-0.687518,39.963726,-21.346024,-6.141786,0.320829,1.513473,-0.188737,0.000000,0.000000,0.000000,0.000000,0.000000,0.000000
11786191.000000,-2.331473,-1.662862,1.182717,-1.426876,1.724476,1.225101,-0.574076,0.350989,0.008234,0.750850,-0.263496,-0.229388,0.705830,-0.077696,-0.786700,39.769329,-21.469009,-6.169557,0.267728,1.605026,-0.208878,0.000000,0.000000,0.000000,0.000000,0.000000,0.000000
11786192.000000,-2.331117,-1.662851,1.183469,-1.427144,1.724240,1.225823,-0.574169,0.349282,0.008440,0.748365,-0.264131,-0.228488,0.715737,-0.078830,-0.834307,39.646343,-21.615799,-6.141786,0.261320,1.676437,-0.163102,0.000000,0.000000,0.000000,0.000000,0.000000,0.000000
11786193.000000,-2.330768,-1.662843,1.184229,-1.427408,1.723994,1.226531,-0.574256,0.350354,0.007353,0.765001,-0.262539,-0.230866,0.714315,-0.078250,-0.885882,39.574932,-21.738785,-6.070375,0.332731,1.727706,-0.163102,0.000000,0.000000,0.000000,0.000000,0.000000,0.000000
11786194.000000,-2.330421,-1.662822,1.185001,-1.427673,1.723766,1.227244,-0.574334,0.350569,0.010140,0.776349,-0.260345,-0.232610,0.707971,-0.080561,-0.909686,39.352764,-22.008560,-6.018800,0.285123,1.786300,-0.208878,0.000000,0.000000,0.000000,0.000000,0.000000,0.000000
11786195.000000,-2.330081,-1.662815,1.185755,-1.427940,1.723539,1.227951,-0.574424,0.348525,0.010841,0.771069,-0.267382,-0.230291,0.706986,-0.085739,-0.961260,39.328960,-22.179153,-5.947389,0.255826,1.760665,-0.169511,0.000000,0.000000,0.000000,0.000000,0.000000,0.000000
11786196.000000,-2.329738,-1.662810,1.186519,-1.428202,1.723301,1.228656,-0.574507,0.345599,0.009910,0.773374,-0.262549,-0.234757,0.700963,-0.086927,-0.933489,39.376568,-22.325943,-5.971193,0.291532,1.721298,-0.196061,0.000000,0.000000,0.000000,0.000000,0.000000,0.000000
11786197.000000,-2.329398,-1.662797,1.187271,-1.428470,1.723066,1.229362,-0.574594,0.341486,0.011732,0.763690,-0.263928,-0.231816,0.703299,-0.084439,-0.834307,39.328960,-22.448929,-5.919618,0.267728,1.760665,-0.188737,0.000000,0.000000,0.000000,0.000000,0.000000,0.000000
11786198.000000,-2.329058,-1.662789,1.188032,-1.428741,1.722821,1.230039,-0.574682,0.340604,0.011568,0.753312,-0.267386,-0.236121,0.691189,-0.087395,-0.810504,39.352764,-22.472733,-5.895814,0.291532,1.909896,-0.175919,0.000000,0.000000,0.000000,0.000000,0.000000,0.000000
11786199.000000,-2.328720,-1.662780,1.188792,-1.429020,1.722581,1.230733,-0.574765,0.338441,0.012404,0.760944,-0.270012,-0.238019,0.689667,-0.089705,-0.762896,39.328960,-22.472733,-5.848207,0.285123,1.968490,-0.175919,0.000000,0.000000,0.000000,0.000000,0.000000,0.000000
11786200.000000,-2.328390,-1.662771,1.189538,-1.429290,1.722345,1.231422,-0.574844,0.345700,0.009158,0.753318,-0.265870,-0.235114,0.693779,-0.085158,-0.711321,39.328960,-22.377518,-5.820436,0.279630,1.923629,-0.196061,0.000000,0.000000,0.000000,0.000000,0.000000,0.000000
11786201.000000,-2.328055,-1.662762,1.190294,-1.429579,1.722102,1.232138,-0.574926,0.341291,0.006771,0.760263,-0.275394,-0.239860,0.695142,-0.087679,-0.588336,39.328960,-22.325943,-5.649843,0.351041,1.793624,-0.196061,0.000000,0.000000,0.000000,0.000000,0.000000,0.000000
11786202.000000,-2.327725,-1.662749,1.191050,-1.429875,1.721866,1.232835,-0.575011,0.337297,0.009477,0.758796,-0.280618,-0.242629,0.700533,-0.090719,-0.441546,39.281353,-22.353714,-5.399904,0.303434,1.793624,-0.163102,0.000000,0.000000,0.000000,0.000000,0.000000,0.000000
11786203.000000,-2.327391,-1.662743,1.191812,-1.430157,1.721628,1.233519,-0.575088,0.337021,0.009351,0.754950,-0.281520,-0.237858,0.693002,-0.089884,-0.389971,39.328960,-22.377518,-5.276918,0.279630,1.838485,-0.208878,0.000000,0.000000,0.000000,0.000000,0.000000,0.000000
11786204.000000,-2.327061,-1.662734,1.192576,-1.430455,1.721382,1.234222,-0.575174,0.334066,0.007572,0.762909,-0.288090,-0.237956,0.694906,-0.092523,-0.342364,39.305157,-22.401321,-5.030946,0.362943,1.779891,-0.169511,0.000000,0.000000,0.000000,0.000000,0.000000,0.000000
11786205.000000,-2.326737,-1.662723,1.193334,-1.430756,1.721149,1.234913,-0.575260,0.332827,0.006191,0.760261,-0.289856,-0.235104,0.687527,-0.088493,-0.215411,39.281353,-22.500504,-4.784975,0.369352,1.741439,-0.155778,0.000000,0.000000,0.000000,0.000000,0.000000,0.000000
11786206.000000,-2.326415,-1.662714,1.194108,-1.431047,1.720917,1.235608,-0.575337,0.332172,0.008569,0.779316,-0.286729,-0.232852,0.682783,-0.087711,-0.092425,39.253582,-22.742508,-4.586610,0.374845,1.793624,-0.202470,0.000000,0.000000,0.000000,0.000000,0.000000,0.000000
11786207.000000,-2.326094,-1.662709,1.194872,-1.431346,1.720686,1.236300,-0.575424,0.330664,0.008443,0.775942,-0.286062,-0.230848,0.683325,-0.090078,0.054365,39.305157,-22.964676,-4.412050,0.356534,1.871444,-0.188737,0.000000,0.000000,0.000000,0.000000,0.000000,0.000000
11786208.000000,-2.325777,-1.662703,1.195639,-1.431637,1.720442,1.236996,-0.575503,0.325158,0.009303,0.771263,-0.289095,-0.235240,0.683116,-0.085207,0.177350,39.328960,-23.111465,-4.265260,0.386747,1.851302,-0.221696,0.000000,0.000000,0.000000,0.000000,0.000000,0.000000
11786209.000000,-2.325458,-1.662709,1.196411,-1.431933,1.720192,1.237691,-0.575590,0.320236,0.003053,0.774645,-0.288241,-0.236958,0.684614,-0.085610,0.276533,39.499554,-23.258255,-4.118471,0.500272,1.877853,-0.149369,0.000000,0.000000,0.000000,0.000000,0.000000,0.000000
11786210.000000,-2.325139,-1.662703,1.197177,-1.432242,1.719959,1.238362,-0.575663,0.317586,0.005046,0.767703,-0.292133,-0.234195,0.688775,-0.080353,0.351911,39.547161,-23.480423,-3.920107,0.512174,2.014266,-0.215287,0.000000,0.000000,0.000000,0.000000,0.000000,0.000000
11786211.000000,-2.324822,-1.662705,1.197952,-1.432543,1.719727,1.239051,-0.575745,0.319068,0.001808,0.762733,-0.293785,-0.231354,0.682992,-0.074818,0.403486,39.646343,-23.678787,-3.769350,0.494779,2.104903,-0.208878,0.000000,0.000000,0.000000,0.000000,0.000000,0.000000
11786212.000000,-2.324503,-1.662710,1.198704,-1.432842,1.719483,1.239761,-0.575825,0.316076,-0.001098,0.768113,-0.296532,-0.236295,0.683074,-0.074861,0.474897,39.769329,-23.702591,-3.670168,0.542386,1.949264,-0.215287,0.000000,0.000000,0.000000,0.000000,0.000000,0.000000
11786213.000000,-2.324191,-1.662716,1.199462,-1.433134,1.719248,1.240464,-0.575904,0.313925,-0.003179,0.756538,-0.297818,-0.238357,0.686488,-0.075447,0.574079,39.892315,-23.651016,-3.697939,0.542386,1.819259,-0.208878,0.000000,0.000000,0.000000,0.000000,0.000000,0.000000
11786214.000000,-2.323873,-1.662720,1.200231,-1.433435,1.719010,1.241149,-0.575989,0.313787,-0.002910,0.764934,-0.296725,-0.240084,0.685649,-0.077874,0.601850,39.939922,-23.702591,-3.622560,0.566190,1.884261,-0.142960,0.000000,0.000000,0.000000,0.000000,0.000000,0.000000
11786215.000000,-2.323565,-1.662728,1.200977,-1.433733,1.718783,1.241838,-0.576058,0.314675,-0.003461,0.755984,-0.296676,-0.235658,0.683405,-0.074417,0.697065,40.015301,-23.603409,-3.646364,0.547880,2.020675,-0.215287,0.000000,0.000000,0.000000,0.000000,0.000000,0.000000
11786216.000000,-2.323259,-1.662737,1.201726,-1.434036,1.718557,1.242522,-0.576143,0.311600,-0.007847,0.743756,-0.296272,-0.233622,0.686990,-0.076568,0.847822,40.110516,-23.409012,-3.570986,0.547880,2.027084,-0.169511,0.000000,0.000000,0.000000,0.000000,0.000000,0.000000
11786217.000000,-2.322953,-1.662740,1.202485,-1.434331,1.718328,1.243231,-0.576217,0.305827,-0.009410,0.755157,-0.293555,-0.231494,0.692899,-0.076596,0.994611,40.134319,-23.258255,-3.570986,0.542386,1.903487,-0.169511,0.000000,0.000000,0.000000,0.000000,0.000000,0.000000
11786218.000000,-2.322648,-1.662744,1.203239,-1.434629,1.718108,1.243932,-0.576289,0.310814,-0.007885,0.752074,-0.292863,-0.227271,0.701490,-0.074672,1.093793,40.185894,-23.210648,-3.547182,0.458158,1.825668,-0.208878,0.000000,0.000000,0.000000,0.000000,0.000000,0.000000
11786219.000000,-2.322342,-1.662742,1.203992,-1.434927,1.717883,1.244634,-0.576366,0.306824,-0.005004,0.758184,-0.293964,-0.221733,0.696280,-0.076269,1.192975,40.162090,-23.087662,-3.448000,0.440763,1.806442,-0.175919,0.000000,0.000000,0.000000,0.000000,0.000000,0.000000
11786220.000000,-2.322035,-1.662746,1.204727,-1.435217,1.717657,1.245358,-0.576440,0.305772,-0.004121,0.749873,-0.289473,-0.232604,0.699499,-0.075567,1.192975,40.185894,-22.841690,-3.424196,0.470060,1.708480,-0.188737,0.000000,0.000000,0.000000,0.000000,0.000000,0.000000
11786221.000000,-2.321731,-1.662742,1.205473,-1.435514,1.717432,1.246062,-0.576518,0.305218,-0.001155,0.742346,-0.292142,-0.229073,0.696812,-0.071304,1.192975,40.110516,-22.694901,-3.301210,0.535978,1.624252,-0.175919,0.000000,0.000000,0.000000,0.000000,0.000000,0.000000
11786222.000000,-2.321420,-1.662737,1.206230,-1.435807,1.717211,1.246765,-0.576588,0.303430,0.000772,0.747687,-0.289311,-0.225075,0.697184,-0.066617,1.216779,40.039104,-22.694901,-3.225832,0.578092,1.689254,-0.202470,0.000000,0.000000,0.000000,0.000000,0.000000,0.000000
11786223.000000,-2.321102,-1.662725,1.206966,-1.436096,1.716998,1.247458,-0.576663,0.308397,0.004409,0.740228,-0.286818,-0.224423,0.714559,-0.069483,1.121564,39.868511,-22.671097,-3.178224,0.554288,1.735030,-0.182328,0.000000,0.000000,0.000000,0.000000,0.000000,0.000000
11786224.000000,-2.320801,-1.662720,1.207714,-1.436386,1.716774,1.248162,-0.576731,0.306269,0.004631,0.746215,-0.288225,-0.220228,0.706303,-0.069410,1.121564,39.793133,-22.623489,-3.126650,0.566190,1.714889,-0.215287,0.000000,0.000000,0.000000,0.000000,0.000000,0.000000
11786225.000000,-2.320491,-1.662706,1.208454,-1.436672,1.716559,1.248866,-0.576810,0.307000,0.007580,0.739683,-0.285377,-0.217245,0.703508,-0.072233,1.022382,39.598736,-22.623489,-3.079042,0.566190,1.714889,-0.182328,0.000000,0.000000,0.000000,0.000000,0.000000,0.000000
11786226.000000,-2.320187,-1.662697,1.209207,-1.436956,1.716351,1.249554,-0.576885,0.305192,0.007890,0.742449,-0.284166,-0.213567,0.702114,-0.073652,1.022382,39.475750,-22.694901,-3.027467,0.530485,1.714889,-0.163102,0.000000,0.000000,0.000000,0.000000,0.000000,0.000000
11786227.000000,-2.319873,-1.662683,1.209964,-1.437245,1.716140,1.250248,-0.576955,0.306020,0.009220,0.748789,-0.282417,-0.207232,0.691820,-0.073359,0.923200,39.305157,-22.770279,-3.003664,0.530485,1.793624,-0.182328,0.000000,0.000000,0.000000,0.000000,0.000000,0.000000
11786228.000000,-2.319557,-1.662672,1.210707,-1.437539,1.715932,1.250946,-0.577027,0.310811,0.009557,0.745909,-0.283251,-0.212068,0.692820,-0.073511,0.796247,39.158367,-22.841690,-2.880678,0.530485,1.819259,-0.188737,0.000000,0.000000,0.000000,0.000000,0.000000,0.000000
11786229.000000,-2.319258,-1.662661,1.211457,-1.437819,1.715716,1.251640,-0.577104,0.306496,0.016207,0.753457,-0.281700,-0.214311,0.694330,-0.075089,0.847822,39.035381,-22.940872,-2.856874,0.500272,1.812850,-0.169511,0.000000,0.000000,0.000000,0.000000,0.000000,0.000000
11786230.000000,-2.318945,-1.662653,1.212213,-1.438108,1.715497,1.252339,-0.577177,0.307592,0.013693,0.758780,-0.281241,-0.218202,0.699776,-0.076174,0.748639,38.936199,-23.111465,-2.781496,0.518583,1.779891,-0.142960,0.000000,0.000000,0.000000,0.000000,0.000000,0.000000
11786231.000000,-2.318651,-1.662644,1.212952,-1.438385,1.715292,1.253025,-0.577240,0.304792,0.011875,0.752014,-0.283774,-0.213652,0.693636,-0.068601,0.796247,38.837017,-23.135269,-2.805300,0.470060,1.800033,-0.215287,0.000000,0.000000,0.000000,0.000000,0.000000,0.000000
11786232.000000,-2.318348,-1.662628,1.213697,-1.438663,1.715080,1.253712,-0.577315,0.305755,0.013341,0.757611,-0.284210,-0.212279,0.691203,-0.066953,0.847822,38.618816,-23.135269,-2.833071,0.488370,1.884261,-0.182328,0.000000,0.000000,0.000000,0.000000,0.000000,0.000000
11786233.000000,-2.318040,-1.662626,1.214431,-1.438939,1.714872,1.254400,-0.577386,0.304690,0.009690,0.745750,-0.276460,-0.207906,0.685736,-0.069837,0.847822,38.595013,-23.111465,-2.928285,0.524076,1.949264,-0.163102,0.000000,0.000000,0.000000,0.000000,0.000000,0.000000
11786234.000000,-2.317742,-1.662615,1.215164,-1.439211,1.714662,1.255090,-0.577447,0.302920,0.008960,0.734063,-0.272941,-0.207993,0.686025,-0.069074,0.895429,38.495831,-22.988480,-2.956056,0.530485,1.903487,-0.221696,0.000000,0.000000,0.000000,0.000000,0.000000,0.000000
11786235.000000,-2.317442,-1.662603,1.215904,-1.439483,1.714448,1.255785,-0.577525,0.302499,0.008985,0.738127,-0.273562,-0.208014,0.680811,-0.068658,0.871625,38.372845,-22.841690,-2.956056,0.535978,1.825668,-0.155778,0.000000,0.000000,0.000000,0.000000,0.000000,0.000000
11786236.000000,-2.317149,-1.662593,1.216633,-1.439758,1.714233,1.256470,-0.577588,0.302756,0.011740,0.731194,-0.272311,-0.204178,0.680043,-0.067399,0.871625,38.277630,-22.742508,-2.904482,0.566190,1.832076,-0.229020,0.000000,0.000000,0.000000,0.000000,0.000000,0.000000
11786237.000000,-2.316854,-1.662584,1.217373,-1.440031,1.714033,1.257169,-0.577658,0.301140,0.009394,0.740402,-0.272497,-0.197206,0.687013,-0.070057,0.923200,38.226055,-22.623489,-2.805300,0.494779,1.767074,-0.215287,0.000000,0.000000,0.000000,0.000000,0.000000,0.000000
11786238.000000,-2.316550,-1.662577,1.218104,-1.440300,1.713831,1.257873,-0.577736,0.301762,0.009448,0.734912,-0.269908,-0.204053,0.691471,-0.073749,0.895429,38.249859,-22.571915,-2.781496,0.506681,1.702071,-0.155778,0.000000,0.000000,0.000000,0.000000,0.000000,0.000000
11786239.000000,-2.316263,-1.662571,1.218837,-1.440566,1.713636,1.258570,-0.577804,0.298550,0.005028,0.729127,-0.267546,-0.203036,0.696278,-0.071869,1.022382,38.325237,-22.448929,-2.805300,0.458158,1.605026,-0.215287,0.000000,0.000000,0.000000,0.000000,0.000000,0.000000
11786240.000000,-2.315967,-1.662564,1.219586,-1.440829,1.713430,1.259267,-0.577881,0.295978,0.005956,0.742855,-0.265481,-0.204614,0.689493,-0.074316,1.046186,38.372845,-22.524307,-2.856874,0.470060,1.617843,-0.175919,0.000000,0.000000,0.000000,0.000000,0.000000,0.000000
11786241.000000,-2.315672,-1.662558,1.220320,-1.441089,1.713227,1.259950,-0.577948,0.294395,0.007378,0.742356,-0.263441,-0.205746,0.707112,-0.072692,1.046186,38.396648,-22.595718,-2.928285,0.476469,1.708480,-0.221696,0.000000,0.000000,0.000000,0.000000,0.000000,0.000000
11786242.000000,-2.315384,-1.662549,1.221065,-1.441349,1.713020,1.260644,-0.578023,0.296093,0.009109,0.753593,-0.259410,-0.202847,0.701176,-0.075271,1.069990,38.396648,-22.694901,-2.979860,0.524076,1.682845,-0.163102,0.000000,0.000000,0.000000,0.000000,0.000000,0.000000
11786243.000000,-2.315091,-1.662550,1.221793,-1.441612,1.712813,1.261349,-0.578085,0.292719,0.003456,0.742691,-0.259035,-0.206700,0.695417,-0.073311,1.121564,38.543438,-22.794083,-3.027467,0.601896,1.670028,-0.215287,0.000000,0.000000,0.000000,0.000000,0.000000,0.000000
11786244.000000,-2.314796,-1.662547,1.222530,-1.441865,1.712615,1.262032,-0.578164,0.293443,0.001710,0.734416,-0.258263,-0.202244,0.688416,-0.075499,1.093793,38.595013,-22.893265,-3.126650,0.608304,1.741439,-0.169511,0.000000,0.000000,0.000000,0.000000,0.000000,0.000000
11786245.000000,-2.314495,-1.662546,1.223277,-1.442130,1.712425,1.262729,-0.578232,0.293682,-0.001278,0.742629,-0.259858,-0.192489,0.686021,-0.075000,1.022382,38.717999,-23.087662,-3.126650,0.578092,1.832076,-0.182328,0.000000,0.000000,0.000000,0.000000,0.000000,0.000000
11786246.000000,-2.314199,-1.662548,1.224014,-1.442392,1.712236,1.263434,-0.578300,0.293954,-0.002735,0.741502,-0.259603,-0.190371,0.693608,-0.074022,0.970807,38.813213,-23.210648,-3.178224,0.547880,1.838485,-0.208878,0.000000,0.000000,0.000000,0.000000,0.000000,0.000000
11786247.000000,-2.313909,-1.662552,1.224749,-1.442648,1.712040,1.264136,-0.578377,0.293925,-0.004998,0.732993,-0.257817,-0.189171,0.696436,-0.076249,0.923200,38.960003,-23.210648,-3.178224,0.524076,1.800033,-0.163102,0.000000,0.000000,0.000000,0.000000,0.000000,0.000000
11786248.000000,-2.313618,-1.662558,1.225490,-1.442908,1.711844,1.264841,-0.578438,0.293928,-0.006572,0.743161,-0.254746,-0.188750,0.701027,-0.068898,0.970807,39.106792,-23.186844,-3.225832,0.512174,1.779891,-0.229020,0.000000,0.000000,0.000000,0.000000,0.000000,0.000000
11786249.000000,-2.313325,-1.662559,1.226224,-1.443153,1.711657,1.265529,-0.578513,0.297376,-0.004793,0.735165,-0.255446,-0.187815,0.688962,-0.072332,0.923200,39.130596,-23.210648,-3.376589,0.482877,1.812850,-0.188737,0.000000,0.000000,0.000000,0.000000,0.000000,0.000000
11786250.000000,-2.313034,-1.662558,1.226955,-1.443403,1.711473,1.266233,-0.578579,0.298033,-0.003086,0.739549,-0.253712,-0.190899,0.691229,-0.072348,0.947004,39.130596,-23.111465,-3.424196,0.446256,1.806442,-0.208878,0.000000,0.000000,0.000000,0.000000,0.000000,0.000000
11786251.000000,-2.312741,-1.662567,1.227672,-1.443646,1.711285,1.266936,-0.578649,0.293003,-0.004296,0.732322,-0.248980,-0.192093,0.690825,-0.073947,0.923200,39.229778,-22.940872,-3.598757,0.482877,1.727706,-0.188737,0.000000,0.000000,0.000000,0.000000,0.000000,0.000000
11786252.000000,-2.312452,-1.662573,1.228404,-1.443893,1.711095,1.267637,-0.578716,0.290359,-0.004566,0.730954,-0.250287,-0.192551,0.694324,-0.074045,0.895429,39.305157,-22.893265,-3.598757,0.518583,1.676437,-0.196061,0.000000,0.000000,0.000000,0.000000,0.000000,0.000000
11786253.000000,-2.312162,-1.662572,1.229142,-1.444127,1.710909,1.268324,-0.578779,0.290661,-0.001791,0.737542,-0.241148,-0.190073,0.691399,-0.073393,0.824018,39.253582,-22.841690,-3.745546,0.482877,1.721298,-0.229020,0.000000,0.000000,0.000000,0.000000,0.000000,0.000000
11786254.000000,-2.311881,-1.662576,1.229864,-1.444363,1.710720,1.269005,-0.578855,0.290580,-0.002366,0.729598,-0.241858,-0.189305,0.687296,-0.076839,0.871625,39.305157,-22.718704,-3.844728,0.470060,1.754256,-0.149369,0.000000,0.000000,0.000000,0.000000,0.000000,0.000000
11786255.000000,-2.311588,-1.662578,1.230587,-1.444593,1.710531,1.269710,-0.578918,0.290202,-0.002665,0.733198,-0.239010,-0.189206,0.693496,-0.073901,0.871625,39.352764,-22.472733,-3.967714,0.476469,1.656295,-0.215287,0.000000,0.000000,0.000000,0.000000,0.000000,0.000000
11786256.000000,-2.311290,-1.662576,1.231307,-1.444822,1.710347,1.270411,-0.578988,0.295500,-0.001201,0.721574,-0.232953,-0.192613,0.691388,-0.075188,0.748639,39.328960,-22.377518,-4.090700,0.470060,1.605026,-0.196061,0.000000,0.000000,0.000000,0.000000,0.000000,0.000000
11786257.000000,-2.311005,-1.662576,1.232041,-1.445050,1.710164,1.271098,-0.579059,0.292453,-0.000229,0.721735,-0.231923,-0.191611,0.687229,-0.071764,0.673261,39.305157,-22.377518,-4.090700,0.470060,1.617843,-0.163102,0.000000,0.000000,0.000000,0.000000,0.000000,0.000000
11786258.000000,-2.310706,-1.662575,1.232770,-1.445279,1.709985,1.271787,-0.579126,0.295260,0.000415,0.724229,-0.231753,-0.188421,0.686941,-0.072395,0.474897,39.281353,-22.325943,-4.189882,0.410551,1.649886,-0.169511,0.000000,0.000000,0.000000,0.000000,0.000000,0.000000
11786259.000000,-2.310410,-1.662573,1.233490,-1.445505,1.709802,1.272489,-0.579189,0.296491,0.000934,0.723267,-0.229020,-0.189696,0.698417,-0.066797,0.351911,39.253582,-22.302139,-4.265260,0.434354,1.676437,-0.208878,0.000000,0.000000,0.000000,0.000000,0.000000,0.000000
11786260.000000,-2.310111,-1.662573,1.234226,-1.445723,1.709615,1.273172,-0.579259,0.296144,0.000629,0.721496,-0.226423,-0.185556,0.692918,-0.069717,0.153547,39.253582,-22.353714,-4.364442,0.458158,1.689254,-0.182328,0.000000,0.000000,0.000000,0.000000,0.000000,0.000000
11786261.000000,-2.309808,-1.662568,1.234952,-1.445944,1.709435,1.273868,-0.579327,0.293676,0.002094,0.719351,-0.224504,-0.183383,0.693507,-0.066884,-0.017047,39.182171,-22.448929,-4.439821,0.374845,1.682845,-0.169511,0.000000,0.000000,0.000000,0.000000,0.000000,0.000000
11786262.000000,-2.309511,-1.662563,1.235694,-1.446162,1.709256,1.274561,-0.579388,0.291765,0.003163,0.719142,-0.222516,-0.184114,0.700696,-0.067718,-0.167803,39.106792,-22.623489,-4.562807,0.351041,1.643478,-0.202470,0.000000,0.000000,0.000000,0.000000,0.000000,0.000000
11786263.000000,-2.309210,-1.662561,1.236431,-1.446376,1.709078,1.275253,-0.579460,0.291415,0.002668,0.726576,-0.220047,-0.180139,0.698211,-0.066981,-0.366168,39.082989,-22.742508,-4.733400,0.344633,1.649886,-0.149369,0.000000,0.000000,0.000000,0.000000,0.000000,0.000000
11786264.000000,-2.308912,-1.662563,1.237164,-1.446597,1.708893,1.275946,-0.579514,0.290212,0.001224,0.725732,-0.221481,-0.184905,0.691614,-0.061285,-0.512957,39.106792,-22.865494,-4.757204,0.410551,1.695663,-0.229020,0.000000,0.000000,0.000000,0.000000,0.000000,0.000000
11786265.000000,-2.308614,-1.662563,1.237904,-1.446810,1.708716,1.276613,-0.579583,0.293256,0.000817,0.725244,-0.219684,-0.185610,0.677842,-0.061535,-0.687518,39.106792,-23.016251,-4.907960,0.405057,1.838485,-0.202470,0.000000,0.000000,0.000000,0.000000,0.000000,0.000000
11786266.000000,-2.308318,-1.662556,1.238648,-1.447025,1.708545,1.277296,-0.579651,0.293162,0.002773,0.740620,-0.215322,-0.184407,0.668571,-0.061740,-0.762896,39.011578,-23.135269,-5.030946,0.351041,1.942855,-0.163102,0.000000,0.000000,0.000000,0.000000,0.000000,0.000000
11786267.000000,-2.308019,-1.662563,1.239378,-1.447235,1.708366,1.277973,-0.579709,0.295328,-0.003093,0.733366,-0.215023,-0.185027,0.668249,-0.059035,-0.933489,39.082989,-23.210648,-5.130128,0.332731,1.903487,-0.202470,0.000000,0.000000,0.000000,0.000000,0.000000,0.000000
11786268.000000,-2.307717,-1.662564,1.240113,-1.447441,1.708184,1.278677,-0.579772,0.293523,-0.002891,0.741002,-0.209781,-0.184837,0.676749,-0.059699,-1.108050,39.106792,-23.234451,-5.229311,0.308927,1.754256,-0.169511,0.000000,0.000000,0.000000,0.000000,0.000000,0.000000
11786269.000000,-2.307413,-1.662560,1.240839,-1.447654,1.708012,1.279363,-0.579830,0.295806,-0.001018,0.736592,-0.207476,-0.180951,0.677545,-0.057648,-1.306414,39.059185,-23.234451,-5.253114,0.297025,1.727706,-0.202470,0.000000,0.000000,0.000000,0.000000,0.000000,0.000000
11786270.000000,-2.307117,-1.662561,1.241569,-1.447860,1.707835,1.280034,-0.579894,0.294726,-0.001388,0.731602,-0.205706,-0.178864,0.676072,-0.054483,-1.504779,39.082989,-23.234451,-5.276918,0.308927,1.760665,-0.155778,0.000000,0.000000,0.000000,0.000000,0.000000,0.000000
11786271.000000,-2.306827,-1.662568,1.242295,-1.448067,1.707655,1.280704,-0.579950,0.287676,-0.003360,0.735301,-0.207842,-0.178838,0.676115,-0.057970,-1.480975,39.182171,-23.063858,-5.276918,0.362943,1.871444,-0.202470,0.000000,0.000000,0.000000,0.000000,0.000000,0.000000
11786272.000000,-2.306528,-1.662570,1.243007,-1.448269,1.707484,1.281369,-0.580014,0.289038,-0.002883,0.725039,-0.205344,-0.176870,0.674929,-0.058342,-1.528582,39.205975,-22.917068,-5.328493,0.374845,1.930038,-0.182328,0.000000,0.000000,0.000000,0.000000,0.000000,0.000000
11786273.000000,-2.306238,-1.662575,1.243730,-1.448469,1.707317,1.282057,-0.580074,0.289290,-0.003100,0.729909,-0.206002,-0.173032,0.677846,-0.057855,-1.552386,39.253582,-22.770279,-5.399904,0.332731,1.897079,-0.175919,0.000000,0.000000,0.000000,0.000000,0.000000,0.000000
11786274.000000,-2.305950,-1.662580,1.244457,-1.448668,1.707146,1.282749,-0.580134,0.285388,-0.003322,0.722881,-0.202932,-0.175442,0.671770,-0.057298,-1.552386,39.305157,-22.841690,-5.475282,0.291532,1.800033,-0.182328,0.000000,0.000000,0.000000,0.000000,0.000000,0.000000
11786275.000000,-2.305665,-1.662584,1.245195,-1.448869,1.706975,1.283436,-0.580200,0.283623,-0.002808,0.724320,-0.202830,-0.173251,0.675459,-0.058350,-1.580157,39.328960,-22.917068,-5.475282,0.267728,1.747848,-0.149369,0.000000,0.000000,0.000000,0.000000,0.000000,0.000000
11786276.000000,-2.305382,-1.662591,1.245931,-1.449073,1.706799,1.284120,-0.580259,0.283813,-0.004219,0.731791,-0.203768,-0.173143,0.678578,-0.056858,-1.528582,39.428143,-23.040054,-5.427675,0.291532,1.773483,-0.175919,0.000000,0.000000,0.000000,0.000000,0.000000,0.000000
11786277.000000,-2.305089,-1.662600,1.246660,-1.449281,1.706626,1.284797,-0.580319,0.283058,-0.005060,0.730867,-0.203757,-0.170197,0.690165,-0.056968,-1.580157,39.523357,-23.135269,-5.399904,0.356534,1.858627,-0.169511,0.000000,0.000000,0.000000,0.000000,0.000000,0.000000
11786278.000000,-2.304813,-1.662608,1.247406,-1.449476,1.706455,1.285473,-0.580372,0.279358,-0.005709,0.731332,-0.201359,-0.169819,0.688562,-0.055220,-1.504779,39.622540,-23.381241,-5.475282,0.356534,1.949264,-0.215287,0.000000,0.000000,0.000000,0.000000,0.000000,0.000000
11786279.000000,-2.304522,-1.662621,1.248139,-1.449680,1.706291,1.286170,-0.580441,0.283003,-0.007251,0.725521,-0.202176,-0.168605,0.687501,-0.058465,-1.580157,39.769329,-23.627213,-5.427675,0.320829,1.903487,-0.142960,0.000000,0.000000,0.000000,0.000000,0.000000,0.000000
11786280.000000,-2.304244,-1.662636,1.248883,-1.449873,1.706125,1.286858,-0.580492,0.285258,-0.008833,0.725819,-0.197948,-0.168048,0.689111,-0.055362,-1.580157,39.939922,-23.873184,-5.550661,0.297025,1.806442,-0.208878,0.000000,0.000000,0.000000,0.000000,0.000000,0.000000
11786281.000000,-2.303969,-1.662649,1.249625,-1.450084,1.705954,1.287540,-0.580549,0.282054,-0.009329,0.736142,-0.200124,-0.171938,0.679929,-0.055554,-1.528582,40.086712,-24.071548,-5.499086,0.267728,1.819259,-0.215287,0.000000,0.000000,0.000000,0.000000,0.000000,0.000000
11786282.000000,-2.303687,-1.662663,1.250355,-1.450290,1.705774,1.288207,-0.580614,0.281059,-0.009101,0.731354,-0.200290,-0.172989,0.673975,-0.057146,-1.552386,40.209698,-24.166763,-5.499086,0.303434,1.974899,-0.182328,0.000000,0.000000,0.000000,0.000000,0.000000,0.000000
11786283.000000,-2.303412,-1.662683,1.251090,-1.450494,1.705592,1.288864,-0.580672,0.279599,-0.010618,0.725323,-0.198483,-0.175038,0.661617,-0.056212,-1.528582,40.404095,-24.242142,-5.451478,0.374845,2.085677,-0.215287,0.000000,0.000000,0.000000,0.000000,0.000000,0.000000
11786284.000000,-2.303138,-1.662703,1.251815,-1.450695,1.705413,1.289543,-0.580737,0.277130,-0.011165,0.736029,-0.201757,-0.174714,0.664398,-0.063030,-1.480975,40.578655,-24.242142,-5.451478,0.405057,2.098495,-0.163102,0.000000,0.000000,0.000000,0.000000,0.000000,0.000000
11786285.000000,-2.302870,-1.662713,1.252551,-1.450901,1.705239,1.290216,-0.580791,0.275112,-0.010743,0.730359,-0.205944,-0.174234,0.667602,-0.060187,-1.405596,40.578655,-24.313553,-5.475282,0.434354,1.995040,-0.196061,0.000000,0.000000,0.000000,0.000000,0.000000,0.000000
11786286.000000,-2.302599,-1.662728,1.253291,-1.451101,1.705072,1.290907,-0.580850,0.274389,-0.008552,0.739832,-0.202968,-0.170874,0.673719,-0.059858,-1.354022,40.626263,-24.341324,-5.550661,0.393156,1.903487,-0.182328,0.000000,0.000000,0.000000,0.000000,0.000000,0.000000
11786287.000000,-2.302333,-1.662741,1.254014,-1.451311,1.704905,1.291597,-0.580906,0.266992,-0.010498,0.733946,-0.204012,-0.170111,0.682324,-0.058505,-1.282611,40.673870,-24.265945,-5.475282,0.369352,1.812850,-0.196061,0.000000,0.000000,0.000000,0.000000,0.000000,0.000000
11786288.000000,-2.302069,-1.662758,1.254738,-1.451511,1.704730,1.292266,-0.580965,0.264615,-0.013264,0.729725,-0.203683,-0.170458,0.675144,-0.058581,-1.183428,40.773052,-24.095352,-5.451478,0.374845,1.838485,-0.182328,0.000000,0.000000,0.000000,0.000000,0.000000,0.000000
11786289.000000,-2.301808,-1.662771,1.255479,-1.451724,1.704554,1.292931,-0.581026,0.260529,-0.013920,0.738404,-0.207126,-0.170078,0.670698,-0.059423,-1.032672,40.820660,-24.043777,-5.399904,0.369352,1.923629,-0.155778,0.000000,0.000000,0.000000,0.000000,0.000000,0.000000
11786290.000000,-2.301543,-1.662783,1.256194,-1.451931,1.704389,1.293596,-0.581077,0.264244,-0.016712,0.727314,-0.206860,-0.173873,0.670683,-0.061023,-0.933489,40.820660,-23.896988,-5.352296,0.344633,1.988631,-0.215287,0.000000,0.000000,0.000000,0.000000,0.000000,0.000000
11786291.000000,-2.301281,-1.662790,1.256916,-1.452138,1.704218,1.294290,-0.581133,0.263176,-0.014630,0.715362,-0.207471,-0.173843,0.678025,-0.060515,-0.862078,40.773052,-23.702591,-5.253114,0.374845,1.865035,-0.202470,0.000000,0.000000,0.000000,0.000000,0.000000,0.000000
11786292.000000,-2.301017,-1.662798,1.257637,-1.452340,1.704057,1.294988,-0.581195,0.262856,-0.013789,0.708707,-0.205664,-0.172842,0.678575,-0.060542,-0.834307,40.749249,-23.651016,-5.229311,0.374845,1.714889,-0.175919,0.000000,0.000000,0.000000,0.000000,0.000000,0.000000
11786293.000000,-2.300761,-1.662798,1.258369,-1.452552,1.703896,1.295667,-0.581248,0.259144,-0.008008,0.712485,-0.211017,-0.171628,0.678772,-0.057799,-0.786700,40.650066,-23.651016,-5.078554,0.362943,1.702071,-0.221696,0.000000,0.000000,0.000000,0.000000,0.000000,0.000000
11786294.000000,-2.300495,-1.662806,1.259092,-1.452766,1.703734,1.296350,-0.581306,0.261746,-0.008559,0.717313,-0.211504,-0.166967,0.674621,-0.062337,-0.834307,40.602459,-23.555801,-4.931764,0.381254,1.754256,-0.221696,0.000000,0.000000,0.000000,0.000000,0.000000,0.000000
11786295.000000,-2.300232,-1.662812,1.259808,-1.452986,1.703569,1.297043,-0.581373,0.259630,-0.005429,0.717694,-0.213443,-0.163921,0.687415,-0.062811,-0.834307,40.550884,-23.528030,-4.709596,0.405057,1.812850,-0.169511,0.000000,0.000000,0.000000,0.000000,0.000000,0.000000
11786296.000000,-2.299972,-1.662819,1.260539,-1.453196,1.703392,1.297721,-0.581425,0.261813,-0.006699,0.717666,-0.216208,-0.171715,0.685739,-0.060159,-0.834307,40.503277,-23.579605,-4.562807,0.452665,1.806442,-0.196061,0.000000,0.000000,0.000000,0.000000,0.000000,0.000000
11786297.000000,-2.299707,-1.662822,1.261257,-1.453413,1.703226,1.298421,-0.581482,0.262751,-0.006412,0.732662,-0.219147,-0.170061,0.688861,-0.058390,-0.885882,40.404095,-23.651016,-4.487428,0.422452,1.773483,-0.221696,0.000000,0.000000,0.000000,0.000000,0.000000,0.000000
11786298.000000,-2.299451,-1.662821,1.261999,-1.453633,1.703064,1.299101,-0.581548,0.259450,-0.005370,0.731908,-0.225124,-0.168972,0.686493,-0.060372,-0.862078,40.257305,-23.849380,-4.364442,0.398649,1.760665,-0.155778,0.000000,0.000000,0.000000,0.000000,0.000000,0.000000
11786299.000000,-2.299193,-1.662825,1.262726,-1.453849,1.702894,1.299791,-0.581599,0.258042,-0.006368,0.735949,-0.220131,-0.171147,0.684432,-0.061795,-0.885882,40.185894,-23.920792,-4.289064,0.458158,1.735030,-0.215287,0.000000,0.000000,0.000000,0.000000,0.000000,0.000000
11786300.000000,-2.298939,-1.662830,1.263449,-1.454069,1.702726,1.300479,-0.581662,0.257861,-0.006994,0.728507,-0.220606,-0.172068,0.686658,-0.062312,-0.834307,40.110516,-24.019974,-4.166078,0.494779,1.767074,-0.169511,0.000000,0.000000,0.000000,0.000000,0.000000,0.000000
11786301.000000,-2.298682,-1.662834,1.264174,-1.454287,1.702566,1.301137,-0.581716,0.256619,-0.004606,0.724185,-0.220109,-0.165699,0.677129,-0.060629,-0.834307,40.062908,-24.095352,-4.090700,0.470060,1.955673,-0.175919,0.000000,0.000000,0.000000,0.000000,0.000000,0.000000
11786302.000000,-2.298424,-1.662833,1.264909,-1.454509,1.702404,1.301818,-0.581765,0.255759,-0.000430,0.737448,-0.217182,-0.161413,0.668334,-0.058386,-0.810504,39.916119,-24.218338,-3.967714,0.458158,2.053634,-0.208878,0.000000,0.000000,0.000000,0.000000,0.000000,0.000000
11786303.000000,-2.298172,-1.662836,1.265630,-1.454725,1.702241,1.302499,-0.581825,0.258421,-0.003175,0.732126,-0.215888,-0.162339,0.674891,-0.059265,-0.834307,39.868511,-24.313553,-3.967714,0.428861,1.974899,-0.175919,0.000000,0.000000,0.000000,0.000000,0.000000,0.000000
11786304.000000,-2.297913,-1.662836,1.266351,-1.454940,1.702073,1.303193,-0.581875,0.258312,-0.001083,0.739440,-0.214947,-0.164322,0.682668,-0.057328,-0.834307,39.793133,-24.265945,-3.967714,0.440763,1.916305,-0.208878,0.000000,0.000000,0.000000,0.000000,0.000000,0.000000
11786305.000000,-2.297657,-1.662831,1.267066,-1.455166,1.701914,1.303885,-0.581932,0.256895,0.002164,0.730986,-0.217916,-0.164971,0.681396,-0.058445,-0.862078,39.646343,-24.242142,-3.920107,0.416959,1.916305,-0.175919,0.000000,0.000000,0.000000,0.000000,0.000000,0.000000
11786306.000000,-2.297410,-1.662823,1.267781,-1.455392,1.701756,1.304560,-0.581982,0.254737,0.000969,0.726576,-0.219254,-0.162519,0.678817,-0.055933,-0.834307,39.499554,-24.166763,-3.797121,0.434354,1.974899,-0.229020,0.000000,0.000000,0.000000,0.000000,0.000000,0.000000
11786307.000000,-2.297156,-1.662820,1.268497,-1.455622,1.701591,1.305248,-0.582041,0.252744,0.001160,0.729984,-0.221463,-0.162413,0.682001,-0.058162,-0.810504,39.451946,-23.996170,-3.622560,0.506681,1.968490,-0.182328,0.000000,0.000000,0.000000,0.000000,0.000000,0.000000
11786308.000000,-2.296904,-1.662817,1.269198,-1.455843,1.701435,1.305921,-0.582095,0.252475,0.001530,0.717980,-0.222651,-0.159664,0.680933,-0.056866,-0.786700,39.400372,-23.849380,-3.598757,0.518583,1.974899,-0.202470,0.000000,0.000000,0.000000,0.000000,0.000000,0.000000
11786309.000000,-2.296661,-1.662804,1.269918,-1.456069,1.701285,1.306606,-0.582149,0.249889,0.004117,0.710502,-0.225962,-0.155786,0.676664,-0.058134,-0.687518,39.253582,-23.750198,-3.475771,0.482877,1.942855,-0.169511,0.000000,0.000000,0.000000,0.000000,0.000000,0.000000
11786310.000000,-2.296409,-1.662798,1.270626,-1.456296,1.701135,1.307289,-0.582196,0.249688,0.003605,0.701743,-0.223586,-0.153311,0.670224,-0.055736,-0.687518,39.205975,-23.702591,-3.400392,0.446256,1.865035,-0.221696,0.000000,0.000000,0.000000,0.000000,0.000000,0.000000
11786311.000000,-2.296170,-1.662790,1.271341,-1.456515,1.700985,1.307964,-0.582252,0.244976,0.004534,0.699895,-0.221887,-0.155478,0.668412,-0.057268,-0.588336,39.106792,-23.651016,-3.348818,0.393156,1.844894,-0.188737,0.000000,0.000000,0.000000,0.000000,0.000000,0.000000
11786312.000000,-2.295927,-1.662792,1.272065,-1.456744,1.700820,1.308646,-0.582304,0.243190,0.002324,0.711611,-0.225388,-0.156430,0.669716,-0.056785,-0.540728,39.130596,-23.702591,-3.225832,0.452665,1.832076,-0.196061,0.000000,0.000000,0.000000,0.000000,0.000000,0.000000
11786313.000000,-2.295690,-1.662786,1.272778,-1.456968,1.700670,1.309324,-0.582353,0.242974,0.003113,0.715045,-0.223061,-0.155794,0.682414,-0.056645,-0.441546,39.059185,-23.750198,-3.178224,0.470060,1.942855,-0.196061,0.000000,0.000000,0.000000,0.000000,0.000000,0.000000
11786314.000000,-2.295449,-1.662781,1.273500,-1.457186,1.700518,1.309994,-0.582406,0.241646,0.003109,0.715064,-0.221003,-0.155541,0.681173,-0.056922,-0.413775,39.011578,-23.873184,-3.154421,0.500272,1.955673,-0.188737,0.000000,0.000000,0.000000,0.000000,0.000000,0.000000
11786315.000000,-2.295211,-1.662784,1.274211,-1.457398,1.700371,1.310681,-0.582453,0.241201,0.000899,0.725245,-0.215406,-0.155003,0.680313,-0.051398,-0.314593,39.059185,-24.019974,-3.154421,0.512174,1.930038,-0.208878,0.000000,0.000000,0.000000,0.000000,0.000000,0.000000
11786316.000000,-2.294981,-1.662789,1.274930,-1.457609,1.700228,1.311355,-0.582508,0.236411,-0.000559,0.720361,-0.218646,-0.153478,0.680346,-0.053908,-0.243182,39.106792,-24.142960,-3.202028,0.506681,1.916305,-0.175919,0.000000,0.000000,0.000000,0.000000,0.000000,0.000000
11786317.000000,-2.294746,-1.662794,1.275652,-1.457823,1.700086,1.312027,-0.582556,0.235253,-0.002727,0.725931,-0.217142,-0.147241,0.672621,-0.049339,-0.167803,39.205975,-24.313553,-3.202028,0.488370,1.968490,-0.188737,0.000000,0.000000,0.000000,0.000000,0.000000,0.000000
11786318.000000,-2.294512,-1.662802,1.276362,-1.458032,1.699942,1.312704,-0.582603,0.235374,-0.004720,0.720021,-0.212817,-0.143389,0.673382,-0.049973,-0.116229,39.328960,-24.388931,-3.202028,0.482877,1.988631,-0.221696,0.000000,0.000000,0.000000,0.000000,0.000000,0.000000
11786319.000000,-2.294288,-1.662811,1.277076,-1.458239,1.699792,1.313371,-0.582656,0.230587,-0.006043,0.712569,-0.212975,-0.150040,0.669841,-0.053009,0.006757,39.451946,-24.412735,-3.202028,0.482877,1.995040,-0.188737,0.000000,0.000000,0.000000,0.000000,0.000000,0.000000
11786320.000000,-2.294054,-1.662820,1.277790,-1.458451,1.699642,1.314054,-0.582706,0.235517,-0.006270,0.721183,-0.212421,-0.150709,0.667450,-0.048445,0.006757,39.547161,-24.341324,-3.225832,0.494779,1.962081,-0.208878,0.000000,0.000000,0.000000,0.000000,0.000000,0.000000
11786321.000000,-2.293827,-1.662826,1.278497,-1.458660,1.699500,1.314720,-0.582762,0.231745,-0.005954,0.721020,-0.212874,-0.150390,0.662407,-0.047104,0.153547,39.622540,-24.313553,-3.225832,0.482877,1.916305,-0.175919,0.000000,0.000000,0.000000,0.000000,0.000000,0.000000
11786322.000000,-2.293600,-1.662833,1.279205,-1.458865,1.699356,1.315406,-0.582807,0.229317,-0.006297,0.728625,-0.209975,-0.145940,0.673920,-0.047910,0.228925,39.721722,-24.242142,-3.225832,0.494779,1.838485,-0.215287,0.000000,0.000000,0.000000,0.000000,0.000000,0.000000
11786323.000000,-2.293374,-1.662836,1.279908,-1.459062,1.699217,1.316090,-0.582859,0.227062,-0.005318,0.719245,-0.205714,-0.146185,0.680258,-0.051633,0.304304,39.769329,-24.190567,-3.301210,0.482877,1.806442,-0.175919,0.000000,0.000000,0.000000,0.000000,0.000000,0.000000
11786324.000000,-2.293158,-1.662840,1.280612,-1.459258,1.699078,1.316763,-0.582905,0.226512,-0.004663,0.714079,-0.202203,-0.142380,0.678273,-0.051805,0.502668,39.816936,-24.071548,-3.400392,0.476469,1.844894,-0.202470,0.000000,0.000000,0.000000,0.000000,0.000000,0.000000
11786325.000000,-2.292935,-1.662842,1.281316,-1.459459,1.698938,1.317440,-0.582948,0.224786,-0.003112,0.715458,-0.200955,-0.140143,0.681018,-0.048042,0.574079,39.816936,-23.825577,-3.448000,0.482877,1.865035,-0.215287,0.000000,0.000000,0.000000,0.000000,0.000000,0.000000
11786326.000000,-2.292708,-1.662839,1.282011,-1.459654,1.698804,1.318110,-0.582997,0.222785,-0.000964,0.706303,-0.196418,-0.137389,0.690437,-0.046206,0.574079,39.769329,-23.651016,-3.523378,0.464567,1.871444,-0.196061,0.000000,0.000000,0.000000,0.000000,0.000000,0.000000
11786327.000000,-2.292492,-1.662836,1.282717,-1.459843,1.698666,1.318811,-0.583044,0.222362,0.000469,0.698747,-0.192948,-0.135215,0.695789,-0.048506,0.649457,39.721722,-23.528030,-3.598757,0.440763,1.773483,-0.196061,0.000000,0.000000,0.000000,0.000000,0.000000,0.000000
11786328.000000,-2.292267,-1.662829,1.283408,-1.460040,1.698523,1.319505,-0.583091,0.222677,0.002075,0.694360,-0.195027,-0.134387,0.690265,-0.050101,0.673261,39.646343,-23.357437,-3.598757,0.434354,1.656295,-0.208878,0.000000,0.000000,0.000000,0.000000,0.000000,0.000000
11786329.000000,-2.292040,-1.662821,1.284112,-1.460236,1.698381,1.320185,-0.583138,0.224800,0.003702,0.698959,-0.194115,-0.134378,0.692222,-0.046800,0.649457,39.547161,-23.309830,-3.570986,0.452665,1.630660,-0.215287,0.000000,0.000000,0.000000,0.000000,0.000000,0.000000
11786330.000000,-2.291810,-1.662812,1.284817,-1.460429,1.698241,1.320876,-0.583189,0.224149,0.005251,0.705800,-0.193961,-0.133565,0.682588,-0.046537,0.550275,39.428143,-23.258255,-3.523378,0.458158,1.611434,-0.163102,0.000000,0.000000,0.000000,0.000000,0.000000,0.000000
11786331.000000,-2.291580,-1.662805,1.285509,-1.460618,1.698105,1.321569,-0.583230,0.226327,0.005820,0.697673,-0.192974,-0.134381,0.680392,-0.042226,0.474897,39.328960,-23.186844,-3.499574,0.488370,1.617843,-0.215287,0.000000,0.000000,0.000000,0.000000,0.000000,0.000000
11786332.000000,-2.291361,-1.662802,1.286208,-1.460805,1.697970,1.322245,-0.583283,0.226820,0.004993,0.692604,-0.193736,-0.133957,0.677771,-0.047818,0.474897,39.281353,-23.040054,-3.547182,0.494779,1.670028,-0.163102,0.000000,0.000000,0.000000,0.000000,0.000000,0.000000
11786333.000000,-2.291132,-1.662791,1.286912,-1.460986,1.697840,1.322932,-0.583329,0.225180,0.006855,0.706691,-0.186979,-0.131177,0.678789,-0.044725,0.375715,39.130596,-23.210648,-3.622560,0.434354,1.754256,-0.175919,0.000000,0.000000,0.000000,0.000000,0.000000,0.000000
11786334.000000,-2.290915,-1.662781,1.287619,-1.461165,1.697712,1.323615,-0.583370,0.222277,0.014176,0.704940,-0.188439,-0.129100,0.687554,-0.041428,0.375715,39.011578,-23.258255,-3.670168,0.369352,1.779891,-0.215287,0.000000,0.000000,0.000000,0.000000,0.000000,0.000000
11786335.000000,-2.290689,-1.662778,1.288332,-1.461343,1.697579,1.324310,-0.583422,0.226335,0.010669,0.713718,-0.184824,-0.130407,0.682607,-0.047101,0.375715,38.983807,-23.357437,-3.697939,0.381254,1.727706,-0.169511,0.000000,0.000000,0.000000,0.000000,0.000000,0.000000
11786336.000000,-2.290461,-1.662775,1.289028,-1.461522,1.697447,1.324998,-0.583464,0.224033,0.008652,0.711606,-0.185149,-0.135517,0.680933,-0.043069,0.328107,38.936199,-23.432816,-3.721742,0.374845,1.747848,-0.215287,0.000000,0.000000,0.000000,0.000000,0.000000,0.000000
11786337.000000,-2.290237,-1.662763,1.289744,-1.461706,1.697308,1.325661,-0.583513,0.222880,0.010078,0.708426,-0.186826,-0.139835,0.673318,-0.043401,0.252729,38.765606,-23.651016,-3.697939,0.386747,1.812850,-0.175919,0.000000,0.000000,0.000000,0.000000,0.000000,0.000000
11786338.000000,-2.290011,-1.662750,1.290457,-1.461886,1.697167,1.326340,-0.583555,0.222023,0.013724,0.717818,-0.184665,-0.143778,0.668065,-0.041490,0.205121,38.618816,-23.825577,-3.670168,0.416959,1.832076,-0.188737,0.000000,0.000000,0.000000,0.000000,0.000000,0.000000
