chaoyuefei/paper-gmrm-data/robot_logs/s2_dq_mrm_max_0.50_log_20260314_174919.csv
# time_ms,q_0,q_1,q_2,q_3,q_4,q_5,q_6,dq_0,dq_1,dq_2,dq_3,dq_4,dq_5,dq_6,tau_J_0,tau_J_1,tau_J_2,tau_J_3,tau_J_4,tau_J_5,tau_J_6,O_dP_EE_c_0,O_dP_EE_c_1,O_dP_EE_c_2,O_dP_EE_c_3,O_dP_EE_c_4,O_dP_EE_c_5
13221209.000000,2.312752,-0.964729,-1.819528,-1.386095,-0.927560,1.665509,0.447534,0.000681,0.000443,0.001730,0.000321,-0.000509,0.004578,0.001052,-0.017047,35.508465,19.616196,12.147398,1.032194,1.389877,-0.169511,0.000000,0.000000,0.000000,0.000000,0.000000,0.000000
13221210.000000,2.312751,-0.964728,-1.819528,-1.386095,-0.927559,1.665512,0.447530,-0.000103,0.000852,0.001154,0.000214,-0.000136,0.004438,-0.000519,0.006757,35.484661,19.616196,12.147398,1.026700,1.364242,-0.136552,0.000000,0.000000,0.000000,0.000000,0.000000,0.000000
13221211.000000,2.312747,-0.964728,-1.819534,-1.386093,-0.927557,1.665507,0.447530,-0.001182,0.000568,-0.001551,0.000699,0.000587,0.002811,-0.000346,0.054365,35.484661,19.715378,12.123594,1.008390,1.377059,-0.136552,0.000000,0.000000,0.000000,0.000000,0.000000,0.000000
13221212.000000,2.312751,-0.964729,-1.819535,-1.386093,-0.927560,1.665511,0.447532,0.000325,-0.000178,-0.000477,0.000466,-0.000727,0.002595,0.000244,0.006757,35.508465,19.691574,12.123594,1.038602,1.364242,-0.149369,0.000000,0.000000,0.000000,0.000000,0.000000,0.000000
13221213.000000,2.312740,-0.964735,-1.819540,-1.386094,-0.927556,1.665508,0.447528,-0.012109,-0.010761,-0.012717,-0.000803,-0.000533,0.001914,-0.002041,-0.413775,35.044292,19.152023,12.171202,0.913175,1.364242,-0.089860,0.000000,0.000000,0.000000,0.000000,0.000000,0.000000
13221214.000000,2.312724,-0.964699,-1.819556,-1.386095,-0.927545,1.665508,0.447548,-0.028949,-0.006494,-0.027155,-0.002298,0.003225,-0.001340,0.003373,-2.270464,32.671856,17.311203,12.246580,0.554288,1.305648,-0.089860,0.000000,0.000000,0.000000,0.000000,0.000000,0.000000
13221215.000000,2.312717,-0.964640,-1.819628,-1.386092,-0.927525,1.665493,0.447579,-0.027132,0.009733,-0.049767,-0.003295,0.007510,-0.003133,0.017598,-5.737872,28.728374,14.538071,12.321959,-0.001437,1.357833,-0.103593,0.000000,0.000000,0.000000,0.000000,0.000000,0.000000
13221216.000000,2.312675,-0.964626,-1.819743,-1.386077,-0.927538,1.665475,0.447613,-0.024182,0.014698,-0.076164,0.001886,0.000652,-0.006150,0.019969,-9.649615,24.519085,11.249191,12.147398,-0.318209,1.461288,-0.031266,0.000000,0.000000,0.000000,0.000000,0.000000,0.000000
13221217.000000,2.312600,-0.964685,-1.819891,-1.386068,-0.927602,1.665479,0.447667,-0.029221,0.001104,-0.092913,-0.001142,-0.019276,0.004873,0.030113,-13.386798,21.043743,7.813522,11.976805,-0.234896,1.467696,-0.050492,0.000000,0.000000,0.000000,0.000000,0.000000,0.000000
13221218.000000,2.312502,-0.964770,-1.820055,-1.386071,-0.927688,1.665522,0.447736,-0.040949,-0.017715,-0.101209,-0.001492,-0.043570,0.022662,0.045280,-16.778826,18.179363,4.524643,11.849852,-0.001437,1.214095,-0.023942,0.000000,0.000000,0.000000,0.000000,0.000000,0.000000
13221219.000000,2.312379,-0.964899,-1.820222,-1.386085,-0.927782,1.665621,0.447827,-0.057799,-0.048636,-0.107772,-0.005667,-0.062193,0.052611,0.057537,-19.599566,16.025127,1.699936,11.750669,0.147794,0.616256,-0.023942,0.000000,0.000000,0.000000,0.000000,0.000000,0.000000
13221220.000000,2.312249,-0.965060,-1.820372,-1.386103,-0.927897,1.665766,0.447932,-0.073771,-0.081879,-0.105895,-0.008252,-0.078812,0.084359,0.070539,-22.126726,14.581036,-0.997818,11.627684,0.261320,-0.150956,0.021835,0.000000,0.000000,0.000000,0.000000,0.000000,0.000000
13221221.000000,2.312129,-0.965217,-1.820518,-1.386127,-0.928000,1.665912,0.448075,-0.084854,-0.103832,-0.117137,-0.012720,-0.091521,0.110403,0.091863,-24.550737,13.454327,-3.231400,11.480894,0.129484,-0.658158,-0.011124,0.000000,0.000000,0.000000,0.000000,0.000000,0.000000
13221222.000000,2.311999,-0.965398,-1.820648,-1.386144,-0.928115,1.666058,0.448234,-0.098184,-0.128905,-0.118947,-0.017176,-0.098311,0.120939,0.115238,-26.681170,12.744183,-5.246780,11.107969,-0.079257,-0.781754,0.009017,0.000000,0.000000,0.000000,0.000000,0.000000,0.000000
13221223.000000,2.311869,-0.965552,-1.820783,-1.386173,-0.928242,1.666203,0.448418,-0.100729,-0.136301,-0.117784,-0.026516,-0.106574,0.130298,0.133538,-28.188738,11.938824,-6.619461,10.592222,-0.330111,-0.540971,0.015426,0.000000,0.000000,0.000000,0.000000,0.000000,0.000000
13221224.000000,2.311717,-0.965701,-1.820903,-1.386246,-0.928370,1.666383,0.448633,-0.105813,-0.138927,-0.109289,-0.047674,-0.111679,0.141556,0.157828,-28.387102,11.323895,-7.305801,10.096312,-0.646884,-0.229691,-0.011124,0.000000,0.000000,0.000000,0.000000,0.000000,0.000000
13221226.000000,2.311396,-0.965916,-1.821120,-1.386576,-0.928703,1.666924,0.449127,-0.133103,-0.119616,-0.110877,-0.120461,-0.142101,0.210224,0.204536,-24.923662,9.955181,-6.766251,9.406004,-0.748507,-0.378922,-0.011124,0.000000,0.000000,0.000000,0.000000,0.000000,0.000000
13221227.000000,2.311226,-0.965996,-1.821229,-1.386796,-0.928909,1.667233,0.449388,-0.151743,-0.105085,-0.116586,-0.150951,-0.164475,0.239478,0.222686,-21.952166,9.197430,-5.734756,8.711729,-0.592867,-0.437516,-0.004716,0.000000,0.000000,0.000000,0.000000,0.000000,0.000000
13221228.000000,2.311045,-0.966066,-1.821343,-1.387050,-0.929130,1.667548,0.449659,-0.171384,-0.093533,-0.122305,-0.181540,-0.181957,0.264208,0.237897,-18.635515,8.411907,-4.508865,7.898436,-0.414340,-0.203141,0.015426,0.000000,0.000000,0.000000,0.000000,0.000000,0.000000
13221229.000000,2.310875,-0.966131,-1.821457,-1.387336,-0.929362,1.667868,0.449951,-0.181221,-0.085507,-0.124536,-0.210735,-0.198453,0.279685,0.254883,-15.640216,7.677959,-3.405960,7.180357,-0.252291,0.154830,-0.011124,0.000000,0.000000,0.000000,0.000000,0.000000,0.000000
13221230.000000,2.310698,-0.966190,-1.821569,-1.387640,-0.929599,1.668219,0.450241,-0.187065,-0.080177,-0.126758,-0.235931,-0.205304,0.296324,0.266598,-12.744098,6.967815,-2.497452,6.486083,-0.222994,0.401107,-0.004716,0.000000,0.000000,0.000000,0.000000,0.000000,0.000000
13221231.000000,2.310527,-0.966262,-1.821697,-1.387944,-0.929844,1.668603,0.450543,-0.187207,-0.078681,-0.129810,-0.251691,-0.216332,0.319322,0.276250,-10.117755,6.503643,-1.636551,5.621214,-0.306307,0.499068,-0.031266,0.000000,0.000000,0.000000,0.000000,0.000000,0.000000
13221232.000000,2.310348,-0.966354,-1.821835,-1.388265,-0.930105,1.669010,0.450836,-0.190161,-0.082928,-0.135236,-0.262846,-0.230096,0.347275,0.278742,-7.618365,6.309246,-0.898636,4.855528,-0.497653,0.557662,-0.023942,0.000000,0.000000,0.000000,0.000000,0.000000,0.000000
13221233.000000,2.310170,-0.966465,-1.821990,-1.388599,-0.930396,1.669434,0.451130,-0.191783,-0.096329,-0.142295,-0.277788,-0.245887,0.367811,0.279174,-5.416522,6.428265,-0.287674,4.089842,-0.569064,0.597030,-0.004716,0.000000,0.000000,0.000000,0.000000,0.000000,0.000000
13221234.000000,2.310002,-0.966602,-1.822155,-1.388918,-0.930703,1.669865,0.451430,-0.185015,-0.108614,-0.151751,-0.284619,-0.266112,0.398361,0.286593,-3.583636,6.725811,0.204269,3.272581,-0.539767,0.674850,-0.031266,0.000000,0.000000,0.000000,0.000000,0.000000,0.000000
13221235.000000,2.309830,-0.966760,-1.822341,-1.389230,-0.931034,1.670335,0.451719,-0.183418,-0.127593,-0.164769,-0.290553,-0.285880,0.417471,0.284274,-1.925311,7.189983,0.644638,2.260924,-0.485751,0.668441,0.015426,0.000000,0.000000,0.000000,0.000000,0.000000,0.000000
13221236.000000,2.309672,-0.966918,-1.822537,-1.389549,-0.931387,1.670832,0.452012,-0.174727,-0.137287,-0.172950,-0.298872,-0.306367,0.438030,0.284906,-0.635943,7.531170,0.890610,1.471434,-0.419833,0.505477,-0.011124,0.000000,0.000000,0.000000,0.000000,0.000000,0.000000
13221237.000000,2.309530,-0.967089,-1.822749,-1.389880,-0.931755,1.671363,0.452300,-0.163521,-0.146675,-0.185336,-0.308458,-0.320546,0.466642,0.283465,0.252729,7.848553,1.112778,0.828734,-0.384127,0.219833,0.015426,0.000000,0.000000,0.000000,0.000000,0.000000,0.000000
13221238.000000,2.309398,-0.967255,-1.822972,-1.390216,-0.932135,1.671913,0.452595,-0.153515,-0.155289,-0.195421,-0.311573,-0.340008,0.487336,0.284255,0.871625,7.995342,1.211960,0.186034,-0.353915,0.017501,-0.004716,0.000000,0.000000,0.000000,0.000000,0.000000,0.000000
13221239.000000,2.309271,-0.967423,-1.823200,-1.390544,-0.932535,1.672472,0.452891,-0.144693,-0.158357,-0.208550,-0.318976,-0.358156,0.526553,0.283781,1.343732,7.971539,1.184189,-0.385256,-0.365817,-0.014542,-0.011124,0.000000,0.000000,0.000000,0.000000,0.000000,0.000000
13221240.000000,2.309159,-0.967591,-1.823429,-1.390884,-0.932959,1.673030,0.453177,-0.134185,-0.160877,-0.211773,-0.324581,-0.376736,0.534947,0.275831,1.490522,7.777142,1.037399,-0.904970,-0.336520,0.115462,0.021835,0.000000,0.000000,0.000000,0.000000,0.000000,0.000000
13221241.000000,2.309055,-0.967751,-1.823680,-1.391239,-0.933384,1.673607,0.453468,-0.125247,-0.161346,-0.224887,-0.342730,-0.403398,0.549490,0.283534,1.490522,7.360577,0.942184,-1.150941,-0.300814,0.291244,0.001693,0.000000,0.000000,0.000000,0.000000,0.000000,0.000000
13221242.000000,2.308952,-0.967899,-1.823929,-1.391605,-0.933827,1.674216,0.453760,-0.115237,-0.155037,-0.230308,-0.349693,-0.413470,0.567303,0.283829,1.442914,6.698040,0.767624,-1.349306,-0.348422,0.310470,-0.004716,0.000000,0.000000,0.000000,0.000000,0.000000,0.000000
13221243.000000,2.308851,-0.968057,-1.824195,-1.391986,-0.934283,1.674877,0.454043,-0.108855,-0.152167,-0.239236,-0.357748,-0.425338,0.598048,0.287368,1.391340,6.134686,0.620834,-1.396913,-0.287997,0.102645,0.021835,0.000000,0.000000,0.000000,0.000000,0.000000,0.000000
13221244.000000,2.308755,-0.968221,-1.824481,-1.392377,-0.934729,1.675557,0.454327,-0.106392,-0.153674,-0.253608,-0.368647,-0.437579,0.623075,0.286057,1.268354,5.599102,0.549423,-1.349306,-0.264193,-0.041093,0.015426,0.000000,0.000000,0.000000,0.000000,0.000000,0.000000
13221245.000000,2.308671,-0.968401,-1.824766,-1.392779,-0.935202,1.676225,0.454602,-0.099000,-0.159079,-0.261557,-0.380439,-0.447660,0.638927,0.288194,1.022382,5.230145,0.497848,-1.349306,-0.187289,0.017501,0.028243,0.000000,0.000000,0.000000,0.000000,0.000000,0.000000
13221246.000000,2.308591,-0.968594,-1.825047,-1.393189,-0.935672,1.676923,0.454890,-0.093384,-0.174996,-0.261780,-0.386807,-0.453379,0.650149,0.292904,0.772443,5.035748,0.228073,-1.496095,-0.055453,0.076095,0.021835,0.000000,0.000000,0.000000,0.000000,0.000000,0.000000
13221247.000000,2.308527,-0.968798,-1.825358,-1.393604,-0.936136,1.677645,0.455177,-0.084083,-0.182310,-0.273399,-0.395753,-0.457640,0.670559,0.286763,0.403486,5.035748,0.398666,-1.571474,-0.037142,0.115462,-0.004716,0.000000,0.000000,0.000000,0.000000,0.000000,0.000000
13221248.000000,2.308453,-0.969030,-1.825664,-1.394039,-0.936605,1.678400,0.455456,-0.078104,-0.196574,-0.280432,-0.406649,-0.455697,0.702424,0.285581,0.328107,5.523724,0.767624,-1.718263,-0.013339,0.076095,0.009017,0.000000,0.000000,0.000000,0.000000,0.000000,0.000000
13221249.000000,2.308370,-0.969269,-1.825950,-1.394481,-0.937069,1.679187,0.455737,-0.079618,-0.210657,-0.281059,-0.422052,-0.460119,0.727855,0.279739,0.649457,6.356853,1.136581,-1.841249,0.141385,0.017501,0.021835,0.000000,0.000000,0.000000,0.000000,0.000000,0.000000
13221250.000000,2.308286,-0.969519,-1.826251,-1.394961,-0.937516,1.679987,0.456020,-0.078441,-0.223007,-0.284806,-0.438085,-0.453113,0.749133,0.285492,1.192975,7.483562,2.068893,-1.769838,0.034269,-0.001725,0.015426,0.000000,0.000000,0.000000,0.000000,0.000000,0.000000
13221251.000000,2.308200,-0.969771,-1.826532,-1.395446,-0.937966,1.680818,0.456294,-0.084743,-0.233438,-0.282319,-0.455645,-0.447988,0.774776,0.282073,1.934858,8.705486,2.977401,-1.742067,0.034269,-0.060319,0.001693,0.000000,0.000000,0.000000,0.000000,0.000000,0.000000
13221252.000000,2.308108,-0.970017,-1.826811,-1.395945,-0.938407,1.681647,0.456563,-0.087383,-0.241903,-0.286400,-0.467461,-0.446830,0.800466,0.279113,2.779890,9.760784,3.957321,-1.619081,0.093778,-0.014542,0.074935,0.000000,0.000000,0.000000,0.000000,0.000000,0.000000
13221253.000000,2.308018,-0.970262,-1.827098,-1.396471,-0.938835,1.682503,0.456836,-0.090866,-0.243718,-0.293059,-0.482917,-0.437652,0.815054,0.279909,3.597150,10.494732,4.917404,-1.420717,-0.031649,0.050460,0.028243,0.000000,0.000000,0.000000,0.000000,0.000000,0.000000
13221254.000000,2.307916,-0.970509,-1.827383,-1.397005,-0.939263,1.683355,0.457103,-0.098507,-0.247100,-0.294237,-0.505139,-0.432154,0.820105,0.272143,4.509626,11.058086,5.627548,-1.198549,-0.037142,0.147506,0.009017,0.000000,0.000000,0.000000,0.000000,0.000000,0.000000
13221255.000000,2.307813,-0.970755,-1.827676,-1.397553,-0.939692,1.684186,0.457367,-0.100772,-0.246835,-0.300035,-0.515434,-0.436851,0.815557,0.268453,5.303083,11.351665,6.266281,-1.099367,-0.055453,0.232650,0.067611,0.000000,0.000000,0.000000,0.000000,0.000000,0.000000
13221256.000000,2.307709,-0.971011,-1.827986,-1.398126,-0.940139,1.685033,0.457638,-0.103712,-0.257943,-0.303087,-0.532704,-0.437155,0.817667,0.270209,6.021162,11.593670,6.829636,-1.000185,-0.025240,0.251876,0.021835,0.000000,0.000000,0.000000,0.000000,0.000000,0.000000
13221257.000000,2.307596,-0.971286,-1.828303,-1.398696,-0.940578,1.685855,0.457911,-0.109282,-0.261293,-0.304208,-0.549642,-0.434748,0.819390,0.272899,6.739240,11.839642,7.198593,-1.000185,0.058073,0.316879,0.001693,0.000000,0.000000,0.000000,0.000000,0.000000,0.000000
13221258.000000,2.307478,-0.971580,-1.828620,-1.399279,-0.941035,1.686652,0.458173,-0.113058,-0.269616,-0.308069,-0.556550,-0.441482,0.804804,0.266421,7.457319,12.157024,7.515976,-1.174745,0.154203,0.408431,0.041976,0.000000,0.000000,0.000000,0.000000,0.000000,0.000000
13221259.000000,2.307362,-0.971893,-1.828951,-1.399866,-0.941486,1.687470,0.458444,-0.113428,-0.286460,-0.317137,-0.578556,-0.456457,0.801652,0.267992,8.052411,12.621197,7.861130,-1.373109,0.201810,0.388290,0.034652,0.000000,0.000000,0.000000,0.000000,0.000000,0.000000
13221260.000000,2.307243,-0.972238,-1.829277,-1.400457,-0.941939,1.688272,0.458715,-0.117194,-0.300951,-0.317608,-0.577091,-0.448046,0.802597,0.271158,8.643537,13.236126,8.031723,-1.718263,0.267728,0.304061,0.054794,0.000000,0.000000,0.000000,0.000000,0.000000,0.000000
13221261.000000,2.307114,-0.972602,-1.829616,-1.401061,-0.942394,1.689072,0.458987,-0.120375,-0.318508,-0.323342,-0.583358,-0.454157,0.797057,0.266938,9.262433,13.946270,8.253891,-2.015810,0.171598,0.251876,0.001693,0.000000,0.000000,0.000000,0.000000,0.000000,0.000000
13221262.000000,2.306978,-0.972982,-1.829957,-1.401662,-0.942849,1.689876,0.459247,-0.127044,-0.340321,-0.327221,-0.586191,-0.457203,0.796455,0.263095,9.909101,14.656414,8.329269,-2.313356,0.141385,0.232650,0.074935,0.000000,0.000000,0.000000,0.000000,0.000000,0.000000
13221263.000000,2.306841,-0.973387,-1.830302,-1.402279,-0.943311,1.690667,0.459509,-0.134389,-0.358028,-0.330419,-0.587045,-0.459779,0.802909,0.265341,10.401044,15.485577,8.523666,-2.483949,0.129484,0.154830,0.067611,0.000000,0.000000,0.000000,0.000000,0.000000,0.000000
13221264.000000,2.306702,-0.973795,-1.830643,-1.402919,-0.943771,1.691464,0.459783,-0.138263,-0.371999,-0.336150,-0.595861,-0.459579,0.794731,0.265482,10.650983,16.318707,8.622849,-2.091188,0.040677,0.128280,0.054794,0.000000,0.000000,0.000000,0.000000,0.000000,0.000000
13221265.000000,2.306536,-0.974211,-1.830978,-1.403533,-0.944235,1.692248,0.460063,-0.148889,-0.380000,-0.335651,-0.599401,-0.459130,0.795084,0.266090,10.797772,17.151836,8.622849,-1.472292,0.069974,0.232650,0.028243,0.000000,0.000000,0.000000,0.000000,0.000000,0.000000
13221266.000000,2.306369,-0.974626,-1.831327,-1.404148,-0.944698,1.693040,0.460338,-0.154135,-0.386510,-0.338387,-0.596899,-0.463699,0.800986,0.271029,10.551801,17.838177,8.694260,-0.456667,0.010465,0.323287,0.015426,0.000000,0.000000,0.000000,0.000000,0.000000,0.000000
13221267.000000,2.306195,-0.975044,-1.831690,-1.404755,-0.945163,1.693844,0.460608,-0.162697,-0.394287,-0.342676,-0.601588,-0.465226,0.799420,0.266139,10.155072,18.472942,8.892624,0.876341,-0.007845,0.440475,0.074935,0.000000,0.000000,0.000000,0.000000,0.000000,0.000000
13221268.000000,2.306013,-0.975460,-1.832035,-1.405372,-0.945640,1.694642,0.460892,-0.166893,-0.397245,-0.344334,-0.607003,-0.465877,0.794745,0.274540,9.635358,18.988689,8.892624,2.483092,0.093778,0.538436,0.021835,0.000000,0.000000,0.000000,0.000000,0.000000,0.000000
13221269.000000,2.305829,-0.975866,-1.832403,-1.405979,-0.946112,1.695432,0.461165,-0.170693,-0.400854,-0.351112,-0.610934,-0.464911,0.790224,0.276354,9.064069,19.230694,9.138596,4.014464,0.046171,0.746261,0.034652,0.000000,0.000000,0.000000,0.000000,0.000000,0.000000
13221270.000000,2.305653,-0.976281,-1.832763,-1.406578,-0.946569,1.696231,0.461440,-0.169609,-0.402341,-0.361117,-0.612003,-0.463217,0.804476,0.271897,8.472943,19.476665,9.285385,5.375243,-0.043551,0.915633,0.054794,0.000000,0.000000,0.000000,0.000000,0.000000,0.000000
13221271.000000,2.305481,-0.976711,-1.833129,-1.407181,-0.947046,1.697016,0.461707,-0.164365,-0.410318,-0.366833,-0.610332,-0.466306,0.797067,0.269666,7.830244,19.647259,9.356796,6.561461,0.010465,1.071273,0.067611,0.000000,0.000000,0.000000,0.000000,0.000000,0.000000
13221272.000000,2.305321,-0.977136,-1.833510,-1.407776,-0.947517,1.697810,0.461979,-0.158022,-0.413102,-0.367290,-0.607259,-0.466347,0.794145,0.271253,7.159772,19.794048,9.578964,7.477904,-0.019747,1.142684,0.034652,0.000000,0.000000,0.000000,0.000000,0.000000,0.000000
13221273.000000,2.305158,-0.977580,-1.833891,-1.408381,-0.947986,1.698583,0.462255,-0.160000,-0.420771,-0.372317,-0.609839,-0.467084,0.785604,0.275020,6.616254,19.940838,9.872543,8.168211,-0.037142,1.272689,0.015426,0.000000,0.000000,0.000000,0.000000,0.000000,0.000000
13221274.000000,2.304999,-0.978027,-1.834271,-1.408969,-0.948477,1.699356,0.462516,-0.156033,-0.433029,-0.373156,-0.595779,-0.475421,0.777226,0.270574,6.144147,19.964642,10.023300,8.441954,0.040677,1.402694,0.081344,0.000000,0.000000,0.000000,0.000000,0.000000,0.000000
13221275.000000,2.304857,-0.978486,-1.834670,-1.409560,-0.948957,1.700128,0.462797,-0.150561,-0.436730,-0.380446,-0.595102,-0.479392,0.772772,0.275778,5.549055,20.016216,10.340683,8.664122,0.058073,1.416427,0.021835,0.000000,0.000000,0.000000,0.000000,0.000000,0.000000
13221276.000000,2.304722,-0.978962,-1.835065,-1.410148,-0.949449,1.700901,0.463065,-0.142752,-0.451166,-0.381064,-0.589669,-0.484482,0.776280,0.270963,4.957929,20.139202,10.586655,8.664122,0.154203,1.350509,0.009017,0.000000,0.000000,0.000000,0.000000,0.000000,0.000000
13221277.000000,2.304588,-0.979428,-1.835463,-1.410718,-0.949947,1.701678,0.463334,-0.135079,-0.454407,-0.383816,-0.595532,-0.493505,0.776202,0.268489,4.485822,20.139202,10.832626,8.465757,0.195402,1.312057,0.034652,0.000000,0.000000,0.000000,0.000000,0.000000,0.000000
13221278.000000,2.304461,-0.979919,-1.835861,-1.411286,-0.950431,1.702439,0.463604,-0.130538,-0.461325,-0.390283,-0.582363,-0.487388,0.764258,0.266610,3.989912,20.210613,11.102402,8.144407,0.195402,1.240646,0.054794,0.000000,0.000000,0.000000,0.000000,0.000000,0.000000
13221279.000000,2.304350,-0.980418,-1.836266,-1.411865,-0.950925,1.703210,0.463872,-0.119030,-0.464221,-0.394059,-0.576243,-0.487371,0.765787,0.267806,3.422590,20.432781,11.443588,7.946043,0.201810,1.253463,0.015426,0.000000,0.000000,0.000000,0.000000,0.000000,0.000000
13221280.000000,2.304235,-0.980912,-1.836670,-1.412424,-0.951427,1.703986,0.464136,-0.116673,-0.467672,-0.394157,-0.572700,-0.491768,0.766401,0.266623,3.101240,20.821575,11.836349,7.747679,0.303434,1.272689,0.034652,0.000000,0.000000,0.000000,0.000000,0.000000,0.000000
13221281.000000,2.304130,-0.981414,-1.837068,-1.412981,-0.951928,1.704747,0.464391,-0.111698,-0.476363,-0.392043,-0.564884,-0.492930,0.767420,0.265079,2.803693,21.583294,12.550461,7.624693,0.374845,1.305648,0.067611,0.000000,0.000000,0.000000,0.000000,0.000000,0.000000
13221282.000000,2.304020,-0.981912,-1.837456,-1.413546,-0.952428,1.705532,0.464661,-0.114356,-0.482887,-0.391057,-0.557465,-0.492331,0.771178,0.263220,2.704511,22.440228,13.335983,7.672301,0.381254,1.220504,0.028243,0.000000,0.000000,0.000000,0.000000,0.000000,0.000000
13221283.000000,2.303927,-0.982395,-1.837831,-1.414104,-0.952925,1.706306,0.464921,-0.108509,-0.485340,-0.382385,-0.559736,-0.489130,0.771342,0.261760,2.506147,23.392376,14.069931,7.946043,0.446256,1.214095,0.061202,0.000000,0.000000,0.000000,0.000000,0.000000,0.000000
13221284.000000,2.303842,-0.982893,-1.838224,-1.414660,-0.953421,1.707079,0.465194,-0.098893,-0.490062,-0.387551,-0.554191,-0.485771,0.762217,0.265575,2.260175,24.447674,15.002243,8.243589,0.393156,1.344100,-0.017533,0.000000,0.000000,0.000000,0.000000,0.000000,0.000000
13221285.000000,2.303764,-0.983391,-1.838613,-1.415210,-0.953909,1.707849,0.465452,-0.091655,-0.496727,-0.388865,-0.552517,-0.481449,0.760117,0.263272,1.986432,25.546612,15.763962,8.489561,0.374845,1.494247,0.028243,0.000000,0.000000,0.000000,0.000000,0.000000,0.000000
13221286.000000,2.303696,-0.983887,-1.838996,-1.415763,-0.954405,1.708600,0.465713,-0.081660,-0.495081,-0.392583,-0.558963,-0.488707,0.752914,0.266083,1.665082,26.403545,16.501877,8.810911,0.381254,1.670028,0.081344,0.000000,0.000000,0.000000,0.000000,0.000000,0.000000
13221287.000000,2.303631,-0.984381,-1.839383,-1.416328,-0.954906,1.709372,0.465987,-0.077194,-0.499576,-0.392419,-0.556322,-0.486679,0.748362,0.274972,1.367536,27.260479,17.112839,9.207640,0.327238,1.779891,0.001693,0.000000,0.000000,0.000000,0.000000,0.000000,0.000000
13221288.000000,2.303564,-0.984881,-1.839767,-1.416893,-0.955398,1.710150,0.466245,-0.074179,-0.494009,-0.397495,-0.559851,-0.487916,0.769001,0.269771,1.169172,28.018230,17.628586,9.600401,0.327238,1.793624,0.054794,0.000000,0.000000,0.000000,0.000000,0.000000,0.000000
13221289.000000,2.303513,-0.985406,-1.840163,-1.417458,-0.955917,1.710923,0.466510,-0.063637,-0.500093,-0.396446,-0.560971,-0.495042,0.769044,0.263575,0.772443,28.974346,18.072922,9.850340,0.410551,1.714889,0.015426,0.000000,0.000000,0.000000,0.000000,0.000000,0.000000
13221290.000000,2.303471,-0.985936,-1.840569,-1.418013,-0.956420,1.711709,0.466762,-0.057889,-0.508447,-0.397781,-0.557561,-0.500858,0.768889,0.261120,0.328107,30.049480,18.513290,9.997129,0.476469,1.624252,0.081344,0.000000,0.000000,0.000000,0.000000,0.000000,0.000000
13221291.000000,2.303425,-0.986496,-1.840965,-1.418581,-0.956940,1.712466,0.467024,-0.053883,-0.522183,-0.395057,-0.556954,-0.508411,0.770172,0.263245,0.006757,31.251568,18.882248,10.096312,0.625699,1.624252,0.081344,0.000000,0.000000,0.000000,0.000000,0.000000,0.000000
13221292.000000,2.303389,-0.987055,-1.841362,-1.419148,-0.957455,1.713232,0.467293,-0.047992,-0.532457,-0.396835,-0.561781,-0.503399,0.767365,0.264531,-0.413775,32.255291,19.104416,10.143919,0.637601,1.689254,0.054794,0.000000,0.000000,0.000000,0.000000,0.000000,0.000000
13221293.000000,2.303361,-0.987631,-1.841770,-1.419696,-0.957950,1.714012,0.467562,-0.039732,-0.545119,-0.402166,-0.556864,-0.501676,0.771978,0.268279,-0.885882,33.306622,19.374191,10.048704,0.566190,1.624252,0.048385,0.000000,0.000000,0.000000,0.000000,0.000000,0.000000
13221294.000000,2.303342,-0.988220,-1.842177,-1.420253,-0.958458,1.714778,0.467824,-0.032756,-0.557066,-0.404243,-0.554196,-0.500460,0.771694,0.270806,-1.405596,34.310345,19.568588,9.921751,0.518583,1.500655,0.041976,0.000000,0.000000,0.000000,0.000000,0.000000,0.000000
13221295.000000,2.303326,-0.988798,-1.842582,-1.420817,-0.958958,1.715548,0.468084,-0.025637,-0.565420,-0.399573,-0.565407,-0.494971,0.764876,0.269665,-1.873736,35.068096,19.766953,9.897947,0.434354,1.519881,0.074935,0.000000,0.000000,0.000000,0.000000,0.000000,0.000000
13221296.000000,2.303303,-0.989392,-1.842985,-1.421371,-0.959448,1.716311,0.468361,-0.023815,-0.568118,-0.399165,-0.561052,-0.494785,0.769073,0.270691,-2.199053,35.706829,19.937546,9.850340,0.327238,1.572067,0.009017,0.000000,0.000000,0.000000,0.000000,0.000000,0.000000
13221297.000000,2.303281,-0.989979,-1.843391,-1.421932,-0.959957,1.717081,0.468619,-0.023287,-0.568708,-0.399953,-0.558167,-0.494649,0.762183,0.268576,-2.468829,36.147198,20.084335,9.822569,0.351041,1.546432,0.021835,0.000000,0.000000,0.000000,0.000000,0.000000,0.000000
13221298.000000,2.303263,-0.990556,-1.843810,-1.422490,-0.960459,1.717857,0.468877,-0.022550,-0.570338,-0.403867,-0.561467,-0.497965,0.761553,0.265428,-2.742571,36.535992,20.278732,9.874144,0.470060,1.500655,0.061202,0.000000,0.000000,0.000000,0.000000,0.000000,0.000000
13221299.000000,2.303229,-0.991139,-1.844219,-1.423062,-0.960973,1.718612,0.469138,-0.028484,-0.566019,-0.403405,-0.563126,-0.497676,0.759106,0.266872,-2.742571,36.758160,20.477097,10.048704,0.530485,1.526290,0.048385,0.000000,0.000000,0.000000,0.000000,0.000000,0.000000
13221300.000000,2.303197,-0.991712,-1.844622,-1.423637,-0.961482,1.719372,0.469398,-0.029350,-0.567521,-0.402773,-0.564887,-0.496549,0.757260,0.262796,-2.718768,36.928753,20.524704,10.243101,0.566190,1.507064,0.015426,0.000000,0.000000,0.000000,0.000000,0.000000,0.000000
13221301.000000,2.303164,-0.992292,-1.845026,-1.424213,-0.961988,1.720116,0.469658,-0.029913,-0.567944,-0.410673,-0.569400,-0.499841,0.755139,0.262145,-2.690997,37.051739,20.623886,10.592222,0.584501,1.546432,0.028243,0.000000,0.000000,0.000000,0.000000,0.000000,0.000000
13221302.000000,2.303125,-0.992878,-1.845439,-1.424786,-0.962497,1.720869,0.469910,-0.035231,-0.562480,-0.414587,-0.572287,-0.495332,0.746796,0.260412,-2.568011,37.198528,20.723068,10.861998,0.571683,1.526290,0.094161,0.000000,0.000000,0.000000,0.000000,0.000000,0.000000
13221303.000000,2.303084,-0.993466,-1.845844,-1.425349,-0.962989,1.721625,0.470186,-0.036954,-0.570533,-0.410749,-0.570993,-0.496271,0.746589,0.260326,-2.397418,37.444500,20.746872,11.060362,0.512174,1.578475,-0.004716,0.000000,0.000000,0.000000,0.000000,0.000000,0.000000
13221304.000000,2.303040,-0.994061,-1.846247,-1.425924,-0.963497,1.722354,0.470439,-0.038254,-0.576510,-0.410892,-0.571934,-0.492283,0.744341,0.258389,-2.199053,37.686504,20.869858,11.334105,0.446256,1.702071,0.067611,0.000000,0.000000,0.000000,0.000000,0.000000,0.000000
13221305.000000,2.302996,-0.994657,-1.846651,-1.426500,-0.964002,1.723099,0.470704,-0.042401,-0.588184,-0.411304,-0.571645,-0.490392,0.739340,0.260445,-2.000689,38.079266,20.869858,11.580076,0.405057,1.767074,0.021835,0.000000,0.000000,0.000000,0.000000,0.000000,0.000000
13221306.000000,2.302943,-0.995269,-1.847069,-1.427062,-0.964510,1.723854,0.470964,-0.043744,-0.591769,-0.425140,-0.567507,-0.493969,0.753579,0.259291,-1.726946,38.519634,21.016647,11.802244,0.362943,1.747848,0.067611,0.000000,0.000000,0.000000,0.000000,0.000000,0.000000
13221307.000000,2.302893,-0.995896,-1.847477,-1.427630,-0.965024,1.724582,0.471222,-0.046481,-0.601446,-0.422095,-0.562884,-0.496050,0.745063,0.254203,-1.504779,39.106792,21.139633,12.000608,0.351041,1.741439,0.067611,0.000000,0.000000,0.000000,0.000000,0.000000,0.000000
13221308.000000,2.302831,-0.996514,-1.847883,-1.428187,-0.965538,1.725321,0.471485,-0.049886,-0.606052,-0.416282,-0.563418,-0.512644,0.740491,0.252476,-1.084246,39.693951,21.139633,12.171202,0.405057,1.786300,0.054794,0.000000,0.000000,0.000000,0.000000,0.000000,0.000000
13221309.000000,2.302770,-0.997133,-1.848297,-1.428753,-0.966053,1.726054,0.471741,-0.053296,-0.602656,-0.419597,-0.561587,-0.509506,0.739948,0.254654,-0.735125,40.110516,21.310226,12.393370,0.356534,1.767074,0.067611,0.000000,0.000000,0.000000,0.000000,0.000000,0.000000
13221310.000000,2.302701,-0.997762,-1.848719,-1.429326,-0.966581,1.726800,0.472007,-0.056787,-0.605309,-0.421353,-0.559544,-0.513049,0.735946,0.258912,-0.342364,40.455669,21.433212,12.714720,0.464567,1.695663,0.021835,0.000000,0.000000,0.000000,0.000000,0.000000,0.000000
13221311.000000,2.302630,-0.998373,-1.849147,-1.429888,-0.967101,1.727543,0.472266,-0.060476,-0.605291,-0.423858,-0.562851,-0.517845,0.736389,0.258875,0.105939,40.749249,21.631577,12.988462,0.500272,1.689254,0.087753,0.000000,0.000000,0.000000,0.000000,0.000000,0.000000
13221312.000000,2.302554,-0.998995,-1.849559,-1.430452,-0.967625,1.728265,0.472541,-0.066533,-0.606079,-0.419223,-0.562482,-0.513989,0.733381,0.270799,0.574079,41.090435,21.702988,13.186827,0.494779,1.754256,0.021835,0.000000,0.000000,0.000000,0.000000,0.000000,0.000000
13221313.000000,2.302474,-0.999613,-1.849973,-1.431027,-0.968158,1.728994,0.472813,-0.071922,-0.608209,-0.417486,-0.561355,-0.526211,0.727906,0.269410,1.046186,41.407818,21.726791,13.432798,0.440763,1.877853,0.015426,0.000000,0.000000,0.000000,0.000000,0.000000,0.000000
13221314.000000,2.302403,-1.000224,-1.850396,-1.431592,-0.968672,1.729710,0.473075,-0.072001,-0.601862,-0.422652,-0.565374,-0.518927,0.729271,0.265393,1.391340,41.554607,21.877548,13.631163,0.351041,1.909896,0.081344,0.000000,0.000000,0.000000,0.000000,0.000000,0.000000
13221315.000000,2.302326,-1.000835,-1.850819,-1.432147,-0.969201,1.730454,0.473353,-0.075474,-0.604721,-0.421237,-0.553926,-0.519842,0.729430,0.273986,1.740461,41.629986,22.000534,13.654966,0.339139,1.838485,0.028243,0.000000,0.000000,0.000000,0.000000,0.000000,0.000000
13221316.000000,2.302250,-1.001429,-1.851245,-1.432697,-0.969722,1.731183,0.473620,-0.077850,-0.593295,-0.427212,-0.549351,-0.521016,0.723340,0.271341,2.061811,41.578411,22.218735,13.631163,0.308927,1.909896,0.074935,0.000000,0.000000,0.000000,0.000000,0.000000,0.000000
13221317.000000,2.302168,-1.002033,-1.851671,-1.433243,-0.970256,1.731891,0.473897,-0.077466,-0.591315,-0.428499,-0.549236,-0.524387,0.719706,0.270770,2.430768,41.483196,22.440903,13.508177,0.369352,1.974899,0.048385,0.000000,0.000000,0.000000,0.000000,0.000000,0.000000
13221318.000000,2.302095,-1.002624,-1.852111,-1.433776,-0.970795,1.732618,0.474157,-0.077176,-0.590996,-0.433996,-0.538548,-0.526055,0.721397,0.267901,2.680707,41.336407,22.734482,13.286009,0.398649,2.007858,0.074935,0.000000,0.000000,0.000000,0.000000,0.000000,0.000000
13221319.000000,2.302023,-1.003205,-1.852546,-1.434296,-0.971324,1.733343,0.474431,-0.073266,-0.583430,-0.442339,-0.531926,-0.524217,0.740706,0.267990,2.879072,41.019024,23.055832,12.988462,0.470060,1.995040,0.041976,0.000000,0.000000,0.000000,0.000000,0.000000,0.000000
13221320.000000,2.301951,-1.003794,-1.852987,-1.434816,-0.971868,1.734078,0.474699,-0.073402,-0.577621,-0.445364,-0.526303,-0.530818,0.736035,0.266219,3.073469,40.773052,23.373215,12.667112,0.547880,1.974899,0.074935,0.000000,0.000000,0.000000,0.000000,0.000000,0.000000
13221321.000000,2.301888,-1.004382,-1.853435,-1.435324,-0.972396,1.734805,0.474980,-0.068304,-0.580688,-0.443898,-0.517541,-0.530055,0.733703,0.273147,3.148847,40.602459,23.718369,12.345762,0.566190,2.027084,0.009017,0.000000,0.000000,0.000000,0.000000,0.000000,0.000000
13221322.000000,2.301820,-1.004975,-1.853877,-1.435820,-0.972932,1.735518,0.475252,-0.069255,-0.579518,-0.447900,-0.506619,-0.534250,0.726980,0.270008,3.299604,40.550884,24.011948,11.826048,0.584501,2.098495,0.015426,0.000000,0.000000,0.000000,0.000000,0.000000,0.000000
13221323.000000,2.301760,-1.005548,-1.854327,-1.436306,-0.973473,1.736258,0.475514,-0.066581,-0.587573,-0.446428,-0.498535,-0.531549,0.723949,0.271797,3.299604,40.356487,24.353134,11.306334,0.578092,2.085677,0.054794,0.000000,0.000000,0.000000,0.000000,0.000000,0.000000
13221324.000000,2.301700,-1.006129,-1.854780,-1.436777,-0.973993,1.736991,0.475793,-0.062214,-0.576155,-0.456762,-0.485145,-0.532327,0.744135,0.275983,3.323408,40.110516,24.674484,10.861998,0.494779,2.020675,0.015426,0.000000,0.000000,0.000000,0.000000,0.000000,0.000000
13221325.000000,2.301643,-1.006712,-1.855227,-1.437249,-0.974545,1.737718,0.476057,-0.058526,-0.574028,-0.451363,-0.475266,-0.531667,0.737817,0.271986,3.323408,39.868511,24.968063,10.465269,0.542386,2.001449,0.041976,0.000000,0.000000,0.000000,0.000000,0.000000,0.000000
13221326.000000,2.301586,-1.007270,-1.855684,-1.437707,-0.975083,1.738438,0.476326,-0.060541,-0.571723,-0.449248,-0.465369,-0.542681,0.728971,0.272220,3.371015,39.451946,25.237839,10.143919,0.578092,2.060043,0.034652,0.000000,0.000000,0.000000,0.000000,0.000000,0.000000
13221327.000000,2.301534,-1.007845,-1.856131,-1.438175,-0.975640,1.739141,0.476586,-0.057184,-0.560902,-0.448370,-0.465345,-0.540427,0.720586,0.264921,3.347211,39.253582,25.507614,9.921751,0.625699,2.092086,0.054794,0.000000,0.000000,0.000000,0.000000,0.000000,0.000000
13221328.000000,2.301483,-1.008428,-1.856581,-1.438636,-0.976200,1.739861,0.476852,-0.051543,-0.564666,-0.446670,-0.464158,-0.540542,0.714281,0.268150,3.323408,39.130596,25.682175,9.798765,0.727323,2.098495,-0.004716,0.000000,0.000000,0.000000,0.000000,0.000000,0.000000
13221329.000000,2.301445,-1.009002,-1.857045,-1.439089,-0.976752,1.740580,0.477120,-0.048392,-0.565405,-0.449642,-0.460418,-0.547058,0.713883,0.261388,3.200422,39.035381,25.951950,9.699583,0.745634,2.137862,0.009017,0.000000,0.000000,0.000000,0.000000,0.000000,0.000000
13221330.000000,2.301402,-1.009578,-1.857491,-1.439546,-0.977308,1.741289,0.477376,-0.040984,-0.567210,-0.445123,-0.459725,-0.545789,0.709533,0.263415,3.125043,38.983807,26.074936,9.727354,0.757535,2.150680,0.061202,0.000000,0.000000,0.000000,0.000000,0.000000,0.000000
13221331.000000,2.301369,-1.010158,-1.857933,-1.439997,-0.977860,1.742006,0.477647,-0.039453,-0.571369,-0.439799,-0.451645,-0.550765,0.716342,0.265018,2.950483,39.035381,26.098740,9.699583,0.763029,2.118636,0.021835,0.000000,0.000000,0.000000,0.000000,0.000000,0.000000
13221332.000000,2.301338,-1.010756,-1.858380,-1.440447,-0.978400,1.742711,0.477904,-0.038776,-0.574541,-0.442326,-0.453327,-0.547230,0.709695,0.263667,2.779890,39.229778,26.245529,9.874144,0.709928,2.169906,0.054794,0.000000,0.000000,0.000000,0.000000,0.000000,0.000000
13221333.000000,2.301305,-1.011349,-1.858830,-1.440890,-0.978948,1.743423,0.478172,-0.036809,-0.578656,-0.447803,-0.448315,-0.546785,0.709557,0.265603,2.680707,39.352764,26.344711,9.973326,0.727323,2.228500,0.009017,0.000000,0.000000,0.000000,0.000000,0.000000,0.000000
13221334.000000,2.301284,-1.011930,-1.859270,-1.441344,-0.979491,1.744137,0.478434,-0.029055,-0.576261,-0.441551,-0.452992,-0.545889,0.703346,0.264331,2.454572,39.499554,26.344711,10.270872,0.698026,2.196456,0.028243,0.000000,0.000000,0.000000,0.000000,0.000000,0.000000
13221335.000000,2.301259,-1.012527,-1.859697,-1.441801,-0.980034,1.744851,0.478698,-0.028684,-0.579901,-0.438672,-0.449068,-0.544792,0.704912,0.264647,2.307783,39.693951,26.269333,10.564451,0.667814,2.125045,0.021835,0.000000,0.000000,0.000000,0.000000,0.000000,0.000000
13221336.000000,2.301240,-1.013112,-1.860123,-1.442262,-0.980591,1.745567,0.478948,-0.024905,-0.587545,-0.435910,-0.448365,-0.545470,0.706817,0.262883,2.133222,39.916119,26.122543,10.814390,0.673307,2.112228,0.061202,0.000000,0.000000,0.000000,0.000000,0.000000,0.000000
13221337.000000,2.301226,-1.013700,-1.860546,-1.442718,-0.981131,1.746260,0.479211,-0.020849,-0.584791,-0.436234,-0.451377,-0.540305,0.715915,0.263818,1.911054,40.062908,25.951950,11.084166,0.644010,2.215682,0.034652,0.000000,0.000000,0.000000,0.000000,0.000000,0.000000
13221338.000000,2.301223,-1.014294,-1.860966,-1.443187,-0.981686,1.746965,0.479472,-0.014646,-0.580660,-0.430968,-0.454231,-0.541845,0.716373,0.264461,1.565900,40.134319,25.777390,11.282530,0.679716,2.215682,0.021835,0.000000,0.000000,0.000000,0.000000,0.000000,0.000000
13221339.000000,2.301224,-1.014873,-1.861384,-1.443654,-0.982232,1.747684,0.479729,-0.007937,-0.582661,-0.425822,-0.461954,-0.544557,0.713375,0.262684,1.244550,40.086712,25.582993,11.556273,0.715421,2.177230,0.067611,0.000000,0.000000,0.000000,0.000000,0.000000,0.000000
13221340.000000,2.301222,-1.015459,-1.861799,-1.444125,-0.982778,1.748387,0.480003,-0.005390,-0.581415,-0.423697,-0.464964,-0.547928,0.709739,0.260659,1.022382,39.963726,25.436203,11.703062,0.667814,2.163497,-0.004716,0.000000,0.000000,0.000000,0.000000,0.000000,0.000000
13221341.000000,2.301223,-1.016024,-1.862205,-1.444605,-0.983329,1.749089,0.480253,-0.006001,-0.583241,-0.414666,-0.471370,-0.547159,0.701623,0.258828,0.772443,39.670147,25.067245,11.901426,0.661405,2.150680,0.067611,0.000000,0.000000,0.000000,0.000000,0.000000,0.000000
13221342.000000,2.301230,-1.016604,-1.862610,-1.445072,-0.983863,1.749810,0.480519,-0.002935,-0.574068,-0.407818,-0.468353,-0.546032,0.702909,0.256488,0.502668,39.475750,24.845078,12.024412,0.625699,2.104903,0.034652,0.000000,0.000000,0.000000,0.000000,0.000000,0.000000
13221343.000000,2.301242,-1.017193,-1.863002,-1.445546,-0.984409,1.750516,0.480777,-0.000011,-0.576529,-0.403872,-0.469150,-0.538877,0.707485,0.253294,0.205121,39.376568,24.551498,12.171202,0.584501,2.066451,0.048385,0.000000,0.000000,0.000000,0.000000,0.000000,0.000000
13221344.000000,2.301248,-1.017779,-1.863394,-1.446015,-0.984953,1.751219,0.481036,-0.000665,-0.585422,-0.394277,-0.475035,-0.549125,0.697578,0.253591,0.030561,39.328960,24.257919,12.369566,0.637601,2.104903,0.028243,0.000000,0.000000,0.000000,0.000000,0.000000,0.000000
13221345.000000,2.301258,-1.018347,-1.863784,-1.446495,-0.985504,1.751909,0.481295,0.004511,-0.574249,-0.392865,-0.471948,-0.547949,0.704892,0.256761,-0.243182,39.158367,24.059555,12.520323,0.620206,2.157089,0.015426,0.000000,0.000000,0.000000,0.000000,0.000000,0.000000
13221346.000000,2.301266,-1.018932,-1.864157,-1.446974,-0.986052,1.752625,0.481537,0.003826,-0.573109,-0.383645,-0.473460,-0.543256,0.699692,0.252146,-0.465350,39.106792,23.718369,12.714720,0.637601,2.112228,0.074935,0.000000,0.000000,0.000000,0.000000,0.000000,0.000000
13221347.000000,2.301280,-1.019501,-1.864545,-1.447443,-0.986598,1.753342,0.481796,0.003319,-0.570822,-0.383997,-0.472446,-0.548063,0.701412,0.255952,-0.687518,39.011578,23.595383,12.790098,0.608304,2.047225,0.048385,0.000000,0.000000,0.000000,0.000000,0.000000,0.000000
13221348.000000,2.301293,-1.020078,-1.864924,-1.447925,-0.987150,1.754044,0.482045,0.005758,-0.565871,-0.383932,-0.476556,-0.544848,0.697262,0.253955,-0.885882,38.960003,23.472397,12.964659,0.559781,2.007858,0.067611,0.000000,0.000000,0.000000,0.000000,0.000000,0.000000
13221349.000000,2.301311,-1.020647,-1.865304,-1.448407,-0.987714,1.754753,0.482310,0.010722,-0.565333,-0.380717,-0.477241,-0.550631,0.697460,0.253660,-1.084246,38.789410,23.250229,13.012266,0.578092,2.085677,0.021835,0.000000,0.000000,0.000000,0.000000,0.000000,0.000000
13221350.000000,2.301334,-1.021228,-1.865674,-1.448881,-0.988262,1.755455,0.482560,0.015029,-0.565765,-0.380703,-0.477214,-0.551688,0.701283,0.249764,-1.306414,38.789410,23.103439,13.186827,0.506681,2.118636,0.067611,0.000000,0.000000,0.000000,0.000000,0.000000,0.000000
13221351.000000,2.301342,-1.021801,-1.866051,-1.449351,-0.988829,1.756171,0.482820,0.011830,-0.565036,-0.381909,-0.471213,-0.560971,0.702532,0.250551,-1.254840,38.642620,22.956650,13.262205,0.554288,2.085677,0.021835,0.000000,0.000000,0.000000,0.000000,0.000000,0.000000
13221352.000000,2.301359,-1.022360,-1.866426,-1.449825,-0.989379,1.756883,0.483074,0.013005,-0.560916,-0.377441,-0.470590,-0.561256,0.705583,0.252350,-1.330218,38.396648,22.786057,13.456602,0.535978,2.092086,0.054794,0.000000,0.000000,0.000000,0.000000,0.000000,0.000000
13221353.000000,2.301376,-1.022929,-1.866803,-1.450300,-0.989935,1.757577,0.483332,0.011430,-0.557750,-0.380011,-0.470148,-0.561383,0.693119,0.255330,-1.429400,38.249859,22.710678,13.678770,0.518583,2.125045,0.061202,0.000000,0.000000,0.000000,0.000000,0.000000,0.000000
13221354.000000,2.301388,-1.023500,-1.867170,-1.450774,-0.990509,1.758290,0.483590,0.010930,-0.574731,-0.375739,-0.469443,-0.564245,0.690507,0.254668,-1.429400,38.103069,22.512314,13.877134,0.566190,2.066451,0.009017,0.000000,0.000000,0.000000,0.000000,0.000000,0.000000
13221355.000000,2.301401,-1.024063,-1.867537,-1.451228,-0.991063,1.758976,0.483834,0.011143,-0.565471,-0.382040,-0.467851,-0.559685,0.703102,0.253751,-1.429400,37.956280,22.440903,13.904905,0.559781,2.066451,0.087753,0.000000,0.000000,0.000000,0.000000,0.000000,0.000000
13221356.000000,2.301417,-1.024641,-1.867899,-1.451692,-0.991639,1.759679,0.484085,0.009287,-0.568335,-0.377250,-0.464370,-0.561310,0.701677,0.253937,-1.480975,37.956280,22.218735,14.000120,0.601896,2.072860,0.028243,0.000000,0.000000,0.000000,0.000000,0.000000,0.000000
13221357.000000,2.301425,-1.025218,-1.868267,-1.452144,-0.992199,1.760379,0.484340,0.008010,-0.576925,-0.373857,-0.464825,-0.557120,0.705635,0.251205,-1.405596,38.055462,22.048141,14.051695,0.596403,2.060043,0.048385,0.000000,0.000000,0.000000,0.000000,0.000000,0.000000
13221358.000000,2.301436,-1.025799,-1.868629,-1.452602,-0.992773,1.761069,0.484595,0.008025,-0.569018,-0.369569,-0.459393,-0.557976,0.704536,0.249821,-1.354022,38.154644,21.925156,14.099302,0.566190,2.033492,0.048385,0.000000,0.000000,0.000000,0.000000,0.000000,0.000000
13221359.000000,2.301440,-1.026381,-1.868990,-1.453051,-0.993339,1.761767,0.484849,0.005138,-0.569148,-0.364313,-0.452411,-0.553785,0.702660,0.255702,-1.183428,38.226055,21.802170,14.027891,0.535978,2.007858,0.054794,0.000000,0.000000,0.000000,0.000000,0.000000,0.000000
13221360.000000,2.301450,-1.026956,-1.869350,-1.453482,-0.993904,1.762465,0.485102,0.009018,-0.567862,-0.368152,-0.444263,-0.556486,0.693022,0.252325,-1.108050,38.249859,21.631577,13.952513,0.518583,1.981307,0.067611,0.000000,0.000000,0.000000,0.000000,0.000000,0.000000
13221361.000000,2.301457,-1.027530,-1.869710,-1.453929,-0.994472,1.763155,0.485355,0.008127,-0.567596,-0.368306,-0.438534,-0.557183,0.689645,0.260485,-1.008868,38.202251,21.508591,14.051695,0.506681,1.974899,0.015426,0.000000,0.000000,0.000000,0.000000,0.000000,0.000000
13221362.000000,2.301465,-1.028101,-1.870076,-1.454357,-0.995038,1.763838,0.485605,0.007510,-0.571255,-0.364955,-0.441200,-0.579166,0.680037,0.254904,-0.909686,38.055462,21.385605,14.027891,0.500272,2.007858,0.061202,0.000000,0.000000,0.000000,0.000000,0.000000,0.000000
13221363.000000,2.301471,-1.028670,-1.870434,-1.454780,-0.995612,1.764518,0.485857,0.005824,-0.564957,-0.363840,-0.433062,-0.575283,0.683911,0.252954,-0.762896,37.833294,21.310226,13.976316,0.482877,2.027084,0.054794,0.000000,0.000000,0.000000,0.000000,0.000000,0.000000
13221364.000000,2.301479,-1.029232,-1.870792,-1.455206,-0.996195,1.765218,0.486104,0.006503,-0.561840,-0.362940,-0.423989,-0.579910,0.690125,0.250111,-0.687518,37.515911,21.163437,14.075499,0.554288,1.949264,0.081344,0.000000,0.000000,0.000000,0.000000,0.000000,0.000000
13221365.000000,2.301489,-1.029788,-1.871150,-1.455629,-0.996759,1.765914,0.486362,0.010585,-0.555175,-0.360531,-0.425042,-0.574573,0.688041,0.251380,-0.612139,37.222332,21.016647,14.226255,0.512174,1.923629,0.009017,0.000000,0.000000,0.000000,0.000000,0.000000,0.000000
13221366.000000,2.301489,-1.030351,-1.871507,-1.456042,-0.997331,1.766585,0.486603,0.007075,-0.551011,-0.359251,-0.418190,-0.575491,0.687228,0.246000,-0.413775,36.928753,20.893661,14.226255,0.494779,2.020675,0.107894,0.000000,0.000000,0.000000,0.000000,0.000000,0.000000
13221367.000000,2.301506,-1.030914,-1.871873,-1.456455,-0.997916,1.767272,0.486860,0.009753,-0.554679,-0.356698,-0.415453,-0.574895,0.686331,0.254365,-0.441546,36.734356,20.822250,14.150877,0.535978,2.085677,0.048385,0.000000,0.000000,0.000000,0.000000,0.000000,0.000000
13221368.000000,2.301520,-1.031490,-1.872227,-1.456854,-0.998473,1.767958,0.487113,0.007750,-0.560159,-0.355530,-0.406475,-0.570965,0.691137,0.255301,-0.441546,36.658978,20.794479,14.051695,0.494779,2.047225,0.081344,0.000000,0.000000,0.000000,0.000000,0.000000,0.000000
13221369.000000,2.301528,-1.032059,-1.872575,-1.457254,-0.999049,1.768646,0.487370,0.006163,-0.556820,-0.353755,-0.401714,-0.571662,0.684993,0.254785,-0.314593,36.416973,20.552475,13.904905,0.458158,2.014266,0.087753,0.000000,0.000000,0.000000,0.000000,0.000000,0.000000
13221370.000000,2.301539,-1.032615,-1.872943,-1.457643,-0.999606,1.769349,0.487623,0.006687,-0.553792,-0.356674,-0.396029,-0.568040,0.686278,0.254025,-0.243182,36.095623,20.524704,13.777952,0.398649,1.936446,0.048385,0.000000,0.000000,0.000000,0.000000,0.000000,0.000000
13221371.000000,2.301559,-1.033186,-1.873297,-1.458035,-1.000188,1.770033,0.487869,0.012963,-0.555367,-0.357691,-0.390339,-0.567840,0.681663,0.249403,-0.290789,35.925030,20.330307,13.583555,0.405057,1.890670,0.107894,0.000000,0.000000,0.000000,0.000000,0.000000,0.000000
13221372.000000,2.301570,-1.033749,-1.873654,-1.458421,-1.000767,1.770723,0.488128,0.014249,-0.561143,-0.357614,-0.383214,-0.565801,0.680248,0.251280,-0.215411,35.778240,20.207321,13.385191,0.482877,1.865035,0.034652,0.000000,0.000000,0.000000,0.000000,0.000000,0.000000
13221373.000000,2.301583,-1.034322,-1.874005,-1.458792,-1.001340,1.771396,0.488376,0.015505,-0.561042,-0.363434,-0.376768,-0.570355,0.698250,0.249073,-0.144000,35.655254,20.036728,13.135252,0.470060,1.890670,0.041976,0.000000,0.000000,0.000000,0.000000,0.000000,0.000000
13221374.000000,2.301594,-1.034894,-1.874361,-1.459163,-1.001920,1.772085,0.488613,0.013214,-0.564352,-0.360414,-0.370222,-0.568544,0.692719,0.239209,-0.068621,35.484661,19.838364,12.964659,0.494779,1.916305,0.100570,0.000000,0.000000,0.000000,0.000000,0.000000,0.000000
13221375.000000,2.301607,-1.035452,-1.874723,-1.459536,-1.002501,1.772784,0.488865,0.011844,-0.561185,-0.362346,-0.370620,-0.576511,0.691483,0.237842,0.006757,35.361675,19.691574,12.865477,0.476469,1.844894,0.054794,0.000000,0.000000,0.000000,0.000000,0.000000,0.000000
13221376.000000,2.301626,-1.036027,-1.875081,-1.459894,-1.003083,1.773476,0.489110,0.012622,-0.559549,-0.358353,-0.360428,-0.572861,0.693171,0.242699,0.006757,35.266460,19.592392,12.591734,0.458158,1.714889,0.087753,0.000000,0.000000,0.000000,0.000000,0.000000,0.000000
13221377.000000,2.301642,-1.036611,-1.875441,-1.460250,-1.003670,1.774173,0.489362,0.014714,-0.565015,-0.359900,-0.359548,-0.574225,0.693779,0.249162,0.054365,35.214886,19.497177,12.345762,0.422452,1.702071,0.061202,0.000000,0.000000,0.000000,0.000000,0.000000,0.000000
13221378.000000,2.301656,-1.037181,-1.875798,-1.460601,-1.004243,1.774858,0.489611,0.012265,-0.563560,-0.357946,-0.357788,-0.574565,0.686030,0.251576,0.153547,35.143475,19.322617,12.147398,0.356534,1.800033,0.087753,0.000000,0.000000,0.000000,0.000000,0.000000,0.000000
13221379.000000,2.301678,-1.037747,-1.876153,-1.460950,-1.004827,1.775541,0.489864,0.016484,-0.555466,-0.360553,-0.354940,-0.573807,0.683673,0.255827,0.129743,34.945110,19.199631,11.949034,0.303434,1.819259,0.067611,0.000000,0.000000,0.000000,0.000000,0.000000,0.000000
13221380.000000,2.301694,-1.038308,-1.876515,-1.461288,-1.005415,1.776233,0.490115,0.017359,-0.553653,-0.362548,-0.354129,-0.582917,0.686876,0.252746,0.205121,34.750713,19.076645,11.703062,0.315336,1.793624,0.081344,0.000000,0.000000,0.000000,0.000000,0.000000,0.000000
13221381.000000,2.301716,-1.038883,-1.876879,-1.461619,-1.005993,1.776924,0.490372,0.019776,-0.557728,-0.361557,-0.344674,-0.585419,0.686487,0.252171,0.205121,34.750713,19.128220,11.405516,0.369352,1.754256,0.054794,0.000000,0.000000,0.000000,0.000000,0.000000,0.000000
13221382.000000,2.301735,-1.039444,-1.877238,-1.461952,-1.006583,1.777613,0.490627,0.020455,-0.555291,-0.361407,-0.339271,-0.580478,0.686128,0.249871,0.252729,34.580120,19.005234,11.183348,0.393156,1.695663,0.074935,0.000000,0.000000,0.000000,0.000000,0.000000,0.000000
13221383.000000,2.301754,-1.039999,-1.877602,-1.462278,-1.007164,1.778301,0.490883,0.020544,-0.552112,-0.363954,-0.334722,-0.585830,0.681501,0.253624,0.328107,34.310345,18.929855,11.060362,0.381254,1.637069,0.061202,0.000000,0.000000,0.000000,0.000000,0.000000,0.000000
13221384.000000,2.301777,-1.040565,-1.877966,-1.462597,-1.007767,1.778987,0.491135,0.022076,-0.550622,-0.364172,-0.330168,-0.587770,0.688442,0.251646,0.328107,34.115948,18.906052,10.786619,0.464567,1.559249,0.087753,0.000000,0.000000,0.000000,0.000000,0.000000,0.000000
13221385.000000,2.301802,-1.041124,-1.878339,-1.462911,-1.008356,1.779666,0.491381,0.023136,-0.556080,-0.362870,-0.324684,-0.590498,0.679781,0.249706,0.328107,33.893780,18.953659,10.540648,0.440763,1.565658,0.100570,0.000000,0.000000,0.000000,0.000000,0.000000,0.000000
13221386.000000,2.301824,-1.041692,-1.878702,-1.463215,-1.008945,1.780326,0.491645,0.023253,-0.554340,-0.363828,-0.321834,-0.587695,0.674787,0.250199,0.351911,33.647808,18.981430,10.342283,0.405057,1.689254,0.054794,0.000000,0.000000,0.000000,0.000000,0.000000,0.000000
13221387.000000,2.301852,-1.042264,-1.879066,-1.463518,-1.009536,1.780990,0.491893,0.024443,-0.556716,-0.362235,-0.312176,-0.583921,0.664325,0.251546,0.328107,33.453411,18.858444,10.120115,0.351041,1.760665,0.114303,0.000000,0.000000,0.000000,0.000000,0.000000,0.000000
13221388.000000,2.301883,-1.042835,-1.879450,-1.463811,-1.010129,1.781669,0.492159,0.026523,-0.562952,-0.366003,-0.305670,-0.582567,0.667103,0.252225,0.252729,33.382000,18.981430,9.897947,0.303434,1.779891,0.048385,0.000000,0.000000,0.000000,0.000000,0.000000,0.000000
13221389.000000,2.301909,-1.043411,-1.879818,-1.464100,-1.010726,1.782346,0.492417,0.025438,-0.555814,-0.361043,-0.302224,-0.584661,0.669779,0.250409,0.276533,33.354229,18.929855,9.600401,0.339139,1.676437,0.048385,0.000000,0.000000,0.000000,0.000000,0.000000,0.000000
13221390.000000,2.301936,-1.043994,-1.880193,-1.464397,-1.011327,1.783022,0.492662,0.027783,-0.567627,-0.364680,-0.297425,-0.588128,0.668614,0.252401,0.304304,33.330425,19.005234,9.477415,0.320829,1.611434,0.087753,0.000000,0.000000,0.000000,0.000000,0.000000,0.000000
13221391.000000,2.301969,-1.044576,-1.880569,-1.464680,-1.011924,1.783693,0.492921,0.028013,-0.570632,-0.374288,-0.290584,-0.586908,0.677608,0.251470,0.276533,33.382000,19.128220,9.354429,0.434354,1.578475,0.054794,0.000000,0.000000,0.000000,0.000000,0.000000,0.000000
13221392.000000,2.301996,-1.045169,-1.880956,-1.464957,-1.012540,1.784361,0.493176,0.026393,-0.574756,-0.378553,-0.285526,-0.588041,0.675567,0.249954,0.304304,33.501019,19.275009,9.132261,0.535978,1.507064,0.054794,0.000000,0.000000,0.000000,0.000000,0.000000,0.000000
13221393.000000,2.302034,-1.045755,-1.881350,-1.465237,-1.013123,1.785027,0.493424,0.028740,-0.577996,-0.383917,-0.282652,-0.596698,0.676070,0.248211,0.205121,33.576397,19.397995,9.056883,0.518583,1.487838,0.074935,0.000000,0.000000,0.000000,0.000000,0.000000,0.000000
13221394.000000,2.302072,-1.046350,-1.881722,-1.465513,-1.013734,1.785678,0.493674,0.028660,-0.583624,-0.376962,-0.279513,-0.597864,0.665965,0.242927,0.153547,33.600201,19.322617,8.957701,0.530485,1.507064,0.074935,0.000000,0.000000,0.000000,0.000000,0.000000,0.000000
13221395.000000,2.302101,-1.046954,-1.882102,-1.465796,-1.014335,1.786334,0.493924,0.026151,-0.590426,-0.381155,-0.279381,-0.594412,0.661759,0.244704,0.205121,33.770794,19.298813,8.957701,0.422452,1.565658,0.041976,0.000000,0.000000,0.000000,0.000000,0.000000,0.000000
13221396.000000,2.302137,-1.047552,-1.882495,-1.466079,-1.014937,1.786994,0.494170,0.029424,-0.587799,-0.382122,-0.281501,-0.594295,0.659512,0.246167,0.205121,33.941387,19.374191,9.056883,0.351041,1.605026,0.120712,0.000000,0.000000,0.000000,0.000000,0.000000,0.000000
13221397.000000,2.302170,-1.048155,-1.882877,-1.466357,-1.015544,1.787641,0.494429,0.030203,-0.585631,-0.383837,-0.278488,-0.590930,0.653242,0.256775,0.276533,34.016766,19.374191,9.132261,0.356534,1.656295,0.054794,0.000000,0.000000,0.000000,0.000000,0.000000,0.000000
13221398.000000,2.302210,-1.048763,-1.883269,-1.466637,-1.016149,1.788298,0.494684,0.032917,-0.597012,-0.384480,-0.287560,-0.599096,0.649887,0.258325,0.252729,34.139751,19.469406,9.207640,0.339139,1.643478,0.061202,0.000000,0.000000,0.000000,0.000000,0.000000,0.000000
13221399.000000,2.302241,-1.049369,-1.883647,-1.466923,-1.016753,1.788950,0.494935,0.032514,-0.600997,-0.382153,-0.285440,-0.594329,0.652599,0.253753,0.328107,34.310345,19.469406,9.378233,0.434354,1.630660,0.094161,0.000000,0.000000,0.000000,0.000000,0.000000,0.000000
13221400.000000,2.302277,-1.049977,-1.884036,-1.467203,-1.017357,1.789606,0.495181,0.033025,-0.598606,-0.383438,-0.281442,-0.590877,0.645311,0.252161,0.375715,34.357952,19.520981,9.477415,0.440763,1.617843,0.087753,0.000000,0.000000,0.000000,0.000000,0.000000,0.000000
13221401.000000,2.302310,-1.050595,-1.884428,-1.467483,-1.017947,1.790275,0.495433,0.033904,-0.601310,-0.385777,-0.281158,-0.586245,0.647565,0.249655,0.427289,34.580120,19.568588,9.528990,0.488370,1.526290,0.100570,0.000000,0.000000,0.000000,0.000000,0.000000,0.000000
13221402.000000,2.302345,-1.051231,-1.884816,-1.467773,-1.018548,1.790918,0.495686,0.036412,-0.607197,-0.382281,-0.282801,-0.589219,0.646203,0.245366,0.502668,34.945110,19.643967,9.675779,0.464567,1.513473,0.061202,0.000000,0.000000,0.000000,0.000000,0.000000,0.000000
13221403.000000,2.302385,-1.051870,-1.885200,-1.468048,-1.019145,1.791573,0.495921,0.040740,-0.623107,-0.380422,-0.280170,-0.581901,0.646659,0.244705,0.474897,35.385479,19.616196,9.651976,0.428861,1.565658,0.127120,0.000000,0.000000,0.000000,0.000000,0.000000,0.000000
13221404.000000,2.302413,-1.052492,-1.885579,-1.468324,-1.019736,1.792212,0.496172,0.037096,-0.619339,-0.378127,-0.280983,-0.588417,0.643893,0.242571,0.625654,35.631451,19.544785,9.600401,0.327238,1.597701,0.054794,0.000000,0.000000,0.000000,0.000000,0.000000,0.000000
13221405.000000,2.302461,-1.053132,-1.885977,-1.468604,-1.020325,1.792860,0.496412,0.043213,-0.619315,-0.382674,-0.279059,-0.582280,0.642076,0.243543,0.526471,35.829815,19.592392,9.600401,0.225614,1.637069,0.041976,0.000000,0.000000,0.000000,0.000000,0.000000,0.000000
13221406.000000,2.302502,-1.053752,-1.886368,-1.468869,-1.020930,1.793509,0.496658,0.045360,-0.620019,-0.381756,-0.274752,-0.594049,0.646631,0.238518,0.526471,35.901226,19.469406,9.453611,0.273221,1.656295,0.061202,0.000000,0.000000,0.000000,0.000000,0.000000,0.000000
13221407.000000,2.302542,-1.054382,-1.886766,-1.469149,-1.021526,1.794160,0.496907,0.042280,-0.615455,-0.386774,-0.276926,-0.589396,0.650773,0.239794,0.574079,35.901226,19.592392,9.378233,0.207303,1.643478,0.061202,0.000000,0.000000,0.000000,0.000000,0.000000,0.000000
13221408.000000,2.302589,-1.055010,-1.887168,-1.469430,-1.022147,1.794821,0.497149,0.041003,-0.618986,-0.392320,-0.276475,-0.595783,0.658813,0.240965,0.574079,35.829815,19.616196,9.354429,0.279630,1.578475,0.100570,0.000000,0.000000,0.000000,0.000000,0.000000,0.000000
13221409.000000,2.302629,-1.055623,-1.887561,-1.469705,-1.022753,1.795485,0.497396,0.038705,-0.612758,-0.404347,-0.277277,-0.597010,0.668524,0.242619,0.649457,35.607647,19.592392,9.378233,0.386747,1.474105,0.081344,0.000000,0.000000,0.000000,0.000000,0.000000,0.000000
13221410.000000,2.302677,-1.056247,-1.887973,-1.469980,-1.023353,1.796130,0.497636,0.042669,-0.610042,-0.406099,-0.274841,-0.595616,0.666773,0.242700,0.601850,35.460857,19.691574,9.306822,0.356534,1.454879,0.094161,0.000000,0.000000,0.000000,0.000000,0.000000,0.000000
13221411.000000,2.302720,-1.056854,-1.888376,-1.470253,-1.023958,1.796769,0.497891,0.041226,-0.607947,-0.405548,-0.279488,-0.614241,0.656817,0.245154,0.625654,35.214886,19.715378,9.279051,0.393156,1.539108,0.048385,0.000000,0.000000,0.000000,0.000000,0.000000,0.000000
13221412.000000,2.302764,-1.057475,-1.888770,-1.470521,-1.024575,1.797394,0.498133,0.042864,-0.606691,-0.403449,-0.276315,-0.613425,0.649325,0.242748,0.673261,35.091900,19.667770,9.179869,0.458158,1.630660,0.114303,0.000000,0.000000,0.000000,0.000000,0.000000,0.000000
13221413.000000,2.302808,-1.058097,-1.889186,-1.470804,-1.025173,1.798027,0.498380,0.044151,-0.604034,-0.405765,-0.274011,-0.602775,0.646245,0.245058,0.697065,34.849895,19.838364,9.207640,0.386747,1.662704,0.074935,0.000000,0.000000,0.000000,0.000000,0.000000,0.000000
13221414.000000,2.302851,-1.058701,-1.889598,-1.471070,-1.025771,1.798669,0.498626,0.044730,-0.602235,-0.406563,-0.271132,-0.605775,0.646434,0.245286,0.748639,34.480938,19.913742,9.179869,0.332731,1.624252,0.061202,0.000000,0.000000,0.000000,0.000000,0.000000,0.000000
13221415.000000,2.302898,-1.059323,-1.890002,-1.471337,-1.026385,1.799298,0.498867,0.045401,-0.607141,-0.408802,-0.269017,-0.605093,0.641826,0.248661,0.796247,34.310345,20.060532,9.179869,0.362943,1.584884,0.061202,0.000000,0.000000,0.000000,0.000000,0.000000,0.000000
13221416.000000,2.302935,-1.059942,-1.890415,-1.471609,-1.027004,1.799927,0.499116,0.043542,-0.609359,-0.411399,-0.270907,-0.603820,0.639417,0.246330,0.947004,34.262737,20.231125,9.179869,0.327238,1.617843,0.100570,0.000000,0.000000,0.000000,0.000000,0.000000,0.000000
13221417.000000,2.302982,-1.060569,-1.890828,-1.471872,-1.027611,1.800536,0.499365,0.044744,-0.607481,-0.412398,-0.269026,-0.600390,0.630944,0.246598,0.994611,34.187359,20.401718,9.179869,0.362943,1.721298,0.114303,0.000000,0.000000,0.000000,0.000000,0.000000,0.000000
13221418.000000,2.303026,-1.061206,-1.891245,-1.472138,-1.028232,1.801158,0.499620,0.044262,-0.607835,-0.412698,-0.267958,-0.604147,0.626168,0.247744,1.093793,34.163555,20.500900,9.207640,0.369352,1.806442,0.034652,0.000000,0.000000,0.000000,0.000000,0.000000,0.000000
13221419.000000,2.303074,-1.061836,-1.891661,-1.472401,-1.028841,1.801794,0.499861,0.042258,-0.618384,-0.412268,-0.270110,-0.603044,0.623603,0.239573,1.145368,34.286541,20.600082,9.207640,0.344633,1.747848,0.100570,0.000000,0.000000,0.000000,0.000000,0.000000,0.000000
13221420.000000,2.303109,-1.062477,-1.892070,-1.472669,-1.029469,1.802416,0.500116,0.039726,-0.628204,-0.414048,-0.269454,-0.609038,0.629106,0.244170,1.367536,34.385723,20.647690,9.255247,0.386747,1.721298,0.048385,0.000000,0.000000,0.000000,0.000000,0.000000,0.000000
13221421.000000,2.303157,-1.063111,-1.892503,-1.472934,-1.030088,1.803032,0.500358,0.042450,-0.632697,-0.417977,-0.266010,-0.606069,0.620039,0.246452,1.391340,34.409527,20.917465,9.306822,0.351041,1.767074,0.048385,0.000000,0.000000,0.000000,0.000000,0.000000,0.000000
13221422.000000,2.303194,-1.063741,-1.892925,-1.473198,-1.030714,1.803647,0.500601,0.041681,-0.636672,-0.429150,-0.266341,-0.613449,0.630622,0.245636,1.542096,34.457134,21.016647,9.354429,0.434354,1.779891,0.061202,0.000000,0.000000,0.000000,0.000000,0.000000,0.000000
13221423.000000,2.303238,-1.064376,-1.893343,-1.473459,-1.031342,1.804273,0.500838,0.042264,-0.631642,-0.427385,-0.260501,-0.615429,0.630526,0.244213,1.641279,34.457134,21.092026,9.306822,0.470060,1.735030,0.100570,0.000000,0.000000,0.000000,0.000000,0.000000,0.000000
13221424.000000,2.303283,-1.065007,-1.893771,-1.473719,-1.031966,1.804901,0.501080,0.043453,-0.635076,-0.426988,-0.259310,-0.621767,0.629363,0.241407,1.740461,34.580120,21.215012,9.354429,0.470060,1.714889,0.054794,0.000000,0.000000,0.000000,0.000000,0.000000,0.000000
13221425.000000,2.303329,-1.065630,-1.894185,-1.473992,-1.032582,1.805505,0.501317,0.047051,-0.625548,-0.423434,-0.263373,-0.614717,0.620648,0.244342,1.835676,34.457134,21.215012,9.477415,0.410551,1.779891,0.041976,0.000000,0.000000,0.000000,0.000000,0.000000,0.000000
13221426.000000,2.303373,-1.066257,-1.894611,-1.474256,-1.033216,1.806121,0.501551,0.045975,-0.628661,-0.426481,-0.260624,-0.620427,0.612065,0.239364,1.934858,34.286541,21.238815,9.501219,0.386747,1.865035,0.048385,0.000000,0.000000,0.000000,0.000000,0.000000,0.000000
13221427.000000,2.303420,-1.066877,-1.895027,-1.474514,-1.033843,1.806744,0.501784,0.046855,-0.627430,-0.420061,-0.258747,-0.622442,0.611396,0.238702,1.986432,34.139751,21.215012,9.528990,0.416959,1.844894,0.094161,0.000000,0.000000,0.000000,0.000000,0.000000,0.000000
13221428.000000,2.303469,-1.067508,-1.895441,-1.474779,-1.034481,1.807354,0.502022,0.046400,-0.625932,-0.418743,-0.258497,-0.625902,0.604813,0.241356,2.061811,33.969158,21.215012,9.628172,0.428861,1.838485,0.074935,0.000000,0.000000,0.000000,0.000000,0.000000,0.000000
13221429.000000,2.303515,-1.068121,-1.895860,-1.475031,-1.035103,1.807967,0.502261,0.046386,-0.619937,-0.418655,-0.258077,-0.635368,0.606503,0.243495,2.133222,33.699383,21.238815,9.628172,0.434354,1.890670,0.048385,0.000000,0.000000,0.000000,0.000000,0.000000,0.000000
13221430.000000,2.303568,-1.068757,-1.896272,-1.475286,-1.035742,1.808574,0.502486,0.048469,-0.617321,-0.417548,-0.256069,-0.633200,0.608623,0.237775,2.109418,33.624004,21.215012,9.628172,0.470060,1.936446,0.107894,0.000000,0.000000,0.000000,0.000000,0.000000,0.000000
13221431.000000,2.303626,-1.069401,-1.896679,-1.475535,-1.036386,1.809200,0.502728,0.049603,-0.618502,-0.414114,-0.253849,-0.631963,0.606828,0.242765,2.085615,33.600201,21.163437,9.600401,0.530485,1.825668,0.034652,0.000000,0.000000,0.000000,0.000000,0.000000,0.000000
13221432.000000,2.303679,-1.070046,-1.897095,-1.475785,-1.037016,1.809834,0.502956,0.053362,-0.624255,-0.414667,-0.250201,-0.623198,0.609193,0.231332,2.109418,33.770794,21.163437,9.600401,0.494779,1.727706,0.094161,0.000000,0.000000,0.000000,0.000000,0.000000,0.000000
13221433.000000,2.303737,-1.070694,-1.897498,-1.476030,-1.037644,1.810439,0.503181,0.056772,-0.631903,-0.412861,-0.246480,-0.616357,0.607678,0.229356,2.085615,33.869976,21.064255,9.576597,0.482877,1.714889,0.120712,0.000000,0.000000,0.000000,0.000000,0.000000,0.000000
13221434.000000,2.303805,-1.071339,-1.897899,-1.476270,-1.038281,1.811055,0.503419,0.060832,-0.648665,-0.407271,-0.244795,-0.622678,0.602638,0.228081,1.962629,34.064373,20.893661,9.576597,0.470060,1.779891,0.048385,0.000000,0.000000,0.000000,0.000000,0.000000,0.000000
13221435.000000,2.303879,-1.071996,-1.898296,-1.476506,-1.038891,1.811661,0.503642,0.066135,-0.644465,-0.402117,-0.242731,-0.618403,0.596540,0.226452,1.764264,34.262737,20.822250,9.552794,0.362943,1.819259,0.074935,0.000000,0.000000,0.000000,0.000000,0.000000,0.000000
13221436.000000,2.303947,-1.072654,-1.898694,-1.476745,-1.039521,1.812290,0.503877,0.067115,-0.642712,-0.401206,-0.241849,-0.612690,0.603517,0.235568,1.665082,34.357952,20.699265,9.576597,0.339139,1.812850,0.021835,0.000000,0.000000,0.000000,0.000000,0.000000,0.000000
13221437.000000,2.304022,-1.073307,-1.899085,-1.476971,-1.040133,1.812916,0.504098,0.069854,-0.645676,-0.399613,-0.234292,-0.609152,0.604807,0.229046,1.490522,34.532513,20.453293,9.552794,0.297025,1.773483,0.127120,0.000000,0.000000,0.000000,0.000000,0.000000,0.000000
13221438.000000,2.304096,-1.073958,-1.899486,-1.477210,-1.040756,1.813543,0.504339,0.070157,-0.641335,-0.403274,-0.237755,-0.605527,0.610476,0.235783,1.367536,34.504742,20.401718,9.651976,0.231107,1.741439,0.074935,0.000000,0.000000,0.000000,0.000000,0.000000,0.000000
13221439.000000,2.304177,-1.074610,-1.899874,-1.477453,-1.041380,1.814173,0.504567,0.074869,-0.649071,-0.399686,-0.237581,-0.609647,0.609398,0.233491,1.192975,34.504742,20.183517,9.774961,0.219205,1.702071,0.074935,0.000000,0.000000,0.000000,0.000000,0.000000,0.000000
13221440.000000,2.304257,-1.075256,-1.900262,-1.477689,-1.042012,1.814792,0.504799,0.078327,-0.640921,-0.398548,-0.238080,-0.617506,0.617151,0.227346,1.046186,34.504742,20.036728,9.921751,0.320829,1.721298,0.054794,0.000000,0.000000,0.000000,0.000000,0.000000,0.000000
13221441.000000,2.304342,-1.075909,-1.900661,-1.477920,-1.042634,1.815421,0.505021,0.080451,-0.640834,-0.399321,-0.233260,-0.617854,0.609978,0.226613,0.895429,34.457134,19.961349,10.020933,0.344633,1.695663,0.067611,0.000000,0.000000,0.000000,0.000000,0.000000,0.000000
13221442.000000,2.304424,-1.076561,-1.901060,-1.478153,-1.043261,1.816054,0.505251,0.081325,-0.646356,-0.398127,-0.233814,-0.619444,0.613100,0.226667,0.772443,34.532513,19.814560,10.143919,0.362943,1.695663,0.074935,0.000000,0.000000,0.000000,0.000000,0.000000,0.000000
13221443.000000,2.304507,-1.077224,-1.901451,-1.478389,-1.043890,1.816664,0.505487,0.081823,-0.647596,-0.392496,-0.234908,-0.624386,0.606037,0.227525,0.673261,34.627728,19.739182,10.294676,0.351041,1.702071,0.048385,0.000000,0.000000,0.000000,0.000000,0.000000,0.000000
13221444.000000,2.304596,-1.077889,-1.901843,-1.478622,-1.044522,1.817289,0.505709,0.082303,-0.659542,-0.394191,-0.231817,-0.620109,0.611139,0.226665,0.550275,34.826092,19.616196,10.417662,0.261320,1.649886,0.081344,0.000000,0.000000,0.000000,0.000000,0.000000,0.000000
13221445.000000,2.304691,-1.078549,-1.902238,-1.478846,-1.045135,1.817896,0.505940,0.087879,-0.650100,-0.394966,-0.230528,-0.622513,0.603363,0.227266,0.375715,34.972881,19.520981,10.441465,0.171598,1.695663,0.054794,0.000000,0.000000,0.000000,0.000000,0.000000,0.000000
13221446.000000,2.304788,-1.079214,-1.902626,-1.479076,-1.045775,1.818503,0.506162,0.090979,-0.650659,-0.391591,-0.230213,-0.620552,0.602416,0.231094,0.205121,35.044292,19.374191,10.516844,0.154203,1.721298,0.094161,0.000000,0.000000,0.000000,0.000000,0.000000,0.000000
13221447.000000,2.304878,-1.079872,-1.903013,-1.479298,-1.046405,1.819112,0.506399,0.093088,-0.654722,-0.386568,-0.231095,-0.640566,0.597004,0.232328,0.078168,35.119671,19.275009,10.540648,0.154203,1.727706,0.048385,0.000000,0.000000,0.000000,0.000000,0.000000,0.000000
13221448.000000,2.304972,-1.080531,-1.903405,-1.479519,-1.047045,1.819714,0.506630,0.094578,-0.658524,-0.389155,-0.228035,-0.635932,0.593913,0.234440,-0.044818,35.068096,19.298813,10.616026,0.147794,1.727706,0.074935,0.000000,0.000000,0.000000,0.000000,0.000000,0.000000
13221449.000000,2.305065,-1.081194,-1.903799,-1.479738,-1.047693,1.820315,0.506860,0.093370,-0.651040,-0.393583,-0.227387,-0.643980,0.590650,0.231080,-0.092425,34.996685,19.275009,10.639830,0.225614,1.747848,0.114303,0.000000,0.000000,0.000000,0.000000,0.000000,0.000000
13221450.000000,2.305165,-1.081839,-1.904207,-1.479960,-1.048330,1.820934,0.507101,0.098840,-0.642586,-0.398850,-0.226117,-0.644324,0.594364,0.233372,-0.266986,34.750713,19.374191,10.739012,0.249418,1.727706,0.034652,0.000000,0.000000,0.000000,0.000000,0.000000,0.000000
13221451.000000,2.305261,-1.082498,-1.904601,-1.480179,-1.048982,1.821544,0.507320,0.094403,-0.644375,-0.398193,-0.224477,-0.650212,0.600973,0.226088,-0.342364,34.603924,19.421799,10.838194,0.332731,1.624252,0.081344,0.000000,0.000000,0.000000,0.000000,0.000000,0.000000
13221452.000000,2.305353,-1.083157,-1.904999,-1.480390,-1.049631,1.822144,0.507554,0.092420,-0.656836,-0.401145,-0.219444,-0.648557,0.597065,0.226235,-0.342364,34.433331,19.469406,10.885801,0.362943,1.702071,0.081344,0.000000,0.000000,0.000000,0.000000,0.000000,0.000000
13221453.000000,2.305450,-1.083805,-1.905401,-1.480606,-1.050266,1.822728,0.507792,0.095606,-0.657379,-0.404857,-0.223552,-0.644026,0.585456,0.227271,-0.366168,34.187359,19.592392,11.012754,0.308927,1.812850,0.054794,0.000000,0.000000,0.000000,0.000000,0.000000,0.000000
13221454.000000,2.305550,-1.084456,-1.905808,-1.480812,-1.050919,1.823334,0.508017,0.098366,-0.652400,-0.407339,-0.215886,-0.638788,0.591054,0.225032,-0.441546,33.941387,19.691574,10.961180,0.356534,1.800033,0.061202,0.000000,0.000000,0.000000,0.000000,0.000000,0.000000
13221455.000000,2.305655,-1.085101,-1.906211,-1.481014,-1.051559,1.823930,0.508242,0.101608,-0.648354,-0.403934,-0.211988,-0.641884,0.584575,0.224071,-0.540728,33.723186,19.739182,10.961180,0.315336,1.812850,0.087753,0.000000,0.000000,0.000000,0.000000,0.000000,0.000000
13221456.000000,2.305745,-1.085769,-1.906612,-1.481214,-1.052200,1.824518,0.508465,0.095910,-0.648418,-0.403497,-0.205904,-0.632041,0.588604,0.220594,-0.441546,33.675579,19.862167,10.961180,0.303434,1.851302,0.094161,0.000000,0.000000,0.000000,0.000000,0.000000,0.000000
13221457.000000,2.305838,-1.086438,-1.907011,-1.481418,-1.052846,1.825101,0.508692,0.095081,-0.661463,-0.403136,-0.205035,-0.627409,0.584523,0.223084,-0.366168,33.647808,19.814560,10.984983,0.243009,1.923629,0.067611,0.000000,0.000000,0.000000,0.000000,0.000000,0.000000
13221458.000000,2.305941,-1.087102,-1.907416,-1.481616,-1.053483,1.825699,0.508925,0.098517,-0.664261,-0.406068,-0.203934,-0.627260,0.595791,0.223941,-0.465350,33.723186,19.913742,10.984983,0.249418,1.909896,0.054794,0.000000,0.000000,0.000000,0.000000,0.000000,0.000000
13221459.000000,2.306038,-1.087777,-1.907831,-1.481808,-1.054144,1.826289,0.509157,0.097524,-0.669886,-0.409190,-0.200853,-0.630586,0.590757,0.229792,-0.413775,33.869976,20.060532,10.913572,0.291532,1.838485,0.041976,0.000000,0.000000,0.000000,0.000000,0.000000,0.000000
13221460.000000,2.306128,-1.088456,-1.908236,-1.481986,-1.054784,1.826880,0.509389,0.096052,-0.672637,-0.411861,-0.193718,-0.629349,0.589423,0.229825,-0.314593,34.139751,20.108139,10.739012,0.315336,1.832076,0.054794,0.000000,0.000000,0.000000,0.000000,0.000000,0.000000
13221461.000000,2.306216,-1.089142,-1.908637,-1.482182,-1.055437,1.827463,0.509622,0.094635,-0.665606,-0.409009,-0.197096,-0.631912,0.592940,0.230965,-0.167803,34.310345,20.084335,10.786619,0.315336,1.838485,0.034652,0.000000,0.000000,0.000000,0.000000,0.000000,0.000000
13221462.000000,2.306316,-1.089837,-1.909049,-1.482377,-1.056092,1.828052,0.509844,0.096102,-0.669141,-0.412998,-0.194255,-0.634384,0.590671,0.233050,-0.144000,34.504742,20.131943,10.762815,0.339139,1.819259,0.087753,0.000000,0.000000,0.000000,0.000000,0.000000,0.000000
13221463.000000,2.306408,-1.090514,-1.909459,-1.482558,-1.056737,1.828653,0.510084,0.096459,-0.670315,-0.410204,-0.190125,-0.635697,0.591708,0.238552,-0.068621,34.603924,20.108139,10.639830,0.332731,1.747848,0.015426,0.000000,0.000000,0.000000,0.000000,0.000000,0.000000
13221464.000000,2.306500,-1.091200,-1.909861,-1.482741,-1.057379,1.829237,0.510304,0.092657,-0.675297,-0.410124,-0.185531,-0.634650,0.595261,0.233006,0.030561,34.798321,20.159714,10.592222,0.315336,1.714889,0.081344,0.000000,0.000000,0.000000,0.000000,0.000000,0.000000
13221465.000000,2.306590,-1.091883,-1.910261,-1.482916,-1.058029,1.829816,0.510528,0.092710,-0.682613,-0.405764,-0.184946,-0.650200,0.593580,0.230736,0.129743,34.873699,20.036728,10.564451,0.297025,1.779891,0.107894,0.000000,0.000000,0.000000,0.000000,0.000000,0.000000
13221466.000000,2.306680,-1.092556,-1.910656,-1.483097,-1.058662,1.830391,0.510765,0.093313,-0.677784,-0.403627,-0.185461,-0.650089,0.589418,0.233140,0.205121,34.897503,19.937546,10.540648,0.243009,1.819259,0.028243,0.000000,0.000000,0.000000,0.000000,0.000000,0.000000
13221467.000000,2.306775,-1.093236,-1.911057,-1.483271,-1.059306,1.830978,0.510988,0.094579,-0.674113,-0.400337,-0.182555,-0.645400,0.591954,0.226475,0.252729,34.798321,19.885971,10.516844,0.207303,1.844894,0.034652,0.000000,0.000000,0.000000,0.000000,0.000000,0.000000
13221468.000000,2.306868,-1.093911,-1.911452,-1.483431,-1.059944,1.831569,0.511210,0.093343,-0.669672,-0.392496,-0.177116,-0.649387,0.596502,0.224419,0.304304,34.726910,19.766953,10.342283,0.207303,1.800033,0.081344,0.000000,0.000000,0.000000,0.000000,0.000000,0.000000
13221469.000000,2.306961,-1.094590,-1.911844,-1.483597,-1.060590,1.832153,0.511444,0.094837,-0.665371,-0.393582,-0.172851,-0.641729,0.593242,0.225640,0.351911,34.580120,19.667770,10.294676,0.195402,1.812850,0.067611,0.000000,0.000000,0.000000,0.000000,0.000000,0.000000
13221470.000000,2.307056,-1.095281,-1.912244,-1.483756,-1.061237,1.832739,0.511677,0.098033,-0.684568,-0.392723,-0.165419,-0.641648,0.584918,0.228918,0.403486,34.532513,19.592392,10.195494,0.195402,1.832076,0.021835,0.000000,0.000000,0.000000,0.000000,0.000000,0.000000
13221471.000000,2.307153,-1.095964,-1.912632,-1.483906,-1.061878,1.833330,0.511902,0.099442,-0.684387,-0.393356,-0.160624,-0.643713,0.586595,0.225443,0.427289,34.627728,19.469406,9.997129,0.255826,1.786300,0.087753,0.000000,0.000000,0.000000,0.000000,0.000000,0.000000
13221472.000000,2.307254,-1.096660,-1.913037,-1.484049,-1.062523,1.833930,0.512137,0.099819,-0.679679,-0.398768,-0.153293,-0.646032,0.589884,0.228671,0.427289,34.774517,19.520981,9.774961,0.249418,1.682845,0.028243,0.000000,0.000000,0.000000,0.000000,0.000000,0.000000
13221473.000000,2.307355,-1.097358,-1.913440,-1.484188,-1.063155,1.834535,0.512362,0.101839,-0.680196,-0.396137,-0.149535,-0.642966,0.590340,0.226866,0.375715,34.972881,19.469406,9.600401,0.201810,1.624252,0.061202,0.000000,0.000000,0.000000,0.000000,0.000000,0.000000
13221474.000000,2.307454,-1.098068,-1.913836,-1.484326,-1.063802,1.835120,0.512601,0.100408,-0.679012,-0.397341,-0.144387,-0.642676,0.584526,0.227085,0.403486,35.191082,19.397995,9.453611,0.195402,1.611434,0.041976,0.000000,0.000000,0.000000,0.000000,0.000000,0.000000
13221475.000000,2.307559,-1.098788,-1.914250,-1.484451,-1.064434,1.835715,0.512828,0.101541,-0.700530,-0.402196,-0.138523,-0.634847,0.583047,0.231001,0.351911,35.460857,19.469406,9.231443,0.123990,1.624252,0.061202,0.000000,0.000000,0.000000,0.000000,0.000000,0.000000
13221476.000000,2.307662,-1.099503,-1.914647,-1.484583,-1.065075,1.836311,0.513059,0.103211,-0.706029,-0.402040,-0.137054,-0.636382,0.590318,0.231439,0.304304,35.829815,19.421799,9.132261,0.117582,1.591293,0.048385,0.000000,0.000000,0.000000,0.000000,0.000000,0.000000
13221477.000000,2.307768,-1.100221,-1.915059,-1.484712,-1.065722,1.836898,0.513290,0.103702,-0.709365,-0.401597,-0.131727,-0.635981,0.592872,0.227063,0.252729,36.071819,19.497177,9.009275,0.100187,1.597701,0.009017,0.000000,0.000000,0.000000,0.000000,0.000000,0.000000
13221478.000000,2.307871,-1.100912,-1.915470,-1.484843,-1.066372,1.837481,0.513504,0.106574,-0.704426,-0.403972,-0.127870,-0.643145,0.581206,0.224246,0.228925,36.095623,19.544785,9.009275,0.123990,1.591293,0.081344,0.000000,0.000000,0.000000,0.000000,0.000000,0.000000
13221479.000000,2.307976,-1.101615,-1.915879,-1.484974,-1.067026,1.838067,0.513740,0.104018,-0.690974,-0.404123,-0.128539,-0.643422,0.583772,0.226854,0.252729,36.071819,19.667770,9.033079,0.154203,1.546432,0.034652,0.000000,0.000000,0.000000,0.000000,0.000000,0.000000
13221480.000000,2.308084,-1.102329,-1.916296,-1.485104,-1.067698,1.838660,0.513963,0.103521,-0.687421,-0.406856,-0.129268,-0.645547,0.581562,0.226172,0.252729,36.095623,19.885971,9.084654,0.225614,1.461288,0.074935,0.000000,0.000000,0.000000,0.000000,0.000000,0.000000
13221481.000000,2.308186,-1.103035,-1.916715,-1.485224,-1.068352,1.839243,0.514193,0.100354,-0.690861,-0.406744,-0.125365,-0.645419,0.585379,0.226402,0.276533,36.194805,20.060532,9.084654,0.261320,1.500655,0.067611,0.000000,0.000000,0.000000,0.000000,0.000000,0.000000
13221482.000000,2.308290,-1.103754,-1.917133,-1.485359,-1.069015,1.839800,0.514418,0.098901,-0.693417,-0.409995,-0.131320,-0.647311,0.573118,0.227930,0.328107,36.341595,20.231125,9.207640,0.255826,1.695663,0.048385,0.000000,0.000000,0.000000,0.000000,0.000000,0.000000
13221483.000000,2.308393,-1.104473,-1.917556,-1.485487,-1.069675,1.840372,0.514641,0.100964,-0.708530,-0.407650,-0.133049,-0.659186,0.567057,0.223049,0.403486,36.512188,20.354111,9.255247,0.231107,1.793624,0.041976,0.000000,0.000000,0.000000,0.000000,0.000000,0.000000
13221484.000000,2.308503,-1.105181,-1.917973,-1.485613,-1.070329,1.840950,0.514864,0.102823,-0.713299,-0.409959,-0.129598,-0.655381,0.569777,0.224226,0.351911,36.658978,20.500900,9.330626,0.135892,1.735030,0.021835,0.000000,0.000000,0.000000,0.000000,0.000000,0.000000
13221485.000000,2.308608,-1.105891,-1.918400,-1.485737,-1.071001,1.841533,0.515080,0.105773,-0.705245,-0.415786,-0.129929,-0.656024,0.577641,0.223344,0.351911,36.682781,20.647690,9.406004,0.159696,1.630660,0.061202,0.000000,0.000000,0.000000,0.000000,0.000000,0.000000
13221486.000000,2.308718,-1.106600,-1.918834,-1.485857,-1.071655,1.842103,0.515303,0.107677,-0.703701,-0.419942,-0.125983,-0.657124,0.567258,0.220554,0.351911,36.781963,20.846054,9.429808,0.154203,1.695663,0.041976,0.000000,0.000000,0.000000,0.000000,0.000000,0.000000
13221487.000000,2.308828,-1.107323,-1.919269,-1.485970,-1.072328,1.842647,0.515519,0.108958,-0.696426,-0.424555,-0.121129,-0.664303,0.558244,0.220462,0.375715,36.881145,21.092026,9.378233,0.219205,1.806442,0.081344,0.000000,0.000000,0.000000,0.000000,0.000000,0.000000
13221488.000000,2.308937,-1.108049,-1.919704,-1.486080,-1.073004,1.843211,0.515737,0.110444,-0.706292,-0.427416,-0.119988,-0.665020,0.553051,0.223705,0.375715,36.928753,21.310226,9.279051,0.279630,1.851302,0.041976,0.000000,0.000000,0.000000,0.000000,0.000000,0.000000
13221489.000000,2.309050,-1.108758,-1.920134,-1.486189,-1.073673,1.843775,0.515943,0.112518,-0.711379,-0.424141,-0.116126,-0.670077,0.560229,0.217392,0.351911,36.904949,21.457016,9.179869,0.327238,1.760665,0.094161,0.000000,0.000000,0.000000,0.000000,0.000000,0.000000
13221490.000000,2.309165,-1.109484,-1.920569,-1.486307,-1.074335,1.844348,0.516161,0.112909,-0.715369,-0.428651,-0.115447,-0.659544,0.558701,0.215026,0.328107,37.004131,21.607773,9.179869,0.291532,1.721298,0.034652,0.000000,0.000000,0.000000,0.000000,0.000000,0.000000
13221491.000000,2.309274,-1.110190,-1.921010,-1.486420,-1.075003,1.844913,0.516373,0.110458,-0.713386,-0.429083,-0.115691,-0.660081,0.555470,0.209520,0.351911,36.904949,21.802170,9.207640,0.308927,1.735030,0.087753,0.000000,0.000000,0.000000,0.000000,0.000000,0.000000
13221492.000000,2.309388,-1.110906,-1.921442,-1.486526,-1.075666,1.845464,0.516595,0.112014,-0.709387,-0.428785,-0.113867,-0.654294,0.554348,0.215818,0.351911,36.833538,21.948959,9.156065,0.279630,1.838485,0.034652,0.000000,0.000000,0.000000,0.000000,0.000000,0.000000
13221493.000000,2.309497,-1.111630,-1.921877,-1.486632,-1.076344,1.846026,0.516809,0.110579,-0.724130,-0.431605,-0.112635,-0.657778,0.551037,0.213247,0.427289,36.805767,22.071945,9.108458,0.332731,1.858627,0.054794,0.000000,0.000000,0.000000,0.000000,0.000000,0.000000
13221494.000000,2.309610,-1.112340,-1.922315,-1.486735,-1.077001,1.846588,0.517022,0.110621,-0.712129,-0.434366,-0.109162,-0.658829,0.552567,0.211559,0.451093,36.734356,22.218735,9.084654,0.344633,1.916305,0.074935,0.000000,0.000000,0.000000,0.000000,0.000000,0.000000
13221495.000000,2.309720,-1.113059,-1.922752,-1.486838,-1.077662,1.847142,0.517237,0.109968,-0.702660,-0.435196,-0.106309,-0.658208,0.549539,0.212460,0.526471,36.635174,22.317917,9.056883,0.243009,1.949264,0.028243,0.000000,0.000000,0.000000,0.000000,0.000000,0.000000
13221496.000000,2.309827,-1.113789,-1.923188,-1.486943,-1.078324,1.847712,0.517448,0.107850,-0.716164,-0.437689,-0.106395,-0.678539,0.560461,0.214124,0.574079,36.658978,22.365524,9.108458,0.267728,1.884261,0.074935,0.000000,0.000000,0.000000,0.000000,0.000000,0.000000
13221497.000000,2.309935,-1.114520,-1.923621,-1.487051,-1.078986,1.848273,0.517667,0.107495,-0.717445,-0.440391,-0.107247,-0.667546,0.560675,0.213354,0.649457,36.881145,22.440903,9.207640,0.225614,1.800033,0.054794,0.000000,0.000000,0.000000,0.000000,0.000000,0.000000
13221498.000000,2.310037,-1.115260,-1.924057,-1.487152,-1.079659,1.848827,0.517877,0.100802,-0.718562,-0.442564,-0.104621,-0.671280,0.555517,0.217179,0.871625,37.099346,22.488510,9.179869,0.249418,1.832076,0.074935,0.000000,0.000000,0.000000,0.000000,0.000000,0.000000
13221499.000000,2.310139,-1.115984,-1.924486,-1.487257,-1.080322,1.849379,0.518098,0.100236,-0.724959,-0.439283,-0.102775,-0.664954,0.550801,0.222615,0.994611,37.246136,22.488510,9.279051,0.267728,1.903487,0.015426,0.000000,0.000000,0.000000,0.000000,0.000000,0.000000
13221500.000000,2.310239,-1.116718,-1.924916,-1.487360,-1.080998,1.849919,0.518302,0.100136,-0.725644,-0.439073,-0.100975,-0.668758,0.548854,0.220372,1.192975,37.392925,22.563889,9.378233,0.315336,1.942855,0.067611,0.000000,0.000000,0.000000,0.000000,0.000000,0.000000
13221501.000000,2.310345,-1.117457,-1.925338,-1.487458,-1.081670,1.850479,0.518520,0.098538,-0.741497,-0.434487,-0.101771,-0.661810,0.548202,0.217736,1.315961,37.591290,22.464706,9.429808,0.320829,1.930038,0.054794,0.000000,0.000000,0.000000,0.000000,0.000000,0.000000
13221502.000000,2.310449,-1.118177,-1.925768,-1.487558,-1.082336,1.851032,0.518735,0.099288,-0.732203,-0.424660,-0.100211,-0.665149,0.549938,0.218629,1.466718,37.638897,22.512314,9.528990,0.303434,1.884261,0.087753,0.000000,0.000000,0.000000,0.000000,0.000000,0.000000
13221503.000000,2.310558,-1.118909,-1.926182,-1.487653,-1.082998,1.851593,0.518963,0.101342,-0.725826,-0.422296,-0.098332,-0.659867,0.549686,0.225657,1.565900,37.714275,22.317917,9.600401,0.237516,1.871444,0.021835,0.000000,0.000000,0.000000,0.000000,0.000000,0.000000
13221504.000000,2.310665,-1.119619,-1.926602,-1.487743,-1.083657,1.852158,0.519173,0.105462,-0.715890,-0.421283,-0.095298,-0.657909,0.545801,0.223302,1.613508,37.539715,22.147324,9.600401,0.183500,1.825668,0.087753,0.000000,0.000000,0.000000,0.000000,0.000000,0.000000
13221505.000000,2.310773,-1.120346,-1.927019,-1.487835,-1.084320,1.852713,0.519389,0.106061,-0.709140,-0.419087,-0.093124,-0.658901,0.549603,0.219911,1.688886,37.392925,22.048141,9.600401,0.189908,1.851302,0.081344,0.000000,0.000000,0.000000,0.000000,0.000000,0.000000
13221506.000000,2.310886,-1.121059,-1.927441,-1.487924,-1.084999,1.853266,0.519603,0.110792,-0.713537,-0.417149,-0.091203,-0.659875,0.545881,0.218305,1.688886,37.198528,21.925156,9.576597,0.201810,1.909896,0.041976,0.000000,0.000000,0.000000,0.000000,0.000000,0.000000
13221507.000000,2.310983,-1.121781,-1.927843,-1.488010,-1.085660,1.853816,0.519814,0.108688,-0.715144,-0.413781,-0.086504,-0.665152,0.560791,0.214252,1.863447,37.051739,21.726791,9.552794,0.207303,1.949264,0.067611,0.000000,0.000000,0.000000,0.000000,0.000000,0.000000
13221508.000000,2.311094,-1.122515,-1.928262,-1.488098,-1.086324,1.854380,0.520030,0.109056,-0.712084,-0.414848,-0.084635,-0.659542,0.558065,0.214171,1.934858,37.051739,21.679184,9.600401,0.141385,1.930038,0.028243,0.000000,0.000000,0.000000,0.000000,0.000000,0.000000
13221509.000000,2.311203,-1.123227,-1.928676,-1.488174,-1.086986,1.854939,0.520233,0.109902,-0.714669,-0.410196,-0.083616,-0.664418,0.560424,0.211714,1.986432,36.928753,21.532394,9.528990,0.147794,1.916305,0.100570,0.000000,0.000000,0.000000,0.000000,0.000000,0.000000
13221510.000000,2.311316,-1.123962,-1.929091,-1.488247,-1.087655,1.855499,0.520453,0.107049,-0.718754,-0.413566,-0.079804,-0.661625,0.560038,0.214035,2.010236,37.004131,21.556198,9.453611,0.100187,1.832076,0.028243,0.000000,0.000000,0.000000,0.000000,0.000000,0.000000
13221511.000000,2.311429,-1.124696,-1.929505,-1.488319,-1.088342,1.856057,0.520651,0.109265,-0.728631,-0.412196,-0.073849,-0.673740,0.558202,0.210480,2.010236,37.075542,21.532394,9.378233,0.178007,1.767074,0.081344,0.000000,0.000000,0.000000,0.000000,0.000000,0.000000
13221512.000000,2.311539,-1.125421,-1.929918,-1.488393,-1.089009,1.856611,0.520861,0.110519,-0.719477,-0.414882,-0.072489,-0.671640,0.565399,0.211819,2.010236,37.150921,21.532394,9.429808,0.207303,1.773483,0.041976,0.000000,0.000000,0.000000,0.000000,0.000000,0.000000
13221513.000000,2.311652,-1.126162,-1.930336,-1.488458,-1.089694,1.857157,0.521066,0.111540,-0.721824,-0.414285,-0.068094,-0.669125,0.557140,0.210623,2.010236,37.297710,21.580002,9.354429,0.261320,1.741439,0.048385,0.000000,0.000000,0.000000,0.000000,0.000000,0.000000
13221514.000000,2.311773,-1.126892,-1.930757,-1.488522,-1.090364,1.857708,0.521273,0.114984,-0.722172,-0.413242,-0.069228,-0.678997,0.553578,0.209553,1.887250,37.369122,21.631577,9.330626,0.320829,1.747848,0.100570,0.000000,0.000000,0.000000,0.000000,0.000000,0.000000
13221515.000000,2.311888,-1.127622,-1.931166,-1.488589,-1.091042,1.858252,0.521490,0.113826,-0.717401,-0.408934,-0.068506,-0.672500,0.550772,0.210947,1.911054,37.345318,21.655380,9.354429,0.291532,1.760665,0.054794,0.000000,0.000000,0.000000,0.000000,0.000000,0.000000
13221516.000000,2.312008,-1.128349,-1.931585,-1.488658,-1.091712,1.858801,0.521700,0.116228,-0.714092,-0.409761,-0.068780,-0.671211,0.551964,0.211605,1.934858,37.222332,21.702988,9.429808,0.243009,1.819259,0.028243,0.000000,0.000000,0.000000,0.000000,0.000000,0.000000
13221517.000000,2.312132,-1.129070,-1.932010,-1.488726,-1.092388,1.859347,0.521910,0.116000,-0.715383,-0.412074,-0.068467,-0.676099,0.543425,0.210167,1.835676,37.198528,21.849777,9.477415,0.195402,1.903487,0.028243,0.000000,0.000000,0.000000,0.000000,0.000000,0.000000
13221518.000000,2.312259,-1.129801,-1.932424,-1.488789,-1.093068,1.859881,0.522111,0.119869,-0.720816,-0.412064,-0.067429,-0.674101,0.542616,0.208724,1.740461,37.198528,21.925156,9.501219,0.154203,1.962081,0.061202,0.000000,0.000000,0.000000,0.000000,0.000000,0.000000
13221519.000000,2.312381,-1.130541,-1.932847,-1.488860,-1.093756,1.860429,0.522324,0.119313,-0.731904,-0.414510,-0.067165,-0.676484,0.538738,0.213660,1.688886,37.321514,22.095749,9.675779,0.178007,1.955673,0.048385,0.000000,0.000000,0.000000,0.000000,0.000000,0.000000
13221520.000000,2.312505,-1.131258,-1.933264,-1.488918,-1.094433,1.860962,0.522531,0.118316,-0.727651,-0.407711,-0.063024,-0.678847,0.535879,0.210660,1.641279,37.297710,22.218735,9.699583,0.225614,1.962081,0.087753,0.000000,0.000000,0.000000,0.000000,0.000000,0.000000
13221521.000000,2.312634,-1.131979,-1.933691,-1.488980,-1.095120,1.861512,0.522736,0.119049,-0.716339,-0.413363,-0.061806,-0.676790,0.535560,0.208053,1.565900,37.198528,22.365524,9.798765,0.327238,1.930038,0.087753,0.000000,0.000000,0.000000,0.000000,0.000000,0.000000
13221522.000000,2.312762,-1.132700,-1.934113,-1.489043,-1.095792,1.862058,0.522941,0.118474,-0.714133,-0.411713,-0.064527,-0.679005,0.531715,0.207432,1.514325,37.222332,22.393295,9.921751,0.386747,1.838485,0.087753,0.000000,0.000000,0.000000,0.000000,0.000000,0.000000
13221523.000000,2.312895,-1.133437,-1.934535,-1.489101,-1.096458,1.862591,0.523146,0.121983,-0.711320,-0.413116,-0.064841,-0.668461,0.530454,0.204763,1.415143,37.222332,22.512314,9.973326,0.386747,1.844894,0.074935,0.000000,0.000000,0.000000,0.000000,0.000000,0.000000
13221524.000000,2.313033,-1.134173,-1.934955,-1.489149,-1.097137,1.863118,0.523345,0.126165,-0.723018,-0.411860,-0.059405,-0.664896,0.524800,0.205659,1.268354,37.174725,22.540085,9.921751,0.356534,1.949264,0.067611,0.000000,0.000000,0.000000,0.000000,0.000000,0.000000
13221525.000000,2.313171,-1.134898,-1.935369,-1.489197,-1.097792,1.863636,0.523546,0.131802,-0.724192,-0.406770,-0.055694,-0.661435,0.537712,0.203031,1.121564,37.127117,22.563889,9.874144,0.291532,2.047225,0.087753,0.000000,0.000000,0.000000,0.000000,0.000000,0.000000
13221526.000000,2.313313,-1.135627,-1.935784,-1.489240,-1.098459,1.864163,0.523753,0.133461,-0.724144,-0.409055,-0.051699,-0.659348,0.533933,0.206153,0.947004,37.051739,22.540085,9.774961,0.166105,2.104903,0.048385,0.000000,0.000000,0.000000,0.000000,0.000000,0.000000
13221527.000000,2.313454,-1.136346,-1.936198,-1.489281,-1.099122,1.864765,0.523973,0.135520,-0.728387,-0.411005,-0.046576,-0.664578,0.557949,0.213936,0.772443,36.881145,22.512314,9.699583,0.154203,1.429244,-0.116410,0.000000,0.000000,0.000000,0.000000,0.000000,0.000000
13221528.000000,2.313596,-1.137070,-1.936619,-1.489326,-1.099942,1.865931,0.524129,0.137411,-0.725552,-0.417224,-0.045351,-0.713978,0.766061,0.195657,0.697065,36.658978,22.686874,9.727354,1.391080,-4.182939,0.318465,0.000000,0.000000,0.000000,0.000000,0.000000,0.000000
13221529.000000,2.313714,-1.137811,-1.937086,-1.489413,-1.100681,1.866675,0.524402,0.131002,-0.727066,-0.432629,-0.058640,-0.728141,0.771610,0.217935,0.994611,36.658978,23.448593,10.370054,1.743558,-5.190934,-0.314164,0.000000,0.000000,0.000000,0.000000,0.000000,0.000000
13221530.000000,2.313792,-1.138604,-1.937365,-1.489383,-1.101474,1.867300,0.524612,0.114452,-0.743905,-0.378871,-0.029014,-0.751435,0.721674,0.217529,1.788068,37.539715,21.484787,9.378233,2.550138,-4.377946,-0.393815,0.000000,0.000000,0.000000,0.000000,0.000000,0.000000
13221531.000000,2.313977,-1.139442,-1.937646,-1.489276,-1.102266,1.868325,0.524755,0.136108,-0.763406,-0.345226,0.015638,-0.758237,0.828479,0.196776,1.069990,38.912395,19.766953,7.327147,3.022550,-6.888322,0.160079,0.000000,0.000000,0.000000,0.000000,0.000000,0.000000
13221532.000000,2.314208,-1.140272,-1.937984,-1.489193,-1.103000,1.869130,0.524957,0.163905,-0.782682,-0.340370,0.042228,-0.767890,0.812627,0.198925,-0.342364,40.015301,18.953659,5.819579,2.926420,-6.829728,0.199447,0.000000,0.000000,0.000000,0.000000,0.000000,0.000000
13221533.000000,2.314297,-1.141063,-1.938141,-1.489106,-1.103798,1.869920,0.525229,0.138381,-0.778087,-0.279508,0.061820,-0.774702,0.800439,0.224130,0.351911,40.550884,15.815536,4.534178,3.159879,-6.355485,-0.400223,0.000000,0.000000,0.000000,0.000000,0.000000,0.000000
13221534.000000,2.314377,-1.141836,-1.938266,-1.489005,-1.104570,1.870668,0.525317,0.118712,-0.767274,-0.226051,0.074410,-0.771154,0.771320,0.176101,1.292158,40.550884,12.427475,3.324156,3.039945,-5.353898,0.635238,0.000000,0.000000,0.000000,0.000000,0.000000,0.000000
13221535.000000,2.314573,-1.142653,-1.938367,-1.488901,-1.105305,1.871426,0.525528,0.146245,-0.776754,-0.180322,0.082867,-0.758874,0.757896,0.186451,0.526471,41.237225,9.210007,2.284727,2.729581,-4.593095,0.522628,0.000000,0.000000,0.000000,0.000000,0.000000,0.000000
13221536.000000,2.314711,-1.143421,-1.938377,-1.488738,-1.106082,1.872147,0.525761,0.139221,-0.769239,-0.123581,0.106766,-0.755693,0.738344,0.199689,0.601850,41.090435,5.210983,0.630369,2.699369,-3.897294,0.087753,0.000000,0.000000,0.000000,0.000000,0.000000,0.000000
13221537.000000,2.314781,-1.144107,-1.938344,-1.488571,-1.106838,1.872685,0.525925,0.116221,-0.746887,-0.068644,0.125534,-0.754819,0.661244,0.187950,1.589704,39.721722,1.112778,-0.829591,2.556547,-1.881303,0.318465,0.000000,0.000000,0.000000,0.000000,0.000000,0.000000
13221538.000000,2.314867,-1.144715,-1.938296,-1.488462,-1.107463,1.873238,0.526112,0.102838,-0.698814,-0.025862,0.117542,-0.705569,0.615231,0.183444,2.331586,37.515911,-2.497452,-1.226320,1.468900,-0.664567,0.324874,0.000000,0.000000,0.000000,0.000000,0.000000,0.000000
13221539.000000,2.314940,-1.145276,-1.938231,-1.488313,-1.108160,1.873871,0.526310,0.092184,-0.650648,0.006467,0.126847,-0.693792,0.614103,0.192782,3.172651,34.651531,-5.833939,-1.940431,1.157621,-0.697526,0.193038,0.000000,0.000000,0.000000,0.000000,0.000000,0.000000
13221540.000000,2.314988,-1.145782,-1.938124,-1.488150,-1.108821,1.874478,0.526466,0.073503,-0.603897,0.040500,0.137237,-0.673822,0.606166,0.183523,4.263654,31.422161,-9.170425,-2.634706,0.888456,-1.028947,0.437484,0.000000,0.000000,0.000000,0.000000,0.000000,0.000000
13221541.000000,2.315004,-1.146275,-1.937966,-1.488012,-1.109490,1.874998,0.526662,0.055935,-0.556266,0.076021,0.135421,-0.668282,0.585250,0.186287,5.747419,28.192791,-12.657669,-2.757692,0.745634,-1.035355,0.318465,0.000000,0.000000,0.000000,0.000000,0.000000,0.000000
13221542.000000,2.314989,-1.146718,-1.937786,-1.487899,-1.110084,1.875501,0.526829,0.028630,-0.515981,0.108175,0.123996,-0.642234,0.561453,0.179069,7.504926,24.642071,-15.970352,-2.384767,0.159696,-1.126908,0.398116,0.000000,0.000000,0.000000,0.000000,0.000000,0.000000
13221543.000000,2.314980,-1.147126,-1.937576,-1.487785,-1.110652,1.875919,0.527018,0.013211,-0.476781,0.137703,0.117847,-0.614852,0.530910,0.184407,8.968854,21.166729,-19.235428,-2.039613,-0.414340,-0.703934,0.318465,0.000000,0.000000,0.000000,0.000000,0.000000,0.000000
13221544.000000,2.314967,-1.147507,-1.937385,-1.487658,-1.111162,1.876355,0.527210,0.004746,-0.438623,0.149949,0.118758,-0.577639,0.503188,0.185289,10.329633,17.691387,-21.786392,-1.892824,-1.286837,-0.561112,0.193038,0.000000,0.000000,0.000000,0.000000,0.000000,0.000000
13221545.000000,2.314957,-1.147847,-1.937188,-1.487508,-1.111627,1.876880,0.527378,-0.002628,-0.409945,0.161268,0.128260,-0.551596,0.514017,0.177123,11.492047,14.239849,-24.095352,-2.091188,-2.344271,-1.399735,0.338607,0.000000,0.000000,0.000000,0.000000,0.000000,0.000000
13221546.000000,2.314957,-1.148154,-1.937018,-1.487378,-1.112087,1.877334,0.527555,-0.002478,-0.369400,0.160538,0.125952,-0.516695,0.499493,0.178915,12.384686,10.617718,-25.813187,-2.039613,-3.174654,-1.718339,0.390792,0.000000,0.000000,0.000000,0.000000,0.000000,0.000000
13221547.000000,2.314951,-1.148420,-1.936884,-1.487245,-1.112529,1.877764,0.527736,-0.001996,-0.328354,0.147650,0.128284,-0.487690,0.480830,0.176775,13.225751,6.797222,-26.916092,-2.015810,-3.963839,-1.594743,0.398116,0.000000,0.000000,0.000000,0.000000,0.000000,0.000000
13221548.000000,2.314946,-1.148638,-1.936740,-1.487104,-1.112953,1.878220,0.527926,-0.002563,-0.292170,0.143228,0.133651,-0.465543,0.474934,0.183513,13.967633,2.905315,-28.118179,-2.138796,-4.525057,-1.640519,0.324874,0.000000,0.000000,0.000000,0.000000,0.000000,0.000000
13221549.000000,2.314969,-1.148825,-1.936623,-1.487008,-1.113381,1.878713,0.528098,0.006433,-0.249654,0.132068,0.120314,-0.458976,0.487263,0.185902,14.265180,-1.109577,-28.927505,-1.670656,-4.890353,-2.017716,0.390792,0.000000,0.000000,0.000000,0.000000,0.000000,0.000000
13221550.000000,2.314978,-1.148951,-1.936528,-1.486933,-1.113856,1.879193,0.528299,0.010840,-0.214373,0.118840,0.109208,-0.473407,0.487782,0.193826,14.733319,-5.489460,-29.443253,-1.000185,-4.782320,-2.076310,0.239730,0.000000,0.000000,0.000000,0.000000,0.000000,0.000000
13221551.000000,2.314997,-1.149030,-1.936458,-1.486855,-1.114311,1.879666,0.528491,0.017151,-0.167926,0.102055,0.095507,-0.467613,0.486901,0.193060,15.058637,-9.968525,-29.713028,-0.432863,-4.752108,-2.069901,0.219589,0.000000,0.000000,0.000000,0.000000,0.000000,0.000000
13221552.000000,2.315049,-1.149085,-1.936430,-1.486780,-1.114845,1.880163,0.528697,0.029003,-0.133820,0.072853,0.084270,-0.496783,0.489559,0.201916,14.907880,-14.300800,-29.494827,0.059080,-4.148776,-2.011307,0.081344,0.000000,0.000000,0.000000,0.000000,0.000000,0.000000
13221553.000000,2.315129,-1.149118,-1.936431,-1.486680,-1.115424,1.880697,0.528891,0.048188,-0.104525,0.048905,0.091458,-0.530845,0.502270,0.197604,14.388165,-18.514057,-29.102066,0.035277,-3.300082,-2.231950,0.087753,0.000000,0.000000,0.000000,0.000000,0.000000,0.000000
13221554.000000,2.315216,-1.149150,-1.936479,-1.486539,-1.116016,1.881227,0.529081,0.061584,-0.076188,0.016615,0.107720,-0.558863,0.516145,0.193435,13.844647,-22.259174,-28.292740,-0.631227,-2.678439,-2.453507,0.173812,0.000000,0.000000,0.000000,0.000000,0.000000,0.000000
13221555.000000,2.315328,-1.149167,-1.936546,-1.486401,-1.116635,1.881746,0.529281,0.080562,-0.064359,-0.015373,0.121268,-0.580838,0.513413,0.193243,13.027387,-25.782124,-27.479446,-1.297731,-2.272860,-2.355546,0.147262,0.000000,0.000000,0.000000,0.000000,0.000000,0.000000
13221556.000000,2.315452,-1.149200,-1.936610,-1.486253,-1.117241,1.882239,0.529464,0.096644,-0.053998,-0.031724,0.129438,-0.593801,0.507770,0.187167,12.186322,-28.793293,-26.939896,-2.063417,-2.224337,-2.128495,0.272689,0.000000,0.000000,0.000000,0.000000,0.000000,0.000000
13221557.000000,2.315575,-1.149261,-1.936676,-1.486088,-1.117863,1.882749,0.529683,0.108937,-0.057378,-0.040842,0.141997,-0.598548,0.506215,0.196629,11.444440,-31.118122,-26.646317,-3.027467,-2.422091,-1.939896,0.100570,0.000000,0.000000,0.000000,0.000000,0.000000,0.000000
13221558.000000,2.315705,-1.149341,-1.936755,-1.485903,-1.118475,1.883255,0.529874,0.116451,-0.067973,-0.053959,0.157268,-0.605591,0.505302,0.194778,10.750165,-32.831989,-26.376541,-4.142274,-2.869784,-1.737565,0.219589,0.000000,0.000000,0.000000,0.000000,0.000000,0.000000
13221559.000000,2.315844,-1.149459,-1.936840,-1.485716,-1.119126,1.883725,0.530082,0.124769,-0.087607,-0.068004,0.169803,-0.612986,0.495604,0.200048,10.055890,-34.006306,-26.205948,-5.078554,-3.174654,-1.282548,0.166488,0.000000,0.000000,0.000000,0.000000,0.000000,0.000000
13221560.000000,2.315983,-1.149609,-1.936937,-1.485514,-1.119775,1.884210,0.530282,0.128951,-0.112074,-0.077707,0.182700,-0.621283,0.486092,0.203292,9.488568,-34.768024,-26.082962,-6.042604,-3.557345,-1.028947,0.153671,0.000000,0.000000,0.000000,0.000000,0.000000,0.000000
13221561.000000,2.316117,-1.149796,-1.937048,-1.485300,-1.120416,1.884723,0.530469,0.131940,-0.138625,-0.088034,0.192342,-0.623475,0.500109,0.196113,9.040265,-34.986225,-25.983780,-7.006654,-3.826510,-1.146134,0.239730,0.000000,0.000000,0.000000,0.000000,0.000000,0.000000
13221562.000000,2.316267,-1.150019,-1.937180,-1.485066,-1.121087,1.885243,0.530662,0.138892,-0.169540,-0.103453,0.202091,-0.632480,0.508970,0.197363,8.520551,-34.768024,-25.836990,-7.970705,-3.975741,-1.425370,0.213180,0.000000,0.000000,0.000000,0.000000,0.000000,0.000000
13221563.000000,2.316417,-1.150274,-1.937311,-1.484837,-1.121741,1.885777,0.530852,0.140974,-0.202939,-0.110479,0.214921,-0.648334,0.514421,0.198348,8.076215,-34.276081,-25.884598,-8.811769,-4.059054,-1.829118,0.258956,0.000000,0.000000,0.000000,0.000000,0.000000,0.000000
13221564.000000,2.316558,-1.150579,-1.937433,-1.484617,-1.122417,1.886303,0.531053,0.138741,-0.239151,-0.113657,0.217173,-0.651558,0.520753,0.198658,7.877851,-33.442951,-26.182144,-9.283876,-4.077364,-2.069901,0.180221,0.000000,0.000000,0.000000,0.000000,0.000000,0.000000
13221565.000000,2.316700,-1.150921,-1.937543,-1.484393,-1.123074,1.886827,0.531223,0.137277,-0.273557,-0.111489,0.219256,-0.649916,0.521453,0.189735,7.703290,-32.320210,-26.844681,-9.605227,-4.196383,-2.212723,0.351424,0.000000,0.000000,0.000000,0.000000,0.000000,0.000000
13221566.000000,2.316842,-1.151299,-1.937649,-1.484159,-1.123726,1.887319,0.531402,0.136469,-0.311179,-0.110932,0.222387,-0.652969,0.510132,0.181762,7.532697,-30.971333,-27.654007,-9.950380,-4.340121,-2.043351,0.456710,0.000000,0.000000,0.000000,0.000000,0.000000,0.000000
13221567.000000,2.316998,-1.151731,-1.937739,-1.483939,-1.124367,1.887739,0.531580,0.140173,-0.348856,-0.104681,0.216843,-0.649226,0.478389,0.180622,7.235151,-29.356647,-28.756912,-10.097170,-4.602877,-1.211137,0.522628,0.000000,0.000000,0.000000,0.000000,0.000000,0.000000
13221568.000000,2.317133,-1.152185,-1.937804,-1.483731,-1.125007,1.888098,0.531721,0.136365,-0.385425,-0.092682,0.217054,-0.639356,0.431249,0.166794,7.235151,-27.765766,-30.228775,-10.025759,-4.877535,0.056869,0.839401,0.000000,0.000000,0.000000,0.000000,0.000000,0.000000
13221569.000000,2.317260,-1.152667,-1.937870,-1.483541,-1.125663,1.888455,0.531901,0.133103,-0.416017,-0.079243,0.209094,-0.652649,0.397270,0.171554,7.481122,-26.222492,-31.581619,-9.775820,-4.836337,1.136276,0.786300,0.000000,0.000000,0.000000,0.000000,0.000000,0.000000
13221570.000000,2.317387,-1.153168,-1.937953,-1.483360,-1.126349,1.888878,0.532049,0.128465,-0.439638,-0.080066,0.199364,-0.657368,0.401857,0.167374,7.731061,-24.877583,-32.609146,-9.331484,-4.621188,1.318465,0.931869,0.000000,0.000000,0.000000,0.000000,0.000000,0.000000
13221571.000000,2.317502,-1.153675,-1.938042,-1.483199,-1.127077,1.889319,0.532197,0.122274,-0.462381,-0.084193,0.183967,-0.687904,0.414845,0.157817,8.052411,-23.850056,-33.517654,-8.764162,-3.933627,1.064864,1.063705,0.000000,0.000000,0.000000,0.000000,0.000000,0.000000
13221572.000000,2.317600,-1.154188,-1.938135,-1.483056,-1.127861,1.889726,0.532338,0.112846,-0.471260,-0.088860,0.170218,-0.714573,0.415283,0.148346,8.643537,-23.139912,-34.303177,-8.069887,-2.947604,0.999862,1.175399,0.000000,0.000000,0.000000,0.000000,0.000000,0.000000
13221573.000000,2.317683,-1.154727,-1.938214,-1.482915,-1.128661,1.890112,0.532476,0.102930,-0.492247,-0.083951,0.156570,-0.746175,0.407275,0.143496,9.436994,-22.453571,-35.287064,-7.454957,-2.117220,1.110641,1.255050,0.000000,0.000000,0.000000,0.000000,0.000000,0.000000
13221574.000000,2.317761,-1.155260,-1.938263,-1.482773,-1.129447,1.890501,0.532624,0.094704,-0.503739,-0.068096,0.150682,-0.760889,0.401271,0.141449,10.155072,-21.989399,-36.564529,-7.006654,-1.501986,1.104232,1.255050,0.000000,0.000000,0.000000,0.000000,0.000000,0.000000
13221575.000000,2.317843,-1.155788,-1.938315,-1.482636,-1.130239,1.890900,0.532751,0.090132,-0.502457,-0.064031,0.141188,-0.761399,0.400065,0.135804,10.849347,-21.842609,-37.790421,-6.637697,-1.250216,1.123458,1.360336,0.000000,0.000000,0.000000,0.000000,0.000000,0.000000
13221576.000000,2.317914,-1.156312,-1.938355,-1.482501,-1.130978,1.891304,0.532898,0.085291,-0.506442,-0.055413,0.136356,-0.757335,0.404325,0.133415,11.615033,-21.914021,-39.115494,-6.490907,-1.573397,1.136276,1.294418,0.000000,0.000000,0.000000,0.000000,0.000000,0.000000
13221577.000000,2.317985,-1.156828,-1.938392,-1.482349,-1.131721,1.891700,0.533032,0.077273,-0.508359,-0.048439,0.142905,-0.749412,0.398850,0.131891,12.285504,-22.330585,-40.341385,-6.661500,-1.961581,1.117049,1.333785,0.000000,0.000000,0.000000,0.000000,0.000000,0.000000
