chaoyuefei/paper-gmrm-data/robot_logs/s2_dq_gmrm_xz_min_0.50_log_20260314_174337.csv
# time_ms,q_0,q_1,q_2,q_3,q_4,q_5,q_6,dq_0,dq_1,dq_2,dq_3,dq_4,dq_5,dq_6,tau_J_0,tau_J_1,tau_J_2,tau_J_3,tau_J_4,tau_J_5,tau_J_6,O_dP_EE_c_0,O_dP_EE_c_1,O_dP_EE_c_2,O_dP_EE_c_3,O_dP_EE_c_4,O_dP_EE_c_5
12879337.000000,-2.415663,-1.662596,1.042893,-1.356080,1.795474,1.081421,-0.548611,0.000090,0.000087,0.000159,0.000742,0.000052,0.000383,0.000684,0.054365,41.530804,-21.052444,-5.749025,0.799650,1.312057,0.021835,0.000000,0.000000,0.000000,0.000000,0.000000,0.000000
12879338.000000,-2.415661,-1.662594,1.042891,-1.356082,1.795473,1.081423,-0.548611,0.000617,0.000615,0.000106,-0.000155,-0.000169,0.000018,0.000693,0.030561,41.507000,-21.052444,-5.721254,0.805143,1.318465,0.015426,0.000000,0.000000,0.000000,0.000000,0.000000,0.000000
12879339.000000,-2.415659,-1.662597,1.042892,-1.356084,1.795474,1.081424,-0.548608,0.000968,-0.000704,0.000627,-0.000660,0.000091,-0.000226,0.001446,0.006757,41.554607,-21.076248,-5.697450,0.799650,1.324874,-0.011124,0.000000,0.000000,0.000000,0.000000,0.000000,0.000000
12879340.000000,-2.415663,-1.662597,1.042894,-1.356082,1.795472,1.081424,-0.548617,-0.000468,-0.000469,0.000418,0.000117,0.000298,-0.000150,-0.002224,0.054365,41.554607,-21.076248,-5.721254,0.793241,1.324874,0.074935,0.000000,0.000000,0.000000,0.000000,0.000000,0.000000
12879341.000000,-2.415657,-1.662602,1.042890,-1.356084,1.795471,1.081423,-0.548613,0.006259,-0.002935,-0.001484,0.001017,0.000436,0.007964,0.000959,0.304304,41.530804,-21.000870,-5.626039,0.786832,1.364242,0.009017,0.000000,0.000000,0.000000,0.000000,0.000000,0.000000
12879342.000000,-2.415651,-1.662604,1.042896,-1.356079,1.795471,1.081415,-0.548622,0.014737,-0.002769,-0.000433,0.004189,-0.001112,0.004578,-0.006046,1.367536,41.284832,-21.024673,-5.499086,0.698026,1.532699,-0.064225,0.000000,0.000000,0.000000,0.000000,0.000000,0.000000
12879343.000000,-2.415619,-1.662606,1.042905,-1.356077,1.795461,1.081412,-0.548659,0.023856,-0.002799,0.004870,0.004088,-0.002721,0.004750,-0.015988,2.926679,40.896038,-20.977066,-5.253114,0.613798,1.767074,-0.017533,0.000000,0.000000,0.000000,0.000000,0.000000,0.000000
12879344.000000,-2.415576,-1.662599,1.042923,-1.356081,1.795445,1.081432,-0.548694,0.025720,0.001100,0.008874,-0.001674,-0.006084,0.009296,-0.023753,4.807172,40.308880,-20.929459,-4.884157,0.584501,1.884261,-0.083451,0.000000,0.000000,0.000000,0.000000,0.000000,0.000000
12879345.000000,-2.415516,-1.662603,1.042944,-1.356094,1.795418,1.081479,-0.548753,0.030188,0.001033,0.010852,-0.005743,-0.015263,0.019803,-0.038098,6.763044,39.816936,-20.830276,-4.511232,0.601896,1.819259,-0.050492,0.000000,0.000000,0.000000,0.000000,0.000000,0.000000
12879346.000000,-2.415428,-1.662603,1.042972,-1.356119,1.795371,1.081557,-0.548828,0.046950,0.001137,0.018715,-0.017492,-0.024395,0.042235,-0.051745,8.322186,39.305157,-20.731094,-4.142274,0.685209,1.584884,-0.064225,0.000000,0.000000,0.000000,0.000000,0.000000,0.000000
12879347.000000,-2.415326,-1.662600,1.043012,-1.356164,1.795321,1.081654,-0.548920,0.059808,0.003669,0.023404,-0.027444,-0.033164,0.062533,-0.066292,9.782147,38.813213,-20.707291,-3.721742,0.709928,1.377059,-0.089860,0.000000,0.000000,0.000000,0.000000,0.000000,0.000000
12879348.000000,-2.415210,-1.662597,1.043057,-1.356216,1.795253,1.081759,-0.549044,0.070898,0.007863,0.028113,-0.036137,-0.043947,0.076109,-0.084515,11.047711,38.349041,-20.608109,-3.376589,0.721830,1.318465,-0.037675,0.000000,0.000000,0.000000,0.000000,0.000000,0.000000
12879349.000000,-2.415073,-1.662596,1.043112,-1.356275,1.795173,1.081885,-0.549178,0.092114,0.008734,0.035744,-0.044176,-0.055083,0.093263,-0.099384,12.011762,37.984051,-20.560501,-3.102846,0.691617,1.344100,-0.083451,0.000000,0.000000,0.000000,0.000000,0.000000,0.000000
12879350.000000,-2.414936,-1.662586,1.043174,-1.356343,1.795084,1.082031,-0.549341,0.102487,0.007594,0.045197,-0.052858,-0.064439,0.112375,-0.121915,13.027387,37.567486,-20.389908,-2.856874,0.547880,1.454879,-0.089860,0.000000,0.000000,0.000000,0.000000,0.000000,0.000000
12879351.000000,-2.414785,-1.662575,1.043266,-1.356426,1.794969,1.082209,-0.549540,0.115093,0.008698,0.058630,-0.064161,-0.079868,0.132056,-0.144678,13.967633,37.198528,-20.485123,-2.682314,0.494779,1.565658,-0.056901,0.000000,0.000000,0.000000,0.000000,0.000000,0.000000
12879352.000000,-2.414614,-1.662557,1.043361,-1.356522,1.794840,1.082414,-0.549757,0.134932,0.013909,0.070661,-0.075323,-0.092775,0.154041,-0.169298,14.586530,36.781963,-20.536697,-2.535524,0.344633,1.584884,-0.077042,0.000000,0.000000,0.000000,0.000000,0.000000,0.000000
12879353.000000,-2.414424,-1.662537,1.043478,-1.356639,1.794687,1.082652,-0.550005,0.152827,0.017234,0.088192,-0.086852,-0.111738,0.182384,-0.197422,15.153852,36.389202,-20.707291,-2.384767,0.308927,1.559249,-0.077042,0.000000,0.000000,0.000000,0.000000,0.000000,0.000000
12879354.000000,-2.414223,-1.662520,1.043605,-1.356765,1.794499,1.082916,-0.550277,0.168428,0.018551,0.103430,-0.098254,-0.133894,0.206781,-0.220639,15.602155,36.048016,-20.830276,-2.261781,0.374845,1.494247,-0.077042,0.000000,0.000000,0.000000,0.000000,0.000000,0.000000
12879355.000000,-2.414000,-1.662501,1.043747,-1.356915,1.794288,1.083207,-0.550564,0.185704,0.019659,0.117887,-0.116460,-0.163254,0.232793,-0.241831,15.923505,35.706829,-20.953262,-2.138796,0.440763,1.429244,-0.056901,0.000000,0.000000,0.000000,0.000000,0.000000,0.000000
12879356.000000,-2.413759,-1.662477,1.043902,-1.357086,1.794047,1.083526,-0.550857,0.206254,0.021776,0.128884,-0.132251,-0.182189,0.253780,-0.255540,16.169477,35.314068,-21.100052,-2.063417,0.530485,1.422836,-0.097184,0.000000,0.000000,0.000000,0.000000,0.000000,0.000000
12879357.000000,-2.413511,-1.662461,1.044062,-1.357263,1.793795,1.083858,-0.551153,0.220603,0.019883,0.137963,-0.146295,-0.207679,0.279439,-0.267100,16.419416,35.068096,-21.147659,-2.039613,0.554288,1.435653,-0.103593,0.000000,0.000000,0.000000,0.000000,0.000000,0.000000
12879358.000000,-2.413236,-1.662447,1.044239,-1.357456,1.793533,1.084210,-0.551457,0.237983,0.016955,0.148138,-0.158793,-0.226197,0.297259,-0.272129,16.490828,34.897503,-21.199234,-2.063417,0.554288,1.448470,-0.070634,0.000000,0.000000,0.000000,0.000000,0.000000,0.000000
12879359.000000,-2.412957,-1.662427,1.044425,-1.357657,1.793256,1.084584,-0.551747,0.252181,0.016189,0.161567,-0.175441,-0.242990,0.323483,-0.278243,16.641584,34.679302,-21.223038,-2.063417,0.506681,1.539108,-0.110001,0.000000,0.000000,0.000000,0.000000,0.000000,0.000000
12879360.000000,-2.412650,-1.662423,1.044617,-1.357891,1.792958,1.084975,-0.552050,0.271345,0.013111,0.173219,-0.196535,-0.257976,0.342957,-0.285080,16.665388,34.703106,-21.175430,-1.964235,0.381254,1.702071,-0.083451,0.000000,0.000000,0.000000,0.000000,0.000000,0.000000
12879361.000000,-2.412320,-1.662415,1.044821,-1.358151,1.792650,1.085397,-0.552354,0.288087,0.009428,0.178778,-0.217219,-0.272327,0.364884,-0.288905,16.590010,34.679302,-21.147659,-1.793642,0.327238,1.741439,-0.083451,0.000000,0.000000,0.000000,0.000000,0.000000,0.000000
12879362.000000,-2.411984,-1.662411,1.045030,-1.358410,1.792321,1.085845,-0.552647,0.302245,0.006383,0.184630,-0.231864,-0.283134,0.392108,-0.290946,16.566206,34.679302,-21.024673,-1.642885,0.297025,1.721298,-0.116410,0.000000,0.000000,0.000000,0.000000,0.000000,0.000000
12879363.000000,-2.411628,-1.662407,1.045253,-1.358698,1.791976,1.086331,-0.552945,0.315880,0.006940,0.196560,-0.248580,-0.303110,0.420823,-0.290625,16.490828,34.703106,-20.929459,-1.496095,0.308927,1.597701,-0.077042,0.000000,0.000000,0.000000,0.000000,0.000000,0.000000
12879364.000000,-2.411257,-1.662405,1.045492,-1.358992,1.791601,1.086839,-0.553230,0.338954,0.007970,0.206523,-0.268537,-0.319481,0.456114,-0.287244,16.467024,34.703106,-20.877884,-1.373109,0.374845,1.481429,-0.122819,0.000000,0.000000,0.000000,0.000000,0.000000,0.000000
12879365.000000,-2.410890,-1.662406,1.045738,-1.359290,1.791214,1.087359,-0.553510,0.347431,0.004691,0.220039,-0.275387,-0.336017,0.475560,-0.285776,16.641584,34.750713,-20.830276,-1.396913,0.434354,1.429244,-0.136552,0.000000,0.000000,0.000000,0.000000,0.000000,0.000000
12879366.000000,-2.410502,-1.662404,1.045992,-1.359615,1.790819,1.087898,-0.553802,0.358537,0.006086,0.230893,-0.289181,-0.353007,0.496928,-0.287980,16.764570,34.774517,-20.707291,-1.448488,0.482877,1.429244,-0.056901,0.000000,0.000000,0.000000,0.000000,0.000000,0.000000
12879367.000000,-2.410111,-1.662400,1.046250,-1.359942,1.790395,1.088450,-0.554062,0.368889,0.005710,0.244753,-0.301220,-0.373237,0.511809,-0.279744,16.939131,34.726910,-20.584305,-1.472292,0.512174,1.494247,-0.116410,0.000000,0.000000,0.000000,0.000000,0.000000,0.000000
12879368.000000,-2.409705,-1.662399,1.046521,-1.360296,1.789974,1.089018,-0.554333,0.378844,0.004210,0.254909,-0.317886,-0.387299,0.526646,-0.281189,17.137495,34.726910,-20.512894,-1.420717,0.482877,1.572067,-0.116410,0.000000,0.000000,0.000000,0.000000,0.000000,0.000000
12879369.000000,-2.409276,-1.662401,1.046805,-1.360663,1.789534,1.089618,-0.554607,0.388678,0.002553,0.262550,-0.331313,-0.406425,0.546997,-0.277522,17.260481,34.750713,-20.461319,-1.349306,0.434354,1.552840,-0.103593,0.000000,0.000000,0.000000,0.000000,0.000000,0.000000
12879370.000000,-2.408841,-1.662396,1.047096,-1.361039,1.789069,1.090231,-0.554876,0.401274,0.003600,0.268706,-0.349464,-0.422148,0.563211,-0.278758,17.435041,34.679302,-20.413712,-1.198549,0.410551,1.461288,-0.110001,0.000000,0.000000,0.000000,0.000000,0.000000,0.000000
12879371.000000,-2.408395,-1.662390,1.047396,-1.361444,1.788606,1.090873,-0.555146,0.411926,0.003777,0.275266,-0.365314,-0.433829,0.585165,-0.274836,17.657209,34.627728,-20.338333,-1.051759,0.381254,1.364242,-0.103593,0.000000,0.000000,0.000000,0.000000,0.000000,0.000000
12879372.000000,-2.407936,-1.662386,1.047710,-1.361852,1.788109,1.091529,-0.555405,0.426544,0.006264,0.285711,-0.382994,-0.452856,0.616645,-0.269214,17.903181,34.603924,-20.338333,-0.805788,0.405057,1.299239,-0.130143,0.000000,0.000000,0.000000,0.000000,0.000000,0.000000
12879373.000000,-2.407459,-1.662378,1.048028,-1.362281,1.787605,1.092187,-0.555671,0.440740,0.006847,0.297016,-0.394132,-0.479894,0.631987,-0.269131,18.149153,34.504742,-20.362137,-0.631227,0.440763,1.292831,-0.103593,0.000000,0.000000,0.000000,0.000000,0.000000,0.000000
12879374.000000,-2.406971,-1.662372,1.048351,-1.362733,1.787084,1.092877,-0.555929,0.452569,0.005941,0.303208,-0.412893,-0.492719,0.651100,-0.263370,18.474470,34.457134,-20.314529,-0.409059,0.464567,1.285506,-0.097184,0.000000,0.000000,0.000000,0.000000,0.000000,0.000000
12879375.000000,-2.406479,-1.662364,1.048688,-1.363172,1.786540,1.093576,-0.556178,0.462887,0.005829,0.312112,-0.420572,-0.511799,0.671643,-0.261742,18.768049,34.385723,-20.290726,-0.333681,0.500272,1.312057,-0.149369,0.000000,0.000000,0.000000,0.000000,0.000000,0.000000
12879376.000000,-2.405963,-1.662360,1.049042,-1.363637,1.785995,1.094304,-0.556439,0.480185,0.003477,0.322634,-0.437977,-0.526728,0.688851,-0.259447,19.017988,34.409527,-20.314529,-0.262270,0.530485,1.357833,-0.089860,0.000000,0.000000,0.000000,0.000000,0.000000,0.000000
12879377.000000,-2.405453,-1.662350,1.049412,-1.364107,1.785425,1.095034,-0.556685,0.487226,0.004749,0.334285,-0.443045,-0.535221,0.698454,-0.254978,19.414717,34.310345,-20.362137,-0.210695,0.506681,1.416427,-0.110001,0.000000,0.000000,0.000000,0.000000,0.000000,0.000000
12879378.000000,-2.404916,-1.662339,1.049786,-1.364600,1.784842,1.095803,-0.556929,0.502120,0.008083,0.347103,-0.455751,-0.549581,0.714783,-0.256153,19.684492,34.238934,-20.437515,-0.163088,0.547880,1.448470,-0.149369,0.000000,0.000000,0.000000,0.000000,0.000000,0.000000
12879379.000000,-2.404358,-1.662333,1.050175,-1.365127,1.784255,1.096597,-0.557184,0.520067,0.009510,0.360941,-0.474002,-0.561668,0.741543,-0.259934,19.934431,34.211163,-20.461319,0.011473,0.506681,1.396285,-0.097184,0.000000,0.000000,0.000000,0.000000,0.000000,0.000000
12879380.000000,-2.403799,-1.662324,1.050584,-1.365638,1.783651,1.097398,-0.557428,0.530095,0.007403,0.379023,-0.482855,-0.570498,0.769504,-0.260320,20.204206,34.187359,-20.659683,0.086851,0.482877,1.357833,-0.116410,0.000000,0.000000,0.000000,0.000000,0.000000,0.000000
12879381.000000,-2.403217,-1.662308,1.051006,-1.366176,1.783028,1.098240,-0.557675,0.542408,0.011373,0.394210,-0.499082,-0.588814,0.791922,-0.252557,20.454145,34.064373,-20.806473,0.209837,0.470060,1.253463,-0.097184,0.000000,0.000000,0.000000,0.000000,0.000000,0.000000
12879382.000000,-2.402639,-1.662300,1.051435,-1.366721,1.782402,1.099104,-0.557917,0.569349,0.011641,0.401966,-0.511754,-0.598924,0.824680,-0.251119,20.823103,34.040569,-20.929459,0.209837,0.381254,1.155502,-0.089860,0.000000,0.000000,0.000000,0.000000,0.000000,0.000000
12879383.000000,-2.402036,-1.662282,1.051877,-1.367273,1.781739,1.099957,-0.558150,0.582197,0.012409,0.414914,-0.522230,-0.615026,0.838060,-0.243579,21.120649,33.869976,-21.100052,0.209837,0.386747,1.207687,-0.130143,0.000000,0.000000,0.000000,0.000000,0.000000,0.000000
12879384.000000,-2.401417,-1.662270,1.052332,-1.367845,1.781081,1.100848,-0.558391,0.591277,0.013013,0.423394,-0.532676,-0.630969,0.851869,-0.240128,21.418196,33.822369,-21.270645,0.086851,0.381254,1.259872,-0.110001,0.000000,0.000000,0.000000,0.000000,0.000000,0.000000
12879385.000000,-2.400788,-1.662254,1.052795,-1.368408,1.780388,1.101750,-0.558626,0.599908,0.014802,0.440567,-0.548129,-0.643300,0.865489,-0.236510,21.640364,33.723186,-21.445206,-0.012331,0.410551,1.266280,-0.116410,0.000000,0.000000,0.000000,0.000000,0.000000,0.000000
12879386.000000,-2.400135,-1.662242,1.053270,-1.369002,1.779696,1.102683,-0.558863,0.613145,0.011163,0.450274,-0.553892,-0.668678,0.887137,-0.238497,21.814924,33.699383,-21.615799,0.035277,0.452665,1.279098,-0.130143,0.000000,0.000000,0.000000,0.000000,0.000000,0.000000
12879387.000000,-2.399453,-1.662228,1.053755,-1.369619,1.778984,1.103632,-0.559098,0.635250,0.009759,0.458324,-0.566747,-0.676945,0.901113,-0.240916,21.890303,33.624004,-21.714981,0.059080,0.601896,1.292831,-0.110001,0.000000,0.000000,0.000000,0.000000,0.000000,0.000000
12879388.000000,-2.398768,-1.662218,1.054246,-1.370231,1.778264,1.104596,-0.559323,0.652926,0.010191,0.469646,-0.584643,-0.687150,0.913237,-0.235306,22.037092,33.624004,-21.885574,0.285216,0.745634,1.272689,-0.169511,0.000000,0.000000,0.000000,0.000000,0.000000,0.000000
12879389.000000,-2.398055,-1.662207,1.054747,-1.370863,1.777563,1.105593,-0.559559,0.671494,0.011083,0.476657,-0.597338,-0.685664,0.933110,-0.238538,22.160078,33.600201,-22.032364,0.408202,0.906766,1.285506,-0.142960,0.000000,0.000000,0.000000,0.000000,0.000000,0.000000
12879390.000000,-2.397345,-1.662202,1.055260,-1.371481,1.776863,1.106614,-0.559796,0.682514,0.009511,0.487690,-0.604531,-0.686392,0.970895,-0.243799,22.358442,33.675579,-22.107742,0.554991,0.960782,1.272689,-0.097184,0.000000,0.000000,0.000000,0.000000,0.000000,0.000000
12879391.000000,-2.396620,-1.662197,1.055776,-1.372126,1.776181,1.107644,-0.560019,0.683352,0.008073,0.499438,-0.617523,-0.690303,0.995859,-0.235993,22.187849,33.770794,-22.056168,0.479613,0.990079,1.305648,-0.188737,0.000000,0.000000,0.000000,0.000000,0.000000,0.000000
12879392.000000,-2.395883,-1.662195,1.056318,-1.372806,1.775490,1.108696,-0.560253,0.683536,0.008030,0.514085,-0.637357,-0.689328,1.014528,-0.230908,20.950056,33.969158,-21.885574,0.035277,0.918668,1.409103,-0.136552,0.000000,0.000000,0.000000,0.000000,0.000000,0.000000
12879393.000000,-2.395163,-1.662189,1.056876,-1.373477,1.774790,1.109749,-0.560477,0.692306,0.006801,0.530752,-0.652774,-0.693285,1.029645,-0.231077,18.819624,34.088177,-21.492813,-0.730409,0.864652,1.565658,-0.103593,0.000000,0.000000,0.000000,0.000000,0.000000,0.000000
12879394.000000,-2.394436,-1.662181,1.057461,-1.374176,1.774109,1.110838,-0.560692,0.701686,0.007343,0.547243,-0.664852,-0.690000,1.036362,-0.222045,16.098066,34.016766,-20.854080,-1.595277,0.733732,1.649886,-0.175919,0.000000,0.000000,0.000000,0.000000,0.000000,0.000000
12879396.000000,-2.392985,-1.662186,1.058695,-1.375616,1.772754,1.113057,-0.561137,0.726696,0.003775,0.582310,-0.701155,-0.677012,1.064781,-0.218081,10.428815,33.647808,-19.283035,-2.833071,0.369352,1.760665,-0.122819,0.000000,0.000000,0.000000,0.000000,0.000000,0.000000
12879397.000000,-2.392261,-1.662190,1.059348,-1.376356,1.772097,1.114216,-0.561362,0.727255,0.001193,0.598008,-0.710129,-0.667147,1.091356,-0.216716,7.977033,33.429607,-18.549088,-3.277406,0.171598,1.656295,-0.077042,0.000000,0.000000,0.000000,0.000000,0.000000,0.000000
12879398.000000,-2.391539,-1.662206,1.060006,-1.377065,1.771443,1.115401,-0.561564,0.728510,-0.005003,0.614758,-0.712846,-0.656714,1.131033,-0.211557,5.775190,33.382000,-17.834976,-3.523378,0.052579,1.507064,-0.149369,0.000000,0.000000,0.000000,0.000000,0.000000,0.000000
12879399.000000,-2.390822,-1.662223,1.060670,-1.377774,1.770794,1.116580,-0.561785,0.728337,-0.007434,0.620688,-0.708022,-0.649328,1.145767,-0.216767,3.966108,33.382000,-17.101028,-3.844728,0.040677,1.422836,-0.116410,0.000000,0.000000,0.000000,0.000000,0.000000,0.000000
12879400.000000,-2.390099,-1.662245,1.061341,-1.378487,1.770146,1.117793,-0.562006,0.735776,-0.013527,0.630798,-0.700823,-0.647799,1.163507,-0.219812,2.406965,33.429607,-16.438492,-3.967714,0.147794,1.377059,-0.103593,0.000000,0.000000,0.000000,0.000000,0.000000,0.000000
12879401.000000,-2.389386,-1.662280,1.062011,-1.379190,1.769493,1.118988,-0.562220,0.726992,-0.020668,0.641846,-0.699252,-0.642386,1.175111,-0.219605,1.145368,33.600201,-15.922745,-3.892336,0.291532,1.494247,-0.155778,0.000000,0.000000,0.000000,0.000000,0.000000,0.000000
12879402.000000,-2.388659,-1.662312,1.062696,-1.379903,1.768856,1.120223,-0.562445,0.724348,-0.026321,0.659862,-0.696190,-0.645058,1.182494,-0.222682,0.006757,33.675579,-15.529984,-3.797121,0.494779,1.507064,-0.116410,0.000000,0.000000,0.000000,0.000000,0.000000,0.000000
12879403.000000,-2.387942,-1.662348,1.063384,-1.380590,1.768216,1.121475,-0.562654,0.723082,-0.029981,0.678011,-0.695499,-0.640437,1.204596,-0.216310,-0.933489,33.723186,-15.061844,-3.547182,0.578092,1.234237,-0.188737,0.000000,0.000000,0.000000,0.000000,0.000000,0.000000
12879404.000000,-2.387212,-1.662388,1.064063,-1.381295,1.767593,1.122738,-0.562876,0.725878,-0.031589,0.678339,-0.703052,-0.652010,1.210143,-0.221048,-1.873736,33.723186,-14.669083,-3.178224,0.613798,1.006271,-0.142960,0.000000,0.000000,0.000000,0.000000,0.000000,0.000000
12879405.000000,-2.386485,-1.662421,1.064762,-1.381998,1.766968,1.123969,-0.563098,0.727390,-0.032496,0.680939,-0.697999,-0.644372,1.214275,-0.218773,-2.619586,33.576397,-14.276321,-2.856874,0.620206,1.084090,-0.110001,0.000000,0.000000,0.000000,0.000000,0.000000,0.000000
12879406.000000,-2.385770,-1.662461,1.065443,-1.382688,1.766357,1.125174,-0.563299,0.721621,-0.031496,0.682456,-0.696783,-0.630102,1.206679,-0.212949,-3.286089,33.477215,-13.835953,-2.535524,0.530485,1.207687,-0.196061,0.000000,0.000000,0.000000,0.000000,0.000000,0.000000
12879407.000000,-2.385051,-1.662487,1.066137,-1.383377,1.765756,1.126396,-0.563521,0.716459,-0.026954,0.684220,-0.691285,-0.619921,1.206395,-0.213819,-3.805804,33.207439,-13.320206,-2.360964,0.422452,1.292831,-0.130143,0.000000,0.000000,0.000000,0.000000,0.000000,0.000000
12879408.000000,-2.384357,-1.662514,1.066843,-1.384038,1.765166,1.127598,-0.563736,0.710565,-0.023620,0.686219,-0.679739,-0.610740,1.205137,-0.208307,-4.004168,32.913860,-12.927444,-2.384767,0.273221,1.357833,-0.130143,0.000000,0.000000,0.000000,0.000000,0.000000,0.000000
12879409.000000,-2.383651,-1.662518,1.067544,-1.384688,1.764578,1.128812,-0.563933,0.705803,-0.018270,0.692286,-0.670077,-0.601861,1.208644,-0.201489,-4.277911,32.350506,-12.582291,-2.634706,0.178007,1.422836,-0.182328,0.000000,0.000000,0.000000,0.000000,0.000000,0.000000
12879410.000000,-2.382950,-1.662513,1.068263,-1.385346,1.763989,1.130031,-0.564145,0.702723,-0.006838,0.698291,-0.659822,-0.597273,1.204353,-0.204242,-4.424700,31.715740,-12.264908,-2.904482,0.147794,1.448470,-0.149369,0.000000,0.000000,0.000000,0.000000,0.000000,0.000000
12879411.000000,-2.382262,-1.662505,1.068967,-1.385975,1.763389,1.131236,-0.564348,0.699069,-0.002810,0.706535,-0.648556,-0.591878,1.209525,-0.204048,-4.623065,31.104778,-11.919754,-3.079042,0.225614,1.344100,-0.182328,0.000000,0.000000,0.000000,0.000000,0.000000,0.000000
12879412.000000,-2.381560,-1.662493,1.069681,-1.386629,1.762808,1.132466,-0.564565,0.693009,0.003078,0.708443,-0.649862,-0.585794,1.211416,-0.207461,-4.845232,30.493816,-11.503189,-3.055238,0.351041,1.104232,-0.110001,0.000000,0.000000,0.000000,0.000000,0.000000,0.000000
12879413.000000,-2.380871,-1.662473,1.070414,-1.387268,1.762221,1.133674,-0.564776,0.703330,0.007702,0.712060,-0.658185,-0.586873,1.210495,-0.211151,-4.995989,29.855083,-11.308792,-3.027467,0.393156,0.974227,-0.136552,0.000000,0.000000,0.000000,0.000000,0.000000,0.000000
12879414.000000,-2.380186,-1.662448,1.071142,-1.387905,1.761649,1.134894,-0.564981,0.695144,0.010873,0.718207,-0.652300,-0.578683,1.202715,-0.209978,-4.968218,29.220318,-11.039017,-3.102846,0.315336,0.876266,-0.142960,0.000000,0.000000,0.000000,0.000000,0.000000,0.000000
12879415.000000,-2.379494,-1.662426,1.071883,-1.388541,1.761088,1.136118,-0.565188,0.691583,0.016231,0.722022,-0.643855,-0.571393,1.206726,-0.210460,-5.019793,28.728374,-10.793045,-3.225832,0.201810,0.798446,-0.103593,0.000000,0.000000,0.000000,0.000000,0.000000,0.000000
12879416.000000,-2.378831,-1.662407,1.072607,-1.389143,1.760518,1.137323,-0.565378,0.683324,0.018021,0.723079,-0.636032,-0.562303,1.208736,-0.199261,-4.821429,28.339581,-10.253494,-3.424196,0.123990,0.759078,-0.175919,0.000000,0.000000,0.000000,0.000000,0.000000,0.000000
12879417.000000,-2.378152,-1.662381,1.073362,-1.389755,1.759963,1.138522,-0.565580,0.679492,0.020987,0.731085,-0.625937,-0.556593,1.204644,-0.197287,-4.746050,27.895245,-10.007523,-3.670168,0.052579,0.908309,-0.163102,0.000000,0.000000,0.000000,0.000000,0.000000,0.000000
12879418.000000,-2.377464,-1.662361,1.074117,-1.390381,1.759413,1.139733,-0.565780,0.676414,0.020907,0.737397,-0.625417,-0.552968,1.191408,-0.195916,-4.869036,27.554058,-9.662369,-3.646364,-0.001437,1.071273,-0.142960,0.000000,0.000000,0.000000,0.000000,0.000000,0.000000
12879419.000000,-2.376775,-1.662342,1.074867,-1.390996,1.758855,1.140950,-0.565977,0.682347,0.018893,0.743466,-0.624610,-0.556806,1.200886,-0.198655,-5.118975,27.308086,-9.392593,-3.622560,-0.007845,0.941268,-0.149369,0.000000,0.000000,0.000000,0.000000,0.000000,0.000000
12879420.000000,-2.376069,-1.662324,1.075635,-1.391629,1.758296,1.142199,-0.566178,0.687999,0.022673,0.749339,-0.618065,-0.554577,1.207115,-0.198051,-5.464129,27.113689,-9.099014,-3.499574,0.100187,0.668441,-0.110001,0.000000,0.000000,0.000000,0.000000,0.000000,0.000000
12879421.000000,-2.375377,-1.662317,1.076416,-1.392227,1.757740,1.143430,-0.566360,0.692372,0.016290,0.761193,-0.614658,-0.554375,1.220329,-0.189214,-5.785479,27.066082,-9.047440,-3.499574,0.178007,0.440475,-0.155778,0.000000,0.000000,0.000000,0.000000,0.000000,0.000000
12879422.000000,-2.374682,-1.662305,1.077216,-1.392825,1.757195,1.144664,-0.566546,0.691351,0.013226,0.771822,-0.612099,-0.552294,1.217480,-0.192794,-5.960040,26.966900,-8.976028,-3.622560,0.166105,0.421249,-0.188737,0.000000,0.000000,0.000000,0.000000,0.000000,0.000000
12879423.000000,-2.373992,-1.662304,1.078024,-1.393417,1.756646,1.145889,-0.566746,0.689784,0.010253,0.776283,-0.601009,-0.547252,1.220484,-0.194729,-6.083025,27.042278,-8.952225,-3.892336,0.189908,0.518295,-0.110001,0.000000,0.000000,0.000000,0.000000,0.000000,0.000000
12879424.000000,-2.373314,-1.662307,1.078830,-1.393978,1.756092,1.147098,-0.566935,0.684715,0.004898,0.785995,-0.590786,-0.540317,1.215842,-0.192198,-6.158404,27.137493,-8.876846,-4.265260,0.141385,0.681258,-0.136552,0.000000,0.000000,0.000000,0.000000,0.000000,0.000000
12879425.000000,-2.372626,-1.662307,1.079656,-1.394549,1.755562,1.148305,-0.567126,0.680738,0.002276,0.794549,-0.583666,-0.535948,1.206976,-0.186307,-6.281390,27.189068,-8.876846,-4.586610,0.100187,0.947677,-0.136552,0.000000,0.000000,0.000000,0.000000,0.000000,0.000000
12879426.000000,-2.371937,-1.662298,1.080505,-1.395112,1.755023,1.149517,-0.567313,0.686567,0.003443,0.806946,-0.577641,-0.536951,1.218126,-0.184121,-6.578936,27.113689,-8.976028,-4.856386,0.064481,1.169235,-0.182328,0.000000,0.000000,0.000000,0.000000,0.000000,0.000000
12879427.000000,-2.371238,-1.662292,1.081347,-1.395692,1.754506,1.150735,-0.567507,0.684284,0.004088,0.818107,-0.572338,-0.531283,1.219974,-0.187013,-6.876482,27.042278,-9.047440,-4.884157,-0.043551,1.110641,-0.136552,0.000000,0.000000,0.000000,0.000000,0.000000,0.000000
12879428.000000,-2.370523,-1.662290,1.082213,-1.396281,1.753981,1.151982,-0.567688,0.689940,0.003467,0.830074,-0.570155,-0.530442,1.222991,-0.186023,-7.372393,27.014507,-9.122818,-4.832582,-0.067355,0.876266,-0.163102,0.000000,0.000000,0.000000,0.000000,0.000000,0.000000
12879429.000000,-2.369818,-1.662286,1.083063,-1.396845,1.753445,1.153199,-0.567870,0.696196,0.003493,0.837793,-0.572806,-0.526586,1.224783,-0.191329,-7.816729,26.966900,-9.047440,-4.709596,-0.025240,0.727035,-0.169511,0.000000,0.000000,0.000000,0.000000,0.000000,0.000000
12879430.000000,-2.369101,-1.662278,1.083936,-1.397403,1.752935,1.154410,-0.568063,0.698012,0.005257,0.848850,-0.567461,-0.522912,1.208237,-0.192025,-8.388019,26.843914,-8.924454,-4.685792,-0.019747,0.792037,-0.130143,0.000000,0.000000,0.000000,0.000000,0.000000,0.000000
12879431.000000,-2.368396,-1.662265,1.084814,-1.397966,1.752409,1.155591,-0.568242,0.714818,0.006977,0.852361,-0.566414,-0.521537,1.207876,-0.189281,-8.907733,26.697124,-8.706253,-4.586610,0.022367,0.947677,-0.182328,0.000000,0.000000,0.000000,0.000000,0.000000,0.000000
12879432.000000,-2.367688,-1.662257,1.085696,-1.398512,1.751888,1.156802,-0.568427,0.708961,0.009086,0.858445,-0.562055,-0.515589,1.201587,-0.190892,-9.300494,26.649517,-8.507889,-4.757204,0.069974,0.947677,-0.163102,0.000000,0.000000,0.000000,0.000000,0.000000,0.000000
12879433.000000,-2.366972,-1.662244,1.086605,-1.399078,1.751383,1.158017,-0.568612,0.708644,0.011707,0.871414,-0.554695,-0.516997,1.205093,-0.186067,-9.772601,26.550335,-8.460281,-4.832582,0.022367,0.922042,-0.142960,0.000000,0.000000,0.000000,0.000000,0.000000,0.000000
12879434.000000,-2.366261,-1.662234,1.087513,-1.399615,1.750878,1.159219,-0.568782,0.708947,0.012564,0.883417,-0.549670,-0.508139,1.207365,-0.180356,-10.216937,26.502728,-8.436478,-4.907960,-0.013339,0.901900,-0.188737,0.000000,0.000000,0.000000,0.000000,0.000000,0.000000
12879435.000000,-2.365544,-1.662234,1.088453,-1.400167,1.750387,1.160428,-0.568963,0.705512,0.009305,0.902688,-0.547670,-0.508556,1.211128,-0.179133,-10.689044,26.625713,-8.559464,-4.907960,-0.025240,0.876266,-0.155778,0.000000,0.000000,0.000000,0.000000,0.000000,0.000000
12879436.000000,-2.364817,-1.662234,1.089403,-1.400721,1.749889,1.161634,-0.569142,0.708422,0.004707,0.911878,-0.549251,-0.506376,1.201917,-0.176487,-11.208758,26.720928,-8.630875,-4.784975,-0.097567,0.941268,-0.163102,0.000000,0.000000,0.000000,0.000000,0.000000,0.000000
12879437.000000,-2.364104,-1.662241,1.090359,-1.401274,1.749382,1.162811,-0.569324,0.711868,-0.000954,0.927796,-0.548187,-0.504736,1.200354,-0.175857,-11.653094,26.919292,-8.805435,-4.634218,-0.043551,1.031905,-0.136552,0.000000,0.000000,0.000000,0.000000,0.000000,0.000000
12879438.000000,-2.363391,-1.662240,1.091317,-1.401820,1.748894,1.164019,-0.569501,0.707064,-0.002452,0.932395,-0.548662,-0.503648,1.200799,-0.174471,-11.974444,27.014507,-8.805435,-4.610414,-0.114962,0.974227,-0.136552,0.000000,0.000000,0.000000,0.000000,0.000000,0.000000
12879439.000000,-2.362690,-1.662250,1.092309,-1.402345,1.748400,1.165208,-0.569672,0.703531,-0.006524,0.945879,-0.540768,-0.494739,1.210897,-0.175967,-12.224383,27.236675,-8.952225,-4.733400,-0.121371,0.895492,-0.196061,0.000000,0.000000,0.000000,0.000000,0.000000,0.000000
12879440.000000,-2.361983,-1.662255,1.093277,-1.402868,1.747912,1.166391,-0.569857,0.701504,-0.006438,0.958363,-0.531110,-0.503660,1.196406,-0.178232,-12.494159,27.335857,-8.876846,-5.030946,-0.031649,1.064864,-0.103593,0.000000,0.000000,0.000000,0.000000,0.000000,0.000000
12879441.000000,-2.361273,-1.662264,1.094252,-1.403419,1.747425,1.167571,-0.570024,0.703353,-0.006346,0.955118,-0.530624,-0.499132,1.188023,-0.173945,-12.791705,27.431072,-8.682449,-5.054750,-0.072848,1.272689,-0.155778,0.000000,0.000000,0.000000,0.000000,0.000000,0.000000
12879442.000000,-2.360576,-1.662277,1.095227,-1.403931,1.746928,1.168746,-0.570188,0.699090,-0.013803,0.966641,-0.524167,-0.491561,1.187541,-0.171357,-13.065448,27.577862,-8.460281,-5.205507,0.046171,1.324874,-0.202470,0.000000,0.000000,0.000000,0.000000,0.000000,0.000000
12879443.000000,-2.359880,-1.662283,1.096213,-1.404467,1.746436,1.169936,-0.570369,0.697665,-0.013992,0.968245,-0.524910,-0.493984,1.184900,-0.173746,-13.212237,27.629436,-8.091324,-5.205507,0.117582,1.227828,-0.122819,0.000000,0.000000,0.000000,0.000000,0.000000,0.000000
12879444.000000,-2.359175,-1.662286,1.097231,-1.404986,1.745953,1.171123,-0.570536,0.697869,-0.009910,0.977475,-0.524696,-0.486658,1.183170,-0.168193,-13.632770,27.629436,-7.896927,-5.276918,0.076383,1.077682,-0.136552,0.000000,0.000000,0.000000,0.000000,0.000000,0.000000
12879445.000000,-2.358480,-1.662296,1.098233,-1.405510,1.745481,1.172320,-0.570697,0.693305,-0.009270,0.989402,-0.520282,-0.477103,1.182318,-0.167081,-13.858905,27.724651,-7.627151,-5.253114,0.046171,0.882674,-0.175919,0.000000,0.000000,0.000000,0.000000,0.000000,0.000000
12879446.000000,-2.357795,-1.662297,1.099245,-1.406027,1.745019,1.173530,-0.570869,0.687399,-0.006507,0.990000,-0.515163,-0.472584,1.178881,-0.169404,-13.858905,27.724651,-7.258194,-5.427675,-0.043551,0.713302,-0.130143,0.000000,0.000000,0.000000,0.000000,0.000000,0.000000
12879447.000000,-2.357128,-1.662310,1.100268,-1.406529,1.744558,1.174714,-0.571024,0.678273,-0.008017,1.002630,-0.514159,-0.463866,1.174832,-0.167497,-13.858905,27.871441,-7.111404,-5.649843,-0.126864,0.622665,-0.182328,0.000000,0.000000,0.000000,0.000000,0.000000,0.000000
12879448.000000,-2.356461,-1.662311,1.101309,-1.407027,1.744103,1.175897,-0.571195,0.667748,-0.004972,1.015826,-0.503316,-0.464061,1.160023,-0.165997,-13.759723,27.847637,-6.889236,-5.994997,-0.199191,0.713302,-0.110001,0.000000,0.000000,0.000000,0.000000,0.000000,0.000000
12879449.000000,-2.355793,-1.662309,1.102369,-1.407514,1.743646,1.177064,-0.571354,0.675972,-0.004959,1.027158,-0.505605,-0.460390,1.180965,-0.165787,-13.632770,27.776226,-6.841629,-6.363954,-0.240389,0.811263,-0.136552,0.000000,0.000000,0.000000,0.000000,0.000000,0.000000
12879450.000000,-2.355137,-1.662302,1.103424,-1.407994,1.743199,1.178262,-0.571509,0.669650,-0.000798,1.036645,-0.496850,-0.453682,1.178511,-0.165166,-13.608966,27.653240,-6.742447,-6.784486,-0.246798,0.811263,-0.182328,0.000000,0.000000,0.000000,0.000000,0.000000,0.000000
12879451.000000,-2.354473,-1.662292,1.104509,-1.408477,1.742752,1.179475,-0.571678,0.668768,0.003183,1.053273,-0.486733,-0.454324,1.181246,-0.168399,-13.632770,27.482647,-6.742447,-7.082033,-0.240389,0.674850,-0.122819,0.000000,0.000000,0.000000,0.000000,0.000000,0.000000
12879452.000000,-2.353821,-1.662283,1.105583,-1.408959,1.742295,1.180676,-0.571831,0.663794,0.005348,1.076617,-0.486124,-0.451248,1.185821,-0.158702,-13.708148,27.335857,-6.790054,-7.232790,-0.174471,0.532027,-0.175919,0.000000,0.000000,0.000000,0.000000,0.000000,0.000000
12879453.000000,-2.353153,-1.662269,1.106683,-1.409440,1.741858,1.181886,-0.571996,0.663407,0.008050,1.082902,-0.480716,-0.451679,1.182591,-0.158814,-13.858905,27.137493,-6.813858,-7.304201,-0.180880,0.453292,-0.122819,0.000000,0.000000,0.000000,0.000000,0.000000,0.000000
12879454.000000,-2.352489,-1.662256,1.107801,-1.409927,1.741409,1.183094,-0.572159,0.662591,0.009798,1.098135,-0.482071,-0.446489,1.184944,-0.162095,-13.930316,26.943096,-6.841629,-7.280397,-0.211093,0.459701,-0.110001,0.000000,0.000000,0.000000,0.000000,0.000000,0.000000
12879455.000000,-2.351845,-1.662242,1.108897,-1.410393,1.740962,1.184278,-0.572314,0.656821,0.010435,1.100173,-0.480296,-0.442948,1.182308,-0.159056,-13.930316,26.772503,-6.643265,-7.355775,-0.222994,0.532027,-0.116410,0.000000,0.000000,0.000000,0.000000,0.000000,0.000000
12879456.000000,-2.351190,-1.662227,1.110009,-1.410854,1.740534,1.185478,-0.572462,0.655733,0.011531,1.099470,-0.470949,-0.439410,1.183301,-0.155446,-13.981891,26.574139,-6.349686,-7.577943,-0.270602,0.616256,-0.169511,0.000000,0.000000,0.000000,0.000000,0.000000,0.000000
12879457.000000,-2.350560,-1.662213,1.111141,-1.411298,1.740101,1.186655,-0.572611,0.646291,0.011629,1.111068,-0.467285,-0.434564,1.180065,-0.154111,-13.882709,26.403545,-6.151321,-7.847719,-0.348422,0.752670,-0.182328,0.000000,0.000000,0.000000,0.000000,0.000000,0.000000
12879458.000000,-2.349917,-1.662193,1.112285,-1.411752,1.739675,1.187849,-0.572770,0.641258,0.014026,1.122980,-0.462796,-0.428500,1.176218,-0.151814,-13.858905,26.133770,-6.250504,-8.069887,-0.401522,0.857040,-0.097184,0.000000,0.000000,0.000000,0.000000,0.000000,0.000000
12879459.000000,-2.349271,-1.662184,1.113450,-1.412215,1.739247,1.189070,-0.572916,0.640307,0.011550,1.129981,-0.462330,-0.428353,1.180057,-0.148310,-13.831134,26.038555,-6.250504,-8.169069,-0.461947,0.733443,-0.182328,0.000000,0.000000,0.000000,0.000000,0.000000,0.000000
12879460.000000,-2.348638,-1.662176,1.114637,-1.412673,1.738810,1.190264,-0.573064,0.638193,0.009443,1.150518,-0.462098,-0.431564,1.186541,-0.144694,-13.858905,25.963177,-6.643265,-8.121462,-0.419833,0.635482,-0.175919,0.000000,0.000000,0.000000,0.000000,0.000000,0.000000
12879461.000000,-2.347998,-1.662166,1.115846,-1.413139,1.738387,1.191457,-0.573222,0.638417,0.008600,1.165836,-0.461200,-0.425475,1.178674,-0.149197,-13.882709,25.863995,-6.988419,-8.046083,-0.360323,0.662032,-0.089860,0.000000,0.000000,0.000000,0.000000,0.000000,0.000000
12879462.000000,-2.347373,-1.662160,1.117086,-1.413598,1.737971,1.192624,-0.573364,0.633694,0.010523,1.182619,-0.459266,-0.426329,1.183057,-0.141878,-13.930316,25.792583,-7.575577,-7.946901,-0.389620,0.765487,-0.149369,0.000000,0.000000,0.000000,0.000000,0.000000,0.000000
12879463.000000,-2.346734,-1.662160,1.118304,-1.414056,1.737543,1.193807,-0.573506,0.634199,0.005597,1.193600,-0.457145,-0.425796,1.178372,-0.139530,-14.005694,25.863995,-7.821548,-7.970705,-0.330111,0.811263,-0.149369,0.000000,0.000000,0.000000,0.000000,0.000000,0.000000
12879464.000000,-2.346106,-1.662160,1.119549,-1.414516,1.737136,1.194996,-0.573655,0.627711,0.002714,1.203356,-0.456011,-0.418664,1.180700,-0.138318,-13.930316,25.915569,-8.019913,-7.970705,-0.318209,0.836898,-0.130143,0.000000,0.000000,0.000000,0.000000,0.000000,0.000000
12879465.000000,-2.345489,-1.662161,1.120777,-1.414961,1.736725,1.196162,-0.573787,0.625146,0.003570,1.209778,-0.452319,-0.416006,1.177553,-0.139486,-13.954120,25.986980,-8.043716,-8.097658,-0.342013,0.882674,-0.182328,0.000000,0.000000,0.000000,0.000000,0.000000,0.000000
12879466.000000,-2.344866,-1.662170,1.122030,-1.415424,1.736315,1.197326,-0.573932,0.622569,0.000440,1.217603,-0.456455,-0.415993,1.171845,-0.143558,-14.005694,26.086163,-8.019913,-8.046083,-0.336520,1.084090,-0.155778,0.000000,0.000000,0.000000,0.000000,0.000000,0.000000
12879467.000000,-2.344238,-1.662183,1.123287,-1.415899,1.735908,1.198487,-0.574072,0.632705,-0.005175,1.220939,-0.462932,-0.411796,1.197326,-0.139510,-14.005694,26.332134,-7.896927,-7.875490,-0.312716,1.117049,-0.188737,0.000000,0.000000,0.000000,0.000000,0.000000,0.000000
12879468.000000,-2.343619,-1.662200,1.124519,-1.416366,1.735498,1.199679,-0.574214,0.630984,-0.006249,1.218110,-0.463859,-0.412880,1.200141,-0.142990,-13.981891,26.867718,-7.896927,-7.724733,-0.312716,0.966903,-0.202470,0.000000,0.000000,0.000000,0.000000,0.000000,0.000000
12879469.000000,-2.343000,-1.662219,1.125761,-1.416839,1.735093,1.200878,-0.574368,0.627573,-0.010690,1.217330,-0.464093,-0.414434,1.205338,-0.143847,-13.731952,27.724651,-8.361099,-7.554140,-0.287997,0.857040,-0.103593,0.000000,0.000000,0.000000,0.000000,0.000000,0.000000
12879470.000000,-2.342401,-1.662241,1.127002,-1.417311,1.734701,1.202060,-0.574505,0.617742,-0.010933,1.236588,-0.467099,-0.397377,1.213259,-0.142966,-13.287616,28.875164,-9.222000,-7.427186,-0.348422,0.804855,-0.169511,0.000000,0.000000,0.000000,0.000000,0.000000,0.000000
12879471.000000,-2.341794,-1.662262,1.128207,-1.417770,1.734314,1.203267,-0.574655,0.607491,-0.015584,1.226858,-0.465109,-0.397688,1.217464,-0.142258,-12.716327,30.172466,-10.130508,-7.454957,-0.336520,0.746261,-0.116410,0.000000,0.000000,0.000000,0.000000,0.000000,0.000000
12879472.000000,-2.341194,-1.662273,1.129434,-1.418230,1.733912,1.204465,-0.574794,0.601076,-0.016886,1.232958,-0.461573,-0.397897,1.213248,-0.138173,-12.002215,31.422161,-11.281021,-7.601747,-0.204684,0.836898,-0.155778,0.000000,0.000000,0.000000,0.000000,0.000000,0.000000
12879473.000000,-2.340597,-1.662277,1.130637,-1.418680,1.733522,1.205629,-0.574932,0.599773,-0.014246,1.231987,-0.462372,-0.395262,1.203961,-0.136853,-11.530108,32.548870,-12.364090,-7.748537,-0.126864,1.175643,-0.149369,0.000000,0.000000,0.000000,0.000000,0.000000,0.000000
12879474.000000,-2.339989,-1.662280,1.131869,-1.419140,1.733141,1.206816,-0.575076,0.598937,-0.012834,1.229864,-0.458592,-0.395235,1.195742,-0.136423,-11.133380,33.576397,-13.514603,-7.800111,-0.001437,1.435653,-0.130143,0.000000,0.000000,0.000000,0.000000,0.000000,0.000000
12879475.000000,-2.339395,-1.662269,1.133110,-1.419590,1.732752,1.207992,-0.575209,0.592357,-0.005518,1.233143,-0.459011,-0.387609,1.195616,-0.141431,-10.835834,34.334148,-14.621475,-7.875490,0.069974,1.572067,-0.196061,0.000000,0.000000,0.000000,0.000000,0.000000,0.000000
12879476.000000,-2.338780,-1.662264,1.134319,-1.420047,1.732367,1.209190,-0.575355,0.598173,-0.002214,1.226558,-0.454192,-0.387641,1.189518,-0.146313,-10.736651,35.020489,-15.383194,-7.899293,0.147794,1.552840,-0.136552,0.000000,0.000000,0.000000,0.000000,0.000000,0.000000
12879477.000000,-2.338159,-1.662257,1.135555,-1.420517,1.731984,1.210391,-0.575498,0.601299,0.000098,1.223430,-0.453899,-0.382843,1.187090,-0.143147,-10.764422,35.560040,-16.168716,-7.776308,0.225614,1.526290,-0.122819,0.000000,0.000000,0.000000,0.000000,0.000000,0.000000
12879478.000000,-2.337564,-1.662247,1.136775,-1.420972,1.731605,1.211555,-0.575626,0.601016,0.003583,1.224007,-0.452760,-0.383414,1.184411,-0.142070,-10.689044,36.000408,-16.708267,-7.677125,0.178007,1.605026,-0.202470,0.000000,0.000000,0.000000,0.000000,0.000000,0.000000
12879479.000000,-2.336968,-1.662248,1.138020,-1.421429,1.731248,1.212735,-0.575775,0.594162,0.001289,1.232561,-0.451344,-0.372657,1.174456,-0.142040,-10.538287,36.488384,-17.196243,-7.700929,0.058073,1.605026,-0.136552,0.000000,0.000000,0.000000,0.000000,0.000000,0.000000
12879480.000000,-2.336381,-1.662253,1.139280,-1.421864,1.730890,1.213901,-0.575912,0.602587,-0.000238,1.233727,-0.447299,-0.367091,1.168163,-0.143413,-10.367694,36.952557,-17.711990,-7.899293,-0.019747,1.526290,-0.163102,0.000000,0.000000,0.000000,0.000000,0.000000,0.000000
12879481.000000,-2.335813,-1.662263,1.140540,-1.422292,1.730523,1.215066,-0.576053,0.588194,-0.002109,1.245565,-0.434807,-0.366299,1.153055,-0.142418,-9.970965,37.444500,-18.350723,-8.244448,-0.121371,1.584884,-0.116410,0.000000,0.000000,0.000000,0.000000,0.000000,0.000000
12879482.000000,-2.335247,-1.662286,1.141832,-1.422701,1.730166,1.216221,-0.576184,0.579396,-0.008643,1.250568,-0.427116,-0.362014,1.142560,-0.134291,-9.526629,38.007854,-19.088638,-8.787966,-0.199191,1.695663,-0.130143,0.000000,0.000000,0.000000,0.000000,0.000000,0.000000
12879483.000000,-2.334706,-1.662314,1.143119,-1.423093,1.729802,1.217356,-0.576314,0.566183,-0.015840,1.266956,-0.415890,-0.360711,1.137986,-0.138443,-9.030719,38.543438,-19.846390,-9.355288,-0.204684,1.890670,-0.130143,0.000000,0.000000,0.000000,0.000000,0.000000,0.000000
12879484.000000,-2.334156,-1.662354,1.144422,-1.423489,1.729438,1.218507,-0.576444,0.560382,-0.023663,1.274868,-0.409931,-0.362546,1.130599,-0.136008,-8.633990,39.182171,-20.560501,-9.803591,-0.150668,1.955673,-0.155778,0.000000,0.000000,0.000000,0.000000,0.000000,0.000000
12879485.000000,-2.333611,-1.662400,1.145726,-1.423880,1.729057,1.219660,-0.576578,0.562780,-0.029802,1.277428,-0.402747,-0.367165,1.135784,-0.135220,-8.189654,39.840740,-21.147659,-10.148745,-0.007845,1.871444,-0.155778,0.000000,0.000000,0.000000,0.000000,0.000000,0.000000
12879486.000000,-2.333073,-1.662442,1.147006,-1.424275,1.728683,1.220819,-0.576707,0.554113,-0.034632,1.275023,-0.403060,-0.368087,1.141900,-0.135197,-7.963519,40.380291,-21.540421,-10.370913,0.076383,1.800033,-0.136552,0.000000,0.000000,0.000000,0.000000,0.000000,0.000000
12879487.000000,-2.332538,-1.662491,1.148301,-1.424674,1.728336,1.221985,-0.576833,0.551085,-0.040129,1.270870,-0.398310,-0.364619,1.141525,-0.132896,-7.642169,40.991253,-21.909378,-10.493898,0.058073,1.727706,-0.169511,0.000000,0.000000,0.000000,0.000000,0.000000,0.000000
12879488.000000,-2.332012,-1.662538,1.149580,-1.425067,1.727964,1.223126,-0.576962,0.542871,-0.041807,1.295993,-0.399891,-0.368215,1.144529,-0.135099,-7.320818,41.507000,-21.837967,-10.541506,0.093778,1.714889,-0.142960,0.000000,0.000000,0.000000,0.000000,0.000000,0.000000
12879489.000000,-2.331494,-1.662594,1.150844,-1.425466,1.727603,1.224280,-0.577093,0.529389,-0.045509,1.284461,-0.399757,-0.366113,1.144117,-0.135282,-6.975665,42.117962,-21.810196,-10.493898,0.105680,1.741439,-0.116410,0.000000,0.000000,0.000000,0.000000,0.000000,0.000000
12879490.000000,-2.330977,-1.662639,1.152108,-1.425869,1.727257,1.225431,-0.577214,0.525394,-0.043647,1.274589,-0.404010,-0.359537,1.136590,-0.131711,-6.602740,42.534527,-21.516617,-10.370913,-0.013339,1.865035,-0.188737,0.000000,0.000000,0.000000,0.000000,0.000000,0.000000
12879491.000000,-2.330468,-1.662682,1.153392,-1.426272,1.726908,1.226556,-0.577342,0.523226,-0.041912,1.277491,-0.406167,-0.352053,1.138314,-0.134647,-6.257586,42.927288,-21.786392,-10.148745,-0.079257,2.053634,-0.116410,0.000000,0.000000,0.000000,0.000000,0.000000,0.000000
12879492.000000,-2.329966,-1.662718,1.154669,-1.426669,1.726567,1.227721,-0.577456,0.511195,-0.040573,1.272151,-0.407353,-0.346534,1.147246,-0.127786,-5.936236,43.173260,-21.762589,-10.025759,-0.157076,1.968490,-0.163102,0.000000,0.000000,0.000000,0.000000,0.000000,0.000000
12879493.000000,-2.329478,-1.662751,1.155973,-1.427076,1.726221,1.228878,-0.577575,0.502037,-0.038439,1.277228,-0.408574,-0.341125,1.159102,-0.127828,-5.563311,43.343853,-22.107742,-9.775820,-0.126864,1.812850,-0.175919,0.000000,0.000000,0.000000,0.000000,0.000000,0.000000
12879494.000000,-2.328983,-1.662781,1.157265,-1.427493,1.725868,1.230034,-0.577700,0.499888,-0.035337,1.283415,-0.414315,-0.346096,1.150639,-0.127236,-5.241961,43.439068,-22.500504,-9.430666,0.004056,1.812850,-0.097184,0.000000,0.000000,0.000000,0.000000,0.000000,0.000000
12879495.000000,-2.328495,-1.662803,1.158570,-1.427909,1.725528,1.231185,-0.577814,0.493159,-0.030102,1.279160,-0.415768,-0.344852,1.142751,-0.120749,-4.845232,43.391460,-22.917068,-9.184694,0.010465,1.909896,-0.169511,0.000000,0.000000,0.000000,0.000000,0.000000,0.000000
12879496.000000,-2.328022,-1.662827,1.159868,-1.428320,1.725170,1.232321,-0.577936,0.488605,-0.029991,1.284950,-0.416457,-0.348683,1.133173,-0.120543,-4.448504,43.343853,-23.456619,-8.962526,0.171598,1.962081,-0.130143,0.000000,0.000000,0.000000,0.000000,0.000000,0.000000
12879497.000000,-2.327550,-1.662854,1.161159,-1.428743,1.724827,1.233475,-0.578051,0.479767,-0.027675,1.283846,-0.418493,-0.350090,1.126623,-0.117352,-4.004168,43.320049,-23.627213,-8.787966,0.285123,1.962081,-0.163102,0.000000,0.000000,0.000000,0.000000,0.000000,0.000000
12879498.000000,-2.327084,-1.662870,1.162461,-1.429169,1.724488,1.234614,-0.578168,0.484958,-0.023206,1.280657,-0.430545,-0.347056,1.127735,-0.120296,-3.607440,43.173260,-23.873184,-8.490419,0.297025,1.988631,-0.155778,0.000000,0.000000,0.000000,0.000000,0.000000,0.000000
12879499.000000,-2.326617,-1.662896,1.163739,-1.429609,1.724144,1.235758,-0.578283,0.478566,-0.026372,1.283019,-0.433449,-0.343831,1.121007,-0.118282,-3.309893,43.145489,-24.019974,-8.145266,0.279630,2.104903,-0.163102,0.000000,0.000000,0.000000,0.000000,0.000000,0.000000
12879500.000000,-2.326150,-1.662919,1.165028,-1.430068,1.723811,1.236918,-0.578399,0.472513,-0.025188,1.277626,-0.442638,-0.337934,1.121169,-0.121182,-2.964739,43.097881,-24.095352,-7.601747,0.285123,2.072860,-0.182328,0.000000,0.000000,0.000000,0.000000,0.000000,0.000000
12879501.000000,-2.325688,-1.662945,1.166312,-1.430525,1.723487,1.238084,-0.578517,0.469186,-0.025417,1.284550,-0.445977,-0.330591,1.137194,-0.120017,-2.690997,43.097881,-24.341324,-7.082033,0.219205,1.858627,-0.163102,0.000000,0.000000,0.000000,0.000000,0.000000,0.000000
12879502.000000,-2.325230,-1.662971,1.167602,-1.430984,1.723159,1.239238,-0.578629,0.457132,-0.025312,1.283204,-0.449469,-0.332484,1.132588,-0.118217,-2.445025,43.097881,-24.464310,-6.613893,0.195402,1.838485,-0.169511,0.000000,0.000000,0.000000,0.000000,0.000000,0.000000
12879503.000000,-2.324781,-1.662991,1.168927,-1.431449,1.722817,1.240385,-0.578745,0.453985,-0.023741,1.288543,-0.455227,-0.336233,1.128263,-0.117896,-2.024493,43.026470,-25.003860,-6.169557,0.243009,1.955673,-0.149369,0.000000,0.000000,0.000000,0.000000,0.000000,0.000000
12879504.000000,-2.324336,-1.663024,1.170226,-1.431899,1.722481,1.241516,-0.578857,0.451416,-0.029461,1.285402,-0.457334,-0.333376,1.125912,-0.121053,-1.726946,43.121685,-25.491837,-5.947389,0.267728,2.047225,-0.175919,0.000000,0.000000,0.000000,0.000000,0.000000,0.000000
12879505.000000,-2.323902,-1.663053,1.171537,-1.432356,1.722146,1.242654,-0.578974,0.444266,-0.029416,1.284080,-0.451892,-0.334312,1.122454,-0.118379,-1.231036,43.173260,-25.936172,-5.749025,0.381254,2.131454,-0.188737,0.000000,0.000000,0.000000,0.000000,0.000000,0.000000
12879506.000000,-2.323485,-1.663076,1.172840,-1.432803,1.721802,1.243793,-0.579097,0.433767,-0.030482,1.313352,-0.452788,-0.333539,1.137055,-0.119608,-0.735125,43.145489,-26.154373,-5.649843,0.476469,2.280685,-0.122819,0.000000,0.000000,0.000000,0.000000,0.000000,0.000000
12879507.000000,-2.323060,-1.663105,1.174131,-1.433251,1.721470,1.244906,-0.579205,0.426676,-0.030362,1.307955,-0.448948,-0.339564,1.133550,-0.115489,-0.266986,43.197063,-26.475723,-5.626039,0.530485,2.489425,-0.188737,0.000000,0.000000,0.000000,0.000000,0.000000,0.000000
12879508.000000,-2.322634,-1.663122,1.175428,-1.433717,1.721147,1.246046,-0.579318,0.425363,-0.026509,1.302486,-0.453703,-0.333595,1.133091,-0.115209,0.177350,43.097881,-26.670120,-5.427675,0.506681,2.508651,-0.182328,0.000000,0.000000,0.000000,0.000000,0.000000,0.000000
12879509.000000,-2.322217,-1.663146,1.176680,-1.434177,1.720826,1.247183,-0.579439,0.423969,-0.029964,1.286569,-0.452438,-0.329139,1.140598,-0.117015,0.502668,43.121685,-26.424149,-5.177736,0.488370,2.378646,-0.122819,0.000000,0.000000,0.000000,0.000000,0.000000,0.000000
12879510.000000,-2.321790,-1.663164,1.177967,-1.434652,1.720503,1.248335,-0.579551,0.421533,-0.023424,1.283262,-0.453142,-0.326536,1.133151,-0.114930,0.697065,43.026470,-26.400345,-4.784975,0.476469,2.169906,-0.142960,0.000000,0.000000,0.000000,0.000000,0.000000,0.000000
12879511.000000,-2.321373,-1.663179,1.179243,-1.435122,1.720180,1.249465,-0.579654,0.419768,-0.017954,1.275137,-0.459565,-0.323630,1.127366,-0.111958,0.923200,42.903484,-26.205948,-4.312868,0.452665,2.053634,-0.196061,0.000000,0.000000,0.000000,0.000000,0.000000,0.000000
12879512.000000,-2.320951,-1.663192,1.180510,-1.435596,1.719867,1.250602,-0.579766,0.418568,-0.017634,1.269729,-0.464619,-0.317176,1.118545,-0.108445,1.121564,42.804302,-26.253555,-3.943910,0.416959,2.020675,-0.175919,0.000000,0.000000,0.000000,0.000000,0.000000,0.000000
12879513.000000,-2.320541,-1.663214,1.181769,-1.436057,1.719565,1.251759,-0.579875,0.409475,-0.017484,1.260314,-0.464925,-0.311046,1.126336,-0.105857,1.391340,42.828106,-25.959976,-3.721742,0.344633,1.909896,-0.149369,0.000000,0.000000,0.000000,0.000000,0.000000,0.000000
12879514.000000,-2.320138,-1.663237,1.183022,-1.436503,1.719242,1.252901,-0.579975,0.409265,-0.020073,1.257877,-0.458046,-0.311835,1.134625,-0.103110,1.665082,42.851910,-25.936172,-3.670168,0.428861,1.819259,-0.175919,0.000000,0.000000,0.000000,0.000000,0.000000,0.000000
12879515.000000,-2.319737,-1.663255,1.184287,-1.436947,1.718926,1.254026,-0.580079,0.403196,-0.017794,1.260855,-0.454631,-0.313712,1.124713,-0.105346,2.010236,42.828106,-25.884598,-3.670168,0.542386,1.995040,-0.182328,0.000000,0.000000,0.000000,0.000000,0.000000,0.000000
12879516.000000,-2.319327,-1.663269,1.185550,-1.437383,1.718614,1.255160,-0.580182,0.412252,-0.015386,1.253579,-0.456161,-0.312964,1.137168,-0.106624,2.109418,42.780499,-25.860794,-3.721742,0.608304,2.157089,-0.202470,0.000000,0.000000,0.000000,0.000000,0.000000,0.000000
12879517.000000,-2.318918,-1.663291,1.186789,-1.437834,1.718303,1.256288,-0.580287,0.409199,-0.016120,1.249970,-0.455263,-0.312174,1.135628,-0.103685,2.184797,42.828106,-25.789383,-3.570986,0.673307,2.190048,-0.202470,0.000000,0.000000,0.000000,0.000000,0.000000,0.000000
12879518.000000,-2.318503,-1.663307,1.188030,-1.438278,1.717990,1.257447,-0.580395,0.410688,-0.015821,1.243181,-0.449138,-0.316471,1.140661,-0.108373,2.208601,42.851910,-25.666397,-3.499574,0.745634,2.027084,-0.149369,0.000000,0.000000,0.000000,0.000000,0.000000,0.000000
12879519.000000,-2.318086,-1.663322,1.189255,-1.438725,1.717683,1.258607,-0.580487,0.411306,-0.013889,1.242122,-0.452160,-0.311676,1.152727,-0.101600,2.133222,42.804302,-25.591019,-3.277406,0.745634,1.773483,-0.235429,0.000000,0.000000,0.000000,0.000000,0.000000,0.000000
12879520.000000,-2.317671,-1.663331,1.190486,-1.439171,1.717399,1.259764,-0.580596,0.410537,-0.011179,1.234522,-0.446001,-0.304859,1.155678,-0.102740,2.061811,42.705120,-25.444229,-3.102846,0.632108,1.714889,-0.163102,0.000000,0.000000,0.000000,0.000000,0.000000,0.000000
12879521.000000,-2.317259,-1.663342,1.191729,-1.439616,1.717106,1.260929,-0.580701,0.408804,-0.006956,1.234209,-0.445015,-0.301867,1.163094,-0.101984,2.034040,42.633709,-25.396622,-2.928285,0.566190,1.637069,-0.122819,0.000000,0.000000,0.000000,0.000000,0.000000,0.000000
12879522.000000,-2.316858,-1.663353,1.192944,-1.440031,1.716809,1.262086,-0.580789,0.409794,-0.007363,1.229221,-0.435596,-0.300735,1.167647,-0.101445,2.061811,42.582134,-25.249832,-2.979860,0.524076,1.546432,-0.208878,0.000000,0.000000,0.000000,0.000000,0.000000,0.000000
12879523.000000,-2.316454,-1.663362,1.194191,-1.440455,1.716527,1.263230,-0.580897,0.408389,-0.007854,1.230228,-0.428137,-0.296521,1.159289,-0.102327,2.160993,42.534527,-25.444229,-3.027467,0.518583,1.702071,-0.136552,0.000000,0.000000,0.000000,0.000000,0.000000,0.000000
12879524.000000,-2.316060,-1.663370,1.195441,-1.440857,1.716245,1.264348,-0.580990,0.404319,-0.007694,1.230703,-0.417996,-0.288947,1.146346,-0.099024,2.283979,42.463116,-25.690201,-3.178224,0.542386,1.968490,-0.169511,0.000000,0.000000,0.000000,0.000000,0.000000,0.000000
12879525.000000,-2.315660,-1.663381,1.196671,-1.441261,1.715974,1.265490,-0.581086,0.402602,-0.009394,1.234030,-0.412272,-0.287195,1.135586,-0.097875,2.331586,42.463116,-25.912369,-3.400392,0.524076,2.183639,-0.169511,0.000000,0.000000,0.000000,0.000000,0.000000,0.000000
12879526.000000,-2.315262,-1.663390,1.197929,-1.441670,1.715683,1.266655,-0.581184,0.400185,-0.009224,1.235322,-0.406227,-0.290373,1.128587,-0.097490,2.430768,42.411541,-26.352737,-3.448000,0.632108,2.183639,-0.155778,0.000000,0.000000,0.000000,0.000000,0.000000,0.000000
12879527.000000,-2.314852,-1.663400,1.199148,-1.442074,1.715400,1.267800,-0.581283,0.403882,-0.010338,1.237584,-0.401558,-0.283757,1.125412,-0.096733,2.307783,42.411541,-26.475723,-3.499574,0.644010,2.131454,-0.155778,0.000000,0.000000,0.000000,0.000000,0.000000,0.000000
12879528.000000,-2.314439,-1.663410,1.200380,-1.442487,1.715124,1.268945,-0.581377,0.399397,-0.010521,1.228973,-0.401217,-0.279090,1.113128,-0.094997,2.184797,42.387737,-26.622513,-3.376589,0.649503,2.150680,-0.182328,0.000000,0.000000,0.000000,0.000000,0.000000,0.000000
12879529.000000,-2.314034,-1.663414,1.201612,-1.442897,1.714857,1.270075,-0.581474,0.400737,-0.008792,1.229639,-0.401888,-0.278338,1.117723,-0.093976,2.010236,42.288555,-26.622513,-3.225832,0.613798,2.183639,-0.208878,0.000000,0.000000,0.000000,0.000000,0.000000,0.000000
12879530.000000,-2.313631,-1.663424,1.202813,-1.443294,1.714584,1.271221,-0.581579,0.401143,-0.009459,1.223088,-0.395695,-0.278542,1.119253,-0.096484,1.986432,42.264751,-26.451920,-3.225832,0.584501,2.144271,-0.130143,0.000000,0.000000,0.000000,0.000000,0.000000,0.000000
12879531.000000,-2.313232,-1.663431,1.204022,-1.443698,1.714320,1.272371,-0.581672,0.396080,-0.009368,1.219073,-0.392444,-0.268272,1.129082,-0.097863,2.061811,42.217144,-26.154373,-3.178224,0.524076,2.118636,-0.196061,0.000000,0.000000,0.000000,0.000000,0.000000,0.000000
12879532.000000,-2.312839,-1.663435,1.205214,-1.444082,1.714063,1.273494,-0.581771,0.393543,-0.009438,1.211333,-0.390467,-0.259488,1.129672,-0.099336,2.109418,42.169537,-25.884598,-3.225832,0.440763,2.125045,-0.142960,0.000000,0.000000,0.000000,0.000000,0.000000,0.000000
12879533.000000,-2.312455,-1.663436,1.206437,-1.444474,1.713808,1.274632,-0.581867,0.388215,-0.007641,1.215257,-0.391210,-0.255692,1.123625,-0.097253,2.260175,42.046551,-25.884598,-3.154421,0.416959,2.098495,-0.163102,0.000000,0.000000,0.000000,0.000000,0.000000,0.000000
12879534.000000,-2.312071,-1.663437,1.207644,-1.444850,1.713562,1.275783,-0.581958,0.387419,-0.005862,1.209078,-0.394161,-0.251537,1.145237,-0.094720,2.331586,41.899761,-25.642593,-3.178224,0.362943,2.020675,-0.215287,0.000000,0.000000,0.000000,0.000000,0.000000,0.000000
12879535.000000,-2.311683,-1.663440,1.208843,-1.445230,1.713288,1.276920,-0.582063,0.384542,-0.005700,1.206208,-0.392977,-0.259791,1.145622,-0.097795,2.482343,41.800579,-25.614822,-3.178224,0.482877,1.916305,-0.136552,0.000000,0.000000,0.000000,0.000000,0.000000,0.000000
12879536.000000,-2.311297,-1.663438,1.210055,-1.445610,1.713021,1.278060,-0.582152,0.380356,-0.001410,1.200883,-0.389061,-0.260914,1.140727,-0.095279,2.581525,41.653790,-25.591019,-3.154421,0.613798,1.909896,-0.175919,0.000000,0.000000,0.000000,0.000000,0.000000,0.000000
12879537.000000,-2.310924,-1.663438,1.211255,-1.445976,1.712767,1.279187,-0.582241,0.377232,-0.002015,1.223747,-0.386357,-0.256316,1.142996,-0.094345,2.704511,41.530804,-25.690201,-3.154421,0.620206,1.909896,-0.196061,0.000000,0.000000,0.000000,0.000000,0.000000,0.000000
12879538.000000,-2.310538,-1.663430,1.212454,-1.446343,1.712517,1.280332,-0.582333,0.380492,0.002910,1.213392,-0.379259,-0.257781,1.141009,-0.090033,2.704511,41.312603,-25.666397,-3.225832,0.608304,1.832076,-0.188737,0.000000,0.000000,0.000000,0.000000,0.000000,0.000000
12879539.000000,-2.310159,-1.663431,1.213639,-1.446703,1.712269,1.281481,-0.582423,0.380475,-0.000544,1.198418,-0.373946,-0.258793,1.135278,-0.086929,2.827497,41.261028,-25.368851,-3.325014,0.596403,1.779891,-0.175919,0.000000,0.000000,0.000000,0.000000,0.000000,0.000000
12879540.000000,-2.309778,-1.663432,1.214813,-1.447060,1.712020,1.282600,-0.582511,0.380533,-0.002580,1.191393,-0.367145,-0.257827,1.121940,-0.088412,2.803693,41.189617,-25.198257,-3.400392,0.535978,1.838485,-0.188737,0.000000,0.000000,0.000000,0.000000,0.000000,0.000000
12879541.000000,-2.309393,-1.663427,1.215989,-1.447422,1.711782,1.283718,-0.582598,0.377372,0.000344,1.182084,-0.363906,-0.246800,1.108039,-0.089569,2.728315,41.066631,-24.904678,-3.376589,0.440763,2.079269,-0.196061,0.000000,0.000000,0.000000,0.000000,0.000000,0.000000
12879542.000000,-2.309020,-1.663420,1.217162,-1.447774,1.711545,1.284861,-0.582690,0.377263,0.002497,1.176892,-0.357996,-0.246534,1.117724,-0.092645,2.728315,40.943645,-24.559525,-3.376589,0.393156,2.131454,-0.149369,0.000000,0.000000,0.000000,0.000000,0.000000,0.000000
12879543.000000,-2.308638,-1.663413,1.218323,-1.448129,1.711314,1.286012,-0.582774,0.381402,0.002878,1.169317,-0.354764,-0.240841,1.124912,-0.091043,2.680707,40.872234,-24.365128,-3.325014,0.362943,1.923629,-0.202470,0.000000,0.000000,0.000000,0.000000,0.000000,0.000000
12879544.000000,-2.308259,-1.663402,1.219511,-1.448480,1.711079,1.287173,-0.582868,0.380484,0.005009,1.169309,-0.354721,-0.242428,1.126528,-0.089433,2.652936,40.725445,-24.388931,-3.301210,0.362943,1.727706,-0.142960,0.000000,0.000000,0.000000,0.000000,0.000000,0.000000
12879545.000000,-2.307879,-1.663391,1.220696,-1.448820,1.710841,1.288301,-0.582950,0.379080,0.005959,1.175747,-0.348314,-0.243326,1.126554,-0.090313,2.529951,40.602459,-24.611099,-3.277406,0.369352,1.695663,-0.149369,0.000000,0.000000,0.000000,0.000000,0.000000,0.000000
12879546.000000,-2.307505,-1.663381,1.221894,-1.449151,1.710601,1.289442,-0.583031,0.372456,0.006100,1.181305,-0.340766,-0.240593,1.118312,-0.085015,2.482343,40.503277,-24.904678,-3.348818,0.398649,1.708480,-0.188737,0.000000,0.000000,0.000000,0.000000,0.000000,0.000000
12879547.000000,-2.307140,-1.663380,1.223095,-1.449471,1.710357,1.290561,-0.583121,0.367607,0.003922,1.182786,-0.333566,-0.241190,1.120098,-0.089584,2.506147,40.503277,-25.249832,-3.523378,0.512174,1.767074,-0.130143,0.000000,0.000000,0.000000,0.000000,0.000000,0.000000
12879548.000000,-2.306777,-1.663378,1.224276,-1.449788,1.710118,1.291692,-0.583194,0.363133,0.003063,1.184047,-0.328244,-0.238697,1.123729,-0.088011,2.652936,40.479473,-25.468033,-3.697939,0.554288,1.832076,-0.202470,0.000000,0.000000,0.000000,0.000000,0.000000,0.000000
12879549.000000,-2.306399,-1.663373,1.225463,-1.450101,1.709900,1.292809,-0.583278,0.365060,0.003724,1.179156,-0.322063,-0.233097,1.120001,-0.080688,2.581525,40.404095,-25.543411,-3.967714,0.488370,2.014266,-0.188737,0.000000,0.000000,0.000000,0.000000,0.000000,0.000000
12879550.000000,-2.306035,-1.663375,1.226637,-1.450422,1.709670,1.293916,-0.583359,0.364900,0.001865,1.174924,-0.321026,-0.229352,1.116841,-0.081317,2.581525,40.427898,-25.642593,-3.967714,0.446256,2.104903,-0.163102,0.000000,0.000000,0.000000,0.000000,0.000000,0.000000
12879551.000000,-2.305667,-1.663376,1.227810,-1.450738,1.709447,1.295049,-0.583435,0.367839,-0.000009,1.168839,-0.316389,-0.225920,1.117595,-0.078293,2.553754,40.479473,-25.468033,-3.967714,0.369352,1.995040,-0.202470,0.000000,0.000000,0.000000,0.000000,0.000000,0.000000
12879552.000000,-2.305284,-1.663377,1.228981,-1.451059,1.709217,1.296184,-0.583521,0.378220,-0.000597,1.165585,-0.318878,-0.221345,1.131365,-0.080373,2.359357,40.503277,-25.198257,-3.868532,0.362943,1.955673,-0.130143,0.000000,0.000000,0.000000,0.000000,0.000000,0.000000
12879553.000000,-2.304910,-1.663379,1.230129,-1.451383,1.708995,1.297298,-0.583588,0.378092,-0.000981,1.166285,-0.321379,-0.222480,1.119650,-0.075847,2.184797,40.527081,-24.857071,-3.721742,0.351041,1.909896,-0.215287,0.000000,0.000000,0.000000,0.000000,0.000000,0.000000
12879554.000000,-2.304526,-1.663371,1.231297,-1.451702,1.708771,1.298435,-0.583668,0.379761,0.000997,1.158203,-0.320191,-0.219407,1.114745,-0.077238,1.911054,40.455669,-24.658707,-3.670168,0.369352,1.819259,-0.188737,0.000000,0.000000,0.000000,0.000000,0.000000,0.000000
12879555.000000,-2.304156,-1.663369,1.232453,-1.452022,1.708546,1.299570,-0.583746,0.376782,0.001300,1.177313,-0.316415,-0.222080,1.120680,-0.077286,1.712690,40.427898,-24.535721,-3.499574,0.405057,1.656295,-0.175919,0.000000,0.000000,0.000000,0.000000,0.000000,0.000000
12879556.000000,-2.303781,-1.663365,1.233599,-1.452322,1.708326,1.300716,-0.583831,0.375680,0.001969,1.166335,-0.307216,-0.229955,1.119832,-0.078295,1.565900,40.380291,-24.095352,-3.570986,0.369352,1.513473,-0.136552,0.000000,0.000000,0.000000,0.000000,0.000000,0.000000
12879557.000000,-2.303410,-1.663368,1.234773,-1.452628,1.708095,1.301853,-0.583907,0.374201,-0.000458,1.164207,-0.308545,-0.228082,1.119205,-0.076939,1.466718,40.455669,-24.071548,-3.598757,0.458158,1.572067,-0.149369,0.000000,0.000000,0.000000,0.000000,0.000000,0.000000
12879558.000000,-2.303048,-1.663367,1.235930,-1.452918,1.707877,1.302955,-0.583977,0.370899,-0.000312,1.161488,-0.301374,-0.221725,1.112166,-0.074294,1.466718,40.455669,-24.071548,-3.697939,0.434354,1.779891,-0.208878,0.000000,0.000000,0.000000,0.000000,0.000000,0.000000
12879559.000000,-2.302675,-1.663360,1.237092,-1.453208,1.707664,1.304083,-0.584066,0.369182,0.001551,1.155872,-0.296471,-0.216646,1.108356,-0.082126,1.292158,40.380291,-24.019974,-3.769350,0.393156,1.942855,-0.130143,0.000000,0.000000,0.000000,0.000000,0.000000,0.000000
12879560.000000,-2.302306,-1.663357,1.238260,-1.453507,1.707448,1.305226,-0.584140,0.374352,0.001587,1.160893,-0.295953,-0.215357,1.128805,-0.083161,1.121564,40.356487,-24.019974,-3.721742,0.416959,1.936446,-0.169511,0.000000,0.000000,0.000000,0.000000,0.000000,0.000000
12879561.000000,-2.301929,-1.663352,1.239404,-1.453800,1.707239,1.306368,-0.584207,0.375161,0.002819,1.156995,-0.294450,-0.216231,1.140032,-0.079127,0.947004,40.281109,-23.996170,-3.721742,0.362943,1.812850,-0.229020,0.000000,0.000000,0.000000,0.000000,0.000000,0.000000
12879562.000000,-2.301546,-1.663339,1.240568,-1.454094,1.707016,1.307499,-0.584296,0.378072,0.005311,1.151869,-0.292371,-0.220830,1.138018,-0.081736,0.673261,40.134319,-24.019974,-3.622560,0.405057,1.838485,-0.136552,0.000000,0.000000,0.000000,0.000000,0.000000,0.000000
12879563.000000,-2.301162,-1.663330,1.241692,-1.454395,1.706805,1.308610,-0.584367,0.382079,0.006323,1.147652,-0.293225,-0.216445,1.132123,-0.074091,0.304304,40.015301,-23.750198,-3.424196,0.381254,1.916305,-0.169511,0.000000,0.000000,0.000000,0.000000,0.000000,0.000000
12879564.000000,-2.300786,-1.663320,1.242826,-1.454683,1.706600,1.309740,-0.584445,0.377497,0.005978,1.137390,-0.291111,-0.214192,1.115098,-0.075094,0.078168,39.939922,-23.456619,-3.424196,0.381254,1.884261,-0.149369,0.000000,0.000000,0.000000,0.000000,0.000000,0.000000
12879565.000000,-2.300409,-1.663313,1.243979,-1.454965,1.706381,1.310871,-0.584516,0.383346,0.005098,1.138020,-0.297531,-0.211192,1.119270,-0.074389,-0.191607,39.892315,-23.309830,-3.448000,0.470060,1.767074,-0.169511,0.000000,0.000000,0.000000,0.000000,0.000000,0.000000
12879566.000000,-2.300030,-1.663296,1.245119,-1.455247,1.706188,1.311992,-0.584590,0.381478,0.007388,1.140081,-0.289151,-0.205273,1.104792,-0.074258,-0.389971,39.721722,-23.286026,-3.570986,0.339139,1.812850,-0.182328,0.000000,0.000000,0.000000,0.000000,0.000000,0.000000
12879567.000000,-2.299653,-1.663284,1.246286,-1.455527,1.705982,1.313125,-0.584664,0.376478,0.006688,1.148939,-0.284843,-0.204715,1.106429,-0.075919,-0.564532,39.646343,-23.504227,-3.622560,0.303434,1.844894,-0.142960,0.000000,0.000000,0.000000,0.000000,0.000000,0.000000
12879568.000000,-2.299293,-1.663273,1.247436,-1.455798,1.705768,1.314242,-0.584735,0.370915,0.008734,1.150039,-0.280776,-0.205737,1.104477,-0.070842,-0.635943,39.598736,-23.702591,-3.721742,0.308927,1.844894,-0.149369,0.000000,0.000000,0.000000,0.000000,0.000000,0.000000
12879569.000000,-2.298926,-1.663263,1.248608,-1.456079,1.705562,1.315371,-0.584799,0.370119,0.005529,1.155660,-0.282168,-0.206583,1.111018,-0.065833,-0.735125,39.622540,-23.996170,-3.745546,0.315336,1.819259,-0.188737,0.000000,0.000000,0.000000,0.000000,0.000000,0.000000
12879570.000000,-2.298558,-1.663251,1.249792,-1.456351,1.705351,1.316491,-0.584871,0.373914,0.007600,1.167183,-0.279346,-0.208808,1.104511,-0.068837,-0.810504,39.598736,-24.365128,-3.820925,0.362943,1.903487,-0.175919,0.000000,0.000000,0.000000,0.000000,0.000000,0.000000
12879571.000000,-2.298194,-1.663238,1.250943,-1.456610,1.705149,1.317585,-0.584947,0.369666,0.010414,1.159947,-0.275081,-0.207800,1.097625,-0.073007,-0.909686,39.523357,-24.583328,-3.991518,0.351041,2.033492,-0.110001,0.000000,0.000000,0.000000,0.000000,0.000000,0.000000
12879572.000000,-2.297838,-1.663233,1.252106,-1.456880,1.704954,1.318713,-0.585007,0.363475,0.006309,1.151922,-0.274864,-0.207868,1.102402,-0.069983,-0.885882,39.574932,-24.682510,-4.019289,0.351041,2.001449,-0.202470,0.000000,0.000000,0.000000,0.000000,0.000000,0.000000
12879573.000000,-2.297485,-1.663224,1.253238,-1.457129,1.704749,1.319820,-0.585079,0.358271,0.008393,1.169370,-0.268167,-0.208223,1.111872,-0.067122,-0.933489,39.547161,-24.611099,-4.213686,0.374845,1.962081,-0.196061,0.000000,0.000000,0.000000,0.000000,0.000000,0.000000
12879574.000000,-2.297132,-1.663215,1.254376,-1.457389,1.704550,1.320929,-0.585153,0.355203,0.009349,1.154400,-0.265297,-0.210478,1.102431,-0.066310,-0.909686,39.547161,-24.365128,-4.189882,0.344633,2.020675,-0.149369,0.000000,0.000000,0.000000,0.000000,0.000000,0.000000
12879575.000000,-2.296780,-1.663204,1.255530,-1.457653,1.704356,1.322032,-0.585220,0.350078,0.010651,1.149808,-0.263591,-0.203698,1.101616,-0.071754,-0.862078,39.523357,-24.190567,-4.142274,0.308927,2.118636,-0.188737,0.000000,0.000000,0.000000,0.000000,0.000000,0.000000
12879576.000000,-2.296434,-1.663196,1.256646,-1.457910,1.704162,1.323132,-0.585292,0.350177,0.007333,1.141610,-0.262646,-0.200101,1.097202,-0.069379,-0.834307,39.547161,-23.702591,-4.066896,0.308927,2.144271,-0.149369,0.000000,0.000000,0.000000,0.000000,0.000000,0.000000
12879577.000000,-2.296091,-1.663182,1.257783,-1.458168,1.703979,1.324263,-0.585356,0.345801,0.007707,1.139104,-0.262587,-0.196459,1.095972,-0.069500,-0.786700,39.451946,-23.432816,-3.943910,0.279630,1.974899,-0.182328,0.000000,0.000000,0.000000,0.000000,0.000000,0.000000
12879578.000000,-2.295763,-1.663166,1.258931,-1.458420,1.703797,1.325403,-0.585422,0.341268,0.010960,1.136700,-0.259010,-0.192482,1.120375,-0.066823,-0.663714,39.352764,-23.309830,-3.967714,0.213712,1.806442,-0.169511,0.000000,0.000000,0.000000,0.000000,0.000000,0.000000
12879579.000000,-2.295432,-1.663150,1.260058,-1.458676,1.703609,1.326520,-0.585491,0.337433,0.013268,1.134576,-0.254988,-0.191614,1.117052,-0.065470,-0.489153,39.253582,-23.186844,-3.920107,0.207303,1.708480,-0.136552,0.000000,0.000000,0.000000,0.000000,0.000000,0.000000
12879580.000000,-2.295097,-1.663130,1.261206,-1.458925,1.703416,1.327636,-0.585548,0.332946,0.016093,1.132949,-0.254094,-0.191132,1.116818,-0.065453,-0.389971,39.106792,-23.186844,-3.920107,0.201810,1.714889,-0.202470,0.000000,0.000000,0.000000,0.000000,0.000000,0.000000
12879581.000000,-2.294782,-1.663119,1.262329,-1.459169,1.703224,1.328741,-0.585615,0.329921,0.015246,1.128784,-0.251752,-0.186791,1.109084,-0.069534,-0.167803,39.082989,-23.087662,-3.991518,0.231107,1.727706,-0.163102,0.000000,0.000000,0.000000,0.000000,0.000000,0.000000
12879582.000000,-2.294471,-1.663104,1.263480,-1.459413,1.703029,1.329857,-0.585677,0.323329,0.012685,1.133331,-0.246552,-0.186061,1.100358,-0.066002,0.078168,39.011578,-23.186844,-4.066896,0.320829,1.735030,-0.169511,0.000000,0.000000,0.000000,0.000000,0.000000,0.000000
12879583.000000,-2.294160,-1.663089,1.264620,-1.459643,1.702843,1.330968,-0.585743,0.327231,0.014028,1.132028,-0.243343,-0.185402,1.125939,-0.064844,0.177350,38.936199,-23.135269,-4.213686,0.291532,1.708480,-0.136552,0.000000,0.000000,0.000000,0.000000,0.000000,0.000000
12879584.000000,-2.293853,-1.663071,1.265741,-1.459892,1.702654,1.332079,-0.585798,0.319586,0.016105,1.126725,-0.244451,-0.186908,1.120341,-0.065254,0.403486,38.813213,-23.135269,-4.142274,0.308927,1.727706,-0.196061,0.000000,0.000000,0.000000,0.000000,0.000000,0.000000
12879585.000000,-2.293537,-1.663053,1.266877,-1.460139,1.702472,1.333201,-0.585862,0.317284,0.013782,1.128265,-0.241151,-0.187587,1.126784,-0.063683,0.474897,38.717999,-23.040054,-4.090700,0.315336,1.760665,-0.182328,0.000000,0.000000,0.000000,0.000000,0.000000,0.000000
12879586.000000,-2.293228,-1.663041,1.267986,-1.460379,1.702287,1.334305,-0.585924,0.315805,0.013397,1.125088,-0.243059,-0.187037,1.121372,-0.058178,0.550275,38.690228,-22.817886,-3.991518,0.291532,1.702071,-0.155778,0.000000,0.000000,0.000000,0.000000,0.000000,0.000000
12879587.000000,-2.292921,-1.663026,1.269100,-1.460621,1.702100,1.335422,-0.585979,0.312730,0.014486,1.119198,-0.242584,-0.191006,1.112896,-0.056799,0.673261,38.618816,-22.548111,-3.820925,0.255826,1.702071,-0.182328,0.000000,0.000000,0.000000,0.000000,0.000000,0.000000
12879588.000000,-2.292618,-1.663000,1.270235,-1.460859,1.701919,1.336550,-0.586043,0.309691,0.018690,1.116142,-0.243169,-0.189140,1.102575,-0.058752,0.724836,38.396648,-22.472733,-3.745546,0.219205,1.656295,-0.130143,0.000000,0.000000,0.000000,0.000000,0.000000,0.000000
12879589.000000,-2.292325,-1.662979,1.271364,-1.461100,1.701748,1.337681,-0.586092,0.303878,0.020364,1.120600,-0.242248,-0.187259,1.103505,-0.055204,0.895429,38.226055,-22.571915,-3.598757,0.171598,1.467696,-0.208878,0.000000,0.000000,0.000000,0.000000,0.000000,0.000000
12879590.000000,-2.292030,-1.662962,1.272511,-1.461334,1.701567,1.338812,-0.586154,0.295841,0.021868,1.130954,-0.235964,-0.185431,1.101649,-0.057165,1.093793,38.178448,-22.718704,-3.523378,0.231107,1.402694,-0.169511,0.000000,0.000000,0.000000,0.000000,0.000000,0.000000
12879591.000000,-2.291748,-1.662940,1.273646,-1.461567,1.701389,1.339922,-0.586217,0.293898,0.021746,1.131232,-0.235141,-0.187779,1.107689,-0.057779,1.292158,38.055462,-22.964676,-3.448000,0.279630,1.429244,-0.149369,0.000000,0.000000,0.000000,0.000000,0.000000,0.000000
12879592.000000,-2.291464,-1.662929,1.274803,-1.461806,1.701216,1.341035,-0.586271,0.288464,0.018101,1.134527,-0.232123,-0.188097,1.101594,-0.056049,1.514325,38.079266,-23.333633,-3.325014,0.308927,1.597701,-0.188737,0.000000,0.000000,0.000000,0.000000,0.000000,0.000000
12879593.000000,-2.291183,-1.662915,1.275967,-1.462036,1.701032,1.342135,-0.586331,0.285849,0.017458,1.136759,-0.230714,-0.188913,1.094623,-0.056882,1.688886,38.031658,-23.702591,-3.301210,0.332731,1.877853,-0.169511,0.000000,0.000000,0.000000,0.000000,0.000000,0.000000
12879594.000000,-2.290910,-1.662899,1.277097,-1.462268,1.700850,1.343241,-0.586386,0.283693,0.017554,1.134185,-0.229710,-0.188485,1.095688,-0.057090,1.863447,37.956280,-23.801773,-3.154421,0.332731,1.962081,-0.163102,0.000000,0.000000,0.000000,0.000000,0.000000,0.000000
12879595.000000,-2.290627,-1.662881,1.278245,-1.462505,1.700677,1.344361,-0.586449,0.279909,0.018166,1.136547,-0.234281,-0.184076,1.103652,-0.057865,1.986432,37.861065,-23.873184,-3.003664,0.339139,1.955673,-0.136552,0.000000,0.000000,0.000000,0.000000,0.000000,0.000000
12879596.000000,-2.290350,-1.662860,1.279399,-1.462736,1.700507,1.345492,-0.586500,0.278113,0.016060,1.139810,-0.235162,-0.179574,1.127904,-0.056483,2.061811,37.738079,-23.920792,-2.856874,0.315336,1.923629,-0.169511,0.000000,0.000000,0.000000,0.000000,0.000000,0.000000
12879597.000000,-2.290061,-1.662839,1.280521,-1.462984,1.700345,1.346588,-0.586557,0.279733,0.018118,1.136060,-0.239750,-0.174698,1.121104,-0.062523,2.010236,37.591290,-23.849380,-2.535524,0.249418,1.916305,-0.136552,0.000000,0.000000,0.000000,0.000000,0.000000,0.000000
12879598.000000,-2.289777,-1.662819,1.281645,-1.463227,1.700167,1.347703,-0.586613,0.277217,0.017734,1.123463,-0.244286,-0.172391,1.107853,-0.060643,1.962629,37.515911,-23.504227,-2.285585,0.339139,1.890670,-0.142960,0.000000,0.000000,0.000000,0.000000,0.000000,0.000000
12879599.000000,-2.289502,-1.662814,1.282762,-1.463473,1.699993,1.348796,-0.586661,0.277185,0.014136,1.123372,-0.248250,-0.174280,1.100070,-0.057605,1.962629,37.591290,-23.234451,-2.015810,0.422452,1.865035,-0.196061,0.000000,0.000000,0.000000,0.000000,0.000000,0.000000
12879600.000000,-2.289232,-1.662794,1.283899,-1.463716,1.699829,1.349910,-0.586717,0.273605,0.015159,1.128756,-0.245571,-0.171935,1.089928,-0.053990,2.085615,37.515911,-23.186844,-1.817445,0.398649,1.871444,-0.163102,0.000000,0.000000,0.000000,0.000000,0.000000,0.000000
12879601.000000,-2.288961,-1.662776,1.285038,-1.463939,1.699663,1.351004,-0.586771,0.278028,0.016021,1.125510,-0.236608,-0.169604,1.112209,-0.054027,2.133222,37.444500,-23.087662,-1.817445,0.356534,1.897079,-0.182328,0.000000,0.000000,0.000000,0.000000,0.000000,0.000000
12879602.000000,-2.288692,-1.662761,1.286156,-1.464169,1.699500,1.352129,-0.586827,0.276416,0.015399,1.123163,-0.233086,-0.164155,1.107823,-0.050462,2.208601,37.420696,-22.964676,-1.817445,0.332731,1.760665,-0.169511,0.000000,0.000000,0.000000,0.000000,0.000000,0.000000
12879603.000000,-2.288427,-1.662750,1.287300,-1.464401,1.699337,1.353265,-0.586878,0.273434,0.017119,1.128839,-0.227462,-0.161724,1.110238,-0.046751,2.359357,37.444500,-23.040054,-1.817445,0.351041,1.572067,-0.182328,0.000000,0.000000,0.000000,0.000000,0.000000,0.000000
12879604.000000,-2.288154,-1.662735,1.288421,-1.464618,1.699181,1.354353,-0.586927,0.273864,0.016428,1.124682,-0.223314,-0.158286,1.101093,-0.049030,2.260175,37.420696,-23.040054,-1.964235,0.327238,1.649886,-0.188737,0.000000,0.000000,0.000000,0.000000,0.000000,0.000000
12879605.000000,-2.287895,-1.662725,1.289565,-1.464845,1.699028,1.355459,-0.586987,0.269258,0.015357,1.125882,-0.225742,-0.157086,1.102602,-0.053646,2.331586,37.420696,-23.111465,-1.892824,0.339139,1.773483,-0.116410,0.000000,0.000000,0.000000,0.000000,0.000000,0.000000
12879606.000000,-2.287631,-1.662721,1.290712,-1.465076,1.698866,1.356575,-0.587033,0.268025,0.009199,1.130066,-0.227735,-0.157402,1.103722,-0.047578,2.331586,37.515911,-23.210648,-1.817445,0.386747,1.767074,-0.169511,0.000000,0.000000,0.000000,0.000000,0.000000,0.000000
12879607.000000,-2.287370,-1.662715,1.291822,-1.465294,1.698711,1.357690,-0.587082,0.266370,0.008566,1.122581,-0.221031,-0.160662,1.103126,-0.049642,2.359357,37.591290,-23.111465,-1.817445,0.398649,1.637069,-0.175919,0.000000,0.000000,0.000000,0.000000,0.000000,0.000000
12879608.000000,-2.287100,-1.662706,1.292948,-1.465512,1.698556,1.358805,-0.587135,0.267055,0.009240,1.119919,-0.220451,-0.157239,1.096979,-0.052885,2.283979,37.615093,-22.988480,-1.742067,0.374845,1.546432,-0.136552,0.000000,0.000000,0.000000,0.000000,0.000000,0.000000
12879609.000000,-2.286833,-1.662687,1.294072,-1.465714,1.698401,1.359891,-0.587177,0.269694,0.012623,1.120363,-0.216777,-0.154536,1.092035,-0.051897,2.133222,37.515911,-22.794083,-1.817445,0.351041,1.670028,-0.188737,0.000000,0.000000,0.000000,0.000000,0.000000,0.000000
12879610.000000,-2.286570,-1.662676,1.295168,-1.465929,1.698246,1.361002,-0.587230,0.266722,0.011978,1.115701,-0.214663,-0.154299,1.087365,-0.054923,2.061811,37.539715,-22.548111,-1.742067,0.386747,1.702071,-0.142960,0.000000,0.000000,0.000000,0.000000,0.000000,0.000000
12879611.000000,-2.286301,-1.662666,1.296287,-1.466132,1.698089,1.362122,-0.587275,0.266081,0.012133,1.108129,-0.210027,-0.154544,1.093673,-0.049564,1.911054,37.539715,-22.353714,-1.793642,0.416959,1.727706,-0.169511,0.000000,0.000000,0.000000,0.000000,0.000000,0.000000
12879612.000000,-2.286047,-1.662653,1.297392,-1.466334,1.697943,1.363228,-0.587322,0.266034,0.010218,1.105730,-0.205908,-0.152358,1.097648,-0.047426,1.863447,37.492107,-22.230728,-1.742067,0.386747,1.727706,-0.149369,0.000000,0.000000,0.000000,0.000000,0.000000,0.000000
12879613.000000,-2.285783,-1.662636,1.298531,-1.466533,1.697800,1.364349,-0.587365,0.265664,0.012284,1.115565,-0.204385,-0.150976,1.097800,-0.048099,1.811872,37.420696,-22.472733,-1.742067,0.356534,1.656295,-0.188737,0.000000,0.000000,0.000000,0.000000,0.000000,0.000000
12879614.000000,-2.285520,-1.662620,1.299688,-1.466727,1.697660,1.365451,-0.587412,0.264753,0.010220,1.121005,-0.199199,-0.143825,1.098202,-0.045309,1.688886,37.369122,-22.893265,-1.793642,0.291532,1.630660,-0.196061,0.000000,0.000000,0.000000,0.000000,0.000000,0.000000
12879615.000000,-2.285261,-1.662607,1.300824,-1.466922,1.697514,1.366559,-0.587466,0.262014,0.011164,1.127827,-0.196027,-0.140659,1.102342,-0.050335,1.641279,37.345318,-23.210648,-1.817445,0.273221,1.630660,-0.136552,0.000000,0.000000,0.000000,0.000000,0.000000,0.000000
12879616.000000,-2.284994,-1.662599,1.301972,-1.467107,1.697358,1.367667,-0.587511,0.261867,0.010745,1.135337,-0.189892,-0.150759,1.102780,-0.045089,1.514325,37.369122,-23.504227,-1.869020,0.339139,1.689254,-0.188737,0.000000,0.000000,0.000000,0.000000,0.000000,0.000000
12879617.000000,-2.284732,-1.662593,1.303103,-1.467281,1.697202,1.368747,-0.587561,0.263231,0.009937,1.134934,-0.186902,-0.151597,1.097341,-0.044830,1.343732,37.420696,-23.825577,-1.992006,0.369352,1.779891,-0.149369,0.000000,0.000000,0.000000,0.000000,0.000000,0.000000
12879618.000000,-2.284481,-1.662584,1.304245,-1.467457,1.697055,1.369838,-0.587609,0.259845,0.010670,1.131348,-0.180910,-0.151823,1.083802,-0.042990,1.315961,37.420696,-23.996170,-2.138796,0.381254,1.909896,-0.149369,0.000000,0.000000,0.000000,0.000000,0.000000,0.000000
12879619.000000,-2.284215,-1.662572,1.305375,-1.467624,1.696905,1.370937,-0.587653,0.265990,0.011850,1.129631,-0.178264,-0.152172,1.095370,-0.045460,1.145368,37.392925,-23.948563,-2.313356,0.398649,1.890670,-0.175919,0.000000,0.000000,0.000000,0.000000,0.000000,0.000000
12879620.000000,-2.283958,-1.662573,1.306480,-1.467794,1.696763,1.372027,-0.587700,0.263806,0.005419,1.122617,-0.173543,-0.150663,1.087576,-0.048770,1.046186,37.539715,-23.750198,-2.384767,0.369352,1.871444,-0.163102,0.000000,0.000000,0.000000,0.000000,0.000000,0.000000
12879621.000000,-2.283699,-1.662573,1.307608,-1.467958,1.696610,1.373125,-0.587739,0.259204,0.004035,1.112901,-0.169024,-0.152761,1.090710,-0.049114,0.923200,37.686504,-23.603409,-2.483949,0.422452,1.806442,-0.202470,0.000000,0.000000,0.000000,0.000000,0.000000,0.000000
12879622.000000,-2.283436,-1.662572,1.308705,-1.468127,1.696473,1.374198,-0.587784,0.261865,0.000610,1.134406,-0.169368,-0.148851,1.087366,-0.046852,0.697065,37.809490,-23.210648,-2.436342,0.344633,1.897079,-0.188737,0.000000,0.000000,0.000000,0.000000,0.000000,0.000000
12879623.000000,-2.283177,-1.662570,1.309825,-1.468294,1.696338,1.375295,-0.587823,0.258457,-0.000758,1.125375,-0.170212,-0.142995,1.084728,-0.044290,0.550275,37.884869,-23.040054,-2.483949,0.291532,1.884261,-0.196061,0.000000,0.000000,0.000000,0.000000,0.000000,0.000000
12879624.000000,-2.282925,-1.662567,1.310959,-1.468456,1.696194,1.376423,-0.587866,0.254890,-0.001171,1.126757,-0.167626,-0.144765,1.094056,-0.042937,0.451093,37.932476,-22.988480,-2.535524,0.273221,1.643478,-0.188737,0.000000,0.000000,0.000000,0.000000,0.000000,0.000000
12879625.000000,-2.282681,-1.662569,1.312063,-1.468600,1.696048,1.377540,-0.587905,0.251155,-0.000260,1.119136,-0.158719,-0.141301,1.104673,-0.041683,0.403486,38.055462,-22.817886,-2.757692,0.261320,1.383468,-0.188737,0.000000,0.000000,0.000000,0.000000,0.000000,0.000000
12879626.000000,-2.282434,-1.662561,1.313193,-1.468741,1.695904,1.378649,-0.587946,0.246965,0.000891,1.116658,-0.152500,-0.139941,1.102432,-0.040998,0.403486,38.031658,-22.893265,-2.956056,0.279630,1.350509,-0.175919,0.000000,0.000000,0.000000,0.000000,0.000000,0.000000
12879627.000000,-2.282192,-1.662557,1.314327,-1.468875,1.695762,1.379730,-0.587988,0.244280,0.000975,1.119394,-0.148338,-0.139459,1.093349,-0.041189,0.403486,38.031658,-22.917068,-3.154421,0.327238,1.487838,-0.142960,0.000000,0.000000,0.000000,0.000000,0.000000,0.000000
12879628.000000,-2.281948,-1.662560,1.315440,-1.469014,1.695618,1.380816,-0.588019,0.243819,-0.001385,1.117102,-0.143240,-0.140372,1.078097,-0.037755,0.351911,38.130840,-22.917068,-3.301210,0.405057,1.676437,-0.208878,0.000000,0.000000,0.000000,0.000000,0.000000,0.000000
12879629.000000,-2.281698,-1.662560,1.316555,-1.469140,1.695483,1.381931,-0.588065,0.248709,-0.001823,1.112351,-0.137233,-0.138275,1.074985,-0.040575,0.205121,38.178448,-22.893265,-3.547182,0.410551,1.747848,-0.136552,0.000000,0.000000,0.000000,0.000000,0.000000,0.000000
12879630.000000,-2.281452,-1.662557,1.317660,-1.469272,1.695360,1.383034,-0.588102,0.250004,-0.000498,1.111519,-0.134319,-0.133261,1.074602,-0.039200,0.030561,38.154644,-22.893265,-3.598757,0.332731,1.754256,-0.149369,0.000000,0.000000,0.000000,0.000000,0.000000,0.000000
12879631.000000,-2.281203,-1.662550,1.318786,-1.469404,1.695242,1.384154,-0.588133,0.247599,0.002109,1.112308,-0.132760,-0.129289,1.078062,-0.037279,-0.167803,38.055462,-22.964676,-3.598757,0.225614,1.741439,-0.188737,0.000000,0.000000,0.000000,0.000000,0.000000,0.000000
12879632.000000,-2.280954,-1.662546,1.319896,-1.469531,1.695127,1.385254,-0.588175,0.255598,0.002610,1.109459,-0.132107,-0.126605,1.083526,-0.039199,-0.441546,38.007854,-22.770279,-3.570986,0.123990,1.727706,-0.142960,0.000000,0.000000,0.000000,0.000000,0.000000,0.000000
12879633.000000,-2.280702,-1.662543,1.320986,-1.469658,1.694991,1.386364,-0.588207,0.252233,0.003014,1.102164,-0.131530,-0.129860,1.086464,-0.041352,-0.663714,37.956280,-22.595718,-3.547182,0.159696,1.727706,-0.202470,0.000000,0.000000,0.000000,0.000000,0.000000,0.000000
12879634.000000,-2.280449,-1.662541,1.322095,-1.469786,1.694858,1.387476,-0.588245,0.252476,0.002617,1.096946,-0.131114,-0.128024,1.090151,-0.041529,-0.862078,37.932476,-22.401321,-3.499574,0.213712,1.760665,-0.175919,0.000000,0.000000,0.000000,0.000000,0.000000,0.000000
12879635.000000,-2.280206,-1.662538,1.323203,-1.469905,1.694729,1.388568,-0.588280,0.248722,0.002896,1.107685,-0.128731,-0.133767,1.095375,-0.041022,-1.032672,37.884869,-22.448929,-3.547182,0.219205,1.773483,-0.163102,0.000000,0.000000,0.000000,0.000000,0.000000,0.000000
12879636.000000,-2.279965,-1.662529,1.324328,-1.470019,1.694599,1.389682,-0.588313,0.243980,0.004836,1.109656,-0.123009,-0.129985,1.100781,-0.034034,-1.131854,37.761883,-22.647293,-3.622560,0.255826,1.702071,-0.202470,0.000000,0.000000,0.000000,0.000000,0.000000,0.000000
12879637.000000,-2.279728,-1.662527,1.325479,-1.470131,1.694477,1.390772,-0.588355,0.244930,0.003246,1.113839,-0.122798,-0.130649,1.118054,-0.037508,-1.183428,37.761883,-23.016251,-3.670168,0.261320,1.656295,-0.136552,0.000000,0.000000,0.000000,0.000000,0.000000,0.000000
12879638.000000,-2.279501,-1.662528,1.326609,-1.470227,1.694351,1.391879,-0.588383,0.236038,0.001623,1.123181,-0.116111,-0.131736,1.105419,-0.035534,-1.183428,37.785686,-23.357437,-3.868532,0.279630,1.617843,-0.188737,0.000000,0.000000,0.000000,0.000000,0.000000,0.000000
12879639.000000,-2.279275,-1.662529,1.327754,-1.470335,1.694227,1.392966,-0.588420,0.232447,0.000537,1.123420,-0.112248,-0.126766,1.084824,-0.037275,-1.159625,37.809490,-23.825577,-3.892336,0.273221,1.786300,-0.155778,0.000000,0.000000,0.000000,0.000000,0.000000,0.000000
12879640.000000,-2.279042,-1.662535,1.328883,-1.470434,1.694107,1.394036,-0.588448,0.232754,-0.001396,1.147319,-0.107931,-0.121493,1.078725,-0.031926,-1.254840,37.884869,-24.166763,-3.967714,0.231107,2.007858,-0.175919,0.000000,0.000000,0.000000,0.000000,0.000000,0.000000
12879641.000000,-2.278815,-1.662542,1.330019,-1.470538,1.693989,1.395128,-0.588487,0.233709,-0.003244,1.144901,-0.109239,-0.122548,1.077115,-0.035404,-1.254840,37.984051,-24.289749,-3.991518,0.201810,2.047225,-0.122819,0.000000,0.000000,0.000000,0.000000,0.000000,0.000000
12879642.000000,-2.278578,-1.662550,1.331153,-1.470646,1.693867,1.396236,-0.588515,0.232731,-0.004942,1.136865,-0.108508,-0.121061,1.075249,-0.029678,-1.429400,38.103069,-24.313553,-3.943910,0.219205,1.981307,-0.163102,0.000000,0.000000,0.000000,0.000000,0.000000,0.000000
12879643.000000,-2.278344,-1.662550,1.332270,-1.470745,1.693750,1.397330,-0.588543,0.236075,-0.003291,1.130927,-0.106624,-0.116969,1.076574,-0.030792,-1.651568,38.103069,-24.289749,-3.943910,0.166105,1.871444,-0.188737,0.000000,0.000000,0.000000,0.000000,0.000000,0.000000
12879644.000000,-2.278118,-1.662557,1.333388,-1.470844,1.693627,1.398427,-0.588579,0.231863,-0.004511,1.121879,-0.105531,-0.121732,1.073069,-0.033916,-1.750750,38.202251,-24.095352,-3.920107,0.183500,1.838485,-0.155778,0.000000,0.000000,0.000000,0.000000,0.000000,0.000000
12879645.000000,-2.277892,-1.662564,1.334504,-1.470942,1.693494,1.399497,-0.588607,0.230907,-0.011551,1.115454,-0.102457,-0.127462,1.076273,-0.033913,-1.925311,38.301434,-23.849380,-3.868532,0.273221,1.897079,-0.175919,0.000000,0.000000,0.000000,0.000000,0.000000,0.000000
12879646.000000,-2.277669,-1.662573,1.335596,-1.471033,1.693367,1.400583,-0.588638,0.228686,-0.010445,1.107598,-0.100651,-0.125517,1.074564,-0.030915,-2.048296,38.396648,-23.456619,-3.920107,0.320829,1.916305,-0.155778,0.000000,0.000000,0.000000,0.000000,0.000000,0.000000
12879647.000000,-2.277454,-1.662579,1.336718,-1.471129,1.693245,1.401677,-0.588667,0.222785,-0.009115,1.103856,-0.098260,-0.122901,1.069963,-0.031552,-2.000689,38.472027,-23.357437,-3.892336,0.339139,1.949264,-0.182328,0.000000,0.000000,0.000000,0.000000,0.000000,0.000000
12879648.000000,-2.277243,-1.662584,1.337820,-1.471207,1.693135,1.402764,-0.588698,0.219217,-0.008038,1.103146,-0.091667,-0.116742,1.068072,-0.028951,-1.972918,38.543438,-23.258255,-4.066896,0.249418,1.897079,-0.169511,0.000000,0.000000,0.000000,0.000000,0.000000,0.000000
12879649.000000,-2.277034,-1.662586,1.338941,-1.471298,1.693023,1.403883,-0.588728,0.215370,-0.005577,1.104814,-0.090301,-0.114138,1.076455,-0.031124,-1.901507,38.543438,-23.234451,-4.090700,0.201810,1.741439,-0.169511,0.000000,0.000000,0.000000,0.000000,0.000000,0.000000
12879650.000000,-2.276827,-1.662594,1.340074,-1.471379,1.692910,1.404972,-0.588755,0.217297,-0.006202,1.108630,-0.087125,-0.113437,1.104141,-0.032490,-1.925311,38.642620,-23.333633,-4.189882,0.183500,1.689254,-0.182328,0.000000,0.000000,0.000000,0.000000,0.000000,0.000000
12879651.000000,-2.276616,-1.662600,1.341189,-1.471465,1.692802,1.406062,-0.588788,0.213613,-0.005371,1.111426,-0.083307,-0.111160,1.089470,-0.035114,-1.949114,38.690228,-23.432816,-4.241457,0.117582,1.747848,-0.149369,0.000000,0.000000,0.000000,0.000000,0.000000,0.000000
12879652.000000,-2.276406,-1.662613,1.342313,-1.471552,1.692685,1.407164,-0.588813,0.211745,-0.007756,1.107956,-0.082306,-0.113838,1.084349,-0.034417,-2.000689,38.864788,-23.528030,-4.213686,0.166105,1.735030,-0.182328,0.000000,0.000000,0.000000,0.000000,0.000000,0.000000
12879653.000000,-2.276199,-1.662611,1.343420,-1.471627,1.692570,1.408245,-0.588844,0.214434,-0.004590,1.106762,-0.079619,-0.119619,1.091292,-0.032551,-2.099871,38.837017,-23.579605,-4.265260,0.201810,1.747848,-0.130143,0.000000,0.000000,0.000000,0.000000,0.000000,0.000000
12879654.000000,-2.276000,-1.662618,1.344536,-1.471699,1.692456,1.409350,-0.588864,0.210528,-0.004875,1.109546,-0.075784,-0.122919,1.096491,-0.026555,-2.099871,38.912395,-23.555801,-4.388246,0.207303,1.695663,-0.196061,0.000000,0.000000,0.000000,0.000000,0.000000,0.000000
12879655.000000,-2.275790,-1.662623,1.345643,-1.471771,1.692338,1.410446,-0.588893,0.209448,-0.003846,1.102545,-0.074388,-0.121174,1.095810,-0.024730,-2.171282,38.936199,-23.409012,-4.463624,0.231107,1.689254,-0.196061,0.000000,0.000000,0.000000,0.000000,0.000000,0.000000
12879656.000000,-2.275590,-1.662629,1.346733,-1.471841,1.692219,1.411522,-0.588920,0.204286,-0.003707,1.096857,-0.074001,-0.120444,1.086171,-0.023908,-2.199053,38.983807,-23.210648,-4.511232,0.273221,1.727706,-0.182328,0.000000,0.000000,0.000000,0.000000,0.000000,0.000000
12879657.000000,-2.275381,-1.662632,1.347837,-1.471912,1.692104,1.412610,-0.588943,0.202797,-0.002493,1.099647,-0.071053,-0.119452,1.077054,-0.022088,-2.322039,38.983807,-23.040054,-4.535036,0.303434,1.735030,-0.196061,0.000000,0.000000,0.000000,0.000000,0.000000,0.000000
12879658.000000,-2.275181,-1.662632,1.348951,-1.471986,1.691997,1.413694,-0.588974,0.200862,-0.001121,1.098368,-0.070871,-0.116443,1.079147,-0.023823,-2.421221,38.960003,-22.988480,-4.463624,0.267728,1.779891,-0.130143,0.000000,0.000000,0.000000,0.000000,0.000000,0.000000
12879659.000000,-2.274982,-1.662633,1.350057,-1.472058,1.691893,1.414793,-0.588989,0.201821,-0.000203,1.097538,-0.073141,-0.117360,1.079764,-0.019294,-2.492632,38.936199,-23.087662,-4.412050,0.207303,1.741439,-0.215287,0.000000,0.000000,0.000000,0.000000,0.000000,0.000000
12879660.000000,-2.274786,-1.662634,1.351193,-1.472123,1.691782,1.415914,-0.589020,0.199240,-0.002825,1.105911,-0.069869,-0.115607,1.085131,-0.021763,-2.544207,38.912395,-23.432816,-4.439821,0.183500,1.578475,-0.149369,0.000000,0.000000,0.000000,0.000000,0.000000,0.000000
12879661.000000,-2.274596,-1.662632,1.352314,-1.472190,1.691680,1.417006,-0.589039,0.196541,-0.001046,1.111667,-0.068222,-0.113233,1.085984,-0.020401,-2.568011,38.864788,-23.801773,-4.439821,0.129484,1.532699,-0.163102,0.000000,0.000000,0.000000,0.000000,0.000000,0.000000
12879662.000000,-2.274414,-1.662627,1.353463,-1.472256,1.691573,1.418098,-0.589059,0.189651,0.000858,1.120666,-0.066210,-0.112802,1.083031,-0.019031,-2.520403,38.789410,-24.313553,-4.463624,0.105680,1.605026,-0.188737,0.000000,0.000000,0.000000,0.000000,0.000000,0.000000
12879663.000000,-2.274230,-1.662629,1.354602,-1.472310,1.691460,1.419167,-0.589085,0.189414,-0.000140,1.125593,-0.062406,-0.115353,1.084220,-0.020638,-2.520403,38.813213,-24.583328,-4.586610,0.166105,1.786300,-0.142960,0.000000,0.000000,0.000000,0.000000,0.000000,0.000000
12879664.000000,-2.274054,-1.662634,1.355724,-1.472370,1.691339,1.420241,-0.589104,0.183155,-0.001973,1.126693,-0.059086,-0.117674,1.077981,-0.019030,-2.397418,38.888592,-24.857071,-4.610414,0.243009,2.007858,-0.175919,0.000000,0.000000,0.000000,0.000000,0.000000,0.000000
12879665.000000,-2.273876,-1.662638,1.356843,-1.472425,1.691225,1.421327,-0.589127,0.182953,-0.001960,1.121585,-0.059845,-0.117419,1.071894,-0.020031,-2.322039,38.912395,-24.880875,-4.634218,0.273221,2.169906,-0.149369,0.000000,0.000000,0.000000,0.000000,0.000000,0.000000
12879666.000000,-2.273688,-1.662638,1.357953,-1.472485,1.691108,1.422408,-0.589148,0.188360,-0.001372,1.114579,-0.062414,-0.116314,1.069120,-0.020140,-2.468829,38.912395,-24.952286,-4.562807,0.273221,2.169906,-0.136552,0.000000,0.000000,0.000000,0.000000,0.000000,0.000000
12879667.000000,-2.273516,-1.662644,1.359064,-1.472548,1.690999,1.423515,-0.589162,0.181631,-0.002078,1.108920,-0.062196,-0.114385,1.067162,-0.017787,-2.468829,38.960003,-24.805496,-4.439821,0.243009,2.092086,-0.188737,0.000000,0.000000,0.000000,0.000000,0.000000,0.000000
12879668.000000,-2.273332,-1.662644,1.360189,-1.472614,1.690890,1.424623,-0.589185,0.186042,-0.000308,1.108562,-0.063341,-0.108381,1.086310,-0.019694,-2.619586,38.912395,-24.682510,-4.241457,0.219205,1.974899,-0.149369,0.000000,0.000000,0.000000,0.000000,0.000000,0.000000
12879669.000000,-2.273151,-1.662650,1.361280,-1.472680,1.690784,1.425704,-0.589200,0.179541,-0.001904,1.104422,-0.066836,-0.109302,1.079377,-0.017962,-2.742571,38.983807,-24.365128,-4.066896,0.213712,1.942855,-0.188737,0.000000,0.000000,0.000000,0.000000,0.000000,0.000000
12879670.000000,-2.272985,-1.662654,1.362394,-1.472743,1.690676,1.426788,-0.589220,0.173702,-0.001940,1.101140,-0.067976,-0.110645,1.072363,-0.023180,-2.690997,39.011578,-24.242142,-3.943910,0.225614,1.974899,-0.182328,0.000000,0.000000,0.000000,0.000000,0.000000,0.000000
12879671.000000,-2.272824,-1.662655,1.363495,-1.472797,1.690570,1.427866,-0.589238,0.169462,-0.000659,1.122682,-0.062846,-0.105459,1.084258,-0.022832,-2.619586,38.983807,-24.142960,-3.943910,0.201810,1.949264,-0.163102,0.000000,0.000000,0.000000,0.000000,0.000000,0.000000
12879672.000000,-2.272669,-1.662658,1.364614,-1.472846,1.690467,1.428958,-0.589255,0.164250,-0.000451,1.119651,-0.057520,-0.105617,1.080348,-0.021315,-2.468829,38.983807,-24.119156,-4.019289,0.166105,1.903487,-0.175919,0.000000,0.000000,0.000000,0.000000,0.000000,0.000000
12879673.000000,-2.272523,-1.662661,1.365736,-1.472884,1.690361,1.430052,-0.589275,0.157449,-0.000309,1.113612,-0.051574,-0.103324,1.079265,-0.021181,-2.171282,38.983807,-24.119156,-4.189882,0.171598,1.909896,-0.163102,0.000000,0.000000,0.000000,0.000000,0.000000,0.000000
12879674.000000,-2.272374,-1.662667,1.366845,-1.472928,1.690255,1.431135,-0.589290,0.156228,-0.003333,1.115951,-0.049135,-0.101376,1.069260,-0.019172,-2.024493,38.983807,-24.218338,-4.289064,0.178007,1.858627,-0.202470,0.000000,0.000000,0.000000,0.000000,0.000000,0.000000
12879675.000000,-2.272229,-1.662669,1.367967,-1.472977,1.690146,1.432225,-0.589316,0.151362,-0.005067,1.110909,-0.050375,-0.105489,1.067875,-0.021352,-1.849932,38.960003,-24.313553,-4.265260,0.207303,1.865035,-0.142960,0.000000,0.000000,0.000000,0.000000,0.000000,0.000000
12879676.000000,-2.272076,-1.662674,1.369095,-1.473025,1.690037,1.433303,-0.589327,0.152089,-0.004395,1.115198,-0.049115,-0.103901,1.071105,-0.019142,-1.849932,38.983807,-24.488113,-4.189882,0.237516,1.936446,-0.182328,0.000000,0.000000,0.000000,0.000000,0.000000,0.000000
12879677.000000,-2.271929,-1.662677,1.370188,-1.473080,1.689928,1.434407,-0.589344,0.149078,-0.003275,1.107797,-0.049645,-0.107585,1.079685,-0.019861,-1.849932,38.983807,-24.412735,-4.043092,0.273221,1.877853,-0.163102,0.000000,0.000000,0.000000,0.000000,0.000000,0.000000
12879678.000000,-2.271778,-1.662675,1.371291,-1.473126,1.689816,1.435516,-0.589366,0.150402,-0.003780,1.099410,-0.046150,-0.110046,1.086343,-0.020848,-1.873736,38.912395,-24.289749,-3.920107,0.303434,1.800033,-0.130143,0.000000,0.000000,0.000000,0.000000,0.000000,0.000000
12879679.000000,-2.271638,-1.662675,1.372376,-1.473167,1.689717,1.436607,-0.589375,0.148876,-0.001201,1.097605,-0.046749,-0.104258,1.084402,-0.018101,-1.802325,38.837017,-24.119156,-3.920107,0.261320,1.721298,-0.188737,0.000000,0.000000,0.000000,0.000000,0.000000,0.000000
12879680.000000,-2.271499,-1.662676,1.373473,-1.473207,1.689627,1.437699,-0.589393,0.145581,-0.002487,1.092931,-0.048435,-0.103505,1.080287,-0.019573,-1.778521,38.765606,-23.948563,-3.868532,0.183500,1.760665,-0.155778,0.000000,0.000000,0.000000,0.000000,0.000000,0.000000
12879681.000000,-2.271370,-1.662678,1.374569,-1.473246,1.689525,1.438775,-0.589402,0.137288,-0.002160,1.088284,-0.046551,-0.106743,1.086153,-0.017568,-1.627764,38.765606,-23.702591,-3.820925,0.201810,1.832076,-0.202470,0.000000,0.000000,0.000000,0.000000,0.000000,0.000000
12879682.000000,-2.271238,-1.662678,1.375658,-1.473283,1.689423,1.439873,-0.589418,0.135524,-0.000054,1.095399,-0.044679,-0.104398,1.085933,-0.018327,-1.528582,38.690228,-23.603409,-3.797121,0.219205,1.819259,-0.196061,0.000000,0.000000,0.000000,0.000000,0.000000,0.000000
12879683.000000,-2.271113,-1.662682,1.376765,-1.473320,1.689327,1.440971,-0.589433,0.133297,0.000239,1.089318,-0.040697,-0.101577,1.082108,-0.018805,-1.381793,38.666424,-23.678787,-3.745546,0.207303,1.871444,-0.188737,0.000000,0.000000,0.000000,0.000000,0.000000,0.000000
12879684.000000,-2.270989,-1.662676,1.377883,-1.473358,1.689229,1.442055,-0.589447,0.132113,0.002824,1.096791,-0.041434,-0.099551,1.080161,-0.015071,-1.254840,38.543438,-24.043777,-3.670168,0.195402,1.897079,-0.163102,0.000000,0.000000,0.000000,0.000000,0.000000,0.000000
12879685.000000,-2.270869,-1.662675,1.379012,-1.473397,1.689135,1.443166,-0.589459,0.126658,0.002837,1.105256,-0.036341,-0.098254,1.083690,-0.015685,-1.084246,38.495831,-24.412735,-3.570986,0.189908,1.832076,-0.169511,0.000000,0.000000,0.000000,0.000000,0.000000,0.000000
12879686.000000,-2.270751,-1.662679,1.380141,-1.473427,1.689034,1.444274,-0.589473,0.126561,0.000659,1.107434,-0.036050,-0.094498,1.105519,-0.016256,-0.961260,38.543438,-24.781693,-3.570986,0.243009,1.786300,-0.175919,0.000000,0.000000,0.000000,0.000000,0.000000,0.000000
12879687.000000,-2.270633,-1.662682,1.381257,-1.473454,1.688939,1.445353,-0.589489,0.121571,-0.000300,1.108133,-0.032977,-0.099133,1.095801,-0.013891,-0.862078,38.571209,-25.126846,-3.570986,0.243009,1.832076,-0.130143,0.000000,0.000000,0.000000,0.000000,0.000000,0.000000
12879688.000000,-2.270523,-1.662689,1.382375,-1.473480,1.688843,1.446437,-0.589498,0.116631,-0.001937,1.108289,-0.030866,-0.097784,1.087277,-0.013548,-0.711321,38.642620,-25.222061,-3.570986,0.237516,1.909896,-0.169511,0.000000,0.000000,0.000000,0.000000,0.000000,0.000000
12879689.000000,-2.270404,-1.662693,1.383474,-1.473507,1.688743,1.447502,-0.589509,0.120430,-0.003105,1.126334,-0.027310,-0.092622,1.085548,-0.014881,-0.735125,38.717999,-25.249832,-3.523378,0.249418,2.020675,-0.169511,0.000000,0.000000,0.000000,0.000000,0.000000,0.000000
12879690.000000,-2.270291,-1.662697,1.384577,-1.473533,1.688643,1.448592,-0.589525,0.121663,-0.003778,1.114381,-0.028264,-0.093510,1.088379,-0.012401,-0.735125,38.789410,-25.099075,-3.448000,0.279630,1.995040,-0.136552,0.000000,0.000000,0.000000,0.000000,0.000000,0.000000
12879691.000000,-2.270176,-1.662704,1.385677,-1.473563,1.688546,1.449692,-0.589530,0.119090,-0.004867,1.108680,-0.026986,-0.092855,1.089441,-0.012033,-0.711321,38.888592,-24.857071,-3.325014,0.255826,1.890670,-0.188737,0.000000,0.000000,0.000000,0.000000,0.000000,0.000000
12879692.000000,-2.270063,-1.662706,1.386770,-1.473591,1.688444,1.450764,-0.589544,0.118452,-0.003266,1.102738,-0.029484,-0.094772,1.074690,-0.015106,-0.735125,38.888592,-24.734085,-3.178224,0.297025,1.865035,-0.155778,0.000000,0.000000,0.000000,0.000000,0.000000,0.000000
12879693.000000,-2.269953,-1.662716,1.387857,-1.473620,1.688350,1.451850,-0.589549,0.114715,-0.004420,1.089542,-0.028780,-0.098523,1.068852,-0.009567,-0.762896,38.983807,-24.313553,-3.003664,0.279630,1.825668,-0.202470,0.000000,0.000000,0.000000,0.000000,0.000000,0.000000
12879694.000000,-2.269851,-1.662721,1.388969,-1.473645,1.688253,1.452926,-0.589562,0.109877,-0.003609,1.091193,-0.029391,-0.098028,1.070335,-0.012278,-0.711321,39.011578,-24.265945,-2.904482,0.291532,1.825668,-0.196061,0.000000,0.000000,0.000000,0.000000,0.000000,0.000000
12879695.000000,-2.269748,-1.662724,1.390057,-1.473662,1.688157,1.454023,-0.589574,0.106452,-0.002415,1.091383,-0.027706,-0.095914,1.077375,-0.014466,-0.663714,39.011578,-24.166763,-2.904482,0.261320,1.800033,-0.182328,0.000000,0.000000,0.000000,0.000000,0.000000,0.000000
12879696.000000,-2.269655,-1.662727,1.391156,-1.473673,1.688062,1.455137,-0.589583,0.101309,-0.004746,1.087779,-0.022298,-0.094748,1.085333,-0.015027,-0.512957,39.011578,-24.043777,-2.956056,0.243009,1.617843,-0.196061,0.000000,0.000000,0.000000,0.000000,0.000000,0.000000
12879697.000000,-2.269566,-1.662727,1.392256,-1.473674,1.687965,1.456226,-0.589594,0.098407,-0.004722,1.094044,-0.015826,-0.094880,1.088785,-0.016510,-0.389971,38.936199,-24.190567,-3.126650,0.249418,1.539108,-0.182328,0.000000,0.000000,0.000000,0.000000,0.000000,0.000000
12879698.000000,-2.269476,-1.662726,1.393366,-1.473681,1.687876,1.457320,-0.589602,0.093790,-0.005070,1.096460,-0.014014,-0.093617,1.094376,-0.016693,-0.290789,38.864788,-24.289749,-3.178224,0.213712,1.572067,-0.196061,0.000000,0.000000,0.000000,0.000000,0.000000,0.000000
12879699.000000,-2.269387,-1.662732,1.394478,-1.473686,1.687780,1.458397,-0.589616,0.090131,-0.003982,1.097122,-0.012726,-0.094313,1.096302,-0.019758,-0.191607,38.864788,-24.341324,-3.225832,0.225614,1.643478,-0.130143,0.000000,0.000000,0.000000,0.000000,0.000000,0.000000
12879700.000000,-2.269288,-1.662734,1.395558,-1.473690,1.687675,1.459484,-0.589622,0.091978,-0.005589,1.091284,-0.009794,-0.097833,1.087002,-0.012704,-0.266986,38.837017,-24.265945,-3.225832,0.315336,1.767074,-0.182328,0.000000,0.000000,0.000000,0.000000,0.000000,0.000000
12879701.000000,-2.269197,-1.662744,1.396650,-1.473696,1.687574,1.460580,-0.589635,0.087962,-0.009111,1.084987,-0.008068,-0.097295,1.081132,-0.010551,-0.266986,38.912395,-24.190567,-3.202028,0.327238,1.844894,-0.155778,0.000000,0.000000,0.000000,0.000000,0.000000,0.000000
12879702.000000,-2.269099,-1.662745,1.397728,-1.473696,1.687482,1.461667,-0.589644,0.091592,-0.005662,1.084873,-0.005002,-0.099710,1.077382,-0.008808,-0.413775,38.864788,-24.043777,-3.249635,0.285123,1.871444,-0.130143,0.000000,0.000000,0.000000,0.000000,0.000000,0.000000
12879703.000000,-2.269004,-1.662747,1.398818,-1.473698,1.687392,1.462777,-0.589644,0.095114,-0.006382,1.083708,-0.005001,-0.096279,1.082469,-0.004557,-0.489153,38.813213,-23.972366,-3.202028,0.225614,1.825668,-0.182328,0.000000,0.000000,0.000000,0.000000,0.000000,0.000000
