chaoyuefei/paper-gmrm-data/robot_logs/s2_dq_mrm_max_0.30_log_20260314_172954.csv
# time_ms,q_0,q_1,q_2,q_3,q_4,q_5,q_6,dq_0,dq_1,dq_2,dq_3,dq_4,dq_5,dq_6,tau_J_0,tau_J_1,tau_J_2,tau_J_3,tau_J_4,tau_J_5,tau_J_6,O_dP_EE_c_0,O_dP_EE_c_1,O_dP_EE_c_2,O_dP_EE_c_3,O_dP_EE_c_4,O_dP_EE_c_5
12056184.000000,2.313460,-0.961762,-1.822725,-1.385855,-0.923963,1.666934,0.446174,0.000150,0.000487,-0.000091,0.000026,-0.000223,-0.000125,-0.000312,0.276533,35.484661,19.592392,12.147398,1.020292,1.409103,-0.142960,0.000000,0.000000,0.000000,0.000000,0.000000,0.000000
12056185.000000,2.313460,-0.961764,-1.822723,-1.385853,-0.923962,1.666933,0.446176,0.000100,-0.000232,0.000496,0.000574,0.000089,0.000154,0.000267,0.276533,35.508465,19.568588,12.123594,1.013883,1.402694,-0.155778,0.000000,0.000000,0.000000,0.000000,0.000000,0.000000
12056186.000000,2.313462,-0.961764,-1.822725,-1.385857,-0.923964,1.666935,0.446174,0.000623,-0.000155,-0.000226,-0.000731,-0.000416,0.000103,-0.000297,0.252729,35.508465,19.592392,12.171202,1.026700,1.402694,-0.142960,0.000000,0.000000,0.000000,0.000000,0.000000,0.000000
12056187.000000,2.313456,-0.961762,-1.822725,-1.385855,-0.923963,1.666931,0.446172,-0.000791,0.000454,-0.000151,0.000070,-0.000040,-0.000440,0.000039,0.304304,35.484661,19.592392,12.147398,1.020292,1.416427,-0.149369,0.000000,0.000000,0.000000,0.000000,0.000000,0.000000
12056188.000000,2.313446,-0.961764,-1.822722,-1.385855,-0.923962,1.666933,0.446178,-0.015148,-0.007211,-0.008260,-0.000510,-0.005909,0.000690,0.000264,-0.167803,34.996685,19.005234,12.171202,0.925077,1.389877,-0.155778,0.000000,0.000000,0.000000,0.000000,0.000000,0.000000
12056189.000000,2.313424,-0.961731,-1.822738,-1.385855,-0.923947,1.666932,0.446190,-0.032499,-0.006687,-0.033779,-0.002104,-0.005355,-0.001355,0.003164,-2.000689,32.719463,17.235825,12.246580,0.559781,1.312057,-0.110001,0.000000,0.000000,0.000000,0.000000,0.000000,0.000000
12056190.000000,2.313413,-0.961689,-1.822798,-1.385853,-0.923926,1.666918,0.446215,-0.034294,0.003490,-0.051953,-0.001959,0.000985,-0.003702,0.014026,-5.440325,28.898968,14.415085,12.270384,0.010465,1.377059,-0.050492,0.000000,0.000000,0.000000,0.000000,0.000000,0.000000
12056191.000000,2.313374,-0.961683,-1.822905,-1.385844,-0.923934,1.666899,0.446261,-0.027536,0.010944,-0.064808,-0.003537,-0.003421,-0.007577,0.026000,-9.427447,24.741253,11.003220,12.099791,-0.330111,1.507064,-0.077042,0.000000,0.000000,0.000000,0.000000,0.000000,0.000000
12056192.000000,2.313300,-0.961729,-1.823041,-1.385832,-0.923996,1.666905,0.446313,-0.033946,-0.001223,-0.081058,0.000486,-0.023184,0.004586,0.032353,-13.164630,21.115154,7.567551,11.826048,-0.228488,1.494247,-0.044083,0.000000,0.000000,0.000000,0.000000,0.000000,0.000000
12056193.000000,2.313203,-0.961828,-1.823201,-1.385841,-0.924079,1.666955,0.446382,-0.042422,-0.019787,-0.091162,-0.003597,-0.046146,0.019153,0.047921,-16.481279,18.226971,4.350082,11.703062,-0.001437,1.201278,-0.044083,0.000000,0.000000,0.000000,0.000000,0.000000,0.000000
12056194.000000,2.313097,-0.961951,-1.823363,-1.385858,-0.924176,1.667054,0.446470,-0.046943,-0.040665,-0.094951,-0.011567,-0.067364,0.049476,0.062409,-18.905291,16.048931,1.699936,11.381712,0.237516,0.616256,0.009017,0.000000,0.000000,0.000000,0.000000,0.000000,0.000000
12056195.000000,2.312999,-0.962104,-1.823512,-1.385889,-0.924284,1.667204,0.446579,-0.049571,-0.073418,-0.100219,-0.021872,-0.081404,0.082602,0.080061,-20.095476,14.922222,-0.164688,10.691404,0.452665,-0.164689,-0.004716,0.000000,0.000000,0.000000,0.000000,0.000000,0.000000
12056196.000000,2.312923,-0.962283,-1.823648,-1.385944,-0.924394,1.667362,0.446703,-0.049371,-0.102613,-0.100122,-0.032925,-0.093904,0.109775,0.095464,-20.270037,14.509624,-1.319168,9.699583,0.494779,-0.684708,0.015426,0.000000,0.000000,0.000000,0.000000,0.000000,0.000000
12056197.000000,2.312867,-0.962466,-1.823762,-1.386014,-0.924505,1.667524,0.446841,-0.047923,-0.127678,-0.102047,-0.043419,-0.098235,0.138876,0.105745,-19.698748,14.533428,-1.882523,8.342772,0.374845,-0.827531,-0.017533,0.000000,0.000000,0.000000,0.000000,0.000000,0.000000
12056198.000000,2.312818,-0.962626,-1.823868,-1.386099,-0.924612,1.667686,0.446982,-0.050955,-0.138511,-0.105083,-0.054609,-0.099000,0.146796,0.120715,-18.536333,14.458050,-1.981705,6.684447,0.046171,-0.561112,-0.017533,0.000000,0.000000,0.000000,0.000000,0.000000,0.000000
12056199.000000,2.312768,-0.962754,-1.823966,-1.386230,-0.924708,1.667878,0.447128,-0.058192,-0.135847,-0.108515,-0.076746,-0.099503,0.156754,0.128208,-17.000994,14.041485,-1.783341,5.252257,-0.443636,-0.215958,-0.017533,0.000000,0.000000,0.000000,0.000000,0.000000,0.000000
12056200.000000,2.312705,-0.962837,-1.824065,-1.386403,-0.924827,1.668105,0.447286,-0.066406,-0.121548,-0.112658,-0.102776,-0.109050,0.179861,0.135803,-15.191913,13.113140,-1.414383,4.189024,-0.831820,0.017501,-0.083451,0.000000,0.000000,0.000000,0.000000,0.000000,0.000000
12056201.000000,2.312619,-0.962898,-1.824169,-1.386621,-0.924984,1.668363,0.447439,-0.079240,-0.103439,-0.115887,-0.133288,-0.125518,0.203534,0.142978,-13.113055,11.839642,-0.950211,3.621702,-0.970065,0.180465,-0.056901,0.000000,0.000000,0.000000,0.000000,0.000000,0.000000
12056202.000000,2.312517,-0.962939,-1.824286,-1.386861,-0.925186,1.668645,0.447601,-0.093172,-0.082930,-0.121826,-0.167293,-0.149269,0.228333,0.150140,-10.986590,10.347942,-0.410660,3.300352,-0.814425,0.336105,-0.077042,0.000000,0.000000,0.000000,0.000000,0.000000,0.000000
12056203.000000,2.312385,-0.962973,-1.824411,-1.387133,-0.925425,1.668956,0.447763,-0.110036,-0.066910,-0.129407,-0.198437,-0.175210,0.254366,0.153776,-8.633990,8.927654,0.033676,3.300352,-0.396029,0.394698,-0.044083,0.000000,0.000000,0.000000,0.000000,0.000000,0.000000
12056204.000000,2.312242,-0.963025,-1.824549,-1.387420,-0.925683,1.669299,0.447920,-0.124594,-0.060220,-0.133627,-0.229110,-0.200133,0.276183,0.155672,-6.380572,7.848553,0.450241,3.470946,0.076383,0.388290,0.015426,0.000000,0.000000,0.000000,0.000000,0.000000,0.000000
12056205.000000,2.312089,-0.963090,-1.824676,-1.387727,-0.925947,1.669658,0.448094,-0.137578,-0.062587,-0.133358,-0.253163,-0.222401,0.299257,0.160209,-4.250140,7.114605,0.597031,3.792296,0.428861,0.336105,-0.017533,0.000000,0.000000,0.000000,0.000000,0.000000,0.000000
12056206.000000,2.311940,-0.963182,-1.824817,-1.388022,-0.926192,1.670055,0.448256,-0.144416,-0.073788,-0.135937,-0.267215,-0.227067,0.328981,0.156087,-2.468829,6.797222,0.720016,3.744688,0.464567,0.271102,0.034652,0.000000,0.000000,0.000000,0.000000,0.000000,0.000000
12056207.000000,2.311816,-0.963300,-1.824954,-1.388308,-0.926415,1.670464,0.448436,-0.134030,-0.088932,-0.136462,-0.273077,-0.224687,0.354151,0.162113,-1.131854,6.967815,0.791427,3.470946,0.195402,0.291244,-0.044083,0.000000,0.000000,0.000000,0.000000,0.000000,0.000000
12056208.000000,2.311710,-0.963456,-1.825092,-1.388599,-0.926644,1.670863,0.448607,-0.123338,-0.114282,-0.131469,-0.272774,-0.214933,0.364558,0.163415,0.030561,7.923931,1.136581,3.002806,-0.055453,0.551253,-0.031266,0.000000,0.000000,0.000000,0.000000,0.000000,0.000000
12056209.000000,2.311606,-0.963638,-1.825231,-1.388880,-0.926865,1.671296,0.448783,-0.114822,-0.136769,-0.129609,-0.271553,-0.214952,0.381071,0.165283,1.244550,9.439434,1.846725,2.308531,-0.276095,0.811263,-0.037675,0.000000,0.000000,0.000000,0.000000,0.000000,0.000000
12056210.000000,2.311500,-0.963823,-1.825370,-1.389160,-0.927085,1.671766,0.448958,-0.109550,-0.154677,-0.134164,-0.274581,-0.212647,0.418848,0.165303,2.605329,11.105694,2.854416,1.618224,-0.443636,0.869857,-0.017533,0.000000,0.000000,0.000000,0.000000,0.000000,0.000000
12056211.000000,2.311399,-0.963991,-1.825504,-1.389464,-0.927322,1.672287,0.449135,-0.106426,-0.161664,-0.132329,-0.280756,-0.222386,0.451499,0.166251,3.866926,12.474407,3.957321,1.098509,-0.431735,0.687667,-0.044083,0.000000,0.000000,0.000000,0.000000,0.000000,0.000000
12056212.000000,2.311299,-0.964149,-1.825636,-1.389775,-0.927571,1.672853,0.449308,-0.104809,-0.161704,-0.136009,-0.289141,-0.234572,0.484566,0.167202,5.029340,13.529705,5.040390,0.701781,-0.282504,0.323287,-0.044083,0.000000,0.000000,0.000000,0.000000,0.000000,0.000000
12056213.000000,2.311205,-0.964289,-1.825768,-1.390112,-0.927835,1.673399,0.449476,-0.102462,-0.159017,-0.138184,-0.304966,-0.239897,0.502858,0.166377,5.997358,14.065289,5.996506,0.455809,-0.067355,0.089828,-0.004716,0.000000,0.000000,0.000000,0.000000,0.000000,0.000000
12056214.000000,2.311110,-0.964408,-1.825899,-1.390460,-0.928097,1.673939,0.449648,-0.098338,-0.145630,-0.137497,-0.315501,-0.252447,0.507776,0.168368,6.838422,14.065289,6.734421,0.309019,0.166105,0.154830,-0.031266,0.000000,0.000000,0.000000,0.000000,0.000000,0.000000
12056215.000000,2.311030,-0.964515,-1.826030,-1.390811,-0.928362,1.674458,0.449819,-0.094852,-0.134052,-0.138496,-0.327436,-0.256056,0.516327,0.166387,7.381940,13.652691,7.246201,0.086851,0.339139,0.343429,0.009017,0.000000,0.000000,0.000000,0.000000,0.000000,0.000000
12056216.000000,2.310964,-0.964618,-1.826166,-1.391185,-0.928618,1.674992,0.449998,-0.083371,-0.122018,-0.136555,-0.337689,-0.258210,0.518124,0.171809,7.631879,12.990154,7.615158,-0.036134,0.386747,0.466109,-0.017533,0.000000,0.000000,0.000000,0.000000,0.000000,0.000000
12056217.000000,2.310912,-0.964724,-1.826313,-1.391558,-0.928875,1.675527,0.450172,-0.072154,-0.114182,-0.139696,-0.354548,-0.255955,0.514191,0.171374,7.604108,12.208599,7.884933,-0.234499,0.308927,0.518295,-0.017533,0.000000,0.000000,0.000000,0.000000,0.000000,0.000000
12056218.000000,2.310858,-0.964846,-1.826458,-1.391940,-0.929128,1.676049,0.450343,-0.065919,-0.114089,-0.140651,-0.362545,-0.255693,0.517335,0.169225,7.604108,11.645245,8.059494,-0.456667,0.141385,0.544845,0.028243,0.000000,0.000000,0.000000,0.000000,0.000000,0.000000
12056219.000000,2.310815,-0.964989,-1.826618,-1.392332,-0.929387,1.676565,0.450526,-0.056876,-0.121236,-0.145225,-0.370303,-0.253878,0.509422,0.172405,7.381940,11.323895,8.253891,-0.730409,0.027860,0.648299,-0.050492,0.000000,0.000000,0.000000,0.000000,0.000000,0.000000
12056220.000000,2.310782,-0.965161,-1.826788,-1.392715,-0.929650,1.677073,0.450695,-0.047005,-0.134808,-0.153363,-0.373079,-0.257742,0.507432,0.168571,6.985212,11.351665,8.523666,-1.150941,0.052579,0.733443,0.009017,0.000000,0.000000,0.000000,0.000000,0.000000,0.000000
12056221.000000,2.310751,-0.965360,-1.826955,-1.393111,-0.929929,1.677586,0.450870,-0.045601,-0.154664,-0.157564,-0.376429,-0.267108,0.509591,0.169360,6.540876,11.692852,8.670456,-1.496095,0.141385,0.687667,-0.004716,0.000000,0.000000,0.000000,0.000000,0.000000,0.000000
12056222.000000,2.310716,-0.965588,-1.827119,-1.393493,-0.930216,1.678105,0.451045,-0.042809,-0.176894,-0.155709,-0.370360,-0.275836,0.509733,0.169233,5.898176,12.402996,8.722031,-1.571474,0.273221,0.532027,-0.017533,0.000000,0.000000,0.000000,0.000000,0.000000,0.000000
12056223.000000,2.310671,-0.965835,-1.827291,-1.393883,-0.930503,1.678626,0.451225,-0.046456,-0.201202,-0.159048,-0.374973,-0.276250,0.515354,0.173785,5.080915,13.406719,8.817245,-1.226320,0.374845,0.369064,-0.023942,0.000000,0.000000,0.000000,0.000000,0.000000,0.000000
12056224.000000,2.310618,-0.966092,-1.827464,-1.394269,-0.930788,1.679149,0.451403,-0.049735,-0.218613,-0.160306,-0.376603,-0.278788,0.518616,0.175474,4.116865,14.533428,8.868820,-0.508241,0.416959,0.271102,-0.031266,0.000000,0.000000,0.000000,0.000000,0.000000,0.000000
12056225.000000,2.310561,-0.966362,-1.827625,-1.394637,-0.931062,1.679676,0.451573,-0.048179,-0.233236,-0.156339,-0.375985,-0.279968,0.521567,0.173455,3.073469,15.925945,8.964035,0.455809,0.434354,0.232650,-0.017533,0.000000,0.000000,0.000000,0.000000,0.000000,0.000000
12056226.000000,2.310501,-0.966636,-1.827780,-1.395011,-0.931347,1.680187,0.451748,-0.050233,-0.244103,-0.153134,-0.376148,-0.283824,0.517809,0.171312,2.133222,17.544598,9.186203,1.642027,0.422452,0.362655,-0.017533,0.000000,0.000000,0.000000,0.000000,0.000000,0.000000
12056227.000000,2.310411,-0.966907,-1.827925,-1.395400,-0.931619,1.680695,0.451916,-0.060438,-0.251345,-0.146574,-0.381121,-0.280633,0.507579,0.170132,1.665082,19.282269,9.507553,3.224974,0.344633,0.532027,0.009017,0.000000,0.000000,0.000000,0.000000,0.000000,0.000000
12056228.000000,2.310316,-0.967169,-1.828065,-1.395789,-0.931883,1.681210,0.452084,-0.073454,-0.255303,-0.144193,-0.389142,-0.270701,0.508217,0.169811,1.367536,20.968365,9.947922,4.930907,0.183500,0.674850,0.009017,0.000000,0.000000,0.000000,0.000000,0.000000,0.000000
12056229.000000,2.310216,-0.967416,-1.828205,-1.396197,-0.932136,1.681736,0.452244,-0.082147,-0.253680,-0.142214,-0.397736,-0.264243,0.504247,0.167228,1.268354,22.511639,10.535080,6.708251,0.034269,0.752670,0.081344,0.000000,0.000000,0.000000,0.000000,0.000000,0.000000
12056230.000000,2.310112,-0.967660,-1.828343,-1.396606,-0.932395,1.682257,0.452425,-0.089271,-0.252363,-0.143403,-0.401916,-0.262677,0.505183,0.170111,1.244550,23.931927,11.126205,8.267393,-0.031649,0.915633,0.021835,0.000000,0.000000,0.000000,0.000000,0.000000,0.000000
12056231.000000,2.310009,-0.967903,-1.828482,-1.397028,-0.932670,1.682748,0.452598,-0.094359,-0.253461,-0.143811,-0.414674,-0.264883,0.496129,0.173539,1.244550,25.153851,11.713364,9.699583,0.010465,1.220504,0.054794,0.000000,0.000000,0.000000,0.000000,0.000000,0.000000
12056232.000000,2.309899,-0.968158,-1.828634,-1.397453,-0.932938,1.683230,0.452769,-0.097143,-0.252597,-0.145345,-0.414450,-0.271169,0.487212,0.170885,1.343732,26.280560,12.375900,10.861998,0.088285,1.539108,0.054794,0.000000,0.000000,0.000000,0.000000,0.000000,0.000000
12056233.000000,2.309789,-0.968424,-1.828797,-1.397869,-0.933207,1.683717,0.452943,-0.097830,-0.254800,-0.151998,-0.420047,-0.273897,0.483769,0.171271,1.415143,27.383465,13.137619,11.703062,0.207303,1.721298,0.028243,0.000000,0.000000,0.000000,0.000000,0.000000,0.000000
12056234.000000,2.309680,-0.968700,-1.828967,-1.398296,-0.933467,1.684216,0.453113,-0.103428,-0.263818,-0.161238,-0.419102,-0.267865,0.483848,0.168876,1.565900,28.486370,13.823959,12.321959,0.255826,1.656295,0.054794,0.000000,0.000000,0.000000,0.000000,0.000000,0.000000
12056235.000000,2.309568,-0.968988,-1.829143,-1.398709,-0.933727,1.684724,0.453284,-0.108536,-0.271748,-0.165845,-0.425639,-0.269708,0.489366,0.169902,1.688886,29.537701,14.415085,12.591734,0.219205,1.552840,0.009017,0.000000,0.000000,0.000000,0.000000,0.000000,0.000000
12056236.000000,2.309448,-0.969294,-1.829325,-1.399124,-0.933996,1.685204,0.453447,-0.112633,-0.279225,-0.171724,-0.415532,-0.266341,0.481300,0.163351,1.934858,30.640606,14.978439,12.591734,0.178007,1.539108,0.048385,0.000000,0.000000,0.000000,0.000000,0.000000,0.000000
12056237.000000,2.309328,-0.969619,-1.829514,-1.399527,-0.934260,1.685674,0.453619,-0.112370,-0.289374,-0.176801,-0.410825,-0.264828,0.474453,0.165548,2.184797,31.791119,15.446579,12.393370,0.147794,1.597701,0.034652,0.000000,0.000000,0.000000,0.000000,0.000000,0.000000
12056238.000000,2.309202,-0.969951,-1.829716,-1.399921,-0.934526,1.686141,0.453786,-0.117161,-0.302491,-0.184355,-0.401514,-0.265284,0.470856,0.170426,2.529951,32.866253,15.910751,12.024412,0.159696,1.702071,0.054794,0.000000,0.000000,0.000000,0.000000,0.000000,0.000000
12056239.000000,2.309075,-0.970276,-1.829910,-1.400326,-0.934796,1.686610,0.453961,-0.120039,-0.308630,-0.190032,-0.399687,-0.267944,0.462658,0.171005,2.851301,33.675579,16.232101,11.726866,0.129484,1.676437,0.015426,0.000000,0.000000,0.000000,0.000000,0.000000,0.000000
12056240.000000,2.308945,-0.970592,-1.830123,-1.400734,-0.935066,1.687098,0.454125,-0.124614,-0.309954,-0.196331,-0.398170,-0.269513,0.473034,0.169882,3.172651,34.163555,16.624863,11.480894,0.069974,1.559249,0.034652,0.000000,0.000000,0.000000,0.000000,0.000000,0.000000
12056241.000000,2.308825,-0.970891,-1.830341,-1.401120,-0.935343,1.687575,0.454288,-0.123114,-0.313115,-0.202255,-0.395307,-0.268356,0.470671,0.162891,3.398786,34.385723,17.065231,11.159544,0.064481,1.474105,0.067611,0.000000,0.000000,0.000000,0.000000,0.000000,0.000000
12056242.000000,2.308706,-0.971202,-1.830574,-1.401507,-0.935631,1.688040,0.454452,-0.120066,-0.310160,-0.211214,-0.390316,-0.275851,0.461927,0.165480,3.545576,34.532513,17.580978,10.861998,0.159696,1.519881,0.048385,0.000000,0.000000,0.000000,0.000000,0.000000,0.000000
12056243.000000,2.308586,-0.971501,-1.830815,-1.401876,-0.935913,1.688506,0.454618,-0.117455,-0.303984,-0.219728,-0.385820,-0.277301,0.459937,0.170902,3.668561,34.480938,18.168137,10.493040,0.279630,1.637069,0.041976,0.000000,0.000000,0.000000,0.000000,0.000000,0.000000
12056244.000000,2.308473,-0.971774,-1.831054,-1.402257,-0.936199,1.688968,0.454785,-0.113927,-0.293865,-0.226862,-0.383519,-0.275714,0.456101,0.169488,3.720136,34.139751,18.660080,10.294676,0.351041,1.708480,0.067611,0.000000,0.000000,0.000000,0.000000,0.000000,0.000000
12056245.000000,2.308366,-0.972060,-1.831306,-1.402639,-0.936481,1.689440,0.454956,-0.113354,-0.286676,-0.232913,-0.381366,-0.273762,0.456961,0.169406,3.720136,33.917583,19.199631,10.219297,0.386747,1.741439,0.074935,0.000000,0.000000,0.000000,0.000000,0.000000,0.000000
12056246.000000,2.308257,-0.972346,-1.831555,-1.403009,-0.936763,1.689917,0.455131,-0.113156,-0.286609,-0.238651,-0.378635,-0.274776,0.475308,0.171217,3.743940,33.770794,19.643967,10.096312,0.362943,1.670028,0.021835,0.000000,0.000000,0.000000,0.000000,0.000000,0.000000
12056247.000000,2.308153,-0.972630,-1.831810,-1.403385,-0.937044,1.690383,0.455296,-0.111166,-0.284830,-0.242653,-0.371287,-0.271228,0.468010,0.173403,3.644758,33.647808,20.060532,10.072508,0.344633,1.670028,0.054794,0.000000,0.000000,0.000000,0.000000,0.000000,0.000000
12056248.000000,2.308051,-0.972931,-1.832075,-1.403757,-0.937332,1.690839,0.455470,-0.106541,-0.287999,-0.248896,-0.371856,-0.276611,0.462476,0.173566,3.545576,33.723186,20.477097,9.997129,0.416959,1.838485,0.028243,0.000000,0.000000,0.000000,0.000000,0.000000,0.000000
12056249.000000,2.307950,-0.973226,-1.832335,-1.404131,-0.937627,1.691286,0.455640,-0.104889,-0.292053,-0.254475,-0.369560,-0.280109,0.454491,0.172587,3.497968,33.869976,20.794479,9.949522,0.482877,2.001449,0.021835,0.000000,0.000000,0.000000,0.000000,0.000000,0.000000
12056250.000000,2.307860,-0.973538,-1.832608,-1.404507,-0.937912,1.691749,0.455801,-0.099607,-0.297243,-0.254391,-0.370431,-0.288205,0.461165,0.166906,3.271833,34.115948,21.215012,9.897947,0.488370,2.020675,0.028243,0.000000,0.000000,0.000000,0.000000,0.000000,0.000000
12056251.000000,2.307770,-0.973843,-1.832866,-1.404882,-0.938205,1.692226,0.455969,-0.097582,-0.297408,-0.253478,-0.373045,-0.288738,0.463731,0.166445,3.125043,34.238934,21.433212,9.921751,0.542386,1.916305,0.034652,0.000000,0.000000,0.000000,0.000000,0.000000,0.000000
12056252.000000,2.307689,-0.974146,-1.833127,-1.405268,-0.938488,1.692696,0.456133,-0.093602,-0.301520,-0.252563,-0.374723,-0.289936,0.460760,0.166008,2.879072,34.357952,21.631577,9.973326,0.506681,1.779891,0.067611,0.000000,0.000000,0.000000,0.000000,0.000000,0.000000
12056253.000000,2.307612,-0.974458,-1.833392,-1.405650,-0.938780,1.693162,0.456307,-0.087767,-0.302952,-0.254665,-0.382717,-0.292240,0.465530,0.165190,2.605329,34.457134,21.802170,9.997129,0.488370,1.800033,-0.011124,0.000000,0.000000,0.000000,0.000000,0.000000,0.000000
12056254.000000,2.307546,-0.974765,-1.833644,-1.406030,-0.939079,1.693611,0.456462,-0.080992,-0.297810,-0.253079,-0.386378,-0.296977,0.462524,0.163048,2.232404,34.556316,21.825974,10.072508,0.566190,1.923629,0.067611,0.000000,0.000000,0.000000,0.000000,0.000000,0.000000
12056255.000000,2.307487,-0.975075,-1.833897,-1.406410,-0.939364,1.694069,0.456631,-0.075170,-0.305767,-0.250586,-0.383863,-0.287755,0.458892,0.167167,1.788068,34.603924,21.802170,10.072508,0.542386,2.014266,0.009017,0.000000,0.000000,0.000000,0.000000,0.000000,0.000000
12056256.000000,2.307431,-0.975389,-1.834157,-1.406802,-0.939642,1.694542,0.456798,-0.068269,-0.306428,-0.254660,-0.390535,-0.290249,0.461832,0.166908,1.367536,34.627728,21.849777,10.294676,0.512174,2.033492,0.009017,0.000000,0.000000,0.000000,0.000000,0.000000,0.000000
12056257.000000,2.307376,-0.975689,-1.834405,-1.407201,-0.939939,1.695011,0.456954,-0.062561,-0.303421,-0.251282,-0.390713,-0.287527,0.465519,0.160996,1.022382,34.556316,21.754562,10.493040,0.500272,2.001449,0.054794,0.000000,0.000000,0.000000,0.000000,0.000000,0.000000
12056258.000000,2.307332,-0.975999,-1.834657,-1.407601,-0.940231,1.695489,0.457121,-0.055742,-0.307196,-0.248671,-0.394496,-0.285458,0.467563,0.164292,0.574079,34.457134,21.778366,10.691404,0.476469,1.942855,0.009017,0.000000,0.000000,0.000000,0.000000,0.000000,0.000000
12056259.000000,2.307293,-0.976307,-1.834898,-1.408000,-0.940530,1.695965,0.457280,-0.048692,-0.313079,-0.247284,-0.396269,-0.287067,0.474747,0.163132,0.129743,34.433331,21.679184,10.861998,0.530485,1.890670,0.067611,0.000000,0.000000,0.000000,0.000000,0.000000,0.000000
12056260.000000,2.307258,-0.976612,-1.835142,-1.408408,-0.940823,1.696430,0.457453,-0.045005,-0.312615,-0.246213,-0.401412,-0.286935,0.464109,0.168508,-0.342364,34.385723,21.607773,11.084166,0.559781,1.962081,0.041976,0.000000,0.000000,0.000000,0.000000,0.000000,0.000000
12056261.000000,2.307222,-0.976923,-1.835378,-1.408817,-0.941120,1.696907,0.457619,-0.040707,-0.309372,-0.243758,-0.402451,-0.290349,0.467110,0.164037,-0.762896,34.357952,21.433212,11.306334,0.554288,2.053634,0.041976,0.000000,0.000000,0.000000,0.000000,0.000000,0.000000
12056262.000000,2.307192,-0.977237,-1.835608,-1.409230,-0.941421,1.697381,0.457792,-0.038066,-0.310142,-0.238584,-0.403452,-0.288051,0.470164,0.165864,-1.159625,34.457134,21.238815,11.528502,0.559781,2.007858,0.015426,0.000000,0.000000,0.000000,0.000000,0.000000,0.000000
12056263.000000,2.307164,-0.977564,-1.835836,-1.409647,-0.941711,1.697857,0.457953,-0.033076,-0.319025,-0.234480,-0.403473,-0.290617,0.470312,0.164441,-1.552386,34.679302,21.040451,11.726866,0.535978,1.949264,0.081344,0.000000,0.000000,0.000000,0.000000,0.000000,0.000000
12056264.000000,2.307136,-0.977894,-1.836051,-1.410049,-0.942002,1.698327,0.458130,-0.031277,-0.321320,-0.225181,-0.403189,-0.288412,0.483208,0.167238,-1.873736,34.873699,20.822250,11.778440,0.524076,1.916305,0.034652,0.000000,0.000000,0.000000,0.000000,0.000000,0.000000
12056265.000000,2.307108,-0.978228,-1.836256,-1.410460,-0.942298,1.698797,0.458294,-0.030101,-0.324417,-0.216261,-0.402583,-0.291073,0.473841,0.171027,-2.171282,35.238689,20.524704,11.826048,0.506681,1.909896,0.048385,0.000000,0.000000,0.000000,0.000000,0.000000,0.000000
12056266.000000,2.307085,-0.978576,-1.836466,-1.410866,-0.942598,1.699273,0.458464,-0.031369,-0.332748,-0.211623,-0.399079,-0.289669,0.473787,0.171708,-2.492632,35.631451,20.278732,11.976805,0.518583,1.877853,0.021835,0.000000,0.000000,0.000000,0.000000,0.000000,0.000000
12056267.000000,2.307061,-0.978914,-1.836673,-1.411278,-0.942894,1.699742,0.458630,-0.030493,-0.333059,-0.210828,-0.397619,-0.288423,0.469666,0.169353,-2.766375,35.901226,20.159714,12.048216,0.535978,1.832076,0.067611,0.000000,0.000000,0.000000,0.000000,0.000000,0.000000
12056268.000000,2.307036,-0.979268,-1.836874,-1.411688,-0.943176,1.700217,0.458796,-0.027759,-0.342326,-0.204313,-0.396536,-0.285791,0.470463,0.171539,-3.012347,36.270184,19.961349,12.123594,0.500272,1.741439,0.094161,0.000000,0.000000,0.000000,0.000000,0.000000,0.000000
12056269.000000,2.307003,-0.979626,-1.837073,-1.412101,-0.943467,1.700695,0.458972,-0.031944,-0.346733,-0.201815,-0.400816,-0.288841,0.471248,0.173570,-3.111529,36.563763,19.838364,12.270384,0.470060,1.708480,0.021835,0.000000,0.000000,0.000000,0.000000,0.000000,0.000000
12056270.000000,2.306969,-0.979976,-1.837271,-1.412519,-0.943760,1.701162,0.459133,-0.033021,-0.347767,-0.199051,-0.399462,-0.286483,0.469231,0.169260,-3.139300,36.881145,19.667770,12.520323,0.446256,1.721298,0.081344,0.000000,0.000000,0.000000,0.000000,0.000000,0.000000
12056271.000000,2.306938,-0.980333,-1.837470,-1.412929,-0.944043,1.701637,0.459305,-0.032575,-0.345749,-0.196315,-0.409583,-0.284428,0.466630,0.171943,-3.210711,37.127117,19.616196,12.667112,0.405057,1.754256,0.015426,0.000000,0.000000,0.000000,0.000000,0.000000,0.000000
12056272.000000,2.306901,-0.980686,-1.837669,-1.413347,-0.944327,1.702106,0.459468,-0.033791,-0.345739,-0.199102,-0.408483,-0.278276,0.470949,0.169758,-3.210711,37.392925,19.643967,12.889280,0.374845,1.793624,0.048385,0.000000,0.000000,0.000000,0.000000,0.000000,0.000000
12056273.000000,2.306858,-0.981038,-1.837858,-1.413769,-0.944610,1.702572,0.459635,-0.036969,-0.349200,-0.193793,-0.409732,-0.279580,0.462473,0.169660,-3.111529,37.539715,19.520981,13.087645,0.362943,1.832076,0.048385,0.000000,0.000000,0.000000,0.000000,0.000000,0.000000
12056274.000000,2.306817,-0.981390,-1.838056,-1.414179,-0.944897,1.703049,0.459809,-0.040588,-0.346783,-0.198935,-0.405789,-0.284454,0.467280,0.165854,-3.063921,37.591290,19.544785,13.309813,0.339139,1.890670,0.021835,0.000000,0.000000,0.000000,0.000000,0.000000,0.000000
12056275.000000,2.306765,-0.981737,-1.838255,-1.414595,-0.945183,1.703525,0.459981,-0.044439,-0.351165,-0.193702,-0.407274,-0.278364,0.470101,0.164794,-2.841753,37.761883,19.544785,13.484373,0.320829,1.838485,0.054794,0.000000,0.000000,0.000000,0.000000,0.000000,0.000000
12056276.000000,2.306715,-0.982100,-1.838465,-1.415003,-0.945470,1.704005,0.460152,-0.044976,-0.357607,-0.198501,-0.403559,-0.276541,0.475285,0.166679,-2.690997,38.031658,19.667770,13.555784,0.369352,1.779891,0.041976,0.000000,0.000000,0.000000,0.000000,0.000000,0.000000
12056277.000000,2.306661,-0.982451,-1.838671,-1.415409,-0.945749,1.704469,0.460319,-0.050150,-0.360232,-0.197819,-0.404624,-0.278306,0.479026,0.164817,-2.468829,38.202251,19.739182,13.654966,0.369352,1.812850,0.087753,0.000000,0.000000,0.000000,0.000000,0.000000,0.000000
12056278.000000,2.306599,-0.982818,-1.838876,-1.415812,-0.946044,1.704932,0.460496,-0.054698,-0.362366,-0.202144,-0.403546,-0.285276,0.469186,0.163272,-2.199053,38.424419,19.766953,13.706541,0.398649,1.838485,0.041976,0.000000,0.000000,0.000000,0.000000,0.000000,0.000000
12056279.000000,2.306534,-0.983189,-1.839089,-1.416204,-0.946331,1.705410,0.460663,-0.054894,-0.362494,-0.201517,-0.400592,-0.290218,0.471449,0.164866,-1.925311,38.741802,19.885971,13.631163,0.416959,1.786300,0.041976,0.000000,0.000000,0.000000,0.000000,0.000000,0.000000
12056280.000000,2.306467,-0.983553,-1.839303,-1.416592,-0.946617,1.705877,0.460828,-0.057945,-0.366165,-0.205434,-0.394209,-0.290895,0.467652,0.163192,-1.651568,39.011578,20.060532,13.484373,0.374845,1.760665,0.087753,0.000000,0.000000,0.000000,0.000000,0.000000,0.000000
12056281.000000,2.306396,-0.983927,-1.839516,-1.416982,-0.946898,1.706338,0.461001,-0.060360,-0.367968,-0.206432,-0.391638,-0.287788,0.459694,0.165412,-1.354022,39.305157,20.183517,13.286009,0.339139,1.793624,0.074935,0.000000,0.000000,0.000000,0.000000,0.000000,0.000000
12056282.000000,2.306320,-0.984302,-1.839734,-1.417362,-0.947191,1.706798,0.461178,-0.064000,-0.370962,-0.208523,-0.387377,-0.290076,0.469399,0.168551,-0.985064,39.574932,20.354111,13.111448,0.303434,1.865035,0.009017,0.000000,0.000000,0.000000,0.000000,0.000000,0.000000
12056283.000000,2.306242,-0.984682,-1.839958,-1.417743,-0.947491,1.707255,0.461338,-0.068809,-0.374886,-0.210618,-0.385323,-0.293058,0.459407,0.170567,-0.635943,39.868511,20.552475,12.889280,0.303434,1.858627,0.054794,0.000000,0.000000,0.000000,0.000000,0.000000,0.000000
12056284.000000,2.306167,-0.985044,-1.840189,-1.418113,-0.947789,1.707718,0.461500,-0.070383,-0.366146,-0.216379,-0.380131,-0.296430,0.463723,0.165211,-0.366168,39.939922,20.794479,12.591734,0.332731,1.793624,0.067611,0.000000,0.000000,0.000000,0.000000,0.000000,0.000000
12056285.000000,2.306085,-0.985403,-1.840422,-1.418494,-0.948085,1.708180,0.461666,-0.073567,-0.358935,-0.221673,-0.383768,-0.292494,0.461646,0.162620,-0.017047,39.963726,21.092026,12.444944,0.332731,1.767074,0.041976,0.000000,0.000000,0.000000,0.000000,0.000000,0.000000
12056286.000000,2.305996,-0.985755,-1.840658,-1.418872,-0.948386,1.708642,0.461824,-0.079718,-0.355643,-0.225764,-0.379716,-0.303722,0.455774,0.159037,0.375715,39.892315,21.286423,12.298155,0.369352,1.773483,0.061202,0.000000,0.000000,0.000000,0.000000,0.000000,0.000000
12056287.000000,2.305907,-0.986109,-1.840895,-1.419235,-0.948696,1.709107,0.461988,-0.083108,-0.356993,-0.231825,-0.375213,-0.304059,0.458688,0.162864,0.724836,39.868511,21.580002,12.099791,0.398649,1.793624,0.009017,0.000000,0.000000,0.000000,0.000000,0.000000,0.000000
12056288.000000,2.305814,-0.986452,-1.841137,-1.419600,-0.949012,1.709563,0.462143,-0.086311,-0.351746,-0.236839,-0.368307,-0.304852,0.454825,0.160908,1.093793,39.745525,21.901352,11.901426,0.452665,1.825668,0.100570,0.000000,0.000000,0.000000,0.000000,0.000000,0.000000
12056289.000000,2.305724,-0.986788,-1.841379,-1.419959,-0.949314,1.710017,0.462312,-0.089839,-0.347903,-0.238245,-0.375000,-0.304039,0.451018,0.165260,1.391340,39.598736,22.147324,11.750669,0.458158,1.877853,0.048385,0.000000,0.000000,0.000000,0.000000,0.000000,0.000000
12056290.000000,2.305630,-0.987117,-1.841622,-1.420318,-0.949621,1.710465,0.462480,-0.093821,-0.346102,-0.239680,-0.368646,-0.306368,0.444370,0.166594,1.740461,39.352764,22.393295,11.556273,0.416959,1.930038,0.034652,0.000000,0.000000,0.000000,0.000000,0.000000,0.000000
12056291.000000,2.305538,-0.987452,-1.841868,-1.420674,-0.949939,1.710921,0.462640,-0.091738,-0.338570,-0.240129,-0.359054,-0.305243,0.443407,0.167250,1.986432,39.205975,22.635300,11.429319,0.416959,1.949264,0.041976,0.000000,0.000000,0.000000,0.000000,0.000000,0.000000
12056292.000000,2.305452,-0.987790,-1.842116,-1.421012,-0.950253,1.711385,0.462808,-0.090569,-0.334860,-0.244049,-0.350216,-0.310087,0.451858,0.162389,2.133222,39.011578,22.932846,11.084166,0.446256,1.903487,0.048385,0.000000,0.000000,0.000000,0.000000,0.000000,0.000000
12056293.000000,2.305363,-0.988126,-1.842371,-1.421359,-0.950560,1.711831,0.462972,-0.085679,-0.334200,-0.246399,-0.343929,-0.302525,0.449621,0.158853,2.307783,38.888592,23.151047,10.885801,0.440763,1.949264,0.061202,0.000000,0.000000,0.000000,0.000000,0.000000,0.000000
12056294.000000,2.305276,-0.988460,-1.842628,-1.421698,-0.950881,1.712278,0.463137,-0.085807,-0.335894,-0.246324,-0.342865,-0.309181,0.442599,0.161506,2.430768,38.717999,23.420822,10.564451,0.500272,1.981307,0.048385,0.000000,0.000000,0.000000,0.000000,0.000000,0.000000
12056295.000000,2.305190,-0.988796,-1.842874,-1.422033,-0.951206,1.712723,0.463301,-0.086880,-0.338716,-0.244502,-0.338132,-0.309290,0.455447,0.162483,2.581525,38.618816,23.619186,10.342283,0.559781,2.001449,0.067611,0.000000,0.000000,0.000000,0.000000,0.000000,0.000000
12056296.000000,2.305108,-0.989128,-1.843125,-1.422367,-0.951528,1.713183,0.463477,-0.085418,-0.336022,-0.245884,-0.336905,-0.313702,0.454443,0.169079,2.629133,38.448223,23.813583,10.120115,0.608304,1.962081,0.015426,0.000000,0.000000,0.000000,0.000000,0.000000,0.000000
12056297.000000,2.305029,-0.989470,-1.843381,-1.422702,-0.951838,1.713640,0.463636,-0.083341,-0.338356,-0.247032,-0.336363,-0.315027,0.454654,0.162260,2.629133,38.349041,23.988144,10.020933,0.601896,1.923629,0.074935,0.000000,0.000000,0.000000,0.000000,0.000000,0.000000
12056298.000000,2.304951,-0.989798,-1.843626,-1.423037,-0.952168,1.714088,0.463810,-0.082177,-0.329675,-0.246250,-0.333608,-0.321047,0.452684,0.161353,2.629133,38.202251,24.083359,9.949522,0.625699,1.949264,0.015426,0.000000,0.000000,0.000000,0.000000,0.000000,0.000000
12056299.000000,2.304871,-0.990130,-1.843873,-1.423373,-0.952485,1.714543,0.463971,-0.078911,-0.330123,-0.244389,-0.331380,-0.322796,0.448996,0.162438,2.652936,38.079266,24.134933,9.874144,0.601896,1.968490,0.041976,0.000000,0.000000,0.000000,0.000000,0.000000,0.000000
12056300.000000,2.304799,-0.990463,-1.844123,-1.423702,-0.952810,1.714994,0.464136,-0.074948,-0.329430,-0.244737,-0.327787,-0.317763,0.448640,0.158267,2.605329,37.984051,24.234116,9.874144,0.608304,1.988631,0.054794,0.000000,0.000000,0.000000,0.000000,0.000000,0.000000
12056301.000000,2.304726,-0.990784,-1.844368,-1.424038,-0.953128,1.715442,0.464303,-0.073001,-0.330136,-0.240408,-0.332737,-0.318112,0.447084,0.165734,2.581525,37.861065,24.281723,9.973326,0.601896,2.020675,0.028243,0.000000,0.000000,0.000000,0.000000,0.000000,0.000000
12056302.000000,2.304657,-0.991105,-1.844601,-1.424368,-0.953451,1.715905,0.464459,-0.069408,-0.324302,-0.234299,-0.335747,-0.317300,0.443705,0.164234,2.482343,37.615093,24.182541,10.020933,0.566190,1.995040,0.067611,0.000000,0.000000,0.000000,0.000000,0.000000,0.000000
12056303.000000,2.304594,-0.991420,-1.844833,-1.424712,-0.953775,1.716359,0.464637,-0.066526,-0.320282,-0.234246,-0.338409,-0.313510,0.450669,0.168485,2.359357,37.492107,24.134933,10.243101,0.578092,1.988631,-0.011124,0.000000,0.000000,0.000000,0.000000,0.000000,0.000000
12056304.000000,2.304530,-0.991735,-1.845070,-1.425063,-0.954104,1.716812,0.464799,-0.065101,-0.317760,-0.231307,-0.340592,-0.317616,0.447156,0.169846,2.260175,37.246136,24.111130,10.493040,0.637601,2.007858,0.034652,0.000000,0.000000,0.000000,0.000000,0.000000,0.000000
12056305.000000,2.304470,-0.992053,-1.845297,-1.425403,-0.954417,1.717257,0.464964,-0.063098,-0.317339,-0.231869,-0.337201,-0.314345,0.442833,0.164961,2.109418,37.075542,24.035751,10.663633,0.655912,2.014266,0.034652,0.000000,0.000000,0.000000,0.000000,0.000000,0.000000
12056306.000000,2.304418,-0.992362,-1.845520,-1.425747,-0.954747,1.717695,0.465132,-0.057679,-0.319977,-0.227439,-0.339878,-0.315809,0.443021,0.165733,1.911054,36.904949,23.888962,10.814390,0.673307,2.060043,0.021835,0.000000,0.000000,0.000000,0.000000,0.000000,0.000000
12056307.000000,2.304367,-0.992680,-1.845736,-1.426100,-0.955068,1.718135,0.465294,-0.056825,-0.321442,-0.221888,-0.340403,-0.317418,0.436559,0.165929,1.712690,36.734356,23.642990,11.012754,0.685209,2.125045,0.041976,0.000000,0.000000,0.000000,0.000000,0.000000,0.000000
12056308.000000,2.304317,-0.992991,-1.845948,-1.426444,-0.955382,1.718571,0.465466,-0.054545,-0.316773,-0.220459,-0.339856,-0.310864,0.447402,0.167360,1.542096,36.611370,23.496201,11.183348,0.620206,2.112228,0.021835,0.000000,0.000000,0.000000,0.000000,0.000000,0.000000
12056309.000000,2.304267,-0.993316,-1.846151,-1.426794,-0.955698,1.719018,0.465622,-0.051595,-0.320471,-0.209622,-0.337475,-0.312019,0.448357,0.165942,1.343732,36.611370,23.226425,11.282530,0.578092,2.060043,0.074935,0.000000,0.000000,0.000000,0.000000,0.000000,0.000000
12056310.000000,2.304220,-0.993643,-1.846349,-1.427147,-0.956016,1.719458,0.465795,-0.049952,-0.321964,-0.211521,-0.339734,-0.312331,0.439968,0.164539,1.169172,36.587566,23.004257,11.528502,0.518583,2.047225,0.015426,0.000000,0.000000,0.000000,0.000000,0.000000,0.000000
12056311.000000,2.304180,-0.993970,-1.846547,-1.427498,-0.956334,1.719882,0.465963,-0.047447,-0.330122,-0.206598,-0.344500,-0.309182,0.433049,0.164304,0.947004,36.710552,22.710678,11.655455,0.512174,2.039901,0.034652,0.000000,0.000000,0.000000,0.000000,0.000000,0.000000
12056312.000000,2.304137,-0.994302,-1.846742,-1.427860,-0.956646,1.720318,0.466129,-0.047054,-0.329516,-0.200063,-0.347529,-0.312456,0.425258,0.165973,0.772443,36.781963,22.440903,11.877623,0.518583,2.066451,0.028243,0.000000,0.000000,0.000000,0.000000,0.000000,0.000000
12056313.000000,2.304095,-0.994635,-1.846930,-1.428211,-0.956966,1.720757,0.466293,-0.046988,-0.326124,-0.198744,-0.352063,-0.314620,0.438755,0.160550,0.625654,36.928753,22.171127,12.072020,0.512174,2.053634,0.061202,0.000000,0.000000,0.000000,0.000000,0.000000,0.000000
12056314.000000,2.304065,-0.994963,-1.847121,-1.428575,-0.957291,1.721204,0.466464,-0.041636,-0.329765,-0.198114,-0.355997,-0.317620,0.443286,0.167836,0.351911,37.004131,21.925156,12.321959,0.547880,1.981307,0.028243,0.000000,0.000000,0.000000,0.000000,0.000000,0.000000
12056315.000000,2.304025,-0.995286,-1.847313,-1.428935,-0.957608,1.721656,0.466634,-0.040869,-0.324099,-0.195420,-0.357428,-0.319079,0.441325,0.168970,0.228925,36.952557,21.702988,12.619505,0.566190,1.936446,0.009017,0.000000,0.000000,0.000000,0.000000,0.000000,0.000000
12056316.000000,2.303991,-0.995606,-1.847493,-1.429300,-0.957918,1.722097,0.466794,-0.038962,-0.319667,-0.189420,-0.359810,-0.313026,0.439926,0.166773,0.054365,36.952557,21.457016,12.841673,0.542386,1.897079,0.074935,0.000000,0.000000,0.000000,0.000000,0.000000,0.000000
12056317.000000,2.303957,-0.995926,-1.847673,-1.429671,-0.958232,1.722543,0.466963,-0.038397,-0.314948,-0.185212,-0.358818,-0.319564,0.438654,0.169274,-0.092425,36.805767,21.238815,13.087645,0.530485,1.930038,0.034652,0.000000,0.000000,0.000000,0.000000,0.000000,0.000000
12056318.000000,2.303929,-0.996243,-1.847853,-1.430046,-0.958547,1.722988,0.467131,-0.036130,-0.314518,-0.187856,-0.369178,-0.314755,0.449795,0.168324,-0.314593,36.682781,21.115829,13.385191,0.518583,2.001449,0.054794,0.000000,0.000000,0.000000,0.000000,0.000000,0.000000
12056319.000000,2.303894,-0.996558,-1.848027,-1.430417,-0.958858,1.723428,0.467309,-0.034649,-0.318480,-0.182419,-0.368758,-0.313523,0.444046,0.169921,-0.413775,36.563763,20.822250,13.508177,0.446256,2.020675,-0.004716,0.000000,0.000000,0.000000,0.000000,0.000000,0.000000
12056320.000000,2.303860,-0.996875,-1.848206,-1.430792,-0.959162,1.723882,0.467475,-0.033889,-0.317369,-0.181468,-0.372247,-0.309771,0.440374,0.168635,-0.489153,36.389202,20.647690,13.754148,0.410551,2.020675,0.021835,0.000000,0.000000,0.000000,0.000000,0.000000,0.000000
12056321.000000,2.303822,-0.997184,-1.848379,-1.431168,-0.959479,1.724324,0.467638,-0.035509,-0.316773,-0.176961,-0.371104,-0.312616,0.439046,0.171690,-0.465350,36.218609,20.453293,13.853331,0.416959,1.988631,0.067611,0.000000,0.000000,0.000000,0.000000,0.000000,0.000000
12056322.000000,2.303793,-0.997503,-1.848553,-1.431546,-0.959793,1.724761,0.467814,-0.033577,-0.316861,-0.172853,-0.370889,-0.310462,0.434445,0.173827,-0.564532,36.048016,20.254929,13.976316,0.422452,1.995040,0.001693,0.000000,0.000000,0.000000,0.000000,0.000000,0.000000
12056323.000000,2.303761,-0.997821,-1.848729,-1.431922,-0.960111,1.725203,0.467974,-0.032921,-0.312449,-0.174839,-0.370632,-0.310272,0.430943,0.169497,-0.612139,35.976604,20.159714,14.075499,0.470060,2.060043,0.067611,0.000000,0.000000,0.000000,0.000000,0.000000,0.000000
12056324.000000,2.303724,-0.998139,-1.848908,-1.432291,-0.960424,1.725647,0.468136,-0.034120,-0.318929,-0.171438,-0.368043,-0.307300,0.441373,0.169093,-0.588336,35.976604,20.084335,14.099302,0.458158,2.027084,0.087753,0.000000,0.000000,0.000000,0.000000,0.000000,0.000000
12056325.000000,2.303691,-0.998463,-1.849080,-1.432658,-0.960738,1.726105,0.468307,-0.033285,-0.318250,-0.170635,-0.367503,-0.309745,0.445416,0.171567,-0.635943,36.000408,19.961349,14.127073,0.434354,1.936446,0.028243,0.000000,0.000000,0.000000,0.000000,0.000000,0.000000
12056326.000000,2.303650,-0.998773,-1.849246,-1.433023,-0.961060,1.726553,0.468468,-0.035471,-0.318365,-0.167409,-0.363153,-0.307844,0.451336,0.168985,-0.564532,35.976604,19.862167,14.127073,0.434354,1.858627,0.074935,0.000000,0.000000,0.000000,0.000000,0.000000,0.000000
12056328.000000,2.303581,-0.999418,-1.849590,-1.433741,-0.961691,1.727433,0.468791,-0.034905,-0.318082,-0.168865,-0.358353,-0.307566,0.445808,0.167816,-0.588336,36.000408,19.691574,13.904905,0.381254,1.942855,0.087753,0.000000,0.000000,0.000000,0.000000,0.000000,0.000000
12056329.000000,2.303544,-0.999723,-1.849765,-1.434097,-0.962020,1.727866,0.468959,-0.035408,-0.318122,-0.167492,-0.358153,-0.310572,0.439521,0.170401,-0.564532,35.901226,19.667770,13.829527,0.386747,2.001449,0.034652,0.000000,0.000000,0.000000,0.000000,0.000000,0.000000
12056330.000000,2.303514,-1.000039,-1.849937,-1.434448,-0.962344,1.728307,0.469115,-0.031160,-0.318044,-0.168246,-0.352592,-0.313189,0.436412,0.169311,-0.612139,35.802044,19.592392,13.654966,0.386747,1.988631,0.061202,0.000000,0.000000,0.000000,0.000000,0.000000,0.000000
12056331.000000,2.303472,-1.000337,-1.850114,-1.434790,-0.962670,1.728762,0.469275,-0.036946,-0.311912,-0.167424,-0.346958,-0.315524,0.448901,0.165609,-0.540728,35.560040,19.592392,13.531981,0.393156,1.923629,0.021835,0.000000,0.000000,0.000000,0.000000,0.000000,0.000000
12056332.000000,2.303430,-1.000648,-1.850292,-1.435133,-0.962996,1.729209,0.469436,-0.038954,-0.312501,-0.172940,-0.339186,-0.317814,0.451778,0.162056,-0.413775,35.314068,19.592392,13.286009,0.422452,1.825668,0.015426,0.000000,0.000000,0.000000,0.000000,0.000000,0.000000
12056333.000000,2.303390,-1.000955,-1.850472,-1.435470,-0.963327,1.729651,0.469597,-0.039094,-0.307898,-0.174563,-0.336592,-0.323225,0.452473,0.162365,-0.342364,35.068096,19.616196,13.135252,0.422452,1.773483,0.054794,0.000000,0.000000,0.000000,0.000000,0.000000,0.000000
12056334.000000,2.303350,-1.001266,-1.850647,-1.435803,-0.963666,1.730085,0.469772,-0.039559,-0.309132,-0.175678,-0.332925,-0.329629,0.448777,0.165899,-0.266986,34.972881,19.643967,12.913084,0.500272,1.825668,0.015426,0.000000,0.000000,0.000000,0.000000,0.000000,0.000000
12056335.000000,2.303304,-1.001576,-1.850820,-1.436130,-0.963994,1.730528,0.469931,-0.038596,-0.310633,-0.174228,-0.326484,-0.328636,0.440335,0.167825,-0.116229,34.798321,19.592392,12.667112,0.530485,1.858627,0.067611,0.000000,0.000000,0.000000,0.000000,0.000000,0.000000
12056336.000000,2.303258,-1.001893,-1.850991,-1.436448,-0.964316,1.730972,0.470103,-0.039632,-0.312019,-0.173811,-0.326147,-0.327657,0.442667,0.169751,0.006757,34.703106,19.544785,12.468748,0.440763,1.851302,0.021835,0.000000,0.000000,0.000000,0.000000,0.000000,0.000000
12056337.000000,2.303221,-1.002212,-1.851171,-1.436767,-0.964655,1.731415,0.470268,-0.038310,-0.314920,-0.173979,-0.318663,-0.324471,0.440599,0.169105,0.030561,34.627728,19.520981,12.246580,0.398649,1.812850,0.041976,0.000000,0.000000,0.000000,0.000000,0.000000,0.000000
12056338.000000,2.303178,-1.002524,-1.851353,-1.437078,-0.964990,1.731860,0.470435,-0.041305,-0.311409,-0.177862,-0.320073,-0.323569,0.438664,0.170048,0.105939,34.457134,19.520981,12.123594,0.393156,1.767074,0.021835,0.000000,0.000000,0.000000,0.000000,0.000000,0.000000
12056339.000000,2.303140,-1.002837,-1.851536,-1.437390,-0.965317,1.732292,0.470598,-0.042099,-0.315116,-0.181353,-0.315745,-0.320964,0.446478,0.169504,0.105939,34.409527,19.544785,11.949034,0.344633,1.793624,0.028243,0.000000,0.000000,0.000000,0.000000,0.000000,0.000000
12056340.000000,2.303093,-1.003153,-1.851719,-1.437695,-0.965665,1.732734,0.470762,-0.042515,-0.314768,-0.182407,-0.311478,-0.332418,0.438514,0.164268,0.228925,34.310345,19.520981,11.750669,0.386747,1.844894,0.048385,0.000000,0.000000,0.000000,0.000000,0.000000,0.000000
12056341.000000,2.303062,-1.003470,-1.851902,-1.437993,-0.966009,1.733184,0.470937,-0.037547,-0.314215,-0.185982,-0.310546,-0.332526,0.442220,0.167019,0.129743,34.262737,19.520981,11.627684,0.464567,1.812850,0.009017,0.000000,0.000000,0.000000,0.000000,0.000000,0.000000
12056342.000000,2.303021,-1.003789,-1.852099,-1.438291,-0.966347,1.733637,0.471101,-0.038178,-0.316863,-0.189895,-0.303613,-0.334376,0.445861,0.161264,0.205121,34.211163,19.643967,11.405516,0.488370,1.754256,0.054794,0.000000,0.000000,0.000000,0.000000,0.000000,0.000000
12056343.000000,2.302979,-1.004110,-1.852282,-1.438587,-0.966672,1.734089,0.471265,-0.038049,-0.315057,-0.188708,-0.298043,-0.335409,0.446617,0.159737,0.252729,34.163555,19.616196,11.282530,0.482877,1.702071,0.028243,0.000000,0.000000,0.000000,0.000000,0.000000,0.000000
12056344.000000,2.302940,-1.004417,-1.852458,-1.438877,-0.967015,1.734526,0.471429,-0.034826,-0.314590,-0.186458,-0.297403,-0.335269,0.449350,0.160476,0.276533,34.088177,19.520981,11.183348,0.458158,1.689254,0.041976,0.000000,0.000000,0.000000,0.000000,0.000000,0.000000
12056345.000000,2.302907,-1.004740,-1.852644,-1.439166,-0.967360,1.734977,0.471594,-0.033364,-0.316978,-0.183832,-0.293474,-0.336306,0.447129,0.159280,0.228925,34.040569,19.520981,11.084166,0.458158,1.702071,0.009017,0.000000,0.000000,0.000000,0.000000,0.000000,0.000000
12056346.000000,2.302871,-1.005066,-1.852829,-1.439436,-0.967694,1.735429,0.471751,-0.032753,-0.317048,-0.184168,-0.284764,-0.336729,0.445610,0.154846,0.205121,34.040569,19.469406,10.861998,0.440763,1.754256,0.054794,0.000000,0.000000,0.000000,0.000000,0.000000,0.000000
12056347.000000,2.302846,-1.005387,-1.853009,-1.439719,-0.968032,1.735875,0.471926,-0.030208,-0.321522,-0.179562,-0.283407,-0.340354,0.442248,0.160693,0.078168,33.969158,19.346420,10.715208,0.405057,1.727706,0.001693,0.000000,0.000000,0.000000,0.000000,0.000000,0.000000
12056348.000000,2.302816,-1.005707,-1.853195,-1.440009,-0.968371,1.736326,0.472094,-0.032274,-0.320050,-0.181386,-0.282706,-0.338713,0.433350,0.162358,-0.017047,33.794598,19.322617,10.715208,0.362943,1.708480,0.001693,0.000000,0.000000,0.000000,0.000000,0.000000,0.000000
12056349.000000,2.302787,-1.006031,-1.853380,-1.440286,-0.968720,1.736778,0.472253,-0.031614,-0.325203,-0.180437,-0.279223,-0.340867,0.442758,0.160840,-0.092425,33.770794,19.322617,10.739012,0.398649,1.630660,0.081344,0.000000,0.000000,0.000000,0.000000,0.000000,0.000000
12056350.000000,2.302759,-1.006356,-1.853565,-1.440564,-0.969062,1.737214,0.472433,-0.031485,-0.330871,-0.178294,-0.277185,-0.341758,0.444641,0.169279,-0.144000,33.723186,19.275009,10.691404,0.428861,1.597701,0.001693,0.000000,0.000000,0.000000,0.000000,0.000000,0.000000
12056351.000000,2.302737,-1.006686,-1.853749,-1.440839,-0.969407,1.737651,0.472597,-0.028861,-0.327102,-0.176868,-0.277327,-0.341844,0.439062,0.166540,-0.290789,33.746990,19.223434,10.691404,0.446256,1.630660,0.074935,0.000000,0.000000,0.000000,0.000000,0.000000,0.000000
12056352.000000,2.302715,-1.007021,-1.853928,-1.441112,-0.969760,1.738078,0.472773,-0.027453,-0.333010,-0.176630,-0.273624,-0.343518,0.430730,0.168369,-0.441546,33.822369,19.199631,10.663633,0.524076,1.670028,0.041976,0.000000,0.000000,0.000000,0.000000,0.000000,0.000000
12056353.000000,2.302696,-1.007352,-1.854111,-1.441397,-0.970097,1.738512,0.472944,-0.026162,-0.331001,-0.178924,-0.272036,-0.344668,0.427735,0.169145,-0.588336,33.794598,19.175827,10.691404,0.512174,1.682845,0.028243,0.000000,0.000000,0.000000,0.000000,0.000000,0.000000
12056354.000000,2.302677,-1.007693,-1.854285,-1.441666,-0.970435,1.738954,0.473119,-0.023247,-0.335188,-0.176093,-0.267949,-0.346071,0.431745,0.168310,-0.711321,33.969158,19.076645,10.592222,0.464567,1.591293,0.028243,0.000000,0.000000,0.000000,0.000000,0.000000,0.000000
12056355.000000,2.302658,-1.008029,-1.854473,-1.441939,-0.970785,1.739377,0.473296,-0.021060,-0.334510,-0.179629,-0.269137,-0.343119,0.422563,0.168982,-0.834307,34.040569,19.076645,10.564451,0.434354,1.559249,0.021835,0.000000,0.000000,0.000000,0.000000,0.000000,0.000000
12056356.000000,2.302644,-1.008364,-1.854657,-1.442207,-0.971121,1.739798,0.473465,-0.018536,-0.330874,-0.178410,-0.275933,-0.335749,0.421099,0.166781,-0.985064,34.115948,19.052841,10.441465,0.381254,1.611434,0.061202,0.000000,0.000000,0.000000,0.000000,0.000000,0.000000
12056357.000000,2.302628,-1.008707,-1.854843,-1.442487,-0.971459,1.740218,0.473643,-0.017917,-0.335238,-0.178304,-0.276480,-0.336905,0.428493,0.168707,-1.084246,34.211163,19.052841,10.441465,0.386747,1.649886,0.021835,0.000000,0.000000,0.000000,0.000000,0.000000,0.000000
12056358.000000,2.302609,-1.009048,-1.855027,-1.442755,-0.971805,1.740646,0.473815,-0.018603,-0.335978,-0.179666,-0.273273,-0.338006,0.419254,0.170598,-1.131854,34.238934,19.005234,10.294676,0.386747,1.624252,0.054794,0.000000,0.000000,0.000000,0.000000,0.000000,0.000000
12056359.000000,2.302592,-1.009387,-1.855214,-1.443034,-0.972154,1.741077,0.473988,-0.015531,-0.340297,-0.186955,-0.274190,-0.340988,0.422386,0.171165,-1.207232,34.262737,18.981430,10.270872,0.446256,1.611434,0.034652,0.000000,0.000000,0.000000,0.000000,0.000000,0.000000
12056360.000000,2.302575,-1.009726,-1.855404,-1.443320,-0.972497,1.741500,0.474159,-0.016679,-0.339808,-0.185023,-0.275927,-0.340591,0.424563,0.170882,-1.254840,34.238934,19.005234,10.318480,0.470060,1.597701,0.015426,0.000000,0.000000,0.000000,0.000000,0.000000,0.000000
12056361.000000,2.302557,-1.010074,-1.855588,-1.443599,-0.972831,1.741921,0.474327,-0.018309,-0.341230,-0.182286,-0.275117,-0.344940,0.424054,0.170596,-1.282611,34.334148,18.981430,10.270872,0.464567,1.597701,0.015426,0.000000,0.000000,0.000000,0.000000,0.000000,0.000000
12056362.000000,2.302540,-1.010426,-1.855770,-1.443878,-0.973182,1.742355,0.474499,-0.019325,-0.349604,-0.180139,-0.275129,-0.343602,0.435869,0.172838,-1.306414,34.457134,18.953659,10.243101,0.464567,1.605026,0.061202,0.000000,0.000000,0.000000,0.000000,0.000000,0.000000
12056363.000000,2.302526,-1.010779,-1.855961,-1.444162,-0.973531,1.742782,0.474677,-0.018931,-0.350361,-0.182849,-0.274546,-0.342816,0.428920,0.174703,-1.381793,34.603924,18.981430,10.219297,0.476469,1.597701,-0.004716,0.000000,0.000000,0.000000,0.000000,0.000000,0.000000
12056364.000000,2.302506,-1.011132,-1.856151,-1.444441,-0.973860,1.743215,0.474850,-0.020073,-0.353056,-0.185050,-0.274690,-0.333907,0.429594,0.172592,-1.381793,34.726910,19.005234,10.195494,0.386747,1.572067,0.015426,0.000000,0.000000,0.000000,0.000000,0.000000,0.000000
12056365.000000,2.302484,-1.011480,-1.856340,-1.444734,-0.974205,1.743645,0.475015,-0.022088,-0.350892,-0.185997,-0.280157,-0.336884,0.425954,0.174571,-1.330218,34.798321,19.005234,10.270872,0.315336,1.546432,0.067611,0.000000,0.000000,0.000000,0.000000,0.000000,0.000000
12056366.000000,2.302461,-1.011838,-1.856538,-1.445013,-0.974555,1.744074,0.475187,-0.023489,-0.356320,-0.191246,-0.278013,-0.340118,0.420041,0.174885,-1.282611,34.996685,19.076645,10.219297,0.369352,1.532699,0.034652,0.000000,0.000000,0.000000,0.000000,0.000000,0.000000
12056367.000000,2.302442,-1.012208,-1.856733,-1.445300,-0.974904,1.744497,0.475354,-0.020142,-0.358013,-0.192342,-0.280631,-0.346109,0.424924,0.167530,-1.282611,35.266460,19.152023,10.342283,0.398649,1.532699,0.048385,0.000000,0.000000,0.000000,0.000000,0.000000,0.000000
12056368.000000,2.302414,-1.012563,-1.856926,-1.445589,-0.975255,1.744918,0.475527,-0.023536,-0.356433,-0.191249,-0.280516,-0.350200,0.424033,0.169179,-1.159625,35.460857,19.152023,10.417662,0.428861,1.572067,-0.004716,0.000000,0.000000,0.000000,0.000000,0.000000,0.000000
12056369.000000,2.302383,-1.012920,-1.857122,-1.445871,-0.975609,1.745348,0.475686,-0.024052,-0.356076,-0.192295,-0.279687,-0.358809,0.420235,0.166254,-0.985064,35.560040,19.223434,10.441465,0.470060,1.572067,0.074935,0.000000,0.000000,0.000000,0.000000,0.000000,0.000000
12056370.000000,2.302360,-1.013274,-1.857319,-1.446162,-0.975965,1.745772,0.475863,-0.024300,-0.356010,-0.194221,-0.283604,-0.354201,0.424452,0.164443,-0.933489,35.631451,19.346420,10.516844,0.494779,1.513473,0.021835,0.000000,0.000000,0.000000,0.000000,0.000000,0.000000
12056371.000000,2.302332,-1.013626,-1.857515,-1.446451,-0.976303,1.746193,0.476025,-0.025689,-0.356205,-0.196984,-0.281629,-0.349873,0.417903,0.167414,-0.834307,35.560040,19.421799,10.516844,0.464567,1.539108,0.054794,0.000000,0.000000,0.000000,0.000000,0.000000,0.000000
12056372.000000,2.302298,-1.013981,-1.857709,-1.446729,-0.976652,1.746609,0.476191,-0.025557,-0.354606,-0.195044,-0.278951,-0.350934,0.414491,0.167293,-0.663714,35.460857,19.445602,10.465269,0.428861,1.572067,0.067611,0.000000,0.000000,0.000000,0.000000,0.000000,0.000000
12056373.000000,2.302262,-1.014325,-1.857909,-1.447016,-0.977002,1.747012,0.476360,-0.028971,-0.353788,-0.198595,-0.281009,-0.351043,0.410384,0.169473,-0.465350,35.314068,19.544785,10.465269,0.386747,1.649886,0.028243,0.000000,0.000000,0.000000,0.000000,0.000000,0.000000
12056374.000000,2.302229,-1.014684,-1.858110,-1.447302,-0.977350,1.747433,0.476515,-0.030167,-0.354770,-0.199588,-0.290133,-0.348287,0.412729,0.163271,-0.314593,35.214886,19.568588,10.441465,0.386747,1.682845,0.067611,0.000000,0.000000,0.000000,0.000000,0.000000,0.000000
12056375.000000,2.302190,-1.015032,-1.858308,-1.447585,-0.977702,1.747847,0.476683,-0.032418,-0.355138,-0.197226,-0.285078,-0.347166,0.419310,0.166020,-0.116229,35.091900,19.592392,10.370054,0.410551,1.676437,0.015426,0.000000,0.000000,0.000000,0.000000,0.000000,0.000000
12056376.000000,2.302151,-1.015388,-1.858520,-1.447875,-0.978059,1.748268,0.476842,-0.033471,-0.356268,-0.201055,-0.285344,-0.345836,0.416426,0.165505,0.078168,34.897503,19.739182,10.342283,0.416959,1.656295,0.054794,0.000000,0.000000,0.000000,0.000000,0.000000,0.000000
12056377.000000,2.302106,-1.015747,-1.858720,-1.448162,-0.978409,1.748683,0.477010,-0.035956,-0.351837,-0.201478,-0.286121,-0.351967,0.414139,0.167313,0.328107,34.849895,19.814560,10.318480,0.488370,1.676437,0.034652,0.000000,0.000000,0.000000,0.000000,0.000000,0.000000
12056378.000000,2.302064,-1.016104,-1.858928,-1.448443,-0.978759,1.749087,0.477176,-0.036016,-0.355974,-0.204047,-0.278780,-0.345047,0.407950,0.162817,0.526471,34.849895,19.937546,10.243101,0.535978,1.689254,0.041976,0.000000,0.000000,0.000000,0.000000,0.000000,0.000000
12056379.000000,2.302023,-1.016467,-1.859134,-1.448727,-0.979106,1.749501,0.477342,-0.038305,-0.356135,-0.201220,-0.280384,-0.348171,0.408659,0.164202,0.697065,34.897503,20.008957,10.195494,0.530485,1.649886,0.034652,0.000000,0.000000,0.000000,0.000000,0.000000,0.000000
12056380.000000,2.301980,-1.016821,-1.859337,-1.449002,-0.979457,1.749912,0.477505,-0.040591,-0.360412,-0.201499,-0.278340,-0.349062,0.414739,0.162667,0.871625,34.897503,20.036728,10.143919,0.488370,1.676437,0.067611,0.000000,0.000000,0.000000,0.000000,0.000000,0.000000
12056381.000000,2.301945,-1.017178,-1.859551,-1.449282,-0.979803,1.750321,0.477677,-0.039362,-0.354788,-0.203595,-0.278176,-0.348466,0.409000,0.162549,0.923200,34.873699,20.159714,10.171690,0.405057,1.656295,-0.004716,0.000000,0.000000,0.000000,0.000000,0.000000,0.000000
12056382.000000,2.301905,-1.017536,-1.859760,-1.449560,-0.980151,1.750729,0.477830,-0.040249,-0.358667,-0.205500,-0.277706,-0.350002,0.409425,0.160650,1.046186,34.921307,20.159714,10.171690,0.369352,1.649886,0.087753,0.000000,0.000000,0.000000,0.000000,0.000000,0.000000
12056383.000000,2.301859,-1.017891,-1.859969,-1.449836,-0.980516,1.751127,0.478004,-0.041974,-0.360109,-0.205421,-0.274501,-0.356810,0.407246,0.165799,1.216779,34.897503,20.207321,10.171690,0.386747,1.708480,0.015426,0.000000,0.000000,0.000000,0.000000,0.000000,0.000000
12056384.000000,2.301812,-1.018238,-1.860179,-1.450113,-0.980869,1.751519,0.478174,-0.040488,-0.355276,-0.203156,-0.275525,-0.358109,0.398839,0.166984,1.391340,34.750713,20.183517,10.195494,0.398649,1.779891,-0.004716,0.000000,0.000000,0.000000,0.000000,0.000000,0.000000
12056385.000000,2.301768,-1.018592,-1.860393,-1.450389,-0.981227,1.751921,0.478339,-0.041084,-0.351229,-0.204925,-0.273950,-0.355245,0.407820,0.164553,1.514325,34.603924,20.278732,10.243101,0.440763,1.806442,0.048385,0.000000,0.000000,0.000000,0.000000,0.000000,0.000000
12056386.000000,2.301726,-1.018939,-1.860599,-1.450665,-0.981594,1.752325,0.478509,-0.043935,-0.348713,-0.202641,-0.271504,-0.357841,0.407719,0.174975,1.613508,34.480938,20.231125,10.270872,0.494779,1.825668,0.034652,0.000000,0.000000,0.000000,0.000000,0.000000,0.000000
12056387.000000,2.301680,-1.019286,-1.860809,-1.450935,-0.981948,1.752743,0.478673,-0.046994,-0.349347,-0.206001,-0.270576,-0.358138,0.405536,0.172108,1.764264,34.334148,20.254929,10.318480,0.500272,1.760665,0.074935,0.000000,0.000000,0.000000,0.000000,0.000000,0.000000
12056388.000000,2.301640,-1.019629,-1.861021,-1.451212,-0.982300,1.753151,0.478847,-0.045003,-0.350408,-0.208509,-0.271211,-0.356975,0.406419,0.174052,1.835676,34.187359,20.278732,10.294676,0.482877,1.708480,-0.011124,0.000000,0.000000,0.000000,0.000000,0.000000,0.000000
12056389.000000,2.301605,-1.019978,-1.861235,-1.451484,-0.982650,1.753561,0.479009,-0.041687,-0.352788,-0.206734,-0.268776,-0.356670,0.400682,0.171359,1.835676,34.088177,20.306503,10.270872,0.464567,1.721298,0.028243,0.000000,0.000000,0.000000,0.000000,0.000000,0.000000
12056390.000000,2.301566,-1.020344,-1.861442,-1.451741,-0.983015,1.753970,0.479174,-0.040808,-0.355528,-0.206537,-0.261528,-0.356783,0.397084,0.169176,1.887250,34.139751,20.231125,10.143919,0.458158,1.754256,0.054794,0.000000,0.000000,0.000000,0.000000,0.000000,0.000000
12056391.000000,2.301531,-1.020695,-1.861657,-1.452013,-0.983370,1.754366,0.479346,-0.038768,-0.353651,-0.209061,-0.264442,-0.354321,0.401633,0.169948,1.887250,34.211163,20.254929,10.120115,0.398649,1.838485,0.041976,0.000000,0.000000,0.000000,0.000000,0.000000,0.000000
12056392.000000,2.301503,-1.021064,-1.861870,-1.452271,-0.983719,1.754778,0.479520,-0.032135,-0.357451,-0.207122,-0.268870,-0.350349,0.401618,0.169559,1.788068,34.385723,20.254929,9.973326,0.381254,1.877853,0.028243,0.000000,0.000000,0.000000,0.000000,0.000000,0.000000
12056393.000000,2.301471,-1.021418,-1.862077,-1.452540,-0.984081,1.755207,0.479693,-0.031928,-0.353585,-0.209607,-0.269500,-0.352012,0.414663,0.169706,1.764264,34.409527,20.278732,10.048704,0.369352,1.773483,0.015426,0.000000,0.000000,0.000000,0.000000,0.000000,0.000000
12056394.000000,2.301439,-1.021781,-1.862284,-1.452812,-0.984444,1.755624,0.479861,-0.032803,-0.359288,-0.207746,-0.268036,-0.349851,0.420148,0.172384,1.764264,34.409527,20.306503,10.048704,0.393156,1.682845,0.028243,0.000000,0.000000,0.000000,0.000000,0.000000,0.000000
12056395.000000,2.301412,-1.022143,-1.862486,-1.453076,-0.984805,1.756039,0.480033,-0.033647,-0.360407,-0.208790,-0.267564,-0.354473,0.412412,0.167053,1.665082,34.409527,20.330307,10.072508,0.458158,1.676437,0.028243,0.000000,0.000000,0.000000,0.000000,0.000000,0.000000
12056396.000000,2.301385,-1.022499,-1.862701,-1.453334,-0.985170,1.756440,0.480205,-0.030037,-0.358690,-0.208533,-0.260059,-0.356922,0.406101,0.168472,1.613508,34.433331,20.401718,10.072508,0.524076,1.695663,-0.004716,0.000000,0.000000,0.000000,0.000000,0.000000,0.000000
12056397.000000,2.301358,-1.022856,-1.862907,-1.453606,-0.985534,1.756840,0.480367,-0.030029,-0.354113,-0.206427,-0.264015,-0.359058,0.398463,0.167759,1.542096,34.334148,20.401718,10.195494,0.571683,1.747848,0.021835,0.000000,0.000000,0.000000,0.000000,0.000000,0.000000
12056398.000000,2.301337,-1.023210,-1.863114,-1.453865,-0.985894,1.757256,0.480528,-0.028475,-0.358911,-0.205923,-0.264989,-0.357894,0.403435,0.165894,1.415143,34.286541,20.429489,10.243101,0.554288,1.754256,0.074935,0.000000,0.000000,0.000000,0.000000,0.000000,0.000000
12056399.000000,2.301317,-1.023561,-1.863328,-1.454134,-0.986243,1.757665,0.480703,-0.025292,-0.355324,-0.206818,-0.262923,-0.359745,0.401466,0.169384,1.315961,34.064373,20.524704,10.465269,0.476469,1.708480,0.009017,0.000000,0.000000,0.000000,0.000000,0.000000,0.000000
12056400.000000,2.301298,-1.023923,-1.863532,-1.454400,-0.986598,1.758062,0.480867,-0.022353,-0.352461,-0.207123,-0.265712,-0.360695,0.397787,0.167933,1.192975,34.088177,20.477097,10.592222,0.381254,1.735030,0.048385,0.000000,0.000000,0.000000,0.000000,0.000000,0.000000
12056401.000000,2.301284,-1.024282,-1.863737,-1.454669,-0.986971,1.758446,0.481031,-0.019778,-0.353417,-0.206178,-0.267417,-0.360513,0.391080,0.163675,1.046186,34.115948,20.500900,10.715208,0.398649,1.865035,0.048385,0.000000,0.000000,0.000000,0.000000,0.000000,0.000000
12056402.000000,2.301268,-1.024652,-1.863945,-1.454932,-0.987334,1.758834,0.481198,-0.019169,-0.354755,-0.205750,-0.260610,-0.367695,0.382887,0.166390,0.947004,34.262737,20.552475,10.762815,0.398649,1.930038,0.021835,0.000000,0.000000,0.000000,0.000000,0.000000,0.000000
12056403.000000,2.301251,-1.025019,-1.864145,-1.455200,-0.987709,1.759226,0.481354,-0.016270,-0.355833,-0.207714,-0.264450,-0.371981,0.384729,0.164996,0.871625,34.334148,20.552475,10.913572,0.440763,1.949264,0.054794,0.000000,0.000000,0.000000,0.000000,0.000000,0.000000
12056404.000000,2.301241,-1.025383,-1.864356,-1.455476,-0.988087,1.759620,0.481520,-0.014923,-0.358827,-0.209772,-0.264019,-0.369897,0.387914,0.163096,0.724836,34.457134,20.576279,11.084166,0.482877,1.909896,0.015426,0.000000,0.000000,0.000000,0.000000,0.000000,0.000000
12056405.000000,2.301230,-1.025740,-1.864568,-1.455751,-0.988458,1.760027,0.481675,-0.014523,-0.356440,-0.208674,-0.267892,-0.368475,0.386746,0.158434,0.601850,34.480938,20.623886,11.282530,0.518583,1.806442,0.054794,0.000000,0.000000,0.000000,0.000000,0.000000,0.000000
12056406.000000,2.301221,-1.026097,-1.864774,-1.456022,-0.988829,1.760419,0.481844,-0.014409,-0.353451,-0.206031,-0.270737,-0.369921,0.396181,0.162440,0.474897,34.480938,20.600082,11.357908,0.518583,1.760665,0.021835,0.000000,0.000000,0.000000,0.000000,0.000000,0.000000
12056407.000000,2.301215,-1.026457,-1.864982,-1.456303,-0.989202,1.760806,0.482009,-0.011079,-0.356338,-0.206981,-0.270400,-0.365784,0.390494,0.162125,0.328107,34.480938,20.576279,11.457090,0.488370,1.832076,0.034652,0.000000,0.000000,0.000000,0.000000,0.000000,0.000000
12056408.000000,2.301214,-1.026826,-1.865186,-1.456575,-0.989573,1.761196,0.482175,-0.007773,-0.360258,-0.203507,-0.268815,-0.364690,0.382223,0.159674,0.153547,34.480938,20.477097,11.480894,0.506681,1.923629,0.021835,0.000000,0.000000,0.000000,0.000000,0.000000,0.000000
12056409.000000,2.301212,-1.027180,-1.865390,-1.456851,-0.989938,1.761573,0.482339,-0.005681,-0.359630,-0.202582,-0.271365,-0.360162,0.381665,0.162463,-0.017047,34.409527,20.453293,11.556273,0.446256,1.995040,0.015426,0.000000,0.000000,0.000000,0.000000,0.000000,0.000000
12056410.000000,2.301205,-1.027550,-1.865589,-1.457138,-0.990311,1.761974,0.482498,-0.006725,-0.361498,-0.200264,-0.274889,-0.363674,0.388038,0.161902,-0.068621,34.385723,20.354111,11.679258,0.416959,1.988631,0.081344,0.000000,0.000000,0.000000,0.000000,0.000000,0.000000
12056411.000000,2.301200,-1.027909,-1.865789,-1.457415,-0.990688,1.762382,0.482670,-0.009202,-0.368338,-0.201103,-0.275645,-0.367775,0.398547,0.161021,-0.167803,34.310345,20.354111,11.726866,0.434354,1.903487,0.015426,0.000000,0.000000,0.000000,0.000000,0.000000,0.000000
12056412.000000,2.301200,-1.028281,-1.865990,-1.457695,-0.991056,1.762781,0.482834,-0.006918,-0.372125,-0.201840,-0.276794,-0.365995,0.398775,0.163474,-0.314593,34.262737,20.254929,11.802244,0.440763,1.812850,0.009017,0.000000,0.000000,0.000000,0.000000,0.000000,0.000000
12056413.000000,2.301192,-1.028659,-1.866188,-1.457971,-0.991433,1.763178,0.483000,-0.007493,-0.371204,-0.203048,-0.273777,-0.370642,0.400496,0.164901,-0.366168,34.286541,20.207321,11.826048,0.482877,1.825668,0.009017,0.000000,0.000000,0.000000,0.000000,0.000000,0.000000
12056414.000000,2.301187,-1.029030,-1.866386,-1.458253,-0.991819,1.763563,0.483168,-0.008091,-0.374481,-0.201035,-0.275500,-0.369997,0.390680,0.165148,-0.413775,34.357952,20.131943,11.901426,0.571683,1.884261,0.034652,0.000000,0.000000,0.000000,0.000000,0.000000,0.000000
12056415.000000,2.301183,-1.029404,-1.866594,-1.458529,-0.992188,1.763947,0.483334,-0.007326,-0.371320,-0.199266,-0.275661,-0.366051,0.383967,0.166056,-0.489153,34.357952,20.183517,11.901426,0.547880,1.897079,0.028243,0.000000,0.000000,0.000000,0.000000,0.000000,0.000000
12056416.000000,2.301187,-1.029777,-1.866787,-1.458800,-0.992561,1.764346,0.483494,-0.004394,-0.374950,-0.197006,-0.272588,-0.372420,0.396627,0.164011,-0.687518,34.357952,20.060532,11.901426,0.518583,1.909896,0.061202,0.000000,0.000000,0.000000,0.000000,0.000000,0.000000
12056417.000000,2.301179,-1.030155,-1.866979,-1.459075,-0.992940,1.764747,0.483657,-0.006227,-0.376798,-0.196521,-0.270075,-0.366906,0.395387,0.165658,-0.711321,34.409527,19.985153,11.925230,0.464567,1.890670,0.034652,0.000000,0.000000,0.000000,0.000000,0.000000,0.000000
12056418.000000,2.301172,-1.030524,-1.867172,-1.459341,-0.993301,1.765155,0.483817,-0.007431,-0.374993,-0.196443,-0.270894,-0.362844,0.392433,0.161536,-0.735125,34.409527,19.913742,11.901426,0.405057,1.806442,0.048385,0.000000,0.000000,0.000000,0.000000,0.000000,0.000000
12056419.000000,2.301169,-1.030895,-1.867362,-1.459618,-0.993667,1.765550,0.483978,-0.006221,-0.375023,-0.193771,-0.272893,-0.365421,0.398252,0.159552,-0.834307,34.385723,19.862167,11.925230,0.386747,1.800033,0.034652,0.000000,0.000000,0.000000,0.000000,0.000000,0.000000
12056420.000000,2.301159,-1.031276,-1.867556,-1.459889,-0.994042,1.765943,0.484138,-0.005118,-0.376621,-0.191015,-0.273062,-0.373231,0.392130,0.163905,-0.834307,34.433331,19.790756,11.901426,0.434354,1.865035,0.054794,0.000000,0.000000,0.000000,0.000000,0.000000,0.000000
12056421.000000,2.301158,-1.031657,-1.867749,-1.460147,-0.994421,1.766339,0.484296,-0.002933,-0.374537,-0.190305,-0.271691,-0.370871,0.386158,0.169303,-0.885882,34.334148,19.766953,11.802244,0.470060,1.884261,0.067611,0.000000,0.000000,0.000000,0.000000,0.000000,0.000000
12056422.000000,2.301146,-1.032027,-1.867940,-1.460415,-0.994791,1.766732,0.484469,-0.004265,-0.370564,-0.189062,-0.268823,-0.367779,0.386543,0.173740,-0.810504,34.262737,19.715378,11.778440,0.488370,1.903487,0.021835,0.000000,0.000000,0.000000,0.000000,0.000000,0.000000
12056423.000000,2.301142,-1.032405,-1.868132,-1.460676,-0.995163,1.767142,0.484624,-0.002696,-0.373834,-0.187592,-0.267131,-0.368855,0.388917,0.170465,-0.834307,34.211163,19.643967,11.750669,0.458158,1.844894,0.081344,0.000000,0.000000,0.000000,0.000000,0.000000,0.000000
12056424.000000,2.301134,-1.032777,-1.868321,-1.460941,-0.995541,1.767548,0.484797,-0.005785,-0.364889,-0.190163,-0.269130,-0.365132,0.396106,0.172654,-0.810504,34.163555,19.592392,11.726866,0.434354,1.727706,0.015426,0.000000,0.000000,0.000000,0.000000,0.000000,0.000000
12056425.000000,2.301126,-1.033165,-1.868510,-1.461201,-0.995918,1.767952,0.484956,-0.007908,-0.373385,-0.188561,-0.262569,-0.368988,0.393117,0.171101,-0.786700,34.238934,19.544785,11.627684,0.440763,1.721298,0.034652,0.000000,0.000000,0.000000,0.000000,0.000000,0.000000
12056426.000000,2.301125,-1.033558,-1.868699,-1.461454,-0.996293,1.768344,0.485113,-0.007781,-0.379728,-0.193383,-0.257987,-0.375078,0.388564,0.168155,-0.834307,34.385723,19.520981,11.528502,0.416959,1.812850,0.081344,0.000000,0.000000,0.000000,0.000000,0.000000,0.000000
12056427.000000,2.301116,-1.033943,-1.868886,-1.461702,-0.996677,1.768737,0.485278,-0.007015,-0.383595,-0.191994,-0.250680,-0.371159,0.388686,0.165979,-0.786700,34.580120,19.497177,11.429319,0.440763,1.819259,0.028243,0.000000,0.000000,0.000000,0.000000,0.000000,0.000000
12056428.000000,2.301115,-1.034334,-1.869073,-1.461953,-0.997047,1.769137,0.485439,-0.004098,-0.386001,-0.190283,-0.248595,-0.367764,0.384825,0.166456,-0.834307,34.726910,19.445602,11.306334,0.434354,1.779891,0.041976,0.000000,0.000000,0.000000,0.000000,0.000000,0.000000
12056429.000000,2.301111,-1.034719,-1.869268,-1.462200,-0.997418,1.769549,0.485608,-0.003134,-0.396499,-0.194717,-0.249003,-0.369992,0.396484,0.167148,-0.834307,34.849895,19.497177,11.282530,0.422452,1.676437,0.034652,0.000000,0.000000,0.000000,0.000000,0.000000,0.000000
12056430.000000,2.301103,-1.035115,-1.869455,-1.462434,-0.997799,1.769951,0.485770,-0.006856,-0.397671,-0.193645,-0.239780,-0.366608,0.396132,0.169872,-0.762896,34.996685,19.397995,11.135740,0.405057,1.617843,0.061202,0.000000,0.000000,0.000000,0.000000,0.000000,0.000000
12056431.000000,2.301102,-1.035508,-1.869654,-1.462675,-0.998169,1.770345,0.485936,-0.005030,-0.394584,-0.198243,-0.240840,-0.366071,0.394206,0.165960,-0.762896,35.119671,19.497177,11.036558,0.428861,1.617843,0.041976,0.000000,0.000000,0.000000,0.000000,0.000000,0.000000
12056432.000000,2.301105,-1.035896,-1.869848,-1.462918,-0.998541,1.770732,0.486094,-0.002584,-0.392670,-0.195832,-0.240150,-0.369439,0.391190,0.164752,-0.810504,35.119671,19.497177,11.012754,0.458158,1.649886,0.087753,0.000000,0.000000,0.000000,0.000000,0.000000,0.000000
12056433.000000,2.301100,-1.036294,-1.870041,-1.463150,-0.998917,1.771127,0.486263,-0.003744,-0.393477,-0.193108,-0.234098,-0.375163,0.388218,0.163457,-0.735125,35.214886,19.469406,10.885801,0.434354,1.676437,0.034652,0.000000,0.000000,0.000000,0.000000,0.000000,0.000000
12056434.000000,2.301102,-1.036695,-1.870235,-1.463384,-0.999294,1.771520,0.486423,-0.002040,-0.394862,-0.193949,-0.235966,-0.375235,0.390644,0.163599,-0.762896,35.214886,19.544785,10.885801,0.422452,1.695663,0.061202,0.000000,0.000000,0.000000,0.000000,0.000000,0.000000
12056435.000000,2.301096,-1.037082,-1.870426,-1.463616,-0.999662,1.771920,0.486585,-0.003268,-0.390215,-0.191839,-0.232151,-0.369512,0.391048,0.169319,-0.687518,35.214886,19.520981,10.838194,0.381254,1.670028,0.048385,0.000000,0.000000,0.000000,0.000000,0.000000,0.000000
12056436.000000,2.301097,-1.037479,-1.870622,-1.463844,-1.000039,1.772322,0.486749,-0.002845,-0.390914,-0.192163,-0.230461,-0.374121,0.390871,0.169274,-0.663714,35.266460,19.568588,10.814390,0.327238,1.662704,0.054794,0.000000,0.000000,0.000000,0.000000,0.000000,0.000000
12056437.000000,2.301099,-1.037863,-1.870815,-1.464068,-1.000427,1.772707,0.486916,-0.001421,-0.387678,-0.194781,-0.227390,-0.376164,0.396193,0.168369,-0.687518,35.266460,19.592392,10.715208,0.369352,1.695663,0.081344,0.000000,0.000000,0.000000,0.000000,0.000000,0.000000
12056438.000000,2.301099,-1.038261,-1.871016,-1.464295,-1.000800,1.773106,0.487083,-0.000452,-0.393553,-0.198263,-0.227963,-0.384460,0.387828,0.170735,-0.711321,35.337872,19.691574,10.616026,0.393156,1.721298,0.034652,0.000000,0.000000,0.000000,0.000000,0.000000,0.000000
12056439.000000,2.301102,-1.038663,-1.871210,-1.464516,-1.001180,1.773506,0.487242,0.000210,-0.390802,-0.199413,-0.223667,-0.386694,0.393078,0.167065,-0.735125,35.536236,19.715378,10.564451,0.374845,1.708480,0.100570,0.000000,0.000000,0.000000,0.000000,0.000000,0.000000
12056440.000000,2.301101,-1.039055,-1.871412,-1.464739,-1.001571,1.773897,0.487416,-0.000452,-0.392316,-0.197834,-0.220611,-0.384199,0.394018,0.165446,-0.711321,35.631451,19.766953,10.540648,0.386747,1.656295,0.034652,0.000000,0.000000,0.000000,0.000000,0.000000,0.000000
12056441.000000,2.301106,-1.039451,-1.871621,-1.464959,-1.001952,1.774301,0.487575,0.001436,-0.388523,-0.201241,-0.222955,-0.383398,0.396558,0.160940,-0.786700,35.683025,19.885971,10.493040,0.398649,1.649886,0.054794,0.000000,0.000000,0.000000,0.000000,0.000000,0.000000
12056442.000000,2.301112,-1.039844,-1.871821,-1.465177,-1.002338,1.774711,0.487733,0.007847,-0.392268,-0.199404,-0.219695,-0.386814,0.403745,0.157649,-0.834307,35.706829,19.961349,10.441465,0.410551,1.591293,0.067611,0.000000,0.000000,0.000000,0.000000,0.000000,0.000000
12056443.000000,2.301113,-1.040234,-1.872019,-1.465402,-1.002737,1.775100,0.487901,0.005700,-0.388777,-0.199813,-0.219676,-0.386160,0.398877,0.160225,-0.834307,35.583843,19.985153,10.493040,0.452665,1.597701,0.041976,0.000000,0.000000,0.000000,0.000000,0.000000,0.000000
12056444.000000,2.301120,-1.040623,-1.872221,-1.465614,-1.003128,1.775488,0.488065,0.005914,-0.390063,-0.204864,-0.214504,-0.389639,0.396502,0.158076,-0.909686,35.437054,20.108139,10.465269,0.488370,1.721298,0.034652,0.000000,0.000000,0.000000,0.000000,0.000000,0.000000
12056445.000000,2.301122,-1.041010,-1.872428,-1.465831,-1.003511,1.775868,0.488230,0.003650,-0.387288,-0.204697,-0.216780,-0.389624,0.394020,0.156560,-0.885882,35.290264,20.159714,10.441465,0.476469,1.747848,0.021835,0.000000,0.000000,0.000000,0.000000,0.000000,0.000000
12056446.000000,2.301128,-1.041404,-1.872630,-1.466050,-1.003895,1.776260,0.488384,0.003744,-0.393998,-0.202826,-0.211933,-0.390367,0.388692,0.158016,-0.933489,35.167278,20.131943,10.393858,0.452665,1.702071,0.074935,0.000000,0.000000,0.000000,0.000000,0.000000,0.000000
12056447.000000,2.301138,-1.041794,-1.872832,-1.466269,-1.004280,1.776653,0.488551,0.004964,-0.391547,-0.202419,-0.211664,-0.390034,0.395269,0.155955,-1.032672,35.068096,20.131943,10.493040,0.398649,1.708480,0.061202,0.000000,0.000000,0.000000,0.000000,0.000000,0.000000
12056448.000000,2.301142,-1.042185,-1.873037,-1.466482,-1.004668,1.777032,0.488707,0.002864,-0.393761,-0.200519,-0.209113,-0.386510,0.388295,0.153632,-1.008868,34.996685,20.084335,10.516844,0.386747,1.721298,0.094161,0.000000,0.000000,0.000000,0.000000,0.000000,0.000000
12056449.000000,2.301144,-1.042585,-1.873250,-1.466692,-1.005055,1.777409,0.488872,0.003652,-0.393438,-0.202034,-0.209727,-0.389694,0.378402,0.154987,-0.961260,35.020489,20.131943,10.493040,0.398649,1.747848,0.041976,0.000000,0.000000,0.000000,0.000000,0.000000,0.000000
12056450.000000,2.301152,-1.042988,-1.873454,-1.466903,-1.005444,1.777784,0.489033,0.006411,-0.395252,-0.202575,-0.210026,-0.387234,0.387642,0.157144,-1.008868,35.191082,20.159714,10.465269,0.440763,1.754256,0.081344,0.000000,0.000000,0.000000,0.000000,0.000000,0.000000
12056451.000000,2.301156,-1.043389,-1.873662,-1.467115,-1.005822,1.778162,0.489199,0.003595,-0.395265,-0.202411,-0.207301,-0.386409,0.378664,0.159427,-0.961260,35.266460,20.183517,10.441465,0.476469,1.721298,0.054794,0.000000,0.000000,0.000000,0.000000,0.000000,0.000000
12056452.000000,2.301160,-1.043790,-1.873868,-1.467324,-1.006211,1.778541,0.489370,0.001516,-0.402179,-0.200521,-0.209472,-0.387226,0.379687,0.160720,-0.909686,35.361675,20.254929,10.465269,0.440763,1.708480,0.041976,0.000000,0.000000,0.000000,0.000000,0.000000,0.000000
12056453.000000,2.301163,-1.044187,-1.874073,-1.467542,-1.006602,1.778907,0.489528,0.003143,-0.403406,-0.200087,-0.214295,-0.388417,0.376443,0.164242,-0.862078,35.413250,20.231125,10.516844,0.422452,1.727706,0.107894,0.000000,0.000000,0.000000,0.000000,0.000000,0.000000
12056454.000000,2.301171,-1.044587,-1.874278,-1.467748,-1.006984,1.779288,0.489704,0.005552,-0.403414,-0.202194,-0.209633,-0.384984,0.370488,0.168700,-0.862078,35.437054,20.183517,10.465269,0.405057,1.708480,0.028243,0.000000,0.000000,0.000000,0.000000,0.000000,0.000000
12056455.000000,2.301173,-1.044987,-1.874485,-1.467959,-1.007377,1.779663,0.489866,0.008331,-0.403005,-0.202759,-0.207577,-0.385274,0.377374,0.171780,-0.786700,35.437054,20.207321,10.465269,0.351041,1.714889,0.074935,0.000000,0.000000,0.000000,0.000000,0.000000,0.000000
12056456.000000,2.301168,-1.045385,-1.874689,-1.468173,-1.007770,1.780028,0.490035,0.004624,-0.402495,-0.203916,-0.210813,-0.388805,0.371715,0.169900,-0.588336,35.460857,20.159714,10.540648,0.356534,1.800033,0.067611,0.000000,0.000000,0.000000,0.000000,0.000000,0.000000
12056457.000000,2.301172,-1.045790,-1.874898,-1.468384,-1.008157,1.780401,0.490202,0.005023,-0.401664,-0.207239,-0.211858,-0.385280,0.369005,0.170463,-0.512957,35.437054,20.183517,10.564451,0.339139,1.865035,0.041976,0.000000,0.000000,0.000000,0.000000,0.000000,0.000000
12056458.000000,2.301169,-1.046190,-1.875107,-1.468604,-1.008556,1.780777,0.490369,0.000838,-0.403684,-0.203806,-0.211652,-0.392541,0.367104,0.169201,-0.366168,35.508465,20.231125,10.691404,0.344633,1.806442,0.067611,0.000000,0.000000,0.000000,0.000000,0.000000,0.000000
12056459.000000,2.301163,-1.046602,-1.875310,-1.468811,-1.008959,1.781154,0.490538,-0.002276,-0.404269,-0.202641,-0.212916,-0.396465,0.364758,0.169568,-0.215411,35.583843,20.207321,10.663633,0.416959,1.741439,0.061202,0.000000,0.000000,0.000000,0.000000,0.000000,0.000000
12056460.000000,2.301156,-1.047007,-1.875517,-1.469023,-1.009353,1.781533,0.490703,-0.004432,-0.404790,-0.204761,-0.212852,-0.391518,0.371234,0.167708,-0.068621,35.778240,20.306503,10.663633,0.416959,1.793624,0.094161,0.000000,0.000000,0.000000,0.000000,0.000000,0.000000
12056461.000000,2.301149,-1.047435,-1.875722,-1.469237,-1.009750,1.781912,0.490876,-0.004886,-0.410652,-0.206590,-0.214590,-0.397099,0.375196,0.170036,0.030561,36.071819,20.306503,10.616026,0.393156,1.786300,0.048385,0.000000,0.000000,0.000000,0.000000,0.000000,0.000000
12056462.000000,2.301147,-1.047849,-1.875920,-1.469453,-1.010148,1.782293,0.491041,-0.003522,-0.413935,-0.208506,-0.214526,-0.398248,0.371405,0.163966,0.054365,36.242413,20.231125,10.616026,0.422452,1.727706,0.067611,0.000000,0.000000,0.000000,0.000000,0.000000,0.000000
12056463.000000,2.301148,-1.048266,-1.876138,-1.469660,-1.010542,1.782676,0.491208,-0.001015,-0.416843,-0.213792,-0.208548,-0.396772,0.373716,0.165122,0.006757,36.389202,20.401718,10.516844,0.422452,1.649886,0.074935,0.000000,0.000000,0.000000,0.000000,0.000000,0.000000
12056464.000000,2.301129,-1.048676,-1.876347,-1.469875,-1.010924,1.783051,0.491368,-0.005153,-0.415383,-0.211074,-0.209474,-0.399586,0.370685,0.165720,0.205121,36.464581,20.429489,10.493040,0.381254,1.670028,0.087753,0.000000,0.000000,0.000000,0.000000,0.000000,0.000000
12056465.000000,2.301123,-1.049089,-1.876552,-1.470094,-1.011322,1.783419,0.491539,-0.006312,-0.415730,-0.208451,-0.211199,-0.397927,0.370248,0.163385,0.205121,36.512188,20.429489,10.516844,0.356534,1.735030,0.041976,0.000000,0.000000,0.000000,0.000000,0.000000,0.000000
12056466.000000,2.301122,-1.049500,-1.876768,-1.470309,-1.011724,1.783785,0.491703,-0.003159,-0.415484,-0.205994,-0.211538,-0.394952,0.369438,0.161429,0.153547,36.512188,20.552475,10.516844,0.410551,1.754256,0.100570,0.000000,0.000000,0.000000,0.000000,0.000000,0.000000
12056467.000000,2.301108,-1.049915,-1.876980,-1.470524,-1.012112,1.784166,0.491879,-0.005101,-0.413408,-0.206628,-0.213981,-0.400341,0.370450,0.166237,0.276533,36.464581,20.647690,10.592222,0.416959,1.727706,0.028243,0.000000,0.000000,0.000000,0.000000,0.000000,0.000000
12056468.000000,2.301099,-1.050316,-1.877182,-1.470736,-1.012508,1.784534,0.492038,-0.005253,-0.412207,-0.205425,-0.216044,-0.396842,0.372663,0.164288,0.351911,36.464581,20.671494,10.540648,0.374845,1.735030,0.087753,0.000000,0.000000,0.000000,0.000000,0.000000,0.000000
12056469.000000,2.301090,-1.050734,-1.877391,-1.470960,-1.012901,1.784898,0.492203,-0.005331,-0.414267,-0.204432,-0.214019,-0.392509,0.364543,0.165368,0.427289,36.535992,20.699265,10.616026,0.381254,1.779891,0.100570,0.000000,0.000000,0.000000,0.000000,0.000000,0.000000
12056470.000000,2.301083,-1.051156,-1.877607,-1.471172,-1.013294,1.785270,0.492376,-0.007160,-0.415674,-0.210213,-0.214925,-0.393837,0.367394,0.169148,0.451093,36.734356,20.846054,10.663633,0.381254,1.812850,0.021835,0.000000,0.000000,0.000000,0.000000,0.000000,0.000000
12056471.000000,2.301075,-1.051572,-1.877827,-1.471380,-1.013697,1.785637,0.492528,-0.006267,-0.414891,-0.211120,-0.210859,-0.397638,0.363885,0.165532,0.502668,36.857342,20.992844,10.663633,0.356534,1.793624,0.094161,0.000000,0.000000,0.000000,0.000000,0.000000,0.000000
12056472.000000,2.301067,-1.051984,-1.878044,-1.471588,-1.014098,1.786003,0.492698,-0.008618,-0.415923,-0.210143,-0.211540,-0.397622,0.359582,0.168044,0.574079,37.004131,21.092026,10.663633,0.356534,1.812850,0.054794,0.000000,0.000000,0.000000,0.000000,0.000000,0.000000
12056473.000000,2.301066,-1.052380,-1.878274,-1.471802,-1.014497,1.786372,0.492863,-0.006120,-0.412186,-0.220020,-0.213306,-0.402505,0.368276,0.167575,0.574079,36.881145,21.361801,10.715208,0.386747,1.832076,0.074935,0.000000,0.000000,0.000000,0.000000,0.000000,0.000000
12056474.000000,2.301063,-1.052781,-1.878495,-1.472017,-1.014899,1.786744,0.493029,-0.004361,-0.409956,-0.217069,-0.211634,-0.401924,0.368373,0.168963,0.574079,36.758160,21.484787,10.786619,0.405057,1.819259,0.054794,0.000000,0.000000,0.000000,0.000000,0.000000,0.000000
12056475.000000,2.301054,-1.053193,-1.878715,-1.472222,-1.015309,1.787111,0.493195,-0.008273,-0.409521,-0.215837,-0.205725,-0.403025,0.367837,0.169014,0.673261,36.682781,21.631577,10.786619,0.476469,1.838485,0.034652,0.000000,0.000000,0.000000,0.000000,0.000000,0.000000
12056476.000000,2.301049,-1.053591,-1.878936,-1.472436,-1.015708,1.787465,0.493351,-0.007116,-0.403040,-0.217327,-0.208680,-0.401630,0.360378,0.162277,0.724836,36.563763,21.754562,10.861998,0.506681,1.916305,0.094161,0.000000,0.000000,0.000000,0.000000,0.000000,0.000000
12056477.000000,2.301049,-1.053998,-1.879161,-1.472650,-1.016104,1.787830,0.493522,-0.005040,-0.402768,-0.221079,-0.211483,-0.399803,0.359768,0.166983,0.724836,36.440777,21.849777,10.861998,0.494779,1.968490,0.021835,0.000000,0.000000,0.000000,0.000000,0.000000,0.000000
12056478.000000,2.301048,-1.054394,-1.879380,-1.472860,-1.016504,1.788197,0.493676,-0.002932,-0.398121,-0.219760,-0.209197,-0.398094,0.364258,0.160527,0.697065,36.270184,21.901352,10.885801,0.482877,1.988631,0.074935,0.000000,0.000000,0.000000,0.000000,0.000000,0.000000
12056479.000000,2.301044,-1.054804,-1.879609,-1.473062,-1.016893,1.788556,0.493837,-0.003327,-0.400650,-0.220880,-0.208793,-0.395768,0.362854,0.166636,0.748639,36.171001,22.048141,10.838194,0.422452,1.936446,0.061202,0.000000,0.000000,0.000000,0.000000,0.000000,0.000000
12056480.000000,2.301040,-1.055201,-1.879825,-1.473270,-1.017289,1.788923,0.493997,-0.004106,-0.399452,-0.223689,-0.209507,-0.395518,0.360140,0.167088,0.824018,36.000408,22.048141,10.814390,0.410551,1.936446,0.067611,0.000000,0.000000,0.000000,0.000000,0.000000,0.000000
12056481.000000,2.301043,-1.055604,-1.880047,-1.473478,-1.017691,1.789277,0.494159,-0.002181,-0.398852,-0.221849,-0.209632,-0.392112,0.358731,0.166405,0.796247,35.901226,22.095749,10.786619,0.452665,1.974899,0.107894,0.000000,0.000000,0.000000,0.000000,0.000000,0.000000
12056482.000000,2.301038,-1.056009,-1.880270,-1.473691,-1.018073,1.789633,0.494325,-0.003288,-0.398852,-0.221553,-0.211700,-0.388693,0.354718,0.163530,0.871625,35.877422,22.194931,10.814390,0.458158,2.007858,0.087753,0.000000,0.000000,0.000000,0.000000,0.000000,0.000000
12056483.000000,2.301034,-1.056412,-1.880479,-1.473890,-1.018470,1.790002,0.494499,-0.003451,-0.402224,-0.218226,-0.210313,-0.390289,0.361887,0.167246,0.923200,35.802044,22.147324,10.739012,0.440763,1.981307,0.021835,0.000000,0.000000,0.000000,0.000000,0.000000,0.000000
12056484.000000,2.301038,-1.056809,-1.880694,-1.474103,-1.018882,1.790357,0.494653,-0.001134,-0.401036,-0.216794,-0.210829,-0.393818,0.354240,0.164488,0.871625,35.730633,22.147324,10.739012,0.500272,1.981307,0.107894,0.000000,0.000000,0.000000,0.000000,0.000000,0.000000
12056485.000000,2.301041,-1.057221,-1.880911,-1.474311,-1.019275,1.790714,0.494823,0.000328,-0.403995,-0.216106,-0.209569,-0.394490,0.348186,0.167154,0.824018,35.706829,22.147324,10.786619,0.494779,1.988631,0.074935,0.000000,0.000000,0.000000,0.000000,0.000000,0.000000
12056486.000000,2.301040,-1.057623,-1.881124,-1.474515,-1.019677,1.791070,0.494989,-0.000917,-0.403943,-0.218607,-0.203834,-0.396078,0.354374,0.159884,0.871625,35.706829,22.147324,10.762815,0.428861,2.020675,0.034652,0.000000,0.000000,0.000000,0.000000,0.000000,0.000000
12056487.000000,2.301043,-1.058022,-1.881330,-1.474715,-1.020078,1.791427,0.495147,0.002970,-0.399225,-0.213669,-0.199329,-0.403553,0.350239,0.163671,0.847822,35.508465,22.000534,10.739012,0.428861,2.072860,0.067611,0.000000,0.000000,0.000000,0.000000,0.000000,0.000000
12056488.000000,2.301056,-1.058423,-1.881544,-1.474915,-1.020479,1.791794,0.495309,0.005747,-0.402323,-0.217302,-0.199282,-0.397663,0.363525,0.163849,0.697065,35.437054,22.000534,10.715208,0.446256,2.039901,0.074935,0.000000,0.000000,0.000000,0.000000,0.000000,0.000000
12056489.000000,2.301054,-1.058828,-1.881755,-1.475125,-1.020889,1.792157,0.495471,0.005935,-0.401350,-0.212845,-0.202234,-0.400365,0.353579,0.168631,0.724836,35.361675,21.972763,10.838194,0.405057,1.968490,0.087753,0.000000,0.000000,0.000000,0.000000,0.000000,0.000000
12056490.000000,2.301052,-1.059232,-1.881953,-1.475326,-1.021300,1.792519,0.495636,0.004990,-0.402212,-0.209791,-0.203456,-0.405405,0.355915,0.165820,0.824018,35.314068,21.825974,10.913572,0.440763,1.988631,0.041976,0.000000,0.000000,0.000000,0.000000,0.000000,0.000000
12056491.000000,2.301056,-1.059641,-1.882150,-1.475524,-1.021710,1.792879,0.495790,0.003839,-0.402346,-0.205674,-0.200643,-0.404799,0.360615,0.159175,0.824018,35.290264,21.726791,10.961180,0.500272,2.020675,0.114303,0.000000,0.000000,0.000000,0.000000,0.000000,0.000000
12056492.000000,2.301063,-1.060049,-1.882352,-1.475727,-1.022123,1.793245,0.495959,0.006598,-0.404426,-0.205591,-0.200907,-0.406481,0.364111,0.163725,0.796247,35.361675,21.631577,10.984983,0.476469,1.981307,0.021835,0.000000,0.000000,0.000000,0.000000,0.000000,0.000000
12056493.000000,2.301062,-1.060471,-1.882547,-1.475926,-1.022529,1.793605,0.496116,0.003174,-0.410439,-0.202239,-0.198771,-0.404665,0.364115,0.164026,0.871625,35.484661,21.508591,11.036558,0.494779,2.007858,0.041976,0.000000,0.000000,0.000000,0.000000,0.000000,0.000000
12056494.000000,2.301072,-1.060875,-1.882744,-1.476115,-1.022926,1.793972,0.496266,0.007295,-0.406541,-0.197724,-0.193808,-0.394763,0.360598,0.162049,0.796247,35.536236,21.433212,10.961180,0.434354,2.014266,0.114303,0.000000,0.000000,0.000000,0.000000,0.000000,0.000000
12056495.000000,2.301077,-1.061296,-1.882936,-1.476305,-1.023321,1.794352,0.496437,0.006975,-0.406791,-0.192650,-0.195065,-0.392931,0.359929,0.167349,0.847822,35.631451,21.286423,10.984983,0.362943,1.936446,0.028243,0.000000,0.000000,0.000000,0.000000,0.000000,0.000000
12056496.000000,2.301093,-1.061705,-1.883129,-1.476495,-1.023726,1.794724,0.496596,0.010768,-0.411241,-0.194642,-0.195820,-0.393596,0.366302,0.165192,0.748639,35.754436,21.238815,10.961180,0.356534,1.884261,0.087753,0.000000,0.000000,0.000000,0.000000,0.000000,0.000000
12056497.000000,2.301102,-1.062127,-1.883326,-1.476682,-1.024127,1.795095,0.496758,0.011494,-0.414085,-0.192942,-0.190885,-0.390065,0.367072,0.166915,0.724836,35.853619,21.215012,10.838194,0.362943,1.865035,0.074935,0.000000,0.000000,0.000000,0.000000,0.000000,0.000000
12056498.000000,2.301113,-1.062548,-1.883513,-1.476870,-1.024532,1.795463,0.496922,0.011260,-0.417620,-0.196898,-0.191169,-0.392586,0.363577,0.166742,0.724836,35.948833,21.187241,10.861998,0.386747,1.844894,0.087753,0.000000,0.000000,0.000000,0.000000,0.000000,0.000000
12056499.000000,2.301123,-1.062976,-1.883690,-1.477056,-1.024939,1.795820,0.497093,0.011356,-0.420621,-0.191296,-0.190611,-0.394306,0.366432,0.168775,0.724836,36.123394,21.016647,10.861998,0.428861,1.858627,0.054794,0.000000,0.000000,0.000000,0.000000,0.000000,0.000000
12056500.000000,2.301137,-1.063389,-1.883878,-1.477240,-1.025331,1.796186,0.497251,0.012715,-0.417973,-0.189437,-0.189720,-0.395439,0.361932,0.162625,0.673261,36.123394,20.945236,10.838194,0.452665,1.851302,0.081344,0.000000,0.000000,0.000000,0.000000,0.000000,0.000000
12056501.000000,2.301150,-1.063799,-1.884063,-1.477418,-1.025724,1.796559,0.497420,0.010506,-0.418645,-0.191093,-0.187162,-0.397586,0.368702,0.165295,0.625654,36.048016,20.869858,10.739012,0.374845,1.779891,0.048385,0.000000,0.000000,0.000000,0.000000,0.000000,0.000000
12056502.000000,2.301166,-1.064203,-1.884243,-1.477602,-1.026132,1.796916,0.497575,0.013017,-0.412176,-0.187961,-0.183475,-0.401317,0.359730,0.164536,0.526471,35.948833,20.746872,10.715208,0.362943,1.760665,0.100570,0.000000,0.000000,0.000000,0.000000,0.000000,0.000000
12056503.000000,2.301186,-1.064623,-1.884432,-1.477782,-1.026526,1.797262,0.497747,0.015095,-0.409793,-0.191330,-0.182346,-0.398939,0.353721,0.168140,0.403486,35.976604,20.723068,10.739012,0.327238,1.838485,0.041976,0.000000,0.000000,0.000000,0.000000,0.000000,0.000000
12056504.000000,2.301200,-1.065035,-1.884616,-1.477945,-1.026928,1.797615,0.497910,0.015084,-0.403819,-0.190602,-0.172885,-0.400946,0.358248,0.167067,0.351911,36.095623,20.699265,10.540648,0.279630,1.877853,0.074935,0.000000,0.000000,0.000000,0.000000,0.000000,0.000000
12056505.000000,2.301221,-1.065449,-1.884800,-1.478120,-1.027331,1.797964,0.498071,0.013787,-0.405713,-0.188350,-0.172453,-0.407986,0.350649,0.166601,0.228925,36.071819,20.623886,10.465269,0.297025,1.884261,0.107894,0.000000,0.000000,0.000000,0.000000,0.000000,0.000000
12056506.000000,2.301237,-1.065866,-1.884984,-1.478303,-1.027733,1.798317,0.498243,0.014603,-0.411787,-0.185761,-0.175569,-0.400295,0.346992,0.168928,0.153547,36.123394,20.623886,10.540648,0.291532,1.851302,0.061202,0.000000,0.000000,0.000000,0.000000,0.000000,0.000000
12056507.000000,2.301250,-1.066270,-1.885170,-1.478476,-1.028137,1.798680,0.498404,0.013598,-0.412453,-0.183263,-0.174303,-0.402000,0.350641,0.163416,0.129743,35.976604,20.600082,10.493040,0.249418,1.767074,0.087753,0.000000,0.000000,0.000000,0.000000,0.000000,0.000000
12056508.000000,2.301270,-1.066673,-1.885353,-1.478644,-1.028551,1.799037,0.498571,0.014450,-0.413757,-0.183636,-0.173749,-0.402885,0.353948,0.161573,0.054365,35.802044,20.552475,10.441465,0.303434,1.767074,0.028243,0.000000,0.000000,0.000000,0.000000,0.000000,0.000000
12056509.000000,2.301294,-1.067079,-1.885542,-1.478818,-1.028966,1.799392,0.498728,0.017436,-0.410499,-0.185757,-0.175813,-0.402568,0.353558,0.156117,-0.116229,35.631451,20.576279,10.493040,0.344633,1.800033,0.074935,0.000000,0.000000,0.000000,0.000000,0.000000,0.000000
12056510.000000,2.301324,-1.067480,-1.885733,-1.478987,-1.029387,1.799744,0.498887,0.022926,-0.412520,-0.182662,-0.172980,-0.412491,0.351913,0.158029,-0.314593,35.361675,20.552475,10.370054,0.393156,1.812850,0.074935,0.000000,0.000000,0.000000,0.000000,0.000000,0.000000
12056511.000000,2.301340,-1.067893,-1.885914,-1.479147,-1.029798,1.800099,0.499056,0.018974,-0.412167,-0.181461,-0.167448,-0.412517,0.349773,0.161227,-0.314593,35.143475,20.429489,10.219297,0.381254,1.858627,0.067611,0.000000,0.000000,0.000000,0.000000,0.000000,0.000000
12056512.000000,2.301360,-1.068288,-1.886107,-1.479314,-1.030213,1.800453,0.499222,0.020750,-0.412247,-0.187346,-0.166582,-0.406842,0.356944,0.157306,-0.366168,34.921307,20.453293,10.219297,0.369352,1.858627,0.087753,0.000000,0.000000,0.000000,0.000000,0.000000,0.000000
12056513.000000,2.301383,-1.068698,-1.886297,-1.479473,-1.030620,1.800818,0.499391,0.022639,-0.410434,-0.186805,-0.165187,-0.412623,0.357936,0.161804,-0.441546,34.798321,20.401718,10.171690,0.339139,1.760665,0.048385,0.000000,0.000000,0.000000,0.000000,0.000000,0.000000
12056514.000000,2.301406,-1.069101,-1.886486,-1.479630,-1.031038,1.801186,0.499553,0.023448,-0.412199,-0.186480,-0.164217,-0.412526,0.368076,0.161718,-0.489153,34.726910,20.354111,10.143919,0.315336,1.727706,0.094161,0.000000,0.000000,0.000000,0.000000,0.000000,0.000000
12056515.000000,2.301428,-1.069516,-1.886674,-1.479790,-1.031455,1.801536,0.499714,0.021240,-0.413676,-0.186299,-0.159777,-0.412865,0.355916,0.159156,-0.540728,34.726910,20.330307,10.096312,0.303434,1.793624,0.094161,0.000000,0.000000,0.000000,0.000000,0.000000,0.000000
12056516.000000,2.301444,-1.069937,-1.886857,-1.479944,-1.031877,1.801895,0.499880,0.020147,-0.420327,-0.185981,-0.156588,-0.418734,0.349907,0.158635,-0.489153,34.897503,20.278732,10.048704,0.315336,1.793624,0.054794,0.000000,0.000000,0.000000,0.000000,0.000000,0.000000
12056517.000000,2.301466,-1.070349,-1.887044,-1.480106,-1.032294,1.802245,0.500043,0.022264,-0.420305,-0.188982,-0.159644,-0.416756,0.356770,0.162463,-0.540728,34.945110,20.231125,10.096312,0.303434,1.793624,0.021835,0.000000,0.000000,0.000000,0.000000,0.000000,0.000000
12056518.000000,2.301484,-1.070762,-1.887241,-1.480259,-1.032702,1.802600,0.500197,0.021598,-0.418869,-0.192701,-0.156897,-0.412860,0.353743,0.156822,-0.512957,34.945110,20.254929,10.072508,0.332731,1.806442,0.094161,0.000000,0.000000,0.000000,0.000000,0.000000,0.000000
12056519.000000,2.301503,-1.071185,-1.887436,-1.480410,-1.033121,1.802963,0.500364,0.021620,-0.422780,-0.193131,-0.154927,-0.413354,0.357922,0.155807,-0.489153,34.996685,20.306503,10.048704,0.327238,1.735030,0.061202,0.000000,0.000000,0.000000,0.000000,0.000000,0.000000
12056520.000000,2.301522,-1.071596,-1.887622,-1.480570,-1.033546,1.803315,0.500518,0.021732,-0.425631,-0.189490,-0.157874,-0.413958,0.356665,0.157613,-0.465350,35.044292,20.207321,10.096312,0.339139,1.702071,0.081344,0.000000,0.000000,0.000000,0.000000,0.000000,0.000000
12056521.000000,2.301541,-1.072010,-1.887813,-1.480730,-1.033960,1.803672,0.500673,0.022223,-0.420874,-0.188927,-0.157947,-0.409763,0.352433,0.160818,-0.465350,34.996685,20.183517,10.171690,0.339139,1.747848,0.074935,0.000000,0.000000,0.000000,0.000000,0.000000,0.000000
12056522.000000,2.301555,-1.072424,-1.888000,-1.480884,-1.034387,1.804029,0.500835,0.017728,-0.420930,-0.186727,-0.156321,-0.414779,0.353876,0.163812,-0.389971,35.020489,20.084335,10.171690,0.332731,1.754256,0.054794,0.000000,0.000000,0.000000,0.000000,0.000000,0.000000
12056523.000000,2.301573,-1.072846,-1.888191,-1.481043,-1.034807,1.804384,0.500986,0.017829,-0.420713,-0.187258,-0.155926,-0.415852,0.349469,0.161887,-0.342364,35.068096,20.084335,10.219297,0.351041,1.702071,0.100570,0.000000,0.000000,0.000000,0.000000,0.000000,0.000000
12056524.000000,2.301589,-1.073276,-1.888376,-1.481193,-1.035226,1.804737,0.501143,0.018145,-0.429811,-0.187907,-0.154548,-0.411457,0.348284,0.160910,-0.290789,35.266460,20.084335,10.219297,0.362943,1.727706,0.048385,0.000000,0.000000,0.000000,0.000000,0.000000,0.000000
12056525.000000,2.301600,-1.073699,-1.888561,-1.481347,-1.035650,1.805084,0.501292,0.016745,-0.428228,-0.187769,-0.156352,-0.414649,0.343575,0.162007,-0.167803,35.361675,20.060532,10.219297,0.315336,1.741439,0.074935,0.000000,0.000000,0.000000,0.000000,0.000000,0.000000
12056526.000000,2.301618,-1.074136,-1.888750,-1.481505,-1.036066,1.805435,0.501452,0.018472,-0.430346,-0.190722,-0.158682,-0.414209,0.340143,0.160499,-0.144000,35.607647,20.036728,10.243101,0.297025,1.735030,0.041976,0.000000,0.000000,0.000000,0.000000,0.000000,0.000000
12056527.000000,2.301637,-1.074572,-1.888942,-1.481650,-1.036488,1.805788,0.501602,0.016953,-0.431941,-0.191423,-0.157053,-0.415695,0.346315,0.155153,-0.144000,35.853619,20.084335,10.120115,0.332731,1.702071,0.114303,0.000000,0.000000,0.000000,0.000000,0.000000,0.000000
12056528.000000,2.301649,-1.075009,-1.889134,-1.481799,-1.036910,1.806141,0.501760,0.016556,-0.434294,-0.191497,-0.153411,-0.414095,0.348338,0.156500,-0.044818,36.048016,20.131943,10.020933,0.291532,1.676437,0.054794,0.000000,0.000000,0.000000,0.000000,0.000000,0.000000
12056529.000000,2.301663,-1.075444,-1.889319,-1.481946,-1.037322,1.806494,0.501918,0.013776,-0.433701,-0.192127,-0.151450,-0.413873,0.349313,0.155665,0.030561,36.147198,20.108139,9.949522,0.279630,1.649886,0.034652,0.000000,0.000000,0.000000,0.000000,0.000000,0.000000
12056530.000000,2.301678,-1.075872,-1.889512,-1.482097,-1.037735,1.806837,0.502065,0.013181,-0.435424,-0.193178,-0.150126,-0.414221,0.351793,0.151039,0.054365,36.171001,20.183517,9.897947,0.303434,1.649886,0.127120,0.000000,0.000000,0.000000,0.000000,0.000000,0.000000
12056531.000000,2.301702,-1.076302,-1.889714,-1.482252,-1.038151,1.807184,0.502219,0.017034,-0.429070,-0.194795,-0.149579,-0.420066,0.349980,0.152059,0.006757,36.171001,20.306503,9.850340,0.320829,1.656295,0.107894,0.000000,0.000000,0.000000,0.000000,0.000000,0.000000
12056532.000000,2.301715,-1.076737,-1.889901,-1.482400,-1.038567,1.807536,0.502379,0.013349,-0.438255,-0.193438,-0.150897,-0.418631,0.350765,0.149364,0.105939,36.293987,20.330307,9.751158,0.315336,1.695663,0.041976,0.000000,0.000000,0.000000,0.000000,0.000000,0.000000
12056533.000000,2.301734,-1.077175,-1.890097,-1.482556,-1.038980,1.807876,0.502531,0.016127,-0.434921,-0.194068,-0.151530,-0.417792,0.344289,0.149151,0.105939,36.416973,20.429489,9.774961,0.315336,1.741439,0.054794,0.000000,0.000000,0.000000,0.000000,0.000000,0.000000
12056534.000000,2.301752,-1.077620,-1.890291,-1.482704,-1.039395,1.808224,0.502682,0.014496,-0.438103,-0.197259,-0.147899,-0.420432,0.341524,0.147484,0.129743,36.587566,20.500900,9.751158,0.273221,1.721298,0.107894,0.000000,0.000000,0.000000,0.000000,0.000000,0.000000
12056535.000000,2.301769,-1.078052,-1.890497,-1.482851,-1.039809,1.808579,0.502846,0.013494,-0.435843,-0.201501,-0.148914,-0.417271,0.351813,0.150708,0.153547,36.758160,20.647690,9.751158,0.237516,1.682845,0.048385,0.000000,0.000000,0.000000,0.000000,0.000000,0.000000
12056536.000000,2.301788,-1.078487,-1.890701,-1.482999,-1.040218,1.808932,0.502994,0.013258,-0.437354,-0.200054,-0.148360,-0.417708,0.343459,0.151330,0.153547,36.805767,20.746872,9.699583,0.255826,1.637069,0.107894,0.000000,0.000000,0.000000,0.000000,0.000000,0.000000
12056537.000000,2.301813,-1.078918,-1.890909,-1.483150,-1.040644,1.809270,0.503152,0.017628,-0.434511,-0.203391,-0.149800,-0.417718,0.340857,0.152460,0.078168,36.805767,20.893661,9.727354,0.273221,1.676437,0.067611,0.000000,0.000000,0.000000,0.000000,0.000000,0.000000
12056538.000000,2.301832,-1.079348,-1.891114,-1.483301,-1.041070,1.809602,0.503304,0.018930,-0.434446,-0.200984,-0.150404,-0.418240,0.336377,0.154670,0.078168,36.758160,20.969040,9.751158,0.303434,1.727706,0.081344,0.000000,0.000000,0.000000,0.000000,0.000000,0.000000
12056539.000000,2.301855,-1.079771,-1.891323,-1.483449,-1.041488,1.809933,0.503457,0.021023,-0.429536,-0.205549,-0.151112,-0.419633,0.331688,0.154497,0.030561,36.658978,21.040451,9.774961,0.356534,1.806442,0.061202,0.000000,0.000000,0.000000,0.000000,0.000000,0.000000
12056540.000000,2.301874,-1.080194,-1.891529,-1.483600,-1.041917,1.810279,0.503609,0.021420,-0.429190,-0.203231,-0.149740,-0.418008,0.335581,0.152186,0.030561,36.512188,21.139633,9.850340,0.362943,1.779891,0.094161,0.000000,0.000000,0.000000,0.000000,0.000000,0.000000
12056541.000000,2.301897,-1.080624,-1.891739,-1.483749,-1.042335,1.810614,0.503762,0.022326,-0.429564,-0.201681,-0.150288,-0.417541,0.335473,0.151720,0.006757,36.389202,21.262619,9.874144,0.362943,1.754256,0.100570,0.000000,0.000000,0.000000,0.000000,0.000000,0.000000
12056542.000000,2.301917,-1.081058,-1.891941,-1.483903,-1.042755,1.810955,0.503926,0.021886,-0.429060,-0.205220,-0.152051,-0.415277,0.336649,0.157997,0.030561,36.270184,21.310226,9.949522,0.332731,1.806442,0.034652,0.000000,0.000000,0.000000,0.000000,0.000000,0.000000
12056543.000000,2.301939,-1.081483,-1.892148,-1.484054,-1.043183,1.811288,0.504077,0.019179,-0.427535,-0.204386,-0.152177,-0.412621,0.331659,0.158605,0.030561,36.194805,21.337997,9.997129,0.273221,1.897079,0.100570,0.000000,0.000000,0.000000,0.000000,0.000000,0.000000
12056544.000000,2.301958,-1.081921,-1.892367,-1.484196,-1.043613,1.811627,0.504241,0.019000,-0.429152,-0.206654,-0.152583,-0.414788,0.330656,0.157848,0.078168,36.194805,21.484787,9.949522,0.303434,1.909896,0.048385,0.000000,0.000000,0.000000,0.000000,0.000000,0.000000
12056545.000000,2.301982,-1.082359,-1.892578,-1.484344,-1.044040,1.811969,0.504395,0.021013,-0.434709,-0.207230,-0.150013,-0.419078,0.338129,0.153822,0.030561,36.293987,21.580002,9.997129,0.279630,1.903487,0.081344,0.000000,0.000000,0.000000,0.000000,0.000000,0.000000
12056546.000000,2.301995,-1.082791,-1.892790,-1.484492,-1.044475,1.812309,0.504551,0.018426,-0.428783,-0.206259,-0.152388,-0.423313,0.336272,0.156677,0.153547,36.242413,21.631577,10.096312,0.285123,1.903487,0.074935,0.000000,0.000000,0.000000,0.000000,0.000000,0.000000
12056547.000000,2.302012,-1.083233,-1.893005,-1.484641,-1.044902,1.812653,0.504704,0.018144,-0.432459,-0.209775,-0.152908,-0.424017,0.340450,0.153896,0.228925,36.270184,21.702988,10.143919,0.356534,1.871444,0.107894,0.000000,0.000000,0.000000,0.000000,0.000000,0.000000
12056548.000000,2.302034,-1.083662,-1.893222,-1.484793,-1.045330,1.812990,0.504858,0.016955,-0.430949,-0.210173,-0.150396,-0.425578,0.341724,0.158144,0.228925,36.242413,21.825974,10.219297,0.362943,1.844894,0.087753,0.000000,0.000000,0.000000,0.000000,0.000000,0.000000
12056549.000000,2.302047,-1.084107,-1.893426,-1.484941,-1.045761,1.813331,0.505011,0.016541,-0.435844,-0.206672,-0.148174,-0.427936,0.342456,0.156605,0.328107,36.242413,21.802170,10.270872,0.369352,1.851302,0.081344,0.000000,0.000000,0.000000,0.000000,0.000000,0.000000
12056550.000000,2.302064,-1.084527,-1.893630,-1.485087,-1.046199,1.813672,0.505173,0.013984,-0.430594,-0.204628,-0.145775,-0.425764,0.343804,0.156581,0.403486,36.048016,21.778366,10.294676,0.398649,1.930038,0.034652,0.000000,0.000000,0.000000,0.000000,0.000000,0.000000
12056551.000000,2.302079,-1.084961,-1.893839,-1.485238,-1.046631,1.814004,0.505323,0.014966,-0.427201,-0.206361,-0.145717,-0.429267,0.338629,0.153379,0.474897,35.925030,21.778366,10.393858,0.315336,1.981307,0.074935,0.000000,0.000000,0.000000,0.000000,0.000000,0.000000
12056552.000000,2.302098,-1.085394,-1.894047,-1.485375,-1.047066,1.814339,0.505478,0.016918,-0.424138,-0.204861,-0.141170,-0.425901,0.336621,0.152934,0.502668,35.829815,21.778366,10.294676,0.308927,1.988631,0.061202,0.000000,0.000000,0.000000,0.000000,0.000000,0.000000
