chaoyuefei/paper-gmrm-data/robot_logs/s2_dq_mrm_min_0.30_log_20260314_183342.csv
# time_ms,q_0,q_1,q_2,q_3,q_4,q_5,q_6,dq_0,dq_1,dq_2,dq_3,dq_4,dq_5,dq_6,tau_J_0,tau_J_1,tau_J_2,tau_J_3,tau_J_4,tau_J_5,tau_J_6,O_dP_EE_c_0,O_dP_EE_c_1,O_dP_EE_c_2,O_dP_EE_c_3,O_dP_EE_c_4,O_dP_EE_c_5
15889842.000000,-2.418238,-1.662579,1.039298,-1.352499,1.798409,1.078662,-0.546134,-0.000686,0.000516,-0.000014,0.000330,0.000525,0.000305,-0.000862,-0.092425,41.483196,-20.731094,-5.820436,0.918668,1.337692,-0.142960,0.000000,0.000000,0.000000,0.000000,0.000000,0.000000
15889843.000000,-2.418234,-1.662584,1.039300,-1.352501,1.798408,1.078660,-0.546131,0.000749,-0.001326,0.000548,-0.000337,-0.000091,-0.000271,0.000409,-0.144000,41.554607,-20.754898,-5.796632,0.930570,1.350509,-0.169511,0.000000,0.000000,0.000000,0.000000,0.000000,0.000000
15889844.000000,-2.418236,-1.662583,1.039300,-1.352501,1.798406,1.078661,-0.546130,-0.000150,0.000229,0.000365,-0.000225,-0.000501,0.000056,0.000747,-0.116229,41.507000,-20.754898,-5.796632,0.942472,1.344100,-0.182328,0.000000,0.000000,0.000000,0.000000,0.000000,0.000000
15889845.000000,-2.418236,-1.662584,1.039297,-1.352502,1.798408,1.078658,-0.546133,-0.000657,0.000153,-0.000870,-0.000707,0.000310,0.000038,-0.000723,-0.092425,41.507000,-20.707291,-5.772829,0.925077,1.344100,-0.149369,0.000000,0.000000,0.000000,0.000000,0.000000,0.000000
15889846.000000,-2.418229,-1.662581,1.039295,-1.352498,1.798407,1.078660,-0.546131,0.006786,-0.000760,-0.001137,0.002696,0.000885,-0.001196,-0.002247,0.153547,41.407818,-20.683487,-5.772829,0.906766,1.377059,-0.229020,0.000000,0.000000,0.000000,0.000000,0.000000,0.000000
15889847.000000,-2.418220,-1.662588,1.039298,-1.352496,1.798413,1.078652,-0.546151,0.016467,-0.003768,0.002045,0.001798,-0.005339,-0.002863,-0.011892,1.169172,41.261028,-20.659683,-5.626039,0.786832,1.572067,-0.208878,0.000000,0.000000,0.000000,0.000000,0.000000,0.000000
15889848.000000,-2.418188,-1.662591,1.039313,-1.352498,1.798415,1.078653,-0.546189,0.025853,-0.004138,0.006331,0.001039,-0.003824,-0.004492,-0.023180,2.704511,40.896038,-20.707291,-5.328493,0.632108,1.779891,-0.208878,0.000000,0.000000,0.000000,0.000000,0.000000,0.000000
15889849.000000,-2.418143,-1.662586,1.039330,-1.352499,1.798395,1.078672,-0.546243,0.025793,-0.000861,0.007575,0.000342,-0.013560,0.003154,-0.040147,4.585004,40.356487,-20.683487,-5.007143,0.620206,1.884261,-0.241837,0.000000,0.000000,0.000000,0.000000,0.000000,0.000000
15889850.000000,-2.418078,-1.662590,1.039348,-1.352514,1.798373,1.078723,-0.546323,0.032427,-0.001734,0.010937,-0.004821,-0.015643,0.015439,-0.055009,6.465497,39.916119,-20.608109,-4.610414,0.613798,1.832076,-0.208878,0.000000,0.000000,0.000000,0.000000,0.000000,0.000000
15889851.000000,-2.417985,-1.662590,1.039373,-1.352539,1.798339,1.078802,-0.546418,0.046576,-0.001484,0.012955,-0.017591,-0.023705,0.037243,-0.068379,8.000836,39.428143,-20.512894,-4.213686,0.644010,1.662704,-0.248246,0.000000,0.000000,0.000000,0.000000,0.000000,0.000000
15889852.000000,-2.417888,-1.662587,1.039415,-1.352584,1.798293,1.078901,-0.546544,0.058419,0.001763,0.021031,-0.031824,-0.035069,0.060000,-0.089240,9.512372,38.936199,-20.536697,-3.745546,0.685209,1.494247,-0.248246,0.000000,0.000000,0.000000,0.000000,0.000000,0.000000
15889853.000000,-2.417771,-1.662583,1.039458,-1.352632,1.798230,1.079013,-0.546688,0.073613,0.005996,0.030329,-0.038666,-0.048204,0.079855,-0.105889,10.750165,38.495831,-20.413712,-3.424196,0.721830,1.422836,-0.221696,0.000000,0.000000,0.000000,0.000000,0.000000,0.000000
15889854.000000,-2.417647,-1.662577,1.039520,-1.352691,1.798158,1.079149,-0.546847,0.086568,0.005065,0.039902,-0.045722,-0.059809,0.097644,-0.125274,11.888776,38.103069,-20.389908,-3.154421,0.679716,1.402694,-0.248246,0.000000,0.000000,0.000000,0.000000,0.000000,0.000000
15889855.000000,-2.417505,-1.662572,1.039591,-1.352763,1.798069,1.079299,-0.547024,0.102184,0.003562,0.050313,-0.059273,-0.072678,0.116355,-0.138815,12.876630,37.738079,-20.362137,-2.928285,0.589994,1.487838,-0.235429,0.000000,0.000000,0.000000,0.000000,0.000000,0.000000
15889856.000000,-2.417352,-1.662556,1.039677,-1.352849,1.797955,1.079474,-0.547214,0.118226,0.007472,0.062678,-0.069434,-0.087246,0.136135,-0.151611,13.693891,37.297710,-20.389908,-2.733888,0.482877,1.565658,-0.229020,0.000000,0.000000,0.000000,0.000000,0.000000,0.000000
15889857.000000,-2.417180,-1.662543,1.039777,-1.352953,1.797825,1.079687,-0.547415,0.136327,0.010611,0.077763,-0.082960,-0.098731,0.157236,-0.162229,14.411969,36.980328,-20.512894,-2.559328,0.381254,1.611434,-0.196061,0.000000,0.000000,0.000000,0.000000,0.000000,0.000000
15889858.000000,-2.416991,-1.662525,1.039889,-1.353062,1.797664,1.079927,-0.547612,0.152088,0.014358,0.091723,-0.093549,-0.115827,0.184263,-0.167812,14.959455,36.611370,-20.608109,-2.511720,0.374845,1.605026,-0.221696,0.000000,0.000000,0.000000,0.000000,0.000000,0.000000
15889859.000000,-2.416795,-1.662507,1.040018,-1.353200,1.797480,1.080197,-0.547814,0.164574,0.013372,0.098482,-0.108145,-0.135946,0.210722,-0.176731,15.451398,36.270184,-20.707291,-2.313356,0.422452,1.559249,-0.241837,0.000000,0.000000,0.000000,0.000000,0.000000,0.000000
15889860.000000,-2.416567,-1.662486,1.040164,-1.353344,1.797278,1.080488,-0.548016,0.184488,0.016523,0.113301,-0.121692,-0.155805,0.232245,-0.182058,15.701337,35.901226,-20.929459,-2.285585,0.464567,1.513473,-0.182328,0.000000,0.000000,0.000000,0.000000,0.000000,0.000000
15889861.000000,-2.416333,-1.662467,1.040322,-1.353513,1.797048,1.080806,-0.548211,0.203547,0.014518,0.125255,-0.137563,-0.178031,0.259377,-0.186613,16.022688,35.583843,-21.076248,-2.162599,0.589994,1.500655,-0.229020,0.000000,0.000000,0.000000,0.000000,0.000000,0.000000
15889862.000000,-2.416082,-1.662451,1.040491,-1.353697,1.796810,1.081151,-0.548417,0.218014,0.014038,0.137608,-0.150509,-0.195789,0.284135,-0.189147,16.244856,35.361675,-21.199234,-2.114992,0.589994,1.474105,-0.175919,0.000000,0.000000,0.000000,0.000000,0.000000,0.000000
15889863.000000,-2.415812,-1.662435,1.040671,-1.353898,1.796542,1.081514,-0.548612,0.234459,0.013278,0.149739,-0.166439,-0.218280,0.314324,-0.193754,16.391645,35.167278,-21.294449,-2.091188,0.559781,1.474105,-0.175919,0.000000,0.000000,0.000000,0.000000,0.000000,0.000000
15889864.000000,-2.415532,-1.662423,1.040858,-1.354113,1.796262,1.081879,-0.548807,0.248905,0.010701,0.162324,-0.178239,-0.234860,0.331463,-0.190570,16.566206,35.068096,-21.322220,-2.063417,0.518583,1.552840,-0.215287,0.000000,0.000000,0.000000,0.000000,0.000000,0.000000
15889865.000000,-2.415231,-1.662417,1.041052,-1.354347,1.795977,1.082272,-0.549006,0.267378,0.007337,0.173213,-0.192594,-0.250213,0.348284,-0.192078,16.665388,35.044292,-21.322220,-1.964235,0.410551,1.662704,-0.169511,0.000000,0.000000,0.000000,0.000000,0.000000,0.000000
15889866.000000,-2.414909,-1.662414,1.041255,-1.354604,1.795661,1.082681,-0.549192,0.285036,0.007777,0.179696,-0.214613,-0.269447,0.367487,-0.189925,16.665388,35.044292,-21.270645,-1.769838,0.381254,1.727706,-0.202470,0.000000,0.000000,0.000000,0.000000,0.000000,0.000000
15889867.000000,-2.414577,-1.662414,1.041473,-1.354876,1.795332,1.083131,-0.549383,0.304553,0.007974,0.190919,-0.231357,-0.289535,0.394460,-0.189814,16.689192,35.068096,-21.223038,-1.670656,0.344633,1.695663,-0.202470,0.000000,0.000000,0.000000,0.000000,0.000000,0.000000
15889868.000000,-2.414229,-1.662416,1.041692,-1.355160,1.794983,1.083606,-0.549571,0.317012,0.005081,0.199606,-0.248861,-0.300831,0.418318,-0.190573,16.740767,35.091900,-21.123856,-1.519899,0.351041,1.630660,-0.175919,0.000000,0.000000,0.000000,0.000000,0.000000,0.000000
15889869.000000,-2.413869,-1.662415,1.041929,-1.355466,1.794614,1.084083,-0.549757,0.333351,0.003628,0.214503,-0.267698,-0.322215,0.437781,-0.189032,16.764570,35.091900,-21.076248,-1.396913,0.422452,1.584884,-0.202470,0.000000,0.000000,0.000000,0.000000,0.000000,0.000000
15889870.000000,-2.413497,-1.662417,1.042172,-1.355780,1.794226,1.084601,-0.549946,0.348062,0.001950,0.221735,-0.279536,-0.342308,0.463990,-0.190349,16.887556,35.119671,-21.000870,-1.373109,0.464567,1.532699,-0.169511,0.000000,0.000000,0.000000,0.000000,0.000000,0.000000
15889871.000000,-2.413117,-1.662422,1.042425,-1.356097,1.793814,1.085129,-0.550126,0.357211,-0.000235,0.230140,-0.290992,-0.356722,0.480286,-0.184598,17.085920,35.191082,-20.905655,-1.373109,0.524076,1.513473,-0.188737,0.000000,0.000000,0.000000,0.000000,0.000000,0.000000
15889872.000000,-2.412724,-1.662421,1.042689,-1.356435,1.793399,1.085683,-0.550307,0.369298,0.000502,0.237037,-0.302852,-0.380743,0.505577,-0.179920,17.236677,35.167278,-20.830276,-1.349306,0.566190,1.526290,-0.208878,0.000000,0.000000,0.000000,0.000000,0.000000,0.000000
15889873.000000,-2.412323,-1.662424,1.042959,-1.356777,1.792966,1.086253,-0.550480,0.380373,-0.000703,0.242792,-0.319061,-0.395681,0.521289,-0.183526,17.530256,35.214886,-20.782669,-1.349306,0.470060,1.605026,-0.175919,0.000000,0.000000,0.000000,0.000000,0.000000,0.000000
15889874.000000,-2.411900,-1.662418,1.043244,-1.357141,1.792516,1.086839,-0.550648,0.392617,0.000702,0.254375,-0.329648,-0.409838,0.546177,-0.178925,17.704817,35.167278,-20.782669,-1.373109,0.434354,1.624252,-0.208878,0.000000,0.000000,0.000000,0.000000,0.000000,0.000000
15889875.000000,-2.411476,-1.662418,1.043533,-1.357528,1.792059,1.087463,-0.550816,0.407368,0.001068,0.265871,-0.342750,-0.427086,0.570263,-0.181302,17.954756,35.143475,-20.731094,-1.174745,0.422452,1.578475,-0.215287,0.000000,0.000000,0.000000,0.000000,0.000000,0.000000
15889876.000000,-2.411037,-1.662417,1.043836,-1.357919,1.791574,1.088106,-0.550987,0.416111,0.001301,0.278508,-0.360448,-0.439026,0.596003,-0.175799,18.248335,35.119671,-20.683487,-1.051759,0.422452,1.494247,-0.163102,0.000000,0.000000,0.000000,0.000000,0.000000,0.000000
15889877.000000,-2.410575,-1.662410,1.044156,-1.358332,1.791078,1.088775,-0.551145,0.432050,0.002655,0.288923,-0.375002,-0.450186,0.615372,-0.172259,18.347517,35.044292,-20.683487,-0.829591,0.434354,1.377059,-0.208878,0.000000,0.000000,0.000000,0.000000,0.000000,0.000000
15889878.000000,-2.410101,-1.662404,1.044475,-1.358754,1.790571,1.089464,-0.551314,0.447436,0.003458,0.297650,-0.388907,-0.470313,0.635204,-0.169064,18.522078,34.972881,-20.584305,-0.631227,0.524076,1.285506,-0.155778,0.000000,0.000000,0.000000,0.000000,0.000000,0.000000
15889879.000000,-2.409609,-1.662396,1.044807,-1.359186,1.790052,1.090159,-0.551478,0.456532,0.007233,0.306333,-0.400222,-0.479595,0.653179,-0.164457,18.446699,34.897503,-20.461319,-0.532045,0.625699,1.207687,-0.155778,0.000000,0.000000,0.000000,0.000000,0.000000,0.000000
15889880.000000,-2.409125,-1.662384,1.045142,-1.359644,1.789534,1.090873,-0.551629,0.458795,0.007415,0.329825,-0.417761,-0.492643,0.668846,-0.158077,17.803999,34.798321,-20.092361,-0.555849,0.715421,1.272689,-0.235429,0.000000,0.000000,0.000000,0.000000,0.000000,0.000000
15889881.000000,-2.408648,-1.662373,1.045514,-1.360104,1.789007,1.091597,-0.551791,0.457444,0.003126,0.343016,-0.432625,-0.495962,0.699145,-0.159246,16.665388,34.603924,-19.699600,-0.829591,0.774930,1.402694,-0.175919,0.000000,0.000000,0.000000,0.000000,0.000000,0.000000
15889882.000000,-2.408172,-1.662362,1.045917,-1.360585,1.788481,1.092338,-0.551946,0.463250,0.005512,0.362026,-0.444345,-0.503056,0.711214,-0.159817,14.907880,34.310345,-19.235428,-1.226320,0.811552,1.442062,-0.221696,0.000000,0.000000,0.000000,0.000000,0.000000,0.000000
15889883.000000,-2.407704,-1.662344,1.046325,-1.361073,1.787967,1.093105,-0.552114,0.467577,0.011366,0.374548,-0.455858,-0.497056,0.724774,-0.163298,13.027387,33.822369,-18.521317,-1.694460,0.679716,1.454879,-0.196061,0.000000,0.000000,0.000000,0.000000,0.000000,0.000000
15889884.000000,-2.407238,-1.662336,1.046774,-1.361562,1.787459,1.093875,-0.552270,0.470112,0.009787,0.392449,-0.464037,-0.490767,0.734528,-0.164480,11.119123,33.429607,-17.886551,-2.063417,0.530485,1.383468,-0.208878,0.000000,0.000000,0.000000,0.000000,0.000000,0.000000
15889885.000000,-2.406787,-1.662334,1.047246,-1.362067,1.786962,1.094671,-0.552431,0.464566,0.006376,0.421409,-0.470451,-0.497935,0.744174,-0.161536,9.389386,33.112225,-17.247818,-2.384767,0.351041,1.220504,-0.208878,0.000000,0.000000,0.000000,0.000000,0.000000,0.000000
15889886.000000,-2.406327,-1.662331,1.047725,-1.362560,1.786464,1.095466,-0.552595,0.464948,0.004764,0.434121,-0.481320,-0.494833,0.756796,-0.160487,7.778669,32.767071,-16.680496,-2.634706,0.231107,1.052047,-0.169511,0.000000,0.000000,0.000000,0.000000,0.000000,0.000000
15889887.000000,-2.405882,-1.662336,1.048214,-1.363057,1.785971,1.096236,-0.552753,0.464584,0.004141,0.447740,-0.483347,-0.488732,0.754212,-0.157966,6.417890,32.525066,-15.994156,-2.856874,0.147794,0.941268,-0.169511,0.000000,0.000000,0.000000,0.000000,0.000000,0.000000
15889888.000000,-2.405439,-1.662339,1.048706,-1.363553,1.785484,1.097015,-0.552904,0.455771,0.000768,0.457052,-0.481960,-0.480702,0.757111,-0.155680,5.354658,32.279095,-15.383194,-3.079042,0.112089,0.895492,-0.182328,0.000000,0.000000,0.000000,0.000000,0.000000,0.000000
15889889.000000,-2.404994,-1.662345,1.049209,-1.364025,1.784993,1.097785,-0.553057,0.450469,-0.002235,0.467886,-0.475678,-0.478939,0.762275,-0.154786,4.438215,32.056927,-14.815872,-3.376589,0.219205,0.830489,-0.175919,0.000000,0.000000,0.000000,0.000000,0.000000,0.000000
15889890.000000,-2.404554,-1.662352,1.049708,-1.364493,1.784510,1.098553,-0.553207,0.447854,-0.004191,0.473699,-0.468499,-0.494464,0.763104,-0.156879,3.668561,31.838726,-14.153336,-3.745546,0.279630,0.863448,-0.208878,0.000000,0.000000,0.000000,0.000000,0.000000,0.000000
15889891.000000,-2.404100,-1.662353,1.050207,-1.364970,1.784035,1.099314,-0.553363,0.444291,-0.001445,0.474737,-0.483734,-0.485343,0.756686,-0.156571,2.902875,31.568951,-13.637589,-3.820925,0.273221,0.928451,-0.188737,0.000000,0.000000,0.000000,0.000000,0.000000,0.000000
15889892.000000,-2.403636,-1.662364,1.050712,-1.365453,1.783556,1.100064,-0.553518,0.445907,-0.005909,0.481703,-0.482990,-0.485232,0.753091,-0.155887,2.133222,31.445965,-13.121841,-3.721742,0.339139,0.999862,-0.169511,0.000000,0.000000,0.000000,0.000000,0.000000,0.000000
15889893.000000,-2.403176,-1.662367,1.051211,-1.365944,1.783089,1.100832,-0.553664,0.446797,-0.007452,0.484661,-0.484938,-0.477336,0.751591,-0.152829,1.442914,31.251568,-12.633865,-3.475771,0.315336,0.999862,-0.235429,0.000000,0.000000,0.000000,0.000000,0.000000,0.000000
15889894.000000,-2.402692,-1.662361,1.051723,-1.366431,1.782622,1.101588,-0.553819,0.453278,-0.002527,0.486149,-0.485943,-0.465915,0.769357,-0.153088,0.601850,30.934185,-12.264908,-3.102846,0.285123,0.922042,-0.221696,0.000000,0.000000,0.000000,0.000000,0.000000,0.000000
15889895.000000,-2.402224,-1.662355,1.052255,-1.366925,1.782167,1.102354,-0.553971,0.456696,0.000384,0.491746,-0.486988,-0.465128,0.762951,-0.153124,-0.017047,30.640606,-12.094315,-2.781496,0.183500,0.850631,-0.202470,0.000000,0.000000,0.000000,0.000000,0.000000,0.000000
15889896.000000,-2.401749,-1.662342,1.052781,-1.367405,1.781717,1.103126,-0.554124,0.460029,0.003682,0.507051,-0.485521,-0.464423,0.754922,-0.157500,-0.512957,30.295452,-11.971329,-2.583132,0.069974,0.804855,-0.169511,0.000000,0.000000,0.000000,0.000000,0.000000,0.000000
15889897.000000,-2.401276,-1.662326,1.053307,-1.367864,1.781260,1.103868,-0.554273,0.463331,0.005904,0.506414,-0.477500,-0.457016,0.754667,-0.155127,-0.885882,29.954266,-11.725357,-2.658510,0.064481,0.798446,-0.196061,0.000000,0.000000,0.000000,0.000000,0.000000,0.000000
15889898.000000,-2.400821,-1.662303,1.053835,-1.368330,1.780803,1.104614,-0.554429,0.462141,0.012384,0.523660,-0.474588,-0.457842,0.747959,-0.155058,-1.032672,29.537701,-11.578568,-2.733888,0.069974,0.934859,-0.169511,0.000000,0.000000,0.000000,0.000000,0.000000,0.000000
15889899.000000,-2.400356,-1.662284,1.054386,-1.368782,1.780338,1.105354,-0.554586,0.461813,0.015914,0.534753,-0.465831,-0.460128,0.755623,-0.154071,-1.231036,29.168743,-11.526993,-2.880678,0.123990,1.162826,-0.169511,0.000000,0.000000,0.000000,0.000000,0.000000,0.000000
15889900.000000,-2.399884,-1.662257,1.054946,-1.369230,1.779883,1.106084,-0.554733,0.461615,0.020181,0.538041,-0.461097,-0.461131,0.742503,-0.155302,-1.528582,28.728374,-11.431778,-3.102846,0.166105,1.259872,-0.235429,0.000000,0.000000,0.000000,0.000000,0.000000,0.000000
15889901.000000,-2.399415,-1.662235,1.055502,-1.369682,1.779425,1.106852,-0.554899,0.465075,0.021445,0.540743,-0.453995,-0.461889,0.747547,-0.156660,-1.703143,28.363384,-11.332596,-3.202028,0.207303,1.149093,-0.175919,0.000000,0.000000,0.000000,0.000000,0.000000,0.000000
15889902.000000,-2.398936,-1.662215,1.056076,-1.370130,1.778968,1.107622,-0.555054,0.465491,0.020197,0.544205,-0.449876,-0.456268,0.761626,-0.154657,-2.048296,28.093609,-11.209610,-3.277406,0.255826,0.941268,-0.188737,0.000000,0.000000,0.000000,0.000000,0.000000,0.000000
15889903.000000,-2.398452,-1.662194,1.056661,-1.370575,1.778533,1.108389,-0.555205,0.472937,0.019468,0.569195,-0.443572,-0.460782,0.761483,-0.151889,-2.468829,27.823833,-11.134232,-3.301210,0.171598,0.850631,-0.241837,0.000000,0.000000,0.000000,0.000000,0.000000,0.000000
15889904.000000,-2.397969,-1.662180,1.057230,-1.371007,1.778078,1.109150,-0.555365,0.470000,0.018128,0.567773,-0.440897,-0.455238,0.757711,-0.154743,-2.790179,27.724651,-10.916031,-3.400392,0.171598,0.843307,-0.163102,0.000000,0.000000,0.000000,0.000000,0.000000,0.000000
15889905.000000,-2.397481,-1.662171,1.057812,-1.371447,1.777636,1.109894,-0.555518,0.477095,0.015218,0.566216,-0.441165,-0.443743,0.744887,-0.152858,-3.163104,27.724651,-10.570877,-3.400392,0.135892,0.889083,-0.196061,0.000000,0.000000,0.000000,0.000000,0.000000,0.000000
15889906.000000,-2.396989,-1.662164,1.058399,-1.371881,1.777203,1.110650,-0.555671,0.483602,0.013749,0.572852,-0.435573,-0.440389,0.742978,-0.147576,-3.508257,27.724651,-10.324905,-3.499574,0.081876,0.934859,-0.202470,0.000000,0.000000,0.000000,0.000000,0.000000,0.000000
15889907.000000,-2.396488,-1.662157,1.058988,-1.372296,1.776761,1.111385,-0.555825,0.488463,0.012829,0.581599,-0.429490,-0.433193,0.742905,-0.148550,-3.904986,27.724651,-9.955948,-3.697939,0.064481,1.006271,-0.202470,0.000000,0.000000,0.000000,0.000000,0.000000,0.000000
15889908.000000,-2.395992,-1.662150,1.059605,-1.372717,1.776329,1.112136,-0.555977,0.493417,0.010312,0.589257,-0.425985,-0.437260,0.737356,-0.149410,-4.301714,27.677044,-9.785355,-3.820925,0.064481,0.987045,-0.188737,0.000000,0.000000,0.000000,0.000000,0.000000,0.000000
15889909.000000,-2.395496,-1.662149,1.060220,-1.373126,1.775900,1.112898,-0.556122,0.489345,0.008858,0.596389,-0.432457,-0.436278,0.736107,-0.148572,-4.646868,27.748455,-9.662369,-4.019289,0.034269,0.947677,-0.221696,0.000000,0.000000,0.000000,0.000000,0.000000,0.000000
15889910.000000,-2.394996,-1.662150,1.060847,-1.373531,1.775464,1.113641,-0.556279,0.494866,0.007937,0.599743,-0.423140,-0.432491,0.737294,-0.150779,-5.067400,27.823833,-9.515579,-4.265260,0.081876,0.908309,-0.182328,0.000000,0.000000,0.000000,0.000000,0.000000,0.000000
15889911.000000,-2.394500,-1.662155,1.061486,-1.373939,1.775045,1.114398,-0.556429,0.495146,0.003149,0.610085,-0.419869,-0.423014,0.739419,-0.150918,-5.317339,27.946819,-9.515579,-4.364442,0.076383,0.915633,-0.175919,0.000000,0.000000,0.000000,0.000000,0.000000,0.000000
15889912.000000,-2.393990,-1.662159,1.062150,-1.374338,1.774617,1.115142,-0.556567,0.499322,0.000980,0.620996,-0.416917,-0.424770,0.755990,-0.144766,-5.662493,28.018230,-9.686172,-4.487428,0.027860,0.947677,-0.215287,0.000000,0.000000,0.000000,0.000000,0.000000,0.000000
15889913.000000,-2.393485,-1.662160,1.062827,-1.374738,1.774191,1.115889,-0.556716,0.505441,-0.000140,0.631323,-0.411794,-0.421886,0.744328,-0.147791,-6.059222,28.069805,-9.809158,-4.562807,0.004056,0.980636,-0.169511,0.000000,0.000000,0.000000,0.000000,0.000000,0.000000
15889914.000000,-2.392977,-1.662166,1.063506,-1.375137,1.773784,1.116659,-0.556856,0.507175,-0.002011,0.644120,-0.408864,-0.412059,0.743658,-0.146793,-6.356768,28.165020,-9.983719,-4.634218,-0.091158,0.882674,-0.196061,0.000000,0.000000,0.000000,0.000000,0.000000,0.000000
15889915.000000,-2.392459,-1.662171,1.064199,-1.375518,1.773348,1.117413,-0.557007,0.509621,-0.002871,0.653256,-0.403762,-0.414762,0.747613,-0.148690,-6.725726,28.240398,-10.078934,-4.808778,-0.043551,0.830489,-0.196061,0.000000,0.000000,0.000000,0.000000,0.000000,0.000000
15889916.000000,-2.391954,-1.662176,1.064899,-1.375909,1.772927,1.118148,-0.557156,0.507654,-0.003410,0.680721,-0.399231,-0.411054,0.734775,-0.145493,-7.051043,28.311810,-10.301102,-4.856386,-0.013339,1.031905,-0.169511,0.000000,0.000000,0.000000,0.000000,0.000000,0.000000
15889917.000000,-2.391435,-1.662183,1.065608,-1.376297,1.772511,1.118891,-0.557293,0.509481,-0.003906,0.690827,-0.400684,-0.412014,0.749970,-0.140148,-7.420001,28.387188,-10.348709,-4.856386,-0.025240,1.162826,-0.229020,0.000000,0.000000,0.000000,0.000000,0.000000,0.000000
15889918.000000,-2.390923,-1.662195,1.066334,-1.376694,1.772071,1.119631,-0.557445,0.513712,-0.005940,0.695044,-0.401775,-0.417554,0.751297,-0.144225,-7.769122,28.533978,-10.424088,-4.856386,0.088285,1.169235,-0.188737,0.000000,0.000000,0.000000,0.000000,0.000000,0.000000
15889919.000000,-2.390405,-1.662210,1.067044,-1.377094,1.771648,1.120381,-0.557588,0.515547,-0.008990,0.697230,-0.404014,-0.413820,0.743739,-0.141531,-8.090472,28.752178,-10.277298,-4.784975,0.147794,1.194869,-0.182328,0.000000,0.000000,0.000000,0.000000,0.000000,0.000000
15889920.000000,-2.389887,-1.662221,1.067783,-1.377492,1.771232,1.121106,-0.557727,0.514553,-0.008815,0.700532,-0.403217,-0.417788,0.740836,-0.137954,-8.388019,28.875164,-10.225723,-4.685792,0.135892,1.234237,-0.215287,0.000000,0.000000,0.000000,0.000000,0.000000,0.000000
15889921.000000,-2.389379,-1.662232,1.068535,-1.377896,1.770814,1.121853,-0.557870,0.512809,-0.008712,0.728681,-0.404291,-0.424366,0.740605,-0.142634,-8.610187,28.998150,-10.225723,-4.586610,0.112089,1.188461,-0.188737,0.000000,0.000000,0.000000,0.000000,0.000000,0.000000
15889922.000000,-2.388868,-1.662246,1.069277,-1.378297,1.770406,1.122610,-0.558009,0.507999,-0.009211,0.732458,-0.403369,-0.420395,0.757487,-0.143370,-8.733172,29.144939,-10.031326,-4.463624,0.052579,1.064864,-0.221696,0.000000,0.000000,0.000000,0.000000,0.000000,0.000000
15889923.000000,-2.388367,-1.662261,1.070035,-1.378697,1.769995,1.123345,-0.558157,0.507144,-0.010108,0.734613,-0.401348,-0.419227,0.750678,-0.146861,-8.756976,29.315533,-9.860733,-4.388246,0.058073,0.960494,-0.182328,0.000000,0.000000,0.000000,0.000000,0.000000,0.000000
15889924.000000,-2.387870,-1.662270,1.070799,-1.379093,1.769587,1.124078,-0.558296,0.506714,-0.011097,0.742372,-0.397553,-0.412820,0.741416,-0.147366,-8.808551,29.367107,-9.737747,-4.412050,0.034269,1.045638,-0.196061,0.000000,0.000000,0.000000,0.000000,0.000000,0.000000
15889925.000000,-2.387380,-1.662277,1.071574,-1.379479,1.769176,1.124796,-0.558434,0.498842,-0.008206,0.745820,-0.394769,-0.412490,0.738880,-0.147902,-8.657794,29.390911,-9.491776,-4.439821,0.022367,1.188461,-0.208878,0.000000,0.000000,0.000000,0.000000,0.000000,0.000000
15889926.000000,-2.386900,-1.662282,1.072355,-1.379871,1.768764,1.125540,-0.558581,0.491383,-0.008155,0.752826,-0.390328,-0.422061,0.733738,-0.145167,-8.558612,29.367107,-9.122818,-4.535036,0.046171,1.175643,-0.169511,0.000000,0.000000,0.000000,0.000000,0.000000,0.000000
15889927.000000,-2.386408,-1.662279,1.073141,-1.380253,1.768351,1.126295,-0.558717,0.490383,-0.006681,0.758906,-0.393328,-0.416267,0.736115,-0.141633,-8.534808,29.267925,-8.924454,-4.586610,0.064481,1.071273,-0.208878,0.000000,0.000000,0.000000,0.000000,0.000000,0.000000
15889928.000000,-2.385923,-1.662278,1.073956,-1.380634,1.767943,1.127046,-0.558861,0.487273,-0.005289,0.767974,-0.384902,-0.410008,0.735443,-0.139675,-8.388019,29.144939,-8.876846,-4.784975,0.058073,0.941268,-0.196061,0.000000,0.000000,0.000000,0.000000,0.000000,0.000000
15889929.000000,-2.385439,-1.662270,1.074760,-1.381026,1.767540,1.127816,-0.558999,0.487516,0.000338,0.775520,-0.383521,-0.413403,0.737631,-0.134011,-8.411822,28.950542,-8.777664,-4.784975,0.100187,0.824081,-0.188737,0.000000,0.000000,0.000000,0.000000,0.000000,0.000000
15889930.000000,-2.384953,-1.662266,1.075578,-1.381415,1.767134,1.128564,-0.559131,0.487661,0.004811,0.780455,-0.385307,-0.403589,0.756821,-0.132543,-8.336444,28.998150,-8.805435,-4.808778,0.112089,0.792037,-0.215287,0.000000,0.000000,0.000000,0.000000,0.000000,0.000000
15889931.000000,-2.384477,-1.662262,1.076396,-1.381806,1.766740,1.129317,-0.559275,0.483966,0.007984,0.777621,-0.383883,-0.395201,0.751154,-0.133266,-8.138080,29.343304,-9.170425,-4.784975,0.093778,0.908309,-0.188737,0.000000,0.000000,0.000000,0.000000,0.000000,0.000000
15889932.000000,-2.383997,-1.662261,1.077196,-1.382195,1.766365,1.130084,-0.559412,0.481960,0.004306,0.779765,-0.384703,-0.387112,0.751298,-0.140788,-7.669940,29.978069,-9.860733,-4.832582,0.004056,1.019088,-0.208878,0.000000,0.000000,0.000000,0.000000,0.000000,0.000000
15889933.000000,-2.383521,-1.662255,1.078000,-1.382574,1.765980,1.130841,-0.559554,0.477569,0.005836,0.780084,-0.381986,-0.386760,0.751699,-0.139856,-7.074847,30.735821,-10.816849,-4.884157,-0.043551,1.031905,-0.182328,0.000000,0.000000,0.000000,0.000000,0.000000,0.000000
15889934.000000,-2.383045,-1.662241,1.078777,-1.382960,1.765598,1.131623,-0.559696,0.467639,0.007467,0.797373,-0.385405,-0.379924,0.754927,-0.138485,-6.531329,31.521343,-11.772964,-4.931764,-0.019747,1.045638,-0.163102,0.000000,0.000000,0.000000,0.000000,0.000000,0.000000
15889935.000000,-2.382556,-1.662217,1.079578,-1.383342,1.765220,1.132399,-0.559829,0.471057,0.012335,0.799033,-0.384743,-0.376348,0.772118,-0.139704,-6.083025,32.179913,-12.951248,-4.884157,0.058073,1.123458,-0.215287,0.000000,0.000000,0.000000,0.000000,0.000000,0.000000
15889936.000000,-2.382072,-1.662192,1.080372,-1.383728,1.764830,1.133140,-0.559972,0.478882,0.013365,0.796472,-0.387372,-0.380579,0.755339,-0.144978,-5.813250,32.818645,-14.030350,-4.832582,0.183500,1.324874,-0.149369,0.000000,0.000000,0.000000,0.000000,0.000000,0.000000
15889937.000000,-2.381581,-1.662167,1.081152,-1.384119,1.764445,1.133903,-0.560102,0.483221,0.015670,0.791425,-0.384743,-0.383577,0.752667,-0.138983,-5.515704,33.405804,-14.839676,-4.709596,0.308927,1.494247,-0.221696,0.000000,0.000000,0.000000,0.000000,0.000000,0.000000
15889938.000000,-2.381086,-1.662135,1.081949,-1.384498,1.764053,1.134668,-0.560236,0.486035,0.020683,0.790711,-0.386415,-0.380838,0.758353,-0.139144,-5.317339,33.846172,-15.652969,-4.685792,0.476469,1.500655,-0.175919,0.000000,0.000000,0.000000,0.000000,0.000000,0.000000
15889939.000000,-2.380601,-1.662106,1.082762,-1.384884,1.763679,1.135422,-0.560372,0.487884,0.025019,0.812660,-0.383069,-0.390745,0.750680,-0.142294,-5.166583,34.238934,-16.410721,-4.685792,0.452665,1.559249,-0.175919,0.000000,0.000000,0.000000,0.000000,0.000000,0.000000
15889940.000000,-2.380122,-1.662075,1.083564,-1.385258,1.763303,1.136173,-0.560498,0.481609,0.027090,0.810804,-0.381000,-0.383388,0.746672,-0.138005,-4.845232,34.556316,-17.073257,-4.709596,0.381254,1.656295,-0.221696,0.000000,0.000000,0.000000,0.000000,0.000000,0.000000
15889941.000000,-2.379634,-1.662049,1.084382,-1.385642,1.762926,1.136915,-0.560637,0.486366,0.023699,0.807842,-0.380734,-0.378369,0.743995,-0.138833,-4.646868,34.921307,-17.565201,-4.685792,0.320829,1.662704,-0.175919,0.000000,0.000000,0.000000,0.000000,0.000000,0.000000
15889942.000000,-2.379177,-1.662035,1.085193,-1.386018,1.762559,1.137667,-0.560761,0.479012,0.019272,0.806164,-0.374570,-0.373884,0.740350,-0.135189,-4.226336,35.361675,-18.005569,-4.757204,0.225614,1.662704,-0.229020,0.000000,0.000000,0.000000,0.000000,0.000000,0.000000
15889943.000000,-2.378698,-1.662021,1.086020,-1.386396,1.762175,1.138387,-0.560892,0.476078,0.016846,0.809354,-0.374443,-0.372637,0.744210,-0.130207,-4.055743,35.778240,-18.303116,-4.808778,0.189908,1.786300,-0.221696,0.000000,0.000000,0.000000,0.000000,0.000000,0.000000
15889944.000000,-2.378232,-1.662015,1.086861,-1.386754,1.761788,1.139117,-0.561032,0.473896,0.011127,0.811710,-0.365912,-0.381537,0.733574,-0.133003,-3.881182,36.218609,-18.719681,-5.054750,0.183500,1.903487,-0.155778,0.000000,0.000000,0.000000,0.000000,0.000000,0.000000
15889945.000000,-2.377768,-1.662014,1.087695,-1.387107,1.761404,1.139878,-0.561153,0.466123,0.007447,0.817945,-0.360816,-0.385728,0.732520,-0.130283,-3.607440,36.635174,-19.064835,-5.304689,0.201810,1.767074,-0.241837,0.000000,0.000000,0.000000,0.000000,0.000000,0.000000
15889946.000000,-2.377301,-1.662027,1.088537,-1.387455,1.760999,1.140634,-0.561293,0.467241,0.001748,0.813893,-0.355941,-0.387608,0.743585,-0.134387,-3.436846,37.174725,-19.358414,-5.598268,0.344633,1.487838,-0.149369,0.000000,0.000000,0.000000,0.000000,0.000000,0.000000
15889947.000000,-2.376827,-1.662046,1.089377,-1.387808,1.760611,1.141391,-0.561420,0.474190,-0.002831,0.838433,-0.355933,-0.390872,0.743200,-0.128185,-3.484454,37.738079,-19.651993,-5.872011,0.393156,1.370651,-0.169511,0.000000,0.000000,0.000000,0.000000,0.000000,0.000000
15889948.000000,-2.376338,-1.662070,1.090229,-1.388152,1.760219,1.142108,-0.561543,0.479190,-0.009340,0.833981,-0.351904,-0.389364,0.749507,-0.123265,-3.659014,38.301434,-19.945572,-6.070375,0.476469,1.519881,-0.202470,0.000000,0.000000,0.000000,0.000000,0.000000,0.000000
15889949.000000,-2.375864,-1.662100,1.091080,-1.388502,1.759816,1.142821,-0.561672,0.476823,-0.017152,0.832234,-0.350424,-0.393453,0.729562,-0.125340,-3.805804,38.864788,-20.143936,-6.193361,0.559781,1.702071,-0.202470,0.000000,0.000000,0.000000,0.000000,0.000000,0.000000
15889950.000000,-2.375382,-1.662141,1.091915,-1.388852,1.759444,1.143561,-0.561800,0.480955,-0.025150,0.826758,-0.348195,-0.391052,0.727049,-0.122190,-3.956561,39.523357,-20.290726,-6.363954,0.488370,1.754256,-0.208878,0.000000,0.000000,0.000000,0.000000,0.000000,0.000000
15889951.000000,-2.374897,-1.662179,1.092766,-1.389198,1.759072,1.144281,-0.561939,0.483421,-0.028121,0.830301,-0.348759,-0.382707,0.722119,-0.125846,-4.103350,40.062908,-20.485123,-6.439332,0.398649,1.825668,-0.182328,0.000000,0.000000,0.000000,0.000000,0.000000,0.000000
15889952.000000,-2.374414,-1.662216,1.093615,-1.389550,1.758697,1.145009,-0.562066,0.483133,-0.029211,0.845935,-0.348390,-0.377227,0.716791,-0.126039,-4.301714,40.550884,-20.683487,-6.514711,0.297025,1.916305,-0.215287,0.000000,0.000000,0.000000,0.000000,0.000000,0.000000
15889953.000000,-2.373927,-1.662252,1.094452,-1.389891,1.758319,1.145737,-0.562197,0.482919,-0.031684,0.844367,-0.344059,-0.376153,0.734464,-0.127942,-4.547686,40.967449,-20.806473,-6.637697,0.267728,1.981307,-0.208878,0.000000,0.000000,0.000000,0.000000,0.000000,0.000000
15889954.000000,-2.373442,-1.662292,1.095284,-1.390239,1.757938,1.146461,-0.562331,0.487286,-0.031154,0.835118,-0.344659,-0.378711,0.730345,-0.124678,-4.821429,41.407818,-20.782669,-6.736879,0.332731,1.988631,-0.196061,0.000000,0.000000,0.000000,0.000000,0.000000,0.000000
15889955.000000,-2.372954,-1.662324,1.096106,-1.390582,1.757561,1.147209,-0.562462,0.488921,-0.030598,0.832813,-0.343336,-0.381370,0.729531,-0.125412,-5.043597,41.701397,-20.731094,-6.911439,0.422452,1.884261,-0.229020,0.000000,0.000000,0.000000,0.000000,0.000000,0.000000
15889956.000000,-2.372464,-1.662362,1.096942,-1.390911,1.757180,1.147935,-0.562594,0.484842,-0.032168,0.827275,-0.340929,-0.380298,0.733358,-0.123993,-5.317339,42.070354,-20.707291,-7.157411,0.476469,1.819259,-0.188737,0.000000,0.000000,0.000000,0.000000,0.000000,0.000000
15889957.000000,-2.371992,-1.662395,1.097794,-1.391244,1.756803,1.148673,-0.562718,0.483792,-0.028649,0.844396,-0.337160,-0.388060,0.733486,-0.125737,-5.440325,42.363934,-20.754898,-7.328004,0.506681,1.819259,-0.202470,0.000000,0.000000,0.000000,0.000000,0.000000,0.000000
15889958.000000,-2.371518,-1.662427,1.098628,-1.391551,1.756444,1.149413,-0.562841,0.477564,-0.028835,0.838184,-0.333941,-0.377679,0.729024,-0.122184,-5.464129,42.633709,-20.782669,-7.724733,0.458158,1.773483,-0.215287,0.000000,0.000000,0.000000,0.000000,0.000000,0.000000
15889959.000000,-2.371038,-1.662459,1.099459,-1.391869,1.756078,1.150138,-0.562973,0.480011,-0.031559,0.825504,-0.329835,-0.373427,0.727798,-0.125893,-5.563311,42.875713,-20.560501,-8.022280,0.381254,1.708480,-0.182328,0.000000,0.000000,0.000000,0.000000,0.000000,0.000000
15889960.000000,-2.370571,-1.662481,1.100288,-1.392190,1.755718,1.150863,-0.563102,0.474696,-0.027391,0.823665,-0.325940,-0.368481,0.720302,-0.126247,-5.638690,42.974895,-20.560501,-8.220644,0.369352,1.767074,-0.208878,0.000000,0.000000,0.000000,0.000000,0.000000,0.000000
15889961.000000,-2.370098,-1.662508,1.101128,-1.392504,1.755370,1.151582,-0.563229,0.474505,-0.027815,0.822380,-0.325855,-0.356281,0.721427,-0.127837,-5.686297,43.074078,-20.536697,-8.442812,0.291532,1.838485,-0.208878,0.000000,0.000000,0.000000,0.000000,0.000000,0.000000
15889962.000000,-2.369620,-1.662528,1.101961,-1.392815,1.755014,1.152315,-0.563354,0.478667,-0.025987,0.813277,-0.318416,-0.354140,0.724629,-0.128393,-5.936236,43.074078,-20.485123,-8.664980,0.237516,1.844894,-0.215287,0.000000,0.000000,0.000000,0.000000,0.000000,0.000000
15889963.000000,-2.369152,-1.662549,1.102789,-1.393127,1.754658,1.153057,-0.563482,0.477199,-0.024967,0.814988,-0.318735,-0.350241,0.733313,-0.129325,-6.011614,43.074078,-20.485123,-8.811769,0.261320,1.773483,-0.215287,0.000000,0.000000,0.000000,0.000000,0.000000,0.000000
15889964.000000,-2.368685,-1.662574,1.103627,-1.393425,1.754305,1.153793,-0.563606,0.471833,-0.026087,0.816022,-0.311364,-0.345176,0.730721,-0.130198,-6.059222,43.145489,-20.560501,-9.133120,0.249418,1.721298,-0.208878,0.000000,0.000000,0.000000,0.000000,0.000000,0.000000
15889965.000000,-2.368227,-1.662592,1.104462,-1.393729,1.753960,1.154523,-0.563729,0.471189,-0.024217,0.835476,-0.307459,-0.347818,0.722346,-0.130364,-6.083025,43.097881,-20.707291,-9.383059,0.249418,1.800033,-0.215287,0.000000,0.000000,0.000000,0.000000,0.000000,0.000000
15889966.000000,-2.367762,-1.662605,1.105302,-1.394023,1.753613,1.155247,-0.563856,0.471173,-0.021864,0.829825,-0.303339,-0.341683,0.733133,-0.128294,-6.106829,42.998699,-20.830276,-9.704409,0.178007,1.871444,-0.163102,0.000000,0.000000,0.000000,0.000000,0.000000,0.000000
15889967.000000,-2.367314,-1.662629,1.106145,-1.394325,1.753258,1.155983,-0.563971,0.464983,-0.020940,0.825846,-0.302408,-0.340928,0.735527,-0.122497,-6.035418,43.050274,-20.953262,-9.926577,0.207303,1.819259,-0.208878,0.000000,0.000000,0.000000,0.000000,0.000000,0.000000
15889968.000000,-2.366863,-1.662648,1.106976,-1.394626,1.752924,1.156722,-0.564089,0.462774,-0.018813,0.828366,-0.297098,-0.338106,0.734071,-0.120588,-5.912432,43.050274,-21.175430,-10.097170,0.178007,1.779891,-0.202470,0.000000,0.000000,0.000000,0.000000,0.000000,0.000000
15889969.000000,-2.366416,-1.662657,1.107820,-1.394919,1.752593,1.157433,-0.564212,0.459246,-0.013780,0.823794,-0.298337,-0.336987,0.726803,-0.119326,-5.714068,42.903484,-21.346024,-10.295534,0.064481,1.851302,-0.188737,0.000000,0.000000,0.000000,0.000000,0.000000,0.000000
15889970.000000,-2.365985,-1.662676,1.108667,-1.395219,1.752252,1.158166,-0.564335,0.442508,-0.016804,0.845396,-0.294643,-0.337102,0.727567,-0.117906,-5.487933,42.903484,-21.540421,-10.394716,0.069974,1.865035,-0.196061,0.000000,0.000000,0.000000,0.000000,0.000000,0.000000
15889971.000000,-2.365556,-1.662695,1.109501,-1.395506,1.751919,1.158900,-0.564459,0.436947,-0.015939,0.840603,-0.294619,-0.334297,0.749052,-0.117744,-5.194354,42.903484,-21.663406,-10.517702,0.027860,1.858627,-0.169511,0.000000,0.000000,0.000000,0.000000,0.000000,0.000000
15889972.000000,-2.365137,-1.662703,1.110338,-1.395797,1.751587,1.159624,-0.564574,0.438517,-0.015532,0.830450,-0.290565,-0.339226,0.740839,-0.114831,-4.869036,42.780499,-21.714981,-10.668459,0.022367,1.865035,-0.215287,0.000000,0.000000,0.000000,0.000000,0.000000,0.000000
15889973.000000,-2.364717,-1.662716,1.111165,-1.396099,1.751248,1.160346,-0.564700,0.431020,-0.013940,0.823456,-0.292580,-0.338048,0.735237,-0.120195,-4.500079,42.728924,-21.738785,-10.616884,0.027860,1.936446,-0.188737,0.000000,0.000000,0.000000,0.000000,0.000000,0.000000
15889974.000000,-2.364303,-1.662732,1.112008,-1.396383,1.750916,1.161069,-0.564818,0.423092,-0.016960,0.820156,-0.293129,-0.335785,0.730793,-0.118443,-4.127154,42.728924,-21.837967,-10.716066,0.022367,1.930038,-0.188737,0.000000,0.000000,0.000000,0.000000,0.000000,0.000000
15889975.000000,-2.363898,-1.662743,1.112859,-1.396691,1.750584,1.161813,-0.564935,0.420377,-0.014913,0.821302,-0.295497,-0.342089,0.731902,-0.115041,-3.805804,42.681316,-21.960953,-10.569277,0.105680,1.806442,-0.241837,0.000000,0.000000,0.000000,0.000000,0.000000,0.000000
15889976.000000,-2.363480,-1.662753,1.113693,-1.396991,1.750261,1.162548,-0.565055,0.416480,-0.012801,0.818532,-0.301252,-0.337183,0.728006,-0.116666,-3.559832,42.609905,-22.056168,-10.470095,0.034269,1.727706,-0.188737,0.000000,0.000000,0.000000,0.000000,0.000000,0.000000
15889977.000000,-2.363085,-1.662774,1.114544,-1.397313,1.749919,1.163273,-0.565169,0.413202,-0.014723,0.824827,-0.310066,-0.336297,0.728446,-0.120182,-3.186907,42.681316,-22.254532,-10.220156,0.052579,1.747848,-0.196061,0.000000,0.000000,0.000000,0.000000,0.000000,0.000000
15889978.000000,-2.362693,-1.662793,1.115392,-1.397640,1.749584,1.163999,-0.565290,0.408442,-0.015378,0.831721,-0.316949,-0.337992,0.724680,-0.120328,-2.790179,42.728924,-22.548111,-9.950380,0.117582,1.832076,-0.142960,0.000000,0.000000,0.000000,0.000000,0.000000,0.000000
15889979.000000,-2.362293,-1.662809,1.116246,-1.397958,1.749257,1.164716,-0.565396,0.405394,-0.015289,0.832888,-0.317584,-0.330348,0.720216,-0.116425,-2.492632,42.756695,-22.770279,-9.728212,0.093778,1.897079,-0.196061,0.000000,0.000000,0.000000,0.000000,0.000000,0.000000
15889980.000000,-2.361902,-1.662831,1.117105,-1.398291,1.748913,1.165436,-0.565514,0.402976,-0.016780,0.836387,-0.320027,-0.336673,0.718944,-0.115816,-2.199053,42.851910,-23.111465,-9.529848,0.100187,2.020675,-0.188737,0.000000,0.000000,0.000000,0.000000,0.000000,0.000000
15889981.000000,-2.361515,-1.662855,1.117956,-1.398617,1.748577,1.166170,-0.565630,0.400252,-0.018386,0.836618,-0.323459,-0.330751,0.714739,-0.115780,-1.873736,42.974895,-23.504227,-9.430666,0.105680,2.039901,-0.155778,0.000000,0.000000,0.000000,0.000000,0.000000,0.000000
15889982.000000,-2.361125,-1.662885,1.118810,-1.398953,1.748233,1.166905,-0.565737,0.392938,-0.024193,0.839478,-0.327087,-0.329531,0.723190,-0.107875,-1.603961,43.173260,-23.801773,-9.283876,0.213712,1.981307,-0.221696,0.000000,0.000000,0.000000,0.000000,0.000000,0.000000
15889983.000000,-2.360741,-1.662913,1.119653,-1.399305,1.747902,1.167631,-0.565850,0.393880,-0.027686,0.856312,-0.333321,-0.328303,0.724367,-0.109957,-1.405596,43.343853,-24.019974,-8.962526,0.303434,2.001449,-0.202470,0.000000,0.000000,0.000000,0.000000,0.000000,0.000000
15889984.000000,-2.360350,-1.662943,1.120505,-1.399646,1.747555,1.168350,-0.565962,0.393571,-0.030216,0.855950,-0.336244,-0.335200,0.732820,-0.111447,-1.254840,43.514446,-24.190567,-8.712587,0.327238,2.118636,-0.196061,0.000000,0.000000,0.000000,0.000000,0.000000,0.000000
15889985.000000,-2.359972,-1.662972,1.121367,-1.400006,1.747203,1.169060,-0.566075,0.389471,-0.031578,0.853647,-0.341485,-0.337749,0.727530,-0.106805,-1.060443,43.661236,-24.436539,-8.343630,0.422452,2.150680,-0.202470,0.000000,0.000000,0.000000,0.000000,0.000000,0.000000
15889986.000000,-2.359597,-1.663003,1.122207,-1.400357,1.746875,1.169779,-0.566186,0.384892,-0.033170,0.856076,-0.343742,-0.329920,0.723105,-0.104739,-0.810504,43.831829,-24.535721,-8.169069,0.398649,2.047225,-0.175919,0.000000,0.000000,0.000000,0.000000,0.000000,0.000000
15889987.000000,-2.359214,-1.663036,1.123052,-1.400713,1.746543,1.170495,-0.566296,0.380256,-0.034158,0.847085,-0.350960,-0.333104,0.723579,-0.101180,-0.635943,44.002422,-24.535721,-7.899293,0.351041,1.981307,-0.202470,0.000000,0.000000,0.000000,0.000000,0.000000,0.000000
15889988.000000,-2.358849,-1.663069,1.123902,-1.401070,1.746205,1.171207,-0.566409,0.373352,-0.034464,0.864382,-0.348989,-0.342097,0.715807,-0.105093,-0.314593,44.149212,-24.535721,-7.776308,0.369352,1.988631,-0.182328,0.000000,0.000000,0.000000,0.000000,0.000000,0.000000
15889989.000000,-2.358475,-1.663098,1.124737,-1.401429,1.745864,1.171920,-0.566510,0.370005,-0.033913,0.855330,-0.352015,-0.336299,0.706258,-0.104925,-0.068621,44.248394,-24.535721,-7.502565,0.416959,2.053634,-0.241837,0.000000,0.000000,0.000000,0.000000,0.000000,0.000000
15889990.000000,-2.358106,-1.663129,1.125573,-1.401797,1.745533,1.172621,-0.566627,0.367231,-0.030253,0.847240,-0.355565,-0.336459,0.711519,-0.108666,0.078168,44.347576,-24.365128,-7.304201,0.458158,2.104903,-0.202470,0.000000,0.000000,0.000000,0.000000,0.000000,0.000000
15889991.000000,-2.357738,-1.663157,1.126396,-1.402173,1.745199,1.173342,-0.566744,0.368078,-0.029988,0.840607,-0.359647,-0.336989,0.708149,-0.111076,0.304304,44.418987,-24.242142,-7.034425,0.500272,2.072860,-0.169511,0.000000,0.000000,0.000000,0.000000,0.000000,0.000000
15889992.000000,-2.357355,-1.663189,1.127238,-1.402550,1.744862,1.174070,-0.566850,0.370974,-0.030485,0.838802,-0.365738,-0.336035,0.711550,-0.104939,0.351911,44.518169,-24.242142,-6.784486,0.535978,1.903487,-0.221696,0.000000,0.000000,0.000000,0.000000,0.000000,0.000000
15889993.000000,-2.356983,-1.663211,1.128089,-1.402934,1.744527,1.174790,-0.566964,0.373262,-0.027345,0.837376,-0.369520,-0.339006,0.710507,-0.107957,0.427289,44.470562,-24.388931,-6.514711,0.566190,1.812850,-0.196061,0.000000,0.000000,0.000000,0.000000,0.000000,0.000000
15889994.000000,-2.356603,-1.663231,1.128905,-1.403317,1.744209,1.175512,-0.567070,0.371899,-0.025325,0.831929,-0.383796,-0.335801,0.706522,-0.108036,0.403486,44.418987,-24.218338,-6.240968,0.530485,1.871444,-0.229020,0.000000,0.000000,0.000000,0.000000,0.000000,0.000000
15889995.000000,-2.356224,-1.663252,1.129738,-1.403715,1.743876,1.176228,-0.567185,0.374864,-0.023981,0.822256,-0.388709,-0.330262,0.713811,-0.109710,0.375715,44.371380,-24.190567,-5.895814,0.554288,1.865035,-0.221696,0.000000,0.000000,0.000000,0.000000,0.000000,0.000000
15889996.000000,-2.355852,-1.663277,1.130566,-1.404110,1.743548,1.176953,-0.567298,0.376114,-0.022409,0.822944,-0.389682,-0.328241,0.713074,-0.111486,0.351911,44.418987,-24.265945,-5.649843,0.613798,1.865035,-0.202470,0.000000,0.000000,0.000000,0.000000,0.000000,0.000000
15889997.000000,-2.355473,-1.663294,1.131403,-1.404494,1.743229,1.177654,-0.567404,0.378799,-0.018339,0.820956,-0.387466,-0.322956,0.713215,-0.105705,0.351911,44.347576,-24.388931,-5.550661,0.589994,2.014266,-0.241837,0.000000,0.000000,0.000000,0.000000,0.000000,0.000000
15889998.000000,-2.355098,-1.663307,1.132238,-1.404893,1.742915,1.178365,-0.567518,0.376454,-0.017197,0.816135,-0.389495,-0.318987,0.709347,-0.108719,0.304304,44.224590,-24.388931,-5.276918,0.554288,2.137862,-0.208878,0.000000,0.000000,0.000000,0.000000,0.000000,0.000000
15889999.000000,-2.354723,-1.663324,1.133063,-1.405279,1.742593,1.179099,-0.567619,0.377334,-0.015040,0.816380,-0.387738,-0.318423,0.711541,-0.108176,0.276533,44.173016,-24.535721,-5.177736,0.578092,2.079269,-0.235429,0.000000,0.000000,0.000000,0.000000,0.000000,0.000000
15890000.000000,-2.354345,-1.663331,1.133896,-1.405667,1.742256,1.179826,-0.567728,0.376905,-0.010690,0.812680,-0.387983,-0.319148,0.717506,-0.104127,0.304304,44.002422,-24.634903,-5.007143,0.661405,1.949264,-0.235429,0.000000,0.000000,0.000000,0.000000,0.000000,0.000000
15890001.000000,-2.353966,-1.663344,1.134713,-1.406068,1.741939,1.180553,-0.567839,0.380673,-0.009494,0.827273,-0.388710,-0.317274,0.710918,-0.107002,0.228925,43.907207,-24.706314,-4.784975,0.667814,1.936446,-0.215287,0.000000,0.000000,0.000000,0.000000,0.000000,0.000000
15890002.000000,-2.353587,-1.663347,1.135543,-1.406456,1.741618,1.181271,-0.567951,0.378841,-0.003020,0.822176,-0.388470,-0.316215,0.723001,-0.109950,0.252729,43.708843,-24.781693,-4.634218,0.679716,2.027084,-0.175919,0.000000,0.000000,0.000000,0.000000,0.000000,0.000000
15890003.000000,-2.353219,-1.663356,1.136363,-1.406847,1.741287,1.181981,-0.568055,0.374247,-0.004517,0.813152,-0.386305,-0.315965,0.722446,-0.108813,0.304304,43.637432,-24.757889,-4.562807,0.709928,1.995040,-0.221696,0.000000,0.000000,0.000000,0.000000,0.000000,0.000000
15890004.000000,-2.352844,-1.663358,1.137173,-1.407230,1.740964,1.182709,-0.568158,0.372234,-0.003205,0.808775,-0.382068,-0.316281,0.716586,-0.109025,0.304304,43.466839,-24.682510,-4.610414,0.739225,1.955673,-0.248246,0.000000,0.000000,0.000000,0.000000,0.000000,0.000000
15890005.000000,-2.352472,-1.663354,1.137979,-1.407616,1.740657,1.183414,-0.568270,0.369322,-0.001553,0.798425,-0.381492,-0.306797,0.712858,-0.107502,0.375715,43.268475,-24.488113,-4.562807,0.673307,2.047225,-0.196061,0.000000,0.000000,0.000000,0.000000,0.000000,0.000000
15890006.000000,-2.352100,-1.663355,1.138800,-1.407995,1.740349,1.184136,-0.568378,0.367199,0.001934,0.815229,-0.375716,-0.310269,0.711484,-0.104196,0.375715,43.097881,-24.436539,-4.586610,0.632108,2.092086,-0.202470,0.000000,0.000000,0.000000,0.000000,0.000000,0.000000
15890007.000000,-2.351728,-1.663346,1.139609,-1.408375,1.740028,1.184864,-0.568480,0.368570,0.003108,0.809766,-0.380312,-0.310622,0.721022,-0.105040,0.403486,42.851910,-24.488113,-4.535036,0.625699,2.092086,-0.241837,0.000000,0.000000,0.000000,0.000000,0.000000,0.000000
15890008.000000,-2.351364,-1.663341,1.140417,-1.408759,1.739715,1.185591,-0.568588,0.376927,0.002726,0.803900,-0.381919,-0.310239,0.722244,-0.102993,0.451093,42.657513,-24.365128,-4.439821,0.608304,2.020675,-0.229020,0.000000,0.000000,0.000000,0.000000,0.000000,0.000000
15890009.000000,-2.350980,-1.663329,1.141212,-1.409146,1.739408,1.186325,-0.568695,0.382615,0.004079,0.796161,-0.384022,-0.312070,0.725487,-0.101571,0.304304,42.387737,-24.313553,-4.289064,0.644010,1.968490,-0.208878,0.000000,0.000000,0.000000,0.000000,0.000000,0.000000
15890010.000000,-2.350602,-1.663317,1.142035,-1.409528,1.739097,1.187036,-0.568799,0.382792,0.008103,0.799684,-0.384221,-0.312443,0.712660,-0.100256,0.276533,42.117962,-24.511917,-4.066896,0.667814,1.981307,-0.196061,0.000000,0.000000,0.000000,0.000000,0.000000,0.000000
15890011.000000,-2.350226,-1.663308,1.142849,-1.409899,1.738787,1.187766,-0.568894,0.384367,0.006827,0.795161,-0.379171,-0.308131,0.715801,-0.101066,0.205121,41.899761,-24.583328,-4.019289,0.685209,2.039901,-0.254655,0.000000,0.000000,0.000000,0.000000,0.000000,0.000000
15890012.000000,-2.349861,-1.663302,1.143653,-1.410274,1.738487,1.188494,-0.568999,0.375157,0.007215,0.796940,-0.376253,-0.304601,0.720041,-0.101050,0.276533,41.752972,-24.706314,-3.967714,0.709928,2.039901,-0.215287,0.000000,0.000000,0.000000,0.000000,0.000000,0.000000
15890013.000000,-2.349496,-1.663302,1.144453,-1.410633,1.738198,1.189205,-0.569104,0.369243,0.004789,0.789696,-0.368367,-0.299863,0.719184,-0.104541,0.427289,41.729168,-24.706314,-4.019289,0.698026,2.047225,-0.202470,0.000000,0.000000,0.000000,0.000000,0.000000,0.000000
15890014.000000,-2.349139,-1.663299,1.145258,-1.411001,1.737912,1.189908,-0.569204,0.368142,0.003966,0.794200,-0.366323,-0.297060,0.715472,-0.104893,0.574079,41.677593,-24.904678,-4.043092,0.673307,2.209274,-0.248246,0.000000,0.000000,0.000000,0.000000,0.000000,0.000000
15890015.000000,-2.348785,-1.663297,1.146056,-1.411366,1.737621,1.190599,-0.569311,0.360507,0.002320,0.789709,-0.365725,-0.299606,0.721624,-0.108857,0.824018,41.677593,-24.928482,-3.920107,0.637601,2.345687,-0.202470,0.000000,0.000000,0.000000,0.000000,0.000000,0.000000
15890016.000000,-2.348429,-1.663302,1.146846,-1.411731,1.737326,1.191307,-0.569408,0.357095,-0.000460,0.788910,-0.364859,-0.293724,0.716456,-0.103574,0.923200,41.752972,-24.781693,-3.920107,0.661405,2.345687,-0.241837,0.000000,0.000000,0.000000,0.000000,0.000000,0.000000
15890017.000000,-2.348077,-1.663305,1.147621,-1.412105,1.737041,1.192035,-0.569515,0.357918,-0.001603,0.786157,-0.364810,-0.288436,0.719062,-0.107519,1.121564,41.800579,-24.658707,-3.797121,0.679716,2.150680,-0.188737,0.000000,0.000000,0.000000,0.000000,0.000000,0.000000
15890018.000000,-2.347724,-1.663308,1.148407,-1.412470,1.736754,1.192757,-0.569613,0.356676,-0.002319,0.782592,-0.366858,-0.289815,0.716748,-0.103971,1.292158,41.848186,-24.535721,-3.697939,0.709928,2.053634,-0.208878,0.000000,0.000000,0.000000,0.000000,0.000000,0.000000
15890019.000000,-2.347370,-1.663312,1.149179,-1.412833,1.736468,1.193477,-0.569714,0.360458,-0.002856,0.799786,-0.363331,-0.294457,0.717215,-0.100557,1.343732,41.899761,-24.388931,-3.646364,0.679716,1.995040,-0.235429,0.000000,0.000000,0.000000,0.000000,0.000000,0.000000
15890020.000000,-2.347027,-1.663308,1.149955,-1.413185,1.736180,1.194198,-0.569819,0.352748,-0.000774,0.791558,-0.360912,-0.293849,0.712818,-0.106211,1.589704,41.848186,-24.142960,-3.622560,0.685209,1.962081,-0.182328,0.000000,0.000000,0.000000,0.000000,0.000000,0.000000
15890021.000000,-2.346694,-1.663315,1.150726,-1.413543,1.735892,1.194913,-0.569908,0.348115,-0.002894,0.779685,-0.358732,-0.294103,0.715047,-0.100610,1.811872,41.947369,-23.801773,-3.622560,0.715421,1.909896,-0.248246,0.000000,0.000000,0.000000,0.000000,0.000000,0.000000
15890022.000000,-2.346354,-1.663310,1.151486,-1.413895,1.735625,1.195636,-0.570012,0.344413,-0.000302,0.777241,-0.353703,-0.285657,0.710387,-0.100604,2.010236,41.875957,-23.504227,-3.646364,0.649503,1.865035,-0.208878,0.000000,0.000000,0.000000,0.000000,0.000000,0.000000
15890023.000000,-2.346010,-1.663306,1.152254,-1.414248,1.735339,1.196355,-0.570107,0.341199,0.000972,0.766975,-0.353845,-0.285492,0.712077,-0.099539,2.160993,41.824383,-23.210648,-3.622560,0.620206,1.844894,-0.196061,0.000000,0.000000,0.000000,0.000000,0.000000,0.000000
15890024.000000,-2.345673,-1.663294,1.153032,-1.414601,1.735051,1.197083,-0.570196,0.343299,0.004614,0.781451,-0.351160,-0.291825,0.718767,-0.096229,2.359357,41.653790,-23.111465,-3.547182,0.649503,1.779891,-0.254655,0.000000,0.000000,0.000000,0.000000,0.000000,0.000000
15890025.000000,-2.345325,-1.663286,1.153787,-1.414954,1.734759,1.197834,-0.570297,0.341585,0.005935,0.766018,-0.353622,-0.297508,0.722272,-0.097663,2.406965,41.530804,-22.917068,-3.448000,0.661405,1.643478,-0.208878,0.000000,0.000000,0.000000,0.000000,0.000000,0.000000
15890026.000000,-2.344975,-1.663270,1.154553,-1.415315,1.734469,1.198559,-0.570389,0.343058,0.008490,0.757625,-0.355697,-0.293342,0.725938,-0.095894,2.359357,41.336407,-22.770279,-3.325014,0.739225,1.611434,-0.235429,0.000000,0.000000,0.000000,0.000000,0.000000,0.000000
15890027.000000,-2.344634,-1.663257,1.155311,-1.415676,1.734189,1.199278,-0.570484,0.343423,0.009640,0.760750,-0.358483,-0.288994,0.715514,-0.095153,2.406965,41.165813,-22.671097,-3.154421,0.774930,1.643478,-0.248246,0.000000,0.000000,0.000000,0.000000,0.000000,0.000000
15890028.000000,-2.344289,-1.663234,1.156085,-1.416025,1.733909,1.200000,-0.570579,0.342348,0.013286,0.760650,-0.353537,-0.282370,0.713447,-0.094914,2.430768,40.872234,-22.742508,-3.154421,0.733732,1.689254,-0.254655,0.000000,0.000000,0.000000,0.000000,0.000000,0.000000
15890029.000000,-2.343939,-1.663212,1.156857,-1.416375,1.733630,1.200741,-0.570674,0.346807,0.017764,0.757290,-0.349806,-0.283380,0.716939,-0.095442,2.331586,40.626263,-22.718704,-3.126650,0.698026,1.597701,-0.235429,0.000000,0.000000,0.000000,0.000000,0.000000,0.000000
15890030.000000,-2.343594,-1.663191,1.157613,-1.416718,1.733358,1.201481,-0.570769,0.344731,0.017855,0.753662,-0.348646,-0.279941,0.713430,-0.095988,2.331586,40.380291,-22.647293,-3.202028,0.685209,1.532699,-0.229020,0.000000,0.000000,0.000000,0.000000,0.000000,0.000000
15890031.000000,-2.343242,-1.663168,1.158384,-1.417066,1.733087,1.202191,-0.570862,0.348944,0.020362,0.751182,-0.346710,-0.277342,0.718310,-0.094596,2.232404,40.162090,-22.671097,-3.178224,0.698026,1.656295,-0.254655,0.000000,0.000000,0.000000,0.000000,0.000000,0.000000
15890032.000000,-2.342903,-1.663147,1.159142,-1.417419,1.732818,1.202894,-0.570958,0.348381,0.018067,0.749718,-0.349082,-0.274893,0.707083,-0.099825,2.283979,39.987530,-22.770279,-3.126650,0.667814,1.903487,-0.248246,0.000000,0.000000,0.000000,0.000000,0.000000,0.000000
15890033.000000,-2.342546,-1.663125,1.159907,-1.417765,1.732544,1.203604,-0.571059,0.352690,0.019512,0.749949,-0.347774,-0.274276,0.714382,-0.100149,2.133222,39.816936,-22.817886,-3.079042,0.673307,1.930038,-0.202470,0.000000,0.000000,0.000000,0.000000,0.000000,0.000000
15890034.000000,-2.342200,-1.663106,1.160676,-1.418107,1.732278,1.204335,-0.571149,0.349880,0.020113,0.748692,-0.346082,-0.272514,0.719583,-0.096515,2.109418,39.670147,-22.817886,-3.055238,0.644010,1.806442,-0.254655,0.000000,0.000000,0.000000,0.000000,0.000000,0.000000
15890035.000000,-2.341848,-1.663080,1.161437,-1.418445,1.732024,1.205077,-0.571244,0.352704,0.021763,0.752403,-0.342875,-0.266106,0.721590,-0.100873,1.962629,39.475750,-22.841690,-3.126650,0.620206,1.708480,-0.235429,0.000000,0.000000,0.000000,0.000000,0.000000,0.000000
15890036.000000,-2.341492,-1.663051,1.162201,-1.418777,1.731760,1.205787,-0.571337,0.353966,0.024031,0.752652,-0.338454,-0.266703,0.723479,-0.100164,1.887250,39.229778,-22.841690,-3.154421,0.620206,1.735030,-0.221696,0.000000,0.000000,0.000000,0.000000,0.000000,0.000000
15890037.000000,-2.341138,-1.663026,1.162963,-1.419108,1.731501,1.206506,-0.571430,0.349401,0.021376,0.765544,-0.335512,-0.261084,0.714549,-0.098094,1.764264,39.035381,-22.742508,-3.277406,0.571683,1.779891,-0.235429,0.000000,0.000000,0.000000,0.000000,0.000000,0.000000
15890038.000000,-2.340784,-1.663008,1.163700,-1.419433,1.731239,1.207227,-0.571525,0.347260,0.020791,0.758244,-0.332104,-0.260144,0.718349,-0.098044,1.688886,38.912395,-22.472733,-3.348818,0.620206,1.806442,-0.215287,0.000000,0.000000,0.000000,0.000000,0.000000,0.000000
15890039.000000,-2.340434,-1.662984,1.164457,-1.419752,1.730980,1.207928,-0.571617,0.346717,0.024242,0.753360,-0.325111,-0.258450,0.705769,-0.101048,1.613508,38.765606,-22.377518,-3.475771,0.649503,1.865035,-0.235429,0.000000,0.000000,0.000000,0.000000,0.000000,0.000000
15890040.000000,-2.340075,-1.662965,1.165200,-1.420074,1.730743,1.208636,-0.571712,0.349242,0.022148,0.749048,-0.323579,-0.252694,0.699905,-0.099319,1.415143,38.690228,-22.202957,-3.598757,0.554288,1.936446,-0.241837,0.000000,0.000000,0.000000,0.000000,0.000000,0.000000
15890041.000000,-2.339719,-1.662942,1.165967,-1.420390,1.730490,1.209345,-0.571803,0.348277,0.021748,0.746826,-0.320239,-0.254689,0.709284,-0.102398,1.343732,38.571209,-22.254532,-3.670168,0.500272,1.806442,-0.254655,0.000000,0.000000,0.000000,0.000000,0.000000,0.000000
15890042.000000,-2.339361,-1.662926,1.166726,-1.420708,1.730238,1.210078,-0.571896,0.347920,0.018537,0.745363,-0.318353,-0.254396,0.712514,-0.100865,1.169172,38.571209,-22.155350,-3.820925,0.416959,1.617843,-0.241837,0.000000,0.000000,0.000000,0.000000,0.000000,0.000000
15890043.000000,-2.338995,-1.662906,1.167475,-1.421023,1.729974,1.210798,-0.571988,0.353290,0.017098,0.743285,-0.317725,-0.255900,0.711009,-0.100552,0.994611,38.543438,-22.155350,-3.844728,0.476469,1.526290,-0.208878,0.000000,0.000000,0.000000,0.000000,0.000000,0.000000
15890044.000000,-2.338631,-1.662893,1.168240,-1.421328,1.729726,1.211478,-0.572073,0.353649,0.014383,0.744090,-0.314831,-0.251694,0.700126,-0.097687,0.796247,38.595013,-22.202957,-3.967714,0.416959,1.702071,-0.248246,0.000000,0.000000,0.000000,0.000000,0.000000,0.000000
15890045.000000,-2.338277,-1.662879,1.168991,-1.421641,1.729476,1.212175,-0.572173,0.357988,0.016298,0.740282,-0.313499,-0.252589,0.691191,-0.093891,0.625654,38.618816,-22.278336,-4.043092,0.440763,1.877853,-0.202470,0.000000,0.000000,0.000000,0.000000,0.000000,0.000000
15890046.000000,-2.337924,-1.662870,1.169748,-1.421940,1.729211,1.212879,-0.572257,0.356709,0.013649,0.743666,-0.309000,-0.258051,0.691351,-0.092495,0.625654,38.690228,-22.325943,-4.142274,0.464567,1.800033,-0.241837,0.000000,0.000000,0.000000,0.000000,0.000000,0.000000
15890047.000000,-2.337571,-1.662860,1.170502,-1.422224,1.728946,1.213594,-0.572343,0.357385,0.011636,0.741494,-0.302651,-0.256800,0.694550,-0.087951,0.550275,38.765606,-22.325943,-4.463624,0.482877,1.741439,-0.248246,0.000000,0.000000,0.000000,0.000000,0.000000,0.000000
15890048.000000,-2.337206,-1.662849,1.171254,-1.422527,1.728690,1.214289,-0.572434,0.355812,0.011115,0.748823,-0.299724,-0.260731,0.695257,-0.087132,0.403486,38.813213,-22.448929,-4.487428,0.500272,1.838485,-0.208878,0.000000,0.000000,0.000000,0.000000,0.000000,0.000000
15890049.000000,-2.336847,-1.662843,1.172012,-1.422810,1.728445,1.214972,-0.572516,0.353276,0.009405,0.744433,-0.291233,-0.255605,0.695284,-0.082444,0.276533,38.912395,-22.500504,-4.634218,0.452665,1.974899,-0.254655,0.000000,0.000000,0.000000,0.000000,0.000000,0.000000
15890050.000000,-2.336491,-1.662844,1.172751,-1.423097,1.728190,1.215685,-0.572605,0.356205,0.006029,0.739269,-0.288800,-0.257269,0.703286,-0.081698,0.177350,39.106792,-22.425125,-4.733400,0.530485,1.884261,-0.229020,0.000000,0.000000,0.000000,0.000000,0.000000,0.000000
15890051.000000,-2.336133,-1.662847,1.173494,-1.423379,1.727930,1.216397,-0.572690,0.355190,0.003544,0.737333,-0.288009,-0.261036,0.715917,-0.085571,0.129743,39.305157,-22.254532,-4.808778,0.542386,1.786300,-0.208878,0.000000,0.000000,0.000000,0.000000,0.000000,0.000000
15890052.000000,-2.335779,-1.662842,1.174251,-1.423654,1.727679,1.217096,-0.572774,0.355729,0.004851,0.736735,-0.282547,-0.250654,0.709461,-0.081379,0.054365,39.376568,-22.254532,-4.955568,0.476469,1.819259,-0.248246,0.000000,0.000000,0.000000,0.000000,0.000000,0.000000
15890053.000000,-2.335425,-1.662847,1.174993,-1.423933,1.727436,1.217802,-0.572867,0.357068,-0.000333,0.731935,-0.281668,-0.248911,0.706016,-0.086664,0.030561,39.574932,-22.202957,-5.106325,0.422452,1.806442,-0.196061,0.000000,0.000000,0.000000,0.000000,0.000000,0.000000
15890054.000000,-2.335074,-1.662849,1.175734,-1.424204,1.727192,1.218522,-0.572948,0.356977,0.000183,0.726548,-0.277791,-0.247636,0.713834,-0.082027,-0.017047,39.721722,-22.008560,-5.253114,0.398649,1.662704,-0.241837,0.000000,0.000000,0.000000,0.000000,0.000000,0.000000
15890055.000000,-2.334729,-1.662854,1.176473,-1.424467,1.726948,1.219247,-0.573036,0.356148,-0.004125,0.738657,-0.273205,-0.244565,0.717621,-0.079546,0.030561,39.939922,-21.738785,-5.451478,0.422452,1.539108,-0.261979,0.000000,0.000000,0.000000,0.000000,0.000000,0.000000
15890056.000000,-2.334379,-1.662859,1.177211,-1.424733,1.726709,1.219967,-0.573124,0.351647,-0.003482,0.735567,-0.274125,-0.243666,0.711704,-0.085237,0.006757,40.134319,-21.639603,-5.626039,0.356534,1.539108,-0.221696,0.000000,0.000000,0.000000,0.000000,0.000000,0.000000
15890057.000000,-2.334029,-1.662856,1.177963,-1.424993,1.726467,1.220662,-0.573208,0.359705,-0.002782,0.734593,-0.270455,-0.245305,0.703924,-0.086656,-0.017047,40.185894,-21.591995,-5.848207,0.351041,1.637069,-0.241837,0.000000,0.000000,0.000000,0.000000,0.000000,0.000000
15890058.000000,-2.333673,-1.662857,1.178691,-1.425259,1.726224,1.221377,-0.573297,0.360482,-0.002965,0.730009,-0.271571,-0.243285,0.697226,-0.089691,-0.191607,40.257305,-21.369827,-5.919618,0.405057,1.605026,-0.215287,0.000000,0.000000,0.000000,0.000000,0.000000,0.000000
15890059.000000,-2.333321,-1.662853,1.179430,-1.425519,1.725987,1.222104,-0.573379,0.362201,-0.001557,0.727247,-0.267683,-0.239653,0.707066,-0.090627,-0.314593,40.257305,-21.223038,-6.042604,0.416959,1.461288,-0.221696,0.000000,0.000000,0.000000,0.000000,0.000000,0.000000
15890060.000000,-2.332972,-1.662847,1.180182,-1.425784,1.725756,1.222818,-0.573464,0.361719,0.000947,0.730757,-0.263410,-0.244612,0.704096,-0.087018,-0.413775,40.185894,-21.246841,-6.070375,0.374845,1.448470,-0.221696,0.000000,0.000000,0.000000,0.000000,0.000000,0.000000
15890061.000000,-2.332614,-1.662840,1.180922,-1.426038,1.725526,1.223538,-0.573548,0.360366,0.003188,0.738918,-0.258454,-0.238282,0.704591,-0.084354,-0.612139,40.086712,-21.246841,-6.117982,0.308927,1.507064,-0.215287,0.000000,0.000000,0.000000,0.000000,0.000000,0.000000
15890062.000000,-2.332259,-1.662831,1.181678,-1.426303,1.725288,1.224246,-0.573624,0.355847,0.005179,0.742254,-0.260490,-0.235255,0.710482,-0.084936,-0.663714,39.963726,-21.346024,-6.117982,0.291532,1.539108,-0.268388,0.000000,0.000000,0.000000,0.000000,0.000000,0.000000
15890063.000000,-2.331917,-1.662819,1.182416,-1.426566,1.725055,1.224970,-0.573711,0.350687,0.007576,0.740535,-0.261750,-0.234246,0.710308,-0.089387,-0.687518,39.793133,-21.346024,-6.117982,0.291532,1.539108,-0.215287,0.000000,0.000000,0.000000,0.000000,0.000000,0.000000
15890064.000000,-2.331566,-1.662810,1.183171,-1.426820,1.724821,1.225672,-0.573789,0.352302,0.007470,0.737826,-0.259229,-0.228627,0.721441,-0.085700,-0.786700,39.693951,-21.445206,-6.141786,0.315336,1.670028,-0.221696,0.000000,0.000000,0.000000,0.000000,0.000000,0.000000
15890065.000000,-2.331220,-1.662797,1.183936,-1.427080,1.724590,1.226381,-0.573870,0.349998,0.009045,0.737732,-0.260205,-0.223661,0.712260,-0.082232,-0.834307,39.523357,-21.615799,-6.141786,0.320829,1.760665,-0.241837,0.000000,0.000000,0.000000,0.000000,0.000000,0.000000
15890066.000000,-2.330872,-1.662784,1.184691,-1.427350,1.724356,1.227099,-0.573958,0.352171,0.009520,0.740248,-0.263555,-0.225432,0.706377,-0.082327,-0.862078,39.376568,-21.786392,-6.042604,0.327238,1.819259,-0.196061,0.000000,0.000000,0.000000,0.000000,0.000000,0.000000
15890067.000000,-2.330522,-1.662774,1.185453,-1.427608,1.724119,1.227811,-0.574036,0.352293,0.008059,0.740940,-0.261154,-0.225767,0.707909,-0.078363,-0.933489,39.305157,-21.960953,-6.018800,0.327238,1.727706,-0.254655,0.000000,0.000000,0.000000,0.000000,0.000000,0.000000
15890068.000000,-2.330185,-1.662765,1.186212,-1.427879,1.723888,1.228523,-0.574122,0.347188,0.006611,0.759436,-0.264202,-0.227205,0.705873,-0.078060,-0.985064,39.253582,-22.155350,-5.895814,0.339139,1.689254,-0.248246,0.000000,0.000000,0.000000,0.000000,0.000000,0.000000
15890069.000000,-2.329844,-1.662758,1.186975,-1.428144,1.723660,1.229220,-0.574208,0.345299,0.004431,0.755294,-0.265135,-0.227190,0.714714,-0.082920,-0.985064,39.253582,-22.278336,-5.848207,0.327238,1.793624,-0.229020,0.000000,0.000000,0.000000,0.000000,0.000000,0.000000
15890070.000000,-2.329512,-1.662748,1.187743,-1.428414,1.723428,1.229899,-0.574295,0.339836,0.002972,0.750922,-0.266353,-0.227994,0.701837,-0.086329,-0.909686,39.253582,-22.377518,-5.772829,0.339139,1.890670,-0.208878,0.000000,0.000000,0.000000,0.000000,0.000000,0.000000
15890071.000000,-2.329173,-1.662742,1.188489,-1.428687,1.723201,1.230597,-0.574378,0.340908,0.004523,0.746728,-0.273212,-0.227266,0.693937,-0.083588,-0.862078,39.281353,-22.401321,-5.721254,0.308927,1.936446,-0.208878,0.000000,0.000000,0.000000,0.000000,0.000000,0.000000
15890072.000000,-2.328845,-1.662734,1.189245,-1.428958,1.722962,1.231290,-0.574460,0.336938,0.005328,0.747491,-0.274019,-0.226908,0.697948,-0.080948,-0.687518,39.328960,-22.353714,-5.721254,0.303434,1.865035,-0.235429,0.000000,0.000000,0.000000,0.000000,0.000000,0.000000
15890073.000000,-2.328520,-1.662725,1.190007,-1.429234,1.722725,1.231992,-0.574549,0.330574,0.007675,0.766255,-0.272351,-0.236914,0.697557,-0.085405,-0.635943,39.305157,-22.325943,-5.649843,0.315336,1.851302,-0.202470,0.000000,0.000000,0.000000,0.000000,0.000000,0.000000
15890074.000000,-2.328190,-1.662712,1.190762,-1.429516,1.722489,1.232688,-0.574628,0.328056,0.010547,0.766068,-0.277503,-0.234796,0.697130,-0.086109,-0.540728,39.229778,-22.377518,-5.475282,0.315336,1.865035,-0.241837,0.000000,0.000000,0.000000,0.000000,0.000000,0.000000
15890075.000000,-2.327859,-1.662704,1.191516,-1.429803,1.722252,1.233369,-0.574712,0.333407,0.011588,0.759497,-0.277540,-0.234834,0.695201,-0.083035,-0.489153,39.205975,-22.302139,-5.304689,0.362943,1.916305,-0.254655,0.000000,0.000000,0.000000,0.000000,0.000000,0.000000
15890076.000000,-2.327529,-1.662699,1.192265,-1.430097,1.722012,1.234074,-0.574802,0.333138,0.007977,0.754441,-0.282704,-0.240724,0.697437,-0.088425,-0.389971,39.229778,-22.325943,-5.054750,0.416959,1.825668,-0.188737,0.000000,0.000000,0.000000,0.000000,0.000000,0.000000
15890077.000000,-2.327200,-1.662689,1.193029,-1.430385,1.721772,1.234767,-0.574877,0.329874,0.009636,0.750339,-0.287581,-0.236889,0.695202,-0.082898,-0.314593,39.205975,-22.401321,-4.884157,0.410551,1.754256,-0.248246,0.000000,0.000000,0.000000,0.000000,0.000000,0.000000
15890078.000000,-2.326879,-1.662677,1.193802,-1.430683,1.721528,1.235468,-0.574958,0.329617,0.011357,0.751830,-0.289748,-0.239936,0.692023,-0.081894,-0.266986,39.158367,-22.623489,-4.610414,0.440763,1.708480,-0.229020,0.000000,0.000000,0.000000,0.000000,0.000000,0.000000
15890079.000000,-2.326556,-1.662667,1.194565,-1.430974,1.721304,1.236150,-0.575036,0.323711,0.012073,0.754131,-0.294708,-0.234902,0.684085,-0.079576,-0.167803,39.130596,-22.794083,-4.412050,0.386747,1.825668,-0.248246,0.000000,0.000000,0.000000,0.000000,0.000000,0.000000
15890080.000000,-2.326239,-1.662671,1.195331,-1.431268,1.721065,1.236839,-0.575116,0.320293,0.007863,0.749926,-0.292484,-0.236075,0.682373,-0.079427,0.030561,39.305157,-22.917068,-4.265260,0.464567,1.844894,-0.229020,0.000000,0.000000,0.000000,0.000000,0.000000,0.000000
15890081.000000,-2.325924,-1.662667,1.196091,-1.431563,1.720836,1.237523,-0.575197,0.321440,0.008313,0.748505,-0.289734,-0.236242,0.681084,-0.078749,0.153547,39.352764,-23.040054,-4.166078,0.518583,1.936446,-0.221696,0.000000,0.000000,0.000000,0.000000,0.000000,0.000000
15890082.000000,-2.325610,-1.662670,1.196864,-1.431857,1.720601,1.238203,-0.575275,0.321247,0.003053,0.750071,-0.289798,-0.238093,0.696687,-0.076718,0.276533,39.499554,-23.286026,-3.991518,0.488370,2.047225,-0.254655,0.000000,0.000000,0.000000,0.000000,0.000000,0.000000
15890083.000000,-2.325297,-1.662669,1.197643,-1.432159,1.720366,1.238887,-0.575360,0.317335,0.001629,0.751480,-0.294929,-0.235554,0.694168,-0.077810,0.304304,39.547161,-23.555801,-3.844728,0.488370,2.131454,-0.215287,0.000000,0.000000,0.000000,0.000000,0.000000,0.000000
15890084.000000,-2.324986,-1.662673,1.198400,-1.432458,1.720134,1.239601,-0.575439,0.313163,0.002470,0.751976,-0.294496,-0.234826,0.696984,-0.077567,0.427289,39.646343,-23.651016,-3.769350,0.518583,1.962081,-0.215287,0.000000,0.000000,0.000000,0.000000,0.000000,0.000000
15890085.000000,-2.324667,-1.662681,1.199158,-1.432757,1.719897,1.240307,-0.575515,0.313178,-0.000011,0.746990,-0.297178,-0.235447,0.702391,-0.075554,0.474897,39.745525,-23.603409,-3.570986,0.584501,1.806442,-0.254655,0.000000,0.000000,0.000000,0.000000,0.000000,0.000000
15890086.000000,-2.324352,-1.662690,1.199908,-1.433054,1.719668,1.240992,-0.575598,0.315811,-0.002387,0.765991,-0.294574,-0.235351,0.692089,-0.077542,0.451093,39.868511,-23.603409,-3.547182,0.632108,1.871444,-0.202470,0.000000,0.000000,0.000000,0.000000,0.000000,0.000000
15890087.000000,-2.324043,-1.662694,1.200668,-1.433351,1.719441,1.241680,-0.575667,0.310123,-0.008126,0.760699,-0.295143,-0.236846,0.688229,-0.075007,0.574079,39.892315,-23.603409,-3.448000,0.589994,2.014266,-0.254655,0.000000,0.000000,0.000000,0.000000,0.000000,0.000000
15890088.000000,-2.323738,-1.662705,1.201418,-1.433644,1.719201,1.242364,-0.575751,0.307346,-0.008544,0.752975,-0.295770,-0.235855,0.686517,-0.076780,0.625654,40.015301,-23.432816,-3.475771,0.620206,1.995040,-0.208878,0.000000,0.000000,0.000000,0.000000,0.000000,0.000000
15890089.000000,-2.323440,-1.662713,1.202157,-1.433934,1.718973,1.243074,-0.575825,0.306341,-0.008111,0.747269,-0.291011,-0.229516,0.687593,-0.075503,0.847822,40.110516,-23.234451,-3.598757,0.637601,1.884261,-0.235429,0.000000,0.000000,0.000000,0.000000,0.000000,0.000000
15890090.000000,-2.323137,-1.662713,1.202910,-1.434221,1.718759,1.243769,-0.575900,0.306584,-0.005547,0.740172,-0.289236,-0.220794,0.695343,-0.074776,1.022382,40.110516,-23.111465,-3.670168,0.566190,1.858627,-0.254655,0.000000,0.000000,0.000000,0.000000,0.000000,0.000000
15890091.000000,-2.322830,-1.662719,1.203663,-1.434509,1.718547,1.244465,-0.575982,0.301384,-0.005010,0.752640,-0.288217,-0.219858,0.696650,-0.076563,1.069990,40.162090,-22.964676,-3.697939,0.512174,1.930038,-0.208878,0.000000,0.000000,0.000000,0.000000,0.000000,0.000000
15890092.000000,-2.322522,-1.662720,1.204402,-1.434810,1.718327,1.245187,-0.576049,0.300664,-0.003419,0.747567,-0.293486,-0.222392,0.700564,-0.074818,1.121564,40.162090,-22.794083,-3.499574,0.518583,1.832076,-0.268388,0.000000,0.000000,0.000000,0.000000,0.000000,0.000000
15890093.000000,-2.322218,-1.662721,1.205145,-1.435104,1.718101,1.245901,-0.576133,0.301051,-0.002895,0.739117,-0.291757,-0.223901,0.701674,-0.078049,1.093793,40.185894,-22.595718,-3.376589,0.512174,1.649886,-0.188737,0.000000,0.000000,0.000000,0.000000,0.000000,0.000000
15890094.000000,-2.321909,-1.662715,1.205886,-1.435398,1.717882,1.246615,-0.576205,0.307564,0.000345,0.741937,-0.293271,-0.220610,0.705296,-0.076927,1.046186,40.086712,-22.571915,-3.277406,0.530485,1.591293,-0.196061,0.000000,0.000000,0.000000,0.000000,0.000000,0.000000
15890095.000000,-2.321599,-1.662703,1.206642,-1.435689,1.717669,1.247301,-0.576268,0.309758,0.004744,0.738946,-0.291520,-0.221631,0.700378,-0.074375,1.022382,39.892315,-22.647293,-3.154421,0.506681,1.649886,-0.254655,0.000000,0.000000,0.000000,0.000000,0.000000,0.000000
15890096.000000,-2.321294,-1.662693,1.207389,-1.435968,1.717450,1.248004,-0.576347,0.305615,0.006015,0.737017,-0.285678,-0.223164,0.697669,-0.076305,0.994611,39.769329,-22.595718,-3.202028,0.535978,1.689254,-0.215287,0.000000,0.000000,0.000000,0.000000,0.000000,0.000000
15890097.000000,-2.320982,-1.662686,1.208126,-1.436251,1.717232,1.248708,-0.576414,0.306225,0.006311,0.735588,-0.289222,-0.222092,0.701511,-0.075445,0.923200,39.670147,-22.548111,-3.154421,0.613798,1.702071,-0.235429,0.000000,0.000000,0.000000,0.000000,0.000000,0.000000
15890098.000000,-2.320677,-1.662673,1.208875,-1.436532,1.717015,1.249394,-0.576490,0.305777,0.008184,0.734369,-0.285242,-0.223110,0.698144,-0.076264,0.895429,39.499554,-22.571915,-3.178224,0.613798,1.760665,-0.215287,0.000000,0.000000,0.000000,0.000000,0.000000,0.000000
15890099.000000,-2.320373,-1.662661,1.209621,-1.436813,1.716805,1.250087,-0.576561,0.311854,0.009436,0.740574,-0.283384,-0.218146,0.694339,-0.070519,0.796247,39.328960,-22.671097,-3.154421,0.589994,1.825668,-0.235429,0.000000,0.000000,0.000000,0.000000,0.000000,0.000000
15890100.000000,-2.320064,-1.662647,1.210371,-1.437098,1.716594,1.250765,-0.576628,0.309702,0.016744,0.743527,-0.287083,-0.210290,0.703506,-0.071342,0.748639,39.158367,-22.742508,-3.055238,0.584501,1.884261,-0.248246,0.000000,0.000000,0.000000,0.000000,0.000000,0.000000
15890101.000000,-2.319758,-1.662638,1.211122,-1.437388,1.716383,1.251470,-0.576704,0.311838,0.014573,0.739040,-0.286914,-0.210008,0.704816,-0.073801,0.724836,39.035381,-22.794083,-2.928285,0.584501,1.819259,-0.208878,0.000000,0.000000,0.000000,0.000000,0.000000,0.000000
15890102.000000,-2.319447,-1.662632,1.211862,-1.437668,1.716179,1.252171,-0.576769,0.314599,0.011879,0.737792,-0.285333,-0.209237,0.699204,-0.072151,0.625654,38.960003,-22.940872,-2.880678,0.578092,1.773483,-0.261979,0.000000,0.000000,0.000000,0.000000,0.000000,0.000000
15890103.000000,-2.319141,-1.662624,1.212616,-1.437947,1.715980,1.252861,-0.576840,0.313161,0.011096,0.739826,-0.283370,-0.206343,0.694773,-0.069056,0.625654,38.837017,-23.040054,-2.856874,0.524076,1.767074,-0.241837,0.000000,0.000000,0.000000,0.000000,0.000000,0.000000
15890104.000000,-2.318845,-1.662613,1.213354,-1.438220,1.715778,1.253546,-0.576918,0.306818,0.010406,0.754419,-0.279454,-0.210785,0.690901,-0.068125,0.649457,38.717999,-23.063858,-2.928285,0.482877,1.838485,-0.182328,0.000000,0.000000,0.000000,0.000000,0.000000,0.000000
15890105.000000,-2.318547,-1.662604,1.214099,-1.438480,1.715566,1.254237,-0.576982,0.305215,0.009983,0.748135,-0.272746,-0.210439,0.690279,-0.068544,0.673261,38.595013,-23.040054,-3.055238,0.482877,1.897079,-0.215287,0.000000,0.000000,0.000000,0.000000,0.000000,0.000000
15890106.000000,-2.318258,-1.662598,1.214832,-1.438753,1.715356,1.254921,-0.577049,0.294653,0.007988,0.734868,-0.272348,-0.210551,0.687638,-0.073626,0.824018,38.543438,-22.841690,-3.126650,0.500272,1.884261,-0.248246,0.000000,0.000000,0.000000,0.000000,0.000000,0.000000
15890107.000000,-2.317954,-1.662583,1.215560,-1.439028,1.715150,1.255617,-0.577121,0.299715,0.009411,0.729397,-0.274456,-0.211702,0.685058,-0.074194,0.772443,38.372845,-22.742508,-3.102846,0.542386,1.871444,-0.248246,0.000000,0.000000,0.000000,0.000000,0.000000,0.000000
15890108.000000,-2.317652,-1.662575,1.216298,-1.439293,1.714949,1.256297,-0.577193,0.297966,0.008016,0.728544,-0.270189,-0.210413,0.682974,-0.076197,0.748639,38.301434,-22.671097,-3.055238,0.542386,1.890670,-0.215287,0.000000,0.000000,0.000000,0.000000,0.000000,0.000000
15890109.000000,-2.317360,-1.662563,1.217039,-1.439568,1.714749,1.256997,-0.577259,0.292540,0.008274,0.748689,-0.271241,-0.215153,0.684764,-0.074166,0.748639,38.178448,-22.595718,-2.928285,0.566190,1.806442,-0.261979,0.000000,0.000000,0.000000,0.000000,0.000000,0.000000
15890110.000000,-2.317066,-1.662560,1.217769,-1.439831,1.714545,1.257706,-0.577328,0.295846,0.004999,0.740082,-0.266821,-0.213536,0.681478,-0.071120,0.748639,38.202251,-22.500504,-2.904482,0.571683,1.721298,-0.229020,0.000000,0.000000,0.000000,0.000000,0.000000,0.000000
15890111.000000,-2.316780,-1.662548,1.218503,-1.440099,1.714341,1.258398,-0.577402,0.292658,0.004476,0.732432,-0.268334,-0.210156,0.683941,-0.073653,0.824018,38.154644,-22.448929,-2.805300,0.530485,1.624252,-0.188737,0.000000,0.000000,0.000000,0.000000,0.000000,0.000000
15890112.000000,-2.316487,-1.662541,1.219231,-1.440364,1.714147,1.259098,-0.577462,0.293419,0.005499,0.729016,-0.269547,-0.203313,0.685149,-0.071439,0.895429,38.178448,-22.425125,-2.833071,0.494779,1.624252,-0.254655,0.000000,0.000000,0.000000,0.000000,0.000000,0.000000
15890113.000000,-2.316196,-1.662539,1.219975,-1.440623,1.713953,1.259780,-0.577534,0.290674,0.003533,0.730668,-0.267492,-0.198562,0.689467,-0.069380,0.970807,38.325237,-22.571915,-2.856874,0.476469,1.702071,-0.215287,0.000000,0.000000,0.000000,0.000000,0.000000,0.000000
15890114.000000,-2.315912,-1.662533,1.220716,-1.440878,1.713757,1.260476,-0.577598,0.286756,0.005300,0.728396,-0.260656,-0.199596,0.690186,-0.069463,1.046186,38.349041,-22.571915,-2.956056,0.464567,1.735030,-0.248246,0.000000,0.000000,0.000000,0.000000,0.000000,0.000000
15890115.000000,-2.315626,-1.662527,1.221456,-1.441132,1.713562,1.261177,-0.577667,0.283815,0.003015,0.730576,-0.266059,-0.199377,0.687291,-0.070410,1.069990,38.396648,-22.770279,-2.979860,0.535978,1.721298,-0.254655,0.000000,0.000000,0.000000,0.000000,0.000000,0.000000
15890116.000000,-2.315334,-1.662528,1.222195,-1.441393,1.713363,1.261861,-0.577742,0.285762,0.002740,0.731623,-0.265426,-0.196940,0.684032,-0.072149,1.069990,38.519634,-22.865494,-3.003664,0.566190,1.754256,-0.229020,0.000000,0.000000,0.000000,0.000000,0.000000,0.000000
15890117.000000,-2.315048,-1.662527,1.222924,-1.441645,1.713159,1.262557,-0.577806,0.286500,0.003830,0.728499,-0.259702,-0.195581,0.682676,-0.071761,1.121564,38.595013,-23.016251,-3.102846,0.596403,1.832076,-0.261979,0.000000,0.000000,0.000000,0.000000,0.000000,0.000000
15890118.000000,-2.314755,-1.662529,1.223660,-1.441895,1.712962,1.263247,-0.577883,0.288421,0.003682,0.730292,-0.259622,-0.189301,0.697257,-0.075904,1.069990,38.717999,-23.063858,-3.178224,0.625699,1.819259,-0.182328,0.000000,0.000000,0.000000,0.000000,0.000000,0.000000
15890119.000000,-2.314468,-1.662535,1.224403,-1.442152,1.712767,1.263961,-0.577941,0.288601,0.002451,0.735636,-0.256684,-0.183105,0.700007,-0.067644,1.093793,38.888592,-23.111465,-3.225832,0.613798,1.747848,-0.268388,0.000000,0.000000,0.000000,0.000000,0.000000,0.000000
15890120.000000,-2.314177,-1.662541,1.225129,-1.442404,1.712572,1.264668,-0.578015,0.290448,-0.000928,0.735110,-0.253676,-0.183554,0.698736,-0.067087,1.022382,39.035381,-23.111465,-3.325014,0.601896,1.735030,-0.202470,0.000000,0.000000,0.000000,0.000000,0.000000,0.000000
15890121.000000,-2.313888,-1.662543,1.225863,-1.442649,1.712384,1.265356,-0.578081,0.289215,-0.001078,0.727734,-0.248598,-0.182423,0.695870,-0.062947,0.994611,39.082989,-23.040054,-3.400392,0.554288,1.800033,-0.241837,0.000000,0.000000,0.000000,0.000000,0.000000,0.000000
15890122.000000,-2.313605,-1.662544,1.226599,-1.442899,1.712204,1.266055,-0.578147,0.289878,-0.000786,0.738672,-0.248127,-0.181104,0.693207,-0.060822,1.022382,39.106792,-23.040054,-3.448000,0.476469,1.844894,-0.261979,0.000000,0.000000,0.000000,0.000000,0.000000,0.000000
15890123.000000,-2.313314,-1.662553,1.227320,-1.443139,1.712016,1.266763,-0.578221,0.289108,-0.002476,0.730695,-0.246362,-0.181684,0.688335,-0.066819,1.022382,39.205975,-22.893265,-3.570986,0.446256,1.760665,-0.202470,0.000000,0.000000,0.000000,0.000000,0.000000,0.000000
15890124.000000,-2.313035,-1.662548,1.228047,-1.443379,1.711820,1.267459,-0.578282,0.288123,0.000388,0.724960,-0.242708,-0.190043,0.687873,-0.066855,1.069990,39.130596,-22.794083,-3.670168,0.488370,1.702071,-0.254655,0.000000,0.000000,0.000000,0.000000,0.000000,0.000000
15890125.000000,-2.312743,-1.662556,1.228769,-1.443621,1.711638,1.268152,-0.578355,0.287357,-0.001298,0.723276,-0.242562,-0.184420,0.684618,-0.071096,0.994611,39.205975,-22.742508,-3.797121,0.494779,1.682845,-0.202470,0.000000,0.000000,0.000000,0.000000,0.000000,0.000000
15890126.000000,-2.312453,-1.662553,1.229506,-1.443859,1.711454,1.268836,-0.578416,0.287600,0.000404,0.722106,-0.238095,-0.179121,0.686414,-0.069968,0.923200,39.158367,-22.742508,-3.844728,0.482877,1.708480,-0.261979,0.000000,0.000000,0.000000,0.000000,0.000000,0.000000
15890127.000000,-2.312172,-1.662555,1.230232,-1.444090,1.711266,1.269533,-0.578484,0.282769,-0.000728,0.733197,-0.232880,-0.182980,0.690474,-0.071602,0.871625,39.205975,-22.524307,-3.943910,0.554288,1.662704,-0.254655,0.000000,0.000000,0.000000,0.000000,0.000000,0.000000
15890128.000000,-2.311887,-1.662561,1.230952,-1.444318,1.711086,1.270236,-0.578555,0.280689,-0.002161,0.731328,-0.233020,-0.177752,0.688877,-0.070389,0.871625,39.281353,-22.401321,-4.019289,0.535978,1.611434,-0.188737,0.000000,0.000000,0.000000,0.000000,0.000000,0.000000
15890129.000000,-2.311595,-1.662560,1.231685,-1.444548,1.710906,1.270924,-0.578616,0.284996,-0.000726,0.731463,-0.230141,-0.171584,0.691402,-0.068764,0.824018,39.253582,-22.425125,-4.090700,0.458158,1.597701,-0.261979,0.000000,0.000000,0.000000,0.000000,0.000000,0.000000
15890130.000000,-2.311305,-1.662557,1.232408,-1.444776,1.710727,1.271614,-0.578685,0.291421,0.000679,0.728814,-0.229045,-0.167888,0.689377,-0.072025,0.697065,39.205975,-22.425125,-4.118471,0.386747,1.643478,-0.221696,0.000000,0.000000,0.000000,0.000000,0.000000,0.000000
15890131.000000,-2.311015,-1.662557,1.233131,-1.444997,1.710540,1.272298,-0.578750,0.290524,0.000489,0.725746,-0.225075,-0.168983,0.685556,-0.073358,0.574079,39.205975,-22.377518,-4.142274,0.416959,1.689254,-0.208878,0.000000,0.000000,0.000000,0.000000,0.000000,0.000000
15890132.000000,-2.310724,-1.662559,1.233861,-1.445222,1.710352,1.272986,-0.578811,0.290864,0.000354,0.722718,-0.223714,-0.171449,0.678349,-0.072275,0.403486,39.205975,-22.278336,-4.213686,0.488370,1.708480,-0.248246,0.000000,0.000000,0.000000,0.000000,0.000000,0.000000
15890133.000000,-2.310430,-1.662560,1.234592,-1.445443,1.710175,1.273684,-0.578878,0.293091,0.000257,0.722200,-0.223206,-0.170660,0.677532,-0.069413,0.252729,39.205975,-22.425125,-4.289064,0.506681,1.721298,-0.221696,0.000000,0.000000,0.000000,0.000000,0.000000,0.000000
15890134.000000,-2.310123,-1.662555,1.235333,-1.445662,1.710006,1.274373,-0.578940,0.299451,0.001300,0.722710,-0.220091,-0.166577,0.684284,-0.064984,-0.044818,39.158367,-22.548111,-4.340639,0.440763,1.676437,-0.254655,0.000000,0.000000,0.000000,0.000000,0.000000,0.000000
15890135.000000,-2.309830,-1.662547,1.236064,-1.445876,1.709830,1.275075,-0.579013,0.296379,0.003199,0.735383,-0.216451,-0.167226,0.684067,-0.065084,-0.167803,39.059185,-22.718704,-4.439821,0.458158,1.605026,-0.196061,0.000000,0.000000,0.000000,0.000000,0.000000,0.000000
15890136.000000,-2.309533,-1.662554,1.236802,-1.446087,1.709648,1.275760,-0.579073,0.296589,-0.000179,0.733827,-0.215505,-0.173131,0.703016,-0.061826,-0.314593,39.158367,-22.841690,-4.610414,0.482877,1.578475,-0.229020,0.000000,0.000000,0.000000,0.000000,0.000000,0.000000
15890137.000000,-2.309247,-1.662555,1.237546,-1.446300,1.709470,1.276436,-0.579136,0.295846,-0.000670,0.737033,-0.212050,-0.169162,0.690090,-0.059465,-0.389971,39.182171,-22.964676,-4.757204,0.428861,1.741439,-0.254655,0.000000,0.000000,0.000000,0.000000,0.000000,0.000000
15890138.000000,-2.308944,-1.662554,1.238278,-1.446516,1.709296,1.277109,-0.579207,0.298335,0.000765,0.740105,-0.212188,-0.167781,0.684179,-0.065998,-0.635943,39.130596,-23.135269,-4.808778,0.405057,1.936446,-0.188737,0.000000,0.000000,0.000000,0.000000,0.000000,0.000000
15890139.000000,-2.308652,-1.662553,1.239015,-1.446718,1.709125,1.277787,-0.579265,0.293972,0.001070,0.733587,-0.211938,-0.165085,0.678442,-0.066761,-0.711321,39.106792,-23.163040,-5.007143,0.351041,1.949264,-0.229020,0.000000,0.000000,0.000000,0.000000,0.000000,0.000000
15890140.000000,-2.308367,-1.662553,1.239751,-1.446931,1.708952,1.278484,-0.579327,0.291167,0.000716,0.747326,-0.211098,-0.170486,0.679111,-0.068866,-0.735125,39.106792,-23.210648,-5.078554,0.369352,1.793624,-0.235429,0.000000,0.000000,0.000000,0.000000,0.000000,0.000000
15890141.000000,-2.308065,-1.662553,1.240478,-1.447136,1.708782,1.279178,-0.579391,0.290725,0.000480,0.740357,-0.206477,-0.168817,0.678125,-0.066386,-0.933489,39.106792,-23.234451,-5.205507,0.351041,1.708480,-0.221696,0.000000,0.000000,0.000000,0.000000,0.000000,0.000000
15890142.000000,-2.307769,-1.662552,1.241208,-1.447346,1.708615,1.279846,-0.579453,0.292636,0.001435,0.729883,-0.205814,-0.167630,0.675283,-0.068341,-1.108050,39.059185,-23.210648,-5.205507,0.327238,1.767074,-0.229020,0.000000,0.000000,0.000000,0.000000,0.000000,0.000000
15890143.000000,-2.307471,-1.662558,1.241929,-1.447559,1.708442,1.280512,-0.579519,0.295880,-0.001362,0.729216,-0.210144,-0.168220,0.671083,-0.067024,-1.306414,39.158367,-23.135269,-5.130128,0.344633,1.858627,-0.188737,0.000000,0.000000,0.000000,0.000000,0.000000,0.000000
15890144.000000,-2.307178,-1.662559,1.242647,-1.447764,1.708257,1.281185,-0.579575,0.295963,-0.000907,0.718648,-0.204448,-0.170723,0.672320,-0.057400,-1.429400,39.158367,-22.940872,-5.153932,0.428861,1.884261,-0.248246,0.000000,0.000000,0.000000,0.000000,0.000000,0.000000
15890145.000000,-2.306892,-1.662563,1.243378,-1.447971,1.708083,1.281869,-0.579638,0.290935,-0.001718,0.714034,-0.206056,-0.177913,0.679283,-0.058394,-1.453204,39.205975,-22.841690,-5.177736,0.405057,1.871444,-0.215287,0.000000,0.000000,0.000000,0.000000,0.000000,0.000000
15890146.000000,-2.306598,-1.662562,1.244110,-1.448159,1.707922,1.282557,-0.579697,0.291241,-0.000588,0.718537,-0.202920,-0.172792,0.676123,-0.061946,-1.528582,39.182171,-22.940872,-5.352296,0.344633,1.832076,-0.235429,0.000000,0.000000,0.000000,0.000000,0.000000,0.000000
15890147.000000,-2.306313,-1.662562,1.244845,-1.448362,1.707755,1.283235,-0.579760,0.285975,-0.000392,0.723479,-0.202525,-0.169991,0.677532,-0.061148,-1.480975,39.182171,-23.040054,-5.376100,0.315336,1.812850,-0.221696,0.000000,0.000000,0.000000,0.000000,0.000000,0.000000
15890148.000000,-2.306030,-1.662572,1.245561,-1.448570,1.707595,1.283918,-0.579821,0.283825,-0.003138,0.721856,-0.200569,-0.168587,0.676297,-0.060471,-1.504779,39.305157,-23.016251,-5.328493,0.291532,1.806442,-0.208878,0.000000,0.000000,0.000000,0.000000,0.000000,0.000000
15890149.000000,-2.305744,-1.662584,1.246294,-1.448770,1.707419,1.284598,-0.579880,0.285972,-0.005525,0.720759,-0.201472,-0.171407,0.675687,-0.058730,-1.552386,39.451946,-23.135269,-5.304689,0.381254,1.844894,-0.229020,0.000000,0.000000,0.000000,0.000000,0.000000,0.000000
15890150.000000,-2.305470,-1.662587,1.247038,-1.448970,1.707251,1.285268,-0.579940,0.282897,-0.004797,0.721143,-0.198135,-0.169183,0.666079,-0.059682,-1.528582,39.499554,-23.309830,-5.304689,0.356534,1.981307,-0.188737,0.000000,0.000000,0.000000,0.000000,0.000000,0.000000
15890151.000000,-2.305182,-1.662600,1.247776,-1.449171,1.707085,1.285961,-0.579997,0.282430,-0.006632,0.723021,-0.199813,-0.167890,0.669880,-0.062163,-1.580157,39.646343,-23.579605,-5.276918,0.339139,1.968490,-0.215287,0.000000,0.000000,0.000000,0.000000,0.000000,0.000000
15890152.000000,-2.304902,-1.662611,1.248518,-1.449368,1.706911,1.286650,-0.580054,0.282974,-0.007298,0.727068,-0.198438,-0.168273,0.677039,-0.059561,-1.528582,39.769329,-23.750198,-5.352296,0.362943,1.844894,-0.229020,0.000000,0.000000,0.000000,0.000000,0.000000,0.000000
15890153.000000,-2.304633,-1.662624,1.249252,-1.449567,1.706747,1.287341,-0.580115,0.280112,-0.008299,0.742590,-0.197189,-0.167973,0.672844,-0.060052,-1.429400,39.916119,-23.972366,-5.427675,0.369352,1.786300,-0.196061,0.000000,0.000000,0.000000,0.000000,0.000000,0.000000
15890154.000000,-2.304352,-1.662645,1.249989,-1.449758,1.706577,1.288012,-0.580172,0.277231,-0.013817,0.742428,-0.196945,-0.163929,0.674926,-0.057727,-1.480975,40.134319,-24.119156,-5.499086,0.410551,1.890670,-0.235429,0.000000,0.000000,0.000000,0.000000,0.000000,0.000000
15890155.000000,-2.304083,-1.662661,1.250729,-1.449963,1.706411,1.288670,-0.580233,0.269391,-0.016081,0.737514,-0.198736,-0.163447,0.666168,-0.058432,-1.453204,40.281109,-24.190567,-5.475282,0.393156,2.014266,-0.208878,0.000000,0.000000,0.000000,0.000000,0.000000,0.000000
15890156.000000,-2.303809,-1.662678,1.251453,-1.450177,1.706248,1.289344,-0.580288,0.271860,-0.017794,0.737597,-0.201877,-0.164953,0.666812,-0.057029,-1.480975,40.427898,-24.242142,-5.376100,0.410551,2.072860,-0.235429,0.000000,0.000000,0.000000,0.000000,0.000000,0.000000
15890157.000000,-2.303539,-1.662697,1.252186,-1.450372,1.706081,1.290014,-0.580349,0.269012,-0.019144,0.728479,-0.200502,-0.164406,0.662673,-0.057972,-1.429400,40.578655,-24.265945,-5.427675,0.398649,2.027084,-0.208878,0.000000,0.000000,0.000000,0.000000,0.000000,0.000000
15890158.000000,-2.303272,-1.662708,1.252918,-1.450574,1.705908,1.290698,-0.580404,0.263365,-0.017215,0.738851,-0.200889,-0.173618,0.664186,-0.056982,-1.381793,40.602459,-24.265945,-5.399904,0.381254,1.949264,-0.229020,0.000000,0.000000,0.000000,0.000000,0.000000,0.000000
15890159.000000,-2.303013,-1.662721,1.253640,-1.450769,1.705739,1.291378,-0.580463,0.259305,-0.016010,0.733134,-0.203757,-0.169701,0.660686,-0.057424,-1.207232,40.626263,-24.218338,-5.427675,0.320829,1.884261,-0.215287,0.000000,0.000000,0.000000,0.000000,0.000000,0.000000
15890160.000000,-2.302751,-1.662733,1.254373,-1.450973,1.705563,1.292052,-0.580520,0.263796,-0.012098,0.723680,-0.202710,-0.170572,0.668698,-0.057008,-1.131854,40.650066,-24.166763,-5.451478,0.362943,1.890670,-0.221696,0.000000,0.000000,0.000000,0.000000,0.000000,0.000000
15890161.000000,-2.302489,-1.662750,1.255081,-1.451182,1.705388,1.292724,-0.580575,0.259967,-0.014202,0.716996,-0.204142,-0.167567,0.664649,-0.056189,-1.084246,40.749249,-23.896988,-5.376100,0.446256,1.897079,-0.241837,0.000000,0.000000,0.000000,0.000000,0.000000,0.000000
15890162.000000,-2.302229,-1.662760,1.255810,-1.451381,1.705220,1.293386,-0.580636,0.259854,-0.010220,0.713493,-0.203500,-0.162201,0.665959,-0.058370,-1.008868,40.749249,-23.825577,-5.376100,0.458158,1.949264,-0.188737,0.000000,0.000000,0.000000,0.000000,0.000000,0.000000
15890163.000000,-2.301970,-1.662771,1.256544,-1.451588,1.705054,1.294072,-0.580687,0.255533,-0.010482,0.713548,-0.203536,-0.163682,0.670932,-0.056178,-0.909686,40.749249,-23.750198,-5.328493,0.470060,1.897079,-0.229020,0.000000,0.000000,0.000000,0.000000,0.000000,0.000000
15890164.000000,-2.301708,-1.662776,1.257261,-1.451797,1.704898,1.294776,-0.580746,0.256188,-0.009078,0.713168,-0.209676,-0.161812,0.678049,-0.056917,-0.834307,40.673870,-23.651016,-5.253114,0.405057,1.741439,-0.215287,0.000000,0.000000,0.000000,0.000000,0.000000,0.000000
15890165.000000,-2.301449,-1.662780,1.257992,-1.452006,1.704731,1.295459,-0.580804,0.254611,-0.003951,0.714802,-0.207044,-0.162166,0.684206,-0.056825,-0.762896,40.550884,-23.678787,-5.130128,0.386747,1.682845,-0.215287,0.000000,0.000000,0.000000,0.000000,0.000000,0.000000
15890166.000000,-2.301185,-1.662786,1.258708,-1.452215,1.704569,1.296146,-0.580859,0.260683,-0.005829,0.712356,-0.208254,-0.162415,0.678537,-0.056070,-0.810504,40.527081,-23.651016,-5.007143,0.356534,1.727706,-0.235429,0.000000,0.000000,0.000000,0.000000,0.000000,0.000000
15890167.000000,-2.300924,-1.662790,1.259422,-1.452432,1.704398,1.296821,-0.580917,0.260279,-0.006073,0.708878,-0.212143,-0.160582,0.693665,-0.057468,-0.834307,40.455669,-23.555801,-4.757204,0.416959,1.838485,-0.202470,0.000000,0.000000,0.000000,0.000000,0.000000,0.000000
15890168.000000,-2.300666,-1.662798,1.260150,-1.452645,1.704230,1.297507,-0.580970,0.256971,-0.007358,0.708524,-0.211259,-0.159545,0.689539,-0.055936,-0.909686,40.427898,-23.555801,-4.634218,0.494779,1.838485,-0.235429,0.000000,0.000000,0.000000,0.000000,0.000000,0.000000
15890169.000000,-2.300404,-1.662801,1.260873,-1.452859,1.704076,1.298207,-0.581024,0.256960,-0.006694,0.711085,-0.207662,-0.160414,0.693023,-0.055882,-0.961260,40.332684,-23.651016,-4.511232,0.476469,1.800033,-0.235429,0.000000,0.000000,0.000000,0.000000,0.000000,0.000000
15890170.000000,-2.300143,-1.662800,1.261605,-1.453062,1.703918,1.298891,-0.581078,0.257501,-0.005082,0.709745,-0.206410,-0.160877,0.689939,-0.056620,-0.961260,40.185894,-23.726395,-4.463624,0.452665,1.786300,-0.221696,0.000000,0.000000,0.000000,0.000000,0.000000,0.000000
15890171.000000,-2.299892,-1.662806,1.262327,-1.453282,1.703763,1.299589,-0.581134,0.256021,-0.006300,0.723449,-0.211719,-0.157340,0.687055,-0.051542,-0.933489,40.134319,-23.825577,-4.289064,0.452665,1.747848,-0.229020,0.000000,0.000000,0.000000,0.000000,0.000000,0.000000
15890172.000000,-2.299634,-1.662808,1.263054,-1.453493,1.703601,1.300276,-0.581189,0.253719,-0.006796,0.720186,-0.211884,-0.154861,0.690259,-0.053605,-0.909686,40.062908,-23.896988,-4.265260,0.464567,1.727706,-0.215287,0.000000,0.000000,0.000000,0.000000,0.000000,0.000000
15890173.000000,-2.299380,-1.662813,1.263785,-1.453712,1.703435,1.300940,-0.581243,0.254156,-0.004976,0.719016,-0.212082,-0.157461,0.680349,-0.053518,-0.933489,40.039104,-23.996170,-4.118471,0.464567,1.897079,-0.235429,0.000000,0.000000,0.000000,0.000000,0.000000,0.000000
15890174.000000,-2.299127,-1.662816,1.264507,-1.453931,1.703272,1.301615,-0.581300,0.255261,-0.006027,0.720038,-0.212475,-0.160474,0.678473,-0.055471,-0.933489,39.987530,-24.166763,-3.967714,0.464567,2.039901,-0.208878,0.000000,0.000000,0.000000,0.000000,0.000000,0.000000
15890175.000000,-2.298881,-1.662816,1.265237,-1.454142,1.703110,1.302292,-0.581353,0.253902,-0.005762,0.712942,-0.213215,-0.161276,0.676152,-0.050024,-0.810504,39.892315,-24.242142,-3.920107,0.452665,1.988631,-0.235429,0.000000,0.000000,0.000000,0.000000,0.000000,0.000000
15890176.000000,-2.298634,-1.662819,1.265956,-1.454356,1.702948,1.302990,-0.581409,0.252742,-0.003517,0.722814,-0.209375,-0.163094,0.679932,-0.052277,-0.762896,39.840740,-24.190567,-3.920107,0.494779,1.884261,-0.221696,0.000000,0.000000,0.000000,0.000000,0.000000,0.000000
15890177.000000,-2.298382,-1.662809,1.266677,-1.454569,1.702794,1.303680,-0.581466,0.251858,0.001540,0.718624,-0.208248,-0.157529,0.679639,-0.048893,-0.735125,39.646343,-24.218338,-3.868532,0.464567,1.877853,-0.215287,0.000000,0.000000,0.000000,0.000000,0.000000,0.000000
15890178.000000,-2.298125,-1.662806,1.267398,-1.454782,1.702634,1.304354,-0.581516,0.253985,0.002850,0.713158,-0.209857,-0.160295,0.676042,-0.044899,-0.786700,39.547161,-24.190567,-3.844728,0.482877,1.968490,-0.248246,0.000000,0.000000,0.000000,0.000000,0.000000,0.000000
15890179.000000,-2.297867,-1.662806,1.268100,-1.455007,1.702479,1.305032,-0.581573,0.253974,0.002642,0.707469,-0.217252,-0.157662,0.677296,-0.049231,-0.885882,39.499554,-24.019974,-3.697939,0.506681,2.027084,-0.215287,0.000000,0.000000,0.000000,0.000000,0.000000,0.000000
15890180.000000,-2.297618,-1.662798,1.268802,-1.455232,1.702322,1.305710,-0.581622,0.252740,0.003802,0.697789,-0.218819,-0.155130,0.673630,-0.049801,-0.885882,39.400372,-23.750198,-3.570986,0.494779,2.007858,-0.248246,0.000000,0.000000,0.000000,0.000000,0.000000,0.000000
15890181.000000,-2.297378,-1.662791,1.269520,-1.455453,1.702163,1.306399,-0.581680,0.251154,0.004552,0.704974,-0.217612,-0.156022,0.676781,-0.053117,-0.834307,39.305157,-23.651016,-3.523378,0.470060,1.949264,-0.202470,0.000000,0.000000,0.000000,0.000000,0.000000,0.000000
15890182.000000,-2.297131,-1.662782,1.270237,-1.455669,1.702012,1.307092,-0.581730,0.247843,0.005198,0.707977,-0.217666,-0.152911,0.676255,-0.052933,-0.810504,39.205975,-23.726395,-3.424196,0.422452,1.844894,-0.229020,0.000000,0.000000,0.000000,0.000000,0.000000,0.000000
15890183.000000,-2.296881,-1.662772,1.270948,-1.455885,1.701857,1.307764,-0.581778,0.249236,0.006224,0.704990,-0.219348,-0.150952,0.682304,-0.052416,-0.786700,39.082989,-23.678787,-3.424196,0.422452,1.806442,-0.268388,0.000000,0.000000,0.000000,0.000000,0.000000,0.000000
15890184.000000,-2.296646,-1.662767,1.271652,-1.456108,1.701705,1.308448,-0.581840,0.246574,0.005175,0.704623,-0.215622,-0.156729,0.676860,-0.051911,-0.663714,39.035381,-23.627213,-3.376589,0.470060,1.767074,-0.188737,0.000000,0.000000,0.000000,0.000000,0.000000,0.000000
15890185.000000,-2.296402,-1.662766,1.272366,-1.456327,1.701548,1.309111,-0.581889,0.247337,0.003384,0.703576,-0.213597,-0.153157,0.664538,-0.051717,-0.612139,39.035381,-23.678787,-3.301210,0.542386,1.890670,-0.221696,0.000000,0.000000,0.000000,0.000000,0.000000,0.000000
15890186.000000,-2.296169,-1.662764,1.273095,-1.456539,1.701405,1.309777,-0.581937,0.239138,0.002763,0.703662,-0.212492,-0.149550,0.655107,-0.052327,-0.489153,39.011578,-23.801773,-3.325014,0.500272,1.988631,-0.235429,0.000000,0.000000,0.000000,0.000000,0.000000,0.000000
15890187.000000,-2.295933,-1.662762,1.273808,-1.456755,1.701261,1.310457,-0.581988,0.236542,0.002454,0.701062,-0.212499,-0.148068,0.658939,-0.052914,-0.413775,38.983807,-23.948563,-3.325014,0.488370,2.039901,-0.241837,0.000000,0.000000,0.000000,0.000000,0.000000,0.000000
15890188.000000,-2.295704,-1.662764,1.274522,-1.456964,1.701115,1.311136,-0.582041,0.234975,0.000959,0.698532,-0.215400,-0.146463,0.662926,-0.049327,-0.290789,39.011578,-24.019974,-3.348818,0.470060,1.949264,-0.235429,0.000000,0.000000,0.000000,0.000000,0.000000,0.000000
15890189.000000,-2.295473,-1.662765,1.275250,-1.457176,1.700965,1.311821,-0.582092,0.235483,-0.000496,0.718127,-0.212009,-0.140748,0.662055,-0.046961,-0.215411,39.059185,-24.218338,-3.325014,0.458158,1.909896,-0.221696,0.000000,0.000000,0.000000,0.000000,0.000000,0.000000
15890190.000000,-2.295235,-1.662769,1.275953,-1.457382,1.700814,1.312494,-0.582137,0.232802,-0.002017,0.712561,-0.210423,-0.139339,0.665475,-0.048313,-0.191607,39.130596,-24.289749,-3.277406,0.476469,1.923629,-0.248246,0.000000,0.000000,0.000000,0.000000,0.000000,0.000000
15890191.000000,-2.295004,-1.662778,1.276669,-1.457598,1.700666,1.313162,-0.582193,0.224159,-0.004233,0.706330,-0.209814,-0.141669,0.666846,-0.052039,-0.167803,39.253582,-24.313553,-3.202028,0.494779,1.955673,-0.202470,0.000000,0.000000,0.000000,0.000000,0.000000,0.000000
15890192.000000,-2.294776,-1.662785,1.277370,-1.457804,1.700517,1.313842,-0.582237,0.226104,-0.005151,0.702013,-0.210823,-0.141716,0.674282,-0.051496,-0.068621,39.352764,-24.289749,-3.202028,0.566190,1.936446,-0.248246,0.000000,0.000000,0.000000,0.000000,0.000000,0.000000
15890193.000000,-2.294545,-1.662795,1.278079,-1.458000,1.700372,1.314505,-0.582287,0.227089,-0.006317,0.699047,-0.206012,-0.137765,0.670420,-0.053401,-0.044818,39.475750,-24.166763,-3.301210,0.584501,1.942855,-0.235429,0.000000,0.000000,0.000000,0.000000,0.000000,0.000000
15890194.000000,-2.294330,-1.662801,1.278792,-1.458197,1.700233,1.315179,-0.582340,0.220098,-0.005887,0.701632,-0.203346,-0.143020,0.673103,-0.050093,0.105939,39.547161,-24.142960,-3.348818,0.566190,1.923629,-0.221696,0.000000,0.000000,0.000000,0.000000,0.000000,0.000000
15890195.000000,-2.294113,-1.662808,1.279491,-1.458392,1.700102,1.315862,-0.582386,0.217827,-0.006248,0.700008,-0.204151,-0.142245,0.671894,-0.046003,0.276533,39.646343,-24.043777,-3.448000,0.494779,1.851302,-0.248246,0.000000,0.000000,0.000000,0.000000,0.000000,0.000000
15890196.000000,-2.293894,-1.662816,1.280199,-1.458589,1.699962,1.316538,-0.582433,0.222576,-0.005932,0.695768,-0.199059,-0.137118,0.668598,-0.044487,0.403486,39.721722,-23.996170,-3.523378,0.470060,1.844894,-0.235429,0.000000,0.000000,0.000000,0.000000,0.000000,0.000000
15890197.000000,-2.293672,-1.662818,1.280888,-1.458792,1.699825,1.317210,-0.582483,0.222663,-0.005070,0.694846,-0.197918,-0.135082,0.664242,-0.047746,0.474897,39.769329,-23.825577,-3.475771,0.446256,1.851302,-0.229020,0.000000,0.000000,0.000000,0.000000,0.000000,0.000000
15890198.000000,-2.293445,-1.662816,1.281588,-1.458984,1.699680,1.317883,-0.582537,0.221143,-0.009114,0.690614,-0.196503,-0.139757,0.666929,-0.051447,0.474897,39.745525,-23.627213,-3.448000,0.464567,1.865035,-0.188737,0.000000,0.000000,0.000000,0.000000,0.000000,0.000000
15890199.000000,-2.293224,-1.662814,1.282297,-1.459181,1.699539,1.318578,-0.582583,0.221716,-0.006044,0.690827,-0.197434,-0.136458,0.677362,-0.051903,0.526471,39.721722,-23.579605,-3.448000,0.470060,1.779891,-0.202470,0.000000,0.000000,0.000000,0.000000,0.000000,0.000000
15890200.000000,-2.293003,-1.662807,1.282988,-1.459366,1.699402,1.319280,-0.582624,0.222307,-0.001547,0.686830,-0.194990,-0.135596,0.682353,-0.050614,0.574079,39.598736,-23.357437,-3.547182,0.476469,1.624252,-0.268388,0.000000,0.000000,0.000000,0.000000,0.000000,0.000000
15890201.000000,-2.292783,-1.662804,1.283692,-1.459563,1.699263,1.319966,-0.582682,0.220417,-0.000770,0.687720,-0.194715,-0.134270,0.688585,-0.050767,0.625654,39.574932,-23.333633,-3.499574,0.518583,1.539108,-0.182328,0.000000,0.000000,0.000000,0.000000,0.000000,0.000000
15890202.000000,-2.292568,-1.662795,1.284381,-1.459748,1.699132,1.320646,-0.582723,0.224373,0.002142,0.686889,-0.191395,-0.132247,0.685603,-0.045176,0.625654,39.451946,-23.210648,-3.570986,0.482877,1.611434,-0.241837,0.000000,0.000000,0.000000,0.000000,0.000000,0.000000
15890203.000000,-2.292343,-1.662790,1.285085,-1.459938,1.698996,1.321335,-0.582768,0.222010,0.003025,0.685490,-0.194191,-0.132889,0.695622,-0.042452,0.601850,39.376568,-23.210648,-3.570986,0.500272,1.676437,-0.268388,0.000000,0.000000,0.000000,0.000000,0.000000,0.000000
15890204.000000,-2.292124,-1.662785,1.285778,-1.460123,1.698866,1.322002,-0.582818,0.220215,0.003563,0.687066,-0.190995,-0.135982,0.683091,-0.043314,0.601850,39.305157,-23.040054,-3.646364,0.494779,1.767074,-0.215287,0.000000,0.000000,0.000000,0.000000,0.000000,0.000000
15890205.000000,-2.291893,-1.662776,1.286476,-1.460312,1.698738,1.322683,-0.582862,0.223220,0.005158,0.691496,-0.191020,-0.133074,0.677947,-0.045457,0.474897,39.182171,-23.111465,-3.622560,0.446256,1.858627,-0.248246,0.000000,0.000000,0.000000,0.000000,0.000000,0.000000
15890206.000000,-2.291672,-1.662769,1.287184,-1.460488,1.698611,1.323373,-0.582911,0.221868,0.005689,0.690846,-0.188846,-0.133590,0.676179,-0.049957,0.451093,39.082989,-23.258255,-3.697939,0.386747,1.786300,-0.202470,0.000000,0.000000,0.000000,0.000000,0.000000,0.000000
15890207.000000,-2.291446,-1.662762,1.287896,-1.460670,1.698473,1.324078,-0.582954,0.224200,0.006060,0.709070,-0.189243,-0.131137,0.679372,-0.046537,0.328107,38.983807,-23.309830,-3.670168,0.386747,1.682845,-0.208878,0.000000,0.000000,0.000000,0.000000,0.000000,0.000000
