chaoyuefei/paper-gmrm-data/robot_logs/s2_dq_mrm_max_0.50_log_20260314_174824.csv
# time_ms,q_0,q_1,q_2,q_3,q_4,q_5,q_6,dq_0,dq_1,dq_2,dq_3,dq_4,dq_5,dq_6,tau_J_0,tau_J_1,tau_J_2,tau_J_3,tau_J_4,tau_J_5,tau_J_6,O_dP_EE_c_0,O_dP_EE_c_1,O_dP_EE_c_2,O_dP_EE_c_3,O_dP_EE_c_4,O_dP_EE_c_5
13166165.000000,2.312750,-0.964749,-1.819523,-1.386077,-0.927552,1.665510,0.447531,-0.001087,-0.000097,-0.000511,0.000802,-0.000461,-0.000199,0.000231,0.054365,35.560040,19.691574,12.123594,1.008390,1.383468,-0.142960,0.000000,0.000000,0.000000,0.000000,0.000000,0.000000
13166166.000000,2.312750,-0.964749,-1.819523,-1.386078,-0.927550,1.665510,0.447530,-0.000725,-0.000070,-0.000340,0.001092,0.000371,-0.000133,-0.000084,0.054365,35.560040,19.691574,12.099791,0.990079,1.383468,-0.136552,0.000000,0.000000,0.000000,0.000000,0.000000,0.000000
13166167.000000,2.312752,-0.964747,-1.819520,-1.386079,-0.927550,1.665510,0.447526,0.000074,0.000506,0.000887,-0.000386,0.000247,-0.000088,-0.001276,0.030561,35.536236,19.643967,12.147398,0.990079,1.383468,-0.103593,0.000000,0.000000,0.000000,0.000000,0.000000,0.000000
13166168.000000,2.312754,-0.964747,-1.819523,-1.386081,-0.927551,1.665511,0.447530,0.000606,0.000334,-0.000522,-0.000814,-0.000072,0.000178,0.000370,0.006757,35.536236,19.691574,12.171202,0.996488,1.377059,-0.136552,0.000000,0.000000,0.000000,0.000000,0.000000,0.000000
13166169.000000,2.312737,-0.964751,-1.819520,-1.386082,-0.927546,1.665512,0.447535,-0.012914,-0.007901,-0.010857,-0.001192,-0.001187,0.001577,-0.000262,-0.366168,35.068096,19.076645,12.198973,0.900358,1.337692,-0.122819,0.000000,0.000000,0.000000,0.000000,0.000000,0.000000
13166170.000000,2.312725,-0.964724,-1.819542,-1.386079,-0.927532,1.665508,0.447548,-0.028643,-0.007516,-0.031322,0.001273,0.003545,0.002476,0.008556,-2.270464,32.818645,17.311203,12.246580,0.524076,1.299239,-0.110001,0.000000,0.000000,0.000000,0.000000,0.000000,0.000000
13166171.000000,2.312720,-0.964671,-1.819612,-1.386078,-0.927515,1.665494,0.447579,-0.027576,0.009727,-0.049650,0.002439,0.007693,-0.000249,0.015763,-5.813250,28.974346,14.486496,12.321959,-0.031649,1.350509,-0.110001,0.000000,0.000000,0.000000,0.000000,0.000000,0.000000
13166172.000000,2.312674,-0.964655,-1.819740,-1.386069,-0.927532,1.665473,0.447614,-0.021236,0.016902,-0.070980,0.004402,0.000627,-0.005252,0.023467,-9.673419,24.741253,11.272995,12.222776,-0.330111,1.487838,-0.044083,0.000000,0.000000,0.000000,0.000000,0.000000,0.000000
13166173.000000,2.312601,-0.964687,-1.819873,-1.386059,-0.927594,1.665478,0.447672,-0.031102,0.011335,-0.081996,0.001632,-0.019554,-0.002993,0.032753,-13.386798,20.920757,7.690536,12.024412,-0.240389,1.474105,-0.064225,0.000000,0.000000,0.000000,0.000000,0.000000,0.000000
13166174.000000,2.312502,-0.964778,-1.820041,-1.386060,-0.927683,1.665524,0.447736,-0.041639,-0.013827,-0.094580,0.001204,-0.044006,0.012096,0.046026,-16.802629,18.155560,4.473068,11.877623,0.004056,1.220504,-0.017533,0.000000,0.000000,0.000000,0.000000,0.000000,0.000000
13166175.000000,2.312390,-0.964907,-1.820204,-1.386074,-0.927782,1.665624,0.447827,-0.057237,-0.044185,-0.108328,-0.004230,-0.063737,0.045291,0.058359,-19.797930,16.025127,1.604721,11.802244,0.189908,0.603439,-0.023942,0.000000,0.000000,0.000000,0.000000,0.000000,0.000000
13166176.000000,2.312259,-0.965061,-1.820360,-1.386093,-0.927887,1.665770,0.447936,-0.076196,-0.073808,-0.111988,-0.007169,-0.077231,0.079949,0.074973,-22.225908,14.533428,-1.021622,11.679258,0.243009,-0.190324,0.015426,0.000000,0.000000,0.000000,0.000000,0.000000,0.000000
13166177.000000,2.312134,-0.965219,-1.820505,-1.386115,-0.927991,1.665922,0.448076,-0.084841,-0.097490,-0.115827,-0.011771,-0.091123,0.104726,0.095372,-24.626116,13.454327,-3.306778,11.504698,0.129484,-0.743302,-0.011124,0.000000,0.000000,0.000000,0.000000,0.000000,0.000000
13166178.000000,2.312006,-0.965394,-1.820635,-1.386135,-0.928110,1.666070,0.448233,-0.101151,-0.120793,-0.119118,-0.014103,-0.098891,0.121023,0.117556,-26.728777,12.744183,-5.270584,11.159544,-0.067355,-0.860490,0.021835,0.000000,0.000000,0.000000,0.000000,0.000000,0.000000
13166179.000000,2.311872,-0.965552,-1.820763,-1.386168,-0.928236,1.666211,0.448416,-0.102626,-0.128245,-0.116171,-0.022482,-0.102746,0.128580,0.134084,-28.240313,12.010235,-6.718643,10.663633,-0.336520,-0.567521,0.034652,0.000000,0.000000,0.000000,0.000000,0.000000,0.000000
13166180.000000,2.311722,-0.965698,-1.820889,-1.386233,-0.928362,1.666386,0.448637,-0.110220,-0.133096,-0.115745,-0.038763,-0.109280,0.143234,0.164015,-28.438677,11.399273,-7.329605,10.096312,-0.641390,-0.222367,-0.017533,0.000000,0.000000,0.000000,0.000000,0.000000,0.000000
13166181.000000,2.311565,-0.965816,-1.820999,-1.386362,-0.928513,1.666632,0.448870,-0.121986,-0.125522,-0.110612,-0.071382,-0.121027,0.177425,0.188590,-27.248491,10.736736,-7.381180,9.628172,-0.772311,-0.236100,0.021835,0.000000,0.000000,0.000000,0.000000,0.000000,0.000000
13166182.000000,2.311402,-0.965913,-1.821108,-1.386560,-0.928693,1.666929,0.449134,-0.136313,-0.115659,-0.109927,-0.116218,-0.142143,0.219292,0.208645,-24.971270,10.078167,-6.766251,9.354429,-0.766818,-0.391740,-0.031266,0.000000,0.000000,0.000000,0.000000,0.000000,0.000000
13166183.000000,2.311232,-0.965989,-1.821222,-1.386787,-0.928896,1.667244,0.449391,-0.155037,-0.103929,-0.113733,-0.154221,-0.159927,0.251431,0.219840,-21.952166,9.268841,-5.687149,8.763304,-0.629489,-0.463151,0.041976,0.000000,0.000000,0.000000,0.000000,0.000000,0.000000
13166184.000000,2.311052,-0.966055,-1.821336,-1.387040,-0.929122,1.667558,0.449669,-0.171802,-0.092777,-0.117023,-0.188414,-0.175884,0.269628,0.236992,-18.583941,8.487286,-4.461258,7.898436,-0.396029,-0.242509,-0.023942,0.000000,0.000000,0.000000,0.000000,0.000000,0.000000
13166185.000000,2.310879,-0.966118,-1.821451,-1.387327,-0.929353,1.667882,0.449953,-0.179920,-0.082804,-0.119872,-0.218022,-0.193966,0.285950,0.248462,-15.366473,7.753338,-3.255203,7.104979,-0.240389,0.161239,-0.017533,0.000000,0.000000,0.000000,0.000000,0.000000,0.000000
13166186.000000,2.310714,-0.966184,-1.821564,-1.387636,-0.929600,1.668239,0.450235,-0.182804,-0.077432,-0.124597,-0.238727,-0.213307,0.301102,0.256199,-12.470355,7.138409,-2.275284,6.363097,-0.157076,0.414840,0.001693,0.000000,0.000000,0.000000,0.000000,0.000000,0.000000
13166187.000000,2.310541,-0.966252,-1.821685,-1.387956,-0.929839,1.668618,0.450534,-0.184256,-0.079015,-0.126542,-0.258410,-0.225766,0.327854,0.262646,-9.697223,6.626629,-1.465958,5.522032,-0.270602,0.518295,-0.023942,0.000000,0.000000,0.000000,0.000000,0.000000,0.000000
13166188.000000,2.310363,-0.966336,-1.821824,-1.388274,-0.930099,1.669028,0.450816,-0.185488,-0.081831,-0.135863,-0.271168,-0.235284,0.354080,0.269254,-7.150225,6.356853,-0.728043,4.732543,-0.527865,0.557662,0.015426,0.000000,0.000000,0.000000,0.000000,0.000000,0.000000
13166189.000000,2.310189,-0.966448,-1.821974,-1.388598,-0.930393,1.669447,0.451118,-0.183709,-0.092020,-0.143961,-0.282576,-0.256132,0.374197,0.273027,-4.995989,6.456036,-0.212296,3.843870,-0.563571,0.589706,-0.023942,0.000000,0.000000,0.000000,0.000000,0.000000,0.000000
13166190.000000,2.310026,-0.966589,-1.822147,-1.388916,-0.930697,1.669890,0.451412,-0.179855,-0.108260,-0.153708,-0.289497,-0.272370,0.398050,0.278960,-3.262286,6.844830,0.303451,3.050413,-0.557162,0.629073,0.001693,0.000000,0.000000,0.000000,0.000000,0.000000,0.000000
13166191.000000,2.309860,-0.966747,-1.822332,-1.389235,-0.931031,1.670359,0.451701,-0.177463,-0.124003,-0.163023,-0.296786,-0.291842,0.416494,0.283922,-1.703143,7.285198,0.743820,2.185545,-0.479342,0.654708,0.021835,0.000000,0.000000,0.000000,0.000000,0.000000,0.000000
13166192.000000,2.309698,-0.966910,-1.822530,-1.389555,-0.931388,1.670848,0.451997,-0.170580,-0.140021,-0.174609,-0.299790,-0.310655,0.441007,0.283685,-0.389971,7.701763,0.989792,1.344481,-0.389620,0.518295,-0.017533,0.000000,0.000000,0.000000,0.000000,0.000000,0.000000
13166193.000000,2.309557,-0.967082,-1.822741,-1.389888,-0.931755,1.671382,0.452282,-0.158700,-0.152366,-0.187254,-0.310933,-0.324089,0.467008,0.282516,0.427289,8.023113,1.211960,0.777159,-0.348422,0.245467,0.048385,0.000000,0.000000,0.000000,0.000000,0.000000,0.000000
13166194.000000,2.309428,-0.967253,-1.822964,-1.390218,-0.932138,1.671926,0.452573,-0.149338,-0.156548,-0.195949,-0.319319,-0.341024,0.495798,0.283460,1.022382,8.142132,1.259567,0.158263,-0.318209,-0.008134,0.001693,0.000000,0.000000,0.000000,0.000000,0.000000,0.000000
13166195.000000,2.309302,-0.967418,-1.823190,-1.390545,-0.932533,1.672488,0.452870,-0.143382,-0.160145,-0.203508,-0.319226,-0.362265,0.519246,0.289460,1.466718,8.118328,1.184189,-0.385256,-0.377719,-0.066727,-0.031266,0.000000,0.000000,0.000000,0.000000,0.000000,0.000000
13166196.000000,2.309195,-0.967585,-1.823420,-1.390880,-0.932953,1.673047,0.453152,-0.134475,-0.159919,-0.211764,-0.325276,-0.379703,0.528034,0.285391,1.542096,7.848553,1.061203,-0.928774,-0.384127,0.102645,0.034652,0.000000,0.000000,0.000000,0.000000,0.000000,0.000000
13166197.000000,2.309100,-0.967747,-1.823665,-1.391234,-0.933388,1.673619,0.453445,-0.117540,-0.158123,-0.222678,-0.334359,-0.395735,0.549596,0.284051,1.367536,7.459759,0.866806,-1.250124,-0.324618,0.291244,0.021835,0.000000,0.000000,0.000000,0.000000,0.000000,0.000000
13166198.000000,2.308996,-0.967902,-1.823919,-1.391596,-0.933827,1.674234,0.453737,-0.110457,-0.152177,-0.237276,-0.339837,-0.406480,0.565402,0.288700,1.343732,6.844830,0.767624,-1.420717,-0.365817,0.329696,0.021835,0.000000,0.000000,0.000000,0.000000,0.000000,0.000000
13166199.000000,2.308898,-0.968053,-1.824186,-1.391969,-0.934283,1.674884,0.454018,-0.107355,-0.148351,-0.244034,-0.350773,-0.414569,0.607952,0.287776,1.292158,6.186260,0.620834,-1.496095,-0.318209,0.128280,0.041976,0.000000,0.000000,0.000000,0.000000,0.000000,0.000000
13166200.000000,2.308810,-0.968220,-1.824477,-1.392361,-0.934742,1.675565,0.454302,-0.100252,-0.155579,-0.254942,-0.367194,-0.434284,0.627625,0.280112,1.093793,5.670513,0.597031,-1.448488,-0.276095,-0.060319,0.061202,0.000000,0.000000,0.000000,0.000000,0.000000,0.000000
13166201.000000,2.308729,-0.968396,-1.824762,-1.392766,-0.935209,1.676251,0.454583,-0.094006,-0.162552,-0.266139,-0.376952,-0.441576,0.643643,0.283292,0.824018,5.253948,0.549423,-1.373109,-0.199191,-0.053910,0.001693,0.000000,0.000000,0.000000,0.000000,0.000000,0.000000
13166202.000000,2.308655,-0.968581,-1.825044,-1.393182,-0.935693,1.676943,0.454864,-0.088257,-0.173129,-0.271994,-0.390534,-0.446515,0.659677,0.279858,0.502668,4.960369,0.275680,-1.420717,-0.007845,0.004684,0.048385,0.000000,0.000000,0.000000,0.000000,0.000000,0.000000
13166203.000000,2.308588,-0.968787,-1.825359,-1.393591,-0.936151,1.677665,0.455148,-0.078988,-0.183969,-0.281284,-0.400535,-0.452155,0.673743,0.281011,0.205121,5.011944,0.450241,-1.547670,-0.007845,0.115462,0.041976,0.000000,0.000000,0.000000,0.000000,0.000000,0.000000
13166204.000000,2.308519,-0.969010,-1.825660,-1.394025,-0.936619,1.678418,0.455430,-0.073844,-0.191958,-0.283121,-0.411392,-0.452109,0.699198,0.281826,0.105939,5.376934,0.696213,-1.694460,0.015958,0.121871,0.028243,0.000000,0.000000,0.000000,0.000000,0.000000,0.000000
13166205.000000,2.308444,-0.969244,-1.825952,-1.394477,-0.937081,1.679192,0.455706,-0.074800,-0.205876,-0.281992,-0.423825,-0.451582,0.719646,0.274208,0.351911,6.134686,1.160385,-1.793642,0.129484,0.069686,0.081344,0.000000,0.000000,0.000000,0.000000,0.000000,0.000000
13166206.000000,2.308368,-0.969499,-1.826246,-1.394951,-0.937525,1.680006,0.455995,-0.073683,-0.218854,-0.286013,-0.444418,-0.450433,0.748192,0.281176,0.824018,7.336773,1.969711,-1.742067,-0.013339,-0.001725,-0.031266,0.000000,0.000000,0.000000,0.000000,0.000000,0.000000
13166207.000000,2.308279,-0.969749,-1.826535,-1.395432,-0.937978,1.680827,0.456269,-0.079267,-0.229941,-0.288809,-0.457111,-0.441671,0.771781,0.274561,1.613508,8.534893,2.953598,-1.769838,-0.013339,-0.079545,-0.004716,0.000000,0.000000,0.000000,0.000000,0.000000,0.000000
13166208.000000,2.308185,-0.969991,-1.826818,-1.395927,-0.938424,1.681666,0.456538,-0.085419,-0.236587,-0.289635,-0.459808,-0.452784,0.785320,0.268793,2.553754,9.586224,3.933517,-1.694460,0.076383,-0.053910,0.074935,0.000000,0.000000,0.000000,0.000000,0.000000,0.000000
13166209.000000,2.308101,-0.970241,-1.827096,-1.396458,-0.938856,1.682521,0.456814,-0.088480,-0.243002,-0.290401,-0.481676,-0.443240,0.798406,0.270653,3.323408,10.443157,4.818222,-1.420717,-0.013339,0.017501,0.009017,0.000000,0.000000,0.000000,0.000000,0.000000,0.000000
13166210.000000,2.307995,-0.970487,-1.827382,-1.397003,-0.939292,1.683356,0.457073,-0.097752,-0.247725,-0.291931,-0.503941,-0.434722,0.812149,0.265336,4.287458,11.030315,5.528366,-1.198549,-0.007845,0.121871,0.061202,0.000000,0.000000,0.000000,0.000000,0.000000,0.000000
13166211.000000,2.307890,-0.970737,-1.827679,-1.397548,-0.939724,1.684197,0.457346,-0.102221,-0.247503,-0.300208,-0.518283,-0.439888,0.811280,0.265491,5.180097,11.375469,6.218674,-1.075563,0.010465,0.219833,0.041976,0.000000,0.000000,0.000000,0.000000,0.000000,0.000000
13166212.000000,2.307793,-0.970997,-1.827988,-1.398129,-0.940168,1.685029,0.457617,-0.103626,-0.253720,-0.306255,-0.536448,-0.437051,0.814910,0.265089,5.846601,11.617474,6.758224,-0.829591,0.015958,0.258285,0.021835,0.000000,0.000000,0.000000,0.000000,0.000000,0.000000
13166213.000000,2.307679,-0.971274,-1.828308,-1.398693,-0.940607,1.685854,0.457885,-0.106046,-0.260099,-0.308004,-0.551611,-0.433913,0.814037,0.268196,6.592451,11.887249,7.174789,-0.904970,0.076383,0.284835,0.061202,0.000000,0.000000,0.000000,0.000000,0.000000,0.000000
13166214.000000,2.307563,-0.971568,-1.828621,-1.399275,-0.941058,1.686663,0.458153,-0.110481,-0.268966,-0.313156,-0.556601,-0.438156,0.805321,0.263329,7.306562,12.208599,7.468369,-1.127138,0.135892,0.381881,0.041976,0.000000,0.000000,0.000000,0.000000,0.000000,0.000000
13166215.000000,2.307447,-0.971880,-1.828952,-1.399866,-0.941513,1.687463,0.458418,-0.111820,-0.290608,-0.321231,-0.565087,-0.436944,0.806172,0.265906,7.925458,12.696575,7.813522,-1.396913,0.141385,0.414840,0.067611,0.000000,0.000000,0.000000,0.000000,0.000000,0.000000
13166216.000000,2.307324,-0.972228,-1.829278,-1.400459,-0.941964,1.688274,0.458693,-0.112950,-0.309720,-0.321664,-0.565237,-0.434116,0.804661,0.266630,8.544354,13.359112,8.007919,-1.642885,0.213712,0.329696,0.034652,0.000000,0.000000,0.000000,0.000000,0.000000,0.000000
13166217.000000,2.307193,-0.972590,-1.829613,-1.401060,-0.942421,1.689067,0.458957,-0.117736,-0.324922,-0.323907,-0.579206,-0.440002,0.810666,0.265290,9.238629,14.017681,8.130905,-1.964235,0.154203,0.232650,0.054794,0.000000,0.000000,0.000000,0.000000,0.000000,0.000000
13166218.000000,2.307059,-0.972974,-1.829963,-1.401660,-0.942879,1.689869,0.459231,-0.121549,-0.343451,-0.327309,-0.586118,-0.443338,0.806037,0.265850,9.909101,14.775433,8.329269,-2.261781,0.147794,0.219833,0.001693,0.000000,0.000000,0.000000,0.000000,0.000000,0.000000
13166219.000000,2.306923,-0.973381,-1.830301,-1.402280,-0.943341,1.690669,0.459490,-0.126374,-0.358552,-0.328737,-0.590850,-0.450384,0.804698,0.264474,10.377240,15.632366,8.452255,-2.384767,0.147794,0.161239,0.028243,0.000000,0.000000,0.000000,0.000000,0.000000,0.000000
13166220.000000,2.306773,-0.973785,-1.830647,-1.402915,-0.943807,1.691457,0.459759,-0.135551,-0.379853,-0.333526,-0.596800,-0.447507,0.801844,0.261803,10.650983,16.465496,8.599045,-1.992006,0.069974,0.147506,0.061202,0.000000,0.000000,0.000000,0.000000,0.000000,0.000000
13166221.000000,2.306613,-0.974201,-1.830984,-1.403530,-0.944264,1.692252,0.460042,-0.142106,-0.391355,-0.329531,-0.606142,-0.449180,0.796623,0.269750,10.773969,17.223248,8.547470,-1.373109,0.064481,0.206100,-0.004716,0.000000,0.000000,0.000000,0.000000,0.000000,0.000000
13166222.000000,2.306437,-0.974620,-1.831331,-1.404148,-0.944731,1.693051,0.460312,-0.155687,-0.404304,-0.334473,-0.603443,-0.456039,0.798608,0.271298,10.674787,17.984966,8.670456,-0.385256,-0.019747,0.258285,0.034652,0.000000,0.000000,0.000000,0.000000,0.000000,0.000000
13166223.000000,2.306271,-0.975038,-1.831689,-1.404771,-0.945196,1.693837,0.460591,-0.156384,-0.407917,-0.337713,-0.605459,-0.467597,0.796895,0.264248,10.131269,18.619732,8.817245,0.999327,-0.019747,0.394698,0.015426,0.000000,0.000000,0.000000,0.000000,0.000000,0.000000
13166224.000000,2.306086,-0.975450,-1.832035,-1.405375,-0.945671,1.694641,0.460861,-0.162019,-0.408321,-0.338171,-0.611996,-0.467822,0.794041,0.270732,9.611554,19.107708,8.845016,2.558470,0.069974,0.544845,0.054794,0.000000,0.000000,0.000000,0.000000,0.000000,0.000000
13166225.000000,2.305898,-0.975864,-1.832399,-1.405984,-0.946141,1.695413,0.461145,-0.167563,-0.406931,-0.345787,-0.613374,-0.466291,0.794553,0.273993,9.115644,19.405254,9.039413,4.113646,0.004056,0.798446,0.021835,0.000000,0.000000,0.000000,0.000000,0.000000,0.000000
13166226.000000,2.305717,-0.976267,-1.832765,-1.406585,-0.946600,1.696206,0.461422,-0.168341,-0.407460,-0.356637,-0.608679,-0.461072,0.794468,0.270629,8.520551,19.524273,9.186203,5.573607,-0.031649,0.954086,0.034652,0.000000,0.000000,0.000000,0.000000,0.000000,0.000000
13166227.000000,2.305552,-0.976689,-1.833133,-1.407176,-0.947085,1.697008,0.461684,-0.168100,-0.409951,-0.364840,-0.602036,-0.471283,0.791720,0.267044,7.830244,19.623455,9.332993,6.684447,0.064481,1.058456,0.094161,0.000000,0.000000,0.000000,0.000000,0.000000,0.000000
13166228.000000,2.305386,-0.977112,-1.833520,-1.407784,-0.947561,1.697786,0.461959,-0.163784,-0.416344,-0.370807,-0.606957,-0.467329,0.789644,0.267118,7.183576,19.770245,9.654343,7.648497,-0.007845,1.149093,0.034652,0.000000,0.000000,0.000000,0.000000,0.000000,0.000000
13166229.000000,2.305220,-0.977555,-1.833895,-1.408379,-0.948025,1.698563,0.462229,-0.160252,-0.426624,-0.373976,-0.605519,-0.463050,0.774605,0.272151,6.663862,19.893230,9.848740,8.315001,-0.043551,1.299239,0.048385,0.000000,0.000000,0.000000,0.000000,0.000000,0.000000
13166230.000000,2.305067,-0.978005,-1.834283,-1.408963,-0.948519,1.699326,0.462499,-0.154818,-0.437393,-0.376356,-0.599485,-0.471870,0.771485,0.269562,6.120344,19.964642,10.094711,8.588743,0.064481,1.416427,0.048385,0.000000,0.000000,0.000000,0.000000,0.000000,0.000000
13166231.000000,2.304933,-0.978467,-1.834682,-1.409546,-0.948997,1.700093,0.462780,-0.146386,-0.446795,-0.382870,-0.586736,-0.472331,0.767494,0.270615,5.449872,20.063824,10.416061,8.763304,0.076383,1.442062,-0.004716,0.000000,0.000000,0.000000,0.000000,0.000000,0.000000
13166232.000000,2.304797,-0.978933,-1.835076,-1.410128,-0.949486,1.700879,0.463042,-0.143940,-0.453314,-0.385505,-0.582667,-0.475931,0.772786,0.267986,4.882551,20.087627,10.634262,8.664122,0.135892,1.370651,0.015426,0.000000,0.000000,0.000000,0.000000,0.000000,0.000000
13166233.000000,2.304660,-0.979401,-1.835470,-1.410701,-0.949985,1.701645,0.463310,-0.143079,-0.457315,-0.385969,-0.579863,-0.481425,0.774276,0.263910,4.485822,20.111431,10.832626,8.414183,0.189908,1.350509,0.061202,0.000000,0.000000,0.000000,0.000000,0.000000,0.000000
13166234.000000,2.304539,-0.979894,-1.835871,-1.411263,-0.950467,1.702418,0.463590,-0.135121,-0.467828,-0.389808,-0.565753,-0.476236,0.767148,0.270972,3.942304,20.210613,11.126205,8.120604,0.171598,1.259872,0.001693,0.000000,0.000000,0.000000,0.000000,0.000000,0.000000
13166235.000000,2.304428,-0.980384,-1.836274,-1.411846,-0.950969,1.703179,0.463857,-0.129799,-0.474705,-0.388742,-0.568413,-0.479535,0.766150,0.269226,3.347211,20.309795,11.395981,8.021421,0.195402,1.240646,0.001693,0.000000,0.000000,0.000000,0.000000,0.000000,0.000000
13166236.000000,2.304317,-0.980882,-1.836686,-1.412396,-0.951470,1.703951,0.464117,-0.123227,-0.481618,-0.392438,-0.566693,-0.487102,0.767966,0.259285,2.978254,20.579571,11.764938,7.700072,0.327238,1.234237,0.074935,0.000000,0.000000,0.000000,0.000000,0.000000,0.000000
13166237.000000,2.304215,-0.981374,-1.837090,-1.412953,-0.951969,1.704717,0.464385,-0.118014,-0.481588,-0.391837,-0.557187,-0.488286,0.760595,0.271408,2.605329,20.944561,12.375900,7.525511,0.339139,1.312057,-0.004716,0.000000,0.000000,0.000000,0.000000,0.000000,0.000000
13166238.000000,2.304122,-0.981873,-1.837482,-1.413521,-0.952478,1.705487,0.464640,-0.109041,-0.486843,-0.390007,-0.556317,-0.495473,0.765645,0.270585,2.283979,21.777691,13.090012,7.624693,0.405057,1.279098,0.054794,0.000000,0.000000,0.000000,0.000000,0.000000,0.000000
13166239.000000,2.304026,-0.982374,-1.837863,-1.414068,-0.952979,1.706271,0.464906,-0.106392,-0.494799,-0.384998,-0.558539,-0.497426,0.773246,0.264330,2.160993,22.904400,13.800156,7.771483,0.506681,1.240646,0.054794,0.000000,0.000000,0.000000,0.000000,0.000000,0.000000
13166240.000000,2.303939,-0.982876,-1.838254,-1.414619,-0.953472,1.707046,0.465173,-0.100693,-0.499820,-0.387299,-0.552907,-0.492215,0.769576,0.266230,2.034040,24.078716,14.784042,8.069029,0.369352,1.344100,0.001693,0.000000,0.000000,0.000000,0.000000,0.000000,0.000000
13166241.000000,2.303857,-0.983372,-1.838639,-1.415173,-0.953958,1.707808,0.465429,-0.095080,-0.503699,-0.386323,-0.553117,-0.497557,0.771769,0.261624,1.863447,25.229229,15.593369,8.342772,0.339139,1.448470,0.067611,0.000000,0.000000,0.000000,0.000000,0.000000,0.000000
13166242.000000,2.303794,-0.983874,-1.839014,-1.415720,-0.954464,1.708577,0.465700,-0.085054,-0.506315,-0.386400,-0.558082,-0.507670,0.762018,0.265130,1.490522,26.256756,16.279709,8.711729,0.410551,1.565658,-0.004716,0.000000,0.000000,0.000000,0.000000,0.000000,0.000000
13166243.000000,2.303734,-0.984375,-1.839403,-1.416284,-0.954965,1.709341,0.465959,-0.077498,-0.509557,-0.390267,-0.558907,-0.505224,0.761354,0.261907,1.192975,27.161297,16.989853,9.207640,0.339139,1.702071,0.041976,0.000000,0.000000,0.000000,0.000000,0.000000,0.000000
13166244.000000,2.303672,-0.984869,-1.839791,-1.416835,-0.955461,1.710102,0.466222,-0.073178,-0.510680,-0.389323,-0.548243,-0.506854,0.760924,0.257029,0.970807,27.970623,17.533371,9.477415,0.344633,1.812850,0.041976,0.000000,0.000000,0.000000,0.000000,0.000000,0.000000
13166245.000000,2.303619,-0.985393,-1.840184,-1.417403,-0.955981,1.710884,0.466477,-0.064937,-0.513535,-0.392177,-0.554279,-0.510339,0.761911,0.257858,0.649457,28.950542,18.072922,9.850340,0.434354,1.786300,0.067611,0.000000,0.000000,0.000000,0.000000,0.000000,0.000000
13166246.000000,2.303578,-0.985928,-1.840588,-1.417972,-0.956491,1.711667,0.466746,-0.055441,-0.516801,-0.391817,-0.554663,-0.509865,0.765914,0.260375,0.205121,30.101055,18.537094,10.096312,0.470060,1.649886,0.001693,0.000000,0.000000,0.000000,0.000000,0.000000,0.000000
13166247.000000,2.303529,-0.986485,-1.840978,-1.418529,-0.957008,1.712435,0.467006,-0.052974,-0.531716,-0.399244,-0.547603,-0.514188,0.762754,0.256578,-0.068621,31.275372,18.830673,10.195494,0.589994,1.617843,0.028243,0.000000,0.000000,0.000000,0.000000,0.000000,0.000000
13166248.000000,2.303488,-0.987050,-1.841378,-1.419091,-0.957519,1.713190,0.467266,-0.046758,-0.543123,-0.397607,-0.555265,-0.512108,0.764015,0.256980,-0.389971,32.326702,19.104416,10.243101,0.601896,1.656295,0.054794,0.000000,0.000000,0.000000,0.000000,0.000000,0.000000
13166249.000000,2.303463,-0.987626,-1.841780,-1.419640,-0.958015,1.713961,0.467537,-0.037823,-0.555983,-0.398190,-0.553061,-0.509098,0.766857,0.264452,-0.885882,33.382000,19.322617,10.195494,0.542386,1.656295,0.021835,0.000000,0.000000,0.000000,0.000000,0.000000,0.000000
13166250.000000,2.303442,-0.988214,-1.842185,-1.420196,-0.958530,1.714731,0.467799,-0.035349,-0.565076,-0.401456,-0.550463,-0.502269,0.761873,0.263500,-1.354022,34.357952,19.497177,10.096312,0.559781,1.578475,0.041976,0.000000,0.000000,0.000000,0.000000,0.000000,0.000000
13166251.000000,2.303422,-0.988795,-1.842590,-1.420755,-0.959026,1.715492,0.468065,-0.029230,-0.578051,-0.397770,-0.554071,-0.494854,0.759966,0.262798,-1.750750,35.167278,19.691574,9.973326,0.440763,1.591293,0.028243,0.000000,0.000000,0.000000,0.000000,0.000000,0.000000
13166252.000000,2.303406,-0.989386,-1.843004,-1.421303,-0.959519,1.716264,0.468327,-0.024553,-0.580184,-0.402888,-0.551407,-0.492969,0.762240,0.266148,-2.147479,35.754436,19.913742,9.897947,0.332731,1.591293,0.067611,0.000000,0.000000,0.000000,0.000000,0.000000,0.000000
13166253.000000,2.303385,-0.989976,-1.843406,-1.421867,-0.960024,1.717031,0.468596,-0.022887,-0.582908,-0.404557,-0.553829,-0.497793,0.763142,0.268161,-2.445025,36.242413,20.036728,9.897947,0.369352,1.519881,0.001693,0.000000,0.000000,0.000000,0.000000,0.000000,0.000000
13166254.000000,2.303367,-0.990559,-1.843825,-1.422430,-0.960523,1.717804,0.468853,-0.022898,-0.585460,-0.407132,-0.561249,-0.498561,0.763489,0.263828,-2.690997,36.682781,20.254929,10.020933,0.422452,1.442062,0.054794,0.000000,0.000000,0.000000,0.000000,0.000000,0.000000
13166255.000000,2.303339,-0.991150,-1.844229,-1.422989,-0.961036,1.718570,0.469109,-0.026714,-0.582907,-0.405827,-0.558631,-0.503485,0.754049,0.266592,-2.766375,36.980328,20.429489,10.072508,0.482877,1.474105,0.067611,0.000000,0.000000,0.000000,0.000000,0.000000,0.000000
13166256.000000,2.303302,-0.991726,-1.844632,-1.423559,-0.961550,1.719319,0.469373,-0.030124,-0.581052,-0.404959,-0.561985,-0.498713,0.752330,0.262309,-2.667193,37.174725,20.477097,10.219297,0.571683,1.519881,0.009017,0.000000,0.000000,0.000000,0.000000,0.000000,0.000000
13166257.000000,2.303274,-0.992308,-1.845049,-1.424137,-0.962056,1.720069,0.469627,-0.028215,-0.583791,-0.408271,-0.574500,-0.500658,0.749938,0.259760,-2.718768,37.297710,20.671494,10.639830,0.559781,1.584884,0.081344,0.000000,0.000000,0.000000,0.000000,0.000000,0.000000
13166258.000000,2.303233,-0.992890,-1.845454,-1.424710,-0.962566,1.720828,0.469895,-0.032422,-0.574596,-0.410746,-0.573357,-0.501241,0.743294,0.258736,-2.520403,37.345318,20.723068,10.937376,0.554288,1.539108,0.009017,0.000000,0.000000,0.000000,0.000000,0.000000,0.000000
13166259.000000,2.303196,-0.993469,-1.845861,-1.425277,-0.963063,1.721574,0.470158,-0.033307,-0.577828,-0.405734,-0.570410,-0.506059,0.744815,0.262148,-2.397418,37.444500,20.794479,11.060362,0.500272,1.572067,0.034652,0.000000,0.000000,0.000000,0.000000,0.000000,0.000000
13166260.000000,2.303153,-0.994067,-1.846267,-1.425848,-0.963571,1.722308,0.470421,-0.038437,-0.585800,-0.404738,-0.573648,-0.501161,0.736012,0.257359,-2.222857,37.686504,20.945236,11.405516,0.428861,1.702071,0.048385,0.000000,0.000000,0.000000,0.000000,0.000000,0.000000
13166261.000000,2.303104,-0.994668,-1.846670,-1.426413,-0.964075,1.723039,0.470680,-0.044146,-0.586285,-0.407171,-0.573004,-0.501738,0.733354,0.257613,-1.949114,38.031658,20.945236,11.603880,0.398649,1.793624,0.061202,0.000000,0.000000,0.000000,0.000000,0.000000,0.000000
13166262.000000,2.303056,-0.995287,-1.847084,-1.426973,-0.964584,1.723784,0.470948,-0.047111,-0.598736,-0.409696,-0.556967,-0.502278,0.738893,0.260202,-1.703143,38.618816,20.992844,11.778440,0.351041,1.806442,0.015426,0.000000,0.000000,0.000000,0.000000,0.000000,0.000000
13166263.000000,2.303007,-0.995906,-1.847496,-1.427532,-0.965093,1.724526,0.471204,-0.049568,-0.604281,-0.410608,-0.559151,-0.502630,0.736151,0.254952,-1.453204,39.106792,21.115829,11.925230,0.315336,1.760665,0.048385,0.000000,0.000000,0.000000,0.000000,0.000000,0.000000
13166264.000000,2.302943,-0.996518,-1.847903,-1.428097,-0.965623,1.725259,0.471466,-0.054343,-0.607695,-0.407884,-0.561512,-0.511033,0.736622,0.256524,-1.060443,39.622540,21.139633,12.147398,0.381254,1.754256,0.021835,0.000000,0.000000,0.000000,0.000000,0.000000,0.000000
13166265.000000,2.302881,-0.997139,-1.848314,-1.428653,-0.966140,1.726005,0.471722,-0.057279,-0.610309,-0.415975,-0.551007,-0.512159,0.736209,0.252239,-0.687518,40.015301,21.238815,12.321959,0.410551,1.721298,0.054794,0.000000,0.000000,0.000000,0.000000,0.000000,0.000000
13166266.000000,2.302814,-0.997762,-1.848737,-1.429221,-0.966661,1.726737,0.471982,-0.059274,-0.610535,-0.418884,-0.555902,-0.513633,0.748315,0.259862,-0.290789,40.308880,21.385605,12.643309,0.458158,1.670028,0.041976,0.000000,0.000000,0.000000,0.000000,0.000000,0.000000
13166267.000000,2.302751,-0.998380,-1.849164,-1.429770,-0.967189,1.727476,0.472251,-0.059509,-0.618928,-0.418040,-0.557303,-0.515268,0.745366,0.262207,0.054365,40.697674,21.556198,12.841673,0.530485,1.662704,0.009017,0.000000,0.000000,0.000000,0.000000,0.000000,0.000000
13166268.000000,2.302674,-0.999002,-1.849578,-1.430333,-0.967714,1.728202,0.472506,-0.066735,-0.618109,-0.419334,-0.556979,-0.510290,0.738676,0.262625,0.550275,41.090435,21.655380,13.012266,0.530485,1.773483,0.087753,0.000000,0.000000,0.000000,0.000000,0.000000,0.000000
13166269.000000,2.302602,-0.999620,-1.849997,-1.430903,-0.968239,1.728923,0.472785,-0.069671,-0.617733,-0.419257,-0.559390,-0.510032,0.730425,0.264541,0.947004,41.384014,21.754562,13.262205,0.398649,1.865035,0.009017,0.000000,0.000000,0.000000,0.000000,0.000000,0.000000
13166270.000000,2.302520,-1.000233,-1.850427,-1.431450,-0.968756,1.729650,0.473049,-0.073482,-0.612873,-0.420719,-0.558214,-0.512354,0.734729,0.267059,1.415143,41.554607,21.877548,13.333616,0.327238,1.890670,0.054794,0.000000,0.000000,0.000000,0.000000,0.000000,0.000000
13166271.000000,2.302447,-1.000835,-1.850848,-1.432018,-0.969286,1.730398,0.473319,-0.073778,-0.610514,-0.422951,-0.558867,-0.517813,0.743403,0.266725,1.764264,41.507000,22.048141,13.531981,0.267728,1.806442,0.048385,0.000000,0.000000,0.000000,0.000000,0.000000,0.000000
13166272.000000,2.302369,-1.001430,-1.851269,-1.432567,-0.969812,1.731117,0.473593,-0.077421,-0.600504,-0.423016,-0.552525,-0.527627,0.737750,0.264996,2.133222,41.459393,22.194931,13.484373,0.231107,1.890670,0.028243,0.000000,0.000000,0.000000,0.000000,0.000000,0.000000
13166273.000000,2.302288,-1.002028,-1.851696,-1.433101,-0.970350,1.731829,0.473853,-0.077360,-0.596690,-0.425932,-0.550898,-0.538772,0.723570,0.265743,2.529951,41.312603,22.440903,13.385191,0.381254,1.981307,0.081344,0.000000,0.000000,0.000000,0.000000,0.000000,0.000000
13166274.000000,2.302216,-1.002630,-1.852137,-1.433637,-0.970885,1.732541,0.474124,-0.076544,-0.595269,-0.428506,-0.544245,-0.531236,0.719681,0.265051,2.752119,41.165813,22.710678,13.210630,0.405057,2.060043,0.054794,0.000000,0.000000,0.000000,0.000000,0.000000,0.000000
13166275.000000,2.302144,-1.003210,-1.852577,-1.434150,-0.971414,1.733276,0.474397,-0.071889,-0.595256,-0.431603,-0.535224,-0.529281,0.721097,0.269654,2.926679,40.943645,23.028061,12.913084,0.494779,2.007858,0.034652,0.000000,0.000000,0.000000,0.000000,0.000000,0.000000
13166276.000000,2.302076,-1.003791,-1.853014,-1.434666,-0.971962,1.734014,0.474668,-0.068425,-0.589038,-0.433203,-0.532064,-0.531014,0.721816,0.268273,3.073469,40.650066,23.325607,12.619505,0.589994,1.955673,0.028243,0.000000,0.000000,0.000000,0.000000,0.000000,0.000000
13166277.000000,2.302008,-1.004385,-1.853464,-1.435172,-0.972489,1.734733,0.474938,-0.069243,-0.592784,-0.435634,-0.521601,-0.536125,0.724857,0.263822,3.224226,40.578655,23.718369,12.147398,0.524076,1.962081,0.074935,0.000000,0.000000,0.000000,0.000000,0.000000,0.000000
13166278.000000,2.301943,-1.004974,-1.853905,-1.435661,-0.973026,1.735457,0.475222,-0.068059,-0.590149,-0.435261,-0.517617,-0.540077,0.717760,0.266781,3.323408,40.455669,23.988144,11.703062,0.566190,2.060043,-0.017533,0.000000,0.000000,0.000000,0.000000,0.000000,0.000000
13166281.000000,2.301774,-1.006717,-1.855254,-1.437078,-0.974652,1.737639,0.476025,-0.058783,-0.579712,-0.443632,-0.485084,-0.546358,0.723164,0.267085,3.371015,39.793133,24.944260,10.370054,0.566190,2.053634,0.028243,0.000000,0.000000,0.000000,0.000000,0.000000,0.000000
13166282.000000,2.301722,-1.007280,-1.855715,-1.437541,-0.975195,1.738355,0.476293,-0.055641,-0.579304,-0.441118,-0.477943,-0.549791,0.721184,0.264393,3.347211,39.451946,25.261642,10.020933,0.578092,2.072860,0.034652,0.000000,0.000000,0.000000,0.000000,0.000000,0.000000
13166283.000000,2.301671,-1.007855,-1.856168,-1.438002,-0.975740,1.739075,0.476563,-0.053077,-0.576374,-0.448479,-0.477123,-0.553228,0.713509,0.265729,3.299604,39.229778,25.507614,9.874144,0.559781,2.066451,-0.011124,0.000000,0.000000,0.000000,0.000000,0.000000,0.000000
13166284.000000,2.301623,-1.008444,-1.856611,-1.438452,-0.976304,1.739785,0.476817,-0.051572,-0.575319,-0.448143,-0.468260,-0.549388,0.729101,0.262477,3.271833,39.182171,25.654404,9.651976,0.739225,2.060043,0.048385,0.000000,0.000000,0.000000,0.000000,0.000000,0.000000
13166285.000000,2.301583,-1.009020,-1.857073,-1.438907,-0.976850,1.740496,0.477089,-0.048432,-0.576445,-0.450691,-0.474688,-0.547570,0.715190,0.264693,3.148847,39.130596,25.924179,9.576597,0.715421,2.104903,-0.004716,0.000000,0.000000,0.000000,0.000000,0.000000,0.000000
13166286.000000,2.301544,-1.009599,-1.857516,-1.439357,-0.977406,1.741217,0.477349,-0.046989,-0.578313,-0.446455,-0.469431,-0.541695,0.709997,0.265714,3.049665,39.205975,26.047165,9.528990,0.763029,2.131454,0.034652,0.000000,0.000000,0.000000,0.000000,0.000000,0.000000
13166287.000000,2.301506,-1.010175,-1.857960,-1.439816,-0.977968,1.741917,0.477614,-0.043228,-0.575538,-0.443103,-0.467748,-0.544566,0.711594,0.263076,2.978254,39.281353,26.170151,9.528990,0.805143,2.150680,0.054794,0.000000,0.000000,0.000000,0.000000,0.000000,0.000000
13166288.000000,2.301476,-1.010773,-1.858409,-1.440275,-0.978497,1.742640,0.477884,-0.037807,-0.581037,-0.441975,-0.459766,-0.538736,0.711782,0.265675,2.803693,39.475750,26.316940,9.774961,0.698026,2.144271,-0.017533,0.000000,0.000000,0.000000,0.000000,0.000000,0.000000
13166289.000000,2.301449,-1.011359,-1.858855,-1.440727,-0.979046,1.743358,0.478144,-0.033699,-0.581412,-0.447648,-0.455741,-0.545405,0.712269,0.268752,2.605329,39.547161,26.463730,9.897947,0.715421,2.163497,0.001693,0.000000,0.000000,0.000000,0.000000,0.000000,0.000000
13166290.000000,2.301422,-1.011928,-1.859286,-1.441185,-0.979598,1.744061,0.478403,-0.031937,-0.574102,-0.441026,-0.463622,-0.554636,0.703984,0.264264,2.454572,39.523357,26.344711,10.120115,0.733732,2.169906,0.041976,0.000000,0.000000,0.000000,0.000000,0.000000,0.000000
13166291.000000,2.301401,-1.012526,-1.859716,-1.441643,-0.980127,1.744778,0.478665,-0.029086,-0.579703,-0.436857,-0.465542,-0.549884,0.705765,0.271296,2.232404,39.721722,26.316940,10.417662,0.649503,2.169906,0.054794,0.000000,0.000000,0.000000,0.000000,0.000000,0.000000
13166292.000000,2.301382,-1.013122,-1.860142,-1.442106,-0.980684,1.745481,0.478929,-0.025145,-0.584442,-0.433587,-0.467387,-0.547540,0.703619,0.265785,2.061811,39.939922,26.146347,10.715208,0.649503,2.196456,0.001693,0.000000,0.000000,0.000000,0.000000,0.000000,0.000000
13166293.000000,2.301372,-1.013703,-1.860569,-1.442566,-0.981219,1.746186,0.479179,-0.019167,-0.584441,-0.431097,-0.467792,-0.545367,0.700499,0.256938,1.764264,40.062908,25.951950,11.012754,0.632108,2.248641,0.074935,0.000000,0.000000,0.000000,0.000000,0.000000,0.000000
13166294.000000,2.301367,-1.014300,-1.860986,-1.443032,-0.981770,1.746902,0.479445,-0.014205,-0.582350,-0.424511,-0.469527,-0.544378,0.706273,0.260824,1.442914,40.209698,25.801193,11.207151,0.620206,2.196456,0.009017,0.000000,0.000000,0.000000,0.000000,0.000000,0.000000
13166295.000000,2.301358,-1.014871,-1.861398,-1.443506,-0.982313,1.747613,0.479710,-0.013590,-0.580996,-0.418319,-0.469741,-0.543724,0.710976,0.259788,1.244550,40.086712,25.507614,11.457090,0.685209,2.131454,0.009017,0.000000,0.000000,0.000000,0.000000,0.000000,0.000000
13166296.000000,2.301363,-1.015458,-1.861809,-1.443979,-0.982861,1.748322,0.479974,-0.009478,-0.587261,-0.415407,-0.470878,-0.548546,0.709749,0.259153,0.895429,39.987530,25.337021,11.726866,0.667814,2.144271,0.041976,0.000000,0.000000,0.000000,0.000000,0.000000,0.000000
13166297.000000,2.301363,-1.016033,-1.862224,-1.444461,-0.983412,1.749017,0.480231,-0.006550,-0.579995,-0.411268,-0.474978,-0.542583,0.701470,0.254642,0.673261,39.721722,25.114853,11.976805,0.673307,2.163497,0.048385,0.000000,0.000000,0.000000,0.000000,0.000000,0.000000
13166298.000000,2.301376,-1.016609,-1.862625,-1.444930,-0.983964,1.749732,0.480490,0.001673,-0.577833,-0.406173,-0.467832,-0.555431,0.701808,0.255532,0.328107,39.547161,24.797470,12.072020,0.679716,2.131454,0.054794,0.000000,0.000000,0.000000,0.000000,0.000000,0.000000
13166299.000000,2.301385,-1.017191,-1.863019,-1.445410,-0.984500,1.750451,0.480757,0.002705,-0.580807,-0.401374,-0.476467,-0.551531,0.702581,0.266984,0.054365,39.400372,24.551498,12.298155,0.632108,2.085677,0.001693,0.000000,0.000000,0.000000,0.000000,0.000000,0.000000
13166300.000000,2.301395,-1.017767,-1.863412,-1.445891,-0.985043,1.751148,0.481012,0.002848,-0.581652,-0.396101,-0.476274,-0.551846,0.700372,0.262724,-0.191607,39.400372,24.281723,12.444944,0.589994,2.118636,0.048385,0.000000,0.000000,0.000000,0.000000,0.000000,0.000000
13166301.000000,2.301404,-1.018342,-1.863800,-1.446365,-0.985585,1.751852,0.481269,0.005201,-0.576053,-0.397982,-0.478741,-0.549850,0.702245,0.259733,-0.389971,39.229778,24.059555,12.567930,0.571683,2.144271,0.041976,0.000000,0.000000,0.000000,0.000000,0.000000,0.000000
13166302.000000,2.301415,-1.018934,-1.864178,-1.446842,-0.986128,1.752559,0.481513,0.008218,-0.577430,-0.390634,-0.478886,-0.537000,0.717407,0.255226,-0.635943,39.229778,23.765976,12.714720,0.601896,2.098495,0.054794,0.000000,0.000000,0.000000,0.000000,0.000000,0.000000
13166303.000000,2.301429,-1.019505,-1.864567,-1.447315,-0.986669,1.753276,0.481768,0.010572,-0.581988,-0.388723,-0.478480,-0.537386,0.714338,0.257048,-0.885882,39.158367,23.642990,12.813902,0.547880,2.039901,0.048385,0.000000,0.000000,0.000000,0.000000,0.000000,0.000000
13166304.000000,2.301440,-1.020071,-1.864941,-1.447798,-0.987226,1.753983,0.482027,0.009917,-0.569816,-0.385855,-0.478431,-0.538440,0.700102,0.256462,-1.032672,38.960003,23.448593,12.988462,0.584501,2.033492,0.061202,0.000000,0.000000,0.000000,0.000000,0.000000,0.000000
13166305.000000,2.301455,-1.020631,-1.865319,-1.448289,-0.987792,1.754682,0.482283,0.012767,-0.567431,-0.382003,-0.486548,-0.545998,0.701420,0.258172,-1.183428,38.690228,23.202621,13.163023,0.589994,2.125045,0.028243,0.000000,0.000000,0.000000,0.000000,0.000000,0.000000
13166306.000000,2.301473,-1.021205,-1.865702,-1.448776,-0.988340,1.755394,0.482544,0.014584,-0.568936,-0.380619,-0.485986,-0.549674,0.703783,0.260217,-1.306414,38.595013,23.127243,13.385191,0.554288,2.150680,-0.004716,0.000000,0.000000,0.000000,0.000000,0.000000,0.000000
13166307.000000,2.301485,-1.021776,-1.866069,-1.449255,-0.988904,1.756115,0.482791,0.013235,-0.568832,-0.376627,-0.484727,-0.553808,0.700172,0.253634,-1.306414,38.448223,22.932846,13.484373,0.578092,2.092086,0.009017,0.000000,0.000000,0.000000,0.000000,0.000000,0.000000
13166308.000000,2.301498,-1.022337,-1.866448,-1.449739,-0.989464,1.756816,0.483048,0.012320,-0.566594,-0.379245,-0.483494,-0.563142,0.708593,0.253446,-1.306414,38.249859,22.881271,13.654966,0.535978,2.098495,0.028243,0.000000,0.000000,0.000000,0.000000,0.000000,0.000000
13166309.000000,2.301514,-1.022904,-1.866812,-1.450215,-0.990013,1.757521,0.483302,0.013581,-0.563914,-0.376579,-0.477263,-0.562849,0.703296,0.252616,-1.381793,38.103069,22.611496,13.877134,0.506681,2.144271,0.067611,0.000000,0.000000,0.000000,0.000000,0.000000,0.000000
13166310.000000,2.301527,-1.023480,-1.867183,-1.450689,-0.990578,1.758221,0.483559,0.014136,-0.569991,-0.375035,-0.475206,-0.558416,0.701985,0.256230,-1.429400,38.007854,22.464706,13.976316,0.512174,2.144271,0.021835,0.000000,0.000000,0.000000,0.000000,0.000000,0.000000
13166311.000000,2.301539,-1.024046,-1.867551,-1.451145,-0.991132,1.758917,0.483810,0.015936,-0.566803,-0.373243,-0.464678,-0.561596,0.697049,0.252483,-1.405596,37.932476,22.317917,13.976316,0.530485,2.125045,0.021835,0.000000,0.000000,0.000000,0.000000,0.000000,0.000000
13166312.000000,2.301552,-1.024624,-1.867910,-1.451609,-0.991704,1.759624,0.484049,0.014946,-0.569941,-0.371491,-0.462711,-0.563463,0.698084,0.247701,-1.405596,37.932476,22.147324,14.000120,0.571683,2.098495,0.087753,0.000000,0.000000,0.000000,0.000000,0.000000,0.000000
13166313.000000,2.301566,-1.025200,-1.868279,-1.452072,-0.992273,1.760318,0.484311,0.017096,-0.570201,-0.367160,-0.463807,-0.563374,0.700175,0.254065,-1.381793,38.055462,22.024338,14.051695,0.559781,2.047225,0.021835,0.000000,0.000000,0.000000,0.000000,0.000000,0.000000
13166314.000000,2.301570,-1.025776,-1.868639,-1.452518,-0.992836,1.761024,0.484563,0.013045,-0.568201,-0.361074,-0.452809,-0.563184,0.699841,0.254364,-1.254840,38.130840,21.877548,13.976316,0.530485,1.988631,0.067611,0.000000,0.000000,0.000000,0.000000,0.000000,0.000000
13166315.000000,2.301573,-1.026366,-1.869001,-1.452971,-0.993404,1.761714,0.484816,0.009386,-0.573401,-0.360123,-0.453931,-0.558795,0.705533,0.257128,-1.108050,38.301434,21.754562,13.976316,0.542386,1.962081,0.061202,0.000000,0.000000,0.000000,0.000000,0.000000,0.000000
13166316.000000,2.301579,-1.026936,-1.869358,-1.453412,-0.993966,1.762416,0.485073,0.008178,-0.575315,-0.357703,-0.441370,-0.559002,0.699935,0.254152,-1.008868,38.277630,21.556198,13.976316,0.506681,1.930038,0.028243,0.000000,0.000000,0.000000,0.000000,0.000000,0.000000
13166317.000000,2.301583,-1.027504,-1.869718,-1.453861,-0.994531,1.763112,0.485313,0.007352,-0.575314,-0.360894,-0.444127,-0.555113,0.697683,0.256978,-0.909686,38.154644,21.457016,14.099302,0.476469,1.968490,0.094161,0.000000,0.000000,0.000000,0.000000,0.000000,0.000000
13166318.000000,2.301590,-1.028066,-1.870080,-1.454289,-0.995107,1.763788,0.485576,0.007247,-0.572657,-0.360795,-0.436650,-0.561833,0.686928,0.259798,-0.834307,37.984051,21.262619,14.027891,0.470060,2.007858,0.021835,0.000000,0.000000,0.000000,0.000000,0.000000,0.000000
13166319.000000,2.301596,-1.028636,-1.870433,-1.454716,-0.995669,1.764479,0.485827,0.006319,-0.572422,-0.359990,-0.434629,-0.559995,0.681967,0.250096,-0.711321,37.738079,21.139633,14.027891,0.405057,2.060043,0.054794,0.000000,0.000000,0.000000,0.000000,0.000000,0.000000
13166320.000000,2.301602,-1.029199,-1.870785,-1.455143,-0.996243,1.765172,0.486081,0.006273,-0.567590,-0.357728,-0.429935,-0.563114,0.700052,0.248146,-0.612139,37.420696,20.945236,14.099302,0.446256,1.962081,0.061202,0.000000,0.000000,0.000000,0.000000,0.000000,0.000000
13166321.000000,2.301613,-1.029754,-1.871150,-1.455560,-0.996809,1.765872,0.486329,0.007966,-0.564303,-0.358565,-0.427987,-0.563574,0.697039,0.245179,-0.588336,37.174725,20.893661,14.127073,0.434354,1.909896,0.081344,0.000000,0.000000,0.000000,0.000000,0.000000,0.000000
13166322.000000,2.301612,-1.030326,-1.871504,-1.455974,-0.997384,1.766557,0.486583,0.005040,-0.562736,-0.357615,-0.419562,-0.566742,0.699032,0.253967,-0.389971,36.952557,20.746872,14.099302,0.458158,1.974899,0.041976,0.000000,0.000000,0.000000,0.000000,0.000000,0.000000
13166323.000000,2.301627,-1.030897,-1.871868,-1.456386,-0.997966,1.767235,0.486834,0.008053,-0.565280,-0.356269,-0.417463,-0.568660,0.695968,0.254236,-0.413775,36.805767,20.723068,14.000120,0.500272,2.053634,0.061202,0.000000,0.000000,0.000000,0.000000,0.000000,0.000000
13166324.000000,2.301640,-1.031460,-1.872229,-1.456786,-0.998532,1.767934,0.487089,0.009691,-0.565474,-0.355325,-0.408878,-0.568903,0.697459,0.255366,-0.413775,36.635174,20.699265,13.904905,0.524076,2.001449,0.074935,0.000000,0.000000,0.000000,0.000000,0.000000,0.000000
13166325.000000,2.301649,-1.032028,-1.872579,-1.457187,-0.999103,1.768628,0.487349,0.009700,-0.559194,-0.351654,-0.404374,-0.564595,0.690632,0.259119,-0.366168,36.389202,20.552475,13.777952,0.464567,1.949264,0.061202,0.000000,0.000000,0.000000,0.000000,0.000000,0.000000
13166326.000000,2.301659,-1.032585,-1.872935,-1.457588,-0.999669,1.769318,0.487596,0.009032,-0.558568,-0.354160,-0.399136,-0.569640,0.689923,0.253286,-0.290789,36.095623,20.401718,13.678770,0.398649,1.884261,0.074935,0.000000,0.000000,0.000000,0.000000,0.000000,0.000000
13166327.000000,2.301672,-1.033153,-1.873292,-1.457974,-1.000241,1.770006,0.487851,0.009597,-0.564231,-0.354287,-0.393180,-0.567673,0.685972,0.252778,-0.266986,35.901226,20.254929,13.484373,0.351041,1.884261,0.028243,0.000000,0.000000,0.000000,0.000000,0.000000,0.000000
13166328.000000,2.301683,-1.033721,-1.873649,-1.458356,-1.000817,1.770689,0.488098,0.011708,-0.559200,-0.354883,-0.386932,-0.558376,0.684277,0.248015,-0.191607,35.730633,20.131943,13.262205,0.410551,1.877853,0.074935,0.000000,0.000000,0.000000,0.000000,0.000000,0.000000
13166329.000000,2.301697,-1.034294,-1.874004,-1.458728,-1.001390,1.771367,0.488350,0.011566,-0.566788,-0.356421,-0.384166,-0.560335,0.681995,0.251698,-0.167803,35.706829,19.913742,13.036070,0.405057,1.916305,0.061202,0.000000,0.000000,0.000000,0.000000,0.000000,0.000000
13166330.000000,2.301710,-1.034864,-1.874359,-1.459099,-1.001968,1.772067,0.488596,0.013390,-0.570200,-0.356149,-0.377767,-0.561939,0.682998,0.257130,-0.092425,35.583843,19.766953,12.841673,0.434354,1.884261,0.067611,0.000000,0.000000,0.000000,0.000000,0.000000,0.000000
13166331.000000,2.301726,-1.035420,-1.874724,-1.459475,-1.002553,1.772759,0.488837,0.015584,-0.563954,-0.359804,-0.380694,-0.566586,0.694679,0.247643,-0.044818,35.437054,19.691574,12.690916,0.410551,1.806442,0.100570,0.000000,0.000000,0.000000,0.000000,0.000000,0.000000
13166332.000000,2.301739,-1.035989,-1.875082,-1.459830,-1.003130,1.773463,0.489089,0.014062,-0.564751,-0.366256,-0.367170,-0.566476,0.694512,0.248066,0.006757,35.266460,19.568588,12.421141,0.410551,1.656295,0.061202,0.000000,0.000000,0.000000,0.000000,0.000000,0.000000
13166333.000000,2.301757,-1.036571,-1.875437,-1.460189,-1.003715,1.774146,0.489335,0.017190,-0.567693,-0.360075,-0.364685,-0.575292,0.695194,0.250560,0.006757,35.191082,19.421799,12.246580,0.416959,1.662704,0.087753,0.000000,0.000000,0.000000,0.000000,0.000000,0.000000
13166334.000000,2.301773,-1.037134,-1.875799,-1.460538,-1.004288,1.774832,0.489590,0.018510,-0.569003,-0.355933,-0.365152,-0.571025,0.687222,0.248669,0.054365,35.044292,19.298813,12.024412,0.362943,1.767074,0.061202,0.000000,0.000000,0.000000,0.000000,0.000000,0.000000
13166335.000000,2.301793,-1.037697,-1.876153,-1.460890,-1.004874,1.775522,0.489842,0.016857,-0.563205,-0.355692,-0.360575,-0.577727,0.682271,0.254067,0.078168,34.826092,19.152023,11.901426,0.332731,1.844894,0.081344,0.000000,0.000000,0.000000,0.000000,0.000000,0.000000
13166336.000000,2.301809,-1.038263,-1.876518,-1.461237,-1.005459,1.776206,0.490095,0.017969,-0.574362,-0.353533,-0.356663,-0.575810,0.683675,0.250971,0.129743,34.703106,19.076645,11.679258,0.327238,1.812850,0.061202,0.000000,0.000000,0.000000,0.000000,0.000000,0.000000
13166337.000000,2.301827,-1.038837,-1.876885,-1.461574,-1.006031,1.776907,0.490347,0.016115,-0.578455,-0.357135,-0.344416,-0.576962,0.688842,0.251150,0.153547,34.750713,19.076645,11.504698,0.315336,1.741439,0.094161,0.000000,0.000000,0.000000,0.000000,0.000000,0.000000
13166338.000000,2.301844,-1.039402,-1.877242,-1.461909,-1.006618,1.777589,0.490606,0.017407,-0.575567,-0.358724,-0.339691,-0.574692,0.703820,0.250585,0.205121,34.627728,19.029037,11.282530,0.320829,1.682845,0.054794,0.000000,0.000000,0.000000,0.000000,0.000000,0.000000
13166339.000000,2.301861,-1.039965,-1.877609,-1.462234,-1.007198,1.778276,0.490860,0.017956,-0.567606,-0.358999,-0.336159,-0.582874,0.694160,0.253463,0.276533,34.457134,18.981430,11.084166,0.327238,1.637069,0.054794,0.000000,0.000000,0.000000,0.000000,0.000000,0.000000
13166340.000000,2.301885,-1.040525,-1.877978,-1.462553,-1.007796,1.778964,0.491110,0.020285,-0.563980,-0.362218,-0.331873,-0.582567,0.695713,0.256502,0.252729,34.187359,19.029037,10.786619,0.369352,1.584884,0.100570,0.000000,0.000000,0.000000,0.000000,0.000000,0.000000
13166341.000000,2.301904,-1.041097,-1.878342,-1.462872,-1.008384,1.779638,0.491361,0.020286,-0.565835,-0.358194,-0.323785,-0.583272,0.687191,0.253747,0.304304,33.992962,18.953659,10.516844,0.374845,1.584884,0.067611,0.000000,0.000000,0.000000,0.000000,0.000000,0.000000
13166342.000000,2.301928,-1.041660,-1.878712,-1.463174,-1.008976,1.780307,0.491616,0.021680,-0.564745,-0.360353,-0.319902,-0.584492,0.680292,0.254174,0.304304,33.770794,18.953659,10.243101,0.381254,1.702071,0.100570,0.000000,0.000000,0.000000,0.000000,0.000000,0.000000
13166343.000000,2.301954,-1.042227,-1.879074,-1.463482,-1.009568,1.780978,0.491869,0.022727,-0.563236,-0.356060,-0.318199,-0.586436,0.674535,0.257793,0.304304,33.552593,18.858444,10.048704,0.332731,1.735030,0.087753,0.000000,0.000000,0.000000,0.000000,0.000000,0.000000
13166344.000000,2.301981,-1.042790,-1.879451,-1.463786,-1.010165,1.781648,0.492133,0.020848,-0.567778,-0.358952,-0.311678,-0.592185,0.674981,0.258471,0.276533,33.405804,18.906052,9.874144,0.267728,1.754256,0.054794,0.000000,0.000000,0.000000,0.000000,0.000000,0.000000
13166345.000000,2.302005,-1.043365,-1.879823,-1.464070,-1.010753,1.782331,0.492386,0.021230,-0.564800,-0.361067,-0.306107,-0.591366,0.668656,0.252368,0.304304,33.382000,18.929855,9.552794,0.291532,1.649886,0.107894,0.000000,0.000000,0.000000,0.000000,0.000000,0.000000
13166346.000000,2.302034,-1.043950,-1.880206,-1.464369,-1.011359,1.783001,0.492644,0.025606,-0.568609,-0.365469,-0.304916,-0.590153,0.669094,0.257154,0.276533,33.354229,19.076645,9.453611,0.332731,1.578475,0.034652,0.000000,0.000000,0.000000,0.000000,0.000000,0.000000
13166347.000000,2.302060,-1.044527,-1.880584,-1.464649,-1.011951,1.783667,0.492897,0.025240,-0.578790,-0.369743,-0.290871,-0.591925,0.667656,0.255962,0.276533,33.330425,19.152023,9.255247,0.410551,1.559249,0.081344,0.000000,0.000000,0.000000,0.000000,0.000000,0.000000
13166348.000000,2.302091,-1.045118,-1.880968,-1.464938,-1.012561,1.784346,0.493151,0.028330,-0.581263,-0.378185,-0.294290,-0.596165,0.667098,0.257392,0.276533,33.477215,19.298813,9.156065,0.470060,1.532699,0.041976,0.000000,0.000000,0.000000,0.000000,0.000000,0.000000
13166349.000000,2.302127,-1.045707,-1.881362,-1.465224,-1.013158,1.785007,0.493401,0.029676,-0.582835,-0.382082,-0.292837,-0.594025,0.667004,0.252477,0.177350,33.552593,19.397995,9.033079,0.464567,1.494247,0.067611,0.000000,0.000000,0.000000,0.000000,0.000000,0.000000
13166350.000000,2.302154,-1.046298,-1.881734,-1.465506,-1.013765,1.785665,0.493653,0.030340,-0.583967,-0.384393,-0.286739,-0.595673,0.657988,0.250006,0.228925,33.528790,19.374191,9.009275,0.476469,1.532699,0.074935,0.000000,0.000000,0.000000,0.000000,0.000000,0.000000
13166351.000000,2.302195,-1.046905,-1.882119,-1.465796,-1.014360,1.786311,0.493899,0.034676,-0.594327,-0.385568,-0.289800,-0.587765,0.671447,0.248594,0.129743,33.770794,19.374191,9.056883,0.369352,1.597701,0.061202,0.000000,0.000000,0.000000,0.000000,0.000000,0.000000
13166352.000000,2.302224,-1.047496,-1.882503,-1.466071,-1.014971,1.786967,0.494153,0.033375,-0.593260,-0.381884,-0.290500,-0.600971,0.667067,0.245024,0.205121,33.869976,19.322617,9.009275,0.308927,1.649886,0.087753,0.000000,0.000000,0.000000,0.000000,0.000000,0.000000
13166353.000000,2.302259,-1.048106,-1.882890,-1.466357,-1.015567,1.787628,0.494411,0.034448,-0.598352,-0.385394,-0.288047,-0.597276,0.664672,0.257528,0.205121,34.016766,19.374191,9.156065,0.303434,1.682845,0.067611,0.000000,0.000000,0.000000,0.000000,0.000000,0.000000
13166354.000000,2.302293,-1.048702,-1.883282,-1.466637,-1.016174,1.788280,0.494663,0.034480,-0.610661,-0.384973,-0.286647,-0.597840,0.661284,0.257682,0.228925,34.115948,19.469406,9.132261,0.303434,1.630660,0.061202,0.000000,0.000000,0.000000,0.000000,0.000000,0.000000
13166355.000000,2.302325,-1.049311,-1.883663,-1.466919,-1.016778,1.788946,0.494915,0.033699,-0.616569,-0.385043,-0.288417,-0.597409,0.661778,0.249859,0.304304,34.187359,19.421799,9.255247,0.405057,1.578475,0.067611,0.000000,0.000000,0.000000,0.000000,0.000000,0.000000
13166356.000000,2.302356,-1.049928,-1.884051,-1.467200,-1.017381,1.789599,0.495158,0.035835,-0.609421,-0.386286,-0.285926,-0.584590,0.662821,0.246122,0.403486,34.310345,19.544785,9.354429,0.398649,1.559249,0.107894,0.000000,0.000000,0.000000,0.000000,0.000000,0.000000
13166357.000000,2.302386,-1.050553,-1.884439,-1.467486,-1.017973,1.790263,0.495416,0.033843,-0.609575,-0.386196,-0.291036,-0.583664,0.659546,0.246099,0.526471,34.651531,19.544785,9.453611,0.494779,1.507064,0.054794,0.000000,0.000000,0.000000,0.000000,0.000000,0.000000
13166358.000000,2.302424,-1.051184,-1.884824,-1.467772,-1.018570,1.790916,0.495661,0.035478,-0.617397,-0.384756,-0.289192,-0.584354,0.648346,0.246446,0.526471,34.996685,19.568588,9.528990,0.446256,1.519881,0.100570,0.000000,0.000000,0.000000,0.000000,0.000000,0.000000
13166359.000000,2.302457,-1.051821,-1.885210,-1.468055,-1.019161,1.791565,0.495906,0.035393,-0.624461,-0.382798,-0.288268,-0.577295,0.645160,0.244790,0.574079,35.413250,19.568588,9.600401,0.386747,1.578475,0.107894,0.000000,0.000000,0.000000,0.000000,0.000000,0.000000
13166360.000000,2.302493,-1.052443,-1.885590,-1.468330,-1.019754,1.792218,0.496153,0.035169,-0.626062,-0.377961,-0.284490,-0.581689,0.639539,0.245548,0.625654,35.631451,19.421799,9.552794,0.308927,1.584884,0.061202,0.000000,0.000000,0.000000,0.000000,0.000000,0.000000
13166361.000000,2.302537,-1.053076,-1.885981,-1.468607,-1.020340,1.792871,0.496393,0.037507,-0.629124,-0.380079,-0.281854,-0.572123,0.639119,0.243683,0.574079,35.754436,19.497177,9.501219,0.183500,1.605026,0.094161,0.000000,0.000000,0.000000,0.000000,0.000000,0.000000
13166362.000000,2.302578,-1.053696,-1.886376,-1.468879,-1.020955,1.793509,0.496640,0.038416,-0.628518,-0.380664,-0.283371,-0.579526,0.643111,0.242917,0.550275,35.853619,19.445602,9.406004,0.207303,1.656295,0.067611,0.000000,0.000000,0.000000,0.000000,0.000000,0.000000
13166363.000000,2.302619,-1.054324,-1.886774,-1.469156,-1.021551,1.794163,0.496889,0.040950,-0.625238,-0.386126,-0.280321,-0.580668,0.640758,0.244563,0.574079,35.853619,19.568588,9.330626,0.195402,1.670028,0.061202,0.000000,0.000000,0.000000,0.000000,0.000000,0.000000
13166364.000000,2.302659,-1.054950,-1.887174,-1.469440,-1.022164,1.794816,0.497137,0.039187,-0.616993,-0.390725,-0.280192,-0.587579,0.648925,0.243826,0.601850,35.778240,19.592392,9.330626,0.243009,1.611434,0.061202,0.000000,0.000000,0.000000,0.000000,0.000000,0.000000
13166365.000000,2.302698,-1.055566,-1.887573,-1.469716,-1.022764,1.795486,0.497375,0.036879,-0.621428,-0.389864,-0.276040,-0.586048,0.653097,0.235040,0.673261,35.631451,19.568588,9.330626,0.339139,1.461288,0.140853,0.000000,0.000000,0.000000,0.000000,0.000000,0.000000
13166366.000000,2.302744,-1.056189,-1.887974,-1.470000,-1.023371,1.796143,0.497633,0.040582,-0.621602,-0.390987,-0.277275,-0.586188,0.656150,0.248180,0.649457,35.460857,19.616196,9.330626,0.344633,1.422836,0.048385,0.000000,0.000000,0.000000,0.000000,0.000000,0.000000
13166367.000000,2.302787,-1.056794,-1.888381,-1.470276,-1.023978,1.796779,0.497879,0.042639,-0.618239,-0.391384,-0.277085,-0.592038,0.650638,0.245680,0.673261,35.214886,19.691574,9.255247,0.374845,1.481429,0.074935,0.000000,0.000000,0.000000,0.000000,0.000000,0.000000
13166368.000000,2.302828,-1.057420,-1.888771,-1.470548,-1.024588,1.797412,0.498125,0.043256,-0.622616,-0.399087,-0.273819,-0.600529,0.642081,0.244822,0.724836,35.167278,19.616196,9.207640,0.422452,1.597701,0.074935,0.000000,0.000000,0.000000,0.000000,0.000000,0.000000
13166369.000000,2.302875,-1.058043,-1.889179,-1.470824,-1.025183,1.798032,0.498367,0.045700,-0.615302,-0.401699,-0.273593,-0.591782,0.646352,0.243948,0.697065,34.921307,19.691574,9.132261,0.339139,1.656295,0.074935,0.000000,0.000000,0.000000,0.000000,0.000000,0.000000
13166370.000000,2.302924,-1.058651,-1.889594,-1.471091,-1.025780,1.798673,0.498613,0.047782,-0.617635,-0.404713,-0.275429,-0.593173,0.651310,0.237700,0.673261,34.651531,19.838364,9.084654,0.279630,1.630660,0.081344,0.000000,0.000000,0.000000,0.000000,0.000000,0.000000
13166371.000000,2.302965,-1.059274,-1.889999,-1.471361,-1.026394,1.799313,0.498862,0.045620,-0.619355,-0.404275,-0.277000,-0.593370,0.646521,0.247687,0.796247,34.480938,19.985153,9.084654,0.308927,1.578475,0.048385,0.000000,0.000000,0.000000,0.000000,0.000000,0.000000
13166372.000000,2.303010,-1.059883,-1.890415,-1.471634,-1.027006,1.799938,0.499103,0.045906,-0.624978,-0.408212,-0.275671,-0.597364,0.640131,0.243345,0.847822,34.310345,20.207321,9.084654,0.249418,1.591293,0.107894,0.000000,0.000000,0.000000,0.000000,0.000000,0.000000
13166373.000000,2.303051,-1.060511,-1.890831,-1.471899,-1.027612,1.800554,0.499358,0.040872,-0.625575,-0.408912,-0.266685,-0.594815,0.631020,0.246079,0.970807,34.238934,20.330307,9.084654,0.279630,1.695663,0.054794,0.000000,0.000000,0.000000,0.000000,0.000000,0.000000
13166374.000000,2.303098,-1.061144,-1.891244,-1.472168,-1.028232,1.801170,0.499600,0.042328,-0.631835,-0.409940,-0.267038,-0.602575,0.630317,0.243665,1.022382,34.187359,20.477097,9.132261,0.344633,1.800033,0.087753,0.000000,0.000000,0.000000,0.000000,0.000000,0.000000
13166375.000000,2.303144,-1.061769,-1.891663,-1.472433,-1.028849,1.801800,0.499851,0.040170,-0.638478,-0.413196,-0.268700,-0.609035,0.625565,0.238294,1.069990,34.262737,20.623886,9.132261,0.315336,1.760665,0.087753,0.000000,0.000000,0.000000,0.000000,0.000000,0.000000
13166376.000000,2.303180,-1.062411,-1.892070,-1.472702,-1.029468,1.802433,0.500104,0.038857,-0.640297,-0.413591,-0.268504,-0.618669,0.625413,0.248846,1.244550,34.433331,20.647690,9.179869,0.344633,1.727706,0.034652,0.000000,0.000000,0.000000,0.000000,0.000000,0.000000
13166377.000000,2.303220,-1.063050,-1.892499,-1.472969,-1.030088,1.803042,0.500345,0.038750,-0.634972,-0.418396,-0.266109,-0.615761,0.619081,0.244103,1.391340,34.532513,20.869858,9.231443,0.369352,1.760665,0.100570,0.000000,0.000000,0.000000,0.000000,0.000000,0.000000
13166378.000000,2.303265,-1.063679,-1.892933,-1.473238,-1.030707,1.803671,0.500593,0.040249,-0.635989,-0.420921,-0.264484,-0.621268,0.616527,0.245368,1.466718,34.504742,21.040451,9.306822,0.374845,1.741439,0.048385,0.000000,0.000000,0.000000,0.000000,0.000000,0.000000
13166379.000000,2.303309,-1.064318,-1.893347,-1.473499,-1.031336,1.804301,0.500830,0.041476,-0.639965,-0.417401,-0.264971,-0.620344,0.615903,0.246709,1.542096,34.580120,21.115829,9.279051,0.386747,1.682845,0.081344,0.000000,0.000000,0.000000,0.000000,0.000000,0.000000
13166380.000000,2.303353,-1.064942,-1.893768,-1.473764,-1.031974,1.804916,0.501069,0.040837,-0.638198,-0.419889,-0.266373,-0.622271,0.616402,0.240279,1.665082,34.627728,21.163437,9.279051,0.416959,1.708480,0.067611,0.000000,0.000000,0.000000,0.000000,0.000000,0.000000
13166381.000000,2.303401,-1.065571,-1.894187,-1.474040,-1.032584,1.805521,0.501304,0.042796,-0.637418,-0.423230,-0.272223,-0.614805,0.607882,0.239612,1.712690,34.603924,21.238815,9.406004,0.351041,1.819259,0.100570,0.000000,0.000000,0.000000,0.000000,0.000000,0.000000
13166382.000000,2.303444,-1.066202,-1.894610,-1.474307,-1.033211,1.806130,0.501549,0.042200,-0.633219,-0.421486,-0.270676,-0.619137,0.609240,0.243368,1.835676,34.504742,21.262619,9.453611,0.315336,1.903487,0.015426,0.000000,0.000000,0.000000,0.000000,0.000000,0.000000
13166383.000000,2.303488,-1.066819,-1.895028,-1.474570,-1.033838,1.806756,0.501782,0.045461,-0.632521,-0.416382,-0.268779,-0.622355,0.611176,0.235528,1.934858,34.310345,21.262619,9.576597,0.362943,1.838485,0.067611,0.000000,0.000000,0.000000,0.000000,0.000000,0.000000
13166386.000000,2.303633,-1.068693,-1.896277,-1.475350,-1.035740,1.808602,0.502484,0.046270,-0.620577,-0.422186,-0.260033,-0.619743,0.603481,0.229765,2.085615,33.723186,21.286423,9.699583,0.422452,1.903487,0.114303,0.000000,0.000000,0.000000,0.000000,0.000000,0.000000
13166387.000000,2.303692,-1.069327,-1.896678,-1.475605,-1.036381,1.809214,0.502722,0.052854,-0.621472,-0.413243,-0.257292,-0.621176,0.616210,0.235929,2.010236,33.576397,21.115829,9.675779,0.476469,1.858627,0.054794,0.000000,0.000000,0.000000,0.000000,0.000000,0.000000
13166388.000000,2.303752,-1.069974,-1.897097,-1.475851,-1.037007,1.809841,0.502955,0.056575,-0.634323,-0.414166,-0.258777,-0.620104,0.612050,0.231426,1.962629,33.822369,21.139633,9.600401,0.440763,1.767074,0.061202,0.000000,0.000000,0.000000,0.000000,0.000000,0.000000
13166389.000000,2.303811,-1.070625,-1.897497,-1.476101,-1.037635,1.810457,0.503191,0.055799,-0.638980,-0.411855,-0.255417,-0.620646,0.604856,0.237529,1.934858,33.969158,21.016647,9.628172,0.434354,1.760665,0.048385,0.000000,0.000000,0.000000,0.000000,0.000000,0.000000
13166390.000000,2.303878,-1.071271,-1.897904,-1.476347,-1.038267,1.811071,0.503415,0.059838,-0.647810,-0.407299,-0.256182,-0.619062,0.604566,0.227239,1.835676,34.211163,20.917465,9.628172,0.381254,1.760665,0.087753,0.000000,0.000000,0.000000,0.000000,0.000000,0.000000
13166391.000000,2.303943,-1.071929,-1.898306,-1.476585,-1.038883,1.811690,0.503642,0.061888,-0.650563,-0.403299,-0.245153,-0.617771,0.603526,0.227678,1.764264,34.433331,20.893661,9.477415,0.327238,1.773483,0.081344,0.000000,0.000000,0.000000,0.000000,0.000000,0.000000
13166392.000000,2.304018,-1.072579,-1.898695,-1.476829,-1.039517,1.812322,0.503877,0.068991,-0.647713,-0.400115,-0.239437,-0.617874,0.608711,0.228563,1.565900,34.480938,20.746872,9.429808,0.315336,1.767074,0.021835,0.000000,0.000000,0.000000,0.000000,0.000000,0.000000
13166393.000000,2.304089,-1.073215,-1.899090,-1.477071,-1.040126,1.812938,0.504107,0.069819,-0.647867,-0.400025,-0.239583,-0.628663,0.607486,0.224572,1.442914,34.504742,20.600082,9.429808,0.267728,1.773483,0.054794,0.000000,0.000000,0.000000,0.000000,0.000000,0.000000
13166394.000000,2.304162,-1.073868,-1.899487,-1.477313,-1.040749,1.813572,0.504338,0.068893,-0.649277,-0.395899,-0.240415,-0.625391,0.605719,0.223372,1.367536,34.556316,20.500900,9.453611,0.237516,1.773483,0.081344,0.000000,0.000000,0.000000,0.000000,0.000000,0.000000
13166395.000000,2.304234,-1.074520,-1.899874,-1.477563,-1.041374,1.814191,0.504565,0.072628,-0.648511,-0.393244,-0.241727,-0.623596,0.606178,0.223055,1.268354,34.580120,20.278732,9.628172,0.213712,1.754256,0.087753,0.000000,0.000000,0.000000,0.000000,0.000000,0.000000
13166396.000000,2.304317,-1.075165,-1.900270,-1.477802,-1.041999,1.814828,0.504795,0.074152,-0.652047,-0.395624,-0.237335,-0.625249,0.612082,0.223499,1.069990,34.580120,20.108139,9.751158,0.273221,1.702071,0.061202,0.000000,0.000000,0.000000,0.000000,0.000000,0.000000
13166397.000000,2.304393,-1.075811,-1.900657,-1.478049,-1.042621,1.815461,0.505018,0.076548,-0.645266,-0.394449,-0.243426,-0.620547,0.611442,0.229618,0.947004,34.457134,19.937546,9.949522,0.308927,1.662704,0.107894,0.000000,0.000000,0.000000,0.000000,0.000000,0.000000
13166398.000000,2.304475,-1.076453,-1.901054,-1.478290,-1.043252,1.816086,0.505257,0.075964,-0.647434,-0.395443,-0.241466,-0.624231,0.613042,0.233409,0.796247,34.433331,19.766953,10.072508,0.303434,1.695663,0.054794,0.000000,0.000000,0.000000,0.000000,0.000000,0.000000
13166399.000000,2.304559,-1.077117,-1.901440,-1.478533,-1.043874,1.816703,0.505486,0.077495,-0.654714,-0.392910,-0.245103,-0.623324,0.604063,0.230028,0.673261,34.580120,19.667770,10.270872,0.303434,1.708480,0.074935,0.000000,0.000000,0.000000,0.000000,0.000000,0.000000
13166400.000000,2.304645,-1.077783,-1.901833,-1.478768,-1.044504,1.817321,0.505715,0.079603,-0.652842,-0.393979,-0.239737,-0.611443,0.610228,0.228700,0.526471,34.774517,19.568588,10.370054,0.243009,1.676437,0.061202,0.000000,0.000000,0.000000,0.000000,0.000000,0.000000
13166401.000000,2.304736,-1.078445,-1.902232,-1.478999,-1.045114,1.817933,0.505943,0.081288,-0.657244,-0.395905,-0.234864,-0.616224,0.607920,0.227641,0.375715,34.972881,19.520981,10.370054,0.178007,1.702071,0.067611,0.000000,0.000000,0.000000,0.000000,0.000000,0.000000
13166402.000000,2.304825,-1.079108,-1.902616,-1.479235,-1.045747,1.818558,0.506167,0.081824,-0.654747,-0.393827,-0.233912,-0.617426,0.608533,0.228626,0.252729,35.091900,19.322617,10.441465,0.135892,1.656295,0.094161,0.000000,0.000000,0.000000,0.000000,0.000000,0.000000
13166403.000000,2.304919,-1.079762,-1.903007,-1.479466,-1.046384,1.819163,0.506401,0.084035,-0.650531,-0.388561,-0.231309,-0.623797,0.602920,0.228596,0.054365,35.167278,19.275009,10.516844,0.135892,1.662704,0.041976,0.000000,0.000000,0.000000,0.000000,0.000000,0.000000
13166404.000000,2.305006,-1.080420,-1.903395,-1.479689,-1.047014,1.819778,0.506634,0.085478,-0.650532,-0.389056,-0.231727,-0.620678,0.601139,0.225680,-0.017047,35.143475,19.251205,10.592222,0.123990,1.689254,0.074935,0.000000,0.000000,0.000000,0.000000,0.000000,0.000000
13166405.000000,2.305098,-1.081077,-1.903789,-1.479917,-1.047659,1.820369,0.506870,0.087756,-0.645238,-0.392387,-0.230994,-0.627486,0.605662,0.226552,-0.116229,34.996685,19.223434,10.616026,0.207303,1.760665,0.034652,0.000000,0.000000,0.000000,0.000000,0.000000,0.000000
13166406.000000,2.305193,-1.081724,-1.904196,-1.480145,-1.048305,1.820979,0.507102,0.089486,-0.647245,-0.397205,-0.234888,-0.638817,0.604549,0.222533,-0.215411,34.798321,19.322617,10.762815,0.237516,1.779891,0.087753,0.000000,0.000000,0.000000,0.000000,0.000000,0.000000
13166407.000000,2.305287,-1.082385,-1.904584,-1.480362,-1.048946,1.821604,0.507333,0.090316,-0.651404,-0.395049,-0.231508,-0.645954,0.604423,0.225841,-0.290789,34.703106,19.298813,10.814390,0.279630,1.643478,0.094161,0.000000,0.000000,0.000000,0.000000,0.000000,0.000000
13166408.000000,2.305374,-1.083025,-1.904985,-1.480587,-1.049593,1.822205,0.507567,0.092517,-0.651086,-0.399194,-0.230314,-0.636939,0.602594,0.231507,-0.290789,34.480938,19.397995,10.913572,0.308927,1.682845,0.041976,0.000000,0.000000,0.000000,0.000000,0.000000,0.000000
13166409.000000,2.305464,-1.083682,-1.905390,-1.480804,-1.050224,1.822804,0.507793,0.093011,-0.655357,-0.401952,-0.223008,-0.638514,0.595580,0.227110,-0.243182,34.334148,19.469406,10.961180,0.261320,1.735030,0.100570,0.000000,0.000000,0.000000,0.000000,0.000000,0.000000
13166410.000000,2.305567,-1.084328,-1.905792,-1.481019,-1.050876,1.823418,0.508023,0.098340,-0.644322,-0.401243,-0.221398,-0.635107,0.593120,0.230176,-0.413775,33.992962,19.568588,11.012754,0.308927,1.735030,0.074935,0.000000,0.000000,0.000000,0.000000,0.000000,0.000000
13166411.000000,2.305664,-1.084973,-1.906195,-1.481228,-1.051526,1.824002,0.508252,0.096472,-0.643454,-0.401803,-0.217556,-0.651311,0.583011,0.226128,-0.465350,33.746990,19.643967,11.012754,0.303434,1.825668,0.107894,0.000000,0.000000,0.000000,0.000000,0.000000,0.000000
13166412.000000,2.305756,-1.085635,-1.906598,-1.481438,-1.052162,1.824601,0.508483,0.093460,-0.647515,-0.404920,-0.217218,-0.648673,0.580831,0.222974,-0.441546,33.624004,19.790756,11.036558,0.308927,1.877853,0.048385,0.000000,0.000000,0.000000,0.000000,0.000000,0.000000
13166413.000000,2.305844,-1.086307,-1.907001,-1.481641,-1.052805,1.825177,0.508705,0.092248,-0.655027,-0.401326,-0.211132,-0.649351,0.574739,0.221418,-0.342364,33.675579,19.814560,10.937376,0.255826,1.955673,0.081344,0.000000,0.000000,0.000000,0.000000,0.000000,0.000000
13166414.000000,2.305943,-1.086968,-1.907407,-1.481845,-1.053442,1.825779,0.508948,0.092251,-0.665922,-0.402014,-0.204371,-0.642841,0.579091,0.224089,-0.389971,33.746990,19.838364,10.937376,0.243009,1.916305,0.001693,0.000000,0.000000,0.000000,0.000000,0.000000,0.000000
13166415.000000,2.306037,-1.087638,-1.907815,-1.482042,-1.054092,1.826384,0.509174,0.093444,-0.664818,-0.401729,-0.199779,-0.641936,0.584252,0.224016,-0.366168,33.893780,19.961349,10.861998,0.231107,1.825668,0.081344,0.000000,0.000000,0.000000,0.000000,0.000000,0.000000
13166416.000000,2.306122,-1.088315,-1.908222,-1.482236,-1.054740,1.826976,0.509407,0.088630,-0.668576,-0.402767,-0.197442,-0.637266,0.590064,0.224503,-0.215411,34.163555,20.036728,10.691404,0.255826,1.800033,0.041976,0.000000,0.000000,0.000000,0.000000,0.000000,0.000000
13166417.000000,2.306211,-1.089008,-1.908624,-1.482439,-1.055390,1.827567,0.509639,0.089187,-0.681495,-0.412368,-0.197092,-0.638100,0.587305,0.224002,-0.144000,34.409527,20.036728,10.691404,0.291532,1.806442,0.048385,0.000000,0.000000,0.000000,0.000000,0.000000,0.000000
13166418.000000,2.306301,-1.089695,-1.909032,-1.482635,-1.056044,1.828153,0.509867,0.087506,-0.681016,-0.413215,-0.194546,-0.634936,0.587772,0.223544,-0.068621,34.556316,20.060532,10.639830,0.327238,1.819259,0.048385,0.000000,0.000000,0.000000,0.000000,0.000000,0.000000
13166419.000000,2.306392,-1.090374,-1.909438,-1.482820,-1.056689,1.828747,0.510100,0.088555,-0.687260,-0.404985,-0.187584,-0.631051,0.584562,0.227842,0.030561,34.726910,19.985153,10.564451,0.327238,1.773483,0.041976,0.000000,0.000000,0.000000,0.000000,0.000000,0.000000
13166420.000000,2.306483,-1.091057,-1.909840,-1.483009,-1.057330,1.829351,0.510323,0.090539,-0.682320,-0.402662,-0.186699,-0.625358,0.587165,0.227002,0.105939,34.921307,20.036728,10.493040,0.332731,1.702071,0.114303,0.000000,0.000000,0.000000,0.000000,0.000000,0.000000
13166421.000000,2.306572,-1.091725,-1.910244,-1.483201,-1.057973,1.829936,0.510564,0.088777,-0.678670,-0.401315,-0.189016,-0.627356,0.581724,0.228854,0.177350,34.972881,20.008957,10.493040,0.261320,1.702071,0.021835,0.000000,0.000000,0.000000,0.000000,0.000000,0.000000
13166422.000000,2.306662,-1.092413,-1.910639,-1.483382,-1.058606,1.830520,0.510790,0.089623,-0.685395,-0.399730,-0.188793,-0.628364,0.583028,0.225410,0.252729,35.068096,19.913742,10.465269,0.207303,1.767074,0.061202,0.000000,0.000000,0.000000,0.000000,0.000000,0.000000
13166423.000000,2.306748,-1.093094,-1.911045,-1.483560,-1.059253,1.831112,0.511010,0.090501,-0.680226,-0.397742,-0.184580,-0.630682,0.592559,0.231958,0.351911,34.972881,19.913742,10.393858,0.207303,1.812850,0.087753,0.000000,0.000000,0.000000,0.000000,0.000000,0.000000
13166424.000000,2.306838,-1.093765,-1.911442,-1.483730,-1.059897,1.831694,0.511240,0.091901,-0.681068,-0.393069,-0.182451,-0.645546,0.595487,0.233703,0.427289,34.873699,19.814560,10.318480,0.201810,1.812850,0.074935,0.000000,0.000000,0.000000,0.000000,0.000000,0.000000
13166425.000000,2.306930,-1.094442,-1.911840,-1.483898,-1.060537,1.832286,0.511479,0.094232,-0.679090,-0.391653,-0.175596,-0.640549,0.591941,0.236468,0.451093,34.726910,19.766953,10.171690,0.201810,1.825668,0.015426,0.000000,0.000000,0.000000,0.000000,0.000000,0.000000
13166426.000000,2.307027,-1.095109,-1.912239,-1.484070,-1.061178,1.832867,0.511700,0.096788,-0.688278,-0.388966,-0.173600,-0.643117,0.589165,0.230435,0.427289,34.603924,19.667770,10.143919,0.171598,1.858627,0.074935,0.000000,0.000000,0.000000,0.000000,0.000000,0.000000
13166427.000000,2.307119,-1.095796,-1.912638,-1.484221,-1.061813,1.833462,0.511933,0.096177,-0.684401,-0.387475,-0.163785,-0.643199,0.588180,0.228440,0.502668,34.651531,19.568588,9.949522,0.183500,1.851302,0.074935,0.000000,0.000000,0.000000,0.000000,0.000000,0.000000
13166428.000000,2.307214,-1.096502,-1.913036,-1.484367,-1.062454,1.834076,0.512163,0.096971,-0.688525,-0.388074,-0.159067,-0.646557,0.598717,0.231312,0.526471,34.873699,19.544785,9.727354,0.201810,1.676437,0.048385,0.000000,0.000000,0.000000,0.000000,0.000000,0.000000
13166429.000000,2.307310,-1.097199,-1.913442,-1.484512,-1.063098,1.834676,0.512392,0.098008,-0.692088,-0.391243,-0.154515,-0.644857,0.597964,0.226868,0.526471,35.068096,19.544785,9.528990,0.189908,1.597701,0.081344,0.000000,0.000000,0.000000,0.000000,0.000000,0.000000
13166430.000000,2.307413,-1.097911,-1.913840,-1.484651,-1.063737,1.835268,0.512633,0.100913,-0.697134,-0.393338,-0.153140,-0.646324,0.597057,0.227865,0.427289,35.337872,19.497177,9.330626,0.189908,1.611434,0.021835,0.000000,0.000000,0.000000,0.000000,0.000000,0.000000
13166431.000000,2.307512,-1.098613,-1.914256,-1.484793,-1.064370,1.835860,0.512860,0.100601,-0.703549,-0.394730,-0.147885,-0.637603,0.592948,0.224715,0.403486,35.437054,19.568588,9.207640,0.135892,1.630660,0.061202,0.000000,0.000000,0.000000,0.000000,0.000000,0.000000
13166432.000000,2.307615,-1.099321,-1.914660,-1.484921,-1.065009,1.836451,0.513093,0.098204,-0.710140,-0.392673,-0.141852,-0.643442,0.592159,0.224309,0.351911,35.754436,19.544785,9.009275,0.147794,1.605026,0.041976,0.000000,0.000000,0.000000,0.000000,0.000000,0.000000
13166433.000000,2.307718,-1.100033,-1.915063,-1.485053,-1.065657,1.837054,0.513320,0.101611,-0.705218,-0.392896,-0.140390,-0.641609,0.591824,0.221403,0.328107,35.976604,19.568588,8.886290,0.123990,1.559249,0.067611,0.000000,0.000000,0.000000,0.000000,0.000000,0.000000
13166434.000000,2.307821,-1.100736,-1.915473,-1.485186,-1.066309,1.837634,0.513548,0.102343,-0.689026,-0.396276,-0.136978,-0.645225,0.589676,0.217840,0.276533,36.147198,19.643967,8.858519,0.105680,1.565658,0.028243,0.000000,0.000000,0.000000,0.000000,0.000000,0.000000
13166435.000000,2.307919,-1.101441,-1.915885,-1.485320,-1.066951,1.838222,0.513777,0.099054,-0.696157,-0.407773,-0.135667,-0.642309,0.586508,0.222985,0.351911,36.147198,19.766953,8.886290,0.088285,1.578475,0.048385,0.000000,0.000000,0.000000,0.000000,0.000000,0.000000
13166436.000000,2.308022,-1.102144,-1.916301,-1.485459,-1.067617,1.838802,0.514000,0.099713,-0.698632,-0.407464,-0.138580,-0.644623,0.584403,0.221298,0.351911,36.048016,19.961349,8.933897,0.159696,1.513473,0.087753,0.000000,0.000000,0.000000,0.000000,0.000000,0.000000
13166437.000000,2.308127,-1.102850,-1.916717,-1.485591,-1.068268,1.839393,0.514235,0.102741,-0.706793,-0.407549,-0.134570,-0.641163,0.584427,0.218476,0.351911,36.171001,20.060532,8.957701,0.213712,1.513473,0.034652,0.000000,0.000000,0.000000,0.000000,0.000000,0.000000
13166438.000000,2.308228,-1.103560,-1.917137,-1.485728,-1.068930,1.839962,0.514457,0.101347,-0.709665,-0.411158,-0.136749,-0.644346,0.573235,0.221035,0.375715,36.270184,20.278732,9.108458,0.213712,1.676437,0.074935,0.000000,0.000000,0.000000,0.000000,0.000000,0.000000
13166439.000000,2.308323,-1.104264,-1.917560,-1.485859,-1.069591,1.840531,0.514682,0.098829,-0.716028,-0.410268,-0.138541,-0.649333,0.572293,0.222607,0.474897,36.464581,20.401718,9.156065,0.231107,1.793624,0.028243,0.000000,0.000000,0.000000,0.000000,0.000000,0.000000
13166440.000000,2.308432,-1.104979,-1.917987,-1.485988,-1.070242,1.841115,0.514903,0.102888,-0.714896,-0.411825,-0.131381,-0.648824,0.567543,0.221720,0.451093,36.635174,20.576279,9.207640,0.147794,1.735030,0.041976,0.000000,0.000000,0.000000,0.000000,0.000000,0.000000
13166441.000000,2.308528,-1.105690,-1.918409,-1.486120,-1.070911,1.841697,0.515126,0.103666,-0.707840,-0.411433,-0.132748,-0.655948,0.571560,0.225804,0.526471,36.658978,20.699265,9.306822,0.166105,1.624252,0.028243,0.000000,0.000000,0.000000,0.000000,0.000000,0.000000
13166442.000000,2.308631,-1.106406,-1.918852,-1.486246,-1.071568,1.842268,0.515342,0.105529,-0.713227,-0.415067,-0.132701,-0.670922,0.568222,0.217444,0.550275,36.805767,21.016647,9.255247,0.159696,1.676437,0.074935,0.000000,0.000000,0.000000,0.000000,0.000000,0.000000
13166443.000000,2.308736,-1.107130,-1.919271,-1.486372,-1.072231,1.842826,0.515567,0.103349,-0.716963,-0.411603,-0.130551,-0.666623,0.562392,0.217743,0.601850,36.952557,21.040451,9.231443,0.189908,1.806442,0.067611,0.000000,0.000000,0.000000,0.000000,0.000000,0.000000
13166444.000000,2.308846,-1.107831,-1.919711,-1.486494,-1.072903,1.843383,0.515785,0.107296,-0.713802,-0.417871,-0.128700,-0.664207,0.556817,0.219569,0.550275,36.928753,21.310226,9.179869,0.201810,1.877853,0.041976,0.000000,0.000000,0.000000,0.000000,0.000000,0.000000
13166445.000000,2.308958,-1.108552,-1.920150,-1.486612,-1.073575,1.843959,0.515991,0.106714,-0.719041,-0.421178,-0.123672,-0.671649,0.563310,0.213282,0.502668,37.004131,21.508591,9.108458,0.291532,1.779891,0.094161,0.000000,0.000000,0.000000,0.000000,0.000000,0.000000
13166446.000000,2.309066,-1.109274,-1.920578,-1.486730,-1.074237,1.844537,0.516215,0.109571,-0.718555,-0.420700,-0.120057,-0.662653,0.561765,0.216205,0.502668,37.051739,21.607773,9.056883,0.273221,1.721298,0.041976,0.000000,0.000000,0.000000,0.000000,0.000000,0.000000
13166447.000000,2.309175,-1.109984,-1.921014,-1.486848,-1.074899,1.845096,0.516432,0.109670,-0.715948,-0.420857,-0.118763,-0.666588,0.563017,0.211196,0.502668,37.051739,21.754562,9.033079,0.267728,1.714889,0.067611,0.000000,0.000000,0.000000,0.000000,0.000000,0.000000
13166448.000000,2.309279,-1.110695,-1.921445,-1.486964,-1.075567,1.845656,0.516652,0.104956,-0.706904,-0.422777,-0.116475,-0.659306,0.558713,0.215146,0.601850,36.952557,21.925156,8.985472,0.291532,1.806442,0.034652,0.000000,0.000000,0.000000,0.000000,0.000000,0.000000
13166449.000000,2.309392,-1.111410,-1.921881,-1.487078,-1.076242,1.846211,0.516865,0.107877,-0.706757,-0.426293,-0.114930,-0.659215,0.560030,0.215555,0.550275,36.805767,22.048141,8.933897,0.315336,1.825668,0.067611,0.000000,0.000000,0.000000,0.000000,0.000000,0.000000
13166450.000000,2.309496,-1.112129,-1.922329,-1.487189,-1.076896,1.846778,0.517080,0.109791,-0.709910,-0.433331,-0.113710,-0.660369,0.561396,0.213035,0.649457,36.805767,22.242538,8.886290,0.332731,1.844894,0.041976,0.000000,0.000000,0.000000,0.000000,0.000000,0.000000
13166451.000000,2.309604,-1.112847,-1.922760,-1.487309,-1.077565,1.847335,0.517296,0.111721,-0.716081,-0.432781,-0.117203,-0.657833,0.551336,0.214301,0.724836,36.734356,22.317917,8.985472,0.279630,1.903487,0.028243,0.000000,0.000000,0.000000,0.000000,0.000000,0.000000
13166452.000000,2.309708,-1.113556,-1.923193,-1.487428,-1.078227,1.847897,0.517505,0.109424,-0.715349,-0.433471,-0.117776,-0.660423,0.555758,0.208629,0.847822,36.658978,22.341721,9.156065,0.219205,1.903487,0.087753,0.000000,0.000000,0.000000,0.000000,0.000000,0.000000
13166453.000000,2.309813,-1.114280,-1.923626,-1.487531,-1.078884,1.848465,0.517725,0.109050,-0.723599,-0.443461,-0.110990,-0.657568,0.555155,0.207960,0.923200,36.758160,22.417099,9.132261,0.183500,1.844894,0.048385,0.000000,0.000000,0.000000,0.000000,0.000000,0.000000
13166454.000000,2.309918,-1.115029,-1.924062,-1.487637,-1.079552,1.849013,0.517937,0.109279,-0.734121,-0.443314,-0.109390,-0.663373,0.566845,0.205162,0.970807,37.127117,22.464706,9.179869,0.219205,1.903487,0.087753,0.000000,0.000000,0.000000,0.000000,0.000000,0.000000
13166455.000000,2.310019,-1.115754,-1.924495,-1.487739,-1.080208,1.849571,0.518154,0.105401,-0.724469,-0.436745,-0.107812,-0.661593,0.561802,0.204822,1.145368,37.321514,22.512314,9.207640,0.189908,1.909896,0.067611,0.000000,0.000000,0.000000,0.000000,0.000000,0.000000
13166456.000000,2.310124,-1.116493,-1.924921,-1.487851,-1.080881,1.850128,0.518362,0.103279,-0.722779,-0.434953,-0.109791,-0.664335,0.557905,0.206290,1.216779,37.539715,22.540085,9.354429,0.237516,1.909896,0.107894,0.000000,0.000000,0.000000,0.000000,0.000000,0.000000
13166457.000000,2.310223,-1.117217,-1.925341,-1.487959,-1.081559,1.850684,0.518585,0.102095,-0.732300,-0.429328,-0.108611,-0.660145,0.556484,0.212885,1.391340,37.686504,22.417099,9.406004,0.279630,1.884261,0.034652,0.000000,0.000000,0.000000,0.000000,0.000000,0.000000
13166458.000000,2.310326,-1.117953,-1.925777,-1.488058,-1.082224,1.851249,0.518803,0.099024,-0.738578,-0.426985,-0.106278,-0.664253,0.560478,0.209992,1.514325,37.833294,22.464706,9.406004,0.279630,1.819259,0.041976,0.000000,0.000000,0.000000,0.000000,0.000000,0.000000
13166459.000000,2.310431,-1.118690,-1.926196,-1.488161,-1.082894,1.851806,0.519015,0.101069,-0.737098,-0.425176,-0.103529,-0.656862,0.572479,0.208079,1.613508,37.932476,22.393295,9.501219,0.285123,1.819259,0.087753,0.000000,0.000000,0.000000,0.000000,0.000000,0.000000
13166460.000000,2.310537,-1.119399,-1.926616,-1.488266,-1.083567,1.852363,0.519238,0.103742,-0.730472,-0.424846,-0.101723,-0.663203,0.569934,0.207308,1.665082,37.761883,22.242538,9.600401,0.249418,1.844894,0.054794,0.000000,0.000000,0.000000,0.000000,0.000000,0.000000
13166461.000000,2.310644,-1.120115,-1.927030,-1.488366,-1.084213,1.852922,0.519457,0.100972,-0.724189,-0.420033,-0.100089,-0.652407,0.565973,0.209493,1.764264,37.539715,22.119553,9.675779,0.178007,1.909896,0.061202,0.000000,0.000000,0.000000,0.000000,0.000000,0.000000
13166462.000000,2.310747,-1.120839,-1.927447,-1.488458,-1.084883,1.853474,0.519668,0.102426,-0.724776,-0.417960,-0.093424,-0.649573,0.566053,0.212271,1.863447,37.369122,21.925156,9.651976,0.166105,1.923629,0.061202,0.000000,0.000000,0.000000,0.000000,0.000000,0.000000
13166463.000000,2.310860,-1.121540,-1.927862,-1.488549,-1.085538,1.854040,0.519883,0.106016,-0.721956,-0.414776,-0.092997,-0.648540,0.565505,0.209120,1.835676,37.051739,21.778366,9.651976,0.166105,1.942855,0.074935,0.000000,0.000000,0.000000,0.000000,0.000000,0.000000
13166464.000000,2.310959,-1.122253,-1.928275,-1.488635,-1.086204,1.854599,0.520103,0.104735,-0.713179,-0.414236,-0.090259,-0.645757,0.561367,0.212261,1.986432,36.857342,21.702988,9.576597,0.105680,1.949264,0.041976,0.000000,0.000000,0.000000,0.000000,0.000000,0.000000
13166465.000000,2.311068,-1.122970,-1.928687,-1.488725,-1.086872,1.855151,0.520305,0.106953,-0.713332,-0.411435,-0.089322,-0.654777,0.557266,0.206765,2.010236,36.857342,21.580002,9.528990,0.105680,1.968490,0.107894,0.000000,0.000000,0.000000,0.000000,0.000000,0.000000
13166466.000000,2.311179,-1.123702,-1.929101,-1.488813,-1.087541,1.855717,0.520527,0.107149,-0.715635,-0.406155,-0.086105,-0.655284,0.557433,0.209669,2.061811,36.952557,21.556198,9.528990,0.123990,1.871444,0.009017,0.000000,0.000000,0.000000,0.000000,0.000000,0.000000
13166467.000000,2.311291,-1.124438,-1.929517,-1.488896,-1.088223,1.856276,0.520732,0.106547,-0.717941,-0.407343,-0.082968,-0.663393,0.563983,0.206782,2.034040,37.051739,21.607773,9.501219,0.201810,1.760665,0.034652,0.000000,0.000000,0.000000,0.000000,0.000000,0.000000
13166468.000000,2.311400,-1.125155,-1.929940,-1.488969,-1.088902,1.856834,0.520935,0.107067,-0.722211,-0.407285,-0.079026,-0.669750,0.560141,0.207801,2.061811,37.004131,21.655380,9.406004,0.243009,1.741439,0.087753,0.000000,0.000000,0.000000,0.000000,0.000000,0.000000
13166469.000000,2.311516,-1.125886,-1.930348,-1.489044,-1.089576,1.857386,0.521150,0.105952,-0.724651,-0.409221,-0.078131,-0.674115,0.560938,0.211453,2.034040,37.075542,21.631577,9.378233,0.285123,1.747848,0.048385,0.000000,0.000000,0.000000,0.000000,0.000000,0.000000
13166470.000000,2.311631,-1.126609,-1.930775,-1.489114,-1.090256,1.857932,0.521356,0.109526,-0.728486,-0.409921,-0.076642,-0.665498,0.555736,0.203726,1.962629,37.150921,21.754562,9.306822,0.339139,1.800033,0.067611,0.000000,0.000000,0.000000,0.000000,0.000000,0.000000
13166471.000000,2.311750,-1.127344,-1.931186,-1.489182,-1.090922,1.858478,0.521568,0.109612,-0.733716,-0.419197,-0.073991,-0.670422,0.547709,0.198341,1.863447,37.273907,21.802170,9.279051,0.291532,1.819259,0.074935,0.000000,0.000000,0.000000,0.000000,0.000000,0.000000
13166472.000000,2.311862,-1.128069,-1.931599,-1.489259,-1.091579,1.859023,0.521782,0.109744,-0.735465,-0.414375,-0.074205,-0.662385,0.552683,0.204590,1.887250,37.198528,21.778366,9.378233,0.183500,1.871444,0.028243,0.000000,0.000000,0.000000,0.000000,0.000000,0.000000
13166473.000000,2.311982,-1.128785,-1.932024,-1.489330,-1.092250,1.859570,0.521990,0.111056,-0.722691,-0.413204,-0.073613,-0.664242,0.545498,0.207201,1.863447,37.127117,21.877548,9.453611,0.112089,1.909896,0.048385,0.000000,0.000000,0.000000,0.000000,0.000000,0.000000
13166474.000000,2.312112,-1.129509,-1.932438,-1.489398,-1.092931,1.860124,0.522197,0.114433,-0.716101,-0.412026,-0.072022,-0.668881,0.545865,0.213221,1.740461,37.075542,21.948959,9.501219,0.117582,1.909896,0.074935,0.000000,0.000000,0.000000,0.000000,0.000000,0.000000
13166475.000000,2.312227,-1.130234,-1.932858,-1.489464,-1.093620,1.860668,0.522414,0.113127,-0.720577,-0.411704,-0.069775,-0.673971,0.546172,0.212542,1.764264,37.174725,22.071945,9.501219,0.159696,1.930038,0.021835,0.000000,0.000000,0.000000,0.000000,0.000000,0.000000
13166476.000000,2.312347,-1.130963,-1.933285,-1.489533,-1.094301,1.861210,0.522612,0.112824,-0.720224,-0.412634,-0.069130,-0.677843,0.548621,0.202076,1.764264,37.198528,22.218735,9.552794,0.273221,1.995040,0.107894,0.000000,0.000000,0.000000,0.000000,0.000000,0.000000
13166477.000000,2.312475,-1.131691,-1.933707,-1.489612,-1.094993,1.861747,0.522822,0.118504,-0.717895,-0.416169,-0.072527,-0.675733,0.545457,0.203941,1.665082,37.174725,22.365524,9.774961,0.374845,1.968490,0.048385,0.000000,0.000000,0.000000,0.000000,0.000000,0.000000
13166478.000000,2.312605,-1.132415,-1.934130,-1.489676,-1.095678,1.862302,0.523020,0.120216,-0.722732,-0.416282,-0.069991,-0.688506,0.551030,0.200428,1.542096,37.246136,22.440903,9.798765,0.416959,1.832076,0.114303,0.000000,0.000000,0.000000,0.000000,0.000000,0.000000
13166479.000000,2.312736,-1.133141,-1.934545,-1.489737,-1.096334,1.862845,0.523228,0.122840,-0.725597,-0.417452,-0.068557,-0.675217,0.549390,0.197417,1.466718,37.198528,22.512314,9.822569,0.393156,1.812850,0.094161,0.000000,0.000000,0.000000,0.000000,0.000000,0.000000
13166480.000000,2.312866,-1.133873,-1.934967,-1.489797,-1.097001,1.863367,0.523431,0.125109,-0.728911,-0.417456,-0.064443,-0.670726,0.540819,0.199898,1.391340,37.150921,22.540085,9.850340,0.279630,1.903487,0.061202,0.000000,0.000000,0.000000,0.000000,0.000000,0.000000
13166481.000000,2.313005,-1.134592,-1.935380,-1.489850,-1.097659,1.863891,0.523636,0.128622,-0.736056,-0.414527,-0.063165,-0.667304,0.530888,0.194905,1.216779,37.099346,22.440903,9.822569,0.255826,2.092086,0.081344,0.000000,0.000000,0.000000,0.000000,0.000000,0.000000
13166482.000000,2.313144,-1.135326,-1.935793,-1.489895,-1.098329,1.864415,0.523842,0.136824,-0.732266,-0.412954,-0.059964,-0.659200,0.518636,0.200741,1.046186,37.150921,22.488510,9.675779,0.159696,2.169906,0.061202,0.000000,0.000000,0.000000,0.000000,0.000000,0.000000
13166483.000000,2.313283,-1.136051,-1.936204,-1.489942,-1.098991,1.865003,0.524069,0.135234,-0.726782,-0.411361,-0.056406,-0.657913,0.541480,0.209145,0.923200,37.174725,22.440903,9.600401,0.105680,1.643478,-0.163102,0.000000,0.000000,0.000000,0.000000,0.000000,0.000000
13166484.000000,2.313422,-1.136771,-1.936622,-1.490002,-1.099796,1.866154,0.524219,0.134866,-0.724253,-0.413414,-0.058242,-0.709602,0.750172,0.188544,0.796247,36.904949,22.611496,9.727354,1.265653,-3.759965,0.331283,0.000000,0.000000,0.000000,0.000000,0.000000,0.000000
13166485.000000,2.313536,-1.137502,-1.937087,-1.490096,-1.100538,1.866918,0.524495,0.128582,-0.720931,-0.430431,-0.072025,-0.723387,0.768017,0.218825,1.069990,36.734356,23.325607,10.393858,1.713346,-5.048112,-0.360856,0.000000,0.000000,0.000000,0.000000,0.000000,0.000000
13166486.000000,2.313616,-1.138293,-1.937380,-1.490074,-1.101315,1.867579,0.524681,0.108623,-0.747332,-0.383213,-0.039072,-0.742320,0.726753,0.211444,1.863447,37.515911,21.556198,9.406004,2.370695,-4.702958,-0.202470,0.000000,0.000000,0.000000,0.000000,0.000000,0.000000
13166487.000000,2.313797,-1.139132,-1.937655,-1.489981,-1.102127,1.868578,0.524865,0.129897,-0.777871,-0.345700,0.005899,-0.767498,0.812502,0.202737,1.216779,38.912395,19.766953,7.450133,3.082059,-6.823319,0.048385,0.000000,0.000000,0.000000,0.000000,0.000000,0.000000
13166490.000000,2.314199,-1.141530,-1.938277,-1.489731,-1.104421,1.870803,0.525444,0.115491,-0.796284,-0.222441,0.061882,-0.760906,0.777056,0.187470,1.292158,40.773052,12.427475,3.447142,3.093961,-4.696549,0.357833,0.000000,0.000000,0.000000,0.000000,0.000000,0.000000
13166491.000000,2.314390,-1.142319,-1.938398,-1.489648,-1.105109,1.871617,0.525623,0.139694,-0.787479,-0.185786,0.068193,-0.731499,0.785670,0.181790,0.526471,41.090435,9.479782,2.629881,2.377103,-4.683732,0.529952,0.000000,0.000000,0.000000,0.000000,0.000000,0.000000
13166492.000000,2.314529,-1.143075,-1.938419,-1.489486,-1.105902,1.872318,0.525867,0.136333,-0.775306,-0.129610,0.098133,-0.741064,0.746939,0.204225,0.625654,40.796856,5.627548,0.900145,2.526334,-3.857926,0.081344,0.000000,0.000000,0.000000,0.000000,0.000000,0.000000
13166493.000000,2.314602,-1.143750,-1.938403,-1.489326,-1.106655,1.872842,0.526021,0.113880,-0.747680,-0.079988,0.120665,-0.741245,0.663340,0.191584,1.589704,39.523357,1.751511,-0.607423,2.430204,-1.848344,0.404525,0.000000,0.000000,0.000000,0.000000,0.000000,0.000000
13166494.000000,2.314693,-1.144385,-1.938367,-1.489215,-1.107304,1.873410,0.526227,0.101515,-0.712951,-0.038598,0.114806,-0.704882,0.621247,0.195461,2.260175,37.686504,-1.858719,-1.174745,1.576017,-0.664567,0.265365,0.000000,0.000000,0.000000,0.000000,0.000000,0.000000
13166495.000000,2.314764,-1.144959,-1.938284,-1.489077,-1.107995,1.874042,0.526420,0.089497,-0.660147,0.000546,0.120106,-0.701276,0.620423,0.193578,3.148847,35.068096,-5.441177,-1.964235,1.247343,-0.632523,0.219589,0.000000,0.000000,0.000000,0.000000,0.000000,0.000000
13166496.000000,2.314805,-1.145462,-1.938177,-1.488933,-1.108659,1.874629,0.526576,0.070313,-0.601031,0.034723,0.127687,-0.677552,0.601552,0.181021,4.362836,31.838726,-8.829239,-2.606935,0.906766,-0.840348,0.476852,0.000000,0.000000,0.000000,0.000000,0.000000,0.000000
13166497.000000,2.314826,-1.145947,-1.938038,-1.488815,-1.109317,1.875189,0.526776,0.050093,-0.554849,0.065725,0.122069,-0.666532,0.590053,0.183510,5.747419,28.486370,-12.165726,-2.733888,0.715421,-1.087540,0.324874,0.000000,0.000000,0.000000,0.000000,0.000000,0.000000
13166498.000000,2.314811,-1.146386,-1.937859,-1.488705,-1.109920,1.875704,0.526941,0.031228,-0.510502,0.098759,0.118678,-0.640719,0.567904,0.174423,7.457319,24.888042,-15.529984,-2.535524,0.255826,-1.244096,0.450301,0.000000,0.000000,0.000000,0.000000,0.000000,0.000000
13166499.000000,2.314804,-1.146794,-1.937652,-1.488600,-1.110482,1.876141,0.527132,0.017771,-0.478403,0.131221,0.112135,-0.612312,0.532873,0.180314,8.941083,21.460308,-18.818863,-2.261781,-0.360323,-0.808305,0.357833,0.000000,0.000000,0.000000,0.000000,0.000000,0.000000
13166500.000000,2.314795,-1.147173,-1.937446,-1.488479,-1.111000,1.876565,0.527328,0.010434,-0.445366,0.153770,0.114732,-0.570356,0.496404,0.188158,10.206647,18.008770,-21.615799,-2.214174,-1.155001,-0.437516,0.258956,0.000000,0.000000,0.000000,0.000000,0.000000,0.000000
13166501.000000,2.314782,-1.147513,-1.937246,-1.488343,-1.111486,1.877070,0.527501,0.000928,-0.410020,0.164938,0.120127,-0.536193,0.500771,0.179463,11.369061,14.533428,-23.996170,-2.313356,-2.134615,-1.028947,0.324874,0.000000,0.000000,0.000000,0.000000,0.000000,0.000000
13166502.000000,2.314775,-1.147806,-1.937080,-1.488211,-1.111942,1.877561,0.527680,-0.001596,-0.372688,0.161867,0.122346,-0.501762,0.504228,0.174052,12.309308,10.712933,-25.690201,-2.360964,-3.037325,-1.483964,0.377975,0.000000,0.000000,0.000000,0.000000,0.000000,0.000000
13166503.000000,2.314774,-1.148040,-1.936934,-1.488074,-1.112389,1.878032,0.527868,0.002877,-0.328502,0.152293,0.128722,-0.486530,0.495573,0.173831,13.102765,6.527447,-26.967667,-2.460146,-3.796298,-1.757706,0.331283,0.000000,0.000000,0.000000,0.000000,0.000000,0.000000
13166504.000000,2.314772,-1.148266,-1.936783,-1.487950,-1.112825,1.878519,0.528052,0.001678,-0.296521,0.147442,0.126964,-0.475974,0.497779,0.176276,13.769269,2.710918,-28.241165,-2.436342,-4.394137,-2.024125,0.318465,0.000000,0.000000,0.000000,0.000000,0.000000,0.000000
13166505.000000,2.314782,-1.148448,-1.936657,-1.487849,-1.113264,1.879033,0.528229,0.004928,-0.263271,0.140461,0.115244,-0.466790,0.499771,0.178947,14.241376,-1.256367,-29.173477,-2.091188,-4.656893,-2.317094,0.390792,0.000000,0.000000,0.000000,0.000000,0.000000,0.000000
13166506.000000,2.314787,-1.148584,-1.936550,-1.487765,-1.113744,1.879513,0.528448,0.005840,-0.223761,0.127531,0.103905,-0.470772,0.493013,0.189970,14.733319,-5.394245,-29.836014,-1.571474,-4.585482,-2.258500,0.127120,0.000000,0.000000,0.000000,0.000000,0.000000,0.000000
13166507.000000,2.314816,-1.148661,-1.936476,-1.487692,-1.114195,1.880008,0.528635,0.013767,-0.182487,0.104271,0.093331,-0.467667,0.496217,0.189736,14.884076,-9.873310,-30.105789,-1.027956,-4.621188,-2.173356,0.225997,0.000000,0.000000,0.000000,0.000000,0.000000,0.000000
13166508.000000,2.314867,-1.148723,-1.936436,-1.487612,-1.114724,1.880510,0.528849,0.023664,-0.142536,0.081351,0.088718,-0.498358,0.507519,0.203100,14.709516,-14.154011,-30.058182,-0.678835,-4.101168,-2.108353,0.041976,0.000000,0.000000,0.000000,0.000000,0.000000,0.000000
13166509.000000,2.314935,-1.148750,-1.936437,-1.487515,-1.115288,1.881046,0.529056,0.041031,-0.107259,0.049837,0.093232,-0.522579,0.518639,0.205086,14.312787,-18.315693,-29.594009,-0.678835,-3.401705,-2.264909,-0.031266,0.000000,0.000000,0.000000,0.000000,0.000000,0.000000
13166510.000000,2.315015,-1.148770,-1.936465,-1.487390,-1.115875,1.881600,0.529239,0.054428,-0.080734,0.021027,0.104870,-0.540313,0.522066,0.200424,13.844647,-22.282978,-28.955276,-1.174745,-2.791964,-2.447098,0.147262,0.000000,0.000000,0.000000,0.000000,0.000000,0.000000
13166511.000000,2.315120,-1.148788,-1.936525,-1.487253,-1.116504,1.882112,0.529449,0.069931,-0.062183,-0.009180,0.118545,-0.567228,0.514037,0.204410,13.102765,-25.829731,-28.145950,-1.793642,-2.290255,-2.342728,0.054794,0.000000,0.000000,0.000000,0.000000,0.000000,0.000000
13166512.000000,2.315244,-1.148800,-1.936596,-1.487108,-1.117101,1.882622,0.529644,0.090054,-0.051014,-0.033387,0.127523,-0.576992,0.507577,0.199640,12.210126,-28.963886,-27.479446,-2.559328,-2.260043,-2.089127,0.160079,0.000000,0.000000,0.000000,0.000000,0.000000,0.000000
13166513.000000,2.315359,-1.148850,-1.936668,-1.486950,-1.117722,1.883145,0.529856,0.098304,-0.053766,-0.049165,0.142316,-0.582355,0.507609,0.209284,11.567426,-31.387897,-27.015274,-3.448000,-2.451388,-1.926163,0.140853,0.000000,0.000000,0.000000,0.000000,0.000000,0.000000
13166514.000000,2.315487,-1.148931,-1.936741,-1.486778,-1.118341,1.883655,0.530069,0.108829,-0.067891,-0.056117,0.154982,-0.587221,0.512444,0.208981,10.873151,-33.173176,-26.745499,-4.439821,-2.834078,-1.764115,0.087753,0.000000,0.000000,0.000000,0.000000,0.000000,0.000000
13166515.000000,2.315621,-1.149039,-1.936824,-1.486606,-1.118975,1.884135,0.530278,0.115678,-0.083015,-0.066409,0.163236,-0.595226,0.500226,0.207866,10.206647,-34.399067,-26.547134,-5.276918,-3.169161,-1.334733,0.067611,0.000000,0.000000,0.000000,0.000000,0.000000,0.000000
13166516.000000,2.315749,-1.149172,-1.936926,-1.486411,-1.119626,1.884600,0.530474,0.119599,-0.101413,-0.078700,0.175741,-0.611020,0.488011,0.205003,9.710736,-35.180622,-26.305130,-6.240968,-3.461215,-1.003312,0.100570,0.000000,0.000000,0.000000,0.000000,0.000000,0.000000
13166517.000000,2.315882,-1.149348,-1.937041,-1.486204,-1.120270,1.885101,0.530678,0.125458,-0.135312,-0.092930,0.188499,-0.616308,0.495543,0.204969,9.238629,-35.426594,-26.130569,-7.256593,-3.712985,-0.983170,0.067611,0.000000,0.000000,0.000000,0.000000,0.000000,0.000000
13166518.000000,2.316027,-1.149562,-1.937172,-1.485986,-1.120928,1.885644,0.530869,0.130232,-0.163709,-0.104158,0.198584,-0.626742,0.507444,0.203960,8.695111,-35.355183,-25.936172,-8.169069,-3.891512,-1.425370,0.160079,0.000000,0.000000,0.000000,0.000000,0.000000,0.000000
13166519.000000,2.316166,-1.149809,-1.937310,-1.485762,-1.121587,1.886193,0.531064,0.131080,-0.191294,-0.115996,0.207989,-0.631116,0.526812,0.197731,8.322186,-34.887043,-25.860794,-8.986330,-4.053561,-1.926163,0.193038,0.000000,0.000000,0.000000,0.000000,0.000000,0.000000
13166520.000000,2.316302,-1.150099,-1.937432,-1.485553,-1.122241,1.886717,0.531266,0.129295,-0.225102,-0.119066,0.207125,-0.639389,0.526447,0.196092,8.076215,-34.057880,-26.154373,-9.529848,-4.167086,-2.108353,0.147262,0.000000,0.000000,0.000000,0.000000,0.000000,0.000000
13166521.000000,2.316436,-1.150448,-1.937548,-1.485346,-1.122892,1.887223,0.531453,0.133317,-0.271422,-0.116923,0.206031,-0.635604,0.524071,0.194336,7.977033,-32.760578,-26.721695,-9.851198,-4.274203,-2.193497,0.206771,0.000000,0.000000,0.000000,0.000000,0.000000,0.000000
13166522.000000,2.316576,-1.150824,-1.937656,-1.485134,-1.123572,1.887719,0.531627,0.132914,-0.308755,-0.110416,0.211281,-0.651944,0.511935,0.185540,7.830244,-31.387897,-27.531021,-10.196352,-4.202792,-1.998490,0.365157,0.000000,0.000000,0.000000,0.000000,0.000000,0.000000
13166523.000000,2.316720,-1.151249,-1.937758,-1.484917,-1.124216,1.888162,0.531795,0.134310,-0.348259,-0.106401,0.212252,-0.645743,0.481571,0.178612,7.631879,-29.674030,-28.510941,-10.470095,-4.333712,-1.334733,0.529952,0.000000,0.000000,0.000000,0.000000,0.000000,0.000000
13166524.000000,2.316860,-1.151695,-1.937842,-1.484713,-1.124860,1.888561,0.531951,0.133117,-0.390029,-0.093870,0.210290,-0.637289,0.449161,0.168324,7.532697,-28.106953,-29.788406,-10.541506,-4.561678,-0.345963,0.740524,0.000000,0.000000,0.000000,0.000000,0.000000,0.000000
13166525.000000,2.316996,-1.152166,-1.937912,-1.484541,-1.125517,1.888929,0.532116,0.133177,-0.417079,-0.083338,0.198250,-0.644010,0.414249,0.165434,7.532697,-26.591450,-31.188858,-10.172548,-4.548861,0.713302,0.832992,0.000000,0.000000,0.000000,0.000000,0.000000,0.000000
13166526.000000,2.317108,-1.152661,-1.937989,-1.484366,-1.126203,1.889341,0.532281,0.125909,-0.439053,-0.081273,0.189460,-0.653261,0.406168,0.163870,7.854047,-25.294147,-32.390945,-9.803591,-4.387728,1.104232,0.878768,0.000000,0.000000,0.000000,0.000000,0.000000,0.000000
13166527.000000,2.317223,-1.153159,-1.938076,-1.484201,-1.126920,1.889790,0.532426,0.123789,-0.457899,-0.081698,0.179112,-0.694402,0.416705,0.155207,8.199201,-24.167439,-33.370865,-9.355288,-3.855807,0.901900,1.010604,0.000000,0.000000,0.000000,0.000000,0.000000,0.000000
13166528.000000,2.317330,-1.153683,-1.938164,-1.484058,-1.127715,1.890215,0.532563,0.117251,-0.475731,-0.083724,0.162530,-0.728608,0.416398,0.151948,8.671308,-23.286701,-34.279373,-8.764162,-2.840487,0.836898,1.168990,0.000000,0.000000,0.000000,0.000000,0.000000,0.000000
13166529.000000,2.317418,-1.154204,-1.938254,-1.483918,-1.128515,1.890615,0.532706,0.106372,-0.487950,-0.083579,0.153162,-0.756998,0.410924,0.144620,9.290204,-22.699543,-35.116470,-8.244448,-2.003695,0.901900,1.241317,0.000000,0.000000,0.000000,0.000000,0.000000,0.000000
13166530.000000,2.317496,-1.154735,-1.938318,-1.483783,-1.129305,1.891043,0.532852,0.095153,-0.497946,-0.076387,0.144451,-0.769603,0.413548,0.142459,10.055890,-22.207600,-36.243179,-7.800111,-1.388461,0.771896,1.214767,0.000000,0.000000,0.000000,0.000000,0.000000,0.000000
13166531.000000,2.317566,-1.155264,-1.938373,-1.483652,-1.130106,1.891470,0.532983,0.088104,-0.509147,-0.069695,0.140603,-0.771169,0.409842,0.139114,10.797772,-22.037006,-37.445267,-7.427186,-1.065279,0.648299,1.327377,0.000000,0.000000,0.000000,0.000000,0.000000,0.000000
13166532.000000,2.317643,-1.155777,-1.938431,-1.483522,-1.130876,1.891878,0.533126,0.085575,-0.508165,-0.062311,0.135729,-0.767556,0.411926,0.142430,11.444440,-22.136189,-38.623550,-7.133607,-1.197115,0.629073,1.300826,0.000000,0.000000,0.000000,0.000000,0.000000,0.000000
13166533.000000,2.317703,-1.156293,-1.938468,-1.483369,-1.131625,1.892301,0.533262,0.076172,-0.511153,-0.056691,0.143647,-0.755409,0.410776,0.136851,12.285504,-22.501179,-39.948624,-7.355775,-1.561495,0.654708,1.366744,0.000000,0.000000,0.000000,0.000000,0.000000,0.000000
13166534.000000,2.317781,-1.156799,-1.938514,-1.483215,-1.132397,1.892743,0.533416,0.077403,-0.510130,-0.055882,0.147583,-0.753026,0.420702,0.147121,12.805219,-23.116108,-41.150711,-7.677125,-1.812350,0.544845,1.267867,0.000000,0.000000,0.000000,0.000000,0.000000,0.000000
13166535.000000,2.317859,-1.157261,-1.938556,-1.483055,-1.133155,1.893235,0.533566,0.075620,-0.495093,-0.049708,0.155183,-0.755805,0.444727,0.144686,13.273358,-24.266621,-42.328995,-8.097658,-1.991793,0.109054,1.214767,0.000000,0.000000,0.000000,0.000000,0.000000,0.000000
13166536.000000,2.317927,-1.157713,-1.938591,-1.482887,-1.133922,1.893756,0.533713,0.075670,-0.476416,-0.045544,0.159575,-0.745080,0.470071,0.148941,13.793073,-25.758320,-43.483475,-8.589602,-2.164828,-0.431107,1.208358,0.000000,0.000000,0.000000,0.000000,0.000000,0.000000
13166537.000000,2.317993,-1.158130,-1.938621,-1.482720,-1.134670,1.894267,0.533869,0.071126,-0.447265,-0.041475,0.166626,-0.741340,0.484545,0.150650,14.364362,-27.618977,-44.661758,-9.010134,-2.368075,-0.886124,1.142440,0.000000,0.000000,0.000000,0.000000,0.000000,0.000000
13166538.000000,2.318073,-1.158526,-1.938645,-1.482552,-1.135369,1.894811,0.534027,0.073907,-0.425756,-0.037593,0.169718,-0.719333,0.507185,0.150326,14.685712,-29.697834,-45.863846,-9.383059,-2.678439,-1.315507,1.115890,0.000000,0.000000,0.000000,0.000000,0.000000,0.000000
