chaoyuefei/paper-gmrm-data/robot_logs/s2_dq_mrm_min_0.30_log_20260314_172613.csv
# time_ms,q_0,q_1,q_2,q_3,q_4,q_5,q_6,dq_0,dq_1,dq_2,dq_3,dq_4,dq_5,dq_6,tau_J_0,tau_J_1,tau_J_2,tau_J_3,tau_J_4,tau_J_5,tau_J_6,O_dP_EE_c_0,O_dP_EE_c_1,O_dP_EE_c_2,O_dP_EE_c_3,O_dP_EE_c_4,O_dP_EE_c_5
11835126.000000,-2.418275,-1.662609,1.039427,-1.352492,1.798451,1.078670,-0.546417,0.000971,0.001145,0.000920,0.000763,0.000400,-0.000476,0.000170,-0.068621,41.578411,-20.977066,-5.820436,0.847257,1.350509,0.028243,0.000000,0.000000,0.000000,0.000000,0.000000,0.000000
11835127.000000,-2.418276,-1.662616,1.039422,-1.352494,1.798450,1.078670,-0.546420,0.000091,-0.001000,-0.001057,-0.000048,0.000063,-0.000317,-0.000870,-0.044818,41.653790,-20.905655,-5.796632,0.852750,1.350509,0.054794,0.000000,0.000000,0.000000,0.000000,0.000000,0.000000
11835128.000000,-2.418276,-1.662615,1.039427,-1.352494,1.798449,1.078668,-0.546417,0.000060,-0.000666,0.000966,-0.000032,-0.000195,-0.000720,0.000404,-0.044818,41.653790,-20.977066,-5.796632,0.859159,1.364242,0.028243,0.000000,0.000000,0.000000,0.000000,0.000000,0.000000
11835129.000000,-2.418278,-1.662611,1.039424,-1.352496,1.798449,1.078671,-0.546418,-0.000609,0.000669,-0.000470,-0.000578,-0.000130,0.000266,-0.000240,-0.017047,41.606182,-20.929459,-5.772829,0.859159,1.344100,0.041976,0.000000,0.000000,0.000000,0.000000,0.000000,0.000000
11835130.000000,-2.418273,-1.662612,1.039422,-1.352495,1.798452,1.078673,-0.546416,0.006337,-0.000960,-0.000870,0.001708,-0.008563,-0.001281,0.001807,0.276533,41.530804,-20.905655,-5.721254,0.828947,1.383468,-0.011124,0.000000,0.000000,0.000000,0.000000,0.000000,0.000000
11835131.000000,-2.418262,-1.662615,1.039425,-1.352488,1.798452,1.078666,-0.546431,0.014074,-0.005128,0.001927,0.005962,-0.008328,-0.001684,-0.007576,1.244550,41.312603,-20.877884,-5.649843,0.751127,1.552840,-0.023942,0.000000,0.000000,0.000000,0.000000,0.000000,0.000000
11835132.000000,-2.418229,-1.662614,1.039437,-1.352486,1.798444,1.078665,-0.546460,0.021070,-0.003862,0.004717,0.004521,-0.012363,-0.004286,-0.014484,2.752119,40.896038,-20.877884,-5.376100,0.649503,1.793624,-0.044083,0.000000,0.000000,0.000000,0.000000,0.000000,0.000000
11835133.000000,-2.418179,-1.662619,1.039453,-1.352494,1.798425,1.078686,-0.546502,0.034193,-0.003694,0.011337,-0.001945,-0.017860,0.010552,-0.023903,4.608808,40.479473,-20.806473,-4.983339,0.613798,1.884261,-0.077042,0.000000,0.000000,0.000000,0.000000,0.000000,0.000000
11835134.000000,-2.418124,-1.662617,1.039472,-1.352505,1.798399,1.078736,-0.546562,0.036551,0.002502,0.015776,-0.005697,-0.023240,0.023263,-0.038289,6.564680,39.916119,-20.707291,-4.610414,0.613798,1.786300,-0.044083,0.000000,0.000000,0.000000,0.000000,0.000000,0.000000
11835135.000000,-2.418029,-1.662615,1.039501,-1.352532,1.798359,1.078819,-0.546632,0.051383,0.005549,0.019794,-0.019036,-0.033464,0.042168,-0.046435,8.100019,39.400372,-20.631912,-4.189882,0.661405,1.559249,-0.077042,0.000000,0.000000,0.000000,0.000000,0.000000,0.000000
11835136.000000,-2.417930,-1.662612,1.039544,-1.352576,1.798306,1.078912,-0.546724,0.062428,0.006247,0.028300,-0.029621,-0.045049,0.058812,-0.062754,9.536176,38.936199,-20.659683,-3.721742,0.685209,1.389877,-0.070634,0.000000,0.000000,0.000000,0.000000,0.000000,0.000000
11835137.000000,-2.417812,-1.662605,1.039587,-1.352623,1.798240,1.079026,-0.546837,0.076293,0.007325,0.031619,-0.035401,-0.054297,0.077503,-0.077095,10.773969,38.448223,-20.560501,-3.475771,0.733732,1.324874,-0.077042,0.000000,0.000000,0.000000,0.000000,0.000000,0.000000
11835138.000000,-2.417688,-1.662601,1.039645,-1.352687,1.798161,1.079158,-0.546972,0.088871,0.005251,0.039301,-0.045470,-0.057475,0.099796,-0.094726,11.964154,38.079266,-20.536697,-3.126650,0.679716,1.331283,-0.097184,0.000000,0.000000,0.000000,0.000000,0.000000,0.000000
11835139.000000,-2.417543,-1.662597,1.039711,-1.352759,1.798072,1.079303,-0.547129,0.106154,0.006299,0.046905,-0.052927,-0.071093,0.112500,-0.115689,12.876630,37.738079,-20.461319,-2.904482,0.542386,1.454879,-0.044083,0.000000,0.000000,0.000000,0.000000,0.000000,0.000000
11835140.000000,-2.417393,-1.662590,1.039793,-1.352843,1.797952,1.079477,-0.547292,0.116642,0.006776,0.059302,-0.063487,-0.088806,0.139064,-0.128200,13.793073,37.420696,-20.536697,-2.757692,0.476469,1.572067,-0.089860,0.000000,0.000000,0.000000,0.000000,0.000000,0.000000
11835141.000000,-2.417223,-1.662572,1.039893,-1.352942,1.797818,1.079688,-0.547467,0.134115,0.012105,0.072390,-0.074827,-0.101175,0.161552,-0.138602,14.487348,37.027935,-20.659683,-2.606935,0.374845,1.617843,-0.089860,0.000000,0.000000,0.000000,0.000000,0.000000,0.000000
11835142.000000,-2.417038,-1.662550,1.040005,-1.353061,1.797653,1.079928,-0.547655,0.148653,0.016614,0.087672,-0.089485,-0.119516,0.187379,-0.153974,15.082440,36.611370,-20.782669,-2.460146,0.386747,1.565658,-0.037675,0.000000,0.000000,0.000000,0.000000,0.000000,0.000000
11835143.000000,-2.416832,-1.662533,1.040136,-1.353195,1.797468,1.080201,-0.547836,0.161449,0.018157,0.101376,-0.107205,-0.144161,0.212948,-0.155850,15.526776,36.270184,-20.977066,-2.313356,0.446256,1.481429,-0.083451,0.000000,0.000000,0.000000,0.000000,0.000000,0.000000
11835144.000000,-2.416608,-1.662514,1.040277,-1.353347,1.797265,1.080484,-0.548019,0.181718,0.017028,0.115960,-0.122976,-0.162219,0.231779,-0.161593,15.800519,35.901226,-21.100052,-2.190370,0.494779,1.454879,-0.083451,0.000000,0.000000,0.000000,0.000000,0.000000,0.000000
11835145.000000,-2.416375,-1.662499,1.040437,-1.353520,1.797037,1.080797,-0.548207,0.204572,0.016903,0.128671,-0.139250,-0.180782,0.263198,-0.169545,16.098066,35.631451,-21.294449,-2.015810,0.578092,1.487838,-0.097184,0.000000,0.000000,0.000000,0.000000,0.000000,0.000000
11835146.000000,-2.416125,-1.662479,1.040599,-1.353695,1.796796,1.081145,-0.548399,0.224622,0.017010,0.140091,-0.149569,-0.204183,0.288986,-0.179612,16.320234,35.361675,-21.322220,-2.063417,0.566190,1.461288,-0.110001,0.000000,0.000000,0.000000,0.000000,0.000000,0.000000
11835147.000000,-2.415851,-1.662468,1.040774,-1.353897,1.796531,1.081499,-0.548590,0.240041,0.020131,0.153289,-0.165375,-0.222208,0.312422,-0.182417,16.443220,35.238689,-21.393631,-2.039613,0.524076,1.467696,-0.097184,0.000000,0.000000,0.000000,0.000000,0.000000,0.000000
11835148.000000,-2.415569,-1.662459,1.040962,-1.354111,1.796251,1.081869,-0.548783,0.254759,0.015856,0.167064,-0.185368,-0.235684,0.332952,-0.188066,16.641584,35.143475,-21.492813,-2.039613,0.476469,1.539108,-0.103593,0.000000,0.000000,0.000000,0.000000,0.000000,0.000000
11835149.000000,-2.415271,-1.662454,1.041153,-1.354350,1.795969,1.082256,-0.548977,0.269386,0.011284,0.173042,-0.202581,-0.247920,0.338387,-0.197045,16.716963,35.119671,-21.417435,-1.869020,0.356534,1.656295,-0.089860,0.000000,0.000000,0.000000,0.000000,0.000000,0.000000
11835150.000000,-2.414946,-1.662452,1.041359,-1.354607,1.795654,1.082668,-0.549165,0.284838,0.009696,0.186270,-0.223426,-0.270201,0.357522,-0.189794,16.689192,35.167278,-21.417435,-1.742067,0.339139,1.741439,-0.103593,0.000000,0.000000,0.000000,0.000000,0.000000,0.000000
11835151.000000,-2.414614,-1.662451,1.041570,-1.354877,1.795325,1.083119,-0.549357,0.306981,0.005703,0.194668,-0.239081,-0.287104,0.388202,-0.190538,16.764570,35.214886,-21.346024,-1.619081,0.315336,1.676437,-0.089860,0.000000,0.000000,0.000000,0.000000,0.000000,0.000000
11835152.000000,-2.414268,-1.662449,1.041790,-1.355165,1.794975,1.083584,-0.549544,0.317732,0.005179,0.200149,-0.250239,-0.302546,0.411311,-0.193389,16.788374,35.167278,-21.246841,-1.496095,0.369352,1.617843,-0.130143,0.000000,0.000000,0.000000,0.000000,0.000000,0.000000
11835153.000000,-2.413901,-1.662453,1.042025,-1.355467,1.794610,1.084068,-0.549738,0.331815,0.002537,0.212084,-0.268444,-0.322196,0.432611,-0.193029,16.788374,35.214886,-21.199234,-1.373109,0.410551,1.565658,-0.110001,0.000000,0.000000,0.000000,0.000000,0.000000,0.000000
11835154.000000,-2.413534,-1.662453,1.042270,-1.355777,1.794225,1.084584,-0.549932,0.343727,0.001840,0.219454,-0.279790,-0.346272,0.464753,-0.193288,16.911360,35.214886,-21.100052,-1.349306,0.434354,1.526290,-0.083451,0.000000,0.000000,0.000000,0.000000,0.000000,0.000000
11835155.000000,-2.413153,-1.662460,1.042515,-1.356103,1.793816,1.085114,-0.550116,0.357168,-0.000982,0.225025,-0.295297,-0.365493,0.483625,-0.190572,17.062117,35.314068,-20.977066,-1.297731,0.488370,1.481429,-0.130143,0.000000,0.000000,0.000000,0.000000,0.000000,0.000000
11835156.000000,-2.412762,-1.662461,1.042776,-1.356437,1.793395,1.085667,-0.550301,0.365507,-0.001128,0.236177,-0.306087,-0.383318,0.510910,-0.185470,17.359663,35.337872,-20.877884,-1.297731,0.512174,1.500655,-0.122819,0.000000,0.000000,0.000000,0.000000,0.000000,0.000000
11835157.000000,-2.412358,-1.662460,1.043053,-1.356786,1.792965,1.086229,-0.550479,0.378445,-0.000132,0.247428,-0.317810,-0.397189,0.523911,-0.179640,17.506453,35.314068,-20.905655,-1.273927,0.422452,1.591293,-0.110001,0.000000,0.000000,0.000000,0.000000,0.000000,0.000000
11835158.000000,-2.411940,-1.662460,1.043334,-1.357154,1.792510,1.086819,-0.550654,0.386102,-0.000041,0.258305,-0.330769,-0.411183,0.546039,-0.177438,17.728621,35.314068,-20.905655,-1.226320,0.434354,1.643478,-0.130143,0.000000,0.000000,0.000000,0.000000,0.000000,0.000000
11835159.000000,-2.411516,-1.662460,1.043623,-1.357526,1.792058,1.087449,-0.550829,0.397851,0.000008,0.266718,-0.344263,-0.424588,0.572010,-0.176817,17.978559,35.314068,-20.806473,-1.150941,0.381254,1.565658,-0.122819,0.000000,0.000000,0.000000,0.000000,0.000000,0.000000
11835160.000000,-2.411075,-1.662460,1.043920,-1.357919,1.791570,1.088097,-0.550997,0.412432,0.000032,0.284107,-0.360916,-0.442473,0.603196,-0.174625,18.248335,35.314068,-20.707291,-1.027956,0.410551,1.474105,-0.136552,0.000000,0.000000,0.000000,0.000000,0.000000,0.000000
11835161.000000,-2.410605,-1.662453,1.044243,-1.358322,1.791070,1.088769,-0.551171,0.428819,0.002361,0.294142,-0.374276,-0.456707,0.625870,-0.175245,18.347517,35.214886,-20.782669,-0.877199,0.470060,1.370651,-0.083451,0.000000,0.000000,0.000000,0.000000,0.000000,0.000000
11835162.000000,-2.410136,-1.662442,1.044564,-1.358753,1.790562,1.089451,-0.551336,0.441231,0.004466,0.300396,-0.393896,-0.472017,0.637005,-0.172591,18.522078,35.091900,-20.707291,-0.607423,0.535978,1.266280,-0.116410,0.000000,0.000000,0.000000,0.000000,0.000000,0.000000
11835163.000000,-2.409644,-1.662436,1.044889,-1.359188,1.790036,1.090151,-0.551497,0.448120,0.007272,0.307698,-0.405981,-0.484592,0.654605,-0.166079,18.399092,35.044292,-20.584305,-0.555849,0.661405,1.234237,-0.149369,0.000000,0.000000,0.000000,0.000000,0.000000,0.000000
11835164.000000,-2.409163,-1.662426,1.045234,-1.359641,1.789516,1.090867,-0.551662,0.460960,0.007441,0.320866,-0.420486,-0.509618,0.674384,-0.164148,17.827803,34.945110,-20.266922,-0.555849,0.757535,1.312057,-0.103593,0.000000,0.000000,0.000000,0.000000,0.000000,0.000000
11835165.000000,-2.408678,-1.662411,1.045606,-1.360107,1.788990,1.091581,-0.551817,0.462243,0.010269,0.336105,-0.433379,-0.515392,0.689501,-0.165847,16.590010,34.726910,-19.874161,-0.829591,0.799650,1.402694,-0.169511,0.000000,0.000000,0.000000,0.000000,0.000000,0.000000
11835166.000000,-2.408198,-1.662397,1.046001,-1.360580,1.788463,1.092331,-0.551981,0.463788,0.012453,0.358547,-0.453970,-0.513437,0.707203,-0.167219,14.860272,34.357952,-19.382217,-1.250124,0.817045,1.448470,-0.155778,0.000000,0.000000,0.000000,0.000000,0.000000,0.000000
11835167.000000,-2.407738,-1.662384,1.046415,-1.361068,1.787957,1.093095,-0.552145,0.465767,0.011712,0.373483,-0.463202,-0.506369,0.729415,-0.168921,13.074994,33.941387,-18.695877,-1.694460,0.655912,1.442062,-0.149369,0.000000,0.000000,0.000000,0.000000,0.000000,0.000000
11835168.000000,-2.407266,-1.662375,1.046857,-1.361565,1.787444,1.093871,-0.552304,0.470409,0.009919,0.396242,-0.468258,-0.502556,0.743649,-0.169121,11.071515,33.552593,-18.033340,-2.091188,0.535978,1.350509,-0.149369,0.000000,0.000000,0.000000,0.000000,0.000000,0.000000
11835169.000000,-2.406808,-1.662370,1.047320,-1.362060,1.786938,1.094665,-0.552474,0.479716,0.007904,0.411322,-0.477171,-0.502772,0.753916,-0.170771,9.337811,33.183636,-17.271622,-2.436342,0.356534,1.220504,-0.110001,0.000000,0.000000,0.000000,0.000000,0.000000,0.000000
11835170.000000,-2.406357,-1.662366,1.047812,-1.362563,1.786447,1.095447,-0.552631,0.474801,0.006109,0.431983,-0.486138,-0.499506,0.773119,-0.161442,7.778669,32.818645,-16.755875,-2.658510,0.195402,1.090499,-0.142960,0.000000,0.000000,0.000000,0.000000,0.000000,0.000000
11835171.000000,-2.405907,-1.662370,1.048295,-1.363053,1.785958,1.096226,-0.552794,0.467994,0.005717,0.447095,-0.483884,-0.494171,0.774264,-0.160141,6.417890,32.548870,-16.093338,-2.880678,0.112089,0.993453,-0.103593,0.000000,0.000000,0.000000,0.000000,0.000000,0.000000
11835172.000000,-2.405463,-1.662371,1.048790,-1.363543,1.785471,1.096997,-0.552948,0.462531,0.006246,0.457710,-0.480209,-0.488992,0.777168,-0.156098,5.303083,32.255291,-15.430801,-3.178224,0.093778,0.869857,-0.116410,0.000000,0.000000,0.000000,0.000000,0.000000,0.000000
11835173.000000,-2.405019,-1.662379,1.049288,-1.364022,1.784983,1.097774,-0.553097,0.451215,0.000636,0.466842,-0.476001,-0.484022,0.782609,-0.149636,4.386640,32.084698,-14.891251,-3.499574,0.171598,0.804855,-0.130143,0.000000,0.000000,0.000000,0.000000,0.000000,0.000000
11835174.000000,-2.404567,-1.662382,1.049786,-1.364488,1.784495,1.098547,-0.553255,0.447815,-0.000977,0.474162,-0.470888,-0.487986,0.783319,-0.151584,3.545576,31.814922,-14.252518,-3.820925,0.219205,0.824081,-0.110001,0.000000,0.000000,0.000000,0.000000,0.000000,0.000000
11835175.000000,-2.404127,-1.662392,1.050294,-1.364970,1.784019,1.099294,-0.553403,0.441745,-0.005042,0.482273,-0.475073,-0.485786,0.764638,-0.149397,2.902875,31.668133,-13.712967,-3.920107,0.267728,0.908309,-0.163102,0.000000,0.000000,0.000000,0.000000,0.000000,0.000000
11835176.000000,-2.403659,-1.662399,1.050790,-1.365455,1.783544,1.100044,-0.553562,0.447628,-0.007248,0.487664,-0.473485,-0.479766,0.755774,-0.152152,2.061811,31.493572,-13.149612,-3.820925,0.344633,1.025497,-0.122819,0.000000,0.000000,0.000000,0.000000,0.000000,0.000000
11835177.000000,-2.403200,-1.662405,1.051292,-1.365940,1.783074,1.100813,-0.553711,0.450290,-0.005166,0.490970,-0.478997,-0.487612,0.754243,-0.156856,1.367536,31.299175,-12.606094,-3.547182,0.320829,1.031905,-0.155778,0.000000,0.000000,0.000000,0.000000,0.000000,0.000000
11835178.000000,-2.402722,-1.662402,1.051804,-1.366429,1.782607,1.101577,-0.553868,0.456082,-0.002478,0.509326,-0.482705,-0.477949,0.762636,-0.157249,0.649457,31.053204,-12.288712,-3.202028,0.297025,0.922042,-0.122819,0.000000,0.000000,0.000000,0.000000,0.000000,0.000000
11835179.000000,-2.402236,-1.662397,1.052332,-1.366915,1.782149,1.102339,-0.554021,0.458469,0.000566,0.513975,-0.485296,-0.472125,0.760246,-0.155161,-0.092425,30.759624,-12.141922,-2.880678,0.183500,0.863448,-0.130143,0.000000,0.000000,0.000000,0.000000,0.000000,0.000000
11835180.000000,-2.401772,-1.662387,1.052857,-1.367398,1.781700,1.103095,-0.554166,0.458846,0.006426,0.517262,-0.485111,-0.468979,0.746164,-0.149118,-0.512957,30.442242,-11.919754,-2.634706,0.081876,0.836898,-0.175919,0.000000,0.000000,0.000000,0.000000,0.000000,0.000000
11835181.000000,-2.401299,-1.662368,1.053385,-1.367870,1.781241,1.103843,-0.554327,0.461491,0.012997,0.519571,-0.479572,-0.460769,0.745244,-0.152521,-0.909686,30.025677,-11.820572,-2.606935,0.100187,0.850631,-0.103593,0.000000,0.000000,0.000000,0.000000,0.000000,0.000000
11835182.000000,-2.400830,-1.662350,1.053910,-1.368331,1.780784,1.104593,-0.554482,0.467731,0.013255,0.519992,-0.476851,-0.462405,0.752032,-0.152346,-1.131854,29.660686,-11.550797,-2.682314,0.052579,0.980636,-0.110001,0.000000,0.000000,0.000000,0.000000,0.000000,0.000000
11835183.000000,-2.400369,-1.662329,1.054465,-1.368788,1.780322,1.105327,-0.554631,0.465396,0.014026,0.532883,-0.466922,-0.456986,0.755119,-0.154952,-1.330218,29.267925,-11.526993,-2.805300,0.093778,1.155502,-0.155778,0.000000,0.000000,0.000000,0.000000,0.000000,0.000000
11835184.000000,-2.399896,-1.662303,1.055018,-1.369233,1.779864,1.106069,-0.554792,0.465046,0.019312,0.544263,-0.468953,-0.457141,0.750403,-0.159705,-1.580157,28.803753,-11.479385,-3.003664,0.135892,1.227828,-0.122819,0.000000,0.000000,0.000000,0.000000,0.000000,0.000000
11835185.000000,-2.399430,-1.662278,1.055583,-1.369683,1.779406,1.106831,-0.554946,0.467752,0.021947,0.548651,-0.459412,-0.453906,0.761093,-0.161094,-1.778521,28.387188,-11.431778,-3.126650,0.195402,1.104232,-0.155778,0.000000,0.000000,0.000000,0.000000,0.000000,0.000000
11835186.000000,-2.398948,-1.662260,1.056144,-1.370137,1.778952,1.107607,-0.555106,0.467079,0.019881,0.553249,-0.455207,-0.449278,0.769299,-0.160288,-2.147479,28.141216,-11.281021,-3.249635,0.219205,0.941268,-0.136552,0.000000,0.000000,0.000000,0.000000,0.000000,0.000000
11835187.000000,-2.398461,-1.662243,1.056726,-1.370577,1.778502,1.108373,-0.555260,0.479445,0.017980,0.561662,-0.448245,-0.449933,0.766351,-0.157307,-2.520403,27.923016,-11.185806,-3.277406,0.219205,0.895492,-0.149369,0.000000,0.000000,0.000000,0.000000,0.000000,0.000000
11835188.000000,-2.397983,-1.662227,1.057305,-1.371015,1.778059,1.109122,-0.555410,0.478638,0.014580,0.561936,-0.443744,-0.449269,0.750012,-0.160488,-2.865557,27.800030,-10.987442,-3.376589,0.178007,0.915633,-0.149369,0.000000,0.000000,0.000000,0.000000,0.000000,0.000000
11835189.000000,-2.397490,-1.662223,1.057877,-1.371444,1.777613,1.109878,-0.555569,0.478454,0.008394,0.568067,-0.442138,-0.444716,0.752702,-0.159969,-3.210711,27.847637,-10.618484,-3.448000,0.178007,0.941268,-0.097184,0.000000,0.000000,0.000000,0.000000,0.000000,0.000000
11835190.000000,-2.396998,-1.662215,1.058469,-1.371877,1.777183,1.110646,-0.555716,0.480004,0.005436,0.570571,-0.440342,-0.444991,0.758612,-0.154667,-3.659014,27.847637,-10.324905,-3.523378,0.117582,0.915633,-0.182328,0.000000,0.000000,0.000000,0.000000,0.000000,0.000000
11835191.000000,-2.396503,-1.662206,1.059056,-1.372299,1.776748,1.111389,-0.555871,0.485181,0.004061,0.583012,-0.433363,-0.444967,0.760427,-0.155919,-4.004168,27.823833,-10.007523,-3.670168,0.052579,0.922042,-0.142960,0.000000,0.000000,0.000000,0.000000,0.000000,0.000000
11835192.000000,-2.395997,-1.662199,1.059666,-1.372710,1.776315,1.112141,-0.556024,0.492862,0.002618,0.590730,-0.427943,-0.438141,0.762906,-0.155544,-4.424700,27.823833,-9.809158,-3.868532,0.058073,0.922042,-0.116410,0.000000,0.000000,0.000000,0.000000,0.000000,0.000000
11835193.000000,-2.395506,-1.662196,1.060288,-1.373127,1.775887,1.112887,-0.556170,0.491036,0.000564,0.599004,-0.428990,-0.435310,0.741692,-0.153648,-4.746050,27.871441,-9.686172,-3.991518,-0.001437,0.928451,-0.136552,0.000000,0.000000,0.000000,0.000000,0.000000,0.000000
11835194.000000,-2.395003,-1.662202,1.060911,-1.373532,1.775451,1.113630,-0.556321,0.490379,-0.003108,0.608674,-0.417524,-0.435498,0.747579,-0.153991,-5.142779,28.018230,-9.590958,-4.241457,0.027860,0.941268,-0.116410,0.000000,0.000000,0.000000,0.000000,0.000000,0.000000
11835195.000000,-2.394508,-1.662204,1.061552,-1.373929,1.775030,1.114388,-0.556466,0.499248,-0.003873,0.618260,-0.414031,-0.443023,0.752959,-0.152708,-5.464129,28.093609,-9.515579,-4.412050,0.046171,0.947677,-0.149369,0.000000,0.000000,0.000000,0.000000,0.000000,0.000000
11835196.000000,-2.394000,-1.662204,1.062210,-1.374330,1.774603,1.115134,-0.556611,0.501564,-0.003724,0.632540,-0.408604,-0.438469,0.761244,-0.153402,-5.761675,28.141216,-9.709976,-4.535036,-0.019747,0.999862,-0.122819,0.000000,0.000000,0.000000,0.000000,0.000000,0.000000
11835197.000000,-2.393490,-1.662208,1.062887,-1.374724,1.774181,1.115884,-0.556752,0.503885,-0.004267,0.644946,-0.405903,-0.431581,0.753248,-0.146888,-6.134600,28.216595,-9.860733,-4.634218,-0.049044,0.966903,-0.149369,0.000000,0.000000,0.000000,0.000000,0.000000,0.000000
11835198.000000,-2.392985,-1.662206,1.063575,-1.375120,1.773768,1.116644,-0.556898,0.503110,-0.002861,0.656939,-0.403855,-0.426652,0.740745,-0.148355,-6.479754,28.216595,-10.031326,-4.709596,-0.085665,0.824081,-0.155778,0.000000,0.000000,0.000000,0.000000,0.000000,0.000000
11835199.000000,-2.392475,-1.662216,1.064263,-1.375513,1.773338,1.117405,-0.557051,0.500168,-0.004796,0.666333,-0.402809,-0.423848,0.754979,-0.151637,-6.753497,28.339581,-10.201920,-4.757204,-0.079257,0.778304,-0.110001,0.000000,0.000000,0.000000,0.000000,0.000000,0.000000
11835200.000000,-2.391959,-1.662216,1.064968,-1.375899,1.772916,1.118142,-0.557191,0.507628,-0.003763,0.675777,-0.399063,-0.423927,0.749819,-0.149724,-7.122454,28.363384,-10.372513,-4.808778,-0.019747,1.012679,-0.155778,0.000000,0.000000,0.000000,0.000000,0.000000,0.000000
11835201.000000,-2.391446,-1.662226,1.065680,-1.376286,1.772499,1.118865,-0.557338,0.512528,-0.005392,0.686715,-0.397247,-0.422353,0.743266,-0.146150,-7.471575,28.486370,-10.400284,-4.907960,-0.007845,1.201278,-0.130143,0.000000,0.000000,0.000000,0.000000,0.000000,0.000000
11835202.000000,-2.390924,-1.662237,1.066391,-1.376676,1.772065,1.119611,-0.557488,0.514648,-0.007034,0.694600,-0.402378,-0.423594,0.744088,-0.146977,-7.840533,28.633160,-10.424088,-4.931764,0.081876,1.227828,-0.136552,0.000000,0.000000,0.000000,0.000000,0.000000,0.000000
11835203.000000,-2.390416,-1.662247,1.067111,-1.377074,1.771644,1.120356,-0.557629,0.510016,-0.007477,0.699261,-0.401431,-0.422886,0.743190,-0.147569,-8.114276,28.752178,-10.324905,-4.856386,0.129484,1.175643,-0.149369,0.000000,0.000000,0.000000,0.000000,0.000000,0.000000
11835204.000000,-2.389900,-1.662258,1.067841,-1.377478,1.771230,1.121090,-0.557770,0.509298,-0.008421,0.705752,-0.403404,-0.418707,0.743447,-0.148794,-8.411822,28.898968,-10.301102,-4.784975,0.076383,1.214095,-0.142960,0.000000,0.000000,0.000000,0.000000,0.000000,0.000000
11835205.000000,-2.389388,-1.662269,1.068592,-1.377875,1.770805,1.121837,-0.557910,0.516123,-0.011539,0.715406,-0.402978,-0.418350,0.745621,-0.143846,-8.582416,29.021954,-10.324905,-4.661989,0.088285,1.188461,-0.163102,0.000000,0.000000,0.000000,0.000000,0.000000,0.000000
11835206.000000,-2.388879,-1.662282,1.069344,-1.378286,1.770397,1.122578,-0.558055,0.512051,-0.012031,0.722539,-0.403153,-0.416713,0.733584,-0.143040,-8.756976,29.196514,-10.102737,-4.487428,0.069974,1.104232,-0.149369,0.000000,0.000000,0.000000,0.000000,0.000000,0.000000
11835207.000000,-2.388381,-1.662301,1.070088,-1.378691,1.769984,1.123320,-0.558200,0.506223,-0.015926,0.728933,-0.403002,-0.410918,0.734791,-0.145241,-8.756976,29.390911,-9.860733,-4.340639,0.081876,1.012679,-0.142960,0.000000,0.000000,0.000000,0.000000,0.000000,0.000000
11835208.000000,-2.387889,-1.662311,1.070859,-1.379081,1.769571,1.124058,-0.558341,0.500828,-0.013345,0.740015,-0.398078,-0.407570,0.740634,-0.140984,-8.733172,29.490093,-9.686172,-4.388246,0.088285,1.090499,-0.169511,0.000000,0.000000,0.000000,0.000000,0.000000,0.000000
11835209.000000,-2.387397,-1.662313,1.071632,-1.379469,1.769166,1.124783,-0.558478,0.495028,-0.007996,0.764988,-0.393203,-0.402296,0.745763,-0.143634,-8.633990,29.438519,-9.563187,-4.463624,0.022367,1.175643,-0.169511,0.000000,0.000000,0.000000,0.000000,0.000000,0.000000
11835210.000000,-2.386906,-1.662319,1.072417,-1.379854,1.768756,1.125535,-0.558622,0.490895,-0.005560,0.769170,-0.389281,-0.405055,0.749562,-0.147168,-8.582416,29.438519,-9.293411,-4.610414,0.004056,1.096908,-0.149369,0.000000,0.000000,0.000000,0.000000,0.000000,0.000000
11835211.000000,-2.386424,-1.662322,1.073211,-1.380236,1.768343,1.126278,-0.558764,0.491558,-0.005782,0.773204,-0.384286,-0.408244,0.741828,-0.144230,-8.483233,29.390911,-9.047440,-4.709596,0.010465,1.012679,-0.130143,0.000000,0.000000,0.000000,0.000000,0.000000,0.000000
11835212.000000,-2.385940,-1.662320,1.074008,-1.380636,1.767933,1.127033,-0.558899,0.487223,-0.001358,0.780924,-0.387028,-0.405203,0.745152,-0.145204,-8.360248,29.267925,-8.900650,-4.661989,0.022367,0.960494,-0.169511,0.000000,0.000000,0.000000,0.000000,0.000000,0.000000
11835213.000000,-2.385452,-1.662316,1.074824,-1.381019,1.767532,1.127800,-0.559042,0.495900,0.002243,0.788646,-0.386321,-0.415861,0.753441,-0.143426,-8.411822,29.121136,-8.829239,-4.733400,0.040677,0.901900,-0.130143,0.000000,0.000000,0.000000,0.000000,0.000000,0.000000
11835214.000000,-2.384968,-1.662306,1.075653,-1.381418,1.767127,1.128550,-0.559179,0.492837,0.005681,0.796226,-0.391168,-0.410854,0.763812,-0.137703,-8.336444,29.073528,-8.924454,-4.685792,0.046171,0.869857,-0.122819,0.000000,0.000000,0.000000,0.000000,0.000000,0.000000
11835215.000000,-2.384491,-1.662306,1.076459,-1.381798,1.766733,1.129318,-0.559310,0.487534,0.007351,0.791731,-0.386481,-0.407246,0.765191,-0.133887,-8.038898,29.462322,-9.293411,-4.757204,0.052579,0.850631,-0.182328,0.000000,0.000000,0.000000,0.000000,0.000000,0.000000
11835216.000000,-2.384014,-1.662298,1.077268,-1.382183,1.766354,1.130074,-0.559456,0.485264,0.008379,0.790686,-0.386012,-0.402933,0.747306,-0.136697,-7.618365,30.025677,-9.955948,-4.832582,0.010465,0.922042,-0.116410,0.000000,0.000000,0.000000,0.000000,0.000000,0.000000
11835217.000000,-2.383538,-1.662296,1.078066,-1.382571,1.765965,1.130832,-0.559591,0.482716,0.007315,0.794129,-0.384043,-0.395754,0.749585,-0.134071,-7.051043,30.835003,-10.963638,-4.832582,-0.001437,1.019088,-0.155778,0.000000,0.000000,0.000000,0.000000,0.000000,0.000000
11835218.000000,-2.383060,-1.662282,1.078851,-1.382949,1.765578,1.131606,-0.559727,0.485086,0.008657,0.795865,-0.380226,-0.393004,0.756570,-0.133040,-6.432147,31.616558,-11.872147,-4.931764,0.040677,1.136276,-0.182328,0.000000,0.000000,0.000000,0.000000,0.000000,0.000000
11835219.000000,-2.382575,-1.662265,1.079652,-1.383335,1.765206,1.132367,-0.559874,0.482681,0.009470,0.796158,-0.379826,-0.391788,0.762885,-0.135730,-6.035418,32.425884,-13.026627,-4.907960,0.112089,1.247054,-0.110001,0.000000,0.000000,0.000000,0.000000,0.000000,0.000000
11835220.000000,-2.382082,-1.662237,1.080431,-1.383717,1.764815,1.133128,-0.560006,0.488131,0.012936,0.794633,-0.381910,-0.386505,0.756580,-0.132455,-5.761675,33.013042,-14.030350,-4.808778,0.213712,1.324874,-0.169511,0.000000,0.000000,0.000000,0.000000,0.000000,0.000000
11835221.000000,-2.381599,-1.662207,1.081226,-1.384106,1.764430,1.133892,-0.560147,0.487449,0.017023,0.793963,-0.383750,-0.387959,0.765023,-0.134335,-5.487933,33.528790,-14.938858,-4.685792,0.320829,1.383468,-0.122819,0.000000,0.000000,0.000000,0.000000,0.000000,0.000000
11835222.000000,-2.381108,-1.662179,1.082017,-1.384498,1.764047,1.134665,-0.560277,0.487696,0.020535,0.792658,-0.383875,-0.387965,0.772132,-0.134688,-5.265765,34.016766,-15.823563,-4.586610,0.410551,1.402694,-0.116410,0.000000,0.000000,0.000000,0.000000,0.000000,0.000000
11835223.000000,-2.380618,-1.662148,1.082822,-1.384880,1.763663,1.135419,-0.560402,0.484972,0.025757,0.793552,-0.385287,-0.389249,0.756722,-0.130701,-5.095171,34.385723,-16.509903,-4.586610,0.410551,1.513473,-0.202470,0.000000,0.000000,0.000000,0.000000,0.000000,0.000000
11835224.000000,-2.380141,-1.662115,1.083640,-1.385262,1.763287,1.136151,-0.560538,0.484508,0.030484,0.798381,-0.383677,-0.384393,0.737504,-0.132489,-4.821429,34.703106,-17.224014,-4.562807,0.374845,1.708480,-0.169511,0.000000,0.000000,0.000000,0.000000,0.000000,0.000000
11835227.000000,-2.378721,-1.662056,1.086082,-1.386385,1.762154,1.138380,-0.560933,0.475780,0.024101,0.823530,-0.371934,-0.371046,0.750571,-0.128427,-4.027972,35.853619,-18.398331,-4.931764,0.219205,1.806442,-0.163102,0.000000,0.000000,0.000000,0.000000,0.000000,0.000000
11835228.000000,-2.378245,-1.662049,1.086924,-1.386744,1.761771,1.139122,-0.561067,0.472778,0.016985,0.821864,-0.366603,-0.370804,0.745540,-0.129806,-3.881182,36.270184,-18.842667,-5.106325,0.166105,1.786300,-0.142960,0.000000,0.000000,0.000000,0.000000,0.000000,0.000000
11835229.000000,-2.377776,-1.662054,1.087770,-1.387107,1.761382,1.139868,-0.561198,0.471513,0.008858,0.822397,-0.362483,-0.375753,0.730215,-0.127078,-3.730425,36.805767,-19.183853,-5.276918,0.231107,1.662704,-0.142960,0.000000,0.000000,0.000000,0.000000,0.000000,0.000000
11835230.000000,-2.377306,-1.662066,1.088598,-1.387461,1.760978,1.140616,-0.561325,0.470335,0.002865,0.817603,-0.358710,-0.380360,0.741010,-0.127635,-3.631243,37.345318,-19.429825,-5.499086,0.362943,1.526290,-0.163102,0.000000,0.000000,0.000000,0.000000,0.000000,0.000000
11835231.000000,-2.376834,-1.662080,1.089450,-1.387808,1.760590,1.141366,-0.561459,0.483031,-0.000914,0.824980,-0.357941,-0.380919,0.743746,-0.125814,-3.631243,37.861065,-19.727371,-5.772829,0.405057,1.494247,-0.122819,0.000000,0.000000,0.000000,0.000000,0.000000,0.000000
11835232.000000,-2.376351,-1.662101,1.090311,-1.388154,1.760202,1.142083,-0.561580,0.483469,-0.006174,0.829075,-0.350597,-0.380546,0.741047,-0.130006,-3.706622,38.349041,-20.092361,-6.042604,0.422452,1.617843,-0.175919,0.000000,0.000000,0.000000,0.000000,0.000000,0.000000
11835233.000000,-2.375867,-1.662136,1.091149,-1.388489,1.759806,1.142804,-0.561716,0.477451,-0.014946,0.831060,-0.356382,-0.379783,0.728188,-0.132170,-3.758196,38.912395,-20.266922,-6.316347,0.440763,1.702071,-0.130143,0.000000,0.000000,0.000000,0.000000,0.000000,0.000000
11835234.000000,-2.375387,-1.662177,1.091991,-1.388837,1.759430,1.143527,-0.561849,0.480075,-0.022495,0.829584,-0.353321,-0.377883,0.721184,-0.137118,-3.881182,39.523357,-20.362137,-6.463136,0.405057,1.754256,-0.136552,0.000000,0.000000,0.000000,0.000000,0.000000,0.000000
11835235.000000,-2.374898,-1.662212,1.092832,-1.389190,1.759050,1.144248,-0.561978,0.481958,-0.030619,0.830599,-0.352500,-0.376604,0.724422,-0.134493,-4.027972,39.987530,-20.485123,-6.514711,0.374845,1.877853,-0.182328,0.000000,0.000000,0.000000,0.000000,0.000000,0.000000
11835236.000000,-2.374403,-1.662249,1.093684,-1.389540,1.758663,1.144971,-0.562114,0.483967,-0.034606,0.830727,-0.351780,-0.379962,0.721246,-0.136054,-4.250140,40.479473,-20.707291,-6.590089,0.327238,2.033492,-0.130143,0.000000,0.000000,0.000000,0.000000,0.000000,0.000000
11835237.000000,-2.373915,-1.662285,1.094528,-1.389889,1.758288,1.145698,-0.562240,0.484995,-0.033273,0.834369,-0.344502,-0.378802,0.720581,-0.132296,-4.523882,40.919842,-20.754898,-6.637697,0.308927,1.995040,-0.202470,0.000000,0.000000,0.000000,0.000000,0.000000,0.000000
11835238.000000,-2.373421,-1.662322,1.095356,-1.390230,1.757907,1.146446,-0.562372,0.482980,-0.035026,0.828298,-0.344213,-0.375242,0.732226,-0.132708,-4.821429,41.336407,-20.782669,-6.760683,0.362943,1.865035,-0.188737,0.000000,0.000000,0.000000,0.000000,0.000000,0.000000
11835239.000000,-2.372937,-1.662363,1.096193,-1.390568,1.757531,1.147188,-0.562513,0.482859,-0.036346,0.826516,-0.337842,-0.381970,0.742122,-0.135420,-5.067400,41.752972,-20.754898,-7.006654,0.405057,1.754256,-0.116410,0.000000,0.000000,0.000000,0.000000,0.000000,0.000000
11835240.000000,-2.372450,-1.662395,1.097021,-1.390907,1.757153,1.147916,-0.562640,0.483026,-0.034684,0.844224,-0.336513,-0.380203,0.742366,-0.129531,-5.317339,42.046551,-20.782669,-7.232790,0.393156,1.800033,-0.122819,0.000000,0.000000,0.000000,0.000000,0.000000,0.000000
11835241.000000,-2.371966,-1.662432,1.097866,-1.391239,1.756777,1.148655,-0.562757,0.482003,-0.038012,0.840900,-0.334453,-0.379588,0.741143,-0.127154,-5.464129,42.387737,-20.806473,-7.403383,0.398649,1.858627,-0.196061,0.000000,0.000000,0.000000,0.000000,0.000000,0.000000
11835242.000000,-2.371496,-1.662464,1.098707,-1.391558,1.756415,1.149384,-0.562886,0.483305,-0.038779,0.839640,-0.328727,-0.378122,0.733472,-0.125306,-5.487933,42.657513,-20.731094,-7.748537,0.374845,1.851302,-0.188737,0.000000,0.000000,0.000000,0.000000,0.000000,0.000000
11835243.000000,-2.371011,-1.662495,1.099529,-1.391888,1.756045,1.150120,-0.563024,0.480197,-0.039619,0.828872,-0.326009,-0.370852,0.734023,-0.130087,-5.638690,42.927288,-20.536697,-7.923097,0.332731,1.786300,-0.110001,0.000000,0.000000,0.000000,0.000000,0.000000,0.000000
11835244.000000,-2.370541,-1.662515,1.100373,-1.392202,1.755686,1.150855,-0.563153,0.477771,-0.032585,0.826724,-0.322038,-0.367510,0.732627,-0.130977,-5.714068,42.998699,-20.608109,-8.169069,0.315336,1.812850,-0.110001,0.000000,0.000000,0.000000,0.000000,0.000000,0.000000
11835245.000000,-2.370066,-1.662542,1.101227,-1.392521,1.755338,1.151585,-0.563276,0.478725,-0.028986,0.843353,-0.321094,-0.363747,0.734069,-0.125491,-5.785479,43.121685,-20.707291,-8.419008,0.267728,1.767074,-0.136552,0.000000,0.000000,0.000000,0.000000,0.000000,0.000000
11835246.000000,-2.369575,-1.662562,1.102045,-1.392837,1.754974,1.152326,-0.563401,0.479941,-0.024428,0.833105,-0.321331,-0.362996,0.738238,-0.127323,-6.083025,43.145489,-20.608109,-8.541994,0.267728,1.735030,-0.142960,0.000000,0.000000,0.000000,0.000000,0.000000,0.000000
11835247.000000,-2.369116,-1.662588,1.102878,-1.393144,1.754611,1.153054,-0.563523,0.471761,-0.025426,0.827266,-0.315035,-0.363769,0.732082,-0.127899,-6.083025,43.220867,-20.512894,-8.787966,0.308927,1.708480,-0.163102,0.000000,0.000000,0.000000,0.000000,0.000000,0.000000
11835248.000000,-2.368645,-1.662607,1.103712,-1.393452,1.754263,1.153781,-0.563655,0.470739,-0.020877,0.826307,-0.312844,-0.360109,0.733654,-0.126181,-6.182208,43.197063,-20.659683,-9.061708,0.267728,1.800033,-0.130143,0.000000,0.000000,0.000000,0.000000,0.000000,0.000000
11835249.000000,-2.368179,-1.662623,1.104559,-1.393746,1.753919,1.154507,-0.563772,0.474882,-0.019702,0.826402,-0.306071,-0.357732,0.728169,-0.124999,-6.158404,43.121685,-20.806473,-9.430666,0.207303,1.930038,-0.202470,0.000000,0.000000,0.000000,0.000000,0.000000,0.000000
11835250.000000,-2.367720,-1.662643,1.105401,-1.394050,1.753569,1.155232,-0.563902,0.468304,-0.020948,0.827695,-0.306812,-0.350409,0.731672,-0.126406,-6.134600,43.121685,-20.877884,-9.676638,0.123990,1.890670,-0.136552,0.000000,0.000000,0.000000,0.000000,0.000000,0.000000
11835251.000000,-2.367266,-1.662661,1.106232,-1.394347,1.753217,1.155987,-0.564022,0.459064,-0.020851,0.822989,-0.308323,-0.347414,0.741183,-0.127562,-6.035418,43.074078,-20.977066,-9.950380,0.112089,1.741439,-0.136552,0.000000,0.000000,0.000000,0.000000,0.000000,0.000000
11835252.000000,-2.366816,-1.662678,1.107078,-1.394649,1.752875,1.156716,-0.564137,0.455712,-0.017711,0.826256,-0.304829,-0.345817,0.750013,-0.122850,-5.960040,43.026470,-21.246841,-10.097170,0.112089,1.735030,-0.182328,0.000000,0.000000,0.000000,0.000000,0.000000,0.000000
11835253.000000,-2.366367,-1.662697,1.107910,-1.394951,1.752536,1.157429,-0.564268,0.450773,-0.016687,0.826094,-0.304651,-0.345575,0.739756,-0.126982,-5.813250,43.026470,-21.369827,-10.247927,0.010465,1.877853,-0.136552,0.000000,0.000000,0.000000,0.000000,0.000000,0.000000
11835254.000000,-2.365928,-1.662714,1.108751,-1.395247,1.752187,1.158167,-0.564392,0.451802,-0.018169,0.828242,-0.305626,-0.345252,0.737717,-0.122804,-5.587115,42.998699,-21.492813,-10.370913,0.034269,1.884261,-0.155778,0.000000,0.000000,0.000000,0.000000,0.000000,0.000000
11835255.000000,-2.365511,-1.662723,1.109594,-1.395541,1.751849,1.158902,-0.564515,0.439699,-0.013888,0.826010,-0.302023,-0.340412,0.721927,-0.125509,-5.166583,42.875713,-21.568192,-10.517702,0.052579,1.800033,-0.142960,0.000000,0.000000,0.000000,0.000000,0.000000,0.000000
11835256.000000,-2.365082,-1.662740,1.110429,-1.395836,1.751514,1.159637,-0.564637,0.432458,-0.013341,0.825199,-0.297003,-0.338699,0.727691,-0.121180,-4.821429,42.851910,-21.738785,-10.640688,0.015958,1.819259,-0.155778,0.000000,0.000000,0.000000,0.000000,0.000000,0.000000
11835257.000000,-2.364669,-1.662751,1.111265,-1.396129,1.751178,1.160356,-0.564763,0.425821,-0.011751,0.821120,-0.295300,-0.333005,0.729679,-0.120019,-4.424700,42.780499,-21.738785,-10.668459,-0.025240,1.930038,-0.136552,0.000000,0.000000,0.000000,0.000000,0.000000,0.000000
11835258.000000,-2.364258,-1.662766,1.112092,-1.396423,1.750843,1.161081,-0.564888,0.419674,-0.012178,0.837121,-0.298657,-0.331143,0.735470,-0.120104,-4.027972,42.780499,-21.810196,-10.739870,-0.007845,1.936446,-0.103593,0.000000,0.000000,0.000000,0.000000,0.000000,0.000000
11835259.000000,-2.363848,-1.662777,1.112931,-1.396725,1.750505,1.161828,-0.565004,0.414948,-0.014588,0.836686,-0.302298,-0.331842,0.737655,-0.116609,-3.631243,42.728924,-21.810196,-10.640688,0.076383,1.825668,-0.142960,0.000000,0.000000,0.000000,0.000000,0.000000,0.000000
11835260.000000,-2.363444,-1.662795,1.113783,-1.397032,1.750177,1.162550,-0.565118,0.411465,-0.014969,0.841673,-0.302677,-0.336290,0.721095,-0.116052,-3.262286,42.756695,-21.984756,-10.493898,0.022367,1.760665,-0.136552,0.000000,0.000000,0.000000,0.000000,0.000000,0.000000
11835261.000000,-2.363034,-1.662802,1.114630,-1.397359,1.749839,1.163286,-0.565236,0.408343,-0.012176,0.845618,-0.311837,-0.336692,0.727278,-0.115058,-3.040118,42.657513,-22.230728,-10.220156,0.022367,1.760665,-0.142960,0.000000,0.000000,0.000000,0.000000,0.000000,0.000000
11835262.000000,-2.362645,-1.662820,1.115493,-1.397682,1.749504,1.164022,-0.565349,0.410144,-0.017409,0.851475,-0.312523,-0.333639,0.732735,-0.114318,-2.667193,42.728924,-22.595718,-9.926577,0.040677,1.779891,-0.169511,0.000000,0.000000,0.000000,0.000000,0.000000,0.000000
11835263.000000,-2.362248,-1.662840,1.116349,-1.398008,1.749173,1.164749,-0.565461,0.405391,-0.017909,0.866645,-0.317055,-0.331649,0.738131,-0.114392,-2.345843,42.804302,-22.817886,-9.676638,0.069974,1.760665,-0.169511,0.000000,0.000000,0.000000,0.000000,0.000000,0.000000
11835264.000000,-2.361850,-1.662863,1.117198,-1.398337,1.748827,1.165468,-0.565583,0.402684,-0.019479,0.865468,-0.320194,-0.333552,0.734392,-0.120423,-2.048296,42.927288,-23.111465,-9.482241,0.069974,1.923629,-0.122819,0.000000,0.000000,0.000000,0.000000,0.000000,0.000000
11835265.000000,-2.361464,-1.662885,1.118056,-1.398666,1.748491,1.166182,-0.565689,0.400936,-0.019755,0.860974,-0.319930,-0.336102,0.712702,-0.116311,-1.726946,43.026470,-23.480423,-9.383059,0.093778,2.060043,-0.182328,0.000000,0.000000,0.000000,0.000000,0.000000,0.000000
11835266.000000,-2.361072,-1.662909,1.118902,-1.399004,1.748149,1.166919,-0.565803,0.397312,-0.020251,0.862985,-0.326923,-0.335343,0.722145,-0.115774,-1.528582,43.145489,-23.774002,-9.256105,0.195402,2.098495,-0.182328,0.000000,0.000000,0.000000,0.000000,0.000000,0.000000
11835267.000000,-2.360685,-1.662937,1.119762,-1.399353,1.747814,1.167649,-0.565925,0.403840,-0.024576,0.862250,-0.331116,-0.338414,0.729597,-0.117830,-1.254840,43.292278,-24.071548,-8.910952,0.255826,2.092086,-0.122819,0.000000,0.000000,0.000000,0.000000,0.000000,0.000000
11835268.000000,-2.360301,-1.662966,1.120615,-1.399700,1.747466,1.168369,-0.566029,0.400386,-0.025059,0.860657,-0.334462,-0.339206,0.731537,-0.114267,-1.060443,43.466839,-24.190567,-8.641176,0.279630,2.085677,-0.188737,0.000000,0.000000,0.000000,0.000000,0.000000,0.000000
11835269.000000,-2.359909,-1.663001,1.121472,-1.400055,1.747113,1.169095,-0.566150,0.395733,-0.026871,0.861888,-0.343778,-0.337287,0.731267,-0.111376,-0.961260,43.708843,-24.535721,-8.292055,0.374845,2.053634,-0.130143,0.000000,0.000000,0.000000,0.000000,0.000000,0.000000
11835270.000000,-2.359534,-1.663029,1.122326,-1.400416,1.746789,1.169793,-0.566260,0.390521,-0.024656,0.856396,-0.348656,-0.331640,0.721121,-0.112554,-0.762896,43.808025,-24.634903,-7.970705,0.339139,2.053634,-0.136552,0.000000,0.000000,0.000000,0.000000,0.000000,0.000000
11835271.000000,-2.359155,-1.663056,1.123160,-1.400780,1.746446,1.170511,-0.566367,0.386538,-0.026285,0.842732,-0.353397,-0.338449,0.719628,-0.106804,-0.564532,43.907207,-24.634903,-7.724733,0.339139,2.027084,-0.169511,0.000000,0.000000,0.000000,0.000000,0.000000,0.000000
11835272.000000,-2.358780,-1.663091,1.124000,-1.401129,1.746102,1.171232,-0.566482,0.389262,-0.030528,0.837930,-0.353496,-0.338533,0.723212,-0.109965,-0.266986,44.125408,-24.535721,-7.649354,0.339139,1.995040,-0.130143,0.000000,0.000000,0.000000,0.000000,0.000000,0.000000
11835273.000000,-2.358419,-1.663121,1.124860,-1.401485,1.745767,1.171936,-0.566590,0.379501,-0.030700,0.838558,-0.353766,-0.334020,0.707802,-0.109826,0.078168,44.224590,-24.658707,-7.554140,0.339139,2.014266,-0.155778,0.000000,0.000000,0.000000,0.000000,0.000000,0.000000
11835274.000000,-2.358047,-1.663154,1.125694,-1.401863,1.745432,1.172644,-0.566707,0.375534,-0.031989,0.835511,-0.358951,-0.332077,0.714561,-0.112305,0.252729,44.371380,-24.583328,-7.280397,0.393156,2.098495,-0.122819,0.000000,0.000000,0.000000,0.000000,0.000000,0.000000
11835275.000000,-2.357678,-1.663180,1.126525,-1.402235,1.745093,1.173362,-0.566820,0.373370,-0.030731,0.825303,-0.362778,-0.335536,0.719104,-0.112859,0.403486,44.418987,-24.365128,-7.006654,0.440763,2.104903,-0.130143,0.000000,0.000000,0.000000,0.000000,0.000000,0.000000
11835276.000000,-2.357305,-1.663210,1.127376,-1.402615,1.744750,1.174088,-0.566934,0.373267,-0.030523,0.843047,-0.366001,-0.339273,0.727806,-0.117870,0.526471,44.494366,-24.388931,-6.812257,0.512174,1.955673,-0.142960,0.000000,0.000000,0.000000,0.000000,0.000000,0.000000
11835277.000000,-2.356921,-1.663233,1.128208,-1.403002,1.744415,1.174811,-0.567043,0.370578,-0.028789,0.839506,-0.373241,-0.335240,0.726539,-0.114554,0.550275,44.494366,-24.412735,-6.439332,0.535978,1.832076,-0.196061,0.000000,0.000000,0.000000,0.000000,0.000000,0.000000
11835278.000000,-2.356539,-1.663254,1.129050,-1.403398,1.744094,1.175526,-0.567161,0.372700,-0.023267,0.840418,-0.380397,-0.329077,0.715715,-0.118343,0.427289,44.442791,-24.412735,-6.117982,0.476469,1.844894,-0.169511,0.000000,0.000000,0.000000,0.000000,0.000000,0.000000
11835279.000000,-2.356160,-1.663277,1.129870,-1.403797,1.743756,1.176256,-0.567277,0.373720,-0.020356,0.831914,-0.381725,-0.331244,0.720407,-0.118539,0.403486,44.442791,-24.365128,-5.820436,0.494779,1.793624,-0.130143,0.000000,0.000000,0.000000,0.000000,0.000000,0.000000
11835280.000000,-2.355786,-1.663298,1.130713,-1.404188,1.743426,1.176982,-0.567382,0.381940,-0.021069,0.831385,-0.386801,-0.338344,0.716931,-0.114816,0.403486,44.418987,-24.412735,-5.626039,0.554288,1.806442,-0.208878,0.000000,0.000000,0.000000,0.000000,0.000000,0.000000
11835281.000000,-2.355406,-1.663321,1.131550,-1.404586,1.743104,1.177680,-0.567498,0.380886,-0.021976,0.827882,-0.387413,-0.329048,0.713006,-0.112371,0.403486,44.418987,-24.464310,-5.399904,0.554288,2.014266,-0.142960,0.000000,0.000000,0.000000,0.000000,0.000000,0.000000
11835282.000000,-2.355028,-1.663331,1.132371,-1.404972,1.742782,1.178388,-0.567605,0.377871,-0.018719,0.824350,-0.390202,-0.330961,0.709956,-0.112994,0.427289,44.248394,-24.464310,-5.253114,0.535978,2.183639,-0.142960,0.000000,0.000000,0.000000,0.000000,0.000000,0.000000
11835283.000000,-2.354652,-1.663348,1.133209,-1.405364,1.742453,1.179109,-0.567710,0.379476,-0.016394,0.826208,-0.388730,-0.329489,0.707142,-0.115847,0.375715,44.200787,-24.634903,-5.130128,0.566190,2.131454,-0.175919,0.000000,0.000000,0.000000,0.000000,0.000000,0.000000
11835284.000000,-2.354278,-1.663361,1.134037,-1.405756,1.742120,1.179842,-0.567819,0.376106,-0.016524,0.825067,-0.390815,-0.328829,0.724643,-0.115081,0.451093,44.101604,-24.781693,-5.007143,0.625699,1.988631,-0.182328,0.000000,0.000000,0.000000,0.000000,0.000000,0.000000
11835285.000000,-2.353890,-1.663371,1.134863,-1.406150,1.741803,1.180575,-0.567927,0.386819,-0.016248,0.823562,-0.390574,-0.326791,0.726264,-0.109485,0.328107,43.978619,-24.829300,-4.832582,0.632108,1.974899,-0.196061,0.000000,0.000000,0.000000,0.000000,0.000000,0.000000
11835286.000000,-2.353518,-1.663380,1.135690,-1.406549,1.741469,1.181285,-0.568039,0.384980,-0.016135,0.819334,-0.390009,-0.331556,0.725843,-0.108536,0.427289,43.855633,-24.781693,-4.634218,0.679716,2.014266,-0.155778,0.000000,0.000000,0.000000,0.000000,0.000000,0.000000
11835287.000000,-2.353140,-1.663385,1.136508,-1.406934,1.741137,1.182008,-0.568146,0.379575,-0.012864,0.820956,-0.389566,-0.328631,0.721532,-0.108779,0.375715,43.732647,-24.904678,-4.610414,0.698026,1.962081,-0.175919,0.000000,0.000000,0.000000,0.000000,0.000000,0.000000
11835288.000000,-2.352771,-1.663388,1.137316,-1.407330,1.740818,1.182731,-0.568252,0.377618,-0.009999,0.812936,-0.389168,-0.322235,0.727363,-0.110185,0.427289,43.585857,-24.682510,-4.463624,0.709928,1.884261,-0.182328,0.000000,0.000000,0.000000,0.000000,0.000000,0.000000
11835289.000000,-2.352393,-1.663391,1.138115,-1.407716,1.740511,1.183449,-0.568361,0.374302,-0.007930,0.820807,-0.386662,-0.314015,0.726246,-0.111084,0.427289,43.439068,-24.559525,-4.535036,0.620206,1.942855,-0.182328,0.000000,0.000000,0.000000,0.000000,0.000000,0.000000
11835290.000000,-2.352017,-1.663388,1.138929,-1.408090,1.740190,1.184173,-0.568468,0.373174,-0.005327,0.812507,-0.382931,-0.315337,0.722994,-0.111960,0.474897,43.244671,-24.436539,-4.586610,0.596403,2.033492,-0.182328,0.000000,0.000000,0.000000,0.000000,0.000000,0.000000
11835291.000000,-2.351653,-1.663381,1.139749,-1.408470,1.739876,1.184884,-0.568576,0.372514,-0.002268,0.811576,-0.377202,-0.311967,0.721308,-0.108532,0.550275,42.998699,-24.464310,-4.610414,0.589994,2.118636,-0.155778,0.000000,0.000000,0.000000,0.000000,0.000000,0.000000
11835292.000000,-2.351275,-1.663375,1.140547,-1.408852,1.739564,1.185619,-0.568678,0.373890,-0.000835,0.805178,-0.377771,-0.308464,0.728439,-0.103430,0.502668,42.780499,-24.341324,-4.463624,0.578092,2.118636,-0.196061,0.000000,0.000000,0.000000,0.000000,0.000000,0.000000
11835293.000000,-2.350900,-1.663367,1.141357,-1.409242,1.739256,1.186364,-0.568790,0.369481,0.003434,0.801868,-0.381053,-0.307889,0.748084,-0.103455,0.427289,42.558331,-24.365128,-4.289064,0.601896,2.020675,-0.136552,0.000000,0.000000,0.000000,0.000000,0.000000,0.000000
11835294.000000,-2.350522,-1.663352,1.142187,-1.409625,1.738940,1.187086,-0.568888,0.371748,0.006311,0.820325,-0.379087,-0.307669,0.745885,-0.104978,0.403486,42.217144,-24.583328,-4.142274,0.632108,1.955673,-0.169511,0.000000,0.000000,0.000000,0.000000,0.000000,0.000000
11835295.000000,-2.350138,-1.663345,1.142997,-1.409999,1.738630,1.187821,-0.568987,0.374582,0.004651,0.813247,-0.380685,-0.307254,0.744697,-0.101163,0.304304,42.022747,-24.781693,-4.019289,0.667814,1.968490,-0.196061,0.000000,0.000000,0.000000,0.000000,0.000000,0.000000
11835296.000000,-2.349772,-1.663336,1.143805,-1.410377,1.738338,1.188534,-0.569094,0.373664,0.006777,0.807942,-0.378513,-0.299436,0.739442,-0.105304,0.351911,41.824383,-24.805496,-3.920107,0.625699,1.995040,-0.169511,0.000000,0.000000,0.000000,0.000000,0.000000,0.000000
11835297.000000,-2.349412,-1.663338,1.144601,-1.410751,1.738047,1.189253,-0.569200,0.368717,0.004352,0.804499,-0.379010,-0.295010,0.729651,-0.106884,0.550275,41.800579,-24.880875,-3.868532,0.632108,2.039901,-0.182328,0.000000,0.000000,0.000000,0.000000,0.000000,0.000000
11835298.000000,-2.349060,-1.663336,1.145416,-1.411114,1.737751,1.189956,-0.569305,0.373148,0.003472,0.803024,-0.373769,-0.300014,0.718053,-0.108985,0.772443,41.752972,-25.051468,-3.920107,0.637601,2.202865,-0.169511,0.000000,0.000000,0.000000,0.000000,0.000000,0.000000
11835299.000000,-2.348698,-1.663336,1.146221,-1.411481,1.737460,1.190653,-0.569405,0.367427,0.001351,0.811002,-0.368557,-0.293940,0.701046,-0.107103,0.947004,41.776775,-25.099075,-3.868532,0.584501,2.320052,-0.208878,0.000000,0.000000,0.000000,0.000000,0.000000,0.000000
11835300.000000,-2.348345,-1.663340,1.146998,-1.411841,1.737166,1.191360,-0.569509,0.358144,-0.001075,0.801633,-0.370808,-0.288050,0.701724,-0.104680,1.145368,41.848186,-24.880875,-3.892336,0.620206,2.345687,-0.188737,0.000000,0.000000,0.000000,0.000000,0.000000,0.000000
11835301.000000,-2.347995,-1.663344,1.147792,-1.412216,1.736880,1.192073,-0.569616,0.352422,0.004035,0.798075,-0.370045,-0.287891,0.709455,-0.102849,1.343732,41.899761,-24.857071,-3.721742,0.649503,2.196456,-0.169511,0.000000,0.000000,0.000000,0.000000,0.000000,0.000000
11835302.000000,-2.347632,-1.663347,1.148562,-1.412590,1.736594,1.192799,-0.569713,0.354171,0.001921,0.789974,-0.370340,-0.289413,0.712553,-0.099987,1.415143,41.947369,-24.634903,-3.646364,0.601896,2.092086,-0.208878,0.000000,0.000000,0.000000,0.000000,0.000000,0.000000
11835303.000000,-2.347277,-1.663349,1.149346,-1.412953,1.736295,1.193526,-0.569822,0.361313,0.000982,0.786406,-0.365387,-0.289151,0.726605,-0.100186,1.565900,41.971172,-24.488113,-3.523378,0.632108,1.981307,-0.169511,0.000000,0.000000,0.000000,0.000000,0.000000,0.000000
11835304.000000,-2.346933,-1.663350,1.150127,-1.413316,1.736008,1.194238,-0.569921,0.352627,0.000291,0.780476,-0.362009,-0.293121,0.718142,-0.103453,1.712690,41.994976,-24.190567,-3.475771,0.655912,1.916305,-0.169511,0.000000,0.000000,0.000000,0.000000,0.000000,0.000000
11835305.000000,-2.346593,-1.663352,1.150897,-1.413675,1.735730,1.194963,-0.570022,0.347672,-0.000310,0.776435,-0.367707,-0.289406,0.720928,-0.101583,1.911054,42.022747,-23.948563,-3.424196,0.637601,1.851302,-0.155778,0.000000,0.000000,0.000000,0.000000,0.000000,0.000000
11835306.000000,-2.346254,-1.663349,1.151673,-1.414029,1.735447,1.195678,-0.570120,0.348037,0.001108,0.774370,-0.365354,-0.291875,0.729755,-0.100075,2.109418,41.971172,-23.702591,-3.475771,0.620206,1.825668,-0.149369,0.000000,0.000000,0.000000,0.000000,0.000000,0.000000
11835307.000000,-2.345916,-1.663344,1.152432,-1.414382,1.735159,1.196399,-0.570210,0.342185,0.002491,0.788540,-0.359362,-0.287963,0.728124,-0.097511,2.307783,41.899761,-23.409012,-3.570986,0.571683,1.838485,-0.182328,0.000000,0.000000,0.000000,0.000000,0.000000,0.000000
11835308.000000,-2.345569,-1.663338,1.153205,-1.414737,1.734866,1.197132,-0.570312,0.337283,0.003485,0.786550,-0.356790,-0.287086,0.739350,-0.096928,2.454572,41.824383,-23.286026,-3.475771,0.578092,1.819259,-0.175919,0.000000,0.000000,0.000000,0.000000,0.000000,0.000000
11835309.000000,-2.345223,-1.663324,1.153977,-1.415095,1.734574,1.197866,-0.570406,0.338357,0.006360,0.779017,-0.353446,-0.284251,0.740417,-0.095127,2.482343,41.653790,-23.135269,-3.424196,0.655912,1.714889,-0.208878,0.000000,0.000000,0.000000,0.000000,0.000000,0.000000
11835310.000000,-2.344877,-1.663306,1.154739,-1.415466,1.734293,1.198600,-0.570505,0.341660,0.010028,0.772898,-0.355510,-0.283737,0.737383,-0.096223,2.506147,41.407818,-23.040054,-3.202028,0.667814,1.676437,-0.182328,0.000000,0.000000,0.000000,0.000000,0.000000,0.000000
11835311.000000,-2.344527,-1.663294,1.155504,-1.415825,1.734008,1.199332,-0.570603,0.346002,0.010702,0.764821,-0.359704,-0.284577,0.742467,-0.091830,2.454572,41.237225,-22.917068,-3.102846,0.698026,1.624252,-0.169511,0.000000,0.000000,0.000000,0.000000,0.000000,0.000000
11835312.000000,-2.344174,-1.663273,1.156286,-1.416181,1.733723,1.200060,-0.570694,0.349144,0.013464,0.781239,-0.357436,-0.285016,0.738520,-0.092279,2.383161,40.967449,-22.988480,-3.079042,0.721830,1.617843,-0.208878,0.000000,0.000000,0.000000,0.000000,0.000000,0.000000
11835313.000000,-2.343822,-1.663253,1.157044,-1.416525,1.733446,1.200794,-0.570791,0.349069,0.014095,0.770852,-0.358181,-0.282337,0.740511,-0.094174,2.359357,40.749249,-22.893265,-3.102846,0.667814,1.597701,-0.169511,0.000000,0.000000,0.000000,0.000000,0.000000,0.000000
11835314.000000,-2.343477,-1.663235,1.157809,-1.416880,1.733181,1.201511,-0.570883,0.345306,0.014048,0.765111,-0.355807,-0.276270,0.736276,-0.091956,2.283979,40.550884,-22.817886,-3.126650,0.625699,1.624252,-0.196061,0.000000,0.000000,0.000000,0.000000,0.000000,0.000000
11835315.000000,-2.343127,-1.663214,1.158580,-1.417227,1.732906,1.202224,-0.570981,0.346342,0.014477,0.763588,-0.350453,-0.272946,0.728968,-0.093472,2.260175,40.332684,-22.917068,-3.178224,0.625699,1.767074,-0.175919,0.000000,0.000000,0.000000,0.000000,0.000000,0.000000
11835316.000000,-2.342772,-1.663191,1.159345,-1.417572,1.732640,1.202936,-0.571079,0.354550,0.018576,0.761186,-0.350530,-0.273483,0.713517,-0.093643,2.133222,40.086712,-22.964676,-3.202028,0.554288,1.916305,-0.182328,0.000000,0.000000,0.000000,0.000000,0.000000,0.000000
11835317.000000,-2.342419,-1.663173,1.160114,-1.417923,1.732364,1.203653,-0.571172,0.355187,0.018151,0.758654,-0.349384,-0.272417,0.712599,-0.093663,2.085615,39.987530,-22.964676,-3.102846,0.578092,1.909896,-0.188737,0.000000,0.000000,0.000000,0.000000,0.000000,0.000000
11835318.000000,-2.342058,-1.663149,1.160870,-1.418267,1.732096,1.204384,-0.571267,0.353027,0.016558,0.755034,-0.351139,-0.264790,0.724292,-0.094311,1.962629,39.816936,-22.940872,-3.055238,0.554288,1.819259,-0.163102,0.000000,0.000000,0.000000,0.000000,0.000000,0.000000
11835319.000000,-2.341707,-1.663122,1.161641,-1.418601,1.731829,1.205113,-0.571354,0.351997,0.020071,0.755063,-0.346074,-0.266269,0.729629,-0.088339,1.835676,39.574932,-22.988480,-3.154421,0.589994,1.735030,-0.202470,0.000000,0.000000,0.000000,0.000000,0.000000,0.000000
11835320.000000,-2.341350,-1.663096,1.162392,-1.418935,1.731558,1.205831,-0.571451,0.353223,0.022153,0.765650,-0.343188,-0.266075,0.722298,-0.091171,1.740461,39.352764,-22.940872,-3.202028,0.601896,1.773483,-0.175919,0.000000,0.000000,0.000000,0.000000,0.000000,0.000000
11835321.000000,-2.340994,-1.663078,1.163152,-1.419259,1.731296,1.206556,-0.571546,0.360637,0.020895,0.761934,-0.335107,-0.259787,0.719417,-0.091552,1.665082,39.253582,-22.841690,-3.376589,0.571683,1.760665,-0.182328,0.000000,0.000000,0.000000,0.000000,0.000000,0.000000
11835322.000000,-2.340637,-1.663060,1.163902,-1.419587,1.731034,1.207267,-0.571641,0.359247,0.019503,0.754147,-0.328676,-0.262242,0.715455,-0.087280,1.589704,39.182171,-22.595718,-3.424196,0.608304,1.793624,-0.188737,0.000000,0.000000,0.000000,0.000000,0.000000,0.000000
11835323.000000,-2.340281,-1.663039,1.164647,-1.419905,1.730783,1.207970,-0.571737,0.355058,0.019748,0.754347,-0.325298,-0.256002,0.703516,-0.093756,1.490522,39.059185,-22.401321,-3.570986,0.571683,1.890670,-0.188737,0.000000,0.000000,0.000000,0.000000,0.000000,0.000000
11835324.000000,-2.339920,-1.663017,1.165408,-1.420221,1.730535,1.208681,-0.571828,0.358239,0.020078,0.755657,-0.318863,-0.254654,0.719492,-0.094113,1.292158,38.936199,-22.325943,-3.745546,0.482877,1.916305,-0.202470,0.000000,0.000000,0.000000,0.000000,0.000000,0.000000
11835325.000000,-2.339556,-1.662995,1.166169,-1.420539,1.730274,1.209392,-0.571923,0.359163,0.019912,0.767875,-0.318923,-0.255051,0.720943,-0.095286,1.145368,38.837017,-22.278336,-3.844728,0.422452,1.806442,-0.175919,0.000000,0.000000,0.000000,0.000000,0.000000,0.000000
11835326.000000,-2.339188,-1.662977,1.166917,-1.420852,1.730012,1.210123,-0.572016,0.359972,0.018951,0.761345,-0.315588,-0.253035,0.722900,-0.095019,0.947004,38.765606,-22.202957,-3.967714,0.422452,1.637069,-0.188737,0.000000,0.000000,0.000000,0.000000,0.000000,0.000000
11835327.000000,-2.338825,-1.662962,1.167681,-1.421170,1.729754,1.210831,-0.572107,0.357706,0.016762,0.758447,-0.315829,-0.251875,0.720867,-0.095814,0.772443,38.765606,-22.254532,-3.967714,0.434354,1.572067,-0.163102,0.000000,0.000000,0.000000,0.000000,0.000000,0.000000
11835328.000000,-2.338460,-1.662946,1.168435,-1.421480,1.729504,1.211520,-0.572200,0.355934,0.018640,0.753597,-0.313308,-0.248076,0.705349,-0.094730,0.574079,38.765606,-22.302139,-4.090700,0.386747,1.727706,-0.175919,0.000000,0.000000,0.000000,0.000000,0.000000,0.000000
11835329.000000,-2.338104,-1.662932,1.169198,-1.421784,1.729243,1.212231,-0.572290,0.356385,0.015652,0.755191,-0.312559,-0.260552,0.723342,-0.094184,0.474897,38.813213,-22.425125,-4.166078,0.393156,1.819259,-0.188737,0.000000,0.000000,0.000000,0.000000,0.000000,0.000000
11835330.000000,-2.337739,-1.662922,1.169957,-1.422079,1.728977,1.212936,-0.572383,0.359988,0.013065,0.763597,-0.302644,-0.257825,0.717192,-0.096023,0.403486,38.888592,-22.425125,-4.340639,0.416959,1.754256,-0.149369,0.000000,0.000000,0.000000,0.000000,0.000000,0.000000
11835331.000000,-2.337374,-1.662916,1.170701,-1.422368,1.728715,1.213648,-0.572464,0.362075,0.010715,0.756934,-0.294802,-0.260251,0.718820,-0.088738,0.304304,38.983807,-22.448929,-4.562807,0.440763,1.754256,-0.202470,0.000000,0.000000,0.000000,0.000000,0.000000,0.000000
11835332.000000,-2.337015,-1.662903,1.171470,-1.422666,1.728473,1.214328,-0.572555,0.361064,0.011437,0.757172,-0.290656,-0.255078,0.711757,-0.087015,0.205121,38.983807,-22.647293,-4.586610,0.398649,1.877853,-0.163102,0.000000,0.000000,0.000000,0.000000,0.000000,0.000000
11835333.000000,-2.336652,-1.662897,1.172210,-1.422950,1.728219,1.215022,-0.572638,0.360131,0.009522,0.746402,-0.286947,-0.253428,0.701204,-0.086930,0.078168,39.082989,-22.595718,-4.757204,0.422452,2.001449,-0.215287,0.000000,0.000000,0.000000,0.000000,0.000000,0.000000
11835334.000000,-2.336295,-1.662901,1.172961,-1.423244,1.727957,1.215740,-0.572725,0.369593,0.001690,0.740734,-0.286416,-0.259068,0.702520,-0.089112,0.006757,39.328960,-22.472733,-4.709596,0.494779,1.890670,-0.221696,0.000000,0.000000,0.000000,0.000000,0.000000,0.000000
11835335.000000,-2.335931,-1.662898,1.173707,-1.423521,1.727700,1.216438,-0.572824,0.367067,0.006599,0.739072,-0.282440,-0.254736,0.702084,-0.092279,-0.116229,39.400372,-22.278336,-4.907960,0.470060,1.812850,-0.142960,0.000000,0.000000,0.000000,0.000000,0.000000,0.000000
11835336.000000,-2.335568,-1.662895,1.174456,-1.423796,1.727448,1.217149,-0.572912,0.363425,0.005839,0.741437,-0.289940,-0.250799,0.707426,-0.091703,-0.167803,39.523357,-22.302139,-5.030946,0.434354,1.825668,-0.163102,0.000000,0.000000,0.000000,0.000000,0.000000,0.000000
11835337.000000,-2.335217,-1.662900,1.175207,-1.424074,1.727212,1.217851,-0.572995,0.358008,0.002401,0.745775,-0.287592,-0.246485,0.720879,-0.090998,-0.215411,39.769329,-22.254532,-5.153932,0.351041,1.754256,-0.202470,0.000000,0.000000,0.000000,0.000000,0.000000,0.000000
11835338.000000,-2.334865,-1.662900,1.175943,-1.424347,1.726966,1.218578,-0.573088,0.357629,-0.000173,0.753368,-0.282024,-0.245967,0.717396,-0.089671,-0.167803,39.892315,-22.107742,-5.304689,0.332731,1.611434,-0.149369,0.000000,0.000000,0.000000,0.000000,0.000000,0.000000
11835339.000000,-2.334507,-1.662908,1.176681,-1.424607,1.726713,1.219296,-0.573170,0.363288,-0.001225,0.743254,-0.275911,-0.250312,0.726950,-0.084736,-0.191607,40.110516,-21.861771,-5.550661,0.315336,1.565658,-0.188737,0.000000,0.000000,0.000000,0.000000,0.000000,0.000000
11835340.000000,-2.334158,-1.662905,1.177429,-1.424871,1.726469,1.220000,-0.573255,0.363733,-0.001139,0.741041,-0.268804,-0.248646,0.719384,-0.082089,-0.215411,40.162090,-21.738785,-5.749025,0.303434,1.624252,-0.202470,0.000000,0.000000,0.000000,0.000000,0.000000,0.000000
11835341.000000,-2.333804,-1.662904,1.178166,-1.425129,1.726229,1.220708,-0.573346,0.360690,-0.001210,0.736435,-0.267332,-0.242661,0.712651,-0.086592,-0.243182,40.209698,-21.568192,-5.947389,0.297025,1.670028,-0.163102,0.000000,0.000000,0.000000,0.000000,0.000000,0.000000
11835342.000000,-2.333456,-1.662906,1.178912,-1.425388,1.725991,1.221429,-0.573430,0.354185,-0.001979,0.734532,-0.266653,-0.240429,0.720438,-0.083634,-0.342364,40.281109,-21.445206,-6.117982,0.332731,1.578475,-0.182328,0.000000,0.000000,0.000000,0.000000,0.000000,0.000000
11835343.000000,-2.333101,-1.662899,1.179663,-1.425656,1.725755,1.222157,-0.573511,0.355239,0.000167,0.748532,-0.268656,-0.236055,0.723239,-0.086020,-0.413775,40.233501,-21.393631,-6.169557,0.315336,1.416427,-0.202470,0.000000,0.000000,0.000000,0.000000,0.000000,0.000000
11835344.000000,-2.332745,-1.662894,1.180404,-1.425914,1.725514,1.222871,-0.573602,0.355261,0.000948,0.742747,-0.263682,-0.241871,0.721930,-0.085556,-0.512957,40.209698,-21.417435,-6.240968,0.273221,1.461288,-0.149369,0.000000,0.000000,0.000000,0.000000,0.000000,0.000000
11835345.000000,-2.332388,-1.662890,1.181151,-1.426184,1.725274,1.223577,-0.573675,0.357855,0.001956,0.741799,-0.266918,-0.237864,0.714947,-0.080707,-0.663714,40.162090,-21.393631,-6.141786,0.255826,1.552840,-0.208878,0.000000,0.000000,0.000000,0.000000,0.000000,0.000000
11835346.000000,-2.332037,-1.662879,1.181893,-1.426448,1.725037,1.224292,-0.573761,0.352265,0.008076,0.737035,-0.263558,-0.239628,0.715051,-0.080613,-0.687518,40.015301,-21.417435,-6.141786,0.261320,1.637069,-0.188737,0.000000,0.000000,0.000000,0.000000,0.000000,0.000000
11835347.000000,-2.331696,-1.662870,1.182648,-1.426705,1.724806,1.225016,-0.573848,0.352037,0.008644,0.741228,-0.262652,-0.240666,0.709661,-0.080958,-0.687518,39.892315,-21.469009,-6.193361,0.243009,1.630660,-0.142960,0.000000,0.000000,0.000000,0.000000,0.000000,0.000000
11835348.000000,-2.331343,-1.662858,1.183411,-1.426965,1.724573,1.225735,-0.573924,0.354052,0.009484,0.760615,-0.263016,-0.241801,0.709260,-0.077755,-0.762896,39.745525,-21.615799,-6.193361,0.237516,1.624252,-0.196061,0.000000,0.000000,0.000000,0.000000,0.000000,0.000000
11835349.000000,-2.330995,-1.662843,1.184163,-1.427231,1.724334,1.226452,-0.574013,0.351529,0.013585,0.760805,-0.262207,-0.242797,0.713200,-0.083403,-0.762896,39.574932,-21.762589,-6.117982,0.243009,1.630660,-0.155778,0.000000,0.000000,0.000000,0.000000,0.000000,0.000000
11835350.000000,-2.330646,-1.662833,1.184929,-1.427496,1.724098,1.227158,-0.574097,0.349807,0.014939,0.759614,-0.263723,-0.239047,0.713944,-0.080644,-0.834307,39.475750,-21.960953,-6.070375,0.249418,1.721298,-0.175919,0.000000,0.000000,0.000000,0.000000,0.000000,0.000000
11835351.000000,-2.330300,-1.662823,1.185679,-1.427763,1.723863,1.227866,-0.574185,0.347721,0.012297,0.749204,-0.266017,-0.241206,0.709372,-0.080102,-0.909686,39.400372,-22.131546,-5.971193,0.273221,1.786300,-0.155778,0.000000,0.000000,0.000000,0.000000,0.000000,0.000000
11835352.000000,-2.329957,-1.662815,1.186436,-1.428028,1.723635,1.228568,-0.574270,0.353130,0.012359,0.741977,-0.262781,-0.237842,0.708051,-0.078624,-0.933489,39.376568,-22.179153,-5.947389,0.279630,1.838485,-0.169511,0.000000,0.000000,0.000000,0.000000,0.000000,0.000000
11835353.000000,-2.329621,-1.662805,1.187206,-1.428295,1.723407,1.229265,-0.574357,0.351012,0.009383,0.748181,-0.262968,-0.234291,0.703593,-0.079071,-0.885882,39.352764,-22.325943,-5.919618,0.267728,1.832076,-0.136552,0.000000,0.000000,0.000000,0.000000,0.000000,0.000000
11835354.000000,-2.329288,-1.662796,1.187963,-1.428561,1.723176,1.229960,-0.574434,0.343961,0.006696,0.748809,-0.271920,-0.233858,0.692172,-0.076111,-0.735125,39.352764,-22.448929,-5.872011,0.189908,1.858627,-0.175919,0.000000,0.000000,0.000000,0.000000,0.000000,0.000000
11835355.000000,-2.328955,-1.662788,1.188726,-1.428834,1.722935,1.230653,-0.574518,0.338626,0.004238,0.750896,-0.269740,-0.237698,0.707464,-0.080657,-0.663714,39.376568,-22.548111,-5.872011,0.201810,1.865035,-0.188737,0.000000,0.000000,0.000000,0.000000,0.000000,0.000000
11835356.000000,-2.328618,-1.662784,1.189482,-1.429121,1.722692,1.231349,-0.574601,0.335481,0.004480,0.756613,-0.271683,-0.241227,0.708440,-0.080092,-0.663714,39.451946,-22.448929,-5.721254,0.237516,1.844894,-0.182328,0.000000,0.000000,0.000000,0.000000,0.000000,0.000000
11835357.000000,-2.328280,-1.662774,1.190225,-1.429399,1.722452,1.232052,-0.574685,0.334641,0.003437,0.747197,-0.275413,-0.238703,0.712853,-0.083083,-0.635943,39.451946,-22.325943,-5.598268,0.267728,1.865035,-0.196061,0.000000,0.000000,0.000000,0.000000,0.000000,0.000000
11835358.000000,-2.327950,-1.662760,1.190986,-1.429686,1.722216,1.232737,-0.574773,0.333910,0.004949,0.750130,-0.281454,-0.236760,0.710851,-0.084035,-0.564532,39.352764,-22.353714,-5.451478,0.297025,1.890670,-0.142960,0.000000,0.000000,0.000000,0.000000,0.000000,0.000000
11835359.000000,-2.327619,-1.662751,1.191739,-1.429978,1.721981,1.233436,-0.574850,0.331906,0.006612,0.749761,-0.283668,-0.232923,0.704777,-0.080019,-0.441546,39.352764,-22.377518,-5.276918,0.279630,1.865035,-0.188737,0.000000,0.000000,0.000000,0.000000,0.000000,0.000000
11835360.000000,-2.327292,-1.662741,1.192501,-1.430270,1.721743,1.234156,-0.574938,0.332064,0.008022,0.753539,-0.286633,-0.235621,0.722548,-0.080379,-0.366168,39.352764,-22.401321,-5.030946,0.273221,1.708480,-0.163102,0.000000,0.000000,0.000000,0.000000,0.000000,0.000000
11835361.000000,-2.326970,-1.662735,1.193271,-1.430565,1.721501,1.234851,-0.575015,0.324991,0.004832,0.769042,-0.286706,-0.239826,0.710057,-0.078454,-0.243182,39.400372,-22.548111,-4.856386,0.320829,1.637069,-0.182328,0.000000,0.000000,0.000000,0.000000,0.000000,0.000000
11835362.000000,-2.326644,-1.662722,1.194028,-1.430858,1.721263,1.235539,-0.575092,0.325079,0.007959,0.764819,-0.288421,-0.237235,0.703432,-0.076739,-0.167803,39.352764,-22.671097,-4.634218,0.344633,1.767074,-0.215287,0.000000,0.000000,0.000000,0.000000,0.000000,0.000000
11835363.000000,-2.326321,-1.662716,1.194800,-1.431154,1.721035,1.236205,-0.575181,0.324182,0.008616,0.763242,-0.292246,-0.234575,0.691437,-0.080001,-0.092425,39.376568,-22.865494,-4.439821,0.344633,1.968490,-0.122819,0.000000,0.000000,0.000000,0.000000,0.000000,0.000000
11835364.000000,-2.326003,-1.662710,1.195563,-1.431456,1.720797,1.236904,-0.575254,0.320733,0.006467,0.759539,-0.292132,-0.238185,0.690873,-0.075102,0.054365,39.376568,-23.087662,-4.241457,0.386747,1.962081,-0.215287,0.000000,0.000000,0.000000,0.000000,0.000000,0.000000
11835365.000000,-2.325692,-1.662710,1.196335,-1.431750,1.720560,1.237610,-0.575342,0.322079,0.005593,0.754215,-0.293946,-0.247689,0.692095,-0.082067,0.252729,39.475750,-23.286026,-4.090700,0.386747,1.909896,-0.163102,0.000000,0.000000,0.000000,0.000000,0.000000,0.000000
11835366.000000,-2.325374,-1.662705,1.197116,-1.432051,1.720316,1.238301,-0.575424,0.316526,0.007007,0.754800,-0.294676,-0.243645,0.691296,-0.081679,0.304304,39.499554,-23.555801,-3.943910,0.428861,1.903487,-0.155778,0.000000,0.000000,0.000000,0.000000,0.000000,0.000000
11835367.000000,-2.325053,-1.662706,1.197882,-1.432348,1.720083,1.238984,-0.575501,0.318091,0.003668,0.755616,-0.295295,-0.243515,0.695554,-0.078224,0.351911,39.574932,-23.750198,-3.820925,0.428861,2.027084,-0.202470,0.000000,0.000000,0.000000,0.000000,0.000000,0.000000
11835368.000000,-2.324743,-1.662710,1.198649,-1.432646,1.719850,1.239670,-0.575583,0.318004,0.000789,0.752830,-0.294676,-0.240872,0.695443,-0.079063,0.474897,39.670147,-23.849380,-3.745546,0.476469,1.995040,-0.169511,0.000000,0.000000,0.000000,0.000000,0.000000,0.000000
11835369.000000,-2.324423,-1.662719,1.199403,-1.432953,1.719610,1.240371,-0.575664,0.316310,-0.002480,0.759802,-0.299940,-0.239341,0.694710,-0.078370,0.502668,39.816936,-23.702591,-3.570986,0.547880,1.936446,-0.163102,0.000000,0.000000,0.000000,0.000000,0.000000,0.000000
11835370.000000,-2.324106,-1.662718,1.200155,-1.433248,1.719375,1.241058,-0.575739,0.317988,-0.001332,0.756074,-0.296513,-0.234616,0.697265,-0.076743,0.550275,39.816936,-23.702591,-3.570986,0.524076,1.974899,-0.188737,0.000000,0.000000,0.000000,0.000000,0.000000,0.000000
11835371.000000,-2.323802,-1.662726,1.200915,-1.433546,1.719142,1.241745,-0.575816,0.311531,-0.002411,0.754483,-0.294217,-0.232216,0.687776,-0.074284,0.649457,39.892315,-23.678787,-3.547182,0.524076,2.007858,-0.221696,0.000000,0.000000,0.000000,0.000000,0.000000,0.000000
11835372.000000,-2.323496,-1.662735,1.201653,-1.433839,1.718915,1.242442,-0.575902,0.308970,-0.004304,0.742723,-0.302039,-0.229344,0.686721,-0.077360,0.796247,40.015301,-23.480423,-3.598757,0.494779,1.974899,-0.149369,0.000000,0.000000,0.000000,0.000000,0.000000,0.000000
11835373.000000,-2.323195,-1.662743,1.202402,-1.434138,1.718690,1.243141,-0.575972,0.309968,-0.005518,0.742943,-0.299338,-0.228724,0.706383,-0.074604,0.970807,40.134319,-23.258255,-3.570986,0.500272,1.877853,-0.208878,0.000000,0.000000,0.000000,0.000000,0.000000,0.000000
11835374.000000,-2.322882,-1.662748,1.203165,-1.434433,1.718473,1.243844,-0.576050,0.310985,-0.004227,0.758652,-0.296408,-0.226786,0.706987,-0.071075,0.994611,40.162090,-23.186844,-3.570986,0.464567,1.851302,-0.196061,0.000000,0.000000,0.000000,0.000000,0.000000,0.000000
11835375.000000,-2.322577,-1.662750,1.203906,-1.434734,1.718250,1.244546,-0.576129,0.312859,-0.003298,0.752032,-0.297719,-0.224958,0.710450,-0.074139,1.145368,40.185894,-23.016251,-3.448000,0.422452,1.884261,-0.149369,0.000000,0.000000,0.000000,0.000000,0.000000,0.000000
11835376.000000,-2.322274,-1.662750,1.204655,-1.435028,1.718021,1.245256,-0.576196,0.308803,-0.002142,0.749920,-0.293400,-0.226870,0.713363,-0.072400,1.216779,40.185894,-22.865494,-3.376589,0.452665,1.779891,-0.202470,0.000000,0.000000,0.000000,0.000000,0.000000,0.000000
11835377.000000,-2.321969,-1.662749,1.205392,-1.435324,1.717800,1.245975,-0.576276,0.310406,-0.000179,0.740023,-0.293914,-0.222225,0.710746,-0.075013,1.216779,40.134319,-22.742508,-3.301210,0.464567,1.637069,-0.155778,0.000000,0.000000,0.000000,0.000000,0.000000,0.000000
11835378.000000,-2.321665,-1.662741,1.206147,-1.435617,1.717582,1.246688,-0.576345,0.308629,0.002140,0.739514,-0.294854,-0.223859,0.704667,-0.073574,1.216779,40.039104,-22.770279,-3.202028,0.476469,1.637069,-0.196061,0.000000,0.000000,0.000000,0.000000,0.000000,0.000000
11835379.000000,-2.321354,-1.662736,1.206897,-1.435904,1.717362,1.247379,-0.576420,0.304946,0.003771,0.751869,-0.292879,-0.221131,0.703019,-0.075502,1.169172,39.939922,-22.742508,-3.178224,0.512174,1.676437,-0.169511,0.000000,0.000000,0.000000,0.000000,0.000000,0.000000
11835380.000000,-2.321045,-1.662725,1.207635,-1.436188,1.717143,1.248078,-0.576492,0.304432,0.005409,0.744909,-0.292972,-0.223499,0.706566,-0.074420,1.145368,39.816936,-22.647293,-3.126650,0.542386,1.727706,-0.196061,0.000000,0.000000,0.000000,0.000000,0.000000,0.000000
11835381.000000,-2.320739,-1.662718,1.208384,-1.436475,1.716924,1.248762,-0.576564,0.305360,0.005847,0.744721,-0.292264,-0.223967,0.703924,-0.069766,1.069990,39.721722,-22.647293,-3.102846,0.535978,1.800033,-0.202470,0.000000,0.000000,0.000000,0.000000,0.000000,0.000000
11835382.000000,-2.320430,-1.662706,1.209126,-1.436761,1.716708,1.249463,-0.576643,0.303075,0.007991,0.755325,-0.289072,-0.219199,0.695117,-0.073868,0.947004,39.547161,-22.671097,-3.055238,0.530485,1.793624,-0.149369,0.000000,0.000000,0.000000,0.000000,0.000000,0.000000
11835383.000000,-2.320127,-1.662692,1.209882,-1.437046,1.716504,1.250163,-0.576709,0.310124,0.009882,0.748507,-0.290220,-0.218054,0.692684,-0.072457,0.947004,39.352764,-22.770279,-3.003664,0.482877,1.793624,-0.202470,0.000000,0.000000,0.000000,0.000000,0.000000,0.000000
11835384.000000,-2.319818,-1.662683,1.210639,-1.437337,1.716292,1.250854,-0.576780,0.308989,0.009471,0.747273,-0.287698,-0.211316,0.686728,-0.074522,0.895429,39.229778,-22.865494,-2.928285,0.494779,1.760665,-0.175919,0.000000,0.000000,0.000000,0.000000,0.000000,0.000000
11835385.000000,-2.319507,-1.662675,1.211382,-1.437624,1.716084,1.251558,-0.576847,0.308106,0.015541,0.743121,-0.284257,-0.210229,0.690125,-0.073148,0.824018,39.106792,-22.988480,-2.805300,0.500272,1.767074,-0.215287,0.000000,0.000000,0.000000,0.000000,0.000000,0.000000
11835386.000000,-2.319203,-1.662664,1.212124,-1.437906,1.715881,1.252239,-0.576924,0.306544,0.013770,0.742401,-0.284953,-0.208703,0.692562,-0.075220,0.796247,38.983807,-23.016251,-2.805300,0.470060,1.812850,-0.169511,0.000000,0.000000,0.000000,0.000000,0.000000,0.000000
11835387.000000,-2.318895,-1.662657,1.212879,-1.438184,1.715666,1.252936,-0.576989,0.305913,0.011806,0.755540,-0.278415,-0.208158,0.696060,-0.069451,0.724836,38.888592,-23.111465,-2.856874,0.458158,1.825668,-0.196061,0.000000,0.000000,0.000000,0.000000,0.000000,0.000000
11835388.000000,-2.318594,-1.662648,1.213615,-1.438459,1.715457,1.253627,-0.577064,0.304600,0.014219,0.746107,-0.278535,-0.207114,0.698118,-0.071269,0.772443,38.765606,-23.135269,-2.833071,0.428861,1.871444,-0.188737,0.000000,0.000000,0.000000,0.000000,0.000000,0.000000
11835389.000000,-2.318298,-1.662637,1.214354,-1.438731,1.715249,1.254308,-0.577134,0.304907,0.012845,0.740066,-0.277736,-0.207021,0.688557,-0.072631,0.847822,38.642620,-23.040054,-2.956056,0.422452,1.916305,-0.182328,0.000000,0.000000,0.000000,0.000000,0.000000,0.000000
11835390.000000,-2.317997,-1.662627,1.215084,-1.439004,1.715039,1.255002,-0.577203,0.299386,0.011250,0.732329,-0.281954,-0.207986,0.688288,-0.072458,0.895429,38.543438,-22.964676,-2.979860,0.452665,1.890670,-0.202470,0.000000,0.000000,0.000000,0.000000,0.000000,0.000000
11835391.000000,-2.317697,-1.662617,1.215817,-1.439274,1.714836,1.255690,-0.577279,0.297861,0.010002,0.730573,-0.274319,-0.204165,0.701667,-0.074906,0.871625,38.448223,-22.817886,-2.979860,0.476469,1.832076,-0.163102,0.000000,0.000000,0.000000,0.000000,0.000000,0.000000
11835392.000000,-2.317398,-1.662609,1.216553,-1.439551,1.714625,1.256382,-0.577342,0.298914,0.008637,0.734746,-0.272847,-0.206110,0.692965,-0.068823,0.847822,38.372845,-22.671097,-2.928285,0.512174,1.819259,-0.208878,0.000000,0.000000,0.000000,0.000000,0.000000,0.000000
11835393.000000,-2.317101,-1.662597,1.217281,-1.439819,1.714411,1.257078,-0.577418,0.300052,0.011199,0.731035,-0.271244,-0.211277,0.687145,-0.072218,0.824018,38.277630,-22.548111,-2.904482,0.518583,1.773483,-0.163102,0.000000,0.000000,0.000000,0.000000,0.000000,0.000000
11835394.000000,-2.316810,-1.662591,1.218021,-1.440082,1.714212,1.257772,-0.577486,0.296323,0.007837,0.731153,-0.269320,-0.208648,0.688278,-0.073024,0.871625,38.277630,-22.524307,-2.904482,0.470060,1.741439,-0.142960,0.000000,0.000000,0.000000,0.000000,0.000000,0.000000
11835395.000000,-2.316516,-1.662584,1.218748,-1.440347,1.714008,1.258476,-0.577549,0.294712,0.007553,0.729594,-0.270101,-0.207518,0.690206,-0.066873,0.923200,38.325237,-22.472733,-2.956056,0.452665,1.643478,-0.202470,0.000000,0.000000,0.000000,0.000000,0.000000,0.000000
11835396.000000,-2.316227,-1.662577,1.219488,-1.440612,1.713817,1.259183,-0.577624,0.288643,0.004951,0.729820,-0.268678,-0.205797,0.701781,-0.070848,0.994611,38.349041,-22.472733,-2.956056,0.405057,1.584884,-0.163102,0.000000,0.000000,0.000000,0.000000,0.000000,0.000000
11835397.000000,-2.315933,-1.662565,1.220234,-1.440876,1.713620,1.259863,-0.577692,0.288972,0.010560,0.744440,-0.264628,-0.201862,0.698657,-0.075246,1.022382,38.325237,-22.571915,-2.928285,0.405057,1.682845,-0.202470,0.000000,0.000000,0.000000,0.000000,0.000000,0.000000
11835398.000000,-2.315637,-1.662558,1.220969,-1.441133,1.713415,1.260554,-0.577764,0.289806,0.010452,0.736102,-0.266604,-0.199330,0.698352,-0.075553,0.994611,38.349041,-22.647293,-2.979860,0.422452,1.735030,-0.196061,0.000000,0.000000,0.000000,0.000000,0.000000,0.000000
11835399.000000,-2.315349,-1.662555,1.221712,-1.441393,1.713213,1.261247,-0.577841,0.288867,0.009326,0.735404,-0.261889,-0.198110,0.695605,-0.072624,1.022382,38.424419,-22.817886,-3.027467,0.452665,1.727706,-0.149369,0.000000,0.000000,0.000000,0.000000,0.000000,0.000000
11835400.000000,-2.315052,-1.662558,1.222443,-1.441651,1.713006,1.261941,-0.577906,0.293602,0.006755,0.746188,-0.260161,-0.197476,0.687305,-0.071054,0.994611,38.571209,-22.893265,-3.126650,0.512174,1.760665,-0.215287,0.000000,0.000000,0.000000,0.000000,0.000000,0.000000
11835401.000000,-2.314762,-1.662552,1.223186,-1.441906,1.712807,1.262644,-0.577981,0.296867,0.004332,0.740870,-0.260370,-0.200374,0.690265,-0.074458,1.022382,38.618816,-23.087662,-3.178224,0.554288,1.812850,-0.155778,0.000000,0.000000,0.000000,0.000000,0.000000,0.000000
11835403.000000,-2.314167,-1.662554,1.224652,-1.442422,1.712419,1.264043,-0.578119,0.295673,0.000128,0.730933,-0.259634,-0.194566,0.687329,-0.071490,0.895429,38.888592,-23.135269,-3.249635,0.542386,1.825668,-0.163102,0.000000,0.000000,0.000000,0.000000,0.000000,0.000000
11835404.000000,-2.313877,-1.662562,1.225390,-1.442677,1.712230,1.264741,-0.578189,0.291965,-0.003310,0.729032,-0.260261,-0.196917,0.694433,-0.067486,0.847822,39.059185,-23.135269,-3.277406,0.512174,1.779891,-0.175919,0.000000,0.000000,0.000000,0.000000,0.000000,0.000000
11835405.000000,-2.313589,-1.662564,1.226133,-1.442930,1.712044,1.265442,-0.578256,0.291588,-0.002874,0.741045,-0.256075,-0.192013,0.686049,-0.069305,0.923200,39.106792,-23.163040,-3.376589,0.434354,1.806442,-0.182328,0.000000,0.000000,0.000000,0.000000,0.000000,0.000000
11835406.000000,-2.313293,-1.662570,1.226863,-1.443180,1.711850,1.266153,-0.578326,0.291535,-0.003902,0.737907,-0.254331,-0.190643,0.692936,-0.070595,0.895429,39.205975,-23.186844,-3.424196,0.410551,1.773483,-0.196061,0.000000,0.000000,0.000000,0.000000,0.000000,0.000000
11835407.000000,-2.313004,-1.662579,1.227590,-1.443423,1.711664,1.266843,-0.578392,0.293749,-0.005227,0.735456,-0.251441,-0.190449,0.687510,-0.066467,0.895429,39.328960,-23.016251,-3.523378,0.410551,1.741439,-0.215287,0.000000,0.000000,0.000000,0.000000,0.000000,0.000000
11835408.000000,-2.312711,-1.662581,1.228309,-1.443660,1.711473,1.267541,-0.578465,0.292554,-0.009522,0.728131,-0.245232,-0.192376,0.685843,-0.070881,0.871625,39.328960,-22.917068,-3.670168,0.470060,1.747848,-0.163102,0.000000,0.000000,0.000000,0.000000,0.000000,0.000000
11835409.000000,-2.312427,-1.662578,1.229040,-1.443900,1.711293,1.268233,-0.578528,0.287934,-0.005612,0.722131,-0.241675,-0.186034,0.697574,-0.065765,0.895429,39.281353,-22.817886,-3.769350,0.446256,1.754256,-0.202470,0.000000,0.000000,0.000000,0.000000,0.000000,0.000000
11835410.000000,-2.312138,-1.662580,1.229779,-1.444134,1.711115,1.268919,-0.578594,0.288528,-0.004025,0.734101,-0.239362,-0.184445,0.689572,-0.068445,0.871625,39.281353,-22.770279,-3.844728,0.381254,1.747848,-0.215287,0.000000,0.000000,0.000000,0.000000,0.000000,0.000000
11835411.000000,-2.311846,-1.662582,1.230493,-1.444363,1.710925,1.269622,-0.578669,0.290823,-0.004009,0.727509,-0.237079,-0.186740,0.697798,-0.067863,0.847822,39.328960,-22.524307,-3.967714,0.410551,1.617843,-0.142960,0.000000,0.000000,0.000000,0.000000,0.000000,0.000000
11835412.000000,-2.311558,-1.662587,1.231227,-1.444593,1.710737,1.270312,-0.578724,0.290174,-0.004503,0.724575,-0.232683,-0.187655,0.690920,-0.062711,0.847822,39.400372,-22.472733,-4.066896,0.422452,1.584884,-0.221696,0.000000,0.000000,0.000000,0.000000,0.000000,0.000000
11835413.000000,-2.311261,-1.662585,1.231949,-1.444828,1.710551,1.271000,-0.578796,0.288549,-0.002564,0.719349,-0.231631,-0.182481,0.686969,-0.067978,0.748639,39.376568,-22.448929,-4.066896,0.416959,1.649886,-0.169511,0.000000,0.000000,0.000000,0.000000,0.000000,0.000000
11835414.000000,-2.310971,-1.662584,1.232680,-1.445052,1.710373,1.271687,-0.578866,0.293464,-0.000686,0.713534,-0.229718,-0.186642,0.679199,-0.066628,0.601850,39.328960,-22.448929,-4.118471,0.393156,1.721298,-0.136552,0.000000,0.000000,0.000000,0.000000,0.000000,0.000000
11835415.000000,-2.310674,-1.662584,1.233407,-1.445280,1.710187,1.272379,-0.578924,0.295963,-0.000524,0.717891,-0.227369,-0.187650,0.680546,-0.066055,0.427289,39.328960,-22.325943,-4.189882,0.405057,1.727706,-0.221696,0.000000,0.000000,0.000000,0.000000,0.000000,0.000000
11835416.000000,-2.310376,-1.662583,1.234132,-1.445495,1.710002,1.273078,-0.578997,0.296775,0.000157,0.718546,-0.220411,-0.188433,0.677647,-0.065992,0.276533,39.305157,-22.353714,-4.364442,0.422452,1.676437,-0.163102,0.000000,0.000000,0.000000,0.000000,0.000000,0.000000
11835417.000000,-2.310079,-1.662574,1.234874,-1.445716,1.709832,1.273771,-0.579064,0.298556,0.002387,0.722599,-0.221387,-0.181570,0.685763,-0.067832,0.078168,39.205975,-22.548111,-4.412050,0.362943,1.637069,-0.163102,0.000000,0.000000,0.000000,0.000000,0.000000,0.000000
11835418.000000,-2.309775,-1.662570,1.235611,-1.445937,1.709652,1.274467,-0.579128,0.296053,0.003326,0.736168,-0.221526,-0.180886,0.686104,-0.069138,-0.116229,39.130596,-22.718704,-4.487428,0.303434,1.637069,-0.196061,0.000000,0.000000,0.000000,0.000000,0.000000,0.000000
11835419.000000,-2.309474,-1.662572,1.236347,-1.446155,1.709467,1.275158,-0.579199,0.300676,0.000990,0.727619,-0.220963,-0.183827,0.679196,-0.072306,-0.243182,39.182171,-22.817886,-4.586610,0.315336,1.676437,-0.155778,0.000000,0.000000,0.000000,0.000000,0.000000,0.000000
11835420.000000,-2.309173,-1.662574,1.237087,-1.446369,1.709284,1.275839,-0.579262,0.302455,0.000644,0.729057,-0.215396,-0.186577,0.683623,-0.068088,-0.489153,39.182171,-22.893265,-4.757204,0.351041,1.747848,-0.169511,0.000000,0.000000,0.000000,0.000000,0.000000,0.000000
11835421.000000,-2.308875,-1.662573,1.237820,-1.446578,1.709104,1.276516,-0.579322,0.298639,0.000974,0.722525,-0.220435,-0.187433,0.669133,-0.064162,-0.663714,39.158367,-23.063858,-4.907960,0.369352,1.858627,-0.196061,0.000000,0.000000,0.000000,0.000000,0.000000,0.000000
11835422.000000,-2.308581,-1.662569,1.238560,-1.446792,1.708932,1.277197,-0.579385,0.301157,0.001847,0.722203,-0.216833,-0.185748,0.684605,-0.062761,-0.786700,39.106792,-23.186844,-5.030946,0.320829,1.884261,-0.188737,0.000000,0.000000,0.000000,0.000000,0.000000,0.000000
11835423.000000,-2.308285,-1.662571,1.239307,-1.447003,1.708759,1.277888,-0.579454,0.298346,0.000668,0.734642,-0.216125,-0.184982,0.676280,-0.062112,-0.862078,39.130596,-23.333633,-5.177736,0.279630,1.832076,-0.163102,0.000000,0.000000,0.000000,0.000000,0.000000,0.000000
11835424.000000,-2.307984,-1.662571,1.240030,-1.447213,1.708583,1.278586,-0.579511,0.298081,0.000440,0.731256,-0.214095,-0.181954,0.683219,-0.063693,-0.985064,39.130596,-23.309830,-5.276918,0.297025,1.721298,-0.215287,0.000000,0.000000,0.000000,0.000000,0.000000,0.000000
11835425.000000,-2.307683,-1.662571,1.240761,-1.447418,1.708409,1.279253,-0.579583,0.299910,0.000290,0.729260,-0.209481,-0.177189,0.680754,-0.065171,-1.207232,39.130596,-23.234451,-5.352296,0.249418,1.800033,-0.130143,0.000000,0.000000,0.000000,0.000000,0.000000,0.000000
11835426.000000,-2.307380,-1.662569,1.241476,-1.447626,1.708225,1.279930,-0.579641,0.297080,0.000747,0.724261,-0.208663,-0.180601,0.671985,-0.066048,-1.405596,39.106792,-23.163040,-5.328493,0.273221,1.903487,-0.169511,0.000000,0.000000,0.000000,0.000000,0.000000,0.000000
11835427.000000,-2.307091,-1.662579,1.242197,-1.447834,1.708050,1.280613,-0.579698,0.296111,-0.006103,0.716316,-0.206760,-0.178831,0.682095,-0.062803,-1.504779,39.253582,-22.964676,-5.352296,0.291532,1.909896,-0.196061,0.000000,0.000000,0.000000,0.000000,0.000000,0.000000
11835428.000000,-2.306801,-1.662581,1.242924,-1.448041,1.707875,1.281292,-0.579761,0.290252,-0.004984,0.726533,-0.204805,-0.176461,0.675509,-0.062301,-1.504779,39.281353,-22.893265,-5.376100,0.285123,1.838485,-0.175919,0.000000,0.000000,0.000000,0.000000,0.000000,0.000000
11835429.000000,-2.306501,-1.662584,1.243650,-1.448239,1.707702,1.281982,-0.579816,0.291008,-0.003522,0.723990,-0.202895,-0.179189,0.689798,-0.059542,-1.580157,39.281353,-22.893265,-5.427675,0.279630,1.786300,-0.208878,0.000000,0.000000,0.000000,0.000000,0.000000,0.000000
11835430.000000,-2.306214,-1.662586,1.244385,-1.448443,1.707541,1.282661,-0.579881,0.291602,-0.003054,0.723712,-0.201555,-0.169576,0.674579,-0.059675,-1.580157,39.305157,-22.940872,-5.475282,0.207303,1.760665,-0.175919,0.000000,0.000000,0.000000,0.000000,0.000000,0.000000
11835431.000000,-2.305928,-1.662595,1.245108,-1.448647,1.707368,1.283343,-0.579936,0.289157,-0.005025,0.733595,-0.201748,-0.175867,0.677004,-0.057721,-1.552386,39.428143,-22.964676,-5.475282,0.243009,1.786300,-0.208878,0.000000,0.000000,0.000000,0.000000,0.000000,0.000000
11835432.000000,-2.305643,-1.662600,1.245840,-1.448848,1.707187,1.284026,-0.579997,0.287352,-0.007719,0.724515,-0.199381,-0.181757,0.671051,-0.058768,-1.603961,39.475750,-23.016251,-5.451478,0.303434,1.865035,-0.182328,0.000000,0.000000,0.000000,0.000000,0.000000,0.000000
11835433.000000,-2.305363,-1.662608,1.246584,-1.449054,1.707013,1.284707,-0.580052,0.285635,-0.007793,0.746753,-0.201313,-0.178791,0.667883,-0.057477,-1.528582,39.574932,-23.210648,-5.376100,0.308927,1.923629,-0.202470,0.000000,0.000000,0.000000,0.000000,0.000000,0.000000
11835434.000000,-2.305074,-1.662617,1.247315,-1.449252,1.706845,1.285391,-0.580114,0.286980,-0.007668,0.743908,-0.199657,-0.170314,0.671400,-0.057637,-1.552386,39.670147,-23.357437,-5.451478,0.273221,1.923629,-0.196061,0.000000,0.000000,0.000000,0.000000,0.000000,0.000000
11835435.000000,-2.304797,-1.662624,1.248057,-1.449451,1.706678,1.286081,-0.580177,0.282984,-0.009647,0.744511,-0.199066,-0.169342,0.673606,-0.058523,-1.504779,39.721722,-23.603409,-5.499086,0.249418,1.838485,-0.182328,0.000000,0.000000,0.000000,0.000000,0.000000,0.000000
11835436.000000,-2.304508,-1.662640,1.248802,-1.449655,1.706509,1.286773,-0.580234,0.281758,-0.011379,0.752321,-0.196675,-0.169479,0.683304,-0.057422,-1.552386,39.916119,-23.801773,-5.499086,0.255826,1.800033,-0.202470,0.000000,0.000000,0.000000,0.000000,0.000000,0.000000
11835437.000000,-2.304222,-1.662651,1.249534,-1.449856,1.706338,1.287450,-0.580302,0.289813,-0.010206,0.743918,-0.198320,-0.170577,0.675143,-0.064295,-1.627764,40.015301,-23.996170,-5.475282,0.285123,1.884261,-0.142960,0.000000,0.000000,0.000000,0.000000,0.000000,0.000000
11835438.000000,-2.303949,-1.662671,1.250279,-1.450064,1.706170,1.288104,-0.580356,0.283043,-0.015174,0.735982,-0.198857,-0.166888,0.673958,-0.060802,-1.627764,40.233501,-24.142960,-5.475282,0.315336,2.020675,-0.182328,0.000000,0.000000,0.000000,0.000000,0.000000,0.000000
11835439.000000,-2.303677,-1.662684,1.251007,-1.450270,1.706000,1.288779,-0.580415,0.278850,-0.013415,0.729447,-0.205689,-0.170661,0.669295,-0.059139,-1.552386,40.356487,-24.265945,-5.427675,0.279630,2.072860,-0.202470,0.000000,0.000000,0.000000,0.000000,0.000000,0.000000
11835440.000000,-2.303408,-1.662702,1.251741,-1.450478,1.705820,1.289453,-0.580479,0.276596,-0.015849,0.726874,-0.205704,-0.171779,0.683200,-0.060289,-1.480975,40.503277,-24.265945,-5.376100,0.315336,2.014266,-0.155778,0.000000,0.000000,0.000000,0.000000,0.000000,0.000000
11835441.000000,-2.303136,-1.662712,1.252474,-1.450677,1.705646,1.290130,-0.580533,0.271757,-0.014788,0.733630,-0.203034,-0.170635,0.676513,-0.058137,-1.405596,40.527081,-24.242142,-5.427675,0.297025,1.955673,-0.188737,0.000000,0.000000,0.000000,0.000000,0.000000,0.000000
11835442.000000,-2.302867,-1.662731,1.253202,-1.450879,1.705470,1.290815,-0.580592,0.270381,-0.015984,0.733448,-0.204607,-0.170900,0.679526,-0.057270,-1.282611,40.626263,-24.289749,-5.475282,0.308927,1.942855,-0.202470,0.000000,0.000000,0.000000,0.000000,0.000000,0.000000
11835443.000000,-2.302607,-1.662741,1.253933,-1.451083,1.705299,1.291481,-0.580654,0.269076,-0.014543,0.733784,-0.206145,-0.171115,0.681159,-0.058348,-1.159625,40.626263,-24.218338,-5.499086,0.320829,1.936446,-0.175919,0.000000,0.000000,0.000000,0.000000,0.000000,0.000000
11835444.000000,-2.302340,-1.662758,1.254647,-1.451296,1.705126,1.292167,-0.580710,0.267079,-0.012834,0.725137,-0.210729,-0.171923,0.677642,-0.057511,-1.131854,40.725445,-24.071548,-5.399904,0.362943,1.897079,-0.188737,0.000000,0.000000,0.000000,0.000000,0.000000,0.000000
11835445.000000,-2.302080,-1.662776,1.255380,-1.451497,1.704960,1.292845,-0.580772,0.267452,-0.017741,0.718751,-0.208241,-0.171430,0.686532,-0.058536,-1.032672,40.820660,-23.972366,-5.399904,0.369352,1.871444,-0.155778,0.000000,0.000000,0.000000,0.000000,0.000000,0.000000
11835446.000000,-2.301813,-1.662780,1.256115,-1.451711,1.704798,1.293510,-0.580825,0.268469,-0.013780,0.729555,-0.210498,-0.168451,0.679825,-0.056501,-0.961260,40.725445,-23.948563,-5.352296,0.297025,1.909896,-0.196061,0.000000,0.000000,0.000000,0.000000,0.000000,0.000000
11835447.000000,-2.301551,-1.662786,1.256830,-1.451916,1.704629,1.294200,-0.580885,0.263492,-0.008989,0.721505,-0.206138,-0.168181,0.688107,-0.056918,-0.862078,40.673870,-23.750198,-5.304689,0.273221,1.851302,-0.175919,0.000000,0.000000,0.000000,0.000000,0.000000,0.000000
11835448.000000,-2.301293,-1.662798,1.257556,-1.452123,1.704458,1.294882,-0.580944,0.264798,-0.006748,0.718472,-0.206670,-0.164847,0.685887,-0.057850,-0.762896,40.673870,-23.678787,-5.229311,0.291532,1.754256,-0.163102,0.000000,0.000000,0.000000,0.000000,0.000000,0.000000
11835449.000000,-2.301030,-1.662801,1.258275,-1.452339,1.704293,1.295567,-0.580999,0.261444,-0.003395,0.725990,-0.212442,-0.166232,0.685638,-0.058049,-0.762896,40.602459,-23.651016,-5.054750,0.297025,1.754256,-0.149369,0.000000,0.000000,0.000000,0.000000,0.000000,0.000000
11835450.000000,-2.300770,-1.662805,1.259000,-1.452555,1.704134,1.296248,-0.581053,0.264766,-0.007166,0.719665,-0.216269,-0.167842,0.677795,-0.056962,-0.786700,40.527081,-23.627213,-4.884157,0.308927,1.819259,-0.175919,0.000000,0.000000,0.000000,0.000000,0.000000,0.000000
11835451.000000,-2.300508,-1.662813,1.259732,-1.452771,1.703966,1.296934,-0.581104,0.262034,-0.005060,0.724593,-0.218531,-0.170435,0.678819,-0.056129,-0.810504,40.503277,-23.627213,-4.709596,0.369352,1.851302,-0.202470,0.000000,0.000000,0.000000,0.000000,0.000000,0.000000
11835452.000000,-2.300246,-1.662816,1.260456,-1.452984,1.703803,1.297627,-0.581163,0.258382,-0.004180,0.723384,-0.217032,-0.166490,0.682000,-0.057247,-0.786700,40.380291,-23.702591,-4.562807,0.405057,1.767074,-0.182328,0.000000,0.000000,0.000000,0.000000,0.000000,0.000000
11835453.000000,-2.299982,-1.662826,1.261183,-1.453195,1.703646,1.298314,-0.581218,0.258327,-0.006661,0.725809,-0.214654,-0.165704,0.678208,-0.056282,-0.862078,40.380291,-23.750198,-4.463624,0.362943,1.747848,-0.196061,0.000000,0.000000,0.000000,0.000000,0.000000,0.000000
11835454.000000,-2.299723,-1.662825,1.261915,-1.453418,1.703482,1.298999,-0.581278,0.259900,-0.005467,0.734811,-0.216760,-0.170658,0.678521,-0.057773,-0.834307,40.257305,-23.801773,-4.340639,0.351041,1.773483,-0.169511,0.000000,0.000000,0.000000,0.000000,0.000000,0.000000
11835455.000000,-2.299465,-1.662832,1.262639,-1.453637,1.703315,1.299692,-0.581332,0.257418,-0.007116,0.727207,-0.218291,-0.170599,0.680921,-0.051405,-0.810504,40.233501,-23.948563,-4.213686,0.351041,1.773483,-0.208878,0.000000,0.000000,0.000000,0.000000,0.000000,0.000000
11835456.000000,-2.299209,-1.662836,1.263372,-1.453859,1.703142,1.300366,-0.581391,0.256261,-0.004541,0.725119,-0.215783,-0.171959,0.686564,-0.053327,-0.834307,40.185894,-24.019974,-4.090700,0.393156,1.812850,-0.196061,0.000000,0.000000,0.000000,0.000000,0.000000,0.000000
11835457.000000,-2.298959,-1.662838,1.264094,-1.454075,1.702975,1.301041,-0.581452,0.256116,-0.004443,0.719363,-0.219233,-0.171687,0.679723,-0.055329,-0.762896,40.086712,-24.190567,-3.967714,0.416959,1.949264,-0.163102,0.000000,0.000000,0.000000,0.000000,0.000000,0.000000
11835458.000000,-2.298705,-1.662837,1.264823,-1.454293,1.702816,1.301720,-0.581503,0.257638,-0.003898,0.718271,-0.220164,-0.170744,0.691446,-0.054038,-0.735125,39.963726,-24.289749,-3.967714,0.405057,1.988631,-0.215287,0.000000,0.000000,0.000000,0.000000,0.000000,0.000000
11835459.000000,-2.298447,-1.662844,1.265553,-1.454514,1.702652,1.302410,-0.581562,0.259103,-0.006031,0.726086,-0.219067,-0.166445,0.682551,-0.061304,-0.735125,39.939922,-24.341324,-3.920107,0.422452,1.909896,-0.175919,0.000000,0.000000,0.000000,0.000000,0.000000,0.000000
11835460.000000,-2.298196,-1.662839,1.266265,-1.454725,1.702493,1.303100,-0.581616,0.256357,-0.001472,0.723849,-0.216735,-0.167090,0.688757,-0.059099,-0.687518,39.793133,-24.265945,-3.943910,0.416959,1.916305,-0.202470,0.000000,0.000000,0.000000,0.000000,0.000000,0.000000
11835461.000000,-2.297938,-1.662843,1.266988,-1.454947,1.702339,1.303778,-0.581670,0.256842,-0.004224,0.725174,-0.220284,-0.165469,0.687289,-0.055055,-0.762896,39.769329,-24.242142,-3.868532,0.351041,1.942855,-0.169511,0.000000,0.000000,0.000000,0.000000,0.000000,0.000000
11835462.000000,-2.297684,-1.662842,1.267694,-1.455174,1.702170,1.304467,-0.581727,0.254972,-0.004869,0.730221,-0.221471,-0.162509,0.685161,-0.055803,-0.786700,39.693951,-24.142960,-3.745546,0.374845,1.981307,-0.155778,0.000000,0.000000,0.000000,0.000000,0.000000,0.000000
11835463.000000,-2.297439,-1.662835,1.268405,-1.455405,1.702002,1.305153,-0.581774,0.250342,-0.001286,0.720184,-0.221926,-0.166040,0.697472,-0.053758,-0.762896,39.574932,-23.972366,-3.622560,0.416959,1.974899,-0.215287,0.000000,0.000000,0.000000,0.000000,0.000000,0.000000
11835464.000000,-2.297185,-1.662828,1.269119,-1.455628,1.701848,1.305832,-0.581835,0.253591,0.000845,0.725149,-0.220211,-0.161431,0.689057,-0.057552,-0.762896,39.475750,-23.825577,-3.570986,0.393156,1.974899,-0.142960,0.000000,0.000000,0.000000,0.000000,0.000000,0.000000
11835465.000000,-2.296935,-1.662821,1.269824,-1.455848,1.701688,1.306521,-0.581880,0.251812,0.001863,0.716098,-0.223016,-0.159108,0.683031,-0.054430,-0.711321,39.400372,-23.678787,-3.499574,0.405057,1.923629,-0.215287,0.000000,0.000000,0.000000,0.000000,0.000000,0.000000
11835466.000000,-2.296692,-1.662808,1.270547,-1.456071,1.701538,1.307202,-0.581939,0.247680,0.011045,0.714072,-0.220984,-0.156710,0.677159,-0.060494,-0.635943,39.229778,-23.726395,-3.475771,0.393156,1.812850,-0.182328,0.000000,0.000000,0.000000,0.000000,0.000000,0.000000
11835467.000000,-2.296441,-1.662803,1.271265,-1.456301,1.701385,1.307883,-0.581991,0.247960,0.008730,0.724097,-0.221283,-0.159827,0.673734,-0.058820,-0.635943,39.182171,-23.678787,-3.376589,0.398649,1.806442,-0.202470,0.000000,0.000000,0.000000,0.000000,0.000000,0.000000
11835468.000000,-2.296202,-1.662800,1.271976,-1.456519,1.701237,1.308563,-0.582043,0.248353,0.009183,0.715073,-0.220368,-0.157866,0.670819,-0.058340,-0.540728,39.182171,-23.678787,-3.325014,0.405057,1.832076,-0.208878,0.000000,0.000000,0.000000,0.000000,0.000000,0.000000
11835469.000000,-2.295961,-1.662790,1.272703,-1.456743,1.701078,1.309231,-0.582097,0.244574,0.009406,0.720911,-0.219723,-0.156435,0.665769,-0.053537,-0.465350,39.059185,-23.825577,-3.249635,0.416959,1.930038,-0.202470,0.000000,0.000000,0.000000,0.000000,0.000000,0.000000
11835470.000000,-2.295723,-1.662793,1.273409,-1.456960,1.700923,1.309907,-0.582144,0.241999,0.005462,0.713461,-0.215402,-0.154200,0.668681,-0.053571,-0.413775,39.106792,-23.873184,-3.225832,0.393156,1.962081,-0.221696,0.000000,0.000000,0.000000,0.000000,0.000000,0.000000
11835471.000000,-2.295486,-1.662791,1.274131,-1.457177,1.700770,1.310584,-0.582199,0.239874,0.004427,0.707287,-0.217798,-0.153925,0.674207,-0.055959,-0.342364,39.082989,-24.043777,-3.225832,0.405057,1.936446,-0.196061,0.000000,0.000000,0.000000,0.000000,0.000000,0.000000
11835472.000000,-2.295253,-1.662795,1.274850,-1.457392,1.700621,1.311267,-0.582251,0.235596,0.002009,0.717605,-0.217359,-0.152903,0.677553,-0.051634,-0.191607,39.130596,-24.095352,-3.202028,0.398649,1.930038,-0.196061,0.000000,0.000000,0.000000,0.000000,0.000000,0.000000
11835473.000000,-2.295011,-1.662798,1.275563,-1.457604,1.700472,1.311943,-0.582301,0.237546,-0.000295,0.711302,-0.215747,-0.153397,0.677478,-0.052873,-0.215411,39.205975,-24.289749,-3.225832,0.422452,2.001449,-0.196061,0.000000,0.000000,0.000000,0.000000,0.000000,0.000000
11835474.000000,-2.294778,-1.662803,1.276275,-1.457817,1.700328,1.312610,-0.582353,0.236378,-0.001214,0.708390,-0.215238,-0.149254,0.680850,-0.055045,-0.144000,39.253582,-24.289749,-3.202028,0.452665,1.988631,-0.163102,0.000000,0.000000,0.000000,0.000000,0.000000,0.000000
11835475.000000,-2.294543,-1.662810,1.276990,-1.458023,1.700182,1.313291,-0.582396,0.236976,-0.003057,0.702693,-0.210972,-0.149246,0.677119,-0.048945,-0.144000,39.352764,-24.412735,-3.225832,0.452665,1.949264,-0.208878,0.000000,0.000000,0.000000,0.000000,0.000000,0.000000
11835476.000000,-2.294323,-1.662822,1.277703,-1.458230,1.700038,1.313964,-0.582450,0.231780,-0.005974,0.705024,-0.208545,-0.145680,0.687011,-0.052116,-0.017047,39.523357,-24.365128,-3.225832,0.470060,1.909896,-0.182328,0.000000,0.000000,0.000000,0.000000,0.000000,0.000000
11835477.000000,-2.294094,-1.662826,1.278420,-1.458446,1.699899,1.314632,-0.582497,0.232076,-0.005149,0.713437,-0.210247,-0.145783,0.669787,-0.051448,0.054365,39.574932,-24.341324,-3.202028,0.440763,1.936446,-0.229020,0.000000,0.000000,0.000000,0.000000,0.000000,0.000000
11835478.000000,-2.293864,-1.662831,1.279117,-1.458646,1.699751,1.315313,-0.582548,0.231238,-0.005072,0.704040,-0.206202,-0.146574,0.673201,-0.048983,0.177350,39.646343,-24.242142,-3.277406,0.422452,1.930038,-0.208878,0.000000,0.000000,0.000000,0.000000,0.000000,0.000000
11835479.000000,-2.293643,-1.662843,1.279823,-1.458842,1.699607,1.315986,-0.582603,0.227568,-0.013081,0.699849,-0.202659,-0.147222,0.667596,-0.053212,0.304304,39.793133,-24.071548,-3.376589,0.405057,1.884261,-0.149369,0.000000,0.000000,0.000000,0.000000,0.000000,0.000000
11835480.000000,-2.293423,-1.662846,1.280521,-1.459044,1.699468,1.316673,-0.582646,0.221327,-0.009784,0.707200,-0.202755,-0.147293,0.667834,-0.051976,0.427289,39.816936,-24.019974,-3.376589,0.386747,1.844894,-0.202470,0.000000,0.000000,0.000000,0.000000,0.000000,0.000000
11835481.000000,-2.293201,-1.662848,1.281225,-1.459240,1.699330,1.317357,-0.582697,0.226232,-0.007460,0.702014,-0.200989,-0.144133,0.668659,-0.049733,0.502668,39.840740,-23.849380,-3.448000,0.398649,1.793624,-0.169511,0.000000,0.000000,0.000000,0.000000,0.000000,0.000000
11835482.000000,-2.292977,-1.662843,1.281935,-1.459435,1.699191,1.318033,-0.582745,0.225036,-0.003588,0.710600,-0.195577,-0.141284,0.662810,-0.045474,0.574079,39.769329,-23.774002,-3.547182,0.398649,1.773483,-0.202470,0.000000,0.000000,0.000000,0.000000,0.000000,0.000000
11835483.000000,-2.292753,-1.662841,1.282624,-1.459628,1.699050,1.318725,-0.582793,0.220727,-0.002049,0.701447,-0.196787,-0.139806,0.668360,-0.048155,0.625654,39.745525,-23.504227,-3.570986,0.422452,1.735030,-0.208878,0.000000,0.000000,0.000000,0.000000,0.000000,0.000000
11835484.000000,-2.292532,-1.662839,1.283332,-1.459822,1.698918,1.319401,-0.582847,0.222545,-0.000970,0.699595,-0.195716,-0.137771,0.663238,-0.052980,0.625654,39.721722,-23.409012,-3.547182,0.422452,1.714889,-0.155778,0.000000,0.000000,0.000000,0.000000,0.000000,0.000000
11835485.000000,-2.292305,-1.662831,1.284036,-1.460019,1.698783,1.320086,-0.582892,0.223398,0.002110,0.707416,-0.196594,-0.136203,0.668885,-0.048074,0.625654,39.598736,-23.333633,-3.570986,0.428861,1.708480,-0.182328,0.000000,0.000000,0.000000,0.000000,0.000000,0.000000
11835486.000000,-2.292079,-1.662819,1.284729,-1.460210,1.698651,1.320778,-0.582943,0.230883,0.005307,0.698485,-0.193569,-0.137067,0.668532,-0.046245,0.574079,39.428143,-23.286026,-3.622560,0.351041,1.682845,-0.163102,0.000000,0.000000,0.000000,0.000000,0.000000,0.000000
11835487.000000,-2.291854,-1.662813,1.285427,-1.460404,1.698511,1.321471,-0.582988,0.230149,0.004677,0.695923,-0.193550,-0.136289,0.676081,-0.049882,0.550275,39.376568,-23.210648,-3.570986,0.356534,1.591293,-0.155778,0.000000,0.000000,0.000000,0.000000,0.000000,0.000000
11835488.000000,-2.291623,-1.662807,1.286120,-1.460590,1.698369,1.322157,-0.583036,0.227560,0.004738,0.692527,-0.193437,-0.136301,0.676064,-0.047095,0.474897,39.305157,-23.163040,-3.523378,0.386747,1.611434,-0.149369,0.000000,0.000000,0.000000,0.000000,0.000000,0.000000
11835490.000000,-2.291172,-1.662793,1.287538,-1.460957,1.698100,1.323512,-0.583119,0.225467,0.005733,0.703164,-0.186213,-0.134136,0.686778,-0.041402,0.328107,39.106792,-23.309830,-3.622560,0.374845,1.844894,-0.221696,0.000000,0.000000,0.000000,0.000000,0.000000,0.000000
11835491.000000,-2.290948,-1.662783,1.288241,-1.461132,1.697968,1.324210,-0.583170,0.223440,0.007234,0.698420,-0.185157,-0.133946,0.694017,-0.043009,0.276533,38.960003,-23.409012,-3.697939,0.381254,1.800033,-0.155778,0.000000,0.000000,0.000000,0.000000,0.000000,0.000000
11835492.000000,-2.290730,-1.662779,1.288950,-1.461306,1.697835,1.324893,-0.583211,0.223032,0.005920,0.698769,-0.181237,-0.128568,0.693980,-0.039553,0.304304,38.912395,-23.528030,-3.769350,0.374845,1.747848,-0.215287,0.000000,0.000000,0.000000,0.000000,0.000000,0.000000
11835493.000000,-2.290499,-1.662770,1.289658,-1.461484,1.697705,1.325573,-0.583262,0.224772,0.006255,0.697427,-0.181663,-0.127708,0.680230,-0.040600,0.228925,38.813213,-23.726395,-3.721742,0.339139,1.747848,-0.175919,0.000000,0.000000,0.000000,0.000000,0.000000,0.000000
11835494.000000,-2.290276,-1.662764,1.290373,-1.461664,1.697579,1.326252,-0.583309,0.225282,0.005275,0.696819,-0.182925,-0.128604,0.690996,-0.045741,0.205121,38.765606,-23.920792,-3.745546,0.327238,1.793624,-0.155778,0.000000,0.000000,0.000000,0.000000,0.000000,0.000000
11835495.000000,-2.290054,-1.662761,1.291081,-1.461844,1.697441,1.326910,-0.583348,0.224610,0.004066,0.709945,-0.181604,-0.130555,0.678927,-0.042249,0.228925,38.741802,-23.896988,-3.721742,0.351041,1.806442,-0.196061,0.000000,0.000000,0.000000,0.000000,0.000000,0.000000
