chaoyuefei/paper-gmrm-data/robot_logs/s2_dq_gmrm_xz_max_0.50_log_20260314_175138.csv
# time_ms,q_0,q_1,q_2,q_3,q_4,q_5,q_6,dq_0,dq_1,dq_2,dq_3,dq_4,dq_5,dq_6,tau_J_0,tau_J_1,tau_J_2,tau_J_3,tau_J_4,tau_J_5,tau_J_6,O_dP_EE_c_0,O_dP_EE_c_1,O_dP_EE_c_2,O_dP_EE_c_3,O_dP_EE_c_4,O_dP_EE_c_5
13360370.000000,-0.258968,0.525640,0.336244,-1.429393,-0.177858,1.925854,0.097038,0.000299,0.001374,-0.000264,0.000184,0.000016,0.000233,0.001091,0.006757,-39.100300,4.671432,19.590025,1.001981,1.344100,-0.169511,0.000000,0.000000,0.000000,0.000000,0.000000,0.000000
13360371.000000,-0.258968,0.525640,0.336247,-1.429393,-0.177862,1.925850,0.097037,0.000199,0.000916,0.001031,0.000123,-0.000430,-0.000353,0.000490,0.006757,-39.100300,4.619858,19.590025,1.013883,1.357833,-0.163102,0.000000,0.000000,0.000000,0.000000,0.000000,0.000000
13360372.000000,-0.258965,0.525636,0.336245,-1.429394,-0.177860,1.925852,0.097030,0.001339,-0.000596,0.000037,-0.000475,0.000357,-0.000236,-0.001165,-0.044818,-39.048725,4.647629,19.613829,0.996488,1.357833,-0.122819,0.000000,0.000000,0.000000,0.000000,0.000000,0.000000
13360373.000000,-0.258970,0.525638,0.336249,-1.429393,-0.177861,1.925854,0.097038,-0.000870,-0.000397,0.001231,0.000240,0.000035,0.000114,0.001190,0.030561,-39.048725,4.596054,19.590025,1.001981,1.350509,-0.175919,0.000000,0.000000,0.000000,0.000000,0.000000,0.000000
13360374.000000,-0.258989,0.525638,0.336245,-1.429395,-0.177859,1.925853,0.097031,-0.016597,0.008488,-0.010721,-0.005429,-0.001921,0.000788,0.006477,-0.512957,-38.485371,4.008896,19.292479,0.925077,1.331283,-0.077042,0.000000,0.000000,0.000000,0.000000,0.000000,0.000000
13360375.000000,-0.259024,0.525628,0.336225,-1.429400,-0.177841,1.925848,0.097048,-0.040027,0.015517,-0.033175,-0.012322,0.001746,-0.003213,0.010070,-2.568011,-36.307331,2.021286,18.276854,0.571683,1.305648,-0.077042,0.000000,0.000000,0.000000,0.000000,0.000000,0.000000
13360376.000000,-0.259056,0.525649,0.336143,-1.429423,-0.177822,1.925842,0.097086,-0.033263,0.018465,-0.052991,-0.021753,0.007933,-0.002770,0.019440,-6.158404,-33.173176,-0.751846,16.570921,0.100187,1.312057,-0.136552,0.000000,0.000000,0.000000,0.000000,0.000000,0.000000
13360377.000000,-0.259100,0.525710,0.336011,-1.429441,-0.177840,1.925838,0.097124,-0.016986,0.023142,-0.065166,-0.021742,-0.001061,-0.003835,0.021492,-9.574237,-29.820820,-3.282974,14.027891,-0.031649,1.357833,-0.070634,0.000000,0.000000,0.000000,0.000000,0.000000,0.000000
13360378.000000,-0.259181,0.525790,0.335873,-1.429508,-0.177896,1.925838,0.097179,-0.016601,0.027614,-0.070391,-0.032829,-0.019914,-0.002683,0.031906,-11.553912,-26.762043,-5.219009,11.679258,0.166105,1.481429,-0.110001,0.000000,0.000000,0.000000,0.000000,0.000000,0.000000
13360379.000000,-0.259265,0.525877,0.335756,-1.429614,-0.177976,1.925902,0.097236,-0.022285,0.039321,-0.068188,-0.048260,-0.041262,0.021314,0.036873,-12.172809,-24.119831,-6.274307,9.727354,0.470060,1.117049,-0.070634,0.000000,0.000000,0.000000,0.000000,0.000000,0.000000
13360380.000000,-0.259327,0.525981,0.335657,-1.429724,-0.178064,1.926044,0.097299,-0.031648,0.047530,-0.068123,-0.060868,-0.058213,0.063453,0.045262,-11.950641,-21.989399,-6.349686,7.771483,0.698026,0.193282,-0.044083,0.000000,0.000000,0.000000,0.000000,0.000000,0.000000
13360381.000000,-0.259377,0.526086,0.335598,-1.429833,-0.178157,1.926223,0.097357,-0.035742,0.065950,-0.059236,-0.071696,-0.069325,0.103247,0.049077,-11.085773,-20.323139,-6.004532,5.871153,0.769437,-0.775346,0.061202,0.000000,0.000000,0.000000,0.000000,0.000000,0.000000
13360382.000000,-0.259419,0.526195,0.335577,-1.429938,-0.178230,1.926364,0.097434,-0.040224,0.077254,-0.046774,-0.076536,-0.073808,0.115879,0.057050,-9.871783,-18.831440,-5.516556,4.089842,0.476469,-1.061906,0.034652,0.000000,0.000000,0.000000,0.000000,0.000000,0.000000
13360383.000000,-0.259436,0.526295,0.335571,-1.430044,-0.178305,1.926481,0.097521,-0.037581,0.085152,-0.037857,-0.085087,-0.069834,0.115936,0.069196,-8.780780,-17.363544,-4.778641,2.657652,0.058073,-0.691117,-0.037675,0.000000,0.000000,0.000000,0.000000,0.000000,0.000000
13360384.000000,-0.259443,0.526381,0.335580,-1.430166,-0.178399,1.926617,0.097606,-0.031580,0.083090,-0.031341,-0.092697,-0.076668,0.120281,0.075718,-7.792925,-15.867878,-4.092300,1.594420,-0.234896,-0.118913,-0.050492,0.000000,0.000000,0.000000,0.000000,0.000000,0.000000
13360385.000000,-0.259453,0.526434,0.335580,-1.430308,-0.178495,1.926798,0.097703,-0.029327,0.074424,-0.026687,-0.107011,-0.077432,0.138964,0.082011,-6.777300,-14.106403,-3.207596,1.074705,-0.527865,0.239059,-0.097184,0.000000,0.000000,0.000000,0.000000,0.000000,0.000000
13360386.000000,-0.259475,0.526458,0.335563,-1.430498,-0.178604,1.927040,0.097796,-0.029039,0.060083,-0.029404,-0.130601,-0.084450,0.166057,0.084097,-5.686297,-12.027546,-2.152298,1.320677,-0.653292,0.245467,-0.077042,0.000000,0.000000,0.000000,0.000000,0.000000,0.000000
13360387.000000,-0.259509,0.526476,0.335539,-1.430719,-0.178754,1.927312,0.097901,-0.035063,0.046427,-0.035378,-0.159732,-0.108658,0.200124,0.093993,-4.523882,-10.020100,-1.144608,2.038756,-0.384127,0.102645,-0.136552,0.000000,0.000000,0.000000,0.000000,0.000000,0.000000
13360388.000000,-0.259555,0.526513,0.335497,-1.430947,-0.178931,1.927590,0.097998,-0.039805,0.045459,-0.040336,-0.185113,-0.128088,0.227189,0.091728,-3.337664,-8.401447,-0.089310,2.756834,0.064481,0.186874,-0.077042,0.000000,0.000000,0.000000,0.000000,0.000000,0.000000
13360389.000000,-0.259614,0.526568,0.335453,-1.431169,-0.179107,1.927879,0.098096,-0.047741,0.048450,-0.045733,-0.197420,-0.146331,0.243028,0.094759,-2.072100,-7.227131,0.791427,3.149595,0.410551,0.394698,-0.017533,0.000000,0.000000,0.000000,0.000000,0.000000,0.000000
13360390.000000,-0.259681,0.526659,0.335427,-1.431388,-0.179282,1.928191,0.098204,-0.054156,0.059403,-0.039006,-0.210091,-0.158868,0.267403,0.099596,-0.885882,-6.616169,1.211960,3.347960,0.620206,0.538436,-0.017533,0.000000,0.000000,0.000000,0.000000,0.000000,0.000000
13360391.000000,-0.259729,0.526764,0.335406,-1.431617,-0.179419,1.928534,0.098315,-0.052516,0.075400,-0.036376,-0.214755,-0.154387,0.284911,0.102425,-0.092425,-6.274982,1.430160,3.423338,0.446256,0.564071,0.001693,0.000000,0.000000,0.000000,0.000000,0.000000,0.000000
13360392.000000,-0.259766,0.526890,0.335403,-1.431856,-0.179541,1.928913,0.098436,-0.047204,0.094317,-0.024857,-0.221670,-0.144239,0.319804,0.112078,0.375715,-6.175800,1.330978,3.371763,0.069974,0.524703,-0.064225,0.000000,0.000000,0.000000,0.000000,0.000000,0.000000
13360393.000000,-0.259796,0.527038,0.335387,-1.432092,-0.179654,1.929313,0.098550,-0.040331,0.116775,-0.020467,-0.226083,-0.136951,0.345977,0.116397,0.673261,-6.251179,1.358749,3.125792,-0.348422,0.466109,-0.050492,0.000000,0.000000,0.000000,0.000000,0.000000,0.000000
13360394.000000,-0.259837,0.527175,0.335369,-1.432332,-0.179779,1.929725,0.098672,-0.040173,0.127192,-0.018790,-0.226839,-0.132820,0.360226,0.113342,1.022382,-6.104389,1.430160,2.756834,-0.623080,0.524703,-0.116410,0.000000,0.000000,0.000000,0.000000,0.000000,0.000000
13360395.000000,-0.259877,0.527306,0.335344,-1.432596,-0.179929,1.930150,0.098789,-0.040752,0.127443,-0.020249,-0.241989,-0.137141,0.383653,0.116698,1.367536,-5.783039,1.604721,2.558470,-0.575472,0.654708,-0.077042,0.000000,0.000000,0.000000,0.000000,0.000000,0.000000
13360396.000000,-0.259914,0.527420,0.335312,-1.432892,-0.180109,1.930615,0.098902,-0.037515,0.121908,-0.026053,-0.259627,-0.150490,0.405620,0.119410,1.665082,-5.219685,1.846725,2.629881,-0.252291,0.668441,-0.037675,0.000000,0.000000,0.000000,0.000000,0.000000,0.000000
13360397.000000,-0.259946,0.527521,0.335271,-1.433202,-0.180302,1.931116,0.099026,-0.033153,0.115744,-0.028985,-0.274256,-0.164437,0.438179,0.117429,1.863447,-4.414326,2.168075,2.804442,0.105680,0.492660,-0.031266,0.000000,0.000000,0.000000,0.000000,0.000000,0.000000
13360398.000000,-0.259982,0.527626,0.335245,-1.433528,-0.180495,1.931649,0.099144,-0.031447,0.114094,-0.027738,-0.295681,-0.176285,0.468557,0.119207,2.109418,-3.581196,2.215683,3.002806,0.398649,0.277511,0.001693,0.000000,0.000000,0.000000,0.000000,0.000000,0.000000
13360399.000000,-0.260014,0.527744,0.335228,-1.433856,-0.180665,1.932201,0.099266,-0.033079,0.117490,-0.025888,-0.302606,-0.176644,0.485474,0.118359,2.232404,-2.946430,2.068893,2.979002,0.476469,0.167648,-0.011124,0.000000,0.000000,0.000000,0.000000,0.000000,0.000000
13360400.000000,-0.260033,0.527879,0.335218,-1.434183,-0.180812,1.932748,0.099387,-0.027964,0.121538,-0.019619,-0.312271,-0.170637,0.505170,0.116253,2.184797,-2.478291,1.822922,2.729063,0.249418,0.291244,0.009017,0.000000,0.000000,0.000000,0.000000,0.000000,0.000000
13360401.000000,-0.260049,0.528035,0.335210,-1.434507,-0.180950,1.933295,0.099512,-0.022911,0.131843,-0.014426,-0.315955,-0.151618,0.513976,0.122898,2.061811,-2.331501,1.529343,2.308531,-0.037142,0.589706,-0.056901,0.000000,0.000000,0.000000,0.000000,0.000000,0.000000
13360402.000000,-0.260050,0.528194,0.335194,-1.434838,-0.181081,1.933870,0.099628,-0.014994,0.144500,-0.012637,-0.318322,-0.139695,0.526888,0.117866,1.740461,-2.160908,1.307175,1.864195,-0.396029,0.857040,0.001693,0.000000,0.000000,0.000000,0.000000,0.000000,0.000000
13360403.000000,-0.260060,0.528376,0.335177,-1.435167,-0.181226,1.934487,0.099750,-0.013854,0.156933,-0.013275,-0.328285,-0.140749,0.550135,0.117600,1.589704,-2.160908,1.160385,1.296873,-0.641390,0.778304,-0.004716,0.000000,0.000000,0.000000,0.000000,0.000000,0.000000
13360404.000000,-0.260080,0.528577,0.335158,-1.435517,-0.181392,1.935144,0.099871,-0.016033,0.175981,-0.014781,-0.331465,-0.150608,0.577483,0.122899,1.565900,-2.236286,1.061203,0.951720,-0.641390,0.511886,-0.044083,0.000000,0.000000,0.000000,0.000000,0.000000,0.000000
13360405.000000,-0.260096,0.528779,0.335136,-1.435873,-0.181576,1.935805,0.099979,-0.016963,0.184688,-0.017055,-0.335759,-0.164900,0.617126,0.116738,1.514325,-2.307698,1.013595,0.554991,-0.431735,0.271102,0.048385,0.000000,0.000000,0.000000,0.000000,0.000000,0.000000
13360406.000000,-0.260116,0.528993,0.335108,-1.436225,-0.181766,1.936500,0.100105,-0.018840,0.195259,-0.023393,-0.339354,-0.173778,0.639236,0.118079,1.514325,-2.454487,1.037399,0.158263,-0.126864,0.063277,-0.004716,0.000000,0.000000,0.000000,0.000000,0.000000,0.000000
13360407.000000,-0.260130,0.529220,0.335090,-1.436594,-0.181960,1.937218,0.100226,-0.018915,0.207454,-0.021990,-0.344926,-0.182850,0.663334,0.112556,1.466718,-2.652851,0.942184,-0.210695,0.141385,-0.125321,-0.017533,0.000000,0.000000,0.000000,0.000000,0.000000,0.000000
13360408.000000,-0.260134,0.529457,0.335065,-1.436955,-0.182132,1.937945,0.100340,-0.013229,0.216704,-0.022045,-0.355202,-0.179878,0.684073,0.114512,1.292158,-2.748066,0.890610,-0.655031,0.166105,-0.242509,0.061202,0.000000,0.000000,0.000000,0.000000,0.000000,0.000000
13360409.000000,-0.260133,0.529696,0.335055,-1.437340,-0.182283,1.938694,0.100455,-0.007495,0.219818,-0.018090,-0.360800,-0.175307,0.704363,0.114415,1.046186,-2.799641,0.668442,-1.027956,-0.019747,-0.261735,0.061202,0.000000,0.000000,0.000000,0.000000,0.000000,0.000000
13360410.000000,-0.260120,0.529931,0.335037,-1.437737,-0.182427,1.939458,0.100578,-0.000587,0.227428,-0.017102,-0.370566,-0.168449,0.717568,0.116854,0.673261,-2.676655,0.521652,-1.273927,-0.306307,-0.177506,-0.017533,0.000000,0.000000,0.000000,0.000000,0.000000,0.000000
13360411.000000,-0.260123,0.530179,0.335016,-1.438153,-0.182581,1.940221,0.100690,-0.001143,0.235732,-0.018321,-0.385660,-0.162253,0.728678,0.115887,0.526471,-2.529866,0.450241,-1.321535,-0.533358,0.017501,0.015426,0.000000,0.000000,0.000000,0.000000,0.000000,0.000000
13360412.000000,-0.260128,0.530426,0.334988,-1.438577,-0.182747,1.941014,0.100800,-0.000787,0.238222,-0.020657,-0.395546,-0.163305,0.748374,0.113952,0.474897,-2.331501,0.450241,-1.396913,-0.616671,0.121871,0.054794,0.000000,0.000000,0.000000,0.000000,0.000000,0.000000
13360413.000000,-0.260146,0.530686,0.334960,-1.439025,-0.182924,1.941821,0.100922,-0.007287,0.242425,-0.022786,-0.414100,-0.169995,0.763328,0.116020,0.601850,-2.212483,0.474045,-1.273927,-0.527865,0.161239,-0.004716,0.000000,0.000000,0.000000,0.000000,0.000000,0.000000
13360414.000000,-0.260168,0.530960,0.334925,-1.439498,-0.183106,1.942669,0.101030,-0.012054,0.252101,-0.025877,-0.430830,-0.173493,0.786389,0.113791,0.748639,-2.113301,0.573227,-1.000185,-0.365817,0.115462,0.034652,0.000000,0.000000,0.000000,0.000000,0.000000,0.000000
13360415.000000,-0.260195,0.531247,0.334894,-1.439980,-0.183292,1.943550,0.101140,-0.015965,0.262089,-0.028596,-0.445326,-0.175783,0.816873,0.112206,0.923200,-2.260090,0.573227,-0.829591,-0.168978,-0.047501,0.067611,0.000000,0.000000,0.000000,0.000000,0.000000,0.000000
13360416.000000,-0.260221,0.531551,0.334861,-1.440471,-0.183469,1.944438,0.101255,-0.020776,0.273505,-0.031374,-0.466607,-0.177335,0.840162,0.117792,1.069990,-2.454487,0.597031,-0.655031,-0.097567,-0.222367,0.034652,0.000000,0.000000,0.000000,0.000000,0.000000,0.000000
13360417.000000,-0.260247,0.531878,0.334828,-1.440968,-0.183632,1.945347,0.101364,-0.021927,0.296911,-0.033456,-0.474426,-0.178824,0.854949,0.110131,1.244550,-2.847248,0.620834,-0.678835,-0.145175,-0.268143,0.081344,0.000000,0.000000,0.000000,0.000000,0.000000,0.000000
13360418.000000,-0.260262,0.532214,0.334794,-1.441487,-0.183801,1.946249,0.101487,-0.018605,0.306755,-0.034479,-0.487651,-0.177511,0.873657,0.112690,1.244550,-3.263813,0.620834,-0.678835,-0.252291,-0.183915,0.034652,0.000000,0.000000,0.000000,0.000000,0.000000,0.000000
13360419.000000,-0.260277,0.532553,0.334759,-1.442011,-0.183962,1.947182,0.101606,-0.017509,0.317589,-0.035945,-0.499823,-0.171768,0.894146,0.113761,1.292158,-3.581196,0.644638,-0.730409,-0.414340,-0.041093,0.009017,0.000000,0.000000,0.000000,0.000000,0.000000,0.000000
13360420.000000,-0.260298,0.532891,0.334717,-1.442576,-0.184129,1.948137,0.101713,-0.018421,0.318831,-0.038071,-0.516248,-0.164633,0.909432,0.110735,1.415143,-3.751789,0.720016,-0.555849,-0.509554,-0.001725,0.081344,0.000000,0.000000,0.000000,0.000000,0.000000,0.000000
13360421.000000,-0.260328,0.533225,0.334673,-1.443157,-0.184302,1.949110,0.101836,-0.024319,0.321229,-0.040134,-0.546440,-0.163510,0.928961,0.114235,1.641279,-3.727986,0.819198,-0.309877,-0.491244,-0.047501,0.009017,0.000000,0.000000,0.000000,0.000000,0.000000,0.000000
13360422.000000,-0.260367,0.533568,0.334621,-1.443766,-0.184478,1.950112,0.101946,-0.030570,0.327831,-0.043111,-0.567414,-0.168992,0.946350,0.112125,1.962629,-3.581196,0.989792,-0.012331,-0.426241,-0.092362,0.054794,0.000000,0.000000,0.000000,0.000000,0.000000,0.000000
13360423.000000,-0.260405,0.533909,0.334567,-1.444393,-0.184662,1.951103,0.102059,-0.031667,0.330442,-0.048476,-0.583271,-0.170379,0.982615,0.112350,2.260175,-3.458210,1.160385,0.332823,-0.282504,0.017501,0.074935,0.000000,0.000000,0.000000,0.000000,0.000000,0.000000
13360424.000000,-0.260445,0.534264,0.334512,-1.445023,-0.184841,1.952128,0.102176,-0.034996,0.338554,-0.048524,-0.598419,-0.174686,0.995647,0.113524,2.553754,-3.335224,1.307175,0.554991,-0.180880,0.161239,0.054794,0.000000,0.000000,0.000000,0.000000,0.000000,0.000000
13360425.000000,-0.260484,0.534625,0.334457,-1.445674,-0.185016,1.953184,0.102289,-0.036243,0.343642,-0.050669,-0.612313,-0.176795,1.015576,0.112664,2.803693,-3.263813,1.406357,0.654173,-0.234896,0.141097,0.074935,0.000000,0.000000,0.000000,0.000000,0.000000,0.000000
13360426.000000,-0.260520,0.535000,0.334404,-1.446324,-0.185190,1.954233,0.102403,-0.038229,0.349970,-0.051673,-0.635633,-0.177055,1.028931,0.112729,2.978254,-3.311421,1.481735,0.729552,-0.330111,0.069686,0.081344,0.000000,0.000000,0.000000,0.000000,0.000000,0.000000
13360427.000000,-0.260551,0.535389,0.334348,-1.446988,-0.185359,1.955290,0.102521,-0.036380,0.348293,-0.049758,-0.639393,-0.169933,1.030764,0.113796,3.002058,-4.021564,1.576950,1.122313,-0.401522,0.063277,0.054794,0.000000,0.000000,0.000000,0.000000,0.000000,0.000000
13360428.000000,-0.260588,0.535780,0.334293,-1.447650,-0.185528,1.956372,0.102642,-0.034943,0.356175,-0.052467,-0.635544,-0.169345,1.041477,0.114106,3.002058,-5.588642,1.723740,1.939574,-0.443636,0.056869,0.034652,0.000000,0.000000,0.000000,0.000000,0.000000,0.000000
13360429.000000,-0.260636,0.536175,0.334242,-1.448289,-0.185704,1.957439,0.102758,-0.036525,0.368478,-0.051829,-0.633297,-0.174046,1.047664,0.113883,3.101240,-7.814289,1.874496,3.224974,-0.360323,0.109054,0.034652,0.000000,0.000000,0.000000,0.000000,0.000000,0.000000
13360430.000000,-0.260684,0.536541,0.334181,-1.448935,-0.185885,1.958525,0.102872,-0.039637,0.368618,-0.054971,-0.632355,-0.180533,1.052198,0.112152,3.172651,-10.043903,2.191879,5.030089,-0.180880,0.226241,0.074935,0.000000,0.000000,0.000000,0.000000,0.000000,0.000000
13360431.000000,-0.260727,0.536898,0.334122,-1.449560,-0.186068,1.959599,0.102990,-0.039708,0.365799,-0.057022,-0.630204,-0.184902,1.058204,0.113486,3.125043,-12.368732,2.509262,6.981993,0.004056,0.356246,0.061202,0.000000,0.000000,0.000000,0.000000,0.000000,0.000000
13360432.000000,-0.260760,0.537247,0.334065,-1.450198,-0.186246,1.960662,0.103106,-0.037056,0.364993,-0.056572,-0.638283,-0.186326,1.060442,0.113173,2.950483,-14.546772,2.755234,9.156065,0.112089,0.674850,0.081344,0.000000,0.000000,0.000000,0.000000,0.000000,0.000000
13360433.000000,-0.260789,0.537591,0.334006,-1.450822,-0.186424,1.961724,0.103227,-0.034103,0.361711,-0.058792,-0.633378,-0.187521,1.056120,0.113508,2.728315,-16.506611,2.977401,11.107969,0.123990,1.052047,0.067611,0.000000,0.000000,0.000000,0.000000,0.000000,0.000000
13360434.000000,-0.260815,0.537949,0.333944,-1.451440,-0.186602,1.962779,0.103346,-0.028381,0.360033,-0.060585,-0.629634,-0.182684,1.060911,0.117182,2.454572,-18.391071,3.199569,12.766294,0.100187,1.227828,0.074935,0.000000,0.000000,0.000000,0.000000,0.000000,0.000000
13360435.000000,-0.260836,0.538304,0.333882,-1.452051,-0.186777,1.963832,0.103464,-0.027158,0.364063,-0.061919,-0.630374,-0.183973,1.040790,0.116672,2.184797,-20.128742,3.417770,14.027891,0.069974,1.474105,0.061202,0.000000,0.000000,0.000000,0.000000,0.000000,0.000000
13360436.000000,-0.260849,0.538674,0.333821,-1.452671,-0.186952,1.964846,0.103587,-0.021920,0.369006,-0.060606,-0.628750,-0.183877,1.028188,0.116858,1.835676,-21.743427,3.540756,15.039549,0.022367,1.767074,0.028243,0.000000,0.000000,0.000000,0.000000,0.000000,0.000000
13360437.000000,-0.260866,0.539069,0.333753,-1.453284,-0.187129,1.965900,0.103703,-0.020135,0.376542,-0.064105,-0.621573,-0.181871,1.031421,0.114908,1.565900,-23.381916,3.715317,15.757627,0.004056,1.786300,0.054794,0.000000,0.000000,0.000000,0.000000,0.000000,0.000000
13360438.000000,-0.260879,0.539461,0.333675,-1.453888,-0.187321,1.966946,0.103829,-0.019277,0.382359,-0.069007,-0.616980,-0.188710,1.026705,0.120028,1.315961,-24.877583,3.985092,16.078978,0.105680,1.747848,0.028243,0.000000,0.000000,0.000000,0.000000,0.000000,0.000000
13360439.000000,-0.260891,0.539882,0.333596,-1.454480,-0.187516,1.967975,0.103956,-0.016477,0.394219,-0.075744,-0.605751,-0.192020,1.029055,0.123114,1.093793,-26.420856,4.254868,16.225767,0.171598,1.649886,0.034652,0.000000,0.000000,0.000000,0.000000,0.000000,0.000000
13360440.000000,-0.260908,0.540331,0.333523,-1.455075,-0.187720,1.969014,0.104075,-0.019329,0.407202,-0.073932,-0.601903,-0.200048,1.032627,0.124849,0.970807,-27.960163,4.377853,16.225767,0.255826,1.565658,0.061202,0.000000,0.000000,0.000000,0.000000,0.000000,0.000000
13360441.000000,-0.260907,0.540775,0.333446,-1.455689,-0.187926,1.970029,0.104197,-0.011013,0.419670,-0.076041,-0.598749,-0.199893,1.032774,0.125921,0.649457,-29.356647,4.500839,16.201963,0.327238,1.481429,0.074935,0.000000,0.000000,0.000000,0.000000,0.000000,0.000000
13360442.000000,-0.260907,0.541238,0.333371,-1.456285,-0.188121,1.971059,0.104319,-0.005572,0.430388,-0.076551,-0.599811,-0.197945,1.020067,0.126576,0.351911,-30.677753,4.572250,16.126585,0.332731,1.461288,0.100570,0.000000,0.000000,0.000000,0.000000,0.000000,0.000000
13360443.000000,-0.260894,0.541692,0.333301,-1.456880,-0.188318,1.972101,0.104452,0.000785,0.437838,-0.072577,-0.592357,-0.199644,1.020513,0.129764,-0.044818,-31.804462,4.572250,15.979795,0.285123,1.383468,0.054794,0.000000,0.000000,0.000000,0.000000,0.000000,0.000000
13360444.000000,-0.260876,0.542155,0.333230,-1.457479,-0.188511,1.973120,0.104577,0.005842,0.443814,-0.072814,-0.594096,-0.199791,1.023548,0.125285,-0.465350,-32.661396,4.572250,15.928221,0.207303,1.409103,0.061202,0.000000,0.000000,0.000000,0.000000,0.000000,0.000000
13360445.000000,-0.260861,0.542618,0.333161,-1.458094,-0.188706,1.974141,0.104700,0.009886,0.444954,-0.068891,-0.598459,-0.197583,1.018220,0.127400,-0.786700,-33.466755,4.524643,16.003599,0.154203,1.500655,0.048385,0.000000,0.000000,0.000000,0.000000,0.000000,0.000000
13360446.000000,-0.260844,0.543075,0.333097,-1.458723,-0.188912,1.975161,0.104822,0.010669,0.446482,-0.067565,-0.602374,-0.200560,1.015223,0.127744,-1.131854,-34.129292,4.401657,16.301146,0.135892,1.591293,0.061202,0.000000,0.000000,0.000000,0.000000,0.000000,0.000000
13360447.000000,-0.260826,0.543548,0.333024,-1.459331,-0.189122,1.976166,0.104947,0.013534,0.453617,-0.069956,-0.603879,-0.201257,1.010416,0.120810,-1.453204,-34.887043,4.401657,16.499510,0.189908,1.624252,0.054794,0.000000,0.000000,0.000000,0.000000,0.000000,0.000000
13360448.000000,-0.260821,0.544036,0.332956,-1.459958,-0.189325,1.977181,0.105080,0.011171,0.464298,-0.067024,-0.611168,-0.201807,1.000475,0.124722,-1.580157,-35.720173,4.350082,16.721678,0.261320,1.637069,0.034652,0.000000,0.000000,0.000000,0.000000,0.000000,0.000000
13360449.000000,-0.260819,0.544529,0.332894,-1.460582,-0.189531,1.978192,0.105198,0.007944,0.471338,-0.063362,-0.618088,-0.206075,1.005398,0.118722,-1.627764,-36.505695,4.227097,16.991453,0.320829,1.630660,0.114303,0.000000,0.000000,0.000000,0.000000,0.000000,0.000000
13360450.000000,-0.260809,0.545040,0.332837,-1.461205,-0.189724,1.979208,0.105333,0.006597,0.480087,-0.062667,-0.620429,-0.204334,1.003970,0.124485,-1.703143,-37.434040,4.056503,17.142210,0.332731,1.643478,0.054794,0.000000,0.000000,0.000000,0.000000,0.000000,0.000000
13360451.000000,-0.260799,0.545565,0.332784,-1.461829,-0.189919,1.980225,0.105461,0.008643,0.496412,-0.062580,-0.616430,-0.199563,1.002908,0.126663,-1.778521,-38.513142,3.862106,17.241392,0.279630,1.637069,0.034652,0.000000,0.000000,0.000000,0.000000,0.000000,0.000000
13360452.000000,-0.260796,0.546101,0.332727,-1.462449,-0.190113,1.981246,0.105583,0.006822,0.503961,-0.060518,-0.618258,-0.199522,1.013356,0.126009,-1.703143,-39.465290,3.739120,17.340574,0.189908,1.481429,0.067611,0.000000,0.000000,0.000000,0.000000,0.000000,0.000000
13360453.000000,-0.260785,0.546641,0.332678,-1.463074,-0.190304,1.982258,0.105702,0.008122,0.524417,-0.056499,-0.622559,-0.195565,1.008190,0.125791,-1.726946,-40.322224,3.516952,17.562742,0.112089,1.454879,0.114303,0.000000,0.000000,0.000000,0.000000,0.000000,0.000000
13360454.000000,-0.260779,0.547160,0.332625,-1.463720,-0.190503,1.983271,0.105836,0.007561,0.524261,-0.053040,-0.626801,-0.200474,1.024204,0.124345,-1.679339,-40.933186,3.393966,17.832518,0.129484,1.435653,0.067611,0.000000,0.000000,0.000000,0.000000,0.000000,0.000000
13360455.000000,-0.260776,0.547695,0.332569,-1.464349,-0.190698,1.984286,0.105966,0.006137,0.525764,-0.052070,-0.626692,-0.201679,1.014608,0.127624,-1.580157,-41.472736,3.346359,18.106260,0.171598,1.513473,0.028243,0.000000,0.000000,0.000000,0.000000,0.000000,0.000000
13360456.000000,-0.260780,0.548220,0.332521,-1.464990,-0.190892,1.985300,0.106080,0.001764,0.525020,-0.046810,-0.625426,-0.206420,1.012078,0.125323,-1.453204,-42.012287,3.247177,18.376036,0.219205,1.584884,0.120712,0.000000,0.000000,0.000000,0.000000,0.000000,0.000000
13360457.000000,-0.260786,0.548743,0.332467,-1.465625,-0.191085,1.986308,0.106213,-0.002333,0.519771,-0.047772,-0.642357,-0.208645,1.014095,0.128694,-1.282611,-42.377277,3.223373,18.721189,0.243009,1.591293,0.081344,0.000000,0.000000,0.000000,0.000000,0.000000,0.000000
13360458.000000,-0.260788,0.549276,0.332413,-1.466277,-0.191286,1.987319,0.106341,-0.003514,0.520205,-0.048805,-0.644759,-0.202190,1.008565,0.129305,-1.183428,-42.722431,3.223373,19.169493,0.273221,1.591293,0.087753,0.000000,0.000000,0.000000,0.000000,0.000000,0.000000
13360459.000000,-0.260799,0.549791,0.332360,-1.466925,-0.191483,1.988330,0.106471,-0.006712,0.517837,-0.048773,-0.638474,-0.202967,0.995499,0.128988,-0.985064,-42.940632,3.171798,19.562254,0.243009,1.649886,0.107894,0.000000,0.000000,0.000000,0.000000,0.000000,0.000000
13360460.000000,-0.260813,0.550323,0.332300,-1.467570,-0.191677,1.989324,0.106602,-0.010118,0.514999,-0.054430,-0.641604,-0.205185,0.994358,0.126496,-0.735125,-43.258015,3.247177,20.006590,0.237516,1.708480,0.074935,0.000000,0.000000,0.000000,0.000000,0.000000,0.000000
13360461.000000,-0.260824,0.550850,0.332243,-1.468217,-0.191871,1.990320,0.106725,-0.010583,0.519484,-0.056598,-0.639628,-0.201917,0.986113,0.125853,-0.564532,-43.555561,3.247177,20.327940,0.225614,1.903487,0.127120,0.000000,0.000000,0.000000,0.000000,0.000000,0.000000
13360462.000000,-0.260838,0.551387,0.332180,-1.468854,-0.192062,1.991299,0.106862,-0.011024,0.522546,-0.056855,-0.640489,-0.197674,0.984362,0.125443,-0.389971,-43.821369,3.322555,20.677061,0.171598,2.066451,0.054794,0.000000,0.000000,0.000000,0.000000,0.000000,0.000000
13360463.000000,-0.260850,0.551921,0.332116,-1.469474,-0.192246,1.992302,0.106988,-0.012470,0.522621,-0.060395,-0.632773,-0.191244,0.987103,0.122367,-0.290789,-43.995930,3.417770,20.823851,0.123990,2.098495,0.054794,0.000000,0.000000,0.000000,0.000000,0.000000,0.000000
13360464.000000,-0.260857,0.552453,0.332048,-1.470134,-0.192438,1.993306,0.107109,-0.009047,0.528998,-0.063854,-0.633208,-0.189718,0.986283,0.121686,-0.266986,-44.289509,3.564560,21.145201,0.069974,2.098495,0.127120,0.000000,0.000000,0.000000,0.000000,0.000000,0.000000
13360465.000000,-0.260874,0.552993,0.331971,-1.470768,-0.192638,1.994294,0.107238,-0.011895,0.528122,-0.068511,-0.630953,-0.192333,0.982749,0.121955,-0.144000,-44.531513,3.786728,21.291990,0.100187,2.053634,0.067611,0.000000,0.000000,0.000000,0.000000,0.000000,0.000000
13360466.000000,-0.260890,0.553520,0.331890,-1.471409,-0.192839,1.995307,0.107366,-0.013399,0.538690,-0.074090,-0.635261,-0.190404,0.988026,0.119875,-0.044818,-44.654499,3.985092,21.418943,0.166105,1.955673,0.061202,0.000000,0.000000,0.000000,0.000000,0.000000,0.000000
13360467.000000,-0.260900,0.554056,0.331802,-1.472045,-0.193048,1.996286,0.107489,-0.010069,0.538378,-0.077284,-0.630518,-0.190239,0.986065,0.121689,-0.017047,-44.825092,4.278671,21.466551,0.285123,1.962081,0.107894,0.000000,0.000000,0.000000,0.000000,0.000000,0.000000
13360468.000000,-0.260915,0.554586,0.331711,-1.472660,-0.193245,1.997272,0.107620,-0.012194,0.531149,-0.081329,-0.627086,-0.189648,0.990212,0.126494,0.078168,-44.825092,4.524643,21.490355,0.356534,2.039901,0.067611,0.000000,0.000000,0.000000,0.000000,0.000000,0.000000
13360469.000000,-0.260928,0.555116,0.331622,-1.473296,-0.193443,1.998273,0.107749,-0.012673,0.530324,-0.086903,-0.621025,-0.190241,0.989075,0.127730,0.129743,-44.876667,4.742844,21.418943,0.356534,1.995040,0.061202,0.000000,0.000000,0.000000,0.000000,0.000000,0.000000
13360470.000000,-0.260934,0.555639,0.331524,-1.473895,-0.193648,1.999255,0.107868,-0.011405,0.527944,-0.090280,-0.619181,-0.198997,0.984894,0.126871,0.105939,-44.753681,5.064194,21.268187,0.315336,1.923629,0.094161,0.000000,0.000000,0.000000,0.000000,0.000000,0.000000
13360471.000000,-0.260941,0.556162,0.331428,-1.474513,-0.193849,2.000241,0.107988,-0.013935,0.529270,-0.089512,-0.614854,-0.199357,0.978101,0.126869,0.105939,-44.555317,5.258591,21.097593,0.225614,2.020675,0.127120,0.000000,0.000000,0.000000,0.000000,0.000000,0.000000
13360472.000000,-0.260945,0.556678,0.331324,-1.475116,-0.194058,2.001216,0.108122,-0.009639,0.526085,-0.094117,-0.605388,-0.202015,0.991212,0.126610,0.078168,-44.436298,5.528366,20.776243,0.213712,2.039901,0.041976,0.000000,0.000000,0.000000,0.000000,0.000000,0.000000
13360473.000000,-0.260955,0.557194,0.331220,-1.475689,-0.194259,2.002214,0.108235,-0.008382,0.521828,-0.095998,-0.598072,-0.200249,0.993995,0.120436,0.129743,-44.261738,5.726730,20.427122,0.183500,2.027084,0.114303,0.000000,0.000000,0.000000,0.000000,0.000000,0.000000
13360474.000000,-0.260965,0.557706,0.331116,-1.476289,-0.194467,2.003213,0.108366,-0.010083,0.519087,-0.096626,-0.597162,-0.203555,0.994024,0.121028,0.177350,-44.067341,5.897324,20.181150,0.178007,2.039901,0.048385,0.000000,0.000000,0.000000,0.000000,0.000000,0.000000
13360475.000000,-0.260973,0.558220,0.331014,-1.476863,-0.194680,2.004213,0.108487,-0.011386,0.517453,-0.098692,-0.585173,-0.207589,0.991943,0.119386,0.228925,-43.896748,5.996506,19.935179,0.231107,1.877853,0.048385,0.000000,0.000000,0.000000,0.000000,0.000000,0.000000
13360476.000000,-0.260976,0.558740,0.330901,-1.477435,-0.194900,2.005246,0.108603,-0.011159,0.513466,-0.100110,-0.578898,-0.212575,1.004474,0.115755,0.228925,-43.849140,6.218674,19.685240,0.291532,1.656295,0.114303,0.000000,0.000000,0.000000,0.000000,0.000000,0.000000
13360477.000000,-0.260981,0.559260,0.330791,-1.477999,-0.195124,2.006253,0.108736,-0.009334,0.519305,-0.103163,-0.568947,-0.213047,1.002035,0.121335,0.276533,-43.797565,6.389267,19.363890,0.320829,1.656295,0.067611,0.000000,0.000000,0.000000,0.000000,0.000000,0.000000
13360478.000000,-0.260990,0.559778,0.330686,-1.478547,-0.195341,2.007242,0.108861,-0.009129,0.520711,-0.102692,-0.564635,-0.218605,1.003522,0.122711,0.375715,-43.650776,6.436874,19.141722,0.339139,1.702071,0.100570,0.000000,0.000000,0.000000,0.000000,0.000000,0.000000
13360479.000000,-0.260995,0.560293,0.330584,-1.479089,-0.195557,2.008251,0.108998,-0.007732,0.519370,-0.104582,-0.553603,-0.222433,1.004672,0.127561,0.427289,-43.626972,6.436874,18.871946,0.351041,1.702071,0.034652,0.000000,0.000000,0.000000,0.000000,0.000000,0.000000
13360480.000000,-0.260999,0.560821,0.330479,-1.479629,-0.195768,2.009245,0.109119,-0.006041,0.523031,-0.104302,-0.549597,-0.217931,1.002829,0.125740,0.451093,-43.555561,6.488449,18.748960,0.308927,1.708480,0.107894,0.000000,0.000000,0.000000,0.000000,0.000000,0.000000
13360481.000000,-0.260998,0.561340,0.330374,-1.480159,-0.195971,2.010258,0.109255,-0.003718,0.521943,-0.102710,-0.547337,-0.211238,0.997472,0.129686,0.427289,-43.480183,6.488449,18.673582,0.255826,1.702071,0.048385,0.000000,0.000000,0.000000,0.000000,0.000000,0.000000
13360482.000000,-0.260996,0.561864,0.330279,-1.480705,-0.196179,2.011282,0.109381,-0.002664,0.520836,-0.102773,-0.542974,-0.208941,1.001419,0.128771,0.427289,-43.626972,6.413071,18.673582,0.178007,1.708480,0.074935,0.000000,0.000000,0.000000,0.000000,0.000000,0.000000
13360483.000000,-0.261001,0.562403,0.330186,-1.481230,-0.196392,2.012281,0.109505,-0.003678,0.525662,-0.099900,-0.541332,-0.209236,1.003761,0.124844,0.502668,-43.821369,6.313889,18.721189,0.147794,1.773483,0.094161,0.000000,0.000000,0.000000,0.000000,0.000000,0.000000
13360484.000000,-0.261002,0.562925,0.330090,-1.481772,-0.196602,2.013284,0.109634,0.001895,0.537584,-0.099036,-0.538815,-0.211939,1.002362,0.127138,0.550275,-43.920551,6.266281,18.871946,0.183500,1.858627,0.094161,0.000000,0.000000,0.000000,0.000000,0.000000,0.000000
13360485.000000,-0.261003,0.563469,0.329989,-1.482319,-0.196807,2.014283,0.109765,0.001092,0.538412,-0.100159,-0.540611,-0.212435,1.008763,0.129101,0.574079,-44.214130,6.290085,19.193296,0.201810,1.800033,0.074935,0.000000,0.000000,0.000000,0.000000,0.000000,0.000000
13360486.000000,-0.261009,0.564010,0.329904,-1.482852,-0.197018,2.015295,0.109894,-0.001860,0.538687,-0.094814,-0.549076,-0.210853,0.998119,0.125137,0.697065,-44.384724,6.190903,19.562254,0.249418,1.741439,0.074935,0.000000,0.000000,0.000000,0.000000,0.000000,0.000000
13360487.000000,-0.261015,0.564545,0.329818,-1.483414,-0.197227,2.016297,0.110022,-0.003343,0.535791,-0.091566,-0.549276,-0.212702,0.990115,0.129661,0.796247,-44.555317,6.095688,20.034361,0.285123,1.812850,0.120712,0.000000,0.000000,0.000000,0.000000,0.000000,0.000000
13360488.000000,-0.261010,0.565092,0.329734,-1.483952,-0.197442,2.017279,0.110161,-0.000395,0.535554,-0.089353,-0.552357,-0.217354,0.988729,0.132420,0.724836,-44.729877,6.020309,20.327940,0.279630,1.923629,0.067611,0.000000,0.000000,0.000000,0.000000,0.000000,0.000000
13360489.000000,-0.261011,0.565638,0.329652,-1.484501,-0.197658,2.018259,0.110287,-0.000698,0.548838,-0.086479,-0.552913,-0.217633,0.979420,0.131507,0.748639,-44.876667,5.897324,20.554075,0.279630,2.072860,0.087753,0.000000,0.000000,0.000000,0.000000,0.000000,0.000000
13360490.000000,-0.261006,0.566189,0.329574,-1.485067,-0.197862,2.019220,0.110422,0.001389,0.549215,-0.083928,-0.550400,-0.212880,0.999181,0.132407,0.673261,-45.170246,5.750534,20.899229,0.201810,2.190048,0.061202,0.000000,0.000000,0.000000,0.000000,0.000000,0.000000
13360491.000000,-0.261001,0.566731,0.329498,-1.485609,-0.198064,2.020214,0.110547,0.002108,0.543224,-0.079673,-0.549242,-0.207719,0.990524,0.131565,0.625654,-45.217854,5.627548,21.169004,0.147794,2.066451,0.081344,0.000000,0.000000,0.000000,0.000000,0.000000,0.000000
13360492.000000,-0.260991,0.567276,0.329421,-1.486174,-0.198277,2.021210,0.110671,0.006570,0.546096,-0.076998,-0.553976,-0.204383,0.981902,0.130732,0.526471,-45.412251,5.528366,21.442747,0.141385,1.968490,0.120712,0.000000,0.000000,0.000000,0.000000,0.000000,0.000000
13360493.000000,-0.260980,0.567823,0.329343,-1.486717,-0.198496,2.022175,0.110807,0.009307,0.545059,-0.078717,-0.558326,-0.213693,0.980633,0.133701,0.451093,-45.487629,5.456955,21.712523,0.207303,1.988631,0.054794,0.000000,0.000000,0.000000,0.000000,0.000000,0.000000
13360494.000000,-0.260976,0.568384,0.329255,-1.487274,-0.198719,2.023147,0.110928,0.008911,0.546956,-0.083113,-0.557706,-0.217728,0.975937,0.131414,0.474897,-45.658222,5.528366,21.934690,0.285123,2.072860,0.100570,0.000000,0.000000,0.000000,0.000000,0.000000,0.000000
13360495.000000,-0.260968,0.568912,0.329179,-1.487842,-0.198949,2.024119,0.111064,0.009436,0.544201,-0.080322,-0.557874,-0.221140,0.974088,0.137250,0.474897,-45.511433,5.480759,22.085447,0.422452,2.157089,0.067611,0.000000,0.000000,0.000000,0.000000,0.000000,0.000000
13360496.000000,-0.260958,0.569438,0.329100,-1.488393,-0.199170,2.025082,0.111190,0.009802,0.534869,-0.079936,-0.551346,-0.220710,0.971408,0.133583,0.474897,-45.194050,5.504562,22.307615,0.470060,2.163497,0.133529,0.000000,0.000000,0.000000,0.000000,0.000000,0.000000
13360497.000000,-0.260940,0.569965,0.329021,-1.488961,-0.199386,2.026075,0.111332,0.012442,0.534503,-0.082117,-0.550340,-0.217624,0.966471,0.140811,0.375715,-44.971882,5.504562,22.454405,0.446256,2.039901,0.061202,0.000000,0.000000,0.000000,0.000000,0.000000,0.000000
13360498.000000,-0.260921,0.570496,0.328945,-1.489509,-0.199600,2.027043,0.111466,0.014813,0.532304,-0.079504,-0.553995,-0.212425,0.965909,0.138471,0.252729,-44.801289,5.456955,22.478209,0.356534,2.020675,0.061202,0.000000,0.000000,0.000000,0.000000,0.000000,0.000000
13360499.000000,-0.260899,0.571025,0.328871,-1.490051,-0.199814,2.028009,0.111598,0.015347,0.525838,-0.076812,-0.546151,-0.210675,0.961801,0.136337,0.054365,-44.555317,5.381577,22.577391,0.261320,2.092086,0.074935,0.000000,0.000000,0.000000,0.000000,0.000000,0.000000
13360500.000000,-0.260876,0.571548,0.328796,-1.490599,-0.200037,2.028974,0.111736,0.019949,0.525869,-0.075201,-0.538641,-0.216106,0.955846,0.136153,-0.092425,-44.360920,5.333969,22.529783,0.249418,2.222091,0.048385,0.000000,0.000000,0.000000,0.000000,0.000000,0.000000
13360501.000000,-0.260859,0.572083,0.328720,-1.491128,-0.200265,2.029918,0.111860,0.015445,0.526586,-0.074606,-0.541870,-0.217673,0.951514,0.136696,-0.144000,-44.261738,5.286362,22.529783,0.297025,2.391464,0.107894,0.000000,0.000000,0.000000,0.000000,0.000000,0.000000
13360502.000000,-0.260842,0.572607,0.328634,-1.491670,-0.200486,2.030893,0.111999,0.015464,0.533574,-0.077181,-0.540768,-0.223006,0.951802,0.137630,-0.215411,-44.114948,5.381577,22.628965,0.332731,2.430831,0.054794,0.000000,0.000000,0.000000,0.000000,0.000000,0.000000
13360503.000000,-0.260823,0.573129,0.328556,-1.492229,-0.200710,2.031865,0.112122,0.015679,0.528554,-0.076209,-0.539704,-0.225926,0.954944,0.134611,-0.290789,-43.797565,5.357773,22.874937,0.369352,2.307235,0.120712,0.000000,0.000000,0.000000,0.000000,0.000000,0.000000
13360504.000000,-0.260805,0.573654,0.328478,-1.492755,-0.200934,2.032858,0.112253,0.015878,0.526401,-0.078640,-0.540176,-0.225367,0.968239,0.134756,-0.366168,-43.555561,5.333969,23.025694,0.405057,2.118636,0.114303,0.000000,0.000000,0.000000,0.000000,0.000000,0.000000
13360505.000000,-0.260782,0.574188,0.328397,-1.493289,-0.201166,2.033830,0.112395,0.017125,0.527728,-0.077789,-0.532112,-0.231808,0.971219,0.136058,-0.489153,-43.555561,5.310165,23.025694,0.393156,2.092086,0.054794,0.000000,0.000000,0.000000,0.000000,0.000000,0.000000
13360506.000000,-0.260759,0.574740,0.328320,-1.493800,-0.201404,2.034774,0.112528,0.020373,0.537847,-0.076113,-0.526015,-0.238051,0.957884,0.132950,-0.588336,-43.726154,5.258591,23.097105,0.428861,2.235824,0.107894,0.000000,0.000000,0.000000,0.000000,0.000000,0.000000
13360507.000000,-0.260734,0.575285,0.328247,-1.494311,-0.201637,2.035729,0.112666,0.022658,0.539986,-0.074543,-0.520512,-0.233772,0.946849,0.130266,-0.687518,-43.797565,5.187180,23.120909,0.440763,2.385055,0.048385,0.000000,0.000000,0.000000,0.000000,0.000000,0.000000
13360508.000000,-0.260714,0.575818,0.328174,-1.494838,-0.201870,2.036698,0.112800,0.019826,0.534006,-0.076987,-0.517261,-0.237084,0.968480,0.129317,-0.711321,-43.821369,5.135605,23.196287,0.428861,2.410690,0.074935,0.000000,0.000000,0.000000,0.000000,0.000000,0.000000
13360509.000000,-0.260691,0.576364,0.328098,-1.495345,-0.202095,2.037667,0.112940,0.018484,0.539423,-0.076133,-0.521089,-0.235259,0.971924,0.131528,-0.762896,-43.872944,5.087997,23.394651,0.398649,2.274276,0.034652,0.000000,0.000000,0.000000,0.000000,0.000000,0.000000
13360510.000000,-0.260674,0.576887,0.328020,-1.495862,-0.202324,2.038636,0.113070,0.018442,0.536379,-0.078291,-0.514380,-0.237795,0.965792,0.128950,-0.735125,-43.749958,5.040390,23.493834,0.344633,2.196456,0.100570,0.000000,0.000000,0.000000,0.000000,0.000000,0.000000
13360511.000000,-0.260654,0.577424,0.327950,-1.496366,-0.202567,2.039583,0.113204,0.018679,0.528015,-0.078353,-0.523605,-0.237775,0.957878,0.130163,-0.711321,-43.626972,4.917404,23.616819,0.386747,2.255050,0.114303,0.000000,0.000000,0.000000,0.000000,0.000000,0.000000
13360512.000000,-0.260636,0.577963,0.327874,-1.496869,-0.202806,2.040543,0.113342,0.019042,0.530541,-0.076782,-0.514095,-0.236148,0.960323,0.128753,-0.687518,-43.456379,4.865829,23.593016,0.464567,2.307235,0.054794,0.000000,0.000000,0.000000,0.000000,0.000000,0.000000
13360513.000000,-0.260625,0.578502,0.327802,-1.497369,-0.203042,2.041505,0.113471,0.016502,0.536702,-0.077901,-0.505466,-0.235712,0.957936,0.127685,-0.540728,-43.456379,4.794418,23.370848,0.488370,2.385055,0.094161,0.000000,0.000000,0.000000,0.000000,0.000000,0.000000
13360514.000000,-0.260609,0.579045,0.327729,-1.497853,-0.203271,2.042448,0.113612,0.017154,0.528531,-0.074849,-0.502373,-0.229878,0.959975,0.130053,-0.489153,-43.381001,4.671432,23.247862,0.476469,2.482101,0.061202,0.000000,0.000000,0.000000,0.000000,0.000000,0.000000
13360515.000000,-0.260592,0.579579,0.327652,-1.498334,-0.203491,2.043430,0.113749,0.017633,0.532468,-0.074256,-0.491423,-0.227067,0.961269,0.128941,-0.441546,-43.285786,4.619858,23.049498,0.381254,2.280685,0.100570,0.000000,0.000000,0.000000,0.000000,0.000000,0.000000
13360516.000000,-0.260573,0.580108,0.327582,-1.498821,-0.203713,2.044410,0.113893,0.018579,0.533174,-0.073318,-0.489430,-0.228855,0.964313,0.131019,-0.413775,-43.087421,4.548447,22.926512,0.273221,2.066451,0.067611,0.000000,0.000000,0.000000,0.000000,0.000000,0.000000
13360517.000000,-0.260567,0.580651,0.327503,-1.499288,-0.203940,2.045389,0.114033,0.015213,0.526082,-0.074836,-0.484998,-0.227955,0.966038,0.136500,-0.215411,-42.964436,4.572250,22.676573,0.297025,1.988631,0.054794,0.000000,0.000000,0.000000,0.000000,0.000000,0.000000
13360518.000000,-0.260558,0.581185,0.327427,-1.499761,-0.204172,2.046357,0.114167,0.014169,0.528946,-0.075265,-0.473936,-0.231600,0.965773,0.133288,-0.068621,-42.770039,4.572250,22.406797,0.356534,2.053634,0.100570,0.000000,0.000000,0.000000,0.000000,0.000000,0.000000
13360519.000000,-0.260548,0.581715,0.327350,-1.500214,-0.204404,2.047301,0.114313,0.011737,0.527755,-0.074883,-0.470911,-0.234196,0.958334,0.136057,0.030561,-42.500263,4.548447,22.184629,0.416959,2.209274,0.041976,0.000000,0.000000,0.000000,0.000000,0.000000,0.000000
13360520.000000,-0.260540,0.582232,0.327277,-1.500666,-0.204633,2.048263,0.114444,0.008800,0.530864,-0.072797,-0.465154,-0.237819,0.944508,0.134144,0.177350,-42.059895,4.449265,21.934690,0.482877,2.300826,0.081344,0.000000,0.000000,0.000000,0.000000,0.000000,0.000000
13360521.000000,-0.260525,0.582761,0.327196,-1.501127,-0.204858,2.049240,0.114580,0.012342,0.526955,-0.078172,-0.459629,-0.237412,0.953898,0.129061,0.205121,-41.742512,4.500839,21.641111,0.405057,2.209274,0.074935,0.000000,0.000000,0.000000,0.000000,0.000000,0.000000
13360522.000000,-0.260515,0.583281,0.327122,-1.501562,-0.205072,2.050234,0.114715,0.010297,0.522745,-0.078940,-0.450652,-0.227942,0.961169,0.130130,0.304304,-41.373554,4.425461,21.391172,0.273221,2.060043,0.067611,0.000000,0.000000,0.000000,0.000000,0.000000,0.000000
13360523.000000,-0.260501,0.583789,0.327042,-1.502009,-0.205289,2.051226,0.114850,0.013313,0.513106,-0.078533,-0.443588,-0.227049,0.968704,0.129574,0.328107,-40.956989,4.425461,21.169004,0.195402,1.962081,0.094161,0.000000,0.000000,0.000000,0.000000,0.000000,0.000000
13360524.000000,-0.260485,0.584307,0.326959,-1.502422,-0.205508,2.052186,0.114995,0.015976,0.516035,-0.082218,-0.449333,-0.223854,0.968778,0.132766,0.328107,-40.615803,4.473068,20.823851,0.189908,2.014266,0.028243,0.000000,0.000000,0.000000,0.000000,0.000000,0.000000
13360525.000000,-0.260479,0.584825,0.326877,-1.502839,-0.205732,2.053153,0.115128,0.014450,0.516478,-0.081190,-0.438404,-0.225390,0.960988,0.130455,0.474897,-40.298420,4.500839,20.526304,0.249418,2.104903,0.081344,0.000000,0.000000,0.000000,0.000000,0.000000,0.000000
13360526.000000,-0.260465,0.585325,0.326793,-1.503259,-0.205960,2.054127,0.115269,0.012935,0.508704,-0.085139,-0.431502,-0.228781,0.965834,0.131000,0.526471,-39.782673,4.596054,20.280333,0.303434,2.137862,0.067611,0.000000,0.000000,0.000000,0.000000,0.000000,0.000000
13360527.000000,-0.260452,0.585830,0.326703,-1.503658,-0.206193,2.055095,0.115403,0.012386,0.507237,-0.088367,-0.423893,-0.230523,0.967355,0.130716,0.550275,-39.219318,4.695236,20.058165,0.320829,2.060043,0.081344,0.000000,0.000000,0.000000,0.000000,0.000000,0.000000
13360528.000000,-0.260435,0.586325,0.326620,-1.504072,-0.206421,2.056073,0.115545,0.012971,0.505741,-0.085419,-0.418465,-0.226496,0.972381,0.133026,0.526471,-38.707539,4.719040,19.883604,0.327238,1.968490,0.041976,0.000000,0.000000,0.000000,0.000000,0.000000,0.000000
13360529.000000,-0.260413,0.586840,0.326536,-1.504455,-0.206637,2.057028,0.115679,0.016921,0.502441,-0.086534,-0.409263,-0.224201,0.965897,0.130918,0.474897,-38.362385,4.742844,19.590025,0.237516,1.942855,0.087753,0.000000,0.000000,0.000000,0.000000,0.000000,0.000000
13360530.000000,-0.260396,0.587366,0.326450,-1.504837,-0.206853,2.057992,0.115818,0.014876,0.510371,-0.085942,-0.405413,-0.221469,0.956947,0.132253,0.502668,-38.191792,4.719040,19.292479,0.183500,1.995040,0.061202,0.000000,0.000000,0.000000,0.000000,0.000000,0.000000
13360531.000000,-0.260367,0.587880,0.326362,-1.505224,-0.207078,2.058967,0.115956,0.021096,0.510409,-0.087111,-0.398097,-0.224864,0.954716,0.132143,0.328107,-38.068806,4.770615,18.971128,0.195402,1.962081,0.054794,0.000000,0.000000,0.000000,0.000000,0.000000,0.000000
13360532.000000,-0.260345,0.588408,0.326269,-1.505596,-0.207307,2.059930,0.116094,0.019593,0.510813,-0.088870,-0.392810,-0.226423,0.964051,0.135695,0.276533,-38.021198,4.842026,18.748960,0.171598,1.877853,0.087753,0.000000,0.000000,0.000000,0.000000,0.000000,0.000000
13360533.000000,-0.260330,0.588919,0.326181,-1.505976,-0.207537,2.060899,0.116247,0.018771,0.512172,-0.088351,-0.388015,-0.224591,0.962894,0.137015,0.328107,-37.850605,4.842026,18.649778,0.195402,1.832076,0.028243,0.000000,0.000000,0.000000,0.000000,0.000000,0.000000
13360534.000000,-0.260302,0.589437,0.326084,-1.506355,-0.207768,2.061863,0.116388,0.021997,0.509476,-0.089866,-0.386420,-0.227750,0.960812,0.137768,0.228925,-37.680012,4.917404,18.625975,0.243009,1.735030,0.094161,0.000000,0.000000,0.000000,0.000000,0.000000,0.000000
13360535.000000,-0.260283,0.589966,0.325990,-1.506716,-0.207997,2.062837,0.116536,0.020883,0.513505,-0.087077,-0.378244,-0.222834,0.956654,0.143117,0.276533,-37.509418,4.965012,18.475218,0.303434,1.702071,0.041976,0.000000,0.000000,0.000000,0.000000,0.000000,0.000000
13360536.000000,-0.260256,0.590483,0.325899,-1.507088,-0.208227,2.063802,0.116683,0.022849,0.514334,-0.087071,-0.368359,-0.225961,0.955285,0.145500,0.205121,-37.362629,4.965012,18.451414,0.320829,1.767074,0.034652,0.000000,0.000000,0.000000,0.000000,0.000000,0.000000
13360537.000000,-0.260229,0.591014,0.325812,-1.507442,-0.208465,2.064758,0.116819,0.023192,0.515643,-0.086143,-0.365292,-0.232430,0.956407,0.143221,0.177350,-37.287251,4.917404,18.328428,0.315336,1.773483,0.107894,0.000000,0.000000,0.000000,0.000000,0.000000,0.000000
13360538.000000,-0.260199,0.591560,0.325725,-1.507805,-0.208693,2.065714,0.116964,0.025164,0.529761,-0.087214,-0.360804,-0.226570,0.945667,0.146465,0.078168,-37.334858,4.818222,18.376036,0.243009,1.786300,0.074935,0.000000,0.000000,0.000000,0.000000,0.000000,0.000000
13360539.000000,-0.260171,0.592088,0.325639,-1.508172,-0.208929,2.066665,0.117106,0.025304,0.532679,-0.088991,-0.361890,-0.231282,0.944910,0.147089,0.030561,-37.334858,4.742844,18.376036,0.213712,1.800033,0.081344,0.000000,0.000000,0.000000,0.000000,0.000000,0.000000
13360540.000000,-0.260139,0.592635,0.325552,-1.508513,-0.209158,2.067630,0.117248,0.026227,0.532329,-0.090495,-0.357548,-0.227408,0.949906,0.145308,-0.044818,-37.509418,4.671432,18.276854,0.183500,1.786300,0.067611,0.000000,0.000000,0.000000,0.000000,0.000000,0.000000
13360541.000000,-0.260114,0.593191,0.325461,-1.508868,-0.209390,2.068583,0.117392,0.023671,0.543224,-0.089755,-0.356156,-0.229941,0.949133,0.145690,0.006757,-37.775227,4.647629,18.153868,0.195402,1.871444,0.087753,0.000000,0.000000,0.000000,0.000000,0.000000,0.000000
13360542.000000,-0.260085,0.593741,0.325374,-1.509216,-0.209628,2.069524,0.117535,0.026313,0.545215,-0.091574,-0.362021,-0.234347,0.954109,0.142132,0.006757,-37.826801,4.596054,18.106260,0.171598,1.962081,0.094161,0.000000,0.000000,0.000000,0.000000,0.000000,0.000000
13360543.000000,-0.260057,0.594299,0.325284,-1.509556,-0.209866,2.070484,0.117676,0.025832,0.547582,-0.093386,-0.356534,-0.235694,0.946736,0.139810,-0.017047,-37.874409,4.572250,17.955503,0.159696,1.903487,0.094161,0.000000,0.000000,0.000000,0.000000,0.000000,0.000000
13360544.000000,-0.260029,0.594857,0.325197,-1.509909,-0.210111,2.071466,0.117821,0.024939,0.551370,-0.091200,-0.352334,-0.241475,0.952147,0.143273,-0.017047,-37.874409,4.524643,17.784910,0.207303,1.727706,0.074935,0.000000,0.000000,0.000000,0.000000,0.000000,0.000000
13360545.000000,-0.260002,0.595417,0.325112,-1.510243,-0.210343,2.072427,0.117962,0.023177,0.553773,-0.086029,-0.346432,-0.239219,0.952471,0.140732,0.030561,-37.922016,4.449265,17.634153,0.195402,1.637069,0.067611,0.000000,0.000000,0.000000,0.000000,0.000000,0.000000
13360546.000000,-0.259983,0.595979,0.325032,-1.510593,-0.210581,2.073382,0.118097,0.020168,0.557082,-0.084541,-0.347313,-0.238857,0.953128,0.141724,0.153547,-38.096577,4.350082,17.463560,0.225614,1.617843,0.107894,0.000000,0.000000,0.000000,0.000000,0.000000,0.000000
13360547.000000,-0.259949,0.596564,0.324947,-1.510940,-0.210820,2.074317,0.118244,0.022191,0.561403,-0.085453,-0.345477,-0.237300,0.944644,0.147500,0.105939,-38.362385,4.326279,17.435789,0.237516,1.637069,0.041976,0.000000,0.000000,0.000000,0.000000,0.000000,0.000000
13360548.000000,-0.259923,0.597139,0.324861,-1.511270,-0.211059,2.075268,0.118381,0.024134,0.564437,-0.081526,-0.344024,-0.237781,0.938061,0.143329,0.153547,-38.513142,4.254868,17.265196,0.237516,1.643478,0.061202,0.000000,0.000000,0.000000,0.000000,0.000000,0.000000
13360549.000000,-0.259898,0.597700,0.324778,-1.511612,-0.211292,2.076230,0.118521,0.022702,0.565631,-0.079998,-0.343552,-0.239113,0.940659,0.144136,0.205121,-38.608356,4.227097,17.142210,0.178007,1.597701,0.081344,0.000000,0.000000,0.000000,0.000000,0.000000,0.000000
13360550.000000,-0.259871,0.598293,0.324689,-1.511942,-0.211521,2.077171,0.118669,0.024995,0.566780,-0.082328,-0.342614,-0.235549,0.946641,0.140977,0.228925,-38.901936,4.227097,17.114439,0.112089,1.578475,0.067611,0.000000,0.000000,0.000000,0.000000,0.000000,0.000000
13360551.000000,-0.259847,0.598867,0.324598,-1.512282,-0.211752,2.078111,0.118816,0.024993,0.581658,-0.083896,-0.337358,-0.235153,0.937676,0.143308,0.328107,-38.953510,4.227097,17.043028,0.100187,1.597701,0.074935,0.000000,0.000000,0.000000,0.000000,0.000000,0.000000
13360552.000000,-0.259807,0.599456,0.324508,-1.512628,-0.211986,2.079034,0.118962,0.030485,0.583343,-0.085789,-0.334853,-0.238643,0.936101,0.141017,0.205121,-39.124104,4.254868,17.019224,0.100187,1.670028,0.061202,0.000000,0.000000,0.000000,0.000000,0.000000,0.000000
13360553.000000,-0.259787,0.600055,0.324408,-1.512941,-0.212228,2.079989,0.119107,0.025063,0.578857,-0.091688,-0.327616,-0.235400,0.936068,0.142519,0.351911,-39.318501,4.350082,16.769285,0.135892,1.591293,0.087753,0.000000,0.000000,0.000000,0.000000,0.000000,0.000000
13360554.000000,-0.259761,0.600652,0.324314,-1.513285,-0.212470,2.080936,0.119259,0.025715,0.586015,-0.091341,-0.331742,-0.241133,0.937111,0.145574,0.427289,-39.564472,4.377853,16.793089,0.166105,1.605026,0.054794,0.000000,0.000000,0.000000,0.000000,0.000000,0.000000
13360555.000000,-0.259730,0.601245,0.324221,-1.513611,-0.212707,2.081870,0.119403,0.027996,0.586670,-0.094570,-0.333223,-0.238978,0.938856,0.142443,0.427289,-39.659687,4.401657,16.745481,0.166105,1.591293,0.067611,0.000000,0.000000,0.000000,0.000000,0.000000,0.000000
13360556.000000,-0.259703,0.601847,0.324124,-1.513946,-0.212937,2.082825,0.119549,0.025058,0.599048,-0.094282,-0.334479,-0.228772,0.927688,0.141194,0.502668,-39.810444,4.473068,16.697874,0.154203,1.494247,0.048385,0.000000,0.000000,0.000000,0.000000,0.000000,0.000000
13360557.000000,-0.259673,0.602446,0.324024,-1.514286,-0.213169,2.083769,0.119697,0.027616,0.596916,-0.097639,-0.330314,-0.228574,0.952911,0.142660,0.502668,-39.981037,4.548447,16.721678,0.135892,1.402694,0.067611,0.000000,0.000000,0.000000,0.000000,0.000000,0.000000
13360558.000000,-0.259645,0.603048,0.323922,-1.514609,-0.213408,2.084712,0.119846,0.025475,0.600811,-0.096573,-0.331093,-0.234083,0.948269,0.144773,0.550275,-40.004841,4.619858,16.646299,0.117582,1.442062,0.067611,0.000000,0.000000,0.000000,0.000000,0.000000,0.000000
13360559.000000,-0.259616,0.603640,0.323815,-1.514939,-0.213656,2.085649,0.120000,0.027755,0.601199,-0.097227,-0.328130,-0.239313,0.944286,0.146693,0.550275,-40.028645,4.742844,16.570921,0.123990,1.494247,0.054794,0.000000,0.000000,0.000000,0.000000,0.000000,0.000000
13360560.000000,-0.259586,0.604239,0.323705,-1.515259,-0.213901,2.086570,0.120145,0.028108,0.600581,-0.101135,-0.335765,-0.242296,0.931559,0.145978,0.601850,-40.028645,4.893600,16.570921,0.129484,1.578475,0.100570,0.000000,0.000000,0.000000,0.000000,0.000000,0.000000
13360561.000000,-0.259561,0.604846,0.323600,-1.515588,-0.214144,2.087499,0.120297,0.025323,0.597652,-0.101260,-0.333888,-0.237267,0.924053,0.149459,0.673261,-40.028645,4.917404,16.570921,0.141385,1.708480,0.041976,0.000000,0.000000,0.000000,0.000000,0.000000,0.000000
13360562.000000,-0.259531,0.605442,0.323486,-1.515922,-0.214384,2.088445,0.120442,0.027170,0.596123,-0.104652,-0.327767,-0.240780,0.926971,0.147423,0.697065,-40.052448,5.087997,16.646299,0.141385,1.656295,0.094161,0.000000,0.000000,0.000000,0.000000,0.000000,0.000000
13360563.000000,-0.259497,0.606040,0.323376,-1.516247,-0.214640,2.089392,0.120594,0.029207,0.593683,-0.109021,-0.326708,-0.243795,0.935699,0.147491,0.697065,-39.957233,5.187180,16.745481,0.135892,1.513473,0.041976,0.000000,0.000000,0.000000,0.000000,0.000000,0.000000
13360564.000000,-0.259467,0.606641,0.323269,-1.516581,-0.214887,2.090327,0.120738,0.026959,0.596552,-0.107461,-0.330508,-0.244960,0.929455,0.144056,0.724836,-40.004841,5.234787,16.920042,0.100187,1.526290,0.048385,0.000000,0.000000,0.000000,0.000000,0.000000,0.000000
13360565.000000,-0.259434,0.607256,0.323154,-1.516898,-0.215140,2.091244,0.120879,0.029083,0.598331,-0.110813,-0.327044,-0.247360,0.925398,0.143800,0.724836,-40.028645,5.333969,16.820860,0.129484,1.597701,0.100570,0.000000,0.000000,0.000000,0.000000,0.000000,0.000000
13360566.000000,-0.259400,0.607861,0.323041,-1.517226,-0.215383,2.092166,0.121036,0.033212,0.601710,-0.109203,-0.326267,-0.241398,0.920750,0.148656,0.724836,-39.858051,5.405380,16.920042,0.154203,1.714889,0.021835,0.000000,0.000000,0.000000,0.000000,0.000000,0.000000
13360567.000000,-0.259373,0.608454,0.322924,-1.517554,-0.215631,2.093094,0.121180,0.032000,0.594178,-0.113046,-0.323560,-0.249896,0.920381,0.146432,0.796247,-39.659687,5.528366,16.967649,0.171598,1.747848,0.087753,0.000000,0.000000,0.000000,0.000000,0.000000,0.000000
13360568.000000,-0.259340,0.609051,0.322807,-1.517875,-0.215890,2.094006,0.121331,0.032530,0.587658,-0.113251,-0.324095,-0.256124,0.921969,0.148297,0.796247,-39.465290,5.556137,17.090635,0.183500,1.747848,0.048385,0.000000,0.000000,0.000000,0.000000,0.000000,0.000000
13360569.000000,-0.259301,0.609641,0.322683,-1.518200,-0.216140,2.094930,0.121475,0.034612,0.600666,-0.115549,-0.323546,-0.251408,0.916422,0.147365,0.724836,-39.195515,5.679123,17.189817,0.159696,1.747848,0.087753,0.000000,0.000000,0.000000,0.000000,0.000000,0.000000
13360570.000000,-0.259268,0.610244,0.322572,-1.518530,-0.216394,2.095843,0.121625,0.033850,0.599837,-0.113189,-0.322186,-0.252284,0.919020,0.153598,0.748639,-39.100300,5.627548,17.241392,0.195402,1.735030,0.067611,0.000000,0.000000,0.000000,0.000000,0.000000,0.000000
13360571.000000,-0.259235,0.610849,0.322461,-1.518849,-0.216637,2.096761,0.121772,0.036185,0.599580,-0.109252,-0.321472,-0.243938,0.919083,0.156956,0.772443,-39.024921,5.603745,17.312803,0.189908,1.760665,0.087753,0.000000,0.000000,0.000000,0.000000,0.000000,0.000000
13360572.000000,-0.259205,0.611450,0.322343,-1.519179,-0.216887,2.097671,0.121921,0.033799,0.596235,-0.114455,-0.319125,-0.252548,0.914534,0.156416,0.847822,-38.953510,5.651352,17.463560,0.219205,1.767074,0.054794,0.000000,0.000000,0.000000,0.000000,0.000000,0.000000
13360573.000000,-0.259170,0.612040,0.322225,-1.519497,-0.217143,2.098582,0.122066,0.036676,0.591347,-0.115702,-0.320817,-0.252466,0.913861,0.155655,0.847822,-38.560749,5.702927,17.610350,0.225614,1.708480,0.041976,0.000000,0.000000,0.000000,0.000000,0.000000,0.000000
13360574.000000,-0.259136,0.612636,0.322111,-1.519824,-0.217397,2.099497,0.122207,0.032693,0.606857,-0.110364,-0.323080,-0.250257,0.908134,0.153109,0.871625,-38.267170,5.651352,17.808714,0.249418,1.741439,0.074935,0.000000,0.000000,0.000000,0.000000,0.000000,0.000000
13360575.000000,-0.259101,0.613228,0.322002,-1.520147,-0.217648,2.100388,0.122362,0.030319,0.603105,-0.111960,-0.321235,-0.254601,0.927128,0.158654,0.871625,-38.096577,5.556137,17.856321,0.237516,1.825668,0.028243,0.000000,0.000000,0.000000,0.000000,0.000000,0.000000
13360576.000000,-0.259068,0.613836,0.321883,-1.520465,-0.217889,2.101291,0.122509,0.031186,0.597442,-0.113034,-0.321484,-0.248546,0.919223,0.156343,0.895429,-38.120380,5.579941,17.955503,0.207303,1.890670,0.048385,0.000000,0.000000,0.000000,0.000000,0.000000,0.000000
13360577.000000,-0.259029,0.614447,0.321775,-1.520789,-0.218134,2.102208,0.122655,0.032388,0.601680,-0.108418,-0.317135,-0.249170,0.910174,0.154900,0.871625,-38.215595,5.504562,18.030882,0.183500,1.890670,0.048385,0.000000,0.000000,0.000000,0.000000,0.000000,0.000000
13360578.000000,-0.258993,0.615061,0.321666,-1.521102,-0.218386,2.103112,0.122803,0.032912,0.606929,-0.106130,-0.326347,-0.252005,0.911598,0.149393,0.871625,-38.290974,5.480759,18.153868,0.123990,1.832076,0.041976,0.000000,0.000000,0.000000,0.000000,0.000000,0.000000
13360579.000000,-0.258955,0.615682,0.321562,-1.521421,-0.218643,2.104037,0.122951,0.033179,0.610804,-0.102507,-0.324898,-0.251153,0.922276,0.149794,0.871625,-38.390156,5.381577,18.253050,0.166105,1.747848,0.041976,0.000000,0.000000,0.000000,0.000000,0.000000,0.000000
13360580.000000,-0.258924,0.616292,0.321455,-1.521748,-0.218906,2.104950,0.123097,0.033911,0.605565,-0.101290,-0.323780,-0.253658,0.914569,0.145035,0.970807,-38.390156,5.333969,18.352232,0.225614,1.708480,0.041976,0.000000,0.000000,0.000000,0.000000,0.000000,0.000000
13360581.000000,-0.258886,0.616909,0.321348,-1.522062,-0.219165,2.105848,0.123234,0.036747,0.605248,-0.100732,-0.324673,-0.252562,0.903970,0.144287,0.970807,-38.338581,5.286362,18.376036,0.320829,1.793624,0.100570,0.000000,0.000000,0.000000,0.000000,0.000000,0.000000
13360582.000000,-0.258845,0.617517,0.321240,-1.522376,-0.219417,2.106757,0.123389,0.036047,0.606687,-0.103475,-0.317303,-0.257564,0.899615,0.148545,0.970807,-38.314777,5.258591,18.328428,0.320829,1.858627,0.034652,0.000000,0.000000,0.000000,0.000000,0.000000,0.000000
13360583.000000,-0.258801,0.618132,0.321136,-1.522686,-0.219677,2.107649,0.123538,0.037933,0.607482,-0.104726,-0.314872,-0.258988,0.898582,0.149404,0.871625,-38.267170,5.187180,18.253050,0.291532,1.930038,0.054794,0.000000,0.000000,0.000000,0.000000,0.000000,0.000000
13360584.000000,-0.258760,0.618754,0.321027,-1.522999,-0.219928,2.108558,0.123681,0.037940,0.606225,-0.106432,-0.311966,-0.251997,0.898546,0.148071,0.824018,-38.267170,5.163376,18.253050,0.231107,1.968490,0.114303,0.000000,0.000000,0.000000,0.000000,0.000000,0.000000
13360585.000000,-0.258711,0.619381,0.320925,-1.523323,-0.220174,2.109488,0.123831,0.039019,0.611573,-0.105974,-0.310015,-0.254763,0.898634,0.150030,0.724836,-38.390156,5.087997,18.304625,0.154203,1.890670,0.074935,0.000000,0.000000,0.000000,0.000000,0.000000,0.000000
13360586.000000,-0.258672,0.620010,0.320824,-1.523631,-0.220423,2.110399,0.123986,0.038977,0.614940,-0.103327,-0.315064,-0.254176,0.899473,0.155592,0.772443,-38.437763,5.012619,18.328428,0.135892,1.773483,0.034652,0.000000,0.000000,0.000000,0.000000,0.000000,0.000000
13360587.000000,-0.258627,0.620635,0.320717,-1.523943,-0.220678,2.111308,0.124132,0.041437,0.628505,-0.103940,-0.311225,-0.256904,0.901825,0.148524,0.724836,-38.390156,5.040390,18.304625,0.154203,1.812850,0.067611,0.000000,0.000000,0.000000,0.000000,0.000000,0.000000
13360588.000000,-0.258580,0.621245,0.320616,-1.524249,-0.220947,2.112195,0.124277,0.043445,0.618076,-0.101562,-0.304108,-0.262766,0.887096,0.147951,0.673261,-38.215595,4.965012,18.229246,0.231107,1.858627,0.100570,0.000000,0.000000,0.000000,0.000000,0.000000,0.000000
13360589.000000,-0.258536,0.621881,0.320513,-1.524545,-0.221207,2.113097,0.124428,0.043704,0.617906,-0.105138,-0.305560,-0.263668,0.889227,0.151768,0.673261,-38.243366,4.965012,18.177671,0.267728,1.909896,0.021835,0.000000,0.000000,0.000000,0.000000,0.000000,0.000000
13360590.000000,-0.258482,0.622518,0.320404,-1.524844,-0.221463,2.114007,0.124571,0.046711,0.627456,-0.104767,-0.302008,-0.260680,0.893450,0.148949,0.550275,-38.413960,4.988815,18.078489,0.249418,1.909896,0.081344,0.000000,0.000000,0.000000,0.000000,0.000000,0.000000
13360591.000000,-0.258429,0.623156,0.320298,-1.525140,-0.221721,2.114902,0.124728,0.050920,0.629229,-0.104198,-0.303504,-0.261975,0.894900,0.152057,0.451093,-38.536945,4.988815,18.130064,0.213712,1.819259,0.041976,0.000000,0.000000,0.000000,0.000000,0.000000,0.000000
13360592.000000,-0.258372,0.623808,0.320189,-1.525438,-0.221984,2.115817,0.124878,0.051929,0.629586,-0.103687,-0.298781,-0.260720,0.890120,0.152976,0.328107,-38.731342,5.012619,18.078489,0.183500,1.708480,0.034652,0.000000,0.000000,0.000000,0.000000,0.000000,0.000000
13360593.000000,-0.258325,0.624453,0.320087,-1.525739,-0.222254,2.116713,0.125022,0.050240,0.629593,-0.105748,-0.293098,-0.264288,0.904251,0.150257,0.304304,-38.901936,4.988815,18.078489,0.207303,1.670028,0.081344,0.000000,0.000000,0.000000,0.000000,0.000000,0.000000
13360594.000000,-0.258272,0.625098,0.319987,-1.526022,-0.222517,2.117607,0.125176,0.052088,0.629770,-0.105995,-0.292505,-0.267209,0.901057,0.147507,0.252729,-38.901936,4.917404,18.078489,0.219205,1.735030,0.034652,0.000000,0.000000,0.000000,0.000000,0.000000,0.000000
13360595.000000,-0.258222,0.625739,0.319878,-1.526309,-0.222781,2.118504,0.125328,0.050067,0.636202,-0.105991,-0.290312,-0.271360,0.897892,0.147200,0.252729,-38.953510,4.965012,18.030882,0.285123,1.800033,0.061202,0.000000,0.000000,0.000000,0.000000,0.000000,0.000000
13360596.000000,-0.258169,0.626387,0.319774,-1.526605,-0.223048,2.119397,0.125481,0.052027,0.637030,-0.104141,-0.288813,-0.272256,0.895641,0.148774,0.228925,-38.977314,4.941208,18.106260,0.332731,1.800033,0.041976,0.000000,0.000000,0.000000,0.000000,0.000000,0.000000
13360597.000000,-0.258114,0.627035,0.319667,-1.526903,-0.223306,2.120301,0.125628,0.054453,0.637256,-0.107303,-0.295000,-0.266805,0.892109,0.147330,0.177350,-38.977314,4.965012,18.229246,0.261320,1.800033,0.094161,0.000000,0.000000,0.000000,0.000000,0.000000,0.000000
13360598.000000,-0.258059,0.627683,0.319560,-1.527204,-0.223573,2.121217,0.125788,0.052396,0.639464,-0.108894,-0.292026,-0.267214,0.897734,0.150457,0.153547,-39.048725,4.965012,18.328428,0.231107,1.741439,0.028243,0.000000,0.000000,0.000000,0.000000,0.000000,0.000000
13360599.000000,-0.258004,0.628339,0.319449,-1.527490,-0.223840,2.122103,0.125935,0.051548,0.642347,-0.110023,-0.290801,-0.269338,0.891513,0.153145,0.105939,-39.124104,4.965012,18.451414,0.237516,1.702071,0.054794,0.000000,0.000000,0.000000,0.000000,0.000000,0.000000
13360600.000000,-0.257949,0.628976,0.319339,-1.527779,-0.224101,2.123006,0.126089,0.053039,0.643266,-0.110219,-0.288491,-0.263170,0.891294,0.151975,0.078168,-39.072529,4.941208,18.526793,0.261320,1.741439,0.100570,0.000000,0.000000,0.000000,0.000000,0.000000,0.000000
13360601.000000,-0.257906,0.629618,0.319232,-1.528068,-0.224375,2.123888,0.126255,0.050891,0.641554,-0.111171,-0.289870,-0.272148,0.892612,0.154172,0.205121,-38.925739,4.941208,18.598204,0.339139,1.812850,0.034652,0.000000,0.000000,0.000000,0.000000,0.000000,0.000000
13360602.000000,-0.257852,0.630268,0.319123,-1.528344,-0.224646,2.124783,0.126413,0.049564,0.632095,-0.110508,-0.283083,-0.271243,0.891399,0.154539,0.205121,-38.806721,4.893600,18.598204,0.405057,1.806442,0.001693,0.000000,0.000000,0.000000,0.000000,0.000000,0.000000
13360603.000000,-0.257801,0.630915,0.319009,-1.528638,-0.224912,2.125683,0.126563,0.047515,0.632371,-0.108688,-0.282404,-0.271439,0.889277,0.151101,0.252729,-38.731342,4.917404,18.673582,0.398649,1.825668,0.067611,0.000000,0.000000,0.000000,0.000000,0.000000,0.000000
13360604.000000,-0.257747,0.631575,0.318905,-1.528910,-0.225165,2.126565,0.126714,0.049629,0.639753,-0.104909,-0.277925,-0.268465,0.885926,0.153752,0.252729,-38.755146,4.842026,18.697386,0.315336,1.884261,0.100570,0.000000,0.000000,0.000000,0.000000,0.000000,0.000000
13360605.000000,-0.257695,0.632223,0.318791,-1.529177,-0.225410,2.127464,0.126874,0.050796,0.652231,-0.106977,-0.273600,-0.263266,0.889553,0.156559,0.276533,-38.632160,4.842026,18.673582,0.219205,1.871444,0.015426,0.000000,0.000000,0.000000,0.000000,0.000000,0.000000
13360606.000000,-0.257640,0.632878,0.318683,-1.529456,-0.225672,2.128351,0.127020,0.048841,0.653810,-0.108167,-0.275144,-0.264670,0.888977,0.152589,0.304304,-38.683735,4.818222,18.697386,0.195402,1.871444,0.074935,0.000000,0.000000,0.000000,0.000000,0.000000,0.000000
13360607.000000,-0.257591,0.633531,0.318575,-1.529712,-0.225931,2.129243,0.127177,0.049780,0.647457,-0.104680,-0.270580,-0.259561,0.880991,0.153524,0.351911,-38.560749,4.742844,18.625975,0.207303,1.942855,0.041976,0.000000,0.000000,0.000000,0.000000,0.000000,0.000000
13360608.000000,-0.257542,0.634170,0.318463,-1.529978,-0.226199,2.130147,0.127332,0.049059,0.642372,-0.108238,-0.265453,-0.261735,0.882436,0.153045,0.451093,-38.267170,4.794418,18.625975,0.291532,1.942855,0.028243,0.000000,0.000000,0.000000,0.000000,0.000000,0.000000
13360609.000000,-0.257496,0.634818,0.318360,-1.530228,-0.226466,2.131036,0.127479,0.048710,0.642446,-0.107923,-0.267600,-0.261713,0.889509,0.146716,0.550275,-38.021198,4.719040,18.526793,0.362943,1.909896,0.054794,0.000000,0.000000,0.000000,0.000000,0.000000,0.000000
13360610.000000,-0.257451,0.635461,0.318252,-1.530486,-0.226720,2.131926,0.127629,0.045892,0.642482,-0.108205,-0.263111,-0.255981,0.879463,0.148058,0.649457,-37.703815,4.671432,18.499022,0.351041,1.851302,0.048385,0.000000,0.000000,0.000000,0.000000,0.000000,0.000000
13360611.000000,-0.257396,0.636095,0.318141,-1.530738,-0.226979,2.132826,0.127779,0.049791,0.638104,-0.110163,-0.255581,-0.256932,0.883052,0.152880,0.625654,-37.481647,4.695236,18.427610,0.279630,1.812850,0.061202,0.000000,0.000000,0.000000,0.000000,0.000000,0.000000
13360612.000000,-0.257338,0.636744,0.318032,-1.530973,-0.227243,2.133702,0.127932,0.052937,0.635118,-0.110423,-0.252136,-0.260094,0.881958,0.149662,0.574079,-37.362629,4.671432,18.304625,0.237516,1.851302,0.009017,0.000000,0.000000,0.000000,0.000000,0.000000,0.000000
13360613.000000,-0.257284,0.637386,0.317915,-1.531207,-0.227495,2.134566,0.128072,0.052701,0.636162,-0.112602,-0.244277,-0.262006,0.876796,0.147380,0.601850,-37.164265,4.719040,18.106260,0.183500,1.974899,0.081344,0.000000,0.000000,0.000000,0.000000,0.000000,0.000000
13360614.000000,-0.257234,0.638020,0.317801,-1.531443,-0.227751,2.135439,0.128227,0.053132,0.634085,-0.116513,-0.240211,-0.259436,0.873582,0.149552,0.649457,-36.723896,4.742844,17.955503,0.183500,2.020675,0.048385,0.000000,0.000000,0.000000,0.000000,0.000000,0.000000
13360615.000000,-0.257186,0.638661,0.317689,-1.531667,-0.228013,2.136329,0.128378,0.052374,0.634769,-0.112297,-0.234669,-0.261284,0.869275,0.150561,0.724836,-36.358906,4.742844,17.832518,0.219205,1.962081,0.034652,0.000000,0.000000,0.000000,0.000000,0.000000,0.000000
13360616.000000,-0.257130,0.639298,0.317580,-1.531899,-0.228283,2.137221,0.128529,0.051543,0.635649,-0.116988,-0.232835,-0.264072,0.876323,0.149954,0.697065,-36.136738,4.695236,17.685728,0.213712,1.877853,0.041976,0.000000,0.000000,0.000000,0.000000,0.000000,0.000000
13360617.000000,-0.257079,0.639957,0.317468,-1.532123,-0.228553,2.138100,0.128676,0.051966,0.637868,-0.112780,-0.230837,-0.266719,0.877060,0.151969,0.724836,-36.184345,4.671432,17.634153,0.219205,1.786300,0.094161,0.000000,0.000000,0.000000,0.000000,0.000000,0.000000
13360618.000000,-0.257025,0.640626,0.317346,-1.532332,-0.228823,2.138984,0.128836,0.052665,0.645152,-0.115202,-0.222972,-0.262742,0.868786,0.153997,0.748639,-36.430317,4.770615,17.463560,0.285123,1.760665,0.034652,0.000000,0.000000,0.000000,0.000000,0.000000,0.000000
13360619.000000,-0.256968,0.641293,0.317235,-1.532536,-0.229083,2.139858,0.128990,0.053779,0.653060,-0.114891,-0.217414,-0.265224,0.869087,0.154491,0.748639,-36.553303,4.770615,17.289000,0.315336,1.747848,0.028243,0.000000,0.000000,0.000000,0.000000,0.000000,0.000000
13360620.000000,-0.256910,0.641971,0.317119,-1.532747,-0.229344,2.140745,0.129135,0.055954,0.657461,-0.118453,-0.213357,-0.262702,0.872208,0.151909,0.697065,-36.747700,4.818222,17.241392,0.279630,1.760665,0.081344,0.000000,0.000000,0.000000,0.000000,0.000000,0.000000
13360621.000000,-0.256855,0.642629,0.317002,-1.532951,-0.229605,2.141637,0.129291,0.055249,0.656004,-0.117292,-0.210921,-0.264701,0.867254,0.152874,0.724836,-36.747700,4.818222,17.114439,0.255826,1.721298,0.041976,0.000000,0.000000,0.000000,0.000000,0.000000,0.000000
13360622.000000,-0.256798,0.643305,0.316881,-1.533151,-0.229868,2.142520,0.129441,0.055318,0.658992,-0.115435,-0.206058,-0.269842,0.879020,0.155882,0.724836,-36.846882,4.917404,17.114439,0.213712,1.662704,0.074935,0.000000,0.000000,0.000000,0.000000,0.000000,0.000000
13360623.000000,-0.256739,0.643983,0.316774,-1.533347,-0.230123,2.143406,0.129600,0.059590,0.667692,-0.112235,-0.204259,-0.257195,0.878434,0.161293,0.673261,-36.918293,4.818222,17.066832,0.189908,1.670028,0.021835,0.000000,0.000000,0.000000,0.000000,0.000000,0.000000
13360624.000000,-0.256682,0.644663,0.316654,-1.533545,-0.230384,2.144272,0.129754,0.058770,0.671832,-0.117416,-0.201486,-0.256439,0.888527,0.158023,0.673261,-37.140461,4.893600,16.967649,0.207303,1.689254,0.041976,0.000000,0.000000,0.000000,0.000000,0.000000,0.000000
13360625.000000,-0.256622,0.645353,0.316542,-1.533731,-0.230649,2.145154,0.129900,0.059805,0.678214,-0.118216,-0.197718,-0.255094,0.885088,0.154395,0.601850,-37.434040,4.842026,16.920042,0.267728,1.760665,0.094161,0.000000,0.000000,0.000000,0.000000,0.000000,0.000000
13360626.000000,-0.256561,0.646021,0.316427,-1.533913,-0.230908,2.146037,0.130060,0.059225,0.677740,-0.117043,-0.193330,-0.258740,0.879236,0.156037,0.574079,-37.457844,4.842026,16.820860,0.237516,1.779891,0.028243,0.000000,0.000000,0.000000,0.000000,0.000000,0.000000
13360627.000000,-0.256497,0.646712,0.316305,-1.534094,-0.231165,2.146905,0.130208,0.062025,0.679348,-0.121412,-0.194055,-0.254391,0.880415,0.154191,0.526471,-37.580830,4.917404,16.793089,0.178007,1.793624,0.074935,0.000000,0.000000,0.000000,0.000000,0.000000,0.000000
13360628.000000,-0.256432,0.647405,0.316181,-1.534274,-0.231417,2.147789,0.130355,0.062150,0.676286,-0.120196,-0.190322,-0.251193,0.872024,0.153248,0.451093,-37.628437,4.965012,16.670103,0.166105,1.773483,0.100570,0.000000,0.000000,0.000000,0.000000,0.000000,0.000000
13360629.000000,-0.256370,0.648100,0.316069,-1.534455,-0.231676,2.148667,0.130510,0.061504,0.678199,-0.114720,-0.184948,-0.256291,0.876370,0.153681,0.403486,-37.826801,4.941208,16.570921,0.154203,1.779891,0.048385,0.000000,0.000000,0.000000,0.000000,0.000000,0.000000
13360630.000000,-0.256311,0.648816,0.315951,-1.534623,-0.231941,2.149550,0.130657,0.061499,0.686568,-0.113796,-0.182438,-0.260539,0.880058,0.153358,0.451093,-38.167988,4.917404,16.400328,0.141385,1.760665,0.034652,0.000000,0.000000,0.000000,0.000000,0.000000,0.000000
13360631.000000,-0.256248,0.649525,0.315832,-1.534796,-0.232195,2.150439,0.130805,0.060772,0.697174,-0.116814,-0.178924,-0.255891,0.877793,0.151709,0.427289,-38.513142,4.893600,16.301146,0.141385,1.695663,0.061202,0.000000,0.000000,0.000000,0.000000,0.000000,0.000000
13360632.000000,-0.256182,0.650248,0.315708,-1.534964,-0.232458,2.151312,0.130951,0.060786,0.707899,-0.120248,-0.175689,-0.256261,0.873393,0.149602,0.375715,-38.977314,4.941208,16.150389,0.189908,1.624252,0.114303,0.000000,0.000000,0.000000,0.000000,0.000000,0.000000
13360633.000000,-0.256118,0.650980,0.315586,-1.535138,-0.232707,2.152193,0.131110,0.062675,0.714273,-0.121596,-0.177560,-0.251269,0.872435,0.153051,0.375715,-39.393879,4.941208,16.055174,0.159696,1.584884,0.034652,0.000000,0.000000,0.000000,0.000000,0.000000,0.000000
13360634.000000,-0.256058,0.651698,0.315465,-1.535320,-0.232962,2.153080,0.131258,0.059673,0.715617,-0.125099,-0.178217,-0.258893,0.877801,0.150494,0.427289,-39.659687,4.941208,16.078978,0.088285,1.526290,0.074935,0.000000,0.000000,0.000000,0.000000,0.000000,0.000000
13360635.000000,-0.255985,0.652429,0.315336,-1.535487,-0.233238,2.153945,0.131411,0.064249,0.712974,-0.126940,-0.174470,-0.264934,0.866064,0.155419,0.304304,-39.957233,5.012619,16.055174,0.147794,1.500655,0.048385,0.000000,0.000000,0.000000,0.000000,0.000000,0.000000
13360636.000000,-0.255923,0.653156,0.315212,-1.535662,-0.233502,2.154816,0.131562,0.064192,0.727635,-0.123855,-0.178193,-0.258479,0.864845,0.154735,0.328107,-40.274616,5.040390,16.178160,0.129484,1.597701,0.054794,0.000000,0.000000,0.000000,0.000000,0.000000,0.000000
13360637.000000,-0.255862,0.653890,0.315092,-1.535846,-0.233770,2.155678,0.131705,0.060530,0.727914,-0.124068,-0.177140,-0.261340,0.865165,0.146650,0.403486,-40.492817,5.012619,16.301146,0.129484,1.605026,0.114303,0.000000,0.000000,0.000000,0.000000,0.000000,0.000000
13360638.000000,-0.255800,0.654631,0.314967,-1.536018,-0.234036,2.156544,0.131864,0.062412,0.732138,-0.124416,-0.178566,-0.262969,0.857270,0.151129,0.403486,-40.738789,5.012619,16.376524,0.171598,1.578475,0.028243,0.000000,0.000000,0.000000,0.000000,0.000000,0.000000
13360639.000000,-0.255732,0.655348,0.314842,-1.536205,-0.234316,2.157411,0.132008,0.064505,0.730525,-0.124976,-0.181872,-0.271231,0.855734,0.153704,0.375715,-40.786396,5.012619,16.570921,0.178007,1.656295,0.094161,0.000000,0.000000,0.000000,0.000000,0.000000,0.000000
13360640.000000,-0.255664,0.656083,0.314715,-1.536384,-0.234591,2.158265,0.132167,0.068272,0.727157,-0.125895,-0.180249,-0.274910,0.852746,0.157838,0.351911,-40.909382,5.040390,16.721678,0.154203,1.689254,0.100570,0.000000,0.000000,0.000000,0.000000,0.000000,0.000000
13360641.000000,-0.255599,0.656813,0.314584,-1.536563,-0.234861,2.159122,0.132330,0.067477,0.742147,-0.125661,-0.178945,-0.270892,0.854515,0.158571,0.375715,-40.909382,5.040390,16.868467,0.135892,1.695663,0.034652,0.000000,0.000000,0.000000,0.000000,0.000000,0.000000
13360642.000000,-0.255534,0.657535,0.314454,-1.536748,-0.235130,2.159971,0.132477,0.066902,0.735287,-0.123709,-0.179295,-0.266719,0.868965,0.158452,0.403486,-40.933186,5.087997,16.943846,0.154203,1.779891,0.100570,0.000000,0.000000,0.000000,0.000000,0.000000,0.000000
13360643.000000,-0.255470,0.658277,0.314324,-1.536929,-0.235399,2.160832,0.132635,0.064563,0.732940,-0.128213,-0.178799,-0.273596,0.863339,0.161813,0.427289,-41.131550,5.111801,17.114439,0.141385,1.812850,0.087753,0.000000,0.000000,0.000000,0.000000,0.000000,0.000000
13360644.000000,-0.255402,0.659010,0.314195,-1.537102,-0.235682,2.161704,0.132788,0.065107,0.727085,-0.130712,-0.177728,-0.274230,0.867516,0.158536,0.427289,-41.254536,5.111801,17.142210,0.147794,1.708480,0.100570,0.000000,0.000000,0.000000,0.000000,0.000000,0.000000
13360645.000000,-0.255333,0.659758,0.314063,-1.537278,-0.235966,2.162564,0.132944,0.068859,0.726331,-0.130929,-0.178811,-0.274861,0.862143,0.157679,0.403486,-41.401325,5.163376,17.265196,0.189908,1.605026,0.074935,0.000000,0.000000,0.000000,0.000000,0.000000,0.000000
13360646.000000,-0.255268,0.660500,0.313926,-1.537450,-0.236245,2.163420,0.133096,0.069682,0.725213,-0.131617,-0.174443,-0.274947,0.856159,0.155201,0.474897,-41.373554,5.258591,17.265196,0.285123,1.630660,0.094161,0.000000,0.000000,0.000000,0.000000,0.000000,0.000000
13360647.000000,-0.255203,0.661228,0.313794,-1.537626,-0.236521,2.164276,0.133256,0.067632,0.729659,-0.129852,-0.170882,-0.274329,0.858300,0.155155,0.550275,-41.278339,5.234787,17.265196,0.291532,1.649886,0.061202,0.000000,0.000000,0.000000,0.000000,0.000000,0.000000
13360648.000000,-0.255134,0.661955,0.313655,-1.537791,-0.236802,2.165109,0.133414,0.068091,0.729879,-0.130512,-0.168619,-0.283377,0.847173,0.159946,0.526471,-41.107746,5.310165,17.265196,0.273221,1.760665,0.034652,0.000000,0.000000,0.000000,0.000000,0.000000,0.000000
13360649.000000,-0.255063,0.662672,0.313526,-1.537957,-0.237075,2.165964,0.133562,0.069040,0.728355,-0.132483,-0.167049,-0.277923,0.840632,0.155088,0.474897,-40.933186,5.310165,17.265196,0.267728,1.773483,0.107894,0.000000,0.000000,0.000000,0.000000,0.000000,0.000000
13360650.000000,-0.254993,0.663403,0.313388,-1.538128,-0.237339,2.166811,0.133730,0.068622,0.726556,-0.132908,-0.168499,-0.276228,0.844065,0.160933,0.474897,-40.861774,5.405380,17.364378,0.154203,1.760665,0.048385,0.000000,0.000000,0.000000,0.000000,0.000000,0.000000
13360651.000000,-0.254920,0.664122,0.313260,-1.538294,-0.237601,2.167670,0.133882,0.070008,0.721996,-0.129186,-0.168703,-0.266134,0.846241,0.161729,0.403486,-40.516621,5.333969,17.435789,0.100187,1.735030,0.081344,0.000000,0.000000,0.000000,0.000000,0.000000,0.000000
13360652.000000,-0.254854,0.664819,0.313123,-1.538468,-0.237883,2.168523,0.134036,0.068248,0.713783,-0.129482,-0.168693,-0.280866,0.839064,0.163415,0.451093,-40.052448,5.381577,17.511168,0.166105,1.806442,0.081344,0.000000,0.000000,0.000000,0.000000,0.000000,0.000000
13360653.000000,-0.254784,0.665527,0.312985,-1.538630,-0.238168,2.169360,0.134189,0.070519,0.704700,-0.132150,-0.165101,-0.286287,0.837066,0.160090,0.451093,-39.659687,5.405380,17.562742,0.237516,1.923629,0.067611,0.000000,0.000000,0.000000,0.000000,0.000000,0.000000
13360654.000000,-0.254716,0.666234,0.312849,-1.538781,-0.238444,2.170209,0.134341,0.069869,0.712627,-0.129212,-0.162081,-0.281917,0.842476,0.162668,0.451093,-39.441486,5.357773,17.463560,0.279630,1.949264,0.067611,0.000000,0.000000,0.000000,0.000000,0.000000,0.000000
13360655.000000,-0.254648,0.666973,0.312719,-1.538946,-0.238714,2.171040,0.134501,0.068742,0.715294,-0.130782,-0.161627,-0.282544,0.835658,0.160809,0.474897,-39.588276,5.310165,17.562742,0.255826,1.942855,0.034652,0.000000,0.000000,0.000000,0.000000,0.000000,0.000000
13360656.000000,-0.254577,0.667716,0.312579,-1.539101,-0.238980,2.171892,0.134653,0.072251,0.721317,-0.133216,-0.159811,-0.276067,0.840809,0.161921,0.427289,-39.711262,5.333969,17.610350,0.225614,1.884261,0.081344,0.000000,0.000000,0.000000,0.000000,0.000000,0.000000
13360657.000000,-0.254509,0.668452,0.312438,-1.539261,-0.239254,2.172748,0.134812,0.069702,0.730431,-0.136222,-0.158328,-0.279503,0.845518,0.160158,0.451093,-39.905659,5.381577,17.661924,0.183500,1.806442,0.048385,0.000000,0.000000,0.000000,0.000000,0.000000,0.000000
13360658.000000,-0.254437,0.669195,0.312301,-1.539412,-0.239530,2.173582,0.134962,0.072396,0.731889,-0.137323,-0.155546,-0.277587,0.838893,0.156593,0.451093,-40.052448,5.405380,17.634153,0.189908,1.760665,0.081344,0.000000,0.000000,0.000000,0.000000,0.000000,0.000000
13360659.000000,-0.254370,0.669933,0.312162,-1.539565,-0.239800,2.174426,0.135119,0.069923,0.745600,-0.137793,-0.154337,-0.279972,0.832203,0.156452,0.502668,-40.104023,5.405380,17.634153,0.219205,1.832076,0.048385,0.000000,0.000000,0.000000,0.000000,0.000000,0.000000
13360660.000000,-0.254300,0.670665,0.312031,-1.539718,-0.240074,2.175267,0.135269,0.068214,0.744760,-0.133114,-0.153336,-0.279559,0.847532,0.153531,0.550275,-40.151630,5.333969,17.634153,0.267728,1.909896,0.081344,0.000000,0.000000,0.000000,0.000000,0.000000,0.000000
13360661.000000,-0.254235,0.671407,0.311897,-1.539868,-0.240341,2.176084,0.135422,0.066775,0.744015,-0.134598,-0.154509,-0.282321,0.836236,0.153946,0.601850,-40.250813,5.333969,17.709532,0.231107,1.962081,0.054794,0.000000,0.000000,0.000000,0.000000,0.000000,0.000000
13360662.000000,-0.254168,0.672141,0.311762,-1.540024,-0.240620,2.176936,0.135574,0.065882,0.740654,-0.135704,-0.155051,-0.275956,0.835644,0.157656,0.649457,-40.298420,5.333969,17.784910,0.195402,1.890670,0.061202,0.000000,0.000000,0.000000,0.000000,0.000000,0.000000
13360663.000000,-0.254098,0.672883,0.311628,-1.540179,-0.240896,2.177771,0.135729,0.066692,0.733557,-0.134223,-0.156181,-0.278018,0.837218,0.159422,0.649457,-40.298420,5.357773,17.884092,0.166105,1.819259,0.094161,0.000000,0.000000,0.000000,0.000000,0.000000,0.000000
13360664.000000,-0.254028,0.673626,0.311496,-1.540331,-0.241170,2.178603,0.135891,0.067080,0.729562,-0.134432,-0.154082,-0.268715,0.828539,0.160532,0.649457,-40.199238,5.333969,18.007078,0.159696,1.851302,0.034652,0.000000,0.000000,0.000000,0.000000,0.000000,0.000000
13360665.000000,-0.253965,0.674363,0.311364,-1.540477,-0.241456,2.179446,0.136044,0.064923,0.731911,-0.135271,-0.152619,-0.277704,0.827494,0.156230,0.748639,-40.175434,5.310165,18.007078,0.231107,1.890670,0.074935,0.000000,0.000000,0.000000,0.000000,0.000000,0.000000
13360666.000000,-0.253893,0.675121,0.311225,-1.540607,-0.241742,2.180266,0.136203,0.066714,0.739282,-0.137235,-0.147174,-0.282755,0.825334,0.155211,0.697065,-40.346027,5.357773,17.931700,0.255826,1.962081,0.067611,0.000000,0.000000,0.000000,0.000000,0.000000,0.000000
13360667.000000,-0.253825,0.675878,0.311086,-1.540743,-0.242022,2.181097,0.136361,0.065607,0.747840,-0.136212,-0.144218,-0.273368,0.824067,0.158775,0.748639,-40.591999,5.433151,17.907896,0.279630,1.974899,0.067611,0.000000,0.000000,0.000000,0.000000,0.000000,0.000000
13360668.000000,-0.253756,0.676651,0.310953,-1.540884,-0.242297,2.181937,0.136517,0.066081,0.756103,-0.136565,-0.143401,-0.271372,0.828828,0.159984,0.772443,-40.933186,5.433151,17.931700,0.255826,1.890670,0.114303,0.000000,0.000000,0.000000,0.000000,0.000000,0.000000
13360669.000000,-0.253689,0.677421,0.310815,-1.541019,-0.242560,2.182790,0.136681,0.065399,0.758151,-0.134839,-0.139673,-0.271657,0.833522,0.160581,0.824018,-41.131550,5.480759,17.955503,0.183500,1.767074,0.041976,0.000000,0.000000,0.000000,0.000000,0.000000,0.000000
13360670.000000,-0.253611,0.678183,0.310676,-1.541144,-0.242843,2.183634,0.136833,0.067764,0.764156,-0.136807,-0.133392,-0.277927,0.834439,0.160325,0.748639,-41.373554,5.528366,17.856321,0.189908,1.695663,0.094161,0.000000,0.000000,0.000000,0.000000,0.000000,0.000000
13360671.000000,-0.253534,0.678968,0.310537,-1.541274,-0.243132,2.184456,0.136999,0.068523,0.770032,-0.137592,-0.133320,-0.277695,0.828562,0.168025,0.697065,-41.742512,5.556137,17.931700,0.213712,1.812850,0.048385,0.000000,0.000000,0.000000,0.000000,0.000000,0.000000
13360672.000000,-0.253465,0.679750,0.310398,-1.541397,-0.243411,2.185280,0.137156,0.070273,0.787349,-0.137858,-0.131339,-0.274760,0.822667,0.168987,0.724836,-41.988483,5.579941,17.931700,0.231107,1.930038,0.067611,0.000000,0.000000,0.000000,0.000000,0.000000,0.000000
13360673.000000,-0.253394,0.680526,0.310263,-1.541529,-0.243687,2.186103,0.137312,0.069593,0.787471,-0.135686,-0.133311,-0.278817,0.829127,0.163375,0.724836,-42.282063,5.603745,18.078489,0.243009,1.955673,0.094161,0.000000,0.000000,0.000000,0.000000,0.000000,0.000000
13360674.000000,-0.253323,0.681291,0.310121,-1.541662,-0.243968,2.186950,0.137471,0.068643,0.776402,-0.137244,-0.135796,-0.281190,0.830791,0.160617,0.748639,-42.305866,5.651352,18.276854,0.279630,1.923629,0.087753,0.000000,0.000000,0.000000,0.000000,0.000000,0.000000
13360675.000000,-0.253243,0.682043,0.309979,-1.541806,-0.244248,2.187804,0.137634,0.070486,0.767317,-0.139618,-0.139164,-0.283155,0.833151,0.159310,0.649457,-42.206684,5.726730,18.574400,0.237516,1.832076,0.067611,0.000000,0.000000,0.000000,0.000000,0.000000,0.000000
13360676.000000,-0.253166,0.682797,0.309839,-1.541938,-0.244529,2.188634,0.137790,0.072541,0.753366,-0.139559,-0.138666,-0.280268,0.833049,0.156213,0.625654,-41.960712,5.750534,18.772764,0.249418,1.812850,0.100570,0.000000,0.000000,0.000000,0.000000,0.000000,0.000000
13360677.000000,-0.253088,0.683563,0.309696,-1.542066,-0.244807,2.189451,0.137946,0.072340,0.746919,-0.139592,-0.134662,-0.273033,0.819751,0.155151,0.574079,-41.841694,5.774338,18.919554,0.303434,1.981307,0.094161,0.000000,0.000000,0.000000,0.000000,0.000000,0.000000
13360678.000000,-0.253010,0.684328,0.309555,-1.542183,-0.245080,2.190266,0.138108,0.072650,0.749490,-0.138657,-0.130895,-0.277557,0.812000,0.159865,0.502668,-41.865498,5.750534,18.895750,0.303434,2.150680,0.054794,0.000000,0.000000,0.000000,0.000000,0.000000,0.000000
13360679.000000,-0.252929,0.685100,0.309413,-1.542301,-0.245358,2.191076,0.138263,0.075825,0.751773,-0.141781,-0.128325,-0.285237,0.810438,0.160190,0.403486,-41.865498,5.726730,18.994932,0.255826,2.196456,0.107894,0.000000,0.000000,0.000000,0.000000,0.000000,0.000000
13360680.000000,-0.252849,0.685870,0.309271,-1.542424,-0.245637,2.191911,0.138429,0.076584,0.759217,-0.140543,-0.123711,-0.278598,0.810912,0.160235,0.375715,-41.913105,5.702927,19.117918,0.225614,2.047225,0.074935,0.000000,0.000000,0.000000,0.000000,0.000000,0.000000
13360681.000000,-0.252765,0.686630,0.309123,-1.542537,-0.245913,2.192736,0.138594,0.077948,0.759293,-0.141197,-0.119910,-0.280416,0.811791,0.163278,0.328107,-41.694904,5.750534,19.094114,0.195402,1.884261,0.054794,0.000000,0.000000,0.000000,0.000000,0.000000,0.000000
13360682.000000,-0.252683,0.687400,0.308976,-1.542656,-0.246189,2.193550,0.138751,0.078430,0.760841,-0.144459,-0.118388,-0.272305,0.814221,0.163879,0.304304,-41.548115,5.798141,19.117918,0.225614,1.923629,0.081344,0.000000,0.000000,0.000000,0.000000,0.000000,0.000000
13360683.000000,-0.252605,0.688146,0.308834,-1.542759,-0.246476,2.194363,0.138914,0.078170,0.762510,-0.142857,-0.110146,-0.285308,0.810308,0.165768,0.304304,-41.278339,5.774338,18.971128,0.297025,2.007858,0.067611,0.000000,0.000000,0.000000,0.000000,0.000000,0.000000
13360684.000000,-0.252520,0.688914,0.308692,-1.542854,-0.246766,2.195166,0.139067,0.079577,0.760396,-0.141109,-0.105196,-0.284069,0.803893,0.156740,0.228925,-41.202961,5.750534,18.848143,0.344633,2.053634,0.094161,0.000000,0.000000,0.000000,0.000000,0.000000,0.000000
13360685.000000,-0.252442,0.689667,0.308552,-1.542957,-0.247043,2.195977,0.139227,0.078489,0.773950,-0.142880,-0.104274,-0.274656,0.808072,0.160958,0.252729,-41.107746,5.726730,18.848143,0.374845,2.060043,0.074935,0.000000,0.000000,0.000000,0.000000,0.000000,0.000000
13360686.000000,-0.252360,0.690410,0.308416,-1.543061,-0.247312,2.196789,0.139391,0.078280,0.764513,-0.143265,-0.101528,-0.275385,0.806289,0.162908,0.252729,-40.639606,5.651352,18.895750,0.303434,2.001449,0.081344,0.000000,0.000000,0.000000,0.000000,0.000000,0.000000
13360687.000000,-0.252278,0.691149,0.308282,-1.543158,-0.247580,2.197621,0.139555,0.079132,0.752344,-0.139952,-0.102038,-0.270322,0.813508,0.161058,0.228925,-40.076252,5.556137,18.919554,0.249418,1.844894,0.048385,0.000000,0.000000,0.000000,0.000000,0.000000,0.000000
13360688.000000,-0.252198,0.691880,0.308141,-1.543241,-0.247871,2.198434,0.139711,0.081429,0.746630,-0.139245,-0.094456,-0.277174,0.815258,0.160842,0.228925,-39.612080,5.528366,18.748960,0.261320,1.884261,0.100570,0.000000,0.000000,0.000000,0.000000,0.000000,0.000000
13360689.000000,-0.252119,0.692642,0.308005,-1.543324,-0.248156,2.199224,0.139872,0.079251,0.744658,-0.137648,-0.090377,-0.275779,0.806179,0.158940,0.276533,-39.540668,5.456955,18.625975,0.255826,2.092086,0.087753,0.000000,0.000000,0.000000,0.000000,0.000000,0.000000
13360690.000000,-0.252040,0.693410,0.307868,-1.543404,-0.248434,2.200028,0.140036,0.077865,0.763067,-0.136683,-0.086785,-0.271995,0.796822,0.163774,0.328107,-39.564472,5.405380,18.475218,0.237516,2.215682,0.034652,0.000000,0.000000,0.000000,0.000000,0.000000,0.000000
13360691.000000,-0.251955,0.694174,0.307734,-1.543491,-0.248714,2.200846,0.140190,0.081160,0.765323,-0.139339,-0.085109,-0.276873,0.825434,0.158707,0.328107,-39.735065,5.333969,18.499022,0.243009,2.072860,0.074935,0.000000,0.000000,0.000000,0.000000,0.000000,0.000000
13360692.000000,-0.251872,0.694937,0.307596,-1.543568,-0.248993,2.201689,0.140346,0.084032,0.760204,-0.142059,-0.083790,-0.281035,0.831009,0.157561,0.304304,-39.687458,5.310165,18.526793,0.225614,1.819259,0.067611,0.000000,0.000000,0.000000,0.000000,0.000000,0.000000
13360693.000000,-0.251785,0.695697,0.307459,-1.543637,-0.249282,2.202524,0.140499,0.083155,0.756446,-0.140986,-0.079936,-0.282289,0.824435,0.154277,0.276533,-39.711262,5.286362,18.451414,0.285123,1.689254,0.107894,0.000000,0.000000,0.000000,0.000000,0.000000,0.000000
13360694.000000,-0.251709,0.696479,0.307327,-1.543702,-0.249572,2.203330,0.140665,0.082616,0.756313,-0.138930,-0.076525,-0.282511,0.824382,0.159917,0.351911,-39.905659,5.210983,18.352232,0.381254,1.708480,0.061202,0.000000,0.000000,0.000000,0.000000,0.000000,0.000000
13360695.000000,-0.251635,0.697266,0.307191,-1.543764,-0.249845,2.204123,0.140824,0.079720,0.756859,-0.137210,-0.074313,-0.277431,0.809353,0.161519,0.451093,-40.127827,5.135605,18.253050,0.386747,1.962081,0.087753,0.000000,0.000000,0.000000,0.000000,0.000000,0.000000
13360696.000000,-0.251551,0.698033,0.307063,-1.543820,-0.250126,2.204938,0.140981,0.080189,0.763811,-0.132601,-0.068990,-0.280743,0.806479,0.157652,0.427289,-40.223042,5.040390,18.130064,0.374845,2.072860,0.114303,0.000000,0.000000,0.000000,0.000000,0.000000,0.000000
13360697.000000,-0.251468,0.698814,0.306926,-1.543880,-0.250400,2.205760,0.141148,0.082327,0.766279,-0.134630,-0.064973,-0.276292,0.817334,0.158718,0.427289,-40.274616,5.040390,18.130064,0.291532,1.955673,0.041976,0.000000,0.000000,0.000000,0.000000,0.000000,0.000000
13360698.000000,-0.251388,0.699569,0.306796,-1.543932,-0.250667,2.206599,0.141301,0.081237,0.766183,-0.130895,-0.063075,-0.267792,0.824326,0.155228,0.427289,-40.052448,4.965012,18.054686,0.147794,1.812850,0.087753,0.000000,0.000000,0.000000,0.000000,0.000000,0.000000
13360699.000000,-0.251312,0.700338,0.306666,-1.543981,-0.250949,2.207416,0.141462,0.078701,0.765620,-0.129734,-0.058609,-0.274537,0.825761,0.155227,0.526471,-39.881855,4.941208,17.983274,0.171598,1.812850,0.061202,0.000000,0.000000,0.000000,0.000000,0.000000,0.000000
13360700.000000,-0.251236,0.701130,0.306535,-1.544025,-0.251221,2.208222,0.141618,0.076627,0.775466,-0.130159,-0.053834,-0.273106,0.821037,0.155190,0.625654,-40.028645,4.865829,17.856321,0.201810,1.962081,0.054794,0.000000,0.000000,0.000000,0.000000,0.000000,0.000000
13360701.000000,-0.251153,0.701912,0.306395,-1.544062,-0.251570,2.209348,0.141798,0.079598,0.780271,-0.139129,-0.046231,-0.296084,0.917465,0.165438,0.649457,-40.199238,4.917404,17.685728,0.811552,-0.703934,-0.155778,0.000000,0.000000,0.000000,0.000000,0.000000,0.000000
13360702.000000,-0.251064,0.702704,0.306244,-1.544103,-0.252050,2.210487,0.142035,0.083731,0.786298,-0.141029,-0.046158,-0.361892,0.998298,0.191283,0.574079,-40.421406,5.135605,17.610350,2.531827,-3.311356,-0.868058,0.000000,0.000000,0.000000,0.000000,0.000000,0.000000
13360703.000000,-0.251004,0.703485,0.306135,-1.544091,-0.252307,2.211611,0.142069,0.072932,0.799824,-0.130916,-0.026781,-0.327916,1.050569,0.138539,0.871625,-40.516621,4.742844,16.844664,2.048429,-5.132340,0.338607,0.000000,0.000000,0.000000,0.000000,0.000000,0.000000
13360704.000000,-0.250888,0.704334,0.306024,-1.543982,-0.252683,2.212628,0.142279,0.086029,0.817459,-0.122226,0.019635,-0.346505,1.047655,0.158574,0.403486,-41.373554,4.401657,14.793577,2.490629,-5.536088,-0.070634,0.000000,0.000000,0.000000,0.000000,0.000000,0.000000
13360705.000000,-0.250723,0.705159,0.305776,-1.543813,-0.253030,2.213676,0.142464,0.113767,0.820216,-0.165539,0.071924,-0.345858,1.038026,0.164060,-0.762896,-41.766315,6.020309,12.123594,2.443021,-5.639543,-0.268388,0.000000,0.000000,0.000000,0.000000,0.000000,0.000000
13360706.000000,-0.250711,0.705883,0.305685,-1.543665,-0.253369,2.214764,0.142602,0.079450,0.789972,-0.138500,0.098273,-0.343274,1.040332,0.152297,0.328107,-40.885578,5.258591,10.120115,2.221464,-5.678910,-0.064225,0.000000,0.000000,0.000000,0.000000,0.000000,0.000000
13360707.000000,-0.250672,0.706612,0.305660,-1.543518,-0.253673,2.215766,0.142699,0.065231,0.765981,-0.096516,0.114137,-0.327249,1.016189,0.131685,1.046186,-39.881855,3.592331,8.513365,1.772855,-4.937333,0.489669,0.000000,0.000000,0.000000,0.000000,0.000000,0.000000
13360708.000000,-0.250517,0.707304,0.305494,-1.543249,-0.254063,2.216850,0.142875,0.094493,0.738315,-0.116498,0.166566,-0.346585,1.025467,0.147273,0.030561,-38.461567,4.008896,5.450621,2.150053,-4.891557,0.272689,0.000000,0.000000,0.000000,0.000000,0.000000,0.000000
13360709.000000,-0.250493,0.707897,0.305469,-1.543005,-0.254507,2.217747,0.143088,0.072207,0.690576,-0.086568,0.190268,-0.382195,0.992366,0.171913,0.895429,-35.795551,2.560837,3.201170,2.968534,-3.455094,-0.235429,0.000000,0.000000,0.000000,0.000000,0.000000,0.000000
13360710.000000,-0.250518,0.708405,0.305527,-1.542783,-0.254768,2.218673,0.143211,0.041201,0.626762,-0.034025,0.202278,-0.345148,0.965764,0.154037,2.454572,-32.098042,0.005905,1.594420,2.221464,-2.459916,0.074935,0.000000,0.000000,0.000000,0.000000,0.000000,0.000000
13360711.000000,-0.250351,0.708843,0.305419,-1.542533,-0.255021,2.219618,0.143414,0.080809,0.561103,-0.059595,0.215263,-0.312870,0.949180,0.173855,1.192975,-27.813374,0.057480,0.110655,1.480802,-2.043351,-0.334306,0.000000,0.000000,0.000000,0.000000,0.000000,0.000000
13360712.000000,-0.250193,0.709196,0.305324,-1.542310,-0.255374,2.220373,0.143567,0.106003,0.482169,-0.073293,0.221091,-0.325816,0.877877,0.164388,0.078168,-22.624165,0.128891,-0.655031,1.665739,-0.521745,-0.261979,0.000000,0.000000,0.000000,0.000000,0.000000,0.000000
13360713.000000,-0.250161,0.709502,0.305288,-1.542075,-0.255660,2.221036,0.143683,0.080223,0.417550,-0.063031,0.224129,-0.313708,0.797274,0.150508,0.796247,-17.141376,-0.605057,-1.226320,1.456998,1.377059,0.133529,0.000000,0.000000,0.000000,0.000000,0.000000,0.000000
13360714.000000,-0.250103,0.709781,0.305199,-1.541809,-0.255930,2.221812,0.143887,0.071502,0.371126,-0.071909,0.228836,-0.297290,0.782037,0.164250,1.145368,-11.975971,-0.509842,-1.964235,1.235441,1.559249,-0.221696,0.000000,0.000000,0.000000,0.000000,0.000000,0.000000
13360715.000000,-0.250045,0.710040,0.305150,-1.541555,-0.256283,2.222513,0.144048,0.068780,0.329154,-0.064175,0.236207,-0.317861,0.756257,0.165121,1.466718,-7.032734,-0.974014,-2.559328,1.892789,1.779891,-0.221696,0.000000,0.000000,0.000000,0.000000,0.000000,0.000000
13360716.000000,-0.250002,0.710253,0.305113,-1.541334,-0.256602,2.223088,0.144160,0.060736,0.288019,-0.051773,0.226758,-0.320441,0.700511,0.151971,1.962629,-1.990315,-1.588944,-2.483949,2.221464,2.755843,0.193038,0.000000,0.000000,0.000000,0.000000,0.000000,0.000000
13360717.000000,-0.249979,0.710464,0.305091,-1.541064,-0.256798,2.223748,0.144357,0.046689,0.261888,-0.040193,0.238269,-0.283330,0.688500,0.168165,2.704511,2.635540,-2.322891,-2.979860,1.468900,2.489425,-0.097184,0.000000,0.000000,0.000000,0.000000,0.000000,0.000000
13360718.000000,-0.249975,0.710681,0.305108,-1.540795,-0.257031,2.224414,0.144542,0.032433,0.246002,-0.020256,0.246127,-0.267861,0.685712,0.175235,3.644758,6.650433,-3.552750,-3.570986,1.152128,1.949264,-0.281205,0.000000,0.000000,0.000000,0.000000,0.000000,0.000000
13360719.000000,-0.249934,0.710835,0.305067,-1.540535,-0.257234,2.224973,0.144675,0.031448,0.219336,-0.027639,0.248135,-0.248132,0.645955,0.158297,3.966108,11.129498,-3.870133,-3.892336,0.649503,2.358505,-0.011124,0.000000,0.000000,0.000000,0.000000,0.000000,0.000000
13360720.000000,-0.249860,0.710943,0.305003,-1.540276,-0.257380,2.225434,0.144862,0.047184,0.182744,-0.039879,0.252493,-0.212547,0.591164,0.170008,3.791547,15.854534,-3.747147,-4.289064,-0.287997,3.477279,-0.229020,0.000000,0.000000,0.000000,0.000000,0.000000,0.000000
13360721.000000,-0.249803,0.711034,0.304953,-1.540020,-0.257566,2.225970,0.145043,0.050372,0.162204,-0.042379,0.249733,-0.199339,0.576639,0.174605,3.819318,20.381207,-3.846329,-4.562807,-0.706393,3.919479,-0.360856,0.000000,0.000000,0.000000,0.000000,0.000000,0.000000
13360722.000000,-0.249779,0.711089,0.304898,-1.539786,-0.257761,2.226503,0.145180,0.040749,0.129460,-0.052376,0.241001,-0.200453,0.569802,0.163689,4.339033,24.959454,-3.846329,-4.535036,-0.892245,4.153853,-0.122819,0.000000,0.000000,0.000000,0.000000,0.000000,0.000000
13360723.000000,-0.249750,0.711083,0.304862,-1.539598,-0.257945,2.227114,0.145352,0.036651,0.083539,-0.049187,0.223811,-0.191199,0.582405,0.164695,4.759565,30.148663,-4.139908,-4.019289,-0.975558,3.757430,-0.229020,0.000000,0.000000,0.000000,0.000000,0.000000,0.000000
13360724.000000,-0.249706,0.711072,0.304803,-1.539415,-0.258137,2.227817,0.145500,0.039339,0.051500,-0.054004,0.211483,-0.198635,0.627120,0.159521,4.930158,34.897503,-4.139908,-3.475771,-0.892245,2.580062,-0.070634,0.000000,0.000000,0.000000,0.000000,0.000000,0.000000
13360725.000000,-0.249655,0.711088,0.304747,-1.539216,-0.258358,2.228523,0.145688,0.044126,0.041916,-0.055119,0.207841,-0.207283,0.659194,0.163620,4.981733,38.888592,-4.239090,-3.376589,-0.539767,1.624252,-0.229020,0.000000,0.000000,0.000000,0.000000,0.000000,0.000000
13360726.000000,-0.249622,0.711136,0.304704,-1.538994,-0.258538,2.229214,0.145827,0.039136,0.041357,-0.050357,0.213993,-0.204280,0.670646,0.156131,5.255476,42.141766,-4.556473,-3.670168,-0.587374,1.149093,0.009017,0.000000,0.000000,0.000000,0.000000,0.000000,0.000000
13360727.000000,-0.249565,0.711218,0.304645,-1.538739,-0.258750,2.229933,0.145986,0.045890,0.056465,-0.052876,0.227798,-0.211126,0.697763,0.159285,5.203901,44.494366,-4.631851,-4.535036,-0.473849,0.876266,0.021835,0.000000,0.000000,0.000000,0.000000,0.000000,0.000000
13360728.000000,-0.249469,0.711343,0.304549,-1.538458,-0.258962,2.230665,0.146157,0.065590,0.084768,-0.065483,0.245975,-0.213789,0.715742,0.158018,4.608808,46.085247,-4.239090,-5.796632,-0.431735,0.668441,-0.083451,0.000000,0.000000,0.000000,0.000000,0.000000,0.000000
13360729.000000,-0.249378,0.711489,0.304465,-1.538152,-0.259162,2.231442,0.146289,0.077006,0.110721,-0.072019,0.267327,-0.210468,0.729475,0.147325,4.116865,47.330975,-4.068497,-7.355775,-0.575472,0.434066,0.153671,0.000000,0.000000,0.000000,0.000000,0.000000,0.000000
13360730.000000,-0.249306,0.711667,0.304402,-1.537836,-0.259381,2.232257,0.146447,0.076168,0.135605,-0.068489,0.290137,-0.213784,0.757091,0.151110,3.989912,48.215679,-4.239090,-8.986330,-0.634982,0.037643,0.094161,0.000000,0.000000,0.000000,0.000000,0.000000,0.000000
13360731.000000,-0.249244,0.711871,0.304332,-1.537492,-0.259617,2.233126,0.146613,0.072091,0.160615,-0.066737,0.311600,-0.218906,0.796127,0.156833,4.017683,48.703655,-4.385880,-10.739870,-0.569064,-0.496110,-0.050492,0.000000,0.000000,0.000000,0.000000,0.000000,0.000000
13360732.000000,-0.249186,0.712090,0.304283,-1.537133,-0.259863,2.234017,0.146753,0.067202,0.182170,-0.064029,0.328254,-0.233490,0.819654,0.150543,4.140668,49.096416,-4.854019,-12.445803,-0.557162,-0.990495,0.061202,0.000000,0.000000,0.000000,0.000000,0.000000,0.000000
13360733.000000,-0.249119,0.712332,0.304220,-1.536768,-0.260121,2.234908,0.146905,0.068890,0.204036,-0.061151,0.341716,-0.242627,0.840052,0.151669,4.164472,49.413799,-5.147598,-14.076357,-0.587374,-1.328324,0.034652,0.000000,0.000000,0.000000,0.000000,0.000000,0.000000
13360734.000000,-0.249042,0.712581,0.304136,-1.536374,-0.260371,2.235829,0.147050,0.073355,0.220953,-0.066593,0.361300,-0.243800,0.863565,0.151672,4.065290,49.659771,-5.123795,-15.734682,-0.700900,-1.672562,0.041976,0.000000,0.000000,0.000000,0.000000,0.000000,0.000000
13360735.000000,-0.248974,0.712857,0.304067,-1.535977,-0.260623,2.236728,0.147196,0.073474,0.240349,-0.069277,0.371809,-0.244940,0.868988,0.151808,4.116865,49.854168,-5.294388,-17.067690,-0.862032,-1.770524,0.034652,0.000000,0.000000,0.000000,0.000000,0.000000,0.000000
13360736.000000,-0.248894,0.713177,0.303975,-1.535571,-0.260873,2.237619,0.147329,0.076931,0.267091,-0.076514,0.384990,-0.245021,0.867296,0.139899,4.017683,49.731182,-5.219009,-18.476076,-1.005770,-1.569108,0.133529,0.000000,0.000000,0.000000,0.000000,0.000000,0.000000
13360737.000000,-0.248790,0.713532,0.303874,-1.535129,-0.261144,2.238522,0.147474,0.083378,0.299156,-0.083832,0.401511,-0.257308,0.867981,0.142153,3.620954,49.191631,-5.048416,-20.059023,-1.053378,-1.380509,0.147262,0.000000,0.000000,0.000000,0.000000,0.000000,0.000000
13360738.000000,-0.248700,0.713931,0.303790,-1.534699,-0.261431,2.239437,0.147633,0.085431,0.330467,-0.086342,0.408049,-0.271026,0.880671,0.154005,3.422590,48.386272,-5.123795,-21.368227,-0.945345,-1.491288,-0.004716,0.000000,0.000000,0.000000,0.000000,0.000000,0.000000
13360739.000000,-0.248632,0.714360,0.303719,-1.534271,-0.261687,2.240366,0.147768,0.080652,0.370918,-0.079313,0.411711,-0.259632,0.883956,0.150259,3.545576,47.382549,-5.441177,-22.332277,-1.071688,-1.737565,0.067611,0.000000,0.000000,0.000000,0.000000,0.000000,0.000000
13360740.000000,-0.248543,0.714836,0.303645,-1.533820,-0.261949,2.241310,0.147910,0.083380,0.411314,-0.079639,0.415708,-0.266881,0.919705,0.148604,3.398786,46.009869,-5.687149,-23.324099,-1.107394,-2.212723,0.114303,0.000000,0.000000,0.000000,0.000000,0.000000,0.000000
