chaoyuefei/paper-gmrm-data/robot_logs/s2_dq_mrm_min_0.50_log_20260314_174242.csv
# time_ms,q_0,q_1,q_2,q_3,q_4,q_5,q_6,dq_0,dq_1,dq_2,dq_3,dq_4,dq_5,dq_6,tau_J_0,tau_J_1,tau_J_2,tau_J_3,tau_J_4,tau_J_5,tau_J_6,O_dP_EE_c_0,O_dP_EE_c_1,O_dP_EE_c_2,O_dP_EE_c_3,O_dP_EE_c_4,O_dP_EE_c_5
12824692.000000,-2.417845,-1.662625,1.040146,-1.352869,1.798093,1.079515,-0.546492,0.000695,-0.000011,0.000109,0.000404,-0.000216,0.000256,-0.001063,0.006757,41.629986,-21.000870,-5.772829,0.823453,1.299239,0.054794,0.000000,0.000000,0.000000,0.000000,0.000000,0.000000
12824693.000000,-2.417844,-1.662626,1.040149,-1.352869,1.798094,1.079514,-0.546487,0.001020,-0.000564,0.001279,-0.000288,0.000093,-0.000067,0.000986,-0.017047,41.653790,-21.052444,-5.749025,0.817045,1.305648,0.009017,0.000000,0.000000,0.000000,0.000000,0.000000,0.000000
12824694.000000,-2.417845,-1.662625,1.040146,-1.352868,1.798093,1.079514,-0.546489,0.000123,0.000181,-0.000910,-0.000192,-0.000175,-0.000044,-0.000292,0.006757,41.629986,-20.977066,-5.749025,0.823453,1.305648,0.034652,0.000000,0.000000,0.000000,0.000000,0.000000,0.000000
12824695.000000,-2.417845,-1.662623,1.040142,-1.352870,1.798096,1.079515,-0.546489,0.000082,0.000677,-0.001164,-0.000777,0.000561,0.000445,0.001026,0.006757,41.606182,-20.953262,-5.721254,0.805143,1.292831,0.001693,0.000000,0.000000,0.000000,0.000000,0.000000,0.000000
12824696.000000,-2.417844,-1.662626,1.040147,-1.352870,1.798092,1.079513,-0.546494,0.005004,-0.001515,0.000338,-0.001075,-0.009205,-0.001602,-0.008825,0.328107,41.554607,-21.000870,-5.697450,0.805143,1.344100,0.009017,0.000000,0.000000,0.000000,0.000000,0.000000,0.000000
12824697.000000,-2.417831,-1.662632,1.040149,-1.352870,1.798093,1.079508,-0.546502,0.012112,-0.003086,0.001546,0.000854,-0.003171,0.002223,-0.009363,1.343732,41.360210,-20.929459,-5.499086,0.703519,1.513473,-0.044083,0.000000,0.000000,0.000000,0.000000,0.000000,0.000000
12824698.000000,-2.417802,-1.662630,1.040162,-1.352866,1.798089,1.079503,-0.546530,0.026708,-0.002372,0.007594,0.001667,-0.004328,0.002390,-0.015612,2.902875,40.943645,-20.953262,-5.253114,0.620206,1.767074,-0.070634,0.000000,0.000000,0.000000,0.000000,0.000000,0.000000
12824699.000000,-2.417751,-1.662627,1.040179,-1.352866,1.798071,1.079525,-0.546568,0.031592,0.000227,0.013177,0.000722,-0.007708,0.012982,-0.021127,4.759565,40.404095,-20.905655,-4.931764,0.601896,1.877853,-0.077042,0.000000,0.000000,0.000000,0.000000,0.000000,0.000000
12824700.000000,-2.417685,-1.662631,1.040200,-1.352882,1.798044,1.079572,-0.546624,0.041183,-0.000165,0.016823,-0.008151,-0.015767,0.027776,-0.035448,6.592451,39.939922,-20.830276,-4.511232,0.608304,1.806442,-0.056901,0.000000,0.000000,0.000000,0.000000,0.000000,0.000000
12824701.000000,-2.417599,-1.662633,1.040226,-1.352904,1.798003,1.079653,-0.546695,0.051148,0.003000,0.018519,-0.012605,-0.023814,0.048787,-0.044803,8.223004,39.451946,-20.707291,-4.166078,0.673307,1.578475,-0.077042,0.000000,0.000000,0.000000,0.000000,0.000000,0.000000
12824702.000000,-2.417498,-1.662628,1.040263,-1.352947,1.797951,1.079753,-0.546781,0.062559,0.004954,0.027571,-0.024304,-0.032689,0.066798,-0.061454,9.682965,38.960003,-20.659683,-3.721742,0.691617,1.389877,-0.089860,0.000000,0.000000,0.000000,0.000000,0.000000,0.000000
12824703.000000,-2.417384,-1.662629,1.040312,-1.352994,1.797882,1.079863,-0.546902,0.081549,0.003169,0.034179,-0.032037,-0.043776,0.080302,-0.080567,10.948529,38.595013,-20.608109,-3.448000,0.703519,1.324874,-0.044083,0.000000,0.000000,0.000000,0.000000,0.000000,0.000000
12824704.000000,-2.417253,-1.662623,1.040372,-1.353055,1.797800,1.079993,-0.547034,0.094291,0.003282,0.042691,-0.041536,-0.054588,0.097058,-0.100758,12.035565,38.178448,-20.584305,-3.154421,0.661405,1.324874,-0.097184,0.000000,0.000000,0.000000,0.000000,0.000000,0.000000
12824705.000000,-2.417114,-1.662613,1.040442,-1.353121,1.797708,1.080138,-0.547205,0.104202,0.007154,0.048921,-0.052828,-0.064544,0.106714,-0.123886,13.074994,37.738079,-20.560501,-2.956056,0.535978,1.448470,-0.064225,0.000000,0.000000,0.000000,0.000000,0.000000,0.000000
12824706.000000,-2.416964,-1.662602,1.040523,-1.353209,1.797594,1.080312,-0.547400,0.118460,0.007941,0.058540,-0.065617,-0.084164,0.127608,-0.148916,13.943830,37.392925,-20.512894,-2.706117,0.470060,1.565658,-0.077042,0.000000,0.000000,0.000000,0.000000,0.000000,0.000000
12824707.000000,-2.416799,-1.662586,1.040623,-1.353304,1.797468,1.080513,-0.547617,0.130054,0.009681,0.069899,-0.075183,-0.100270,0.149707,-0.171498,14.733319,37.004131,-20.631912,-2.606935,0.327238,1.643478,-0.116410,0.000000,0.000000,0.000000,0.000000,0.000000,0.000000
12824708.000000,-2.416609,-1.662568,1.040742,-1.353416,1.797309,1.080754,-0.547872,0.150124,0.014146,0.085694,-0.086222,-0.117904,0.180694,-0.195632,15.280805,36.611370,-20.830276,-2.483949,0.315336,1.597701,-0.077042,0.000000,0.000000,0.000000,0.000000,0.000000,0.000000
12824709.000000,-2.416409,-1.662546,1.040873,-1.353552,1.797129,1.081027,-0.548140,0.163633,0.017497,0.098896,-0.102522,-0.137008,0.209254,-0.220369,15.701337,36.218609,-20.977066,-2.285585,0.339139,1.513473,-0.077042,0.000000,0.000000,0.000000,0.000000,0.000000,0.000000
12824710.000000,-2.416181,-1.662530,1.041016,-1.353702,1.796924,1.081319,-0.548437,0.184773,0.018247,0.112670,-0.115702,-0.161397,0.235882,-0.241445,15.971112,35.901226,-21.175430,-2.190370,0.381254,1.429244,-0.056901,0.000000,0.000000,0.000000,0.000000,0.000000,0.000000
12824711.000000,-2.415947,-1.662508,1.041174,-1.353873,1.796688,1.081629,-0.548737,0.201907,0.020072,0.127123,-0.132845,-0.186578,0.261988,-0.260016,16.244856,35.536236,-21.322220,-2.063417,0.500272,1.416427,-0.103593,0.000000,0.000000,0.000000,0.000000,0.000000,0.000000
12824712.000000,-2.415695,-1.662483,1.041341,-1.354049,1.796437,1.081961,-0.549044,0.218117,0.020982,0.138013,-0.144589,-0.201722,0.284121,-0.271533,16.467024,35.191082,-21.417435,-2.114992,0.535978,1.454879,-0.070634,0.000000,0.000000,0.000000,0.000000,0.000000,0.000000
12824713.000000,-2.415425,-1.662471,1.041515,-1.354243,1.796175,1.082313,-0.549345,0.237337,0.023298,0.146490,-0.158804,-0.230348,0.307661,-0.276803,16.641584,35.044292,-21.445206,-2.091188,0.512174,1.481429,-0.110001,0.000000,0.000000,0.000000,0.000000,0.000000,0.000000
12824714.000000,-2.415143,-1.662464,1.041702,-1.354453,1.795898,1.082688,-0.549658,0.252641,0.019381,0.158511,-0.174283,-0.247032,0.327998,-0.287674,16.764570,35.020489,-21.469009,-2.114992,0.488370,1.526290,-0.110001,0.000000,0.000000,0.000000,0.000000,0.000000,0.000000
12824715.000000,-2.414844,-1.662453,1.041892,-1.354684,1.795609,1.083079,-0.549970,0.266824,0.015684,0.169016,-0.193848,-0.261162,0.345769,-0.295732,16.863752,34.921307,-21.417435,-2.091188,0.381254,1.656295,-0.110001,0.000000,0.000000,0.000000,0.000000,0.000000,0.000000
12824716.000000,-2.414520,-1.662451,1.042096,-1.354942,1.795297,1.083491,-0.550287,0.290561,0.012620,0.181034,-0.214717,-0.279218,0.366372,-0.292786,16.816145,34.972881,-21.294449,-1.940431,0.327238,1.714889,-0.089860,0.000000,0.000000,0.000000,0.000000,0.000000,0.000000
12824717.000000,-2.414184,-1.662444,1.042311,-1.355214,1.794967,1.083935,-0.550587,0.303487,0.010122,0.190158,-0.233341,-0.293078,0.389770,-0.294792,16.816145,34.921307,-21.270645,-1.793642,0.303434,1.714889,-0.089860,0.000000,0.000000,0.000000,0.000000,0.000000,0.000000
12824718.000000,-2.413839,-1.662442,1.042535,-1.355510,1.794623,1.084406,-0.550887,0.314409,0.006568,0.198046,-0.252504,-0.304894,0.419842,-0.295652,16.887556,34.945110,-21.175430,-1.547670,0.297025,1.597701,-0.103593,0.000000,0.000000,0.000000,0.000000,0.000000,0.000000
12824719.000000,-2.413475,-1.662448,1.042772,-1.355808,1.794254,1.084904,-0.551187,0.332528,0.002341,0.210226,-0.261977,-0.324974,0.447003,-0.294062,16.816145,35.044292,-21.123856,-1.472292,0.344633,1.507064,-0.064225,0.000000,0.000000,0.000000,0.000000,0.000000,0.000000
12824720.000000,-2.413103,-1.662447,1.043015,-1.356115,1.793864,1.085417,-0.551469,0.343339,0.001773,0.219913,-0.284188,-0.343162,0.467909,-0.284747,16.939131,35.044292,-21.076248,-1.373109,0.381254,1.487838,-0.110001,0.000000,0.000000,0.000000,0.000000,0.000000,0.000000
12824721.000000,-2.412727,-1.662445,1.043267,-1.356437,1.793465,1.085949,-0.551750,0.347156,0.001898,0.229609,-0.294175,-0.358822,0.487999,-0.278996,17.137495,35.020489,-21.000870,-1.373109,0.452665,1.481429,-0.110001,0.000000,0.000000,0.000000,0.000000,0.000000,0.000000
12824722.000000,-2.412330,-1.662452,1.043521,-1.356768,1.793040,1.086498,-0.552026,0.364598,-0.000936,0.237309,-0.303879,-0.377059,0.500097,-0.280089,17.284285,35.119671,-20.830276,-1.396913,0.452665,1.532699,-0.103593,0.000000,0.000000,0.000000,0.000000,0.000000,0.000000
12824723.000000,-2.411924,-1.662452,1.043793,-1.357118,1.792603,1.087065,-0.552303,0.378406,-0.000534,0.248651,-0.316227,-0.391606,0.521867,-0.280233,17.530256,35.119671,-20.754898,-1.373109,0.470060,1.597701,-0.110001,0.000000,0.000000,0.000000,0.000000,0.000000,0.000000
12824724.000000,-2.411516,-1.662450,1.044079,-1.357478,1.792157,1.087666,-0.552582,0.391478,0.000360,0.260238,-0.325249,-0.407700,0.538870,-0.281293,17.827803,35.091900,-20.707291,-1.349306,0.500272,1.572067,-0.097184,0.000000,0.000000,0.000000,0.000000,0.000000,0.000000
12824725.000000,-2.411079,-1.662448,1.044371,-1.357858,1.791687,1.088297,-0.552841,0.407229,0.000291,0.269753,-0.344283,-0.420958,0.565739,-0.270036,17.978559,35.091900,-20.683487,-1.226320,0.470060,1.532699,-0.155778,0.000000,0.000000,0.000000,0.000000,0.000000,0.000000
12824726.000000,-2.410624,-1.662446,1.044673,-1.358255,1.791218,1.088938,-0.553107,0.419573,0.001345,0.278982,-0.360716,-0.443037,0.585395,-0.269727,18.125349,35.044292,-20.631912,-1.000185,0.422452,1.416427,-0.110001,0.000000,0.000000,0.000000,0.000000,0.000000,0.000000
12824727.000000,-2.410174,-1.662441,1.044986,-1.358662,1.790714,1.089606,-0.553367,0.425653,0.002039,0.285562,-0.377920,-0.466637,0.610511,-0.268339,18.375288,34.996685,-20.560501,-0.904970,0.488370,1.318465,-0.070634,0.000000,0.000000,0.000000,0.000000,0.000000,0.000000
12824728.000000,-2.409691,-1.662436,1.045308,-1.359080,1.790199,1.090274,-0.553612,0.438914,0.003144,0.299575,-0.387550,-0.481802,0.634935,-0.263487,18.422895,34.921307,-20.512894,-0.730409,0.494779,1.266280,-0.163102,0.000000,0.000000,0.000000,0.000000,0.000000,0.000000
12824729.000000,-2.409212,-1.662429,1.045645,-1.359524,1.789686,1.090969,-0.553877,0.453193,0.007473,0.309441,-0.405606,-0.493410,0.655593,-0.262393,18.672834,34.826092,-20.461319,-0.484438,0.500272,1.292831,-0.070634,0.000000,0.000000,0.000000,0.000000,0.000000,0.000000
12824730.000000,-2.408716,-1.662421,1.045980,-1.359976,1.789144,1.091679,-0.554116,0.461323,0.007019,0.314659,-0.418153,-0.505880,0.674265,-0.256247,18.942610,34.750713,-20.338333,-0.385256,0.500272,1.305648,-0.116410,0.000000,0.000000,0.000000,0.000000,0.000000,0.000000
12824731.000000,-2.408203,-1.662411,1.046335,-1.360431,1.788604,1.092399,-0.554362,0.475909,0.007204,0.325662,-0.429941,-0.521699,0.695416,-0.253534,19.216352,34.651531,-20.338333,-0.357485,0.482877,1.305648,-0.103593,0.000000,0.000000,0.000000,0.000000,0.000000,0.000000
12824732.000000,-2.407685,-1.662402,1.046700,-1.360903,1.788028,1.093146,-0.554608,0.490165,0.007740,0.335961,-0.438430,-0.543967,0.707725,-0.250007,19.513899,34.532513,-20.338333,-0.309877,0.535978,1.370651,-0.142960,0.000000,0.000000,0.000000,0.000000,0.000000,0.000000
12824733.000000,-2.407138,-1.662392,1.047079,-1.361390,1.787447,1.093910,-0.554858,0.504921,0.010245,0.347845,-0.449913,-0.552851,0.722934,-0.249819,19.712263,34.457134,-20.389908,-0.210695,0.512174,1.422836,-0.116410,0.000000,0.000000,0.000000,0.000000,0.000000,0.000000
12824734.000000,-2.406585,-1.662376,1.047469,-1.361904,1.786856,1.094691,-0.555109,0.527165,0.010617,0.357156,-0.470274,-0.565498,0.741253,-0.248920,20.033613,34.310345,-20.461319,0.011473,0.518583,1.416427,-0.097184,0.000000,0.000000,0.000000,0.000000,0.000000,0.000000
12824735.000000,-2.406026,-1.662367,1.047870,-1.362421,1.786246,1.095517,-0.555345,0.539060,0.008457,0.369586,-0.481862,-0.575113,0.766081,-0.246081,20.279585,34.262737,-20.512894,0.059080,0.547880,1.299239,-0.149369,0.000000,0.000000,0.000000,0.000000,0.000000,0.000000
12824736.000000,-2.405446,-1.662353,1.048284,-1.362950,1.785621,1.096341,-0.555594,0.548912,0.011327,0.382923,-0.498872,-0.585213,0.787219,-0.247273,20.501753,34.163555,-20.731094,0.186034,0.506681,1.182052,-0.103593,0.000000,0.000000,0.000000,0.000000,0.000000,0.000000
12824737.000000,-2.404860,-1.662336,1.048718,-1.363498,1.784999,1.097188,-0.555836,0.564615,0.010842,0.394777,-0.511778,-0.588314,0.808879,-0.245894,20.775496,34.040569,-20.953262,0.257445,0.476469,1.201278,-0.130143,0.000000,0.000000,0.000000,0.000000,0.000000,0.000000
12824738.000000,-2.404248,-1.662322,1.049153,-1.364062,1.784349,1.098064,-0.556073,0.576433,0.012385,0.407364,-0.534406,-0.608418,0.827422,-0.245540,20.973860,33.969158,-21.076248,0.285216,0.446256,1.234237,-0.136552,0.000000,0.000000,0.000000,0.000000,0.000000,0.000000
12824739.000000,-2.403630,-1.662306,1.049607,-1.364632,1.783697,1.098943,-0.556317,0.605674,0.014246,0.419966,-0.545581,-0.621955,0.851695,-0.241861,21.144453,33.869976,-21.199234,0.332823,0.446256,1.259872,-0.089860,0.000000,0.000000,0.000000,0.000000,0.000000,0.000000
12824740.000000,-2.402991,-1.662293,1.050068,-1.365219,1.783014,1.099835,-0.556546,0.611891,0.014411,0.433088,-0.558743,-0.635706,0.854794,-0.236248,21.319014,33.822369,-21.246841,0.332823,0.434354,1.396285,-0.130143,0.000000,0.000000,0.000000,0.000000,0.000000,0.000000
12824741.000000,-2.402332,-1.662269,1.050547,-1.365810,1.782317,1.100753,-0.556782,0.622334,0.018159,0.448812,-0.565063,-0.652938,0.889064,-0.239094,21.493574,33.624004,-21.417435,0.408202,0.488370,1.442062,-0.110001,0.000000,0.000000,0.000000,0.000000,0.000000,0.000000
12824742.000000,-2.401663,-1.662258,1.051040,-1.366426,1.781617,1.101710,-0.557021,0.640372,0.017068,0.462128,-0.577266,-0.670616,0.906995,-0.240724,21.668135,33.576397,-21.568192,0.554991,0.542386,1.344100,-0.103593,0.000000,0.000000,0.000000,0.000000,0.000000,0.000000
12824743.000000,-2.400970,-1.662244,1.051527,-1.367062,1.780904,1.102703,-0.557248,0.651136,0.014010,0.469014,-0.594495,-0.687659,0.936125,-0.235050,21.890303,33.501019,-21.663406,0.753355,0.620206,1.207687,-0.155778,0.000000,0.000000,0.000000,0.000000,0.000000,0.000000
12824744.000000,-2.400261,-1.662233,1.052038,-1.367692,1.780192,1.103680,-0.557492,0.674563,0.013037,0.478921,-0.609942,-0.704173,0.948883,-0.239159,21.961714,33.501019,-21.837967,0.951720,0.745634,1.149093,-0.097184,0.000000,0.000000,0.000000,0.000000,0.000000,0.000000
12824745.000000,-2.399540,-1.662221,1.052556,-1.368337,1.779478,1.104685,-0.557711,0.685375,0.013046,0.493438,-0.619538,-0.706236,0.963618,-0.237092,22.211653,33.477215,-21.960953,1.098509,0.876554,1.201278,-0.155778,0.000000,0.000000,0.000000,0.000000,0.000000,0.000000
12824746.000000,-2.398808,-1.662216,1.053070,-1.368982,1.778772,1.105715,-0.557943,0.687977,0.010479,0.501622,-0.627740,-0.701473,0.977610,-0.235323,22.112471,33.576397,-21.960953,0.999327,0.960782,1.324874,-0.130143,0.000000,0.000000,0.000000,0.000000,0.000000,0.000000
12824747.000000,-2.398078,-1.662204,1.053613,-1.369660,1.778071,1.106750,-0.558174,0.693283,0.012431,0.512777,-0.645429,-0.698210,1.000554,-0.233601,21.021467,33.647808,-21.837967,0.677977,0.930570,1.467696,-0.116410,0.000000,0.000000,0.000000,0.000000,0.000000,0.000000
12824748.000000,-2.397349,-1.662196,1.054162,-1.370357,1.777364,1.107830,-0.558397,0.696449,0.011363,0.528730,-0.659606,-0.699459,1.020576,-0.231423,19.140974,33.699383,-21.469009,-0.012331,0.888456,1.546432,-0.122819,0.000000,0.000000,0.000000,0.000000,0.000000,0.000000
12824749.000000,-2.396623,-1.662190,1.054751,-1.371044,1.776666,1.108916,-0.558617,0.707673,0.003600,0.548305,-0.666925,-0.696978,1.045800,-0.228150,16.665388,33.647808,-21.052444,-0.928774,0.835355,1.532699,-0.163102,0.000000,0.000000,0.000000,0.000000,0.000000,0.000000
12824750.000000,-2.395896,-1.662182,1.055365,-1.371761,1.775968,1.110027,-0.558839,0.715253,0.002757,0.564045,-0.676332,-0.696558,1.069152,-0.221980,13.820844,33.382000,-20.338333,-1.742067,0.698026,1.637069,-0.188737,0.000000,0.000000,0.000000,0.000000,0.000000,0.000000
12824751.000000,-2.395177,-1.662179,1.055988,-1.372473,1.775286,1.111141,-0.559065,0.717218,0.001576,0.578519,-0.700959,-0.683669,1.086728,-0.221533,11.269879,33.112225,-19.529007,-2.412538,0.494779,1.819259,-0.103593,0.000000,0.000000,0.000000,0.000000,0.000000,0.000000
12824753.000000,-2.393739,-1.662199,1.057297,-1.373885,1.773953,1.113449,-0.559497,0.724951,-0.005174,0.609253,-0.699502,-0.663688,1.127855,-0.218009,6.540876,32.937664,-17.957962,-3.769350,0.201810,1.656295,-0.130143,0.000000,0.000000,0.000000,0.000000,0.000000,0.000000
12824754.000000,-2.393004,-1.662220,1.057946,-1.374573,1.773291,1.114624,-0.559723,0.726936,-0.010015,0.622592,-0.693004,-0.657824,1.142058,-0.222073,4.485822,33.036846,-17.124832,-4.265260,0.046171,1.572067,-0.070634,0.000000,0.000000,0.000000,0.000000,0.000000,0.000000
12824755.000000,-2.392281,-1.662243,1.058613,-1.375263,1.772650,1.115823,-0.559940,0.728354,-0.013828,0.631729,-0.684826,-0.647648,1.157006,-0.220605,2.704511,33.159832,-16.410721,-4.562807,-0.025240,1.552840,-0.130143,0.000000,0.000000,0.000000,0.000000,0.000000,0.000000
12824756.000000,-2.391554,-1.662270,1.059263,-1.375949,1.771995,1.117068,-0.560155,0.728509,-0.019391,0.633379,-0.679444,-0.643194,1.179385,-0.213561,1.216779,33.282818,-15.676773,-4.733400,0.040677,1.422836,-0.103593,0.000000,0.000000,0.000000,0.000000,0.000000,0.000000
12824757.000000,-2.390837,-1.662301,1.059928,-1.376620,1.771360,1.118299,-0.560366,0.723870,-0.024693,0.638656,-0.675497,-0.642953,1.193479,-0.210351,-0.092425,33.453411,-14.990433,-4.856386,0.166105,1.422836,-0.130143,0.000000,0.000000,0.000000,0.000000,0.000000,0.000000
12824758.000000,-2.390112,-1.662329,1.060601,-1.377306,1.770719,1.119576,-0.560572,0.724037,-0.028476,0.642430,-0.675278,-0.641750,1.212728,-0.208622,-1.131854,33.501019,-14.446915,-4.685792,0.267728,1.331283,-0.155778,0.000000,0.000000,0.000000,0.000000,0.000000,0.000000
12824759.000000,-2.389387,-1.662362,1.061272,-1.377991,1.770092,1.120869,-0.560788,0.721974,-0.026872,0.651963,-0.682479,-0.633879,1.234817,-0.208986,-1.901507,33.477215,-13.958939,-4.312868,0.344633,1.090499,-0.136552,0.000000,0.000000,0.000000,0.000000,0.000000,0.000000
12824760.000000,-2.388668,-1.662389,1.061952,-1.378682,1.769457,1.122146,-0.561000,0.721374,-0.024709,0.654746,-0.683506,-0.632298,1.253021,-0.208452,-2.619586,33.282818,-13.466995,-3.797121,0.524076,0.785628,-0.136552,0.000000,0.000000,0.000000,0.000000,0.000000,0.000000
12824761.000000,-2.387942,-1.662415,1.062637,-1.379384,1.768835,1.123396,-0.561211,0.720181,-0.025274,0.671313,-0.687396,-0.624215,1.244933,-0.213820,-3.163104,33.036846,-13.026627,-3.126650,0.559781,0.746261,-0.110001,0.000000,0.000000,0.000000,0.000000,0.000000,0.000000
12824762.000000,-2.387218,-1.662439,1.063339,-1.380057,1.768233,1.124608,-0.561411,0.723331,-0.022106,0.682160,-0.684495,-0.628556,1.234129,-0.209736,-3.659014,32.743267,-12.657669,-2.805300,0.422452,0.901900,-0.163102,0.000000,0.000000,0.000000,0.000000,0.000000,0.000000
12824763.000000,-2.386521,-1.662458,1.064049,-1.380743,1.767617,1.125831,-0.561616,0.709681,-0.018997,0.689131,-0.679323,-0.621855,1.233374,-0.214178,-3.881182,32.402081,-12.387894,-2.412538,0.422452,1.006271,-0.122819,0.000000,0.000000,0.000000,0.000000,0.000000,0.000000
12824764.000000,-2.385815,-1.662479,1.064747,-1.381397,1.767019,1.127055,-0.561819,0.698760,-0.018756,0.689866,-0.676775,-0.607019,1.225918,-0.206190,-4.079546,32.132305,-12.066544,-2.412538,0.285123,1.175643,-0.163102,0.000000,0.000000,0.000000,0.000000,0.000000,0.000000
12824765.000000,-2.385108,-1.662490,1.065464,-1.382049,1.766431,1.128247,-0.562029,0.704071,-0.012501,0.693763,-0.667618,-0.600065,1.218313,-0.212404,-4.277911,31.739544,-11.919754,-2.511720,0.219205,1.337692,-0.130143,0.000000,0.000000,0.000000,0.000000,0.000000,0.000000
12824766.000000,-2.384425,-1.662490,1.066182,-1.382700,1.765829,1.129458,-0.562229,0.696781,-0.006016,0.702760,-0.656197,-0.594971,1.214116,-0.208991,-4.325518,31.251568,-11.772964,-2.682314,0.207303,1.454879,-0.188737,0.000000,0.000000,0.000000,0.000000,0.000000,0.000000
12824767.000000,-2.383729,-1.662480,1.066917,-1.383340,1.765242,1.130659,-0.562442,0.692801,-0.000424,0.710551,-0.646268,-0.595153,1.217031,-0.209769,-4.448504,30.712017,-11.701553,-2.805300,0.255826,1.370651,-0.149369,0.000000,0.000000,0.000000,0.000000,0.000000,0.000000
12824768.000000,-2.383038,-1.662478,1.067656,-1.383984,1.764639,1.131891,-0.562646,0.692156,0.000694,0.715393,-0.637964,-0.596794,1.224560,-0.204182,-4.623065,30.295452,-11.526993,-2.904482,0.369352,1.136276,-0.155778,0.000000,0.000000,0.000000,0.000000,0.000000,0.000000
12824769.000000,-2.382340,-1.662458,1.068392,-1.384611,1.764060,1.133115,-0.562845,0.688704,0.008208,0.721467,-0.649703,-0.582684,1.217727,-0.200456,-4.845232,29.732098,-11.404007,-3.079042,0.356534,0.980636,-0.149369,0.000000,0.000000,0.000000,0.000000,0.000000,0.000000
12824770.000000,-2.381650,-1.662444,1.069147,-1.385241,1.763478,1.134319,-0.563054,0.690738,0.010684,0.735647,-0.639297,-0.583962,1.212502,-0.197710,-5.067400,29.291729,-11.308792,-3.178224,0.374845,0.901900,-0.130143,0.000000,0.000000,0.000000,0.000000,0.000000,0.000000
12824771.000000,-2.380951,-1.662423,1.069898,-1.385870,1.762912,1.135530,-0.563251,0.694874,0.015638,0.737825,-0.631271,-0.571759,1.201347,-0.198772,-5.265765,28.851360,-10.987442,-3.277406,0.308927,0.836898,-0.163102,0.000000,0.000000,0.000000,0.000000,0.000000,0.000000
12824772.000000,-2.380261,-1.662405,1.070645,-1.386485,1.762343,1.136718,-0.563457,0.691007,0.014329,0.745090,-0.621702,-0.570620,1.195166,-0.202681,-5.317339,28.486370,-10.670059,-3.424196,0.195402,0.915633,-0.116410,0.000000,0.000000,0.000000,0.000000,0.000000,0.000000
12824773.000000,-2.379577,-1.662379,1.071406,-1.387097,1.761793,1.137923,-0.563656,0.690148,0.015499,0.749204,-0.613210,-0.563818,1.192624,-0.198122,-5.392718,28.046001,-10.301102,-3.570986,0.040677,0.966903,-0.136552,0.000000,0.000000,0.000000,0.000000,0.000000,0.000000
12824774.000000,-2.378890,-1.662356,1.072169,-1.387707,1.761235,1.139131,-0.563845,0.686666,0.017191,0.758722,-0.609898,-0.563568,1.187349,-0.188990,-5.464129,27.700848,-10.031326,-3.622560,-0.091158,1.058456,-0.188737,0.000000,0.000000,0.000000,0.000000,0.000000,0.000000
12824775.000000,-2.378200,-1.662333,1.072941,-1.388308,1.760673,1.140328,-0.564047,0.683759,0.018530,0.763381,-0.605150,-0.566762,1.185383,-0.191632,-5.539507,27.359661,-9.638565,-3.622560,-0.037142,1.077682,-0.103593,0.000000,0.000000,0.000000,0.000000,0.000000,0.000000
12824776.000000,-2.377504,-1.662318,1.073726,-1.388908,1.760110,1.141563,-0.564234,0.682701,0.015103,0.773827,-0.599287,-0.564468,1.195687,-0.192326,-5.813250,27.212872,-9.344986,-3.697939,0.027860,0.895492,-0.182328,0.000000,0.000000,0.000000,0.000000,0.000000,0.000000
12824777.000000,-2.376800,-1.662304,1.074514,-1.389512,1.759548,1.142802,-0.564436,0.687273,0.016153,0.781065,-0.605506,-0.562105,1.199015,-0.198030,-6.106829,27.066082,-9.146622,-3.622560,0.088285,0.687667,-0.130143,0.000000,0.000000,0.000000,0.000000,0.000000,0.000000
12824778.000000,-2.376101,-1.662291,1.075316,-1.390108,1.758997,1.144028,-0.564637,0.689811,0.017231,0.788383,-0.597186,-0.561692,1.201827,-0.200955,-6.455950,26.919292,-8.976028,-3.670168,0.183500,0.524703,-0.110001,0.000000,0.000000,0.000000,0.000000,0.000000,0.000000
12824779.000000,-2.375404,-1.662287,1.076126,-1.390715,1.758440,1.145254,-0.564824,0.691217,0.013634,0.800534,-0.599037,-0.557275,1.198764,-0.195154,-6.678118,26.966900,-8.876846,-3.646364,0.213712,0.505477,-0.182328,0.000000,0.000000,0.000000,0.000000,0.000000,0.000000
12824780.000000,-2.374701,-1.662285,1.076948,-1.391303,1.757903,1.146462,-0.565021,0.692900,0.008362,0.813133,-0.592142,-0.560473,1.197288,-0.193681,-6.900286,27.014507,-8.753860,-3.721742,0.219205,0.583297,-0.169511,0.000000,0.000000,0.000000,0.000000,0.000000,0.000000
12824781.000000,-2.374018,-1.662280,1.077791,-1.391874,1.757358,1.147682,-0.565211,0.688088,0.009066,0.822032,-0.583225,-0.553813,1.194190,-0.197205,-7.023272,27.014507,-8.706253,-4.019289,0.154203,0.733443,-0.136552,0.000000,0.000000,0.000000,0.000000,0.000000,0.000000
12824782.000000,-2.373320,-1.662282,1.078627,-1.392434,1.756820,1.148902,-0.565397,0.688018,0.004208,0.814251,-0.573098,-0.543021,1.195279,-0.194443,-7.221636,27.113689,-8.654678,-4.289064,0.058073,0.934859,-0.149369,0.000000,0.000000,0.000000,0.000000,0.000000,0.000000
12824783.000000,-2.372628,-1.662281,1.079490,-1.393008,1.756284,1.150101,-0.565588,0.690654,0.003168,0.825361,-0.568798,-0.542418,1.192125,-0.199550,-7.443804,27.113689,-8.730057,-4.439821,0.010465,1.064864,-0.136552,0.000000,0.000000,0.000000,0.000000,0.000000,0.000000
12824784.000000,-2.371920,-1.662284,1.080346,-1.393578,1.755753,1.151326,-0.565771,0.693498,0.001271,0.837968,-0.568897,-0.532334,1.190017,-0.192488,-7.864336,27.161297,-8.753860,-4.562807,-0.019747,1.071273,-0.122819,0.000000,0.000000,0.000000,0.000000,0.000000,0.000000
12824785.000000,-2.371203,-1.662285,1.081213,-1.394147,1.755211,1.152535,-0.565951,0.698293,-0.000155,0.843145,-0.570429,-0.535270,1.188080,-0.189476,-8.288836,27.212872,-8.607071,-4.487428,0.081876,0.999862,-0.169511,0.000000,0.000000,0.000000,0.000000,0.000000,0.000000
12824786.000000,-2.370485,-1.662283,1.082108,-1.394724,1.754682,1.153757,-0.566135,0.707498,0.001256,0.855578,-0.568941,-0.531242,1.186062,-0.184646,-8.955340,27.161297,-8.630875,-4.463624,0.147794,0.941268,-0.169511,0.000000,0.000000,0.000000,0.000000,0.000000,0.000000
12824787.000000,-2.369765,-1.662277,1.082987,-1.395293,1.754159,1.154977,-0.566315,0.704664,0.003180,0.861387,-0.580271,-0.524887,1.191687,-0.182482,-9.427447,27.066082,-8.531693,-4.340639,0.159696,0.915633,-0.130143,0.000000,0.000000,0.000000,0.000000,0.000000,0.000000
12824788.000000,-2.369052,-1.662263,1.083889,-1.395857,1.753639,1.156189,-0.566488,0.719915,0.006196,0.869950,-0.576075,-0.519459,1.196024,-0.177190,-9.947162,26.895489,-8.436478,-4.340639,0.135892,0.792037,-0.169511,0.000000,0.000000,0.000000,0.000000,0.000000,0.000000
12824789.000000,-2.368343,-1.662257,1.084791,-1.396408,1.753129,1.157412,-0.566668,0.719154,0.005959,0.873554,-0.562558,-0.513562,1.196684,-0.177303,-10.316119,26.820110,-8.166702,-4.511232,0.052579,0.713302,-0.116410,0.000000,0.000000,0.000000,0.000000,0.000000,0.000000
12824790.000000,-2.367636,-1.662244,1.085699,-1.396942,1.752615,1.158602,-0.566840,0.712966,0.006898,0.881857,-0.552766,-0.514733,1.212649,-0.172996,-10.589862,26.697124,-7.992142,-4.709596,-0.013339,0.804855,-0.175919,0.000000,0.000000,0.000000,0.000000,0.000000,0.000000
12824791.000000,-2.366933,-1.662230,1.086642,-1.397479,1.752114,1.159790,-0.567020,0.711747,0.008069,0.904667,-0.547827,-0.511736,1.194241,-0.177383,-10.958819,26.550335,-8.067520,-4.907960,-0.060946,1.019088,-0.163102,0.000000,0.000000,0.000000,0.000000,0.000000,0.000000
12824792.000000,-2.366227,-1.662223,1.087569,-1.398018,1.751610,1.160998,-0.567199,0.712220,0.009134,0.912754,-0.540718,-0.509662,1.196013,-0.176009,-11.184955,26.526531,-7.968338,-5.030946,-0.067355,1.090499,-0.149369,0.000000,0.000000,0.000000,0.000000,0.000000,0.000000
12824793.000000,-2.365528,-1.662218,1.088530,-1.398552,1.751105,1.162195,-0.567379,0.707393,0.005817,0.924892,-0.539222,-0.516508,1.198900,-0.173717,-11.530108,26.550335,-7.992142,-5.106325,-0.055453,1.012679,-0.155778,0.000000,0.000000,0.000000,0.000000,0.000000,0.000000
12824794.000000,-2.364818,-1.662213,1.089509,-1.399081,1.750608,1.163412,-0.567549,0.709839,0.006143,0.937751,-0.534484,-0.506377,1.199611,-0.172105,-11.851459,26.597942,-8.091324,-5.276918,-0.025240,0.895492,-0.175919,0.000000,0.000000,0.000000,0.000000,0.000000,0.000000
12824795.000000,-2.364104,-1.662204,1.090497,-1.399603,1.750112,1.164626,-0.567721,0.707633,0.007711,0.955245,-0.529805,-0.501026,1.204536,-0.171386,-12.172809,26.597942,-8.361099,-5.427675,-0.060946,0.804855,-0.175919,0.000000,0.000000,0.000000,0.000000,0.000000,0.000000
12824796.000000,-2.363400,-1.662209,1.091494,-1.400118,1.749630,1.165812,-0.567900,0.704214,0.001641,0.965567,-0.525391,-0.497324,1.203429,-0.167288,-12.545733,26.772503,-8.460281,-5.649843,-0.097567,0.843307,-0.149369,0.000000,0.000000,0.000000,0.000000,0.000000,0.000000
12824797.000000,-2.362696,-1.662209,1.092481,-1.400633,1.749139,1.167005,-0.568065,0.701420,-0.000695,0.956507,-0.521286,-0.499897,1.194092,-0.166032,-12.767901,26.867718,-8.436478,-5.749025,-0.072848,0.960494,-0.196061,0.000000,0.000000,0.000000,0.000000,0.000000,0.000000
12824798.000000,-2.361993,-1.662216,1.093476,-1.401138,1.748657,1.168176,-0.568239,0.699458,-0.004775,0.964395,-0.516915,-0.502896,1.192504,-0.168357,-12.990069,27.066082,-8.238113,-5.919618,-0.109469,1.110641,-0.149369,0.000000,0.000000,0.000000,0.000000,0.000000,0.000000
12824799.000000,-2.361302,-1.662221,1.094489,-1.401645,1.748181,1.169355,-0.568414,0.695025,-0.001993,0.971437,-0.513045,-0.489791,1.187022,-0.168927,-13.188434,27.161297,-8.166702,-6.042604,-0.121371,1.253463,-0.116410,0.000000,0.000000,0.000000,0.000000,0.000000,0.000000
12824800.000000,-2.360607,-1.662219,1.095496,-1.402135,1.747704,1.170555,-0.568574,0.690120,-0.000322,0.979980,-0.504677,-0.486228,1.189559,-0.166037,-13.386798,27.137493,-7.992142,-6.193361,-0.199191,1.201278,-0.196061,0.000000,0.000000,0.000000,0.000000,0.000000,0.000000
12824801.000000,-2.359908,-1.662224,1.096522,-1.402638,1.747235,1.171749,-0.568750,0.701057,-0.001641,0.996515,-0.499190,-0.481787,1.192461,-0.169381,-13.608966,27.212872,-7.750137,-6.316347,-0.228488,0.999862,-0.130143,0.000000,0.000000,0.000000,0.000000,0.000000,0.000000
12824802.000000,-2.359226,-1.662238,1.097557,-1.403143,1.746758,1.172955,-0.568905,0.695638,-0.004832,1.000941,-0.502566,-0.482200,1.195851,-0.167354,-13.807330,27.383465,-7.476395,-6.340150,-0.138766,0.824081,-0.182328,0.000000,0.000000,0.000000,0.000000,0.000000,0.000000
12824803.000000,-2.358538,-1.662242,1.098580,-1.403639,1.746276,1.174133,-0.569071,0.693217,-0.003589,1.007033,-0.498790,-0.480352,1.187924,-0.167765,-14.029498,27.407269,-7.083633,-6.391725,-0.109469,0.765487,-0.182328,0.000000,0.000000,0.000000,0.000000,0.000000,0.000000
12824804.000000,-2.357872,-1.662250,1.099645,-1.404137,1.745810,1.175317,-0.569245,0.684354,-0.004014,1.026448,-0.496642,-0.475323,1.187288,-0.170596,-14.005694,27.482647,-7.036026,-6.490907,-0.049044,0.785628,-0.122819,0.000000,0.000000,0.000000,0.000000,0.000000,0.000000
12824805.000000,-2.357204,-1.662259,1.100693,-1.404617,1.745354,1.176520,-0.569404,0.671960,-0.004240,1.030669,-0.497880,-0.470199,1.196028,-0.163811,-14.005694,27.554058,-6.813858,-6.661500,-0.114962,0.706893,-0.169511,0.000000,0.000000,0.000000,0.000000,0.000000,0.000000
12824806.000000,-2.356555,-1.662265,1.101768,-1.405097,1.744908,1.177715,-0.569571,0.678121,-0.004510,1.038759,-0.489961,-0.461421,1.204884,-0.166122,-13.858905,27.629436,-6.694839,-6.935243,-0.228488,0.551253,-0.136552,0.000000,0.000000,0.000000,0.000000,0.000000,0.000000
12824807.000000,-2.355902,-1.662269,1.102878,-1.405569,1.744456,1.178913,-0.569734,0.667672,-0.006712,1.062587,-0.483455,-0.458900,1.197600,-0.162156,-13.660541,27.653240,-6.813858,-7.256593,-0.234896,0.557662,-0.136552,0.000000,0.000000,0.000000,0.000000,0.000000,0.000000
12824808.000000,-2.355243,-1.662268,1.103967,-1.406037,1.744005,1.180088,-0.569896,0.661493,-0.004140,1.070754,-0.478351,-0.453983,1.219628,-0.158788,-13.660541,27.629436,-6.766251,-7.454957,-0.324618,0.597030,-0.149369,0.000000,0.000000,0.000000,0.000000,0.000000,0.000000
12824809.000000,-2.354582,-1.662265,1.105081,-1.406527,1.743553,1.181286,-0.570054,0.666690,-0.001164,1.077440,-0.482914,-0.456488,1.215987,-0.156194,-13.807330,27.554058,-6.742447,-7.403383,-0.258700,0.629073,-0.163102,0.000000,0.000000,0.000000,0.000000,0.000000,0.000000
12824810.000000,-2.353926,-1.662264,1.106188,-1.407009,1.743109,1.182490,-0.570205,0.658982,-0.000344,1.096306,-0.478842,-0.452373,1.214187,-0.159127,-13.906512,27.530254,-6.742447,-7.427186,-0.187289,0.609847,-0.175919,0.000000,0.000000,0.000000,0.000000,0.000000,0.000000
12824811.000000,-2.353261,-1.662255,1.107322,-1.407488,1.742667,1.183691,-0.570363,0.661831,0.003667,1.103612,-0.479036,-0.458929,1.200298,-0.157401,-14.081073,27.359661,-6.766251,-7.427186,-0.187289,0.518295,-0.155778,0.000000,0.000000,0.000000,0.000000,0.000000,0.000000
12824812.000000,-2.352605,-1.662247,1.108466,-1.407963,1.742217,1.184891,-0.570519,0.663417,0.005251,1.111295,-0.477308,-0.457376,1.199021,-0.160069,-14.251666,27.236675,-6.643265,-7.454957,-0.168978,0.532027,-0.142960,0.000000,0.000000,0.000000,0.000000,0.000000,0.000000
12824813.000000,-2.351960,-1.662239,1.109595,-1.408420,1.741778,1.186095,-0.570670,0.655963,0.006882,1.119134,-0.469889,-0.454394,1.205462,-0.157665,-14.251666,27.089886,-6.448868,-7.649354,-0.211093,0.609847,-0.142960,0.000000,0.000000,0.000000,0.000000,0.000000,0.000000
12824814.000000,-2.351313,-1.662231,1.110742,-1.408892,1.741340,1.187276,-0.570819,0.655443,0.007425,1.123722,-0.472279,-0.442313,1.202987,-0.153542,-14.402423,26.966900,-6.250504,-7.677125,-0.270602,0.694076,-0.202470,0.000000,0.000000,0.000000,0.000000,0.000000,0.000000
12824815.000000,-2.350671,-1.662218,1.111908,-1.409355,1.740906,1.188469,-0.570978,0.648642,0.008911,1.138601,-0.464726,-0.437535,1.201201,-0.156064,-14.426227,26.796307,-6.302078,-7.800111,-0.318209,0.804855,-0.122819,0.000000,0.000000,0.000000,0.000000,0.000000,0.000000
12824816.000000,-2.350025,-1.662207,1.113092,-1.409808,1.740487,1.189648,-0.571123,0.647483,0.009352,1.150561,-0.462546,-0.437905,1.198776,-0.148189,-14.450030,26.649517,-6.274307,-7.923097,-0.426241,0.830489,-0.163102,0.000000,0.000000,0.000000,0.000000,0.000000,0.000000
12824817.000000,-2.349384,-1.662194,1.114318,-1.410265,1.740052,1.190846,-0.571272,0.645483,0.010208,1.174128,-0.455660,-0.436673,1.198746,-0.148941,-14.549212,26.478924,-6.595657,-7.970705,-0.443636,0.785628,-0.163102,0.000000,0.000000,0.000000,0.000000,0.000000,0.000000
12824818.000000,-2.348741,-1.662178,1.115539,-1.410721,1.739620,1.192039,-0.571420,0.639339,0.011433,1.188930,-0.454854,-0.431297,1.191913,-0.151372,-14.624591,26.280560,-6.988419,-7.998476,-0.431735,0.759078,-0.110001,0.000000,0.000000,0.000000,0.000000,0.000000,0.000000
12824819.000000,-2.348103,-1.662173,1.116797,-1.411174,1.739196,1.193211,-0.571563,0.643404,0.009283,1.204583,-0.453164,-0.433248,1.185395,-0.149170,-14.648395,26.209148,-7.527969,-8.069887,-0.407931,0.798446,-0.175919,0.000000,0.000000,0.000000,0.000000,0.000000,0.000000
12824820.000000,-2.347479,-1.662171,1.118064,-1.411627,1.738762,1.194386,-0.571715,0.639137,0.006739,1.222569,-0.449108,-0.431210,1.171852,-0.150910,-14.624591,26.185345,-7.944534,-8.220644,-0.330111,0.882674,-0.142960,0.000000,0.000000,0.000000,0.000000,0.000000,0.000000
12824821.000000,-2.346852,-1.662172,1.119320,-1.412072,1.738339,1.195558,-0.571862,0.634690,0.003930,1.238866,-0.448337,-0.424222,1.173956,-0.150902,-14.573016,26.209148,-8.214310,-8.319826,-0.270602,0.882674,-0.136552,0.000000,0.000000,0.000000,0.000000,0.000000,0.000000
12824822.000000,-2.346232,-1.662170,1.120592,-1.412523,1.737925,1.196726,-0.572004,0.632547,0.005201,1.238880,-0.444718,-0.427426,1.165632,-0.149133,-14.525409,26.232952,-8.384903,-8.367434,-0.234896,0.960494,-0.182328,0.000000,0.000000,0.000000,0.000000,0.000000,0.000000
12824823.000000,-2.345607,-1.662181,1.121846,-1.412964,1.737511,1.197903,-0.572156,0.627051,0.000910,1.238505,-0.455725,-0.418069,1.158997,-0.147294,-14.525409,26.625713,-8.583267,-8.419008,-0.246798,1.084090,-0.122819,0.000000,0.000000,0.000000,0.000000,0.000000,0.000000
12824824.000000,-2.344998,-1.662199,1.123093,-1.413418,1.737118,1.199068,-0.572292,0.634132,-0.003140,1.229323,-0.454455,-0.410203,1.160132,-0.140331,-14.279437,27.359661,-8.853043,-8.319826,-0.306307,1.129867,-0.196061,0.000000,0.000000,0.000000,0.000000,0.000000,0.000000
12824825.000000,-2.344375,-1.662224,1.124330,-1.413882,1.736715,1.200269,-0.572439,0.628107,-0.012343,1.226731,-0.454118,-0.405673,1.168427,-0.140493,-13.954120,28.533978,-9.368790,-8.169069,-0.330111,1.058456,-0.136552,0.000000,0.000000,0.000000,0.000000,0.000000,0.000000
12824826.000000,-2.343751,-1.662243,1.125539,-1.414337,1.736316,1.201453,-0.572576,0.626369,-0.015241,1.218664,-0.451431,-0.399094,1.198068,-0.141969,-13.585162,29.755901,-10.130508,-7.998476,-0.312716,0.993453,-0.163102,0.000000,0.000000,0.000000,0.000000,0.000000,0.000000
12824827.000000,-2.343143,-1.662257,1.126760,-1.414802,1.735936,1.202648,-0.572714,0.622658,-0.017682,1.213412,-0.454168,-0.393308,1.198243,-0.138845,-13.065448,31.029400,-11.062820,-7.847719,-0.324618,1.052047,-0.175919,0.000000,0.000000,0.000000,0.000000,0.000000,0.000000
12824828.000000,-2.342538,-1.662266,1.127955,-1.415254,1.735543,1.203847,-0.572853,0.609368,-0.016615,1.215101,-0.452463,-0.396270,1.192673,-0.137208,-12.494159,32.203716,-11.943558,-7.875490,-0.234896,1.104232,-0.175919,0.000000,0.000000,0.000000,0.000000,0.000000,0.000000
12824829.000000,-2.341930,-1.662271,1.129177,-1.415710,1.735145,1.205034,-0.572998,0.608495,-0.013166,1.218358,-0.455263,-0.408035,1.176567,-0.137529,-11.950641,33.306622,-12.975052,-7.875490,-0.103060,1.201278,-0.122819,0.000000,0.000000,0.000000,0.000000,0.000000,0.000000
12824830.000000,-2.341335,-1.662269,1.130418,-1.416153,1.734741,1.206225,-0.573128,0.604049,-0.011198,1.226120,-0.448781,-0.399394,1.174289,-0.137895,-11.454730,34.163555,-14.030350,-8.069887,0.022367,1.357833,-0.175919,0.000000,0.000000,0.000000,0.000000,0.000000,0.000000
12824831.000000,-2.340732,-1.662268,1.131642,-1.416604,1.734351,1.207424,-0.573260,0.604794,-0.007825,1.225499,-0.448528,-0.399058,1.180739,-0.135549,-11.133380,34.921307,-14.938858,-8.121462,0.064481,1.487838,-0.196061,0.000000,0.000000,0.000000,0.000000,0.000000,0.000000
12824832.000000,-2.340148,-1.662261,1.132898,-1.417061,1.733959,1.208602,-0.573406,0.597891,-0.004937,1.235575,-0.452755,-0.395565,1.180561,-0.137261,-10.736651,35.508465,-15.970352,-8.145266,0.135892,1.578475,-0.122819,0.000000,0.000000,0.000000,0.000000,0.000000,0.000000
12824833.000000,-2.339557,-1.662259,1.134124,-1.417516,1.733574,1.209784,-0.573530,0.590884,-0.005788,1.236737,-0.449618,-0.393526,1.182385,-0.133110,-10.391498,36.071819,-16.656693,-8.145266,0.117582,1.662704,-0.196061,0.000000,0.000000,0.000000,0.000000,0.000000,0.000000
12824834.000000,-2.338956,-1.662262,1.135383,-1.417969,1.733189,1.210953,-0.573666,0.590870,-0.005956,1.237961,-0.453285,-0.393915,1.176391,-0.134559,-10.268512,36.587566,-17.370804,-8.046083,0.117582,1.649886,-0.142960,0.000000,0.000000,0.000000,0.000000,0.000000,0.000000
12824835.000000,-2.338379,-1.662266,1.136633,-1.418418,1.732812,1.212134,-0.573796,0.593065,-0.005090,1.235290,-0.445836,-0.386830,1.184187,-0.133796,-10.018573,37.051739,-17.711990,-8.046083,0.058073,1.662704,-0.142960,0.000000,0.000000,0.000000,0.000000,0.000000,0.000000
12824836.000000,-2.337807,-1.662275,1.137876,-1.418850,1.732431,1.213321,-0.573922,0.579908,-0.007496,1.240182,-0.449613,-0.379202,1.178769,-0.132101,-9.721026,37.492107,-18.104752,-8.244448,0.064481,1.591293,-0.175919,0.000000,0.000000,0.000000,0.000000,0.000000,0.000000
12824837.000000,-2.337241,-1.662297,1.139152,-1.419282,1.732065,1.214476,-0.574059,0.582389,-0.011878,1.241575,-0.440316,-0.372657,1.181902,-0.133570,-9.328265,38.031658,-18.644302,-8.419008,0.034269,1.584884,-0.130143,0.000000,0.000000,0.000000,0.000000,0.000000,0.000000
12824838.000000,-2.336691,-1.662321,1.140432,-1.419699,1.731693,1.215637,-0.574182,0.573861,-0.017720,1.250347,-0.431026,-0.366336,1.175665,-0.131355,-8.907733,38.543438,-19.037064,-8.839540,-0.031649,1.617843,-0.175919,0.000000,0.000000,0.000000,0.000000,0.000000,0.000000
12824839.000000,-2.336142,-1.662360,1.141712,-1.420110,1.731317,1.216777,-0.574317,0.564920,-0.025126,1.256807,-0.426353,-0.365318,1.155622,-0.128116,-8.511004,39.182171,-19.604385,-9.184694,-0.001437,1.695663,-0.142960,0.000000,0.000000,0.000000,0.000000,0.000000,0.000000
12824840.000000,-2.335616,-1.662399,1.143017,-1.420523,1.730955,1.217931,-0.574449,0.549296,-0.029265,1.270129,-0.417219,-0.360528,1.158045,-0.123760,-7.963519,39.769329,-20.239151,-9.482241,0.040677,1.773483,-0.155778,0.000000,0.000000,0.000000,0.000000,0.000000,0.000000
12824841.000000,-2.335078,-1.662447,1.144311,-1.420931,1.730595,1.219092,-0.574575,0.542268,-0.033442,1.276984,-0.414667,-0.361982,1.161547,-0.125262,-7.570757,40.404095,-20.929459,-9.775820,-0.007845,1.800033,-0.169511,0.000000,0.000000,0.000000,0.000000,0.000000,0.000000
12824842.000000,-2.334559,-1.662493,1.145621,-1.421334,1.730225,1.220245,-0.574714,0.538520,-0.037281,1.285732,-0.412093,-0.362919,1.156737,-0.128865,-7.150225,40.943645,-21.540421,-9.974184,0.040677,1.735030,-0.110001,0.000000,0.000000,0.000000,0.000000,0.000000,0.000000
12824843.000000,-2.334030,-1.662537,1.146925,-1.421743,1.729861,1.221405,-0.574835,0.534179,-0.038647,1.285626,-0.408380,-0.357087,1.149766,-0.127435,-6.824908,41.407818,-21.933182,-10.049562,0.040677,1.689254,-0.163102,0.000000,0.000000,0.000000,0.000000,0.000000,0.000000
12824844.000000,-2.333500,-1.662580,1.148205,-1.422153,1.729491,1.222541,-0.574963,0.526149,-0.039305,1.286420,-0.409403,-0.360003,1.145155,-0.124697,-6.531329,41.848186,-22.230728,-9.997988,0.117582,1.721298,-0.142960,0.000000,0.000000,0.000000,0.000000,0.000000,0.000000
12824845.000000,-2.332991,-1.662625,1.149485,-1.422562,1.729128,1.223675,-0.575088,0.522275,-0.040094,1.281892,-0.413213,-0.358391,1.134172,-0.126350,-6.257586,42.288555,-22.230728,-9.898806,0.088285,1.923629,-0.142960,0.000000,0.000000,0.000000,0.000000,0.000000,0.000000
12824846.000000,-2.332478,-1.662670,1.150759,-1.422970,1.728765,1.224836,-0.575210,0.518731,-0.040642,1.276788,-0.411932,-0.357978,1.126968,-0.127937,-5.960040,42.728924,-22.278336,-9.851198,0.100187,1.962081,-0.136552,0.000000,0.000000,0.000000,0.000000,0.000000,0.000000
12824847.000000,-2.331970,-1.662702,1.152037,-1.423372,1.728415,1.225984,-0.575331,0.512206,-0.036535,1.269873,-0.412087,-0.360146,1.134141,-0.126589,-5.614886,42.974895,-22.131546,-9.752016,0.088285,1.936446,-0.188737,0.000000,0.000000,0.000000,0.000000,0.000000,0.000000
12824848.000000,-2.331484,-1.662735,1.153349,-1.423784,1.728059,1.227143,-0.575461,0.502568,-0.033450,1.272945,-0.408714,-0.363080,1.132598,-0.129095,-5.218157,43.197063,-22.377518,-9.605227,0.058073,1.968490,-0.142960,0.000000,0.000000,0.000000,0.000000,0.000000,0.000000
12824849.000000,-2.330990,-1.662764,1.154633,-1.424201,1.727700,1.228302,-0.575581,0.498458,-0.031331,1.280199,-0.414338,-0.361518,1.134978,-0.128928,-4.845232,43.268475,-22.571915,-9.283876,0.052579,1.974899,-0.163102,0.000000,0.000000,0.000000,0.000000,0.000000,0.000000
12824850.000000,-2.330508,-1.662795,1.155924,-1.424617,1.727343,1.229451,-0.575705,0.497336,-0.030665,1.278813,-0.417446,-0.358106,1.142133,-0.129795,-4.500079,43.367657,-22.694901,-9.133120,0.112089,1.903487,-0.155778,0.000000,0.000000,0.000000,0.000000,0.000000,0.000000
12824851.000000,-2.330029,-1.662819,1.157230,-1.425040,1.726985,1.230609,-0.575830,0.484038,-0.027668,1.291798,-0.422269,-0.356143,1.148948,-0.131419,-4.178729,43.343853,-23.186844,-8.863344,0.213712,1.897079,-0.122819,0.000000,0.000000,0.000000,0.000000,0.000000,0.000000
12824852.000000,-2.329551,-1.662841,1.158535,-1.425456,1.726638,1.231744,-0.575946,0.480350,-0.027642,1.289114,-0.422461,-0.345468,1.147036,-0.124115,-3.857378,43.268475,-23.480423,-8.740358,0.171598,1.968490,-0.188737,0.000000,0.000000,0.000000,0.000000,0.000000,0.000000
12824853.000000,-2.329080,-1.662862,1.159852,-1.425876,1.726291,1.232896,-0.576077,0.478091,-0.024918,1.293314,-0.420788,-0.345327,1.154126,-0.124652,-3.559832,43.197063,-23.920792,-8.518190,0.225614,1.988631,-0.103593,0.000000,0.000000,0.000000,0.000000,0.000000,0.000000
12824854.000000,-2.328609,-1.662884,1.161131,-1.426295,1.725958,1.234055,-0.576186,0.473396,-0.023619,1.290200,-0.426868,-0.342396,1.154198,-0.118892,-3.238482,43.145489,-24.071548,-8.319826,0.213712,1.981307,-0.175919,0.000000,0.000000,0.000000,0.000000,0.000000,0.000000
12824855.000000,-2.328143,-1.662910,1.162429,-1.426717,1.725620,1.235198,-0.576299,0.476950,-0.024083,1.288041,-0.423989,-0.342543,1.155067,-0.117389,-2.917132,43.145489,-24.242142,-8.145266,0.243009,1.962081,-0.196061,0.000000,0.000000,0.000000,0.000000,0.000000,0.000000
12824856.000000,-2.327684,-1.662936,1.163724,-1.427159,1.725277,1.236337,-0.576420,0.473297,-0.024314,1.284566,-0.429262,-0.336849,1.152623,-0.119325,-2.643389,43.145489,-24.289749,-7.776308,0.249418,2.092086,-0.116410,0.000000,0.000000,0.000000,0.000000,0.000000,0.000000
12824857.000000,-2.327222,-1.662958,1.165002,-1.427590,1.724938,1.237476,-0.576529,0.468221,-0.023563,1.283648,-0.429542,-0.333160,1.154167,-0.114883,-2.322039,43.097881,-24.412735,-7.427186,0.261320,2.092086,-0.188737,0.000000,0.000000,0.000000,0.000000,0.000000,0.000000
12824858.000000,-2.326769,-1.662985,1.166300,-1.428041,1.724604,1.238634,-0.576651,0.464968,-0.021367,1.285178,-0.433660,-0.332224,1.158040,-0.116491,-2.123675,43.121685,-24.611099,-6.982851,0.327238,1.981307,-0.136552,0.000000,0.000000,0.000000,0.000000,0.000000,0.000000
12824859.000000,-2.326319,-1.663009,1.167574,-1.428490,1.724266,1.239801,-0.576758,0.461319,-0.021856,1.283631,-0.436089,-0.329317,1.158986,-0.109234,-1.802325,43.097881,-24.734085,-6.613893,0.351041,1.884261,-0.182328,0.000000,0.000000,0.000000,0.000000,0.000000,0.000000
12824860.000000,-2.325866,-1.663031,1.168888,-1.428935,1.723939,1.240935,-0.576877,0.456795,-0.022116,1.289862,-0.438115,-0.334329,1.151688,-0.112652,-1.504779,43.074078,-25.174454,-6.340150,0.356534,1.903487,-0.110001,0.000000,0.000000,0.000000,0.000000,0.000000,0.000000
12824861.000000,-2.325439,-1.663056,1.170204,-1.429386,1.723612,1.242070,-0.576979,0.445136,-0.023054,1.290916,-0.442028,-0.326352,1.134887,-0.105219,-1.032672,43.074078,-25.642593,-6.070375,0.369352,2.053634,-0.182328,0.000000,0.000000,0.000000,0.000000,0.000000,0.000000
12824862.000000,-2.325016,-1.663081,1.171506,-1.429835,1.723289,1.243192,-0.577095,0.440852,-0.024127,1.296265,-0.445556,-0.324433,1.125990,-0.108911,-0.564532,43.097881,-26.154373,-5.820436,0.369352,2.177230,-0.136552,0.000000,0.000000,0.000000,0.000000,0.000000,0.000000
12824863.000000,-2.324596,-1.663108,1.172805,-1.430293,1.722956,1.244324,-0.577204,0.433336,-0.023011,1.292903,-0.447989,-0.329669,1.121846,-0.104789,-0.144000,43.173260,-26.424149,-5.574464,0.410551,2.345687,-0.142960,0.000000,0.000000,0.000000,0.000000,0.000000,0.000000
12824864.000000,-2.324161,-1.663135,1.174085,-1.430749,1.722624,1.245471,-0.577306,0.432380,-0.023760,1.288991,-0.449606,-0.327195,1.114927,-0.100446,0.078168,43.197063,-26.622513,-5.352296,0.434354,2.443649,-0.188737,0.000000,0.000000,0.000000,0.000000,0.000000,0.000000
12824865.000000,-2.323740,-1.663154,1.175382,-1.431211,1.722301,1.246599,-0.577416,0.421483,-0.022677,1.287615,-0.454817,-0.333506,1.118597,-0.099998,0.451093,43.145489,-26.793106,-4.983339,0.452665,2.462875,-0.155778,0.000000,0.000000,0.000000,0.000000,0.000000,0.000000
12824866.000000,-2.323321,-1.663179,1.176657,-1.431668,1.721974,1.247750,-0.577515,0.422646,-0.023868,1.277324,-0.451392,-0.335881,1.125984,-0.101416,0.697065,43.173260,-26.622513,-4.709596,0.476469,2.372237,-0.188737,0.000000,0.000000,0.000000,0.000000,0.000000,0.000000
12824867.000000,-2.322897,-1.663201,1.177923,-1.432133,1.721636,1.248907,-0.577623,0.419518,-0.021029,1.275553,-0.459237,-0.329824,1.130797,-0.105586,0.947004,43.173260,-26.523331,-4.312868,0.559781,2.196456,-0.155778,0.000000,0.000000,0.000000,0.000000,0.000000,0.000000
12824868.000000,-2.322480,-1.663224,1.179184,-1.432601,1.721311,1.250042,-0.577723,0.418338,-0.021931,1.264172,-0.461020,-0.324801,1.135603,-0.101046,1.169172,43.173260,-26.253555,-3.943910,0.625699,2.066451,-0.196061,0.000000,0.000000,0.000000,0.000000,0.000000,0.000000
12824869.000000,-2.322070,-1.663246,1.180464,-1.433079,1.720997,1.251182,-0.577828,0.416925,-0.019500,1.263295,-0.463592,-0.318431,1.144382,-0.100087,1.415143,43.173260,-26.205948,-3.523378,0.637601,2.047225,-0.175919,0.000000,0.000000,0.000000,0.000000,0.000000,0.000000
12824870.000000,-2.321655,-1.663273,1.181710,-1.433541,1.720682,1.252317,-0.577932,0.415363,-0.023170,1.261338,-0.462362,-0.316473,1.149408,-0.102988,1.665082,43.268475,-25.983780,-3.249635,0.578092,1.968490,-0.182328,0.000000,0.000000,0.000000,0.000000,0.000000,0.000000
12824871.000000,-2.321246,-1.663296,1.182973,-1.433997,1.720362,1.253467,-0.578036,0.412967,-0.021002,1.257667,-0.457286,-0.317572,1.159722,-0.100630,1.835676,43.292278,-25.884598,-3.225832,0.589994,1.877853,-0.188737,0.000000,0.000000,0.000000,0.000000,0.000000,0.000000
12824872.000000,-2.320842,-1.663318,1.184218,-1.434441,1.720048,1.254613,-0.578137,0.407681,-0.022457,1.255397,-0.461462,-0.312819,1.157151,-0.099734,2.085615,43.320049,-25.836990,-3.225832,0.589994,1.884261,-0.169511,0.000000,0.000000,0.000000,0.000000,0.000000,0.000000
12824873.000000,-2.320438,-1.663332,1.185473,-1.434884,1.719745,1.255733,-0.578235,0.415833,-0.018072,1.249978,-0.449985,-0.310013,1.147111,-0.101180,2.160993,43.244671,-25.813187,-3.301210,0.589994,2.001449,-0.215287,0.000000,0.000000,0.000000,0.000000,0.000000,0.000000
12824874.000000,-2.320024,-1.663352,1.186723,-1.435335,1.719431,1.256870,-0.578345,0.415989,-0.019372,1.245681,-0.451226,-0.308657,1.133264,-0.101284,2.208601,43.220867,-25.690201,-3.225832,0.613798,2.104903,-0.169511,0.000000,0.000000,0.000000,0.000000,0.000000,0.000000
12824875.000000,-2.319611,-1.663370,1.187948,-1.435770,1.719114,1.258011,-0.578447,0.412785,-0.020475,1.236826,-0.445702,-0.309488,1.137600,-0.102845,2.283979,43.197063,-25.567215,-3.202028,0.691617,2.001449,-0.202470,0.000000,0.000000,0.000000,0.000000,0.000000,0.000000
12824876.000000,-2.319196,-1.663381,1.189191,-1.436210,1.718800,1.259186,-0.578545,0.413581,-0.018880,1.239088,-0.445093,-0.306797,1.139298,-0.099510,2.184797,43.074078,-25.543411,-3.126650,0.805143,1.786300,-0.235429,0.000000,0.000000,0.000000,0.000000,0.000000,0.000000
12824877.000000,-2.318784,-1.663379,1.190397,-1.436640,1.718510,1.260355,-0.578647,0.411849,-0.011258,1.229971,-0.437974,-0.296853,1.139527,-0.094848,2.133222,42.804302,-25.321243,-3.126650,0.733732,1.670028,-0.202470,0.000000,0.000000,0.000000,0.000000,0.000000,0.000000
12824878.000000,-2.318366,-1.663384,1.191634,-1.437061,1.718217,1.261506,-0.578750,0.414435,-0.008356,1.231235,-0.434881,-0.303779,1.144873,-0.096690,2.061811,42.633709,-25.297440,-3.154421,0.685209,1.597701,-0.142960,0.000000,0.000000,0.000000,0.000000,0.000000,0.000000
12824879.000000,-2.317954,-1.663396,1.192872,-1.437483,1.717921,1.262663,-0.578846,0.412815,-0.009601,1.228394,-0.427918,-0.301623,1.148240,-0.098779,1.986432,42.609905,-25.273636,-3.178224,0.649503,1.662704,-0.175919,0.000000,0.000000,0.000000,0.000000,0.000000,0.000000
12824880.000000,-2.317548,-1.663400,1.194095,-1.437891,1.717632,1.263817,-0.578946,0.405933,-0.008534,1.229340,-0.425722,-0.299603,1.142325,-0.101254,2.010236,42.510723,-25.368851,-3.277406,0.596403,1.812850,-0.202470,0.000000,0.000000,0.000000,0.000000,0.000000,0.000000
12824881.000000,-2.317148,-1.663402,1.195336,-1.438294,1.717355,1.264950,-0.579055,0.405430,-0.006832,1.227759,-0.418252,-0.288626,1.141497,-0.101930,1.986432,42.363934,-25.591019,-3.376589,0.535978,2.001449,-0.136552,0.000000,0.000000,0.000000,0.000000,0.000000,0.000000
12824882.000000,-2.316741,-1.663404,1.196570,-1.438696,1.717081,1.266100,-0.579147,0.408407,-0.006095,1.212831,-0.414608,-0.283778,1.142737,-0.097865,1.962629,42.240948,-25.912369,-3.523378,0.452665,2.131454,-0.188737,0.000000,0.000000,0.000000,0.000000,0.000000,0.000000
12824883.000000,-2.316331,-1.663409,1.197825,-1.439090,1.716798,1.267242,-0.579247,0.411299,-0.006759,1.221057,-0.408028,-0.279402,1.144971,-0.097063,1.934858,42.169537,-26.352737,-3.570986,0.452665,2.137862,-0.182328,0.000000,0.000000,0.000000,0.000000,0.000000,0.000000
12824884.000000,-2.315926,-1.663411,1.199059,-1.439486,1.716521,1.268394,-0.579345,0.411001,-0.003350,1.218944,-0.405667,-0.279211,1.144244,-0.095757,1.863447,42.070354,-26.424149,-3.570986,0.542386,2.104903,-0.202470,0.000000,0.000000,0.000000,0.000000,0.000000,0.000000
12824885.000000,-2.315517,-1.663418,1.200272,-1.439880,1.716249,1.269540,-0.579448,0.406930,-0.001342,1.218874,-0.399132,-0.277541,1.145049,-0.097148,1.764264,41.994976,-26.523331,-3.424196,0.608304,2.163497,-0.155778,0.000000,0.000000,0.000000,0.000000,0.000000,0.000000
12824886.000000,-2.315122,-1.663425,1.201491,-1.440269,1.715986,1.270658,-0.579541,0.404767,-0.003601,1.213888,-0.398708,-0.274855,1.138841,-0.095137,1.811872,41.947369,-26.475723,-3.348818,0.632108,2.235824,-0.182328,0.000000,0.000000,0.000000,0.000000,0.000000,0.000000
12824887.000000,-2.314712,-1.663436,1.202710,-1.440655,1.715711,1.271801,-0.579631,0.405656,-0.003712,1.213141,-0.393494,-0.272299,1.142021,-0.093752,1.764264,41.971172,-26.328934,-3.348818,0.649503,2.228500,-0.215287,0.000000,0.000000,0.000000,0.000000,0.000000,0.000000
12824888.000000,-2.314308,-1.663444,1.203908,-1.441029,1.715447,1.272926,-0.579731,0.402158,-0.006210,1.211541,-0.393365,-0.266749,1.141557,-0.091082,1.740461,41.971172,-26.130569,-3.301210,0.571683,2.202865,-0.163102,0.000000,0.000000,0.000000,0.000000,0.000000,0.000000
12824889.000000,-2.313920,-1.663455,1.205108,-1.441407,1.715185,1.274077,-0.579820,0.396838,-0.008410,1.199135,-0.384674,-0.263316,1.140134,-0.090571,1.835676,41.994976,-25.761612,-3.325014,0.500272,2.053634,-0.196061,0.000000,0.000000,0.000000,0.000000,0.000000,0.000000
12824890.000000,-2.313530,-1.663459,1.206310,-1.441783,1.714922,1.275218,-0.579914,0.389443,-0.007765,1.201917,-0.386814,-0.257612,1.128869,-0.093484,1.962629,41.923565,-25.714005,-3.325014,0.476469,2.033492,-0.142960,0.000000,0.000000,0.000000,0.000000,0.000000,0.000000
12824891.000000,-2.313138,-1.663467,1.207508,-1.442156,1.714669,1.276341,-0.580001,0.396545,-0.008619,1.195136,-0.380893,-0.257765,1.124688,-0.092536,2.109418,41.899761,-25.468033,-3.348818,0.434354,2.047225,-0.175919,0.000000,0.000000,0.000000,0.000000,0.000000,0.000000
12824892.000000,-2.312751,-1.663474,1.208718,-1.442526,1.714397,1.277493,-0.580096,0.394802,-0.006634,1.196228,-0.371597,-0.261693,1.123445,-0.089897,2.133222,41.899761,-25.368851,-3.400392,0.494779,1.949264,-0.130143,0.000000,0.000000,0.000000,0.000000,0.000000,0.000000
12824893.000000,-2.312375,-1.663478,1.209911,-1.442892,1.714135,1.278631,-0.580180,0.385152,-0.003325,1.195973,-0.370044,-0.258961,1.134162,-0.083651,2.307783,41.824383,-25.321243,-3.400392,0.535978,1.832076,-0.196061,0.000000,0.000000,0.000000,0.000000,0.000000,0.000000
12824894.000000,-2.311999,-1.663480,1.211110,-1.443252,1.713883,1.279783,-0.580277,0.383920,-0.004305,1.185685,-0.366105,-0.254096,1.136448,-0.088329,2.430768,41.752972,-25.222061,-3.499574,0.500272,1.747848,-0.142960,0.000000,0.000000,0.000000,0.000000,0.000000,0.000000
12824895.000000,-2.311615,-1.663474,1.212301,-1.443617,1.713635,1.280924,-0.580364,0.376963,-0.002538,1.191091,-0.365440,-0.247006,1.134705,-0.084783,2.529951,41.578411,-25.321243,-3.523378,0.506681,1.779891,-0.149369,0.000000,0.000000,0.000000,0.000000,0.000000,0.000000
12824896.000000,-2.311236,-1.663478,1.213473,-1.443973,1.713386,1.282053,-0.580445,0.372625,-0.004497,1.178971,-0.359692,-0.253203,1.137616,-0.084891,2.629133,41.530804,-25.003860,-3.499574,0.476469,1.806442,-0.202470,0.000000,0.000000,0.000000,0.000000,0.000000,0.000000
12824897.000000,-2.310868,-1.663471,1.214667,-1.444333,1.713117,1.283191,-0.580536,0.368535,-0.000387,1.181450,-0.361646,-0.258730,1.138998,-0.088238,2.728315,41.384014,-24.904678,-3.424196,0.554288,1.865035,-0.163102,0.000000,0.000000,0.000000,0.000000,0.000000,0.000000
12824898.000000,-2.310489,-1.663465,1.215818,-1.444681,1.712862,1.284330,-0.580618,0.370741,0.002559,1.174512,-0.356438,-0.254853,1.136398,-0.088182,2.728315,41.237225,-24.559525,-3.400392,0.547880,2.007858,-0.202470,0.000000,0.000000,0.000000,0.000000,0.000000,0.000000
12824899.000000,-2.310112,-1.663456,1.216992,-1.445028,1.712624,1.285454,-0.580707,0.373493,0.004677,1.170980,-0.352530,-0.250116,1.142113,-0.086009,2.704511,41.090435,-24.341324,-3.376589,0.482877,2.060043,-0.175919,0.000000,0.000000,0.000000,0.000000,0.000000,0.000000
12824900.000000,-2.309733,-1.663440,1.218158,-1.445387,1.712378,1.286616,-0.580787,0.374747,0.007319,1.173753,-0.351900,-0.244341,1.148342,-0.086856,2.704511,40.896038,-24.265945,-3.249635,0.500272,1.897079,-0.208878,0.000000,0.000000,0.000000,0.000000,0.000000,0.000000
12824901.000000,-2.309354,-1.663424,1.219341,-1.445725,1.712133,1.287760,-0.580876,0.374256,0.015592,1.173762,-0.345220,-0.248442,1.131184,-0.085428,2.652936,40.697674,-24.265945,-3.249635,0.476469,1.702071,-0.169511,0.000000,0.000000,0.000000,0.000000,0.000000,0.000000
12824902.000000,-2.308990,-1.663412,1.220545,-1.446072,1.711890,1.288904,-0.580959,0.371503,0.016665,1.177841,-0.348048,-0.242180,1.132500,-0.082901,2.680707,40.578655,-24.535721,-3.154421,0.452665,1.649886,-0.169511,0.000000,0.000000,0.000000,0.000000,0.000000,0.000000
12824905.000000,-2.307890,-1.663396,1.224127,-1.447067,1.711183,1.292285,-0.581203,0.367657,0.011291,1.184067,-0.340587,-0.236957,1.110327,-0.080372,2.803693,40.404095,-25.420425,-3.424196,0.494779,1.858627,-0.182328,0.000000,0.000000,0.000000,0.000000,0.000000,0.000000
12824906.000000,-2.307520,-1.663388,1.225298,-1.447383,1.710947,1.293396,-0.581287,0.365907,0.009669,1.187697,-0.330836,-0.238552,1.108639,-0.084826,2.728315,40.332684,-25.468033,-3.570986,0.482877,1.942855,-0.155778,0.000000,0.000000,0.000000,0.000000,0.000000,0.000000
12824907.000000,-2.307159,-1.663382,1.226485,-1.447704,1.710715,1.294522,-0.581373,0.362426,0.008563,1.184190,-0.327188,-0.239068,1.113507,-0.082678,2.728315,40.257305,-25.519608,-3.670168,0.452665,2.014266,-0.149369,0.000000,0.000000,0.000000,0.000000,0.000000,0.000000
12824908.000000,-2.306787,-1.663380,1.227647,-1.448023,1.710484,1.295649,-0.581451,0.361916,0.005974,1.177097,-0.323903,-0.235140,1.116508,-0.080540,2.629133,40.257305,-25.368851,-3.697939,0.446256,2.060043,-0.155778,0.000000,0.000000,0.000000,0.000000,0.000000,0.000000
12824909.000000,-2.306415,-1.663381,1.228813,-1.448346,1.710256,1.296759,-0.581532,0.362593,0.003625,1.169597,-0.326006,-0.234356,1.110421,-0.077837,2.553754,40.281109,-25.126846,-3.523378,0.476469,2.085677,-0.188737,0.000000,0.000000,0.000000,0.000000,0.000000,0.000000
12824910.000000,-2.306051,-1.663378,1.229980,-1.448666,1.710031,1.297898,-0.581617,0.363900,0.002566,1.166547,-0.320829,-0.226259,1.115894,-0.078263,2.506147,40.281109,-24.805496,-3.448000,0.446256,1.923629,-0.163102,0.000000,0.000000,0.000000,0.000000,0.000000,0.000000
12824911.000000,-2.305680,-1.663376,1.231130,-1.448981,1.709805,1.299032,-0.581701,0.366874,0.002936,1.162007,-0.319870,-0.226165,1.131016,-0.078241,2.482343,40.233501,-24.488113,-3.277406,0.446256,1.727706,-0.142960,0.000000,0.000000,0.000000,0.000000,0.000000,0.000000
12824912.000000,-2.305312,-1.663375,1.232309,-1.449296,1.709577,1.300166,-0.581776,0.368999,0.002598,1.159781,-0.316913,-0.225940,1.135251,-0.075233,2.482343,40.209698,-24.464310,-3.178224,0.440763,1.617843,-0.202470,0.000000,0.000000,0.000000,0.000000,0.000000,0.000000
12824913.000000,-2.304940,-1.663373,1.233449,-1.449603,1.709355,1.301303,-0.581860,0.368043,0.001795,1.160215,-0.312044,-0.222913,1.140634,-0.077379,2.454572,40.209698,-24.142960,-3.202028,0.374845,1.597701,-0.149369,0.000000,0.000000,0.000000,0.000000,0.000000,0.000000
12824914.000000,-2.304570,-1.663374,1.234612,-1.449908,1.709120,1.302422,-0.581937,0.365440,0.000130,1.158382,-0.307649,-0.230950,1.128735,-0.075646,2.406965,40.257305,-24.019974,-3.126650,0.476469,1.605026,-0.175919,0.000000,0.000000,0.000000,0.000000,0.000000,0.000000
12824915.000000,-2.304213,-1.663371,1.235781,-1.450199,1.708898,1.303551,-0.582014,0.363714,0.000122,1.158605,-0.301540,-0.224714,1.124219,-0.079407,2.331586,40.257305,-23.849380,-3.400392,0.476469,1.735030,-0.188737,0.000000,0.000000,0.000000,0.000000,0.000000,0.000000
12824916.000000,-2.303839,-1.663361,1.236945,-1.450501,1.708683,1.304680,-0.582091,0.362394,0.002335,1.162319,-0.298659,-0.218301,1.113167,-0.083089,2.133222,40.162090,-23.948563,-3.400392,0.428861,1.871444,-0.188737,0.000000,0.000000,0.000000,0.000000,0.000000,0.000000
12824917.000000,-2.303472,-1.663353,1.238104,-1.450784,1.708468,1.305806,-0.582172,0.363351,0.005423,1.159342,-0.294269,-0.218546,1.114729,-0.082343,1.962629,40.134319,-23.896988,-3.622560,0.374845,1.903487,-0.155778,0.000000,0.000000,0.000000,0.000000,0.000000,0.000000
12824918.000000,-2.303092,-1.663343,1.239244,-1.451083,1.708246,1.306963,-0.582244,0.366750,0.006124,1.154254,-0.291878,-0.219767,1.112627,-0.079044,1.665082,40.039104,-23.774002,-3.697939,0.356534,1.786300,-0.196061,0.000000,0.000000,0.000000,0.000000,0.000000,0.000000
12824919.000000,-2.302712,-1.663329,1.240400,-1.451381,1.708017,1.308081,-0.582315,0.370686,0.010380,1.152394,-0.293532,-0.219487,1.100647,-0.077359,1.315961,39.916119,-23.750198,-3.622560,0.422452,1.825668,-0.215287,0.000000,0.000000,0.000000,0.000000,0.000000,0.000000
12824920.000000,-2.302331,-1.663314,1.241550,-1.451677,1.707803,1.309206,-0.582394,0.374335,0.010223,1.149097,-0.295678,-0.216505,1.104344,-0.079127,0.895429,39.793133,-23.555801,-3.598757,0.422452,1.942855,-0.155778,0.000000,0.000000,0.000000,0.000000,0.000000,0.000000
12824921.000000,-2.301942,-1.663297,1.242680,-1.451973,1.707587,1.310345,-0.582463,0.378873,0.016289,1.141727,-0.298042,-0.214983,1.108691,-0.076875,0.502668,39.670147,-23.381241,-3.499574,0.452665,1.923629,-0.188737,0.000000,0.000000,0.000000,0.000000,0.000000,0.000000
12824922.000000,-2.301563,-1.663283,1.243834,-1.452256,1.707377,1.311483,-0.582541,0.379680,0.016471,1.142017,-0.290763,-0.217395,1.116089,-0.082240,0.228925,39.598736,-23.309830,-3.570986,0.440763,1.760665,-0.155778,0.000000,0.000000,0.000000,0.000000,0.000000,0.000000
12824923.000000,-2.301184,-1.663265,1.244995,-1.452539,1.707174,1.312621,-0.582609,0.376998,0.017902,1.148551,-0.285736,-0.215911,1.116850,-0.078476,-0.017047,39.475750,-23.333633,-3.622560,0.344633,1.670028,-0.208878,0.000000,0.000000,0.000000,0.000000,0.000000,0.000000
12824924.000000,-2.300806,-1.663252,1.246138,-1.452810,1.706959,1.313739,-0.582687,0.373489,0.017237,1.147796,-0.281727,-0.212733,1.145919,-0.080081,-0.215411,39.428143,-23.432816,-3.697939,0.308927,1.689254,-0.149369,0.000000,0.000000,0.000000,0.000000,0.000000,0.000000
12824925.000000,-2.300434,-1.663231,1.247312,-1.453074,1.706754,1.314849,-0.582763,0.371484,0.015314,1.153359,-0.274145,-0.211196,1.136715,-0.075292,-0.413775,39.305157,-23.678787,-3.820925,0.297025,1.851302,-0.116410,0.000000,0.000000,0.000000,0.000000,0.000000,0.000000
12824926.000000,-2.300068,-1.663230,1.248476,-1.453345,1.706543,1.315974,-0.582829,0.366139,0.011870,1.159080,-0.274010,-0.206630,1.137179,-0.068496,-0.465350,39.400372,-24.019974,-3.868532,0.332731,1.930038,-0.169511,0.000000,0.000000,0.000000,0.000000,0.000000,0.000000
12824927.000000,-2.299694,-1.663221,1.249652,-1.453606,1.706341,1.317070,-0.582900,0.364971,0.008710,1.165938,-0.269292,-0.202910,1.129313,-0.070776,-0.612139,39.400372,-24.313553,-3.967714,0.356534,2.020675,-0.149369,0.000000,0.000000,0.000000,0.000000,0.000000,0.000000
12824928.000000,-2.299337,-1.663209,1.250822,-1.453866,1.706140,1.318189,-0.582966,0.361278,0.009570,1.163913,-0.265266,-0.203855,1.113766,-0.070990,-0.663714,39.400372,-24.488113,-4.066896,0.356534,2.060043,-0.163102,0.000000,0.000000,0.000000,0.000000,0.000000,0.000000
12824929.000000,-2.298976,-1.663210,1.251975,-1.454121,1.705930,1.319299,-0.583036,0.359327,0.004215,1.161507,-0.264906,-0.204352,1.111795,-0.073723,-0.735125,39.523357,-24.634903,-4.090700,0.344633,1.995040,-0.136552,0.000000,0.000000,0.000000,0.000000,0.000000,0.000000
12824930.000000,-2.298619,-1.663202,1.253131,-1.454378,1.705717,1.320420,-0.583098,0.358471,0.002138,1.156824,-0.260508,-0.206113,1.107365,-0.072168,-0.786700,39.574932,-24.634903,-4.142274,0.369352,2.001449,-0.188737,0.000000,0.000000,0.000000,0.000000,0.000000,0.000000
12824931.000000,-2.298256,-1.663197,1.254253,-1.454639,1.705512,1.321539,-0.583166,0.355160,0.003922,1.147975,-0.259792,-0.204863,1.100637,-0.068554,-0.885882,39.622540,-24.341324,-4.090700,0.344633,2.027084,-0.182328,0.000000,0.000000,0.000000,0.000000,0.000000,0.000000
12824932.000000,-2.297895,-1.663192,1.255402,-1.454884,1.705308,1.322637,-0.583237,0.351921,0.005907,1.148074,-0.253975,-0.210184,1.102712,-0.067012,-0.933489,39.646343,-24.095352,-4.118471,0.374845,2.066451,-0.142960,0.000000,0.000000,0.000000,0.000000,0.000000,0.000000
12824933.000000,-2.297544,-1.663187,1.256543,-1.455144,1.705108,1.323757,-0.583295,0.352995,0.004080,1.143138,-0.252826,-0.209102,1.104100,-0.066641,-0.985064,39.670147,-23.702591,-4.118471,0.369352,2.085677,-0.196061,0.000000,0.000000,0.000000,0.000000,0.000000,0.000000
12824934.000000,-2.297201,-1.663175,1.257667,-1.455398,1.704913,1.324885,-0.583363,0.349634,0.007409,1.133973,-0.250454,-0.202396,1.109952,-0.065734,-0.885882,39.622540,-23.381241,-4.066896,0.339139,1.995040,-0.155778,0.000000,0.000000,0.000000,0.000000,0.000000,0.000000
12824935.000000,-2.296855,-1.663161,1.258820,-1.455649,1.704722,1.326004,-0.583422,0.354097,0.007350,1.132648,-0.247988,-0.196000,1.121335,-0.062379,-0.786700,39.547161,-23.357437,-4.043092,0.261320,1.844894,-0.182328,0.000000,0.000000,0.000000,0.000000,0.000000,0.000000
12824936.000000,-2.296524,-1.663150,1.259960,-1.455901,1.704521,1.327127,-0.583487,0.349901,0.009662,1.127842,-0.248049,-0.193903,1.120953,-0.061931,-0.612139,39.499554,-23.087662,-4.066896,0.255826,1.741439,-0.155778,0.000000,0.000000,0.000000,0.000000,0.000000,0.000000
12824937.000000,-2.296195,-1.663134,1.261096,-1.456153,1.704323,1.328234,-0.583548,0.343202,0.012558,1.134011,-0.247638,-0.194126,1.109534,-0.064698,-0.413775,39.400372,-23.111465,-3.991518,0.291532,1.695663,-0.169511,0.000000,0.000000,0.000000,0.000000,0.000000,0.000000
12824938.000000,-2.295876,-1.663118,1.262236,-1.456399,1.704135,1.329348,-0.583614,0.336769,0.010777,1.131398,-0.241518,-0.193214,1.100423,-0.063729,-0.266986,39.328960,-23.016251,-3.991518,0.303434,1.708480,-0.142960,0.000000,0.000000,0.000000,0.000000,0.000000,0.000000
12824939.000000,-2.295554,-1.663098,1.263377,-1.456650,1.703945,1.330472,-0.583669,0.330027,0.011726,1.135353,-0.253379,-0.192809,1.099156,-0.060622,-0.068621,39.158367,-23.135269,-3.920107,0.332731,1.695663,-0.175919,0.000000,0.000000,0.000000,0.000000,0.000000,0.000000
12824940.000000,-2.295236,-1.663080,1.264517,-1.456893,1.703761,1.331579,-0.583735,0.334211,0.014389,1.141301,-0.248227,-0.191926,1.094869,-0.060035,0.078168,39.035381,-23.135269,-3.967714,0.332731,1.662704,-0.163102,0.000000,0.000000,0.000000,0.000000,0.000000,0.000000
12824941.000000,-2.294918,-1.663061,1.265653,-1.457140,1.703572,1.332694,-0.583793,0.330523,0.014167,1.132821,-0.246891,-0.194571,1.101452,-0.058414,0.205121,38.864788,-23.040054,-3.920107,0.303434,1.727706,-0.182328,0.000000,0.000000,0.000000,0.000000,0.000000,0.000000
12824942.000000,-2.294609,-1.663045,1.266775,-1.457382,1.703372,1.333802,-0.583858,0.322013,0.014817,1.133876,-0.250189,-0.193495,1.100471,-0.058250,0.427289,38.789410,-22.917068,-3.820925,0.315336,1.727706,-0.175919,0.000000,0.000000,0.000000,0.000000,0.000000,0.000000
12824943.000000,-2.294296,-1.663031,1.267898,-1.457622,1.703183,1.334917,-0.583921,0.317822,0.014761,1.127868,-0.246438,-0.187014,1.106763,-0.058998,0.427289,38.741802,-22.671097,-3.820925,0.303434,1.779891,-0.142960,0.000000,0.000000,0.000000,0.000000,0.000000,0.000000
12824944.000000,-2.293986,-1.663007,1.269008,-1.457866,1.702992,1.336045,-0.583976,0.315008,0.020904,1.124185,-0.244009,-0.186720,1.107457,-0.060793,0.526471,38.571209,-22.548111,-3.697939,0.297025,1.779891,-0.202470,0.000000,0.000000,0.000000,0.000000,0.000000,0.000000
12824945.000000,-2.293682,-1.662987,1.270139,-1.458103,1.702806,1.337160,-0.584044,0.312840,0.021780,1.122185,-0.241386,-0.186416,1.112611,-0.061512,0.649457,38.424419,-22.448929,-3.598757,0.308927,1.656295,-0.155778,0.000000,0.000000,0.000000,0.000000,0.000000,0.000000
12824946.000000,-2.293382,-1.662970,1.271286,-1.458343,1.702620,1.338304,-0.584098,0.310130,0.021089,1.125211,-0.240836,-0.186723,1.117420,-0.058476,0.796247,38.325237,-22.524307,-3.547182,0.308927,1.481429,-0.202470,0.000000,0.000000,0.000000,0.000000,0.000000,0.000000
12824947.000000,-2.293082,-1.662946,1.272424,-1.458582,1.702437,1.339442,-0.584158,0.301666,0.022411,1.131664,-0.242302,-0.186699,1.128144,-0.059002,0.970807,38.154644,-22.718704,-3.448000,0.303434,1.377059,-0.182328,0.000000,0.000000,0.000000,0.000000,0.000000,0.000000
12824948.000000,-2.292790,-1.662932,1.273581,-1.458827,1.702252,1.340552,-0.584220,0.295995,0.019734,1.130270,-0.241985,-0.186751,1.136598,-0.059755,1.121564,38.130840,-23.016251,-3.277406,0.291532,1.435653,-0.142960,0.000000,0.000000,0.000000,0.000000,0.000000,0.000000
12824949.000000,-2.292508,-1.662916,1.274726,-1.459066,1.702060,1.341659,-0.584272,0.291045,0.019192,1.137372,-0.242175,-0.187534,1.121064,-0.052170,1.367536,38.055462,-23.381241,-3.202028,0.315336,1.611434,-0.196061,0.000000,0.000000,0.000000,0.000000,0.000000,0.000000
12824950.000000,-2.292223,-1.662901,1.275877,-1.459297,1.701877,1.342749,-0.584336,0.286312,0.015535,1.144121,-0.237738,-0.192769,1.105841,-0.055396,1.613508,37.984051,-23.627213,-3.202028,0.320829,1.851302,-0.136552,0.000000,0.000000,0.000000,0.000000,0.000000,0.000000
12824951.000000,-2.291945,-1.662889,1.277032,-1.459528,1.701691,1.343860,-0.584392,0.280505,0.014305,1.140279,-0.233420,-0.192897,1.095092,-0.059386,1.811872,37.984051,-23.774002,-3.225832,0.356534,1.995040,-0.149369,0.000000,0.000000,0.000000,0.000000,0.000000,0.000000
12824952.000000,-2.291662,-1.662865,1.278169,-1.459756,1.701511,1.344986,-0.584446,0.279621,0.017654,1.139408,-0.229349,-0.191959,1.097439,-0.052668,1.962629,37.809490,-23.849380,-3.178224,0.369352,2.053634,-0.182328,0.000000,0.000000,0.000000,0.000000,0.000000,0.000000
12824953.000000,-2.291376,-1.662846,1.279317,-1.459998,1.701343,1.346098,-0.584504,0.282761,0.018721,1.142760,-0.235633,-0.185161,1.105562,-0.054891,1.986432,37.686504,-23.873184,-3.003664,0.344633,1.974899,-0.149369,0.000000,0.000000,0.000000,0.000000,0.000000,0.000000
12824954.000000,-2.291090,-1.662830,1.280435,-1.460246,1.701168,1.347219,-0.584559,0.280888,0.017596,1.135221,-0.238141,-0.185338,1.108760,-0.054971,1.887250,37.638897,-23.726395,-2.757692,0.332731,1.897079,-0.155778,0.000000,0.000000,0.000000,0.000000,0.000000,0.000000
12824955.000000,-2.290807,-1.662814,1.281576,-1.460494,1.700983,1.348317,-0.584613,0.282052,0.017006,1.137524,-0.242335,-0.182137,1.107848,-0.055235,1.911054,37.591290,-23.579605,-2.412538,0.356534,1.877853,-0.155778,0.000000,0.000000,0.000000,0.000000,0.000000,0.000000
12824956.000000,-2.290521,-1.662799,1.282712,-1.460740,1.700801,1.349428,-0.584663,0.282757,0.018500,1.131461,-0.243863,-0.179721,1.105555,-0.054311,1.835676,37.591290,-23.309830,-2.091188,0.381254,1.844894,-0.188737,0.000000,0.000000,0.000000,0.000000,0.000000,0.000000
12824957.000000,-2.290244,-1.662782,1.283826,-1.460977,1.700623,1.350552,-0.584719,0.279544,0.018109,1.124222,-0.249041,-0.177642,1.111755,-0.056229,1.887250,37.539715,-23.063858,-1.964235,0.410551,1.806442,-0.155778,0.000000,0.000000,0.000000,0.000000,0.000000,0.000000
12824958.000000,-2.289969,-1.662768,1.284960,-1.461209,1.700458,1.351648,-0.584769,0.282365,0.017022,1.125106,-0.243690,-0.178168,1.112159,-0.055139,1.934858,37.515911,-22.964676,-1.892824,0.362943,1.800033,-0.182328,0.000000,0.000000,0.000000,0.000000,0.000000,0.000000
12824959.000000,-2.289703,-1.662755,1.286106,-1.461427,1.700294,1.352773,-0.584822,0.276040,0.015707,1.125495,-0.231993,-0.174457,1.115171,-0.051821,2.109418,37.515911,-22.940872,-2.015810,0.315336,1.689254,-0.155778,0.000000,0.000000,0.000000,0.000000,0.000000,0.000000
12824960.000000,-2.289436,-1.662742,1.287231,-1.461645,1.700122,1.353872,-0.584869,0.268622,0.014676,1.130218,-0.228353,-0.170029,1.129088,-0.051521,2.184797,37.515911,-22.893265,-2.091188,0.351041,1.643478,-0.196061,0.000000,0.000000,0.000000,0.000000,0.000000,0.000000
12824961.000000,-2.289170,-1.662731,1.288375,-1.461872,1.699956,1.354984,-0.584924,0.270083,0.016677,1.128234,-0.224834,-0.172048,1.117213,-0.049153,2.232404,37.539715,-22.964676,-2.063417,0.398649,1.702071,-0.169511,0.000000,0.000000,0.000000,0.000000,0.000000,0.000000
12824962.000000,-2.288899,-1.662724,1.289506,-1.462096,1.699784,1.356090,-0.584971,0.271395,0.014449,1.100829,-0.219769,-0.167230,1.106713,-0.049962,2.260175,37.591290,-23.040054,-2.015810,0.422452,1.800033,-0.196061,0.000000,0.000000,0.000000,0.000000,0.000000,0.000000
12824963.000000,-2.288620,-1.662714,1.290639,-1.462316,1.699618,1.357198,-0.585021,0.270081,0.010921,1.112559,-0.220785,-0.167252,1.112211,-0.046325,2.133222,37.591290,-23.040054,-1.892824,0.434354,1.773483,-0.208878,0.000000,0.000000,0.000000,0.000000,0.000000,0.000000
12824964.000000,-2.288350,-1.662707,1.291770,-1.462530,1.699452,1.358333,-0.585078,0.272629,0.009756,1.111372,-0.217850,-0.163775,1.113912,-0.051326,2.085615,37.662701,-22.964676,-1.892824,0.458158,1.572067,-0.136552,0.000000,0.000000,0.000000,0.000000,0.000000,0.000000
12824965.000000,-2.288073,-1.662697,1.292892,-1.462739,1.699293,1.359462,-0.585125,0.272084,0.007493,1.113846,-0.213365,-0.159733,1.124651,-0.046093,1.934858,37.662701,-22.964676,-1.892824,0.446256,1.474105,-0.182328,0.000000,0.000000,0.000000,0.000000,0.000000,0.000000
12824966.000000,-2.287807,-1.662681,1.294011,-1.462948,1.699147,1.360557,-0.585177,0.268901,0.013043,1.109013,-0.209603,-0.149459,1.113245,-0.049709,1.835676,37.615093,-22.770279,-1.916628,0.356534,1.565658,-0.155778,0.000000,0.000000,0.000000,0.000000,0.000000,0.000000
12824967.000000,-2.287537,-1.662672,1.295103,-1.463153,1.698992,1.361657,-0.585224,0.269454,0.011737,1.080938,-0.206626,-0.150105,1.113598,-0.051076,1.740461,37.662701,-22.472733,-1.940431,0.369352,1.708480,-0.163102,0.000000,0.000000,0.000000,0.000000,0.000000,0.000000
12824968.000000,-2.287267,-1.662669,1.296221,-1.463351,1.698834,1.362753,-0.585268,0.264390,0.006566,1.090040,-0.206431,-0.151851,1.116123,-0.046169,1.688886,37.761883,-22.254532,-2.015810,0.405057,1.812850,-0.202470,0.000000,0.000000,0.000000,0.000000,0.000000,0.000000
12824969.000000,-2.286998,-1.662654,1.297359,-1.463546,1.698687,1.363866,-0.585320,0.264159,0.009969,1.099761,-0.198860,-0.149380,1.123021,-0.050391,1.542096,37.686504,-22.302139,-2.138796,0.344633,1.812850,-0.163102,0.000000,0.000000,0.000000,0.000000,0.000000,0.000000
12824970.000000,-2.286724,-1.662633,1.298487,-1.463745,1.698535,1.364996,-0.585367,0.267036,0.013980,1.112438,-0.198534,-0.148229,1.119311,-0.047895,1.367536,37.539715,-22.571915,-2.063417,0.308927,1.721298,-0.142960,0.000000,0.000000,0.000000,0.000000,0.000000,0.000000
12824971.000000,-2.286460,-1.662617,1.299640,-1.463932,1.698379,1.366098,-0.585409,0.265425,0.015516,1.122889,-0.191165,-0.149450,1.107758,-0.049145,1.244550,37.444500,-22.964676,-2.138796,0.320829,1.630660,-0.163102,0.000000,0.000000,0.000000,0.000000,0.000000,0.000000
12824972.000000,-2.286195,-1.662607,1.300796,-1.464126,1.698226,1.367215,-0.585448,0.263536,0.013885,1.130345,-0.190446,-0.150507,1.099267,-0.044815,1.145368,37.468304,-23.286026,-2.138796,0.339139,1.578475,-0.202470,0.000000,0.000000,0.000000,0.000000,0.000000,0.000000
12824973.000000,-2.285939,-1.662595,1.301939,-1.464306,1.698065,1.368302,-0.585498,0.262920,0.013954,1.138981,-0.187184,-0.154423,1.069236,-0.045571,1.145368,37.444500,-23.678787,-2.261781,0.446256,1.662704,-0.136552,0.000000,0.000000,0.000000,0.000000,0.000000,0.000000
12824974.000000,-2.285676,-1.662585,1.303083,-1.464485,1.697917,1.369391,-0.585536,0.261841,0.013428,1.134647,-0.184869,-0.152913,1.073818,-0.041787,1.046186,37.444500,-23.873184,-2.360964,0.440763,1.851302,-0.182328,0.000000,0.000000,0.000000,0.000000,0.000000,0.000000
12824975.000000,-2.285409,-1.662582,1.304201,-1.464652,1.697772,1.370496,-0.585580,0.263944,0.007725,1.130184,-0.181175,-0.151635,1.086280,-0.041075,0.947004,37.539715,-23.896988,-2.535524,0.434354,1.877853,-0.175919,0.000000,0.000000,0.000000,0.000000,0.000000,0.000000
12824976.000000,-2.285155,-1.662576,1.305339,-1.464820,1.697632,1.371575,-0.585621,0.268738,0.007860,1.131640,-0.178141,-0.149915,1.083361,-0.039393,0.923200,37.591290,-23.972366,-2.634706,0.393156,1.909896,-0.196061,0.000000,0.000000,0.000000,0.000000,0.000000,0.000000
12824977.000000,-2.284887,-1.662575,1.306463,-1.464991,1.697490,1.372671,-0.585667,0.264502,0.006356,1.122509,-0.176144,-0.147489,1.085172,-0.040019,0.772443,37.714275,-23.774002,-2.706117,0.320829,1.909896,-0.169511,0.000000,0.000000,0.000000,0.000000,0.000000,0.000000
12824978.000000,-2.284623,-1.662576,1.307575,-1.465163,1.697340,1.373750,-0.585709,0.263712,0.004861,1.117241,-0.172750,-0.147626,1.111649,-0.038887,0.625654,37.861065,-23.555801,-2.606935,0.297025,1.871444,-0.182328,0.000000,0.000000,0.000000,0.000000,0.000000,0.000000
12824979.000000,-2.284370,-1.662579,1.308693,-1.465331,1.697190,1.374842,-0.585746,0.263092,0.000734,1.115119,-0.171961,-0.148763,1.110724,-0.037791,0.502668,38.007854,-23.234451,-2.535524,0.303434,1.903487,-0.202470,0.000000,0.000000,0.000000,0.000000,0.000000,0.000000
12824980.000000,-2.284105,-1.662577,1.309793,-1.465490,1.697040,1.375952,-0.585791,0.262971,0.002740,1.113412,-0.166784,-0.150466,1.100348,-0.039830,0.351911,38.079266,-22.964676,-2.535524,0.339139,1.793624,-0.149369,0.000000,0.000000,0.000000,0.000000,0.000000,0.000000
12824981.000000,-2.283850,-1.662572,1.310926,-1.465638,1.696890,1.377071,-0.585826,0.259721,0.001411,1.112045,-0.160484,-0.150612,1.098467,-0.037865,0.351911,38.130840,-22.917068,-2.634706,0.362943,1.539108,-0.182328,0.000000,0.000000,0.000000,0.000000,0.000000,0.000000
12824982.000000,-2.283602,-1.662572,1.312053,-1.465784,1.696750,1.378191,-0.585870,0.254690,-0.000137,1.111828,-0.151396,-0.149554,1.097301,-0.039343,0.328107,38.202251,-22.770279,-2.781496,0.339139,1.377059,-0.136552,0.000000,0.000000,0.000000,0.000000,0.000000,0.000000
12824983.000000,-2.283357,-1.662568,1.313170,-1.465926,1.696599,1.379310,-0.585906,0.251273,-0.000204,1.114261,-0.145649,-0.147774,1.108887,-0.038326,0.375715,38.226055,-22.841690,-2.904482,0.410551,1.344100,-0.155778,0.000000,0.000000,0.000000,0.000000,0.000000,0.000000
12824984.000000,-2.283109,-1.662570,1.314297,-1.466058,1.696460,1.380393,-0.585943,0.256340,0.002257,1.112872,-0.139109,-0.146816,1.102044,-0.041354,0.328107,38.277630,-22.794083,-3.126650,0.374845,1.526290,-0.196061,0.000000,0.000000,0.000000,0.000000,0.000000,0.000000
12824985.000000,-2.282873,-1.662570,1.315410,-1.466194,1.696317,1.381488,-0.585988,0.248288,0.000913,1.113357,-0.137249,-0.147113,1.098528,-0.047218,0.351911,38.325237,-22.794083,-3.225832,0.362943,1.741439,-0.142960,0.000000,0.000000,0.000000,0.000000,0.000000,0.000000
12824986.000000,-2.282631,-1.662567,1.316533,-1.466323,1.696174,1.382583,-0.586028,0.245545,0.001557,1.113285,-0.135341,-0.147029,1.101448,-0.044909,0.304304,38.301434,-22.865494,-3.348818,0.332731,1.806442,-0.136552,0.000000,0.000000,0.000000,0.000000,0.000000,0.000000
12824987.000000,-2.282388,-1.662562,1.317661,-1.466451,1.696039,1.383705,-0.586062,0.245196,0.003095,1.113785,-0.133484,-0.144470,1.112366,-0.041767,0.252729,38.226055,-22.940872,-3.475771,0.237516,1.741439,-0.169511,0.000000,0.000000,0.000000,0.000000,0.000000,0.000000
12824988.000000,-2.282133,-1.662557,1.318769,-1.466581,1.695895,1.384830,-0.586099,0.248009,0.003954,1.111438,-0.136589,-0.141723,1.114964,-0.040102,0.030561,38.154644,-22.917068,-3.523378,0.243009,1.689254,-0.188737,0.000000,0.000000,0.000000,0.000000,0.000000,0.000000
12824989.000000,-2.281882,-1.662548,1.319880,-1.466713,1.695757,1.385924,-0.586141,0.253424,0.005678,1.110832,-0.131293,-0.140581,1.116704,-0.041948,-0.243182,38.031658,-22.770279,-3.523378,0.273221,1.702071,-0.122819,0.000000,0.000000,0.000000,0.000000,0.000000,0.000000
12824990.000000,-2.281625,-1.662543,1.320996,-1.466850,1.695619,1.387029,-0.586170,0.255074,0.005023,1.106148,-0.130332,-0.139349,1.107462,-0.037791,-0.540728,37.984051,-22.647293,-3.376589,0.303434,1.747848,-0.202470,0.000000,0.000000,0.000000,0.000000,0.000000,0.000000
12824991.000000,-2.281368,-1.662540,1.322091,-1.466970,1.695478,1.388124,-0.586210,0.254323,0.004091,1.102718,-0.125427,-0.139804,1.079112,-0.038652,-0.862078,37.956280,-22.472733,-3.400392,0.369352,1.747848,-0.182328,0.000000,0.000000,0.000000,0.000000,0.000000,0.000000
12824992.000000,-2.281126,-1.662537,1.323223,-1.467084,1.695353,1.389238,-0.586249,0.246499,0.004468,1.108624,-0.119756,-0.140141,1.079800,-0.039620,-1.032672,37.884869,-22.595718,-3.499574,0.308927,1.714889,-0.149369,0.000000,0.000000,0.000000,0.000000,0.000000,0.000000
12824993.000000,-2.280887,-1.662527,1.324339,-1.467189,1.695233,1.390354,-0.586280,0.244755,0.005908,1.107498,-0.116768,-0.129672,1.083269,-0.038334,-1.108050,37.761883,-22.817886,-3.670168,0.219205,1.702071,-0.169511,0.000000,0.000000,0.000000,0.000000,0.000000,0.000000
12824994.000000,-2.280649,-1.662525,1.325485,-1.467296,1.695107,1.391444,-0.586314,0.242359,0.004534,1.114729,-0.112744,-0.130507,1.085006,-0.033415,-1.108050,37.738079,-23.163040,-3.820925,0.219205,1.735030,-0.169511,0.000000,0.000000,0.000000,0.000000,0.000000,0.000000
12824995.000000,-2.280411,-1.662527,1.326636,-1.467410,1.694981,1.392542,-0.586348,0.240000,0.001382,1.126031,-0.111549,-0.133932,1.080485,-0.028770,-1.207232,37.809490,-23.528030,-3.892336,0.171598,1.773483,-0.196061,0.000000,0.000000,0.000000,0.000000,0.000000,0.000000
12824996.000000,-2.280171,-1.662528,1.327771,-1.467518,1.694842,1.393614,-0.586389,0.235985,0.002901,1.130183,-0.108050,-0.135447,1.080942,-0.028549,-1.354022,37.861065,-23.972366,-3.943910,0.219205,1.909896,-0.136552,0.000000,0.000000,0.000000,0.000000,0.000000,0.000000
12824997.000000,-2.279940,-1.662530,1.328915,-1.467624,1.694711,1.394703,-0.586416,0.237975,0.001101,1.126730,-0.105408,-0.140405,1.085484,-0.024561,-1.429400,37.908672,-24.242142,-3.991518,0.249418,2.014266,-0.175919,0.000000,0.000000,0.000000,0.000000,0.000000,0.000000
12824998.000000,-2.279707,-1.662537,1.330044,-1.467731,1.694581,1.395800,-0.586450,0.235710,-0.000819,1.135010,-0.103976,-0.139432,1.087700,-0.028639,-1.480975,37.984051,-24.436539,-4.019289,0.291532,2.001449,-0.155778,0.000000,0.000000,0.000000,0.000000,0.000000,0.000000
12824999.000000,-2.279473,-1.662544,1.331175,-1.467830,1.694451,1.396892,-0.586486,0.235721,-0.003173,1.129491,-0.102231,-0.137392,1.093894,-0.031715,-1.603961,38.103069,-24.436539,-4.066896,0.308927,1.897079,-0.130143,0.000000,0.000000,0.000000,0.000000,0.000000,0.000000
12825000.000000,-2.279241,-1.662551,1.332306,-1.467925,1.694329,1.397991,-0.586512,0.236535,-0.004317,1.123457,-0.100207,-0.134626,1.087856,-0.026571,-1.778521,38.202251,-24.313553,-4.142274,0.273221,1.806442,-0.175919,0.000000,0.000000,0.000000,0.000000,0.000000,0.000000
12825001.000000,-2.279013,-1.662558,1.333407,-1.468028,1.694199,1.399085,-0.586549,0.233015,-0.004553,1.115033,-0.101930,-0.129828,1.079594,-0.031179,-1.802325,38.277630,-24.019974,-4.090700,0.291532,1.871444,-0.136552,0.000000,0.000000,0.000000,0.000000,0.000000,0.000000
12825002.000000,-2.278778,-1.662571,1.334523,-1.468135,1.694077,1.400151,-0.586574,0.235423,-0.006959,1.111748,-0.102745,-0.130110,1.074566,-0.030011,-2.000689,38.448223,-23.825577,-4.043092,0.285123,1.995040,-0.208878,0.000000,0.000000,0.000000,0.000000,0.000000,0.000000
12825003.000000,-2.278555,-1.662579,1.335633,-1.468241,1.693956,1.401242,-0.586611,0.230212,-0.007466,1.105854,-0.103273,-0.124556,1.075242,-0.034284,-2.048296,38.571209,-23.409012,-3.991518,0.255826,2.066451,-0.149369,0.000000,0.000000,0.000000,0.000000,0.000000,0.000000
12825004.000000,-2.278326,-1.662587,1.336740,-1.468343,1.693837,1.402332,-0.586636,0.229294,-0.006611,1.104162,-0.100532,-0.124569,1.074212,-0.029138,-2.199053,38.642620,-23.258255,-3.943910,0.201810,1.988631,-0.182328,0.000000,0.000000,0.000000,0.000000,0.000000,0.000000
12825005.000000,-2.278107,-1.662591,1.337854,-1.468427,1.693718,1.403448,-0.586669,0.225881,-0.005493,1.106093,-0.093631,-0.124978,1.093721,-0.027835,-2.246661,38.690228,-23.111465,-4.090700,0.159696,1.773483,-0.149369,0.000000,0.000000,0.000000,0.000000,0.000000,0.000000
12825006.000000,-2.277893,-1.662598,1.338970,-1.468516,1.693594,1.404567,-0.586692,0.222524,-0.005404,1.107951,-0.093734,-0.126230,1.099783,-0.023534,-2.270464,38.765606,-23.234451,-4.142274,0.147794,1.630660,-0.202470,0.000000,0.000000,0.000000,0.000000,0.000000,0.000000
12825007.000000,-2.277681,-1.662602,1.340091,-1.468604,1.693463,1.405646,-0.586723,0.222062,-0.004700,1.107749,-0.090830,-0.125256,1.103500,-0.027914,-2.298235,38.813213,-23.234451,-4.213686,0.207303,1.637069,-0.182328,0.000000,0.000000,0.000000,0.000000,0.000000,0.000000
12825008.000000,-2.277477,-1.662610,1.341221,-1.468686,1.693335,1.406735,-0.586757,0.218704,-0.005442,1.113329,-0.084072,-0.125450,1.095651,-0.032310,-2.246661,38.912395,-23.286026,-4.340639,0.297025,1.721298,-0.130143,0.000000,0.000000,0.000000,0.000000,0.000000,0.000000
12825009.000000,-2.277267,-1.662621,1.342325,-1.468768,1.693208,1.407811,-0.586779,0.217539,-0.006496,1.108483,-0.081195,-0.124427,1.094688,-0.031065,-2.246661,39.035381,-23.286026,-4.388246,0.362943,1.773483,-0.196061,0.000000,0.000000,0.000000,0.000000,0.000000,0.000000
12825010.000000,-2.277059,-1.662625,1.343455,-1.468842,1.693096,1.408909,-0.586811,0.213969,-0.008034,1.106588,-0.079651,-0.124720,1.085177,-0.034058,-2.270464,39.059185,-23.456619,-4.535036,0.327238,1.786300,-0.163102,0.000000,0.000000,0.000000,0.000000,0.000000,0.000000
12825011.000000,-2.276850,-1.662633,1.344558,-1.468926,1.692982,1.410021,-0.586835,0.212356,-0.007284,1.109707,-0.078507,-0.124112,1.091217,-0.029734,-2.345843,39.130596,-23.456619,-4.562807,0.279630,1.682845,-0.175919,0.000000,0.000000,0.000000,0.000000,0.000000,0.000000
12825012.000000,-2.276641,-1.662638,1.345661,-1.469003,1.692869,1.411108,-0.586867,0.211890,-0.005699,1.102729,-0.078149,-0.119630,1.092340,-0.033130,-2.445025,39.158367,-23.333633,-4.562807,0.249418,1.676437,-0.136552,0.000000,0.000000,0.000000,0.000000,0.000000,0.000000
12825013.000000,-2.276439,-1.662642,1.346772,-1.469084,1.692757,1.412206,-0.586887,0.206845,-0.006993,1.100975,-0.078766,-0.116137,1.089612,-0.027553,-2.492632,39.158367,-23.234451,-4.511232,0.195402,1.670028,-0.188737,0.000000,0.000000,0.000000,0.000000,0.000000,0.000000
12825014.000000,-2.276224,-1.662643,1.347864,-1.469163,1.692648,1.413279,-0.586915,0.206330,-0.004375,1.105241,-0.074697,-0.114388,1.082688,-0.025682,-2.690997,39.130596,-23.063858,-4.388246,0.159696,1.773483,-0.182328,0.000000,0.000000,0.000000,0.000000,0.000000,0.000000
12825015.000000,-2.276024,-1.662643,1.348977,-1.469236,1.692531,1.414375,-0.586947,0.203117,-0.002075,1.098755,-0.075769,-0.115071,1.088451,-0.031183,-2.766375,39.082989,-23.087662,-4.340639,0.178007,1.812850,-0.116410,0.000000,0.000000,0.000000,0.000000,0.000000,0.000000
12825016.000000,-2.275830,-1.662641,1.350081,-1.469305,1.692411,1.415488,-0.586964,0.201033,0.000083,1.099169,-0.074857,-0.114884,1.098889,-0.029973,-2.718768,39.011578,-23.163040,-4.364442,0.195402,1.676437,-0.188737,0.000000,0.000000,0.000000,0.000000,0.000000,0.000000
12825017.000000,-2.275641,-1.662640,1.351223,-1.469370,1.692293,1.416589,-0.586988,0.194201,0.001109,1.113347,-0.073800,-0.119424,1.102092,-0.027277,-2.568011,38.960003,-23.555801,-4.412050,0.219205,1.539108,-0.188737,0.000000,0.000000,0.000000,0.000000,0.000000,0.000000
12825018.000000,-2.275447,-1.662635,1.352365,-1.469430,1.692175,1.417677,-0.587016,0.196342,0.002852,1.118021,-0.068457,-0.119729,1.093638,-0.030972,-2.591815,38.864788,-23.948563,-4.511232,0.267728,1.584884,-0.155778,0.000000,0.000000,0.000000,0.000000,0.000000,0.000000
12825019.000000,-2.275262,-1.662630,1.353500,-1.469498,1.692056,1.418775,-0.587041,0.187443,0.003578,1.121953,-0.065862,-0.120335,1.087193,-0.029376,-2.492632,38.789410,-24.412735,-4.439821,0.339139,1.662704,-0.116410,0.000000,0.000000,0.000000,0.000000,0.000000,0.000000
12825020.000000,-2.275081,-1.662637,1.354639,-1.469555,1.691942,1.419838,-0.587056,0.187462,0.000001,1.124882,-0.063556,-0.119370,1.074548,-0.023850,-2.468829,38.888592,-24.658707,-4.511232,0.369352,1.942855,-0.188737,0.000000,0.000000,0.000000,0.000000,0.000000,0.000000
12825021.000000,-2.274899,-1.662640,1.355757,-1.469619,1.691834,1.420918,-0.587084,0.182547,-0.001161,1.127160,-0.061548,-0.115713,1.076643,-0.024209,-2.397418,38.936199,-24.880875,-4.463624,0.320829,2.169906,-0.149369,0.000000,0.000000,0.000000,0.000000,0.000000,0.000000
12825022.000000,-2.274722,-1.662646,1.356882,-1.469682,1.691727,1.422000,-0.587102,0.182691,-0.001924,1.122728,-0.059264,-0.111610,1.081859,-0.026769,-2.322039,38.983807,-24.952286,-4.439821,0.225614,2.196456,-0.169511,0.000000,0.000000,0.000000,0.000000,0.000000,0.000000
12825023.000000,-2.274543,-1.662647,1.358011,-1.469744,1.691625,1.423108,-0.587122,0.182764,-0.001310,1.117189,-0.058147,-0.108792,1.095877,-0.024805,-2.369647,38.983807,-24.976089,-4.388246,0.129484,2.098495,-0.169511,0.000000,0.000000,0.000000,0.000000,0.000000,0.000000
12825024.000000,-2.274370,-1.662646,1.359115,-1.469806,1.691523,1.424215,-0.587146,0.180786,0.000220,1.115132,-0.061021,-0.102420,1.099002,-0.024060,-2.369647,38.936199,-24.880875,-4.289064,0.052579,2.007858,-0.149369,0.000000,0.000000,0.000000,0.000000,0.000000,0.000000
12825025.000000,-2.274191,-1.662650,1.360227,-1.469873,1.691407,1.425295,-0.587161,0.182153,-0.004169,1.110073,-0.061874,-0.108403,1.098288,-0.016031,-2.397418,38.983807,-24.634903,-4.118471,0.129484,1.995040,-0.202470,0.000000,0.000000,0.000000,0.000000,0.000000,0.000000
12825026.000000,-2.274017,-1.662652,1.361339,-1.469939,1.691280,1.426380,-0.587188,0.178036,-0.003057,1.106899,-0.061448,-0.119079,1.094711,-0.024009,-2.421221,38.983807,-24.313553,-3.991518,0.255826,2.020675,-0.136552,0.000000,0.000000,0.000000,0.000000,0.000000,0.000000
12825027.000000,-2.273848,-1.662659,1.362440,-1.470004,1.691155,1.427451,-0.587202,0.175748,-0.003452,1.103857,-0.065211,-0.120944,1.090557,-0.025564,-2.345843,39.035381,-24.142960,-3.820925,0.356534,2.033492,-0.182328,0.000000,0.000000,0.000000,0.000000,0.000000,0.000000
12825028.000000,-2.273692,-1.662656,1.363556,-1.470058,1.691039,1.428548,-0.587220,0.169689,-0.003847,1.101375,-0.060636,-0.118664,1.089546,-0.023417,-2.199053,38.960003,-24.043777,-3.820925,0.362943,1.962081,-0.196061,0.000000,0.000000,0.000000,0.000000,0.000000,0.000000
12825029.000000,-2.273538,-1.662656,1.364660,-1.470105,1.690932,1.429656,-0.587245,0.165189,-0.005040,1.105643,-0.055114,-0.114031,1.090243,-0.024363,-2.072100,38.912395,-23.996170,-3.920107,0.291532,1.844894,-0.142960,0.000000,0.000000,0.000000,0.000000,0.000000,0.000000
12825030.000000,-2.273393,-1.662656,1.365781,-1.470150,1.690822,1.430752,-0.587256,0.159873,-0.003356,1.108163,-0.051492,-0.112638,1.095751,-0.021413,-1.826129,38.888592,-24.043777,-4.019289,0.273221,1.735030,-0.182328,0.000000,0.000000,0.000000,0.000000,0.000000,0.000000
12825031.000000,-2.273243,-1.662665,1.366907,-1.470198,1.690718,1.431846,-0.587278,0.153121,-0.004878,1.108074,-0.050155,-0.109774,1.092534,-0.022022,-1.726946,38.983807,-24.095352,-4.066896,0.189908,1.760665,-0.149369,0.000000,0.000000,0.000000,0.000000,0.000000,0.000000
12825032.000000,-2.273101,-1.662664,1.368010,-1.470251,1.690612,1.432928,-0.587294,0.149493,-0.002449,1.109388,-0.048375,-0.108653,1.080873,-0.020134,-1.580157,38.936199,-24.142960,-4.019289,0.135892,1.949264,-0.175919,0.000000,0.000000,0.000000,0.000000,0.000000,0.000000
12825033.000000,-2.272958,-1.662671,1.369128,-1.470300,1.690497,1.434009,-0.587316,0.149030,-0.002979,1.107879,-0.050156,-0.111577,1.086825,-0.020856,-1.504779,38.983807,-24.218338,-3.967714,0.178007,1.974899,-0.149369,0.000000,0.000000,0.000000,0.000000,0.000000,0.000000
12825034.000000,-2.272814,-1.662671,1.370227,-1.470347,1.690388,1.435118,-0.587329,0.146082,-0.004023,1.108390,-0.051034,-0.112106,1.096505,-0.014601,-1.453204,38.936199,-24.265945,-3.920107,0.189908,1.865035,-0.175919,0.000000,0.000000,0.000000,0.000000,0.000000,0.000000
12825035.000000,-2.272670,-1.662671,1.371331,-1.470391,1.690276,1.436219,-0.587347,0.146890,-0.001947,1.103037,-0.051268,-0.113602,1.109829,-0.011977,-1.405596,38.888592,-24.166763,-3.892336,0.243009,1.656295,-0.149369,0.000000,0.000000,0.000000,0.000000,0.000000,0.000000
12825036.000000,-2.272529,-1.662665,1.372436,-1.470430,1.690167,1.437311,-0.587359,0.147211,-0.001859,1.104616,-0.047648,-0.114507,1.100588,-0.011966,-1.354022,38.765606,-24.019974,-3.892336,0.273221,1.649886,-0.196061,0.000000,0.000000,0.000000,0.000000,0.000000,0.000000
12825037.000000,-2.272390,-1.662668,1.373521,-1.470476,1.690055,1.438401,-0.587379,0.143911,-0.002272,1.095354,-0.047231,-0.109214,1.084724,-0.014995,-1.306414,38.789410,-23.849380,-3.797121,0.279630,1.786300,-0.163102,0.000000,0.000000,0.000000,0.000000,0.000000,0.000000
12825038.000000,-2.272249,-1.662670,1.374614,-1.470516,1.689937,1.439486,-0.587394,0.143443,-0.001872,1.090067,-0.045304,-0.112141,1.085751,-0.015160,-1.330218,38.789410,-23.651016,-3.769350,0.339139,1.838485,-0.182328,0.000000,0.000000,0.000000,0.000000,0.000000,0.000000
12825039.000000,-2.272117,-1.662673,1.375723,-1.470554,1.689827,1.440589,-0.587408,0.140676,-0.001515,1.095568,-0.043642,-0.112087,1.086172,-0.015346,-1.254840,38.789410,-23.579605,-3.745546,0.339139,1.851302,-0.202470,0.000000,0.000000,0.000000,0.000000,0.000000,0.000000
12825040.000000,-2.271990,-1.662669,1.376830,-1.470597,1.689726,1.441677,-0.587425,0.135051,0.000459,1.095998,-0.041296,-0.104003,1.094231,-0.013565,-1.159625,38.717999,-23.825577,-3.646364,0.249418,1.851302,-0.149369,0.000000,0.000000,0.000000,0.000000,0.000000,0.000000
12825041.000000,-2.271864,-1.662661,1.377962,-1.470632,1.689633,1.442783,-0.587437,0.132206,0.003589,1.100324,-0.040504,-0.098141,1.106216,-0.008340,-1.108050,38.571209,-24.218338,-3.622560,0.154203,1.825668,-0.196061,0.000000,0.000000,0.000000,0.000000,0.000000,0.000000
12825042.000000,-2.271740,-1.662664,1.379079,-1.470674,1.689532,1.443891,-0.587456,0.127632,0.001723,1.109210,-0.042737,-0.097127,1.105605,-0.013460,-1.008868,38.595013,-24.559525,-3.475771,0.147794,1.786300,-0.130143,0.000000,0.000000,0.000000,0.000000,0.000000,0.000000
12825043.000000,-2.271617,-1.662668,1.380204,-1.470705,1.689428,1.444966,-0.587467,0.125909,-0.000050,1.112734,-0.037358,-0.098695,1.100572,-0.013924,-0.961260,38.642620,-24.904678,-3.499574,0.201810,1.858627,-0.149369,0.000000,0.000000,0.000000,0.000000,0.000000,0.000000
12825044.000000,-2.271497,-1.662668,1.381339,-1.470742,1.689323,1.446053,-0.587476,0.124724,-0.000097,1.115938,-0.036248,-0.100549,1.098491,-0.013362,-0.885882,38.642620,-25.222061,-3.400392,0.285123,1.942855,-0.196061,0.000000,0.000000,0.000000,0.000000,0.000000,0.000000
12825045.000000,-2.271383,-1.662671,1.382451,-1.470763,1.689223,1.447111,-0.587495,0.119436,-0.001226,1.115364,-0.028753,-0.103639,1.089943,-0.012578,-0.762896,38.690228,-25.368851,-3.448000,0.291532,2.066451,-0.130143,0.000000,0.000000,0.000000,0.000000,0.000000,0.000000
12825046.000000,-2.271267,-1.662675,1.383562,-1.470793,1.689121,1.448205,-0.587500,0.120147,-0.002059,1.107773,-0.026230,-0.102803,1.084629,-0.012337,-0.711321,38.741802,-25.273636,-3.376589,0.332731,2.020675,-0.175919,0.000000,0.000000,0.000000,0.000000,0.000000,0.000000
12825047.000000,-2.271152,-1.662683,1.384658,-1.470821,1.689020,1.449310,-0.587514,0.118274,-0.004277,1.101960,-0.026305,-0.100747,1.080455,-0.014465,-0.687518,38.864788,-25.174454,-3.348818,0.344633,1.903487,-0.163102,0.000000,0.000000,0.000000,0.000000,0.000000,0.000000
12825048.000000,-2.271038,-1.662690,1.385755,-1.470852,1.688921,1.450385,-0.587520,0.116265,-0.005098,1.099940,-0.029254,-0.102686,1.080009,-0.009389,-0.635943,38.960003,-24.904678,-3.202028,0.339139,1.884261,-0.202470,0.000000,0.000000,0.000000,0.000000,0.000000,0.000000
12825049.000000,-2.270920,-1.662697,1.386861,-1.470881,1.688823,1.451472,-0.587536,0.116568,-0.005177,1.095432,-0.026959,-0.103257,1.078962,-0.013466,-0.663714,39.035381,-24.682510,-3.102846,0.285123,1.858627,-0.155778,0.000000,0.000000,0.000000,0.000000,0.000000,0.000000
12825050.000000,-2.270807,-1.662705,1.387938,-1.470914,1.688719,1.452559,-0.587543,0.115806,-0.005133,1.089710,-0.030034,-0.100647,1.077553,-0.013966,-0.663714,39.106792,-24.265945,-2.928285,0.279630,1.877853,-0.175919,0.000000,0.000000,0.000000,0.000000,0.000000,0.000000
12825051.000000,-2.270704,-1.662710,1.389047,-1.470938,1.688616,1.453640,-0.587550,0.113471,-0.003987,1.087260,-0.029735,-0.100430,1.084575,-0.014173,-0.588336,39.130596,-24.242142,-2.856874,0.315336,1.865035,-0.202470,0.000000,0.000000,0.000000,0.000000,0.000000,0.000000
12825052.000000,-2.270602,-1.662713,1.390127,-1.470954,1.688522,1.454744,-0.587559,0.108376,-0.002665,1.083639,-0.026813,-0.095330,1.090795,-0.015183,-0.489153,39.130596,-24.071548,-2.904482,0.225614,1.721298,-0.208878,0.000000,0.000000,0.000000,0.000000,0.000000,0.000000
12825053.000000,-2.270501,-1.662713,1.391232,-1.470966,1.688420,1.455841,-0.587575,0.105242,-0.000111,1.089236,-0.021220,-0.096805,1.094911,-0.018325,-0.413775,39.059185,-24.019974,-2.979860,0.261320,1.526290,-0.149369,0.000000,0.000000,0.000000,0.000000,0.000000,0.000000
12825054.000000,-2.270407,-1.662711,1.392342,-1.470975,1.688319,1.456943,-0.587582,0.099754,0.002799,1.086409,-0.013546,-0.097749,1.092134,-0.017570,-0.342364,38.936199,-24.019974,-3.079042,0.303434,1.454879,-0.169511,0.000000,0.000000,0.000000,0.000000,0.000000,0.000000
12825055.000000,-2.270317,-1.662717,1.393443,-1.470982,1.688219,1.458042,-0.587587,0.097156,0.001864,1.090128,-0.011650,-0.096711,1.090200,-0.016350,-0.215411,38.936199,-24.166763,-3.154421,0.303434,1.513473,-0.215287,0.000000,0.000000,0.000000,0.000000,0.000000,0.000000
12825056.000000,-2.270221,-1.662720,1.394545,-1.470990,1.688118,1.459113,-0.587602,0.099496,0.002354,1.092322,-0.012030,-0.102410,1.083836,-0.015541,-0.167803,38.888592,-24.119156,-3.154421,0.344633,1.721298,-0.130143,0.000000,0.000000,0.000000,0.000000,0.000000,0.000000
12825057.000000,-2.270128,-1.662728,1.395643,-1.470992,1.688016,1.460206,-0.587606,0.096589,0.001011,1.090244,-0.008079,-0.100653,1.087580,-0.009782,-0.144000,38.912395,-24.043777,-3.202028,0.362943,1.865035,-0.175919,0.000000,0.000000,0.000000,0.000000,0.000000,0.000000
12825058.000000,-2.270031,-1.662730,1.396723,-1.470996,1.687924,1.461297,-0.587619,0.095610,0.002993,1.087669,-0.005708,-0.096366,1.090187,-0.008579,-0.191607,38.813213,-23.996170,-3.225832,0.291532,1.877853,-0.142960,0.000000,0.000000,0.000000,0.000000,0.000000,0.000000
12825059.000000,-2.269935,-1.662731,1.397819,-1.470996,1.687838,1.462407,-0.587626,0.092989,0.000091,1.087554,-0.006515,-0.093228,1.098718,-0.010276,-0.290789,38.765606,-23.972366,-3.277406,0.213712,1.838485,-0.163102,0.000000,0.000000,0.000000,0.000000,0.000000,0.000000
12825060.000000,-2.269836,-1.662729,1.398900,-1.470997,1.687749,1.463523,-0.587631,0.095116,0.002685,1.085341,-0.005759,-0.085696,1.101542,-0.007236,-0.441546,38.642620,-23.920792,-3.249635,0.129484,1.754256,-0.175919,0.000000,0.000000,0.000000,0.000000,0.000000,0.000000
