chaoyuefei/paper-gmrm-data/robot_logs/s2_dq_gmrm_xz_min_0.30_log_20260314_173118.csv
# time_ms,q_0,q_1,q_2,q_3,q_4,q_5,q_6,dq_0,dq_1,dq_2,dq_3,dq_4,dq_5,dq_6,tau_J_0,tau_J_1,tau_J_2,tau_J_3,tau_J_4,tau_J_5,tau_J_6,O_dP_EE_c_0,O_dP_EE_c_1,O_dP_EE_c_2,O_dP_EE_c_3,O_dP_EE_c_4,O_dP_EE_c_5
12140751.000000,-2.415948,-1.662599,1.042301,-1.355821,1.795748,1.080858,-0.548496,-0.000497,0.000566,0.000543,0.000632,0.000151,-0.000783,0.000351,-0.017047,41.530804,-21.024673,-5.749025,0.882963,1.370651,0.015426,0.000000,0.000000,0.000000,0.000000,0.000000,0.000000
12140752.000000,-2.415942,-1.662599,1.042301,-1.355823,1.795752,1.080861,-0.548498,0.000875,0.000377,0.000362,-0.000228,0.000542,0.000224,-0.000478,-0.068621,41.530804,-21.024673,-5.721254,0.871061,1.350509,0.034652,0.000000,0.000000,0.000000,0.000000,0.000000,0.000000
12140753.000000,-2.415942,-1.662597,1.042297,-1.355819,1.795749,1.080859,-0.548494,0.000583,0.000808,-0.000873,0.001054,-0.000080,-0.000360,0.001139,-0.068621,41.507000,-20.977066,-5.772829,0.882963,1.364242,-0.004716,0.000000,0.000000,0.000000,0.000000,0.000000,0.000000
12140754.000000,-2.415943,-1.662600,1.042299,-1.355821,1.795748,1.080861,-0.548499,-0.000168,-0.000575,-0.000025,0.000146,-0.000257,0.000506,-0.001207,-0.044818,41.554607,-21.000870,-5.749025,0.888456,1.344100,0.048385,0.000000,0.000000,0.000000,0.000000,0.000000,0.000000
12140755.000000,-2.415939,-1.662602,1.042297,-1.355822,1.795749,1.080860,-0.548503,0.007413,0.001287,0.005778,0.001595,-0.008909,-0.001121,-0.004478,0.252729,41.483196,-20.977066,-5.673646,0.847257,1.383468,0.021835,0.000000,0.000000,0.000000,0.000000,0.000000,0.000000
12140756.000000,-2.415927,-1.662603,1.042300,-1.355822,1.795752,1.080854,-0.548511,0.017605,-0.003490,0.006448,0.003463,-0.007822,-0.002549,-0.009239,1.244550,41.261028,-20.929459,-5.499086,0.751127,1.559249,-0.064225,0.000000,0.000000,0.000000,0.000000,0.000000,0.000000
12140757.000000,-2.415898,-1.662610,1.042309,-1.355818,1.795749,1.080854,-0.548548,0.021905,-0.004513,0.007457,0.003422,-0.006720,0.000148,-0.018357,2.827497,40.919842,-20.905655,-5.253114,0.637601,1.773483,-0.017533,0.000000,0.000000,0.000000,0.000000,0.000000,0.000000
12140758.000000,-2.415856,-1.662609,1.042332,-1.355827,1.795736,1.080878,-0.548587,0.028295,-0.004472,0.012495,0.000127,-0.004113,0.011771,-0.025464,4.735761,40.380291,-20.929459,-4.856386,0.596403,1.865035,-0.077042,0.000000,0.000000,0.000000,0.000000,0.000000,0.000000
12140759.000000,-2.415795,-1.662606,1.042347,-1.355838,1.795708,1.080926,-0.548642,0.036451,-0.001857,0.015280,-0.006693,-0.013970,0.026713,-0.037080,6.616254,39.840740,-20.782669,-4.511232,0.620206,1.793624,-0.097184,0.000000,0.000000,0.000000,0.000000,0.000000,0.000000
12140760.000000,-2.415706,-1.662606,1.042378,-1.355863,1.795671,1.081009,-0.548730,0.048899,-0.001071,0.019949,-0.012677,-0.021367,0.052291,-0.054207,8.250775,39.328960,-20.731094,-4.118471,0.649503,1.565658,-0.017533,0.000000,0.000000,0.000000,0.000000,0.000000,0.000000
12140761.000000,-2.415610,-1.662609,1.042419,-1.355905,1.795620,1.081105,-0.548820,0.061831,-0.002931,0.027840,-0.023763,-0.035817,0.068684,-0.071119,9.758344,38.912395,-20.731094,-3.697939,0.685209,1.389877,-0.083451,0.000000,0.000000,0.000000,0.000000,0.000000,0.000000
12140762.000000,-2.415488,-1.662603,1.042461,-1.355957,1.795553,1.081216,-0.548945,0.077800,0.000536,0.033846,-0.033412,-0.051845,0.086482,-0.092441,10.920758,38.424419,-20.608109,-3.348818,0.721830,1.318465,-0.050492,0.000000,0.000000,0.000000,0.000000,0.000000,0.000000
12140763.000000,-2.415358,-1.662603,1.042516,-1.356022,1.795476,1.081347,-0.549090,0.091869,-0.000330,0.043575,-0.043764,-0.063033,0.102014,-0.107690,12.035565,38.079266,-20.560501,-3.003664,0.679716,1.305648,-0.031266,0.000000,0.000000,0.000000,0.000000,0.000000,0.000000
12140764.000000,-2.415218,-1.662588,1.042584,-1.356088,1.795378,1.081497,-0.549237,0.109732,0.005720,0.053893,-0.053530,-0.072262,0.120346,-0.120506,12.975812,37.591290,-20.512894,-2.833071,0.589994,1.383468,-0.089860,0.000000,0.000000,0.000000,0.000000,0.000000,0.000000
12140765.000000,-2.415062,-1.662582,1.042663,-1.356177,1.795262,1.081662,-0.549408,0.121780,0.005457,0.062246,-0.066133,-0.084058,0.136380,-0.134270,13.793073,37.297710,-20.485123,-2.583132,0.506681,1.526290,-0.044083,0.000000,0.000000,0.000000,0.000000,0.000000,0.000000
12140766.000000,-2.414895,-1.662564,1.042761,-1.356273,1.795133,1.081858,-0.549577,0.139844,0.009022,0.074462,-0.079058,-0.101605,0.150469,-0.139244,14.487348,36.857342,-20.584305,-2.460146,0.405057,1.624252,-0.116410,0.000000,0.000000,0.000000,0.000000,0.000000,0.000000
12140767.000000,-2.414711,-1.662553,1.042877,-1.356388,1.794977,1.082090,-0.549763,0.154058,0.011261,0.086777,-0.089092,-0.118247,0.174712,-0.148862,15.082440,36.563763,-20.707291,-2.337160,0.381254,1.624252,-0.064225,0.000000,0.000000,0.000000,0.000000,0.000000,0.000000
12140768.000000,-2.414509,-1.662530,1.043004,-1.356523,1.794788,1.082354,-0.549953,0.169495,0.015479,0.099644,-0.104239,-0.137565,0.204485,-0.159028,15.550580,36.171001,-20.854080,-2.162599,0.428861,1.552840,-0.044083,0.000000,0.000000,0.000000,0.000000,0.000000,0.000000
12140769.000000,-2.414288,-1.662508,1.043146,-1.356676,1.794589,1.082649,-0.550136,0.187449,0.018038,0.113561,-0.118838,-0.156072,0.232427,-0.168725,15.848126,35.802044,-21.052444,-1.992006,0.452665,1.454879,-0.110001,0.000000,0.000000,0.000000,0.000000,0.000000,0.000000
12140770.000000,-2.414049,-1.662487,1.043305,-1.356841,1.794357,1.082951,-0.550333,0.203664,0.019322,0.129878,-0.133273,-0.181821,0.255198,-0.171872,16.121870,35.460857,-21.246841,-1.916628,0.547880,1.422836,-0.031266,0.000000,0.000000,0.000000,0.000000,0.000000,0.000000
12140771.000000,-2.413798,-1.662470,1.043461,-1.357023,1.794102,1.083289,-0.550520,0.220020,0.018679,0.135118,-0.153056,-0.204575,0.283956,-0.175559,16.320234,35.191082,-21.270645,-1.841249,0.571683,1.442062,-0.037675,0.000000,0.000000,0.000000,0.000000,0.000000,0.000000
12140772.000000,-2.413532,-1.662459,1.043632,-1.357217,1.793834,1.083640,-0.550695,0.234661,0.014945,0.147642,-0.163089,-0.229160,0.300980,-0.175881,16.518599,35.068096,-21.270645,-1.892824,0.584501,1.481429,-0.116410,0.000000,0.000000,0.000000,0.000000,0.000000,0.000000
12140773.000000,-2.413241,-1.662446,1.043817,-1.357426,1.793547,1.084010,-0.550891,0.250644,0.015695,0.158164,-0.173955,-0.243830,0.321646,-0.181069,16.590010,34.945110,-21.294449,-1.940431,0.584501,1.552840,-0.056901,0.000000,0.000000,0.000000,0.000000,0.000000,0.000000
12140774.000000,-2.412938,-1.662435,1.044008,-1.357650,1.793262,1.084405,-0.551066,0.269439,0.012736,0.167649,-0.191121,-0.261530,0.341565,-0.180875,16.617781,34.849895,-21.246841,-1.892824,0.470060,1.656295,-0.110001,0.000000,0.000000,0.000000,0.000000,0.000000,0.000000
12140775.000000,-2.412615,-1.662430,1.044215,-1.357899,1.792949,1.084820,-0.551255,0.286764,0.011703,0.177967,-0.206826,-0.281541,0.362312,-0.183206,16.617781,34.849895,-21.199234,-1.817445,0.356534,1.735030,-0.103593,0.000000,0.000000,0.000000,0.000000,0.000000,0.000000
12140776.000000,-2.412273,-1.662433,1.044421,-1.358164,1.792612,1.085268,-0.551447,0.303245,0.006422,0.188110,-0.226998,-0.294448,0.385578,-0.181210,16.566206,34.921307,-21.100052,-1.694460,0.344633,1.708480,-0.064225,0.000000,0.000000,0.000000,0.000000,0.000000,0.000000
12140777.000000,-2.411922,-1.662431,1.044642,-1.358446,1.792272,1.085733,-0.551620,0.320570,0.005056,0.198291,-0.242779,-0.305103,0.420279,-0.176996,16.542402,34.897503,-21.000870,-1.519899,0.315336,1.676437,-0.103593,0.000000,0.000000,0.000000,0.000000,0.000000,0.000000
12140778.000000,-2.411553,-1.662427,1.044875,-1.358748,1.791900,1.086234,-0.551800,0.331910,0.004091,0.212034,-0.261561,-0.324129,0.444139,-0.173904,16.490828,34.873699,-20.929459,-1.420717,0.362943,1.597701,-0.110001,0.000000,0.000000,0.000000,0.000000,0.000000,0.000000
12140779.000000,-2.411185,-1.662426,1.045113,-1.359052,1.791510,1.086757,-0.551989,0.335856,0.003407,0.220752,-0.275133,-0.352071,0.471713,-0.177506,16.617781,34.849895,-20.854080,-1.373109,0.416959,1.532699,-0.070634,0.000000,0.000000,0.000000,0.000000,0.000000,0.000000
12140780.000000,-2.410801,-1.662426,1.045369,-1.359362,1.791114,1.087300,-0.552166,0.349164,0.001806,0.232557,-0.285696,-0.364463,0.492444,-0.178175,16.764570,34.873699,-20.754898,-1.448488,0.464567,1.474105,-0.122819,0.000000,0.000000,0.000000,0.000000,0.000000,0.000000
12140781.000000,-2.410402,-1.662426,1.045628,-1.359695,1.790692,1.087862,-0.552349,0.363139,0.001273,0.245092,-0.300428,-0.389401,0.509391,-0.181201,16.939131,34.873699,-20.659683,-1.519899,0.530485,1.474105,-0.116410,0.000000,0.000000,0.000000,0.000000,0.000000,0.000000
12140782.000000,-2.410002,-1.662426,1.045902,-1.360041,1.790273,1.088448,-0.552529,0.374225,0.000900,0.251877,-0.313616,-0.397781,0.531449,-0.184618,17.161299,34.873699,-20.584305,-1.496095,0.470060,1.513473,-0.136552,0.000000,0.000000,0.000000,0.000000,0.000000,0.000000
12140783.000000,-2.409581,-1.662422,1.046190,-1.360413,1.789831,1.089038,-0.552711,0.385115,0.001753,0.258768,-0.326797,-0.410806,0.543884,-0.181167,17.383467,34.826092,-20.584305,-1.420717,0.470060,1.507064,-0.110001,0.000000,0.000000,0.000000,0.000000,0.000000,0.000000
12140784.000000,-2.409146,-1.662423,1.046476,-1.360788,1.789372,1.089660,-0.552888,0.402364,0.000084,0.267751,-0.339465,-0.430489,0.562876,-0.178862,17.482649,34.873699,-20.485123,-1.273927,0.398649,1.500655,-0.089860,0.000000,0.000000,0.000000,0.000000,0.000000,0.000000
12140785.000000,-2.408700,-1.662421,1.046776,-1.361195,1.788906,1.090296,-0.553056,0.416715,0.000635,0.278101,-0.358549,-0.439437,0.590825,-0.179318,17.756392,34.849895,-20.437515,-0.976381,0.369352,1.409103,-0.110001,0.000000,0.000000,0.000000,0.000000,0.000000,0.000000
12140786.000000,-2.408235,-1.662413,1.047085,-1.361609,1.788423,1.090960,-0.553229,0.434181,0.005368,0.283357,-0.373264,-0.453807,0.604097,-0.171492,17.978559,34.774517,-20.389908,-0.754213,0.374845,1.344100,-0.103593,0.000000,0.000000,0.000000,0.000000,0.000000,0.000000
12140787.000000,-2.407763,-1.662405,1.047403,-1.362035,1.787928,1.091635,-0.553404,0.447102,0.008701,0.293684,-0.387817,-0.463953,0.629010,-0.170043,18.248335,34.703106,-20.338333,-0.532045,0.398649,1.292831,-0.077042,0.000000,0.000000,0.000000,0.000000,0.000000,0.000000
12140788.000000,-2.407276,-1.662397,1.047732,-1.362471,1.787417,1.092321,-0.553564,0.451080,0.010664,0.302590,-0.400248,-0.475171,0.645160,-0.167701,18.276106,34.651531,-20.215347,-0.456667,0.518583,1.292831,-0.130143,0.000000,0.000000,0.000000,0.000000,0.000000,0.000000
12140789.000000,-2.406792,-1.662385,1.048067,-1.362926,1.786890,1.093035,-0.553731,0.447913,0.012005,0.314315,-0.430262,-0.490423,0.670247,-0.167401,17.681013,34.603924,-20.020950,-0.508241,0.637601,1.299239,-0.136552,0.000000,0.000000,0.000000,0.000000,0.000000,0.000000
12140790.000000,-2.406313,-1.662373,1.048435,-1.363399,1.786366,1.093752,-0.553908,0.451806,0.011051,0.335647,-0.444164,-0.504170,0.684226,-0.172365,16.391645,34.504742,-19.727371,-0.805788,0.769437,1.364242,-0.077042,0.000000,0.000000,0.000000,0.000000,0.000000,0.000000
12140791.000000,-2.405837,-1.662357,1.048813,-1.363891,1.785837,1.094504,-0.554060,0.457505,0.007716,0.352473,-0.453704,-0.511583,0.703162,-0.168645,14.634137,34.238934,-19.136246,-1.273927,0.859159,1.422836,-0.142960,0.000000,0.000000,0.000000,0.000000,0.000000,0.000000
12140792.000000,-2.405373,-1.662341,1.049240,-1.364385,1.785326,1.095275,-0.554221,0.466656,0.011030,0.375084,-0.465482,-0.522808,0.725381,-0.164969,12.706037,33.846172,-18.672073,-1.742067,0.769437,1.448470,-0.122819,0.000000,0.000000,0.000000,0.000000,0.000000,0.000000
12140793.000000,-2.404921,-1.662331,1.049679,-1.364882,1.784830,1.096045,-0.554383,0.464980,0.014114,0.390052,-0.468671,-0.512218,0.735319,-0.165373,10.920758,33.405804,-18.005569,-2.285585,0.596403,1.383468,-0.142960,0.000000,0.000000,0.000000,0.000000,0.000000,0.000000
12140794.000000,-2.404460,-1.662326,1.050137,-1.365402,1.784326,1.096832,-0.554545,0.466226,0.011819,0.408962,-0.475742,-0.500274,0.743501,-0.160652,9.091840,33.013042,-17.343033,-2.583132,0.356534,1.253463,-0.155778,0.000000,0.000000,0.000000,0.000000,0.000000,0.000000
12140795.000000,-2.404016,-1.662324,1.050640,-1.365904,1.783842,1.097609,-0.554717,0.461274,0.008719,0.438008,-0.484103,-0.487190,0.755492,-0.160849,7.631879,32.671856,-16.950272,-2.856874,0.166105,1.123458,-0.077042,0.000000,0.000000,0.000000,0.000000,0.000000,0.000000
12140796.000000,-2.403567,-1.662327,1.051128,-1.366402,1.783349,1.098402,-0.554878,0.458468,0.007757,0.446968,-0.482888,-0.487831,0.763949,-0.155812,6.342512,32.402081,-16.216324,-3.154421,0.034269,0.954086,-0.130143,0.000000,0.000000,0.000000,0.000000,0.000000,0.000000
12140797.000000,-2.403120,-1.662331,1.051626,-1.366890,1.782858,1.099190,-0.555047,0.465445,-0.000749,0.461037,-0.479961,-0.492229,0.769110,-0.160156,5.227705,32.203716,-15.652969,-3.424196,-0.025240,0.817672,-0.083451,0.000000,0.000000,0.000000,0.000000,0.000000,0.000000
12140798.000000,-2.402671,-1.662341,1.052132,-1.367369,1.782375,1.099944,-0.555211,0.462163,-0.000786,0.472946,-0.479094,-0.495634,0.768670,-0.156843,4.287458,32.009319,-15.061844,-3.745546,0.058073,0.843307,-0.103593,0.000000,0.000000,0.000000,0.000000,0.000000,0.000000
12140799.000000,-2.402220,-1.662353,1.052625,-1.367840,1.781874,1.100709,-0.555368,0.458852,-0.002428,0.476659,-0.475361,-0.493018,0.760309,-0.154133,3.470197,31.886333,-14.474686,-4.090700,0.243009,0.915633,-0.136552,0.000000,0.000000,0.000000,0.000000,0.000000,0.000000
12140800.000000,-2.401774,-1.662364,1.053133,-1.368305,1.781397,1.101472,-0.555531,0.458266,-0.006607,0.483727,-0.475201,-0.485119,0.762223,-0.154694,2.779890,31.763348,-13.958939,-4.340639,0.308927,0.966903,-0.103593,0.000000,0.000000,0.000000,0.000000,0.000000,0.000000
12140801.000000,-2.401312,-1.662369,1.053631,-1.368775,1.780914,1.102228,-0.555690,0.461111,-0.007746,0.487407,-0.469435,-0.489079,0.759654,-0.152380,2.061811,31.568951,-13.367813,-4.364442,0.398649,0.954086,-0.130143,0.000000,0.000000,0.000000,0.000000,0.000000,0.000000
12140802.000000,-2.400849,-1.662374,1.054135,-1.369255,1.780435,1.102992,-0.555848,0.466193,-0.006001,0.492576,-0.474366,-0.480698,0.757120,-0.150732,1.367536,31.398357,-12.998856,-4.142274,0.386747,0.947677,-0.142960,0.000000,0.000000,0.000000,0.000000,0.000000,0.000000
12140803.000000,-2.400377,-1.662377,1.054648,-1.369743,1.779983,1.103738,-0.556009,0.470308,-0.006580,0.494061,-0.480700,-0.469250,0.753021,-0.157524,0.673261,31.176189,-12.606094,-3.797121,0.279630,0.922042,-0.089860,0.000000,0.000000,0.000000,0.000000,0.000000,0.000000
12140804.000000,-2.399902,-1.662379,1.055154,-1.370240,1.779519,1.104497,-0.556165,0.472451,-0.004002,0.502090,-0.482716,-0.467552,0.752448,-0.158386,0.105939,30.957989,-12.213333,-3.376589,0.189908,0.895492,-0.130143,0.000000,0.000000,0.000000,0.000000,0.000000,0.000000
12140805.000000,-2.399427,-1.662372,1.055677,-1.370711,1.779071,1.105265,-0.556321,0.473127,0.002686,0.506421,-0.483409,-0.459402,0.758369,-0.156665,-0.465350,30.664410,-11.995132,-3.102846,0.064481,0.882674,-0.130143,0.000000,0.000000,0.000000,0.000000,0.000000,0.000000
12140808.000000,-2.398029,-1.662329,1.057282,-1.372073,1.777709,1.107507,-0.556785,0.466611,0.011844,0.525042,-0.466876,-0.454114,0.759315,-0.153371,-1.381793,29.585308,-11.431778,-3.249635,0.081876,1.077682,-0.103593,0.000000,0.000000,0.000000,0.000000,0.000000,0.000000
12140809.000000,-2.397554,-1.662308,1.057825,-1.372525,1.777250,1.108273,-0.556932,0.467162,0.016098,0.544368,-0.460190,-0.458091,0.752026,-0.149296,-1.627764,29.196514,-11.233414,-3.348818,0.231107,1.077682,-0.188737,0.000000,0.000000,0.000000,0.000000,0.000000,0.000000
12140810.000000,-2.397086,-1.662290,1.058393,-1.372962,1.776800,1.109036,-0.557096,0.470290,0.018136,0.553376,-0.452104,-0.465910,0.754058,-0.151917,-1.901507,28.851360,-11.185806,-3.499574,0.308927,1.052047,-0.110001,0.000000,0.000000,0.000000,0.000000,0.000000,0.000000
12140811.000000,-2.396602,-1.662269,1.058955,-1.373412,1.776355,1.109790,-0.557248,0.474473,0.020127,0.555578,-0.446765,-0.458252,0.752505,-0.150985,-2.270464,28.486370,-10.987442,-3.570986,0.339139,0.980636,-0.122819,0.000000,0.000000,0.000000,0.000000,0.000000,0.000000
12140812.000000,-2.396104,-1.662253,1.059534,-1.373858,1.775906,1.110567,-0.557399,0.484553,0.018795,0.565406,-0.446278,-0.451791,0.756869,-0.148679,-2.690997,28.240398,-10.963638,-3.547182,0.327238,0.824081,-0.169511,0.000000,0.000000,0.000000,0.000000,0.000000,0.000000
12140813.000000,-2.395619,-1.662243,1.060127,-1.374297,1.775482,1.111311,-0.557563,0.484233,0.015124,0.571818,-0.442386,-0.446056,0.761650,-0.152324,-3.040118,28.117413,-10.963638,-3.523378,0.171598,0.804855,-0.089860,0.000000,0.000000,0.000000,0.000000,0.000000,0.000000
12140814.000000,-2.395120,-1.662240,1.060715,-1.374738,1.775056,1.112066,-0.557709,0.486525,0.012587,0.577523,-0.445045,-0.438903,0.756220,-0.148479,-3.409075,28.141216,-10.816849,-3.475771,0.069974,0.836898,-0.155778,0.000000,0.000000,0.000000,0.000000,0.000000,0.000000
12140815.000000,-2.394638,-1.662236,1.061312,-1.375173,1.774627,1.112815,-0.557862,0.476899,0.011683,0.582820,-0.444478,-0.440697,0.746568,-0.153272,-3.631243,28.141216,-10.741470,-3.424196,-0.085665,0.922042,-0.136552,0.000000,0.000000,0.000000,0.000000,0.000000,0.000000
12140816.000000,-2.394136,-1.662231,1.061920,-1.375600,1.774197,1.113547,-0.558014,0.484833,0.011313,0.584620,-0.438497,-0.433746,0.735626,-0.153798,-3.980364,28.141216,-10.618484,-3.499574,-0.121371,1.031905,-0.103593,0.000000,0.000000,0.000000,0.000000,0.000000,0.000000
12140817.000000,-2.393635,-1.662225,1.062537,-1.376028,1.773770,1.114296,-0.558158,0.491996,0.008626,0.595559,-0.430628,-0.430104,0.736299,-0.149940,-4.325518,28.117413,-10.570877,-3.570986,-0.103060,1.104232,-0.175919,0.000000,0.000000,0.000000,0.000000,0.000000,0.000000
12140818.000000,-2.393132,-1.662219,1.063173,-1.376445,1.773328,1.115049,-0.558319,0.494639,0.007816,0.607194,-0.426427,-0.429328,0.745483,-0.153058,-4.746050,28.046001,-10.547073,-3.721742,-0.025240,1.136276,-0.103593,0.000000,0.000000,0.000000,0.000000,0.000000,0.000000
12140819.000000,-2.392618,-1.662223,1.063817,-1.376871,1.772880,1.115784,-0.558469,0.500450,0.003837,0.614237,-0.420906,-0.431985,0.741441,-0.156266,-5.194354,28.117413,-10.594681,-3.820925,0.147794,1.169235,-0.103593,0.000000,0.000000,0.000000,0.000000,0.000000,0.000000
12140820.000000,-2.392122,-1.662230,1.064472,-1.377291,1.772443,1.116538,-0.558616,0.495655,0.000460,0.630348,-0.422390,-0.436185,0.741398,-0.147058,-5.515704,28.216595,-10.693863,-3.868532,0.237516,1.110641,-0.182328,0.000000,0.000000,0.000000,0.000000,0.000000,0.000000
12140821.000000,-2.391610,-1.662233,1.065136,-1.377721,1.772011,1.117274,-0.558771,0.500738,-0.000640,0.637341,-0.421275,-0.435139,0.740343,-0.148613,-5.884661,28.264202,-10.793045,-3.844728,0.255826,1.104232,-0.149369,0.000000,0.000000,0.000000,0.000000,0.000000,0.000000
12140822.000000,-2.391102,-1.662244,1.065809,-1.378144,1.771578,1.118021,-0.558921,0.501994,-0.003178,0.651420,-0.420813,-0.434331,0.741217,-0.143898,-6.134600,28.387188,-10.939835,-3.920107,0.249418,1.129867,-0.142960,0.000000,0.000000,0.000000,0.000000,0.000000,0.000000
12140823.000000,-2.390603,-1.662257,1.066496,-1.378550,1.771164,1.118776,-0.559066,0.500010,-0.006016,0.661880,-0.412508,-0.429823,0.745905,-0.148403,-6.332964,28.557781,-10.939835,-4.090700,0.135892,1.096908,-0.142960,0.000000,0.000000,0.000000,0.000000,0.000000,0.000000
12140824.000000,-2.390102,-1.662271,1.067192,-1.378961,1.770741,1.119520,-0.559214,0.501050,-0.008487,0.672570,-0.410418,-0.423951,0.744651,-0.148742,-6.503558,28.752178,-10.939835,-4.189882,0.076383,1.058456,-0.142960,0.000000,0.000000,0.000000,0.000000,0.000000,0.000000
12140825.000000,-2.389598,-1.662279,1.067885,-1.379368,1.770324,1.120267,-0.559363,0.499357,-0.014708,0.681354,-0.414952,-0.420138,0.737981,-0.148945,-6.678118,28.875164,-10.840652,-4.241457,0.015958,1.123458,-0.136552,0.000000,0.000000,0.000000,0.000000,0.000000,0.000000
12140826.000000,-2.389098,-1.662295,1.068597,-1.379782,1.769917,1.120994,-0.559514,0.501151,-0.014925,0.687727,-0.410764,-0.416993,0.745533,-0.152584,-6.852679,29.073528,-10.793045,-4.289064,-0.043551,1.188461,-0.116410,0.000000,0.000000,0.000000,0.000000,0.000000,0.000000
12140827.000000,-2.388586,-1.662307,1.069302,-1.380201,1.769488,1.121751,-0.559660,0.504530,-0.013186,0.707285,-0.410681,-0.419490,0.743164,-0.151998,-7.150225,29.196514,-10.547073,-4.189882,0.046171,1.123458,-0.110001,0.000000,0.000000,0.000000,0.000000,0.000000,0.000000
12140828.000000,-2.388087,-1.662318,1.070012,-1.380602,1.769070,1.122510,-0.559807,0.504981,-0.011844,0.707192,-0.406357,-0.425298,0.748294,-0.153635,-7.320818,29.315533,-10.253494,-4.289064,0.135892,1.025497,-0.142960,0.000000,0.000000,0.000000,0.000000,0.000000,0.000000
12140829.000000,-2.387569,-1.662328,1.070733,-1.381016,1.768649,1.123244,-0.559954,0.507804,-0.010419,0.706787,-0.406206,-0.423825,0.736404,-0.153330,-7.618365,29.414715,-9.860733,-4.241457,0.171598,0.980636,-0.136552,0.000000,0.000000,0.000000,0.000000,0.000000,0.000000
12140830.000000,-2.387060,-1.662332,1.071463,-1.381427,1.768225,1.123988,-0.560098,0.505342,-0.007097,0.715860,-0.403686,-0.421103,0.733829,-0.151090,-7.840533,29.414715,-9.662369,-4.312868,0.178007,0.987045,-0.169511,0.000000,0.000000,0.000000,0.000000,0.000000,0.000000
12140831.000000,-2.386556,-1.662333,1.072202,-1.381821,1.767815,1.124740,-0.560237,0.507037,-0.004288,0.721843,-0.397368,-0.418141,0.740092,-0.145112,-8.062701,29.390911,-9.344986,-4.439821,0.147794,0.974227,-0.169511,0.000000,0.000000,0.000000,0.000000,0.000000,0.000000
12140832.000000,-2.386054,-1.662340,1.072951,-1.382225,1.767400,1.125484,-0.560385,0.503774,-0.004058,0.727050,-0.396471,-0.420045,0.737933,-0.147742,-8.161883,29.438519,-9.023636,-4.487428,0.112089,0.954086,-0.116410,0.000000,0.000000,0.000000,0.000000,0.000000,0.000000
12140833.000000,-2.385556,-1.662338,1.073710,-1.382617,1.766986,1.126225,-0.560523,0.500590,-0.003711,0.740710,-0.393203,-0.418036,0.742387,-0.144966,-8.288836,29.343304,-8.952225,-4.562807,0.081876,1.031905,-0.188737,0.000000,0.000000,0.000000,0.000000,0.000000,0.000000
12140834.000000,-2.385054,-1.662332,1.074482,-1.383013,1.766600,1.126965,-0.560671,0.501017,-0.002412,0.750081,-0.393706,-0.407420,0.739525,-0.149438,-8.411822,29.196514,-8.829239,-4.661989,-0.055453,1.077682,-0.103593,0.000000,0.000000,0.000000,0.000000,0.000000,0.000000
12140835.000000,-2.384555,-1.662323,1.075264,-1.383401,1.766193,1.127741,-0.560811,0.497213,0.001987,0.765832,-0.387032,-0.408522,0.740215,-0.144203,-8.511004,29.021954,-8.853043,-4.784975,-0.067355,0.954086,-0.116410,0.000000,0.000000,0.000000,0.000000,0.000000,0.000000
12140836.000000,-2.384070,-1.662314,1.076062,-1.383786,1.765791,1.128513,-0.560949,0.492149,0.004391,0.775338,-0.389690,-0.406119,0.755524,-0.146131,-8.459430,28.875164,-8.805435,-4.856386,-0.060946,0.785628,-0.110001,0.000000,0.000000,0.000000,0.000000,0.000000,0.000000
12140837.000000,-2.383583,-1.662303,1.076880,-1.384164,1.765394,1.129270,-0.561087,0.491887,0.007200,0.791956,-0.381841,-0.398362,0.755841,-0.145550,-8.435626,28.680767,-8.876846,-5.030946,-0.085665,0.746261,-0.142960,0.000000,0.000000,0.000000,0.000000,0.000000,0.000000
12140838.000000,-2.383098,-1.662291,1.077704,-1.384542,1.764993,1.130016,-0.561230,0.495878,0.008027,0.805831,-0.383788,-0.393523,0.749280,-0.142216,-8.411822,28.533978,-9.023636,-5.106325,-0.055453,0.863448,-0.142960,0.000000,0.000000,0.000000,0.000000,0.000000,0.000000
12140839.000000,-2.382607,-1.662283,1.078532,-1.384926,1.764595,1.130740,-0.561369,0.493656,0.009760,0.812102,-0.381360,-0.391750,0.739863,-0.139294,-8.336444,28.605389,-9.245804,-5.153932,0.004056,1.019088,-0.155778,0.000000,0.000000,0.000000,0.000000,0.000000,0.000000
12140840.000000,-2.382124,-1.662272,1.079347,-1.385301,1.764208,1.131502,-0.561506,0.488954,0.015734,0.808948,-0.380106,-0.387243,0.740126,-0.137315,-8.090472,28.898968,-9.737747,-5.304689,0.010465,1.045638,-0.149369,0.000000,0.000000,0.000000,0.000000,0.000000,0.000000
12140841.000000,-2.381652,-1.662264,1.080153,-1.385670,1.763834,1.132274,-0.561644,0.486491,0.010695,0.805283,-0.376452,-0.380185,0.752995,-0.144227,-7.642169,29.490093,-10.447891,-5.451478,-0.055453,1.052047,-0.142960,0.000000,0.000000,0.000000,0.000000,0.000000,0.000000
12140842.000000,-2.381159,-1.662256,1.080966,-1.386057,1.763451,1.133026,-0.561790,0.490277,0.010598,0.804747,-0.378737,-0.375060,0.752020,-0.142364,-7.273211,30.247845,-11.455582,-5.352296,-0.055453,1.090499,-0.110001,0.000000,0.000000,0.000000,0.000000,0.000000,0.000000
12140843.000000,-2.380669,-1.662237,1.081749,-1.386450,1.763072,1.133792,-0.561930,0.484745,0.010884,0.796224,-0.391786,-0.371260,0.751740,-0.142231,-6.801104,31.029400,-12.411697,-5.229311,-0.007845,1.182052,-0.169511,0.000000,0.000000,0.000000,0.000000,0.000000,0.000000
12140844.000000,-2.380189,-1.662222,1.082535,-1.386848,1.762697,1.134542,-0.562076,0.481992,0.010527,0.789119,-0.395677,-0.371807,0.768066,-0.140699,-6.305193,31.862530,-13.320206,-4.907960,0.093778,1.305648,-0.130143,0.000000,0.000000,0.000000,0.000000,0.000000,0.000000
12140845.000000,-2.379696,-1.662197,1.083318,-1.387240,1.762308,1.135304,-0.562220,0.480902,0.014288,0.794956,-0.389887,-0.379145,0.759071,-0.142917,-5.912432,32.548870,-14.177139,-4.757204,0.166105,1.396285,-0.122819,0.000000,0.000000,0.000000,0.000000,0.000000,0.000000
12140846.000000,-2.379211,-1.662167,1.084095,-1.387633,1.761915,1.136065,-0.562361,0.472570,0.017112,0.795796,-0.391544,-0.392362,0.755588,-0.140918,-5.515704,33.112225,-14.962662,-4.511232,0.231107,1.474105,-0.169511,0.000000,0.000000,0.000000,0.000000,0.000000,0.000000
12140847.000000,-2.378726,-1.662136,1.084886,-1.388030,1.761539,1.136817,-0.562503,0.475141,0.020812,0.792907,-0.389009,-0.383607,0.755504,-0.138396,-5.166583,33.600201,-15.676773,-4.412050,0.249418,1.494247,-0.169511,0.000000,0.000000,0.000000,0.000000,0.000000,0.000000
12140848.000000,-2.378238,-1.662108,1.085675,-1.388422,1.761139,1.137584,-0.562644,0.474782,0.023730,0.800276,-0.383539,-0.388110,0.752994,-0.137355,-4.869036,34.064373,-16.315506,-4.340639,0.332731,1.487838,-0.155778,0.000000,0.000000,0.000000,0.000000,0.000000,0.000000
12140849.000000,-2.377764,-1.662078,1.086485,-1.388815,1.760751,1.138333,-0.562786,0.473487,0.028185,0.801828,-0.385320,-0.390468,0.760537,-0.141125,-4.500079,34.433331,-16.926468,-4.289064,0.356534,1.591293,-0.103593,0.000000,0.000000,0.000000,0.000000,0.000000,0.000000
12140850.000000,-2.377289,-1.662057,1.087305,-1.389209,1.760356,1.139066,-0.562913,0.474155,0.028709,0.805128,-0.384750,-0.387941,0.748171,-0.138820,-4.226336,34.897503,-17.466019,-4.289064,0.393156,1.735030,-0.202470,0.000000,0.000000,0.000000,0.000000,0.000000,0.000000
12140851.000000,-2.376817,-1.662040,1.088125,-1.389595,1.759956,1.139814,-0.563054,0.475108,0.024443,0.809216,-0.386063,-0.390954,0.742667,-0.136382,-3.980364,35.290264,-18.057144,-4.388246,0.434354,1.793624,-0.208878,0.000000,0.000000,0.000000,0.000000,0.000000,0.000000
12140852.000000,-2.376335,-1.662031,1.088965,-1.389980,1.759572,1.140556,-0.563204,0.476446,0.022105,0.816530,-0.383366,-0.389571,0.744543,-0.143114,-3.857378,35.778240,-18.672073,-4.535036,0.374845,1.714889,-0.122819,0.000000,0.000000,0.000000,0.000000,0.000000,0.000000
12140853.000000,-2.375864,-1.662026,1.089801,-1.390363,1.759188,1.141319,-0.563334,0.471228,0.014854,0.821809,-0.379772,-0.383415,0.743900,-0.142691,-3.659014,36.242413,-19.183853,-4.757204,0.327238,1.597701,-0.175919,0.000000,0.000000,0.000000,0.000000,0.000000,0.000000
12140854.000000,-2.375391,-1.662034,1.090651,-1.390739,1.758805,1.142071,-0.563475,0.470012,0.010061,0.829640,-0.374788,-0.389941,0.747282,-0.146999,-3.559832,36.805767,-19.699600,-4.955568,0.285123,1.565658,-0.116410,0.000000,0.000000,0.000000,0.000000,0.000000,0.000000
12140855.000000,-2.374924,-1.662053,1.091506,-1.391109,1.758409,1.142791,-0.563612,0.466816,0.001698,0.832806,-0.370612,-0.388276,0.731996,-0.142065,-3.361468,37.444500,-20.092361,-5.276918,0.320829,1.617843,-0.130143,0.000000,0.000000,0.000000,0.000000,0.000000,0.000000
12140856.000000,-2.374454,-1.662084,1.092337,-1.391475,1.758015,1.143515,-0.563743,0.467933,-0.005139,0.834624,-0.372891,-0.387691,0.726180,-0.137327,-3.309893,38.130840,-20.290726,-5.475282,0.386747,1.760665,-0.169511,0.000000,0.000000,0.000000,0.000000,0.000000,0.000000
12140857.000000,-2.373984,-1.662115,1.093184,-1.391840,1.757633,1.144226,-0.563879,0.471689,-0.012064,0.833176,-0.373166,-0.391127,0.719948,-0.137955,-3.262286,38.765606,-20.461319,-5.697450,0.428861,1.897079,-0.122819,0.000000,0.000000,0.000000,0.000000,0.000000,0.000000
12140858.000000,-2.373505,-1.662147,1.094011,-1.392197,1.757235,1.144963,-0.564000,0.473965,-0.018684,0.832794,-0.368155,-0.388606,0.716603,-0.132683,-3.309893,39.328960,-20.536697,-5.994997,0.488370,1.903487,-0.208878,0.000000,0.000000,0.000000,0.000000,0.000000,0.000000
12140859.000000,-2.373033,-1.662187,1.094849,-1.392542,1.756852,1.145708,-0.564134,0.475797,-0.023731,0.831871,-0.365355,-0.394092,0.729501,-0.136612,-3.385272,39.892315,-20.560501,-6.268739,0.518583,1.812850,-0.196061,0.000000,0.000000,0.000000,0.000000,0.000000,0.000000
12140860.000000,-2.372545,-1.662227,1.095688,-1.392897,1.756472,1.146440,-0.564275,0.478851,-0.032694,0.833062,-0.358874,-0.393317,0.731702,-0.137924,-3.682818,40.404095,-20.560501,-6.439332,0.500272,1.800033,-0.130143,0.000000,0.000000,0.000000,0.000000,0.000000,0.000000
12140861.000000,-2.372060,-1.662269,1.096513,-1.393250,1.756086,1.147181,-0.564398,0.480708,-0.036615,0.829540,-0.360931,-0.392615,0.729562,-0.133206,-3.881182,40.919842,-20.461319,-6.514711,0.470060,1.812850,-0.202470,0.000000,0.000000,0.000000,0.000000,0.000000,0.000000
12140862.000000,-2.371582,-1.662304,1.097345,-1.393593,1.755716,1.147904,-0.564541,0.484487,-0.036632,0.831896,-0.351922,-0.383123,0.741216,-0.139031,-4.055743,41.312603,-20.362137,-6.713075,0.446256,1.812850,-0.116410,0.000000,0.000000,0.000000,0.000000,0.000000,0.000000
12140863.000000,-2.371098,-1.662336,1.098190,-1.393940,1.755350,1.148652,-0.564668,0.484161,-0.034722,0.836954,-0.348257,-0.374670,0.739011,-0.130923,-4.250140,41.606182,-20.338333,-6.883668,0.405057,1.773483,-0.149369,0.000000,0.000000,0.000000,0.000000,0.000000,0.000000
12140864.000000,-2.370621,-1.662369,1.099015,-1.394271,1.754983,1.149403,-0.564801,0.485997,-0.034141,0.839610,-0.346477,-0.380552,0.739623,-0.130380,-4.500079,41.923565,-20.239151,-7.181215,0.327238,1.702071,-0.142960,0.000000,0.000000,0.000000,0.000000,0.000000,0.000000
12140865.000000,-2.370136,-1.662394,1.099859,-1.394606,1.754614,1.150139,-0.564930,0.488912,-0.031603,0.838014,-0.342089,-0.375518,0.737672,-0.125629,-4.698443,42.141766,-20.290726,-7.454957,0.332731,1.591293,-0.155778,0.000000,0.000000,0.000000,0.000000,0.000000,0.000000
12140866.000000,-2.369645,-1.662420,1.100687,-1.394935,1.754257,1.150877,-0.565056,0.486337,-0.029572,0.844000,-0.336638,-0.367741,0.733053,-0.120667,-4.968218,42.340130,-20.338333,-7.724733,0.279630,1.605026,-0.196061,0.000000,0.000000,0.000000,0.000000,0.000000,0.000000
12140867.000000,-2.369175,-1.662441,1.101530,-1.395257,1.753899,1.151611,-0.565188,0.482390,-0.026419,0.839139,-0.333105,-0.366007,0.731388,-0.124226,-5.142779,42.463116,-20.437515,-7.970705,0.285123,1.676437,-0.142960,0.000000,0.000000,0.000000,0.000000,0.000000,0.000000
12140868.000000,-2.368690,-1.662462,1.102368,-1.395585,1.753529,1.152334,-0.565306,0.484631,-0.023866,0.840853,-0.328888,-0.361253,0.728163,-0.124474,-5.416522,42.558331,-20.437515,-8.097658,0.327238,1.767074,-0.175919,0.000000,0.000000,0.000000,0.000000,0.000000,0.000000
12140869.000000,-2.368214,-1.662486,1.103199,-1.395900,1.753164,1.153071,-0.565437,0.486670,-0.023343,0.837450,-0.323271,-0.360758,0.728592,-0.122322,-5.587115,42.705120,-20.512894,-8.367434,0.362943,1.767074,-0.142960,0.000000,0.000000,0.000000,0.000000,0.000000,0.000000
12140870.000000,-2.367732,-1.662500,1.104046,-1.396220,1.752816,1.153796,-0.565557,0.486643,-0.018436,0.841028,-0.322690,-0.355225,0.725607,-0.122061,-5.785479,42.657513,-20.683487,-8.490419,0.369352,1.786300,-0.188737,0.000000,0.000000,0.000000,0.000000,0.000000,0.000000
12140871.000000,-2.367245,-1.662520,1.104884,-1.396526,1.752458,1.154528,-0.565684,0.486234,-0.019991,0.841706,-0.314918,-0.353995,0.718248,-0.124882,-6.011614,42.681316,-20.854080,-8.764162,0.339139,1.844894,-0.175919,0.000000,0.000000,0.000000,0.000000,0.000000,0.000000
12140872.000000,-2.366764,-1.662542,1.105726,-1.396829,1.752110,1.155263,-0.565810,0.487327,-0.022539,0.841543,-0.313929,-0.353978,0.724372,-0.123670,-6.257586,42.756695,-20.977066,-8.986330,0.308927,1.812850,-0.130143,0.000000,0.000000,0.000000,0.000000,0.000000,0.000000
12140873.000000,-2.366283,-1.662562,1.106575,-1.397129,1.751767,1.155988,-0.565927,0.481740,-0.020287,0.840496,-0.305403,-0.349089,0.727176,-0.122862,-6.380572,42.780499,-21.223038,-9.232302,0.273221,1.825668,-0.188737,0.000000,0.000000,0.000000,0.000000,0.000000,0.000000
12140874.000000,-2.365813,-1.662587,1.107408,-1.397432,1.751420,1.156713,-0.566057,0.474053,-0.022467,0.841205,-0.311804,-0.343796,0.723848,-0.126039,-6.404376,42.828106,-21.369827,-9.430666,0.231107,1.909896,-0.136552,0.000000,0.000000,0.000000,0.000000,0.000000,0.000000
12140875.000000,-2.365357,-1.662611,1.108249,-1.397734,1.751081,1.157422,-0.566181,0.469591,-0.022026,0.835704,-0.309415,-0.339950,0.729786,-0.127330,-6.305193,42.927288,-21.492813,-9.605227,0.154203,1.988631,-0.142960,0.000000,0.000000,0.000000,0.000000,0.000000,0.000000
12140876.000000,-2.364892,-1.662628,1.109080,-1.398027,1.750741,1.158156,-0.566298,0.467356,-0.018699,0.830835,-0.305341,-0.338723,0.729045,-0.121899,-6.233782,42.903484,-21.540421,-9.875002,0.129484,1.968490,-0.182328,0.000000,0.000000,0.000000,0.000000,0.000000,0.000000
12140877.000000,-2.364449,-1.662649,1.109926,-1.398315,1.750414,1.158894,-0.566425,0.462525,-0.016965,0.830982,-0.301212,-0.344970,0.733142,-0.121024,-6.011614,42.903484,-21.714981,-10.196352,0.081876,1.890670,-0.122819,0.000000,0.000000,0.000000,0.000000,0.000000,0.000000
12140878.000000,-2.364005,-1.662665,1.110766,-1.398608,1.750079,1.159617,-0.566545,0.456896,-0.018398,0.829448,-0.292618,-0.345479,0.733586,-0.118235,-5.785479,42.875713,-21.714981,-10.470095,0.004056,1.890670,-0.130143,0.000000,0.000000,0.000000,0.000000,0.000000,0.000000
12140879.000000,-2.363562,-1.662681,1.111590,-1.398899,1.749742,1.160339,-0.566660,0.452955,-0.018421,0.826155,-0.290367,-0.342361,0.729221,-0.114155,-5.539507,42.804302,-21.687210,-10.716066,-0.001437,1.930038,-0.196061,0.000000,0.000000,0.000000,0.000000,0.000000,0.000000
12140880.000000,-2.363135,-1.662702,1.112430,-1.399192,1.749410,1.161072,-0.566788,0.447340,-0.021274,0.825747,-0.288542,-0.342656,0.721929,-0.119500,-5.194354,42.851910,-21.687210,-10.839052,0.010465,1.909896,-0.163102,0.000000,0.000000,0.000000,0.000000,0.000000,0.000000
12140881.000000,-2.362700,-1.662715,1.113272,-1.399484,1.749078,1.161803,-0.566916,0.441828,-0.020455,0.825002,-0.284888,-0.341128,0.721387,-0.118199,-4.995989,42.780499,-21.714981,-10.890627,-0.001437,1.844894,-0.130143,0.000000,0.000000,0.000000,0.000000,0.000000,0.000000
12140882.000000,-2.362287,-1.662729,1.114108,-1.399779,1.748737,1.162532,-0.567034,0.433826,-0.017433,0.829250,-0.287525,-0.338224,0.718067,-0.118600,-4.646868,42.728924,-21.837967,-10.862856,-0.037142,1.760665,-0.163102,0.000000,0.000000,0.000000,0.000000,0.000000,0.000000
12140883.000000,-2.361867,-1.662745,1.114959,-1.400085,1.748407,1.163262,-0.567152,0.427905,-0.016433,0.827161,-0.291139,-0.338861,0.723135,-0.116530,-4.301714,42.728924,-22.079971,-10.739870,-0.025240,1.727706,-0.182328,0.000000,0.000000,0.000000,0.000000,0.000000,0.000000
12140884.000000,-2.361447,-1.662765,1.115806,-1.400388,1.748084,1.163992,-0.567287,0.424427,-0.019866,0.834066,-0.296166,-0.336817,0.720814,-0.123054,-4.027972,42.780499,-22.353714,-10.640688,-0.031649,1.767074,-0.110001,0.000000,0.000000,0.000000,0.000000,0.000000,0.000000
12140885.000000,-2.361043,-1.662784,1.116652,-1.400707,1.747755,1.164713,-0.567403,0.415647,-0.019162,0.830075,-0.300613,-0.337537,0.716520,-0.121663,-3.682818,42.828106,-22.548111,-10.370913,-0.031649,1.877853,-0.163102,0.000000,0.000000,0.000000,0.000000,0.000000,0.000000
12140886.000000,-2.360636,-1.662803,1.117510,-1.401024,1.747415,1.165416,-0.567529,0.415118,-0.018431,0.837000,-0.303455,-0.339069,0.718565,-0.120838,-3.385272,42.875713,-22.841690,-10.196352,0.004056,2.066451,-0.110001,0.000000,0.000000,0.000000,0.000000,0.000000,0.000000
12140887.000000,-2.360228,-1.662828,1.118352,-1.401345,1.747072,1.166151,-0.567644,0.412326,-0.019641,0.839463,-0.311593,-0.339883,0.715814,-0.116608,-3.210711,42.998699,-23.186844,-9.926577,0.069974,2.085677,-0.155778,0.000000,0.000000,0.000000,0.000000,0.000000,0.000000
12140888.000000,-2.359826,-1.662858,1.119203,-1.401682,1.746741,1.166881,-0.567757,0.407237,-0.024817,0.839131,-0.318065,-0.337351,0.717419,-0.114590,-2.917132,43.173260,-23.409012,-9.629030,0.141385,2.066451,-0.188737,0.000000,0.000000,0.000000,0.000000,0.000000,0.000000
12140889.000000,-2.359426,-1.662891,1.120039,-1.402018,1.746400,1.167612,-0.567886,0.404768,-0.029018,0.836885,-0.320971,-0.337489,0.716203,-0.122230,-2.690997,43.367657,-23.579605,-9.406862,0.171598,2.014266,-0.097184,0.000000,0.000000,0.000000,0.000000,0.000000,0.000000
12140890.000000,-2.359037,-1.662925,1.120890,-1.402365,1.746056,1.168349,-0.567994,0.401437,-0.032433,0.841251,-0.331281,-0.336572,0.717494,-0.120456,-2.397418,43.585857,-23.750198,-9.109316,0.267728,1.981307,-0.202470,0.000000,0.000000,0.000000,0.000000,0.000000,0.000000
12140891.000000,-2.358648,-1.662957,1.121744,-1.402713,1.745710,1.169059,-0.568114,0.395510,-0.030639,0.841619,-0.332680,-0.335932,0.715358,-0.123703,-2.048296,43.760418,-23.920792,-8.887148,0.374845,2.027084,-0.196061,0.000000,0.000000,0.000000,0.000000,0.000000,0.000000
12140892.000000,-2.358263,-1.662991,1.122583,-1.403066,1.745380,1.169772,-0.568244,0.390321,-0.032925,0.842101,-0.350082,-0.333578,0.708107,-0.123866,-1.679339,43.954815,-23.972366,-8.589602,0.356534,2.039901,-0.110001,0.000000,0.000000,0.000000,0.000000,0.000000,0.000000
12140893.000000,-2.357891,-1.663029,1.123423,-1.403429,1.745045,1.170488,-0.568358,0.386480,-0.031832,0.837494,-0.354859,-0.333600,0.708333,-0.120058,-1.306414,44.173016,-23.996170,-8.343630,0.332731,1.995040,-0.136552,0.000000,0.000000,0.000000,0.000000,0.000000,0.000000
12140894.000000,-2.357522,-1.663064,1.124262,-1.403791,1.744705,1.171211,-0.568477,0.382039,-0.032596,0.854715,-0.353046,-0.334103,0.709717,-0.117892,-0.834307,44.323772,-24.071548,-8.169069,0.339139,1.936446,-0.130143,0.000000,0.000000,0.000000,0.000000,0.000000,0.000000
12140895.000000,-2.357153,-1.663092,1.125104,-1.404155,1.744378,1.171938,-0.568584,0.379123,-0.033931,0.847712,-0.356144,-0.345746,0.708035,-0.114501,-0.512957,44.371380,-24.071548,-7.970705,0.303434,1.884261,-0.188737,0.000000,0.000000,0.000000,0.000000,0.000000,0.000000
12140896.000000,-2.356776,-1.663118,1.125947,-1.404530,1.744043,1.172643,-0.568708,0.378825,-0.030892,0.837361,-0.359336,-0.348131,0.712336,-0.116731,-0.266986,44.371380,-23.972366,-7.700929,0.285123,1.955673,-0.122819,0.000000,0.000000,0.000000,0.000000,0.000000,0.000000
12140897.000000,-2.356399,-1.663150,1.126777,-1.404908,1.743698,1.173369,-0.568817,0.376309,-0.030540,0.835971,-0.365048,-0.341874,0.705751,-0.114309,-0.092425,44.442791,-23.972366,-7.454957,0.362943,1.936446,-0.163102,0.000000,0.000000,0.000000,0.000000,0.000000,0.000000
12140898.000000,-2.356030,-1.663169,1.127619,-1.405286,1.743361,1.174103,-0.568927,0.374839,-0.026977,0.833607,-0.370186,-0.340015,0.707400,-0.113881,0.078168,44.371380,-23.972366,-7.157411,0.464567,1.844894,-0.169511,0.000000,0.000000,0.000000,0.000000,0.000000,0.000000
12140899.000000,-2.355654,-1.663190,1.128459,-1.405668,1.743037,1.174815,-0.569044,0.374244,-0.024044,0.830006,-0.374712,-0.339307,0.709471,-0.114725,0.177350,44.272198,-23.996170,-6.935243,0.476469,1.806442,-0.136552,0.000000,0.000000,0.000000,0.000000,0.000000,0.000000
12140900.000000,-2.355273,-1.663203,1.129290,-1.406058,1.742705,1.175537,-0.569155,0.376825,-0.020733,0.828236,-0.378028,-0.342035,0.712786,-0.111700,0.177350,44.125408,-24.019974,-6.613893,0.452665,1.865035,-0.169511,0.000000,0.000000,0.000000,0.000000,0.000000,0.000000
12140901.000000,-2.354901,-1.663223,1.130133,-1.406445,1.742368,1.176254,-0.569273,0.372149,-0.021123,0.827118,-0.381096,-0.342568,0.718053,-0.112885,0.304304,44.077801,-24.166763,-6.391725,0.494779,1.877853,-0.149369,0.000000,0.000000,0.000000,0.000000,0.000000,0.000000
12140902.000000,-2.354520,-1.663242,1.130972,-1.406842,1.742038,1.176976,-0.569381,0.374387,-0.021276,0.826490,-0.386535,-0.340431,0.710399,-0.110394,0.328107,44.026226,-24.365128,-6.169557,0.488370,1.884261,-0.208878,0.000000,0.000000,0.000000,0.000000,0.000000,0.000000
12140903.000000,-2.354145,-1.663254,1.131806,-1.407234,1.741716,1.177693,-0.569493,0.375135,-0.016658,0.824837,-0.391443,-0.339090,0.717438,-0.112317,0.375715,43.907207,-24.412735,-5.947389,0.464567,1.995040,-0.182328,0.000000,0.000000,0.000000,0.000000,0.000000,0.000000
12140904.000000,-2.353764,-1.663268,1.132656,-1.407632,1.741384,1.178402,-0.569611,0.377911,-0.014375,0.827560,-0.389262,-0.338282,0.708852,-0.114224,0.427289,43.831829,-24.611099,-5.772829,0.434354,2.085677,-0.130143,0.000000,0.000000,0.000000,0.000000,0.000000,0.000000
12140905.000000,-2.353389,-1.663279,1.133490,-1.408021,1.741041,1.179130,-0.569717,0.378219,-0.011521,0.827189,-0.389584,-0.335287,0.710200,-0.110924,0.451093,43.708843,-24.829300,-5.574464,0.535978,2.066451,-0.208878,0.000000,0.000000,0.000000,0.000000,0.000000,0.000000
12140906.000000,-2.353011,-1.663289,1.134325,-1.408416,1.740721,1.179845,-0.569837,0.379133,-0.010110,0.820226,-0.387429,-0.331488,0.719229,-0.113315,0.451093,43.613628,-24.880875,-5.475282,0.542386,2.007858,-0.163102,0.000000,0.000000,0.000000,0.000000,0.000000,0.000000
12140908.000000,-2.352257,-1.663304,1.135976,-1.409201,1.740058,1.181300,-0.570058,0.381659,-0.011664,0.816909,-0.383893,-0.332770,0.717063,-0.109007,0.427289,43.439068,-24.928482,-5.205507,0.644010,1.955673,-0.142960,0.000000,0.000000,0.000000,0.000000,0.000000,0.000000
12140909.000000,-2.351882,-1.663318,1.136808,-1.409587,1.739727,1.182010,-0.570156,0.382077,-0.014934,0.817422,-0.382161,-0.335599,0.713229,-0.107061,0.502668,43.415264,-24.952286,-5.130128,0.685209,1.942855,-0.221696,0.000000,0.000000,0.000000,0.000000,0.000000,0.000000
12140910.000000,-2.351501,-1.663330,1.137614,-1.409972,1.739404,1.182727,-0.570268,0.379670,-0.011044,0.810259,-0.385987,-0.323821,0.708206,-0.104600,0.427289,43.391460,-24.781693,-5.030946,0.679716,2.007858,-0.188737,0.000000,0.000000,0.000000,0.000000,0.000000,0.000000
12140911.000000,-2.351126,-1.663327,1.138424,-1.410361,1.739088,1.183434,-0.570377,0.376519,-0.007220,0.802983,-0.385284,-0.321779,0.723397,-0.102483,0.427289,43.197063,-24.583328,-4.931764,0.661405,2.053634,-0.169511,0.000000,0.000000,0.000000,0.000000,0.000000,0.000000
12140912.000000,-2.350753,-1.663334,1.139253,-1.410747,1.738769,1.184162,-0.570481,0.371425,-0.007399,0.826813,-0.383754,-0.319333,0.720151,-0.103188,0.526471,43.121685,-24.611099,-4.856386,0.625699,2.033492,-0.215287,0.000000,0.000000,0.000000,0.000000,0.000000,0.000000
12140913.000000,-2.350366,-1.663332,1.140061,-1.411134,1.738448,1.184894,-0.570596,0.370548,-0.005152,0.824917,-0.385231,-0.323325,0.725524,-0.108532,0.403486,42.951092,-24.583328,-4.709596,0.644010,1.995040,-0.142960,0.000000,0.000000,0.000000,0.000000,0.000000,0.000000
12140914.000000,-2.349986,-1.663328,1.140878,-1.411514,1.738156,1.185615,-0.570695,0.372969,-0.003178,0.818348,-0.383871,-0.310043,0.723267,-0.107903,0.375715,42.756695,-24.511917,-4.634218,0.559781,2.001449,-0.175919,0.000000,0.000000,0.000000,0.000000,0.000000,0.000000
12140915.000000,-2.349608,-1.663331,1.141687,-1.411906,1.737846,1.186348,-0.570802,0.373169,-0.003948,0.814505,-0.388611,-0.305931,0.719029,-0.108941,0.427289,42.657513,-24.611099,-4.463624,0.578092,1.974899,-0.182328,0.000000,0.000000,0.000000,0.000000,0.000000,0.000000
12140916.000000,-2.349232,-1.663331,1.142511,-1.412289,1.737536,1.187062,-0.570911,0.374669,-0.003336,0.814865,-0.390630,-0.308171,0.713739,-0.110673,0.427289,42.510723,-24.757889,-4.364442,0.661405,1.988631,-0.155778,0.000000,0.000000,0.000000,0.000000,0.000000,0.000000
12140917.000000,-2.348852,-1.663327,1.143335,-1.412683,1.737235,1.187790,-0.571008,0.378506,-0.001888,0.812470,-0.388909,-0.304767,0.714488,-0.107744,0.451093,42.316326,-24.904678,-4.213686,0.625699,2.072860,-0.229020,0.000000,0.000000,0.000000,0.000000,0.000000,0.000000
12140918.000000,-2.348480,-1.663336,1.144140,-1.413059,1.736935,1.188519,-0.571127,0.375946,-0.005308,0.809149,-0.383818,-0.297336,0.714300,-0.111752,0.451093,42.316326,-24.976089,-4.142274,0.655912,2.066451,-0.142960,0.000000,0.000000,0.000000,0.000000,0.000000,0.000000
12140919.000000,-2.348116,-1.663338,1.144952,-1.413449,1.736631,1.189234,-0.571226,0.373851,-0.002820,0.802283,-0.384481,-0.300694,0.711377,-0.106005,0.574079,42.240948,-25.075272,-4.019289,0.715421,2.047225,-0.175919,0.000000,0.000000,0.000000,0.000000,0.000000,0.000000
12140920.000000,-2.347750,-1.663346,1.145756,-1.413834,1.736330,1.189945,-0.571322,0.368940,-0.006824,0.798884,-0.380826,-0.299067,0.710065,-0.105511,0.724836,42.288555,-25.174454,-3.920107,0.691617,2.157089,-0.229020,0.000000,0.000000,0.000000,0.000000,0.000000,0.000000
12140921.000000,-2.347380,-1.663350,1.146557,-1.414216,1.736033,1.190648,-0.571435,0.371897,-0.005391,0.793317,-0.381824,-0.300061,0.699114,-0.104890,0.724836,42.288555,-25.150650,-3.820925,0.703519,2.255050,-0.149369,0.000000,0.000000,0.000000,0.000000,0.000000,0.000000
12140922.000000,-2.347019,-1.663355,1.147354,-1.414601,1.735748,1.191350,-0.571534,0.367473,-0.004875,0.785760,-0.379170,-0.293850,0.698383,-0.104670,0.895429,42.316326,-24.976089,-3.670168,0.655912,2.280685,-0.202470,0.000000,0.000000,0.000000,0.000000,0.000000,0.000000
12140923.000000,-2.346667,-1.663357,1.148143,-1.414975,1.735454,1.192070,-0.571639,0.358502,-0.003074,0.787818,-0.376466,-0.297857,0.700482,-0.101759,1.069990,42.288555,-24.952286,-3.646364,0.644010,2.169906,-0.202470,0.000000,0.000000,0.000000,0.000000,0.000000,0.000000
12140924.000000,-2.346316,-1.663362,1.148936,-1.415352,1.735154,1.192783,-0.571746,0.354194,-0.003054,0.784040,-0.373423,-0.294437,0.706022,-0.104883,1.268354,42.316326,-24.805496,-3.622560,0.649503,2.131454,-0.196061,0.000000,0.000000,0.000000,0.000000,0.000000,0.000000
12140925.000000,-2.345966,-1.663361,1.149710,-1.415732,1.734856,1.193504,-0.571851,0.350828,-0.001096,0.781620,-0.374701,-0.295726,0.706511,-0.103098,1.466718,42.264751,-24.583328,-3.570986,0.649503,2.092086,-0.169511,0.000000,0.000000,0.000000,0.000000,0.000000,0.000000
12140926.000000,-2.345620,-1.663365,1.150497,-1.416103,1.734558,1.194222,-0.571951,0.354419,-0.000374,0.780629,-0.375148,-0.302622,0.705783,-0.100304,1.665082,42.240948,-24.341324,-3.570986,0.709928,2.060043,-0.182328,0.000000,0.000000,0.000000,0.000000,0.000000,0.000000
12140927.000000,-2.345271,-1.663363,1.151283,-1.416477,1.734267,1.194941,-0.572048,0.351039,0.000715,0.779651,-0.375868,-0.299292,0.711790,-0.097481,1.863447,42.193340,-24.119156,-3.523378,0.757535,1.962081,-0.208878,0.000000,0.000000,0.000000,0.000000,0.000000,0.000000
12140928.000000,-2.344927,-1.663356,1.152046,-1.416850,1.733971,1.195674,-0.572153,0.349223,0.003798,0.772089,-0.375432,-0.296734,0.709186,-0.097975,2.061811,42.046551,-23.750198,-3.547182,0.751127,1.825668,-0.175919,0.000000,0.000000,0.000000,0.000000,0.000000,0.000000
12140929.000000,-2.344585,-1.663344,1.152834,-1.417214,1.733683,1.196401,-0.572253,0.348444,0.005881,0.770052,-0.372133,-0.293303,0.728719,-0.100230,2.232404,41.899761,-23.702591,-3.570986,0.757535,1.727706,-0.182328,0.000000,0.000000,0.000000,0.000000,0.000000,0.000000
12140930.000000,-2.344243,-1.663335,1.153612,-1.417592,1.733406,1.197126,-0.572350,0.344943,0.006734,0.766004,-0.368618,-0.286704,0.727040,-0.096880,2.406965,41.776775,-23.504227,-3.475771,0.667814,1.721298,-0.215287,0.000000,0.000000,0.000000,0.000000,0.000000,0.000000
12140931.000000,-2.343896,-1.663326,1.154378,-1.417961,1.733126,1.197871,-0.572453,0.344526,0.007319,0.765841,-0.368210,-0.285702,0.729148,-0.102345,2.454572,41.653790,-23.409012,-3.325014,0.649503,1.676437,-0.163102,0.000000,0.000000,0.000000,0.000000,0.000000,0.000000
12140932.000000,-2.343555,-1.663311,1.155146,-1.418339,1.732851,1.198593,-0.572544,0.345130,0.009391,0.761582,-0.370499,-0.278875,0.728694,-0.102948,2.529951,41.459393,-23.210648,-3.154421,0.613798,1.714889,-0.215287,0.000000,0.000000,0.000000,0.000000,0.000000,0.000000
12140933.000000,-2.343210,-1.663294,1.155912,-1.418711,1.732568,1.199321,-0.572647,0.345830,0.010874,0.763651,-0.367503,-0.275297,0.717210,-0.102154,2.629133,41.261028,-23.186844,-3.055238,0.625699,1.714889,-0.175919,0.000000,0.000000,0.000000,0.000000,0.000000,0.000000
12140934.000000,-2.342866,-1.663276,1.156693,-1.419069,1.732294,1.200057,-0.572743,0.349470,0.012890,0.766438,-0.366412,-0.278028,0.716013,-0.097599,2.680707,41.019024,-23.234451,-3.055238,0.644010,1.754256,-0.215287,0.000000,0.000000,0.000000,0.000000,0.000000,0.000000
12140935.000000,-2.342517,-1.663253,1.157468,-1.419435,1.732017,1.200784,-0.572843,0.350694,0.015446,0.765299,-0.359371,-0.275454,0.717829,-0.096888,2.704511,40.725445,-23.163040,-3.003664,0.673307,1.670028,-0.196061,0.000000,0.000000,0.000000,0.000000,0.000000,0.000000
12140936.000000,-2.342171,-1.663240,1.158238,-1.419783,1.731732,1.201517,-0.572947,0.350137,0.016706,0.770987,-0.356033,-0.277266,0.721724,-0.097333,2.680707,40.578655,-23.210648,-3.055238,0.751127,1.624252,-0.149369,0.000000,0.000000,0.000000,0.000000,0.000000,0.000000
12140937.000000,-2.341826,-1.663223,1.159012,-1.420142,1.731452,1.202221,-0.573039,0.349881,0.016018,0.767821,-0.355308,-0.275471,0.721324,-0.093877,2.652936,40.380291,-23.309830,-3.055238,0.805143,1.727706,-0.202470,0.000000,0.000000,0.000000,0.000000,0.000000,0.000000
12140938.000000,-2.341475,-1.663202,1.159772,-1.420499,1.731183,1.202930,-0.573137,0.348201,0.015963,0.771424,-0.353666,-0.270010,0.706650,-0.089753,2.652936,40.162090,-23.333633,-3.079042,0.763029,1.865035,-0.182328,0.000000,0.000000,0.000000,0.000000,0.000000,0.000000
12140939.000000,-2.341125,-1.663180,1.160539,-1.420852,1.730928,1.203653,-0.573232,0.349195,0.018591,0.769748,-0.352346,-0.265318,0.703195,-0.089784,2.581525,39.963726,-23.309830,-3.126650,0.679716,1.903487,-0.188737,0.000000,0.000000,0.000000,0.000000,0.000000,0.000000
12140940.000000,-2.340770,-1.663159,1.161314,-1.421196,1.730672,1.204370,-0.573330,0.348577,0.019925,0.769459,-0.345387,-0.261816,0.710157,-0.091448,2.553754,39.793133,-23.333633,-3.249635,0.589994,1.825668,-0.169511,0.000000,0.000000,0.000000,0.000000,0.000000,0.000000
12140941.000000,-2.340422,-1.663139,1.162069,-1.421535,1.730403,1.205102,-0.573422,0.347628,0.020420,0.765411,-0.349635,-0.262136,0.709688,-0.090395,2.553754,39.646343,-23.286026,-3.348818,0.535978,1.793624,-0.208878,0.000000,0.000000,0.000000,0.000000,0.000000,0.000000
12140942.000000,-2.340063,-1.663111,1.162838,-1.421887,1.730137,1.205810,-0.573522,0.353054,0.023782,0.757586,-0.346735,-0.262018,0.727141,-0.091338,2.307783,39.376568,-23.258255,-3.277406,0.500272,1.865035,-0.175919,0.000000,0.000000,0.000000,0.000000,0.000000,0.000000
12140943.000000,-2.339707,-1.663087,1.163583,-1.422233,1.729869,1.206529,-0.573616,0.354553,0.023762,0.748310,-0.345337,-0.263005,0.721802,-0.092269,2.232404,39.205975,-23.016251,-3.249635,0.518583,1.858627,-0.163102,0.000000,0.000000,0.000000,0.000000,0.000000,0.000000
12140944.000000,-2.339347,-1.663064,1.164338,-1.422567,1.729602,1.207259,-0.573701,0.356832,0.023175,0.746358,-0.343730,-0.269490,0.722337,-0.090712,2.010236,39.059185,-22.817886,-3.277406,0.596403,1.812850,-0.215287,0.000000,0.000000,0.000000,0.000000,0.000000,0.000000
12140945.000000,-2.338990,-1.663040,1.165104,-1.422896,1.729333,1.207965,-0.573796,0.354563,0.023492,0.749244,-0.337478,-0.272805,0.711880,-0.087993,1.934858,38.888592,-22.694901,-3.348818,0.601896,1.806442,-0.188737,0.000000,0.000000,0.000000,0.000000,0.000000,0.000000
12140946.000000,-2.338629,-1.663020,1.165859,-1.423224,1.729065,1.208683,-0.573888,0.352299,0.021971,0.750371,-0.331860,-0.270007,0.705426,-0.088379,1.764264,38.789410,-22.647293,-3.475771,0.542386,1.773483,-0.202470,0.000000,0.000000,0.000000,0.000000,0.000000,0.000000
12140947.000000,-2.338276,-1.663005,1.166617,-1.423539,1.728797,1.209394,-0.573983,0.355941,0.018774,0.748089,-0.328035,-0.269935,0.716819,-0.090387,1.641279,38.789410,-22.524307,-3.622560,0.578092,1.689254,-0.182328,0.000000,0.000000,0.000000,0.000000,0.000000,0.000000
12140948.000000,-2.337915,-1.662991,1.167379,-1.423861,1.728537,1.210112,-0.574079,0.357293,0.016754,0.745872,-0.326987,-0.266697,0.714814,-0.091492,1.514325,38.789410,-22.448929,-3.646364,0.542386,1.670028,-0.169511,0.000000,0.000000,0.000000,0.000000,0.000000,0.000000
12140949.000000,-2.337552,-1.662978,1.168134,-1.424178,1.728279,1.210816,-0.574169,0.361256,0.014794,0.746732,-0.323554,-0.271593,0.709724,-0.094505,1.315961,38.813213,-22.472733,-3.697939,0.554288,1.773483,-0.215287,0.000000,0.000000,0.000000,0.000000,0.000000,0.000000
12140950.000000,-2.337181,-1.662964,1.168907,-1.424496,1.728020,1.211505,-0.574271,0.363795,0.014056,0.749354,-0.321702,-0.268845,0.702372,-0.096301,1.121564,38.813213,-22.647293,-3.697939,0.530485,1.884261,-0.163102,0.000000,0.000000,0.000000,0.000000,0.000000,0.000000
12140951.000000,-2.336818,-1.662955,1.169665,-1.424809,1.727759,1.212224,-0.574363,0.362088,0.011676,0.754521,-0.319989,-0.265451,0.700354,-0.089623,0.947004,38.888592,-22.794083,-3.820925,0.482877,1.832076,-0.196061,0.000000,0.000000,0.000000,0.000000,0.000000,0.000000
12140952.000000,-2.336454,-1.662948,1.170426,-1.425116,1.727496,1.212947,-0.574458,0.360142,0.012927,0.756218,-0.313848,-0.262400,0.701091,-0.091585,0.796247,38.983807,-22.893265,-3.920107,0.530485,1.695663,-0.175919,0.000000,0.000000,0.000000,0.000000,0.000000,0.000000
12140953.000000,-2.336085,-1.662945,1.171185,-1.425415,1.727242,1.213648,-0.574550,0.361804,0.009516,0.755290,-0.308868,-0.257426,0.698296,-0.090793,0.625654,39.130596,-22.893265,-4.118471,0.512174,1.708480,-0.202470,0.000000,0.000000,0.000000,0.000000,0.000000,0.000000
12140954.000000,-2.335718,-1.662943,1.171934,-1.425712,1.726987,1.214335,-0.574646,0.363256,0.004693,0.756042,-0.304276,-0.250734,0.693771,-0.091398,0.451093,39.253582,-22.917068,-4.289064,0.518583,1.890670,-0.196061,0.000000,0.000000,0.000000,0.000000,0.000000,0.000000
12140955.000000,-2.335345,-1.662943,1.172683,-1.426009,1.726725,1.215022,-0.574742,0.363000,0.003671,0.748379,-0.298271,-0.255545,0.690669,-0.093411,0.228925,39.400372,-22.817886,-4.439821,0.559781,1.995040,-0.163102,0.000000,0.000000,0.000000,0.000000,0.000000,0.000000
12140956.000000,-2.334984,-1.662944,1.173416,-1.426303,1.726469,1.215734,-0.574830,0.361542,0.002996,0.741183,-0.296565,-0.252592,0.692421,-0.091102,0.153547,39.547161,-22.571915,-4.562807,0.566190,1.916305,-0.221696,0.000000,0.000000,0.000000,0.000000,0.000000,0.000000
12140957.000000,-2.334619,-1.662946,1.174176,-1.426590,1.726221,1.216446,-0.574927,0.362781,0.001929,0.745356,-0.289361,-0.245046,0.692373,-0.092696,0.006757,39.721722,-22.571915,-4.709596,0.542386,1.819259,-0.182328,0.000000,0.000000,0.000000,0.000000,0.000000,0.000000
12140958.000000,-2.334250,-1.662941,1.174931,-1.426876,1.725984,1.217149,-0.575014,0.364525,0.003331,0.744626,-0.283878,-0.235780,0.693338,-0.092087,-0.167803,39.816936,-22.448929,-4.808778,0.416959,1.819259,-0.196061,0.000000,0.000000,0.000000,0.000000,0.000000,0.000000
12140959.000000,-2.333881,-1.662947,1.175670,-1.427153,1.725740,1.217863,-0.575106,0.364148,-0.001970,0.745246,-0.286566,-0.238675,0.689229,-0.088201,-0.266986,40.039104,-22.325943,-4.983339,0.398649,1.735030,-0.182328,0.000000,0.000000,0.000000,0.000000,0.000000,0.000000
12140960.000000,-2.333520,-1.662944,1.176411,-1.427434,1.725489,1.218577,-0.575199,0.362672,-0.002229,0.737853,-0.285644,-0.246316,0.708694,-0.085993,-0.441546,40.110516,-22.079971,-5.106325,0.422452,1.643478,-0.155778,0.000000,0.000000,0.000000,0.000000,0.000000,0.000000
12140961.000000,-2.333158,-1.662942,1.177144,-1.427709,1.725246,1.219294,-0.575287,0.364414,-0.002683,0.750249,-0.280322,-0.239050,0.712917,-0.085541,-0.512957,40.185894,-21.885574,-5.253114,0.374845,1.617843,-0.215287,0.000000,0.000000,0.000000,0.000000,0.000000,0.000000
12140962.000000,-2.332794,-1.662942,1.177890,-1.427979,1.724996,1.220015,-0.575385,0.365145,-0.000530,0.745961,-0.280116,-0.249870,0.709667,-0.089750,-0.663714,40.281109,-21.738785,-5.427675,0.405057,1.584884,-0.163102,0.000000,0.000000,0.000000,0.000000,0.000000,0.000000
12140963.000000,-2.332432,-1.662935,1.178636,-1.428237,1.724756,1.220722,-0.575473,0.366556,0.001334,0.742234,-0.272976,-0.245533,0.710197,-0.089843,-0.711321,40.233501,-21.591995,-5.721254,0.446256,1.578475,-0.188737,0.000000,0.000000,0.000000,0.000000,0.000000,0.000000
12140964.000000,-2.332072,-1.662931,1.179371,-1.428505,1.724517,1.221438,-0.575563,0.363499,0.003811,0.746278,-0.271557,-0.245353,0.704302,-0.089395,-0.711321,40.257305,-21.445206,-5.872011,0.452665,1.532699,-0.229020,0.000000,0.000000,0.000000,0.000000,0.000000,0.000000
12140965.000000,-2.331721,-1.662930,1.180116,-1.428775,1.724269,1.222169,-0.575664,0.359893,0.001911,0.746728,-0.270884,-0.246162,0.708144,-0.092625,-0.786700,40.308880,-21.369827,-6.018800,0.476469,1.487838,-0.149369,0.000000,0.000000,0.000000,0.000000,0.000000,0.000000
12140966.000000,-2.331358,-1.662922,1.180864,-1.429050,1.724034,1.222875,-0.575747,0.361336,0.004026,0.749201,-0.271453,-0.238589,0.710625,-0.090455,-0.885882,40.209698,-21.322220,-6.070375,0.416959,1.546432,-0.196061,0.000000,0.000000,0.000000,0.000000,0.000000,0.000000
12140967.000000,-2.331000,-1.662913,1.181607,-1.429320,1.723802,1.223591,-0.575840,0.359134,0.005329,0.749482,-0.274076,-0.237000,0.708071,-0.091629,-0.985064,40.110516,-21.393631,-6.070375,0.344633,1.605026,-0.175919,0.000000,0.000000,0.000000,0.000000,0.000000,0.000000
12140968.000000,-2.330634,-1.662905,1.182359,-1.429596,1.723570,1.224305,-0.575932,0.362817,0.006023,0.749139,-0.272295,-0.233097,0.715029,-0.091573,-1.131854,40.015301,-21.492813,-6.070375,0.303434,1.605026,-0.188737,0.000000,0.000000,0.000000,0.000000,0.000000,0.000000
12140969.000000,-2.330274,-1.662894,1.183100,-1.429881,1.723347,1.225030,-0.576021,0.359598,0.007631,0.745464,-0.273328,-0.227846,0.707864,-0.092206,-1.231036,39.868511,-21.540421,-5.947389,0.219205,1.565658,-0.188737,0.000000,0.000000,0.000000,0.000000,0.000000,0.000000
12140970.000000,-2.329923,-1.662882,1.183857,-1.430145,1.723110,1.225754,-0.576109,0.359916,0.009308,0.744917,-0.270359,-0.232613,0.709623,-0.091940,-1.306414,39.693951,-21.687210,-5.994997,0.213712,1.584884,-0.182328,0.000000,0.000000,0.000000,0.000000,0.000000,0.000000
12140971.000000,-2.329571,-1.662869,1.184620,-1.430418,1.722866,1.226453,-0.576193,0.357763,0.009092,0.748134,-0.269714,-0.233272,0.706436,-0.091633,-1.282611,39.574932,-21.837967,-6.042604,0.261320,1.695663,-0.202470,0.000000,0.000000,0.000000,0.000000,0.000000,0.000000
12140972.000000,-2.329230,-1.662852,1.185371,-1.430683,1.722624,1.227163,-0.576284,0.356307,0.013879,0.750132,-0.267882,-0.233028,0.696940,-0.089142,-1.183428,39.376568,-21.984756,-6.070375,0.285123,1.844894,-0.163102,0.000000,0.000000,0.000000,0.000000,0.000000,0.000000
12140973.000000,-2.328876,-1.662842,1.186129,-1.430946,1.722382,1.227862,-0.576364,0.356862,0.014411,0.749364,-0.265792,-0.234396,0.715500,-0.089424,-1.207232,39.305157,-22.107742,-6.141786,0.362943,1.871444,-0.188737,0.000000,0.000000,0.000000,0.000000,0.000000,0.000000
12140974.000000,-2.328537,-1.662830,1.186878,-1.431226,1.722138,1.228569,-0.576449,0.351179,0.011315,0.749450,-0.270671,-0.233733,0.708979,-0.089836,-1.084246,39.253582,-22.202957,-6.042604,0.422452,1.844894,-0.196061,0.000000,0.000000,0.000000,0.000000,0.000000,0.000000
12140975.000000,-2.328196,-1.662816,1.187643,-1.431497,1.721898,1.229280,-0.576534,0.348073,0.009590,0.756972,-0.270588,-0.235429,0.706736,-0.087043,-1.008868,39.182171,-22.353714,-5.994997,0.398649,1.819259,-0.175919,0.000000,0.000000,0.000000,0.000000,0.000000,0.000000
12140976.000000,-2.327854,-1.662806,1.188408,-1.431774,1.721658,1.229968,-0.576618,0.345236,0.009853,0.758358,-0.270535,-0.231957,0.698983,-0.088395,-0.909686,39.182171,-22.448929,-5.895814,0.369352,1.832076,-0.182328,0.000000,0.000000,0.000000,0.000000,0.000000,0.000000
12140977.000000,-2.327513,-1.662796,1.189152,-1.432052,1.721426,1.230672,-0.576705,0.342126,0.006488,0.756259,-0.274342,-0.228185,0.695320,-0.085353,-0.762896,39.205975,-22.401321,-5.796632,0.291532,1.819259,-0.175919,0.000000,0.000000,0.000000,0.000000,0.000000,0.000000
12140978.000000,-2.327183,-1.662788,1.189905,-1.432333,1.721195,1.231363,-0.576787,0.341153,0.004683,0.755571,-0.276922,-0.227971,0.706578,-0.082704,-0.612139,39.205975,-22.325943,-5.721254,0.291532,1.793624,-0.182328,0.000000,0.000000,0.000000,0.000000,0.000000,0.000000
12140979.000000,-2.326854,-1.662776,1.190661,-1.432620,1.720967,1.232066,-0.576870,0.336177,0.007766,0.768094,-0.280483,-0.226456,0.700879,-0.085673,-0.489153,39.158367,-22.278336,-5.526857,0.267728,1.819259,-0.175919,0.000000,0.000000,0.000000,0.000000,0.000000,0.000000
12140980.000000,-2.326525,-1.662762,1.191407,-1.432896,1.720739,1.232763,-0.576954,0.336710,0.009913,0.760904,-0.282743,-0.234924,0.697469,-0.088598,-0.389971,39.106792,-22.230728,-5.526857,0.225614,1.858627,-0.155778,0.000000,0.000000,0.000000,0.000000,0.000000,0.000000
12140981.000000,-2.326188,-1.662760,1.192171,-1.433190,1.720497,1.233455,-0.577031,0.334821,0.004898,0.757897,-0.287847,-0.234183,0.693286,-0.088794,-0.314593,39.205975,-22.325943,-5.352296,0.261320,1.851302,-0.188737,0.000000,0.000000,0.000000,0.000000,0.000000,0.000000
12140982.000000,-2.325852,-1.662747,1.192915,-1.433478,1.720253,1.234164,-0.577118,0.335970,0.007885,0.755655,-0.286860,-0.234890,0.692831,-0.090431,-0.266986,39.158367,-22.254532,-5.253114,0.339139,1.773483,-0.175919,0.000000,0.000000,0.000000,0.000000,0.000000,0.000000
12140983.000000,-2.325528,-1.662738,1.193681,-1.433774,1.720019,1.234866,-0.577197,0.333444,0.006503,0.758405,-0.290849,-0.234560,0.685730,-0.089415,-0.167803,39.130596,-22.425125,-5.106325,0.386747,1.721298,-0.202470,0.000000,0.000000,0.000000,0.000000,0.000000,0.000000
12140984.000000,-2.325197,-1.662724,1.194456,-1.434075,1.719786,1.235553,-0.577281,0.333899,0.006454,0.758804,-0.290475,-0.232862,0.680596,-0.086254,-0.191607,39.059185,-22.623489,-4.907960,0.416959,1.773483,-0.188737,0.000000,0.000000,0.000000,0.000000,0.000000,0.000000
12140985.000000,-2.324878,-1.662719,1.195217,-1.434365,1.719549,1.236240,-0.577362,0.331452,0.006136,0.756584,-0.289652,-0.231841,0.673979,-0.084548,-0.068621,39.130596,-22.841690,-4.784975,0.416959,1.865035,-0.163102,0.000000,0.000000,0.000000,0.000000,0.000000,0.000000
12140986.000000,-2.324551,-1.662717,1.195992,-1.434668,1.719309,1.236937,-0.577434,0.327849,0.005462,0.756191,-0.294570,-0.236250,0.680161,-0.079894,0.006757,39.229778,-23.087662,-4.562807,0.458158,1.851302,-0.208878,0.000000,0.000000,0.000000,0.000000,0.000000,0.000000
12140987.000000,-2.324220,-1.662716,1.196749,-1.434963,1.719079,1.237633,-0.577521,0.325710,0.001416,0.755615,-0.293742,-0.232723,0.679585,-0.085864,0.030561,39.352764,-23.234451,-4.487428,0.446256,1.877853,-0.142960,0.000000,0.000000,0.000000,0.000000,0.000000,0.000000
12140988.000000,-2.323899,-1.662712,1.197524,-1.435256,1.718853,1.238322,-0.577600,0.323115,0.003497,0.763639,-0.295242,-0.229461,0.675114,-0.082408,0.105939,39.400372,-23.480423,-4.364442,0.405057,1.974899,-0.163102,0.000000,0.000000,0.000000,0.000000,0.000000,0.000000
12140989.000000,-2.323584,-1.662712,1.198295,-1.435548,1.718622,1.239009,-0.577676,0.324360,0.003679,0.764723,-0.292796,-0.228686,0.677466,-0.078569,0.228925,39.499554,-23.627213,-4.340639,0.410551,2.033492,-0.208878,0.000000,0.000000,0.000000,0.000000,0.000000,0.000000
12140990.000000,-2.323271,-1.662720,1.199046,-1.435841,1.718389,1.239707,-0.577765,0.323905,-0.000812,0.765053,-0.296254,-0.231156,0.673291,-0.080134,0.375715,39.670147,-23.651016,-4.213686,0.464567,1.968490,-0.149369,0.000000,0.000000,0.000000,0.000000,0.000000,0.000000
12140991.000000,-2.322957,-1.662725,1.199805,-1.436139,1.718151,1.240399,-0.577837,0.320386,-0.002873,0.759765,-0.296564,-0.236004,0.690361,-0.076876,0.526471,39.793133,-23.627213,-4.118471,0.512174,1.930038,-0.202470,0.000000,0.000000,0.000000,0.000000,0.000000,0.000000
12140992.000000,-2.322630,-1.662727,1.200559,-1.436441,1.717917,1.241084,-0.577917,0.320348,-0.002620,0.759596,-0.296561,-0.233171,0.678124,-0.080774,0.550275,39.840740,-23.678787,-3.991518,0.518583,1.968490,-0.208878,0.000000,0.000000,0.000000,0.000000,0.000000,0.000000
12140993.000000,-2.322323,-1.662734,1.201315,-1.436738,1.717691,1.241782,-0.578002,0.317830,-0.003204,0.753229,-0.294873,-0.234841,0.681294,-0.084916,0.697065,39.916119,-23.603409,-3.844728,0.524076,1.981307,-0.169511,0.000000,0.000000,0.000000,0.000000,0.000000,0.000000
12140994.000000,-2.322011,-1.662744,1.202065,-1.437034,1.717461,1.242476,-0.578075,0.314722,-0.010584,0.748246,-0.296054,-0.233065,0.683273,-0.085558,0.772443,40.015301,-23.381241,-3.820925,0.542386,1.890670,-0.215287,0.000000,0.000000,0.000000,0.000000,0.000000,0.000000
12140995.000000,-2.321701,-1.662748,1.202809,-1.437331,1.717235,1.243187,-0.578162,0.314747,-0.008527,0.746332,-0.303388,-0.226234,0.691370,-0.085089,0.871625,40.062908,-23.186844,-3.745546,0.535978,1.773483,-0.155778,0.000000,0.000000,0.000000,0.000000,0.000000,0.000000
12140996.000000,-2.321394,-1.662753,1.203568,-1.437627,1.717015,1.243889,-0.578234,0.313811,-0.010140,0.746280,-0.298390,-0.229147,0.710342,-0.079565,0.994611,40.110516,-23.111465,-3.670168,0.488370,1.800033,-0.235429,0.000000,0.000000,0.000000,0.000000,0.000000,0.000000
12140997.000000,-2.321079,-1.662753,1.204323,-1.437926,1.716787,1.244575,-0.578322,0.315172,-0.006661,0.759682,-0.299137,-0.227912,0.701265,-0.085698,1.022382,40.086712,-22.964676,-3.622560,0.482877,1.884261,-0.155778,0.000000,0.000000,0.000000,0.000000,0.000000,0.000000
12140998.000000,-2.320782,-1.662758,1.205059,-1.438219,1.716559,1.245292,-0.578397,0.311612,-0.006547,0.751491,-0.298381,-0.233796,0.696915,-0.081329,1.145368,40.162090,-22.770279,-3.547182,0.524076,1.806442,-0.202470,0.000000,0.000000,0.000000,0.000000,0.000000,0.000000
12140999.000000,-2.320472,-1.662755,1.205809,-1.438516,1.716342,1.245995,-0.578477,0.310322,-0.003415,0.750455,-0.298339,-0.232140,0.690594,-0.080703,1.093793,40.110516,-22.694901,-3.448000,0.535978,1.714889,-0.182328,0.000000,0.000000,0.000000,0.000000,0.000000,0.000000
12141000.000000,-2.320161,-1.662750,1.206556,-1.438821,1.716124,1.246706,-0.578558,0.310215,-0.000799,0.750470,-0.299136,-0.226396,0.688290,-0.080421,1.093793,40.039104,-22.742508,-3.301210,0.559781,1.676437,-0.149369,0.000000,0.000000,0.000000,0.000000,0.000000,0.000000
12141001.000000,-2.319854,-1.662739,1.207309,-1.439121,1.715914,1.247415,-0.578627,0.312151,0.002756,0.751844,-0.297181,-0.221081,0.694902,-0.076469,1.145368,39.892315,-22.770279,-3.154421,0.542386,1.676437,-0.215287,0.000000,0.000000,0.000000,0.000000,0.000000,0.000000
12141002.000000,-2.319537,-1.662736,1.208062,-1.439417,1.715686,1.248114,-0.578710,0.316360,0.002935,0.752435,-0.295979,-0.223150,0.690685,-0.078093,1.046186,39.840740,-22.742508,-3.055238,0.571683,1.649886,-0.163102,0.000000,0.000000,0.000000,0.000000,0.000000,0.000000
12141003.000000,-2.319235,-1.662729,1.208803,-1.439711,1.715463,1.248812,-0.578781,0.311038,0.004103,0.754019,-0.296766,-0.224231,0.692600,-0.079915,1.069990,39.745525,-22.770279,-2.956056,0.559781,1.689254,-0.208878,0.000000,0.000000,0.000000,0.000000,0.000000,0.000000
12141004.000000,-2.318926,-1.662713,1.209556,-1.440012,1.715248,1.249495,-0.578861,0.310382,0.007871,0.753497,-0.295193,-0.224125,0.685921,-0.078886,1.022382,39.523357,-22.817886,-2.805300,0.554288,1.760665,-0.208878,0.000000,0.000000,0.000000,0.000000,0.000000,0.000000
12141005.000000,-2.318615,-1.662703,1.210302,-1.440307,1.715032,1.250187,-0.578946,0.308733,0.008635,0.750429,-0.297531,-0.219400,0.682023,-0.080156,0.947004,39.376568,-22.940872,-2.733888,0.554288,1.832076,-0.149369,0.000000,0.000000,0.000000,0.000000,0.000000,0.000000
12141006.000000,-2.318308,-1.662690,1.211056,-1.440600,1.714820,1.250884,-0.579018,0.306544,0.010270,0.747798,-0.296443,-0.211594,0.679398,-0.076177,0.923200,39.182171,-23.040054,-2.706117,0.554288,1.858627,-0.221696,0.000000,0.000000,0.000000,0.000000,0.000000,0.000000
12141007.000000,-2.318000,-1.662678,1.211808,-1.440890,1.714601,1.251575,-0.579101,0.303992,0.010811,0.745107,-0.290790,-0.216530,0.677299,-0.077548,0.923200,39.011578,-23.135269,-2.682314,0.589994,1.884261,-0.169511,0.000000,0.000000,0.000000,0.000000,0.000000,0.000000
12141008.000000,-2.317688,-1.662667,1.212550,-1.441184,1.714380,1.252271,-0.579181,0.304518,0.010065,0.745660,-0.301616,-0.215120,0.678384,-0.077729,0.847822,38.888592,-23.186844,-2.606935,0.608304,1.871444,-0.149369,0.000000,0.000000,0.000000,0.000000,0.000000,0.000000
12141009.000000,-2.317391,-1.662654,1.213302,-1.441477,1.714171,1.252957,-0.579249,0.302648,0.010129,0.741692,-0.299235,-0.212664,0.692902,-0.074146,0.871625,38.741802,-23.258255,-2.583132,0.596403,1.865035,-0.229020,0.000000,0.000000,0.000000,0.000000,0.000000,0.000000
12141010.000000,-2.317086,-1.662640,1.214037,-1.441770,1.713960,1.253642,-0.579332,0.304450,0.013326,0.740742,-0.296313,-0.211122,0.688609,-0.071877,0.824018,38.595013,-23.234451,-2.559328,0.601896,1.923629,-0.169511,0.000000,0.000000,0.000000,0.000000,0.000000,0.000000
12141011.000000,-2.316794,-1.662631,1.214782,-1.442059,1.713764,1.254339,-0.579407,0.300307,0.012015,0.733859,-0.294808,-0.206485,0.685982,-0.071321,0.923200,38.472027,-23.186844,-2.559328,0.530485,1.897079,-0.188737,0.000000,0.000000,0.000000,0.000000,0.000000,0.000000
12141012.000000,-2.316495,-1.662621,1.215524,-1.442348,1.713559,1.255029,-0.579484,0.298011,0.010521,0.736698,-0.291340,-0.206354,0.685232,-0.073540,1.022382,38.372845,-23.063858,-2.634706,0.524076,1.858627,-0.155778,0.000000,0.000000,0.000000,0.000000,0.000000,0.000000
12141013.000000,-2.316195,-1.662608,1.216253,-1.442632,1.713350,1.255720,-0.579558,0.299488,0.010591,0.735059,-0.290553,-0.210978,0.675611,-0.073187,1.093793,38.226055,-22.917068,-2.658510,0.518583,1.832076,-0.169511,0.000000,0.000000,0.000000,0.000000,0.000000,0.000000
12141014.000000,-2.315903,-1.662598,1.216994,-1.442918,1.713144,1.256412,-0.579629,0.296457,0.008838,0.736665,-0.289867,-0.210123,0.688776,-0.076494,1.169172,38.154644,-22.817886,-2.706117,0.512174,1.871444,-0.188737,0.000000,0.000000,0.000000,0.000000,0.000000,0.000000
12141016.000000,-2.315316,-1.662580,1.218461,-1.443483,1.712735,1.257803,-0.579769,0.294092,0.008125,0.734185,-0.286313,-0.201376,0.685042,-0.070839,1.244550,38.103069,-22.623489,-2.733888,0.547880,1.735030,-0.202470,0.000000,0.000000,0.000000,0.000000,0.000000,0.000000
12141017.000000,-2.315021,-1.662572,1.219197,-1.443766,1.712539,1.258502,-0.579842,0.297510,0.007703,0.730579,-0.283918,-0.198073,0.695855,-0.068082,1.292158,38.154644,-22.524307,-2.757692,0.554288,1.617843,-0.182328,0.000000,0.000000,0.000000,0.000000,0.000000,0.000000
12141018.000000,-2.314720,-1.662563,1.219934,-1.444046,1.712341,1.259201,-0.579909,0.293732,0.008380,0.733991,-0.279603,-0.195833,0.691543,-0.069293,1.315961,38.178448,-22.647293,-2.733888,0.571683,1.605026,-0.188737,0.000000,0.000000,0.000000,0.000000,0.000000,0.000000
12141019.000000,-2.314426,-1.662557,1.220675,-1.444318,1.712153,1.259897,-0.579981,0.295383,0.008296,0.736043,-0.280651,-0.196759,0.688497,-0.070286,1.315961,38.226055,-22.671097,-2.706117,0.518583,1.670028,-0.182328,0.000000,0.000000,0.000000,0.000000,0.000000,0.000000
12141020.000000,-2.314129,-1.662553,1.221424,-1.444593,1.711952,1.260587,-0.580054,0.296009,0.008232,0.735195,-0.275709,-0.199353,0.681271,-0.071778,1.315961,38.277630,-22.817886,-2.706117,0.518583,1.649886,-0.169511,0.000000,0.000000,0.000000,0.000000,0.000000,0.000000
12141021.000000,-2.313848,-1.662551,1.222155,-1.444854,1.711749,1.261288,-0.580120,0.294209,0.007309,0.732430,-0.271574,-0.197685,0.681839,-0.070704,1.442914,38.372845,-22.893265,-2.781496,0.554288,1.662704,-0.221696,0.000000,0.000000,0.000000,0.000000,0.000000,0.000000
12141022.000000,-2.313557,-1.662551,1.222901,-1.445117,1.711563,1.261960,-0.580197,0.293453,0.003442,0.731402,-0.268603,-0.193947,0.689105,-0.073609,1.542096,38.472027,-23.087662,-2.856874,0.518583,1.806442,-0.175919,0.000000,0.000000,0.000000,0.000000,0.000000,0.000000
12141023.000000,-2.313258,-1.662551,1.223628,-1.445384,1.711368,1.262656,-0.580263,0.292036,0.003792,0.734863,-0.269050,-0.193406,0.688388,-0.073133,1.542096,38.571209,-23.111465,-2.928285,0.547880,1.916305,-0.196061,0.000000,0.000000,0.000000,0.000000,0.000000,0.000000
12141024.000000,-2.312967,-1.662558,1.224374,-1.445641,1.711181,1.263357,-0.580330,0.294043,0.001914,0.737236,-0.266942,-0.191798,0.695097,-0.072411,1.542096,38.765606,-23.258255,-3.027467,0.535978,1.909896,-0.229020,0.000000,0.000000,0.000000,0.000000,0.000000,0.000000
12141025.000000,-2.312672,-1.662556,1.225108,-1.445901,1.710987,1.264062,-0.580409,0.290808,0.002950,0.730514,-0.265934,-0.191738,0.697896,-0.070968,1.490522,38.864788,-23.210648,-3.027467,0.559781,1.806442,-0.163102,0.000000,0.000000,0.000000,0.000000,0.000000,0.000000
12141026.000000,-2.312378,-1.662560,1.225837,-1.446159,1.710793,1.264772,-0.580477,0.288811,0.000073,0.729143,-0.268971,-0.194286,0.700038,-0.069908,1.415143,38.983807,-23.163040,-3.102846,0.530485,1.754256,-0.202470,0.000000,0.000000,0.000000,0.000000,0.000000,0.000000
12141027.000000,-2.312087,-1.662561,1.226578,-1.446415,1.710598,1.265475,-0.580549,0.290152,-0.001047,0.725611,-0.266324,-0.193565,0.707013,-0.067814,1.343732,39.059185,-23.210648,-3.202028,0.542386,1.760665,-0.169511,0.000000,0.000000,0.000000,0.000000,0.000000,0.000000
12141028.000000,-2.311797,-1.662562,1.227305,-1.446661,1.710410,1.266179,-0.580612,0.290564,-0.000754,0.725238,-0.258655,-0.185585,0.703828,-0.067975,1.391340,39.082989,-23.135269,-3.376589,0.500272,1.708480,-0.208878,0.000000,0.000000,0.000000,0.000000,0.000000,0.000000
12141029.000000,-2.311508,-1.662572,1.228031,-1.446910,1.710217,1.266880,-0.580685,0.290220,-0.003004,0.722572,-0.256043,-0.191223,0.692588,-0.070615,1.367536,39.205975,-22.964676,-3.475771,0.535978,1.670028,-0.188737,0.000000,0.000000,0.000000,0.000000,0.000000,0.000000
12141030.000000,-2.311215,-1.662571,1.228764,-1.447158,1.710028,1.267572,-0.580759,0.290039,-0.001164,0.722850,-0.252238,-0.190123,0.691407,-0.072578,1.343732,39.182171,-22.865494,-3.622560,0.524076,1.702071,-0.169511,0.000000,0.000000,0.000000,0.000000,0.000000,0.000000
12141031.000000,-2.310921,-1.662573,1.229492,-1.447398,1.709847,1.268258,-0.580821,0.291623,-0.000565,0.723684,-0.248549,-0.187287,0.681447,-0.071336,1.244550,39.182171,-22.794083,-3.797121,0.458158,1.754256,-0.221696,0.000000,0.000000,0.000000,0.000000,0.000000,0.000000
12141032.000000,-2.310638,-1.662570,1.230218,-1.447635,1.709661,1.268960,-0.580893,0.290878,0.000988,0.723297,-0.245852,-0.187365,0.680684,-0.073687,1.216779,39.130596,-22.595718,-3.892336,0.446256,1.735030,-0.182328,0.000000,0.000000,0.000000,0.000000,0.000000,0.000000
12141033.000000,-2.310339,-1.662571,1.230951,-1.447878,1.709468,1.269656,-0.580965,0.292349,0.000128,0.725988,-0.243690,-0.192084,0.685790,-0.069696,1.093793,39.158367,-22.472733,-3.920107,0.446256,1.656295,-0.169511,0.000000,0.000000,0.000000,0.000000,0.000000,0.000000
12141034.000000,-2.310038,-1.662567,1.231672,-1.448110,1.709283,1.270356,-0.581029,0.295995,0.001938,0.729611,-0.237860,-0.190990,0.682556,-0.073104,0.871625,39.082989,-22.425125,-3.967714,0.434354,1.624252,-0.208878,0.000000,0.000000,0.000000,0.000000,0.000000,0.000000
12141035.000000,-2.309741,-1.662562,1.232413,-1.448348,1.709102,1.271039,-0.581097,0.295629,0.002472,0.731531,-0.239548,-0.189362,0.693803,-0.070246,0.772443,39.035381,-22.524307,-3.943910,0.410551,1.649886,-0.175919,0.000000,0.000000,0.000000,0.000000,0.000000,0.000000
12141036.000000,-2.309438,-1.662560,1.233121,-1.448578,1.708914,1.271733,-0.581164,0.295490,0.002255,0.725866,-0.236735,-0.184933,0.681052,-0.070492,0.550275,39.011578,-22.401321,-4.066896,0.434354,1.656295,-0.196061,0.000000,0.000000,0.000000,0.000000,0.000000,0.000000
12141037.000000,-2.309140,-1.662560,1.233855,-1.448807,1.708730,1.272437,-0.581233,0.296527,0.002191,0.723686,-0.234888,-0.188250,0.678489,-0.071363,0.375715,38.983807,-22.401321,-4.090700,0.494779,1.662704,-0.188737,0.000000,0.000000,0.000000,0.000000,0.000000,0.000000
12141038.000000,-2.308844,-1.662554,1.234594,-1.449029,1.708550,1.273117,-0.581304,0.297141,0.003716,0.724888,-0.229676,-0.182241,0.675051,-0.072139,0.252729,38.888592,-22.500504,-4.213686,0.464567,1.714889,-0.182328,0.000000,0.000000,0.000000,0.000000,0.000000,0.000000
12141039.000000,-2.308544,-1.662552,1.235324,-1.449244,1.708370,1.273813,-0.581372,0.297834,0.003055,0.728048,-0.221128,-0.181303,0.675762,-0.066757,0.078168,38.864788,-22.595718,-4.364442,0.405057,1.727706,-0.215287,0.000000,0.000000,0.000000,0.000000,0.000000,0.000000
12141040.000000,-2.308244,-1.662555,1.236062,-1.449461,1.708183,1.274506,-0.581450,0.298350,0.000382,0.726773,-0.219663,-0.183701,0.696538,-0.067408,-0.044818,38.936199,-22.718704,-4.535036,0.416959,1.676437,-0.130143,0.000000,0.000000,0.000000,0.000000,0.000000,0.000000
12141041.000000,-2.307937,-1.662554,1.236793,-1.449677,1.707997,1.275196,-0.581510,0.301663,0.000267,0.730244,-0.218956,-0.185187,0.687746,-0.066682,-0.243182,38.936199,-22.841690,-4.661989,0.434354,1.695663,-0.196061,0.000000,0.000000,0.000000,0.000000,0.000000,0.000000
12141042.000000,-2.307635,-1.662558,1.237533,-1.449890,1.707814,1.275881,-0.581581,0.301224,-0.000370,0.736053,-0.216963,-0.187230,0.685698,-0.065437,-0.441546,38.960003,-22.964676,-4.757204,0.464567,1.773483,-0.163102,0.000000,0.000000,0.000000,0.000000,0.000000,0.000000
12141043.000000,-2.307329,-1.662560,1.238276,-1.450115,1.707643,1.276554,-0.581648,0.302529,-0.000797,0.741228,-0.219058,-0.185199,0.679170,-0.061719,-0.687518,38.983807,-23.135269,-4.784975,0.405057,1.858627,-0.196061,0.000000,0.000000,0.000000,0.000000,0.000000,0.000000
12141044.000000,-2.307027,-1.662564,1.239003,-1.450321,1.707468,1.277248,-0.581715,0.304621,-0.001733,0.738893,-0.219261,-0.180545,0.680806,-0.060260,-0.810504,39.035381,-23.186844,-4.955568,0.381254,1.825668,-0.202470,0.000000,0.000000,0.000000,0.000000,0.000000,0.000000
12141045.000000,-2.306725,-1.662564,1.239737,-1.450525,1.707296,1.277942,-0.581784,0.305888,-0.001151,0.733126,-0.214725,-0.182058,0.686636,-0.065620,-0.961260,39.035381,-23.258255,-5.153932,0.362943,1.767074,-0.163102,0.000000,0.000000,0.000000,0.000000,0.000000,0.000000
12141046.000000,-2.306430,-1.662569,1.240458,-1.450730,1.707121,1.278627,-0.581844,0.305179,-0.002435,0.730752,-0.212010,-0.181912,0.683548,-0.065550,-0.961260,39.106792,-23.186844,-5.276918,0.320829,1.714889,-0.215287,0.000000,0.000000,0.000000,0.000000,0.000000,0.000000
12141047.000000,-2.306126,-1.662571,1.241192,-1.450933,1.706946,1.279302,-0.581920,0.304398,-0.002178,0.731635,-0.210187,-0.181832,0.676975,-0.070493,-1.131854,39.130596,-23.234451,-5.451478,0.291532,1.800033,-0.136552,0.000000,0.000000,0.000000,0.000000,0.000000,0.000000
12141048.000000,-2.305831,-1.662569,1.241917,-1.451150,1.706767,1.279970,-0.581983,0.300593,-0.000894,0.729323,-0.212921,-0.181590,0.673564,-0.065692,-1.183428,39.106792,-23.063858,-5.427675,0.362943,1.865035,-0.169511,0.000000,0.000000,0.000000,0.000000,0.000000,0.000000
12141049.000000,-2.305531,-1.662575,1.242631,-1.451355,1.706589,1.280643,-0.582041,0.299649,-0.001801,0.723076,-0.211689,-0.175580,0.668019,-0.061385,-1.306414,39.158367,-22.893265,-5.499086,0.416959,1.916305,-0.221696,0.000000,0.000000,0.000000,0.000000,0.000000,0.000000
12141050.000000,-2.305236,-1.662577,1.243354,-1.451556,1.706423,1.281329,-0.582116,0.301753,-0.001757,0.721403,-0.208578,-0.172751,0.665854,-0.067004,-1.405596,39.182171,-22.770279,-5.574464,0.381254,1.890670,-0.142960,0.000000,0.000000,0.000000,0.000000,0.000000,0.000000
12141051.000000,-2.304936,-1.662578,1.244097,-1.451764,1.706264,1.282017,-0.582172,0.298665,-0.001170,0.726369,-0.205588,-0.168980,0.672010,-0.066103,-1.480975,39.182171,-22.865494,-5.626039,0.303434,1.773483,-0.208878,0.000000,0.000000,0.000000,0.000000,0.000000,0.000000
12141052.000000,-2.304639,-1.662585,1.244822,-1.451972,1.706098,1.282712,-0.582234,0.297711,-0.002450,0.732407,-0.207330,-0.166466,0.670301,-0.063234,-1.580157,39.253582,-22.940872,-5.550661,0.225614,1.656295,-0.215287,0.000000,0.000000,0.000000,0.000000,0.000000,0.000000
12141053.000000,-2.304340,-1.662585,1.245558,-1.452174,1.705924,1.283390,-0.582304,0.294580,-0.002283,0.732373,-0.202899,-0.167816,0.679703,-0.063874,-1.703143,39.281353,-23.016251,-5.574464,0.231107,1.682845,-0.149369,0.000000,0.000000,0.000000,0.000000,0.000000,0.000000
12141054.000000,-2.304048,-1.662592,1.246280,-1.452380,1.705744,1.284065,-0.582360,0.293075,-0.003192,0.731888,-0.202965,-0.173180,0.669617,-0.059711,-1.750750,39.352764,-23.135269,-5.550661,0.243009,1.825668,-0.202470,0.000000,0.000000,0.000000,0.000000,0.000000,0.000000
12141055.000000,-2.303757,-1.662598,1.247018,-1.452583,1.705570,1.284752,-0.582423,0.294686,-0.003891,0.730483,-0.202933,-0.169529,0.665711,-0.063041,-1.849932,39.428143,-23.234451,-5.574464,0.291532,1.974899,-0.202470,0.000000,0.000000,0.000000,0.000000,0.000000,0.000000
12141056.000000,-2.303471,-1.662611,1.247766,-1.452782,1.705392,1.285428,-0.582484,0.291573,-0.006028,0.730283,-0.201030,-0.167006,0.663158,-0.061058,-1.826129,39.574932,-23.504227,-5.626039,0.351041,1.995040,-0.208878,0.000000,0.000000,0.000000,0.000000,0.000000,0.000000
12141057.000000,-2.303170,-1.662624,1.248500,-1.452979,1.705220,1.286119,-0.582552,0.296811,-0.007452,0.733950,-0.201658,-0.167587,0.664968,-0.066430,-1.949114,39.721722,-23.702591,-5.626039,0.356534,1.955673,-0.163102,0.000000,0.000000,0.000000,0.000000,0.000000,0.000000
12141058.000000,-2.302888,-1.662639,1.249241,-1.453179,1.705044,1.286820,-0.582610,0.292961,-0.012033,0.732524,-0.201826,-0.170046,0.685357,-0.062471,-1.901507,39.892315,-23.920792,-5.649843,0.410551,1.844894,-0.202470,0.000000,0.000000,0.000000,0.000000,0.000000,0.000000
12141059.000000,-2.302599,-1.662656,1.249981,-1.453391,1.704871,1.287492,-0.582674,0.289929,-0.012826,0.737139,-0.205651,-0.169657,0.675015,-0.062580,-1.972918,40.086712,-24.190567,-5.598268,0.422452,1.865035,-0.155778,0.000000,0.000000,0.000000,0.000000,0.000000,0.000000
12141060.000000,-2.302317,-1.662680,1.250720,-1.453598,1.704699,1.288158,-0.582735,0.286350,-0.015053,0.737034,-0.206780,-0.169393,0.665709,-0.065384,-2.000689,40.356487,-24.313553,-5.526857,0.422452,1.974899,-0.163102,0.000000,0.000000,0.000000,0.000000,0.000000,0.000000
12141061.000000,-2.302037,-1.662707,1.251458,-1.453812,1.704523,1.288815,-0.582794,0.285876,-0.019537,0.738694,-0.208535,-0.169275,0.659465,-0.062235,-1.925311,40.626263,-24.365128,-5.376100,0.428861,2.066451,-0.188737,0.000000,0.000000,0.000000,0.000000,0.000000,0.000000
12141062.000000,-2.301753,-1.662723,1.252182,-1.454012,1.704350,1.289496,-0.582860,0.284458,-0.018771,0.736029,-0.210568,-0.168907,0.655961,-0.066198,-1.849932,40.725445,-24.365128,-5.399904,0.422452,2.053634,-0.155778,0.000000,0.000000,0.000000,0.000000,0.000000,0.000000
12141063.000000,-2.301480,-1.662737,1.252916,-1.454213,1.704188,1.290177,-0.582910,0.279620,-0.014711,0.730738,-0.206284,-0.166584,0.667606,-0.065866,-1.726946,40.796856,-24.412735,-5.499086,0.351041,1.988631,-0.229020,0.000000,0.000000,0.000000,0.000000,0.000000,0.000000
12141064.000000,-2.301207,-1.662760,1.253639,-1.454417,1.704021,1.290854,-0.582971,0.278165,-0.016220,0.743465,-0.203418,-0.166909,0.670881,-0.064647,-1.580157,40.919842,-24.341324,-5.550661,0.344633,1.909896,-0.202470,0.000000,0.000000,0.000000,0.000000,0.000000,0.000000
12141065.000000,-2.300936,-1.662774,1.254370,-1.454621,1.703854,1.291535,-0.583036,0.279350,-0.015773,0.738414,-0.203796,-0.168458,0.671812,-0.064820,-1.504779,40.967449,-24.265945,-5.550661,0.362943,1.877853,-0.142960,0.000000,0.000000,0.000000,0.000000,0.000000,0.000000
12141066.000000,-2.300665,-1.662790,1.255102,-1.454833,1.703686,1.292203,-0.583085,0.275138,-0.012414,0.734896,-0.207995,-0.170197,0.665453,-0.059958,-1.453204,41.019024,-24.095352,-5.499086,0.405057,1.916305,-0.215287,0.000000,0.000000,0.000000,0.000000,0.000000,0.000000
12141067.000000,-2.300390,-1.662804,1.255825,-1.455056,1.703513,1.292869,-0.583149,0.278417,-0.013080,0.728824,-0.212117,-0.165837,0.661504,-0.061464,-1.429400,41.066631,-23.996170,-5.376100,0.428861,1.968490,-0.155778,0.000000,0.000000,0.000000,0.000000,0.000000,0.000000
12141068.000000,-2.300122,-1.662810,1.256554,-1.455270,1.703337,1.293554,-0.583211,0.276704,-0.010669,0.721848,-0.215337,-0.171707,0.661086,-0.064253,-1.381793,40.991253,-23.849380,-5.276918,0.440763,1.930038,-0.149369,0.000000,0.000000,0.000000,0.000000,0.000000,0.000000
12141069.000000,-2.299852,-1.662818,1.257286,-1.455486,1.703168,1.294246,-0.583266,0.269488,-0.009444,0.722163,-0.215048,-0.166264,0.673743,-0.062106,-1.330218,40.919842,-23.750198,-5.229311,0.434354,1.773483,-0.149369,0.000000,0.000000,0.000000,0.000000,0.000000,0.000000
12141070.000000,-2.299588,-1.662817,1.258008,-1.455698,1.703001,1.294935,-0.583316,0.269218,-0.006227,0.727363,-0.216744,-0.161736,0.675173,-0.057864,-1.231036,40.749249,-23.726395,-5.153932,0.416959,1.682845,-0.215287,0.000000,0.000000,0.000000,0.000000,0.000000,0.000000
12141071.000000,-2.299319,-1.662820,1.258737,-1.455923,1.702840,1.295605,-0.583378,0.271351,-0.005887,0.722863,-0.219431,-0.161276,0.685958,-0.059345,-1.231036,40.650066,-23.702591,-5.030946,0.351041,1.747848,-0.169511,0.000000,0.000000,0.000000,0.000000,0.000000,0.000000
12141072.000000,-2.299053,-1.662828,1.259446,-1.456146,1.702672,1.296279,-0.583439,0.269485,-0.003736,0.720496,-0.220359,-0.159915,0.670594,-0.059510,-1.231036,40.602459,-23.627213,-4.907960,0.386747,1.877853,-0.142960,0.000000,0.000000,0.000000,0.000000,0.000000,0.000000
12141073.000000,-2.298791,-1.662831,1.260176,-1.456365,1.702504,1.296975,-0.583486,0.267072,-0.000864,0.720794,-0.222290,-0.160347,0.674571,-0.056265,-1.183428,40.503277,-23.651016,-4.784975,0.458158,1.909896,-0.208878,0.000000,0.000000,0.000000,0.000000,0.000000,0.000000
12141074.000000,-2.298520,-1.662836,1.260905,-1.456593,1.702340,1.297655,-0.583546,0.267737,-0.005832,0.720078,-0.223067,-0.156990,0.675588,-0.057877,-1.231036,40.427898,-23.651016,-4.634218,0.440763,1.884261,-0.169511,0.000000,0.000000,0.000000,0.000000,0.000000,0.000000
12141075.000000,-2.298248,-1.662832,1.261631,-1.456816,1.702170,1.298354,-0.583599,0.265024,-0.000273,0.725592,-0.218154,-0.163701,0.674240,-0.051382,-1.282611,40.233501,-23.774002,-4.511232,0.416959,1.825668,-0.208878,0.000000,0.000000,0.000000,0.000000,0.000000,0.000000
12141076.000000,-2.297980,-1.662832,1.262367,-1.457045,1.702003,1.299054,-0.583654,0.265941,-0.001735,0.721776,-0.220450,-0.165186,0.695974,-0.053007,-1.306414,40.134319,-23.896988,-4.364442,0.416959,1.741439,-0.202470,0.000000,0.000000,0.000000,0.000000,0.000000,0.000000
12141077.000000,-2.297717,-1.662835,1.263088,-1.457268,1.701832,1.299736,-0.583716,0.262329,-0.002751,0.736132,-0.219572,-0.159122,0.689863,-0.055803,-1.306414,40.039104,-23.972366,-4.289064,0.482877,1.702071,-0.149369,0.000000,0.000000,0.000000,0.000000,0.000000,0.000000
12141078.000000,-2.297460,-1.662842,1.263815,-1.457495,1.701665,1.300414,-0.583766,0.259355,-0.002121,0.733966,-0.223809,-0.162592,0.680969,-0.053431,-1.282611,40.015301,-24.071548,-4.189882,0.535978,1.806442,-0.215287,0.000000,0.000000,0.000000,0.000000,0.000000,0.000000
12141079.000000,-2.297206,-1.662841,1.264548,-1.457722,1.701509,1.301069,-0.583833,0.257635,0.000830,0.733400,-0.223455,-0.158314,0.666392,-0.056396,-1.159625,39.892315,-24.242142,-4.090700,0.512174,2.007858,-0.155778,0.000000,0.000000,0.000000,0.000000,0.000000,0.000000
12141080.000000,-2.296950,-1.662850,1.265267,-1.457933,1.701348,1.301754,-0.583890,0.257498,-0.003075,0.730646,-0.218394,-0.160817,0.662402,-0.055723,-1.032672,39.892315,-24.289749,-4.189882,0.506681,2.072860,-0.169511,0.000000,0.000000,0.000000,0.000000,0.000000,0.000000
12141081.000000,-2.296700,-1.662851,1.265984,-1.458160,1.701195,1.302446,-0.583943,0.256255,-0.001462,0.721167,-0.220447,-0.157478,0.673471,-0.054254,-0.885882,39.840740,-24.242142,-4.090700,0.482877,1.981307,-0.215287,0.000000,0.000000,0.000000,0.000000,0.000000,0.000000
12141082.000000,-2.296444,-1.662847,1.266699,-1.458387,1.701039,1.303130,-0.584009,0.255414,-0.001160,0.731353,-0.221293,-0.157586,0.674163,-0.057313,-0.834307,39.693951,-24.218338,-4.090700,0.410551,1.949264,-0.142960,0.000000,0.000000,0.000000,0.000000,0.000000,0.000000
12141083.000000,-2.296192,-1.662846,1.267424,-1.458619,1.700877,1.303817,-0.584059,0.254430,0.000286,0.725952,-0.222386,-0.155743,0.672372,-0.054140,-0.786700,39.622540,-24.242142,-3.920107,0.398649,1.949264,-0.208878,0.000000,0.000000,0.000000,0.000000,0.000000,0.000000
12141084.000000,-2.295939,-1.662844,1.268142,-1.458854,1.700720,1.304497,-0.584123,0.251759,0.000846,0.716337,-0.224993,-0.160283,0.675916,-0.061497,-0.786700,39.574932,-24.119156,-3.721742,0.428861,1.981307,-0.155778,0.000000,0.000000,0.000000,0.000000,0.000000,0.000000
12141085.000000,-2.295686,-1.662838,1.268841,-1.459083,1.700559,1.305188,-0.584180,0.248974,0.002541,0.708445,-0.226755,-0.160251,0.674659,-0.060107,-0.786700,39.475750,-23.896988,-3.622560,0.500272,1.916305,-0.155778,0.000000,0.000000,0.000000,0.000000,0.000000,0.000000
12141086.000000,-2.295445,-1.662825,1.269552,-1.459315,1.700406,1.305880,-0.584232,0.248272,0.004870,0.708917,-0.229645,-0.158366,0.675157,-0.058470,-0.663714,39.328960,-23.702591,-3.499574,0.518583,1.884261,-0.175919,0.000000,0.000000,0.000000,0.000000,0.000000,0.000000
12141087.000000,-2.295194,-1.662815,1.270281,-1.459541,1.700260,1.306560,-0.584285,0.248077,0.006487,0.712784,-0.227647,-0.159947,0.679614,-0.056471,-0.612139,39.182171,-23.726395,-3.499574,0.494779,1.858627,-0.208878,0.000000,0.000000,0.000000,0.000000,0.000000,0.000000
12141088.000000,-2.294955,-1.662806,1.270991,-1.459763,1.700115,1.307240,-0.584341,0.245278,0.007056,0.715524,-0.224315,-0.156572,0.675945,-0.056207,-0.540728,39.059185,-23.774002,-3.499574,0.464567,1.851302,-0.215287,0.000000,0.000000,0.000000,0.000000,0.000000,0.000000
12141089.000000,-2.294716,-1.662800,1.271697,-1.459994,1.699964,1.307913,-0.584401,0.240982,0.005709,0.706855,-0.226529,-0.155903,0.683972,-0.058039,-0.389971,39.011578,-23.579605,-3.448000,0.482877,1.865035,-0.163102,0.000000,0.000000,0.000000,0.000000,0.000000,0.000000
12141090.000000,-2.294474,-1.662799,1.272413,-1.460228,1.699813,1.308589,-0.584455,0.240493,0.003725,0.707594,-0.228914,-0.153868,0.672657,-0.051679,-0.342364,39.011578,-23.750198,-3.325014,0.476469,1.916305,-0.188737,0.000000,0.000000,0.000000,0.000000,0.000000,0.000000
12141091.000000,-2.294233,-1.662788,1.273133,-1.460451,1.699664,1.309268,-0.584508,0.239345,0.005299,0.710900,-0.226837,-0.152909,0.668214,-0.056678,-0.366168,38.888592,-23.774002,-3.277406,0.470060,2.020675,-0.196061,0.000000,0.000000,0.000000,0.000000,0.000000,0.000000
12141092.000000,-2.293994,-1.662788,1.273868,-1.460680,1.699515,1.309941,-0.584565,0.238441,0.003487,0.713247,-0.226506,-0.152341,0.666150,-0.057746,-0.290789,38.888592,-24.071548,-3.126650,0.470060,1.974899,-0.163102,0.000000,0.000000,0.000000,0.000000,0.000000,0.000000
12141093.000000,-2.293754,-1.662789,1.274571,-1.460897,1.699374,1.310632,-0.584614,0.238223,0.001733,0.710562,-0.223031,-0.146664,0.662788,-0.056089,-0.215411,38.912395,-24.071548,-3.126650,0.452665,1.897079,-0.196061,0.000000,0.000000,0.000000,0.000000,0.000000,0.000000
12141094.000000,-2.293525,-1.662791,1.275299,-1.461113,1.699231,1.311323,-0.584669,0.236032,0.000573,0.713752,-0.223783,-0.144231,0.676864,-0.056977,-0.068621,38.936199,-24.341324,-3.154421,0.482877,1.844894,-0.175919,0.000000,0.000000,0.000000,0.000000,0.000000,0.000000
12141095.000000,-2.293291,-1.662797,1.276000,-1.461327,1.699088,1.311987,-0.584720,0.235902,-0.002514,0.713661,-0.219709,-0.141001,0.670242,-0.055958,0.006757,39.059185,-24.341324,-3.202028,0.488370,1.942855,-0.196061,0.000000,0.000000,0.000000,0.000000,0.000000,0.000000
12141096.000000,-2.293058,-1.662803,1.276718,-1.461541,1.698946,1.312656,-0.584770,0.235522,-0.004011,0.712710,-0.220274,-0.143387,0.668052,-0.054968,0.105939,39.158367,-24.388931,-3.154421,0.506681,2.007858,-0.215287,0.000000,0.000000,0.000000,0.000000,0.000000,0.000000
12141097.000000,-2.292833,-1.662813,1.277432,-1.461755,1.698806,1.313319,-0.584825,0.230892,-0.006118,0.706341,-0.217786,-0.140330,0.662711,-0.057125,0.276533,39.305157,-24.365128,-3.202028,0.506681,2.033492,-0.169511,0.000000,0.000000,0.000000,0.000000,0.000000,0.000000
12141098.000000,-2.292601,-1.662820,1.278140,-1.461966,1.698660,1.314001,-0.584872,0.230251,-0.006314,0.704670,-0.213253,-0.143024,0.662347,-0.055057,0.328107,39.400372,-24.313553,-3.225832,0.512174,2.014266,-0.208878,0.000000,0.000000,0.000000,0.000000,0.000000,0.000000
12141099.000000,-2.292380,-1.662827,1.278853,-1.462172,1.698517,1.314675,-0.584929,0.227547,-0.005979,0.702755,-0.210420,-0.139706,0.671845,-0.056995,0.474897,39.475750,-24.289749,-3.249635,0.494779,1.949264,-0.169511,0.000000,0.000000,0.000000,0.000000,0.000000,0.000000
12141100.000000,-2.292152,-1.662835,1.279551,-1.462383,1.698374,1.315355,-0.584979,0.226260,-0.006311,0.700584,-0.209092,-0.140721,0.669521,-0.050955,0.574079,39.574932,-24.166763,-3.202028,0.458158,1.858627,-0.196061,0.000000,0.000000,0.000000,0.000000,0.000000,0.000000
12141101.000000,-2.291928,-1.662839,1.280263,-1.462590,1.698226,1.316041,-0.585031,0.226106,-0.005324,0.697991,-0.211580,-0.144535,0.670481,-0.053005,0.649457,39.622540,-24.119156,-3.178224,0.488370,1.779891,-0.169511,0.000000,0.000000,0.000000,0.000000,0.000000,0.000000
12141102.000000,-2.291701,-1.662840,1.280969,-1.462794,1.698087,1.316715,-0.585081,0.226750,-0.004109,0.701634,-0.208519,-0.141685,0.684028,-0.053398,0.697065,39.646343,-23.948563,-3.225832,0.500272,1.800033,-0.182328,0.000000,0.000000,0.000000,0.000000,0.000000,0.000000
12141103.000000,-2.291474,-1.662839,1.281671,-1.462992,1.697946,1.317394,-0.585129,0.229170,-0.008391,0.701010,-0.201709,-0.144572,0.677911,-0.052758,0.772443,39.622540,-23.873184,-3.301210,0.518583,1.800033,-0.221696,0.000000,0.000000,0.000000,0.000000,0.000000,0.000000
12141104.000000,-2.291256,-1.662839,1.282367,-1.463189,1.697810,1.318080,-0.585188,0.228305,-0.006112,0.696466,-0.201083,-0.140406,0.676985,-0.055482,0.824018,39.622540,-23.651016,-3.376589,0.494779,1.779891,-0.163102,0.000000,0.000000,0.000000,0.000000,0.000000,0.000000
12141105.000000,-2.291040,-1.662837,1.283070,-1.463387,1.697675,1.318768,-0.585236,0.223677,-0.003907,0.691152,-0.199506,-0.142027,0.680572,-0.050174,0.923200,39.598736,-23.432816,-3.448000,0.464567,1.721298,-0.182328,0.000000,0.000000,0.000000,0.000000,0.000000,0.000000
12141106.000000,-2.290821,-1.662833,1.283770,-1.463587,1.697536,1.319452,-0.585285,0.223635,-0.001690,0.691887,-0.197988,-0.139634,0.672169,-0.046036,0.994611,39.547161,-23.409012,-3.424196,0.464567,1.695663,-0.202470,0.000000,0.000000,0.000000,0.000000,0.000000,0.000000
12141107.000000,-2.290596,-1.662825,1.284476,-1.463786,1.697400,1.320139,-0.585339,0.226213,0.001439,0.692946,-0.197825,-0.136621,0.684092,-0.045433,0.970807,39.428143,-23.333633,-3.376589,0.434354,1.727706,-0.163102,0.000000,0.000000,0.000000,0.000000,0.000000,0.000000
12141108.000000,-2.290361,-1.662820,1.285166,-1.463986,1.697256,1.320817,-0.585387,0.229607,0.002558,0.691416,-0.197261,-0.140740,0.678940,-0.042065,0.847822,39.352764,-23.258255,-3.301210,0.452665,1.721298,-0.196061,0.000000,0.000000,0.000000,0.000000,0.000000,0.000000
12141109.000000,-2.290142,-1.662811,1.285864,-1.464185,1.697112,1.321514,-0.585435,0.228839,0.004459,0.693595,-0.200263,-0.144666,0.678423,-0.041794,0.824018,39.229778,-23.163040,-3.249635,0.488370,1.656295,-0.175919,0.000000,0.000000,0.000000,0.000000,0.000000,0.000000
12141110.000000,-2.289910,-1.662804,1.286573,-1.464380,1.696971,1.322197,-0.585481,0.227817,0.005201,0.697831,-0.196810,-0.141401,0.676369,-0.040116,0.748639,39.130596,-23.186844,-3.277406,0.494779,1.624252,-0.188737,0.000000,0.000000,0.000000,0.000000,0.000000,0.000000
12141111.000000,-2.289677,-1.662791,1.287268,-1.464567,1.696836,1.322885,-0.585530,0.228401,0.007945,0.699605,-0.198853,-0.137774,0.674078,-0.039039,0.625654,38.936199,-23.258255,-3.376589,0.464567,1.676437,-0.202470,0.000000,0.000000,0.000000,0.000000,0.000000,0.000000
12141112.000000,-2.289457,-1.662783,1.287982,-1.464758,1.696700,1.323580,-0.585579,0.225086,0.006915,0.699095,-0.200443,-0.136421,0.690246,-0.044746,0.625654,38.864788,-23.357437,-3.400392,0.464567,1.727706,-0.169511,0.000000,0.000000,0.000000,0.000000,0.000000,0.000000
12141113.000000,-2.289231,-1.662777,1.288679,-1.464949,1.696568,1.324264,-0.585626,0.226666,0.006334,0.699160,-0.195774,-0.129237,0.680107,-0.041415,0.574079,38.789410,-23.432816,-3.475771,0.434354,1.727706,-0.208878,0.000000,0.000000,0.000000,0.000000,0.000000,0.000000
12141114.000000,-2.289008,-1.662766,1.289390,-1.465131,1.696433,1.324939,-0.585675,0.226329,0.007071,0.699916,-0.187649,-0.134214,0.674115,-0.042039,0.574079,38.666424,-23.528030,-3.570986,0.440763,1.819259,-0.169511,0.000000,0.000000,0.000000,0.000000,0.000000,0.000000
12141115.000000,-2.288779,-1.662757,1.290103,-1.465321,1.696304,1.325604,-0.585718,0.227824,0.007569,0.698012,-0.186302,-0.136733,0.680410,-0.039195,0.526471,38.543438,-23.678787,-3.547182,0.393156,1.890670,-0.215287,0.000000,0.000000,0.000000,0.000000,0.000000,0.000000
12141116.000000,-2.288546,-1.662748,1.290808,-1.465509,1.696167,1.326290,-0.585769,0.228206,0.007257,0.706242,-0.184973,-0.134546,0.677800,-0.040120,0.403486,38.448223,-23.825577,-3.499574,0.362943,1.819259,-0.182328,0.000000,0.000000,0.000000,0.000000,0.000000,0.000000
12141117.000000,-2.288324,-1.662743,1.291516,-1.465687,1.696025,1.326969,-0.585817,0.228256,0.008554,0.705035,-0.185189,-0.136057,0.670134,-0.044268,0.375715,38.424419,-23.873184,-3.570986,0.416959,1.714889,-0.175919,0.000000,0.000000,0.000000,0.000000,0.000000,0.000000
12141118.000000,-2.288098,-1.662740,1.292211,-1.465866,1.695886,1.327631,-0.585862,0.225861,0.005401,0.702358,-0.181232,-0.136223,0.664448,-0.041343,0.351911,38.448223,-23.896988,-3.646364,0.452665,1.727706,-0.202470,0.000000,0.000000,0.000000,0.000000,0.000000,0.000000
12141119.000000,-2.287879,-1.662732,1.292919,-1.466041,1.695750,1.328289,-0.585912,0.226926,0.008053,0.699647,-0.177791,-0.135453,0.654278,-0.046401,0.328107,38.396648,-23.896988,-3.697939,0.464567,1.851302,-0.155778,0.000000,0.000000,0.000000,0.000000,0.000000,0.000000
12141120.000000,-2.287663,-1.662727,1.293615,-1.466215,1.695621,1.328946,-0.585955,0.222177,0.006323,0.696180,-0.173629,-0.129978,0.666248,-0.047413,0.375715,38.372845,-23.774002,-3.769350,0.470060,1.916305,-0.196061,0.000000,0.000000,0.000000,0.000000,0.000000,0.000000
