chaoyuefei/paper-gmrm-data/robot_logs/s2_dq_mrm_min_0.50_log_20260314_174720.csv
# time_ms,q_0,q_1,q_2,q_3,q_4,q_5,q_6,dq_0,dq_1,dq_2,dq_3,dq_4,dq_5,dq_6,tau_J_0,tau_J_1,tau_J_2,tau_J_3,tau_J_4,tau_J_5,tau_J_6,O_dP_EE_c_0,O_dP_EE_c_1,O_dP_EE_c_2,O_dP_EE_c_3,O_dP_EE_c_4,O_dP_EE_c_5
13103075.000000,-2.417850,-1.662608,1.040152,-1.352902,1.798087,1.079506,-0.546502,0.000789,0.000617,0.000961,0.000343,-0.000355,-0.000467,0.000423,-0.017047,41.578411,-21.052444,-5.721254,0.835355,1.331283,0.021835,0.000000,0.000000,0.000000,0.000000,0.000000,0.000000
13103076.000000,-2.417850,-1.662608,1.040145,-1.352902,1.798088,1.079508,-0.546501,0.000526,-0.000239,-0.001689,0.000229,0.000000,0.000401,0.000757,-0.017047,41.606182,-20.953262,-5.721254,0.828947,1.312057,0.009017,0.000000,0.000000,0.000000,0.000000,0.000000,0.000000
13103077.000000,-2.417853,-1.662606,1.040147,-1.352904,1.798089,1.079508,-0.546502,-0.000763,0.001047,-0.000576,-0.000404,0.000204,0.000030,0.000030,0.030561,41.554607,-20.977066,-5.697450,0.823453,1.318465,0.021835,0.000000,0.000000,0.000000,0.000000,0.000000,0.000000
13103078.000000,-2.417853,-1.662610,1.040150,-1.352902,1.798087,1.079508,-0.546502,-0.000509,-0.000508,0.000724,0.000287,-0.000305,0.000020,0.000020,0.030561,41.606182,-21.024673,-5.721254,0.835355,1.318465,0.021835,0.000000,0.000000,0.000000,0.000000,0.000000,0.000000
13103079.000000,-2.417849,-1.662611,1.040150,-1.352904,1.798088,1.079506,-0.546509,0.008362,-0.002304,-0.000078,0.001127,0.000916,-0.001682,-0.001207,0.328107,41.554607,-21.000870,-5.626039,0.805143,1.364242,0.054794,0.000000,0.000000,0.000000,0.000000,0.000000,0.000000
13103080.000000,-2.417841,-1.662614,1.040154,-1.352904,1.798092,1.079500,-0.546520,0.013986,-0.002995,0.002654,0.002652,0.004578,0.001880,-0.003357,1.367536,41.336407,-20.977066,-5.427675,0.698026,1.539108,-0.004716,0.000000,0.000000,0.000000,0.000000,0.000000,0.000000
13103081.000000,-2.417808,-1.662616,1.040164,-1.352900,1.798086,1.079498,-0.546543,0.023322,0.000239,0.007691,0.003747,-0.002622,-0.001918,-0.004835,2.926679,40.943645,-20.953262,-5.205507,0.613798,1.773483,-0.070634,0.000000,0.000000,0.000000,0.000000,0.000000,0.000000
13103082.000000,-2.417760,-1.662613,1.040179,-1.352908,1.798071,1.079516,-0.546583,0.028402,0.001787,0.011597,-0.000051,-0.008989,0.004965,-0.018079,4.807172,40.427898,-20.929459,-4.784975,0.559781,1.884261,-0.070634,0.000000,0.000000,0.000000,0.000000,0.000000,0.000000
13103083.000000,-2.417695,-1.662616,1.040198,-1.352919,1.798043,1.079571,-0.546635,0.037272,0.001599,0.012136,-0.006782,-0.012219,0.017803,-0.031088,6.616254,39.939922,-20.806473,-4.439821,0.578092,1.793624,-0.089860,0.000000,0.000000,0.000000,0.000000,0.000000,0.000000
13103084.000000,-2.417604,-1.662617,1.040229,-1.352941,1.798003,1.079652,-0.546709,0.048450,0.004249,0.018237,-0.017917,-0.024061,0.040544,-0.048331,8.223004,39.451946,-20.782669,-4.090700,0.625699,1.578475,-0.050492,0.000000,0.000000,0.000000,0.000000,0.000000,0.000000
13103085.000000,-2.417508,-1.662612,1.040266,-1.352980,1.797952,1.079752,-0.546792,0.060423,0.006550,0.021584,-0.027835,-0.037071,0.060309,-0.062133,9.710736,38.936199,-20.707291,-3.670168,0.667814,1.396285,-0.116410,0.000000,0.000000,0.000000,0.000000,0.000000,0.000000
13103086.000000,-2.417391,-1.662612,1.040313,-1.353024,1.797887,1.079866,-0.546909,0.074845,0.005334,0.027928,-0.034039,-0.045420,0.080333,-0.082145,10.972333,38.543438,-20.659683,-3.424196,0.679716,1.324874,-0.050492,0.000000,0.000000,0.000000,0.000000,0.000000,0.000000
13103087.000000,-2.417262,-1.662606,1.040373,-1.353084,1.797800,1.079997,-0.547041,0.090894,0.007543,0.038932,-0.043102,-0.059448,0.105461,-0.101645,12.110944,38.154644,-20.608109,-3.126650,0.673307,1.331283,-0.110001,0.000000,0.000000,0.000000,0.000000,0.000000,0.000000
13103088.000000,-2.417125,-1.662597,1.040444,-1.353149,1.797709,1.080147,-0.547208,0.108631,0.006814,0.050799,-0.050358,-0.069788,0.122082,-0.125068,13.126569,37.738079,-20.584305,-2.956056,0.559781,1.435653,-0.116410,0.000000,0.000000,0.000000,0.000000,0.000000,0.000000
13103089.000000,-2.416975,-1.662587,1.040527,-1.353232,1.797595,1.080321,-0.547407,0.117165,0.008151,0.057772,-0.062969,-0.084153,0.138803,-0.152201,14.043012,37.369122,-20.608109,-2.757692,0.476469,1.559249,-0.064225,0.000000,0.000000,0.000000,0.000000,0.000000,0.000000
13103090.000000,-2.416806,-1.662569,1.040626,-1.353324,1.797463,1.080519,-0.547626,0.128240,0.010358,0.070085,-0.069844,-0.098543,0.158013,-0.171385,14.709516,36.952557,-20.683487,-2.658510,0.374845,1.643478,-0.116410,0.000000,0.000000,0.000000,0.000000,0.000000,0.000000
13103091.000000,-2.416622,-1.662551,1.040745,-1.353437,1.797312,1.080761,-0.547873,0.147599,0.013939,0.088353,-0.086096,-0.120075,0.187536,-0.194639,15.304608,36.587566,-20.905655,-2.483949,0.320829,1.605026,-0.122819,0.000000,0.000000,0.000000,0.000000,0.000000,0.000000
13103092.000000,-2.416413,-1.662531,1.040875,-1.353566,1.797129,1.081041,-0.548146,0.166015,0.014162,0.100591,-0.100836,-0.138905,0.215521,-0.218337,15.701337,36.194805,-21.052444,-2.360964,0.351041,1.500655,-0.070634,0.000000,0.000000,0.000000,0.000000,0.000000,0.000000
13103094.000000,-2.415957,-1.662492,1.041169,-1.353888,1.796692,1.081649,-0.548732,0.199395,0.018856,0.127797,-0.135105,-0.189453,0.257247,-0.246708,16.344038,35.484661,-21.322220,-2.091188,0.476469,1.396285,-0.116410,0.000000,0.000000,0.000000,0.000000,0.000000,0.000000
13103095.000000,-2.415705,-1.662476,1.041341,-1.354067,1.796441,1.081975,-0.549048,0.224290,0.018256,0.137831,-0.147454,-0.206976,0.280912,-0.262952,16.566206,35.214886,-21.417435,-2.091188,0.500272,1.435653,-0.056901,0.000000,0.000000,0.000000,0.000000,0.000000,0.000000
13103096.000000,-2.415441,-1.662461,1.041513,-1.354256,1.796177,1.082330,-0.549350,0.237929,0.021876,0.151923,-0.158652,-0.223802,0.299507,-0.271840,16.764570,35.044292,-21.417435,-2.162599,0.494779,1.481429,-0.077042,0.000000,0.000000,0.000000,0.000000,0.000000,0.000000
13103097.000000,-2.415151,-1.662453,1.041697,-1.354464,1.795901,1.082706,-0.549660,0.253801,0.019487,0.160748,-0.175227,-0.239726,0.317448,-0.281656,16.839949,34.972881,-21.417435,-2.162599,0.458158,1.532699,-0.122819,0.000000,0.000000,0.000000,0.000000,0.000000,0.000000
13103098.000000,-2.414858,-1.662442,1.041891,-1.354696,1.795605,1.083094,-0.549985,0.264152,0.014576,0.169057,-0.188370,-0.254741,0.343129,-0.295198,16.962934,34.921307,-21.369827,-2.114992,0.386747,1.630660,-0.070634,0.000000,0.000000,0.000000,0.000000,0.000000,0.000000
13103099.000000,-2.414535,-1.662436,1.042093,-1.354951,1.795294,1.083513,-0.550293,0.281192,0.010558,0.180344,-0.208121,-0.270900,0.364033,-0.294659,16.939131,34.897503,-21.246841,-1.940431,0.315336,1.702071,-0.130143,0.000000,0.000000,0.000000,0.000000,0.000000,0.000000
13103100.000000,-2.414196,-1.662428,1.042309,-1.355223,1.794962,1.083948,-0.550602,0.300227,0.007808,0.190654,-0.228542,-0.288666,0.387197,-0.297293,16.911360,34.873699,-21.199234,-1.769838,0.308927,1.689254,-0.103593,0.000000,0.000000,0.000000,0.000000,0.000000,0.000000
13103101.000000,-2.413849,-1.662429,1.042534,-1.355517,1.794622,1.084422,-0.550905,0.317102,0.006843,0.204317,-0.247709,-0.299197,0.413636,-0.299525,16.911360,34.945110,-21.123856,-1.571474,0.327238,1.591293,-0.077042,0.000000,0.000000,0.000000,0.000000,0.000000,0.000000
13103102.000000,-2.413481,-1.662432,1.042766,-1.355819,1.794248,1.084923,-0.551197,0.332960,0.003738,0.211715,-0.261350,-0.324568,0.441310,-0.295106,16.863752,34.996685,-21.052444,-1.396913,0.351041,1.500655,-0.130143,0.000000,0.000000,0.000000,0.000000,0.000000,0.000000
13103103.000000,-2.413115,-1.662430,1.043013,-1.356122,1.793856,1.085429,-0.551494,0.347982,0.003335,0.221368,-0.272906,-0.344434,0.464510,-0.294443,16.962934,34.972881,-21.052444,-1.396913,0.398649,1.461288,-0.077042,0.000000,0.000000,0.000000,0.000000,0.000000,0.000000
13103104.000000,-2.412735,-1.662429,1.043261,-1.356439,1.793455,1.085967,-0.551771,0.360960,0.001882,0.230436,-0.292560,-0.359743,0.486641,-0.285624,17.185102,34.996685,-20.977066,-1.420717,0.470060,1.461288,-0.097184,0.000000,0.000000,0.000000,0.000000,0.000000,0.000000
13103105.000000,-2.412339,-1.662430,1.043523,-1.356772,1.793029,1.086506,-0.552049,0.370601,0.001416,0.240486,-0.304327,-0.376853,0.499377,-0.283144,17.359663,34.996685,-20.905655,-1.396913,0.476469,1.539108,-0.130143,0.000000,0.000000,0.000000,0.000000,0.000000,0.000000
13103106.000000,-2.411941,-1.662434,1.043793,-1.357120,1.792598,1.087079,-0.552330,0.380269,-0.000606,0.249674,-0.314428,-0.400767,0.518887,-0.284594,17.605635,35.068096,-20.782669,-1.448488,0.482877,1.611434,-0.089860,0.000000,0.000000,0.000000,0.000000,0.000000,0.000000
13103107.000000,-2.411524,-1.662431,1.044077,-1.357481,1.792148,1.087677,-0.552607,0.391484,0.000244,0.261808,-0.326242,-0.412633,0.539501,-0.277974,17.855574,35.044292,-20.731094,-1.349306,0.488370,1.630660,-0.089860,0.000000,0.000000,0.000000,0.000000,0.000000,0.000000
13103108.000000,-2.411091,-1.662433,1.044369,-1.357863,1.791675,1.088299,-0.552875,0.407391,-0.000326,0.272704,-0.344778,-0.428653,0.562858,-0.273649,18.002363,35.068096,-20.659683,-1.198549,0.464567,1.572067,-0.116410,0.000000,0.000000,0.000000,0.000000,0.000000,0.000000
13103109.000000,-2.410639,-1.662428,1.044669,-1.358260,1.791201,1.088949,-0.553137,0.422921,0.001504,0.282965,-0.368868,-0.437605,0.580525,-0.265292,18.125349,34.996685,-20.631912,-1.027956,0.452665,1.422836,-0.130143,0.000000,0.000000,0.000000,0.000000,0.000000,0.000000
13103110.000000,-2.410176,-1.662426,1.044980,-1.358670,1.790698,1.089624,-0.553402,0.430447,0.001598,0.289897,-0.386765,-0.463327,0.605882,-0.266065,18.276106,34.972881,-20.584305,-0.853395,0.506681,1.272689,-0.089860,0.000000,0.000000,0.000000,0.000000,0.000000,0.000000
13103111.000000,-2.409699,-1.662421,1.045305,-1.359095,1.790192,1.090291,-0.553649,0.448811,0.002857,0.300012,-0.394584,-0.476580,0.625136,-0.266260,18.347517,34.897503,-20.485123,-0.631227,0.494779,1.240646,-0.142960,0.000000,0.000000,0.000000,0.000000,0.000000,0.000000
13103112.000000,-2.409208,-1.662412,1.045642,-1.359525,1.789666,1.090984,-0.553904,0.462770,0.004246,0.310375,-0.407915,-0.492292,0.642130,-0.261772,18.522078,34.798321,-20.485123,-0.508241,0.535978,1.285506,-0.130143,0.000000,0.000000,0.000000,0.000000,0.000000,0.000000
13103113.000000,-2.408716,-1.662404,1.045982,-1.359973,1.789123,1.091680,-0.554155,0.471915,0.005074,0.317362,-0.419612,-0.500489,0.663131,-0.258320,18.795820,34.703106,-20.362137,-0.409059,0.494779,1.344100,-0.097184,0.000000,0.000000,0.000000,0.000000,0.000000,0.000000
13103114.000000,-2.408210,-1.662400,1.046339,-1.360437,1.788583,1.092408,-0.554394,0.481593,0.003952,0.329678,-0.430886,-0.509063,0.683508,-0.252931,19.140974,34.679302,-20.362137,-0.385256,0.494779,1.350509,-0.155778,0.000000,0.000000,0.000000,0.000000,0.000000,0.000000
13103115.000000,-2.407687,-1.662389,1.046697,-1.360906,1.788011,1.093156,-0.554648,0.492162,0.005520,0.340765,-0.440668,-0.524963,0.699490,-0.250511,19.513899,34.556316,-20.314529,-0.309877,0.506681,1.409103,-0.103593,0.000000,0.000000,0.000000,0.000000,0.000000,0.000000
13103116.000000,-2.407150,-1.662377,1.047077,-1.361391,1.787431,1.093911,-0.554897,0.506912,0.006564,0.350153,-0.449305,-0.539409,0.717783,-0.257198,19.759871,34.433331,-20.338333,-0.262270,0.482877,1.422836,-0.103593,0.000000,0.000000,0.000000,0.000000,0.000000,0.000000
13103117.000000,-2.406594,-1.662366,1.047466,-1.361895,1.786835,1.094708,-0.555140,0.520564,0.009317,0.359521,-0.472063,-0.557627,0.745169,-0.251958,19.958235,34.357952,-20.437515,-0.111513,0.535978,1.377059,-0.155778,0.000000,0.000000,0.000000,0.000000,0.000000,0.000000
13103118.000000,-2.406025,-1.662355,1.047868,-1.362415,1.786227,1.095518,-0.555393,0.533305,0.011214,0.369345,-0.485437,-0.573001,0.766421,-0.252559,20.231977,34.286541,-20.560501,0.011473,0.554288,1.272689,-0.097184,0.000000,0.000000,0.000000,0.000000,0.000000,0.000000
13103119.000000,-2.405445,-1.662338,1.048286,-1.362954,1.785610,1.096353,-0.555632,0.549422,0.010809,0.381880,-0.501728,-0.592562,0.787540,-0.249666,20.354963,34.163555,-20.754898,0.158263,0.542386,1.182052,-0.122819,0.000000,0.000000,0.000000,0.000000,0.000000,0.000000
13103120.000000,-2.404854,-1.662324,1.048712,-1.363494,1.784983,1.097207,-0.555876,0.561359,0.013037,0.392947,-0.518248,-0.602934,0.806573,-0.242602,20.676313,34.064373,-20.905655,0.209837,0.512174,1.207687,-0.142960,0.000000,0.000000,0.000000,0.000000,0.000000,0.000000
13103121.000000,-2.404246,-1.662307,1.049164,-1.364055,1.784335,1.098072,-0.556124,0.566762,0.012089,0.409826,-0.526589,-0.613798,0.826208,-0.244889,20.823103,33.941387,-21.199234,0.257445,0.452665,1.227828,-0.089860,0.000000,0.000000,0.000000,0.000000,0.000000,0.000000
13103122.000000,-2.403625,-1.662293,1.049601,-1.364620,1.783686,1.098961,-0.556360,0.583782,0.010120,0.416183,-0.548602,-0.622844,0.852215,-0.238120,21.096846,33.869976,-21.199234,0.257445,0.422452,1.266280,-0.130143,0.000000,0.000000,0.000000,0.000000,0.000000,0.000000
13103123.000000,-2.402986,-1.662278,1.050064,-1.365209,1.783003,1.099842,-0.556597,0.597805,0.012514,0.430605,-0.561608,-0.638337,0.857378,-0.236014,21.319014,33.770794,-21.322220,0.257445,0.405057,1.396285,-0.097184,0.000000,0.000000,0.000000,0.000000,0.000000,0.000000
13103124.000000,-2.402330,-1.662264,1.050543,-1.365811,1.782321,1.100767,-0.556828,0.615140,0.013510,0.442347,-0.568319,-0.656477,0.872457,-0.238079,21.394392,33.699383,-21.369827,0.380431,0.410551,1.474105,-0.163102,0.000000,0.000000,0.000000,0.000000,0.000000,0.000000
13103125.000000,-2.401655,-1.662247,1.051027,-1.366421,1.781608,1.101725,-0.557069,0.629253,0.018708,0.457056,-0.580213,-0.671514,0.898664,-0.241665,21.592756,33.576397,-21.516617,0.531187,0.494779,1.409103,-0.116410,0.000000,0.000000,0.000000,0.000000,0.000000,0.000000
13103126.000000,-2.400967,-1.662232,1.051524,-1.367057,1.780887,1.102703,-0.557308,0.646283,0.017723,0.463986,-0.595867,-0.687573,0.930935,-0.242345,21.715742,33.528790,-21.663406,0.753355,0.589994,1.240646,-0.103593,0.000000,0.000000,0.000000,0.000000,0.000000,0.000000
13103127.000000,-2.400255,-1.662220,1.052027,-1.367692,1.780173,1.103697,-0.557537,0.664737,0.014018,0.485336,-0.609553,-0.691986,0.951708,-0.237057,21.862532,33.477215,-21.786392,0.876341,0.715421,1.123458,-0.142960,0.000000,0.000000,0.000000,0.000000,0.000000,0.000000
13103128.000000,-2.399528,-1.662211,1.052548,-1.368325,1.779451,1.104713,-0.557769,0.686733,0.013169,0.496665,-0.615931,-0.695302,0.968459,-0.234428,22.088667,33.477215,-21.984756,0.975523,0.852750,1.110641,-0.130143,0.000000,0.000000,0.000000,0.000000,0.000000,0.000000
13103129.000000,-2.398805,-1.662201,1.053069,-1.368978,1.778746,1.105727,-0.557995,0.694876,0.011515,0.503642,-0.624529,-0.698503,0.982039,-0.231860,22.088667,33.528790,-21.984756,0.900145,0.996488,1.240646,-0.142960,0.000000,0.000000,0.000000,0.000000,0.000000,0.000000
13103130.000000,-2.398063,-1.662194,1.053604,-1.369640,1.778035,1.106765,-0.558227,0.693867,0.008860,0.517003,-0.641749,-0.702297,0.998258,-0.224020,21.120649,33.647808,-21.909378,0.531187,0.954374,1.454879,-0.149369,0.000000,0.000000,0.000000,0.000000,0.000000,0.000000
13103131.000000,-2.397340,-1.662185,1.054160,-1.370337,1.777324,1.107821,-0.558454,0.706980,0.007556,0.529799,-0.656547,-0.700540,1.018869,-0.224836,19.414717,33.746990,-21.591995,-0.036134,0.925077,1.611434,-0.149369,0.000000,0.000000,0.000000,0.000000,0.000000,0.000000
13103132.000000,-2.396610,-1.662179,1.054745,-1.371036,1.776624,1.108919,-0.558674,0.714410,0.007090,0.557512,-0.663575,-0.698662,1.046972,-0.219401,16.986738,33.699383,-21.199234,-0.952577,0.847257,1.617843,-0.182328,0.000000,0.000000,0.000000,0.000000,0.000000,0.000000
13103133.000000,-2.395878,-1.662172,1.055342,-1.371744,1.775925,1.110044,-0.558905,0.720471,0.006910,0.572581,-0.676930,-0.702520,1.074132,-0.218550,14.241376,33.501019,-20.512894,-1.742067,0.667814,1.637069,-0.116410,0.000000,0.000000,0.000000,0.000000,0.000000,0.000000
13103134.000000,-2.395163,-1.662172,1.055969,-1.372462,1.775238,1.111147,-0.559123,0.725078,0.003820,0.581551,-0.683722,-0.689705,1.085315,-0.221073,11.666608,33.282818,-19.727371,-2.460146,0.500272,1.760665,-0.155778,0.000000,0.000000,0.000000,0.000000,0.000000,0.000000
13103135.000000,-2.394437,-1.662180,1.056607,-1.373169,1.774560,1.112294,-0.559348,0.731433,-0.000670,0.593988,-0.693250,-0.686781,1.105850,-0.223806,9.139447,33.136028,-18.965652,-3.102846,0.374845,1.754256,-0.116410,0.000000,0.000000,0.000000,0.000000,0.000000,0.000000
13103136.000000,-2.393706,-1.662193,1.057268,-1.373876,1.773895,1.113439,-0.559567,0.734443,-0.005821,0.608951,-0.696043,-0.672835,1.120739,-0.219069,6.814619,33.060650,-18.180130,-3.670168,0.219205,1.695663,-0.130143,0.000000,0.000000,0.000000,0.000000,0.000000,0.000000
13103137.000000,-2.392984,-1.662212,1.057928,-1.374573,1.773231,1.114630,-0.559789,0.733174,-0.008650,0.622550,-0.691373,-0.666581,1.143597,-0.216791,4.783369,33.088421,-17.319229,-4.241457,0.154203,1.617843,-0.116410,0.000000,0.000000,0.000000,0.000000,0.000000,0.000000
13103138.000000,-2.392258,-1.662239,1.058580,-1.375259,1.772588,1.115839,-0.560015,0.727256,-0.016494,0.627667,-0.684247,-0.659466,1.158205,-0.214844,3.049665,33.235210,-16.486099,-4.562807,0.015958,1.559249,-0.097184,0.000000,0.000000,0.000000,0.000000,0.000000,0.000000
13103139.000000,-2.391534,-1.662264,1.059250,-1.375943,1.771924,1.117068,-0.560222,0.730191,-0.020319,0.634556,-0.677058,-0.657570,1.183406,-0.210122,1.490522,33.306622,-15.847366,-4.733400,0.081876,1.383468,-0.175919,0.000000,0.000000,0.000000,0.000000,0.000000,0.000000
13103140.000000,-2.390813,-1.662297,1.059908,-1.376614,1.771281,1.118304,-0.560442,0.727632,-0.023600,0.640676,-0.687624,-0.657313,1.193280,-0.217261,0.252729,33.405804,-15.061844,-4.884157,0.183500,1.364242,-0.077042,0.000000,0.000000,0.000000,0.000000,0.000000,0.000000
13103141.000000,-2.390085,-1.662327,1.060586,-1.377308,1.770637,1.119574,-0.560651,0.722604,-0.026769,0.646363,-0.690154,-0.649574,1.209435,-0.216227,-0.862078,33.405804,-14.446915,-4.610414,0.261320,1.169235,-0.116410,0.000000,0.000000,0.000000,0.000000,0.000000,0.000000
13103142.000000,-2.389362,-1.662359,1.061268,-1.377997,1.770010,1.120827,-0.560861,0.722611,-0.027964,0.653153,-0.690208,-0.659936,1.217277,-0.213581,-1.826129,33.354229,-13.812149,-4.364442,0.369352,0.922042,-0.130143,0.000000,0.000000,0.000000,0.000000,0.000000,0.000000
13103143.000000,-2.388643,-1.662390,1.061944,-1.378688,1.769368,1.122080,-0.561069,0.712543,-0.030698,0.657670,-0.693650,-0.655997,1.227568,-0.210003,-2.520403,33.235210,-13.296402,-3.820925,0.542386,0.850631,-0.163102,0.000000,0.000000,0.000000,0.000000,0.000000,0.000000
13103144.000000,-2.387931,-1.662421,1.062641,-1.379382,1.768745,1.123296,-0.561274,0.714764,-0.028505,0.668465,-0.690644,-0.649850,1.220438,-0.208798,-3.111529,33.060650,-12.879837,-3.277406,0.535978,0.922042,-0.182328,0.000000,0.000000,0.000000,0.000000,0.000000,0.000000
13103145.000000,-2.387209,-1.662447,1.063332,-1.380071,1.768137,1.124533,-0.561480,0.713583,-0.029283,0.678700,-0.684695,-0.634315,1.224354,-0.209555,-3.682818,32.842449,-12.510880,-2.928285,0.452665,0.966903,-0.136552,0.000000,0.000000,0.000000,0.000000,0.000000,0.000000
13103146.000000,-2.386500,-1.662465,1.064035,-1.380741,1.767526,1.125768,-0.561680,0.702735,-0.024655,0.684950,-0.681335,-0.629188,1.220139,-0.207235,-3.956561,32.525066,-12.241104,-2.658510,0.422452,0.993453,-0.169511,0.000000,0.000000,0.000000,0.000000,0.000000,0.000000
13103147.000000,-2.385798,-1.662483,1.064752,-1.381408,1.766939,1.126970,-0.561890,0.698823,-0.024488,0.690376,-0.678080,-0.617016,1.217548,-0.207130,-4.250140,32.203716,-12.066544,-2.634706,0.267728,1.175643,-0.136552,0.000000,0.000000,0.000000,0.000000,0.000000,0.000000
13103148.000000,-2.385091,-1.662489,1.065459,-1.382061,1.766344,1.128172,-0.562096,0.697953,-0.018619,0.695527,-0.671973,-0.612195,1.204475,-0.206603,-4.500079,31.763348,-11.943558,-2.583132,0.213712,1.377059,-0.155778,0.000000,0.000000,0.000000,0.000000,0.000000,0.000000
13103149.000000,-2.384399,-1.662494,1.066186,-1.382717,1.765739,1.129372,-0.562305,0.694262,-0.011788,0.704375,-0.662512,-0.605729,1.200644,-0.206387,-4.623065,31.322979,-11.820572,-2.606935,0.231107,1.448470,-0.169511,0.000000,0.000000,0.000000,0.000000,0.000000,0.000000
13103150.000000,-2.383700,-1.662491,1.066915,-1.383369,1.765155,1.130593,-0.562515,0.691340,-0.005871,0.711288,-0.649901,-0.601825,1.206058,-0.212282,-4.773821,30.835003,-11.649979,-2.733888,0.255826,1.357833,-0.149369,0.000000,0.000000,0.000000,0.000000,0.000000,0.000000
13103151.000000,-2.382996,-1.662478,1.067651,-1.384011,1.764558,1.131830,-0.562716,0.692300,-0.000414,0.718644,-0.644082,-0.597070,1.216471,-0.203329,-4.920611,30.295452,-11.602371,-2.757692,0.344633,1.162826,-0.175919,0.000000,0.000000,0.000000,0.000000,0.000000,0.000000
13103152.000000,-2.382306,-1.662460,1.068399,-1.384641,1.763980,1.133033,-0.562918,0.689576,0.007132,0.722684,-0.638353,-0.588127,1.215765,-0.209239,-5.118975,29.732098,-11.550797,-3.027467,0.308927,1.031905,-0.142960,0.000000,0.000000,0.000000,0.000000,0.000000,0.000000
13103153.000000,-2.381610,-1.662443,1.069147,-1.385261,1.763408,1.134259,-0.563119,0.685207,0.013937,0.731709,-0.631973,-0.578250,1.217554,-0.202890,-5.265765,29.244122,-11.455582,-3.202028,0.285123,0.889083,-0.169511,0.000000,0.000000,0.000000,0.000000,0.000000,0.000000
13103154.000000,-2.380910,-1.662424,1.069891,-1.385883,1.762842,1.135455,-0.563326,0.685133,0.014178,0.732181,-0.625216,-0.569929,1.205116,-0.204438,-5.392718,28.827557,-11.086624,-3.348818,0.267728,0.836898,-0.155778,0.000000,0.000000,0.000000,0.000000,0.000000,0.000000
13103155.000000,-2.380227,-1.662404,1.070648,-1.386511,1.762279,1.136646,-0.563526,0.687463,0.017119,0.736717,-0.621202,-0.567207,1.196371,-0.206587,-5.464129,28.434795,-10.741470,-3.448000,0.201810,1.019088,-0.175919,0.000000,0.000000,0.000000,0.000000,0.000000,0.000000
13103156.000000,-2.379534,-1.662378,1.071405,-1.387122,1.761724,1.137850,-0.563724,0.684494,0.020573,0.744764,-0.619613,-0.559262,1.181959,-0.201665,-5.539507,27.994427,-10.424088,-3.499574,0.069974,1.129867,-0.182328,0.000000,0.000000,0.000000,0.000000,0.000000,0.000000
13103157.000000,-2.378850,-1.662354,1.072174,-1.387728,1.761162,1.139046,-0.563924,0.684491,0.022047,0.753800,-0.616095,-0.556951,1.181089,-0.199270,-5.662493,27.601665,-10.055130,-3.598757,-0.067355,1.142684,-0.155778,0.000000,0.000000,0.000000,0.000000,0.000000,0.000000
13103158.000000,-2.378164,-1.662337,1.072941,-1.388326,1.760600,1.140274,-0.564114,0.684609,0.020274,0.763396,-0.617907,-0.553923,1.183945,-0.196668,-5.686297,27.335857,-9.709976,-3.646364,-0.019747,0.987045,-0.155778,0.000000,0.000000,0.000000,0.000000,0.000000,0.000000
13103159.000000,-2.377461,-1.662321,1.073721,-1.388924,1.760037,1.141521,-0.564318,0.684781,0.017675,0.771802,-0.612348,-0.558501,1.196509,-0.195095,-5.912432,27.137493,-9.416397,-3.745546,0.010465,0.733443,-0.130143,0.000000,0.000000,0.000000,0.000000,0.000000,0.000000
13103160.000000,-2.376768,-1.662308,1.074518,-1.389540,1.759488,1.142730,-0.564509,0.687953,0.017318,0.779503,-0.615720,-0.558675,1.194163,-0.194926,-6.158404,27.014507,-9.198196,-3.646364,0.052579,0.641891,-0.169511,0.000000,0.000000,0.000000,0.000000,0.000000,0.000000
13103161.000000,-2.376060,-1.662297,1.075309,-1.390131,1.758935,1.143957,-0.564708,0.690329,0.016294,0.787494,-0.606105,-0.559307,1.200534,-0.198427,-6.479754,26.943096,-8.952225,-3.670168,0.123990,0.616256,-0.163102,0.000000,0.000000,0.000000,0.000000,0.000000,0.000000
13103162.000000,-2.375365,-1.662289,1.076119,-1.390728,1.758374,1.145171,-0.564914,0.693110,0.011663,0.794159,-0.599872,-0.558299,1.205810,-0.196712,-6.777300,26.919292,-8.777664,-3.745546,0.171598,0.576888,-0.122819,0.000000,0.000000,0.000000,0.000000,0.000000,0.000000
13103163.000000,-2.374672,-1.662291,1.076936,-1.391319,1.757838,1.146403,-0.565095,0.690697,0.005081,0.823831,-0.591554,-0.552927,1.209991,-0.192366,-6.900286,27.042278,-8.730057,-3.892336,0.189908,0.597030,-0.182328,0.000000,0.000000,0.000000,0.000000,0.000000,0.000000
13103164.000000,-2.373978,-1.662287,1.077773,-1.391882,1.757294,1.147627,-0.565287,0.688072,0.006805,0.831000,-0.584411,-0.549341,1.201791,-0.191587,-6.999468,27.042278,-8.682449,-4.189882,0.117582,0.733443,-0.169511,0.000000,0.000000,0.000000,0.000000,0.000000,0.000000
13103165.000000,-2.373287,-1.662288,1.078625,-1.392454,1.756758,1.148836,-0.565475,0.692358,0.002685,0.840822,-0.572806,-0.538496,1.199224,-0.187247,-7.221636,27.137493,-8.706253,-4.340639,0.040677,0.882674,-0.142960,0.000000,0.000000,0.000000,0.000000,0.000000,0.000000
13103166.000000,-2.372585,-1.662284,1.079468,-1.393016,1.756221,1.150050,-0.565661,0.691939,0.002072,0.846260,-0.567050,-0.541201,1.196424,-0.186266,-7.443804,27.137493,-8.654678,-4.535036,0.010465,0.993453,-0.175919,0.000000,0.000000,0.000000,0.000000,0.000000,0.000000
13103167.000000,-2.371884,-1.662288,1.080339,-1.393586,1.755687,1.151256,-0.565849,0.697524,-0.000170,0.851786,-0.568762,-0.530372,1.196278,-0.187857,-7.864336,27.212872,-8.730057,-4.610414,0.004056,1.039230,-0.149369,0.000000,0.000000,0.000000,0.000000,0.000000,0.000000
13103168.000000,-2.371172,-1.662286,1.081211,-1.394158,1.755158,1.152476,-0.566031,0.700974,0.000602,0.853168,-0.566644,-0.533616,1.194357,-0.185351,-8.288836,27.189068,-8.630875,-4.586610,0.058073,1.019088,-0.155778,0.000000,0.000000,0.000000,0.000000,0.000000,0.000000
13103169.000000,-2.370451,-1.662284,1.082089,-1.394726,1.754624,1.153706,-0.566209,0.704955,0.001170,0.863613,-0.566694,-0.535481,1.192424,-0.180778,-8.832355,27.161297,-8.630875,-4.586610,0.100187,0.966903,-0.163102,0.000000,0.000000,0.000000,0.000000,0.000000,0.000000
13103170.000000,-2.369739,-1.662281,1.082983,-1.395302,1.754100,1.154912,-0.566383,0.704777,0.002540,0.869118,-0.569226,-0.530648,1.197676,-0.179910,-9.328265,27.089886,-8.630875,-4.439821,0.093778,0.895492,-0.202470,0.000000,0.000000,0.000000,0.000000,0.000000,0.000000
13103171.000000,-2.369021,-1.662273,1.083870,-1.395862,1.753581,1.156145,-0.566565,0.703184,0.004080,0.877500,-0.565568,-0.525698,1.204732,-0.179965,-9.820209,26.990704,-8.460281,-4.412050,0.058073,0.752670,-0.136552,0.000000,0.000000,0.000000,0.000000,0.000000,0.000000
13103172.000000,-2.368312,-1.662263,1.084772,-1.396410,1.753071,1.157339,-0.566741,0.702494,0.005647,0.879527,-0.555831,-0.516560,1.197821,-0.180803,-10.145526,26.867718,-8.238113,-4.562807,-0.001437,0.765487,-0.163102,0.000000,0.000000,0.000000,0.000000,0.000000,0.000000
13103173.000000,-2.367616,-1.662247,1.085692,-1.396953,1.752558,1.158548,-0.566914,0.699407,0.007793,0.888046,-0.547692,-0.520583,1.200404,-0.182196,-10.367694,26.697124,-8.043716,-4.733400,-0.013339,0.830489,-0.182328,0.000000,0.000000,0.000000,0.000000,0.000000,0.000000
13103174.000000,-2.366900,-1.662241,1.086616,-1.397485,1.752046,1.159749,-0.567098,0.697762,0.006894,0.904216,-0.546169,-0.518539,1.195385,-0.183635,-10.835834,26.625713,-7.992142,-4.884157,-0.049044,0.947677,-0.142960,0.000000,0.000000,0.000000,0.000000,0.000000,0.000000
13103175.000000,-2.366205,-1.662229,1.087561,-1.398022,1.751538,1.160932,-0.567272,0.699066,0.010094,0.911463,-0.537266,-0.517505,1.192939,-0.177730,-11.058002,26.526531,-7.944534,-5.030946,-0.079257,1.045638,-0.208878,0.000000,0.000000,0.000000,0.000000,0.000000,0.000000
13103176.000000,-2.365500,-1.662225,1.088511,-1.398553,1.751034,1.162147,-0.567449,0.698848,0.009614,0.926662,-0.546195,-0.514800,1.194598,-0.177501,-11.355548,26.550335,-7.992142,-5.106325,-0.037142,0.974227,-0.163102,0.000000,0.000000,0.000000,0.000000,0.000000,0.000000
13103178.000000,-2.364087,-1.662217,1.090493,-1.399611,1.750045,1.164564,-0.567785,0.705876,0.002808,0.948248,-0.534440,-0.503860,1.202092,-0.171287,-12.002215,26.649517,-8.412674,-5.427675,-0.037142,0.792037,-0.221696,0.000000,0.000000,0.000000,0.000000,0.000000,0.000000
13103179.000000,-2.363379,-1.662215,1.091480,-1.400126,1.749554,1.165754,-0.567973,0.703638,0.002902,0.964388,-0.527351,-0.497072,1.206041,-0.175298,-12.347369,26.748699,-8.507889,-5.574464,-0.072848,0.915633,-0.103593,0.000000,0.000000,0.000000,0.000000,0.000000,0.000000
13103180.000000,-2.362682,-1.662219,1.092480,-1.400638,1.749063,1.166928,-0.568140,0.701502,-0.001599,0.972414,-0.521332,-0.495304,1.194236,-0.171697,-12.621112,26.919292,-8.507889,-5.721254,-0.126864,1.039230,-0.155778,0.000000,0.000000,0.000000,0.000000,0.000000,0.000000
13103181.000000,-2.361979,-1.662225,1.093464,-1.401156,1.748575,1.168127,-0.568307,0.696851,-0.001681,0.995604,-0.514527,-0.493409,1.196340,-0.169914,-12.890887,27.089886,-8.313492,-5.872011,-0.103060,1.090499,-0.175919,0.000000,0.000000,0.000000,0.000000,0.000000,0.000000
13103182.000000,-2.361275,-1.662227,1.094474,-1.401654,1.748104,1.169317,-0.568481,0.695036,-0.002932,0.996142,-0.514839,-0.485401,1.189646,-0.170238,-13.113055,27.189068,-8.238113,-6.018800,-0.138766,1.182052,-0.155778,0.000000,0.000000,0.000000,0.000000,0.000000,0.000000
13103183.000000,-2.360581,-1.662222,1.095496,-1.402157,1.747628,1.170487,-0.568644,0.694150,-0.000366,1.000953,-0.506260,-0.485503,1.186247,-0.171629,-13.335223,27.137493,-8.115128,-6.117982,-0.240389,1.214095,-0.208878,0.000000,0.000000,0.000000,0.000000,0.000000,0.000000
13103184.000000,-2.359882,-1.662230,1.096507,-1.402656,1.747152,1.171686,-0.568818,0.694655,-0.002834,1.010374,-0.504225,-0.482218,1.186378,-0.172941,-13.509784,27.260479,-7.920731,-6.193361,-0.204684,1.077682,-0.163102,0.000000,0.000000,0.000000,0.000000,0.000000,0.000000
13103185.000000,-2.359193,-1.662237,1.097534,-1.403161,1.746673,1.172875,-0.568983,0.693202,-0.003995,1.006484,-0.504305,-0.480258,1.165742,-0.170719,-13.684344,27.359661,-7.599380,-6.193361,-0.133273,0.889083,-0.182328,0.000000,0.000000,0.000000,0.000000,0.000000,0.000000
13103186.000000,-2.358502,-1.662246,1.098574,-1.403667,1.746201,1.174077,-0.569150,0.689531,-0.004172,1.009073,-0.502905,-0.477130,1.174249,-0.166625,-13.882709,27.431072,-7.234390,-6.240968,-0.114962,0.765487,-0.163102,0.000000,0.000000,0.000000,0.000000,0.000000,0.000000
13103187.000000,-2.357821,-1.662257,1.099626,-1.404160,1.745727,1.175263,-0.569319,0.684547,-0.004981,1.026624,-0.503684,-0.472352,1.173258,-0.165167,-13.882709,27.530254,-7.182816,-6.363954,-0.049044,0.792037,-0.175919,0.000000,0.000000,0.000000,0.000000,0.000000,0.000000
13103188.000000,-2.357153,-1.662258,1.100689,-1.404646,1.745267,1.176449,-0.569483,0.677152,-0.003230,1.028324,-0.494218,-0.471330,1.177545,-0.165905,-13.930316,27.530254,-6.988419,-6.590089,-0.133273,0.727035,-0.188737,0.000000,0.000000,0.000000,0.000000,0.000000,0.000000
13103189.000000,-2.356493,-1.662260,1.101748,-1.405121,1.744812,1.177655,-0.569654,0.669629,-0.002085,1.038340,-0.487103,-0.467333,1.193830,-0.168360,-13.783526,27.530254,-6.790054,-6.883668,-0.199191,0.603439,-0.149369,0.000000,0.000000,0.000000,0.000000,0.000000,0.000000
13103190.000000,-2.355832,-1.662265,1.102848,-1.405594,1.744358,1.178835,-0.569819,0.665700,-0.004935,1.057538,-0.484429,-0.460600,1.198841,-0.167693,-13.632770,27.554058,-6.865433,-7.205019,-0.234896,0.629073,-0.169511,0.000000,0.000000,0.000000,0.000000,0.000000,0.000000
13103191.000000,-2.355183,-1.662268,1.103962,-1.406074,1.743913,1.180029,-0.569979,0.659612,-0.004061,1.067165,-0.478662,-0.458093,1.203141,-0.168374,-13.632770,27.577862,-6.889236,-7.427186,-0.342013,0.629073,-0.155778,0.000000,0.000000,0.000000,0.000000,0.000000,0.000000
13103192.000000,-2.354520,-1.662265,1.105066,-1.406562,1.743461,1.181236,-0.570138,0.658386,-0.001755,1.077405,-0.484076,-0.453209,1.207101,-0.164392,-13.708148,27.530254,-6.889236,-7.379579,-0.312716,0.622665,-0.142960,0.000000,0.000000,0.000000,0.000000,0.000000,0.000000
13103193.000000,-2.353866,-1.662265,1.106191,-1.407040,1.743009,1.182426,-0.570295,0.654672,-0.000734,1.088997,-0.476568,-0.454437,1.221694,-0.160035,-13.882709,27.506451,-6.936844,-7.478761,-0.240389,0.576888,-0.155778,0.000000,0.000000,0.000000,0.000000,0.000000,0.000000
13103194.000000,-2.353204,-1.662259,1.107307,-1.407523,1.742562,1.183641,-0.570453,0.656166,0.001740,1.096199,-0.487575,-0.453686,1.226061,-0.157502,-14.029498,27.407269,-6.913040,-7.454957,-0.222994,0.473434,-0.163102,0.000000,0.000000,0.000000,0.000000,0.000000,0.000000
13103195.000000,-2.352535,-1.662256,1.108448,-1.407998,1.742111,1.184837,-0.570608,0.659553,-0.001079,1.105644,-0.483797,-0.447903,1.226406,-0.150809,-14.227862,27.359661,-6.813858,-7.526369,-0.199191,0.544845,-0.163102,0.000000,0.000000,0.000000,0.000000,0.000000,0.000000
13103196.000000,-2.351886,-1.662244,1.109590,-1.408467,1.741673,1.186020,-0.570759,0.656578,0.003596,1.109809,-0.478355,-0.450183,1.219521,-0.155882,-14.327044,27.161297,-6.520279,-7.677125,-0.252291,0.662032,-0.155778,0.000000,0.000000,0.000000,0.000000,0.000000,0.000000
13103197.000000,-2.351231,-1.662237,1.110725,-1.408928,1.741231,1.187214,-0.570911,0.656156,0.004938,1.113491,-0.475428,-0.447689,1.215983,-0.153444,-14.426227,27.042278,-6.302078,-7.823915,-0.312716,0.759078,-0.188737,0.000000,0.000000,0.000000,0.000000,0.000000,0.000000
13103198.000000,-2.350595,-1.662225,1.111900,-1.409393,1.740795,1.188397,-0.571067,0.661498,0.007193,1.125054,-0.470874,-0.441901,1.204430,-0.152641,-14.450030,26.867718,-6.250504,-7.899293,-0.348422,0.830489,-0.169511,0.000000,0.000000,0.000000,0.000000,0.000000,0.000000
13103199.000000,-2.349948,-1.662209,1.113095,-1.409860,1.740369,1.189595,-0.571220,0.656729,0.009205,1.164424,-0.468750,-0.440048,1.211062,-0.153070,-14.501605,26.673321,-6.302078,-7.970705,-0.455538,0.811263,-0.149369,0.000000,0.000000,0.000000,0.000000,0.000000,0.000000
13103200.000000,-2.349289,-1.662200,1.114297,-1.410311,1.739934,1.190799,-0.571364,0.655575,0.008911,1.187629,-0.463032,-0.436531,1.205710,-0.146563,-14.672198,26.550335,-6.571854,-8.069887,-0.497653,0.778304,-0.169511,0.000000,0.000000,0.000000,0.000000,0.000000,0.000000
13103201.000000,-2.348661,-1.662189,1.115536,-1.410778,1.739498,1.191971,-0.571513,0.638473,0.009297,1.201778,-0.460388,-0.432762,1.196112,-0.152011,-14.624591,26.403545,-7.036026,-8.046083,-0.455538,0.765487,-0.155778,0.000000,0.000000,0.000000,0.000000,0.000000,0.000000
13103202.000000,-2.348017,-1.662178,1.116772,-1.411226,1.739068,1.193163,-0.571661,0.636714,0.009017,1.215657,-0.460104,-0.437412,1.188716,-0.150570,-14.699969,26.280560,-7.504166,-8.121462,-0.438143,0.765487,-0.188737,0.000000,0.000000,0.000000,0.000000,0.000000,0.000000
13103203.000000,-2.347381,-1.662173,1.118028,-1.411683,1.738639,1.194326,-0.571813,0.628386,0.007639,1.230243,-0.456723,-0.432986,1.157089,-0.146765,-14.723773,26.209148,-7.821548,-8.196840,-0.384127,0.843307,-0.169511,0.000000,0.000000,0.000000,0.000000,0.000000,0.000000
13103204.000000,-2.346761,-1.662176,1.119306,-1.412136,1.738223,1.195511,-0.571963,0.625527,0.003946,1.246473,-0.455844,-0.429995,1.156575,-0.144492,-14.624591,26.256756,-8.142899,-8.343630,-0.330111,0.901900,-0.130143,0.000000,0.000000,0.000000,0.000000,0.000000,0.000000
13103205.000000,-2.346131,-1.662176,1.120560,-1.412579,1.737797,1.196687,-0.572104,0.620316,0.002606,1.245493,-0.450926,-0.427483,1.150925,-0.138769,-14.573016,26.256756,-8.238113,-8.419008,-0.287997,0.974227,-0.188737,0.000000,0.000000,0.000000,0.000000,0.000000,0.000000
13103206.000000,-2.345513,-1.662183,1.121837,-1.413034,1.737381,1.197858,-0.572257,0.621823,0.004202,1.242894,-0.450254,-0.419826,1.153951,-0.142613,-14.549212,26.550335,-8.531693,-8.442812,-0.282504,1.006271,-0.149369,0.000000,0.000000,0.000000,0.000000,0.000000,0.000000
13103207.000000,-2.344890,-1.662198,1.123066,-1.413482,1.736988,1.199040,-0.572394,0.619767,-0.000100,1.229659,-0.450541,-0.407021,1.160885,-0.138403,-14.402423,27.236675,-8.682449,-8.343630,-0.348422,1.052047,-0.188737,0.000000,0.000000,0.000000,0.000000,0.000000,0.000000
13103208.000000,-2.344265,-1.662223,1.124303,-1.413947,1.736581,1.200215,-0.572537,0.617532,-0.005413,1.227127,-0.454702,-0.402423,1.171241,-0.137581,-14.053302,28.339581,-9.170425,-8.196840,-0.384127,1.084090,-0.163102,0.000000,0.000000,0.000000,0.000000,0.000000,0.000000
13103209.000000,-2.343650,-1.662244,1.125530,-1.414410,1.736181,1.201413,-0.572676,0.614086,-0.011354,1.217477,-0.458337,-0.399081,1.181130,-0.140677,-13.632770,29.585308,-9.884537,-7.998476,-0.324618,1.025497,-0.169511,0.000000,0.000000,0.000000,0.000000,0.000000,0.000000
13103210.000000,-2.343030,-1.662257,1.126734,-1.414869,1.735800,1.202620,-0.572819,0.612944,-0.014286,1.213680,-0.459084,-0.393287,1.190323,-0.143368,-13.140826,30.835003,-10.765274,-7.875490,-0.342013,1.019088,-0.163102,0.000000,0.000000,0.000000,0.000000,0.000000,0.000000
13103211.000000,-2.342429,-1.662264,1.127954,-1.415328,1.735403,1.203809,-0.572961,0.609201,-0.014515,1.213547,-0.459436,-0.394845,1.193495,-0.146036,-12.593341,32.033123,-11.772964,-7.847719,-0.306307,1.039230,-0.142960,0.000000,0.000000,0.000000,0.000000,0.000000,0.000000
13103212.000000,-2.341829,-1.662268,1.129169,-1.415786,1.734999,1.205006,-0.573099,0.601314,-0.014559,1.215357,-0.465186,-0.399937,1.196876,-0.141834,-11.974444,33.112225,-12.903641,-7.923097,-0.180880,1.175643,-0.163102,0.000000,0.000000,0.000000,0.000000,0.000000,0.000000
13103213.000000,-2.341229,-1.662265,1.130401,-1.416236,1.734599,1.206200,-0.573233,0.595544,-0.009699,1.222862,-0.462348,-0.397756,1.198729,-0.138276,-11.355548,33.992962,-13.958939,-8.022280,-0.079257,1.337692,-0.175919,0.000000,0.000000,0.000000,0.000000,0.000000,0.000000
13103214.000000,-2.340632,-1.662264,1.131645,-1.416689,1.734206,1.207384,-0.573366,0.595758,-0.011045,1.223318,-0.459591,-0.396370,1.200294,-0.136407,-11.010394,34.798321,-14.915054,-8.145266,0.015958,1.454879,-0.188737,0.000000,0.000000,0.000000,0.000000,0.000000,0.000000
13103215.000000,-2.340034,-1.662256,1.132883,-1.417153,1.733804,1.208567,-0.573508,0.596678,-0.004343,1.234780,-0.463057,-0.394529,1.191923,-0.136845,-10.637469,35.385479,-15.922745,-8.069887,0.100187,1.617843,-0.149369,0.000000,0.000000,0.000000,0.000000,0.000000,0.000000
13103216.000000,-2.339448,-1.662250,1.134133,-1.417607,1.733418,1.209739,-0.573642,0.592801,-0.004243,1.231410,-0.457301,-0.383953,1.188409,-0.135074,-10.367694,35.901226,-16.708267,-8.046083,0.069974,1.689254,-0.163102,0.000000,0.000000,0.000000,0.000000,0.000000,0.000000
13103217.000000,-2.338850,-1.662246,1.135372,-1.418069,1.733036,1.210925,-0.573768,0.593029,0.000126,1.257079,-0.454557,-0.387446,1.190081,-0.133082,-10.193133,36.341595,-17.370804,-7.998476,0.088285,1.662704,-0.188737,0.000000,0.000000,0.000000,0.000000,0.000000,0.000000
13103218.000000,-2.338260,-1.662251,1.136620,-1.418519,1.732654,1.212113,-0.573901,0.591453,-0.001390,1.248254,-0.451821,-0.387498,1.194345,-0.132984,-9.970965,36.833538,-17.763565,-7.946901,0.034269,1.649886,-0.175919,0.000000,0.000000,0.000000,0.000000,0.000000,0.000000
13103219.000000,-2.337693,-1.662263,1.137881,-1.418958,1.732274,1.213278,-0.574036,0.585647,-0.006482,1.247059,-0.442958,-0.383858,1.189703,-0.132089,-9.673419,37.345318,-18.128555,-8.145266,-0.007845,1.605026,-0.163102,0.000000,0.000000,0.000000,0.000000,0.000000,0.000000
13103220.000000,-2.337128,-1.662277,1.139146,-1.419384,1.731901,1.214446,-0.574168,0.577768,-0.008732,1.250026,-0.436495,-0.382188,1.192879,-0.132309,-9.252887,37.785686,-18.695877,-8.391237,-0.025240,1.617843,-0.155778,0.000000,0.000000,0.000000,0.000000,0.000000,0.000000
13103221.000000,-2.336562,-1.662301,1.140419,-1.419810,1.731529,1.215584,-0.574296,0.571043,-0.012431,1.248983,-0.427448,-0.373979,1.165586,-0.130174,-8.879962,38.301434,-19.013260,-8.712587,-0.103060,1.695663,-0.196061,0.000000,0.000000,0.000000,0.000000,0.000000,0.000000
13103222.000000,-2.336019,-1.662341,1.141715,-1.420228,1.731162,1.216742,-0.574432,0.561232,-0.021703,1.257351,-0.422302,-0.371626,1.169513,-0.132549,-8.459430,38.960003,-19.529007,-9.109316,-0.097567,1.735030,-0.149369,0.000000,0.000000,0.000000,0.000000,0.000000,0.000000
13103223.000000,-2.335476,-1.662384,1.143009,-1.420641,1.730795,1.217909,-0.574563,0.550248,-0.028475,1.275260,-0.418099,-0.370964,1.172279,-0.130231,-8.038898,39.622540,-20.191544,-9.406862,-0.055453,1.760665,-0.169511,0.000000,0.000000,0.000000,0.000000,0.000000,0.000000
13103224.000000,-2.334942,-1.662428,1.144320,-1.421048,1.730426,1.219053,-0.574692,0.543455,-0.031599,1.280821,-0.413558,-0.371843,1.175625,-0.130261,-7.618365,40.209698,-20.905655,-9.728212,-0.085665,1.767074,-0.182328,0.000000,0.000000,0.000000,0.000000,0.000000,0.000000
13103225.000000,-2.334410,-1.662474,1.145615,-1.421453,1.730060,1.220223,-0.574829,0.538889,-0.037008,1.287925,-0.410361,-0.370208,1.177002,-0.128166,-7.245440,40.796856,-21.492813,-9.950380,-0.067355,1.689254,-0.116410,0.000000,0.000000,0.000000,0.000000,0.000000,0.000000
13103226.000000,-2.333876,-1.662524,1.146914,-1.421867,1.729693,1.221365,-0.574948,0.535012,-0.040635,1.285820,-0.411069,-0.365046,1.172342,-0.121503,-6.951861,41.360210,-21.885574,-10.025759,-0.019747,1.649886,-0.182328,0.000000,0.000000,0.000000,0.000000,0.000000,0.000000
13103227.000000,-2.333357,-1.662567,1.148212,-1.422281,1.729320,1.222516,-0.575079,0.529763,-0.040619,1.284508,-0.410407,-0.371197,1.168375,-0.124782,-6.578936,41.800579,-22.131546,-9.997988,0.046171,1.727706,-0.130143,0.000000,0.000000,0.000000,0.000000,0.000000,0.000000
13103228.000000,-2.332833,-1.662610,1.149480,-1.422687,1.728945,1.223656,-0.575204,0.527859,-0.040687,1.279174,-0.409450,-0.369632,1.155059,-0.126377,-6.356768,42.240948,-22.179153,-9.974184,0.076383,1.936446,-0.130143,0.000000,0.000000,0.000000,0.000000,0.000000,0.000000
13103229.000000,-2.332323,-1.662653,1.150768,-1.423092,1.728582,1.224796,-0.575326,0.519413,-0.039941,1.268847,-0.407737,-0.367141,1.146910,-0.120877,-6.083025,42.633709,-22.179153,-9.950380,0.069974,2.007858,-0.188737,0.000000,0.000000,0.000000,0.000000,0.000000,0.000000
13103230.000000,-2.331818,-1.662694,1.152030,-1.423502,1.728232,1.225962,-0.575455,0.515474,-0.038264,1.290667,-0.408447,-0.364142,1.154888,-0.120450,-5.686297,42.974895,-22.008560,-9.875002,0.027860,1.949264,-0.155778,0.000000,0.000000,0.000000,0.000000,0.000000,0.000000
13103231.000000,-2.331316,-1.662730,1.153339,-1.423914,1.727870,1.227135,-0.575579,0.510849,-0.038184,1.292570,-0.411944,-0.362501,1.159744,-0.117811,-5.364947,43.220867,-22.325943,-9.652834,0.010465,1.916305,-0.169511,0.000000,0.000000,0.000000,0.000000,0.000000,0.000000
13103232.000000,-2.330817,-1.662758,1.154643,-1.424332,1.727517,1.228277,-0.575704,0.507615,-0.035065,1.292159,-0.413903,-0.360890,1.155772,-0.121994,-5.095171,43.320049,-22.524307,-9.406862,-0.031649,1.936446,-0.130143,0.000000,0.000000,0.000000,0.000000,0.000000,0.000000
13103233.000000,-2.330320,-1.662788,1.155920,-1.424744,1.727162,1.229432,-0.575827,0.505932,-0.032425,1.287043,-0.412043,-0.358807,1.159611,-0.118250,-4.797625,43.391460,-22.694901,-9.208498,0.015958,1.930038,-0.169511,0.000000,0.000000,0.000000,0.000000,0.000000,0.000000
13103234.000000,-2.329848,-1.662814,1.157237,-1.425171,1.726795,1.230574,-0.575951,0.507925,-0.029975,1.292240,-0.417731,-0.362488,1.134387,-0.115940,-4.424700,43.415264,-23.135269,-8.934755,0.117582,1.936446,-0.182328,0.000000,0.000000,0.000000,0.000000,0.000000,0.000000
13103235.000000,-2.329366,-1.662838,1.158555,-1.425583,1.726450,1.231730,-0.576073,0.500681,-0.027244,1.290919,-0.413795,-0.357563,1.143266,-0.115635,-4.103350,43.391460,-23.528030,-8.887148,0.112089,1.949264,-0.175919,0.000000,0.000000,0.000000,0.000000,0.000000,0.000000
13103236.000000,-2.328889,-1.662857,1.159851,-1.425999,1.726104,1.232887,-0.576192,0.494016,-0.023916,1.292988,-0.414379,-0.351063,1.149124,-0.119940,-3.730425,43.292278,-23.948563,-8.688784,0.147794,1.962081,-0.163102,0.000000,0.000000,0.000000,0.000000,0.000000,0.000000
13103237.000000,-2.328421,-1.662883,1.161152,-1.426420,1.725766,1.234023,-0.576311,0.485878,-0.023519,1.290124,-0.412763,-0.352769,1.156481,-0.123112,-3.460650,43.268475,-24.166763,-8.541994,0.117582,2.039901,-0.136552,0.000000,0.000000,0.000000,0.000000,0.000000,0.000000
13103238.000000,-2.327958,-1.662909,1.162432,-1.426849,1.725417,1.235174,-0.576423,0.478709,-0.023480,1.286630,-0.419484,-0.353236,1.164613,-0.118573,-3.063921,43.244671,-24.313553,-8.220644,0.189908,2.039901,-0.188737,0.000000,0.000000,0.000000,0.000000,0.000000,0.000000
13103239.000000,-2.327478,-1.662934,1.163722,-1.427285,1.725073,1.236305,-0.576542,0.479423,-0.023824,1.282563,-0.425205,-0.347577,1.145416,-0.122838,-2.865557,43.244671,-24.341324,-7.875490,0.225614,2.104903,-0.163102,0.000000,0.000000,0.000000,0.000000,0.000000,0.000000
13103240.000000,-2.327023,-1.662954,1.165013,-1.427729,1.724740,1.237459,-0.576660,0.469715,-0.018690,1.280273,-0.433397,-0.342958,1.152198,-0.121093,-2.544207,43.145489,-24.313553,-7.478761,0.243009,2.060043,-0.142960,0.000000,0.000000,0.000000,0.000000,0.000000,0.000000
13103241.000000,-2.326565,-1.662977,1.166306,-1.428170,1.724403,1.238618,-0.576769,0.465198,-0.022506,1.286940,-0.436945,-0.342053,1.158938,-0.116681,-2.246661,43.097881,-24.611099,-7.058229,0.243009,2.007858,-0.202470,0.000000,0.000000,0.000000,0.000000,0.000000,0.000000
13103242.000000,-2.326117,-1.662997,1.167597,-1.428616,1.724063,1.239770,-0.576884,0.456166,-0.019034,1.281113,-0.441811,-0.339623,1.162040,-0.116359,-1.925311,43.050274,-24.734085,-6.760683,0.279630,1.865035,-0.169511,0.000000,0.000000,0.000000,0.000000,0.000000,0.000000
13103243.000000,-2.325667,-1.663025,1.168893,-1.429063,1.723732,1.240926,-0.576994,0.451700,-0.019354,1.285144,-0.450537,-0.337001,1.155809,-0.115357,-1.580157,43.121685,-25.075272,-6.439332,0.297025,1.825668,-0.175919,0.000000,0.000000,0.000000,0.000000,0.000000,0.000000
13103244.000000,-2.325237,-1.663047,1.170204,-1.429522,1.723409,1.242065,-0.577106,0.438848,-0.019071,1.283647,-0.452919,-0.332109,1.142169,-0.114180,-1.084246,43.050274,-25.519608,-6.141786,0.255826,2.020675,-0.188737,0.000000,0.000000,0.000000,0.000000,0.000000,0.000000
13103245.000000,-2.324807,-1.663077,1.171532,-1.429981,1.723078,1.243182,-0.577221,0.438466,-0.019818,1.293239,-0.453980,-0.336234,1.137595,-0.116211,-0.687518,43.145489,-26.154373,-5.872011,0.273221,2.202865,-0.130143,0.000000,0.000000,0.000000,0.000000,0.000000,0.000000
13103246.000000,-2.324379,-1.663104,1.172815,-1.430429,1.722741,1.244318,-0.577329,0.435823,-0.018597,1.292893,-0.453715,-0.334820,1.135039,-0.113797,-0.243182,43.173260,-26.376541,-5.673646,0.332731,2.358505,-0.142960,0.000000,0.000000,0.000000,0.000000,0.000000,0.000000
13103247.000000,-2.323956,-1.663124,1.174106,-1.430885,1.722403,1.245453,-0.577436,0.440408,-0.018872,1.282150,-0.450412,-0.334943,1.138467,-0.108881,0.129743,43.121685,-26.499527,-5.427675,0.398649,2.391464,-0.142960,0.000000,0.000000,0.000000,0.000000,0.000000,0.000000
13103248.000000,-2.323536,-1.663150,1.175382,-1.431351,1.722080,1.246599,-0.577532,0.433642,-0.018544,1.303502,-0.453165,-0.336699,1.141682,-0.102801,0.502668,43.173260,-26.622513,-5.130128,0.416959,2.391464,-0.208878,0.000000,0.000000,0.000000,0.000000,0.000000,0.000000
13103249.000000,-2.323107,-1.663168,1.176667,-1.431802,1.721739,1.247744,-0.577640,0.434009,-0.017824,1.293315,-0.450359,-0.335998,1.145132,-0.106362,0.748639,43.074078,-26.622513,-4.907960,0.476469,2.372237,-0.175919,0.000000,0.000000,0.000000,0.000000,0.000000,0.000000
13103250.000000,-2.322687,-1.663190,1.177947,-1.432284,1.721414,1.248878,-0.577746,0.432059,-0.017075,1.284284,-0.460728,-0.334386,1.151482,-0.107341,0.994611,43.097881,-26.451920,-4.388246,0.500272,2.235824,-0.196061,0.000000,0.000000,0.000000,0.000000,0.000000,0.000000
13103251.000000,-2.322270,-1.663211,1.179190,-1.432748,1.721088,1.250030,-0.577856,0.425952,-0.018368,1.269778,-0.462181,-0.335060,1.156834,-0.110213,1.244550,43.074078,-26.130569,-4.019289,0.571683,2.072860,-0.163102,0.000000,0.000000,0.000000,0.000000,0.000000,0.000000
13103252.000000,-2.321855,-1.663238,1.180475,-1.433230,1.720763,1.251169,-0.577963,0.427094,-0.021969,1.266914,-0.465001,-0.332844,1.137140,-0.106471,1.442914,43.145489,-26.205948,-3.547182,0.584501,1.955673,-0.155778,0.000000,0.000000,0.000000,0.000000,0.000000,0.000000
13103253.000000,-2.321443,-1.663262,1.181741,-1.433698,1.720454,1.252314,-0.578059,0.422362,-0.023318,1.283178,-0.464880,-0.327015,1.145891,-0.105657,1.712690,43.173260,-25.983780,-3.325014,0.470060,1.930038,-0.208878,0.000000,0.000000,0.000000,0.000000,0.000000,0.000000
13103254.000000,-2.321027,-1.663284,1.182997,-1.434152,1.720130,1.253462,-0.578172,0.417336,-0.024132,1.277238,-0.458680,-0.327500,1.151580,-0.105650,1.887250,43.197063,-25.983780,-3.249635,0.524076,1.923629,-0.130143,0.000000,0.000000,0.000000,0.000000,0.000000,0.000000
13103255.000000,-2.320625,-1.663307,1.184262,-1.434604,1.719819,1.254587,-0.578271,0.410317,-0.025387,1.271820,-0.453766,-0.322081,1.153777,-0.103353,2.085615,43.244671,-25.936172,-3.277406,0.494779,1.974899,-0.215287,0.000000,0.000000,0.000000,0.000000,0.000000,0.000000
13103256.000000,-2.320217,-1.663325,1.185505,-1.435042,1.719509,1.255725,-0.578374,0.409856,-0.023976,1.264742,-0.448340,-0.322240,1.149779,-0.100944,2.260175,43.197063,-25.936172,-3.325014,0.506681,2.027084,-0.221696,0.000000,0.000000,0.000000,0.000000,0.000000,0.000000
13103257.000000,-2.319807,-1.663341,1.186758,-1.435488,1.719181,1.256849,-0.578487,0.406509,-0.019913,1.257755,-0.445151,-0.323058,1.148219,-0.102212,2.383161,43.145489,-25.884598,-3.348818,0.625699,2.104903,-0.142960,0.000000,0.000000,0.000000,0.000000,0.000000,0.000000
13103258.000000,-2.319392,-1.663354,1.188001,-1.435936,1.718871,1.258005,-0.578582,0.406400,-0.016595,1.247033,-0.439235,-0.318954,1.151989,-0.102345,2.383161,43.074078,-25.737808,-3.249635,0.661405,2.027084,-0.208878,0.000000,0.000000,0.000000,0.000000,0.000000,0.000000
13103259.000000,-2.318980,-1.663367,1.189235,-1.436379,1.718563,1.259180,-0.578686,0.405586,-0.017273,1.247315,-0.438749,-0.317245,1.153831,-0.105261,2.359357,42.998699,-25.761612,-3.126650,0.733732,1.825668,-0.175919,0.000000,0.000000,0.000000,0.000000,0.000000,0.000000
13103260.000000,-2.318564,-1.663370,1.190452,-1.436811,1.718257,1.260336,-0.578791,0.408764,-0.008685,1.229496,-0.432621,-0.319099,1.158252,-0.102558,2.208601,42.804302,-25.420425,-3.079042,0.721830,1.670028,-0.175919,0.000000,0.000000,0.000000,0.000000,0.000000,0.000000
13103261.000000,-2.318144,-1.663379,1.191675,-1.437239,1.717960,1.261503,-0.578895,0.408715,-0.011211,1.228698,-0.437746,-0.312288,1.160099,-0.105710,2.133222,42.705120,-25.345047,-3.079042,0.661405,1.565658,-0.155778,0.000000,0.000000,0.000000,0.000000,0.000000,0.000000
13103262.000000,-2.317728,-1.663380,1.192910,-1.437663,1.717669,1.262661,-0.578997,0.408044,-0.007477,1.225973,-0.431497,-0.304437,1.157923,-0.106696,2.085615,42.510723,-25.345047,-3.079042,0.584501,1.689254,-0.169511,0.000000,0.000000,0.000000,0.000000,0.000000,0.000000
13103263.000000,-2.317325,-1.663389,1.194151,-1.438083,1.717387,1.263791,-0.579104,0.403668,-0.005810,1.227769,-0.421194,-0.294479,1.158525,-0.102848,2.061811,42.486919,-25.368851,-3.178224,0.500272,1.877853,-0.155778,0.000000,0.000000,0.000000,0.000000,0.000000,0.000000
13103264.000000,-2.316920,-1.663391,1.195379,-1.438483,1.717102,1.264946,-0.579205,0.398377,-0.004644,1.227389,-0.413481,-0.295046,1.157633,-0.100383,2.085615,42.340130,-25.567215,-3.301210,0.458158,1.988631,-0.163102,0.000000,0.000000,0.000000,0.000000,0.000000,0.000000
13103265.000000,-2.316521,-1.663396,1.196630,-1.438888,1.716814,1.266087,-0.579301,0.401744,-0.005638,1.233158,-0.406923,-0.285248,1.136796,-0.096972,2.133222,42.264751,-25.912369,-3.448000,0.434354,2.066451,-0.208878,0.000000,0.000000,0.000000,0.000000,0.000000,0.000000
13103266.000000,-2.316111,-1.663396,1.197872,-1.439287,1.716536,1.267235,-0.579405,0.403495,-0.004539,1.261441,-0.401638,-0.280781,1.141866,-0.103401,2.109418,42.117962,-26.376541,-3.523378,0.446256,2.137862,-0.149369,0.000000,0.000000,0.000000,0.000000,0.000000,0.000000
13103267.000000,-2.315699,-1.663404,1.199100,-1.439691,1.716257,1.268389,-0.579501,0.402391,-0.003522,1.249973,-0.398836,-0.279517,1.143767,-0.097526,2.010236,42.094158,-26.424149,-3.400392,0.518583,2.157089,-0.215287,0.000000,0.000000,0.000000,0.000000,0.000000,0.000000
13103268.000000,-2.315295,-1.663412,1.200334,-1.440079,1.715976,1.269523,-0.579602,0.400356,-0.002581,1.241074,-0.392128,-0.277963,1.151644,-0.096646,1.934858,42.070354,-26.547134,-3.424196,0.625699,2.177230,-0.188737,0.000000,0.000000,0.000000,0.000000,0.000000,0.000000
13103269.000000,-2.314885,-1.663422,1.201534,-1.440475,1.715704,1.270663,-0.579699,0.402015,-0.004848,1.230652,-0.391246,-0.278887,1.156069,-0.096157,1.911054,42.046551,-26.400345,-3.301210,0.625699,2.196456,-0.188737,0.000000,0.000000,0.000000,0.000000,0.000000,0.000000
13103270.000000,-2.314476,-1.663430,1.202754,-1.440858,1.715433,1.271789,-0.579791,0.411385,-0.006534,1.223535,-0.386739,-0.275628,1.138441,-0.095064,1.811872,42.022747,-26.328934,-3.325014,0.578092,2.190048,-0.196061,0.000000,0.000000,0.000000,0.000000,0.000000,0.000000
13103271.000000,-2.314077,-1.663436,1.203972,-1.441250,1.715170,1.272925,-0.579886,0.404717,-0.004496,1.220839,-0.388716,-0.275198,1.136398,-0.096054,1.835676,41.994976,-26.106766,-3.277406,0.512174,2.222091,-0.169511,0.000000,0.000000,0.000000,0.000000,0.000000,0.000000
13103272.000000,-2.313680,-1.663448,1.205161,-1.441623,1.714901,1.274078,-0.579972,0.398401,-0.007956,1.211385,-0.384654,-0.271556,1.139858,-0.098128,1.911054,42.046551,-25.813187,-3.325014,0.482877,2.104903,-0.215287,0.000000,0.000000,0.000000,0.000000,0.000000,0.000000
13103273.000000,-2.313287,-1.663458,1.206384,-1.442004,1.714637,1.275209,-0.580067,0.397652,-0.009721,1.208429,-0.382088,-0.267819,1.136469,-0.098259,2.010236,42.070354,-25.813187,-3.325014,0.458158,2.020675,-0.175919,0.000000,0.000000,0.000000,0.000000,0.000000,0.000000
13103274.000000,-2.312894,-1.663456,1.207566,-1.442379,1.714376,1.276355,-0.580157,0.393364,-0.007012,1.198816,-0.380232,-0.264702,1.129986,-0.101366,2.109418,41.923565,-25.543411,-3.348818,0.398649,1.974899,-0.188737,0.000000,0.000000,0.000000,0.000000,0.000000,0.000000
13103275.000000,-2.312510,-1.663464,1.208778,-1.442755,1.714110,1.277485,-0.580249,0.389372,-0.008139,1.200156,-0.379517,-0.264498,1.136717,-0.099842,2.260175,41.899761,-25.519608,-3.348818,0.434354,1.955673,-0.182328,0.000000,0.000000,0.000000,0.000000,0.000000,0.000000
13103276.000000,-2.312131,-1.663464,1.209986,-1.443123,1.713847,1.278634,-0.580338,0.383817,-0.004014,1.192953,-0.373561,-0.256793,1.144419,-0.101669,2.383161,41.800579,-25.420425,-3.448000,0.488370,1.844894,-0.196061,0.000000,0.000000,0.000000,0.000000,0.000000,0.000000
13103277.000000,-2.311748,-1.663463,1.211177,-1.443485,1.713595,1.279792,-0.580426,0.381606,-0.003106,1.187057,-0.370947,-0.253008,1.149933,-0.099795,2.529951,41.653790,-25.396622,-3.475771,0.464567,1.735030,-0.196061,0.000000,0.000000,0.000000,0.000000,0.000000,0.000000
13103278.000000,-2.311368,-1.663464,1.212380,-1.443849,1.713338,1.280916,-0.580522,0.381988,-0.004151,1.183532,-0.365176,-0.254280,1.153314,-0.095525,2.629133,41.578411,-25.420425,-3.499574,0.458158,1.786300,-0.142960,0.000000,0.000000,0.000000,0.000000,0.000000,0.000000
13103279.000000,-2.310990,-1.663459,1.213550,-1.444202,1.713077,1.282054,-0.580601,0.378890,0.000385,1.176312,-0.368865,-0.252993,1.149808,-0.092294,2.728315,41.407818,-25.249832,-3.523378,0.482877,1.838485,-0.221696,0.000000,0.000000,0.000000,0.000000,0.000000,0.000000
13103281.000000,-2.310236,-1.663453,1.215904,-1.444917,1.712569,1.284317,-0.580781,0.377993,0.002870,1.162534,-0.359694,-0.248593,1.151400,-0.094831,2.779890,41.213421,-24.658707,-3.424196,0.524076,2.007858,-0.163102,0.000000,0.000000,0.000000,0.000000,0.000000,0.000000
13103282.000000,-2.309853,-1.663443,1.217056,-1.445273,1.712326,1.285460,-0.580862,0.378084,0.005550,1.160404,-0.360171,-0.245802,1.156749,-0.088036,2.752119,41.042828,-24.313553,-3.325014,0.470060,1.995040,-0.208878,0.000000,0.000000,0.000000,0.000000,0.000000,0.000000
13103283.000000,-2.309478,-1.663429,1.218247,-1.445625,1.712079,1.286595,-0.580946,0.385133,0.014414,1.162782,-0.355187,-0.246954,1.136560,-0.090194,2.752119,40.844463,-24.365128,-3.277406,0.416959,1.936446,-0.196061,0.000000,0.000000,0.000000,0.000000,0.000000,0.000000
13103284.000000,-2.309103,-1.663419,1.219410,-1.445969,1.711835,1.287749,-0.581028,0.384001,0.012723,1.189317,-0.354972,-0.245765,1.145616,-0.086268,2.704511,40.725445,-24.242142,-3.249635,0.393156,1.779891,-0.202470,0.000000,0.000000,0.000000,0.000000,0.000000,0.000000
13103285.000000,-2.308727,-1.663411,1.220605,-1.446311,1.711593,1.288899,-0.581118,0.383058,0.010492,1.189215,-0.351444,-0.240984,1.146215,-0.085436,2.752119,40.650066,-24.412735,-3.225832,0.386747,1.682845,-0.149369,0.000000,0.000000,0.000000,0.000000,0.000000,0.000000
13103286.000000,-2.308363,-1.663396,1.221810,-1.446648,1.711351,1.290024,-0.581194,0.374646,0.011727,1.186991,-0.343742,-0.237841,1.138143,-0.083905,2.926679,40.455669,-24.706314,-3.249635,0.405057,1.682845,-0.215287,0.000000,0.000000,0.000000,0.000000,0.000000,0.000000
13103287.000000,-2.307988,-1.663389,1.223005,-1.446982,1.711118,1.291156,-0.581283,0.370299,0.012887,1.186277,-0.340958,-0.240568,1.132612,-0.083497,2.978254,40.380291,-25.174454,-3.325014,0.422452,1.767074,-0.175919,0.000000,0.000000,0.000000,0.000000,0.000000,0.000000
13103288.000000,-2.307620,-1.663383,1.224196,-1.447316,1.710879,1.292275,-0.581374,0.368976,0.010630,1.179583,-0.337889,-0.236037,1.108729,-0.087968,3.049665,40.308880,-25.368851,-3.424196,0.422452,1.825668,-0.130143,0.000000,0.000000,0.000000,0.000000,0.000000,0.000000
13103289.000000,-2.307251,-1.663377,1.225387,-1.447637,1.710641,1.293399,-0.581454,0.368561,0.012377,1.176766,-0.328255,-0.238972,1.117237,-0.090684,3.025861,40.233501,-25.420425,-3.598757,0.434354,1.930038,-0.188737,0.000000,0.000000,0.000000,0.000000,0.000000,0.000000
13103290.000000,-2.306881,-1.663375,1.226559,-1.447959,1.710404,1.294531,-0.581540,0.366678,0.008729,1.171585,-0.327239,-0.241136,1.123376,-0.092567,3.049665,40.233501,-25.468033,-3.646364,0.446256,1.995040,-0.155778,0.000000,0.000000,0.000000,0.000000,0.000000,0.000000
13103291.000000,-2.306513,-1.663374,1.227734,-1.448280,1.710173,1.295637,-0.581621,0.364436,0.005621,1.166469,-0.319956,-0.239819,1.124005,-0.091084,3.002058,40.257305,-25.297440,-3.670168,0.410551,2.098495,-0.196061,0.000000,0.000000,0.000000,0.000000,0.000000,0.000000
13103292.000000,-2.306136,-1.663369,1.228891,-1.448605,1.709948,1.296770,-0.581708,0.369800,0.007744,1.165419,-0.321234,-0.236434,1.127132,-0.093437,2.827497,40.233501,-25.099075,-3.570986,0.410551,2.079269,-0.155778,0.000000,0.000000,0.000000,0.000000,0.000000,0.000000
13103293.000000,-2.305762,-1.663367,1.230056,-1.448928,1.709717,1.297903,-0.581786,0.372397,0.005071,1.161001,-0.319275,-0.237002,1.138593,-0.087210,2.652936,40.257305,-24.781693,-3.448000,0.398649,1.858627,-0.196061,0.000000,0.000000,0.000000,0.000000,0.000000,0.000000
13103294.000000,-2.305392,-1.663363,1.231227,-1.449252,1.709486,1.299052,-0.581869,0.372800,0.007304,1.154369,-0.324279,-0.233670,1.148008,-0.086122,2.506147,40.233501,-24.535721,-3.301210,0.398649,1.689254,-0.149369,0.000000,0.000000,0.000000,0.000000,0.000000,0.000000
13103295.000000,-2.305012,-1.663358,1.232391,-1.449568,1.709254,1.300190,-0.581943,0.371379,0.009680,1.158643,-0.323802,-0.227974,1.156315,-0.080780,2.283979,40.185894,-24.511917,-3.202028,0.416959,1.624252,-0.215287,0.000000,0.000000,0.000000,0.000000,0.000000,0.000000
13103296.000000,-2.304644,-1.663356,1.233543,-1.449880,1.709032,1.301311,-0.582025,0.368079,0.010274,1.150513,-0.317577,-0.225199,1.138341,-0.080071,2.184797,40.185894,-24.166763,-3.178224,0.374845,1.624252,-0.202470,0.000000,0.000000,0.000000,0.000000,0.000000,0.000000
13103297.000000,-2.304274,-1.663356,1.234697,-1.450179,1.708801,1.302445,-0.582109,0.370133,0.006488,1.148430,-0.320317,-0.223916,1.139726,-0.080659,2.010236,40.233501,-24.119156,-3.325014,0.446256,1.656295,-0.149369,0.000000,0.000000,0.000000,0.000000,0.000000,0.000000
13103298.000000,-2.303910,-1.663358,1.235864,-1.450486,1.708586,1.303583,-0.582184,0.368764,0.006285,1.145929,-0.311150,-0.221661,1.140687,-0.077107,1.962629,40.308880,-24.019974,-3.376589,0.398649,1.735030,-0.202470,0.000000,0.000000,0.000000,0.000000,0.000000,0.000000
13103299.000000,-2.303544,-1.663345,1.237042,-1.450774,1.708371,1.304695,-0.582263,0.369101,0.008310,1.153114,-0.306322,-0.218878,1.129910,-0.076434,1.863447,40.162090,-24.095352,-3.598757,0.308927,1.865035,-0.188737,0.000000,0.000000,0.000000,0.000000,0.000000,0.000000
13103300.000000,-2.303168,-1.663335,1.238194,-1.451065,1.708144,1.305829,-0.582336,0.372014,0.008375,1.154775,-0.299103,-0.222022,1.127436,-0.075948,1.641279,40.062908,-24.095352,-3.745546,0.332731,1.942855,-0.196061,0.000000,0.000000,0.000000,0.000000,0.000000,0.000000
13103301.000000,-2.302796,-1.663328,1.239349,-1.451366,1.707924,1.306955,-0.582415,0.378774,0.010124,1.143375,-0.296871,-0.222780,1.104444,-0.076615,1.391340,40.015301,-23.972366,-3.745546,0.339139,1.909896,-0.169511,0.000000,0.000000,0.000000,0.000000,0.000000,0.000000
13103302.000000,-2.302416,-1.663321,1.240491,-1.451665,1.707704,1.308088,-0.582486,0.382722,0.011653,1.162922,-0.296785,-0.221599,1.111615,-0.075571,1.022382,39.963726,-23.873184,-3.697939,0.405057,1.949264,-0.188737,0.000000,0.000000,0.000000,0.000000,0.000000,0.000000
13103303.000000,-2.302025,-1.663308,1.241635,-1.451963,1.707483,1.309228,-0.582562,0.382516,0.011872,1.153067,-0.297260,-0.214911,1.119058,-0.074802,0.625654,39.816936,-23.651016,-3.598757,0.452665,1.949264,-0.188737,0.000000,0.000000,0.000000,0.000000,0.000000,0.000000
13103304.000000,-2.301642,-1.663290,1.242779,-1.452255,1.707274,1.310356,-0.582642,0.378154,0.012408,1.141781,-0.292269,-0.215058,1.127851,-0.080116,0.328107,39.646343,-23.409012,-3.547182,0.398649,1.832076,-0.155778,0.000000,0.000000,0.000000,0.000000,0.000000,0.000000
13103305.000000,-2.301252,-1.663275,1.243919,-1.452540,1.707062,1.311501,-0.582712,0.377443,0.014012,1.143994,-0.292475,-0.211795,1.132526,-0.073078,-0.017047,39.547161,-23.286026,-3.499574,0.362943,1.721298,-0.182328,0.000000,0.000000,0.000000,0.000000,0.000000,0.000000
13103306.000000,-2.300873,-1.663263,1.245076,-1.452814,1.706856,1.312613,-0.582787,0.377524,0.014034,1.143818,-0.285927,-0.207093,1.110987,-0.074474,-0.215411,39.499554,-23.286026,-3.598757,0.273221,1.727706,-0.155778,0.000000,0.000000,0.000000,0.000000,0.000000,0.000000
13103307.000000,-2.300501,-1.663255,1.246231,-1.453084,1.706652,1.313747,-0.582856,0.379649,0.011916,1.144738,-0.281445,-0.206187,1.122785,-0.073509,-0.413775,39.547161,-23.286026,-3.697939,0.225614,1.727706,-0.188737,0.000000,0.000000,0.000000,0.000000,0.000000,0.000000
13103308.000000,-2.300130,-1.663243,1.247392,-1.453347,1.706443,1.314870,-0.582932,0.375833,0.012848,1.147163,-0.277086,-0.202931,1.126719,-0.071206,-0.512957,39.499554,-23.579605,-3.844728,0.243009,1.819259,-0.122819,0.000000,0.000000,0.000000,0.000000,0.000000,0.000000
13103309.000000,-2.299766,-1.663232,1.248572,-1.453618,1.706241,1.315971,-0.582993,0.373130,0.009934,1.152412,-0.272407,-0.199336,1.130692,-0.064248,-0.564532,39.475750,-23.972366,-3.892336,0.231107,1.949264,-0.208878,0.000000,0.000000,0.000000,0.000000,0.000000,0.000000
13103310.000000,-2.299401,-1.663221,1.249734,-1.453879,1.706033,1.317087,-0.583069,0.368771,0.010975,1.165855,-0.273682,-0.202774,1.127991,-0.064918,-0.635943,39.451946,-24.289749,-3.967714,0.261320,2.007858,-0.142960,0.000000,0.000000,0.000000,0.000000,0.000000,0.000000
13103311.000000,-2.299035,-1.663217,1.250899,-1.454136,1.705815,1.318198,-0.583132,0.366278,0.006368,1.160552,-0.269276,-0.205316,1.128315,-0.065880,-0.735125,39.523357,-24.488113,-4.066896,0.315336,1.968490,-0.182328,0.000000,0.000000,0.000000,0.000000,0.000000,0.000000
13103312.000000,-2.298677,-1.663211,1.252067,-1.454399,1.705599,1.319323,-0.583196,0.365537,0.006594,1.157675,-0.267663,-0.204885,1.123266,-0.067135,-0.762896,39.574932,-24.611099,-4.090700,0.381254,1.916305,-0.215287,0.000000,0.000000,0.000000,0.000000,0.000000,0.000000
13103313.000000,-2.298308,-1.663203,1.253208,-1.454644,1.705393,1.320439,-0.583271,0.360548,0.007533,1.149429,-0.257925,-0.204117,1.118639,-0.071984,-0.885882,39.598736,-24.611099,-4.213686,0.344633,1.995040,-0.142960,0.000000,0.000000,0.000000,0.000000,0.000000,0.000000
13103314.000000,-2.297947,-1.663193,1.254343,-1.454901,1.705187,1.321537,-0.583331,0.359946,0.008813,1.137793,-0.256628,-0.203969,1.093332,-0.070236,-0.985064,39.598736,-24.313553,-4.189882,0.332731,2.066451,-0.202470,0.000000,0.000000,0.000000,0.000000,0.000000,0.000000
13103315.000000,-2.297594,-1.663194,1.255474,-1.455159,1.704986,1.322657,-0.583401,0.353306,0.006304,1.136601,-0.263712,-0.200587,1.109703,-0.073594,-0.961260,39.745525,-24.043777,-4.189882,0.339139,2.039901,-0.149369,0.000000,0.000000,0.000000,0.000000,0.000000,0.000000
13103316.000000,-2.297242,-1.663188,1.256605,-1.455415,1.704788,1.323784,-0.583461,0.352261,0.004510,1.130737,-0.263971,-0.199924,1.117995,-0.067188,-0.961260,39.769329,-23.579605,-4.189882,0.285123,2.007858,-0.202470,0.000000,0.000000,0.000000,0.000000,0.000000,0.000000
13103317.000000,-2.296896,-1.663171,1.257756,-1.455672,1.704592,1.324884,-0.583522,0.351519,0.009783,1.130645,-0.259743,-0.199573,1.117854,-0.064870,-0.933489,39.646343,-23.409012,-4.090700,0.225614,2.007858,-0.196061,0.000000,0.000000,0.000000,0.000000,0.000000,0.000000
13103318.000000,-2.296550,-1.663159,1.258887,-1.455923,1.704399,1.326014,-0.583587,0.349735,0.011929,1.128985,-0.257776,-0.195585,1.124590,-0.063839,-0.885882,39.574932,-23.286026,-4.090700,0.183500,1.897079,-0.169511,0.000000,0.000000,0.000000,0.000000,0.000000,0.000000
13103319.000000,-2.296219,-1.663145,1.260024,-1.456180,1.704199,1.327124,-0.583650,0.347253,0.011089,1.122841,-0.257405,-0.195054,1.110607,-0.065932,-0.711321,39.475750,-23.087662,-4.019289,0.207303,1.760665,-0.188737,0.000000,0.000000,0.000000,0.000000,0.000000,0.000000
13103320.000000,-2.295888,-1.663126,1.261178,-1.456430,1.704005,1.328248,-0.583717,0.336257,0.014579,1.149494,-0.253377,-0.195809,1.119326,-0.069526,-0.588336,39.328960,-23.063858,-3.991518,0.267728,1.682845,-0.155778,0.000000,0.000000,0.000000,0.000000,0.000000,0.000000
13103321.000000,-2.295562,-1.663108,1.262315,-1.456672,1.703819,1.329360,-0.583779,0.334958,0.018974,1.150173,-0.254121,-0.193630,1.117300,-0.064903,-0.366168,39.229778,-23.135269,-4.066896,0.261320,1.721298,-0.188737,0.000000,0.000000,0.000000,0.000000,0.000000,0.000000
13103322.000000,-2.295243,-1.663091,1.263469,-1.456922,1.703625,1.330468,-0.583846,0.333538,0.019053,1.144407,-0.250153,-0.197214,1.118337,-0.063423,-0.167803,39.130596,-23.258255,-4.043092,0.267728,1.721298,-0.155778,0.000000,0.000000,0.000000,0.000000,0.000000,0.000000
13103323.000000,-2.294919,-1.663074,1.264596,-1.457155,1.703430,1.331590,-0.583903,0.329359,0.015975,1.141102,-0.244941,-0.195655,1.113533,-0.064412,-0.044818,39.035381,-23.258255,-4.142274,0.285123,1.676437,-0.208878,0.000000,0.000000,0.000000,0.000000,0.000000,0.000000
13103324.000000,-2.294608,-1.663061,1.265724,-1.457400,1.703231,1.332691,-0.583966,0.323870,0.015682,1.130382,-0.249065,-0.198297,1.095183,-0.062779,0.205121,38.983807,-23.111465,-4.043092,0.291532,1.727706,-0.202470,0.000000,0.000000,0.000000,0.000000,0.000000,0.000000
13103325.000000,-2.294297,-1.663040,1.266868,-1.457641,1.703044,1.333808,-0.584032,0.317925,0.015844,1.129188,-0.243772,-0.196141,1.103428,-0.062319,0.276533,38.789410,-23.040054,-4.019289,0.291532,1.786300,-0.175919,0.000000,0.000000,0.000000,0.000000,0.000000,0.000000
13103326.000000,-2.293982,-1.663020,1.267979,-1.457883,1.702857,1.334921,-0.584093,0.318287,0.017119,1.123925,-0.242077,-0.192862,1.109054,-0.055589,0.351911,38.666424,-22.794083,-3.892336,0.255826,1.871444,-0.188737,0.000000,0.000000,0.000000,0.000000,0.000000,0.000000
13103327.000000,-2.293678,-1.663001,1.269106,-1.458121,1.702664,1.336037,-0.584156,0.313978,0.018060,1.119580,-0.239504,-0.188493,1.115379,-0.055631,0.526471,38.543438,-22.623489,-3.797121,0.273221,1.806442,-0.182328,0.000000,0.000000,0.000000,0.000000,0.000000,0.000000
13103328.000000,-2.293373,-1.662986,1.270225,-1.458361,1.702486,1.337177,-0.584212,0.312277,0.017112,1.116574,-0.240907,-0.187415,1.122370,-0.059603,0.625654,38.495831,-22.500504,-3.721742,0.243009,1.572067,-0.208878,0.000000,0.000000,0.000000,0.000000,0.000000,0.000000
13103329.000000,-2.293067,-1.662958,1.271361,-1.458609,1.702304,1.338327,-0.584279,0.308865,0.020536,1.118157,-0.240664,-0.180707,1.137921,-0.060851,0.772443,38.277630,-22.500504,-3.547182,0.183500,1.389877,-0.155778,0.000000,0.000000,0.000000,0.000000,0.000000,0.000000
13103330.000000,-2.292768,-1.662946,1.272517,-1.458855,1.702112,1.339440,-0.584335,0.302908,0.015250,1.128627,-0.237010,-0.185742,1.142168,-0.058927,0.847822,38.249859,-22.671097,-3.376589,0.219205,1.370651,-0.175919,0.000000,0.000000,0.000000,0.000000,0.000000,0.000000
13103331.000000,-2.292480,-1.662924,1.273664,-1.459089,1.701924,1.340563,-0.584396,0.297414,0.017953,1.134062,-0.235518,-0.183341,1.141097,-0.059024,1.069990,38.079266,-23.016251,-3.301210,0.255826,1.467696,-0.149369,0.000000,0.000000,0.000000,0.000000,0.000000,0.000000
13103332.000000,-2.292200,-1.662910,1.274812,-1.459327,1.701736,1.341651,-0.584457,0.289231,0.016458,1.129725,-0.236367,-0.182224,1.110689,-0.058072,1.367536,38.055462,-23.234451,-3.249635,0.303434,1.670028,-0.155778,0.000000,0.000000,0.000000,0.000000,0.000000,0.000000
13103333.000000,-2.291916,-1.662895,1.275946,-1.459556,1.701554,1.342763,-0.584513,0.284883,0.015966,1.138126,-0.236375,-0.186032,1.110537,-0.056787,1.589704,38.007854,-23.480423,-3.325014,0.362943,1.865035,-0.175919,0.000000,0.000000,0.000000,0.000000,0.000000,0.000000
13103334.000000,-2.291634,-1.662877,1.277103,-1.459781,1.701377,1.343886,-0.584569,0.281724,0.013292,1.138033,-0.229876,-0.184868,1.106717,-0.057037,1.811872,37.932476,-23.774002,-3.348818,0.327238,1.942855,-0.163102,0.000000,0.000000,0.000000,0.000000,0.000000,0.000000
13103335.000000,-2.291353,-1.662859,1.278266,-1.460019,1.701203,1.345001,-0.584619,0.283194,0.014976,1.139564,-0.233382,-0.184731,1.114786,-0.054022,1.887250,37.833294,-23.948563,-3.277406,0.291532,1.955673,-0.221696,0.000000,0.000000,0.000000,0.000000,0.000000,0.000000
13103336.000000,-2.291073,-1.662833,1.279392,-1.460258,1.701028,1.346119,-0.584679,0.280414,0.018378,1.134277,-0.235430,-0.183999,1.113338,-0.055780,1.934858,37.638897,-23.873184,-3.102846,0.243009,1.968490,-0.196061,0.000000,0.000000,0.000000,0.000000,0.000000,0.000000
13103337.000000,-2.290788,-1.662821,1.280525,-1.460507,1.700843,1.347220,-0.584739,0.288844,0.019277,1.124733,-0.240578,-0.182039,1.098532,-0.057539,1.911054,37.638897,-23.750198,-2.757692,0.273221,1.974899,-0.149369,0.000000,0.000000,0.000000,0.000000,0.000000,0.000000
13103338.000000,-2.290499,-1.662805,1.281666,-1.460761,1.700665,1.348335,-0.584788,0.286962,0.018256,1.121709,-0.245836,-0.180689,1.105865,-0.057032,1.887250,37.591290,-23.555801,-2.337160,0.315336,1.949264,-0.155778,0.000000,0.000000,0.000000,0.000000,0.000000,0.000000
13103339.000000,-2.290217,-1.662787,1.282780,-1.461004,1.700492,1.349456,-0.584835,0.285502,0.021253,1.119514,-0.248374,-0.177982,1.118157,-0.054299,1.863447,37.515911,-23.234451,-2.091188,0.320829,1.865035,-0.196061,0.000000,0.000000,0.000000,0.000000,0.000000,0.000000
13103340.000000,-2.289938,-1.662770,1.283919,-1.461243,1.700316,1.350569,-0.584888,0.285968,0.019224,1.122163,-0.244684,-0.178026,1.131576,-0.054599,1.887250,37.492107,-23.135269,-1.916628,0.356534,1.773483,-0.196061,0.000000,0.000000,0.000000,0.000000,0.000000,0.000000
13103341.000000,-2.289669,-1.662753,1.285038,-1.461466,1.700152,1.351681,-0.584949,0.280169,0.018509,1.116137,-0.238266,-0.175211,1.137529,-0.052420,2.034040,37.444500,-23.016251,-1.940431,0.339139,1.714889,-0.142960,0.000000,0.000000,0.000000,0.000000,0.000000,0.000000
13103342.000000,-2.289407,-1.662742,1.286179,-1.461691,1.699984,1.352792,-0.584995,0.272616,0.016177,1.115368,-0.233377,-0.174324,1.147676,-0.045925,2.208601,37.468304,-22.988480,-1.992006,0.344633,1.624252,-0.215287,0.000000,0.000000,0.000000,0.000000,0.000000,0.000000
13103343.000000,-2.289145,-1.662729,1.287319,-1.461913,1.699813,1.353891,-0.585056,0.270163,0.018230,1.126086,-0.229307,-0.175100,1.137989,-0.046492,2.359357,37.468304,-22.940872,-2.063417,0.374845,1.702071,-0.149369,0.000000,0.000000,0.000000,0.000000,0.000000,0.000000
13103344.000000,-2.288868,-1.662720,1.288445,-1.462137,1.699639,1.354998,-0.585105,0.270115,0.012452,1.125638,-0.226359,-0.173330,1.123316,-0.042764,2.283979,37.515911,-22.988480,-2.015810,0.369352,1.825668,-0.182328,0.000000,0.000000,0.000000,0.000000,0.000000,0.000000
13103345.000000,-2.288606,-1.662711,1.289599,-1.462359,1.699471,1.356095,-0.585153,0.267205,0.012088,1.126175,-0.224299,-0.169026,1.100528,-0.045736,2.359357,37.539715,-23.163040,-1.940431,0.381254,1.844894,-0.196061,0.000000,0.000000,0.000000,0.000000,0.000000,0.000000
13103346.000000,-2.288330,-1.662700,1.290722,-1.462577,1.699313,1.357234,-0.585210,0.272308,0.011638,1.127550,-0.221907,-0.164482,1.110872,-0.050150,2.283979,37.567486,-23.186844,-1.916628,0.381254,1.649886,-0.149369,0.000000,0.000000,0.000000,0.000000,0.000000,0.000000
13103347.000000,-2.288051,-1.662693,1.291848,-1.462796,1.699153,1.358371,-0.585254,0.271195,0.007710,1.122235,-0.217487,-0.160612,1.121416,-0.045419,2.109418,37.615093,-23.087662,-1.869020,0.374845,1.467696,-0.188737,0.000000,0.000000,0.000000,0.000000,0.000000,0.000000
13103348.000000,-2.287792,-1.662682,1.292985,-1.463008,1.698999,1.359466,-0.585301,0.269821,0.009627,1.123305,-0.215645,-0.158478,1.118850,-0.044052,2.085615,37.591290,-23.040054,-1.892824,0.356534,1.526290,-0.175919,0.000000,0.000000,0.000000,0.000000,0.000000,0.000000
13103349.000000,-2.287522,-1.662677,1.294093,-1.463211,1.698843,1.360564,-0.585344,0.265930,0.008030,1.119656,-0.210640,-0.157188,1.116413,-0.041244,2.010236,37.686504,-22.817886,-1.940431,0.369352,1.676437,-0.208878,0.000000,0.000000,0.000000,0.000000,0.000000,0.000000
13103350.000000,-2.287254,-1.662670,1.295193,-1.463420,1.698685,1.361656,-0.585394,0.267031,0.008198,1.107093,-0.207088,-0.155803,1.098720,-0.045922,1.934858,37.738079,-22.377518,-1.964235,0.351041,1.747848,-0.188737,0.000000,0.000000,0.000000,0.000000,0.000000,0.000000
13103351.000000,-2.286987,-1.662657,1.296299,-1.463618,1.698519,1.362769,-0.585438,0.264962,0.010766,1.126578,-0.205991,-0.160699,1.107788,-0.043622,1.835676,37.686504,-22.230728,-2.039613,0.386747,1.786300,-0.196061,0.000000,0.000000,0.000000,0.000000,0.000000,0.000000
13103352.000000,-2.286716,-1.662640,1.297431,-1.463819,1.698366,1.363889,-0.585480,0.266282,0.016130,1.125549,-0.201623,-0.156246,1.119184,-0.041357,1.740461,37.615093,-22.254532,-2.039613,0.327238,1.735030,-0.215287,0.000000,0.000000,0.000000,0.000000,0.000000,0.000000
13103353.000000,-2.286450,-1.662623,1.298573,-1.464016,1.698216,1.364999,-0.585527,0.265436,0.017338,1.128247,-0.201722,-0.150095,1.128600,-0.045386,1.589704,37.515911,-22.448929,-2.015810,0.285123,1.643478,-0.202470,0.000000,0.000000,0.000000,0.000000,0.000000,0.000000
13103354.000000,-2.286184,-1.662608,1.299705,-1.464206,1.698060,1.366115,-0.585575,0.264327,0.017500,1.126541,-0.199899,-0.152235,1.126861,-0.049128,1.442914,37.444500,-22.742508,-2.091188,0.327238,1.572067,-0.175919,0.000000,0.000000,0.000000,0.000000,0.000000,0.000000
13103355.000000,-2.285925,-1.662594,1.300860,-1.464399,1.697910,1.367214,-0.585618,0.270156,0.016404,1.125062,-0.196483,-0.148586,1.098868,-0.046213,1.367536,37.420696,-23.135269,-2.114992,0.332731,1.565658,-0.175919,0.000000,0.000000,0.000000,0.000000,0.000000,0.000000
13103356.000000,-2.285665,-1.662584,1.302021,-1.464588,1.697758,1.368312,-0.585657,0.264751,0.015729,1.158828,-0.191013,-0.151304,1.094878,-0.042620,1.367536,37.392925,-23.528030,-2.138796,0.386747,1.676437,-0.215287,0.000000,0.000000,0.000000,0.000000,0.000000,0.000000
13103357.000000,-2.285396,-1.662579,1.303155,-1.464762,1.697612,1.369411,-0.585711,0.263972,0.013550,1.147225,-0.184705,-0.149884,1.099487,-0.043775,1.216779,37.444500,-23.825577,-2.261781,0.351041,1.877853,-0.149369,0.000000,0.000000,0.000000,0.000000,0.000000,0.000000
13103358.000000,-2.285143,-1.662570,1.304294,-1.464936,1.697465,1.370502,-0.585746,0.263679,0.012150,1.135783,-0.181852,-0.154762,1.101696,-0.039479,1.244550,37.492107,-23.920792,-2.412538,0.327238,1.865035,-0.202470,0.000000,0.000000,0.000000,0.000000,0.000000,0.000000
13103359.000000,-2.284877,-1.662564,1.305417,-1.465101,1.697310,1.371597,-0.585790,0.260451,0.008617,1.135259,-0.176834,-0.158312,1.105049,-0.039557,1.093793,37.515911,-24.019974,-2.583132,0.320829,1.865035,-0.188737,0.000000,0.000000,0.000000,0.000000,0.000000,0.000000
13103360.000000,-2.284612,-1.662558,1.306533,-1.465276,1.697160,1.372677,-0.585836,0.261686,0.008386,1.123306,-0.175400,-0.156287,1.087316,-0.044936,0.923200,37.567486,-23.774002,-2.535524,0.291532,1.871444,-0.155778,0.000000,0.000000,0.000000,0.000000,0.000000,0.000000
13103361.000000,-2.284353,-1.662561,1.307662,-1.465449,1.697012,1.373768,-0.585872,0.266565,0.005477,1.119407,-0.174543,-0.151862,1.100823,-0.041574,0.748639,37.738079,-23.555801,-2.460146,0.291532,1.916305,-0.196061,0.000000,0.000000,0.000000,0.000000,0.000000,0.000000
13103362.000000,-2.284088,-1.662560,1.308766,-1.465609,1.696859,1.374866,-0.585921,0.267686,0.001669,1.115340,-0.169191,-0.153590,1.105405,-0.042814,0.601850,37.861065,-23.234451,-2.436342,0.339139,1.930038,-0.136552,0.000000,0.000000,0.000000,0.000000,0.000000,0.000000
13103363.000000,-2.283830,-1.662563,1.309890,-1.465768,1.696713,1.375963,-0.585950,0.264990,0.001514,1.106704,-0.165627,-0.148872,1.088102,-0.042754,0.502668,38.007854,-23.087662,-2.511720,0.320829,1.773483,-0.229020,0.000000,0.000000,0.000000,0.000000,0.000000,0.000000
13103364.000000,-2.283571,-1.662560,1.311009,-1.465919,1.696567,1.377094,-0.585990,0.260349,0.003706,1.112646,-0.165856,-0.149361,1.094720,-0.037524,0.375715,38.055462,-23.040054,-2.583132,0.320829,1.507064,-0.215287,0.000000,0.000000,0.000000,0.000000,0.000000,0.000000
13103365.000000,-2.283318,-1.662554,1.312134,-1.466065,1.696428,1.378214,-0.586037,0.258156,0.005465,1.111560,-0.162527,-0.147816,1.101262,-0.040237,0.351911,38.103069,-22.940872,-2.706117,0.273221,1.370651,-0.142960,0.000000,0.000000,0.000000,0.000000,0.000000,0.000000
13103366.000000,-2.283073,-1.662556,1.313264,-1.466211,1.696281,1.379313,-0.586072,0.256625,0.002218,1.110438,-0.156403,-0.143052,1.109394,-0.037236,0.328107,38.202251,-22.940872,-2.856874,0.303434,1.389877,-0.202470,0.000000,0.000000,0.000000,0.000000,0.000000,0.000000
13103367.000000,-2.282830,-1.662559,1.314374,-1.466343,1.696132,1.380400,-0.586110,0.251343,-0.000170,1.110110,-0.150433,-0.145778,1.100773,-0.037133,0.328107,38.301434,-22.841690,-3.079042,0.320829,1.630660,-0.208878,0.000000,0.000000,0.000000,0.000000,0.000000,0.000000
13103368.000000,-2.282594,-1.662554,1.315510,-1.466478,1.695981,1.381484,-0.586152,0.251444,0.001596,1.112816,-0.147041,-0.144376,1.087936,-0.038299,0.375715,38.249859,-22.940872,-3.249635,0.344633,1.806442,-0.182328,0.000000,0.000000,0.000000,0.000000,0.000000,0.000000
13103369.000000,-2.282346,-1.662554,1.316617,-1.466609,1.695844,1.382601,-0.586193,0.249678,0.001442,1.133657,-0.144248,-0.139762,1.098722,-0.038723,0.304304,38.249859,-22.964676,-3.448000,0.303434,1.767074,-0.163102,0.000000,0.000000,0.000000,0.000000,0.000000,0.000000
13103370.000000,-2.282092,-1.662547,1.317748,-1.466736,1.695706,1.383729,-0.586228,0.250145,0.003472,1.126898,-0.137610,-0.137083,1.113727,-0.037373,0.153547,38.154644,-23.111465,-3.570986,0.279630,1.682845,-0.188737,0.000000,0.000000,0.000000,0.000000,0.000000,0.000000
13103371.000000,-2.281842,-1.662545,1.318869,-1.466874,1.695570,1.384832,-0.586275,0.249425,0.003084,1.118051,-0.137030,-0.136266,1.122651,-0.038700,-0.092425,38.130840,-23.016251,-3.499574,0.249418,1.670028,-0.142960,0.000000,0.000000,0.000000,0.000000,0.000000,0.000000
13103372.000000,-2.281586,-1.662535,1.319969,-1.466999,1.695439,1.385934,-0.586307,0.248537,0.005649,1.117360,-0.131072,-0.130129,1.122454,-0.037135,-0.366168,37.984051,-22.865494,-3.523378,0.237516,1.727706,-0.175919,0.000000,0.000000,0.000000,0.000000,0.000000,0.000000
13103373.000000,-2.281333,-1.662538,1.321068,-1.467130,1.695302,1.387024,-0.586343,0.253965,0.005809,1.106098,-0.132446,-0.128697,1.097882,-0.036513,-0.663714,38.031658,-22.595718,-3.424196,0.261320,1.800033,-0.196061,0.000000,0.000000,0.000000,0.000000,0.000000,0.000000
13103374.000000,-2.281082,-1.662533,1.322183,-1.467249,1.695177,1.388130,-0.586382,0.248648,0.005329,1.103650,-0.125831,-0.124116,1.101581,-0.038367,-0.909686,37.984051,-22.425125,-3.499574,0.237516,1.786300,-0.155778,0.000000,0.000000,0.000000,0.000000,0.000000,0.000000
13103375.000000,-2.280836,-1.662529,1.323298,-1.467368,1.695053,1.389250,-0.586414,0.247450,0.005016,1.113443,-0.124877,-0.123902,1.108705,-0.036216,-1.032672,37.932476,-22.548111,-3.547182,0.171598,1.747848,-0.202470,0.000000,0.000000,0.000000,0.000000,0.000000,0.000000
13103376.000000,-2.280598,-1.662520,1.324424,-1.467478,1.694923,1.390352,-0.586452,0.245413,0.006971,1.112138,-0.117215,-0.126449,1.091236,-0.037477,-1.084246,37.785686,-22.671097,-3.745546,0.135892,1.708480,-0.175919,0.000000,0.000000,0.000000,0.000000,0.000000,0.000000
13103377.000000,-2.280357,-1.662520,1.325560,-1.467586,1.694789,1.391466,-0.586484,0.241583,0.004235,1.119280,-0.114327,-0.129225,1.098580,-0.037059,-1.159625,37.809490,-23.063858,-3.844728,0.166105,1.649886,-0.188737,0.000000,0.000000,0.000000,0.000000,0.000000,0.000000
13103378.000000,-2.280120,-1.662520,1.326704,-1.467692,1.694656,1.392549,-0.586520,0.240112,0.002932,1.125811,-0.107944,-0.130649,1.099654,-0.037887,-1.231036,37.809490,-23.409012,-3.991518,0.189908,1.695663,-0.169511,0.000000,0.000000,0.000000,0.000000,0.000000,0.000000
13103379.000000,-2.279885,-1.662523,1.327850,-1.467806,1.694521,1.393632,-0.586553,0.237007,0.000829,1.129254,-0.110352,-0.131168,1.099214,-0.037593,-1.282611,37.861065,-23.825577,-3.967714,0.267728,1.884261,-0.175919,0.000000,0.000000,0.000000,0.000000,0.000000,0.000000
13103380.000000,-2.279652,-1.662525,1.328986,-1.467905,1.694392,1.394729,-0.586584,0.231562,0.000057,1.133044,-0.109201,-0.131356,1.100627,-0.036498,-1.354022,37.884869,-24.166763,-4.066896,0.273221,1.968490,-0.202470,0.000000,0.000000,0.000000,0.000000,0.000000,0.000000
13103381.000000,-2.279425,-1.662530,1.330129,-1.468006,1.694268,1.395817,-0.586622,0.227988,-0.001587,1.132392,-0.108011,-0.132075,1.096753,-0.038358,-1.405596,37.956280,-24.365128,-4.166078,0.255826,1.909896,-0.163102,0.000000,0.000000,0.000000,0.000000,0.000000,0.000000
13103382.000000,-2.279189,-1.662539,1.331244,-1.468108,1.694147,1.396921,-0.586655,0.228126,-0.003900,1.127818,-0.108527,-0.130825,1.104041,-0.033393,-1.552386,38.079266,-24.388931,-4.189882,0.219205,1.858627,-0.163102,0.000000,0.000000,0.000000,0.000000,0.000000,0.000000
13103383.000000,-2.278951,-1.662544,1.332367,-1.468213,1.694029,1.398014,-0.586685,0.231066,-0.003781,1.121526,-0.106850,-0.124504,1.105331,-0.034121,-1.726946,38.130840,-24.265945,-4.189882,0.166105,1.877853,-0.169511,0.000000,0.000000,0.000000,0.000000,0.000000,0.000000
13103384.000000,-2.278717,-1.662557,1.333486,-1.468319,1.693906,1.399085,-0.586709,0.228899,-0.006492,1.113869,-0.107098,-0.123206,1.101601,-0.033336,-1.849932,38.301434,-23.996170,-4.118471,0.147794,1.995040,-0.215287,0.000000,0.000000,0.000000,0.000000,0.000000,0.000000
13103385.000000,-2.278484,-1.662566,1.334590,-1.468424,1.693773,1.400173,-0.586749,0.228454,-0.007190,1.109259,-0.107800,-0.122674,1.099347,-0.036968,-2.048296,38.424419,-23.750198,-4.019289,0.195402,2.014266,-0.149369,0.000000,0.000000,0.000000,0.000000,0.000000,0.000000
13103386.000000,-2.278257,-1.662569,1.335696,-1.468528,1.693644,1.401260,-0.586772,0.231766,-0.005896,1.097690,-0.104149,-0.122015,1.086078,-0.034533,-2.171282,38.472027,-23.381241,-3.943910,0.195402,1.968490,-0.208878,0.000000,0.000000,0.000000,0.000000,0.000000,0.000000
13103387.000000,-2.278033,-1.662573,1.336810,-1.468621,1.693514,1.402366,-0.586806,0.228642,-0.005036,1.122651,-0.098767,-0.125629,1.095437,-0.032466,-2.270464,38.519634,-23.381241,-3.991518,0.225614,1.877853,-0.163102,0.000000,0.000000,0.000000,0.000000,0.000000,0.000000
13103388.000000,-2.277812,-1.662580,1.337927,-1.468706,1.693393,1.403479,-0.586839,0.225800,-0.005115,1.119050,-0.092938,-0.121206,1.107396,-0.033689,-2.345843,38.595013,-23.258255,-4.118471,0.195402,1.767074,-0.155778,0.000000,0.000000,0.000000,0.000000,0.000000,0.000000
13103389.000000,-2.277607,-1.662589,1.339058,-1.468793,1.693268,1.404569,-0.586864,0.217381,-0.006282,1.117179,-0.089529,-0.122022,1.114524,-0.032917,-2.270464,38.717999,-23.333633,-4.213686,0.219205,1.702071,-0.202470,0.000000,0.000000,0.000000,0.000000,0.000000,0.000000
13103390.000000,-2.277397,-1.662595,1.340163,-1.468875,1.693144,1.405662,-0.586899,0.214151,-0.005855,1.112828,-0.089639,-0.121172,1.115946,-0.036428,-2.199053,38.789410,-23.258255,-4.340639,0.255826,1.727706,-0.142960,0.000000,0.000000,0.000000,0.000000,0.000000,0.000000
13103391.000000,-2.277185,-1.662604,1.341300,-1.468962,1.693023,1.406736,-0.586921,0.210706,-0.006221,1.121657,-0.087888,-0.125135,1.094601,-0.034148,-2.199053,38.888592,-23.480423,-4.412050,0.261320,1.786300,-0.208878,0.000000,0.000000,0.000000,0.000000,0.000000,0.000000
13103392.000000,-2.276980,-1.662610,1.342433,-1.469048,1.692911,1.407827,-0.586948,0.207643,-0.005259,1.117773,-0.085295,-0.125499,1.097998,-0.030870,-2.171282,38.936199,-23.603409,-4.412050,0.225614,1.800033,-0.196061,0.000000,0.000000,0.000000,0.000000,0.000000,0.000000
13103393.000000,-2.276769,-1.662619,1.343538,-1.469131,1.692795,1.408935,-0.586979,0.207257,-0.005268,1.110846,-0.086808,-0.120297,1.101135,-0.029126,-2.246661,39.011578,-23.603409,-4.388246,0.166105,1.747848,-0.163102,0.000000,0.000000,0.000000,0.000000,0.000000,0.000000
13103394.000000,-2.276557,-1.662628,1.344659,-1.469213,1.692680,1.410026,-0.587006,0.207064,-0.008894,1.110120,-0.084505,-0.120766,1.083473,-0.030092,-2.345843,39.106792,-23.603409,-4.364442,0.171598,1.676437,-0.175919,0.000000,0.000000,0.000000,0.000000,0.000000,0.000000
13103395.000000,-2.276350,-1.662633,1.345745,-1.469289,1.692566,1.411118,-0.587035,0.207079,-0.006748,1.101080,-0.079020,-0.118885,1.088664,-0.033178,-2.421221,39.130596,-23.409012,-4.364442,0.166105,1.741439,-0.142960,0.000000,0.000000,0.000000,0.000000,0.000000,0.000000
13103396.000000,-2.276143,-1.662636,1.346853,-1.469364,1.692448,1.412197,-0.587053,0.207457,-0.007857,1.098257,-0.078022,-0.117436,1.092751,-0.027232,-2.520403,39.130596,-23.258255,-4.364442,0.171598,1.773483,-0.202470,0.000000,0.000000,0.000000,0.000000,0.000000,0.000000
13103397.000000,-2.275941,-1.662642,1.347955,-1.469434,1.692325,1.413296,-0.587083,0.204195,-0.006299,1.096815,-0.076149,-0.119389,1.096878,-0.026034,-2.591815,39.158367,-22.988480,-4.412050,0.201810,1.773483,-0.182328,0.000000,0.000000,0.000000,0.000000,0.000000,0.000000
13103398.000000,-2.275740,-1.662638,1.349059,-1.469502,1.692201,1.414401,-0.587102,0.205487,-0.005237,1.100455,-0.074780,-0.120350,1.103141,-0.023238,-2.591815,39.059185,-23.016251,-4.463624,0.267728,1.741439,-0.208878,0.000000,0.000000,0.000000,0.000000,0.000000,0.000000
13103399.000000,-2.275546,-1.662638,1.350178,-1.469573,1.692090,1.415495,-0.587128,0.199707,-0.002863,1.097481,-0.071723,-0.120012,1.095657,-0.021979,-2.544207,39.011578,-23.063858,-4.463624,0.261320,1.643478,-0.215287,0.000000,0.000000,0.000000,0.000000,0.000000,0.000000
13103400.000000,-2.275347,-1.662635,1.351305,-1.469643,1.691980,1.416604,-0.587152,0.197735,-0.001066,1.110223,-0.072905,-0.116745,1.104767,-0.022239,-2.591815,38.960003,-23.480423,-4.439821,0.219205,1.559249,-0.188737,0.000000,0.000000,0.000000,0.000000,0.000000,0.000000
13103401.000000,-2.275159,-1.662629,1.352439,-1.469710,1.691867,1.417705,-0.587180,0.195226,0.001244,1.112424,-0.073577,-0.115180,1.105872,-0.026475,-2.544207,38.864788,-23.825577,-4.439821,0.207303,1.559249,-0.175919,0.000000,0.000000,0.000000,0.000000,0.000000,0.000000
13103402.000000,-2.274973,-1.662629,1.353585,-1.469783,1.691753,1.418793,-0.587202,0.192154,0.000624,1.120716,-0.072707,-0.116267,1.109256,-0.024728,-2.492632,38.864788,-24.190567,-4.364442,0.195402,1.597701,-0.169511,0.000000,0.000000,0.000000,0.000000,0.000000,0.000000
13103403.000000,-2.274791,-1.662634,1.354713,-1.469846,1.691645,1.419866,-0.587225,0.185909,-0.001408,1.126890,-0.070027,-0.114371,1.099555,-0.027892,-2.421221,38.936199,-24.535721,-4.364442,0.159696,1.890670,-0.169511,0.000000,0.000000,0.000000,0.000000,0.000000,0.000000
13103404.000000,-2.274614,-1.662637,1.355851,-1.469908,1.691532,1.420937,-0.587250,0.184435,-0.002167,1.125241,-0.067492,-0.115558,1.077786,-0.027034,-2.369647,38.983807,-24.857071,-4.388246,0.147794,2.098495,-0.130143,0.000000,0.000000,0.000000,0.000000,0.000000,0.000000
13103405.000000,-2.274441,-1.662634,1.356958,-1.469956,1.691426,1.422036,-0.587263,0.180151,-0.003680,1.140121,-0.060284,-0.113586,1.090034,-0.021434,-2.270464,38.936199,-24.857071,-4.511232,0.105680,2.131454,-0.221696,0.000000,0.000000,0.000000,0.000000,0.000000,0.000000
13103406.000000,-2.274262,-1.662636,1.358088,-1.470017,1.691305,1.423144,-0.587291,0.179459,-0.002790,1.132430,-0.062126,-0.115188,1.101154,-0.023577,-2.270464,38.936199,-24.976089,-4.463624,0.141385,2.085677,-0.149369,0.000000,0.000000,0.000000,0.000000,0.000000,0.000000
13103407.000000,-2.274088,-1.662633,1.359202,-1.470078,1.691188,1.424223,-0.587306,0.177761,-0.000999,1.118716,-0.060958,-0.112453,1.086934,-0.019412,-2.222857,38.888592,-24.781693,-4.388246,0.147794,2.098495,-0.221696,0.000000,0.000000,0.000000,0.000000,0.000000,0.000000
13103408.000000,-2.273903,-1.662634,1.360303,-1.470143,1.691065,1.425316,-0.587329,0.177006,-0.000298,1.114268,-0.062367,-0.115358,1.098161,-0.020124,-2.345843,38.864788,-24.611099,-4.213686,0.219205,2.060043,-0.202470,0.000000,0.000000,0.000000,0.000000,0.000000,0.000000
13103409.000000,-2.273724,-1.662637,1.361412,-1.470212,1.690941,1.426400,-0.587352,0.175356,-0.000898,1.103839,-0.064126,-0.122368,1.087388,-0.021077,-2.421221,38.888592,-24.313553,-3.991518,0.303434,1.981307,-0.169511,0.000000,0.000000,0.000000,0.000000,0.000000,0.000000
13103410.000000,-2.273559,-1.662639,1.362534,-1.470275,1.690829,1.427491,-0.587368,0.167469,-0.000705,1.104862,-0.062648,-0.119845,1.090373,-0.023979,-2.369647,38.888592,-24.190567,-3.868532,0.303434,1.916305,-0.202470,0.000000,0.000000,0.000000,0.000000,0.000000,0.000000
13103411.000000,-2.273394,-1.662642,1.363638,-1.470331,1.690725,1.428588,-0.587392,0.166633,-0.000550,1.100875,-0.059366,-0.114471,1.084793,-0.019768,-2.345843,38.888592,-24.142960,-3.844728,0.207303,1.884261,-0.155778,0.000000,0.000000,0.000000,0.000000,0.000000,0.000000
13103412.000000,-2.273245,-1.662648,1.364756,-1.470377,1.690619,1.429669,-0.587411,0.160684,-0.002097,1.096508,-0.054755,-0.109143,1.072762,-0.022659,-2.123675,38.960003,-24.119156,-3.920107,0.135892,1.877853,-0.182328,0.000000,0.000000,0.000000,0.000000,0.000000,0.000000
13103413.000000,-2.273101,-1.662649,1.365865,-1.470420,1.690507,1.430771,-0.587435,0.156070,-0.000886,1.103314,-0.053811,-0.105795,1.081189,-0.022741,-1.873736,38.936199,-24.166763,-4.043092,0.135892,1.812850,-0.155778,0.000000,0.000000,0.000000,0.000000,0.000000,0.000000
13103414.000000,-2.272953,-1.662648,1.366985,-1.470461,1.690407,1.431865,-0.587450,0.152131,-0.000068,1.101207,-0.049570,-0.100593,1.095373,-0.020397,-1.726946,38.912395,-24.218338,-4.189882,0.069974,1.897079,-0.188737,0.000000,0.000000,0.000000,0.000000,0.000000,0.000000
13103415.000000,-2.272811,-1.662650,1.368122,-1.470509,1.690297,1.432933,-0.587472,0.146447,-0.000627,1.101187,-0.046452,-0.103027,1.099595,-0.021732,-1.603961,38.936199,-24.464310,-4.213686,0.105680,2.039901,-0.142960,0.000000,0.000000,0.000000,0.000000,0.000000,0.000000
13103416.000000,-2.272664,-1.662654,1.369228,-1.470560,1.690178,1.434035,-0.587483,0.146309,-0.004149,1.106163,-0.046313,-0.104280,1.106144,-0.018580,-1.528582,38.960003,-24.511917,-4.142274,0.189908,1.962081,-0.202470,0.000000,0.000000,0.000000,0.000000,0.000000,0.000000
13103417.000000,-2.272516,-1.662657,1.370335,-1.470604,1.690061,1.435131,-0.587503,0.143975,-0.003043,1.097786,-0.045287,-0.106238,1.101196,-0.019041,-1.480975,38.960003,-24.436539,-4.090700,0.255826,1.793624,-0.196061,0.000000,0.000000,0.000000,0.000000,0.000000,0.000000
13103418.000000,-2.272372,-1.662656,1.371421,-1.470654,1.689944,1.436230,-0.587521,0.142875,-0.001123,1.093287,-0.045934,-0.110149,1.110401,-0.019738,-1.453204,38.912395,-24.265945,-3.967714,0.320829,1.714889,-0.175919,0.000000,0.000000,0.000000,0.000000,0.000000,0.000000
13103419.000000,-2.272223,-1.662656,1.372529,-1.470701,1.689839,1.437330,-0.587534,0.142592,-0.000348,1.094687,-0.045430,-0.108724,1.104864,-0.018962,-1.480975,38.888592,-24.190567,-3.892336,0.273221,1.735030,-0.188737,0.000000,0.000000,0.000000,0.000000,0.000000,0.000000
13103420.000000,-2.272086,-1.662658,1.373623,-1.470747,1.689732,1.438409,-0.587556,0.140400,-0.000349,1.090814,-0.045966,-0.106040,1.104583,-0.020028,-1.429400,38.888592,-23.896988,-3.769350,0.243009,1.773483,-0.155778,0.000000,0.000000,0.000000,0.000000,0.000000,0.000000
13103421.000000,-2.271950,-1.662663,1.374708,-1.470783,1.689629,1.439511,-0.587565,0.135921,-0.000877,1.087191,-0.043635,-0.107715,1.102416,-0.017667,-1.405596,38.912395,-23.678787,-3.769350,0.237516,1.747848,-0.208878,0.000000,0.000000,0.000000,0.000000,0.000000,0.000000
13103422.000000,-2.271819,-1.662664,1.375808,-1.470820,1.689531,1.440594,-0.587584,0.139799,-0.000094,1.083467,-0.042291,-0.103962,1.083352,-0.019518,-1.306414,38.888592,-23.555801,-3.745546,0.171598,1.825668,-0.169511,0.000000,0.000000,0.000000,0.000000,0.000000,0.000000
13103423.000000,-2.271694,-1.662658,1.376910,-1.470858,1.689436,1.441685,-0.587591,0.136412,0.002208,1.111948,-0.042094,-0.104295,1.092125,-0.013130,-1.159625,38.789410,-23.702591,-3.697939,0.112089,1.923629,-0.208878,0.000000,0.000000,0.000000,0.000000,0.000000,0.000000
13103424.000000,-2.271565,-1.662655,1.378038,-1.470890,1.689337,1.442791,-0.587605,0.133192,0.002549,1.114320,-0.036979,-0.101591,1.102430,-0.010172,-1.108050,38.741802,-23.996170,-3.721742,0.093778,1.890670,-0.202470,0.000000,0.000000,0.000000,0.000000,0.000000,0.000000
13103425.000000,-2.271444,-1.662651,1.379173,-1.470924,1.689232,1.443892,-0.587622,0.131817,0.003991,1.113562,-0.034978,-0.100147,1.091110,-0.009635,-0.985064,38.642620,-24.412735,-3.670168,0.154203,1.767074,-0.149369,0.000000,0.000000,0.000000,0.000000,0.000000,0.000000
13103426.000000,-2.271325,-1.662653,1.380286,-1.470958,1.689129,1.444984,-0.587629,0.125481,0.002083,1.115927,-0.037068,-0.101235,1.094910,-0.009813,-0.885882,38.666424,-24.781693,-3.598757,0.219205,1.786300,-0.202470,0.000000,0.000000,0.000000,0.000000,0.000000,0.000000
13103427.000000,-2.271205,-1.662653,1.381418,-1.470990,1.689022,1.446057,-0.587648,0.124292,0.001373,1.119202,-0.038233,-0.101736,1.073215,-0.010110,-0.810504,38.666424,-25.150650,-3.547182,0.285123,1.851302,-0.130143,0.000000,0.000000,0.000000,0.000000,0.000000,0.000000
13103428.000000,-2.271093,-1.662657,1.382543,-1.471021,1.688927,1.447134,-0.587656,0.121374,-0.000303,1.114226,-0.035958,-0.096737,1.079288,-0.010166,-0.663714,38.717999,-25.273636,-3.499574,0.267728,1.955673,-0.182328,0.000000,0.000000,0.000000,0.000000,0.000000,0.000000
13103429.000000,-2.270974,-1.662662,1.383645,-1.471046,1.688823,1.448228,-0.587671,0.121406,-0.001881,1.111776,-0.033694,-0.101227,1.080146,-0.009127,-0.612139,38.789410,-25.297440,-3.475771,0.279630,1.962081,-0.142960,0.000000,0.000000,0.000000,0.000000,0.000000,0.000000
13103430.000000,-2.270860,-1.662671,1.384750,-1.471074,1.688722,1.449312,-0.587673,0.118208,-0.004137,1.102661,-0.033065,-0.104914,1.068105,-0.008830,-0.540728,38.912395,-25.126846,-3.400392,0.249418,1.903487,-0.215287,0.000000,0.000000,0.000000,0.000000,0.000000,0.000000
13103431.000000,-2.270742,-1.662680,1.385837,-1.471104,1.688620,1.450392,-0.587691,0.117813,-0.005083,1.097972,-0.029864,-0.101161,1.074209,-0.008717,-0.564532,39.011578,-24.928482,-3.301210,0.219205,1.974899,-0.163102,0.000000,0.000000,0.000000,0.000000,0.000000,0.000000
13103432.000000,-2.270625,-1.662677,1.386938,-1.471136,1.688517,1.451486,-0.587700,0.117265,-0.002186,1.092629,-0.032289,-0.099827,1.083929,-0.005772,-0.588336,38.960003,-24.734085,-3.126650,0.231107,1.955673,-0.182328,0.000000,0.000000,0.000000,0.000000,0.000000,0.000000
13103433.000000,-2.270512,-1.662681,1.388036,-1.471163,1.688420,1.452562,-0.587707,0.117016,-0.002017,1.088370,-0.032145,-0.100181,1.093020,-0.008061,-0.612139,38.983807,-24.388931,-3.027467,0.213712,1.930038,-0.208878,0.000000,0.000000,0.000000,0.000000,0.000000,0.000000
13103434.000000,-2.270406,-1.662687,1.389129,-1.471187,1.688313,1.453661,-0.587721,0.115191,-0.002553,1.085760,-0.028236,-0.101168,1.102976,-0.006619,-0.588336,39.035381,-24.313553,-2.956056,0.279630,1.812850,-0.196061,0.000000,0.000000,0.000000,0.000000,0.000000,0.000000
13103435.000000,-2.270304,-1.662689,1.390226,-1.471206,1.688216,1.454750,-0.587728,0.112845,-0.000497,1.078998,-0.026903,-0.096161,1.093054,-0.009400,-0.540728,38.983807,-24.166763,-2.956056,0.249418,1.682845,-0.202470,0.000000,0.000000,0.000000,0.000000,0.000000,0.000000
13103436.000000,-2.270212,-1.662691,1.391327,-1.471222,1.688118,1.455857,-0.587741,0.105492,0.000224,1.085257,-0.025455,-0.095178,1.102034,-0.008545,-0.342364,38.960003,-24.242142,-2.979860,0.231107,1.532699,-0.163102,0.000000,0.000000,0.000000,0.000000,0.000000,0.000000
13103437.000000,-2.270110,-1.662695,1.392438,-1.471227,1.688016,1.456954,-0.587748,0.103748,0.000149,1.088256,-0.019066,-0.100053,1.099394,-0.005362,-0.290789,38.960003,-24.313553,-3.102846,0.237516,1.546432,-0.188737,0.000000,0.000000,0.000000,0.000000,0.000000,0.000000
13103438.000000,-2.270022,-1.662698,1.393549,-1.471235,1.687914,1.458035,-0.587759,0.097329,-0.002354,1.089513,-0.016225,-0.101357,1.082543,-0.004511,-0.167803,38.936199,-24.313553,-3.154421,0.249418,1.584884,-0.175919,0.000000,0.000000,0.000000,0.000000,0.000000,0.000000
13103439.000000,-2.269927,-1.662702,1.394645,-1.471239,1.687816,1.459121,-0.587765,0.094737,-0.001821,1.088348,-0.011230,-0.099937,1.082793,-0.002370,-0.144000,38.936199,-24.365128,-3.202028,0.255826,1.767074,-0.202470,0.000000,0.000000,0.000000,0.000000,0.000000,0.000000
13103440.000000,-2.269837,-1.662708,1.395744,-1.471245,1.687717,1.460199,-0.587777,0.092873,-0.004564,1.086519,-0.011222,-0.100565,1.068127,-0.007268,-0.116229,38.936199,-24.341324,-3.225832,0.255826,1.884261,-0.182328,0.000000,0.000000,0.000000,0.000000,0.000000,0.000000
13103441.000000,-2.269741,-1.662709,1.396825,-1.471247,1.687624,1.461303,-0.587786,0.093158,-0.001777,1.107858,-0.008046,-0.096596,1.084689,-0.006142,-0.167803,38.864788,-24.242142,-3.249635,0.189908,1.890670,-0.163102,0.000000,0.000000,0.000000,0.000000,0.000000,0.000000
13103442.000000,-2.269638,-1.662715,1.397919,-1.471251,1.687521,1.462413,-0.587792,0.095299,-0.004650,1.098737,-0.006205,-0.096125,1.096519,-0.007495,-0.314593,38.864788,-24.166763,-3.249635,0.183500,1.858627,-0.208878,0.000000,0.000000,0.000000,0.000000,0.000000,0.000000
13103443.000000,-2.269545,-1.662713,1.399011,-1.471252,1.687419,1.463511,-0.587805,0.095588,-0.000714,1.088800,-0.004767,-0.093764,1.086802,-0.007409,-0.413775,38.741802,-23.996170,-3.249635,0.183500,1.773483,-0.163102,0.000000,0.000000,0.000000,0.000000,0.000000,0.000000
