chaoyuefei/paper-gmrm-data/robot_logs/s2_dq_mrm_min_0.50_log_20260314_182947.csv
# time_ms,q_0,q_1,q_2,q_3,q_4,q_5,q_6,dq_0,dq_1,dq_2,dq_3,dq_4,dq_5,dq_6,tau_J_0,tau_J_1,tau_J_2,tau_J_3,tau_J_4,tau_J_5,tau_J_6,O_dP_EE_c_0,O_dP_EE_c_1,O_dP_EE_c_2,O_dP_EE_c_3,O_dP_EE_c_4,O_dP_EE_c_5
15655101.000000,-2.417774,-1.662586,1.039971,-1.352858,1.798032,1.079486,-0.546206,-0.000312,0.000696,0.000325,0.000436,-0.000226,0.000296,0.000991,-0.144000,41.483196,-20.659683,-5.796632,0.942472,1.337692,-0.188737,0.000000,0.000000,0.000000,0.000000,0.000000,0.000000
15655102.000000,-2.417774,-1.662589,1.039973,-1.352864,1.798033,1.079482,-0.546206,-0.000208,-0.000650,0.000822,-0.001473,0.000053,-0.000040,0.000423,-0.144000,41.530804,-20.683487,-5.721254,0.936979,1.344100,-0.182328,0.000000,0.000000,0.000000,0.000000,0.000000,0.000000
15655103.000000,-2.417774,-1.662587,1.039973,-1.352862,1.798030,1.079484,-0.546208,-0.000139,0.000124,0.000584,-0.000332,0.000273,-0.000264,-0.000430,-0.144000,41.507000,-20.683487,-5.749025,0.930570,1.350509,-0.163102,0.000000,0.000000,0.000000,0.000000,0.000000,0.000000
15655104.000000,-2.417769,-1.662591,1.039969,-1.352860,1.798033,1.079485,-0.546203,0.001578,-0.001031,-0.000790,0.000335,0.000385,0.000061,0.001409,-0.215411,41.554607,-20.631912,-5.772829,0.925077,1.344100,-0.208878,0.000000,0.000000,0.000000,0.000000,0.000000,0.000000
15655105.000000,-2.417771,-1.662595,1.039973,-1.352856,1.798031,1.079484,-0.546216,0.008070,-0.003196,0.000143,0.003377,0.000494,0.007820,-0.005677,0.153547,41.530804,-20.659683,-5.772829,0.918668,1.389877,-0.155778,0.000000,0.000000,0.000000,0.000000,0.000000,0.000000
15655106.000000,-2.417757,-1.662596,1.039976,-1.352858,1.798036,1.079477,-0.546228,0.018743,-0.002265,0.002464,0.000930,0.000634,0.008638,-0.011673,1.121564,41.261028,-20.631912,-5.574464,0.786832,1.572067,-0.208878,0.000000,0.000000,0.000000,0.000000,0.000000,0.000000
15655107.000000,-2.417726,-1.662600,1.039985,-1.352855,1.798039,1.079475,-0.546264,0.027080,0.000141,0.006485,0.000333,0.000649,0.007864,-0.021979,2.680707,40.896038,-20.584305,-5.276918,0.644010,1.806442,-0.221696,0.000000,0.000000,0.000000,0.000000,0.000000,0.000000
15655108.000000,-2.417677,-1.662599,1.040006,-1.352861,1.798024,1.079497,-0.546319,0.031379,-0.001857,0.014099,-0.004382,-0.002933,0.012676,-0.034510,4.537397,40.404095,-20.608109,-4.907960,0.589994,1.909896,-0.248246,0.000000,0.000000,0.000000,0.000000,0.000000,0.000000
15655110.000000,-2.417523,-1.662596,1.040049,-1.352896,1.797964,1.079628,-0.546502,0.048410,0.002286,0.022336,-0.014769,-0.021223,0.047171,-0.071142,8.000836,39.400372,-20.413712,-4.189882,0.661405,1.649886,-0.208878,0.000000,0.000000,0.000000,0.000000,0.000000,0.000000
15655111.000000,-2.417422,-1.662590,1.040090,-1.352935,1.797914,1.079728,-0.546617,0.060746,0.005607,0.031439,-0.025394,-0.036192,0.069978,-0.091769,9.460797,38.864788,-20.413712,-3.769350,0.698026,1.474105,-0.254655,0.000000,0.000000,0.000000,0.000000,0.000000,0.000000
15655112.000000,-2.417313,-1.662592,1.040138,-1.352982,1.797848,1.079844,-0.546764,0.073119,0.004097,0.036955,-0.033455,-0.047209,0.086888,-0.108750,10.797772,38.495831,-20.362137,-3.475771,0.733732,1.416427,-0.188737,0.000000,0.000000,0.000000,0.000000,0.000000,0.000000
15655113.000000,-2.417185,-1.662589,1.040193,-1.353052,1.797770,1.079978,-0.546922,0.089199,0.002951,0.042940,-0.044569,-0.063031,0.107637,-0.128467,11.936383,38.130840,-20.266922,-3.102846,0.721830,1.402694,-0.274796,0.000000,0.000000,0.000000,0.000000,0.000000,0.000000
15655114.000000,-2.417042,-1.662578,1.040265,-1.353120,1.797687,1.080129,-0.547114,0.108433,0.007099,0.052114,-0.055013,-0.070264,0.119902,-0.148920,12.852826,37.686504,-20.239151,-2.904482,0.578092,1.481429,-0.261979,0.000000,0.000000,0.000000,0.000000,0.000000,0.000000
15655115.000000,-2.416896,-1.662567,1.040355,-1.353205,1.797580,1.080309,-0.547340,0.122218,0.008278,0.063839,-0.066682,-0.082804,0.137748,-0.170951,13.820844,37.321514,-20.314529,-2.682314,0.488370,1.578475,-0.182328,0.000000,0.000000,0.000000,0.000000,0.000000,0.000000
15655116.000000,-2.416723,-1.662553,1.040455,-1.353301,1.797450,1.080513,-0.547576,0.135308,0.009341,0.074900,-0.076482,-0.096548,0.159329,-0.191726,14.511151,36.952557,-20.362137,-2.559328,0.386747,1.605026,-0.254655,0.000000,0.000000,0.000000,0.000000,0.000000,0.000000
15655117.000000,-2.416539,-1.662537,1.040575,-1.353419,1.797301,1.080753,-0.547855,0.150341,0.012713,0.089481,-0.090772,-0.113327,0.185180,-0.216716,15.082440,36.611370,-20.560501,-2.412538,0.327238,1.624252,-0.182328,0.000000,0.000000,0.000000,0.000000,0.000000,0.000000
15655118.000000,-2.416334,-1.662515,1.040699,-1.353546,1.797120,1.081027,-0.548145,0.166664,0.014002,0.099920,-0.102536,-0.134285,0.207099,-0.236245,15.502973,36.194805,-20.631912,-2.360964,0.374845,1.572067,-0.188737,0.000000,0.000000,0.000000,0.000000,0.000000,0.000000
15655119.000000,-2.416107,-1.662499,1.040846,-1.353696,1.796917,1.081322,-0.548445,0.184290,0.012498,0.114368,-0.122374,-0.159939,0.238996,-0.256297,15.824323,35.877422,-20.854080,-2.261781,0.434354,1.481429,-0.208878,0.000000,0.000000,0.000000,0.000000,0.000000,0.000000
15655120.000000,-2.415871,-1.662477,1.041004,-1.353872,1.796683,1.081633,-0.548764,0.201603,0.015875,0.129222,-0.135196,-0.188999,0.259521,-0.273525,16.070295,35.508465,-21.024673,-2.114992,0.512174,1.461288,-0.163102,0.000000,0.000000,0.000000,0.000000,0.000000,0.000000
15655121.000000,-2.415625,-1.662455,1.041172,-1.354059,1.796428,1.081958,-0.549076,0.215768,0.017192,0.141567,-0.153215,-0.205171,0.278824,-0.285060,16.367842,35.191082,-21.123856,-2.015810,0.578092,1.481429,-0.169511,0.000000,0.000000,0.000000,0.000000,0.000000,0.000000
15655122.000000,-2.415351,-1.662445,1.041347,-1.354252,1.796161,1.082313,-0.549392,0.234730,0.013169,0.151914,-0.164620,-0.225316,0.297879,-0.292730,16.443220,35.091900,-21.147659,-2.015810,0.601896,1.507064,-0.163102,0.000000,0.000000,0.000000,0.000000,0.000000,0.000000
15655123.000000,-2.415068,-1.662432,1.041534,-1.354463,1.795882,1.082687,-0.549714,0.249445,0.011754,0.163122,-0.179122,-0.242054,0.319805,-0.300580,16.590010,34.945110,-21.199234,-2.015810,0.559781,1.572067,-0.142960,0.000000,0.000000,0.000000,0.000000,0.000000,0.000000
15655124.000000,-2.414772,-1.662422,1.041724,-1.354696,1.795594,1.083075,-0.550036,0.263400,0.009163,0.171829,-0.195206,-0.258103,0.345026,-0.306556,16.740767,34.873699,-21.123856,-1.964235,0.464567,1.676437,-0.122819,0.000000,0.000000,0.000000,0.000000,0.000000,0.000000
15655125.000000,-2.414453,-1.662420,1.041931,-1.354950,1.795276,1.083493,-0.550342,0.278057,0.005293,0.182274,-0.214348,-0.271797,0.365691,-0.301426,16.716963,34.897503,-21.076248,-1.869020,0.410551,1.727706,-0.202470,0.000000,0.000000,0.000000,0.000000,0.000000,0.000000
15655126.000000,-2.414115,-1.662421,1.042151,-1.355229,1.794940,1.083939,-0.550646,0.293292,0.001572,0.193220,-0.232334,-0.288599,0.383783,-0.301877,16.716963,34.972881,-21.024673,-1.619081,0.398649,1.714889,-0.196061,0.000000,0.000000,0.000000,0.000000,0.000000,0.000000
15655127.000000,-2.413772,-1.662424,1.042370,-1.355518,1.794601,1.084403,-0.550954,0.311189,-0.000211,0.202492,-0.249153,-0.301265,0.414226,-0.305035,16.740767,35.020489,-20.905655,-1.472292,0.393156,1.630660,-0.116410,0.000000,0.000000,0.000000,0.000000,0.000000,0.000000
15655128.000000,-2.413405,-1.662420,1.042608,-1.355828,1.794227,1.084903,-0.551240,0.328051,0.000864,0.209253,-0.265573,-0.325459,0.440532,-0.300588,16.740767,34.972881,-20.905655,-1.273927,0.410551,1.546432,-0.188737,0.000000,0.000000,0.000000,0.000000,0.000000,0.000000
15655129.000000,-2.413031,-1.662423,1.042852,-1.356130,1.793834,1.085409,-0.551528,0.344817,-0.000619,0.222264,-0.284941,-0.344868,0.459863,-0.297510,16.816145,35.020489,-20.854080,-1.250124,0.446256,1.487838,-0.155778,0.000000,0.000000,0.000000,0.000000,0.000000,0.000000
15655130.000000,-2.412656,-1.662423,1.043106,-1.356456,1.793432,1.085943,-0.551806,0.357298,-0.000474,0.232043,-0.295336,-0.364501,0.481986,-0.292903,17.038313,35.020489,-20.806473,-1.226320,0.506681,1.481429,-0.136552,0.000000,0.000000,0.000000,0.000000,0.000000,0.000000
15655131.000000,-2.412255,-1.662426,1.043366,-1.356788,1.793013,1.086489,-0.552075,0.368184,-0.001476,0.237984,-0.301217,-0.384325,0.499649,-0.286886,17.161299,35.068096,-20.707291,-1.273927,0.476469,1.565658,-0.188737,0.000000,0.000000,0.000000,0.000000,0.000000,0.000000
15655132.000000,-2.411857,-1.662423,1.043635,-1.357137,1.792581,1.087056,-0.552357,0.387253,-0.000461,0.248300,-0.314149,-0.396600,0.518709,-0.282919,17.407270,35.044292,-20.608109,-1.273927,0.476469,1.637069,-0.142960,0.000000,0.000000,0.000000,0.000000,0.000000,0.000000
15655133.000000,-2.411445,-1.662426,1.043922,-1.357501,1.792134,1.087654,-0.552621,0.397394,-0.000890,0.259889,-0.327275,-0.416448,0.538884,-0.275656,17.704817,35.068096,-20.560501,-1.226320,0.506681,1.662704,-0.208878,0.000000,0.000000,0.000000,0.000000,0.000000,0.000000
15655134.000000,-2.411007,-1.662421,1.044215,-1.357884,1.791668,1.088279,-0.552881,0.408206,0.000501,0.276134,-0.346120,-0.428384,0.573773,-0.267940,17.855574,35.020489,-20.536697,-1.099367,0.458158,1.578475,-0.208878,0.000000,0.000000,0.000000,0.000000,0.000000,0.000000
15655135.000000,-2.410562,-1.662419,1.044525,-1.358279,1.791194,1.088934,-0.553140,0.419558,0.001433,0.287861,-0.364114,-0.438628,0.597215,-0.267668,18.026167,34.972881,-20.536697,-0.928774,0.434354,1.409103,-0.175919,0.000000,0.000000,0.000000,0.000000,0.000000,0.000000
15655136.000000,-2.410103,-1.662414,1.044838,-1.358693,1.790696,1.089613,-0.553396,0.426950,0.002151,0.294352,-0.379895,-0.461600,0.618362,-0.261361,18.200727,34.921307,-20.461319,-0.754213,0.470060,1.234237,-0.196061,0.000000,0.000000,0.000000,0.000000,0.000000,0.000000
15655137.000000,-2.409623,-1.662408,1.045160,-1.359117,1.790191,1.090280,-0.553646,0.440515,0.003096,0.306246,-0.396793,-0.484837,0.638456,-0.258476,18.347517,34.849895,-20.413712,-0.508241,0.482877,1.214095,-0.155778,0.000000,0.000000,0.000000,0.000000,0.000000,0.000000
15655138.000000,-2.409142,-1.662404,1.045499,-1.359553,1.789671,1.090972,-0.553893,0.454457,0.005770,0.315118,-0.409650,-0.495853,0.653546,-0.254350,18.573652,34.826092,-20.362137,-0.385256,0.482877,1.292831,-0.163102,0.000000,0.000000,0.000000,0.000000,0.000000,0.000000
15655139.000000,-2.408645,-1.662395,1.045837,-1.360005,1.789137,1.091677,-0.554131,0.466662,0.006982,0.323612,-0.419505,-0.501823,0.671789,-0.247969,18.843428,34.703106,-20.266922,-0.262270,0.428861,1.364242,-0.202470,0.000000,0.000000,0.000000,0.000000,0.000000,0.000000
15655140.000000,-2.408145,-1.662387,1.046193,-1.360463,1.788596,1.092396,-0.554377,0.478925,0.009634,0.330976,-0.434898,-0.513142,0.692309,-0.249033,19.164778,34.627728,-20.215347,-0.210695,0.422452,1.377059,-0.155778,0.000000,0.000000,0.000000,0.000000,0.000000,0.000000
15655141.000000,-2.407620,-1.662378,1.046558,-1.360928,1.788030,1.093148,-0.554615,0.494298,0.012221,0.339220,-0.440357,-0.525218,0.706028,-0.246187,19.486128,34.532513,-20.191544,-0.234499,0.416959,1.396285,-0.208878,0.000000,0.000000,0.000000,0.000000,0.000000,0.000000
15655142.000000,-2.407077,-1.662364,1.046933,-1.361420,1.787449,1.093903,-0.554859,0.507314,0.015415,0.352013,-0.456696,-0.551583,0.724523,-0.246438,19.759871,34.385723,-20.167740,-0.063905,0.434354,1.377059,-0.202470,0.000000,0.000000,0.000000,0.000000,0.000000,0.000000
15655143.000000,-2.406532,-1.662352,1.047329,-1.361929,1.786858,1.094694,-0.555113,0.517298,0.013848,0.364368,-0.477170,-0.565494,0.741937,-0.247533,20.033613,34.262737,-20.266922,0.059080,0.476469,1.383468,-0.149369,0.000000,0.000000,0.000000,0.000000,0.000000,0.000000
15655144.000000,-2.405969,-1.662351,1.047738,-1.362454,1.786249,1.095517,-0.555350,0.529474,0.009196,0.377264,-0.489972,-0.572291,0.767649,-0.240338,20.331160,34.286541,-20.413712,0.209837,0.542386,1.292831,-0.196061,0.000000,0.000000,0.000000,0.000000,0.000000,0.000000
15655145.000000,-2.405399,-1.662335,1.048149,-1.362988,1.785637,1.096343,-0.555597,0.540898,0.009955,0.390264,-0.503635,-0.588196,0.787069,-0.237797,20.577131,34.139751,-20.584305,0.408202,0.512174,1.188461,-0.169511,0.000000,0.000000,0.000000,0.000000,0.000000,0.000000
15655146.000000,-2.404805,-1.662318,1.048581,-1.363532,1.785013,1.097195,-0.555840,0.558475,0.012971,0.401810,-0.518373,-0.590615,0.804754,-0.235767,20.823103,34.016766,-20.754898,0.432005,0.482877,1.201278,-0.149369,0.000000,0.000000,0.000000,0.000000,0.000000,0.000000
15655147.000000,-2.404194,-1.662303,1.049023,-1.364089,1.784359,1.098063,-0.556077,0.572199,0.012007,0.415269,-0.537897,-0.607837,0.826652,-0.237869,21.049238,33.893780,-20.977066,0.507384,0.464567,1.182052,-0.202470,0.000000,0.000000,0.000000,0.000000,0.000000,0.000000
15655148.000000,-2.403569,-1.662287,1.049473,-1.364657,1.783716,1.098949,-0.556319,0.591816,0.013822,0.425663,-0.545654,-0.618380,0.844045,-0.240553,21.144453,33.794598,-21.100052,0.432005,0.393156,1.240646,-0.163102,0.000000,0.000000,0.000000,0.000000,0.000000,0.000000
15655149.000000,-2.402937,-1.662274,1.049937,-1.365249,1.783037,1.099852,-0.556551,0.600522,0.014134,0.435511,-0.560138,-0.631597,0.854328,-0.241746,21.418196,33.746990,-21.199234,0.432005,0.356534,1.377059,-0.202470,0.000000,0.000000,0.000000,0.000000,0.000000,0.000000
15655150.000000,-2.402290,-1.662256,1.050407,-1.365842,1.782353,1.100763,-0.556785,0.626504,0.019183,0.451247,-0.569786,-0.649327,0.872476,-0.243434,21.568953,33.624004,-21.270645,0.507384,0.374845,1.507064,-0.182328,0.000000,0.000000,0.000000,0.000000,0.000000,0.000000
15655151.000000,-2.401606,-1.662243,1.050897,-1.366466,1.781642,1.101718,-0.557026,0.645233,0.018084,0.462837,-0.582880,-0.664272,0.891539,-0.244820,21.640364,33.576397,-21.369827,0.729552,0.446256,1.442062,-0.149369,0.000000,0.000000,0.000000,0.000000,0.000000,0.000000
15655152.000000,-2.400913,-1.662234,1.051392,-1.367104,1.780923,1.102697,-0.557256,0.658434,0.016249,0.474281,-0.596241,-0.687371,0.943922,-0.243063,21.862532,33.576397,-21.540421,0.951720,0.578092,1.253463,-0.196061,0.000000,0.000000,0.000000,0.000000,0.000000,0.000000
15655153.000000,-2.400212,-1.662219,1.051902,-1.367739,1.780212,1.103693,-0.557498,0.672762,0.013632,0.487871,-0.612191,-0.694538,0.962323,-0.244253,22.037092,33.501019,-21.687210,1.173888,0.721830,1.117049,-0.169511,0.000000,0.000000,0.000000,0.000000,0.000000,0.000000
15655154.000000,-2.399481,-1.662206,1.052422,-1.368385,1.779491,1.104717,-0.557731,0.687152,0.014179,0.496820,-0.620168,-0.703398,0.971979,-0.240088,22.136274,33.453411,-21.810196,1.273070,0.876554,1.058456,-0.163102,0.000000,0.000000,0.000000,0.000000,0.000000,0.000000
15655155.000000,-2.398747,-1.662201,1.052942,-1.369031,1.778786,1.105735,-0.557959,0.693455,0.007982,0.502299,-0.629371,-0.711819,0.984013,-0.235476,22.112471,33.552593,-21.861771,1.197691,1.020292,1.162826,-0.196061,0.000000,0.000000,0.000000,0.000000,0.000000,0.000000
15655156.000000,-2.398015,-1.662193,1.053476,-1.369704,1.778073,1.106773,-0.558187,0.696318,0.009393,0.517225,-0.644994,-0.710774,0.998762,-0.227619,21.172224,33.675579,-21.615799,0.800963,0.972684,1.383468,-0.208878,0.000000,0.000000,0.000000,0.000000,0.000000,0.000000
15655157.000000,-2.397284,-1.662188,1.054045,-1.370404,1.777358,1.107841,-0.558411,0.695962,0.007529,0.534793,-0.658344,-0.710593,1.011308,-0.227394,19.386946,33.794598,-21.369827,0.186034,0.936979,1.597701,-0.208878,0.000000,0.000000,0.000000,0.000000,0.000000,0.000000
15655158.000000,-2.396565,-1.662178,1.054621,-1.371096,1.776653,1.108921,-0.558637,0.705071,0.008253,0.552141,-0.669678,-0.708951,1.030791,-0.226139,16.986738,33.699383,-20.905655,-0.706606,0.840848,1.656295,-0.229020,0.000000,0.000000,0.000000,0.000000,0.000000,0.000000
15655159.000000,-2.395833,-1.662174,1.055222,-1.371812,1.775958,1.110042,-0.558868,0.720920,0.004581,0.568574,-0.675575,-0.702042,1.055700,-0.223437,14.213605,33.501019,-20.143936,-1.547670,0.632108,1.643478,-0.182328,0.000000,0.000000,0.000000,0.000000,0.000000,0.000000
15655160.000000,-2.395111,-1.662170,1.055845,-1.372531,1.775267,1.111144,-0.559083,0.725812,0.006801,0.583628,-0.685383,-0.695153,1.082644,-0.223717,11.638837,33.207439,-19.382217,-2.162599,0.464567,1.727706,-0.196061,0.000000,0.000000,0.000000,0.000000,0.000000,0.000000
15655161.000000,-2.394386,-1.662176,1.056491,-1.373244,1.774587,1.112290,-0.559303,0.731138,0.002009,0.600379,-0.689094,-0.687784,1.101595,-0.224138,9.040265,33.036846,-18.572891,-2.904482,0.351041,1.708480,-0.182328,0.000000,0.000000,0.000000,0.000000,0.000000,0.000000
15655162.000000,-2.393652,-1.662182,1.057157,-1.373957,1.773918,1.113460,-0.559525,0.736798,0.000480,0.616806,-0.693380,-0.675762,1.122185,-0.226407,6.663862,32.913860,-17.811172,-3.475771,0.207303,1.624252,-0.196061,0.000000,0.000000,0.000000,0.000000,0.000000,0.000000
15655163.000000,-2.392938,-1.662195,1.057805,-1.374649,1.773250,1.114636,-0.559746,0.743582,-0.003059,0.625087,-0.691296,-0.671176,1.141587,-0.227434,4.735761,32.890057,-16.978043,-3.991518,0.166105,1.546432,-0.169511,0.000000,0.000000,0.000000,0.000000,0.000000,0.000000
15655164.000000,-2.392202,-1.662220,1.058464,-1.375336,1.772599,1.115840,-0.559973,0.743212,-0.008806,0.630169,-0.683932,-0.660256,1.151924,-0.228223,2.851301,33.013042,-16.117142,-4.412050,0.064481,1.513473,-0.136552,0.000000,0.000000,0.000000,0.000000,0.000000,0.000000
15655165.000000,-2.391471,-1.662247,1.059118,-1.376006,1.771933,1.117059,-0.560179,0.737830,-0.012796,0.636031,-0.688749,-0.654243,1.170741,-0.220121,1.315961,33.136028,-15.406998,-4.661989,0.135892,1.389877,-0.215287,0.000000,0.000000,0.000000,0.000000,0.000000,0.000000
15655166.000000,-2.390753,-1.662270,1.059783,-1.376689,1.771292,1.118297,-0.560394,0.736126,-0.015821,0.644409,-0.683557,-0.649973,1.180372,-0.217278,0.030561,33.136028,-14.645279,-4.757204,0.219205,1.350509,-0.196061,0.000000,0.000000,0.000000,0.000000,0.000000,0.000000
15655167.000000,-2.390033,-1.662297,1.060465,-1.377381,1.770648,1.119569,-0.560609,0.725593,-0.017434,0.646480,-0.684886,-0.644812,1.199544,-0.224515,-1.008868,33.112225,-14.081924,-4.586610,0.291532,1.136276,-0.155778,0.000000,0.000000,0.000000,0.000000,0.000000,0.000000
15655168.000000,-2.389308,-1.662325,1.061140,-1.378073,1.770030,1.120813,-0.560814,0.736929,-0.020109,0.658024,-0.688378,-0.640228,1.207189,-0.217960,-2.000689,33.013042,-13.566177,-4.166078,0.320829,0.960494,-0.215287,0.000000,0.000000,0.000000,0.000000,0.000000,0.000000
15655169.000000,-2.388586,-1.662361,1.061825,-1.378768,1.769393,1.122062,-0.561031,0.728136,-0.024069,0.661426,-0.690731,-0.635579,1.215310,-0.217094,-2.742571,32.989239,-13.026627,-3.670168,0.446256,0.928451,-0.163102,0.000000,0.000000,0.000000,0.000000,0.000000,0.000000
15655170.000000,-2.387856,-1.662385,1.062513,-1.379468,1.768767,1.123317,-0.561241,0.726792,-0.023081,0.675045,-0.691802,-0.634015,1.240716,-0.217164,-3.409075,32.790874,-12.657669,-3.079042,0.500272,0.850631,-0.163102,0.000000,0.000000,0.000000,0.000000,0.000000,0.000000
15655171.000000,-2.387150,-1.662408,1.063211,-1.380138,1.768160,1.124542,-0.561437,0.723780,-0.021422,0.681781,-0.687123,-0.622018,1.240620,-0.211567,-3.881182,32.548870,-12.288712,-2.805300,0.393156,0.863448,-0.215287,0.000000,0.000000,0.000000,0.000000,0.000000,0.000000
15655172.000000,-2.386443,-1.662425,1.063918,-1.380815,1.767548,1.125755,-0.561646,0.716154,-0.018607,0.682349,-0.680968,-0.614963,1.224260,-0.208760,-4.127154,32.231487,-12.042740,-2.583132,0.362943,1.045638,-0.142960,0.000000,0.000000,0.000000,0.000000,0.000000,0.000000
15655173.000000,-2.385734,-1.662437,1.064616,-1.381465,1.766953,1.126958,-0.561841,0.706127,-0.016499,0.688901,-0.674621,-0.615902,1.219212,-0.208247,-4.377093,31.886333,-11.772964,-2.634706,0.303434,1.227828,-0.235429,0.000000,0.000000,0.000000,0.000000,0.000000,0.000000
15655174.000000,-2.385032,-1.662442,1.065336,-1.382126,1.766353,1.128171,-0.562050,0.701847,-0.012840,0.697885,-0.668595,-0.613287,1.212704,-0.207870,-4.623065,31.445965,-11.673782,-2.634706,0.303434,1.318465,-0.229020,0.000000,0.000000,0.000000,0.000000,0.000000,0.000000
15655175.000000,-2.384333,-1.662446,1.066051,-1.382783,1.765746,1.129394,-0.562266,0.694535,-0.008037,0.706179,-0.661490,-0.606406,1.214933,-0.211156,-4.722247,31.029400,-11.526993,-2.634706,0.308927,1.370651,-0.182328,0.000000,0.000000,0.000000,0.000000,0.000000,0.000000
15655176.000000,-2.383635,-1.662440,1.066786,-1.383428,1.765168,1.130588,-0.562471,0.694518,-0.002386,0.714640,-0.653088,-0.600346,1.203780,-0.209489,-4.968218,30.517620,-11.479385,-2.658510,0.273221,1.383468,-0.202470,0.000000,0.000000,0.000000,0.000000,0.000000,0.000000
15655177.000000,-2.382935,-1.662429,1.067531,-1.384073,1.764572,1.131817,-0.562677,0.695088,0.001181,0.722701,-0.647465,-0.597539,1.209241,-0.202125,-5.095171,30.025677,-11.380203,-2.706117,0.327238,1.214095,-0.202470,0.000000,0.000000,0.000000,0.000000,0.000000,0.000000
15655178.000000,-2.382239,-1.662409,1.068267,-1.384691,1.763994,1.133031,-0.562881,0.691597,0.007741,0.726767,-0.643447,-0.589209,1.212451,-0.199029,-5.194354,29.490093,-11.233414,-2.956056,0.308927,0.999862,-0.196061,0.000000,0.000000,0.000000,0.000000,0.000000,0.000000
15655179.000000,-2.381547,-1.662395,1.069021,-1.385321,1.763425,1.134255,-0.563088,0.689467,0.009686,0.735448,-0.637615,-0.580562,1.212093,-0.201220,-5.416522,29.073528,-11.110428,-3.079042,0.237516,0.850631,-0.182328,0.000000,0.000000,0.000000,0.000000,0.000000,0.000000
15655180.000000,-2.380850,-1.662375,1.069783,-1.385945,1.762860,1.135466,-0.563290,0.686816,0.014379,0.743525,-0.629545,-0.569474,1.196224,-0.206011,-5.539507,28.656963,-10.916031,-3.225832,0.189908,0.857040,-0.188737,0.000000,0.000000,0.000000,0.000000,0.000000,0.000000
15655181.000000,-2.380174,-1.662354,1.070525,-1.386561,1.762299,1.136646,-0.563490,0.690464,0.017406,0.751187,-0.624772,-0.567058,1.182674,-0.205765,-5.539507,28.264202,-10.547073,-3.325014,0.141385,1.031905,-0.202470,0.000000,0.000000,0.000000,0.000000,0.000000,0.000000
15655182.000000,-2.379482,-1.662331,1.071286,-1.387185,1.761737,1.137851,-0.563695,0.687845,0.019210,0.755495,-0.620140,-0.559895,1.177030,-0.202859,-5.587115,27.895245,-10.154312,-3.277406,0.076383,1.064864,-0.169511,0.000000,0.000000,0.000000,0.000000,0.000000,0.000000
15655183.000000,-2.378783,-1.662315,1.072046,-1.387780,1.761170,1.139049,-0.563885,0.688122,0.018255,0.762922,-0.627969,-0.559232,1.175197,-0.197592,-5.761675,27.629436,-9.832962,-3.424196,0.015958,1.096908,-0.215287,0.000000,0.000000,0.000000,0.000000,0.000000,0.000000
15655184.000000,-2.378109,-1.662288,1.072821,-1.388380,1.760607,1.140269,-0.564080,0.686949,0.020224,0.763778,-0.617171,-0.558269,1.177223,-0.199378,-5.714068,27.260479,-9.467972,-3.523378,0.058073,1.031905,-0.221696,0.000000,0.000000,0.000000,0.000000,0.000000,0.000000
15655185.000000,-2.377411,-1.662274,1.073613,-1.388985,1.760045,1.141517,-0.564286,0.685448,0.023226,0.770305,-0.613499,-0.559698,1.189181,-0.206681,-5.960040,27.089886,-9.269608,-3.547182,0.076383,0.792037,-0.169511,0.000000,0.000000,0.000000,0.000000,0.000000,0.000000
15655186.000000,-2.376708,-1.662260,1.074393,-1.389589,1.759496,1.142736,-0.564476,0.703081,0.021713,0.775543,-0.613855,-0.557048,1.190467,-0.200719,-6.182208,26.966900,-8.999832,-3.475771,0.088285,0.622665,-0.202470,0.000000,0.000000,0.000000,0.000000,0.000000,0.000000
15655187.000000,-2.376012,-1.662251,1.075197,-1.390192,1.758936,1.143972,-0.564675,0.701958,0.019700,0.781433,-0.609040,-0.557883,1.194273,-0.200322,-6.455950,26.895489,-8.829239,-3.424196,0.178007,0.524703,-0.208878,0.000000,0.000000,0.000000,0.000000,0.000000,0.000000
15655188.000000,-2.375305,-1.662249,1.075998,-1.390793,1.758379,1.145197,-0.564873,0.702719,0.012587,0.790116,-0.603863,-0.549954,1.189737,-0.198981,-6.824908,26.943096,-8.630875,-3.475771,0.171598,0.589706,-0.169511,0.000000,0.000000,0.000000,0.000000,0.000000,0.000000
15655189.000000,-2.374619,-1.662244,1.076826,-1.391373,1.757844,1.146405,-0.565068,0.701336,0.008260,0.803453,-0.594009,-0.549996,1.189629,-0.196832,-6.951861,26.966900,-8.607071,-3.646364,0.183500,0.694076,-0.149369,0.000000,0.000000,0.000000,0.000000,0.000000,0.000000
15655190.000000,-2.373926,-1.662246,1.077663,-1.391940,1.757302,1.147629,-0.565254,0.697589,0.007802,0.809056,-0.584168,-0.544718,1.185169,-0.193741,-7.122454,27.014507,-8.484085,-3.991518,0.093778,0.759078,-0.175919,0.000000,0.000000,0.000000,0.000000,0.000000,0.000000
15655191.000000,-2.373228,-1.662248,1.078498,-1.392504,1.756773,1.148841,-0.565434,0.692436,0.003935,0.825619,-0.579363,-0.544646,1.188219,-0.191106,-7.273211,27.089886,-8.436478,-4.166078,0.034269,0.843307,-0.215287,0.000000,0.000000,0.000000,0.000000,0.000000,0.000000
15655192.000000,-2.372533,-1.662251,1.079357,-1.393076,1.756223,1.150053,-0.565624,0.694817,0.001882,0.838353,-0.573357,-0.545620,1.183138,-0.190123,-7.570757,27.137493,-8.412674,-4.340639,0.040677,0.966903,-0.175919,0.000000,0.000000,0.000000,0.000000,0.000000,0.000000
15655193.000000,-2.371821,-1.662250,1.080224,-1.393641,1.755682,1.151277,-0.565802,0.701943,0.001534,0.853089,-0.568464,-0.537538,1.184328,-0.187585,-8.015094,27.137493,-8.384903,-4.535036,0.069974,1.019088,-0.229020,0.000000,0.000000,0.000000,0.000000,0.000000,0.000000
15655194.000000,-2.371117,-1.662252,1.081093,-1.394215,1.755154,1.152485,-0.565983,0.703963,0.000676,0.861544,-0.575443,-0.542532,1.183280,-0.187462,-8.435626,27.161297,-8.384903,-4.412050,0.129484,0.966903,-0.241837,0.000000,0.000000,0.000000,0.000000,0.000000,0.000000
15655195.000000,-2.370397,-1.662254,1.081969,-1.394784,1.754613,1.153717,-0.566173,0.707589,-0.005716,0.865167,-0.570508,-0.540297,1.189883,-0.185576,-8.955340,27.161297,-8.214310,-4.487428,0.183500,0.882674,-0.175919,0.000000,0.000000,0.000000,0.000000,0.000000,0.000000
15655196.000000,-2.369675,-1.662246,1.082850,-1.395351,1.754082,1.154914,-0.566346,0.712905,-0.001992,0.869769,-0.569263,-0.537971,1.190096,-0.181653,-9.451251,27.066082,-8.166702,-4.388246,0.219205,0.882674,-0.229020,0.000000,0.000000,0.000000,0.000000,0.000000,0.000000
15655197.000000,-2.368962,-1.662242,1.083746,-1.395914,1.753572,1.156135,-0.566526,0.711393,-0.000429,0.877815,-0.569057,-0.530581,1.192350,-0.184781,-9.994769,27.014507,-7.968338,-4.388246,0.100187,0.811263,-0.182328,0.000000,0.000000,0.000000,0.000000,0.000000,0.000000
15655198.000000,-2.368254,-1.662231,1.084653,-1.396465,1.753062,1.157357,-0.566704,0.705976,0.002268,0.882982,-0.558542,-0.516528,1.198772,-0.189385,-10.316119,26.895489,-7.821548,-4.535036,0.010465,0.733443,-0.169511,0.000000,0.000000,0.000000,0.000000,0.000000,0.000000
15655199.000000,-2.367557,-1.662221,1.085555,-1.397000,1.752555,1.158561,-0.566878,0.717979,0.003660,0.887145,-0.547116,-0.512165,1.197318,-0.182466,-10.589862,26.796307,-7.599380,-4.709596,-0.060946,0.700484,-0.221696,0.000000,0.000000,0.000000,0.000000,0.000000,0.000000
15655200.000000,-2.366844,-1.662210,1.086491,-1.397531,1.752046,1.159755,-0.567062,0.716374,0.005744,0.897511,-0.545878,-0.510716,1.187030,-0.185843,-11.034198,26.649517,-7.627151,-4.955568,-0.079257,0.863448,-0.169511,0.000000,0.000000,0.000000,0.000000,0.000000,0.000000
15655201.000000,-2.366133,-1.662195,1.087427,-1.398074,1.751534,1.160925,-0.567230,0.710802,0.010325,0.894656,-0.541833,-0.511538,1.201897,-0.184341,-11.307940,26.502728,-7.627151,-4.983339,-0.049044,1.071273,-0.229020,0.000000,0.000000,0.000000,0.000000,0.000000,0.000000
15655202.000000,-2.365437,-1.662191,1.088385,-1.398596,1.751030,1.162139,-0.567416,0.706967,0.007074,0.916775,-0.534463,-0.508595,1.202899,-0.187073,-11.577716,26.502728,-7.674759,-5.177736,-0.001437,0.999862,-0.169511,0.000000,0.000000,0.000000,0.000000,0.000000,0.000000
15655203.000000,-2.364729,-1.662184,1.089362,-1.399123,1.750535,1.163371,-0.567583,0.706805,0.007944,0.930653,-0.531649,-0.500074,1.206618,-0.181080,-11.875262,26.502728,-7.797745,-5.376100,0.046171,0.778304,-0.215287,0.000000,0.000000,0.000000,0.000000,0.000000,0.000000
15655204.000000,-2.364014,-1.662177,1.090351,-1.399635,1.750043,1.164558,-0.567759,0.706348,0.008817,0.952198,-0.525975,-0.496639,1.202169,-0.184196,-12.224383,26.502728,-8.091324,-5.626039,0.022367,0.765487,-0.182328,0.000000,0.000000,0.000000,0.000000,0.000000,0.000000
15655205.000000,-2.363314,-1.662176,1.091345,-1.400158,1.749555,1.165743,-0.567928,0.704659,0.007893,0.963198,-0.522974,-0.488107,1.194536,-0.183763,-12.545733,26.574139,-8.214310,-5.697450,-0.037142,0.934859,-0.215287,0.000000,0.000000,0.000000,0.000000,0.000000,0.000000
15655206.000000,-2.362608,-1.662177,1.092338,-1.400671,1.749065,1.166923,-0.568101,0.698444,0.005661,0.976261,-0.518864,-0.492622,1.190971,-0.182454,-12.815509,26.720928,-8.238113,-5.848207,-0.067355,1.031905,-0.235429,0.000000,0.000000,0.000000,0.000000,0.000000,0.000000
15655207.000000,-2.361916,-1.662182,1.093339,-1.401182,1.748580,1.168120,-0.568275,0.694005,0.000453,0.988151,-0.515097,-0.492441,1.184189,-0.179985,-13.041644,26.895489,-8.115128,-5.872011,-0.067355,1.077682,-0.175919,0.000000,0.000000,0.000000,0.000000,0.000000,0.000000
15655208.000000,-2.361214,-1.662186,1.094353,-1.401686,1.748110,1.169304,-0.568442,0.694606,-0.001910,0.990146,-0.511526,-0.479202,1.174919,-0.171437,-13.311419,27.014507,-8.019913,-6.018800,-0.138766,1.214095,-0.208878,0.000000,0.000000,0.000000,0.000000,0.000000,0.000000
15655209.000000,-2.360514,-1.662179,1.095365,-1.402182,1.747632,1.170478,-0.568607,0.690458,0.000269,0.999542,-0.508367,-0.484992,1.173796,-0.168973,-13.509784,26.966900,-7.944534,-6.094179,-0.228488,1.240646,-0.241837,0.000000,0.000000,0.000000,0.000000,0.000000,0.000000
15655210.000000,-2.359823,-1.662180,1.096391,-1.402689,1.747152,1.171686,-0.568783,0.691820,0.000501,1.010820,-0.506157,-0.484376,1.180815,-0.171367,-13.759723,26.966900,-7.674759,-6.169557,-0.162570,1.031905,-0.175919,0.000000,0.000000,0.000000,0.000000,0.000000,0.000000
15655211.000000,-2.359132,-1.662191,1.097428,-1.403197,1.746673,1.172894,-0.568946,0.689567,-0.002302,1.014242,-0.505975,-0.489391,1.185072,-0.166916,-13.930316,27.089886,-7.381180,-6.169557,-0.060946,0.843307,-0.221696,0.000000,0.000000,0.000000,0.000000,0.000000,0.000000
15655212.000000,-2.358445,-1.662198,1.098454,-1.403695,1.746198,1.174070,-0.569108,0.689668,-0.002467,1.019583,-0.504935,-0.486647,1.182434,-0.167041,-14.251666,27.137493,-6.988419,-6.217165,-0.007845,0.811263,-0.241837,0.000000,0.000000,0.000000,0.000000,0.000000,0.000000
15655213.000000,-2.357773,-1.662206,1.099521,-1.404201,1.745728,1.175246,-0.569284,0.684436,-0.003272,1.033800,-0.503272,-0.473890,1.178349,-0.169898,-14.204059,27.212872,-6.964615,-6.240968,0.022367,0.876266,-0.188737,0.000000,0.000000,0.000000,0.000000,0.000000,0.000000
15655214.000000,-2.357102,-1.662210,1.100571,-1.404681,1.745272,1.176430,-0.569446,0.674953,-0.003193,1.038391,-0.505254,-0.470083,1.184115,-0.168843,-14.180255,27.260479,-6.766251,-6.463136,-0.060946,0.792037,-0.215287,0.000000,0.000000,0.000000,0.000000,0.000000,0.000000
15655215.000000,-2.356455,-1.662223,1.101648,-1.405160,1.744817,1.177641,-0.569614,0.664384,-0.006043,1.049663,-0.495112,-0.464367,1.197674,-0.169169,-13.981891,27.431072,-6.619461,-6.760683,-0.097567,0.576888,-0.202470,0.000000,0.000000,0.000000,0.000000,0.000000,0.000000
15655216.000000,-2.355796,-1.662229,1.102753,-1.405639,1.744366,1.178841,-0.569773,0.657773,-0.008343,1.066142,-0.492251,-0.459044,1.197526,-0.167679,-13.858905,27.482647,-6.694839,-7.006654,-0.145175,0.616256,-0.221696,0.000000,0.000000,0.000000,0.000000,0.000000,0.000000
15655217.000000,-2.355145,-1.662234,1.103850,-1.406118,1.743926,1.180013,-0.569940,0.668725,-0.007454,1.076817,-0.487321,-0.453670,1.200632,-0.164610,-13.858905,27.554058,-6.718643,-7.133607,-0.252291,0.700484,-0.188737,0.000000,0.000000,0.000000,0.000000,0.000000,0.000000
15655218.000000,-2.354478,-1.662237,1.104972,-1.406600,1.743472,1.181213,-0.570100,0.667785,-0.005135,1.087018,-0.487086,-0.451256,1.200766,-0.161357,-13.981891,27.554058,-6.790054,-7.181215,-0.204684,0.687667,-0.182328,0.000000,0.000000,0.000000,0.000000,0.000000,0.000000
15655219.000000,-2.353821,-1.662238,1.106070,-1.407071,1.743020,1.182410,-0.570248,0.662073,-0.002991,1.076400,-0.480381,-0.449953,1.232203,-0.155811,-14.053302,27.530254,-6.619461,-7.280397,-0.126864,0.564071,-0.221696,0.000000,0.000000,0.000000,0.000000,0.000000,0.000000
15655220.000000,-2.353175,-1.662236,1.107199,-1.407556,1.742574,1.183628,-0.570408,0.658116,-0.000324,1.091381,-0.480253,-0.446448,1.235833,-0.160518,-14.128680,27.454876,-6.571854,-7.304201,-0.114962,0.427657,-0.182328,0.000000,0.000000,0.000000,0.000000,0.000000,0.000000
15655221.000000,-2.352512,-1.662229,1.108348,-1.408029,1.742129,1.184822,-0.570561,0.659248,0.003148,1.102625,-0.476781,-0.442992,1.228158,-0.156729,-14.279437,27.308086,-6.520279,-7.403383,-0.091158,0.532027,-0.221696,0.000000,0.000000,0.000000,0.000000,0.000000,0.000000
15655222.000000,-2.351864,-1.662222,1.109476,-1.408492,1.741700,1.186007,-0.570710,0.647694,0.005480,1.115270,-0.471914,-0.447718,1.220217,-0.155269,-14.279437,27.161297,-6.274307,-7.526369,-0.204684,0.616256,-0.221696,0.000000,0.000000,0.000000,0.000000,0.000000,0.000000
15655223.000000,-2.351222,-1.662221,1.110617,-1.408954,1.741252,1.187211,-0.570868,0.647148,0.004728,1.119097,-0.466935,-0.444570,1.214843,-0.153878,-14.327044,27.113689,-5.956924,-7.700929,-0.204684,0.648299,-0.188737,0.000000,0.000000,0.000000,0.000000,0.000000,0.000000
15655224.000000,-2.350580,-1.662207,1.111797,-1.409414,1.740816,1.188408,-0.571012,0.638636,0.008226,1.138712,-0.458418,-0.440847,1.208415,-0.147181,-14.350848,26.895489,-5.909317,-7.800111,-0.240389,0.771896,-0.221696,0.000000,0.000000,0.000000,0.000000,0.000000,0.000000
15655225.000000,-2.349947,-1.662191,1.112973,-1.409867,1.740395,1.189584,-0.571165,0.636276,0.010102,1.156697,-0.455701,-0.439981,1.196595,-0.144792,-14.378619,26.697124,-5.980728,-7.899293,-0.360323,0.830489,-0.182328,0.000000,0.000000,0.000000,0.000000,0.000000,0.000000
15655226.000000,-2.349296,-1.662179,1.114186,-1.410327,1.739961,1.190789,-0.571309,0.637149,0.010709,1.176947,-0.453946,-0.435672,1.192355,-0.146054,-14.525409,26.526531,-6.250504,-7.946901,-0.426241,0.733443,-0.188737,0.000000,0.000000,0.000000,0.000000,0.000000,0.000000
15655227.000000,-2.348655,-1.662165,1.115415,-1.410776,1.739527,1.191972,-0.571450,0.636032,0.017436,1.193614,-0.451830,-0.434105,1.191621,-0.141228,-14.600787,26.355938,-6.766251,-8.046083,-0.348422,0.622665,-0.221696,0.000000,0.000000,0.000000,0.000000,0.000000,0.000000
15655228.000000,-2.348025,-1.662155,1.116660,-1.411229,1.739100,1.193162,-0.571606,0.637581,0.018143,1.205771,-0.455483,-0.434218,1.185544,-0.144130,-14.648395,26.232952,-7.182816,-8.069887,-0.342013,0.648299,-0.169511,0.000000,0.000000,0.000000,0.000000,0.000000,0.000000
15655229.000000,-2.347392,-1.662147,1.117931,-1.411683,1.738666,1.194329,-0.571751,0.631089,0.013857,1.223811,-0.453627,-0.432366,1.163696,-0.140594,-14.672198,26.185345,-7.650955,-8.169069,-0.246798,0.882674,-0.182328,0.000000,0.000000,0.000000,0.000000,0.000000,0.000000
15655230.000000,-2.346774,-1.662150,1.119185,-1.412127,1.738252,1.195486,-0.571897,0.629126,0.009168,1.238770,-0.452327,-0.425689,1.155773,-0.143623,-14.624591,26.209148,-7.944534,-8.244448,-0.180880,1.039230,-0.169511,0.000000,0.000000,0.000000,0.000000,0.000000,0.000000
15655231.000000,-2.346146,-1.662153,1.120453,-1.412573,1.737831,1.196670,-0.572042,0.625110,0.004806,1.240187,-0.443272,-0.422808,1.155685,-0.140025,-14.600787,26.280560,-8.043716,-8.343630,-0.168978,0.987045,-0.188737,0.000000,0.000000,0.000000,0.000000,0.000000,0.000000
15655232.000000,-2.345519,-1.662159,1.121719,-1.413021,1.737416,1.197850,-0.572187,0.625246,0.005527,1.248338,-0.453849,-0.416127,1.162595,-0.142774,-14.573016,26.597942,-8.436478,-8.292055,-0.162570,0.915633,-0.188737,0.000000,0.000000,0.000000,0.000000,0.000000,0.000000
15655233.000000,-2.344906,-1.662167,1.122966,-1.413472,1.737033,1.199024,-0.572327,0.621712,0.002689,1.240482,-0.449778,-0.401190,1.156341,-0.138681,-14.402423,27.212872,-8.730057,-8.196840,-0.294406,1.025497,-0.221696,0.000000,0.000000,0.000000,0.000000,0.000000,0.000000
15655234.000000,-2.344281,-1.662194,1.124207,-1.413936,1.736624,1.200211,-0.572464,0.617822,-0.004451,1.235008,-0.450627,-0.404673,1.161106,-0.140744,-14.081073,28.363384,-9.293411,-8.046083,-0.276095,1.117049,-0.229020,0.000000,0.000000,0.000000,0.000000,0.000000,0.000000
15655235.000000,-2.343670,-1.662216,1.125406,-1.414394,1.736219,1.201396,-0.572610,0.628958,-0.011047,1.223462,-0.450037,-0.402761,1.165576,-0.141150,-13.632770,29.636883,-9.932144,-7.823915,-0.150668,1.071273,-0.163102,0.000000,0.000000,0.000000,0.000000,0.000000,0.000000
15655236.000000,-2.343054,-1.662232,1.126635,-1.414857,1.735840,1.202586,-0.572742,0.624228,-0.011484,1.222679,-0.452603,-0.390000,1.166984,-0.141171,-13.113055,30.906414,-10.963638,-7.700929,-0.192782,1.142684,-0.221696,0.000000,0.000000,0.000000,0.000000,0.000000,0.000000
15655237.000000,-2.342446,-1.662243,1.127848,-1.415315,1.735448,1.203765,-0.572883,0.616090,-0.012409,1.228504,-0.453367,-0.391830,1.197098,-0.139489,-12.545733,32.108501,-12.042740,-7.649354,-0.168978,1.201278,-0.208878,0.000000,0.000000,0.000000,0.000000,0.000000,0.000000
15655238.000000,-2.341851,-1.662244,1.129068,-1.415765,1.735048,1.204973,-0.573025,0.608708,-0.011342,1.224142,-0.450913,-0.392773,1.200856,-0.138538,-12.002215,33.112225,-13.026627,-7.724733,-0.043551,1.188461,-0.175919,0.000000,0.000000,0.000000,0.000000,0.000000,0.000000
15655239.000000,-2.341255,-1.662244,1.130309,-1.416212,1.734648,1.206176,-0.573157,0.597408,-0.008328,1.228217,-0.449809,-0.387634,1.199784,-0.134369,-11.383319,34.016766,-14.054153,-7.875490,0.076383,1.234237,-0.241837,0.000000,0.000000,0.000000,0.000000,0.000000,0.000000
15655240.000000,-2.340649,-1.662243,1.131538,-1.416663,1.734254,1.207346,-0.573294,0.594916,-0.002948,1.235214,-0.449975,-0.391913,1.193745,-0.134461,-11.085773,34.798321,-15.014236,-7.923097,0.154203,1.461288,-0.202470,0.000000,0.000000,0.000000,0.000000,0.000000,0.000000
15655241.000000,-2.340070,-1.662242,1.132784,-1.417121,1.733860,1.208515,-0.573430,0.590858,-0.002360,1.237214,-0.454067,-0.389717,1.180941,-0.133078,-10.589862,35.437054,-15.871170,-7.923097,0.219205,1.747848,-0.215287,0.000000,0.000000,0.000000,0.000000,0.000000,0.000000
15655242.000000,-2.339481,-1.662248,1.134016,-1.417566,1.733465,1.209706,-0.573560,0.581351,-0.005606,1.239385,-0.448543,-0.387246,1.179317,-0.134777,-10.268512,36.071819,-16.585281,-8.046083,0.255826,1.786300,-0.254655,0.000000,0.000000,0.000000,0.000000,0.000000,0.000000
15655243.000000,-2.338899,-1.662250,1.135260,-1.418022,1.733086,1.210889,-0.573693,0.583942,-0.008678,1.237696,-0.449357,-0.385244,1.179745,-0.135827,-10.046344,36.587566,-17.073257,-7.946901,0.279630,1.630660,-0.208878,0.000000,0.000000,0.000000,0.000000,0.000000,0.000000
15655244.000000,-2.338314,-1.662253,1.136527,-1.418470,1.732708,1.212074,-0.573818,0.581409,-0.005955,1.242570,-0.446038,-0.377908,1.176969,-0.133495,-9.796405,37.004131,-17.640579,-7.946901,0.159696,1.597701,-0.248246,0.000000,0.000000,0.000000,0.000000,0.000000,0.000000
15655245.000000,-2.337737,-1.662264,1.137765,-1.418906,1.732328,1.213236,-0.573958,0.577212,-0.005545,1.242655,-0.440431,-0.376255,1.176509,-0.134198,-9.574237,37.468304,-17.934158,-8.121462,0.105680,1.552840,-0.182328,0.000000,0.000000,0.000000,0.000000,0.000000,0.000000
15655246.000000,-2.337184,-1.662286,1.139036,-1.419332,1.731961,1.214402,-0.574082,0.572753,-0.010564,1.246552,-0.431894,-0.376419,1.173728,-0.135935,-9.153705,38.007854,-18.374527,-8.367434,0.093778,1.584884,-0.235429,0.000000,0.000000,0.000000,0.000000,0.000000,0.000000
15655247.000000,-2.336631,-1.662316,1.140319,-1.419757,1.731588,1.215564,-0.574219,0.561170,-0.017258,1.251690,-0.424039,-0.374567,1.169860,-0.140120,-8.709369,38.543438,-18.767288,-8.688784,0.052579,1.649886,-0.202470,0.000000,0.000000,0.000000,0.000000,0.000000,0.000000
15655248.000000,-2.336091,-1.662353,1.141596,-1.420164,1.731223,1.216710,-0.574350,0.558253,-0.023505,1.259431,-0.423077,-0.370081,1.168670,-0.133377,-8.312640,39.130596,-19.306839,-9.085512,0.040677,1.689254,-0.202470,0.000000,0.000000,0.000000,0.000000,0.000000,0.000000
15655249.000000,-2.335548,-1.662393,1.142897,-1.420573,1.730862,1.217870,-0.574481,0.553121,-0.028197,1.270287,-0.415955,-0.364294,1.165517,-0.132009,-7.915911,39.721722,-19.921768,-9.482241,0.093778,1.741439,-0.221696,0.000000,0.000000,0.000000,0.000000,0.000000,0.000000
15655250.000000,-2.335012,-1.662435,1.144198,-1.420977,1.730494,1.219017,-0.574617,0.541775,-0.037875,1.279654,-0.424643,-0.367520,1.167687,-0.134067,-7.471575,40.308880,-20.754898,-9.752016,0.093778,1.735030,-0.169511,0.000000,0.000000,0.000000,0.000000,0.000000,0.000000
15655251.000000,-2.334489,-1.662484,1.145502,-1.421390,1.730128,1.220186,-0.574742,0.538473,-0.041906,1.284352,-0.421278,-0.366444,1.167097,-0.131421,-7.122454,40.896038,-21.270645,-9.875002,0.129484,1.676437,-0.208878,0.000000,0.000000,0.000000,0.000000,0.000000,0.000000
15655252.000000,-2.333961,-1.662526,1.146800,-1.421801,1.729759,1.221347,-0.574869,0.532600,-0.040946,1.279651,-0.415532,-0.360627,1.154827,-0.131828,-6.801104,41.312603,-21.591995,-9.974184,0.178007,1.670028,-0.202470,0.000000,0.000000,0.000000,0.000000,0.000000,0.000000
15655253.000000,-2.333432,-1.662573,1.148090,-1.422212,1.729395,1.222488,-0.574996,0.541744,-0.042218,1.287377,-0.412183,-0.365727,1.147668,-0.131484,-6.503558,41.800579,-22.056168,-9.898806,0.207303,1.702071,-0.215287,0.000000,0.000000,0.000000,0.000000,0.000000,0.000000
15655254.000000,-2.332915,-1.662615,1.149370,-1.422617,1.729031,1.223623,-0.575122,0.535682,-0.041007,1.279985,-0.411359,-0.362034,1.135143,-0.126617,-6.332964,42.193340,-22.079971,-9.851198,0.159696,1.903487,-0.221696,0.000000,0.000000,0.000000,0.000000,0.000000,0.000000
15655255.000000,-2.332406,-1.662661,1.150647,-1.423024,1.728662,1.224764,-0.575251,0.523536,-0.041895,1.283092,-0.407632,-0.357122,1.154770,-0.129509,-5.983843,42.657513,-22.179153,-9.803591,0.183500,1.962081,-0.182328,0.000000,0.000000,0.000000,0.000000,0.000000,0.000000
15655256.000000,-2.331903,-1.662705,1.151926,-1.423424,1.728314,1.225923,-0.575372,0.516548,-0.040434,1.276635,-0.408032,-0.352518,1.154420,-0.127538,-5.686297,43.026470,-22.056168,-9.728212,0.178007,1.955673,-0.248246,0.000000,0.000000,0.000000,0.000000,0.000000,0.000000
15655257.000000,-2.331411,-1.662738,1.153238,-1.423839,1.727948,1.227083,-0.575505,0.508173,-0.039062,1.278662,-0.409724,-0.353326,1.146164,-0.126504,-5.293536,43.244671,-22.302139,-9.553652,0.178007,2.014266,-0.182328,0.000000,0.000000,0.000000,0.000000,0.000000,0.000000
15655258.000000,-2.330910,-1.662767,1.154521,-1.424250,1.727595,1.228223,-0.575623,0.501835,-0.035367,1.281266,-0.410391,-0.356377,1.143031,-0.126597,-4.995989,43.320049,-22.472733,-9.307680,0.159696,2.033492,-0.215287,0.000000,0.000000,0.000000,0.000000,0.000000,0.000000
15655259.000000,-2.330424,-1.662791,1.155812,-1.424666,1.727241,1.229392,-0.575749,0.496074,-0.028660,1.280742,-0.411651,-0.352798,1.144346,-0.127196,-4.674639,43.343853,-22.571915,-9.133120,0.178007,1.903487,-0.196061,0.000000,0.000000,0.000000,0.000000,0.000000,0.000000
15655260.000000,-2.329948,-1.662821,1.157138,-1.425083,1.726877,1.230557,-0.575868,0.483539,-0.027952,1.292677,-0.413296,-0.354279,1.144241,-0.127636,-4.301714,43.391460,-23.063858,-8.934755,0.303434,1.812850,-0.215287,0.000000,0.000000,0.000000,0.000000,0.000000,0.000000
15655261.000000,-2.329468,-1.662847,1.158430,-1.425495,1.726532,1.231686,-0.575991,0.485105,-0.026325,1.294439,-0.412816,-0.349354,1.135891,-0.123891,-4.079546,43.391460,-23.381241,-8.811769,0.285123,1.936446,-0.221696,0.000000,0.000000,0.000000,0.000000,0.000000,0.000000
15655262.000000,-2.328995,-1.662870,1.159747,-1.425917,1.726183,1.232823,-0.576115,0.479903,-0.026892,1.300116,-0.414227,-0.343671,1.127307,-0.123441,-3.730425,43.320049,-23.849380,-8.565798,0.339139,2.085677,-0.163102,0.000000,0.000000,0.000000,0.000000,0.000000,0.000000
15655263.000000,-2.328527,-1.662897,1.161023,-1.426336,1.725849,1.233955,-0.576224,0.472402,-0.025498,1.296031,-0.415599,-0.336801,1.131544,-0.118694,-3.361468,43.292278,-23.972366,-8.343630,0.308927,2.150680,-0.221696,0.000000,0.000000,0.000000,0.000000,0.000000,0.000000
15655264.000000,-2.328070,-1.662923,1.162320,-1.426754,1.725507,1.235128,-0.576341,0.468086,-0.025174,1.292687,-0.414467,-0.337963,1.143783,-0.117510,-3.040118,43.292278,-24.119156,-8.220644,0.327238,1.968490,-0.208878,0.000000,0.000000,0.000000,0.000000,0.000000,0.000000
15655265.000000,-2.327602,-1.662948,1.163617,-1.427195,1.725164,1.236284,-0.576453,0.464174,-0.023897,1.288311,-0.423093,-0.338259,1.146166,-0.115738,-2.742571,43.244671,-24.190567,-7.823915,0.351041,1.955673,-0.208878,0.000000,0.000000,0.000000,0.000000,0.000000,0.000000
15655266.000000,-2.327138,-1.662967,1.164888,-1.427627,1.724832,1.237408,-0.576566,0.459326,-0.021989,1.282310,-0.428602,-0.334142,1.143744,-0.113690,-2.544207,43.145489,-24.166763,-7.454957,0.362943,2.066451,-0.248246,0.000000,0.000000,0.000000,0.000000,0.000000,0.000000
15655267.000000,-2.326681,-1.662988,1.166188,-1.428077,1.724496,1.238556,-0.576687,0.456955,-0.021369,1.286033,-0.433643,-0.332443,1.143486,-0.115401,-2.322039,43.074078,-24.388931,-6.982851,0.416959,2.072860,-0.202470,0.000000,0.000000,0.000000,0.000000,0.000000,0.000000
15655268.000000,-2.326221,-1.663017,1.167457,-1.428517,1.724150,1.239706,-0.576791,0.453861,-0.024306,1.282060,-0.448363,-0.337118,1.146655,-0.113145,-2.048296,43.145489,-24.436539,-6.637697,0.494779,1.923629,-0.248246,0.000000,0.000000,0.000000,0.000000,0.000000,0.000000
15655269.000000,-2.325783,-1.663040,1.168774,-1.428970,1.723818,1.240871,-0.576911,0.448873,-0.024088,1.294101,-0.451728,-0.338572,1.143076,-0.115460,-1.651568,43.121685,-24.928482,-6.316347,0.518583,1.806442,-0.182328,0.000000,0.000000,0.000000,0.000000,0.000000,0.000000
15655270.000000,-2.325352,-1.663064,1.170098,-1.429423,1.723505,1.242008,-0.577015,0.437797,-0.023789,1.298573,-0.449480,-0.329415,1.128499,-0.112065,-1.231036,43.097881,-25.519608,-6.042604,0.410551,1.988631,-0.221696,0.000000,0.000000,0.000000,0.000000,0.000000,0.000000
15655271.000000,-2.324915,-1.663087,1.171399,-1.429865,1.723181,1.243123,-0.577125,0.441086,-0.024389,1.305302,-0.449007,-0.331551,1.122037,-0.112936,-0.862078,43.097881,-26.106766,-5.895814,0.398649,2.215682,-0.208878,0.000000,0.000000,0.000000,0.000000,0.000000,0.000000
15655272.000000,-2.324491,-1.663117,1.172690,-1.430328,1.722837,1.244258,-0.577238,0.433677,-0.026983,1.301687,-0.452881,-0.333055,1.112896,-0.108315,-0.465350,43.197063,-26.253555,-5.574464,0.506681,2.372237,-0.182328,0.000000,0.000000,0.000000,0.000000,0.000000,0.000000
15655273.000000,-2.324059,-1.663144,1.173987,-1.430781,1.722500,1.245391,-0.577338,0.432907,-0.027963,1.296545,-0.452582,-0.331963,1.117090,-0.108053,-0.167803,43.268475,-26.376541,-5.399904,0.566190,2.430831,-0.221696,0.000000,0.000000,0.000000,0.000000,0.000000,0.000000
15655274.000000,-2.323644,-1.663163,1.175273,-1.431238,1.722180,1.246533,-0.577444,0.428635,-0.022752,1.295198,-0.455001,-0.329616,1.121449,-0.105003,0.177350,43.220867,-26.598709,-5.106325,0.578092,2.437240,-0.208878,0.000000,0.000000,0.000000,0.000000,0.000000,0.000000
15655275.000000,-2.323215,-1.663181,1.176549,-1.431700,1.721850,1.247681,-0.577544,0.427742,-0.017769,1.283354,-0.453777,-0.326769,1.120727,-0.100508,0.403486,43.121685,-26.475723,-4.757204,0.584501,2.385055,-0.254655,0.000000,0.000000,0.000000,0.000000,0.000000,0.000000
15655276.000000,-2.322792,-1.663204,1.177813,-1.432165,1.721512,1.248822,-0.577656,0.428610,-0.016514,1.282056,-0.457934,-0.331470,1.130972,-0.105721,0.697065,43.121685,-26.400345,-4.364442,0.679716,2.209274,-0.202470,0.000000,0.000000,0.000000,0.000000,0.000000,0.000000
15655277.000000,-2.322374,-1.663235,1.179067,-1.432633,1.721185,1.249982,-0.577754,0.424726,-0.018504,1.268591,-0.461050,-0.331476,1.138403,-0.101387,0.923200,43.244671,-26.031387,-3.967714,0.769437,1.981307,-0.235429,0.000000,0.000000,0.000000,0.000000,0.000000,0.000000
15655278.000000,-2.321956,-1.663254,1.180350,-1.433110,1.720870,1.251120,-0.577860,0.425047,-0.018785,1.269862,-0.463260,-0.328307,1.140566,-0.102916,1.093793,43.197063,-26.059158,-3.570986,0.781339,2.020675,-0.248246,0.000000,0.000000,0.000000,0.000000,0.000000,0.000000
15655279.000000,-2.321543,-1.663280,1.181596,-1.433572,1.720563,1.252245,-0.577968,0.425310,-0.021345,1.258934,-0.462571,-0.321396,1.140547,-0.106723,1.292158,43.244671,-25.860794,-3.277406,0.655912,2.079269,-0.202470,0.000000,0.000000,0.000000,0.000000,0.000000,0.000000
15655280.000000,-2.321129,-1.663302,1.182866,-1.434022,1.720246,1.253392,-0.578069,0.422273,-0.019502,1.258536,-0.453490,-0.315512,1.138411,-0.102297,1.490522,43.268475,-25.836990,-3.301210,0.637601,2.027084,-0.235429,0.000000,0.000000,0.000000,0.000000,0.000000,0.000000
15655281.000000,-2.320723,-1.663332,1.184099,-1.434465,1.719927,1.254528,-0.578176,0.415963,-0.020420,1.251252,-0.452490,-0.309573,1.140142,-0.106051,1.740461,43.391460,-25.642593,-3.301210,0.691617,1.930038,-0.196061,0.000000,0.000000,0.000000,0.000000,0.000000,0.000000
15655282.000000,-2.320316,-1.663349,1.185359,-1.434911,1.719625,1.255673,-0.578278,0.418324,-0.020142,1.249357,-0.448361,-0.306074,1.138413,-0.101848,1.811872,43.343853,-25.614822,-3.325014,0.655912,1.930038,-0.215287,0.000000,0.000000,0.000000,0.000000,0.000000,0.000000
15655283.000000,-2.319903,-1.663364,1.186624,-1.435363,1.719309,1.256810,-0.578377,0.415751,-0.016941,1.246178,-0.451409,-0.306643,1.126136,-0.099079,1.887250,43.292278,-25.690201,-3.225832,0.709928,2.092086,-0.241837,0.000000,0.000000,0.000000,0.000000,0.000000,0.000000
15655284.000000,-2.319492,-1.663375,1.187848,-1.435804,1.719000,1.257947,-0.578486,0.424978,-0.016151,1.240732,-0.447764,-0.308825,1.124624,-0.104465,1.934858,43.173260,-25.519608,-3.126650,0.805143,2.053634,-0.196061,0.000000,0.000000,0.000000,0.000000,0.000000,0.000000
15655285.000000,-2.319072,-1.663393,1.189080,-1.436244,1.718686,1.259126,-0.578580,0.422175,-0.017904,1.234953,-0.445494,-0.311122,1.138831,-0.103782,1.835676,43.145489,-25.368851,-3.079042,0.930570,1.800033,-0.268388,0.000000,0.000000,0.000000,0.000000,0.000000,0.000000
15655286.000000,-2.318656,-1.663396,1.190283,-1.436661,1.718388,1.260281,-0.578686,0.418142,-0.012257,1.224617,-0.436262,-0.307617,1.141088,-0.108934,1.788068,42.951092,-25.075272,-3.154421,0.925077,1.676437,-0.196061,0.000000,0.000000,0.000000,0.000000,0.000000,0.000000
15655287.000000,-2.318245,-1.663399,1.191524,-1.437090,1.718100,1.261443,-0.578781,0.418457,-0.008296,1.224660,-0.433798,-0.301719,1.145523,-0.103164,1.740461,42.756695,-25.099075,-3.154421,0.811552,1.605026,-0.241837,0.000000,0.000000,0.000000,0.000000,0.000000,0.000000
15655288.000000,-2.317823,-1.663403,1.192769,-1.437512,1.717813,1.262600,-0.578887,0.416182,-0.006603,1.224763,-0.428075,-0.296427,1.147840,-0.102046,1.613508,42.609905,-25.174454,-3.178224,0.679716,1.695663,-0.215287,0.000000,0.000000,0.000000,0.000000,0.000000,0.000000
15655289.000000,-2.317417,-1.663410,1.193980,-1.437919,1.717524,1.263744,-0.578988,0.411680,-0.004518,1.225407,-0.422790,-0.300980,1.146117,-0.099787,1.641279,42.558331,-25.099075,-3.277406,0.673307,1.779891,-0.221696,0.000000,0.000000,0.000000,0.000000,0.000000,0.000000
15655290.000000,-2.317012,-1.663412,1.195225,-1.438328,1.717245,1.264896,-0.579088,0.409945,-0.003599,1.227348,-0.417145,-0.295216,1.135866,-0.098018,1.613508,42.411541,-25.368851,-3.301210,0.625699,1.916305,-0.229020,0.000000,0.000000,0.000000,0.000000,0.000000,0.000000
15655291.000000,-2.316598,-1.663416,1.196457,-1.438735,1.716964,1.266042,-0.579193,0.409026,-0.004215,1.232934,-0.415227,-0.290524,1.132929,-0.096980,1.542096,42.316326,-25.690201,-3.376589,0.566190,2.118636,-0.196061,0.000000,0.000000,0.000000,0.000000,0.000000,0.000000
15655292.000000,-2.316201,-1.663418,1.197713,-1.439130,1.716683,1.267173,-0.579283,0.405143,-0.004511,1.239392,-0.409008,-0.285804,1.135141,-0.095012,1.613508,42.217144,-26.154373,-3.400392,0.601896,2.235824,-0.229020,0.000000,0.000000,0.000000,0.000000,0.000000,0.000000
15655293.000000,-2.315791,-1.663418,1.198947,-1.439524,1.716405,1.268332,-0.579385,0.405748,-0.003738,1.231549,-0.402450,-0.280888,1.141528,-0.096174,1.542096,42.070354,-26.305130,-3.448000,0.625699,2.144271,-0.196061,0.000000,0.000000,0.000000,0.000000,0.000000,0.000000
15655294.000000,-2.315380,-1.663426,1.200157,-1.439909,1.716125,1.269473,-0.579481,0.406357,-0.002393,1.223357,-0.397227,-0.288797,1.152255,-0.095450,1.466718,42.022747,-26.352737,-3.424196,0.745634,2.072860,-0.202470,0.000000,0.000000,0.000000,0.000000,0.000000,0.000000
15655295.000000,-2.314980,-1.663434,1.201375,-1.440298,1.715852,1.270597,-0.579577,0.404711,-0.005499,1.219815,-0.396764,-0.284651,1.141974,-0.088993,1.490522,42.022747,-26.277359,-3.376589,0.811552,2.202865,-0.235429,0.000000,0.000000,0.000000,0.000000,0.000000,0.000000
15655296.000000,-2.314563,-1.663437,1.202602,-1.440684,1.715582,1.271727,-0.579679,0.405748,-0.002179,1.223842,-0.392391,-0.281475,1.134053,-0.092121,1.367536,41.923565,-26.205948,-3.348818,0.757535,2.352096,-0.188737,0.000000,0.000000,0.000000,0.000000,0.000000,0.000000
15655297.000000,-2.314172,-1.663447,1.203796,-1.441066,1.715315,1.272843,-0.579766,0.402584,-0.003191,1.213615,-0.394878,-0.276694,1.128802,-0.090267,1.442914,41.971172,-25.959976,-3.225832,0.745634,2.391464,-0.248246,0.000000,0.000000,0.000000,0.000000,0.000000,0.000000
15655298.000000,-2.313777,-1.663462,1.204990,-1.441440,1.715052,1.274006,-0.579863,0.398111,-0.006953,1.199454,-0.385134,-0.275013,1.128994,-0.091634,1.490522,42.022747,-25.491837,-3.277406,0.667814,2.104903,-0.229020,0.000000,0.000000,0.000000,0.000000,0.000000,0.000000
15655299.000000,-2.313379,-1.663461,1.206202,-1.441809,1.714794,1.275145,-0.579952,0.397184,-0.002372,1.204839,-0.387413,-0.264884,1.127825,-0.087574,1.565900,41.899761,-25.591019,-3.277406,0.589994,1.890670,-0.229020,0.000000,0.000000,0.000000,0.000000,0.000000,0.000000
15655300.000000,-2.312995,-1.663460,1.207404,-1.442191,1.714544,1.276279,-0.580048,0.391566,-0.001739,1.205652,-0.386190,-0.266115,1.126890,-0.095259,1.740461,41.752972,-25.420425,-3.225832,0.488370,1.930038,-0.175919,0.000000,0.000000,0.000000,0.000000,0.000000,0.000000
15655301.000000,-2.312609,-1.663466,1.208610,-1.442557,1.714279,1.277418,-0.580134,0.387739,-0.003720,1.196130,-0.375022,-0.266577,1.124988,-0.097331,1.863447,41.701397,-25.273636,-3.325014,0.512174,1.974899,-0.221696,0.000000,0.000000,0.000000,0.000000,0.000000,0.000000
15655302.000000,-2.312238,-1.663473,1.209796,-1.442925,1.714012,1.278556,-0.580223,0.391328,-0.006244,1.194346,-0.369692,-0.266141,1.130829,-0.095828,2.061811,41.701397,-25.075272,-3.325014,0.632108,1.865035,-0.241837,0.000000,0.000000,0.000000,0.000000,0.000000,0.000000
15655303.000000,-2.311858,-1.663473,1.210994,-1.443284,1.713756,1.279708,-0.580321,0.388204,-0.002078,1.188417,-0.360950,-0.257985,1.131824,-0.097898,2.208601,41.578411,-24.976089,-3.475771,0.679716,1.773483,-0.175919,0.000000,0.000000,0.000000,0.000000,0.000000,0.000000
15655304.000000,-2.311478,-1.663466,1.212185,-1.443650,1.713509,1.280822,-0.580404,0.381674,0.002011,1.196307,-0.361805,-0.253570,1.150141,-0.090460,2.383161,41.407818,-25.075272,-3.499574,0.649503,1.871444,-0.221696,0.000000,0.000000,0.000000,0.000000,0.000000,0.000000
15655305.000000,-2.311102,-1.663464,1.213367,-1.444002,1.713263,1.281963,-0.580495,0.380824,0.003772,1.189750,-0.358733,-0.249545,1.145370,-0.087802,2.406965,41.284832,-24.880875,-3.547182,0.596403,1.884261,-0.188737,0.000000,0.000000,0.000000,0.000000,0.000000,0.000000
15655306.000000,-2.310733,-1.663463,1.214553,-1.444364,1.712994,1.283120,-0.580577,0.373526,0.003851,1.187766,-0.358935,-0.253384,1.150617,-0.083479,2.529951,41.213421,-24.658707,-3.448000,0.733732,1.800033,-0.221696,0.000000,0.000000,0.000000,0.000000,0.000000,0.000000
15655307.000000,-2.310352,-1.663457,1.215696,-1.444720,1.712748,1.284253,-0.580664,0.375135,0.004636,1.174645,-0.357473,-0.257274,1.149530,-0.086266,2.529951,41.114239,-24.190567,-3.301210,0.691617,1.838485,-0.221696,0.000000,0.000000,0.000000,0.000000,0.000000,0.000000
15655308.000000,-2.309974,-1.663447,1.216875,-1.445073,1.712505,1.285381,-0.580751,0.376531,0.006337,1.176402,-0.354696,-0.256745,1.143611,-0.087569,2.506147,40.967449,-24.071548,-3.202028,0.632108,1.968490,-0.215287,0.000000,0.000000,0.000000,0.000000,0.000000,0.000000
15655309.000000,-2.309595,-1.663437,1.218055,-1.445429,1.712264,1.286532,-0.580834,0.373454,0.006960,1.174841,-0.352985,-0.251800,1.142306,-0.083595,2.482343,40.844463,-23.996170,-3.102846,0.578092,1.968490,-0.241837,0.000000,0.000000,0.000000,0.000000,0.000000,0.000000
15655310.000000,-2.309227,-1.663422,1.219219,-1.445769,1.712026,1.287677,-0.580922,0.371491,0.008525,1.171274,-0.349859,-0.248351,1.146948,-0.087949,2.482343,40.673870,-23.948563,-3.079042,0.518583,1.786300,-0.196061,0.000000,0.000000,0.000000,0.000000,0.000000,0.000000
15655311.000000,-2.308854,-1.663407,1.220412,-1.446114,1.711779,1.288839,-0.581005,0.369424,0.009594,1.177392,-0.349269,-0.243438,1.143845,-0.083848,2.482343,40.503277,-24.142960,-3.079042,0.535978,1.584884,-0.221696,0.000000,0.000000,0.000000,0.000000,0.000000,0.000000
15655312.000000,-2.308486,-1.663394,1.221598,-1.446442,1.711540,1.289956,-0.581091,0.369061,0.012927,1.182610,-0.347133,-0.239706,1.128635,-0.082983,2.581525,40.356487,-24.511917,-3.202028,0.547880,1.649886,-0.188737,0.000000,0.000000,0.000000,0.000000,0.000000,0.000000
15655313.000000,-2.308120,-1.663382,1.222803,-1.446776,1.711304,1.291080,-0.581166,0.368291,0.012270,1.188202,-0.344236,-0.242058,1.117629,-0.078537,2.581525,40.209698,-24.976089,-3.249635,0.571683,1.838485,-0.248246,0.000000,0.000000,0.000000,0.000000,0.000000,0.000000
15655314.000000,-2.307753,-1.663376,1.223996,-1.447114,1.711063,1.292216,-0.581253,0.366392,0.009458,1.187547,-0.342354,-0.241291,1.115249,-0.083440,2.581525,40.162090,-25.174454,-3.301210,0.667814,1.923629,-0.202470,0.000000,0.000000,0.000000,0.000000,0.000000,0.000000
15655315.000000,-2.307398,-1.663371,1.225166,-1.447434,1.710823,1.293331,-0.581336,0.362199,0.007078,1.186909,-0.332850,-0.243022,1.117719,-0.081644,2.605329,40.134319,-25.222061,-3.424196,0.698026,1.995040,-0.188737,0.000000,0.000000,0.000000,0.000000,0.000000,0.000000
15655316.000000,-2.307034,-1.663367,1.226357,-1.447761,1.710592,1.294461,-0.581414,0.362256,0.005367,1.182037,-0.326894,-0.240319,1.114261,-0.082341,2.629133,40.110516,-25.321243,-3.475771,0.625699,2.014266,-0.254655,0.000000,0.000000,0.000000,0.000000,0.000000,0.000000
15655317.000000,-2.306660,-1.663360,1.227522,-1.448074,1.710365,1.295568,-0.581503,0.365275,0.004761,1.177442,-0.329808,-0.234686,1.112737,-0.087631,2.529951,40.062908,-25.249832,-3.570986,0.566190,2.060043,-0.196061,0.000000,0.000000,0.000000,0.000000,0.000000,0.000000
15655318.000000,-2.306298,-1.663355,1.228691,-1.448398,1.710142,1.296705,-0.581584,0.365651,0.003783,1.173974,-0.329381,-0.231518,1.115773,-0.087618,2.482343,40.039104,-25.003860,-3.448000,0.530485,2.007858,-0.229020,0.000000,0.000000,0.000000,0.000000,0.000000,0.000000
15655319.000000,-2.305931,-1.663355,1.229857,-1.448730,1.709912,1.297848,-0.581662,0.364293,0.001447,1.166051,-0.326982,-0.231448,1.125006,-0.084688,2.359357,40.086712,-24.682510,-3.249635,0.566190,1.871444,-0.215287,0.000000,0.000000,0.000000,0.000000,0.000000,0.000000
15655320.000000,-2.305564,-1.663358,1.231002,-1.449042,1.709680,1.298976,-0.581740,0.374262,-0.000769,1.160082,-0.323523,-0.236958,1.131210,-0.081850,2.232404,40.162090,-24.313553,-3.126650,0.620206,1.754256,-0.229020,0.000000,0.000000,0.000000,0.000000,0.000000,0.000000
15655321.000000,-2.305198,-1.663354,1.232175,-1.449360,1.709451,1.300103,-0.581823,0.372290,-0.000491,1.159960,-0.325878,-0.233251,1.124775,-0.080844,2.184797,40.162090,-24.218338,-3.027467,0.589994,1.735030,-0.215287,0.000000,0.000000,0.000000,0.000000,0.000000,0.000000
15655322.000000,-2.304828,-1.663349,1.233316,-1.449660,1.709233,1.301226,-0.581903,0.372125,0.000339,1.178368,-0.317466,-0.224842,1.162153,-0.084919,2.061811,40.134319,-23.920792,-3.126650,0.542386,1.682845,-0.196061,0.000000,0.000000,0.000000,0.000000,0.000000,0.000000
15655323.000000,-2.304472,-1.663346,1.234485,-1.449961,1.709004,1.302368,-0.581980,0.368088,0.003364,1.172916,-0.310344,-0.227584,1.153137,-0.081396,2.010236,40.134319,-23.896988,-3.126650,0.601896,1.572067,-0.221696,0.000000,0.000000,0.000000,0.000000,0.000000,0.000000
15655324.000000,-2.304111,-1.663345,1.235648,-1.450260,1.708787,1.303514,-0.582060,0.365810,0.001863,1.165284,-0.304193,-0.220901,1.141846,-0.080777,1.887250,40.162090,-23.702591,-3.277406,0.571683,1.578475,-0.202470,0.000000,0.000000,0.000000,0.000000,0.000000,0.000000
15655325.000000,-2.303747,-1.663340,1.236796,-1.450552,1.708575,1.304620,-0.582136,0.364897,0.002094,1.163470,-0.299064,-0.224850,1.127415,-0.078982,1.764264,40.134319,-23.627213,-3.348818,0.547880,1.767074,-0.215287,0.000000,0.000000,0.000000,0.000000,0.000000,0.000000
15655326.000000,-2.303382,-1.663333,1.237960,-1.450840,1.708355,1.305739,-0.582207,0.362598,0.002661,1.159389,-0.297741,-0.224735,1.119420,-0.077204,1.565900,40.086712,-23.651016,-3.448000,0.530485,2.001449,-0.235429,0.000000,0.000000,0.000000,0.000000,0.000000,0.000000
15655327.000000,-2.303012,-1.663325,1.239122,-1.451133,1.708136,1.306886,-0.582282,0.363178,0.003558,1.158445,-0.294267,-0.224990,1.115224,-0.077507,1.367536,40.015301,-23.579605,-3.523378,0.518583,1.968490,-0.215287,0.000000,0.000000,0.000000,0.000000,0.000000,0.000000
15655328.000000,-2.302643,-1.663313,1.240260,-1.451422,1.707914,1.308019,-0.582353,0.362914,0.005334,1.157137,-0.290495,-0.223447,1.119951,-0.076372,1.069990,39.892315,-23.456619,-3.523378,0.589994,1.838485,-0.229020,0.000000,0.000000,0.000000,0.000000,0.000000,0.000000
15655329.000000,-2.302262,-1.663297,1.241402,-1.451711,1.707704,1.309164,-0.582431,0.368106,0.010214,1.151575,-0.286163,-0.218119,1.123242,-0.072428,0.673261,39.745525,-23.258255,-3.547182,0.571683,1.767074,-0.202470,0.000000,0.000000,0.000000,0.000000,0.000000,0.000000
15655330.000000,-2.301876,-1.663274,1.242533,-1.452002,1.707494,1.310277,-0.582502,0.374286,0.015473,1.143176,-0.286531,-0.215211,1.124061,-0.072484,0.304304,39.523357,-23.135269,-3.448000,0.559781,1.806442,-0.221696,0.000000,0.000000,0.000000,0.000000,0.000000,0.000000
15655331.000000,-2.301499,-1.663260,1.243682,-1.452286,1.707287,1.311407,-0.582571,0.374399,0.012483,1.143095,-0.284857,-0.212854,1.119829,-0.073217,-0.017047,39.451946,-23.040054,-3.424196,0.547880,1.825668,-0.215287,0.000000,0.000000,0.000000,0.000000,0.000000,0.000000
15655332.000000,-2.301124,-1.663250,1.244826,-1.452566,1.707078,1.312547,-0.582642,0.371594,0.011739,1.141431,-0.285491,-0.210035,1.126111,-0.073552,-0.243182,39.451946,-22.865494,-3.448000,0.512174,1.754256,-0.221696,0.000000,0.000000,0.000000,0.000000,0.000000,0.000000
15655333.000000,-2.300764,-1.663234,1.245972,-1.452828,1.706874,1.313680,-0.582713,0.371841,0.010679,1.142570,-0.279860,-0.207985,1.137351,-0.069290,-0.366168,39.352764,-23.040054,-3.598757,0.476469,1.624252,-0.221696,0.000000,0.000000,0.000000,0.000000,0.000000,0.000000
15655334.000000,-2.300392,-1.663213,1.247149,-1.453089,1.706677,1.314790,-0.582788,0.370074,0.013671,1.151481,-0.272812,-0.205489,1.132936,-0.071275,-0.564532,39.229778,-23.381241,-3.721742,0.410551,1.786300,-0.196061,0.000000,0.000000,0.000000,0.000000,0.000000,0.000000
15655335.000000,-2.300021,-1.663202,1.248318,-1.453351,1.706481,1.315892,-0.582853,0.366914,0.010800,1.162607,-0.277833,-0.199567,1.129659,-0.071069,-0.687518,39.182171,-23.873184,-3.769350,0.356534,1.890670,-0.229020,0.000000,0.000000,0.000000,0.000000,0.000000,0.000000
15655336.000000,-2.299662,-1.663194,1.249482,-1.453611,1.706274,1.317006,-0.582924,0.366385,0.009651,1.161316,-0.272378,-0.206309,1.115528,-0.068367,-0.735125,39.229778,-24.119156,-3.868532,0.464567,1.936446,-0.196061,0.000000,0.000000,0.000000,0.000000,0.000000,0.000000
15655337.000000,-2.299304,-1.663191,1.250650,-1.453868,1.706064,1.318123,-0.582993,0.361949,0.007860,1.159545,-0.265104,-0.204818,1.108168,-0.070638,-0.786700,39.328960,-24.265945,-3.967714,0.554288,2.001449,-0.182328,0.000000,0.000000,0.000000,0.000000,0.000000,0.000000
15655338.000000,-2.298944,-1.663181,1.251807,-1.454113,1.705863,1.319222,-0.583054,0.368173,0.009097,1.163621,-0.259890,-0.203330,1.097068,-0.069793,-0.885882,39.328960,-24.464310,-4.066896,0.506681,2.092086,-0.235429,0.000000,0.000000,0.000000,0.000000,0.000000,0.000000
15655339.000000,-2.298591,-1.663173,1.252970,-1.454371,1.705657,1.320338,-0.583123,0.364410,0.009565,1.162402,-0.258522,-0.202994,1.099008,-0.068004,-0.933489,39.352764,-24.559525,-4.043092,0.470060,2.112228,-0.196061,0.000000,0.000000,0.000000,0.000000,0.000000,0.000000
15655340.000000,-2.298231,-1.663174,1.254109,-1.454621,1.705450,1.321453,-0.583182,0.359634,0.007526,1.149330,-0.255963,-0.205512,1.127042,-0.063928,-1.032672,39.475750,-24.218338,-4.090700,0.500272,1.955673,-0.229020,0.000000,0.000000,0.000000,0.000000,0.000000,0.000000
15655341.000000,-2.297876,-1.663168,1.255235,-1.454869,1.705250,1.322569,-0.583252,0.356093,0.007381,1.143685,-0.256170,-0.201447,1.120097,-0.063529,-1.131854,39.547161,-23.849380,-4.043092,0.506681,1.909896,-0.188737,0.000000,0.000000,0.000000,0.000000,0.000000,0.000000
15655342.000000,-2.297530,-1.663162,1.256377,-1.455125,1.705050,1.323675,-0.583312,0.350348,0.008306,1.139830,-0.254851,-0.197601,1.111762,-0.060555,-1.108050,39.574932,-23.528030,-4.019289,0.500272,2.072860,-0.221696,0.000000,0.000000,0.000000,0.000000,0.000000,0.000000
15655343.000000,-2.297183,-1.663155,1.257497,-1.455377,1.704859,1.324773,-0.583374,0.349980,0.009657,1.131307,-0.252834,-0.201409,1.110649,-0.059626,-1.084246,39.574932,-23.210648,-3.943910,0.440763,2.125045,-0.221696,0.000000,0.000000,0.000000,0.000000,0.000000,0.000000
15655344.000000,-2.296848,-1.663143,1.258645,-1.455623,1.704665,1.325909,-0.583438,0.344747,0.011768,1.137337,-0.249427,-0.206945,1.121621,-0.058932,-0.985064,39.523357,-23.063858,-3.943910,0.410551,1.968490,-0.215287,0.000000,0.000000,0.000000,0.000000,0.000000,0.000000
15655345.000000,-2.296517,-1.663129,1.259781,-1.455873,1.704465,1.327046,-0.583495,0.339138,0.010518,1.135193,-0.247261,-0.202730,1.126725,-0.057831,-0.834307,39.451946,-22.794083,-3.920107,0.416959,1.741439,-0.229020,0.000000,0.000000,0.000000,0.000000,0.000000,0.000000
15655346.000000,-2.296193,-1.663114,1.260917,-1.456123,1.704275,1.328162,-0.583564,0.331980,0.012672,1.141758,-0.246849,-0.195099,1.128967,-0.064682,-0.663714,39.376568,-22.841690,-3.844728,0.428861,1.584884,-0.163102,0.000000,0.000000,0.000000,0.000000,0.000000,0.000000
15655347.000000,-2.295871,-1.663094,1.262061,-1.456363,1.704083,1.329267,-0.583614,0.328304,0.015982,1.138476,-0.239897,-0.193755,1.115115,-0.059549,-0.540728,39.229778,-22.794083,-3.892336,0.446256,1.637069,-0.241837,0.000000,0.000000,0.000000,0.000000,0.000000,0.000000
15655348.000000,-2.295555,-1.663079,1.263196,-1.456601,1.703894,1.330366,-0.583682,0.322994,0.016367,1.138376,-0.243559,-0.193522,1.106922,-0.064816,-0.314593,39.158367,-22.865494,-3.868532,0.476469,1.727706,-0.182328,0.000000,0.000000,0.000000,0.000000,0.000000,0.000000
15655349.000000,-2.295239,-1.663065,1.264328,-1.456849,1.703708,1.331488,-0.583741,0.320996,0.016728,1.140520,-0.244051,-0.193232,1.109581,-0.066200,-0.167803,39.082989,-22.794083,-3.797121,0.506681,1.708480,-0.208878,0.000000,0.000000,0.000000,0.000000,0.000000,0.000000
15655350.000000,-2.294922,-1.663043,1.265472,-1.457087,1.703520,1.332608,-0.583800,0.319697,0.019263,1.137130,-0.238375,-0.191090,1.104674,-0.062384,-0.044818,38.912395,-22.794083,-3.844728,0.494779,1.747848,-0.235429,0.000000,0.000000,0.000000,0.000000,0.000000,0.000000
15655351.000000,-2.294617,-1.663026,1.266596,-1.457323,1.703331,1.333718,-0.583865,0.315544,0.016145,1.132920,-0.237820,-0.188771,1.106407,-0.063039,0.105939,38.813213,-22.718704,-3.745546,0.452665,1.754256,-0.182328,0.000000,0.000000,0.000000,0.000000,0.000000,0.000000
15655352.000000,-2.294305,-1.663005,1.267721,-1.457561,1.703145,1.334838,-0.583923,0.312730,0.018763,1.129485,-0.237891,-0.186814,1.102473,-0.059083,0.105939,38.642620,-22.548111,-3.721742,0.393156,1.735030,-0.241837,0.000000,0.000000,0.000000,0.000000,0.000000,0.000000
15655353.000000,-2.294002,-1.662990,1.268824,-1.457797,1.702956,1.335951,-0.583988,0.309632,0.021338,1.124014,-0.242495,-0.187762,1.124259,-0.055451,0.276533,38.571209,-22.302139,-3.598757,0.398649,1.682845,-0.196061,0.000000,0.000000,0.000000,0.000000,0.000000,0.000000
15655354.000000,-2.293702,-1.662966,1.269957,-1.458037,1.702765,1.337080,-0.584041,0.308711,0.022579,1.125768,-0.238952,-0.186607,1.129461,-0.053817,0.403486,38.396648,-22.230728,-3.424196,0.482877,1.605026,-0.241837,0.000000,0.000000,0.000000,0.000000,0.000000,0.000000
15655355.000000,-2.293399,-1.662944,1.271099,-1.458273,1.702585,1.338220,-0.584107,0.305405,0.023256,1.126242,-0.240484,-0.181352,1.133739,-0.056124,0.474897,38.226055,-22.278336,-3.325014,0.464567,1.494247,-0.196061,0.000000,0.000000,0.000000,0.000000,0.000000,0.000000
15655356.000000,-2.293104,-1.662927,1.272233,-1.458512,1.702411,1.339325,-0.584161,0.304336,0.021432,1.132681,-0.238877,-0.177330,1.129372,-0.055665,0.673261,38.154644,-22.500504,-3.225832,0.428861,1.461288,-0.208878,0.000000,0.000000,0.000000,0.000000,0.000000,0.000000
15655357.000000,-2.292819,-1.662909,1.273395,-1.458750,1.702222,1.340449,-0.584219,0.299704,0.020167,1.139990,-0.240453,-0.180369,1.121889,-0.056343,0.871625,38.079266,-22.841690,-3.126650,0.434354,1.494247,-0.196061,0.000000,0.000000,0.000000,0.000000,0.000000,0.000000
15655358.000000,-2.292541,-1.662890,1.274556,-1.458976,1.702033,1.341566,-0.584275,0.294851,0.019895,1.143493,-0.236699,-0.178428,1.111669,-0.057198,1.121564,37.984051,-23.186844,-3.126650,0.452665,1.584884,-0.175919,0.000000,0.000000,0.000000,0.000000,0.000000,0.000000
15655359.000000,-2.292269,-1.662874,1.275699,-1.459204,1.701850,1.342667,-0.584327,0.287619,0.019216,1.147281,-0.234387,-0.177175,1.101776,-0.055176,1.415143,37.908672,-23.555801,-3.102846,0.476469,1.754256,-0.221696,0.000000,0.000000,0.000000,0.000000,0.000000,0.000000
15655360.000000,-2.291988,-1.662857,1.276850,-1.459436,1.701673,1.343772,-0.584388,0.284957,0.021815,1.143143,-0.233026,-0.174404,1.096255,-0.052324,1.589704,37.833294,-23.726395,-3.055238,0.464567,1.962081,-0.182328,0.000000,0.000000,0.000000,0.000000,0.000000,0.000000
15655361.000000,-2.291706,-1.662839,1.277986,-1.459666,1.701501,1.344870,-0.584439,0.281070,0.018079,1.143772,-0.233325,-0.181641,1.096498,-0.050286,1.712690,37.738079,-23.825577,-2.956056,0.470060,2.098495,-0.241837,0.000000,0.000000,0.000000,0.000000,0.000000,0.000000
15655362.000000,-2.291432,-1.662824,1.279131,-1.459901,1.701327,1.345989,-0.584493,0.279023,0.017257,1.146465,-0.234846,-0.180128,1.097319,-0.051867,1.788068,37.686504,-23.774002,-2.805300,0.512174,2.072860,-0.241837,0.000000,0.000000,0.000000,0.000000,0.000000,0.000000
15655363.000000,-2.291152,-1.662805,1.280279,-1.460147,1.701156,1.347114,-0.584553,0.278881,0.017879,1.139989,-0.238422,-0.176235,1.105158,-0.054602,1.764264,37.591290,-23.750198,-2.535524,0.488370,1.974899,-0.182328,0.000000,0.000000,0.000000,0.000000,0.000000,0.000000
15655364.000000,-2.290874,-1.662785,1.281402,-1.460380,1.700985,1.348220,-0.584600,0.282369,0.018388,1.134794,-0.235602,-0.177123,1.105965,-0.052995,1.740461,37.492107,-23.555801,-2.360964,0.434354,1.890670,-0.235429,0.000000,0.000000,0.000000,0.000000,0.000000,0.000000
15655365.000000,-2.290589,-1.662770,1.282534,-1.460625,1.700797,1.349333,-0.584659,0.285764,0.016435,1.129319,-0.236882,-0.174081,1.108350,-0.055859,1.688886,37.492107,-23.258255,-2.015810,0.530485,1.806442,-0.182328,0.000000,0.000000,0.000000,0.000000,0.000000,0.000000
15655366.000000,-2.290313,-1.662759,1.283650,-1.460862,1.700621,1.350423,-0.584711,0.278897,0.015025,1.125340,-0.238299,-0.169056,1.109023,-0.051011,1.740461,37.492107,-23.063858,-1.793642,0.554288,1.832076,-0.188737,0.000000,0.000000,0.000000,0.000000,0.000000,0.000000
15655367.000000,-2.290046,-1.662737,1.284780,-1.461086,1.700459,1.351520,-0.584756,0.276568,0.016497,1.121253,-0.230960,-0.162807,1.102885,-0.045103,1.811872,37.392925,-22.841690,-1.793642,0.512174,1.909896,-0.254655,0.000000,0.000000,0.000000,0.000000,0.000000,0.000000
15655368.000000,-2.289781,-1.662728,1.285916,-1.461310,1.700291,1.352653,-0.584810,0.270381,0.014535,1.122091,-0.232218,-0.164224,1.107936,-0.049012,1.934858,37.420696,-22.647293,-1.793642,0.512174,1.735030,-0.221696,0.000000,0.000000,0.000000,0.000000,0.000000,0.000000
15655369.000000,-2.289526,-1.662716,1.287045,-1.461522,1.700131,1.353759,-0.584861,0.267773,0.010724,1.125995,-0.225411,-0.160756,1.098507,-0.051888,2.061811,37.420696,-22.718704,-1.869020,0.506681,1.624252,-0.196061,0.000000,0.000000,0.000000,0.000000,0.000000,0.000000
15655370.000000,-2.289264,-1.662707,1.288182,-1.461745,1.699968,1.354877,-0.584909,0.268849,0.010411,1.126061,-0.224536,-0.163139,1.095117,-0.052742,2.133222,37.444500,-22.718704,-1.892824,0.506681,1.630660,-0.196061,0.000000,0.000000,0.000000,0.000000,0.000000,0.000000
15655371.000000,-2.289000,-1.662699,1.289321,-1.461961,1.699802,1.355974,-0.584957,0.266856,0.007219,1.134273,-0.222616,-0.164687,1.114967,-0.048011,2.184797,37.468304,-22.917068,-1.869020,0.506681,1.670028,-0.221696,0.000000,0.000000,0.000000,0.000000,0.000000,0.000000
15655372.000000,-2.288730,-1.662694,1.290449,-1.462179,1.699634,1.357090,-0.585010,0.264935,0.006241,1.133418,-0.222192,-0.167267,1.114336,-0.051157,2.109418,37.567486,-22.841690,-1.793642,0.542386,1.662704,-0.188737,0.000000,0.000000,0.000000,0.000000,0.000000,0.000000
15655373.000000,-2.288459,-1.662694,1.291581,-1.462386,1.699465,1.358214,-0.585054,0.267346,0.001457,1.129057,-0.219785,-0.165698,1.110595,-0.050944,1.986432,37.714275,-22.770279,-1.793642,0.620206,1.617843,-0.229020,0.000000,0.000000,0.000000,0.000000,0.000000,0.000000
15655374.000000,-2.288191,-1.662682,1.292692,-1.462599,1.699311,1.359307,-0.585102,0.265323,0.002169,1.122823,-0.219995,-0.160602,1.109770,-0.047661,1.911054,37.686504,-22.647293,-1.718263,0.608304,1.670028,-0.229020,0.000000,0.000000,0.000000,0.000000,0.000000,0.000000
15655375.000000,-2.287922,-1.662667,1.293814,-1.462803,1.699165,1.360430,-0.585154,0.266054,0.006797,1.125621,-0.211248,-0.154180,1.111068,-0.046389,1.712690,37.615093,-22.500504,-1.742067,0.506681,1.617843,-0.196061,0.000000,0.000000,0.000000,0.000000,0.000000,0.000000
15655376.000000,-2.287659,-1.662658,1.294924,-1.462999,1.699008,1.361559,-0.585193,0.263242,0.008710,1.116955,-0.206294,-0.154216,1.120466,-0.042438,1.641279,37.591290,-22.230728,-1.841249,0.524076,1.513473,-0.241837,0.000000,0.000000,0.000000,0.000000,0.000000,0.000000
15655377.000000,-2.287397,-1.662646,1.296025,-1.463187,1.698856,1.362657,-0.585244,0.261763,0.010074,1.109274,-0.199701,-0.149507,1.119595,-0.042802,1.565900,37.567486,-21.984756,-1.940431,0.542386,1.597701,-0.202470,0.000000,0.000000,0.000000,0.000000,0.000000,0.000000
15655378.000000,-2.287127,-1.662637,1.297155,-1.463391,1.698711,1.363753,-0.585289,0.261676,0.009413,1.117475,-0.201813,-0.151624,1.105030,-0.046111,1.415143,37.615093,-22.056168,-1.869020,0.470060,1.786300,-0.202470,0.000000,0.000000,0.000000,0.000000,0.000000,0.000000
15655379.000000,-2.286859,-1.662621,1.298272,-1.463586,1.698554,1.364847,-0.585329,0.261459,0.012028,1.119096,-0.196132,-0.151869,1.100344,-0.047446,1.268354,37.539715,-22.230728,-1.841249,0.476469,1.871444,-0.235429,0.000000,0.000000,0.000000,0.000000,0.000000,0.000000
15655380.000000,-2.286598,-1.662606,1.299414,-1.463775,1.698397,1.365971,-0.585379,0.260360,0.013712,1.124258,-0.194332,-0.152647,1.098663,-0.051381,1.169172,37.468304,-22.472733,-1.841249,0.500272,1.747848,-0.175919,0.000000,0.000000,0.000000,0.000000,0.000000,0.000000
15655381.000000,-2.286342,-1.662590,1.300587,-1.463955,1.698248,1.367106,-0.585420,0.257978,0.015545,1.138450,-0.188189,-0.146884,1.103244,-0.047095,1.121564,37.369122,-23.087662,-1.916628,0.488370,1.591293,-0.196061,0.000000,0.000000,0.000000,0.000000,0.000000,0.000000
15655382.000000,-2.286083,-1.662569,1.301723,-1.464132,1.698101,1.368206,-0.585464,0.256271,0.020605,1.142128,-0.186792,-0.148429,1.098581,-0.045156,0.970807,37.246136,-23.504227,-1.992006,0.500272,1.539108,-0.182328,0.000000,0.000000,0.000000,0.000000,0.000000,0.000000
15655383.000000,-2.285826,-1.662566,1.302877,-1.464303,1.697956,1.369298,-0.585505,0.258453,0.015827,1.142877,-0.179395,-0.144325,1.087439,-0.043479,0.923200,37.345318,-23.849380,-2.190370,0.500272,1.727706,-0.175919,0.000000,0.000000,0.000000,0.000000,0.000000,0.000000
15655384.000000,-2.285567,-1.662566,1.304000,-1.464473,1.697800,1.370377,-0.585546,0.259802,0.011477,1.141978,-0.177403,-0.148874,1.080459,-0.046277,0.895429,37.492107,-23.920792,-2.261781,0.578092,1.858627,-0.188737,0.000000,0.000000,0.000000,0.000000,0.000000,0.000000
15655385.000000,-2.285311,-1.662562,1.305127,-1.464639,1.697654,1.371448,-0.585581,0.257069,0.010180,1.133068,-0.172345,-0.150827,1.072214,-0.041649,0.772443,37.567486,-23.896988,-2.360964,0.620206,2.079269,-0.254655,0.000000,0.000000,0.000000,0.000000,0.000000,0.000000
15655386.000000,-2.285056,-1.662563,1.306254,-1.464800,1.697518,1.372538,-0.585625,0.254981,0.008300,1.126152,-0.168828,-0.146918,1.080906,-0.041849,0.748639,37.686504,-23.726395,-2.436342,0.530485,2.177230,-0.221696,0.000000,0.000000,0.000000,0.000000,0.000000,0.000000
15655387.000000,-2.284793,-1.662561,1.307374,-1.464966,1.697384,1.373641,-0.585669,0.261097,0.007488,1.126360,-0.168706,-0.143436,1.090548,-0.041421,0.502668,37.785686,-23.579605,-2.412538,0.405057,1.903487,-0.202470,0.000000,0.000000,0.000000,0.000000,0.000000,0.000000
15655388.000000,-2.284538,-1.662558,1.308501,-1.465131,1.697231,1.374756,-0.585708,0.257871,0.003771,1.126626,-0.165450,-0.146300,1.088090,-0.039242,0.375715,37.884869,-23.381241,-2.360964,0.416959,1.702071,-0.235429,0.000000,0.000000,0.000000,0.000000,0.000000,0.000000
15655389.000000,-2.284282,-1.662560,1.309596,-1.465292,1.697082,1.375842,-0.585753,0.258742,0.003624,1.117920,-0.166971,-0.148601,1.103361,-0.045244,0.228925,38.007854,-22.964676,-2.285585,0.440763,1.649886,-0.188737,0.000000,0.000000,0.000000,0.000000,0.000000,0.000000
15655390.000000,-2.284030,-1.662565,1.310724,-1.465437,1.696934,1.376948,-0.585789,0.257857,-0.000693,1.118660,-0.160809,-0.146762,1.101071,-0.042156,0.153547,38.178448,-22.865494,-2.384767,0.500272,1.637069,-0.215287,0.000000,0.000000,0.000000,0.000000,0.000000,0.000000
15655391.000000,-2.283781,-1.662560,1.311848,-1.465586,1.696796,1.378054,-0.585828,0.254569,-0.000357,1.121457,-0.155220,-0.142164,1.093596,-0.041231,0.177350,38.202251,-22.671097,-2.384767,0.482877,1.643478,-0.208878,0.000000,0.000000,0.000000,0.000000,0.000000,0.000000
15655392.000000,-2.283543,-1.662557,1.312952,-1.465712,1.696643,1.379164,-0.585865,0.248534,-0.000856,1.118405,-0.147253,-0.147025,1.104272,-0.039939,0.252729,38.249859,-22.571915,-2.682314,0.571683,1.500655,-0.221696,0.000000,0.000000,0.000000,0.000000,0.000000,0.000000
15655393.000000,-2.283304,-1.662555,1.314083,-1.465839,1.696509,1.380283,-0.585905,0.245448,-0.000198,1.118052,-0.138638,-0.145822,1.107155,-0.035101,0.276533,38.249859,-22.595718,-2.979860,0.518583,1.416427,-0.208878,0.000000,0.000000,0.000000,0.000000,0.000000,0.000000
15655394.000000,-2.283070,-1.662549,1.315230,-1.465964,1.696378,1.381397,-0.585944,0.242568,0.001817,1.128122,-0.134483,-0.139399,1.110396,-0.036957,0.304304,38.178448,-22.794083,-3.202028,0.440763,1.481429,-0.175919,0.000000,0.000000,0.000000,0.000000,0.000000,0.000000
15655395.000000,-2.282837,-1.662551,1.316336,-1.466091,1.696240,1.382485,-0.585979,0.240020,0.001421,1.125844,-0.131221,-0.142214,1.110241,-0.036209,0.252729,38.178448,-22.817886,-3.301210,0.428861,1.630660,-0.196061,0.000000,0.000000,0.000000,0.000000,0.000000,0.000000
15655396.000000,-2.282599,-1.662552,1.317448,-1.466219,1.696098,1.383590,-0.586017,0.241422,0.001104,1.117518,-0.130129,-0.143226,1.103405,-0.036534,0.177350,38.178448,-22.671097,-3.325014,0.398649,1.793624,-0.196061,0.000000,0.000000,0.000000,0.000000,0.000000,0.000000
15655397.000000,-2.282349,-1.662550,1.318549,-1.466344,1.695951,1.384681,-0.586050,0.241946,0.001411,1.116803,-0.126495,-0.147561,1.103286,-0.031425,-0.017047,38.154644,-22.623489,-3.325014,0.458158,1.897079,-0.215287,0.000000,0.000000,0.000000,0.000000,0.000000,0.000000
15655398.000000,-2.282099,-1.662542,1.319656,-1.466466,1.695820,1.385791,-0.586093,0.243860,0.003906,1.111208,-0.123080,-0.141739,1.099767,-0.035176,-0.290789,38.031658,-22.500504,-3.348818,0.405057,1.838485,-0.155778,0.000000,0.000000,0.000000,0.000000,0.000000,0.000000
15655399.000000,-2.281853,-1.662531,1.320777,-1.466590,1.695694,1.386930,-0.586119,0.246333,0.006104,1.110642,-0.122879,-0.137373,1.102132,-0.027664,-0.512957,37.884869,-22.448929,-3.400392,0.351041,1.624252,-0.241837,0.000000,0.000000,0.000000,0.000000,0.000000,0.000000
15655400.000000,-2.281610,-1.662524,1.321873,-1.466710,1.695559,1.388041,-0.586159,0.245373,0.005882,1.107590,-0.121411,-0.137701,1.105798,-0.031566,-0.735125,37.809490,-22.278336,-3.376589,0.393156,1.467696,-0.208878,0.000000,0.000000,0.000000,0.000000,0.000000,0.000000
15655401.000000,-2.281361,-1.662523,1.322992,-1.466823,1.695428,1.389151,-0.586195,0.245854,0.003959,1.107758,-0.118163,-0.136933,1.101784,-0.032226,-1.008868,37.809490,-22.377518,-3.424196,0.410551,1.552840,-0.229020,0.000000,0.000000,0.000000,0.000000,0.000000,0.000000
15655402.000000,-2.281128,-1.662521,1.324103,-1.466933,1.695301,1.390213,-0.586230,0.241256,0.003224,1.112167,-0.118481,-0.135973,1.089849,-0.033706,-1.084246,37.785686,-22.472733,-3.475771,0.416959,1.851302,-0.229020,0.000000,0.000000,0.000000,0.000000,0.000000,0.000000
15655403.000000,-2.280894,-1.662523,1.325245,-1.467039,1.695175,1.391312,-0.586273,0.239421,0.001613,1.118023,-0.112149,-0.130502,1.089891,-0.036630,-1.207232,37.809490,-22.794083,-3.570986,0.422452,1.916305,-0.175919,0.000000,0.000000,0.000000,0.000000,0.000000,0.000000
15655404.000000,-2.280667,-1.662523,1.326394,-1.467136,1.695055,1.392428,-0.586301,0.233762,0.001091,1.124034,-0.109291,-0.127942,1.091433,-0.034143,-1.159625,37.809490,-23.210648,-3.721742,0.351041,1.806442,-0.241837,0.000000,0.000000,0.000000,0.000000,0.000000,0.000000
15655405.000000,-2.280432,-1.662520,1.327538,-1.467232,1.694937,1.393518,-0.586341,0.235201,0.001853,1.132883,-0.104257,-0.126293,1.099412,-0.036844,-1.254840,37.761883,-23.825577,-3.868532,0.279630,1.747848,-0.182328,0.000000,0.000000,0.000000,0.000000,0.000000,0.000000
15655406.000000,-2.280207,-1.662517,1.328685,-1.467337,1.694805,1.394614,-0.586373,0.231593,0.001244,1.139666,-0.106950,-0.123418,1.100472,-0.032751,-1.354022,37.761883,-24.190567,-3.868532,0.279630,1.754256,-0.169511,0.000000,0.000000,0.000000,0.000000,0.000000,0.000000
15655407.000000,-2.279977,-1.662524,1.329809,-1.467439,1.694668,1.395680,-0.586400,0.228421,-0.001484,1.140009,-0.105366,-0.124438,1.116670,-0.031990,-1.429400,37.861065,-24.341324,-3.892336,0.374845,1.890670,-0.221696,0.000000,0.000000,0.000000,0.000000,0.000000,0.000000
15655408.000000,-2.279747,-1.662538,1.330942,-1.467539,1.694534,1.396755,-0.586434,0.231444,-0.004975,1.133221,-0.105049,-0.125359,1.100057,-0.029934,-1.603961,38.031658,-24.365128,-3.868532,0.476469,2.079269,-0.188737,0.000000,0.000000,0.000000,0.000000,0.000000,0.000000
15655409.000000,-2.279519,-1.662538,1.332076,-1.467641,1.694409,1.397842,-0.586467,0.229098,-0.003313,1.127253,-0.101954,-0.122486,1.082881,-0.032327,-1.726946,38.031658,-24.265945,-3.820925,0.494779,2.131454,-0.175919,0.000000,0.000000,0.000000,0.000000,0.000000,0.000000
15655410.000000,-2.279303,-1.662547,1.333190,-1.467735,1.694293,1.398940,-0.586497,0.221639,-0.005083,1.132496,-0.098059,-0.120914,1.083122,-0.033394,-1.726946,38.154644,-24.142960,-3.844728,0.416959,1.974899,-0.182328,0.000000,0.000000,0.000000,0.000000,0.000000,0.000000
15655411.000000,-2.279074,-1.662559,1.334304,-1.467828,1.694170,1.400053,-0.586519,0.223336,-0.007377,1.123632,-0.098305,-0.118639,1.088777,-0.032176,-1.901507,38.325237,-23.873184,-3.868532,0.405057,1.760665,-0.241837,0.000000,0.000000,0.000000,0.000000,0.000000,0.000000
15655412.000000,-2.278854,-1.662568,1.335421,-1.467923,1.694050,1.401143,-0.586553,0.224036,-0.007236,1.112713,-0.100166,-0.115692,1.088946,-0.035194,-1.949114,38.424419,-23.528030,-3.820925,0.362943,1.800033,-0.202470,0.000000,0.000000,0.000000,0.000000,0.000000,0.000000
15655413.000000,-2.278634,-1.662577,1.336523,-1.468022,1.693934,1.402205,-0.586576,0.219941,-0.007607,1.112010,-0.100016,-0.114351,1.076799,-0.033894,-2.048296,38.543438,-23.309830,-3.697939,0.339139,2.027084,-0.254655,0.000000,0.000000,0.000000,0.000000,0.000000,0.000000
15655414.000000,-2.278416,-1.662588,1.337630,-1.468118,1.693809,1.403298,-0.586612,0.220458,-0.008504,1.105560,-0.097260,-0.113736,1.087313,-0.037399,-2.171282,38.690228,-23.063858,-3.670168,0.332731,2.066451,-0.188737,0.000000,0.000000,0.000000,0.000000,0.000000,0.000000
15655415.000000,-2.278207,-1.662597,1.338732,-1.468204,1.693683,1.404401,-0.586639,0.214697,-0.007989,1.103454,-0.095524,-0.114217,1.098079,-0.032195,-2.147479,38.789410,-22.917068,-3.769350,0.344633,1.844894,-0.202470,0.000000,0.000000,0.000000,0.000000,0.000000,0.000000
15655416.000000,-2.278003,-1.662596,1.339866,-1.468283,1.693558,1.405510,-0.586663,0.210846,-0.007217,1.111487,-0.089002,-0.114009,1.103884,-0.028227,-2.147479,38.741802,-23.087662,-3.967714,0.344633,1.656295,-0.215287,0.000000,0.000000,0.000000,0.000000,0.000000,0.000000
15655417.000000,-2.277799,-1.662605,1.340997,-1.468362,1.693442,1.406620,-0.586692,0.204894,-0.010011,1.112520,-0.086921,-0.112010,1.100467,-0.031113,-2.171282,38.813213,-23.210648,-4.066896,0.297025,1.552840,-0.202470,0.000000,0.000000,0.000000,0.000000,0.000000,0.000000
15655418.000000,-2.277605,-1.662609,1.342111,-1.468436,1.693314,1.407706,-0.586721,0.203069,-0.008341,1.118254,-0.084302,-0.111287,1.090682,-0.028036,-2.147479,38.864788,-23.309830,-4.213686,0.393156,1.513473,-0.202470,0.000000,0.000000,0.000000,0.000000,0.000000,0.000000
15655419.000000,-2.277400,-1.662625,1.343224,-1.468512,1.693185,1.408799,-0.586748,0.203026,-0.010454,1.110677,-0.080798,-0.115935,1.083945,-0.030910,-2.171282,39.059185,-23.258255,-4.289064,0.512174,1.649886,-0.188737,0.000000,0.000000,0.000000,0.000000,0.000000,0.000000
15655420.000000,-2.277194,-1.662631,1.344318,-1.468588,1.693064,1.409867,-0.586769,0.204241,-0.011940,1.106295,-0.082735,-0.114397,1.080189,-0.025650,-2.246661,39.130596,-23.163040,-4.289064,0.506681,1.838485,-0.241837,0.000000,0.000000,0.000000,0.000000,0.000000,0.000000
15655421.000000,-2.276996,-1.662634,1.345431,-1.468664,1.692954,1.410949,-0.586796,0.200810,-0.008408,1.105481,-0.081915,-0.111347,1.075093,-0.025707,-2.270464,39.130596,-23.135269,-4.265260,0.440763,1.974899,-0.196061,0.000000,0.000000,0.000000,0.000000,0.000000,0.000000
15655422.000000,-2.276788,-1.662637,1.346542,-1.468731,1.692841,1.412069,-0.586827,0.200758,-0.005941,1.102039,-0.075567,-0.109552,1.083572,-0.029669,-2.445025,39.130596,-23.016251,-4.340639,0.386747,1.779891,-0.163102,0.000000,0.000000,0.000000,0.000000,0.000000,0.000000
15655423.000000,-2.276590,-1.662636,1.347634,-1.468803,1.692739,1.413185,-0.586844,0.207236,-0.006145,1.100159,-0.074037,-0.107164,1.101811,-0.030041,-2.520403,39.082989,-22.940872,-4.289064,0.291532,1.500655,-0.202470,0.000000,0.000000,0.000000,0.000000,0.000000,0.000000
15655424.000000,-2.276388,-1.662631,1.348746,-1.468874,1.692627,1.414282,-0.586874,0.205421,-0.001106,1.099882,-0.071812,-0.108301,1.096082,-0.028490,-2.667193,38.936199,-22.917068,-4.265260,0.267728,1.526290,-0.169511,0.000000,0.000000,0.000000,0.000000,0.000000,0.000000
15655425.000000,-2.276191,-1.662635,1.349856,-1.468948,1.692516,1.415355,-0.586894,0.202721,-0.004345,1.104086,-0.070711,-0.109309,1.096399,-0.024317,-2.766375,38.936199,-23.063858,-4.213686,0.255826,1.637069,-0.208878,0.000000,0.000000,0.000000,0.000000,0.000000,0.000000
15655426.000000,-2.276006,-1.662633,1.350977,-1.469021,1.692391,1.416452,-0.586919,0.198892,-0.002305,1.107748,-0.070221,-0.114408,1.093934,-0.024240,-2.766375,38.888592,-23.210648,-4.142274,0.362943,1.670028,-0.175919,0.000000,0.000000,0.000000,0.000000,0.000000,0.000000
15655427.000000,-2.275820,-1.662632,1.352121,-1.469083,1.692269,1.417546,-0.586937,0.194230,-0.001372,1.114923,-0.066920,-0.121881,1.081819,-0.021107,-2.718768,38.864788,-23.651016,-4.189882,0.452665,1.741439,-0.221696,0.000000,0.000000,0.000000,0.000000,0.000000,0.000000
15655428.000000,-2.275640,-1.662628,1.353252,-1.469139,1.692162,1.418643,-0.586962,0.189356,-0.000002,1.121239,-0.060417,-0.117491,1.082774,-0.026848,-2.591815,38.813213,-24.095352,-4.289064,0.416959,1.702071,-0.182328,0.000000,0.000000,0.000000,0.000000,0.000000,0.000000
15655429.000000,-2.275461,-1.662624,1.354407,-1.469192,1.692053,1.419740,-0.586980,0.187157,0.001449,1.133124,-0.056372,-0.111081,1.083963,-0.023208,-2.520403,38.741802,-24.611099,-4.364442,0.405057,1.747848,-0.221696,0.000000,0.000000,0.000000,0.000000,0.000000,0.000000
15655430.000000,-2.275285,-1.662625,1.355547,-1.469243,1.691942,1.420834,-0.587002,0.181794,0.000244,1.127591,-0.056452,-0.111882,1.083141,-0.022664,-2.421221,38.765606,-24.904678,-4.439821,0.416959,1.884261,-0.208878,0.000000,0.000000,0.000000,0.000000,0.000000,0.000000
15655434.000000,-2.274584,-1.662642,1.360005,-1.469493,1.691514,1.425162,-0.587084,0.170619,-0.001283,1.112166,-0.063492,-0.104874,1.089200,-0.021938,-2.520403,38.936199,-24.757889,-3.868532,0.285123,2.092086,-0.202470,0.000000,0.000000,0.000000,0.000000,0.000000,0.000000
15655435.000000,-2.274417,-1.662642,1.361121,-1.469551,1.691403,1.426277,-0.587099,0.168303,0.000219,1.112704,-0.061974,-0.107708,1.091128,-0.020602,-2.520403,38.888592,-24.488113,-3.769350,0.303434,1.838485,-0.215287,0.000000,0.000000,0.000000,0.000000,0.000000,0.000000
15655436.000000,-2.274256,-1.662645,1.362219,-1.469607,1.691286,1.427349,-0.587118,0.170663,-0.003050,1.107703,-0.060245,-0.106750,1.081947,-0.020452,-2.468829,38.888592,-24.242142,-3.697939,0.362943,1.832076,-0.208878,0.000000,0.000000,0.000000,0.000000,0.000000,0.000000
15655437.000000,-2.274101,-1.662648,1.363331,-1.469664,1.691166,1.428427,-0.587133,0.165279,-0.002876,1.103498,-0.058702,-0.110474,1.073708,-0.018799,-2.322039,38.912395,-24.043777,-3.622560,0.422452,1.962081,-0.241837,0.000000,0.000000,0.000000,0.000000,0.000000,0.000000
15655438.000000,-2.273946,-1.662659,1.364425,-1.469715,1.691044,1.429493,-0.587159,0.159250,-0.005009,1.103697,-0.055672,-0.113468,1.093022,-0.021112,-2.199053,39.035381,-23.873184,-3.622560,0.488370,2.053634,-0.182328,0.000000,0.000000,0.000000,0.000000,0.000000,0.000000
15655439.000000,-2.273801,-1.662662,1.365539,-1.469754,1.690930,1.430592,-0.587174,0.152999,-0.003500,1.103849,-0.049887,-0.112738,1.092398,-0.018916,-2.000689,39.035381,-23.825577,-3.797121,0.482877,1.981307,-0.221696,0.000000,0.000000,0.000000,0.000000,0.000000,0.000000
15655440.000000,-2.273655,-1.662660,1.366670,-1.469794,1.690832,1.431706,-0.587192,0.150826,-0.003228,1.111454,-0.047185,-0.108084,1.100753,-0.019590,-1.778521,38.936199,-23.920792,-3.920107,0.362943,1.786300,-0.202470,0.000000,0.000000,0.000000,0.000000,0.000000,0.000000
15655441.000000,-2.273516,-1.662666,1.367790,-1.469844,1.690735,1.432792,-0.587205,0.151313,-0.003057,1.117870,-0.046318,-0.105296,1.105539,-0.017588,-1.405596,38.960003,-24.166763,-3.868532,0.261320,1.727706,-0.241837,0.000000,0.000000,0.000000,0.000000,0.000000,0.000000
15655442.000000,-2.273365,-1.662669,1.368896,-1.469894,1.690624,1.433896,-0.587229,0.152104,-0.001742,1.112319,-0.046513,-0.108451,1.106725,-0.014752,-1.254840,38.936199,-24.142960,-3.769350,0.279630,1.649886,-0.202470,0.000000,0.000000,0.000000,0.000000,0.000000,0.000000
15655443.000000,-2.273221,-1.662673,1.369990,-1.469941,1.690507,1.434987,-0.587243,0.149378,-0.001357,1.111665,-0.046064,-0.112227,1.099988,-0.015235,-1.108050,38.936199,-24.071548,-3.697939,0.344633,1.735030,-0.215287,0.000000,0.000000,0.000000,0.000000,0.000000,0.000000
15655444.000000,-2.273077,-1.662683,1.371087,-1.469993,1.690393,1.436053,-0.587258,0.146056,-0.004859,1.105483,-0.047816,-0.114790,1.087712,-0.016038,-1.032672,38.960003,-23.873184,-3.523378,0.405057,1.909896,-0.215287,0.000000,0.000000,0.000000,0.000000,0.000000,0.000000
15655445.000000,-2.272935,-1.662681,1.372200,-1.470037,1.690281,1.437147,-0.587276,0.143801,-0.003722,1.100528,-0.045810,-0.114958,1.078896,-0.017718,-0.985064,38.837017,-23.873184,-3.475771,0.428861,1.909896,-0.188737,0.000000,0.000000,0.000000,0.000000,0.000000,0.000000
15655446.000000,-2.272799,-1.662679,1.373276,-1.470077,1.690175,1.438253,-0.587289,0.141697,-0.003392,1.095385,-0.042902,-0.112647,1.085391,-0.017554,-0.933489,38.717999,-23.555801,-3.499574,0.398649,1.735030,-0.196061,0.000000,0.000000,0.000000,0.000000,0.000000,0.000000
15655447.000000,-2.272662,-1.662675,1.374379,-1.470115,1.690064,1.439376,-0.587302,0.140648,-0.000048,1.096178,-0.040221,-0.112873,1.094484,-0.017306,-0.909686,38.595013,-23.504227,-3.547182,0.405057,1.532699,-0.208878,0.000000,0.000000,0.000000,0.000000,0.000000,0.000000
15655448.000000,-2.272526,-1.662679,1.375485,-1.470158,1.689953,1.440476,-0.587313,0.139458,0.000027,1.096535,-0.043777,-0.111831,1.091270,-0.011778,-0.885882,38.571209,-23.432816,-3.499574,0.381254,1.605026,-0.241837,0.000000,0.000000,0.000000,0.000000,0.000000,0.000000
15655449.000000,-2.272398,-1.662681,1.376577,-1.470203,1.689843,1.441539,-0.587331,0.134855,0.000294,1.099553,-0.045072,-0.108248,1.081347,-0.010168,-0.834307,38.543438,-23.456619,-3.376589,0.398649,1.897079,-0.208878,0.000000,0.000000,0.000000,0.000000,0.000000,0.000000
15655450.000000,-2.272267,-1.662683,1.377703,-1.470246,1.689730,1.442626,-0.587347,0.132331,0.000473,1.102496,-0.044537,-0.105913,1.077130,-0.008075,-0.810504,38.519634,-23.726395,-3.301210,0.428861,2.039901,-0.196061,0.000000,0.000000,0.000000,0.000000,0.000000,0.000000
15655451.000000,-2.272134,-1.662684,1.378822,-1.470280,1.689629,1.443723,-0.587360,0.132340,0.000105,1.110067,-0.038684,-0.102299,1.086259,-0.005525,-0.862078,38.519634,-24.190567,-3.325014,0.410551,1.949264,-0.208878,0.000000,0.000000,0.000000,0.000000,0.000000,0.000000
15655452.000000,-2.272013,-1.662676,1.379960,-1.470321,1.689537,1.444831,-0.587374,0.129218,0.002789,1.120584,-0.040002,-0.101368,1.093439,-0.008772,-0.810504,38.396648,-24.734085,-3.249635,0.315336,1.819259,-0.208878,0.000000,0.000000,0.000000,0.000000,0.000000,0.000000
15655453.000000,-2.271896,-1.662676,1.381098,-1.470350,1.689437,1.445939,-0.587390,0.126179,0.001092,1.123370,-0.035277,-0.099632,1.088685,-0.011697,-0.735125,38.424419,-25.126846,-3.277406,0.308927,1.721298,-0.196061,0.000000,0.000000,0.000000,0.000000,0.000000,0.000000
15655454.000000,-2.271776,-1.662682,1.382207,-1.470384,1.689332,1.447010,-0.587403,0.125030,-0.001588,1.123534,-0.033312,-0.096256,1.077340,-0.012951,-0.711321,38.519634,-25.273636,-3.249635,0.374845,1.812850,-0.208878,0.000000,0.000000,0.000000,0.000000,0.000000,0.000000
15655455.000000,-2.271651,-1.662687,1.383321,-1.470418,1.689222,1.448085,-0.587411,0.126547,-0.002888,1.117044,-0.033373,-0.099219,1.067440,-0.008744,-0.762896,38.595013,-25.249832,-3.154421,0.470060,2.020675,-0.235429,0.000000,0.000000,0.000000,0.000000,0.000000,0.000000
15655456.000000,-2.271530,-1.662695,1.384413,-1.470449,1.689116,1.449151,-0.587427,0.123578,-0.004852,1.112166,-0.032851,-0.099572,1.087768,-0.012318,-0.786700,38.717999,-25.099075,-3.079042,0.524076,2.144271,-0.208878,0.000000,0.000000,0.000000,0.000000,0.000000,0.000000
15655457.000000,-2.271410,-1.662702,1.385512,-1.470481,1.689018,1.450230,-0.587438,0.121903,-0.004943,1.107567,-0.032289,-0.098080,1.080673,-0.012702,-0.834307,38.789410,-24.829300,-3.003664,0.530485,2.163497,-0.241837,0.000000,0.000000,0.000000,0.000000,0.000000,0.000000
15655458.000000,-2.271296,-1.662719,1.386629,-1.470513,1.688925,1.451341,-0.587446,0.118563,-0.007870,1.108309,-0.033025,-0.094363,1.087882,-0.008868,-0.810504,38.983807,-24.757889,-2.880678,0.464567,1.942855,-0.261979,0.000000,0.000000,0.000000,0.000000,0.000000,0.000000
15655459.000000,-2.271183,-1.662720,1.387715,-1.470546,1.688834,1.452432,-0.587464,0.119511,-0.005268,1.103874,-0.033383,-0.095646,1.096836,-0.013967,-0.810504,38.983807,-24.488113,-2.757692,0.386747,1.735030,-0.196061,0.000000,0.000000,0.000000,0.000000,0.000000,0.000000
15655460.000000,-2.271076,-1.662728,1.388819,-1.470576,1.688731,1.453524,-0.587469,0.116137,-0.005291,1.102096,-0.030507,-0.095501,1.094817,-0.013270,-0.735125,39.059185,-24.313553,-2.634706,0.381254,1.702071,-0.241837,0.000000,0.000000,0.000000,0.000000,0.000000,0.000000
15655461.000000,-2.270964,-1.662738,1.389918,-1.470605,1.688626,1.454598,-0.587486,0.114556,-0.009027,1.093430,-0.030931,-0.096380,1.089864,-0.012691,-0.711321,39.158367,-24.071548,-2.535524,0.410551,1.714889,-0.169511,0.000000,0.000000,0.000000,0.000000,0.000000,0.000000
15655462.000000,-2.270862,-1.662742,1.391003,-1.470622,1.688525,1.455693,-0.587493,0.112140,-0.006848,1.093108,-0.027724,-0.101605,1.081945,-0.012071,-0.612139,39.182171,-23.920792,-2.583132,0.434354,1.695663,-0.221696,0.000000,0.000000,0.000000,0.000000,0.000000,0.000000
15655463.000000,-2.270764,-1.662742,1.392112,-1.470632,1.688423,1.456794,-0.587503,0.106270,-0.003563,1.097355,-0.021308,-0.101348,1.073437,-0.008820,-0.489153,39.130596,-23.920792,-2.682314,0.482877,1.689254,-0.229020,0.000000,0.000000,0.000000,0.000000,0.000000,0.000000
15655464.000000,-2.270671,-1.662747,1.393210,-1.470640,1.688331,1.457892,-0.587517,0.101992,-0.002529,1.098477,-0.013091,-0.098202,1.083556,-0.012585,-0.342364,39.130596,-23.996170,-2.805300,0.452665,1.572067,-0.196061,0.000000,0.000000,0.000000,0.000000,0.000000,0.000000
15655465.000000,-2.270576,-1.662743,1.394311,-1.470641,1.688232,1.459007,-0.587522,0.100568,0.000983,1.097422,-0.009686,-0.096885,1.093131,-0.007911,-0.266986,39.011578,-23.972366,-2.956056,0.446256,1.494247,-0.235429,0.000000,0.000000,0.000000,0.000000,0.000000,0.000000
15655466.000000,-2.270484,-1.662746,1.395425,-1.470648,1.688132,1.460107,-0.587532,0.096464,0.001219,1.102220,-0.007155,-0.096174,1.090367,-0.007229,-0.215411,38.983807,-24.095352,-2.979860,0.446256,1.591293,-0.202470,0.000000,0.000000,0.000000,0.000000,0.000000,0.000000
15655467.000000,-2.270385,-1.662752,1.396506,-1.470655,1.688040,1.461181,-0.587536,0.096614,0.000748,1.094794,-0.005711,-0.098739,1.084845,-0.008497,-0.290789,38.983807,-23.996170,-2.979860,0.398649,1.786300,-0.241837,0.000000,0.000000,0.000000,0.000000,0.000000,0.000000
15655468.000000,-2.270287,-1.662759,1.397589,-1.470660,1.687937,1.462277,-0.587553,0.096411,-0.002834,1.085017,-0.007100,-0.098889,1.085981,-0.008901,-0.366168,38.983807,-23.774002,-3.003664,0.434354,1.903487,-0.175919,0.000000,0.000000,0.000000,0.000000,0.000000,0.000000
15655469.000000,-2.270185,-1.662753,1.398660,-1.470663,1.687843,1.463363,-0.587556,0.096600,0.001234,1.086003,-0.006081,-0.101226,1.087821,-0.008983,-0.465350,38.837017,-23.627213,-2.979860,0.398649,1.936446,-0.235429,0.000000,0.000000,0.000000,0.000000,0.000000,0.000000
15655470.000000,-2.270092,-1.662750,1.399749,-1.470662,1.687756,1.464478,-0.587561,0.098705,0.000244,1.083661,-0.004091,-0.096859,1.096513,-0.011001,-0.512957,38.717999,-23.528030,-3.003664,0.320829,1.779891,-0.248246,0.000000,0.000000,0.000000,0.000000,0.000000,0.000000
