chaoyuefei/paper-gmrm-data/robot_logs/s2_dq_gmrm_xz_max_0.30_log_20260314_173645.csv
# time_ms,q_0,q_1,q_2,q_3,q_4,q_5,q_6,dq_0,dq_1,dq_2,dq_3,dq_4,dq_5,dq_6,tau_J_0,tau_J_1,tau_J_2,tau_J_3,tau_J_4,tau_J_5,tau_J_6,O_dP_EE_c_0,O_dP_EE_c_1,O_dP_EE_c_2,O_dP_EE_c_3,O_dP_EE_c_4,O_dP_EE_c_5
12467027.000000,-0.344677,0.544234,0.451055,-1.426825,-0.242503,1.916527,0.131711,0.000995,-0.000894,-0.001704,0.000238,-0.000403,-0.000771,0.000987,0.054365,-38.390156,5.996506,19.340086,0.864652,1.337692,-0.163102,0.000000,0.000000,0.000000,0.000000,0.000000,0.000000
12467028.000000,-0.344673,0.544234,0.451054,-1.426829,-0.242503,1.916529,0.131708,0.001777,-0.000596,-0.001859,-0.001048,-0.000269,0.000198,-0.000325,0.006757,-38.390156,6.020309,19.391661,0.864652,1.318465,-0.136552,0.000000,0.000000,0.000000,0.000000,0.000000,0.000000
12467029.000000,-0.344677,0.544237,0.451054,-1.426827,-0.242501,1.916532,0.131713,0.000071,0.000716,-0.001365,-0.000049,0.000703,-0.000105,0.001479,0.054365,-38.437763,6.020309,19.363890,0.840848,1.324874,-0.182328,0.000000,0.000000,0.000000,0.000000,0.000000,0.000000
12467030.000000,-0.344675,0.544236,0.451059,-1.426825,-0.242507,1.916533,0.131712,0.000604,-0.000079,0.000667,0.000524,-0.000413,-0.000070,-0.000235,0.030561,-38.413960,5.948898,19.340086,0.864652,1.324874,-0.149369,0.000000,0.000000,0.000000,0.000000,0.000000,0.000000
12467031.000000,-0.344696,0.544235,0.451054,-1.426827,-0.242502,1.916531,0.131709,-0.018266,0.008832,-0.012080,-0.006426,0.002810,-0.009069,0.006855,-0.342364,-37.802998,5.405380,19.094114,0.781339,1.312057,-0.083451,0.000000,0.000000,0.000000,0.000000,0.000000,0.000000
12467032.000000,-0.344713,0.544233,0.451036,-1.426833,-0.242486,1.916525,0.131732,-0.028774,0.014052,-0.024691,-0.017020,0.010591,-0.005379,0.011922,-1.750750,-35.720173,3.885910,18.153868,0.422452,1.272689,-0.130143,0.000000,0.000000,0.000000,0.000000,0.000000,0.000000
12467033.000000,-0.344716,0.544241,0.450963,-1.426845,-0.242481,1.916519,0.131755,-0.017639,0.016195,-0.041999,-0.021835,0.014903,-0.009753,0.011904,-3.980364,-32.439228,2.168075,16.301146,0.076383,1.299239,-0.083451,0.000000,0.000000,0.000000,0.000000,0.000000,0.000000
12467034.000000,-0.344731,0.544285,0.450870,-1.426871,-0.242521,1.916512,0.131783,-0.008061,0.022013,-0.053880,-0.021205,-0.005571,-0.008991,0.012635,-6.106829,-28.987690,0.180466,13.754148,0.105680,1.344100,-0.056901,0.000000,0.000000,0.000000,0.000000,0.000000,0.000000
12467035.000000,-0.344757,0.544354,0.450750,-1.426931,-0.242559,1.916517,0.131827,-0.006132,0.027026,-0.065181,-0.030350,-0.017086,-0.003545,0.021627,-7.669940,-25.734516,-1.513565,11.334105,0.052579,1.389877,-0.122819,0.000000,0.000000,0.000000,0.000000,0.000000,0.000000
12467036.000000,-0.344793,0.544446,0.450631,-1.427020,-0.242621,1.916580,0.131860,-0.010183,0.038098,-0.074491,-0.039387,-0.032646,0.020680,0.022906,-8.681598,-23.016926,-2.937821,9.207640,0.076383,1.019088,-0.050492,0.000000,0.000000,0.000000,0.000000,0.000000,0.000000
12467037.000000,-0.344818,0.544568,0.450512,-1.427106,-0.242709,1.916710,0.131899,-0.008783,0.056598,-0.075560,-0.050445,-0.050054,0.062446,0.026791,-9.252887,-20.934101,-3.794754,7.081175,0.255826,0.232650,-0.050492,0.000000,0.000000,0.000000,0.000000,0.000000,0.000000
12467038.000000,-0.344826,0.544699,0.450399,-1.427200,-0.242807,1.916863,0.131934,-0.001897,0.069516,-0.079418,-0.058657,-0.066289,0.096897,0.026122,-9.276690,-19.418598,-3.794754,5.200682,0.416959,-0.443925,0.041976,0.000000,0.000000,0.000000,0.000000,0.000000,0.000000
12467039.000000,-0.344855,0.544807,0.450340,-1.427285,-0.242909,1.917005,0.131977,-0.012137,0.076149,-0.067207,-0.062094,-0.076588,0.115076,0.029392,-8.261065,-18.073689,-3.675736,3.494749,0.554288,-0.684708,0.048385,0.000000,0.000000,0.000000,0.000000,0.000000,0.000000
12467040.000000,-0.344875,0.544906,0.450303,-1.427408,-0.242986,1.917142,0.132034,-0.013983,0.083604,-0.057507,-0.080717,-0.072850,0.122613,0.038932,-7.051043,-16.823994,-3.231400,2.606077,0.374845,-0.502518,-0.017533,0.000000,0.000000,0.000000,0.000000,0.000000,0.000000
12467041.000000,-0.344871,0.544984,0.450275,-1.427529,-0.243064,1.917314,0.132092,-0.015778,0.081384,-0.054596,-0.092898,-0.070011,0.141174,0.044433,-6.011614,-15.403706,-2.521256,1.864195,0.183500,-0.345963,-0.050492,0.000000,0.000000,0.000000,0.000000,0.000000,0.000000
12467042.000000,-0.344855,0.545047,0.450255,-1.427677,-0.243128,1.917530,0.132153,-0.012087,0.074148,-0.047688,-0.112761,-0.066272,0.162976,0.048827,-5.118975,-13.912006,-1.807144,1.642027,-0.079257,-0.255326,-0.089860,0.000000,0.000000,0.000000,0.000000,0.000000,0.000000
12467043.000000,-0.344860,0.545079,0.450231,-1.427852,-0.243183,1.917758,0.132214,-0.016856,0.059267,-0.044816,-0.133404,-0.056824,0.184584,0.049540,-4.027972,-12.174335,-1.073197,1.887999,-0.414340,-0.041093,-0.064225,0.000000,0.000000,0.000000,0.000000,0.000000,0.000000
12467044.000000,-0.344868,0.545105,0.450201,-1.428042,-0.243265,1.917994,0.132289,-0.013411,0.047602,-0.045122,-0.152528,-0.064890,0.200389,0.054501,-3.063921,-10.484272,-0.335281,2.284727,-0.467440,0.336105,-0.149369,0.000000,0.000000,0.000000,0.000000,0.000000,0.000000
12467045.000000,-0.344886,0.545149,0.450153,-1.428253,-0.243374,1.918253,0.132352,-0.017235,0.048117,-0.049577,-0.174088,-0.076674,0.217184,0.057137,-2.099871,-9.087788,0.474045,2.903624,-0.240389,0.713302,-0.083451,0.000000,0.000000,0.000000,0.000000,0.000000,0.000000
12467046.000000,-0.344922,0.545200,0.450106,-1.428467,-0.243488,1.918548,0.132421,-0.022801,0.048859,-0.055294,-0.192906,-0.090685,0.248151,0.059725,-1.008868,-7.865864,1.136581,3.300352,0.040677,0.830489,-0.031266,0.000000,0.000000,0.000000,0.000000,0.000000,0.000000
12467047.000000,-0.344970,0.545274,0.450060,-1.428699,-0.243596,1.918878,0.132503,-0.034108,0.058607,-0.052323,-0.205550,-0.095980,0.274933,0.066003,0.105939,-7.056538,1.628525,3.669310,0.195402,0.765487,-0.089860,0.000000,0.000000,0.000000,0.000000,0.000000,0.000000
12467048.000000,-0.345007,0.545379,0.450024,-1.428934,-0.243702,1.919250,0.132577,-0.035339,0.075096,-0.050324,-0.217069,-0.097737,0.307058,0.065368,0.923200,-6.715351,1.846725,3.867674,0.297025,0.603439,-0.011124,0.000000,0.000000,0.000000,0.000000,0.000000,0.000000
12467049.000000,-0.345028,0.545499,0.449992,-1.429171,-0.243794,1.919629,0.132664,-0.029028,0.091044,-0.044191,-0.220561,-0.100412,0.328747,0.069864,1.415143,-6.691547,1.969711,3.867674,0.207303,0.499068,-0.050492,0.000000,0.000000,0.000000,0.000000,0.000000,0.000000
12467050.000000,-0.345048,0.545639,0.449965,-1.429405,-0.243877,1.920025,0.132754,-0.025288,0.108359,-0.037949,-0.232951,-0.089827,0.351704,0.077803,1.764264,-6.862141,1.997482,3.522520,-0.007845,0.427657,-0.097184,0.000000,0.000000,0.000000,0.000000,0.000000,0.000000
12467051.000000,-0.345075,0.545778,0.449937,-1.429651,-0.243963,1.920443,0.132833,-0.023816,0.118496,-0.033314,-0.237719,-0.081871,0.377868,0.074768,2.133222,-6.838337,1.997482,3.125792,-0.246798,0.446883,-0.037675,0.000000,0.000000,0.000000,0.000000,0.000000,0.000000
12467052.000000,-0.345087,0.545914,0.449898,-1.429916,-0.244065,1.920860,0.132923,-0.025252,0.124202,-0.036235,-0.245866,-0.087824,0.386878,0.076361,2.283979,-6.715351,2.116501,2.903624,-0.300814,0.570480,-0.070634,0.000000,0.000000,0.000000,0.000000,0.000000,0.000000
12467053.000000,-0.345094,0.546039,0.449856,-1.430189,-0.244180,1.921304,0.133003,-0.017043,0.121944,-0.038631,-0.256163,-0.096971,0.405261,0.075041,2.307783,-6.251179,2.239486,2.705260,-0.222994,0.622665,-0.044083,0.000000,0.000000,0.000000,0.000000,0.000000,0.000000
12467054.000000,-0.345111,0.546149,0.449818,-1.430491,-0.244292,1.921782,0.133091,-0.017365,0.119297,-0.038840,-0.268814,-0.103331,0.428255,0.080973,2.430768,-5.564838,2.291061,2.729063,-0.133273,0.583297,-0.070634,0.000000,0.000000,0.000000,0.000000,0.000000,0.000000
12467055.000000,-0.345136,0.546256,0.449774,-1.430806,-0.244412,1.922302,0.133175,-0.019693,0.116279,-0.042664,-0.282785,-0.111180,0.454251,0.078866,2.629133,-4.807087,2.362472,2.804442,0.034269,0.421249,-0.050492,0.000000,0.000000,0.000000,0.000000,0.000000,0.000000
12467056.000000,-0.345150,0.546370,0.449738,-1.431135,-0.244538,1.922848,0.133255,-0.018138,0.114192,-0.042094,-0.296039,-0.112010,0.480595,0.080657,2.680707,-4.045368,2.291061,2.903624,0.201810,0.323287,0.001693,0.000000,0.000000,0.000000,0.000000,0.000000,0.000000
12467057.000000,-0.345161,0.546498,0.449696,-1.431459,-0.244654,1.923388,0.133350,-0.016606,0.115206,-0.043397,-0.300501,-0.115484,0.494366,0.083444,2.704511,-3.458210,2.267257,2.804442,0.231107,0.375472,-0.077042,0.000000,0.000000,0.000000,0.000000,0.000000,0.000000
12467058.000000,-0.345163,0.546650,0.449661,-1.431782,-0.244762,1.923940,0.133434,-0.010002,0.119636,-0.039503,-0.307473,-0.110217,0.510810,0.085370,2.629133,-3.359028,2.168075,2.681456,0.147794,0.616256,-0.056901,0.000000,0.000000,0.000000,0.000000,0.000000,0.000000
12467059.000000,-0.345165,0.546821,0.449636,-1.432106,-0.244861,1.924518,0.133516,-0.006076,0.135761,-0.032606,-0.312094,-0.107167,0.531804,0.081367,2.581525,-3.827168,2.021286,2.530699,-0.031649,0.804855,-0.017533,0.000000,0.000000,0.000000,0.000000,0.000000,0.000000
12467060.000000,-0.345160,0.547003,0.449610,-1.432431,-0.244955,1.925147,0.133606,-0.001472,0.153244,-0.026212,-0.316124,-0.097304,0.561466,0.087309,2.454572,-4.608723,1.945907,2.383909,-0.204684,0.759078,-0.083451,0.000000,0.000000,0.000000,0.000000,0.000000,0.000000
12467061.000000,-0.345159,0.547190,0.449582,-1.432770,-0.245047,1.925816,0.133680,-0.001275,0.159382,-0.025544,-0.319600,-0.094858,0.590357,0.081430,2.454572,-5.735432,2.045089,2.530699,-0.377719,0.524703,-0.011124,0.000000,0.000000,0.000000,0.000000,0.000000,0.000000
12467062.000000,-0.345154,0.547381,0.449562,-1.433104,-0.245168,1.926498,0.133765,0.001740,0.167168,-0.022102,-0.317880,-0.107171,0.621984,0.080092,2.482343,-7.326313,2.168075,2.804442,-0.282504,0.251876,-0.011124,0.000000,0.000000,0.000000,0.000000,0.000000,0.000000
12467063.000000,-0.345153,0.547576,0.449533,-1.433455,-0.245293,1.927192,0.133851,0.001307,0.178445,-0.025012,-0.329492,-0.109573,0.633891,0.080577,2.629133,-9.258381,2.537033,3.371763,-0.121371,0.109054,-0.037675,0.000000,0.000000,0.000000,0.000000,0.000000,0.000000
12467064.000000,-0.345154,0.547755,0.449507,-1.433811,-0.245432,1.927886,0.133927,-0.002832,0.180771,-0.025333,-0.341479,-0.118591,0.661206,0.077239,2.803693,-10.877033,2.854416,3.843870,0.141385,0.037643,0.015426,0.000000,0.000000,0.000000,0.000000,0.000000,0.000000
12467065.000000,-0.345154,0.547931,0.449486,-1.434176,-0.245561,1.928562,0.134007,-0.003922,0.183098,-0.026126,-0.348860,-0.123082,0.665486,0.081258,2.902875,-12.416340,3.076584,4.411192,0.344633,0.004684,0.028243,0.000000,0.000000,0.000000,0.000000,0.000000,0.000000
12467066.000000,-0.345139,0.548096,0.449460,-1.434547,-0.245680,1.929253,0.134090,0.000554,0.176230,-0.029206,-0.352453,-0.125207,0.673771,0.085403,2.629133,-13.888203,3.270981,5.176878,0.405057,0.089828,0.009017,0.000000,0.000000,0.000000,0.000000,0.000000,0.000000
12467067.000000,-0.345130,0.548247,0.449439,-1.434930,-0.245784,1.929926,0.134170,0.005487,0.167542,-0.030160,-0.356859,-0.119834,0.675028,0.083642,2.260175,-15.332294,3.270981,6.339293,0.285123,0.336105,-0.004716,0.000000,0.000000,0.000000,0.000000,0.000000,0.000000
12467068.000000,-0.345121,0.548412,0.449416,-1.435300,-0.245881,1.930610,0.134251,0.006449,0.164388,-0.027483,-0.364189,-0.109775,0.676304,0.081870,1.835676,-17.069965,3.247177,7.624693,0.088285,0.564071,-0.011124,0.000000,0.000000,0.000000,0.000000,0.000000,0.000000
12467069.000000,-0.345129,0.548576,0.449389,-1.435670,-0.245985,1.931295,0.134334,0.004552,0.164111,-0.026459,-0.364826,-0.107089,0.679263,0.081585,1.641279,-18.783833,3.247177,8.957701,0.004056,0.785628,-0.050492,0.000000,0.000000,0.000000,0.000000,0.000000,0.000000
12467070.000000,-0.345135,0.548749,0.449352,-1.436048,-0.246096,1.931954,0.134410,0.003914,0.166052,-0.031298,-0.367470,-0.108315,0.667084,0.078723,1.415143,-20.592915,3.346359,10.441465,0.004056,1.123458,-0.017533,0.000000,0.000000,0.000000,0.000000,0.000000,0.000000
12467071.000000,-0.345143,0.548933,0.449314,-1.436422,-0.246214,1.932624,0.134489,0.002055,0.175136,-0.032253,-0.372758,-0.107894,0.654978,0.076933,1.244550,-22.354389,3.469345,11.802244,0.100187,1.416427,0.009017,0.000000,0.000000,0.000000,0.000000,0.000000,0.000000
12467072.000000,-0.345152,0.549130,0.449274,-1.436808,-0.246337,1.933289,0.134579,-0.003647,0.186031,-0.035328,-0.376723,-0.116672,0.656400,0.083971,1.121564,-24.143635,3.564560,13.063841,0.219205,1.474105,-0.044083,0.000000,0.000000,0.000000,0.000000,0.000000,0.000000
12467073.000000,-0.345163,0.549352,0.449227,-1.437181,-0.246458,1.933970,0.134654,-0.005427,0.200038,-0.038856,-0.375798,-0.121747,0.665796,0.079061,1.046186,-26.051899,3.715317,14.000120,0.291532,1.416427,0.028243,0.000000,0.000000,0.000000,0.000000,0.000000,0.000000
12467074.000000,-0.345165,0.549586,0.449175,-1.437553,-0.246582,1.934645,0.134733,-0.004325,0.211392,-0.045366,-0.374909,-0.120554,0.664451,0.077372,0.871625,-27.888752,3.909714,14.642820,0.351041,1.305648,0.048385,0.000000,0.000000,0.000000,0.000000,0.000000,0.000000
12467075.000000,-0.345163,0.549831,0.449119,-1.437934,-0.246703,1.935295,0.134822,-0.001787,0.221869,-0.047349,-0.375967,-0.117481,0.660095,0.083804,0.625654,-29.626423,4.108078,15.214109,0.369352,1.272689,-0.017533,0.000000,0.000000,0.000000,0.000000,0.000000,0.000000
12467076.000000,-0.345166,0.550079,0.449064,-1.438308,-0.246824,1.935929,0.134898,-0.003001,0.228826,-0.049372,-0.379263,-0.114398,0.650468,0.084717,0.502668,-31.094318,4.203293,15.559263,0.351041,1.357833,0.028243,0.000000,0.000000,0.000000,0.000000,0.000000,0.000000
12467077.000000,-0.345169,0.550330,0.448995,-1.438698,-0.246942,1.936555,0.134985,-0.000891,0.236974,-0.055795,-0.380467,-0.116001,0.646021,0.084180,0.403486,-32.367817,4.500839,15.805235,0.327238,1.422836,-0.017533,0.000000,0.000000,0.000000,0.000000,0.000000,0.000000
12467078.000000,-0.345179,0.550565,0.448929,-1.439097,-0.247067,1.937189,0.135067,-0.004333,0.234599,-0.057837,-0.382744,-0.119333,0.643989,0.081888,0.375715,-33.248554,4.695236,16.078978,0.339139,1.442062,-0.023942,0.000000,0.000000,0.000000,0.000000,0.000000,0.000000
12467079.000000,-0.345189,0.550791,0.448853,-1.439509,-0.247190,1.937822,0.135151,-0.007279,0.230892,-0.064326,-0.391249,-0.120998,0.634454,0.079879,0.375715,-33.883320,4.965012,16.471739,0.327238,1.422836,-0.017533,0.000000,0.000000,0.000000,0.000000,0.000000,0.000000
12467080.000000,-0.345207,0.551013,0.448777,-1.439934,-0.247318,1.938430,0.135229,-0.011004,0.226440,-0.067406,-0.398964,-0.123416,0.628931,0.082030,0.451093,-34.299885,5.163376,16.967649,0.362943,1.494247,0.021835,0.000000,0.000000,0.000000,0.000000,0.000000,0.000000
12467081.000000,-0.345226,0.551234,0.448699,-1.440358,-0.247443,1.939046,0.135314,-0.014706,0.223509,-0.068861,-0.405446,-0.121163,0.617387,0.081474,0.574079,-34.593464,5.333969,17.312803,0.398649,1.591293,-0.004716,0.000000,0.000000,0.000000,0.000000,0.000000,0.000000
12467082.000000,-0.345248,0.551470,0.448614,-1.440794,-0.247575,1.939655,0.135398,-0.014399,0.225888,-0.072474,-0.415397,-0.127085,0.624699,0.080596,0.724836,-35.033833,5.603745,17.757139,0.416959,1.708480,-0.023942,0.000000,0.000000,0.000000,0.000000,0.000000,0.000000
12467083.000000,-0.345263,0.551700,0.448528,-1.441232,-0.247706,1.940243,0.135469,-0.012071,0.227162,-0.077725,-0.417424,-0.127579,0.609976,0.081618,0.796247,-35.426594,5.849716,18.106260,0.428861,1.844894,0.041976,0.000000,0.000000,0.000000,0.000000,0.000000,0.000000
12467084.000000,-0.345275,0.551949,0.448442,-1.441661,-0.247838,1.940844,0.135555,-0.012141,0.232964,-0.080366,-0.421267,-0.125874,0.607748,0.087114,0.796247,-35.914570,6.044113,18.399839,0.386747,1.865035,-0.011124,0.000000,0.000000,0.000000,0.000000,0.000000,0.000000
12467085.000000,-0.345284,0.552202,0.448351,-1.442103,-0.247970,1.941444,0.135635,-0.011676,0.232515,-0.086338,-0.422292,-0.124814,0.603183,0.082449,0.772443,-36.382710,6.266281,18.649778,0.362943,1.844894,0.034652,0.000000,0.000000,0.000000,0.000000,0.000000,0.000000
12467086.000000,-0.345295,0.552468,0.448260,-1.442539,-0.248102,1.942047,0.135716,-0.011466,0.240849,-0.085604,-0.432333,-0.126077,0.603178,0.085232,0.748639,-36.993671,6.413071,18.820372,0.374845,1.838485,0.041976,0.000000,0.000000,0.000000,0.000000,0.000000,0.000000
12467087.000000,-0.345308,0.552728,0.448170,-1.442962,-0.248228,1.942641,0.135809,-0.013117,0.246918,-0.085363,-0.428475,-0.121582,0.596590,0.085522,0.796247,-37.481647,6.559860,18.796568,0.362943,1.890670,-0.031266,0.000000,0.000000,0.000000,0.000000,0.000000,0.000000
12467088.000000,-0.345322,0.552986,0.448076,-1.443399,-0.248359,1.943226,0.135889,-0.013883,0.244563,-0.086024,-0.431979,-0.124564,0.597343,0.076867,0.824018,-37.874409,6.734421,18.895750,0.416959,1.909896,0.021835,0.000000,0.000000,0.000000,0.000000,0.000000,0.000000
12467089.000000,-0.345333,0.553244,0.447979,-1.443844,-0.248493,1.943837,0.135978,-0.013771,0.247810,-0.089490,-0.436396,-0.126146,0.598591,0.082198,0.824018,-38.144184,6.905014,19.042540,0.440763,1.877853,0.001693,0.000000,0.000000,0.000000,0.000000,0.000000,0.000000
12467090.000000,-0.345346,0.553494,0.447888,-1.444299,-0.248625,1.944436,0.136065,-0.014212,0.248221,-0.089314,-0.440969,-0.127391,0.600542,0.080832,0.847822,-38.267170,6.952621,19.268675,0.482877,1.844894,-0.004716,0.000000,0.000000,0.000000,0.000000,0.000000,0.000000
12467091.000000,-0.345353,0.553740,0.447794,-1.444757,-0.248750,1.945049,0.136143,-0.012759,0.250408,-0.090421,-0.444267,-0.131806,0.602196,0.082740,0.796247,-38.314777,7.051804,19.463072,0.482877,1.825668,0.034652,0.000000,0.000000,0.000000,0.000000,0.000000,0.000000
12467092.000000,-0.345359,0.553994,0.447707,-1.445214,-0.248881,1.945650,0.136234,-0.011951,0.251758,-0.088622,-0.449138,-0.126132,0.600687,0.082612,0.748639,-38.362385,7.051804,19.637632,0.482877,1.871444,-0.011124,0.000000,0.000000,0.000000,0.000000,0.000000,0.000000
12467093.000000,-0.345369,0.554244,0.447628,-1.445661,-0.249014,1.946250,0.136311,-0.009076,0.245760,-0.082563,-0.445809,-0.129140,0.602458,0.079250,0.748639,-38.413960,6.952621,19.685240,0.452665,1.974899,0.034652,0.000000,0.000000,0.000000,0.000000,0.000000,0.000000
12467094.000000,-0.345373,0.554495,0.447545,-1.446112,-0.249143,1.946858,0.136401,-0.008541,0.249124,-0.079496,-0.445857,-0.127692,0.598839,0.080121,0.673261,-38.461567,6.905014,19.784422,0.422452,2.047225,-0.011124,0.000000,0.000000,0.000000,0.000000,0.000000,0.000000
12467095.000000,-0.345374,0.554748,0.447464,-1.446558,-0.249266,1.947464,0.136490,-0.007250,0.251320,-0.077340,-0.444293,-0.125896,0.600523,0.079339,0.550275,-38.461567,6.853439,19.812193,0.386747,2.039901,-0.031266,0.000000,0.000000,0.000000,0.000000,0.000000,0.000000
12467096.000000,-0.345370,0.554994,0.447384,-1.447011,-0.249389,1.948071,0.136566,-0.001168,0.253225,-0.078950,-0.441779,-0.125717,0.607216,0.080922,0.351911,-38.461567,6.805832,19.784422,0.362943,2.014266,0.028243,0.000000,0.000000,0.000000,0.000000,0.000000,0.000000
12467097.000000,-0.345371,0.555253,0.447308,-1.447443,-0.249513,1.948689,0.136653,-0.002094,0.256429,-0.076605,-0.434152,-0.121635,0.606064,0.084801,0.228925,-38.584553,6.734421,19.637632,0.356534,2.001449,0.015426,0.000000,0.000000,0.000000,0.000000,0.000000,0.000000
12467098.000000,-0.345368,0.555504,0.447233,-1.447887,-0.249638,1.949295,0.136737,-0.002110,0.251203,-0.081158,-0.435796,-0.123895,0.605712,0.082048,0.078168,-38.560749,6.659042,19.562254,0.386747,1.995040,0.028243,0.000000,0.000000,0.000000,0.000000,0.000000,0.000000
12467099.000000,-0.345361,0.555763,0.447163,-1.448317,-0.249759,1.949913,0.136822,0.001672,0.254460,-0.079579,-0.436330,-0.125229,0.609689,0.086551,-0.092425,-38.608356,6.512253,19.391661,0.398649,1.955673,0.009017,0.000000,0.000000,0.000000,0.000000,0.000000,0.000000
12467100.000000,-0.345345,0.556025,0.447095,-1.448761,-0.249885,1.950523,0.136909,0.006278,0.259081,-0.076749,-0.435707,-0.127172,0.625057,0.083162,-0.342364,-38.755146,6.413071,19.316282,0.452665,1.903487,0.021835,0.000000,0.000000,0.000000,0.000000,0.000000,0.000000
12467101.000000,-0.345333,0.556279,0.447030,-1.449197,-0.250006,1.951150,0.136994,0.007106,0.258997,-0.073001,-0.433743,-0.126182,0.625261,0.080513,-0.489153,-38.830524,6.242477,19.193296,0.428861,1.871444,0.041976,0.000000,0.000000,0.000000,0.000000,0.000000,0.000000
12467102.000000,-0.345320,0.556544,0.446965,-1.449623,-0.250133,1.951787,0.137086,0.014721,0.261165,-0.071498,-0.430087,-0.126519,0.625871,0.086695,-0.635943,-38.977314,6.119492,19.094114,0.428861,1.800033,-0.004716,0.000000,0.000000,0.000000,0.000000,0.000000,0.000000
12467103.000000,-0.345305,0.556794,0.446909,-1.450050,-0.250257,1.952411,0.137171,0.012424,0.253217,-0.065408,-0.429744,-0.129035,0.629651,0.082705,-0.735125,-39.024921,5.921127,18.994932,0.386747,1.786300,0.028243,0.000000,0.000000,0.000000,0.000000,0.000000,0.000000
12467104.000000,-0.345291,0.557049,0.446846,-1.450474,-0.250380,1.953032,0.137256,0.013680,0.254418,-0.063865,-0.424438,-0.127687,0.625314,0.086046,-0.810504,-39.024921,5.849716,18.895750,0.356534,1.806442,0.028243,0.000000,0.000000,0.000000,0.000000,0.000000,0.000000
12467105.000000,-0.345273,0.557311,0.446788,-1.450887,-0.250503,1.953659,0.137343,0.018831,0.258732,-0.058918,-0.423132,-0.127087,0.623949,0.088998,-0.909686,-39.048725,5.750534,18.796568,0.339139,1.825668,0.015426,0.000000,0.000000,0.000000,0.000000,0.000000,0.000000
12467106.000000,-0.345256,0.557572,0.446732,-1.451292,-0.250623,1.954279,0.137427,0.019229,0.253926,-0.054633,-0.416719,-0.126255,0.623608,0.089655,-1.008868,-39.195515,5.627548,18.625975,0.327238,1.812850,0.034652,0.000000,0.000000,0.000000,0.000000,0.000000,0.000000
12467107.000000,-0.345235,0.557831,0.446676,-1.451697,-0.250742,1.954907,0.137517,0.017318,0.256324,-0.053975,-0.416913,-0.120422,0.618126,0.086585,-1.159625,-39.270893,5.480759,18.499022,0.279630,1.760665,0.021835,0.000000,0.000000,0.000000,0.000000,0.000000,0.000000
12467108.000000,-0.345221,0.558091,0.446624,-1.452101,-0.250867,1.955522,0.137602,0.017943,0.261800,-0.054062,-0.410925,-0.122212,0.620425,0.083024,-1.254840,-39.342304,5.357773,18.376036,0.291532,1.714889,0.048385,0.000000,0.000000,0.000000,0.000000,0.000000,0.000000
12467109.000000,-0.345203,0.558362,0.446576,-1.452502,-0.250983,1.956150,0.137693,0.018471,0.265404,-0.052895,-0.405676,-0.122875,0.622850,0.082693,-1.354022,-39.540668,5.187180,18.205442,0.267728,1.656295,0.009017,0.000000,0.000000,0.000000,0.000000,0.000000,0.000000
12467110.000000,-0.345182,0.558629,0.446525,-1.452893,-0.251107,1.956784,0.137778,0.018993,0.268568,-0.051294,-0.402057,-0.121237,0.629204,0.080180,-1.453204,-39.659687,5.111801,18.054686,0.308927,1.591293,0.015426,0.000000,0.000000,0.000000,0.000000,0.000000,0.000000
12467111.000000,-0.345167,0.558895,0.446471,-1.453292,-0.251233,1.957402,0.137855,0.017714,0.269368,-0.051232,-0.397036,-0.123242,0.626912,0.081037,-1.480975,-39.735065,5.087997,17.983274,0.339139,1.584884,0.074935,0.000000,0.000000,0.000000,0.000000,0.000000,0.000000
12467112.000000,-0.345152,0.559169,0.446420,-1.453683,-0.251357,1.958021,0.137948,0.016833,0.271280,-0.052819,-0.394464,-0.119752,0.628130,0.087641,-1.504779,-39.810444,5.012619,17.931700,0.339139,1.605026,0.001693,0.000000,0.000000,0.000000,0.000000,0.000000,0.000000
12467113.000000,-0.345139,0.559443,0.446366,-1.454077,-0.251487,1.958636,0.138027,0.015727,0.277522,-0.055358,-0.393610,-0.120750,0.625219,0.086726,-1.504779,-39.929462,4.988815,17.931700,0.332731,1.643478,0.067611,0.000000,0.000000,0.000000,0.000000,0.000000,0.000000
12467114.000000,-0.345130,0.559712,0.446318,-1.454466,-0.251611,1.959263,0.138116,0.014501,0.277819,-0.052305,-0.390033,-0.121559,0.629481,0.089410,-1.480975,-40.004841,4.893600,17.955503,0.308927,1.624252,0.041976,0.000000,0.000000,0.000000,0.000000,0.000000,0.000000
12467115.000000,-0.345123,0.559986,0.446264,-1.454853,-0.251731,1.959890,0.138206,0.009001,0.276771,-0.052300,-0.389273,-0.116785,0.628015,0.086143,-1.405596,-40.076252,4.893600,18.054686,0.261320,1.597701,0.034652,0.000000,0.000000,0.000000,0.000000,0.000000,0.000000
12467116.000000,-0.345120,0.560250,0.446213,-1.455243,-0.251853,1.960495,0.138291,0.007926,0.271920,-0.054102,-0.389544,-0.118073,0.629296,0.088109,-1.306414,-40.127827,4.842026,18.106260,0.237516,1.649886,0.054794,0.000000,0.000000,0.000000,0.000000,0.000000,0.000000
12467117.000000,-0.345120,0.560530,0.446162,-1.455624,-0.251977,1.961108,0.138382,0.006243,0.278736,-0.052227,-0.388600,-0.115882,0.622603,0.091141,-1.159625,-40.274616,4.794418,18.205442,0.231107,1.735030,0.015426,0.000000,0.000000,0.000000,0.000000,0.000000,0.000000
12467118.000000,-0.345117,0.560815,0.446110,-1.456008,-0.252102,1.961740,0.138471,0.005606,0.277251,-0.052092,-0.386280,-0.119034,0.640004,0.091201,-1.032672,-40.445210,4.794418,18.253050,0.231107,1.676437,0.028243,0.000000,0.000000,0.000000,0.000000,0.000000,0.000000
12467119.000000,-0.345114,0.561095,0.446044,-1.456397,-0.252226,1.962357,0.138552,0.002430,0.276905,-0.058448,-0.382890,-0.116530,0.632144,0.090082,-0.933489,-40.714985,4.941208,18.376036,0.225614,1.630660,0.081344,0.000000,0.000000,0.000000,0.000000,0.000000,0.000000
12467120.000000,-0.345118,0.561379,0.445980,-1.456788,-0.252351,1.962972,0.138646,-0.001611,0.282194,-0.058572,-0.386564,-0.114892,0.627341,0.089301,-0.762896,-40.933186,5.040390,18.475218,0.225614,1.662704,0.015426,0.000000,0.000000,0.000000,0.000000,0.000000,0.000000
12467121.000000,-0.345118,0.561663,0.445910,-1.457181,-0.252478,1.963580,0.138727,-0.004031,0.282591,-0.062872,-0.385919,-0.117494,0.623061,0.084076,-0.612139,-41.155354,5.187180,18.598204,0.225614,1.735030,0.061202,0.000000,0.000000,0.000000,0.000000,0.000000,0.000000
12467122.000000,-0.345115,0.561945,0.445841,-1.457571,-0.252612,1.964200,0.138819,-0.001236,0.284458,-0.065145,-0.383215,-0.117065,0.618225,0.088399,-0.512957,-41.373554,5.310165,18.598204,0.267728,1.708480,0.015426,0.000000,0.000000,0.000000,0.000000,0.000000,0.000000
12467123.000000,-0.345119,0.562228,0.445766,-1.457960,-0.252746,1.964824,0.138896,-0.004865,0.282146,-0.071983,-0.382951,-0.119200,0.620217,0.082077,-0.314593,-41.472736,5.528366,18.673582,0.255826,1.689254,0.094161,0.000000,0.000000,0.000000,0.000000,0.000000,0.000000
12467124.000000,-0.345122,0.562510,0.445692,-1.458362,-0.252882,1.965438,0.138985,-0.006228,0.276575,-0.071804,-0.383256,-0.125191,0.622065,0.081815,-0.167803,-41.571918,5.651352,18.796568,0.261320,1.643478,0.074935,0.000000,0.000000,0.000000,0.000000,0.000000,0.000000
12467125.000000,-0.345126,0.562788,0.445613,-1.458751,-0.253015,1.966065,0.139077,-0.007341,0.279284,-0.076031,-0.381793,-0.126480,0.617050,0.086098,-0.017047,-41.643330,5.825912,18.820372,0.279630,1.597701,0.048385,0.000000,0.000000,0.000000,0.000000,0.000000,0.000000
12467126.000000,-0.345135,0.563079,0.445529,-1.459150,-0.253145,1.966664,0.139161,-0.005720,0.283720,-0.079620,-0.384328,-0.130786,0.618769,0.082187,0.177350,-41.790119,6.020309,18.871946,0.285123,1.702071,0.081344,0.000000,0.000000,0.000000,0.000000,0.000000,0.000000
12467127.000000,-0.345146,0.563360,0.445442,-1.459544,-0.253280,1.967269,0.139250,-0.007418,0.283008,-0.082156,-0.385126,-0.130643,0.617225,0.082506,0.351911,-41.889301,6.218674,18.871946,0.303434,1.767074,0.028243,0.000000,0.000000,0.000000,0.000000,0.000000,0.000000
12467128.000000,-0.345158,0.563642,0.445351,-1.459937,-0.253413,1.967883,0.139335,-0.008113,0.283758,-0.084585,-0.389639,-0.124837,0.614649,0.084032,0.502668,-41.960712,6.436874,18.895750,0.291532,1.754256,0.061202,0.000000,0.000000,0.000000,0.000000,0.000000,0.000000
12467129.000000,-0.345170,0.563921,0.445266,-1.460337,-0.253543,1.968492,0.139430,-0.009130,0.281622,-0.084101,-0.387131,-0.126680,0.616146,0.088701,0.673261,-41.936909,6.559860,18.971128,0.225614,1.773483,0.021835,0.000000,0.000000,0.000000,0.000000,0.000000,0.000000
12467130.000000,-0.345182,0.564205,0.445175,-1.460735,-0.253673,1.969107,0.139521,-0.008205,0.279594,-0.088091,-0.389506,-0.126529,0.610938,0.090242,0.772443,-41.960712,6.734421,19.070311,0.207303,1.779891,0.015426,0.000000,0.000000,0.000000,0.000000,0.000000,0.000000
12467131.000000,-0.345197,0.564490,0.445084,-1.461135,-0.253812,1.969714,0.139605,-0.011109,0.285923,-0.091058,-0.390576,-0.136062,0.624569,0.089631,0.871625,-42.036091,6.905014,19.141722,0.231107,1.779891,0.054794,0.000000,0.000000,0.000000,0.000000,0.000000,0.000000
12467132.000000,-0.345211,0.564767,0.444988,-1.461535,-0.253953,1.970320,0.139700,-0.012765,0.285230,-0.093337,-0.392972,-0.134857,0.625913,0.092915,0.947004,-42.012287,7.075607,19.141722,0.255826,1.838485,0.001693,0.000000,0.000000,0.000000,0.000000,0.000000,0.000000
12467133.000000,-0.345220,0.565044,0.444899,-1.461937,-0.254096,1.970934,0.139782,-0.008927,0.279513,-0.091611,-0.394709,-0.134293,0.621937,0.091340,0.947004,-41.960712,7.099411,19.268675,0.291532,1.909896,0.054794,0.000000,0.000000,0.000000,0.000000,0.000000,0.000000
12467134.000000,-0.345233,0.565323,0.444796,-1.462339,-0.254234,1.971551,0.139867,-0.007378,0.278920,-0.098344,-0.396969,-0.137094,0.624820,0.091384,0.994611,-42.059895,7.321579,19.340086,0.315336,1.851302,0.074935,0.000000,0.000000,0.000000,0.000000,0.000000,0.000000
12467135.000000,-0.345239,0.565599,0.444697,-1.462736,-0.254369,1.972169,0.139960,-0.008061,0.281069,-0.098083,-0.406937,-0.134503,0.619947,0.094941,0.970807,-41.936909,7.468369,19.439268,0.315336,1.800033,0.015426,0.000000,0.000000,0.000000,0.000000,0.000000,0.000000
12467136.000000,-0.345246,0.565881,0.444600,-1.463136,-0.254503,1.972781,0.140043,-0.005838,0.282121,-0.100786,-0.410086,-0.132620,0.620449,0.092585,0.970807,-41.936909,7.591354,19.514647,0.315336,1.812850,0.067611,0.000000,0.000000,0.000000,0.000000,0.000000,0.000000
12467137.000000,-0.345254,0.566159,0.444506,-1.463541,-0.254635,1.973386,0.140137,-0.007693,0.280957,-0.097330,-0.405606,-0.129876,0.614945,0.091389,0.970807,-42.036091,7.615158,19.590025,0.297025,1.832076,0.009017,0.000000,0.000000,0.000000,0.000000,0.000000,0.000000
12467138.000000,-0.345260,0.566427,0.444407,-1.463937,-0.254771,1.973984,0.140221,-0.008052,0.278037,-0.096176,-0.404091,-0.133243,0.613262,0.089891,0.923200,-41.889301,7.690536,19.713011,0.279630,1.890670,0.067611,0.000000,0.000000,0.000000,0.000000,0.000000,0.000000
12467139.000000,-0.345262,0.566697,0.444314,-1.464337,-0.254910,1.974577,0.140308,-0.007768,0.276452,-0.094204,-0.401472,-0.136683,0.603727,0.091342,0.847822,-41.841694,7.714340,19.812193,0.308927,1.942855,0.067611,0.000000,0.000000,0.000000,0.000000,0.000000,0.000000
12467140.000000,-0.345264,0.566965,0.444218,-1.464746,-0.255050,1.975174,0.140399,-0.004231,0.280137,-0.095818,-0.405805,-0.134148,0.603633,0.093615,0.772443,-41.742512,7.738144,20.006590,0.303434,1.923629,0.028243,0.000000,0.000000,0.000000,0.000000,0.000000,0.000000
12467141.000000,-0.345270,0.567237,0.444126,-1.465146,-0.255195,1.975775,0.140488,-0.006848,0.281770,-0.098714,-0.404366,-0.137739,0.601914,0.088938,0.772443,-41.619526,7.714340,20.157347,0.320829,1.962081,0.034652,0.000000,0.000000,0.000000,0.000000,0.000000,0.000000
12467142.000000,-0.345273,0.567510,0.444034,-1.465549,-0.255344,1.976364,0.140579,-0.007674,0.275089,-0.095888,-0.403787,-0.140708,0.601585,0.090577,0.724836,-41.595722,7.714340,20.355711,0.369352,1.981307,0.028243,0.000000,0.000000,0.000000,0.000000,0.000000,0.000000
12467143.000000,-0.345265,0.567782,0.443946,-1.465950,-0.255481,1.976957,0.140669,-0.005919,0.276690,-0.095159,-0.405432,-0.137212,0.594489,0.085945,0.574079,-41.548115,7.638962,20.478697,0.369352,2.014266,0.041976,0.000000,0.000000,0.000000,0.000000,0.000000,0.000000
12467144.000000,-0.345264,0.568061,0.443857,-1.466362,-0.255621,1.977536,0.140762,-0.003758,0.279114,-0.092932,-0.403573,-0.143237,0.594938,0.088902,0.526471,-41.520344,7.615158,20.748472,0.381254,2.066451,0.021835,0.000000,0.000000,0.000000,0.000000,0.000000,0.000000
12467145.000000,-0.345258,0.568329,0.443770,-1.466766,-0.255761,1.978135,0.140851,-0.001437,0.274388,-0.090100,-0.400700,-0.139552,0.596400,0.084777,0.451093,-41.425129,7.543747,20.823851,0.393156,2.092086,0.041976,0.000000,0.000000,0.000000,0.000000,0.000000,0.000000
12467146.000000,-0.345243,0.568601,0.443685,-1.467169,-0.255894,1.978728,0.140940,0.005373,0.278095,-0.087448,-0.395916,-0.139005,0.596964,0.081619,0.304304,-41.349751,7.444565,21.046019,0.339139,2.118636,0.061202,0.000000,0.000000,0.000000,0.000000,0.000000,0.000000
12467147.000000,-0.345235,0.568877,0.443603,-1.467576,-0.256033,1.979319,0.141034,0.004126,0.274834,-0.085565,-0.393722,-0.135612,0.593897,0.087244,0.276533,-41.302143,7.345383,21.244383,0.344633,2.131454,0.001693,0.000000,0.000000,0.000000,0.000000,0.000000,0.000000
12467148.000000,-0.345227,0.569149,0.443524,-1.467979,-0.256172,1.979908,0.141116,0.006081,0.273285,-0.081666,-0.394619,-0.133597,0.589773,0.087343,0.276533,-41.226765,7.273972,21.514158,0.344633,2.144271,0.048385,0.000000,0.000000,0.000000,0.000000,0.000000,0.000000
12467149.000000,-0.345207,0.569424,0.443449,-1.468385,-0.256317,1.980499,0.141209,0.010614,0.276883,-0.078271,-0.394781,-0.136563,0.599799,0.089292,0.153547,-41.226765,7.174789,21.641111,0.362943,2.131454,0.041976,0.000000,0.000000,0.000000,0.000000,0.000000,0.000000
12467150.000000,-0.345193,0.569691,0.443377,-1.468790,-0.256466,1.981090,0.141299,0.008646,0.272223,-0.080927,-0.393270,-0.136235,0.590337,0.089752,0.105939,-41.107746,7.028000,21.835508,0.416959,2.150680,0.034652,0.000000,0.000000,0.000000,0.000000,0.000000,0.000000
12467151.000000,-0.345178,0.569961,0.443305,-1.469192,-0.256609,1.981680,0.141386,0.011321,0.268748,-0.077256,-0.398094,-0.133658,0.586267,0.086179,0.030561,-41.107746,6.905014,21.986265,0.410551,2.209274,0.034652,0.000000,0.000000,0.000000,0.000000,0.000000,0.000000
12467152.000000,-0.345161,0.570221,0.443235,-1.469591,-0.256753,1.982256,0.141475,0.009855,0.266430,-0.074536,-0.396271,-0.135796,0.583583,0.088787,-0.044818,-41.008564,6.782028,22.085447,0.410551,2.267867,0.034652,0.000000,0.000000,0.000000,0.000000,0.000000,0.000000
12467153.000000,-0.345146,0.570493,0.443170,-1.469996,-0.256893,1.982860,0.141558,0.012141,0.270316,-0.071899,-0.409817,-0.133349,0.587696,0.088668,-0.116229,-40.933186,6.635239,22.208433,0.405057,2.261459,0.074935,0.000000,0.000000,0.000000,0.000000,0.000000,0.000000
12467154.000000,-0.345132,0.570753,0.443102,-1.470404,-0.257032,1.983464,0.141650,0.009341,0.264136,-0.069170,-0.406728,-0.130696,0.588308,0.091751,-0.144000,-40.786396,6.583664,22.331419,0.374845,2.235824,0.028243,0.000000,0.000000,0.000000,0.000000,0.000000,0.000000
12467155.000000,-0.345115,0.571006,0.443043,-1.470811,-0.257169,1.984061,0.141741,0.012491,0.258460,-0.063634,-0.405584,-0.132582,0.593168,0.088137,-0.243182,-40.615803,6.389267,22.382994,0.344633,2.202865,0.015426,0.000000,0.000000,0.000000,0.000000,0.000000,0.000000
12467156.000000,-0.345100,0.571273,0.442986,-1.471211,-0.257310,1.984652,0.141825,0.014081,0.263179,-0.059572,-0.404671,-0.132043,0.588526,0.088049,-0.314593,-40.516621,6.190903,22.406797,0.356534,2.228500,0.074935,0.000000,0.000000,0.000000,0.000000,0.000000,0.000000
12467157.000000,-0.345084,0.571537,0.442928,-1.471608,-0.257458,1.985242,0.141923,0.014224,0.263565,-0.061623,-0.402989,-0.140052,0.585770,0.092262,-0.342364,-40.516621,6.067917,22.283812,0.381254,2.267867,0.009017,0.000000,0.000000,0.000000,0.000000,0.000000,0.000000
12467158.000000,-0.345068,0.571801,0.442865,-1.472007,-0.257609,1.985841,0.142012,0.015383,0.268299,-0.062114,-0.397720,-0.141512,0.585402,0.091947,-0.413775,-40.445210,6.044113,22.208433,0.386747,2.255050,0.028243,0.000000,0.000000,0.000000,0.000000,0.000000,0.000000
12467159.000000,-0.345056,0.572071,0.442814,-1.472392,-0.257763,1.986449,0.142102,0.014659,0.270180,-0.059687,-0.398869,-0.142896,0.588118,0.091878,-0.413775,-40.346027,5.921127,22.085447,0.398649,2.169906,0.041976,0.000000,0.000000,0.000000,0.000000,0.000000,0.000000
12467160.000000,-0.345047,0.572327,0.442758,-1.472775,-0.257912,1.987042,0.142195,0.010198,0.258861,-0.059486,-0.389421,-0.142207,0.589009,0.093834,-0.389971,-40.151630,5.849716,21.934690,0.386747,2.104903,0.021835,0.000000,0.000000,0.000000,0.000000,0.000000,0.000000
12467161.000000,-0.345026,0.572594,0.442703,-1.473152,-0.258057,1.987645,0.142282,0.013882,0.262551,-0.055970,-0.385961,-0.138320,0.596004,0.092446,-0.512957,-40.127827,5.774338,21.764097,0.381254,2.092086,0.061202,0.000000,0.000000,0.000000,0.000000,0.000000,0.000000
12467162.000000,-0.345019,0.572851,0.442649,-1.473528,-0.258205,1.988235,0.142372,0.011915,0.264231,-0.056578,-0.379125,-0.139482,0.591480,0.093295,-0.441546,-39.905659,5.702927,21.541929,0.386747,2.125045,0.041976,0.000000,0.000000,0.000000,0.000000,0.000000,0.000000
12467163.000000,-0.345006,0.573106,0.442598,-1.473906,-0.258349,1.988836,0.142463,0.012272,0.264083,-0.055654,-0.379617,-0.135880,0.598685,0.094231,-0.441546,-39.758869,5.579941,21.418943,0.374845,2.125045,0.028243,0.000000,0.000000,0.000000,0.000000,0.000000,0.000000
12467164.000000,-0.344992,0.573360,0.442539,-1.474268,-0.258490,1.989443,0.142555,0.013726,0.264539,-0.057486,-0.374433,-0.132668,0.599790,0.094376,-0.489153,-39.564472,5.556137,21.192808,0.344633,2.112228,0.021835,0.000000,0.000000,0.000000,0.000000,0.000000,0.000000
12467165.000000,-0.344982,0.573625,0.442482,-1.474634,-0.258628,1.990037,0.142644,0.013049,0.261885,-0.055449,-0.370610,-0.137576,0.604283,0.087893,-0.465350,-39.512897,5.528366,20.998411,0.291532,2.150680,0.067611,0.000000,0.000000,0.000000,0.000000,0.000000,0.000000
12467166.000000,-0.344973,0.573892,0.442426,-1.474989,-0.258772,1.990653,0.142734,0.011960,0.264667,-0.056978,-0.370677,-0.138680,0.603717,0.085151,-0.413775,-39.465290,5.504562,20.724669,0.261320,2.112228,0.061202,0.000000,0.000000,0.000000,0.000000,0.000000,0.000000
12467167.000000,-0.344965,0.574153,0.442367,-1.475348,-0.258919,1.991266,0.142829,0.006726,0.266159,-0.059302,-0.366870,-0.144928,0.618695,0.084443,-0.314593,-39.417683,5.528366,20.577879,0.279630,1.995040,0.015426,0.000000,0.000000,0.000000,0.000000,0.000000,0.000000
12467168.000000,-0.344955,0.574410,0.442306,-1.475704,-0.259063,1.991881,0.142911,0.007641,0.261346,-0.061517,-0.362911,-0.145475,0.610505,0.084953,-0.266986,-39.318501,5.579941,20.403318,0.308927,1.968490,0.067611,0.000000,0.000000,0.000000,0.000000,0.000000,0.000000
12467169.000000,-0.344950,0.574669,0.442242,-1.476052,-0.259204,1.992495,0.143009,0.003110,0.259283,-0.062406,-0.358672,-0.141442,0.612369,0.088335,-0.144000,-39.247089,5.603745,20.280333,0.320829,1.962081,0.021835,0.000000,0.000000,0.000000,0.000000,0.000000,0.000000
12467170.000000,-0.344943,0.574924,0.442180,-1.476397,-0.259347,1.993105,0.143105,0.004930,0.257426,-0.063610,-0.357297,-0.138440,0.610680,0.090216,-0.092425,-39.195515,5.651352,20.034361,0.356534,1.936446,0.009017,0.000000,0.000000,0.000000,0.000000,0.000000,0.000000
12467171.000000,-0.344934,0.575183,0.442113,-1.476743,-0.259481,1.993720,0.143191,0.006296,0.258740,-0.065456,-0.358273,-0.133876,0.613106,0.093921,-0.044818,-39.048725,5.750534,19.911375,0.315336,1.903487,0.074935,0.000000,0.000000,0.000000,0.000000,0.000000,0.000000
12467172.000000,-0.344933,0.575455,0.442049,-1.477078,-0.259617,1.994333,0.143290,0.004967,0.260212,-0.065117,-0.351819,-0.135588,0.611279,0.100455,0.105939,-39.100300,5.774338,19.812193,0.285123,1.877853,0.028243,0.000000,0.000000,0.000000,0.000000,0.000000,0.000000
12467173.000000,-0.344927,0.575716,0.441980,-1.477405,-0.259756,1.994935,0.143384,0.006023,0.259495,-0.066086,-0.343853,-0.136275,0.614400,0.098119,0.177350,-39.100300,5.849716,19.590025,0.255826,1.851302,0.048385,0.000000,0.000000,0.000000,0.000000,0.000000,0.000000
12467174.000000,-0.344921,0.575976,0.441913,-1.477729,-0.259892,1.995540,0.143474,0.007226,0.263786,-0.066093,-0.337700,-0.136461,0.608279,0.101291,0.228925,-39.001118,5.897324,19.463072,0.189908,1.884261,0.067611,0.000000,0.000000,0.000000,0.000000,0.000000,0.000000
12467175.000000,-0.344919,0.576234,0.441847,-1.478051,-0.260044,1.996140,0.143574,0.005808,0.260666,-0.068760,-0.330441,-0.139963,0.608189,0.101428,0.375715,-38.878132,5.921127,19.240904,0.237516,1.851302,0.021835,0.000000,0.000000,0.000000,0.000000,0.000000,0.000000
12467176.000000,-0.344912,0.576489,0.441769,-1.478380,-0.260192,1.996743,0.143661,0.006562,0.261338,-0.073534,-0.328418,-0.141301,0.600824,0.097880,0.451093,-38.731342,6.067917,19.169493,0.237516,1.865035,0.067611,0.000000,0.000000,0.000000,0.000000,0.000000,0.000000
12467177.000000,-0.344910,0.576748,0.441698,-1.478695,-0.260343,1.997347,0.143762,0.002571,0.262155,-0.071669,-0.325915,-0.139760,0.605419,0.099386,0.574079,-38.513142,6.119492,19.042540,0.291532,1.871444,0.015426,0.000000,0.000000,0.000000,0.000000,0.000000,0.000000
12467178.000000,-0.344913,0.577013,0.441621,-1.479016,-0.260490,1.997953,0.143848,0.002423,0.258752,-0.070793,-0.323650,-0.139636,0.601948,0.095593,0.724836,-38.413960,6.190903,18.947325,0.279630,1.819259,0.067611,0.000000,0.000000,0.000000,0.000000,0.000000,0.000000
12467179.000000,-0.344911,0.577270,0.441543,-1.479319,-0.260638,1.998561,0.143943,0.003682,0.259852,-0.073306,-0.317710,-0.141103,0.602829,0.096229,0.824018,-38.267170,6.266281,18.772764,0.279630,1.747848,0.034652,0.000000,0.000000,0.000000,0.000000,0.000000,0.000000
12467180.000000,-0.344903,0.577539,0.441468,-1.479633,-0.260784,1.999152,0.144040,0.002300,0.266465,-0.074575,-0.314771,-0.144955,0.597040,0.096997,0.871625,-38.215595,6.313889,18.649778,0.255826,1.767074,0.015426,0.000000,0.000000,0.000000,0.000000,0.000000,0.000000
12467181.000000,-0.344896,0.577800,0.441388,-1.479945,-0.260925,1.999742,0.144130,0.001046,0.261950,-0.078689,-0.309430,-0.139178,0.596332,0.095593,0.923200,-38.120380,6.365463,18.550596,0.219205,1.825668,0.034652,0.000000,0.000000,0.000000,0.000000,0.000000,0.000000
12467182.000000,-0.344888,0.578069,0.441306,-1.480234,-0.261074,2.000345,0.144223,0.004134,0.265619,-0.078732,-0.305965,-0.140303,0.596787,0.095539,0.947004,-38.167988,6.413071,18.328428,0.201810,1.844894,0.021835,0.000000,0.000000,0.000000,0.000000,0.000000,0.000000
12467183.000000,-0.344880,0.578332,0.441227,-1.480536,-0.261223,2.000942,0.144317,0.003448,0.261973,-0.078157,-0.303157,-0.144172,0.600070,0.094179,0.947004,-38.096577,6.436874,18.253050,0.171598,1.800033,0.048385,0.000000,0.000000,0.000000,0.000000,0.000000,0.000000
12467184.000000,-0.344876,0.578598,0.441144,-1.480832,-0.261378,2.001550,0.144412,0.003949,0.262683,-0.078891,-0.303572,-0.140807,0.601040,0.095242,1.046186,-37.973591,6.512253,18.205442,0.189908,1.754256,0.034652,0.000000,0.000000,0.000000,0.000000,0.000000,0.000000
12467185.000000,-0.344866,0.578864,0.441064,-1.481134,-0.261530,2.002156,0.144512,0.006795,0.265516,-0.078843,-0.302744,-0.142824,0.617489,0.095384,1.046186,-37.973591,6.559860,18.177671,0.231107,1.727706,0.021835,0.000000,0.000000,0.000000,0.000000,0.000000,0.000000
12467186.000000,-0.344856,0.579125,0.440984,-1.481438,-0.261686,2.002754,0.144603,0.005328,0.261611,-0.078331,-0.302541,-0.145075,0.611331,0.092302,1.046186,-37.898212,6.583664,18.177671,0.303434,1.786300,0.074935,0.000000,0.000000,0.000000,0.000000,0.000000,0.000000
12467187.000000,-0.344849,0.579388,0.440898,-1.481727,-0.261832,2.003362,0.144701,0.007023,0.261594,-0.078624,-0.298373,-0.140890,0.610143,0.094702,1.069990,-37.775227,6.635239,18.130064,0.315336,1.747848,0.028243,0.000000,0.000000,0.000000,0.000000,0.000000,0.000000
12467188.000000,-0.344836,0.579650,0.440817,-1.482024,-0.261976,2.003964,0.144796,0.010021,0.259198,-0.080169,-0.294355,-0.144069,0.608941,0.095074,1.022382,-37.727619,6.611435,18.078489,0.279630,1.735030,0.028243,0.000000,0.000000,0.000000,0.000000,0.000000,0.000000
12467189.000000,-0.344819,0.579913,0.440740,-1.482319,-0.262121,2.004572,0.144885,0.013179,0.264173,-0.080611,-0.299803,-0.143189,0.612660,0.093879,0.923200,-37.604633,6.559860,18.030882,0.249418,1.689254,0.054794,0.000000,0.000000,0.000000,0.000000,0.000000,0.000000
12467190.000000,-0.344801,0.580196,0.440662,-1.482611,-0.262260,2.005178,0.144982,0.016158,0.270494,-0.081965,-0.295966,-0.140831,0.608809,0.094719,0.796247,-37.656208,6.536057,17.983274,0.171598,1.727706,0.034652,0.000000,0.000000,0.000000,0.000000,0.000000,0.000000
12467191.000000,-0.344785,0.580471,0.440583,-1.482898,-0.262409,2.005767,0.145078,0.019770,0.269408,-0.079306,-0.291356,-0.140213,0.605485,0.094861,0.748639,-37.751423,6.488449,17.733335,0.141385,1.767074,0.028243,0.000000,0.000000,0.000000,0.000000,0.000000,0.000000
12467192.000000,-0.344769,0.580758,0.440503,-1.483184,-0.262566,2.006371,0.145169,0.019124,0.277000,-0.076736,-0.289851,-0.143259,0.605001,0.093521,0.697065,-37.898212,6.413071,17.534971,0.178007,1.735030,0.074935,0.000000,0.000000,0.000000,0.000000,0.000000,0.000000
12467193.000000,-0.344750,0.581042,0.440424,-1.483479,-0.262718,2.006962,0.145270,0.019157,0.283428,-0.076684,-0.291734,-0.143773,0.600744,0.095561,0.625654,-37.922016,6.413071,17.463560,0.201810,1.702071,0.028243,0.000000,0.000000,0.000000,0.000000,0.000000,0.000000
12467194.000000,-0.344728,0.581313,0.440342,-1.483773,-0.262869,2.007576,0.145358,0.020913,0.283947,-0.076469,-0.288756,-0.145683,0.604860,0.093789,0.474897,-37.898212,6.413071,17.340574,0.243009,1.611434,0.067611,0.000000,0.000000,0.000000,0.000000,0.000000,0.000000
12467195.000000,-0.344716,0.581599,0.440267,-1.484059,-0.263019,2.008181,0.145458,0.015709,0.288660,-0.077912,-0.284042,-0.141837,0.601429,0.095521,0.451093,-37.973591,6.365463,17.241392,0.267728,1.546432,0.021835,0.000000,0.000000,0.000000,0.000000,0.000000,0.000000
12467196.000000,-0.344698,0.581879,0.440193,-1.484353,-0.263171,2.008782,0.145553,0.015924,0.282612,-0.078940,-0.286554,-0.146016,0.597456,0.095726,0.403486,-37.922016,6.290085,17.166014,0.267728,1.532699,0.021835,0.000000,0.000000,0.000000,0.000000,0.000000,0.000000
12467197.000000,-0.344676,0.582163,0.440115,-1.484639,-0.263316,2.009378,0.145650,0.018015,0.286086,-0.080834,-0.284738,-0.145348,0.589976,0.094653,0.276533,-38.021198,6.266281,17.043028,0.255826,1.584884,0.041976,0.000000,0.000000,0.000000,0.000000,0.000000,0.000000
12467198.000000,-0.344651,0.582449,0.440044,-1.484920,-0.263459,2.009972,0.145749,0.023398,0.287132,-0.080594,-0.283444,-0.151713,0.600470,0.095283,0.129743,-38.068806,6.167099,16.920042,0.213712,1.670028,0.021835,0.000000,0.000000,0.000000,0.000000,0.000000,0.000000
12467199.000000,-0.344630,0.582732,0.439973,-1.485218,-0.263600,2.010574,0.145840,0.021586,0.279527,-0.076782,-0.285907,-0.146937,0.592248,0.093821,0.078168,-38.096577,6.044113,16.943846,0.147794,1.662704,0.067611,0.000000,0.000000,0.000000,0.000000,0.000000,0.000000
12467200.000000,-0.344608,0.583014,0.439901,-1.485503,-0.263751,2.011188,0.145943,0.024245,0.281655,-0.075866,-0.285955,-0.141076,0.596389,0.096211,0.006757,-38.167988,5.996506,16.892271,0.112089,1.611434,0.009017,0.000000,0.000000,0.000000,0.000000,0.000000,0.000000
12467201.000000,-0.344584,0.583296,0.439828,-1.485793,-0.263904,2.011781,0.146034,0.026362,0.278978,-0.075101,-0.286319,-0.145426,0.593290,0.093017,-0.068621,-38.191792,5.948898,16.892271,0.100187,1.617843,0.081344,0.000000,0.000000,0.000000,0.000000,0.000000,0.000000
12467202.000000,-0.344568,0.583587,0.439754,-1.486083,-0.264052,2.012389,0.146132,0.022737,0.282386,-0.074795,-0.290692,-0.142580,0.594713,0.093735,-0.068621,-38.243366,5.921127,16.844664,0.141385,1.605026,0.074935,0.000000,0.000000,0.000000,0.000000,0.000000,0.000000
12467203.000000,-0.344548,0.583882,0.439681,-1.486384,-0.264203,2.012984,0.146234,0.020719,0.286912,-0.074681,-0.295243,-0.145412,0.601663,0.096572,-0.092425,-38.413960,5.897324,16.920042,0.201810,1.630660,0.015426,0.000000,0.000000,0.000000,0.000000,0.000000,0.000000
12467204.000000,-0.344525,0.584171,0.439609,-1.486680,-0.264352,2.013579,0.146320,0.023442,0.283343,-0.074610,-0.294093,-0.149523,0.594823,0.088705,-0.144000,-38.461567,5.873520,16.943846,0.225614,1.559249,0.081344,0.000000,0.000000,0.000000,0.000000,0.000000,0.000000
12467205.000000,-0.344508,0.584473,0.439535,-1.486970,-0.264498,2.014175,0.146417,0.023615,0.286671,-0.071853,-0.292060,-0.148662,0.587998,0.091945,-0.116229,-38.608356,5.873520,16.920042,0.231107,1.519881,0.034652,0.000000,0.000000,0.000000,0.000000,0.000000,0.000000
12467206.000000,-0.344487,0.584763,0.439469,-1.487264,-0.264639,2.014760,0.146514,0.021714,0.285605,-0.068667,-0.293101,-0.150255,0.586293,0.093497,-0.144000,-38.632160,5.825912,16.892271,0.207303,1.539108,0.009017,0.000000,0.000000,0.000000,0.000000,0.000000,0.000000
12467207.000000,-0.344470,0.585064,0.439402,-1.487559,-0.264781,2.015352,0.146596,0.018845,0.293379,-0.068658,-0.294168,-0.151476,0.580283,0.091462,-0.116229,-38.659931,5.750534,16.844664,0.154203,1.539108,0.074935,0.000000,0.000000,0.000000,0.000000,0.000000,0.000000
12467208.000000,-0.344450,0.585367,0.439335,-1.487864,-0.264931,2.015944,0.146692,0.020459,0.295391,-0.069549,-0.298235,-0.148682,0.584039,0.093179,-0.092425,-38.731342,5.702927,16.943846,0.117582,1.578475,0.048385,0.000000,0.000000,0.000000,0.000000,0.000000,0.000000
12467209.000000,-0.344430,0.585653,0.439264,-1.488156,-0.265087,2.016523,0.146786,0.022262,0.289064,-0.070127,-0.293469,-0.152096,0.577719,0.089271,-0.092425,-38.608356,5.651352,16.868467,0.135892,1.611434,0.061202,0.000000,0.000000,0.000000,0.000000,0.000000,0.000000
12467210.000000,-0.344416,0.585944,0.439187,-1.488460,-0.265233,2.017111,0.146884,0.018411,0.290988,-0.073561,-0.295367,-0.150204,0.580964,0.092499,-0.017047,-38.437763,5.726730,16.991453,0.123990,1.656295,0.009017,0.000000,0.000000,0.000000,0.000000,0.000000,0.000000
12467211.000000,-0.344400,0.586230,0.439116,-1.488758,-0.265391,2.017696,0.146974,0.019184,0.291797,-0.074118,-0.293954,-0.150401,0.583107,0.091239,0.054365,-38.338581,5.726730,17.019224,0.183500,1.630660,0.054794,0.000000,0.000000,0.000000,0.000000,0.000000,0.000000
12467212.000000,-0.344387,0.586520,0.439042,-1.489062,-0.265540,2.018287,0.147066,0.015735,0.290081,-0.074953,-0.298520,-0.148946,0.585064,0.087349,0.153547,-38.191792,5.750534,17.142210,0.183500,1.591293,0.054794,0.000000,0.000000,0.000000,0.000000,0.000000,0.000000
12467213.000000,-0.344375,0.586822,0.438967,-1.489369,-0.265687,2.018871,0.147160,0.013842,0.292029,-0.075604,-0.301821,-0.147195,0.582657,0.090364,0.228925,-38.191792,5.774338,17.265196,0.166105,1.637069,0.034652,0.000000,0.000000,0.000000,0.000000,0.000000,0.000000
12467214.000000,-0.344356,0.587119,0.438897,-1.489674,-0.265841,2.019451,0.147244,0.014184,0.293073,-0.074408,-0.299139,-0.150691,0.584689,0.089597,0.228925,-38.314777,5.726730,17.340574,0.183500,1.597701,0.067611,0.000000,0.000000,0.000000,0.000000,0.000000,0.000000
12467215.000000,-0.344342,0.587415,0.438818,-1.489978,-0.265992,2.020032,0.147342,0.016071,0.298747,-0.072628,-0.302499,-0.152038,0.582159,0.092145,0.304304,-38.338581,5.774338,17.487364,0.135892,1.611434,0.028243,0.000000,0.000000,0.000000,0.000000,0.000000,0.000000
12467216.000000,-0.344334,0.587715,0.438742,-1.490286,-0.266151,2.020600,0.147430,0.013020,0.300219,-0.074494,-0.303396,-0.153450,0.590910,0.091774,0.427289,-38.390156,5.825912,17.562742,0.123990,1.670028,0.061202,0.000000,0.000000,0.000000,0.000000,0.000000,0.000000
12467217.000000,-0.344319,0.588005,0.438666,-1.490597,-0.266316,2.021174,0.147526,0.012557,0.295893,-0.072603,-0.305584,-0.160349,0.582016,0.093055,0.474897,-38.390156,5.873520,17.709532,0.147794,1.735030,0.048385,0.000000,0.000000,0.000000,0.000000,0.000000,0.000000
12467218.000000,-0.344307,0.588301,0.438582,-1.490897,-0.266477,2.021748,0.147623,0.014972,0.298052,-0.076094,-0.305766,-0.157372,0.576155,0.093720,0.550275,-38.338581,5.996506,17.661924,0.166105,1.767074,0.034652,0.000000,0.000000,0.000000,0.000000,0.000000,0.000000
12467219.000000,-0.344297,0.588593,0.438503,-1.491218,-0.266641,2.022326,0.147712,0.013278,0.294406,-0.075693,-0.308978,-0.162536,0.574839,0.092673,0.625654,-38.338581,5.996506,17.884092,0.178007,1.741439,0.067611,0.000000,0.000000,0.000000,0.000000,0.000000,0.000000
12467220.000000,-0.344285,0.588881,0.438419,-1.491521,-0.266800,2.022911,0.147805,0.012197,0.297625,-0.077576,-0.312461,-0.159002,0.573261,0.089237,0.697065,-38.243366,6.095688,17.955503,0.207303,1.689254,0.054794,0.000000,0.000000,0.000000,0.000000,0.000000,0.000000
12467221.000000,-0.344276,0.589182,0.438335,-1.491842,-0.266961,2.023499,0.147901,0.010706,0.301004,-0.082074,-0.314170,-0.159853,0.586320,0.091146,0.796247,-38.243366,6.190903,18.177671,0.207303,1.695663,0.034652,0.000000,0.000000,0.000000,0.000000,0.000000,0.000000
12467222.000000,-0.344262,0.589470,0.438254,-1.492152,-0.267123,2.024068,0.147998,0.011304,0.295660,-0.080652,-0.311016,-0.159577,0.579199,0.090264,0.824018,-38.191792,6.218674,18.229246,0.207303,1.735030,0.054794,0.000000,0.000000,0.000000,0.000000,0.000000,0.000000
12467223.000000,-0.344255,0.589765,0.438171,-1.492456,-0.267285,2.024647,0.148097,0.010004,0.301210,-0.079616,-0.309261,-0.160453,0.571975,0.092086,0.923200,-38.120380,6.242477,18.276854,0.201810,1.812850,0.034652,0.000000,0.000000,0.000000,0.000000,0.000000,0.000000
12467224.000000,-0.344242,0.590060,0.438078,-1.492773,-0.267453,2.025220,0.148197,0.010810,0.298759,-0.084939,-0.305875,-0.164949,0.565041,0.093328,0.947004,-38.045002,6.389267,18.399839,0.213712,1.838485,0.028243,0.000000,0.000000,0.000000,0.000000,0.000000,0.000000
12467225.000000,-0.344234,0.590357,0.437990,-1.493091,-0.267623,2.025811,0.148295,0.010064,0.303052,-0.086214,-0.312847,-0.165427,0.571506,0.094004,1.022382,-38.021198,6.436874,18.574400,0.243009,1.786300,0.015426,0.000000,0.000000,0.000000,0.000000,0.000000,0.000000
12467226.000000,-0.344215,0.590653,0.437905,-1.493405,-0.267789,2.026391,0.148389,0.012613,0.303149,-0.087009,-0.313780,-0.165222,0.565329,0.092916,0.970807,-37.949787,6.488449,18.772764,0.255826,1.779891,0.041976,0.000000,0.000000,0.000000,0.000000,0.000000,0.000000
12467227.000000,-0.344205,0.590955,0.437812,-1.493720,-0.267954,2.026964,0.148482,0.011848,0.296862,-0.090358,-0.309665,-0.165249,0.568806,0.092364,1.022382,-38.021198,6.635239,18.919554,0.303434,1.806442,0.067611,0.000000,0.000000,0.000000,0.000000,0.000000,0.000000
12467228.000000,-0.344195,0.591257,0.437724,-1.494026,-0.268117,2.027536,0.148582,0.010905,0.302952,-0.089175,-0.309701,-0.161531,0.564361,0.094693,1.093793,-38.096577,6.635239,19.042540,0.339139,1.871444,0.028243,0.000000,0.000000,0.000000,0.000000,0.000000,0.000000
12467229.000000,-0.344174,0.591566,0.437633,-1.494340,-0.268274,2.028100,0.148676,0.013531,0.306793,-0.090884,-0.310783,-0.158859,0.568899,0.088150,1.022382,-38.144184,6.734421,19.094114,0.291532,1.890670,0.074935,0.000000,0.000000,0.000000,0.000000,0.000000,0.000000
12467230.000000,-0.344158,0.591862,0.437551,-1.494656,-0.268424,2.028670,0.148774,0.016964,0.297450,-0.084720,-0.310205,-0.161620,0.566251,0.090053,1.022382,-38.144184,6.659042,19.193296,0.243009,1.942855,0.067611,0.000000,0.000000,0.000000,0.000000,0.000000,0.000000
12467231.000000,-0.344142,0.592164,0.437455,-1.494957,-0.268587,2.029248,0.148876,0.016171,0.298390,-0.087811,-0.307941,-0.157254,0.564432,0.092977,1.022382,-38.191792,6.758224,19.217100,0.231107,1.974899,0.015426,0.000000,0.000000,0.000000,0.000000,0.000000,0.000000
12467232.000000,-0.344120,0.592462,0.437367,-1.495270,-0.268746,2.029819,0.148965,0.020229,0.300891,-0.087592,-0.305614,-0.160515,0.565134,0.091531,0.970807,-38.167988,6.758224,19.240904,0.189908,1.974899,0.074935,0.000000,0.000000,0.000000,0.000000,0.000000,0.000000
12467233.000000,-0.344105,0.592757,0.437280,-1.495576,-0.268909,2.030399,0.149068,0.017969,0.299730,-0.086230,-0.304063,-0.153387,0.569607,0.093597,0.994611,-38.120380,6.706650,19.240904,0.219205,1.949264,0.041976,0.000000,0.000000,0.000000,0.000000,0.000000,0.000000
12467234.000000,-0.344085,0.593058,0.437186,-1.495889,-0.269072,2.030984,0.149170,0.021062,0.301362,-0.088992,-0.306734,-0.157490,0.584121,0.093566,0.970807,-38.045002,6.805832,19.268675,0.291532,1.930038,0.028243,0.000000,0.000000,0.000000,0.000000,0.000000,0.000000
12467235.000000,-0.344067,0.593358,0.437094,-1.496209,-0.269228,2.031554,0.149262,0.019768,0.298323,-0.088515,-0.306101,-0.158367,0.579819,0.093568,0.947004,-37.949787,6.805832,19.316282,0.308927,1.909896,0.067611,0.000000,0.000000,0.000000,0.000000,0.000000,0.000000
12467236.000000,-0.344047,0.593657,0.437010,-1.496518,-0.269389,2.032137,0.149363,0.018759,0.303678,-0.084022,-0.305313,-0.156173,0.577867,0.098967,0.923200,-37.898212,6.758224,19.340086,0.339139,1.844894,0.054794,0.000000,0.000000,0.000000,0.000000,0.000000,0.000000
12467237.000000,-0.344024,0.593951,0.436921,-1.496830,-0.269547,2.032701,0.149467,0.018615,0.299315,-0.085624,-0.305799,-0.152345,0.579589,0.098786,0.871625,-37.775227,6.782028,19.316282,0.344633,1.832076,0.028243,0.000000,0.000000,0.000000,0.000000,0.000000,0.000000
12467238.000000,-0.344002,0.594257,0.436833,-1.497136,-0.269702,2.033268,0.149564,0.018408,0.303489,-0.089094,-0.313415,-0.152724,0.572310,0.097590,0.824018,-37.751423,6.782028,19.240904,0.291532,1.897079,0.028243,0.000000,0.000000,0.000000,0.000000,0.000000,0.000000
12467239.000000,-0.343977,0.594562,0.436756,-1.497443,-0.269866,2.033830,0.149656,0.021707,0.306730,-0.085419,-0.312457,-0.154618,0.569782,0.095246,0.772443,-37.656208,6.635239,19.193296,0.273221,1.955673,0.067611,0.000000,0.000000,0.000000,0.000000,0.000000,0.000000
12467240.000000,-0.343952,0.594870,0.436671,-1.497749,-0.270029,2.034394,0.149759,0.027564,0.307928,-0.085810,-0.309829,-0.158989,0.563116,0.097301,0.724836,-37.628437,6.611435,19.070311,0.237516,1.981307,0.009017,0.000000,0.000000,0.000000,0.000000,0.000000,0.000000
12467241.000000,-0.343928,0.595171,0.436585,-1.498053,-0.270186,2.034964,0.149856,0.025119,0.308277,-0.086607,-0.308712,-0.155567,0.559676,0.095675,0.673261,-37.580830,6.611435,19.094114,0.231107,1.942855,0.028243,0.000000,0.000000,0.000000,0.000000,0.000000,0.000000
12467242.000000,-0.343906,0.595474,0.436504,-1.498357,-0.270347,2.035533,0.149951,0.025406,0.311067,-0.085431,-0.308949,-0.161849,0.563407,0.094456,0.673261,-37.604633,6.536057,19.070311,0.255826,1.884261,0.074935,0.000000,0.000000,0.000000,0.000000,0.000000,0.000000
12467243.000000,-0.343877,0.595783,0.436419,-1.498663,-0.270503,2.036103,0.150051,0.027274,0.312383,-0.082513,-0.308144,-0.162132,0.563378,0.097132,0.601850,-37.604633,6.512253,19.094114,0.261320,1.871444,0.015426,0.000000,0.000000,0.000000,0.000000,0.000000,0.000000
12467244.000000,-0.343856,0.596092,0.436344,-1.498954,-0.270668,2.036676,0.150143,0.026551,0.316571,-0.078272,-0.300959,-0.160516,0.568133,0.094967,0.625654,-37.680012,6.413071,18.994932,0.332731,1.865035,0.048385,0.000000,0.000000,0.000000,0.000000,0.000000,0.000000
12467245.000000,-0.343824,0.596396,0.436263,-1.499258,-0.270824,2.037243,0.150236,0.032434,0.311827,-0.076830,-0.300399,-0.159137,0.566859,0.095099,0.526471,-37.680012,6.365463,18.971128,0.315336,1.871444,0.074935,0.000000,0.000000,0.000000,0.000000,0.000000,0.000000
12467246.000000,-0.343801,0.596704,0.436184,-1.499550,-0.270981,2.037817,0.150338,0.031013,0.311897,-0.074976,-0.299623,-0.154310,0.570684,0.097317,0.526471,-37.656208,6.290085,18.919554,0.279630,1.838485,0.015426,0.000000,0.000000,0.000000,0.000000,0.000000,0.000000
12467247.000000,-0.343772,0.597010,0.436113,-1.499843,-0.271140,2.038387,0.150433,0.031148,0.312472,-0.072068,-0.296531,-0.158523,0.570225,0.095355,0.474897,-37.656208,6.143295,18.895750,0.249418,1.812850,0.048385,0.000000,0.000000,0.000000,0.000000,0.000000,0.000000
12467248.000000,-0.343742,0.597314,0.436031,-1.500140,-0.271299,2.038952,0.150537,0.031593,0.307348,-0.073355,-0.294351,-0.162820,0.567812,0.096329,0.403486,-37.604633,6.143295,18.871946,0.243009,1.844894,0.015426,0.000000,0.000000,0.000000,0.000000,0.000000,0.000000
12467249.000000,-0.343717,0.597620,0.435955,-1.500428,-0.271452,2.039521,0.150632,0.030311,0.305062,-0.072516,-0.291377,-0.157782,0.564217,0.098481,0.403486,-37.604633,6.067917,18.796568,0.219205,1.909896,0.067611,0.000000,0.000000,0.000000,0.000000,0.000000,0.000000
12467250.000000,-0.343684,0.597931,0.435884,-1.500715,-0.271606,2.040089,0.150738,0.031153,0.308384,-0.070896,-0.290344,-0.153848,0.565218,0.104102,0.328107,-37.680012,5.948898,18.673582,0.219205,1.897079,0.021835,0.000000,0.000000,0.000000,0.000000,0.000000,0.000000
12467251.000000,-0.343652,0.598240,0.435802,-1.501008,-0.271760,2.040673,0.150834,0.031166,0.307497,-0.073023,-0.289985,-0.156306,0.565675,0.106367,0.276533,-37.557026,5.972702,18.649778,0.225614,1.844894,0.028243,0.000000,0.000000,0.000000,0.000000,0.000000,0.000000
12467252.000000,-0.343625,0.598545,0.435729,-1.501306,-0.271917,2.041244,0.150929,0.030066,0.310301,-0.069016,-0.291208,-0.157169,0.577394,0.101620,0.276533,-37.481647,5.897324,18.697386,0.231107,1.806442,0.074935,0.000000,0.000000,0.000000,0.000000,0.000000,0.000000
12467253.000000,-0.343594,0.598859,0.435648,-1.501588,-0.272077,2.041822,0.151032,0.030592,0.312179,-0.071021,-0.285084,-0.158259,0.573953,0.102027,0.228925,-37.533222,5.897324,18.598204,0.249418,1.819259,0.021835,0.000000,0.000000,0.000000,0.000000,0.000000,0.000000
12467254.000000,-0.343564,0.599169,0.435573,-1.501866,-0.272235,2.042397,0.151131,0.030187,0.313870,-0.070715,-0.283903,-0.154056,0.565964,0.100085,0.205121,-37.481647,5.825912,18.499022,0.219205,1.832076,0.021835,0.000000,0.000000,0.000000,0.000000,0.000000,0.000000
12467255.000000,-0.343533,0.599488,0.435502,-1.502143,-0.272406,2.042974,0.151224,0.029958,0.312347,-0.073023,-0.279393,-0.160595,0.565205,0.097263,0.177350,-37.580830,5.726730,18.399839,0.243009,1.844894,0.061202,0.000000,0.000000,0.000000,0.000000,0.000000,0.000000
12467256.000000,-0.343503,0.599814,0.435426,-1.502422,-0.272570,2.043557,0.151322,0.029605,0.318441,-0.073294,-0.285819,-0.160623,0.565005,0.102554,0.153547,-37.656208,5.702927,18.352232,0.231107,1.819259,0.041976,0.000000,0.000000,0.000000,0.000000,0.000000,0.000000
12467257.000000,-0.343474,0.600131,0.435350,-1.502702,-0.272735,2.044149,0.151414,0.028953,0.317778,-0.074164,-0.280268,-0.156143,0.572664,0.098860,0.153547,-37.727619,5.702927,18.328428,0.219205,1.735030,0.081344,0.000000,0.000000,0.000000,0.000000,0.000000,0.000000
12467258.000000,-0.343438,0.600455,0.435271,-1.502975,-0.272902,2.044726,0.151514,0.033742,0.316709,-0.074753,-0.275632,-0.160706,0.577330,0.099298,0.078168,-37.898212,5.702927,18.304625,0.207303,1.682845,0.041976,0.000000,0.000000,0.000000,0.000000,0.000000,0.000000
12467259.000000,-0.343407,0.600774,0.435192,-1.503246,-0.273066,2.045309,0.151614,0.032624,0.315720,-0.075610,-0.275333,-0.157994,0.578040,0.099198,0.054365,-37.922016,5.726730,18.276854,0.231107,1.662704,0.034652,0.000000,0.000000,0.000000,0.000000,0.000000,0.000000
12467260.000000,-0.343372,0.601094,0.435111,-1.503515,-0.273233,2.045873,0.151708,0.032295,0.320815,-0.076725,-0.270683,-0.163252,0.571005,0.096367,0.006757,-38.021198,5.774338,18.205442,0.249418,1.754256,0.087753,0.000000,0.000000,0.000000,0.000000,0.000000,0.000000
12467261.000000,-0.343344,0.601421,0.435036,-1.503778,-0.273400,2.046445,0.151808,0.029639,0.318368,-0.078228,-0.266933,-0.166518,0.577800,0.096782,0.054365,-38.045002,5.726730,18.106260,0.249418,1.779891,0.067611,0.000000,0.000000,0.000000,0.000000,0.000000,0.000000
12467262.000000,-0.343314,0.601739,0.434955,-1.504046,-0.273568,2.047024,0.151907,0.029076,0.318324,-0.081439,-0.268261,-0.164603,0.573906,0.100807,0.054365,-38.021198,5.774338,18.054686,0.219205,1.800033,0.067611,0.000000,0.000000,0.000000,0.000000,0.000000,0.000000
12467263.000000,-0.343279,0.602058,0.434878,-1.504308,-0.273740,2.047602,0.152006,0.029176,0.316737,-0.079369,-0.264621,-0.172099,0.578174,0.099663,0.030561,-38.021198,5.750534,17.955503,0.225614,1.767074,0.081344,0.000000,0.000000,0.000000,0.000000,0.000000,0.000000
12467264.000000,-0.343250,0.602377,0.434792,-1.504567,-0.273904,2.048190,0.152104,0.028185,0.317144,-0.079442,-0.261137,-0.169140,0.580133,0.103423,0.054365,-37.922016,5.798141,17.931700,0.201810,1.702071,0.074935,0.000000,0.000000,0.000000,0.000000,0.000000,0.000000
12467265.000000,-0.343220,0.602695,0.434712,-1.504827,-0.274068,2.048760,0.152208,0.030267,0.320734,-0.078996,-0.260286,-0.170983,0.574570,0.102664,0.105939,-37.826801,5.825912,17.856321,0.201810,1.735030,0.034652,0.000000,0.000000,0.000000,0.000000,0.000000,0.000000
12467266.000000,-0.343190,0.603018,0.434629,-1.505088,-0.274235,2.049340,0.152311,0.029754,0.321624,-0.079094,-0.259673,-0.168399,0.575376,0.105947,0.105939,-37.802998,5.873520,17.784910,0.213712,1.779891,0.015426,0.000000,0.000000,0.000000,0.000000,0.000000,0.000000
12467267.000000,-0.343155,0.603340,0.434548,-1.505338,-0.274397,2.049923,0.152405,0.029961,0.324852,-0.078555,-0.258321,-0.162937,0.572211,0.101232,0.078168,-37.775227,5.897324,17.661924,0.219205,1.793624,0.074935,0.000000,0.000000,0.000000,0.000000,0.000000,0.000000
12467268.000000,-0.343130,0.603668,0.434470,-1.505594,-0.274556,2.050507,0.152510,0.027544,0.323978,-0.077641,-0.257965,-0.160824,0.575990,0.106346,0.153547,-37.874409,5.897324,17.586546,0.189908,1.773483,0.034652,0.000000,0.000000,0.000000,0.000000,0.000000,0.000000
12467269.000000,-0.343098,0.604004,0.434385,-1.505844,-0.274720,2.051090,0.152607,0.027680,0.328862,-0.077403,-0.254881,-0.160504,0.570083,0.103296,0.153547,-38.021198,5.921127,17.511168,0.171598,1.695663,0.034652,0.000000,0.000000,0.000000,0.000000,0.000000,0.000000
12467270.000000,-0.343065,0.604346,0.434299,-1.506095,-0.274891,2.051679,0.152703,0.028312,0.335949,-0.081771,-0.251255,-0.165653,0.580896,0.103663,0.129743,-38.243366,5.996506,17.511168,0.201810,1.656295,0.067611,0.000000,0.000000,0.000000,0.000000,0.000000,0.000000
12467271.000000,-0.343036,0.604683,0.434218,-1.506343,-0.275057,2.052245,0.152806,0.027232,0.338254,-0.078933,-0.250764,-0.168862,0.576916,0.103929,0.177350,-38.338581,5.948898,17.487364,0.219205,1.649886,0.041976,0.000000,0.000000,0.000000,0.000000,0.000000,0.000000
12467272.000000,-0.343006,0.605019,0.434132,-1.506589,-0.275217,2.052820,0.152908,0.026786,0.337449,-0.078634,-0.247861,-0.163094,0.573156,0.102253,0.205121,-38.485371,5.972702,17.487364,0.219205,1.649886,0.028243,0.000000,0.000000,0.000000,0.000000,0.000000,0.000000
12467273.000000,-0.342972,0.605346,0.434047,-1.506833,-0.275383,2.053377,0.153007,0.031158,0.331945,-0.080955,-0.244556,-0.162221,0.569830,0.099447,0.177350,-38.536945,5.972702,17.463560,0.225614,1.695663,0.048385,0.000000,0.000000,0.000000,0.000000,0.000000,0.000000
12467274.000000,-0.342941,0.605681,0.433961,-1.507073,-0.275540,2.053943,0.153114,0.030695,0.326801,-0.082586,-0.249083,-0.160745,0.567067,0.099225,0.153547,-38.560749,5.972702,17.511168,0.189908,1.714889,0.021835,0.000000,0.000000,0.000000,0.000000,0.000000,0.000000
12467275.000000,-0.342908,0.606013,0.433872,-1.507321,-0.275701,2.054510,0.153212,0.030471,0.330577,-0.082470,-0.249592,-0.159841,0.566150,0.096939,0.129743,-38.513142,6.044113,17.511168,0.154203,1.735030,0.054794,0.000000,0.000000,0.000000,0.000000,0.000000,0.000000
12467276.000000,-0.342881,0.606347,0.433788,-1.507569,-0.275865,2.055067,0.153312,0.027944,0.328144,-0.083749,-0.247874,-0.163103,0.564427,0.102072,0.205121,-38.461567,6.044113,17.562742,0.129484,1.773483,0.028243,0.000000,0.000000,0.000000,0.000000,0.000000,0.000000
12467277.000000,-0.342849,0.606683,0.433703,-1.507811,-0.276032,2.055633,0.153412,0.027437,0.331109,-0.084784,-0.243924,-0.163142,0.558475,0.103755,0.228925,-38.461567,6.044113,17.634153,0.123990,1.779891,0.054794,0.000000,0.000000,0.000000,0.000000,0.000000,0.000000
12467278.000000,-0.342820,0.607032,0.433616,-1.508050,-0.276204,2.056188,0.153512,0.029974,0.339705,-0.086747,-0.244442,-0.167704,0.559782,0.101061,0.276533,-38.584553,6.095688,17.610350,0.159696,1.793624,0.067611,0.000000,0.000000,0.000000,0.000000,0.000000,0.000000
12467279.000000,-0.342788,0.607364,0.433528,-1.508300,-0.276368,2.056753,0.153614,0.032793,0.332380,-0.086776,-0.244822,-0.165409,0.555813,0.100981,0.276533,-38.584553,6.095688,17.685728,0.159696,1.806442,0.034652,0.000000,0.000000,0.000000,0.000000,0.000000,0.000000
12467280.000000,-0.342759,0.607711,0.433443,-1.508535,-0.276538,2.057321,0.153715,0.030398,0.338035,-0.086397,-0.245038,-0.165762,0.558856,0.098584,0.328107,-38.659931,6.067917,17.634153,0.183500,1.786300,0.048385,0.000000,0.000000,0.000000,0.000000,0.000000,0.000000
12467281.000000,-0.342720,0.608054,0.433352,-1.508778,-0.276704,2.057880,0.153810,0.031619,0.335391,-0.085440,-0.245414,-0.169008,0.560407,0.097171,0.252729,-38.683735,6.143295,17.610350,0.201810,1.786300,0.074935,0.000000,0.000000,0.000000,0.000000,0.000000,0.000000
12467282.000000,-0.342682,0.608397,0.433267,-1.509018,-0.276863,2.058442,0.153909,0.035861,0.338548,-0.085281,-0.244571,-0.161243,0.555903,0.097132,0.177350,-38.755146,6.119492,17.511168,0.159696,1.767074,0.061202,0.000000,0.000000,0.000000,0.000000,0.000000,0.000000
12467283.000000,-0.342651,0.608750,0.433175,-1.509258,-0.277032,2.059001,0.154009,0.032404,0.348413,-0.086525,-0.240874,-0.164954,0.554952,0.097186,0.228925,-38.901936,6.143295,17.411985,0.159696,1.727706,0.048385,0.000000,0.000000,0.000000,0.000000,0.000000,0.000000
12467284.000000,-0.342617,0.609089,0.433085,-1.509500,-0.277204,2.059565,0.154113,0.034955,0.336926,-0.086882,-0.236991,-0.167783,0.552940,0.097498,0.205121,-38.953510,6.143295,17.388182,0.159696,1.708480,0.021835,0.000000,0.000000,0.000000,0.000000,0.000000,0.000000
12467285.000000,-0.342586,0.609440,0.432996,-1.509738,-0.277378,2.060136,0.154208,0.032543,0.345167,-0.084508,-0.239138,-0.167483,0.556347,0.094809,0.228925,-39.048725,6.167099,17.312803,0.178007,1.676437,0.067611,0.000000,0.000000,0.000000,0.000000,0.000000,0.000000
12467286.000000,-0.342550,0.609782,0.432914,-1.509988,-0.277547,2.060685,0.154312,0.031853,0.339748,-0.083679,-0.240721,-0.169501,0.551510,0.096698,0.205121,-39.048725,6.095688,17.388182,0.178007,1.741439,0.034652,0.000000,0.000000,0.000000,0.000000,0.000000,0.000000
12467287.000000,-0.342519,0.610123,0.432826,-1.510228,-0.277716,2.061254,0.154414,0.033679,0.343228,-0.081666,-0.239823,-0.168888,0.554401,0.101454,0.228925,-39.024921,6.095688,17.364378,0.213712,1.721298,0.021835,0.000000,0.000000,0.000000,0.000000,0.000000,0.000000
12467288.000000,-0.342481,0.610461,0.432736,-1.510484,-0.277883,2.061814,0.154512,0.036953,0.348347,-0.083313,-0.245523,-0.165877,0.563891,0.103387,0.177350,-38.901936,6.095688,17.487364,0.207303,1.708480,0.048385,0.000000,0.000000,0.000000,0.000000,0.000000,0.000000
12467289.000000,-0.342439,0.610794,0.432644,-1.510734,-0.278047,2.062378,0.154605,0.036868,0.341992,-0.088833,-0.244103,-0.167158,0.567791,0.104488,0.078168,-38.854328,6.143295,17.511168,0.178007,1.735030,0.087753,0.000000,0.000000,0.000000,0.000000,0.000000,0.000000
12467290.000000,-0.342401,0.611141,0.432557,-1.510983,-0.278209,2.062954,0.154710,0.038940,0.347509,-0.087594,-0.244837,-0.165698,0.566795,0.102746,0.030561,-38.830524,6.095688,17.610350,0.154203,1.735030,0.067611,0.000000,0.000000,0.000000,0.000000,0.000000,0.000000
12467291.000000,-0.342366,0.611482,0.432470,-1.511226,-0.278375,2.063509,0.154814,0.035864,0.341539,-0.086627,-0.242395,-0.167192,0.561664,0.101889,0.030561,-38.806721,6.044113,17.610350,0.123990,1.741439,0.041976,0.000000,0.000000,0.000000,0.000000,0.000000,0.000000
12467292.000000,-0.342327,0.611832,0.432381,-1.511470,-0.278550,2.064077,0.154908,0.037964,0.342349,-0.088950,-0.244241,-0.166238,0.560828,0.099157,-0.017047,-38.854328,5.996506,17.534971,0.154203,1.754256,0.074935,0.000000,0.000000,0.000000,0.000000,0.000000,0.000000
12467293.000000,-0.342289,0.612178,0.432288,-1.511713,-0.278726,2.064635,0.155015,0.039828,0.345381,-0.089441,-0.242751,-0.166574,0.557756,0.104802,-0.068621,-38.778950,6.020309,17.534971,0.189908,1.741439,0.015426,0.000000,0.000000,0.000000,0.000000,0.000000,0.000000
12467294.000000,-0.342251,0.612521,0.432198,-1.511950,-0.278895,2.065197,0.155115,0.040022,0.341379,-0.085526,-0.237120,-0.168656,0.555501,0.101263,-0.068621,-38.806721,5.996506,17.487364,0.183500,1.721298,0.015426,0.000000,0.000000,0.000000,0.000000,0.000000,0.000000
12467295.000000,-0.342212,0.612875,0.432111,-1.512193,-0.279064,2.065753,0.155209,0.037906,0.348331,-0.085147,-0.240148,-0.167470,0.547267,0.098532,-0.116229,-38.830524,5.948898,17.463560,0.189908,1.702071,0.048385,0.000000,0.000000,0.000000,0.000000,0.000000,0.000000
12467296.000000,-0.342175,0.613231,0.432022,-1.512438,-0.279234,2.066311,0.155315,0.038503,0.349661,-0.089732,-0.242051,-0.164702,0.552232,0.099048,-0.116229,-38.977314,5.972702,17.435789,0.178007,1.682845,0.015426,0.000000,0.000000,0.000000,0.000000,0.000000,0.000000
12467297.000000,-0.342137,0.613577,0.431929,-1.512683,-0.279403,2.066869,0.155409,0.039573,0.348553,-0.093012,-0.238937,-0.166435,0.549954,0.095390,-0.144000,-39.048725,5.996506,17.463560,0.147794,1.695663,0.081344,0.000000,0.000000,0.000000,0.000000,0.000000,0.000000
12467298.000000,-0.342103,0.613928,0.431841,-1.512926,-0.279581,2.067433,0.155516,0.035309,0.347111,-0.093820,-0.241112,-0.170289,0.556692,0.100735,-0.092425,-39.124104,5.972702,17.562742,0.141385,1.741439,0.054794,0.000000,0.000000,0.000000,0.000000,0.000000,0.000000
12467299.000000,-0.342070,0.614271,0.431753,-1.513176,-0.279766,2.067994,0.155622,0.035675,0.345163,-0.095027,-0.245186,-0.176273,0.554118,0.100653,-0.044818,-39.147907,5.948898,17.661924,0.147794,1.741439,0.021835,0.000000,0.000000,0.000000,0.000000,0.000000,0.000000
12467300.000000,-0.342035,0.614623,0.431663,-1.513423,-0.279949,2.068555,0.155719,0.033129,0.347831,-0.092637,-0.245460,-0.173994,0.554633,0.101274,-0.017047,-39.171711,5.921127,17.757139,0.178007,1.767074,0.087753,0.000000,0.000000,0.000000,0.000000,0.000000,0.000000
12467301.000000,-0.342000,0.614960,0.431573,-1.513674,-0.280132,2.069109,0.155829,0.030739,0.346741,-0.091602,-0.249293,-0.179615,0.566520,0.102326,0.030561,-39.072529,5.921127,17.884092,0.195402,1.806442,0.015426,0.000000,0.000000,0.000000,0.000000,0.000000,0.000000
12467302.000000,-0.341965,0.615302,0.431481,-1.513937,-0.280318,2.069671,0.155934,0.029100,0.343870,-0.090744,-0.253046,-0.184407,0.570360,0.100494,0.078168,-39.024921,5.921127,18.054686,0.237516,1.819259,0.009017,0.000000,0.000000,0.000000,0.000000,0.000000,0.000000
12467303.000000,-0.341927,0.615651,0.431386,-1.514194,-0.280495,2.070244,0.156031,0.033002,0.346213,-0.088713,-0.252432,-0.179411,0.569259,0.101356,0.054365,-39.048725,5.996506,18.205442,0.243009,1.806442,0.074935,0.000000,0.000000,0.000000,0.000000,0.000000,0.000000
12467304.000000,-0.341890,0.615995,0.431294,-1.514444,-0.280670,2.070795,0.156142,0.035665,0.343661,-0.089015,-0.246927,-0.177983,0.569565,0.101866,0.030561,-39.024921,6.020309,18.304625,0.231107,1.779891,0.028243,0.000000,0.000000,0.000000,0.000000,0.000000,0.000000
12467305.000000,-0.341859,0.616354,0.431203,-1.514695,-0.280847,2.071355,0.156244,0.034819,0.344870,-0.089026,-0.253781,-0.172418,0.561216,0.104651,0.129743,-39.100300,6.044113,18.376036,0.195402,1.806442,0.028243,0.000000,0.000000,0.000000,0.000000,0.000000,0.000000
12467306.000000,-0.341822,0.616709,0.431113,-1.514943,-0.281028,2.071910,0.156350,0.033792,0.350713,-0.088083,-0.249342,-0.175247,0.558000,0.106516,0.105939,-39.171711,6.020309,18.376036,0.219205,1.844894,0.015426,0.000000,0.000000,0.000000,0.000000,0.000000,0.000000
12467307.000000,-0.341786,0.617067,0.431017,-1.515195,-0.281205,2.072456,0.156445,0.032494,0.350442,-0.089174,-0.250434,-0.179528,0.553853,0.101273,0.105939,-39.270893,6.067917,18.427610,0.219205,1.877853,0.074935,0.000000,0.000000,0.000000,0.000000,0.000000,0.000000
12467308.000000,-0.341756,0.617418,0.430926,-1.515443,-0.281381,2.073009,0.156554,0.029074,0.351826,-0.088277,-0.254527,-0.179757,0.547157,0.101270,0.205121,-39.318501,6.044113,18.475218,0.207303,1.865035,0.034652,0.000000,0.000000,0.000000,0.000000,0.000000,0.000000
12467309.000000,-0.341726,0.617775,0.430841,-1.515695,-0.281561,2.073556,0.156661,0.027789,0.357806,-0.086586,-0.250302,-0.179546,0.554125,0.103709,0.252729,-39.417683,5.972702,18.499022,0.225614,1.812850,0.048385,0.000000,0.000000,0.000000,0.000000,0.000000,0.000000
12467310.000000,-0.341687,0.618128,0.430740,-1.515951,-0.281733,2.074110,0.156763,0.031834,0.350116,-0.089141,-0.255466,-0.182282,0.552488,0.106311,0.228925,-39.441486,6.067917,18.649778,0.207303,1.786300,0.054794,0.000000,0.000000,0.000000,0.000000,0.000000,0.000000
12467311.000000,-0.341655,0.618482,0.430645,-1.516190,-0.281909,2.074661,0.156873,0.033317,0.352466,-0.092051,-0.254325,-0.178664,0.555119,0.105268,0.276533,-39.417683,6.095688,18.673582,0.237516,1.793624,0.009017,0.000000,0.000000,0.000000,0.000000,0.000000,0.000000
12467312.000000,-0.341621,0.618834,0.430546,-1.516442,-0.282088,2.075198,0.156964,0.034851,0.346281,-0.093203,-0.251957,-0.181983,0.550591,0.099799,0.304304,-39.441486,6.190903,18.772764,0.231107,1.865035,0.081344,0.000000,0.000000,0.000000,0.000000,0.000000,0.000000
12467313.000000,-0.341591,0.619184,0.430454,-1.516687,-0.282266,2.075736,0.157074,0.035003,0.354094,-0.094214,-0.249462,-0.177001,0.542213,0.100889,0.375715,-39.393879,6.167099,18.820372,0.231107,1.903487,0.015426,0.000000,0.000000,0.000000,0.000000,0.000000,0.000000
12467314.000000,-0.341554,0.619539,0.430357,-1.516936,-0.282445,2.076278,0.157180,0.037644,0.356156,-0.097498,-0.245372,-0.177257,0.542319,0.104037,0.351911,-39.342304,6.242477,18.919554,0.249418,1.936446,0.009017,0.000000,0.000000,0.000000,0.000000,0.000000,0.000000
12467315.000000,-0.341517,0.619884,0.430262,-1.517191,-0.282618,2.076824,0.157270,0.038498,0.354121,-0.094758,-0.247987,-0.176000,0.540043,0.100248,0.351911,-39.270893,6.242477,18.994932,0.231107,1.909896,0.081344,0.000000,0.000000,0.000000,0.000000,0.000000,0.000000
12467316.000000,-0.341485,0.620231,0.430163,-1.517435,-0.282790,2.077382,0.157378,0.038770,0.356056,-0.094103,-0.245589,-0.172859,0.542441,0.101250,0.375715,-39.124104,6.290085,19.018736,0.225614,1.877853,0.015426,0.000000,0.000000,0.000000,0.000000,0.000000,0.000000
12467317.000000,-0.341456,0.620573,0.430063,-1.517684,-0.282963,2.077919,0.157475,0.034316,0.350501,-0.096794,-0.242662,-0.169085,0.537985,0.098569,0.451093,-39.024921,6.341660,19.141722,0.225614,1.903487,0.041976,0.000000,0.000000,0.000000,0.000000,0.000000,0.000000
12467318.000000,-0.341419,0.620927,0.429968,-1.517917,-0.283134,2.078455,0.157577,0.033481,0.357485,-0.097373,-0.243131,-0.168001,0.536288,0.099105,0.427289,-38.953510,6.341660,19.094114,0.243009,1.974899,0.001693,0.000000,0.000000,0.000000,0.000000,0.000000,0.000000
12467319.000000,-0.341386,0.621286,0.429865,-1.518163,-0.283309,2.078984,0.157678,0.035057,0.355677,-0.099773,-0.242823,-0.169875,0.546764,0.097125,0.451093,-38.925739,6.413071,19.141722,0.243009,2.072860,0.021835,0.000000,0.000000,0.000000,0.000000,0.000000,0.000000
12467320.000000,-0.341354,0.621640,0.429758,-1.518406,-0.283491,2.079533,0.157782,0.035564,0.356940,-0.101547,-0.241343,-0.172129,0.548855,0.096443,0.502668,-38.977314,6.488449,19.141722,0.267728,2.027084,0.021835,0.000000,0.000000,0.000000,0.000000,0.000000,0.000000
12467321.000000,-0.341317,0.621995,0.429658,-1.518647,-0.283659,2.080095,0.157886,0.037919,0.358616,-0.099056,-0.242403,-0.168478,0.550782,0.095820,0.474897,-38.953510,6.536057,19.217100,0.225614,1.962081,0.034652,0.000000,0.000000,0.000000,0.000000,0.000000,0.000000
12467322.000000,-0.341282,0.622342,0.429561,-1.518888,-0.283831,2.080634,0.157998,0.038107,0.354158,-0.096036,-0.240736,-0.170401,0.546788,0.102311,0.502668,-38.977314,6.536057,19.217100,0.231107,1.916305,0.001693,0.000000,0.000000,0.000000,0.000000,0.000000,0.000000
12467323.000000,-0.341247,0.622702,0.429468,-1.519125,-0.284003,2.081186,0.158099,0.035057,0.354764,-0.098099,-0.242887,-0.172306,0.549265,0.099985,0.526471,-39.001118,6.460678,19.268675,0.249418,1.942855,0.021835,0.000000,0.000000,0.000000,0.000000,0.000000,0.000000
12467324.000000,-0.341212,0.623059,0.429363,-1.519357,-0.284170,2.081736,0.158203,0.036916,0.354587,-0.097883,-0.235066,-0.174010,0.548483,0.102630,0.526471,-39.048725,6.559860,19.268675,0.243009,1.962081,0.034652,0.000000,0.000000,0.000000,0.000000,0.000000,0.000000
12467325.000000,-0.341173,0.623411,0.429262,-1.519592,-0.284345,2.082285,0.158311,0.035219,0.351709,-0.102192,-0.234100,-0.174226,0.551851,0.105285,0.502668,-39.048725,6.583664,19.340086,0.243009,1.988631,0.009017,0.000000,0.000000,0.000000,0.000000,0.000000,0.000000
12467326.000000,-0.341137,0.623769,0.429155,-1.519828,-0.284519,2.082829,0.158419,0.036761,0.352555,-0.103377,-0.233614,-0.175362,0.548647,0.102598,0.502668,-39.072529,6.659042,19.415464,0.225614,2.020675,0.009017,0.000000,0.000000,0.000000,0.000000,0.000000,0.000000
12467327.000000,-0.341096,0.624118,0.429059,-1.520057,-0.284699,2.083380,0.158520,0.035637,0.351859,-0.101357,-0.231605,-0.175092,0.554934,0.098609,0.451093,-39.048725,6.611435,19.439268,0.219205,1.962081,0.061202,0.000000,0.000000,0.000000,0.000000,0.000000,0.000000
12467328.000000,-0.341057,0.624484,0.428960,-1.520290,-0.284880,2.083935,0.158631,0.037886,0.353629,-0.103340,-0.231795,-0.176328,0.553429,0.104020,0.403486,-39.100300,6.583664,19.514647,0.249418,1.930038,0.015426,0.000000,0.000000,0.000000,0.000000,0.000000,0.000000
12467329.000000,-0.341017,0.624841,0.428858,-1.520521,-0.285058,2.084482,0.158739,0.035864,0.355406,-0.105790,-0.233209,-0.169451,0.554378,0.110578,0.375715,-39.072529,6.611435,19.514647,0.279630,1.974899,0.021835,0.000000,0.000000,0.000000,0.000000,0.000000,0.000000
12467330.000000,-0.340981,0.625204,0.428764,-1.520744,-0.285240,2.085026,0.158840,0.036406,0.356515,-0.100173,-0.229098,-0.171562,0.547807,0.109632,0.403486,-39.147907,6.559860,19.439268,0.297025,1.981307,0.067611,0.000000,0.000000,0.000000,0.000000,0.000000,0.000000
12467331.000000,-0.340941,0.625563,0.428665,-1.520968,-0.285417,2.085570,0.158957,0.034821,0.359627,-0.099795,-0.225293,-0.169873,0.545932,0.109159,0.375715,-39.147907,6.536057,19.439268,0.315336,1.974899,0.001693,0.000000,0.000000,0.000000,0.000000,0.000000,0.000000
12467332.000000,-0.340903,0.625931,0.428567,-1.521186,-0.285587,2.086109,0.159064,0.036956,0.368533,-0.099596,-0.223749,-0.169117,0.548531,0.108911,0.351911,-39.171711,6.512253,19.363890,0.261320,2.027084,0.028243,0.000000,0.000000,0.000000,0.000000,0.000000,0.000000
12467333.000000,-0.340856,0.626301,0.428470,-1.521398,-0.285763,2.086655,0.159176,0.040114,0.366088,-0.099384,-0.219297,-0.172495,0.543527,0.110763,0.252729,-39.366108,6.488449,19.141722,0.195402,2.027084,0.009017,0.000000,0.000000,0.000000,0.000000,0.000000,0.000000
12467334.000000,-0.340819,0.626673,0.428375,-1.521615,-0.285940,2.087215,0.159286,0.039591,0.371789,-0.099194,-0.220314,-0.169774,0.540463,0.109969,0.276533,-39.512897,6.460678,19.094114,0.171598,1.995040,0.041976,0.000000,0.000000,0.000000,0.000000,0.000000,0.000000
12467335.000000,-0.340777,0.627039,0.428280,-1.521831,-0.286118,2.087763,0.159397,0.040394,0.366632,-0.098592,-0.216683,-0.171369,0.538693,0.106331,0.252729,-39.635883,6.413071,19.018736,0.171598,1.949264,0.041976,0.000000,0.000000,0.000000,0.000000,0.000000,0.000000
12467336.000000,-0.340736,0.627413,0.428181,-1.522048,-0.286295,2.088322,0.159508,0.041123,0.366967,-0.095970,-0.218243,-0.169883,0.545225,0.104751,0.228925,-39.810444,6.413071,18.971128,0.195402,1.909896,0.009017,0.000000,0.000000,0.000000,0.000000,0.000000,0.000000
12467337.000000,-0.340695,0.627791,0.428084,-1.522263,-0.286477,2.088875,0.159611,0.041111,0.371455,-0.094089,-0.215645,-0.174163,0.556043,0.104497,0.228925,-39.929462,6.413071,18.895750,0.273221,1.909896,0.067611,0.000000,0.000000,0.000000,0.000000,0.000000,0.000000
12467338.000000,-0.340654,0.628156,0.427989,-1.522484,-0.286655,2.089441,0.159721,0.041152,0.368384,-0.095338,-0.212338,-0.174775,0.563207,0.103263,0.228925,-40.004841,6.389267,18.895750,0.291532,1.897079,0.034652,0.000000,0.000000,0.000000,0.000000,0.000000,0.000000
12467339.000000,-0.340609,0.628526,0.427891,-1.522689,-0.286828,2.090006,0.159830,0.038948,0.373011,-0.096811,-0.207520,-0.176137,0.559221,0.106656,0.177350,-39.981037,6.389267,18.796568,0.285123,1.871444,0.009017,0.000000,0.000000,0.000000,0.000000,0.000000,0.000000
12467340.000000,-0.340560,0.628881,0.427791,-1.522910,-0.287002,2.090546,0.159933,0.041714,0.365026,-0.098996,-0.210161,-0.177305,0.559084,0.107859,0.078168,-39.881855,6.436874,18.848143,0.207303,1.916305,0.028243,0.000000,0.000000,0.000000,0.000000,0.000000,0.000000
12467341.000000,-0.340516,0.629249,0.427700,-1.523114,-0.287181,2.091104,0.160038,0.042261,0.367014,-0.096913,-0.210036,-0.180185,0.554932,0.105172,0.030561,-39.782673,6.341660,18.721189,0.178007,1.923629,0.009017,0.000000,0.000000,0.000000,0.000000,0.000000,0.000000
12467342.000000,-0.340469,0.629619,0.427605,-1.523329,-0.287359,2.091650,0.160143,0.043546,0.365557,-0.097426,-0.210611,-0.179039,0.551965,0.100898,-0.044818,-39.758869,6.313889,18.697386,0.141385,1.962081,0.034652,0.000000,0.000000,0.000000,0.000000,0.000000,0.000000
12467343.000000,-0.340423,0.629988,0.427507,-1.523534,-0.287542,2.092190,0.160250,0.046485,0.363086,-0.098462,-0.209071,-0.174093,0.544357,0.104377,-0.044818,-39.758869,6.313889,18.598204,0.147794,2.007858,0.028243,0.000000,0.000000,0.000000,0.000000,0.000000,0.000000
12467344.000000,-0.340376,0.630362,0.427408,-1.523734,-0.287722,2.092739,0.160362,0.045581,0.364750,-0.098552,-0.209634,-0.172874,0.536520,0.107909,-0.068621,-39.782673,6.290085,18.427610,0.183500,1.955673,-0.004716,0.000000,0.000000,0.000000,0.000000,0.000000,0.000000
12467345.000000,-0.340330,0.630732,0.427312,-1.523947,-0.287899,2.093284,0.160463,0.044851,0.370402,-0.095542,-0.208329,-0.174561,0.540834,0.106128,-0.092425,-39.834248,6.266281,18.451414,0.219205,1.923629,0.074935,0.000000,0.000000,0.000000,0.000000,0.000000,0.000000
12467346.000000,-0.340283,0.631115,0.427214,-1.524149,-0.288075,2.093837,0.160575,0.043636,0.368939,-0.097347,-0.206329,-0.179072,0.539595,0.106617,-0.092425,-39.929462,6.290085,18.427610,0.219205,1.851302,0.028243,0.000000,0.000000,0.000000,0.000000,0.000000,0.000000
12467347.000000,-0.340236,0.631495,0.427121,-1.524344,-0.288257,2.094396,0.160684,0.043532,0.377516,-0.097133,-0.203896,-0.179027,0.546375,0.104684,-0.116229,-40.076252,6.266281,18.376036,0.207303,1.819259,0.001693,0.000000,0.000000,0.000000,0.000000,0.000000,0.000000
12467348.000000,-0.340191,0.631868,0.427022,-1.524539,-0.288443,2.094938,0.160789,0.042815,0.374388,-0.095538,-0.203690,-0.182040,0.541234,0.110498,-0.116229,-40.076252,6.290085,18.276854,0.201810,1.832076,0.009017,0.000000,0.000000,0.000000,0.000000,0.000000,0.000000
12467349.000000,-0.340138,0.632240,0.426924,-1.524736,-0.288618,2.095480,0.160889,0.044186,0.379957,-0.096762,-0.199303,-0.176325,0.540209,0.104450,-0.191607,-40.076252,6.290085,18.229246,0.183500,1.858627,0.061202,0.000000,0.000000,0.000000,0.000000,0.000000,0.000000
12467350.000000,-0.340091,0.632616,0.426830,-1.524933,-0.288797,2.096020,0.160995,0.043359,0.384430,-0.096626,-0.199604,-0.175937,0.540995,0.102511,-0.191607,-40.004841,6.242477,18.205442,0.178007,1.884261,0.048385,0.000000,0.000000,0.000000,0.000000,0.000000,0.000000
12467351.000000,-0.340045,0.632978,0.426732,-1.525127,-0.288976,2.096567,0.161106,0.045948,0.377938,-0.094523,-0.196443,-0.175874,0.538401,0.107533,-0.191607,-39.881855,6.242477,18.177671,0.183500,1.871444,0.001693,0.000000,0.000000,0.000000,0.000000,0.000000,0.000000
12467352.000000,-0.339996,0.633354,0.426633,-1.525328,-0.289152,2.097118,0.161205,0.048801,0.383070,-0.096161,-0.198575,-0.173107,0.540445,0.101886,-0.215411,-39.810444,6.242477,18.205442,0.189908,1.858627,0.061202,0.000000,0.000000,0.000000,0.000000,0.000000,0.000000
12467353.000000,-0.339950,0.633720,0.426536,-1.525523,-0.289327,2.097652,0.161315,0.046202,0.375092,-0.097281,-0.194466,-0.177620,0.532870,0.106741,-0.191607,-39.758869,6.242477,18.153868,0.183500,1.858627,0.021835,0.000000,0.000000,0.000000,0.000000,0.000000,0.000000
12467354.000000,-0.339904,0.634089,0.426433,-1.525717,-0.289506,2.098193,0.161424,0.044447,0.370263,-0.096524,-0.193714,-0.173121,0.529591,0.109598,-0.167803,-39.612080,6.313889,18.177671,0.171598,1.877853,-0.011124,0.000000,0.000000,0.000000,0.000000,0.000000,0.000000
12467355.000000,-0.339856,0.634463,0.426344,-1.525906,-0.289692,2.098739,0.161525,0.047208,0.368177,-0.095839,-0.187682,-0.174338,0.540423,0.102923,-0.167803,-39.564472,6.242477,18.106260,0.183500,1.865035,0.061202,0.000000,0.000000,0.000000,0.000000,0.000000,0.000000
12467356.000000,-0.339812,0.634836,0.426248,-1.526094,-0.289875,2.099274,0.161636,0.048050,0.369450,-0.097195,-0.188187,-0.175385,0.540867,0.107342,-0.116229,-39.588276,6.242477,17.983274,0.213712,1.884261,0.015426,0.000000,0.000000,0.000000,0.000000,0.000000,0.000000
12467357.000000,-0.339766,0.635212,0.426154,-1.526275,-0.290050,2.099812,0.161742,0.046570,0.372647,-0.096937,-0.184643,-0.171125,0.540677,0.108066,-0.116229,-39.612080,6.190903,17.808714,0.178007,1.923629,0.048385,0.000000,0.000000,0.000000,0.000000,0.000000,0.000000
12467358.000000,-0.339718,0.635584,0.426057,-1.526472,-0.290227,2.100345,0.161851,0.048164,0.371763,-0.094815,-0.188754,-0.176272,0.544374,0.104472,-0.092425,-39.659687,6.190903,17.808714,0.171598,1.865035,0.054794,0.000000,0.000000,0.000000,0.000000,0.000000,0.000000
12467359.000000,-0.339675,0.635956,0.425963,-1.526656,-0.290399,2.100901,0.161959,0.048616,0.366636,-0.095629,-0.189402,-0.179978,0.551645,0.104075,-0.044818,-39.612080,6.167099,17.733335,0.159696,1.779891,0.009017,0.000000,0.000000,0.000000,0.000000,0.000000,0.000000
12467360.000000,-0.339632,0.636327,0.425863,-1.526844,-0.290576,2.101455,0.162061,0.046386,0.368478,-0.097619,-0.187788,-0.179042,0.551815,0.103891,-0.017047,-39.588276,6.190903,17.661924,0.129484,1.741439,0.067611,0.000000,0.000000,0.000000,0.000000,0.000000,0.000000
12467361.000000,-0.339592,0.636694,0.425764,-1.527029,-0.290761,2.102001,0.162172,0.043094,0.366702,-0.095291,-0.188106,-0.182824,0.549814,0.107266,0.078168,-39.489094,6.190903,17.534971,0.135892,1.754256,0.021835,0.000000,0.000000,0.000000,0.000000,0.000000,0.000000
12467362.000000,-0.339542,0.637065,0.425665,-1.527213,-0.290945,2.102542,0.162280,0.046985,0.369010,-0.093547,-0.185073,-0.179241,0.540822,0.103565,0.054365,-39.417683,6.190903,17.511168,0.171598,1.806442,0.034652,0.000000,0.000000,0.000000,0.000000,0.000000,0.000000
12467363.000000,-0.339496,0.637431,0.425569,-1.527392,-0.291122,2.103084,0.162388,0.048601,0.375595,-0.092807,-0.178192,-0.177890,0.546756,0.101775,0.078168,-39.270893,6.218674,17.435789,0.166105,1.812850,0.021835,0.000000,0.000000,0.000000,0.000000,0.000000,0.000000
12467364.000000,-0.339455,0.637799,0.425473,-1.527574,-0.291302,2.103637,0.162489,0.047843,0.368618,-0.091386,-0.177997,-0.176845,0.543350,0.104043,0.177350,-39.147907,6.218674,17.435789,0.159696,1.773483,0.034652,0.000000,0.000000,0.000000,0.000000,0.000000,0.000000
12467365.000000,-0.339409,0.638172,0.425377,-1.527750,-0.291480,2.104192,0.162596,0.046544,0.371818,-0.096214,-0.178562,-0.177809,0.548900,0.105928,0.177350,-39.024921,6.218674,17.340574,0.154203,1.760665,0.041976,0.000000,0.000000,0.000000,0.000000,0.000000,0.000000
12467366.000000,-0.339364,0.638543,0.425282,-1.527925,-0.291655,2.104739,0.162707,0.048831,0.370989,-0.097317,-0.176060,-0.176121,0.549574,0.108699,0.177350,-38.977314,6.218674,17.265196,0.129484,1.721298,0.001693,0.000000,0.000000,0.000000,0.000000,0.000000,0.000000
12467367.000000,-0.339321,0.638914,0.425189,-1.528097,-0.291837,2.105279,0.162811,0.046570,0.364970,-0.093701,-0.171494,-0.176385,0.546249,0.109120,0.205121,-38.878132,6.167099,17.189817,0.112089,1.741439,0.041976,0.000000,0.000000,0.000000,0.000000,0.000000,0.000000
12467368.000000,-0.339278,0.639296,0.425094,-1.528268,-0.292031,2.105818,0.162921,0.048348,0.366332,-0.095555,-0.171058,-0.181113,0.540530,0.105294,0.228925,-38.901936,6.167099,17.114439,0.129484,1.767074,0.041976,0.000000,0.000000,0.000000,0.000000,0.000000,0.000000
12467369.000000,-0.339231,0.639676,0.424996,-1.528435,-0.292221,2.106359,0.163030,0.049916,0.367237,-0.096825,-0.166539,-0.183997,0.537157,0.108060,0.228925,-39.024921,6.167099,16.991453,0.135892,1.773483,0.021835,0.000000,0.000000,0.000000,0.000000,0.000000,0.000000
12467371.000000,-0.339144,0.640429,0.424799,-1.528781,-0.292588,2.107454,0.163244,0.044362,0.371609,-0.096429,-0.166331,-0.189027,0.530994,0.106012,0.304304,-39.124104,6.218674,17.019224,0.141385,1.695663,0.028243,0.000000,0.000000,0.000000,0.000000,0.000000,0.000000
12467372.000000,-0.339100,0.640811,0.424707,-1.528949,-0.292768,2.108000,0.163349,0.043286,0.371781,-0.096029,-0.168839,-0.189993,0.532790,0.103056,0.328107,-39.171711,6.167099,17.019224,0.141385,1.721298,0.041976,0.000000,0.000000,0.000000,0.000000,0.000000,0.000000
12467373.000000,-0.339052,0.641187,0.424607,-1.529117,-0.292952,2.108545,0.163456,0.044248,0.374233,-0.098502,-0.168703,-0.190946,0.547119,0.101063,0.276533,-39.219318,6.218674,17.066832,0.141385,1.721298,0.034652,0.000000,0.000000,0.000000,0.000000,0.000000,0.000000
12467374.000000,-0.339007,0.641561,0.424511,-1.529287,-0.293142,2.109094,0.163560,0.042942,0.373167,-0.095253,-0.167199,-0.191447,0.550602,0.104582,0.304304,-39.219318,6.190903,17.066832,0.147794,1.747848,0.021835,0.000000,0.000000,0.000000,0.000000,0.000000,0.000000
12467375.000000,-0.338963,0.641941,0.424407,-1.529463,-0.293330,2.109643,0.163662,0.045609,0.382750,-0.095201,-0.171515,-0.183320,0.544179,0.107055,0.328107,-39.270893,6.266281,17.166014,0.123990,1.741439,0.041976,0.000000,0.000000,0.000000,0.000000,0.000000,0.000000
12467376.000000,-0.338918,0.642321,0.424310,-1.529636,-0.293519,2.110177,0.163769,0.044578,0.382739,-0.095942,-0.173319,-0.186790,0.540942,0.104678,0.328107,-39.318501,6.242477,17.213621,0.154203,1.714889,0.028243,0.000000,0.000000,0.000000,0.000000,0.000000,0.000000
12467377.000000,-0.338875,0.642697,0.424211,-1.529805,-0.293705,2.110719,0.163871,0.043021,0.378352,-0.096784,-0.173329,-0.187800,0.542094,0.101122,0.351911,-39.270893,6.242477,17.241392,0.147794,1.708480,0.054794,0.000000,0.000000,0.000000,0.000000,0.000000,0.000000
12467378.000000,-0.338830,0.643084,0.424105,-1.529972,-0.293886,2.111255,0.163982,0.045645,0.386374,-0.100104,-0.170579,-0.182126,0.537753,0.099568,0.375715,-39.342304,6.341660,17.241392,0.159696,1.727706,0.034652,0.000000,0.000000,0.000000,0.000000,0.000000,0.000000
12467379.000000,-0.338786,0.643464,0.423997,-1.530141,-0.294067,2.111783,0.164088,0.040066,0.379690,-0.102259,-0.167283,-0.185039,0.529633,0.102999,0.427289,-39.393879,6.436874,17.189817,0.178007,1.760665,0.034652,0.000000,0.000000,0.000000,0.000000,0.000000,0.000000
12467380.000000,-0.338742,0.643851,0.423901,-1.530318,-0.294249,2.112305,0.164196,0.043864,0.386405,-0.100430,-0.171756,-0.183251,0.522090,0.100313,0.451093,-39.512897,6.389267,17.289000,0.166105,1.786300,0.048385,0.000000,0.000000,0.000000,0.000000,0.000000,0.000000
12467381.000000,-0.338694,0.644234,0.423803,-1.530488,-0.294440,2.112825,0.164307,0.046826,0.383674,-0.099251,-0.172282,-0.185017,0.519194,0.100293,0.451093,-39.612080,6.341660,17.289000,0.154203,1.786300,0.009017,0.000000,0.000000,0.000000,0.000000,0.000000,0.000000
12467382.000000,-0.338647,0.644623,0.423696,-1.530659,-0.294626,2.113357,0.164408,0.048718,0.382910,-0.104273,-0.173708,-0.181462,0.518058,0.097262,0.451093,-39.735065,6.413071,17.312803,0.129484,1.754256,0.048385,0.000000,0.000000,0.000000,0.000000,0.000000,0.000000
12467383.000000,-0.338599,0.645008,0.423593,-1.530826,-0.294811,2.113892,0.164519,0.047009,0.381393,-0.105196,-0.172146,-0.178110,0.526400,0.101848,0.451093,-39.735065,6.389267,17.364378,0.159696,1.721298,0.028243,0.000000,0.000000,0.000000,0.000000,0.000000,0.000000
12467384.000000,-0.338557,0.645387,0.423487,-1.531001,-0.294994,2.114414,0.164627,0.047887,0.379143,-0.105196,-0.170507,-0.181832,0.527292,0.104316,0.502668,-39.782673,6.436874,17.411985,0.171598,1.714889,0.021835,0.000000,0.000000,0.000000,0.000000,0.000000,0.000000
12467385.000000,-0.338512,0.645778,0.423380,-1.531172,-0.295174,2.114930,0.164734,0.046469,0.380341,-0.107502,-0.169706,-0.176967,0.519378,0.105126,0.502668,-39.810444,6.460678,17.463560,0.183500,1.773483,0.034652,0.000000,0.000000,0.000000,0.000000,0.000000,0.000000
12467386.000000,-0.338466,0.646166,0.423270,-1.531355,-0.295350,2.115450,0.164844,0.048208,0.382352,-0.107490,-0.174972,-0.175789,0.519596,0.107527,0.526471,-39.782673,6.536057,17.634153,0.166105,1.825668,0.034652,0.000000,0.000000,0.000000,0.000000,0.000000,0.000000
12467387.000000,-0.338417,0.646545,0.423165,-1.531529,-0.295535,2.115977,0.164950,0.047308,0.380291,-0.106051,-0.175430,-0.180053,0.516871,0.104916,0.502668,-39.659687,6.559860,17.661924,0.171598,1.825668,0.048385,0.000000,0.000000,0.000000,0.000000,0.000000,0.000000
12467388.000000,-0.338371,0.646927,0.423061,-1.531703,-0.295715,2.116515,0.165059,0.045338,0.384270,-0.108212,-0.176957,-0.178809,0.520919,0.107283,0.526471,-39.564472,6.583664,17.733335,0.123990,1.786300,0.041976,0.000000,0.000000,0.000000,0.000000,0.000000,0.000000
12467389.000000,-0.338328,0.647312,0.422957,-1.531882,-0.295902,2.117035,0.165175,0.042559,0.382166,-0.107343,-0.180073,-0.177726,0.517178,0.114779,0.601850,-39.489094,6.635239,17.784910,0.123990,1.812850,0.021835,0.000000,0.000000,0.000000,0.000000,0.000000,0.000000
12467390.000000,-0.338286,0.647696,0.422853,-1.532060,-0.296087,2.117550,0.165282,0.041439,0.378177,-0.104701,-0.183036,-0.182908,0.516375,0.112949,0.649457,-39.441486,6.611435,17.884092,0.166105,1.877853,0.061202,0.000000,0.000000,0.000000,0.000000,0.000000,0.000000
12467391.000000,-0.338245,0.648094,0.422749,-1.532232,-0.296272,2.118074,0.165403,0.042817,0.390750,-0.103623,-0.181293,-0.182146,0.513172,0.114532,0.748639,-39.540668,6.611435,17.907896,0.166105,1.923629,0.021835,0.000000,0.000000,0.000000,0.000000,0.000000,0.000000
12467392.000000,-0.338196,0.648474,0.422639,-1.532399,-0.296455,2.118599,0.165509,0.043412,0.385583,-0.107734,-0.176432,-0.180097,0.514766,0.113147,0.724836,-39.540668,6.682846,17.907896,0.166105,1.858627,0.048385,0.000000,0.000000,0.000000,0.000000,0.000000,0.000000
12467393.000000,-0.338152,0.648868,0.422532,-1.532567,-0.296636,2.119137,0.165626,0.042576,0.396315,-0.105893,-0.177789,-0.179771,0.514281,0.114404,0.748639,-39.612080,6.682846,17.983274,0.154203,1.800033,0.015426,0.000000,0.000000,0.000000,0.000000,0.000000,0.000000
12467394.000000,-0.338105,0.649252,0.422420,-1.532741,-0.296827,2.119655,0.165735,0.046402,0.389415,-0.105750,-0.175070,-0.185773,0.513305,0.114373,0.724836,-39.659687,6.734421,18.054686,0.112089,1.806442,0.034652,0.000000,0.000000,0.000000,0.000000,0.000000,0.000000
12467395.000000,-0.338065,0.649643,0.422312,-1.532915,-0.297024,2.120178,0.165840,0.046078,0.389105,-0.101621,-0.176221,-0.187814,0.515157,0.114167,0.824018,-39.687458,6.758224,18.153868,0.123990,1.844894,0.054794,0.000000,0.000000,0.000000,0.000000,0.000000,0.000000
12467396.000000,-0.338025,0.650038,0.422207,-1.533084,-0.297219,2.120706,0.165955,0.046991,0.391347,-0.104301,-0.175709,-0.187938,0.511710,0.115507,0.895429,-39.758869,6.782028,18.153868,0.166105,1.897079,0.009017,0.000000,0.000000,0.000000,0.000000,0.000000,0.000000
12467397.000000,-0.337988,0.650428,0.422093,-1.533259,-0.297414,2.121231,0.166052,0.042467,0.390930,-0.103017,-0.171749,-0.194596,0.517143,0.108383,1.046186,-39.834248,6.905014,18.276854,0.201810,1.884261,0.067611,0.000000,0.000000,0.000000,0.000000,0.000000,0.000000
12467398.000000,-0.337948,0.650817,0.421988,-1.533436,-0.297610,2.121764,0.166155,0.040918,0.394138,-0.101548,-0.173322,-0.187890,0.513792,0.109283,1.121564,-39.782673,6.881210,18.451414,0.243009,1.877853,0.081344,0.000000,0.000000,0.000000,0.000000,0.000000,0.000000
