chaoyuefei/paper-gmrm-data/robot_logs/s2_dq_gmrm_xz_min_0.50_log_20260314_174007.csv
# time_ms,q_0,q_1,q_2,q_3,q_4,q_5,q_6,dq_0,dq_1,dq_2,dq_3,dq_4,dq_5,dq_6,tau_J_0,tau_J_1,tau_J_2,tau_J_3,tau_J_4,tau_J_5,tau_J_6,O_dP_EE_c_0,O_dP_EE_c_1,O_dP_EE_c_2,O_dP_EE_c_3,O_dP_EE_c_4,O_dP_EE_c_5
12670112.000000,-2.415661,-1.662615,1.042881,-1.356080,1.795452,1.081425,-0.548599,0.000225,-0.000234,-0.000172,0.000246,0.000511,0.000004,-0.000719,0.030561,41.578411,-21.052444,-5.749025,0.828947,1.318465,0.041976,0.000000,0.000000,0.000000,0.000000,0.000000,0.000000
12670113.000000,-2.415663,-1.662615,1.042881,-1.356080,1.795450,1.081425,-0.548596,-0.000407,-0.000156,-0.000115,0.000164,-0.000338,0.000003,0.000741,0.054365,41.578411,-21.052444,-5.749025,0.847257,1.318465,0.009017,0.000000,0.000000,0.000000,0.000000,0.000000,0.000000
12670114.000000,-2.415661,-1.662613,1.042879,-1.356082,1.795450,1.081429,-0.548597,0.000285,0.000453,-0.000726,-0.000540,-0.000225,0.000239,0.000019,0.030561,41.554607,-21.024673,-5.721254,0.847257,1.312057,0.021835,0.000000,0.000000,0.000000,0.000000,0.000000,0.000000
12670115.000000,-2.415661,-1.662611,1.042881,-1.356082,1.795454,1.081426,-0.548601,0.000190,0.000859,0.000165,-0.000360,0.000291,-0.000078,-0.001208,0.030561,41.530804,-21.052444,-5.721254,0.835355,1.318465,0.054794,0.000000,0.000000,0.000000,0.000000,0.000000,0.000000
12670116.000000,-2.415660,-1.662612,1.042880,-1.356083,1.795453,1.081426,-0.548599,0.005032,0.001686,-0.001096,0.001250,-0.008682,-0.001001,-0.002886,0.351911,41.483196,-21.000870,-5.649843,0.823453,1.344100,-0.017533,0.000000,0.000000,0.000000,0.000000,0.000000,0.000000
12670117.000000,-2.415650,-1.662621,1.042884,-1.356079,1.795455,1.081420,-0.548615,0.011018,-0.001758,0.002322,0.004504,-0.007155,-0.002518,-0.011012,1.391340,41.336407,-21.000870,-5.526857,0.715421,1.519881,-0.037675,0.000000,0.000000,0.000000,0.000000,0.000000,0.000000
12670118.000000,-2.415617,-1.662619,1.042897,-1.356077,1.795447,1.081415,-0.548643,0.022907,0.002269,0.008079,0.000486,-0.012598,-0.001190,-0.017652,2.879072,40.896038,-21.000870,-5.253114,0.644010,1.773483,-0.044083,0.000000,0.000000,0.000000,0.000000,0.000000,0.000000
12670119.000000,-2.415574,-1.662619,1.042911,-1.356083,1.795430,1.081439,-0.548687,0.026841,0.003931,0.010653,-0.004340,-0.012150,0.006292,-0.027268,4.807172,40.356487,-20.929459,-4.884157,0.578092,1.865035,-0.050492,0.000000,0.000000,0.000000,0.000000,0.000000,0.000000
12670120.000000,-2.415510,-1.662621,1.042931,-1.356090,1.795403,1.081483,-0.548748,0.032562,0.003840,0.012052,-0.008430,-0.015224,0.017682,-0.039007,6.715436,39.840740,-20.830276,-4.610414,0.601896,1.800033,-0.064225,0.000000,0.000000,0.000000,0.000000,0.000000,0.000000
12670121.000000,-2.415423,-1.662617,1.042961,-1.356122,1.795356,1.081562,-0.548824,0.045721,0.006869,0.020164,-0.016477,-0.029002,0.036415,-0.052019,8.322186,39.305157,-20.754898,-4.118471,0.691617,1.572067,-0.089860,0.000000,0.000000,0.000000,0.000000,0.000000,0.000000
12670122.000000,-2.415320,-1.662615,1.042997,-1.356166,1.795306,1.081655,-0.548928,0.058970,0.004550,0.026372,-0.026475,-0.036890,0.057509,-0.069100,9.758344,38.813213,-20.683487,-3.697939,0.715421,1.383468,-0.044083,0.000000,0.000000,0.000000,0.000000,0.000000,0.000000
12670123.000000,-2.415207,-1.662618,1.043044,-1.356211,1.795235,1.081762,-0.549046,0.073921,-0.000183,0.034030,-0.033681,-0.052312,0.073845,-0.084050,10.996137,38.448223,-20.608109,-3.424196,0.745634,1.299239,-0.064225,0.000000,0.000000,0.000000,0.000000,0.000000,0.000000
12670124.000000,-2.415073,-1.662609,1.043100,-1.356279,1.795158,1.081884,-0.549186,0.089397,0.004437,0.044259,-0.045266,-0.060596,0.091199,-0.104107,12.035565,38.007854,-20.584305,-3.027467,0.698026,1.331283,-0.103593,0.000000,0.000000,0.000000,0.000000,0.000000,0.000000
12670125.000000,-2.414931,-1.662603,1.043163,-1.356345,1.795069,1.082031,-0.549357,0.102054,0.006472,0.052216,-0.051648,-0.069964,0.105893,-0.126745,13.003583,37.638897,-20.437515,-2.856874,0.589994,1.448470,-0.070634,0.000000,0.000000,0.000000,0.000000,0.000000,0.000000
12670126.000000,-2.414776,-1.662587,1.043248,-1.356432,1.794953,1.082202,-0.549555,0.117706,0.009602,0.065858,-0.062334,-0.083351,0.122334,-0.152869,13.820844,37.198528,-20.485123,-2.583132,0.524076,1.565658,-0.083451,0.000000,0.000000,0.000000,0.000000,0.000000,0.000000
12670127.000000,-2.414608,-1.662575,1.043346,-1.356526,1.794825,1.082406,-0.549772,0.131028,0.012732,0.080355,-0.072895,-0.100387,0.147387,-0.174495,14.534955,36.857342,-20.584305,-2.460146,0.386747,1.605026,-0.110001,0.000000,0.000000,0.000000,0.000000,0.000000,0.000000
12670128.000000,-2.414423,-1.662556,1.043461,-1.356640,1.794668,1.082644,-0.550026,0.150862,0.016438,0.091698,-0.087511,-0.117411,0.173257,-0.196266,15.153852,36.464581,-20.731094,-2.313356,0.356534,1.578475,-0.064225,0.000000,0.000000,0.000000,0.000000,0.000000,0.000000
12670129.000000,-2.414218,-1.662535,1.043587,-1.356770,1.794486,1.082903,-0.550294,0.168435,0.019218,0.106564,-0.101802,-0.141520,0.198497,-0.221743,15.550580,36.071819,-20.877884,-2.190370,0.393156,1.513473,-0.089860,0.000000,0.000000,0.000000,0.000000,0.000000,0.000000
12670130.000000,-2.413992,-1.662518,1.043728,-1.356924,1.794276,1.083197,-0.550584,0.182688,0.016929,0.117490,-0.119424,-0.165620,0.231664,-0.238535,15.848126,35.730633,-21.024673,-2.039613,0.458158,1.429244,-0.056901,0.000000,0.000000,0.000000,0.000000,0.000000,0.000000
12670131.000000,-2.413753,-1.662494,1.043884,-1.357090,1.794033,1.083509,-0.550874,0.201203,0.019687,0.131765,-0.137425,-0.185185,0.261108,-0.254710,16.070295,35.337872,-21.175430,-1.964235,0.571683,1.435653,-0.050492,0.000000,0.000000,0.000000,0.000000,0.000000,0.000000
12670132.000000,-2.413499,-1.662473,1.044046,-1.357267,1.793782,1.083848,-0.551167,0.214578,0.019402,0.141393,-0.148527,-0.206016,0.285864,-0.264082,16.268660,35.044292,-21.270645,-1.992006,0.608304,1.422836,-0.103593,0.000000,0.000000,0.000000,0.000000,0.000000,0.000000
12670133.000000,-2.413230,-1.662459,1.044216,-1.357459,1.793519,1.084204,-0.551464,0.230467,0.022692,0.148393,-0.160694,-0.219976,0.307596,-0.276764,16.467024,34.873699,-21.223038,-2.015810,0.601896,1.442062,-0.103593,0.000000,0.000000,0.000000,0.000000,0.000000,0.000000
12670134.000000,-2.412944,-1.662445,1.044401,-1.357665,1.793239,1.084578,-0.551764,0.250730,0.021240,0.158862,-0.176713,-0.237560,0.331013,-0.279387,16.566206,34.750713,-21.246841,-2.015810,0.547880,1.539108,-0.077042,0.000000,0.000000,0.000000,0.000000,0.000000,0.000000
12670135.000000,-2.412642,-1.662436,1.044594,-1.357894,1.792948,1.084972,-0.552059,0.264553,0.015667,0.169206,-0.192049,-0.260656,0.351149,-0.282809,16.689192,34.703106,-21.246841,-1.992006,0.405057,1.682845,-0.130143,0.000000,0.000000,0.000000,0.000000,0.000000,0.000000
12670136.000000,-2.412315,-1.662435,1.044794,-1.358147,1.792636,1.085392,-0.552358,0.284691,0.009626,0.178198,-0.210743,-0.273603,0.374800,-0.289272,16.542402,34.750713,-21.175430,-1.817445,0.339139,1.747848,-0.097184,0.000000,0.000000,0.000000,0.000000,0.000000,0.000000
12670137.000000,-2.411977,-1.662430,1.045000,-1.358412,1.792307,1.085839,-0.552658,0.298726,0.007196,0.184997,-0.227136,-0.289219,0.395059,-0.292367,16.542402,34.726910,-21.076248,-1.670656,0.303434,1.735030,-0.089860,0.000000,0.000000,0.000000,0.000000,0.000000,0.000000
12670138.000000,-2.411625,-1.662428,1.045221,-1.358703,1.791958,1.086327,-0.552947,0.313060,0.004406,0.199256,-0.246299,-0.313553,0.423040,-0.290489,16.518599,34.750713,-20.953262,-1.496095,0.344633,1.617843,-0.083451,0.000000,0.000000,0.000000,0.000000,0.000000,0.000000
12670139.000000,-2.411261,-1.662428,1.045465,-1.358999,1.791587,1.086822,-0.553232,0.329841,0.001948,0.212882,-0.258475,-0.330537,0.453733,-0.282923,16.490828,34.798321,-20.953262,-1.396913,0.374845,1.487838,-0.110001,0.000000,0.000000,0.000000,0.000000,0.000000,0.000000
12670140.000000,-2.410888,-1.662424,1.045704,-1.359303,1.791201,1.087350,-0.553517,0.339833,0.002506,0.220581,-0.272190,-0.344363,0.479168,-0.278074,16.665388,34.750713,-20.854080,-1.349306,0.422452,1.435653,-0.110001,0.000000,0.000000,0.000000,0.000000,0.000000,0.000000
12670141.000000,-2.410504,-1.662427,1.045955,-1.359619,1.790799,1.087892,-0.553796,0.352970,0.000627,0.228993,-0.284787,-0.366224,0.496222,-0.280205,16.788374,34.798321,-20.754898,-1.373109,0.535978,1.429244,-0.089860,0.000000,0.000000,0.000000,0.000000,0.000000,0.000000
12670142.000000,-2.410103,-1.662427,1.046217,-1.359953,1.790380,1.088446,-0.554062,0.363454,-0.000179,0.237253,-0.300403,-0.377585,0.516836,-0.274212,16.887556,34.826092,-20.707291,-1.396913,0.547880,1.461288,-0.136552,0.000000,0.000000,0.000000,0.000000,0.000000,0.000000
12670143.000000,-2.409694,-1.662428,1.046484,-1.360308,1.789960,1.089015,-0.554331,0.378056,-0.000080,0.244834,-0.315865,-0.390435,0.525017,-0.271756,17.085920,34.826092,-20.584305,-1.396913,0.518583,1.546432,-0.142960,0.000000,0.000000,0.000000,0.000000,0.000000,0.000000
12670144.000000,-2.409280,-1.662418,1.046770,-1.360670,1.789517,1.089601,-0.554606,0.388730,0.002853,0.256542,-0.329621,-0.409078,0.544059,-0.277095,17.308088,34.703106,-20.584305,-1.321535,0.476469,1.572067,-0.083451,0.000000,0.000000,0.000000,0.000000,0.000000,0.000000
12670145.000000,-2.408845,-1.662422,1.047055,-1.361049,1.789058,1.090217,-0.554871,0.399749,0.000254,0.262310,-0.346087,-0.417369,0.566603,-0.270797,17.506453,34.774517,-20.461319,-1.198549,0.410551,1.513473,-0.149369,0.000000,0.000000,0.000000,0.000000,0.000000,0.000000
12670146.000000,-2.408397,-1.662420,1.047358,-1.361439,1.788597,1.090863,-0.555140,0.420825,0.000186,0.271696,-0.369541,-0.429995,0.589264,-0.271449,17.756392,34.774517,-20.437515,-1.075563,0.374845,1.402694,-0.097184,0.000000,0.000000,0.000000,0.000000,0.000000,0.000000
12670147.000000,-2.407938,-1.662414,1.047672,-1.361860,1.788107,1.091504,-0.555405,0.433729,0.001807,0.286785,-0.387334,-0.447535,0.609315,-0.270337,17.978559,34.703106,-20.461319,-0.778017,0.339139,1.337692,-0.083451,0.000000,0.000000,0.000000,0.000000,0.000000,0.000000
12670148.000000,-2.407460,-1.662412,1.047987,-1.362292,1.787600,1.092172,-0.555662,0.446021,0.001771,0.296469,-0.397482,-0.466121,0.625186,-0.266434,18.224531,34.679302,-20.437515,-0.583620,0.405057,1.337692,-0.142960,0.000000,0.000000,0.000000,0.000000,0.000000,0.000000
12670149.000000,-2.406976,-1.662408,1.048311,-1.362725,1.787075,1.092857,-0.555925,0.458781,0.001837,0.306059,-0.414005,-0.488925,0.660341,-0.268049,18.474470,34.651531,-20.389908,-0.409059,0.464567,1.285506,-0.089860,0.000000,0.000000,0.000000,0.000000,0.000000,0.000000
12670150.000000,-2.406473,-1.662398,1.048649,-1.363179,1.786534,1.093571,-0.556178,0.468420,0.003457,0.313611,-0.424855,-0.499594,0.675123,-0.264869,18.696638,34.556316,-20.338333,-0.286073,0.494779,1.272689,-0.136552,0.000000,0.000000,0.000000,0.000000,0.000000,0.000000
12670151.000000,-2.405964,-1.662390,1.049004,-1.363653,1.785987,1.094301,-0.556429,0.479842,0.004072,0.323459,-0.440080,-0.513917,0.692324,-0.259887,19.041792,34.480938,-20.338333,-0.163088,0.559781,1.324874,-0.149369,0.000000,0.000000,0.000000,0.000000,0.000000,0.000000
12670152.000000,-2.405444,-1.662380,1.049373,-1.364120,1.785418,1.095035,-0.556677,0.489619,0.007993,0.335271,-0.445610,-0.524991,0.701386,-0.257850,19.315535,34.385723,-20.389908,-0.163088,0.547880,1.383468,-0.110001,0.000000,0.000000,0.000000,0.000000,0.000000,0.000000
12670153.000000,-2.404918,-1.662373,1.049747,-1.364614,1.784842,1.095804,-0.556923,0.498421,0.006791,0.350863,-0.458510,-0.545512,0.717068,-0.253142,19.759871,34.334148,-20.461319,-0.135317,0.542386,1.435653,-0.149369,0.000000,0.000000,0.000000,0.000000,0.000000,0.000000
12670154.000000,-2.404369,-1.662363,1.050138,-1.365119,1.784253,1.096592,-0.557173,0.514802,0.006390,0.363726,-0.474367,-0.558143,0.741258,-0.252375,19.982038,34.262737,-20.485123,-0.036134,0.494779,1.435653,-0.122819,0.000000,0.000000,0.000000,0.000000,0.000000,0.000000
12670155.000000,-2.403809,-1.662354,1.050544,-1.365644,1.783653,1.097393,-0.557422,0.525430,0.006168,0.380744,-0.486319,-0.562663,0.760209,-0.250854,20.303389,34.187359,-20.659683,0.059080,0.458158,1.396285,-0.110001,0.000000,0.000000,0.000000,0.000000,0.000000,0.000000
12670156.000000,-2.403226,-1.662343,1.050968,-1.366181,1.783035,1.098241,-0.557668,0.541201,0.008870,0.393243,-0.497685,-0.581603,0.785290,-0.243417,20.529524,34.115948,-20.830276,0.134459,0.410551,1.279098,-0.142960,0.000000,0.000000,0.000000,0.000000,0.000000,0.000000
12670157.000000,-2.402641,-1.662332,1.051405,-1.366724,1.782406,1.099090,-0.557911,0.557275,0.011174,0.406431,-0.512452,-0.595077,0.813815,-0.240438,20.850874,34.040569,-21.052444,0.209837,0.374845,1.175643,-0.110001,0.000000,0.000000,0.000000,0.000000,0.000000,0.000000
12670158.000000,-2.402035,-1.662315,1.051839,-1.367288,1.781749,1.099958,-0.558152,0.569297,0.013989,0.416218,-0.522034,-0.615976,0.831371,-0.240799,21.096846,33.917583,-21.147659,0.285216,0.362943,1.194869,-0.122819,0.000000,0.000000,0.000000,0.000000,0.000000,0.000000
12670159.000000,-2.401428,-1.662301,1.052299,-1.367842,1.781091,1.100856,-0.558386,0.574906,0.015365,0.425154,-0.541571,-0.632172,0.848893,-0.237008,21.418196,33.822369,-21.322220,0.158263,0.369352,1.220504,-0.130143,0.000000,0.000000,0.000000,0.000000,0.000000,0.000000
12670160.000000,-2.400792,-1.662285,1.052762,-1.368425,1.780395,1.101764,-0.558628,0.587521,0.015895,0.445320,-0.555714,-0.645031,0.867829,-0.234841,21.640364,33.746990,-21.492813,0.110655,0.428861,1.214095,-0.122819,0.000000,0.000000,0.000000,0.000000,0.000000,0.000000
12670161.000000,-2.400136,-1.662271,1.053238,-1.369009,1.779709,1.102694,-0.558866,0.607322,0.015731,0.450447,-0.557965,-0.662934,0.887838,-0.233856,21.814924,33.699383,-21.663406,-0.036134,0.422452,1.259872,-0.116410,0.000000,0.000000,0.000000,0.000000,0.000000,0.000000
12670162.000000,-2.399469,-1.662258,1.053729,-1.369615,1.778997,1.103621,-0.559096,0.630094,0.012577,0.459714,-0.573118,-0.672914,0.895992,-0.232374,21.961714,33.647808,-21.810196,0.110655,0.571683,1.324874,-0.110001,0.000000,0.000000,0.000000,0.000000,0.000000,0.000000
12670163.000000,-2.398775,-1.662248,1.054212,-1.370234,1.778278,1.104591,-0.559328,0.648207,0.009048,0.468401,-0.584286,-0.684686,0.912652,-0.235011,22.112471,33.647808,-21.885574,0.209837,0.727323,1.331283,-0.116410,0.000000,0.000000,0.000000,0.000000,0.000000,0.000000
12670164.000000,-2.398057,-1.662239,1.054712,-1.370867,1.777581,1.105594,-0.559555,0.669682,0.009695,0.478665,-0.597780,-0.683508,0.935756,-0.234936,22.211653,33.647808,-22.008560,0.455809,0.871061,1.305648,-0.149369,0.000000,0.000000,0.000000,0.000000,0.000000,0.000000
12670165.000000,-2.397346,-1.662233,1.055226,-1.371488,1.776880,1.106601,-0.559793,0.677639,0.009049,0.489234,-0.603830,-0.682995,0.963197,-0.233589,22.382246,33.699383,-22.079971,0.554991,0.942472,1.259872,-0.136552,0.000000,0.000000,0.000000,0.000000,0.000000,0.000000
12670166.000000,-2.396619,-1.662228,1.055747,-1.372141,1.776193,1.107644,-0.560026,0.677364,0.010979,0.502440,-0.619774,-0.688881,0.993954,-0.231965,22.136274,33.794598,-22.107742,0.507384,1.013883,1.266280,-0.136552,0.000000,0.000000,0.000000,0.000000,0.000000,0.000000
12670167.000000,-2.395894,-1.662223,1.056288,-1.372800,1.775500,1.108695,-0.560247,0.680713,0.007488,0.515930,-0.634999,-0.682599,1.015249,-0.229629,20.950056,33.969158,-21.909378,0.134459,0.925077,1.377059,-0.163102,0.000000,0.000000,0.000000,0.000000,0.000000,0.000000
12670168.000000,-2.395170,-1.662223,1.056842,-1.373487,1.774800,1.109749,-0.560475,0.689201,0.001527,0.531561,-0.649647,-0.688100,1.030491,-0.229816,18.843428,34.163555,-21.469009,-0.655031,0.864652,1.526290,-0.142960,0.000000,0.000000,0.000000,0.000000,0.000000,0.000000
12670169.000000,-2.394440,-1.662217,1.057424,-1.374184,1.774119,1.110839,-0.560693,0.700642,0.002386,0.549929,-0.661459,-0.681299,1.036803,-0.232323,16.098066,34.139751,-20.754898,-1.619081,0.727323,1.630660,-0.142960,0.000000,0.000000,0.000000,0.000000,0.000000,0.000000
12670170.000000,-2.393713,-1.662212,1.058037,-1.374894,1.773433,1.111931,-0.560910,0.713871,0.000508,0.567455,-0.673451,-0.678330,1.053761,-0.229939,13.174176,33.941387,-20.020950,-2.360964,0.559781,1.721298,-0.169511,0.000000,0.000000,0.000000,0.000000,0.000000,0.000000
12670171.000000,-2.392991,-1.662208,1.058658,-1.375630,1.772761,1.113055,-0.561135,0.723040,0.001246,0.581210,-0.685080,-0.671986,1.067142,-0.224659,10.500226,33.624004,-19.160049,-2.781496,0.351041,1.779891,-0.155778,0.000000,0.000000,0.000000,0.000000,0.000000,0.000000
12670172.000000,-2.392275,-1.662216,1.059307,-1.376340,1.772108,1.114221,-0.561354,0.725433,-0.001990,0.593388,-0.693464,-0.663107,1.100500,-0.222678,8.024640,33.453411,-18.374527,-3.277406,0.147794,1.617843,-0.097184,0.000000,0.000000,0.000000,0.000000,0.000000,0.000000
12670173.000000,-2.391546,-1.662227,1.059965,-1.377064,1.771453,1.115385,-0.561563,0.729987,-0.005567,0.612157,-0.702272,-0.649403,1.122795,-0.216778,5.798994,33.330425,-17.664383,-3.547182,0.046171,1.481429,-0.142960,0.000000,0.000000,0.000000,0.000000,0.000000,0.000000
12670174.000000,-2.390826,-1.662242,1.060635,-1.377780,1.770802,1.116572,-0.561788,0.727545,-0.009616,0.620388,-0.698706,-0.644501,1.142654,-0.221583,3.966108,33.259014,-16.978043,-3.797121,0.046171,1.435653,-0.083451,0.000000,0.000000,0.000000,0.000000,0.000000,0.000000
12670175.000000,-2.390110,-1.662266,1.061301,-1.378482,1.770152,1.117767,-0.561998,0.725552,-0.012695,0.628617,-0.693308,-0.640279,1.160266,-0.215581,2.307783,33.330425,-16.263931,-3.920107,0.178007,1.396285,-0.149369,0.000000,0.000000,0.000000,0.000000,0.000000,0.000000
12670176.000000,-2.389396,-1.662294,1.061971,-1.379188,1.769503,1.118990,-0.562215,0.715057,-0.018363,0.638795,-0.691999,-0.640511,1.175277,-0.212627,1.022382,33.429607,-15.700577,-3.943910,0.291532,1.435653,-0.169511,0.000000,0.000000,0.000000,0.000000,0.000000,0.000000
12670177.000000,-2.388679,-1.662328,1.062656,-1.379890,1.768866,1.120234,-0.562438,0.729255,-0.025490,0.650684,-0.705955,-0.643246,1.184986,-0.212754,-0.191607,33.528790,-15.260208,-3.769350,0.488370,1.422836,-0.136552,0.000000,0.000000,0.000000,0.000000,0.000000,0.000000
12670178.000000,-2.387956,-1.662361,1.063338,-1.380592,1.768231,1.121476,-0.562650,0.724663,-0.028757,0.673530,-0.704627,-0.637820,1.202289,-0.214383,-1.207232,33.552593,-14.867447,-3.547182,0.530485,1.227828,-0.188737,0.000000,0.000000,0.000000,0.000000,0.000000,0.000000
12670179.000000,-2.387224,-1.662400,1.064023,-1.381299,1.767612,1.122736,-0.562869,0.727601,-0.029965,0.671185,-0.707365,-0.635002,1.213419,-0.215069,-2.199053,33.528790,-14.423111,-3.249635,0.559781,1.025497,-0.130143,0.000000,0.000000,0.000000,0.000000,0.000000,0.000000
12670180.000000,-2.386513,-1.662435,1.064724,-1.381990,1.766986,1.123956,-0.563083,0.721234,-0.029449,0.679008,-0.703643,-0.627832,1.242760,-0.212726,-2.889361,33.429607,-14.030350,-2.928285,0.584501,1.031905,-0.142960,0.000000,0.000000,0.000000,0.000000,0.000000,0.000000
12670181.000000,-2.385788,-1.662468,1.065408,-1.382688,1.766385,1.125171,-0.563295,0.715882,-0.028252,0.682535,-0.697384,-0.616957,1.231684,-0.210100,-3.559832,33.282818,-13.637589,-2.559328,0.464567,1.207687,-0.169511,0.000000,0.000000,0.000000,0.000000,0.000000,0.000000
12670182.000000,-2.385067,-1.662495,1.066101,-1.383374,1.765784,1.126385,-0.563507,0.727358,-0.025301,0.683999,-0.688535,-0.610903,1.224528,-0.210213,-4.079546,33.036846,-13.149612,-2.412538,0.381254,1.350509,-0.149369,0.000000,0.000000,0.000000,0.000000,0.000000,0.000000
12670183.000000,-2.384374,-1.662515,1.066805,-1.384034,1.765191,1.127600,-0.563717,0.718669,-0.024749,0.686167,-0.678334,-0.608478,1.220305,-0.209547,-4.301714,32.719463,-12.780655,-2.412538,0.261320,1.350509,-0.149369,0.000000,0.000000,0.000000,0.000000,0.000000,0.000000
12670184.000000,-2.383674,-1.662518,1.067506,-1.384685,1.764610,1.128818,-0.563923,0.708311,-0.015872,0.697155,-0.668036,-0.610405,1.221415,-0.208602,-4.500079,32.156109,-12.411697,-2.634706,0.159696,1.344100,-0.163102,0.000000,0.000000,0.000000,0.000000,0.000000,0.000000
12670185.000000,-2.382983,-1.662515,1.068217,-1.385319,1.764021,1.130032,-0.564126,0.701154,-0.010064,0.697878,-0.658394,-0.601025,1.215272,-0.208375,-4.646868,31.592754,-12.042740,-2.880678,0.178007,1.402694,-0.169511,0.000000,0.000000,0.000000,0.000000,0.000000,0.000000
12670186.000000,-2.382291,-1.662505,1.068926,-1.385965,1.763426,1.131231,-0.564333,0.692521,-0.001200,0.709187,-0.648662,-0.594998,1.215834,-0.207723,-4.773821,30.957989,-11.820572,-2.979860,0.237516,1.344100,-0.175919,0.000000,0.000000,0.000000,0.000000,0.000000,0.000000
12670187.000000,-2.381589,-1.662491,1.069639,-1.386617,1.762851,1.132459,-0.564546,0.693317,0.003281,0.706593,-0.646164,-0.587160,1.210375,-0.209997,-5.019793,30.394634,-11.404007,-3.027467,0.332731,1.149093,-0.122819,0.000000,0.000000,0.000000,0.000000,0.000000,0.000000
12670188.000000,-2.380905,-1.662470,1.070368,-1.387254,1.762269,1.133671,-0.564751,0.689729,0.011279,0.709372,-0.642921,-0.582429,1.216077,-0.207876,-5.095171,29.755901,-11.185806,-3.003664,0.374845,0.966903,-0.163102,0.000000,0.000000,0.000000,0.000000,0.000000,0.000000
12670189.000000,-2.380217,-1.662444,1.071098,-1.387891,1.761698,1.134892,-0.564959,0.688211,0.016377,0.714997,-0.640197,-0.570940,1.210727,-0.208073,-5.118975,29.144939,-10.987442,-3.027467,0.297025,0.882674,-0.155778,0.000000,0.000000,0.000000,0.000000,0.000000,0.000000
12670190.000000,-2.379545,-1.662414,1.071842,-1.388503,1.761143,1.136108,-0.565156,0.684134,0.022126,0.720994,-0.631530,-0.564615,1.212169,-0.202315,-5.067400,28.581585,-10.793045,-3.126650,0.159696,0.824081,-0.182328,0.000000,0.000000,0.000000,0.000000,0.000000,0.000000
12670191.000000,-2.378868,-1.662390,1.072569,-1.389118,1.760578,1.137312,-0.565356,0.680078,0.023575,0.723777,-0.622648,-0.558065,1.216009,-0.204135,-4.968218,28.141216,-10.324905,-3.348818,0.112089,0.804855,-0.169511,0.000000,0.000000,0.000000,0.000000,0.000000,0.000000
12670192.000000,-2.378187,-1.662367,1.073314,-1.389736,1.760032,1.138511,-0.565556,0.677736,0.023146,0.728271,-0.619725,-0.553423,1.206271,-0.205458,-4.896807,27.776226,-9.983719,-3.547182,0.034269,0.928451,-0.163102,0.000000,0.000000,0.000000,0.000000,0.000000,0.000000
12670193.000000,-2.377513,-1.662344,1.074075,-1.390341,1.759479,1.139702,-0.565747,0.673893,0.022673,0.740246,-0.619768,-0.547051,1.206595,-0.200199,-4.968218,27.431072,-9.709976,-3.670168,0.010465,1.064864,-0.196061,0.000000,0.000000,0.000000,0.000000,0.000000,0.000000
12670194.000000,-2.376816,-1.662327,1.074827,-1.390961,1.758924,1.140935,-0.565949,0.679082,0.019597,0.743595,-0.617870,-0.552336,1.213265,-0.198956,-5.218157,27.212872,-9.467972,-3.670168,0.010465,0.922042,-0.142960,0.000000,0.000000,0.000000,0.000000,0.000000,0.000000
12670195.000000,-2.376126,-1.662310,1.075595,-1.391575,1.758375,1.142185,-0.566144,0.693776,0.019639,0.748773,-0.626458,-0.548525,1.220718,-0.196908,-5.515704,27.042278,-9.170425,-3.547182,0.058073,0.687667,-0.130143,0.000000,0.000000,0.000000,0.000000,0.000000,0.000000
12670196.000000,-2.375428,-1.662302,1.076379,-1.392188,1.757825,1.143413,-0.566327,0.692664,0.016784,0.772490,-0.619764,-0.541526,1.230470,-0.188133,-5.837054,27.014507,-9.146622,-3.448000,0.154203,0.466109,-0.182328,0.000000,0.000000,0.000000,0.000000,0.000000,0.000000
12670197.000000,-2.374735,-1.662296,1.077175,-1.392789,1.757281,1.144646,-0.566520,0.694379,0.011936,0.775962,-0.611711,-0.538151,1.222689,-0.189051,-5.983843,26.990704,-9.023636,-3.570986,0.154203,0.434066,-0.163102,0.000000,0.000000,0.000000,0.000000,0.000000,0.000000
12670198.000000,-2.374056,-1.662289,1.077987,-1.393362,1.756737,1.145846,-0.566708,0.688820,0.008656,0.780186,-0.600817,-0.535442,1.249284,-0.189071,-6.106829,26.966900,-8.999832,-3.820925,0.141385,0.570480,-0.163102,0.000000,0.000000,0.000000,0.000000,0.000000,0.000000
12670199.000000,-2.373367,-1.662295,1.078790,-1.393925,1.756189,1.147066,-0.566897,0.681110,0.005029,0.788994,-0.583351,-0.536821,1.243606,-0.188183,-6.233782,27.137493,-8.900650,-4.312868,0.100187,0.706893,-0.175919,0.000000,0.000000,0.000000,0.000000,0.000000,0.000000
12670200.000000,-2.372682,-1.662292,1.079618,-1.394500,1.755659,1.148282,-0.567087,0.678076,0.006416,0.793293,-0.576021,-0.529533,1.236188,-0.189288,-6.305193,27.161297,-8.900650,-4.634218,0.076383,0.895492,-0.163102,0.000000,0.000000,0.000000,0.000000,0.000000,0.000000
12670201.000000,-2.371995,-1.662293,1.080463,-1.395061,1.755124,1.149478,-0.567277,0.681161,0.004157,0.808610,-0.572089,-0.533119,1.223424,-0.188920,-6.602740,27.189068,-8.952225,-4.884157,0.076383,1.090499,-0.169511,0.000000,0.000000,0.000000,0.000000,0.000000,0.000000
12670202.000000,-2.371293,-1.662290,1.081301,-1.395637,1.754604,1.150700,-0.567468,0.688756,0.003818,0.817554,-0.569976,-0.540807,1.219990,-0.184059,-6.951861,27.161297,-8.952225,-4.907960,0.010465,1.077682,-0.169511,0.000000,0.000000,0.000000,0.000000,0.000000,0.000000
12670203.000000,-2.370591,-1.662280,1.082166,-1.396205,1.754083,1.151942,-0.567650,0.696990,0.006277,0.826888,-0.567215,-0.537476,1.223597,-0.186242,-7.471575,27.014507,-8.999832,-4.884157,-0.013339,0.922042,-0.142960,0.000000,0.000000,0.000000,0.000000,0.000000,0.000000
12670204.000000,-2.369888,-1.662280,1.083019,-1.396777,1.753551,1.153158,-0.567831,0.692498,0.004408,0.834194,-0.570761,-0.531389,1.230192,-0.185919,-7.840533,27.014507,-8.999832,-4.733400,0.010465,0.759078,-0.169511,0.000000,0.000000,0.000000,0.000000,0.000000,0.000000
12670205.000000,-2.369167,-1.662267,1.083887,-1.397335,1.753039,1.154375,-0.568021,0.694774,0.006540,0.844288,-0.563337,-0.521729,1.221200,-0.183249,-8.435626,26.867718,-8.777664,-4.733400,0.010465,0.765487,-0.136552,0.000000,0.000000,0.000000,0.000000,0.000000,0.000000
12670206.000000,-2.368464,-1.662263,1.084763,-1.397891,1.752515,1.155559,-0.568194,0.696592,0.005599,0.849441,-0.558226,-0.520156,1.217837,-0.177667,-8.931537,26.820110,-8.559464,-4.709596,0.052579,0.895492,-0.196061,0.000000,0.000000,0.000000,0.000000,0.000000,0.000000
12670207.000000,-2.367756,-1.662252,1.085646,-1.398445,1.752001,1.156771,-0.568382,0.694247,0.006704,0.858260,-0.558034,-0.513831,1.214832,-0.181254,-9.352069,26.697124,-8.412674,-4.733400,0.076383,0.915633,-0.169511,0.000000,0.000000,0.000000,0.000000,0.000000,0.000000
12670208.000000,-2.367050,-1.662240,1.086555,-1.398981,1.751503,1.157980,-0.568563,0.710885,0.006860,0.868372,-0.547238,-0.515455,1.214283,-0.183773,-9.847980,26.597942,-8.384903,-4.884157,0.027860,0.922042,-0.155778,0.000000,0.000000,0.000000,0.000000,0.000000,0.000000
12670209.000000,-2.366335,-1.662231,1.087458,-1.399533,1.750996,1.159180,-0.568737,0.710201,0.005740,0.882302,-0.544295,-0.507942,1.214686,-0.178647,-10.292315,26.550335,-8.261917,-4.931764,0.010465,0.882674,-0.196061,0.000000,0.000000,0.000000,0.000000,0.000000,0.000000
12670210.000000,-2.365614,-1.662230,1.088394,-1.400086,1.750509,1.160388,-0.568922,0.711117,0.004628,0.903213,-0.547272,-0.498461,1.215772,-0.179007,-10.812030,26.649517,-8.313492,-4.907960,-0.013339,0.876266,-0.130143,0.000000,0.000000,0.000000,0.000000,0.000000,0.000000
12670211.000000,-2.364906,-1.662227,1.089351,-1.400630,1.750011,1.161575,-0.569089,0.713488,0.004206,0.911536,-0.543041,-0.495368,1.215960,-0.179919,-11.256366,26.748699,-8.484085,-4.757204,-0.049044,0.922042,-0.169511,0.000000,0.000000,0.000000,0.000000,0.000000,0.000000
12670212.000000,-2.364185,-1.662228,1.090307,-1.401177,1.749513,1.162770,-0.569267,0.711482,0.003129,0.924654,-0.540748,-0.493781,1.217614,-0.177244,-11.728473,26.895489,-8.682449,-4.757204,-0.060946,0.960494,-0.169511,0.000000,0.000000,0.000000,0.000000,0.000000,0.000000
12670213.000000,-2.363484,-1.662237,1.091275,-1.401717,1.749026,1.163976,-0.569450,0.720126,0.001220,0.930099,-0.551755,-0.496944,1.214555,-0.182035,-12.073627,27.089886,-8.805435,-4.661989,-0.091158,0.987045,-0.122819,0.000000,0.000000,0.000000,0.000000,0.000000,0.000000
12670214.000000,-2.362770,-1.662238,1.092234,-1.402245,1.748532,1.165164,-0.569617,0.717166,0.002370,0.936060,-0.538876,-0.489289,1.219768,-0.180138,-12.371173,27.189068,-8.777664,-4.808778,-0.103060,0.934859,-0.215287,0.000000,0.000000,0.000000,0.000000,0.000000,0.000000
12670215.000000,-2.362062,-1.662242,1.093217,-1.402774,1.748054,1.166357,-0.569801,0.713966,0.000161,0.953885,-0.534061,-0.487286,1.215371,-0.179642,-12.644916,27.284283,-8.777664,-5.007143,-0.043551,1.045638,-0.163102,0.000000,0.000000,0.000000,0.000000,0.000000,0.000000
12670216.000000,-2.361373,-1.662247,1.094196,-1.403298,1.747560,1.167536,-0.569972,0.707399,-0.000493,0.955248,-0.533798,-0.483989,1.227811,-0.177298,-12.815509,27.335857,-8.583267,-5.106325,-0.031649,1.247054,-0.155778,0.000000,0.000000,0.000000,0.000000,0.000000,0.000000
12670217.000000,-2.360663,-1.662257,1.095175,-1.403819,1.747065,1.168708,-0.570135,0.705301,-0.008264,0.962358,-0.524264,-0.483410,1.215190,-0.173124,-13.164630,27.431072,-8.436478,-5.304689,0.034269,1.344100,-0.208878,0.000000,0.000000,0.000000,0.000000,0.000000,0.000000
12670218.000000,-2.359963,-1.662267,1.096155,-1.404357,1.746583,1.169901,-0.570308,0.702567,-0.008002,0.963751,-0.526787,-0.492094,1.207560,-0.174238,-13.386798,27.530254,-8.019913,-5.276918,0.093778,1.240646,-0.136552,0.000000,0.000000,0.000000,0.000000,0.000000,0.000000
12670219.000000,-2.359269,-1.662275,1.097172,-1.404881,1.746101,1.171087,-0.570475,0.698898,-0.007134,0.976048,-0.527656,-0.489772,1.200587,-0.172950,-13.684344,27.601665,-7.821548,-5.253114,0.076383,1.064864,-0.169511,0.000000,0.000000,0.000000,0.000000,0.000000,0.000000
12670220.000000,-2.358570,-1.662274,1.098177,-1.405397,1.745641,1.172287,-0.570636,0.695008,-0.004296,0.986487,-0.521400,-0.485591,1.194427,-0.165960,-14.005694,27.577862,-7.599380,-5.352296,0.027860,0.869857,-0.208878,0.000000,0.000000,0.000000,0.000000,0.000000,0.000000
12670221.000000,-2.357903,-1.662280,1.099197,-1.405909,1.745172,1.173490,-0.570799,0.688307,-0.003494,0.991971,-0.518232,-0.474259,1.187218,-0.167142,-13.954120,27.601665,-7.357376,-5.427675,-0.049044,0.765487,-0.208878,0.000000,0.000000,0.000000,0.000000,0.000000,0.000000
12670222.000000,-2.357230,-1.662287,1.100216,-1.406402,1.744705,1.174668,-0.570969,0.678346,-0.004147,1.001414,-0.506811,-0.466713,1.179864,-0.165131,-13.954120,27.677044,-7.135208,-5.772829,-0.097567,0.700484,-0.155778,0.000000,0.000000,0.000000,0.000000,0.000000,0.000000
12670223.000000,-2.356560,-1.662289,1.101255,-1.406909,1.744261,1.175858,-0.571135,0.672409,-0.003362,1.013968,-0.501686,-0.465837,1.173232,-0.162548,-13.858905,27.700848,-6.889236,-5.994997,-0.168978,0.727035,-0.130143,0.000000,0.000000,0.000000,0.000000,0.000000,0.000000
12670224.000000,-2.355908,-1.662286,1.102320,-1.407390,1.743807,1.177028,-0.571283,0.662986,-0.001159,1.026231,-0.496274,-0.456002,1.170157,-0.156938,-13.684344,27.653240,-6.889236,-6.415529,-0.222994,0.792037,-0.202470,0.000000,0.000000,0.000000,0.000000,0.000000,0.000000
12670225.000000,-2.355246,-1.662280,1.103383,-1.407871,1.743357,1.178215,-0.571447,0.656149,0.002081,1.041992,-0.486276,-0.451807,1.167621,-0.157397,-13.684344,27.530254,-6.889236,-6.784486,-0.204684,0.857040,-0.149369,0.000000,0.000000,0.000000,0.000000,0.000000,0.000000
12670226.000000,-2.354598,-1.662274,1.104465,-1.408347,1.742919,1.179427,-0.571602,0.654373,0.004247,1.049518,-0.492148,-0.451606,1.169163,-0.154913,-13.632770,27.407269,-6.841629,-7.058229,-0.222994,0.727035,-0.175919,0.000000,0.000000,0.000000,0.000000,0.000000,0.000000
12670227.000000,-2.353941,-1.662265,1.105538,-1.408824,1.742463,1.180629,-0.571762,0.645663,0.006252,1.058838,-0.487590,-0.449655,1.180511,-0.153549,-13.684344,27.260479,-6.813858,-7.280397,-0.138766,0.544845,-0.188737,0.000000,0.000000,0.000000,0.000000,0.000000,0.000000
12670228.000000,-2.353272,-1.662254,1.106644,-1.409312,1.742030,1.181837,-0.571926,0.651603,0.007035,1.073053,-0.483280,-0.440527,1.178324,-0.154652,-13.858905,27.137493,-6.865433,-7.280397,-0.150668,0.466109,-0.142960,0.000000,0.000000,0.000000,0.000000,0.000000,0.000000
12670229.000000,-2.352620,-1.662242,1.107756,-1.409786,1.741588,1.183025,-0.572079,0.653514,0.008673,1.085621,-0.482198,-0.446618,1.186069,-0.151761,-13.930316,26.966900,-6.790054,-7.304201,-0.199191,0.446883,-0.196061,0.000000,0.000000,0.000000,0.000000,0.000000,0.000000
12670230.000000,-2.351975,-1.662229,1.108853,-1.410252,1.741142,1.184220,-0.572242,0.647544,0.009210,1.087917,-0.474680,-0.443737,1.178843,-0.153015,-13.882709,26.820110,-6.643265,-7.427186,-0.204684,0.524703,-0.149369,0.000000,0.000000,0.000000,0.000000,0.000000,0.000000
12670231.000000,-2.351322,-1.662216,1.109968,-1.410709,1.740721,1.185423,-0.572399,0.661078,0.016345,1.088389,-0.475557,-0.439562,1.187554,-0.153174,-13.906512,26.649517,-6.373489,-7.601747,-0.258700,0.616256,-0.130143,0.000000,0.000000,0.000000,0.000000,0.000000,0.000000
12670232.000000,-2.350693,-1.662206,1.111077,-1.411162,1.740287,1.186605,-0.572537,0.646860,0.015402,1.098003,-0.468839,-0.439145,1.186116,-0.144682,-13.807330,26.478924,-6.103714,-7.800111,-0.342013,0.694076,-0.215287,0.000000,0.000000,0.000000,0.000000,0.000000,0.000000
12670235.000000,-2.348779,-1.662166,1.114587,-1.412525,1.739005,1.190210,-0.572993,0.638192,0.015516,1.147217,-0.455505,-0.435939,1.190745,-0.149720,-13.882709,26.010784,-6.520279,-8.196840,-0.407931,0.635482,-0.163102,0.000000,0.000000,0.000000,0.000000,0.000000,0.000000
12670236.000000,-2.348136,-1.662160,1.115800,-1.412992,1.738575,1.191401,-0.573140,0.638264,0.011872,1.160907,-0.457841,-0.430099,1.179925,-0.149644,-13.981891,25.963177,-6.913040,-8.097658,-0.312716,0.629073,-0.149369,0.000000,0.000000,0.000000,0.000000,0.000000,0.000000
12670237.000000,-2.347513,-1.662155,1.117031,-1.413448,1.738170,1.192572,-0.573285,0.631802,0.009340,1.177329,-0.455713,-0.424435,1.183703,-0.144229,-13.954120,25.915569,-7.381180,-7.998476,-0.342013,0.706893,-0.175919,0.000000,0.000000,0.000000,0.000000,0.000000,0.000000
12670238.000000,-2.346879,-1.662153,1.118252,-1.413905,1.737752,1.193751,-0.573435,0.630665,0.006460,1.191195,-0.453112,-0.419372,1.179857,-0.147517,-14.005694,25.915569,-7.698563,-7.998476,-0.300814,0.824081,-0.130143,0.000000,0.000000,0.000000,0.000000,0.000000,0.000000
12670239.000000,-2.346260,-1.662155,1.119495,-1.414350,1.737337,1.194935,-0.573575,0.630182,0.002811,1.203764,-0.445864,-0.418744,1.174975,-0.142127,-13.882709,25.986980,-7.944534,-8.022280,-0.282504,0.908309,-0.169511,0.000000,0.000000,0.000000,0.000000,0.000000,0.000000
12670240.000000,-2.345638,-1.662159,1.120722,-1.414802,1.736929,1.196110,-0.573716,0.626538,-0.000315,1.210000,-0.443512,-0.420202,1.175730,-0.144164,-13.759723,26.086163,-8.067520,-8.069887,-0.324618,0.869857,-0.196061,0.000000,0.000000,0.000000,0.000000,0.000000,0.000000
12670241.000000,-2.345009,-1.662166,1.121967,-1.415254,1.736519,1.197280,-0.573861,0.622578,-0.003545,1.215397,-0.444958,-0.418464,1.172360,-0.147566,-13.708148,26.232952,-8.067520,-8.097658,-0.342013,0.993453,-0.155778,0.000000,0.000000,0.000000,0.000000,0.000000,0.000000
12670242.000000,-2.344386,-1.662174,1.123227,-1.415728,1.736100,1.198437,-0.573996,0.622518,-0.006837,1.222502,-0.453421,-0.416036,1.178720,-0.142297,-13.632770,26.427349,-8.043716,-7.823915,-0.258700,1.084090,-0.196061,0.000000,0.000000,0.000000,0.000000,0.000000,0.000000
12670243.000000,-2.343760,-1.662188,1.124458,-1.416196,1.735696,1.199623,-0.574140,0.622174,-0.006085,1.222638,-0.458224,-0.410684,1.184651,-0.143751,-13.585162,26.895489,-8.091324,-7.677125,-0.264193,1.019088,-0.208878,0.000000,0.000000,0.000000,0.000000,0.000000,0.000000
12670244.000000,-2.343148,-1.662215,1.125701,-1.416666,1.735290,1.200830,-0.574287,0.634343,-0.012420,1.217170,-0.469604,-0.408317,1.197330,-0.142889,-13.335223,27.823833,-8.531693,-7.526369,-0.234896,0.857040,-0.155778,0.000000,0.000000,0.000000,0.000000,0.000000,0.000000
12670245.000000,-2.342541,-1.662234,1.126923,-1.417141,1.734889,1.202013,-0.574431,0.619626,-0.012506,1.235600,-0.473308,-0.402518,1.202193,-0.140368,-12.867084,28.875164,-9.317215,-7.427186,-0.282504,0.792037,-0.149369,0.000000,0.000000,0.000000,0.000000,0.000000,0.000000
12670246.000000,-2.341928,-1.662256,1.128154,-1.417603,1.734503,1.203213,-0.574574,0.617935,-0.013814,1.234258,-0.465589,-0.395615,1.200400,-0.141767,-12.371173,30.148663,-10.324905,-7.502565,-0.300814,0.792037,-0.182328,0.000000,0.000000,0.000000,0.000000,0.000000,0.000000
12670247.000000,-2.341333,-1.662264,1.129396,-1.418063,1.734094,1.204394,-0.574714,0.607902,-0.014487,1.238745,-0.466493,-0.400857,1.225520,-0.138930,-11.752276,31.346783,-11.526993,-7.577943,-0.168978,0.869857,-0.196061,0.000000,0.000000,0.000000,0.000000,0.000000,0.000000
12670248.000000,-2.340731,-1.662268,1.130598,-1.418515,1.733694,1.205576,-0.574864,0.605119,-0.013415,1.226925,-0.456447,-0.402715,1.210709,-0.139265,-11.232562,32.497295,-12.459305,-7.800111,-0.085665,1.169235,-0.136552,0.000000,0.000000,0.000000,0.000000,0.000000,0.000000
12670249.000000,-2.340121,-1.662273,1.131832,-1.418976,1.733304,1.206765,-0.574995,0.605758,-0.015627,1.226095,-0.465127,-0.397243,1.201372,-0.135533,-10.887408,33.528790,-13.566177,-7.823915,0.069974,1.416427,-0.188737,0.000000,0.000000,0.000000,0.000000,0.000000,0.000000
12670250.000000,-2.339516,-1.662265,1.133080,-1.419434,1.732915,1.207939,-0.575137,0.602596,-0.007757,1.230734,-0.466841,-0.392637,1.192165,-0.140768,-10.689044,34.286541,-14.692886,-7.899293,0.117582,1.630660,-0.155778,0.000000,0.000000,0.000000,0.000000,0.000000,0.000000
12670251.000000,-2.338905,-1.662255,1.134307,-1.419895,1.732534,1.209132,-0.575283,0.603055,-0.005531,1.231885,-0.461028,-0.396832,1.190465,-0.143481,-10.538287,34.921307,-15.625198,-7.970705,0.159696,1.649886,-0.149369,0.000000,0.000000,0.000000,0.000000,0.000000,0.000000
12670252.000000,-2.338295,-1.662252,1.135540,-1.420361,1.732144,1.210324,-0.575420,0.604937,-0.001081,1.226650,-0.465281,-0.394395,1.192562,-0.139054,-10.538287,35.536236,-16.240128,-7.847719,0.231107,1.526290,-0.188737,0.000000,0.000000,0.000000,0.000000,0.000000,0.000000
12670253.000000,-2.337689,-1.662248,1.136761,-1.420820,1.731759,1.211505,-0.575561,0.602078,0.001546,1.226603,-0.458330,-0.393658,1.182253,-0.137633,-10.514483,36.024212,-16.755875,-7.847719,0.225614,1.532699,-0.175919,0.000000,0.000000,0.000000,0.000000,0.000000,0.000000
12670254.000000,-2.337089,-1.662244,1.138013,-1.421288,1.731392,1.212689,-0.575696,0.596679,0.001006,1.235666,-0.461362,-0.386000,1.167350,-0.135128,-10.367694,36.464581,-17.271622,-7.776308,0.129484,1.591293,-0.208878,0.000000,0.000000,0.000000,0.000000,0.000000,0.000000
12670255.000000,-2.336502,-1.662250,1.139278,-1.421722,1.731029,1.213851,-0.575841,0.592391,-0.004011,1.237962,-0.450403,-0.380268,1.160711,-0.136677,-10.216937,36.952557,-17.811172,-7.998476,0.046171,1.572067,-0.155778,0.000000,0.000000,0.000000,0.000000,0.000000,0.000000
12670256.000000,-2.335929,-1.662267,1.140530,-1.422156,1.730666,1.215023,-0.575978,0.583332,-0.006607,1.241439,-0.443532,-0.376508,1.154212,-0.134546,-9.871783,37.515911,-18.279312,-8.292055,-0.049044,1.552840,-0.175919,0.000000,0.000000,0.000000,0.000000,0.000000,0.000000
12670257.000000,-2.335376,-1.662291,1.141824,-1.422562,1.730300,1.216188,-0.576112,0.572663,-0.011803,1.247900,-0.432589,-0.371030,1.146302,-0.134654,-9.427447,38.079266,-19.037064,-8.740358,-0.085665,1.624252,-0.169511,0.000000,0.000000,0.000000,0.000000,0.000000,0.000000
12670258.000000,-2.334818,-1.662321,1.143116,-1.422964,1.729931,1.217314,-0.576247,0.565084,-0.015615,1.265407,-0.422538,-0.367770,1.137941,-0.134458,-8.979144,38.642620,-19.822586,-9.307680,-0.091158,1.884261,-0.155778,0.000000,0.000000,0.000000,0.000000,0.000000,0.000000
12670259.000000,-2.334268,-1.662362,1.144421,-1.423369,1.729576,1.218466,-0.576379,0.557141,-0.023365,1.273712,-0.415938,-0.360320,1.132326,-0.133838,-8.558612,39.281353,-20.560501,-9.704409,-0.109469,1.968490,-0.169511,0.000000,0.000000,0.000000,0.000000,0.000000,0.000000
12670260.000000,-2.333731,-1.662408,1.145724,-1.423759,1.729194,1.219624,-0.576513,0.554779,-0.028935,1.277996,-0.407290,-0.368680,1.143233,-0.134528,-8.138080,39.916119,-21.052444,-10.148745,-0.007845,1.844894,-0.142960,0.000000,0.000000,0.000000,0.000000,0.000000,0.000000
12670261.000000,-2.333184,-1.662454,1.147005,-1.424161,1.728812,1.220790,-0.576641,0.549250,-0.034941,1.278802,-0.407828,-0.375723,1.150501,-0.131983,-7.864336,40.503277,-21.445206,-10.271730,0.129484,1.721298,-0.188737,0.000000,0.000000,0.000000,0.000000,0.000000,0.000000
12670262.000000,-2.332642,-1.662501,1.148300,-1.424558,1.728456,1.221946,-0.576775,0.552369,-0.038933,1.276768,-0.412146,-0.366544,1.150563,-0.133107,-7.618365,41.066631,-21.810196,-10.394716,0.135892,1.727706,-0.163102,0.000000,0.000000,0.000000,0.000000,0.000000,0.000000
12670263.000000,-2.332122,-1.662551,1.149584,-1.424958,1.728091,1.223080,-0.576905,0.545570,-0.040880,1.300241,-0.407090,-0.368295,1.148660,-0.134061,-7.245440,41.578411,-21.837967,-10.418520,0.135892,1.786300,-0.130143,0.000000,0.000000,0.000000,0.000000,0.000000,0.000000
12670264.000000,-2.331599,-1.662605,1.150849,-1.425365,1.727721,1.224235,-0.577028,0.534044,-0.041761,1.287375,-0.404505,-0.367500,1.147865,-0.126915,-6.876482,42.193340,-21.810196,-10.370913,0.183500,1.767074,-0.182328,0.000000,0.000000,0.000000,0.000000,0.000000,0.000000
12670265.000000,-2.331091,-1.662655,1.152117,-1.425759,1.727370,1.225376,-0.577153,0.525894,-0.042627,1.278896,-0.402541,-0.362131,1.169699,-0.123445,-6.503558,42.681316,-21.568192,-10.319338,0.100187,1.773483,-0.188737,0.000000,0.000000,0.000000,0.000000,0.000000,0.000000
12670266.000000,-2.330582,-1.662692,1.153403,-1.426172,1.727020,1.226522,-0.577279,0.517304,-0.041805,1.284593,-0.403971,-0.358967,1.168461,-0.120953,-6.083025,42.974895,-21.885574,-10.097170,0.034269,1.936446,-0.182328,0.000000,0.000000,0.000000,0.000000,0.000000,0.000000
12670267.000000,-2.330070,-1.662729,1.154690,-1.426578,1.726670,1.227681,-0.577400,0.509353,-0.037998,1.282013,-0.406600,-0.356588,1.167362,-0.124171,-5.813250,43.244671,-21.984756,-9.950380,-0.043551,1.981307,-0.155778,0.000000,0.000000,0.000000,0.000000,0.000000,0.000000
12670268.000000,-2.329588,-1.662764,1.155988,-1.426988,1.726320,1.228833,-0.577517,0.501847,-0.036489,1.281034,-0.410964,-0.352040,1.168688,-0.120553,-5.364947,43.415264,-22.202957,-9.704409,-0.043551,1.871444,-0.175919,0.000000,0.000000,0.000000,0.000000,0.000000,0.000000
12670269.000000,-2.329103,-1.662794,1.157287,-1.427407,1.725969,1.229990,-0.577636,0.495754,-0.033438,1.288162,-0.411928,-0.358209,1.162974,-0.123189,-4.920611,43.490643,-22.623489,-9.383059,0.117582,1.865035,-0.182328,0.000000,0.000000,0.000000,0.000000,0.000000,0.000000
12670270.000000,-2.328612,-1.662814,1.158594,-1.427823,1.725627,1.231141,-0.577758,0.493929,-0.028128,1.283193,-0.411667,-0.358439,1.156311,-0.121518,-4.674639,43.415264,-23.016251,-9.109316,0.123990,1.962081,-0.163102,0.000000,0.000000,0.000000,0.000000,0.000000,0.000000
12670271.000000,-2.328132,-1.662838,1.159892,-1.428239,1.725276,1.232281,-0.577877,0.489626,-0.028607,1.287151,-0.408909,-0.355166,1.144128,-0.123803,-4.301714,43.367657,-23.504227,-8.910952,0.183500,2.007858,-0.169511,0.000000,0.000000,0.000000,0.000000,0.000000,0.000000
12670272.000000,-2.327663,-1.662865,1.161190,-1.428672,1.724920,1.233432,-0.577995,0.479442,-0.029964,1.292028,-0.411817,-0.357405,1.134764,-0.121790,-3.782000,43.343853,-23.726395,-8.664980,0.344633,2.014266,-0.155778,0.000000,0.000000,0.000000,0.000000,0.000000,0.000000
12670273.000000,-2.327191,-1.662886,1.162488,-1.429101,1.724576,1.234580,-0.578111,0.473911,-0.026678,1.289106,-0.417627,-0.358992,1.136834,-0.118614,-3.460650,43.268475,-23.873184,-8.391237,0.410551,1.949264,-0.188737,0.000000,0.000000,0.000000,0.000000,0.000000,0.000000
12670274.000000,-2.326719,-1.662911,1.163769,-1.429546,1.724233,1.235725,-0.578230,0.469030,-0.024508,1.290045,-0.423068,-0.351961,1.133494,-0.117088,-3.186907,43.197063,-24.019974,-8.022280,0.362943,2.027084,-0.188737,0.000000,0.000000,0.000000,0.000000,0.000000,0.000000
12670275.000000,-2.326255,-1.662933,1.165059,-1.429998,1.723895,1.236882,-0.578352,0.469223,-0.023078,1.283691,-0.430674,-0.344239,1.132985,-0.117951,-2.889361,43.121685,-24.119156,-7.526369,0.374845,2.072860,-0.142960,0.000000,0.000000,0.000000,0.000000,0.000000,0.000000
12670276.000000,-2.325786,-1.662956,1.166343,-1.430463,1.723570,1.238041,-0.578463,0.466789,-0.023135,1.287686,-0.442771,-0.334958,1.139514,-0.114256,-2.619586,43.097881,-24.341324,-7.006654,0.303434,1.909896,-0.208878,0.000000,0.000000,0.000000,0.000000,0.000000,0.000000
12670277.000000,-2.325332,-1.662984,1.167642,-1.430926,1.723241,1.239207,-0.578583,0.458370,-0.024723,1.288228,-0.450057,-0.335260,1.139740,-0.115376,-2.222857,43.145489,-24.559525,-6.538515,0.279630,1.800033,-0.175919,0.000000,0.000000,0.000000,0.000000,0.000000,0.000000
12670278.000000,-2.324894,-1.663006,1.168967,-1.431387,1.722900,1.240342,-0.578697,0.452360,-0.023806,1.294113,-0.450993,-0.337978,1.134239,-0.120021,-1.802325,43.097881,-25.051468,-6.141786,0.315336,1.890670,-0.163102,0.000000,0.000000,0.000000,0.000000,0.000000,0.000000
12670279.000000,-2.324439,-1.663034,1.170262,-1.431847,1.722563,1.241476,-0.578810,0.449951,-0.024177,1.293769,-0.454260,-0.334011,1.126724,-0.116915,-1.528582,43.097881,-25.468033,-5.872011,0.320829,2.079269,-0.196061,0.000000,0.000000,0.000000,0.000000,0.000000,0.000000
12670280.000000,-2.324007,-1.663062,1.171586,-1.432302,1.722225,1.242616,-0.578928,0.452511,-0.028274,1.298727,-0.462869,-0.331061,1.128448,-0.116825,-1.108050,43.121685,-26.082962,-5.673646,0.452665,2.215682,-0.175919,0.000000,0.000000,0.000000,0.000000,0.000000,0.000000
12670281.000000,-2.323581,-1.663091,1.172882,-1.432756,1.721879,1.243744,-0.579041,0.443586,-0.025560,1.321964,-0.460122,-0.335696,1.132845,-0.119912,-0.635943,43.173260,-26.182144,-5.598268,0.554288,2.287093,-0.196061,0.000000,0.000000,0.000000,0.000000,0.000000,0.000000
12670282.000000,-2.323150,-1.663114,1.174169,-1.433217,1.721545,1.244880,-0.579162,0.437355,-0.025390,1.313499,-0.456218,-0.338168,1.131478,-0.120084,-0.191607,43.173260,-26.424149,-5.475282,0.608304,2.404281,-0.149369,0.000000,0.000000,0.000000,0.000000,0.000000,0.000000
12670283.000000,-2.322723,-1.663132,1.175468,-1.433675,1.721212,1.246002,-0.579267,0.432913,-0.019825,1.307314,-0.460796,-0.334298,1.152326,-0.115068,0.129743,43.074078,-26.622513,-5.328493,0.632108,2.456466,-0.235429,0.000000,0.000000,0.000000,0.000000,0.000000,0.000000
12670284.000000,-2.322304,-1.663156,1.176733,-1.434143,1.720892,1.247147,-0.579390,0.426136,-0.021423,1.292626,-0.460360,-0.329055,1.149228,-0.117038,0.574079,43.074078,-26.547134,-5.054750,0.596403,2.410690,-0.169511,0.000000,0.000000,0.000000,0.000000,0.000000,0.000000
12670285.000000,-2.321875,-1.663180,1.178013,-1.434623,1.720567,1.248305,-0.579501,0.427207,-0.022945,1.286397,-0.463107,-0.330460,1.147023,-0.111161,0.772443,43.097881,-26.451920,-4.661989,0.559781,2.222091,-0.175919,0.000000,0.000000,0.000000,0.000000,0.000000,0.000000
12670286.000000,-2.321452,-1.663195,1.179285,-1.435090,1.720241,1.249442,-0.579613,0.427611,-0.021116,1.273958,-0.464479,-0.327294,1.140874,-0.111246,0.970807,42.998699,-26.205948,-4.289064,0.554288,2.047225,-0.188737,0.000000,0.000000,0.000000,0.000000,0.000000,0.000000
12670287.000000,-2.321032,-1.663214,1.180562,-1.435574,1.719924,1.250580,-0.579729,0.422421,-0.024295,1.273876,-0.466625,-0.326147,1.132847,-0.113192,1.216779,42.951092,-26.376541,-3.820925,0.494779,2.027084,-0.149369,0.000000,0.000000,0.000000,0.000000,0.000000,0.000000
12670288.000000,-2.320625,-1.663231,1.181823,-1.436031,1.719619,1.251734,-0.579827,0.416765,-0.023677,1.260363,-0.462637,-0.322590,1.134656,-0.106212,1.442914,42.903484,-26.130569,-3.622560,0.428861,1.981307,-0.208878,0.000000,0.000000,0.000000,0.000000,0.000000,0.000000
12670289.000000,-2.320210,-1.663254,1.183079,-1.436484,1.719293,1.252880,-0.579937,0.416009,-0.025409,1.263125,-0.456480,-0.325117,1.137656,-0.109956,1.641279,42.951092,-26.082962,-3.547182,0.506681,1.871444,-0.163102,0.000000,0.000000,0.000000,0.000000,0.000000,0.000000
12670290.000000,-2.319804,-1.663275,1.184343,-1.436934,1.718975,1.254012,-0.580037,0.406164,-0.022966,1.264388,-0.453216,-0.324145,1.129868,-0.104325,1.962629,42.974895,-26.007584,-3.570986,0.632108,1.968490,-0.208878,0.000000,0.000000,0.000000,0.000000,0.000000,0.000000
12670291.000000,-2.319396,-1.663291,1.185610,-1.437376,1.718657,1.255130,-0.580142,0.405057,-0.019715,1.260670,-0.445988,-0.321738,1.125130,-0.105511,2.160993,42.951092,-26.007584,-3.570986,0.733732,2.118636,-0.241837,0.000000,0.000000,0.000000,0.000000,0.000000,0.000000
12670292.000000,-2.318979,-1.663305,1.186846,-1.437827,1.718349,1.256262,-0.580254,0.404636,-0.020488,1.258798,-0.444880,-0.317930,1.123656,-0.110333,2.160993,42.927288,-25.884598,-3.499574,0.781339,2.235824,-0.169511,0.000000,0.000000,0.000000,0.000000,0.000000,0.000000
12670293.000000,-2.318567,-1.663329,1.188087,-1.438267,1.718029,1.257423,-0.580352,0.414924,-0.020282,1.247172,-0.448457,-0.316825,1.137389,-0.108733,2.160993,42.998699,-25.714005,-3.424196,0.876554,2.092086,-0.229020,0.000000,0.000000,0.000000,0.000000,0.000000,0.000000
12670294.000000,-2.318147,-1.663340,1.189315,-1.438720,1.717721,1.258587,-0.580458,0.416065,-0.016587,1.246194,-0.452850,-0.311238,1.152135,-0.111575,2.133222,42.927288,-25.642593,-3.249635,0.859159,1.786300,-0.188737,0.000000,0.000000,0.000000,0.000000,0.000000,0.000000
12670295.000000,-2.317720,-1.663349,1.190544,-1.439170,1.717440,1.259755,-0.580566,0.416321,-0.013178,1.235532,-0.446787,-0.297916,1.153845,-0.108539,1.986432,42.828106,-25.420425,-3.055238,0.698026,1.656295,-0.155778,0.000000,0.000000,0.000000,0.000000,0.000000,0.000000
12670296.000000,-2.317309,-1.663357,1.191786,-1.439611,1.717144,1.260901,-0.580660,0.410847,-0.010416,1.230622,-0.445197,-0.297772,1.160297,-0.103642,1.911054,42.705120,-25.345047,-2.880678,0.649503,1.584884,-0.196061,0.000000,0.000000,0.000000,0.000000,0.000000,0.000000
12670297.000000,-2.316901,-1.663367,1.193010,-1.440039,1.716848,1.262057,-0.580763,0.402928,-0.010691,1.228991,-0.436192,-0.296501,1.161351,-0.106815,1.962629,42.681316,-25.321243,-2.856874,0.578092,1.584884,-0.169511,0.000000,0.000000,0.000000,0.000000,0.000000,0.000000
12670298.000000,-2.316490,-1.663383,1.194255,-1.440456,1.716563,1.263207,-0.580863,0.411624,-0.011939,1.231856,-0.434839,-0.294052,1.157503,-0.103407,2.010236,42.705120,-25.468033,-2.956056,0.589994,1.727706,-0.175919,0.000000,0.000000,0.000000,0.000000,0.000000,0.000000
12670299.000000,-2.316097,-1.663390,1.195500,-1.440866,1.716275,1.264333,-0.580964,0.404555,-0.010042,1.233200,-0.422105,-0.287496,1.151306,-0.102408,2.208601,42.609905,-25.591019,-3.126650,0.625699,1.955673,-0.142960,0.000000,0.000000,0.000000,0.000000,0.000000,0.000000
12670300.000000,-2.315693,-1.663396,1.196739,-1.441272,1.716003,1.265477,-0.581060,0.403145,-0.009222,1.238264,-0.414510,-0.282675,1.142801,-0.099150,2.232404,42.534527,-25.959976,-3.348818,0.644010,2.137862,-0.175919,0.000000,0.000000,0.000000,0.000000,0.000000,0.000000
12670301.000000,-2.315298,-1.663401,1.197995,-1.441671,1.715712,1.266636,-0.581152,0.400616,-0.008097,1.238294,-0.405257,-0.285166,1.139684,-0.097290,2.331586,42.435345,-26.376541,-3.499574,0.703519,2.183639,-0.196061,0.000000,0.000000,0.000000,0.000000,0.000000,0.000000
12670302.000000,-2.314884,-1.663415,1.199213,-1.442083,1.715423,1.267779,-0.581249,0.402312,-0.010845,1.234764,-0.406999,-0.281348,1.134805,-0.095868,2.283979,42.486919,-26.451920,-3.523378,0.745634,2.150680,-0.208878,0.000000,0.000000,0.000000,0.000000,0.000000,0.000000
12670303.000000,-2.314463,-1.663425,1.200440,-1.442499,1.715144,1.268931,-0.581349,0.403603,-0.011480,1.225518,-0.406711,-0.282383,1.129473,-0.095707,2.085615,42.486919,-26.523331,-3.376589,0.769437,2.137862,-0.208878,0.000000,0.000000,0.000000,0.000000,0.000000,0.000000
12670304.000000,-2.314058,-1.663431,1.201670,-1.442910,1.714872,1.270055,-0.581451,0.398689,-0.010015,1.221013,-0.405391,-0.280057,1.129554,-0.095900,1.986432,42.411541,-26.523331,-3.249635,0.721830,2.196456,-0.196061,0.000000,0.000000,0.000000,0.000000,0.000000,0.000000
12670305.000000,-2.313653,-1.663440,1.202874,-1.443317,1.714602,1.271198,-0.581547,0.395837,-0.010220,1.214565,-0.402040,-0.274403,1.130690,-0.094952,1.962629,42.387737,-26.400345,-3.154421,0.673307,2.177230,-0.208878,0.000000,0.000000,0.000000,0.000000,0.000000,0.000000
12670306.000000,-2.313253,-1.663443,1.204084,-1.443716,1.714339,1.272352,-0.581653,0.395985,-0.008264,1.207389,-0.399638,-0.273248,1.134466,-0.101783,2.010236,42.264751,-26.130569,-3.102846,0.578092,2.092086,-0.149369,0.000000,0.000000,0.000000,0.000000,0.000000,0.000000
12670307.000000,-2.312854,-1.663450,1.205277,-1.444104,1.714078,1.273484,-0.581744,0.392956,-0.008591,1.200423,-0.392466,-0.268044,1.135887,-0.098991,2.061811,42.217144,-25.912369,-3.154421,0.500272,2.033492,-0.169511,0.000000,0.000000,0.000000,0.000000,0.000000,0.000000
12670308.000000,-2.312466,-1.663446,1.206501,-1.444496,1.713820,1.274625,-0.581836,0.387839,-0.002793,1.202755,-0.392005,-0.266813,1.132907,-0.100865,2.232404,42.046551,-25.884598,-3.126650,0.482877,2.020675,-0.229020,0.000000,0.000000,0.000000,0.000000,0.000000,0.000000
12670309.000000,-2.312078,-1.663448,1.207713,-1.444871,1.713572,1.275740,-0.581941,0.387532,-0.003496,1.201773,-0.385931,-0.260504,1.129023,-0.102138,2.283979,41.947369,-25.737808,-3.225832,0.446256,2.098495,-0.155778,0.000000,0.000000,0.000000,0.000000,0.000000,0.000000
12670310.000000,-2.311691,-1.663447,1.208911,-1.445257,1.713298,1.276893,-0.582034,0.382288,-0.002918,1.206641,-0.387033,-0.266170,1.142003,-0.098665,2.482343,41.800579,-25.690201,-3.178224,0.566190,2.033492,-0.188737,0.000000,0.000000,0.000000,0.000000,0.000000,0.000000
12670311.000000,-2.311308,-1.663446,1.210123,-1.445625,1.713028,1.278046,-0.582123,0.388678,-0.002585,1.198556,-0.379606,-0.270207,1.143986,-0.096629,2.605329,41.653790,-25.642593,-3.249635,0.691617,1.930038,-0.215287,0.000000,0.000000,0.000000,0.000000,0.000000,0.000000
12670312.000000,-2.310925,-1.663442,1.211321,-1.445996,1.712770,1.279182,-0.582217,0.387821,-0.001813,1.221462,-0.375898,-0.269192,1.148893,-0.097394,2.680707,41.483196,-25.714005,-3.249635,0.727323,1.838485,-0.196061,0.000000,0.000000,0.000000,0.000000,0.000000,0.000000
12670313.000000,-2.310538,-1.663440,1.212522,-1.446367,1.712523,1.280318,-0.582312,0.388410,-0.002283,1.214537,-0.372390,-0.256887,1.143472,-0.096933,2.680707,41.360210,-25.690201,-3.277406,0.691617,1.832076,-0.188737,0.000000,0.000000,0.000000,0.000000,0.000000,0.000000
12670314.000000,-2.310162,-1.663437,1.213712,-1.446728,1.712275,1.281444,-0.582398,0.386993,-0.000177,1.205335,-0.370022,-0.252976,1.135843,-0.095345,2.779890,41.261028,-25.420425,-3.301210,0.667814,1.838485,-0.215287,0.000000,0.000000,0.000000,0.000000,0.000000,0.000000
12670315.000000,-2.309777,-1.663436,1.214888,-1.447093,1.712025,1.282588,-0.582487,0.384111,0.000821,1.197804,-0.365916,-0.249316,1.126490,-0.094241,2.779890,41.189617,-25.273636,-3.376589,0.620206,1.825668,-0.235429,0.000000,0.000000,0.000000,0.000000,0.000000,0.000000
12670316.000000,-2.309391,-1.663432,1.216056,-1.447454,1.711783,1.283719,-0.582582,0.380154,-0.001290,1.183484,-0.359038,-0.240703,1.116140,-0.096533,2.752119,41.114239,-24.857071,-3.400392,0.535978,2.001449,-0.163102,0.000000,0.000000,0.000000,0.000000,0.000000,0.000000
12670317.000000,-2.309015,-1.663424,1.217231,-1.447812,1.711549,1.284841,-0.582667,0.379374,0.001351,1.173655,-0.359114,-0.238384,1.111712,-0.089415,2.752119,40.991253,-24.535721,-3.325014,0.446256,2.118636,-0.208878,0.000000,0.000000,0.000000,0.000000,0.000000,0.000000
12670318.000000,-2.308628,-1.663415,1.218399,-1.448163,1.711321,1.285996,-0.582759,0.383466,0.002628,1.170991,-0.352085,-0.237151,1.115328,-0.092134,2.652936,40.896038,-24.436539,-3.376589,0.386747,2.001449,-0.169511,0.000000,0.000000,0.000000,0.000000,0.000000,0.000000
12670319.000000,-2.308254,-1.663407,1.219583,-1.448514,1.711081,1.287149,-0.582844,0.378541,0.003698,1.165835,-0.353964,-0.241393,1.129004,-0.087444,2.652936,40.796856,-24.412735,-3.301210,0.434354,1.779891,-0.182328,0.000000,0.000000,0.000000,0.000000,0.000000,0.000000
12670320.000000,-2.307871,-1.663393,1.220768,-1.448854,1.710836,1.288302,-0.582929,0.377122,0.006175,1.173516,-0.348755,-0.243787,1.133566,-0.088756,2.553754,40.626263,-24.611099,-3.348818,0.470060,1.662704,-0.202470,0.000000,0.000000,0.000000,0.000000,0.000000,0.000000
12670321.000000,-2.307491,-1.663385,1.221975,-1.449194,1.710593,1.289444,-0.583015,0.373249,0.009279,1.184055,-0.343371,-0.241596,1.125770,-0.091473,2.454572,40.527081,-24.976089,-3.348818,0.524076,1.676437,-0.169511,0.000000,0.000000,0.000000,0.000000,0.000000,0.000000
12670322.000000,-2.307122,-1.663376,1.223175,-1.449513,1.710350,1.290557,-0.583093,0.370048,0.008602,1.184543,-0.334531,-0.240840,1.127882,-0.090700,2.482343,40.427898,-25.273636,-3.547182,0.613798,1.793624,-0.208878,0.000000,0.000000,0.000000,0.000000,0.000000,0.000000
12670323.000000,-2.306753,-1.663379,1.224355,-1.449835,1.710112,1.291692,-0.583179,0.364706,0.004601,1.188468,-0.329186,-0.238077,1.126316,-0.087361,2.605329,40.479473,-25.468033,-3.670168,0.649503,1.865035,-0.196061,0.000000,0.000000,0.000000,0.000000,0.000000,0.000000
12670324.000000,-2.306376,-1.663378,1.225539,-1.450150,1.709890,1.292814,-0.583263,0.370152,0.003121,1.181667,-0.327572,-0.233063,1.124259,-0.085736,2.506147,40.479473,-25.491837,-3.868532,0.596403,1.974899,-0.182328,0.000000,0.000000,0.000000,0.000000,0.000000,0.000000
12670325.000000,-2.306012,-1.663373,1.226718,-1.450475,1.709659,1.293919,-0.583343,0.367038,0.003328,1.181995,-0.324955,-0.228102,1.122731,-0.082279,2.581525,40.427898,-25.666397,-3.868532,0.524076,2.079269,-0.202470,0.000000,0.000000,0.000000,0.000000,0.000000,0.000000
12670326.000000,-2.305637,-1.663374,1.227888,-1.450789,1.709434,1.295047,-0.583426,0.370965,0.001600,1.173997,-0.320735,-0.224290,1.120409,-0.082097,2.506147,40.455669,-25.468033,-3.943910,0.422452,2.039901,-0.163102,0.000000,0.000000,0.000000,0.000000,0.000000,0.000000
12670327.000000,-2.305257,-1.663375,1.229059,-1.451115,1.709206,1.296167,-0.583503,0.376913,0.000532,1.166435,-0.319281,-0.224996,1.121241,-0.079176,2.307783,40.479473,-25.174454,-3.820925,0.416959,1.974899,-0.196061,0.000000,0.000000,0.000000,0.000000,0.000000,0.000000
12670328.000000,-2.304882,-1.663376,1.230205,-1.451443,1.708975,1.297297,-0.583579,0.374143,-0.000741,1.162799,-0.321023,-0.227037,1.118069,-0.078730,2.232404,40.527081,-24.805496,-3.670168,0.452665,1.903487,-0.182328,0.000000,0.000000,0.000000,0.000000,0.000000,0.000000
12670329.000000,-2.304490,-1.663373,1.231369,-1.451758,1.708754,1.298441,-0.583655,0.386353,0.004353,1.151202,-0.327718,-0.222818,1.116189,-0.076871,1.887250,40.455669,-24.583328,-3.622560,0.470060,1.786300,-0.208878,0.000000,0.000000,0.000000,0.000000,0.000000,0.000000
12670330.000000,-2.304115,-1.663371,1.232527,-1.452081,1.708529,1.299576,-0.583739,0.385328,0.003175,1.178213,-0.327295,-0.223934,1.120915,-0.083012,1.665082,40.455669,-24.464310,-3.475771,0.482877,1.637069,-0.149369,0.000000,0.000000,0.000000,0.000000,0.000000,0.000000
12670331.000000,-2.303744,-1.663372,1.233676,-1.452385,1.708303,1.300720,-0.583818,0.378095,0.001765,1.169094,-0.315168,-0.228651,1.126327,-0.080526,1.565900,40.479473,-24.095352,-3.547182,0.464567,1.487838,-0.163102,0.000000,0.000000,0.000000,0.000000,0.000000,0.000000
12670332.000000,-2.303376,-1.663372,1.234855,-1.452689,1.708068,1.301844,-0.583892,0.372446,0.004494,1.168418,-0.314081,-0.226529,1.147961,-0.077913,1.490522,40.479473,-24.142960,-3.570986,0.547880,1.507064,-0.202470,0.000000,0.000000,0.000000,0.000000,0.000000,0.000000
12670333.000000,-2.303003,-1.663371,1.236003,-1.452987,1.707849,1.302957,-0.583976,0.367415,0.002818,1.161565,-0.306091,-0.225080,1.134908,-0.078718,1.415143,40.503277,-24.019974,-3.622560,0.518583,1.747848,-0.163102,0.000000,0.000000,0.000000,0.000000,0.000000,0.000000
12670334.000000,-2.302631,-1.663367,1.237175,-1.453272,1.707639,1.304078,-0.584049,0.368836,0.003276,1.157573,-0.300460,-0.223850,1.125902,-0.075821,1.292158,40.455669,-24.043777,-3.820925,0.476469,1.974899,-0.208878,0.000000,0.000000,0.000000,0.000000,0.000000,0.000000
12670337.000000,-2.301494,-1.663345,1.240642,-1.454166,1.706985,1.307497,-0.584283,0.377377,0.006375,1.147689,-0.298657,-0.225193,1.139526,-0.076268,0.601850,40.185894,-23.896988,-3.570986,0.470060,1.800033,-0.188737,0.000000,0.000000,0.000000,0.000000,0.000000,0.000000
12670338.000000,-2.301105,-1.663334,1.241763,-1.454460,1.706768,1.308612,-0.584363,0.381270,0.007217,1.140353,-0.297381,-0.220563,1.134540,-0.077176,0.252729,40.062908,-23.579605,-3.499574,0.470060,1.871444,-0.155778,0.000000,0.000000,0.000000,0.000000,0.000000,0.000000
12670339.000000,-2.300719,-1.663323,1.242908,-1.454755,1.706556,1.309742,-0.584434,0.382457,0.007756,1.136274,-0.294057,-0.213621,1.128170,-0.074969,-0.044818,39.939922,-23.409012,-3.400392,0.494779,1.865035,-0.202470,0.000000,0.000000,0.000000,0.000000,0.000000,0.000000
12670340.000000,-2.300340,-1.663310,1.244061,-1.455043,1.706345,1.310861,-0.584509,0.381843,0.007541,1.133591,-0.291738,-0.217588,1.126862,-0.075613,-0.290789,39.840740,-23.286026,-3.424196,0.524076,1.819259,-0.188737,0.000000,0.000000,0.000000,0.000000,0.000000,0.000000
12670341.000000,-2.299965,-1.663296,1.245199,-1.455321,1.706145,1.311991,-0.584586,0.377231,0.011006,1.136475,-0.286149,-0.211768,1.118907,-0.071328,-0.389971,39.721722,-23.210648,-3.598757,0.434354,1.812850,-0.175919,0.000000,0.000000,0.000000,0.000000,0.000000,0.000000
12670342.000000,-2.299586,-1.663283,1.246372,-1.455598,1.705935,1.313129,-0.584654,0.375100,0.010506,1.148257,-0.282552,-0.210000,1.118538,-0.066551,-0.489153,39.598736,-23.504227,-3.646364,0.405057,1.773483,-0.221696,0.000000,0.000000,0.000000,0.000000,0.000000,0.000000
12670343.000000,-2.299214,-1.663271,1.247527,-1.455873,1.705721,1.314239,-0.584731,0.371123,0.009543,1.147251,-0.280886,-0.207685,1.113673,-0.065929,-0.465350,39.499554,-23.774002,-3.797121,0.362943,1.858627,-0.175919,0.000000,0.000000,0.000000,0.000000,0.000000,0.000000
12670344.000000,-2.298842,-1.663262,1.248704,-1.456163,1.705510,1.315355,-0.584797,0.371425,0.009508,1.154333,-0.285002,-0.208098,1.113658,-0.067099,-0.441546,39.499554,-24.095352,-3.721742,0.369352,1.930038,-0.208878,0.000000,0.000000,0.000000,0.000000,0.000000,0.000000
12670345.000000,-2.298466,-1.663253,1.249877,-1.456433,1.705294,1.316470,-0.584870,0.375524,0.009755,1.159631,-0.281224,-0.210965,1.110237,-0.070371,-0.564532,39.499554,-24.313553,-3.797121,0.446256,1.916305,-0.188737,0.000000,0.000000,0.000000,0.000000,0.000000,0.000000
12670346.000000,-2.298094,-1.663244,1.251032,-1.456702,1.705085,1.317582,-0.584939,0.370382,0.010079,1.158380,-0.276147,-0.206335,1.108995,-0.070746,-0.663714,39.499554,-24.583328,-3.943910,0.470060,1.974899,-0.208878,0.000000,0.000000,0.000000,0.000000,0.000000,0.000000
12670347.000000,-2.297734,-1.663231,1.252203,-1.456973,1.704889,1.318710,-0.585012,0.376364,0.008486,1.158798,-0.280149,-0.205229,1.108993,-0.077128,-0.687518,39.451946,-24.757889,-3.991518,0.440763,2.020675,-0.196061,0.000000,0.000000,0.000000,0.000000,0.000000,0.000000
12670348.000000,-2.297373,-1.663223,1.253352,-1.457229,1.704683,1.319819,-0.585089,0.370719,0.008617,1.174360,-0.269156,-0.204643,1.116133,-0.078309,-0.735125,39.475750,-24.583328,-4.166078,0.422452,2.001449,-0.155778,0.000000,0.000000,0.000000,0.000000,0.000000,0.000000
12670349.000000,-2.297014,-1.663219,1.254482,-1.457498,1.704479,1.320942,-0.585155,0.364948,0.004694,1.162065,-0.267428,-0.201223,1.119725,-0.075798,-0.711321,39.547161,-24.388931,-4.189882,0.428861,1.968490,-0.208878,0.000000,0.000000,0.000000,0.000000,0.000000,0.000000
12670350.000000,-2.296660,-1.663209,1.255625,-1.457760,1.704276,1.322052,-0.585229,0.362208,0.007435,1.150036,-0.264249,-0.203209,1.137016,-0.077843,-0.735125,39.523357,-24.095352,-4.166078,0.440763,2.039901,-0.155778,0.000000,0.000000,0.000000,0.000000,0.000000,0.000000
12670351.000000,-2.296304,-1.663197,1.256747,-1.458027,1.704084,1.323150,-0.585299,0.355244,0.009835,1.140594,-0.263158,-0.197662,1.127479,-0.076771,-0.711321,39.475750,-23.702591,-4.066896,0.386747,2.131454,-0.163102,0.000000,0.000000,0.000000,0.000000,0.000000,0.000000
12670352.000000,-2.295955,-1.663184,1.257886,-1.458297,1.703901,1.324276,-0.585362,0.350568,0.011567,1.138533,-0.265565,-0.192984,1.116376,-0.074112,-0.663714,39.428143,-23.409012,-3.967714,0.315336,2.053634,-0.215287,0.000000,0.000000,0.000000,0.000000,0.000000,0.000000
12670353.000000,-2.295617,-1.663171,1.259031,-1.458557,1.703711,1.325404,-0.585434,0.348403,0.012894,1.139397,-0.265592,-0.191189,1.119457,-0.076326,-0.564532,39.376568,-23.234451,-3.943910,0.297025,1.838485,-0.169511,0.000000,0.000000,0.000000,0.000000,0.000000,0.000000
12670354.000000,-2.295284,-1.663153,1.260164,-1.458817,1.703516,1.326540,-0.585495,0.344193,0.015511,1.139085,-0.262006,-0.199475,1.117806,-0.070395,-0.366168,39.253582,-23.135269,-3.920107,0.303434,1.682845,-0.196061,0.000000,0.000000,0.000000,0.000000,0.000000,0.000000
12670355.000000,-2.294946,-1.663133,1.261312,-1.459068,1.703323,1.327660,-0.585563,0.342806,0.017976,1.135692,-0.261148,-0.199565,1.115856,-0.067482,-0.342364,39.106792,-23.111465,-3.967714,0.249418,1.689254,-0.182328,0.000000,0.000000,0.000000,0.000000,0.000000,0.000000
12670356.000000,-2.294625,-1.663120,1.262448,-1.459326,1.703121,1.328765,-0.585631,0.333399,0.017200,1.134879,-0.258576,-0.204224,1.108742,-0.065237,-0.092425,39.059185,-23.186844,-3.967714,0.320829,1.721298,-0.169511,0.000000,0.000000,0.000000,0.000000,0.000000,0.000000
12670357.000000,-2.294304,-1.663102,1.263590,-1.459575,1.702919,1.329889,-0.585695,0.325304,0.015327,1.134735,-0.254339,-0.204416,1.108687,-0.066527,0.078168,38.936199,-23.163040,-4.066896,0.428861,1.695663,-0.202470,0.000000,0.000000,0.000000,0.000000,0.000000,0.000000
12670358.000000,-2.293989,-1.663089,1.264735,-1.459819,1.702728,1.331000,-0.585760,0.322919,0.014676,1.133792,-0.252282,-0.199929,1.109655,-0.064646,0.228925,38.912395,-23.111465,-4.142274,0.428861,1.702071,-0.188737,0.000000,0.000000,0.000000,0.000000,0.000000,0.000000
12670359.000000,-2.293667,-1.663073,1.265863,-1.460071,1.702539,1.332112,-0.585821,0.317950,0.015520,1.130470,-0.248552,-0.197421,1.113716,-0.062030,0.351911,38.837017,-23.111465,-4.142274,0.440763,1.754256,-0.202470,0.000000,0.000000,0.000000,0.000000,0.000000,0.000000
12670360.000000,-2.293358,-1.663060,1.266998,-1.460316,1.702356,1.333235,-0.585885,0.316722,0.015512,1.123798,-0.246732,-0.197070,1.118123,-0.062203,0.526471,38.789410,-23.016251,-4.118471,0.369352,1.793624,-0.163102,0.000000,0.000000,0.000000,0.000000,0.000000,0.000000
12670361.000000,-2.293039,-1.663041,1.268101,-1.460568,1.702163,1.334346,-0.585940,0.315084,0.013583,1.119093,-0.245342,-0.194050,1.117387,-0.058549,0.601850,38.690228,-22.718704,-3.967714,0.351041,1.670028,-0.221696,0.000000,0.000000,0.000000,0.000000,0.000000,0.000000
12670362.000000,-2.292726,-1.663024,1.269228,-1.460822,1.701975,1.335474,-0.586010,0.310964,0.011973,1.122519,-0.246870,-0.192399,1.111233,-0.065579,0.649457,38.595013,-22.548111,-3.820925,0.339139,1.630660,-0.149369,0.000000,0.000000,0.000000,0.000000,0.000000,0.000000
12670363.000000,-2.292419,-1.663004,1.270365,-1.461070,1.701792,1.336575,-0.586069,0.310671,0.014974,1.118638,-0.244762,-0.190151,1.123703,-0.063428,0.724836,38.448223,-22.500504,-3.670168,0.297025,1.624252,-0.142960,0.000000,0.000000,0.000000,0.000000,0.000000,0.000000
12670364.000000,-2.292114,-1.662982,1.271498,-1.461319,1.701610,1.337712,-0.586121,0.307363,0.017330,1.125774,-0.243000,-0.184853,1.125864,-0.058485,0.895429,38.301434,-22.595718,-3.499574,0.285123,1.507064,-0.229020,0.000000,0.000000,0.000000,0.000000,0.000000,0.000000
12670365.000000,-2.291814,-1.662965,1.272650,-1.461555,1.701424,1.338851,-0.586189,0.307433,0.017796,1.133387,-0.243584,-0.183305,1.124267,-0.061406,1.046186,38.202251,-22.794083,-3.475771,0.339139,1.448470,-0.142960,0.000000,0.000000,0.000000,0.000000,0.000000,0.000000
12670366.000000,-2.291527,-1.662942,1.273794,-1.461804,1.701243,1.339967,-0.586246,0.300371,0.019279,1.136234,-0.241826,-0.185182,1.122347,-0.058462,1.315961,38.055462,-23.163040,-3.348818,0.362943,1.409103,-0.188737,0.000000,0.000000,0.000000,0.000000,0.000000,0.000000
12670367.000000,-2.291237,-1.662929,1.274957,-1.462043,1.701062,1.341082,-0.586305,0.297461,0.018007,1.141007,-0.237480,-0.187344,1.112308,-0.057049,1.490522,38.007854,-23.555801,-3.325014,0.398649,1.559249,-0.215287,0.000000,0.000000,0.000000,0.000000,0.000000,0.000000
12670368.000000,-2.290959,-1.662915,1.276114,-1.462282,1.700873,1.342161,-0.586371,0.291475,0.016649,1.141524,-0.237745,-0.184377,1.123846,-0.059748,1.688886,37.984051,-23.774002,-3.178224,0.440763,1.858627,-0.149369,0.000000,0.000000,0.000000,0.000000,0.000000,0.000000
12670369.000000,-2.290676,-1.662899,1.277248,-1.462528,1.700692,1.343273,-0.586427,0.286388,0.016280,1.135153,-0.240437,-0.180031,1.116264,-0.061711,1.911054,37.932476,-23.920792,-3.027467,0.428861,2.007858,-0.196061,0.000000,0.000000,0.000000,0.000000,0.000000,0.000000
12670370.000000,-2.290387,-1.662881,1.278403,-1.462773,1.700514,1.344393,-0.586487,0.285252,0.016658,1.138579,-0.239676,-0.178095,1.114166,-0.065413,2.034040,37.861065,-24.019974,-2.880678,0.446256,2.039901,-0.182328,0.000000,0.000000,0.000000,0.000000,0.000000,0.000000
12670371.000000,-2.290101,-1.662865,1.279546,-1.463012,1.700344,1.345508,-0.586547,0.286634,0.017019,1.140574,-0.236497,-0.169667,1.117906,-0.063955,2.061811,37.785686,-23.896988,-2.706117,0.410551,1.962081,-0.163102,0.000000,0.000000,0.000000,0.000000,0.000000,0.000000
12670372.000000,-2.289814,-1.662841,1.280675,-1.463270,1.700173,1.346624,-0.586599,0.283369,0.018947,1.137249,-0.243545,-0.164448,1.114512,-0.064759,2.109418,37.638897,-23.849380,-2.360964,0.393156,1.884261,-0.215287,0.000000,0.000000,0.000000,0.000000,0.000000,0.000000
12670373.000000,-2.289531,-1.662823,1.281808,-1.463522,1.700002,1.347745,-0.586659,0.283567,0.015320,1.131609,-0.244072,-0.166319,1.110727,-0.064582,2.061811,37.567486,-23.627213,-2.091188,0.410551,1.844894,-0.169511,0.000000,0.000000,0.000000,0.000000,0.000000,0.000000
12670374.000000,-2.289251,-1.662811,1.282919,-1.463777,1.699823,1.348835,-0.586710,0.280789,0.013672,1.123624,-0.247787,-0.168109,1.096844,-0.060805,2.109418,37.591290,-23.258255,-1.817445,0.446256,1.858627,-0.215287,0.000000,0.000000,0.000000,0.000000,0.000000,0.000000
12670375.000000,-2.288967,-1.662802,1.284051,-1.464021,1.699645,1.349947,-0.586771,0.279439,0.009402,1.126067,-0.243913,-0.175657,1.093355,-0.061290,2.133222,37.615093,-23.063858,-1.694460,0.518583,1.877853,-0.175919,0.000000,0.000000,0.000000,0.000000,0.000000,0.000000
12670376.000000,-2.288690,-1.662783,1.285191,-1.464259,1.699483,1.351046,-0.586827,0.278627,0.011726,1.123734,-0.243635,-0.171744,1.089656,-0.059291,2.160993,37.539715,-22.964676,-1.742067,0.458158,1.865035,-0.196061,0.000000,0.000000,0.000000,0.000000,0.000000,0.000000
12670377.000000,-2.288425,-1.662764,1.286320,-1.464497,1.699320,1.352168,-0.586879,0.271874,0.013257,1.127119,-0.240538,-0.169421,1.095687,-0.057890,2.406965,37.468304,-22.940872,-1.769838,0.410551,1.760665,-0.215287,0.000000,0.000000,0.000000,0.000000,0.000000,0.000000
12670378.000000,-2.288152,-1.662748,1.287461,-1.464721,1.699157,1.353301,-0.586938,0.270623,0.014693,1.126978,-0.233644,-0.170084,1.096957,-0.060194,2.406965,37.392925,-22.940872,-1.892824,0.422452,1.591293,-0.163102,0.000000,0.000000,0.000000,0.000000,0.000000,0.000000
12670379.000000,-2.287883,-1.662741,1.288586,-1.464957,1.699000,1.354403,-0.586986,0.268610,0.012037,1.127481,-0.234684,-0.159725,1.101002,-0.057501,2.430768,37.468304,-22.988480,-1.892824,0.405057,1.572067,-0.208878,0.000000,0.000000,0.000000,0.000000,0.000000,0.000000
12670380.000000,-2.287614,-1.662729,1.289734,-1.465198,1.698842,1.355510,-0.587040,0.269402,0.012036,1.129515,-0.231444,-0.158606,1.101839,-0.057818,2.482343,37.468304,-23.111465,-1.793642,0.428861,1.702071,-0.196061,0.000000,0.000000,0.000000,0.000000,0.000000,0.000000
12670381.000000,-2.287342,-1.662723,1.290879,-1.465428,1.698679,1.356604,-0.587096,0.272188,0.009697,1.127521,-0.228451,-0.162582,1.128206,-0.054205,2.454572,37.567486,-23.186844,-1.718263,0.452665,1.779891,-0.163102,0.000000,0.000000,0.000000,0.000000,0.000000,0.000000
12670382.000000,-2.287066,-1.662719,1.291987,-1.465653,1.698519,1.357729,-0.587143,0.269058,0.008468,1.121599,-0.228752,-0.163547,1.127116,-0.047940,2.359357,37.662701,-23.016251,-1.642885,0.428861,1.721298,-0.215287,0.000000,0.000000,0.000000,0.000000,0.000000,0.000000
12670383.000000,-2.286791,-1.662706,1.293118,-1.465874,1.698352,1.358856,-0.587199,0.277680,0.010923,1.119916,-0.232827,-0.163034,1.121261,-0.051801,2.260175,37.615093,-22.988480,-1.642885,0.494779,1.546432,-0.163102,0.000000,0.000000,0.000000,0.000000,0.000000,0.000000
12670384.000000,-2.286525,-1.662689,1.294242,-1.466090,1.698199,1.359962,-0.587242,0.275083,0.010612,1.116180,-0.226984,-0.162600,1.114301,-0.051208,2.208601,37.515911,-22.770279,-1.670656,0.452665,1.559249,-0.208878,0.000000,0.000000,0.000000,0.000000,0.000000,0.000000
12670385.000000,-2.286251,-1.662673,1.295348,-1.466305,1.698049,1.361068,-0.587291,0.272553,0.013225,1.116716,-0.220006,-0.158022,1.100236,-0.048259,2.034040,37.420696,-22.595718,-1.670656,0.428861,1.624252,-0.202470,0.000000,0.000000,0.000000,0.000000,0.000000,0.000000
12670386.000000,-2.285986,-1.662665,1.296461,-1.466512,1.697882,1.362182,-0.587340,0.271379,0.011699,1.108279,-0.214640,-0.160019,1.093737,-0.050982,1.962629,37.468304,-22.353714,-1.694460,0.530485,1.760665,-0.188737,0.000000,0.000000,0.000000,0.000000,0.000000,0.000000
12670387.000000,-2.285716,-1.662652,1.297574,-1.466725,1.697726,1.363281,-0.587391,0.270043,0.011822,1.108176,-0.213796,-0.161446,1.091969,-0.052063,1.911054,37.468304,-22.325943,-1.718263,0.512174,1.812850,-0.196061,0.000000,0.000000,0.000000,0.000000,0.000000,0.000000
12670388.000000,-2.285439,-1.662636,1.298721,-1.466938,1.697587,1.364405,-0.587440,0.269001,0.013739,1.124608,-0.212474,-0.154869,1.099060,-0.048542,1.740461,37.392925,-22.623489,-1.642885,0.405057,1.741439,-0.196061,0.000000,0.000000,0.000000,0.000000,0.000000,0.000000
12670389.000000,-2.285171,-1.662620,1.299877,-1.467137,1.697434,1.365509,-0.587492,0.270022,0.015630,1.126567,-0.208827,-0.152858,1.100260,-0.050891,1.613508,37.297710,-22.988480,-1.670656,0.374845,1.682845,-0.188737,0.000000,0.000000,0.000000,0.000000,0.000000,0.000000
12670390.000000,-2.284903,-1.662604,1.301024,-1.467333,1.697282,1.366628,-0.587542,0.269604,0.015773,1.132302,-0.202174,-0.150996,1.102652,-0.052481,1.514325,37.246136,-23.432816,-1.718263,0.327238,1.578475,-0.182328,0.000000,0.000000,0.000000,0.000000,0.000000,0.000000
12670391.000000,-2.284637,-1.662595,1.302178,-1.467523,1.697123,1.367735,-0.587588,0.267215,0.016647,1.137145,-0.199068,-0.153613,1.102289,-0.047987,1.391340,37.297710,-23.801773,-1.841249,0.393156,1.637069,-0.202470,0.000000,0.000000,0.000000,0.000000,0.000000,0.000000
12670392.000000,-2.284375,-1.662588,1.303301,-1.467706,1.696963,1.368805,-0.587638,0.263445,0.017557,1.134706,-0.193141,-0.151334,1.097557,-0.050882,1.343732,37.345318,-23.948563,-1.992006,0.482877,1.851302,-0.182328,0.000000,0.000000,0.000000,0.000000,0.000000,0.000000
12670393.000000,-2.284107,-1.662584,1.304437,-1.467887,1.696813,1.369895,-0.587685,0.261457,0.014525,1.130817,-0.188373,-0.151509,1.090054,-0.047309,1.268354,37.420696,-23.972366,-2.162599,0.500272,1.988631,-0.188737,0.000000,0.000000,0.000000,0.000000,0.000000,0.000000
12670394.000000,-2.283840,-1.662577,1.305576,-1.468058,1.696662,1.370978,-0.587730,0.261209,0.013102,1.128534,-0.181599,-0.150753,1.079770,-0.048650,1.145368,37.468304,-24.019974,-2.337160,0.488370,1.949264,-0.215287,0.000000,0.000000,0.000000,0.000000,0.000000,0.000000
12670395.000000,-2.283574,-1.662571,1.306679,-1.468240,1.696515,1.372078,-0.587781,0.264844,0.008914,1.120192,-0.178633,-0.149815,1.077044,-0.047861,0.970807,37.515911,-23.774002,-2.412538,0.464567,1.897079,-0.163102,0.000000,0.000000,0.000000,0.000000,0.000000,0.000000
12670396.000000,-2.283306,-1.662575,1.307803,-1.468425,1.696376,1.373187,-0.587824,0.269751,0.005439,1.114292,-0.185003,-0.144259,1.077076,-0.043976,0.796247,37.714275,-23.504227,-2.360964,0.434354,1.786300,-0.196061,0.000000,0.000000,0.000000,0.000000,0.000000,0.000000
12670397.000000,-2.283039,-1.662574,1.308904,-1.468603,1.696230,1.374271,-0.587868,0.265760,0.004323,1.132874,-0.179815,-0.144257,1.080895,-0.042168,0.601850,37.861065,-23.135269,-2.360964,0.398649,1.793624,-0.202470,0.000000,0.000000,0.000000,0.000000,0.000000,0.000000
12670398.000000,-2.282779,-1.662574,1.310031,-1.468774,1.696078,1.375363,-0.587910,0.263147,0.004093,1.127897,-0.176484,-0.146173,1.076113,-0.040585,0.502668,37.984051,-23.016251,-2.337160,0.398649,1.838485,-0.215287,0.000000,0.000000,0.000000,0.000000,0.000000,0.000000
12670399.000000,-2.282525,-1.662575,1.311153,-1.468928,1.695933,1.376467,-0.587958,0.263035,0.005347,1.121408,-0.168729,-0.145892,1.109027,-0.041415,0.474897,38.055462,-22.817886,-2.535524,0.356534,1.656295,-0.175919,0.000000,0.000000,0.000000,0.000000,0.000000,0.000000
12670400.000000,-2.282265,-1.662569,1.312262,-1.469078,1.695789,1.377597,-0.588003,0.257608,0.005152,1.119700,-0.161244,-0.143014,1.121089,-0.041288,0.403486,38.031658,-22.694901,-2.805300,0.362943,1.383468,-0.155778,0.000000,0.000000,0.000000,0.000000,0.000000,0.000000
12670401.000000,-2.282016,-1.662564,1.313397,-1.469229,1.695644,1.378715,-0.588038,0.256662,0.004765,1.124140,-0.157976,-0.142229,1.121714,-0.038587,0.427289,38.007854,-22.794083,-3.003664,0.410551,1.299239,-0.202470,0.000000,0.000000,0.000000,0.000000,0.000000,0.000000
12670402.000000,-2.281763,-1.662566,1.314524,-1.469371,1.695504,1.379800,-0.588081,0.257382,0.002643,1.119977,-0.153076,-0.139656,1.115407,-0.038977,0.328107,38.055462,-22.742508,-3.178224,0.416959,1.416427,-0.188737,0.000000,0.000000,0.000000,0.000000,0.000000,0.000000
12670403.000000,-2.281507,-1.662562,1.315643,-1.469513,1.695365,1.380890,-0.588132,0.255325,0.002754,1.119358,-0.146616,-0.142424,1.100642,-0.045869,0.177350,38.031658,-22.841690,-3.325014,0.440763,1.624252,-0.122819,0.000000,0.000000,0.000000,0.000000,0.000000,0.000000
12670404.000000,-2.281262,-1.662572,1.316759,-1.469643,1.695232,1.382001,-0.588163,0.253092,-0.001271,1.116327,-0.144502,-0.139175,1.095236,-0.041180,0.078168,38.178448,-22.770279,-3.499574,0.422452,1.754256,-0.202470,0.000000,0.000000,0.000000,0.000000,0.000000,0.000000
12670405.000000,-2.281013,-1.662571,1.317866,-1.469784,1.695105,1.383097,-0.588201,0.251710,-0.000603,1.113370,-0.143280,-0.134967,1.088909,-0.040379,-0.044818,38.178448,-22.841690,-3.523378,0.356534,1.800033,-0.202470,0.000000,0.000000,0.000000,0.000000,0.000000,0.000000
12670406.000000,-2.280754,-1.662560,1.318986,-1.469922,1.694982,1.384221,-0.588240,0.251994,0.002658,1.108392,-0.142189,-0.130863,1.089843,-0.039582,-0.215411,38.055462,-22.817886,-3.547182,0.255826,1.773483,-0.202470,0.000000,0.000000,0.000000,0.000000,0.000000,0.000000
12670407.000000,-2.280496,-1.662551,1.320104,-1.470052,1.694851,1.385327,-0.588282,0.253263,0.004787,1.105906,-0.138053,-0.129438,1.093591,-0.040329,-0.441546,37.932476,-22.742508,-3.570986,0.201810,1.714889,-0.169511,0.000000,0.000000,0.000000,0.000000,0.000000,0.000000
12670408.000000,-2.280242,-1.662550,1.321194,-1.470190,1.694710,1.386444,-0.588313,0.249992,0.004408,1.099110,-0.137901,-0.128869,1.096009,-0.038369,-0.663714,37.884869,-22.548111,-3.448000,0.279630,1.656295,-0.202470,0.000000,0.000000,0.000000,0.000000,0.000000,0.000000
12670409.000000,-2.279990,-1.662544,1.322305,-1.470317,1.694574,1.387554,-0.588354,0.254807,0.004223,1.097216,-0.135889,-0.132773,1.094199,-0.039254,-0.885882,37.833294,-22.425125,-3.400392,0.362943,1.702071,-0.175919,0.000000,0.000000,0.000000,0.000000,0.000000,0.000000
12670410.000000,-2.279742,-1.662544,1.323414,-1.470435,1.694440,1.388639,-0.588390,0.252127,0.002873,1.105860,-0.130823,-0.128001,1.090965,-0.038040,-0.985064,37.833294,-22.500504,-3.499574,0.374845,1.786300,-0.196061,0.000000,0.000000,0.000000,0.000000,0.000000,0.000000
12670411.000000,-2.279497,-1.662537,1.324543,-1.470551,1.694318,1.389754,-0.588425,0.246972,0.003629,1.109006,-0.126874,-0.128481,1.096766,-0.038379,-1.084246,37.761883,-22.718704,-3.622560,0.362943,1.735030,-0.188737,0.000000,0.000000,0.000000,0.000000,0.000000,0.000000
12670412.000000,-2.279264,-1.662533,1.325695,-1.470663,1.694194,1.390847,-0.588462,0.244099,0.003566,1.116134,-0.123541,-0.128043,1.103829,-0.039145,-1.084246,37.714275,-23.063858,-3.769350,0.327238,1.689254,-0.163102,0.000000,0.000000,0.000000,0.000000,0.000000,0.000000
12670413.000000,-2.279021,-1.662536,1.326834,-1.470777,1.694068,1.391955,-0.588495,0.242892,0.001288,1.123773,-0.119424,-0.128346,1.103000,-0.037207,-1.131854,37.761883,-23.528030,-3.844728,0.303434,1.662704,-0.202470,0.000000,0.000000,0.000000,0.000000,0.000000,0.000000
12670414.000000,-2.278782,-1.662533,1.327978,-1.470886,1.693951,1.393038,-0.588529,0.243679,0.000877,1.126903,-0.119021,-0.122917,1.089901,-0.033475,-1.159625,37.761883,-23.948563,-3.920107,0.255826,1.844894,-0.182328,0.000000,0.000000,0.000000,0.000000,0.000000,0.000000
12670415.000000,-2.278542,-1.662536,1.329111,-1.470999,1.693829,1.394113,-0.588567,0.239765,-0.000515,1.152936,-0.117946,-0.124533,1.081086,-0.030499,-1.330218,37.809490,-24.289749,-3.920107,0.237516,2.007858,-0.163102,0.000000,0.000000,0.000000,0.000000,0.000000,0.000000
12670416.000000,-2.278305,-1.662546,1.330248,-1.471107,1.693701,1.395208,-0.588593,0.240431,-0.003767,1.145448,-0.113256,-0.127719,1.077613,-0.030685,-1.405596,37.956280,-24.388931,-3.943910,0.267728,2.047225,-0.208878,0.000000,0.000000,0.000000,0.000000,0.000000,0.000000
12670417.000000,-2.278065,-1.662548,1.331385,-1.471214,1.693568,1.396308,-0.588635,0.241390,-0.003153,1.137390,-0.110804,-0.125872,1.104874,-0.034554,-1.627764,37.984051,-24.412735,-3.920107,0.315336,2.033492,-0.155778,0.000000,0.000000,0.000000,0.000000,0.000000,0.000000
12670418.000000,-2.277830,-1.662551,1.332495,-1.471316,1.693443,1.397405,-0.588662,0.236827,-0.003210,1.129103,-0.106411,-0.126880,1.104223,-0.028333,-1.778521,38.031658,-24.265945,-3.991518,0.303434,1.890670,-0.215287,0.000000,0.000000,0.000000,0.000000,0.000000,0.000000
12670419.000000,-2.277600,-1.662558,1.333616,-1.471423,1.693320,1.398511,-0.588693,0.232766,-0.004456,1.121638,-0.104607,-0.123846,1.104321,-0.026148,-1.873736,38.130840,-24.095352,-4.019289,0.315336,1.800033,-0.215287,0.000000,0.000000,0.000000,0.000000,0.000000,0.000000
12670420.000000,-2.277369,-1.662567,1.334735,-1.471527,1.693191,1.399588,-0.588729,0.231917,-0.012204,1.120756,-0.103727,-0.128708,1.101852,-0.030288,-1.949114,38.249859,-23.774002,-4.019289,0.398649,1.812850,-0.182328,0.000000,0.000000,0.000000,0.000000,0.000000,0.000000
12670421.000000,-2.277142,-1.662583,1.335829,-1.471630,1.693068,1.400666,-0.588760,0.229727,-0.013312,1.109711,-0.103579,-0.129320,1.093516,-0.031440,-1.949114,38.448223,-23.409012,-3.991518,0.416959,1.930038,-0.202470,0.000000,0.000000,0.000000,0.000000,0.000000,0.000000
12670422.000000,-2.276920,-1.662590,1.336953,-1.471738,1.692951,1.401757,-0.588794,0.225761,-0.011503,1.106414,-0.105716,-0.127966,1.090696,-0.034305,-1.972918,38.543438,-23.333633,-3.868532,0.369352,2.027084,-0.169511,0.000000,0.000000,0.000000,0.000000,0.000000,0.000000
12670423.000000,-2.276696,-1.662597,1.338051,-1.471832,1.692842,1.402848,-0.588820,0.223321,-0.010290,1.109323,-0.102445,-0.124725,1.090982,-0.029365,-2.024493,38.642620,-23.111465,-3.943910,0.261320,1.930038,-0.196061,0.000000,0.000000,0.000000,0.000000,0.000000,0.000000
12670424.000000,-2.276480,-1.662601,1.339179,-1.471924,1.692731,1.403976,-0.588856,0.219904,-0.007643,1.106024,-0.097089,-0.119225,1.095164,-0.032747,-2.000689,38.666424,-23.210648,-4.019289,0.178007,1.662704,-0.163102,0.000000,0.000000,0.000000,0.000000,0.000000,0.000000
12670425.000000,-2.276268,-1.662609,1.340314,-1.472005,1.692615,1.405070,-0.588883,0.217637,-0.007028,1.109129,-0.091538,-0.122569,1.098900,-0.033108,-1.972918,38.741802,-23.309830,-4.166078,0.171598,1.546432,-0.188737,0.000000,0.000000,0.000000,0.000000,0.000000,0.000000
12670426.000000,-2.276058,-1.662610,1.341428,-1.472090,1.692499,1.406159,-0.588916,0.215849,-0.004812,1.114167,-0.087316,-0.125203,1.092196,-0.030737,-1.949114,38.741802,-23.381241,-4.312868,0.171598,1.670028,-0.155778,0.000000,0.000000,0.000000,0.000000,0.000000,0.000000
12670427.000000,-2.275847,-1.662621,1.342547,-1.472174,1.692376,1.407250,-0.588947,0.215293,-0.009901,1.110846,-0.088750,-0.126226,1.084995,-0.027159,-1.949114,38.888592,-23.409012,-4.412050,0.273221,1.767074,-0.169511,0.000000,0.000000,0.000000,0.000000,0.000000,0.000000
12670428.000000,-2.275627,-1.662630,1.343647,-1.472257,1.692244,1.408330,-0.588974,0.213876,-0.009163,1.105796,-0.086804,-0.127034,1.089916,-0.024137,-2.048296,38.983807,-23.357437,-4.511232,0.398649,1.832076,-0.196061,0.000000,0.000000,0.000000,0.000000,0.000000,0.000000
12670429.000000,-2.275413,-1.662635,1.344769,-1.472344,1.692126,1.409434,-0.589003,0.211068,-0.007010,1.105762,-0.087639,-0.123948,1.091731,-0.024083,-2.072100,39.011578,-23.456619,-4.511232,0.422452,1.767074,-0.163102,0.000000,0.000000,0.000000,0.000000,0.000000,0.000000
12670430.000000,-2.275199,-1.662632,1.345885,-1.472423,1.692019,1.410523,-0.589026,0.209200,-0.003655,1.102786,-0.083781,-0.118112,1.100466,-0.021020,-2.246661,38.960003,-23.456619,-4.562807,0.344633,1.676437,-0.208878,0.000000,0.000000,0.000000,0.000000,0.000000,0.000000
12670431.000000,-2.274982,-1.662633,1.346978,-1.472505,1.691909,1.411624,-0.589050,0.212994,-0.002021,1.100111,-0.082976,-0.120129,1.096376,-0.020108,-2.397418,38.936199,-23.258255,-4.511232,0.303434,1.617843,-0.221696,0.000000,0.000000,0.000000,0.000000,0.000000,0.000000
12670432.000000,-2.274772,-1.662639,1.348082,-1.472590,1.691798,1.412729,-0.589076,0.214395,-0.002567,1.096245,-0.083112,-0.117083,1.093835,-0.020608,-2.520403,38.983807,-23.087662,-4.412050,0.261320,1.565658,-0.202470,0.000000,0.000000,0.000000,0.000000,0.000000,0.000000
12670433.000000,-2.274561,-1.662644,1.349181,-1.472672,1.691686,1.413798,-0.589103,0.210845,-0.002441,1.119137,-0.082182,-0.110628,1.082997,-0.020907,-2.667193,39.011578,-23.087662,-4.364442,0.243009,1.747848,-0.182328,0.000000,0.000000,0.000000,0.000000,0.000000,0.000000
12670434.000000,-2.274359,-1.662645,1.350306,-1.472750,1.691577,1.414880,-0.589127,0.209283,-0.004091,1.117089,-0.077190,-0.109629,1.074386,-0.020394,-2.742571,38.983807,-23.234451,-4.364442,0.213712,1.890670,-0.182328,0.000000,0.000000,0.000000,0.000000,0.000000,0.000000
12670437.000000,-2.273764,-1.662638,1.353729,-1.472955,1.691227,1.418199,-0.589201,0.198694,0.001585,1.127283,-0.073297,-0.113955,1.098973,-0.020095,-2.718768,38.813213,-24.488113,-4.562807,0.279630,1.565658,-0.163102,0.000000,0.000000,0.000000,0.000000,0.000000,0.000000
12670438.000000,-2.273576,-1.662640,1.354878,-1.473026,1.691106,1.419265,-0.589220,0.192310,0.000374,1.127080,-0.070997,-0.120245,1.095564,-0.018004,-2.690997,38.837017,-24.880875,-4.562807,0.332731,1.741439,-0.208878,0.000000,0.000000,0.000000,0.000000,0.000000,0.000000
12670439.000000,-2.273386,-1.662647,1.355995,-1.473096,1.690978,1.420329,-0.589244,0.189930,-0.002166,1.127376,-0.070260,-0.122185,1.087949,-0.018579,-2.667193,38.936199,-25.051468,-4.511232,0.440763,2.033492,-0.202470,0.000000,0.000000,0.000000,0.000000,0.000000,0.000000
12670440.000000,-2.273201,-1.662661,1.357109,-1.473164,1.690864,1.421411,-0.589270,0.189597,-0.005505,1.116294,-0.069503,-0.114420,1.085035,-0.019428,-2.667193,39.106792,-24.952286,-4.463624,0.434354,2.209274,-0.188737,0.000000,0.000000,0.000000,0.000000,0.000000,0.000000
12670441.000000,-2.273015,-1.662664,1.358221,-1.473234,1.690761,1.422487,-0.589291,0.191196,-0.006748,1.117917,-0.070023,-0.109568,1.077989,-0.024184,-2.619586,39.106792,-25.003860,-4.364442,0.320829,2.235824,-0.182328,0.000000,0.000000,0.000000,0.000000,0.000000,0.000000
12670442.000000,-2.272825,-1.662665,1.359338,-1.473295,1.690662,1.423594,-0.589313,0.189077,-0.004234,1.117432,-0.067854,-0.100782,1.075964,-0.022570,-2.568011,39.082989,-24.829300,-4.364442,0.178007,2.098495,-0.188737,0.000000,0.000000,0.000000,0.000000,0.000000,0.000000
12670443.000000,-2.272643,-1.662665,1.360461,-1.473366,1.690553,1.424692,-0.589335,0.188097,-0.001371,1.112507,-0.070503,-0.103617,1.083081,-0.025634,-2.520403,39.011578,-24.706314,-4.189882,0.154203,1.909896,-0.208878,0.000000,0.000000,0.000000,0.000000,0.000000,0.000000
12670444.000000,-2.272457,-1.662669,1.361548,-1.473436,1.690435,1.425781,-0.589359,0.183424,-0.001078,1.102018,-0.068296,-0.108616,1.080383,-0.025233,-2.468829,39.011578,-24.289749,-4.043092,0.213712,1.923629,-0.175919,0.000000,0.000000,0.000000,0.000000,0.000000,0.000000
12670445.000000,-2.272278,-1.662676,1.362665,-1.473509,1.690312,1.426860,-0.589378,0.185732,-0.001399,1.104119,-0.067362,-0.114093,1.080206,-0.017644,-2.421221,39.035381,-24.095352,-3.868532,0.327238,2.039901,-0.208878,0.000000,0.000000,0.000000,0.000000,0.000000,0.000000
12670446.000000,-2.272103,-1.662675,1.363764,-1.473577,1.690199,1.427935,-0.589404,0.181782,0.000738,1.125028,-0.063968,-0.114602,1.083547,-0.019734,-2.345843,38.960003,-23.972366,-3.797121,0.356534,2.060043,-0.163102,0.000000,0.000000,0.000000,0.000000,0.000000,0.000000
12670447.000000,-2.271940,-1.662676,1.364883,-1.473631,1.690089,1.429046,-0.589421,0.169952,-0.001120,1.119378,-0.060805,-0.114114,1.090124,-0.018737,-2.171282,38.888592,-23.972366,-3.892336,0.356534,1.877853,-0.182328,0.000000,0.000000,0.000000,0.000000,0.000000,0.000000
12670448.000000,-2.271779,-1.662680,1.366009,-1.473676,1.689980,1.430138,-0.589440,0.169288,-0.000509,1.117806,-0.056299,-0.116816,1.096504,-0.018505,-2.048296,38.864788,-24.019974,-4.090700,0.308927,1.735030,-0.188737,0.000000,0.000000,0.000000,0.000000,0.000000,0.000000
12670449.000000,-2.271628,-1.662681,1.367126,-1.473731,1.689874,1.431239,-0.589460,0.162762,0.001184,1.120202,-0.053144,-0.108276,1.093402,-0.018802,-1.826129,38.789410,-24.190567,-4.166078,0.231107,1.670028,-0.182328,0.000000,0.000000,0.000000,0.000000,0.000000,0.000000
12670450.000000,-2.271471,-1.662686,1.368247,-1.473784,1.689764,1.432325,-0.589477,0.164178,0.001166,1.113708,-0.054399,-0.110569,1.081916,-0.018057,-1.750750,38.765606,-24.289749,-4.213686,0.249418,1.819259,-0.202470,0.000000,0.000000,0.000000,0.000000,0.000000,0.000000
12670451.000000,-2.271319,-1.662692,1.369341,-1.473846,1.689653,1.433395,-0.589494,0.159137,0.000643,1.109916,-0.055713,-0.107902,1.078331,-0.018876,-1.651568,38.765606,-24.265945,-4.118471,0.291532,1.995040,-0.188737,0.000000,0.000000,0.000000,0.000000,0.000000,0.000000
12670452.000000,-2.271160,-1.662701,1.370447,-1.473903,1.689549,1.434493,-0.589511,0.158078,0.000327,1.104704,-0.055893,-0.109116,1.075137,-0.018414,-1.679339,38.765606,-24.218338,-4.043092,0.303434,2.027084,-0.202470,0.000000,0.000000,0.000000,0.000000,0.000000,0.000000
12670453.000000,-2.271009,-1.662702,1.371566,-1.473961,1.689444,1.435608,-0.589532,0.155536,-0.001786,1.104336,-0.054036,-0.111560,1.084967,-0.019292,-1.627764,38.717999,-24.218338,-3.920107,0.339139,1.916305,-0.182328,0.000000,0.000000,0.000000,0.000000,0.000000,0.000000
12670454.000000,-2.270855,-1.662703,1.372654,-1.474015,1.689347,1.436716,-0.589548,0.154028,0.000262,1.102370,-0.054530,-0.109269,1.091449,-0.019336,-1.603961,38.642620,-24.071548,-3.844728,0.273221,1.689254,-0.175919,0.000000,0.000000,0.000000,0.000000,0.000000,0.000000
12670455.000000,-2.270706,-1.662704,1.373747,-1.474063,1.689252,1.437825,-0.589561,0.149015,0.001612,1.092767,-0.050468,-0.109026,1.095069,-0.017552,-1.552386,38.571209,-23.873184,-3.820925,0.237516,1.572067,-0.221696,0.000000,0.000000,0.000000,0.000000,0.000000,0.000000
12670456.000000,-2.270561,-1.662705,1.374857,-1.474113,1.689145,1.438901,-0.589583,0.148542,0.002107,1.098560,-0.051876,-0.112403,1.095003,-0.019893,-1.504779,38.519634,-23.774002,-3.745546,0.303434,1.682845,-0.169511,0.000000,0.000000,0.000000,0.000000,0.000000,0.000000
12670457.000000,-2.270423,-1.662715,1.375940,-1.474161,1.689042,1.439985,-0.589595,0.143466,-0.001603,1.095217,-0.052048,-0.108625,1.092290,-0.012901,-1.405596,38.642620,-23.603409,-3.697939,0.327238,1.832076,-0.221696,0.000000,0.000000,0.000000,0.000000,0.000000,0.000000
12670458.000000,-2.270288,-1.662716,1.377060,-1.474208,1.688943,1.441074,-0.589615,0.140703,-0.000610,1.098899,-0.052452,-0.105508,1.088517,-0.015934,-1.330218,38.618816,-23.801773,-3.646364,0.339139,1.974899,-0.182328,0.000000,0.000000,0.000000,0.000000,0.000000,0.000000
12670459.000000,-2.270155,-1.662715,1.378172,-1.474248,1.688846,1.442164,-0.589632,0.133856,0.000076,1.105494,-0.047964,-0.100815,1.082309,-0.017407,-1.183428,38.595013,-24.071548,-3.670168,0.291532,1.949264,-0.163102,0.000000,0.000000,0.000000,0.000000,0.000000,0.000000
12670460.000000,-2.270027,-1.662715,1.379313,-1.474295,1.688753,1.443276,-0.589650,0.128631,-0.000004,1.114363,-0.046867,-0.101311,1.073612,-0.017988,-1.032672,38.595013,-24.583328,-3.598757,0.213712,1.851302,-0.155778,0.000000,0.000000,0.000000,0.000000,0.000000,0.000000
12670461.000000,-2.269906,-1.662715,1.380445,-1.474339,1.688649,1.444368,-0.589665,0.125333,-0.000044,1.117594,-0.046166,-0.105433,1.081199,-0.017882,-0.885882,38.595013,-24.976089,-3.523378,0.243009,1.800033,-0.163102,0.000000,0.000000,0.000000,0.000000,0.000000,0.000000
12670462.000000,-2.269774,-1.662720,1.381557,-1.474377,1.688541,1.445456,-0.589678,0.125707,-0.001731,1.118650,-0.044153,-0.105409,1.077376,-0.017570,-0.885882,38.666424,-25.198257,-3.499574,0.308927,1.877853,-0.175919,0.000000,0.000000,0.000000,0.000000,0.000000,0.000000
12670463.000000,-2.269653,-1.662727,1.382672,-1.474422,1.688435,1.446543,-0.589694,0.124532,-0.003497,1.113074,-0.045022,-0.105247,1.077517,-0.018409,-0.834307,38.765606,-25.222061,-3.376589,0.381254,1.974899,-0.163102,0.000000,0.000000,0.000000,0.000000,0.000000,0.000000
12670464.000000,-2.269532,-1.662729,1.383779,-1.474462,1.688331,1.447606,-0.589700,0.123859,-0.002906,1.133300,-0.044470,-0.103474,1.078346,-0.011846,-0.786700,38.789410,-25.297440,-3.301210,0.422452,2.085677,-0.215287,0.000000,0.000000,0.000000,0.000000,0.000000,0.000000
12670465.000000,-2.269411,-1.662743,1.384884,-1.474505,1.688243,1.448704,-0.589718,0.123410,-0.005941,1.122352,-0.041556,-0.102719,1.090008,-0.015189,-0.735125,38.960003,-25.126846,-3.202028,0.344633,1.981307,-0.175919,0.000000,0.000000,0.000000,0.000000,0.000000,0.000000
12670466.000000,-2.269288,-1.662744,1.385985,-1.474538,1.688142,1.449792,-0.589725,0.124031,-0.003970,1.108843,-0.040055,-0.105569,1.089656,-0.015078,-0.711321,38.960003,-24.857071,-3.202028,0.351041,1.786300,-0.202470,0.000000,0.000000,0.000000,0.000000,0.000000,0.000000
12670467.000000,-2.269166,-1.662753,1.387083,-1.474578,1.688043,1.450878,-0.589736,0.122166,-0.004974,1.106692,-0.042454,-0.102399,1.082700,-0.015381,-0.735125,39.059185,-24.757889,-3.055238,0.339139,1.735030,-0.221696,0.000000,0.000000,0.000000,0.000000,0.000000,0.000000
12670468.000000,-2.269048,-1.662756,1.388172,-1.474614,1.687944,1.451959,-0.589752,0.122157,-0.006926,1.092310,-0.039849,-0.099856,1.068934,-0.017974,-0.711321,39.082989,-24.341324,-2.956056,0.327238,1.800033,-0.175919,0.000000,0.000000,0.000000,0.000000,0.000000,0.000000
12670469.000000,-2.268933,-1.662762,1.389277,-1.474652,1.687841,1.453022,-0.589761,0.120587,-0.005432,1.093806,-0.038103,-0.100241,1.061773,-0.016660,-0.735125,39.106792,-24.190567,-2.856874,0.381254,1.916305,-0.215287,0.000000,0.000000,0.000000,0.000000,0.000000,0.000000
12670470.000000,-2.268827,-1.662765,1.390359,-1.474685,1.687743,1.454118,-0.589776,0.115452,-0.003815,1.093494,-0.035411,-0.102188,1.064437,-0.014026,-0.612139,39.106792,-23.948563,-2.805300,0.362943,1.897079,-0.175919,0.000000,0.000000,0.000000,0.000000,0.000000,0.000000
12670471.000000,-2.268723,-1.662764,1.391469,-1.474698,1.687641,1.455246,-0.589787,0.116770,-0.000461,1.092034,-0.024617,-0.105458,1.078794,-0.014403,-0.540728,39.011578,-24.019974,-3.003664,0.374845,1.611434,-0.196061,0.000000,0.000000,0.000000,0.000000,0.000000,0.000000
12670472.000000,-2.268623,-1.662762,1.392572,-1.474717,1.687543,1.456345,-0.589799,0.109411,0.002461,1.097151,-0.022411,-0.105473,1.087598,-0.015777,-0.389971,38.888592,-24.166763,-3.102846,0.327238,1.454879,-0.188737,0.000000,0.000000,0.000000,0.000000,0.000000,0.000000
12670473.000000,-2.268526,-1.662762,1.393684,-1.474735,1.687445,1.457449,-0.589812,0.104396,0.002765,1.105273,-0.022061,-0.101627,1.089678,-0.017465,-0.243182,38.837017,-24.218338,-3.154421,0.297025,1.377059,-0.163102,0.000000,0.000000,0.000000,0.000000,0.000000,0.000000
12670474.000000,-2.268424,-1.662768,1.394793,-1.474751,1.687338,1.458524,-0.589814,0.103292,0.001133,1.100864,-0.019536,-0.102880,1.089597,-0.010569,-0.215411,38.864788,-24.289749,-3.178224,0.381254,1.513473,-0.229020,0.000000,0.000000,0.000000,0.000000,0.000000,0.000000
12670475.000000,-2.268325,-1.662778,1.395878,-1.474768,1.687230,1.459594,-0.589826,0.102411,-0.000961,1.095596,-0.018440,-0.103258,1.082336,-0.008818,-0.191607,38.936199,-24.242142,-3.154421,0.452665,1.825668,-0.208878,0.000000,0.000000,0.000000,0.000000,0.000000,0.000000
12670476.000000,-2.268231,-1.662780,1.396975,-1.474781,1.687138,1.460686,-0.589842,0.101134,-0.000675,1.095306,-0.017750,-0.099043,1.081143,-0.012565,-0.144000,38.936199,-24.166763,-3.126650,0.405057,1.988631,-0.182328,0.000000,0.000000,0.000000,0.000000,0.000000,0.000000
12670477.000000,-2.268125,-1.662778,1.398044,-1.474786,1.687043,1.461782,-0.589856,0.103187,0.001194,1.089153,-0.011563,-0.095957,1.083673,-0.015284,-0.215411,38.864788,-23.996170,-3.202028,0.362943,1.923629,-0.149369,0.000000,0.000000,0.000000,0.000000,0.000000,0.000000
12670478.000000,-2.268024,-1.662774,1.399141,-1.474792,1.686963,1.462902,-0.589859,0.101243,0.003097,1.088063,-0.011433,-0.091388,1.086642,-0.014808,-0.290789,38.765606,-23.996170,-3.225832,0.243009,1.760665,-0.182328,0.000000,0.000000,0.000000,0.000000,0.000000,0.000000
12670479.000000,-2.267922,-1.662772,1.400234,-1.474800,1.686873,1.464004,-0.589866,0.100775,0.003164,1.093738,-0.009282,-0.090468,1.092344,-0.010605,-0.413775,38.717999,-23.849380,-3.202028,0.189908,1.643478,-0.196061,0.000000,0.000000,0.000000,0.000000,0.000000,0.000000
12670480.000000,-2.267820,-1.662768,1.401318,-1.474810,1.686772,1.465101,-0.589878,0.099410,0.003305,1.087728,-0.008129,-0.094846,1.091162,-0.008747,-0.512957,38.666424,-23.825577,-3.154421,0.267728,1.682845,-0.175919,0.000000,0.000000,0.000000,0.000000,0.000000,0.000000
12670481.000000,-2.267720,-1.662767,1.402413,-1.474818,1.686677,1.466193,-0.589881,0.101042,0.002752,1.081665,-0.007247,-0.092381,1.082746,-0.009322,-0.612139,38.642620,-23.825577,-3.102846,0.332731,1.832076,-0.229020,0.000000,0.000000,0.000000,0.000000,0.000000,0.000000
12670482.000000,-2.267619,-1.662763,1.403516,-1.474821,1.686581,1.467271,-0.589893,0.099060,0.009095,1.116841,-0.005297,-0.090014,1.077713,-0.008865,-0.687518,38.595013,-24.119156,-3.102846,0.386747,1.923629,-0.182328,0.000000,0.000000,0.000000,0.000000,0.000000,0.000000
12670483.000000,-2.267526,-1.662754,1.404638,-1.474817,1.686494,1.468371,-0.589898,0.096399,0.008892,1.117082,-0.002674,-0.089399,1.087170,-0.010312,-0.711321,38.495831,-24.511917,-3.154421,0.351041,1.877853,-0.208878,0.000000,0.000000,0.000000,0.000000,0.000000,0.000000
