chaoyuefei/paper-gmrm-data/robot_logs/s2_dq_gmrm_xz_max_0.30_log_20260314_173625.csv
# time_ms,q_0,q_1,q_2,q_3,q_4,q_5,q_6,dq_0,dq_1,dq_2,dq_3,dq_4,dq_5,dq_6,tau_J_0,tau_J_1,tau_J_2,tau_J_3,tau_J_4,tau_J_5,tau_J_6,O_dP_EE_c_0,O_dP_EE_c_1,O_dP_EE_c_2,O_dP_EE_c_3,O_dP_EE_c_4,O_dP_EE_c_5
12447102.000000,-0.344678,0.544248,0.451050,-1.426817,-0.242505,1.916500,0.131704,0.000037,-0.001816,-0.000504,0.000972,0.000696,-0.000092,-0.000053,0.078168,-38.362385,6.020309,19.316282,0.835355,1.364242,-0.142960,0.000000,0.000000,0.000000,0.000000,0.000000,0.000000
12447103.000000,-0.344680,0.544253,0.451054,-1.426819,-0.242506,1.916499,0.131705,-0.000625,0.000552,0.000778,0.000091,0.000260,-0.000299,0.000440,0.105939,-38.437763,5.972702,19.340086,0.840848,1.370651,-0.155778,0.000000,0.000000,0.000000,0.000000,0.000000,0.000000
12447104.000000,-0.344678,0.544255,0.451052,-1.426820,-0.242506,1.916499,0.131706,0.000233,0.000925,-0.000038,-0.000496,0.000174,-0.000199,-0.000419,0.078168,-38.461567,5.996506,19.363890,0.840848,1.370651,-0.136552,0.000000,0.000000,0.000000,0.000000,0.000000,0.000000
12447105.000000,-0.344680,0.544252,0.451052,-1.426817,-0.242507,1.916500,0.131708,-0.000494,-0.000497,-0.000026,0.000783,-0.000325,0.000104,-0.000042,0.105939,-38.413960,5.996506,19.316282,0.852750,1.364242,-0.142960,0.000000,0.000000,0.000000,0.000000,0.000000,0.000000
12447106.000000,-0.344698,0.544256,0.451055,-1.426819,-0.242505,1.916500,0.131710,-0.018688,0.012275,-0.010555,-0.005667,-0.002055,0.001053,0.009066,-0.314593,-37.874409,5.381577,19.042540,0.774930,1.337692,-0.136552,0.000000,0.000000,0.000000,0.000000,0.000000,0.000000
12447107.000000,-0.344718,0.544244,0.451036,-1.426823,-0.242485,1.916498,0.131720,-0.025986,0.014980,-0.021974,-0.018901,0.002309,0.001651,0.013811,-1.726946,-35.672565,3.909714,18.054686,0.410551,1.312057,-0.070634,0.000000,0.000000,0.000000,0.000000,0.000000,0.000000
12447108.000000,-0.344723,0.544254,0.450964,-1.426841,-0.242480,1.916490,0.131750,-0.015300,0.017035,-0.039077,-0.025843,0.003850,0.001101,0.020459,-3.928790,-32.466999,2.168075,16.301146,0.064481,1.312057,-0.083451,0.000000,0.000000,0.000000,0.000000,0.000000,0.000000
12447109.000000,-0.344741,0.544290,0.450872,-1.426862,-0.242523,1.916486,0.131790,-0.009743,0.020693,-0.053867,-0.022720,-0.009745,-0.000961,0.026558,-6.011614,-28.892475,0.156662,13.678770,0.100187,1.357833,-0.130143,0.000000,0.000000,0.000000,0.000000,0.000000,0.000000
12447110.000000,-0.344762,0.544364,0.450754,-1.426928,-0.242563,1.916489,0.131817,-0.002743,0.023749,-0.065579,-0.033576,-0.016162,0.001614,0.025881,-7.642169,-25.734516,-1.513565,11.334105,0.052579,1.422836,-0.037675,0.000000,0.000000,0.000000,0.000000,0.000000,0.000000
12447111.000000,-0.344794,0.544464,0.450636,-1.427014,-0.242620,1.916555,0.131861,-0.002521,0.038928,-0.069403,-0.040147,-0.028285,0.024383,0.031168,-8.534808,-23.163715,-2.739456,9.132261,0.081876,1.058456,-0.097184,0.000000,0.000000,0.000000,0.000000,0.000000,0.000000
12447112.000000,-0.344817,0.544583,0.450525,-1.427103,-0.242715,1.916692,0.131900,-0.003071,0.056456,-0.073421,-0.051100,-0.053963,0.062506,0.036177,-8.808551,-21.132465,-3.378189,7.005797,0.320829,0.219833,-0.070634,0.000000,0.000000,0.000000,0.000000,0.000000,0.000000
12447113.000000,-0.344831,0.544707,0.450430,-1.427193,-0.242808,1.916855,0.131931,-0.004345,0.070552,-0.073068,-0.059655,-0.064033,0.100271,0.032841,-8.558612,-19.589191,-3.429764,5.129271,0.458158,-0.540971,0.034652,0.000000,0.000000,0.000000,0.000000,0.000000,0.000000
12447114.000000,-0.344857,0.544817,0.450372,-1.427297,-0.242894,1.917002,0.131981,-0.014199,0.081053,-0.065881,-0.068197,-0.069879,0.118165,0.040278,-7.693743,-18.244282,-3.282974,3.645506,0.428861,-0.801896,0.001693,0.000000,0.000000,0.000000,0.000000,0.000000,0.000000
12447115.000000,-0.344866,0.544918,0.450338,-1.427405,-0.242977,1.917145,0.132037,-0.014908,0.088200,-0.059642,-0.080380,-0.070863,0.124567,0.046388,-6.753497,-16.946980,-2.961624,2.558470,0.303434,-0.606889,-0.050492,0.000000,0.000000,0.000000,0.000000,0.000000,0.000000
12447116.000000,-0.344860,0.544999,0.450303,-1.427527,-0.243056,1.917311,0.132096,-0.013549,0.087372,-0.055153,-0.093425,-0.071113,0.141722,0.049976,-5.912432,-15.550495,-2.299088,1.840392,0.147794,-0.339555,-0.083451,0.000000,0.000000,0.000000,0.000000,0.000000,0.000000
12447117.000000,-0.344859,0.545060,0.450282,-1.427674,-0.243122,1.917516,0.132148,-0.013943,0.078981,-0.048982,-0.112724,-0.071787,0.159594,0.048486,-4.968218,-13.983418,-1.684158,1.594420,-0.126864,-0.138139,-0.011124,0.000000,0.000000,0.000000,0.000000,0.000000,0.000000
12447118.000000,-0.344869,0.545096,0.450258,-1.427852,-0.243178,1.917747,0.132219,-0.015416,0.066298,-0.044435,-0.137941,-0.067015,0.183690,0.053999,-3.928790,-12.269550,-1.021622,1.887999,-0.426241,0.050460,-0.103593,0.000000,0.000000,0.000000,0.000000,0.000000,0.000000
12447119.000000,-0.344873,0.545117,0.450223,-1.428051,-0.243264,1.917999,0.132287,-0.014963,0.052082,-0.045036,-0.159103,-0.071301,0.205084,0.054098,-3.063921,-10.484272,-0.287674,2.407713,-0.414340,0.291244,-0.097184,0.000000,0.000000,0.000000,0.000000,0.000000,0.000000
12447120.000000,-0.344891,0.545155,0.450175,-1.428260,-0.243373,1.918269,0.132353,-0.018519,0.048243,-0.049179,-0.178398,-0.082492,0.219948,0.052870,-2.147479,-8.992573,0.497848,3.002806,-0.168978,0.570480,-0.050492,0.000000,0.000000,0.000000,0.000000,0.000000,0.000000
12447121.000000,-0.344924,0.545213,0.450133,-1.428475,-0.243482,1.918570,0.132426,-0.027058,0.056133,-0.051707,-0.193438,-0.088670,0.242688,0.059016,-1.108050,-7.865864,1.013595,3.423338,0.046171,0.687667,-0.064225,0.000000,0.000000,0.000000,0.000000,0.000000,0.000000
12447122.000000,-0.344973,0.545295,0.450085,-1.428710,-0.243587,1.918892,0.132503,-0.037939,0.066562,-0.052680,-0.209245,-0.089938,0.271680,0.067555,0.006757,-7.203327,1.481735,3.792296,0.189908,0.720626,-0.056901,0.000000,0.000000,0.000000,0.000000,0.000000,0.000000
12447123.000000,-0.345007,0.545401,0.450052,-1.428936,-0.243694,1.919252,0.132585,-0.038111,0.080891,-0.047764,-0.214026,-0.093399,0.301712,0.074733,0.796247,-6.885944,1.699936,3.867674,0.279630,0.641891,-0.070634,0.000000,0.000000,0.000000,0.000000,0.000000,0.000000
12447124.000000,-0.345024,0.545523,0.450019,-1.429170,-0.243783,1.919633,0.132667,-0.029969,0.093767,-0.042946,-0.220415,-0.088127,0.326230,0.073926,1.216779,-6.862141,1.846725,3.816099,0.154203,0.511886,-0.050492,0.000000,0.000000,0.000000,0.000000,0.000000,0.000000
12447125.000000,-0.345049,0.545657,0.449992,-1.429409,-0.243862,1.920029,0.132747,-0.025405,0.110048,-0.037172,-0.232693,-0.084634,0.346705,0.078277,1.665082,-6.933552,1.874496,3.570128,-0.097567,0.434066,-0.031266,0.000000,0.000000,0.000000,0.000000,0.000000,0.000000
12447126.000000,-0.345071,0.545797,0.449963,-1.429658,-0.243952,1.920451,0.132839,-0.023336,0.119471,-0.033360,-0.235688,-0.081086,0.369283,0.084468,2.010236,-6.933552,1.898300,3.224974,-0.276095,0.414840,-0.089860,0.000000,0.000000,0.000000,0.000000,0.000000,0.000000
12447127.000000,-0.345084,0.545929,0.449926,-1.429916,-0.244056,1.920869,0.132919,-0.018385,0.124322,-0.032675,-0.238906,-0.092851,0.381088,0.084812,2.184797,-6.739155,1.997482,2.903624,-0.330111,0.524703,-0.037675,0.000000,0.000000,0.000000,0.000000,0.000000,0.000000
12447128.000000,-0.345094,0.546053,0.449882,-1.430195,-0.244175,1.921311,0.133006,-0.013078,0.124365,-0.037037,-0.252344,-0.102990,0.399298,0.083719,2.260175,-6.274982,2.168075,2.756834,-0.216586,0.635482,-0.070634,0.000000,0.000000,0.000000,0.000000,0.000000,0.000000
12447129.000000,-0.345112,0.546166,0.449839,-1.430496,-0.244295,1.921793,0.133088,-0.012003,0.117465,-0.035430,-0.262331,-0.106588,0.424285,0.085062,2.430768,-5.612446,2.267257,2.756834,-0.067355,0.589706,-0.044083,0.000000,0.000000,0.000000,0.000000,0.000000,0.000000
12447130.000000,-0.345135,0.546267,0.449798,-1.430818,-0.244416,1.922316,0.133173,-0.014696,0.114510,-0.038948,-0.279682,-0.108521,0.452105,0.086640,2.605329,-4.755512,2.291061,2.903624,0.081876,0.421249,-0.037675,0.000000,0.000000,0.000000,0.000000,0.000000,0.000000
12447131.000000,-0.345148,0.546379,0.449761,-1.431138,-0.244537,1.922863,0.133259,-0.010775,0.111970,-0.036880,-0.292146,-0.114300,0.480140,0.088804,2.652936,-3.973957,2.239486,2.927428,0.225614,0.291244,-0.037675,0.000000,0.000000,0.000000,0.000000,0.000000,0.000000
12447132.000000,-0.345161,0.546503,0.449724,-1.431465,-0.244651,1.923400,0.133344,-0.008288,0.116270,-0.037615,-0.298774,-0.112616,0.499555,0.089635,2.704511,-3.311421,2.144272,2.852049,0.213712,0.336105,-0.023942,0.000000,0.000000,0.000000,0.000000,0.000000,0.000000
12447133.000000,-0.345157,0.546661,0.449689,-1.431782,-0.244754,1.923945,0.133432,-0.001366,0.124819,-0.035852,-0.300555,-0.107350,0.513744,0.092611,2.529951,-3.287617,2.068893,2.606077,0.081876,0.622665,-0.070634,0.000000,0.000000,0.000000,0.000000,0.000000,0.000000
12447134.000000,-0.345160,0.546831,0.449663,-1.432109,-0.244852,1.924518,0.133515,-0.002866,0.139135,-0.033590,-0.305055,-0.102891,0.543965,0.091743,2.482343,-3.775593,1.945907,2.483092,-0.079257,0.850631,-0.044083,0.000000,0.000000,0.000000,0.000000,0.000000,0.000000
12447135.000000,-0.345156,0.547013,0.449633,-1.432432,-0.244947,1.925149,0.133599,-0.000922,0.149835,-0.029873,-0.307459,-0.100045,0.575920,0.091941,2.430768,-4.878498,1.997482,2.459288,-0.234896,0.811263,-0.031266,0.000000,0.000000,0.000000,0.000000,0.000000,0.000000
12447136.000000,-0.345157,0.547201,0.449611,-1.432768,-0.245042,1.925826,0.133684,-0.002541,0.160026,-0.024757,-0.315234,-0.102786,0.602228,0.088556,2.506147,-6.445576,2.092697,2.828245,-0.377719,0.544845,-0.050492,0.000000,0.000000,0.000000,0.000000,0.000000,0.000000
12447137.000000,-0.345155,0.547379,0.449589,-1.433101,-0.245160,1.926517,0.133765,-0.001005,0.168851,-0.027332,-0.319040,-0.105193,0.628676,0.089279,2.605329,-8.036457,2.338669,3.173399,-0.282504,0.212508,-0.037675,0.000000,0.000000,0.000000,0.000000,0.000000,0.000000
12447138.000000,-0.345150,0.547558,0.449555,-1.433460,-0.245287,1.927217,0.133842,0.000259,0.176142,-0.029138,-0.338472,-0.114629,0.642520,0.089066,2.704511,-9.603535,2.731430,3.816099,-0.091158,0.011092,0.001693,0.000000,0.000000,0.000000,0.000000,0.000000,0.000000
12447139.000000,-0.345150,0.547730,0.449535,-1.433810,-0.245426,1.927910,0.133926,-0.002320,0.180093,-0.025363,-0.345449,-0.124780,0.651561,0.086687,2.827497,-10.900837,2.929794,4.042235,0.201810,-0.020951,-0.023942,0.000000,0.000000,0.000000,0.000000,0.000000,0.000000
12447140.000000,-0.345147,0.547901,0.449507,-1.434180,-0.245555,1.928568,0.134005,-0.001259,0.176540,-0.028701,-0.349942,-0.125531,0.648319,0.082946,2.827497,-12.174335,3.124191,4.510375,0.332731,0.096236,0.001693,0.000000,0.000000,0.000000,0.000000,0.000000,0.000000
12447141.000000,-0.345138,0.548068,0.449481,-1.434550,-0.245674,1.929246,0.134085,0.001988,0.172345,-0.028412,-0.349338,-0.122402,0.657898,0.081847,2.581525,-13.519245,3.199569,5.077696,0.362943,0.258285,-0.017533,0.000000,0.000000,0.000000,0.000000,0.000000,0.000000
12447142.000000,-0.345119,0.548230,0.449456,-1.434931,-0.245776,1.929925,0.134167,0.007048,0.169897,-0.030269,-0.352348,-0.119549,0.667758,0.080357,2.061811,-15.038715,3.223373,6.117125,0.243009,0.408431,-0.023942,0.000000,0.000000,0.000000,0.000000,0.000000,0.000000
12447143.000000,-0.345119,0.548395,0.449433,-1.435303,-0.245871,1.930617,0.134248,0.004734,0.171489,-0.027634,-0.366253,-0.110024,0.673101,0.080277,1.764264,-16.724812,3.199569,7.350951,0.040677,0.499068,-0.056901,0.000000,0.000000,0.000000,0.000000,0.000000,0.000000
12447144.000000,-0.345126,0.548566,0.449407,-1.435675,-0.245974,1.931303,0.134326,0.000503,0.171348,-0.029097,-0.367571,-0.107991,0.682232,0.078226,1.565900,-18.514057,3.171798,8.711729,-0.049044,0.687667,-0.037675,0.000000,0.000000,0.000000,0.000000,0.000000,0.000000
12447145.000000,-0.345131,0.548745,0.449370,-1.436051,-0.246092,1.931960,0.134404,-0.001988,0.176023,-0.030743,-0.369896,-0.112126,0.665049,0.076218,1.343732,-20.398518,3.294784,10.171690,0.010465,1.031905,-0.004716,0.000000,0.000000,0.000000,0.000000,0.000000,0.000000
12447146.000000,-0.345141,0.548932,0.449331,-1.436418,-0.246220,1.932628,0.134485,-0.003611,0.183887,-0.031831,-0.376579,-0.118590,0.657926,0.077076,1.244550,-22.235371,3.417770,11.457090,0.171598,1.337692,-0.031266,0.000000,0.000000,0.000000,0.000000,0.000000,0.000000
12447147.000000,-0.345153,0.549132,0.449292,-1.436795,-0.246337,1.933290,0.134564,-0.007758,0.189582,-0.031393,-0.375826,-0.115283,0.658005,0.078616,1.145368,-24.068256,3.493149,12.667112,0.255826,1.422836,0.034652,0.000000,0.000000,0.000000,0.000000,0.000000,0.000000
12447148.000000,-0.345163,0.549351,0.449244,-1.437175,-0.246457,1.933978,0.134651,-0.010713,0.201085,-0.036875,-0.375822,-0.115335,0.667514,0.083381,1.046186,-25.952717,3.687546,13.754148,0.291532,1.364242,0.001693,0.000000,0.000000,0.000000,0.000000,0.000000,0.000000
12447149.000000,-0.345163,0.549584,0.449194,-1.437550,-0.246576,1.934661,0.134735,-0.007354,0.211607,-0.043037,-0.378099,-0.115723,0.673137,0.081873,0.847822,-27.789570,3.838302,14.519835,0.327238,1.201278,-0.011124,0.000000,0.000000,0.000000,0.000000,0.000000,0.000000
12447150.000000,-0.345155,0.549819,0.449137,-1.437925,-0.246693,1.935310,0.134812,-0.002612,0.219916,-0.045425,-0.374656,-0.118149,0.665247,0.083424,0.550275,-29.380451,4.032700,15.063353,0.291532,1.207687,0.028243,0.000000,0.000000,0.000000,0.000000,0.000000,0.000000
12447151.000000,-0.345156,0.550068,0.449079,-1.438300,-0.246814,1.935939,0.134896,0.000284,0.229787,-0.049755,-0.379160,-0.116881,0.653314,0.084131,0.403486,-30.848347,4.203293,15.436277,0.297025,1.350509,-0.017533,0.000000,0.000000,0.000000,0.000000,0.000000,0.000000
12447152.000000,-0.345161,0.550315,0.449019,-1.438692,-0.246936,1.936560,0.134978,0.000897,0.235995,-0.052992,-0.382368,-0.116356,0.646378,0.081482,0.328107,-32.098042,4.377853,15.757627,0.308927,1.494247,-0.011124,0.000000,0.000000,0.000000,0.000000,0.000000,0.000000
12447153.000000,-0.345170,0.550551,0.448947,-1.439096,-0.247063,1.937189,0.135061,-0.003351,0.233426,-0.061350,-0.389175,-0.116811,0.644667,0.079923,0.328107,-33.002583,4.671432,16.102781,0.351041,1.539108,-0.011124,0.000000,0.000000,0.000000,0.000000,0.000000,0.000000
12447154.000000,-0.345187,0.550775,0.448876,-1.439515,-0.247190,1.937826,0.135141,-0.008027,0.229058,-0.065668,-0.398375,-0.120268,0.632591,0.078288,0.403486,-33.617512,4.893600,16.598692,0.369352,1.474105,0.001693,0.000000,0.000000,0.000000,0.000000,0.000000,0.000000
12447155.000000,-0.345203,0.550996,0.448797,-1.439941,-0.247311,1.938443,0.135220,-0.011069,0.226870,-0.069200,-0.403775,-0.118259,0.632354,0.081114,0.474897,-34.081684,5.135605,17.090635,0.369352,1.435653,0.028243,0.000000,0.000000,0.000000,0.000000,0.000000,0.000000
12447156.000000,-0.345227,0.551225,0.448718,-1.440365,-0.247440,1.939054,0.135305,-0.015486,0.221581,-0.070965,-0.408315,-0.117719,0.621008,0.085777,0.649457,-34.498249,5.333969,17.411985,0.393156,1.539108,-0.004716,0.000000,0.000000,0.000000,0.000000,0.000000,0.000000
12447157.000000,-0.345241,0.551465,0.448635,-1.440798,-0.247569,1.939654,0.135382,-0.012401,0.224370,-0.076586,-0.416396,-0.122177,0.615979,0.081583,0.697065,-35.010029,5.579941,17.784910,0.422452,1.721298,0.034652,0.000000,0.000000,0.000000,0.000000,0.000000,0.000000
12447158.000000,-0.345260,0.551706,0.448550,-1.441228,-0.247699,1.940242,0.135469,-0.014425,0.227422,-0.076372,-0.418863,-0.122809,0.607630,0.081998,0.796247,-35.549580,5.774338,18.007078,0.381254,1.884261,-0.017533,0.000000,0.000000,0.000000,0.000000,0.000000,0.000000
12447159.000000,-0.345268,0.551949,0.448465,-1.441660,-0.247833,1.940843,0.135544,-0.009862,0.230568,-0.079495,-0.422855,-0.128865,0.611784,0.078038,0.772443,-35.989948,5.972702,18.304625,0.356534,1.890670,0.041976,0.000000,0.000000,0.000000,0.000000,0.000000,0.000000
12447160.000000,-0.345275,0.552198,0.448379,-1.442103,-0.247962,1.941447,0.135629,-0.008585,0.236155,-0.077946,-0.427714,-0.123910,0.613554,0.083027,0.697065,-36.406513,6.143295,18.574400,0.327238,1.819259,0.015426,0.000000,0.000000,0.000000,0.000000,0.000000,0.000000
12447161.000000,-0.345294,0.552452,0.448290,-1.442536,-0.248093,1.942051,0.135714,-0.011905,0.240461,-0.082224,-0.429358,-0.126035,0.613415,0.082372,0.796247,-36.823078,6.290085,18.721189,0.332731,1.773483,-0.017533,0.000000,0.000000,0.000000,0.000000,0.000000,0.000000
12447162.000000,-0.345300,0.552712,0.448193,-1.442968,-0.248224,1.942646,0.135793,-0.007065,0.249181,-0.084645,-0.429556,-0.128999,0.604691,0.078545,0.724836,-37.334858,6.512253,18.820372,0.369352,1.832076,0.034652,0.000000,0.000000,0.000000,0.000000,0.000000,0.000000
12447163.000000,-0.345313,0.552969,0.448095,-1.443411,-0.248363,1.943225,0.135884,-0.009539,0.250437,-0.092596,-0.437339,-0.133201,0.601901,0.084444,0.772443,-37.751423,6.734421,18.971128,0.464567,1.909896,-0.017533,0.000000,0.000000,0.000000,0.000000,0.000000,0.000000
12447164.000000,-0.345325,0.553223,0.448004,-1.443860,-0.248496,1.943833,0.135968,-0.007625,0.252072,-0.092981,-0.441828,-0.133919,0.596899,0.081397,0.796247,-37.949787,6.853439,19.169493,0.500272,1.916305,0.001693,0.000000,0.000000,0.000000,0.000000,0.000000,0.000000
12447165.000000,-0.345336,0.553469,0.447910,-1.444312,-0.248627,1.944429,0.136050,-0.008762,0.250766,-0.092808,-0.448013,-0.133547,0.609714,0.082875,0.796247,-38.120380,6.952621,19.363890,0.512174,1.909896,0.041976,0.000000,0.000000,0.000000,0.000000,0.000000,0.000000
12447166.000000,-0.345344,0.553719,0.447819,-1.444776,-0.248749,1.945042,0.136139,-0.004832,0.251417,-0.088081,-0.451358,-0.130415,0.610349,0.087270,0.724836,-38.215595,6.976425,19.613829,0.452665,1.858627,-0.011124,0.000000,0.000000,0.000000,0.000000,0.000000,0.000000
12447167.000000,-0.345349,0.553969,0.447732,-1.445224,-0.248875,1.945649,0.136218,-0.005638,0.250241,-0.087450,-0.455623,-0.129569,0.612447,0.086930,0.673261,-38.215595,6.976425,19.685240,0.416959,1.877853,0.041976,0.000000,0.000000,0.000000,0.000000,0.000000,0.000000
12447168.000000,-0.345356,0.554226,0.447651,-1.445672,-0.249005,1.946241,0.136306,-0.004391,0.250621,-0.082145,-0.450381,-0.124930,0.610714,0.084579,0.673261,-38.390156,6.905014,19.685240,0.398649,1.995040,0.028243,0.000000,0.000000,0.000000,0.000000,0.000000,0.000000
12447169.000000,-0.345361,0.554481,0.447566,-1.446117,-0.249138,1.946853,0.136392,-0.004811,0.251079,-0.083428,-0.451961,-0.131366,0.607012,0.088275,0.601850,-38.461567,6.905014,19.736814,0.393156,2.047225,0.001693,0.000000,0.000000,0.000000,0.000000,0.000000,0.000000
12447170.000000,-0.345366,0.554730,0.447488,-1.446566,-0.249267,1.947460,0.136475,-0.002056,0.252722,-0.082639,-0.449670,-0.127200,0.613587,0.089031,0.526471,-38.485371,6.829636,19.784422,0.398649,2.027084,0.015426,0.000000,0.000000,0.000000,0.000000,0.000000,0.000000
12447171.000000,-0.345363,0.554978,0.447408,-1.447019,-0.249394,1.948070,0.136558,0.001696,0.250380,-0.079788,-0.446877,-0.128800,0.613225,0.089337,0.375715,-38.413960,6.782028,19.784422,0.416959,1.981307,0.041976,0.000000,0.000000,0.000000,0.000000,0.000000,0.000000
12447172.000000,-0.345360,0.555236,0.447332,-1.447450,-0.249520,1.948693,0.136637,0.001111,0.252758,-0.080256,-0.442611,-0.129812,0.611049,0.089426,0.228925,-38.513142,6.706650,19.685240,0.422452,1.955673,0.074935,0.000000,0.000000,0.000000,0.000000,0.000000,0.000000
12447173.000000,-0.345354,0.555489,0.447255,-1.447894,-0.249642,1.949297,0.136732,0.001767,0.252913,-0.077445,-0.439812,-0.125820,0.608920,0.088890,0.030561,-38.536945,6.635239,19.613829,0.428861,1.968490,-0.004716,0.000000,0.000000,0.000000,0.000000,0.000000,0.000000
12447174.000000,-0.345342,0.555753,0.447184,-1.448322,-0.249765,1.949914,0.136809,0.003130,0.253400,-0.078610,-0.435412,-0.121977,0.608040,0.088362,-0.215411,-38.608356,6.559860,19.415464,0.416959,1.949264,0.041976,0.000000,0.000000,0.000000,0.000000,0.000000,0.000000
12447175.000000,-0.345337,0.556007,0.447117,-1.448765,-0.249886,1.950532,0.136901,0.004309,0.252630,-0.074147,-0.434565,-0.119761,0.613488,0.091048,-0.342364,-38.731342,6.389267,19.292479,0.416959,1.909896,0.009017,0.000000,0.000000,0.000000,0.000000,0.000000,0.000000
12447176.000000,-0.345323,0.556267,0.447048,-1.449202,-0.250006,1.951149,0.136989,0.007509,0.254324,-0.072130,-0.431777,-0.121883,0.620162,0.092115,-0.564532,-38.830524,6.266281,19.217100,0.393156,1.909896,0.001693,0.000000,0.000000,0.000000,0.000000,0.000000,0.000000
12447177.000000,-0.345311,0.556530,0.446990,-1.449625,-0.250129,1.951780,0.137072,0.008019,0.258271,-0.065743,-0.430325,-0.123997,0.622199,0.091353,-0.711321,-38.925739,6.067917,19.042540,0.381254,1.844894,0.034652,0.000000,0.000000,0.000000,0.000000,0.000000,0.000000
12447178.000000,-0.345295,0.556781,0.446927,-1.450053,-0.250254,1.952406,0.137164,0.011082,0.254847,-0.062858,-0.430315,-0.125013,0.624274,0.089138,-0.834307,-39.001118,5.948898,18.947325,0.351041,1.793624,-0.017533,0.000000,0.000000,0.000000,0.000000,0.000000,0.000000
12447179.000000,-0.345284,0.557040,0.446871,-1.450472,-0.250381,1.953032,0.137243,0.008065,0.258261,-0.062871,-0.425830,-0.127271,0.623876,0.083156,-0.862078,-39.072529,5.798141,18.871946,0.369352,1.793624,0.048385,0.000000,0.000000,0.000000,0.000000,0.000000,0.000000
12447180.000000,-0.345271,0.557300,0.446815,-1.450891,-0.250500,1.953666,0.137328,0.009070,0.259502,-0.060881,-0.425547,-0.127334,0.624137,0.085556,-0.885882,-39.072529,5.679123,18.820372,0.339139,1.786300,0.061202,0.000000,0.000000,0.000000,0.000000,0.000000,0.000000
12447181.000000,-0.345254,0.557562,0.446754,-1.451302,-0.250626,1.954281,0.137421,0.008642,0.258226,-0.060307,-0.413888,-0.124805,0.624404,0.085509,-0.985064,-39.247089,5.603745,18.697386,0.362943,1.773483,-0.004716,0.000000,0.000000,0.000000,0.000000,0.000000,0.000000
12447182.000000,-0.345234,0.557827,0.446702,-1.451705,-0.250743,1.954907,0.137499,0.009402,0.262258,-0.058136,-0.411109,-0.120530,0.623705,0.080153,-1.131854,-39.393879,5.456955,18.526793,0.327238,1.747848,0.067611,0.000000,0.000000,0.000000,0.000000,0.000000,0.000000
12447183.000000,-0.345218,0.558084,0.446650,-1.452107,-0.250861,1.955522,0.137595,0.008743,0.262735,-0.056518,-0.406939,-0.117079,0.635112,0.080859,-1.231036,-39.417683,5.310165,18.399839,0.279630,1.714889,0.015426,0.000000,0.000000,0.000000,0.000000,0.000000,0.000000
12447184.000000,-0.345197,0.558359,0.446602,-1.452510,-0.250982,1.956154,0.137681,0.011410,0.264673,-0.051673,-0.406932,-0.120580,0.634402,0.083218,-1.330218,-39.635883,5.135605,18.276854,0.273221,1.649886,0.028243,0.000000,0.000000,0.000000,0.000000,0.000000,0.000000
12447185.000000,-0.345177,0.558630,0.446550,-1.452904,-0.251103,1.956785,0.137769,0.013952,0.271369,-0.050473,-0.403036,-0.123100,0.633564,0.082019,-1.453204,-39.810444,5.064194,18.130064,0.279630,1.584884,0.009017,0.000000,0.000000,0.000000,0.000000,0.000000,0.000000
12447186.000000,-0.345160,0.558895,0.446497,-1.453305,-0.251225,1.957401,0.137854,0.011586,0.269434,-0.049783,-0.401164,-0.121346,0.629785,0.084533,-1.528582,-39.834248,5.012619,18.054686,0.297025,1.597701,0.021835,0.000000,0.000000,0.000000,0.000000,0.000000,0.000000
12447187.000000,-0.345151,0.559167,0.446448,-1.453694,-0.251348,1.958018,0.137935,0.010644,0.268126,-0.048257,-0.397361,-0.124249,0.630449,0.086044,-1.504779,-39.881855,4.917404,17.983274,0.303434,1.637069,0.048385,0.000000,0.000000,0.000000,0.000000,0.000000,0.000000
12447188.000000,-0.345138,0.559429,0.446393,-1.454087,-0.251475,1.958634,0.138023,0.011897,0.272070,-0.049295,-0.396101,-0.122116,0.623628,0.088974,-1.552386,-39.905659,4.917404,17.983274,0.320829,1.662704,0.021835,0.000000,0.000000,0.000000,0.000000,0.000000,0.000000
12447189.000000,-0.345131,0.559698,0.446339,-1.454479,-0.251605,1.959262,0.138108,0.010033,0.270446,-0.049317,-0.393732,-0.119373,0.625550,0.089034,-1.480975,-39.929462,4.893600,18.054686,0.315336,1.605026,0.054794,0.000000,0.000000,0.000000,0.000000,0.000000,0.000000
12447190.000000,-0.345124,0.559977,0.446285,-1.454859,-0.251727,1.959889,0.138200,0.009364,0.271569,-0.049156,-0.393229,-0.116202,0.625145,0.090880,-1.429400,-40.052448,4.865829,18.054686,0.273221,1.572067,0.041976,0.000000,0.000000,0.000000,0.000000,0.000000,0.000000
12447191.000000,-0.345119,0.560245,0.446234,-1.455250,-0.251850,1.960494,0.138290,0.007892,0.271105,-0.048468,-0.386601,-0.114883,0.623212,0.092199,-1.330218,-40.127827,4.818222,18.106260,0.255826,1.617843,0.021835,0.000000,0.000000,0.000000,0.000000,0.000000,0.000000
12447192.000000,-0.345117,0.560528,0.446184,-1.455630,-0.251974,1.961108,0.138375,0.005848,0.275530,-0.051795,-0.386706,-0.117477,0.619763,0.090967,-1.183428,-40.298420,4.794418,18.205442,0.213712,1.714889,0.067611,0.000000,0.000000,0.000000,0.000000,0.000000,0.000000
12447193.000000,-0.345115,0.560813,0.446130,-1.456018,-0.252098,1.961735,0.138467,0.005084,0.272977,-0.052193,-0.386070,-0.121997,0.621772,0.088918,-1.060443,-40.469013,4.818222,18.276854,0.231107,1.689254,0.021835,0.000000,0.000000,0.000000,0.000000,0.000000,0.000000
12447194.000000,-0.345116,0.561090,0.446070,-1.456408,-0.252223,1.962351,0.138551,0.001375,0.275762,-0.053548,-0.389566,-0.119002,0.619630,0.089163,-0.933489,-40.714985,4.893600,18.399839,0.207303,1.643478,0.048385,0.000000,0.000000,0.000000,0.000000,0.000000,0.000000
12447195.000000,-0.345117,0.561371,0.446007,-1.456801,-0.252348,1.962965,0.138640,-0.001800,0.276240,-0.058631,-0.392810,-0.117624,0.622662,0.091252,-0.786700,-40.909382,5.012619,18.550596,0.207303,1.689254,0.028243,0.000000,0.000000,0.000000,0.000000,0.000000,0.000000
12447196.000000,-0.345114,0.561653,0.445935,-1.457189,-0.252474,1.963574,0.138732,0.002745,0.277003,-0.065892,-0.389612,-0.116862,0.620930,0.087783,-0.663714,-41.107746,5.163376,18.625975,0.213712,1.747848,0.009017,0.000000,0.000000,0.000000,0.000000,0.000000,0.000000
12447197.000000,-0.345111,0.561940,0.445859,-1.457581,-0.252611,1.964196,0.138814,0.003550,0.279467,-0.072486,-0.389292,-0.122356,0.622946,0.087724,-0.564532,-41.401325,5.381577,18.625975,0.267728,1.727706,0.054794,0.000000,0.000000,0.000000,0.000000,0.000000,0.000000
12447198.000000,-0.345116,0.562218,0.445786,-1.457970,-0.252741,1.964816,0.138906,-0.000762,0.278203,-0.072736,-0.387543,-0.119940,0.619923,0.085432,-0.389971,-41.425129,5.528366,18.697386,0.267728,1.695663,0.034652,0.000000,0.000000,0.000000,0.000000,0.000000,0.000000
12447199.000000,-0.345119,0.562499,0.445705,-1.458371,-0.252878,1.965434,0.138998,-0.000767,0.278219,-0.077736,-0.385452,-0.123387,0.622900,0.088058,-0.215411,-41.472736,5.750534,18.748960,0.279630,1.637069,0.021835,0.000000,0.000000,0.000000,0.000000,0.000000,0.000000
12447200.000000,-0.345128,0.562789,0.445635,-1.458767,-0.253012,1.966063,0.139083,-0.004356,0.283071,-0.074849,-0.382853,-0.126075,0.623511,0.089571,-0.017047,-41.742512,5.825912,18.871946,0.297025,1.578475,0.021835,0.000000,0.000000,0.000000,0.000000,0.000000,0.000000
12447201.000000,-0.345134,0.563066,0.445545,-1.459164,-0.253145,1.966662,0.139168,-0.006297,0.278700,-0.079785,-0.384533,-0.127410,0.629739,0.090302,0.153547,-41.790119,6.067917,18.895750,0.297025,1.670028,0.028243,0.000000,0.000000,0.000000,0.000000,0.000000,0.000000
12447202.000000,-0.345144,0.563349,0.445461,-1.459554,-0.253281,1.967264,0.139252,-0.008391,0.275503,-0.081276,-0.384601,-0.128850,0.615153,0.089332,0.351911,-41.841694,6.218674,18.871946,0.315336,1.767074,0.067611,0.000000,0.000000,0.000000,0.000000,0.000000,0.000000
12447203.000000,-0.345152,0.563635,0.445370,-1.459947,-0.253414,1.967880,0.139346,-0.006191,0.278140,-0.083973,-0.392176,-0.131721,0.616924,0.088100,0.526471,-41.960712,6.436874,18.871946,0.273221,1.767074,0.009017,0.000000,0.000000,0.000000,0.000000,0.000000,0.000000
12447204.000000,-0.345164,0.563912,0.445283,-1.460351,-0.253540,1.968486,0.139433,-0.013151,0.276330,-0.083434,-0.393695,-0.129730,0.612830,0.084243,0.673261,-41.913105,6.559860,18.994932,0.219205,1.793624,0.034652,0.000000,0.000000,0.000000,0.000000,0.000000,0.000000
12447205.000000,-0.345177,0.564194,0.445192,-1.460747,-0.253676,1.969101,0.139518,-0.011767,0.274565,-0.085121,-0.398017,-0.135091,0.615346,0.085977,0.796247,-41.865498,6.758224,19.094114,0.219205,1.786300,0.054794,0.000000,0.000000,0.000000,0.000000,0.000000,0.000000
12447206.000000,-0.345188,0.564473,0.445101,-1.461149,-0.253813,1.969709,0.139613,-0.009700,0.284414,-0.085042,-0.397329,-0.134990,0.613490,0.084999,0.871625,-41.936909,6.905014,19.169493,0.231107,1.786300,0.009017,0.000000,0.000000,0.000000,0.000000,0.000000,0.000000
12447207.000000,-0.345200,0.564756,0.445004,-1.461552,-0.253957,1.970317,0.139696,-0.010897,0.285950,-0.088270,-0.399637,-0.135228,0.618184,0.085521,0.923200,-41.960712,7.051804,19.217100,0.261320,1.851302,0.054794,0.000000,0.000000,0.000000,0.000000,0.000000,0.000000
12447208.000000,-0.345212,0.565037,0.444912,-1.461951,-0.254103,1.970934,0.139782,-0.011795,0.280305,-0.089018,-0.398659,-0.136290,0.611672,0.088758,0.970807,-41.960712,7.127182,19.292479,0.315336,1.909896,0.028243,0.000000,0.000000,0.000000,0.000000,0.000000,0.000000
12447209.000000,-0.345220,0.565309,0.444814,-1.462347,-0.254237,1.971548,0.139872,-0.007801,0.277126,-0.091785,-0.398004,-0.135431,0.617035,0.085454,0.947004,-41.988483,7.297775,19.268675,0.327238,1.851302,0.021835,0.000000,0.000000,0.000000,0.000000,0.000000,0.000000
12447210.000000,-0.345228,0.565589,0.444719,-1.462747,-0.254372,1.972170,0.139955,-0.005015,0.279021,-0.092872,-0.406693,-0.133496,0.616484,0.086391,0.923200,-41.960712,7.420761,19.439268,0.308927,1.779891,0.054794,0.000000,0.000000,0.000000,0.000000,0.000000,0.000000
12447211.000000,-0.345237,0.565871,0.444622,-1.463146,-0.254509,1.972783,0.140046,-0.007324,0.275414,-0.093035,-0.406263,-0.138463,0.617253,0.089824,0.947004,-41.960712,7.515976,19.490843,0.327238,1.793624,0.015426,0.000000,0.000000,0.000000,0.000000,0.000000,0.000000
12447212.000000,-0.345242,0.566142,0.444522,-1.463548,-0.254643,1.973393,0.140134,-0.007882,0.278284,-0.095879,-0.402858,-0.135700,0.613925,0.095072,0.923200,-41.936909,7.591354,19.538450,0.297025,1.800033,0.028243,0.000000,0.000000,0.000000,0.000000,0.000000,0.000000
12447213.000000,-0.345249,0.566420,0.444428,-1.463947,-0.254778,1.973992,0.140223,-0.005215,0.278059,-0.094407,-0.399876,-0.134578,0.612672,0.095370,0.895429,-41.960712,7.638962,19.685240,0.291532,1.865035,0.015426,0.000000,0.000000,0.000000,0.000000,0.000000,0.000000
12447214.000000,-0.345251,0.566685,0.444330,-1.464349,-0.254917,1.974580,0.140307,-0.005431,0.275119,-0.093273,-0.396644,-0.140193,0.608282,0.088205,0.824018,-41.841694,7.690536,19.835997,0.327238,1.923629,0.067611,0.000000,0.000000,0.000000,0.000000,0.000000,0.000000
12447215.000000,-0.345256,0.566955,0.444233,-1.464759,-0.255060,1.975177,0.140398,-0.006691,0.274518,-0.095214,-0.403058,-0.142337,0.606688,0.091500,0.796247,-41.790119,7.738144,20.058165,0.320829,1.936446,0.009017,0.000000,0.000000,0.000000,0.000000,0.000000,0.000000
12447216.000000,-0.345259,0.567225,0.444146,-1.465156,-0.255203,1.975778,0.140485,-0.004062,0.270865,-0.094969,-0.400847,-0.145304,0.604602,0.091548,0.748639,-41.595722,7.690536,20.133543,0.344633,1.968490,0.021835,0.000000,0.000000,0.000000,0.000000,0.000000,0.000000
12447217.000000,-0.345263,0.567499,0.444058,-1.465566,-0.255349,1.976366,0.140572,-0.003244,0.268660,-0.094846,-0.405667,-0.147546,0.599091,0.091183,0.748639,-41.548115,7.638962,20.379515,0.369352,2.001449,0.048385,0.000000,0.000000,0.000000,0.000000,0.000000,0.000000
12447218.000000,-0.345255,0.567775,0.443965,-1.465968,-0.255491,1.976961,0.140668,0.001519,0.270195,-0.093752,-0.408361,-0.144256,0.589883,0.093804,0.574079,-41.520344,7.666733,20.577879,0.386747,2.020675,0.001693,0.000000,0.000000,0.000000,0.000000,0.000000,0.000000
12447219.000000,-0.345254,0.568048,0.443880,-1.466374,-0.255627,1.977540,0.140757,0.001268,0.271279,-0.089807,-0.406928,-0.145781,0.601936,0.091595,0.550275,-41.472736,7.567551,20.748472,0.386747,2.072860,0.054794,0.000000,0.000000,0.000000,0.000000,0.000000,0.000000
12447220.000000,-0.345247,0.568323,0.443793,-1.466784,-0.255763,1.978136,0.140848,0.002382,0.269238,-0.087710,-0.405438,-0.141428,0.601264,0.093129,0.474897,-41.448933,7.492172,20.899229,0.369352,2.118636,0.034652,0.000000,0.000000,0.000000,0.000000,0.000000,0.000000
12447221.000000,-0.345236,0.568595,0.443706,-1.467181,-0.255900,1.978730,0.140941,0.004295,0.268708,-0.090056,-0.404043,-0.142303,0.600888,0.094342,0.351911,-41.325947,7.444565,21.046019,0.351041,2.144271,0.009017,0.000000,0.000000,0.000000,0.000000,0.000000,0.000000
12447222.000000,-0.345221,0.568865,0.443622,-1.467585,-0.256036,1.979321,0.141027,0.008073,0.271464,-0.088442,-0.402272,-0.139724,0.598067,0.088652,0.252729,-41.202961,7.396957,21.192808,0.351041,2.125045,0.028243,0.000000,0.000000,0.000000,0.000000,0.000000,0.000000
12447223.000000,-0.345213,0.569139,0.443549,-1.467983,-0.256175,1.979910,0.141115,0.008679,0.268435,-0.084496,-0.400761,-0.137348,0.594325,0.086940,0.252729,-41.155354,7.222397,21.418943,0.339139,2.125045,0.015426,0.000000,0.000000,0.000000,0.000000,0.000000,0.000000
12447224.000000,-0.345196,0.569409,0.443471,-1.468393,-0.256321,1.980514,0.141201,0.011002,0.275696,-0.084239,-0.401612,-0.136954,0.597506,0.087721,0.177350,-41.155354,7.150986,21.613340,0.362943,2.112228,0.041976,0.000000,0.000000,0.000000,0.000000,0.000000,0.000000
12447225.000000,-0.345188,0.569681,0.443397,-1.468800,-0.256472,1.981100,0.141294,0.010372,0.275231,-0.080145,-0.399627,-0.137919,0.589129,0.089933,0.205121,-41.107746,7.051804,21.835508,0.428861,2.125045,0.028243,0.000000,0.000000,0.000000,0.000000,0.000000,0.000000
12447226.000000,-0.345167,0.569948,0.443323,-1.469197,-0.256616,1.981686,0.141378,0.014260,0.268255,-0.077092,-0.399196,-0.136500,0.583955,0.089960,0.054365,-41.056171,6.952621,21.962461,0.434354,2.209274,0.054794,0.000000,0.000000,0.000000,0.000000,0.000000,0.000000
12447227.000000,-0.345154,0.570212,0.443252,-1.469601,-0.256754,1.982260,0.141472,0.014555,0.269870,-0.074178,-0.395450,-0.134306,0.577570,0.087411,0.006757,-41.008564,6.829636,22.109251,0.410551,2.280685,0.021835,0.000000,0.000000,0.000000,0.000000,0.000000,0.000000
12447228.000000,-0.345139,0.570482,0.443190,-1.470005,-0.256896,1.982863,0.141559,0.015438,0.268655,-0.073172,-0.409242,-0.137576,0.585554,0.089020,-0.068621,-40.885578,6.635239,22.232237,0.398649,2.255050,0.021835,0.000000,0.000000,0.000000,0.000000,0.000000,0.000000
12447229.000000,-0.345121,0.570745,0.443126,-1.470410,-0.257032,1.983459,0.141641,0.014058,0.265339,-0.071069,-0.405988,-0.134805,0.585277,0.083898,-0.191607,-40.762592,6.488449,22.331419,0.362943,2.255050,0.067611,0.000000,0.000000,0.000000,0.000000,0.000000,0.000000
12447230.000000,-0.345106,0.571000,0.443060,-1.470819,-0.257170,1.984053,0.141737,0.014362,0.261722,-0.068041,-0.405946,-0.138488,0.590990,0.083978,-0.243182,-40.591999,6.413071,22.406797,0.351041,2.235824,0.009017,0.000000,0.000000,0.000000,0.000000,0.000000,0.000000
12447231.000000,-0.345092,0.571262,0.443001,-1.471217,-0.257311,1.984648,0.141821,0.014072,0.262250,-0.063432,-0.402316,-0.136533,0.582677,0.084302,-0.266986,-40.445210,6.242477,22.430601,0.339139,2.255050,0.067611,0.000000,0.000000,0.000000,0.000000,0.000000,0.000000
12447232.000000,-0.345074,0.571526,0.442941,-1.471613,-0.257460,1.985241,0.141915,0.015704,0.259862,-0.061108,-0.401437,-0.146835,0.582168,0.087634,-0.366168,-40.421406,6.119492,22.307615,0.386747,2.274276,0.041976,0.000000,0.000000,0.000000,0.000000,0.000000,0.000000
12447233.000000,-0.345063,0.571789,0.442881,-1.472004,-0.257612,1.985839,0.142010,0.015089,0.263064,-0.060603,-0.392102,-0.148437,0.579819,0.090000,-0.389971,-40.346027,6.044113,22.156858,0.410551,2.242233,0.009017,0.000000,0.000000,0.000000,0.000000,0.000000,0.000000
12447234.000000,-0.345051,0.572060,0.442825,-1.472391,-0.257764,1.986450,0.142096,0.014714,0.262167,-0.059572,-0.392834,-0.148740,0.589118,0.089448,-0.413775,-40.274616,5.948898,22.061644,0.405057,2.150680,0.048385,0.000000,0.000000,0.000000,0.000000,0.000000,0.000000
12447235.000000,-0.345039,0.572322,0.442770,-1.472778,-0.257914,1.987041,0.142190,0.010772,0.258471,-0.056592,-0.389005,-0.149287,0.590374,0.091585,-0.413775,-40.199238,5.897324,21.934690,0.405057,2.085677,0.021835,0.000000,0.000000,0.000000,0.000000,0.000000,0.000000
12447236.000000,-0.345023,0.572581,0.442717,-1.473152,-0.258063,1.987642,0.142278,0.012153,0.256933,-0.056319,-0.384689,-0.149674,0.596740,0.092002,-0.465350,-40.076252,5.798141,21.712523,0.405057,2.079269,0.028243,0.000000,0.000000,0.000000,0.000000,0.000000,0.000000
12447237.000000,-0.345012,0.572843,0.442667,-1.473526,-0.258205,1.988241,0.142366,0.011482,0.259910,-0.052518,-0.378480,-0.144095,0.601547,0.091850,-0.441546,-39.957233,5.679123,21.490355,0.374845,2.144271,0.041976,0.000000,0.000000,0.000000,0.000000,0.000000,0.000000
12447238.000000,-0.345003,0.573107,0.442607,-1.473901,-0.258347,1.988835,0.142462,0.010472,0.256375,-0.055687,-0.375843,-0.144837,0.601821,0.093289,-0.389971,-39.858051,5.679123,21.343565,0.356534,2.150680,0.021835,0.000000,0.000000,0.000000,0.000000,0.000000,0.000000
12447239.000000,-0.344987,0.573366,0.442553,-1.474265,-0.258487,1.989441,0.142546,0.012272,0.258662,-0.055555,-0.372858,-0.145148,0.603408,0.091807,-0.441546,-39.711262,5.579941,21.145201,0.320829,2.112228,0.067611,0.000000,0.000000,0.000000,0.000000,0.000000,0.000000
12447240.000000,-0.344978,0.573625,0.442498,-1.474630,-0.258623,1.990038,0.142639,0.011035,0.257543,-0.056544,-0.370187,-0.145208,0.607744,0.093283,-0.389971,-39.564472,5.528366,20.970640,0.279630,2.131454,0.041976,0.000000,0.000000,0.000000,0.000000,0.000000,0.000000
12447241.000000,-0.344970,0.573889,0.442442,-1.474990,-0.258769,1.990655,0.142734,0.009702,0.254147,-0.054820,-0.365235,-0.145609,0.607789,0.090790,-0.314593,-39.465290,5.504562,20.748472,0.249418,2.092086,0.009017,0.000000,0.000000,0.000000,0.000000,0.000000,0.000000
12447242.000000,-0.344957,0.574149,0.442379,-1.475345,-0.258915,1.991275,0.142824,0.013738,0.257511,-0.055758,-0.359292,-0.143587,0.614123,0.086597,-0.314593,-39.465290,5.579941,20.577879,0.279630,2.027084,0.015426,0.000000,0.000000,0.000000,0.000000,0.000000,0.000000
12447243.000000,-0.344952,0.574407,0.442320,-1.475701,-0.259060,1.991883,0.142907,0.011874,0.256346,-0.054471,-0.353929,-0.146914,0.612204,0.081000,-0.243182,-39.318501,5.579941,20.379515,0.320829,1.995040,0.087753,0.000000,0.000000,0.000000,0.000000,0.000000,0.000000
12447244.000000,-0.344950,0.574665,0.442258,-1.476050,-0.259201,1.992496,0.143003,0.008747,0.252593,-0.054569,-0.352097,-0.148526,0.614395,0.090909,-0.092425,-39.195515,5.627548,20.256529,0.339139,1.968490,0.041976,0.000000,0.000000,0.000000,0.000000,0.000000,0.000000
12447245.000000,-0.344939,0.574915,0.442189,-1.476396,-0.259341,1.993106,0.143100,0.009620,0.253626,-0.058756,-0.347662,-0.144469,0.612776,0.087806,-0.068621,-39.072529,5.726730,20.058165,0.344633,1.936446,0.015426,0.000000,0.000000,0.000000,0.000000,0.000000,0.000000
12447246.000000,-0.344934,0.575178,0.442126,-1.476734,-0.259478,1.993722,0.143188,0.008333,0.255328,-0.059741,-0.342881,-0.145091,0.612003,0.086696,0.030561,-39.001118,5.750534,19.883604,0.327238,1.890670,0.087753,0.000000,0.000000,0.000000,0.000000,0.000000,0.000000
12447248.000000,-0.344927,0.575710,0.441994,-1.477399,-0.259747,1.994938,0.143384,0.006351,0.260810,-0.059585,-0.338518,-0.136621,0.614025,0.088935,0.228925,-39.024921,5.825912,19.562254,0.243009,1.858627,0.001693,0.000000,0.000000,0.000000,0.000000,0.000000,0.000000
12447249.000000,-0.344919,0.575973,0.441929,-1.477724,-0.259887,1.995541,0.143469,0.007347,0.262653,-0.061359,-0.337419,-0.138661,0.608693,0.087742,0.276533,-38.953510,5.873520,19.463072,0.195402,1.890670,0.067611,0.000000,0.000000,0.000000,0.000000,0.000000,0.000000
12447250.000000,-0.344919,0.576235,0.441857,-1.478050,-0.260036,1.996139,0.143565,0.002449,0.262079,-0.063713,-0.328374,-0.143820,0.608716,0.090784,0.427289,-38.901936,5.972702,19.292479,0.243009,1.865035,0.028243,0.000000,0.000000,0.000000,0.000000,0.000000,0.000000
12447251.000000,-0.344907,0.576494,0.441780,-1.478376,-0.260186,1.996747,0.143659,0.005575,0.260722,-0.069176,-0.323705,-0.144770,0.604067,0.089580,0.427289,-38.806721,6.095688,19.193296,0.231107,1.832076,0.067611,0.000000,0.000000,0.000000,0.000000,0.000000,0.000000
12447252.000000,-0.344910,0.576753,0.441707,-1.478691,-0.260339,1.997354,0.143755,0.003120,0.256238,-0.068226,-0.322368,-0.151768,0.607545,0.092014,0.625654,-38.560749,6.143295,19.070311,0.273221,1.838485,0.034652,0.000000,0.000000,0.000000,0.000000,0.000000,0.000000
12447253.000000,-0.344906,0.577015,0.441631,-1.479007,-0.260492,1.997955,0.143847,0.001325,0.256140,-0.071214,-0.320636,-0.152643,0.607753,0.092444,0.697065,-38.437763,6.218674,18.947325,0.303434,1.812850,0.034652,0.000000,0.000000,0.000000,0.000000,0.000000,0.000000
12447254.000000,-0.344901,0.577271,0.441552,-1.479314,-0.260640,1.998559,0.143943,0.005965,0.254458,-0.074681,-0.316258,-0.147323,0.607075,0.093408,0.772443,-38.267170,6.341660,18.796568,0.303434,1.767074,0.021835,0.000000,0.000000,0.000000,0.000000,0.000000,0.000000
12447255.000000,-0.344898,0.577531,0.441480,-1.479625,-0.260782,1.999161,0.144030,0.005825,0.256163,-0.074266,-0.315846,-0.147011,0.616478,0.091401,0.871625,-38.191792,6.341660,18.625975,0.273221,1.767074,0.074935,0.000000,0.000000,0.000000,0.000000,0.000000,0.000000
12447256.000000,-0.344893,0.577798,0.441398,-1.479942,-0.260925,1.999749,0.144123,0.003710,0.257331,-0.075827,-0.312838,-0.141525,0.611332,0.092806,0.923200,-38.120380,6.413071,18.598204,0.231107,1.825668,0.061202,0.000000,0.000000,0.000000,0.000000,0.000000,0.000000
12447257.000000,-0.344890,0.578063,0.441323,-1.480228,-0.261072,2.000353,0.144220,0.004069,0.259708,-0.075392,-0.307346,-0.146038,0.608812,0.095103,1.022382,-38.120380,6.413071,18.304625,0.189908,1.825668,0.009017,0.000000,0.000000,0.000000,0.000000,0.000000,0.000000
12447258.000000,-0.344880,0.578324,0.441239,-1.480536,-0.261222,2.000949,0.144307,0.006624,0.259075,-0.073588,-0.306270,-0.146580,0.604838,0.092442,1.022382,-38.021198,6.488449,18.304625,0.166105,1.779891,0.067611,0.000000,0.000000,0.000000,0.000000,0.000000,0.000000
12447259.000000,-0.344871,0.578594,0.441162,-1.480831,-0.261378,2.001555,0.144409,0.008479,0.259861,-0.073771,-0.303667,-0.148614,0.605356,0.095417,1.022382,-37.997395,6.488449,18.205442,0.189908,1.754256,0.009017,0.000000,0.000000,0.000000,0.000000,0.000000,0.000000
12447260.000000,-0.344864,0.578850,0.441076,-1.481136,-0.261531,2.002160,0.144508,0.008607,0.264399,-0.076194,-0.303180,-0.146506,0.605289,0.094907,1.069990,-37.922016,6.583664,18.177671,0.243009,1.741439,0.009017,0.000000,0.000000,0.000000,0.000000,0.000000,0.000000
12447261.000000,-0.344853,0.579121,0.440995,-1.481439,-0.261683,2.002756,0.144594,0.006697,0.268557,-0.076889,-0.302898,-0.148741,0.603587,0.091974,1.069990,-37.949787,6.635239,18.153868,0.279630,1.786300,0.081344,0.000000,0.000000,0.000000,0.000000,0.000000,0.000000
12447262.000000,-0.344846,0.579383,0.440912,-1.481734,-0.261835,2.003363,0.144695,0.004627,0.267000,-0.076731,-0.300046,-0.150427,0.604395,0.094701,1.093793,-37.802998,6.659042,18.153868,0.315336,1.747848,0.028243,0.000000,0.000000,0.000000,0.000000,0.000000,0.000000
12447263.000000,-0.344832,0.579648,0.440828,-1.482025,-0.261977,2.003969,0.144786,0.005295,0.268208,-0.076547,-0.296903,-0.149157,0.606268,0.092858,1.022382,-37.850605,6.682846,18.007078,0.285123,1.695663,0.067611,0.000000,0.000000,0.000000,0.000000,0.000000,0.000000
12447264.000000,-0.344815,0.579917,0.440753,-1.482319,-0.262124,2.004576,0.144879,0.008777,0.269292,-0.077047,-0.298192,-0.148805,0.607003,0.093530,0.947004,-37.802998,6.611435,17.983274,0.273221,1.656295,0.061202,0.000000,0.000000,0.000000,0.000000,0.000000,0.000000
12447265.000000,-0.344798,0.580195,0.440672,-1.482613,-0.262260,2.005183,0.144981,0.008732,0.274043,-0.079103,-0.297700,-0.141693,0.604118,0.095043,0.847822,-37.775227,6.583664,17.907896,0.195402,1.708480,0.028243,0.000000,0.000000,0.000000,0.000000,0.000000,0.000000
12447266.000000,-0.344783,0.580469,0.440594,-1.482908,-0.262409,2.005771,0.145074,0.008004,0.276940,-0.079615,-0.291009,-0.142776,0.597269,0.093510,0.772443,-37.850605,6.512253,17.709532,0.154203,1.767074,0.061202,0.000000,0.000000,0.000000,0.000000,0.000000,0.000000
12447267.000000,-0.344770,0.580754,0.440515,-1.483194,-0.262565,2.006376,0.145171,0.006765,0.279756,-0.080626,-0.287202,-0.145748,0.599522,0.096181,0.724836,-37.997395,6.460678,17.534971,0.171598,1.727706,-0.004716,0.000000,0.000000,0.000000,0.000000,0.000000,0.000000
12447268.000000,-0.344751,0.581031,0.440435,-1.483491,-0.262718,2.006968,0.145254,0.010212,0.278797,-0.081428,-0.289941,-0.148169,0.598071,0.091864,0.625654,-37.997395,6.413071,17.463560,0.195402,1.682845,0.087753,0.000000,0.000000,0.000000,0.000000,0.000000,0.000000
12447269.000000,-0.344735,0.581303,0.440353,-1.483785,-0.262867,2.007582,0.145353,0.011599,0.277095,-0.080718,-0.288376,-0.149879,0.597949,0.099013,0.574079,-37.949787,6.436874,17.364378,0.231107,1.605026,0.028243,0.000000,0.000000,0.000000,0.000000,0.000000,0.000000
12447270.000000,-0.344718,0.581581,0.440276,-1.484073,-0.263017,2.008188,0.145446,0.013168,0.278555,-0.078909,-0.286982,-0.150808,0.600295,0.101933,0.502668,-37.874409,6.413071,17.265196,0.273221,1.559249,0.041976,0.000000,0.000000,0.000000,0.000000,0.000000,0.000000
12447271.000000,-0.344696,0.581865,0.440204,-1.484368,-0.263167,2.008784,0.145546,0.018680,0.281344,-0.076310,-0.288969,-0.151573,0.600742,0.100172,0.375715,-37.874409,6.341660,17.189817,0.297025,1.565658,0.034652,0.000000,0.000000,0.000000,0.000000,0.000000,0.000000
12447272.000000,-0.344678,0.582144,0.440134,-1.484653,-0.263311,2.009379,0.145642,0.017693,0.280941,-0.073399,-0.289878,-0.150142,0.594882,0.098660,0.328107,-37.922016,6.218674,17.066832,0.267728,1.597701,0.034652,0.000000,0.000000,0.000000,0.000000,0.000000,0.000000
12447273.000000,-0.344654,0.582427,0.440058,-1.484940,-0.263450,2.009978,0.145736,0.019499,0.289493,-0.073031,-0.285088,-0.148104,0.595839,0.096404,0.177350,-37.997395,6.167099,16.967649,0.207303,1.649886,0.061202,0.000000,0.000000,0.000000,0.000000,0.000000,0.000000
12447274.000000,-0.344628,0.582720,0.439985,-1.485240,-0.263596,2.010585,0.145836,0.023183,0.292330,-0.071606,-0.290625,-0.146076,0.594618,0.097440,0.054365,-38.120380,6.067917,16.991453,0.135892,1.624252,0.021835,0.000000,0.000000,0.000000,0.000000,0.000000,0.000000
12447275.000000,-0.344604,0.583005,0.439911,-1.485524,-0.263746,2.011194,0.145930,0.025085,0.292756,-0.069296,-0.289389,-0.146366,0.591895,0.095747,-0.044818,-38.191792,6.044113,16.920042,0.105680,1.611434,0.041976,0.000000,0.000000,0.000000,0.000000,0.000000,0.000000
12447276.000000,-0.344588,0.583291,0.439840,-1.485814,-0.263896,2.011788,0.146022,0.021359,0.290013,-0.069364,-0.291651,-0.147558,0.590069,0.093911,-0.044818,-38.267170,5.972702,16.892271,0.100187,1.624252,0.074935,0.000000,0.000000,0.000000,0.000000,0.000000,0.000000
12447277.000000,-0.344570,0.583590,0.439767,-1.486112,-0.264048,2.012396,0.146121,0.018734,0.290479,-0.070697,-0.299832,-0.150481,0.589636,0.096542,-0.044818,-38.461567,5.948898,16.920042,0.154203,1.597701,0.015426,0.000000,0.000000,0.000000,0.000000,0.000000,0.000000
12447278.000000,-0.344553,0.583878,0.439697,-1.486405,-0.264195,2.012991,0.146212,0.016880,0.288314,-0.067802,-0.296678,-0.147787,0.588244,0.099067,-0.044818,-38.536945,5.897324,16.892271,0.207303,1.617843,0.054794,0.000000,0.000000,0.000000,0.000000,0.000000,0.000000
12447279.000000,-0.344528,0.584165,0.439621,-1.486702,-0.264343,2.013589,0.146306,0.017297,0.289250,-0.067386,-0.295949,-0.145455,0.590656,0.092734,-0.116229,-38.584553,5.921127,16.943846,0.255826,1.539108,0.067611,0.000000,0.000000,0.000000,0.000000,0.000000,0.000000
12447280.000000,-0.344514,0.584464,0.439555,-1.486996,-0.264487,2.014183,0.146402,0.017876,0.291248,-0.067900,-0.295000,-0.140873,0.584854,0.094408,-0.068621,-38.707539,5.849716,16.967649,0.231107,1.500655,0.034652,0.000000,0.000000,0.000000,0.000000,0.000000,0.000000
12447281.000000,-0.344493,0.584752,0.439483,-1.487293,-0.264630,2.014768,0.146491,0.019609,0.290999,-0.070456,-0.293730,-0.137915,0.583604,0.093393,-0.068621,-38.731342,5.873520,16.991453,0.213712,1.539108,0.054794,0.000000,0.000000,0.000000,0.000000,0.000000,0.000000
12447282.000000,-0.344470,0.585058,0.439415,-1.487585,-0.264775,2.015359,0.146587,0.021956,0.294949,-0.072700,-0.294174,-0.138864,0.578967,0.095081,-0.116229,-38.806721,5.798141,16.920042,0.159696,1.552840,0.015426,0.000000,0.000000,0.000000,0.000000,0.000000,0.000000
12447283.000000,-0.344451,0.585347,0.439347,-1.487891,-0.264922,2.015948,0.146672,0.022638,0.290244,-0.071893,-0.297921,-0.140437,0.577885,0.091554,-0.116229,-38.683735,5.726730,16.991453,0.117582,1.630660,0.100570,0.000000,0.000000,0.000000,0.000000,0.000000,0.000000
12447284.000000,-0.344436,0.585634,0.439274,-1.488186,-0.265081,2.016526,0.146770,0.018336,0.290971,-0.069861,-0.294187,-0.143948,0.573754,0.093332,-0.044818,-38.584553,5.726730,16.943846,0.135892,1.670028,0.074935,0.000000,0.000000,0.000000,0.000000,0.000000,0.000000
12447285.000000,-0.344424,0.585924,0.439201,-1.488494,-0.265231,2.017118,0.146871,0.017659,0.289198,-0.068793,-0.299736,-0.145560,0.575232,0.095307,0.054365,-38.413960,5.750534,17.090635,0.129484,1.682845,0.028243,0.000000,0.000000,0.000000,0.000000,0.000000,0.000000
12447286.000000,-0.344409,0.586209,0.439130,-1.488792,-0.265381,2.017704,0.146958,0.018588,0.287356,-0.069789,-0.296879,-0.143427,0.585749,0.092743,0.105939,-38.314777,5.726730,17.090635,0.159696,1.637069,0.081344,0.000000,0.000000,0.000000,0.000000,0.000000,0.000000
12447287.000000,-0.344393,0.586508,0.439057,-1.489095,-0.265538,2.018297,0.147058,0.019370,0.291011,-0.071875,-0.299373,-0.146905,0.587443,0.099761,0.153547,-38.290974,5.750534,17.142210,0.213712,1.591293,0.034652,0.000000,0.000000,0.000000,0.000000,0.000000,0.000000
12447288.000000,-0.344377,0.586808,0.438979,-1.489405,-0.265685,2.018878,0.147144,0.016732,0.294163,-0.074566,-0.300056,-0.150820,0.585141,0.097561,0.205121,-38.290974,5.825912,17.289000,0.195402,1.624252,0.054794,0.000000,0.000000,0.000000,0.000000,0.000000,0.000000
12447289.000000,-0.344365,0.587105,0.438907,-1.489707,-0.265838,2.019461,0.147239,0.014313,0.295668,-0.073240,-0.296468,-0.150945,0.587161,0.097149,0.276533,-38.390156,5.774338,17.289000,0.201810,1.584884,0.041976,0.000000,0.000000,0.000000,0.000000,0.000000,0.000000
12447290.000000,-0.344349,0.587404,0.438828,-1.490013,-0.265991,2.020048,0.147329,0.016683,0.298335,-0.075551,-0.303709,-0.149671,0.585605,0.090923,0.304304,-38.461567,5.849716,17.411985,0.171598,1.578475,0.061202,0.000000,0.000000,0.000000,0.000000,0.000000,0.000000
12447291.000000,-0.344339,0.587700,0.438752,-1.490320,-0.266144,2.020625,0.147420,0.013636,0.302424,-0.075942,-0.301565,-0.153374,0.583608,0.091372,0.403486,-38.536945,5.873520,17.487364,0.135892,1.624252,0.067611,0.000000,0.000000,0.000000,0.000000,0.000000,0.000000
12447292.000000,-0.344327,0.587991,0.438680,-1.490624,-0.266310,2.021194,0.147520,0.012033,0.301513,-0.075144,-0.299304,-0.153130,0.581040,0.098734,0.474897,-38.513142,5.849716,17.534971,0.147794,1.702071,0.015426,0.000000,0.000000,0.000000,0.000000,0.000000,0.000000
12447293.000000,-0.344318,0.588284,0.438598,-1.490934,-0.266472,2.021766,0.147608,0.010269,0.299286,-0.078050,-0.301422,-0.153009,0.576032,0.096022,0.574079,-38.413960,5.972702,17.610350,0.159696,1.735030,0.054794,0.000000,0.000000,0.000000,0.000000,0.000000,0.000000
12447294.000000,-0.344306,0.588574,0.438521,-1.491255,-0.266630,2.022346,0.147703,0.010005,0.293273,-0.077515,-0.305862,-0.153348,0.579082,0.095628,0.625654,-38.390156,5.996506,17.832518,0.183500,1.721298,0.048385,0.000000,0.000000,0.000000,0.000000,0.000000,0.000000
12447295.000000,-0.344295,0.588865,0.438438,-1.491562,-0.266794,2.022930,0.147795,0.011885,0.290696,-0.079083,-0.311659,-0.158233,0.582260,0.095429,0.724836,-38.338581,6.095688,17.955503,0.213712,1.682845,0.048385,0.000000,0.000000,0.000000,0.000000,0.000000,0.000000
12447296.000000,-0.344284,0.589156,0.438349,-1.491882,-0.266954,2.023517,0.147892,0.011399,0.290571,-0.081174,-0.310331,-0.161398,0.582388,0.095634,0.772443,-38.191792,6.242477,18.153868,0.225614,1.708480,0.034652,0.000000,0.000000,0.000000,0.000000,0.000000,0.000000
12447297.000000,-0.344273,0.589446,0.438269,-1.492196,-0.267115,2.024084,0.147992,0.007186,0.290670,-0.076093,-0.306292,-0.159477,0.575969,0.095678,0.847822,-38.191792,6.242477,18.253050,0.249418,1.767074,0.021835,0.000000,0.000000,0.000000,0.000000,0.000000,0.000000
12447298.000000,-0.344265,0.589738,0.438186,-1.492507,-0.267278,2.024665,0.148084,0.010347,0.291048,-0.079260,-0.310505,-0.161260,0.566166,0.093767,0.923200,-38.096577,6.266281,18.376036,0.231107,1.825668,0.061202,0.000000,0.000000,0.000000,0.000000,0.000000,0.000000
12447299.000000,-0.344251,0.590034,0.438096,-1.492821,-0.267445,2.025238,0.148189,0.010771,0.293775,-0.080181,-0.312043,-0.163740,0.566920,0.100073,0.947004,-38.068806,6.365463,18.451414,0.237516,1.819259,0.015426,0.000000,0.000000,0.000000,0.000000,0.000000,0.000000
12447300.000000,-0.344240,0.590333,0.438010,-1.493138,-0.267615,2.025826,0.148278,0.010991,0.296693,-0.079778,-0.311116,-0.160872,0.572709,0.097090,0.970807,-38.096577,6.413071,18.673582,0.255826,1.793624,0.054794,0.000000,0.000000,0.000000,0.000000,0.000000,0.000000
12447301.000000,-0.344224,0.590633,0.437921,-1.493452,-0.267778,2.026404,0.148373,0.014708,0.297548,-0.079375,-0.314086,-0.158898,0.566720,0.091696,0.970807,-38.068806,6.460678,18.796568,0.273221,1.793624,0.054794,0.000000,0.000000,0.000000,0.000000,0.000000,0.000000
12447302.000000,-0.344214,0.590935,0.437831,-1.493767,-0.267944,2.026976,0.148471,0.013096,0.297112,-0.083974,-0.315745,-0.157959,0.569856,0.093069,1.022382,-38.120380,6.583664,18.919554,0.303434,1.825668,0.034652,0.000000,0.000000,0.000000,0.000000,0.000000,0.000000
12447303.000000,-0.344204,0.591242,0.437748,-1.494072,-0.268105,2.027551,0.148563,0.011473,0.297762,-0.084537,-0.313440,-0.161318,0.571004,0.092083,1.093793,-38.243366,6.583664,18.994932,0.320829,1.865035,0.067611,0.000000,0.000000,0.000000,0.000000,0.000000,0.000000
12447304.000000,-0.344182,0.591539,0.437654,-1.494390,-0.268262,2.028117,0.148667,0.014358,0.301321,-0.084229,-0.312056,-0.157884,0.584977,0.094136,0.994611,-38.215595,6.682846,19.094114,0.303434,1.871444,0.021835,0.000000,0.000000,0.000000,0.000000,0.000000,0.000000
12447305.000000,-0.344168,0.591843,0.437564,-1.494704,-0.268414,2.028687,0.148760,0.013254,0.296481,-0.088501,-0.310080,-0.153899,0.578402,0.092676,1.022382,-38.267170,6.706650,19.141722,0.249418,1.923629,0.061202,0.000000,0.000000,0.000000,0.000000,0.000000,0.000000
12447306.000000,-0.344148,0.592143,0.437475,-1.495009,-0.268572,2.029265,0.148860,0.016939,0.297633,-0.088718,-0.308840,-0.160548,0.580262,0.093321,0.994611,-38.267170,6.734421,19.193296,0.219205,1.923629,0.054794,0.000000,0.000000,0.000000,0.000000,0.000000,0.000000
12447307.000000,-0.344129,0.592435,0.437390,-1.495320,-0.268734,2.029836,0.148958,0.016357,0.298967,-0.084342,-0.309708,-0.162607,0.580742,0.094816,0.970807,-38.144184,6.706650,19.217100,0.207303,1.942855,0.015426,0.000000,0.000000,0.000000,0.000000,0.000000,0.000000
12447308.000000,-0.344111,0.592732,0.437301,-1.495631,-0.268899,2.030417,0.149051,0.015931,0.298716,-0.085064,-0.306119,-0.161585,0.581295,0.092680,0.947004,-38.120380,6.706650,19.292479,0.255826,1.949264,0.067611,0.000000,0.000000,0.000000,0.000000,0.000000,0.000000
12447309.000000,-0.344093,0.593017,0.437207,-1.495947,-0.269058,2.030998,0.149153,0.018147,0.300462,-0.086847,-0.308599,-0.160143,0.578198,0.093812,0.947004,-37.949787,6.758224,19.316282,0.291532,1.936446,0.048385,0.000000,0.000000,0.000000,0.000000,0.000000,0.000000
12447310.000000,-0.344071,0.593319,0.437116,-1.496263,-0.269221,2.031566,0.149250,0.020982,0.301422,-0.086967,-0.309982,-0.164004,0.575036,0.092737,0.895429,-37.826801,6.758224,19.316282,0.339139,1.936446,0.081344,0.000000,0.000000,0.000000,0.000000,0.000000,0.000000
12447311.000000,-0.344054,0.593621,0.437031,-1.496578,-0.269381,2.032149,0.149353,0.018770,0.301366,-0.086497,-0.313227,-0.161485,0.573717,0.095174,0.895429,-37.802998,6.734421,19.415464,0.362943,1.897079,0.028243,0.000000,0.000000,0.000000,0.000000,0.000000,0.000000
12447312.000000,-0.344034,0.593917,0.436944,-1.496888,-0.269532,2.032718,0.149456,0.017630,0.300313,-0.086673,-0.311013,-0.161981,0.568910,0.094529,0.871625,-37.727619,6.734421,19.340086,0.327238,1.851302,0.028243,0.000000,0.000000,0.000000,0.000000,0.000000,0.000000
12447313.000000,-0.344004,0.594226,0.436859,-1.497200,-0.269691,2.033283,0.149551,0.019043,0.300768,-0.086370,-0.316876,-0.163109,0.561298,0.089877,0.748639,-37.727619,6.706650,19.363890,0.315336,1.903487,0.054794,0.000000,0.000000,0.000000,0.000000,0.000000,0.000000
12447314.000000,-0.343982,0.594534,0.436782,-1.497500,-0.269849,2.033851,0.149655,0.017676,0.300798,-0.083888,-0.311474,-0.163393,0.556766,0.092251,0.724836,-37.703815,6.583664,19.169493,0.279630,1.936446,0.021835,0.000000,0.000000,0.000000,0.000000,0.000000,0.000000
12447315.000000,-0.343957,0.594841,0.436697,-1.497811,-0.270010,2.034410,0.149747,0.020292,0.303448,-0.084602,-0.310679,-0.163544,0.558215,0.091170,0.673261,-37.656208,6.559860,19.094114,0.237516,1.981307,0.061202,0.000000,0.000000,0.000000,0.000000,0.000000,0.000000
12447316.000000,-0.343932,0.595150,0.436618,-1.498112,-0.270177,2.034980,0.149846,0.022345,0.300688,-0.083993,-0.308285,-0.166224,0.555989,0.092698,0.625654,-37.703815,6.488449,19.070311,0.261320,1.930038,0.041976,0.000000,0.000000,0.000000,0.000000,0.000000,0.000000
12447317.000000,-0.343910,0.595444,0.436532,-1.498415,-0.270333,2.035549,0.149946,0.022773,0.299567,-0.085082,-0.305060,-0.162296,0.560818,0.093124,0.625654,-37.628437,6.488449,18.994932,0.255826,1.871444,0.034652,0.000000,0.000000,0.000000,0.000000,0.000000,0.000000
12447318.000000,-0.343887,0.595753,0.436448,-1.498720,-0.270494,2.036119,0.150040,0.023168,0.300492,-0.088610,-0.304517,-0.160061,0.567135,0.087690,0.625654,-37.628437,6.488449,18.994932,0.279630,1.851302,0.061202,0.000000,0.000000,0.000000,0.000000,0.000000,0.000000
12447319.000000,-0.343863,0.596055,0.436368,-1.499017,-0.270654,2.036698,0.150141,0.024047,0.300297,-0.086818,-0.304266,-0.159657,0.572307,0.091058,0.601850,-37.604633,6.413071,18.994932,0.332731,1.825668,0.015426,0.000000,0.000000,0.000000,0.000000,0.000000,0.000000
12447320.000000,-0.343836,0.596358,0.436289,-1.499320,-0.270805,2.037266,0.150233,0.022796,0.304213,-0.082390,-0.302325,-0.160866,0.569886,0.094905,0.526471,-37.604633,6.341660,18.947325,0.303434,1.838485,0.054794,0.000000,0.000000,0.000000,0.000000,0.000000,0.000000
12447321.000000,-0.343811,0.596662,0.436212,-1.499614,-0.270965,2.037840,0.150328,0.023007,0.299662,-0.079741,-0.302030,-0.162940,0.573363,0.094548,0.526471,-37.580830,6.290085,18.919554,0.303434,1.825668,0.061202,0.000000,0.000000,0.000000,0.000000,0.000000,0.000000
12447322.000000,-0.343784,0.596961,0.436138,-1.499913,-0.271124,2.038404,0.150432,0.023945,0.299680,-0.075991,-0.299773,-0.159082,0.581840,0.095734,0.502668,-37.557026,6.167099,18.947325,0.279630,1.838485,0.021835,0.000000,0.000000,0.000000,0.000000,0.000000,0.000000
12447323.000000,-0.343756,0.597263,0.436060,-1.500206,-0.271282,2.038976,0.150525,0.022714,0.301445,-0.075163,-0.298666,-0.159584,0.581912,0.097856,0.427289,-37.457844,6.119492,18.871946,0.231107,1.865035,0.081344,0.000000,0.000000,0.000000,0.000000,0.000000,0.000000
12447324.000000,-0.343729,0.597568,0.435984,-1.500498,-0.271440,2.039547,0.150631,0.023682,0.301829,-0.074419,-0.295997,-0.161937,0.575258,0.099029,0.403486,-37.457844,6.067917,18.848143,0.249418,1.930038,0.028243,0.000000,0.000000,0.000000,0.000000,0.000000,0.000000
12447325.000000,-0.343696,0.597877,0.435907,-1.500790,-0.271591,2.040115,0.150729,0.025603,0.307173,-0.070053,-0.294115,-0.163676,0.579454,0.097592,0.328107,-37.533222,5.996506,18.721189,0.243009,1.890670,0.028243,0.000000,0.000000,0.000000,0.000000,0.000000,0.000000
12447326.000000,-0.343666,0.598187,0.435828,-1.501082,-0.271746,2.040699,0.150827,0.028884,0.306004,-0.074877,-0.295868,-0.159133,0.572943,0.097187,0.304304,-37.434040,5.996506,18.697386,0.207303,1.838485,0.015426,0.000000,0.000000,0.000000,0.000000,0.000000,0.000000
12447327.000000,-0.343636,0.598494,0.435752,-1.501371,-0.271903,2.041280,0.150919,0.028943,0.313454,-0.077325,-0.290166,-0.158697,0.573700,0.094094,0.252729,-37.457844,5.948898,18.649778,0.249418,1.793624,0.074935,0.000000,0.000000,0.000000,0.000000,0.000000,0.000000
12447328.000000,-0.343608,0.598811,0.435676,-1.501655,-0.272058,2.041852,0.151016,0.027701,0.318052,-0.079025,-0.288012,-0.156347,0.574949,0.098740,0.252729,-37.509418,5.897324,18.550596,0.243009,1.819259,0.081344,0.000000,0.000000,0.000000,0.000000,0.000000,0.000000
12447329.000000,-0.343578,0.599128,0.435601,-1.501934,-0.272220,2.042425,0.151118,0.030612,0.314516,-0.076763,-0.283462,-0.154265,0.570988,0.104404,0.228925,-37.533222,5.825912,18.451414,0.225614,1.838485,0.028243,0.000000,0.000000,0.000000,0.000000,0.000000,0.000000
12447330.000000,-0.343546,0.599452,0.435527,-1.502209,-0.272390,2.043003,0.151209,0.029515,0.318127,-0.074743,-0.278935,-0.159550,0.575275,0.100062,0.205121,-37.680012,5.750534,18.328428,0.261320,1.819259,0.067611,0.000000,0.000000,0.000000,0.000000,0.000000,0.000000
12447331.000000,-0.343513,0.599780,0.435451,-1.502491,-0.272554,2.043588,0.151309,0.029508,0.322559,-0.074837,-0.286772,-0.160534,0.575649,0.099977,0.153547,-37.802998,5.750534,18.328428,0.231107,1.754256,0.034652,0.000000,0.000000,0.000000,0.000000,0.000000,0.000000
12447332.000000,-0.343485,0.600099,0.435373,-1.502774,-0.272717,2.044178,0.151409,0.030850,0.318069,-0.078894,-0.282001,-0.157463,0.579936,0.098924,0.177350,-37.850605,5.774338,18.352232,0.213712,1.689254,0.021835,0.000000,0.000000,0.000000,0.000000,0.000000,0.000000
12447333.000000,-0.343455,0.600412,0.435299,-1.503047,-0.272882,2.044754,0.151500,0.029733,0.317967,-0.076394,-0.280336,-0.156433,0.576963,0.095391,0.153547,-37.898212,5.702927,18.328428,0.225614,1.676437,0.081344,0.000000,0.000000,0.000000,0.000000,0.000000,0.000000
12447334.000000,-0.343423,0.600727,0.435219,-1.503315,-0.273047,2.045337,0.151603,0.029626,0.311767,-0.080645,-0.274087,-0.154842,0.576729,0.102139,0.105939,-37.850605,5.750534,18.229246,0.219205,1.695663,0.021835,0.000000,0.000000,0.000000,0.000000,0.000000,0.000000
12447335.000000,-0.343392,0.601041,0.435140,-1.503582,-0.273214,2.045899,0.151695,0.028370,0.313589,-0.082383,-0.273202,-0.150990,0.570859,0.097630,0.105939,-37.898212,5.750534,18.153868,0.267728,1.779891,0.081344,0.000000,0.000000,0.000000,0.000000,0.000000,0.000000
12447336.000000,-0.343358,0.601359,0.435055,-1.503847,-0.273382,2.046475,0.151798,0.031290,0.315238,-0.082468,-0.269680,-0.154154,0.574123,0.101751,0.078168,-37.826801,5.825912,18.078489,0.237516,1.793624,0.061202,0.000000,0.000000,0.000000,0.000000,0.000000,0.000000
12447337.000000,-0.343330,0.601676,0.434981,-1.504120,-0.273548,2.047058,0.151899,0.031965,0.314434,-0.079359,-0.271841,-0.160736,0.572704,0.101363,0.105939,-37.802998,5.774338,18.078489,0.207303,1.786300,0.021835,0.000000,0.000000,0.000000,0.000000,0.000000,0.000000
12447338.000000,-0.343299,0.601993,0.434898,-1.504380,-0.273723,2.047632,0.151994,0.030188,0.318340,-0.082002,-0.263242,-0.159477,0.581094,0.093271,0.105939,-37.826801,5.798141,17.931700,0.237516,1.767074,0.061202,0.000000,0.000000,0.000000,0.000000,0.000000,0.000000
12447339.000000,-0.343270,0.602319,0.434815,-1.504636,-0.273885,2.048214,0.152092,0.028772,0.317363,-0.080999,-0.263467,-0.160906,0.581583,0.093721,0.105939,-37.850605,5.825912,17.907896,0.207303,1.747848,0.054794,0.000000,0.000000,0.000000,0.000000,0.000000,0.000000
12447340.000000,-0.343235,0.602636,0.434737,-1.504893,-0.274050,2.048785,0.152190,0.029050,0.316768,-0.082632,-0.260417,-0.158759,0.588528,0.092902,0.054365,-37.850605,5.825912,17.757139,0.213712,1.747848,0.074935,0.000000,0.000000,0.000000,0.000000,0.000000,0.000000
12447341.000000,-0.343208,0.602967,0.434654,-1.505157,-0.274218,2.049374,0.152296,0.025684,0.323280,-0.081326,-0.261511,-0.161705,0.587486,0.095488,0.153547,-37.874409,5.849716,17.733335,0.231107,1.754256,0.015426,0.000000,0.000000,0.000000,0.000000,0.000000,0.000000
12447342.000000,-0.343176,0.603290,0.434571,-1.505407,-0.274380,2.049956,0.152392,0.029426,0.320356,-0.081445,-0.254003,-0.161968,0.581440,0.088637,0.129743,-37.850605,5.921127,17.634153,0.213712,1.760665,0.061202,0.000000,0.000000,0.000000,0.000000,0.000000,0.000000
12447343.000000,-0.343144,0.603620,0.434493,-1.505666,-0.274539,2.050538,0.152496,0.031515,0.322063,-0.079011,-0.255338,-0.163186,0.583857,0.095794,0.129743,-37.973591,5.897324,17.586546,0.195402,1.727706,0.028243,0.000000,0.000000,0.000000,0.000000,0.000000,0.000000
12447344.000000,-0.343111,0.603960,0.434406,-1.505919,-0.274703,2.051120,0.152594,0.033687,0.325389,-0.082873,-0.253767,-0.164555,0.580940,0.095361,0.105939,-38.096577,5.972702,17.534971,0.189908,1.670028,0.028243,0.000000,0.000000,0.000000,0.000000,0.000000,0.000000
12447345.000000,-0.343081,0.604293,0.434324,-1.506168,-0.274872,2.051706,0.152690,0.030986,0.328459,-0.083879,-0.253142,-0.166540,0.577865,0.093723,0.129743,-38.215595,5.972702,17.511168,0.207303,1.670028,0.061202,0.000000,0.000000,0.000000,0.000000,0.000000,0.000000
12447346.000000,-0.343052,0.604628,0.434242,-1.506422,-0.275040,2.052271,0.152796,0.028443,0.333839,-0.080384,-0.254250,-0.163823,0.569941,0.100808,0.177350,-38.338581,5.921127,17.562742,0.243009,1.670028,0.001693,0.000000,0.000000,0.000000,0.000000,0.000000,0.000000
12447347.000000,-0.343017,0.604960,0.434157,-1.506665,-0.275201,2.052846,0.152887,0.028845,0.329376,-0.080359,-0.249853,-0.164165,0.567742,0.095881,0.129743,-38.390156,5.972702,17.534971,0.219205,1.676437,0.087753,0.000000,0.000000,0.000000,0.000000,0.000000,0.000000
12447348.000000,-0.342985,0.605282,0.434069,-1.506910,-0.275364,2.053402,0.152996,0.027751,0.327907,-0.083087,-0.246158,-0.165599,0.560556,0.101508,0.129743,-38.362385,6.020309,17.511168,0.219205,1.735030,0.048385,0.000000,0.000000,0.000000,0.000000,0.000000,0.000000
12447349.000000,-0.342955,0.605614,0.433985,-1.507148,-0.275527,2.053974,0.153097,0.026528,0.330419,-0.086757,-0.246593,-0.161653,0.562616,0.101590,0.153547,-38.362385,6.020309,17.463560,0.219205,1.727706,0.021835,0.000000,0.000000,0.000000,0.000000,0.000000,0.000000
12447350.000000,-0.342926,0.605946,0.433895,-1.507400,-0.275681,2.054540,0.153194,0.028830,0.329610,-0.085507,-0.249149,-0.157053,0.558629,0.097437,0.177350,-38.362385,6.095688,17.511168,0.166105,1.735030,0.081344,0.000000,0.000000,0.000000,0.000000,0.000000,0.000000
12447351.000000,-0.342899,0.606280,0.433812,-1.507643,-0.275845,2.055099,0.153300,0.029669,0.332654,-0.084608,-0.246373,-0.160036,0.563993,0.098394,0.228925,-38.390156,6.044113,17.511168,0.154203,1.773483,0.034652,0.000000,0.000000,0.000000,0.000000,0.000000,0.000000
12447352.000000,-0.342867,0.606623,0.433726,-1.507885,-0.276017,2.055667,0.153394,0.031834,0.333900,-0.085972,-0.243275,-0.163291,0.563504,0.096058,0.228925,-38.536945,6.067917,17.586546,0.171598,1.773483,0.067611,0.000000,0.000000,0.000000,0.000000,0.000000,0.000000
12447353.000000,-0.342835,0.606969,0.433643,-1.508130,-0.276186,2.056222,0.153501,0.032871,0.339199,-0.085696,-0.245278,-0.165210,0.579041,0.102309,0.252729,-38.707539,6.044113,17.586546,0.178007,1.793624,0.009017,0.000000,0.000000,0.000000,0.000000,0.000000,0.000000
12447354.000000,-0.342806,0.607309,0.433549,-1.508373,-0.276352,2.056791,0.153594,0.033008,0.335040,-0.088086,-0.247049,-0.161756,0.572501,0.101826,0.304304,-38.683735,6.119492,17.586546,0.189908,1.760665,0.074935,0.000000,0.000000,0.000000,0.000000,0.000000,0.000000
12447356.000000,-0.342738,0.607994,0.433378,-1.508859,-0.276682,2.057920,0.153803,0.033705,0.340964,-0.089383,-0.245999,-0.159663,0.569980,0.100663,0.252729,-38.731342,6.095688,17.562742,0.183500,1.754256,0.001693,0.000000,0.000000,0.000000,0.000000,0.000000,0.000000
12447357.000000,-0.342703,0.608337,0.433288,-1.509103,-0.276846,2.058479,0.153893,0.035860,0.340966,-0.090143,-0.243723,-0.161356,0.563764,0.096506,0.205121,-38.778950,6.143295,17.534971,0.159696,1.747848,0.067611,0.000000,0.000000,0.000000,0.000000,0.000000,0.000000
12447358.000000,-0.342669,0.608679,0.433201,-1.509343,-0.277013,2.059051,0.153997,0.033763,0.348999,-0.088818,-0.239682,-0.164377,0.566249,0.097360,0.177350,-38.830524,6.119492,17.411985,0.178007,1.727706,0.028243,0.000000,0.000000,0.000000,0.000000,0.000000,0.000000
12447359.000000,-0.342635,0.609024,0.433112,-1.509585,-0.277185,2.059603,0.154092,0.034649,0.341269,-0.088653,-0.242872,-0.164960,0.560958,0.094831,0.177350,-38.878132,6.119492,17.411985,0.166105,1.741439,0.074935,0.000000,0.000000,0.000000,0.000000,0.000000,0.000000
12447360.000000,-0.342602,0.609369,0.433024,-1.509831,-0.277359,2.060172,0.154195,0.035395,0.344321,-0.087920,-0.244623,-0.166874,0.563039,0.095537,0.177350,-38.901936,6.095688,17.388182,0.183500,1.708480,0.054794,0.000000,0.000000,0.000000,0.000000,0.000000,0.000000
12447361.000000,-0.342569,0.609720,0.432935,-1.510077,-0.277528,2.060725,0.154300,0.032154,0.343520,-0.088270,-0.245916,-0.168196,0.558157,0.101192,0.205121,-39.048725,6.119492,17.388182,0.201810,1.735030,0.015426,0.000000,0.000000,0.000000,0.000000,0.000000,0.000000
12447362.000000,-0.342535,0.610054,0.432852,-1.510321,-0.277694,2.061292,0.154393,0.034265,0.340672,-0.086956,-0.243583,-0.163347,0.560581,0.096888,0.177350,-39.001118,6.067917,17.411985,0.195402,1.721298,0.081344,0.000000,0.000000,0.000000,0.000000,0.000000,0.000000
12447363.000000,-0.342500,0.610401,0.432762,-1.510572,-0.277864,2.061860,0.154497,0.031938,0.341476,-0.087926,-0.245679,-0.165580,0.557638,0.098244,0.177350,-39.048725,6.095688,17.411985,0.213712,1.727706,0.028243,0.000000,0.000000,0.000000,0.000000,0.000000,0.000000
12447364.000000,-0.342461,0.610740,0.432671,-1.510829,-0.278028,2.062423,0.154598,0.034973,0.338246,-0.088430,-0.249587,-0.160724,0.560841,0.101284,0.105939,-39.072529,6.119492,17.511168,0.183500,1.708480,0.041976,0.000000,0.000000,0.000000,0.000000,0.000000,0.000000
12447365.000000,-0.342422,0.611084,0.432582,-1.511077,-0.278194,2.062994,0.154694,0.036776,0.337905,-0.091953,-0.248636,-0.162252,0.561494,0.103551,0.054365,-39.072529,6.143295,17.586546,0.166105,1.695663,0.061202,0.000000,0.000000,0.000000,0.000000,0.000000,0.000000
12447366.000000,-0.342385,0.611422,0.432498,-1.511322,-0.278362,2.063547,0.154801,0.037290,0.336195,-0.092028,-0.245627,-0.164431,0.561941,0.102483,0.030561,-38.977314,6.067917,17.586546,0.171598,1.714889,0.021835,0.000000,0.000000,0.000000,0.000000,0.000000,0.000000
12447367.000000,-0.342350,0.611768,0.432407,-1.511561,-0.278538,2.064112,0.154895,0.037215,0.339769,-0.093723,-0.242212,-0.166066,0.561924,0.099556,0.030561,-38.953510,6.067917,17.511168,0.189908,1.741439,0.067611,0.000000,0.000000,0.000000,0.000000,0.000000,0.000000
12447368.000000,-0.342309,0.612113,0.432316,-1.511810,-0.278708,2.064675,0.155000,0.038980,0.340885,-0.094869,-0.245103,-0.168094,0.557885,0.104904,-0.044818,-38.854328,6.044113,17.534971,0.219205,1.747848,0.015426,0.000000,0.000000,0.000000,0.000000,0.000000,0.000000
12447369.000000,-0.342273,0.612449,0.432229,-1.512054,-0.278878,2.065233,0.155093,0.038762,0.339251,-0.091504,-0.242777,-0.167992,0.555354,0.104316,-0.068621,-38.778950,5.972702,17.511168,0.207303,1.747848,0.081344,0.000000,0.000000,0.000000,0.000000,0.000000,0.000000
12447370.000000,-0.342239,0.612799,0.432141,-1.512295,-0.279047,2.065792,0.155198,0.037776,0.342260,-0.090853,-0.240093,-0.167486,0.553716,0.104405,-0.044818,-38.778950,5.972702,17.435789,0.183500,1.702071,0.015426,0.000000,0.000000,0.000000,0.000000,0.000000,0.000000
12447371.000000,-0.342199,0.613143,0.432049,-1.512546,-0.279214,2.066349,0.155296,0.038816,0.337007,-0.090160,-0.240607,-0.171986,0.563517,0.100021,-0.092425,-38.830524,5.972702,17.463560,0.159696,1.689254,0.054794,0.000000,0.000000,0.000000,0.000000,0.000000,0.000000
12447372.000000,-0.342163,0.613491,0.431958,-1.512788,-0.279386,2.066907,0.155396,0.038422,0.337098,-0.093522,-0.240587,-0.176364,0.558095,0.102229,-0.092425,-38.925739,5.996506,17.463560,0.171598,1.721298,0.067611,0.000000,0.000000,0.000000,0.000000,0.000000,0.000000
12447373.000000,-0.342125,0.613845,0.431866,-1.513034,-0.279562,2.067470,0.155506,0.037759,0.339614,-0.092705,-0.245088,-0.181991,0.558137,0.102254,-0.092425,-39.001118,6.020309,17.534971,0.147794,1.767074,0.015426,0.000000,0.000000,0.000000,0.000000,0.000000,0.000000
12447374.000000,-0.342089,0.614191,0.431778,-1.513289,-0.279745,2.068027,0.155601,0.037624,0.342393,-0.090166,-0.249070,-0.184160,0.555915,0.102523,-0.092425,-39.124104,5.972702,17.661924,0.159696,1.760665,0.074935,0.000000,0.000000,0.000000,0.000000,0.000000,0.000000
12447375.000000,-0.342062,0.614543,0.431693,-1.513538,-0.279930,2.068591,0.155709,0.034750,0.345540,-0.088480,-0.248616,-0.186500,0.558096,0.102774,0.030561,-39.195515,5.921127,17.757139,0.195402,1.754256,0.015426,0.000000,0.000000,0.000000,0.000000,0.000000,0.000000
12447376.000000,-0.342025,0.614882,0.431600,-1.513791,-0.280107,2.069158,0.155812,0.035717,0.348244,-0.092234,-0.251320,-0.182612,0.558591,0.100118,0.030561,-39.195515,5.948898,17.856321,0.201810,1.786300,0.021835,0.000000,0.000000,0.000000,0.000000,0.000000,0.000000
12447377.000000,-0.341990,0.615226,0.431508,-1.514052,-0.280293,2.069717,0.155908,0.038339,0.348097,-0.094307,-0.252047,-0.185842,0.565673,0.096622,0.078168,-39.147907,5.948898,18.030882,0.255826,1.779891,0.074935,0.000000,0.000000,0.000000,0.000000,0.000000,0.000000
12447378.000000,-0.341953,0.615580,0.431413,-1.514311,-0.280468,2.070286,0.156018,0.038965,0.346878,-0.094412,-0.252796,-0.180690,0.565044,0.098159,0.054365,-39.195515,6.020309,18.229246,0.231107,1.779891,0.021835,0.000000,0.000000,0.000000,0.000000,0.000000,0.000000
12447379.000000,-0.341919,0.615927,0.431325,-1.514561,-0.280643,2.070836,0.156120,0.038146,0.348157,-0.092449,-0.253517,-0.178125,0.560125,0.100230,0.078168,-39.195515,6.020309,18.328428,0.237516,1.793624,0.054794,0.000000,0.000000,0.000000,0.000000,0.000000,0.000000
12447380.000000,-0.341883,0.616276,0.431236,-1.514810,-0.280820,2.071397,0.156227,0.037559,0.350023,-0.094474,-0.252852,-0.179207,0.556078,0.105205,0.105939,-39.124104,6.020309,18.352232,0.207303,1.819259,0.009017,0.000000,0.000000,0.000000,0.000000,0.000000,0.000000
12447381.000000,-0.341847,0.616618,0.431143,-1.515063,-0.281003,2.071951,0.156320,0.037196,0.350707,-0.093319,-0.249520,-0.177556,0.552697,0.099705,0.129743,-39.100300,6.044113,18.376036,0.225614,1.858627,0.081344,0.000000,0.000000,0.000000,0.000000,0.000000,0.000000
12447382.000000,-0.341811,0.616975,0.431051,-1.515314,-0.281182,2.072506,0.156421,0.037409,0.352423,-0.091881,-0.247756,-0.175720,0.552259,0.103236,0.129743,-39.147907,6.044113,18.427610,0.231107,1.851302,0.081344,0.000000,0.000000,0.000000,0.000000,0.000000,0.000000
12447383.000000,-0.341784,0.617326,0.430959,-1.515568,-0.281358,2.073053,0.156530,0.031544,0.349335,-0.091404,-0.249556,-0.178217,0.545477,0.102804,0.252729,-39.171711,6.067917,18.475218,0.213712,1.865035,0.034652,0.000000,0.000000,0.000000,0.000000,0.000000,0.000000
12447384.000000,-0.341750,0.617679,0.430869,-1.515822,-0.281536,2.073599,0.156635,0.029622,0.351454,-0.093431,-0.247498,-0.177174,0.546962,0.103741,0.276533,-39.219318,6.067917,18.526793,0.243009,1.844894,0.067611,0.000000,0.000000,0.000000,0.000000,0.000000,0.000000
12447385.000000,-0.341715,0.618034,0.430780,-1.516072,-0.281706,2.074152,0.156741,0.028748,0.346900,-0.096008,-0.243243,-0.173924,0.548685,0.107517,0.276533,-39.294697,5.996506,18.574400,0.219205,1.812850,0.034652,0.000000,0.000000,0.000000,0.000000,0.000000,0.000000
12447386.000000,-0.341679,0.618391,0.430676,-1.516314,-0.281881,2.074705,0.156844,0.029131,0.349897,-0.100064,-0.245178,-0.178290,0.548071,0.103297,0.228925,-39.366108,6.119492,18.574400,0.237516,1.819259,0.054794,0.000000,0.000000,0.000000,0.000000,0.000000,0.000000
12447387.000000,-0.341651,0.618745,0.430580,-1.516565,-0.282057,2.075248,0.156949,0.025082,0.352039,-0.097844,-0.244441,-0.175288,0.547219,0.106657,0.351911,-39.441486,6.167099,18.625975,0.213712,1.838485,0.028243,0.000000,0.000000,0.000000,0.000000,0.000000,0.000000
12447388.000000,-0.341617,0.619094,0.430489,-1.516814,-0.282237,2.075788,0.157050,0.028314,0.351009,-0.095162,-0.248815,-0.174653,0.544809,0.103459,0.351911,-39.441486,6.167099,18.748960,0.231107,1.871444,0.028243,0.000000,0.000000,0.000000,0.000000,0.000000,0.000000
12447389.000000,-0.341588,0.619445,0.430391,-1.517063,-0.282415,2.076331,0.157147,0.029055,0.354165,-0.094365,-0.250173,-0.174612,0.542187,0.098697,0.427289,-39.417683,6.218674,18.796568,0.261320,1.890670,0.087753,0.000000,0.000000,0.000000,0.000000,0.000000,0.000000
12447390.000000,-0.341553,0.619792,0.430296,-1.517322,-0.282589,2.076878,0.157258,0.028314,0.348835,-0.095749,-0.250660,-0.173231,0.539425,0.104734,0.427289,-39.342304,6.218674,18.947325,0.267728,1.877853,0.009017,0.000000,0.000000,0.000000,0.000000,0.000000,0.000000
12447391.000000,-0.341521,0.620145,0.430195,-1.517573,-0.282758,2.077432,0.157350,0.029295,0.351025,-0.095855,-0.250273,-0.175921,0.536748,0.104701,0.474897,-39.247089,6.313889,19.070311,0.267728,1.865035,0.061202,0.000000,0.000000,0.000000,0.000000,0.000000,0.000000
12447392.000000,-0.341483,0.620489,0.430097,-1.517815,-0.282931,2.077968,0.157453,0.032723,0.345836,-0.094578,-0.247595,-0.174716,0.533643,0.102019,0.427289,-39.124104,6.365463,19.117918,0.279630,1.897079,0.061202,0.000000,0.000000,0.000000,0.000000,0.000000,0.000000
12447393.000000,-0.341446,0.620829,0.430005,-1.518062,-0.283105,2.078504,0.157557,0.034604,0.341947,-0.095233,-0.246856,-0.173745,0.532630,0.102109,0.403486,-38.901936,6.341660,19.193296,0.291532,2.001449,0.009017,0.000000,0.000000,0.000000,0.000000,0.000000,0.000000
12447394.000000,-0.341416,0.621182,0.429899,-1.518304,-0.283275,2.079044,0.157652,0.034254,0.351034,-0.099137,-0.244070,-0.170964,0.528933,0.098172,0.451093,-38.830524,6.460678,19.169493,0.243009,2.085677,0.054794,0.000000,0.000000,0.000000,0.000000,0.000000,0.000000
12447395.000000,-0.341380,0.621529,0.429799,-1.518548,-0.283451,2.079589,0.157757,0.035170,0.351589,-0.099785,-0.242883,-0.174994,0.539573,0.097728,0.451093,-38.806721,6.488449,19.169493,0.237516,2.053634,0.041976,0.000000,0.000000,0.000000,0.000000,0.000000,0.000000
12447396.000000,-0.341346,0.621886,0.429702,-1.518790,-0.283628,2.080143,0.157858,0.035343,0.355498,-0.099676,-0.243030,-0.173835,0.542652,0.095633,0.474897,-38.806721,6.488449,19.217100,0.237516,2.001449,0.074935,0.000000,0.000000,0.000000,0.000000,0.000000,0.000000
12447397.000000,-0.341316,0.622233,0.429603,-1.519033,-0.283795,2.080685,0.157970,0.034818,0.349357,-0.097436,-0.238867,-0.172618,0.545497,0.097601,0.526471,-38.830524,6.536057,19.240904,0.231107,1.955673,0.009017,0.000000,0.000000,0.000000,0.000000,0.000000,0.000000
12447398.000000,-0.341281,0.622600,0.429506,-1.519271,-0.283972,2.081236,0.158074,0.035199,0.354627,-0.096893,-0.241793,-0.173474,0.546354,0.100932,0.550275,-39.024921,6.512253,19.292479,0.279630,1.949264,0.021835,0.000000,0.000000,0.000000,0.000000,0.000000,0.000000
12447399.000000,-0.341246,0.622963,0.429406,-1.519502,-0.284139,2.081788,0.158174,0.036031,0.353955,-0.098220,-0.237947,-0.171655,0.552483,0.098453,0.550275,-39.147907,6.536057,19.292479,0.261320,1.930038,0.041976,0.000000,0.000000,0.000000,0.000000,0.000000,0.000000
12447400.000000,-0.341205,0.623313,0.429305,-1.519741,-0.284313,2.082341,0.158280,0.034468,0.356861,-0.096132,-0.234892,-0.177008,0.550724,0.102649,0.502668,-39.171711,6.559860,19.292479,0.291532,1.942855,0.028243,0.000000,0.000000,0.000000,0.000000,0.000000,0.000000
12447401.000000,-0.341167,0.623670,0.429205,-1.519973,-0.284487,2.082888,0.158384,0.035920,0.354334,-0.095128,-0.233781,-0.178276,0.543930,0.104742,0.474897,-39.147907,6.611435,19.340086,0.249418,1.962081,0.041976,0.000000,0.000000,0.000000,0.000000,0.000000,0.000000
12447402.000000,-0.341130,0.624027,0.429106,-1.520209,-0.284666,2.083441,0.158496,0.033634,0.356362,-0.095419,-0.232604,-0.180397,0.549966,0.103199,0.451093,-39.247089,6.583664,19.391661,0.231107,1.942855,0.009017,0.000000,0.000000,0.000000,0.000000,0.000000,0.000000
12447403.000000,-0.341089,0.624378,0.429006,-1.520445,-0.284847,2.083993,0.158600,0.035100,0.354070,-0.095481,-0.235412,-0.178419,0.549965,0.105066,0.427289,-39.072529,6.559860,19.439268,0.255826,1.936446,0.028243,0.000000,0.000000,0.000000,0.000000,0.000000,0.000000
12447404.000000,-0.341051,0.624734,0.428903,-1.520674,-0.285027,2.084543,0.158707,0.036274,0.353977,-0.097918,-0.233038,-0.177993,0.551231,0.101576,0.403486,-39.072529,6.611435,19.439268,0.303434,2.001449,0.048385,0.000000,0.000000,0.000000,0.000000,0.000000,0.000000
12447405.000000,-0.341014,0.625093,0.428809,-1.520902,-0.285202,2.085091,0.158819,0.038813,0.356991,-0.093961,-0.230584,-0.175102,0.550727,0.106245,0.427289,-39.072529,6.559860,19.415464,0.285123,1.995040,0.001693,0.000000,0.000000,0.000000,0.000000,0.000000,0.000000
12447406.000000,-0.340975,0.625447,0.428714,-1.521123,-0.285381,2.085634,0.158925,0.039546,0.350483,-0.095106,-0.229805,-0.179210,0.544717,0.106987,0.375715,-39.001118,6.536057,19.415464,0.308927,1.968490,0.028243,0.000000,0.000000,0.000000,0.000000,0.000000,0.000000
12447407.000000,-0.340934,0.625810,0.428621,-1.521344,-0.285552,2.086174,0.159035,0.040059,0.356911,-0.094568,-0.226038,-0.180433,0.558689,0.107306,0.328107,-39.100300,6.460678,19.292479,0.279630,2.033492,0.054794,0.000000,0.000000,0.000000,0.000000,0.000000,0.000000
12447408.000000,-0.340892,0.626185,0.428521,-1.521563,-0.285728,2.086719,0.159151,0.040496,0.359692,-0.096976,-0.223487,-0.179833,0.550730,0.110372,0.276533,-39.270893,6.488449,19.169493,0.219205,2.053634,0.015426,0.000000,0.000000,0.000000,0.000000,0.000000,0.000000
12447409.000000,-0.340854,0.626562,0.428426,-1.521781,-0.285904,2.087284,0.159264,0.038552,0.368922,-0.094151,-0.222996,-0.184711,0.551524,0.110802,0.304304,-39.489094,6.460678,19.094114,0.189908,2.007858,0.021835,0.000000,0.000000,0.000000,0.000000,0.000000,0.000000
12447410.000000,-0.340813,0.626932,0.428329,-1.521997,-0.286086,2.087832,0.159375,0.038881,0.370671,-0.091861,-0.221441,-0.186084,0.548306,0.111166,0.276533,-39.635883,6.436874,18.994932,0.195402,1.942855,0.021835,0.000000,0.000000,0.000000,0.000000,0.000000,0.000000
12447411.000000,-0.340769,0.627303,0.428232,-1.522219,-0.286264,2.088393,0.159474,0.042814,0.371719,-0.094081,-0.219510,-0.182989,0.553143,0.109928,0.228925,-39.810444,6.436874,18.971128,0.225614,1.909896,0.067611,0.000000,0.000000,0.000000,0.000000,0.000000,0.000000
12447412.000000,-0.340730,0.627668,0.428135,-1.522436,-0.286446,2.088954,0.159592,0.041364,0.377588,-0.091472,-0.219332,-0.182423,0.552039,0.112728,0.228925,-39.858051,6.389267,18.871946,0.297025,1.903487,0.015426,0.000000,0.000000,0.000000,0.000000,0.000000,0.000000
12447413.000000,-0.340689,0.628037,0.428040,-1.522653,-0.286620,2.089508,0.159699,0.040330,0.373164,-0.093807,-0.218462,-0.179155,0.555532,0.112702,0.228925,-39.957233,6.389267,18.871946,0.303434,1.897079,0.015426,0.000000,0.000000,0.000000,0.000000,0.000000,0.000000
12447414.000000,-0.340644,0.628408,0.427950,-1.522865,-0.286793,2.090068,0.159798,0.043987,0.373917,-0.094486,-0.219158,-0.175710,0.553095,0.110324,0.177350,-39.981037,6.341660,18.796568,0.279630,1.884261,0.081344,0.000000,0.000000,0.000000,0.000000,0.000000,0.000000
12447415.000000,-0.340597,0.628774,0.427849,-1.523081,-0.286968,2.090612,0.159916,0.047099,0.365748,-0.097057,-0.216500,-0.177185,0.560043,0.114175,0.105939,-40.004841,6.389267,18.748960,0.237516,1.916305,-0.004716,0.000000,0.000000,0.000000,0.000000,0.000000,0.000000
12447416.000000,-0.340552,0.629134,0.427756,-1.523295,-0.287148,2.091173,0.160018,0.045807,0.364656,-0.096240,-0.220409,-0.178094,0.557975,0.108527,0.054365,-39.858051,6.341660,18.721189,0.189908,1.903487,0.009017,0.000000,0.000000,0.000000,0.000000,0.000000,0.000000
12447417.000000,-0.340502,0.629501,0.427660,-1.523510,-0.287323,2.091719,0.160119,0.049024,0.362287,-0.096749,-0.215988,-0.175691,0.553886,0.107161,-0.044818,-39.735065,6.313889,18.721189,0.178007,1.949264,0.074935,0.000000,0.000000,0.000000,0.000000,0.000000,0.000000
12447418.000000,-0.340458,0.629868,0.427563,-1.523720,-0.287504,2.092259,0.160232,0.046370,0.366879,-0.097224,-0.216540,-0.174564,0.546609,0.111012,-0.068621,-39.758869,6.290085,18.625975,0.183500,1.988631,0.015426,0.000000,0.000000,0.000000,0.000000,0.000000,0.000000
12447419.000000,-0.340414,0.630245,0.427465,-1.523927,-0.287685,2.092804,0.160336,0.047119,0.369143,-0.098701,-0.211478,-0.174332,0.542141,0.114492,-0.068621,-39.782673,6.313889,18.550596,0.207303,1.968490,0.061202,0.000000,0.000000,0.000000,0.000000,0.000000,0.000000
12447420.000000,-0.340369,0.630609,0.427366,-1.524137,-0.287862,2.093347,0.160448,0.046901,0.367786,-0.098372,-0.209037,-0.174218,0.543940,0.114660,-0.044818,-39.758869,6.290085,18.550596,0.231107,1.962081,0.041976,0.000000,0.000000,0.000000,0.000000,0.000000,0.000000
12447421.000000,-0.340322,0.630992,0.427269,-1.524332,-0.288040,2.093898,0.160557,0.048204,0.372607,-0.098975,-0.203722,-0.177863,0.547286,0.114371,-0.068621,-39.858051,6.313889,18.399839,0.243009,1.903487,0.021835,0.000000,0.000000,0.000000,0.000000,0.000000,0.000000
12447422.000000,-0.340277,0.631368,0.427171,-1.524529,-0.288215,2.094455,0.160663,0.045486,0.373415,-0.099273,-0.200759,-0.182248,0.553007,0.109451,-0.068621,-39.981037,6.313889,18.276854,0.195402,1.865035,0.015426,0.000000,0.000000,0.000000,0.000000,0.000000,0.000000
12447423.000000,-0.340228,0.631743,0.427080,-1.524728,-0.288399,2.094998,0.160772,0.046779,0.376126,-0.097688,-0.199497,-0.178896,0.546647,0.111174,-0.092425,-40.052448,6.242477,18.205442,0.189908,1.858627,-0.011124,0.000000,0.000000,0.000000,0.000000,0.000000,0.000000
12447424.000000,-0.340179,0.632119,0.426981,-1.524927,-0.288578,2.095545,0.160868,0.048535,0.373937,-0.098584,-0.199927,-0.176642,0.546173,0.103627,-0.144000,-40.127827,6.242477,18.177671,0.189908,1.838485,0.074935,0.000000,0.000000,0.000000,0.000000,0.000000,0.000000
12447425.000000,-0.340131,0.632484,0.426881,-1.525124,-0.288756,2.096090,0.160981,0.049942,0.376363,-0.099501,-0.200289,-0.174836,0.561440,0.103696,-0.191607,-40.052448,6.266281,18.153868,0.183500,1.851302,0.009017,0.000000,0.000000,0.000000,0.000000,0.000000,0.000000
12447426.000000,-0.340084,0.632854,0.426787,-1.525325,-0.288937,2.096635,0.161081,0.046676,0.371715,-0.095531,-0.203552,-0.174442,0.557594,0.099585,-0.191607,-39.981037,6.218674,18.130064,0.213712,1.858627,0.054794,0.000000,0.000000,0.000000,0.000000,0.000000,0.000000
12447427.000000,-0.340040,0.633227,0.426691,-1.525522,-0.289115,2.097187,0.161188,0.046930,0.372017,-0.093720,-0.203308,-0.176950,0.554577,0.104496,-0.167803,-39.929462,6.218674,18.130064,0.219205,1.865035,0.015426,0.000000,0.000000,0.000000,0.000000,0.000000,0.000000
12447428.000000,-0.339991,0.633590,0.426589,-1.525722,-0.289289,2.097722,0.161293,0.048265,0.366499,-0.095751,-0.200076,-0.175031,0.548951,0.101964,-0.191607,-39.758869,6.242477,18.153868,0.219205,1.844894,0.009017,0.000000,0.000000,0.000000,0.000000,0.000000,0.000000
12447429.000000,-0.339944,0.633957,0.426490,-1.525914,-0.289471,2.098262,0.161392,0.045577,0.366118,-0.097547,-0.200498,-0.177624,0.547575,0.098049,-0.191607,-39.635883,6.266281,18.153868,0.207303,1.858627,0.061202,0.000000,0.000000,0.000000,0.000000,0.000000,0.000000
12447430.000000,-0.339901,0.634322,0.426398,-1.526112,-0.289653,2.098809,0.161507,0.041848,0.369971,-0.097675,-0.200732,-0.175642,0.543307,0.104100,-0.116229,-39.489094,6.242477,18.153868,0.207303,1.844894,0.001693,0.000000,0.000000,0.000000,0.000000,0.000000,0.000000
12447431.000000,-0.339850,0.634694,0.426298,-1.526304,-0.289835,2.099341,0.161613,0.042085,0.372582,-0.095249,-0.197559,-0.173897,0.541227,0.100358,-0.167803,-39.489094,6.242477,18.007078,0.201810,1.916305,0.034652,0.000000,0.000000,0.000000,0.000000,0.000000,0.000000
12447432.000000,-0.339809,0.635072,0.426203,-1.526488,-0.290012,2.099876,0.161717,0.042385,0.370350,-0.093450,-0.192821,-0.172445,0.535264,0.102602,-0.092425,-39.465290,6.242477,17.884092,0.189908,1.968490,0.061202,0.000000,0.000000,0.000000,0.000000,0.000000,0.000000
12447433.000000,-0.339760,0.635439,0.426109,-1.526680,-0.290184,2.100419,0.161834,0.045085,0.369982,-0.093878,-0.190113,-0.170624,0.541407,0.107443,-0.116229,-39.489094,6.190903,17.808714,0.159696,1.897079,-0.004716,0.000000,0.000000,0.000000,0.000000,0.000000,0.000000
12447434.000000,-0.339718,0.635816,0.426014,-1.526866,-0.290359,2.100972,0.161931,0.045339,0.369711,-0.094572,-0.193022,-0.169686,0.546485,0.102080,-0.068621,-39.540668,6.167099,17.709532,0.147794,1.800033,0.048385,0.000000,0.000000,0.000000,0.000000,0.000000,0.000000
12447435.000000,-0.339671,0.636190,0.425909,-1.527059,-0.290533,2.101527,0.162043,0.043621,0.370143,-0.098514,-0.194438,-0.174895,0.544145,0.101361,-0.068621,-39.588276,6.266281,17.661924,0.154203,1.741439,0.015426,0.000000,0.000000,0.000000,0.000000,0.000000,0.000000
12447436.000000,-0.339634,0.636563,0.425814,-1.527245,-0.290715,2.102072,0.162153,0.042404,0.375699,-0.097666,-0.191485,-0.178155,0.539224,0.104464,0.054365,-39.612080,6.218674,17.586546,0.147794,1.760665,0.009017,0.000000,0.000000,0.000000,0.000000,0.000000,0.000000
12447437.000000,-0.339587,0.636933,0.425720,-1.527425,-0.290903,2.102614,0.162258,0.048399,0.368296,-0.097168,-0.189574,-0.178006,0.534875,0.101147,0.030561,-39.564472,6.167099,17.511168,0.201810,1.773483,0.028243,0.000000,0.000000,0.000000,0.000000,0.000000,0.000000
12447438.000000,-0.339540,0.637303,0.425621,-1.527606,-0.291080,2.103158,0.162365,0.048367,0.369360,-0.096067,-0.188872,-0.180871,0.533120,0.104421,0.054365,-39.512897,6.218674,17.487364,0.207303,1.786300,0.015426,0.000000,0.000000,0.000000,0.000000,0.000000,0.000000
12447439.000000,-0.339497,0.637667,0.425525,-1.527788,-0.291260,2.103708,0.162466,0.044066,0.363402,-0.097699,-0.186965,-0.177547,0.537186,0.104395,0.129743,-39.294697,6.242477,17.388182,0.207303,1.779891,0.054794,0.000000,0.000000,0.000000,0.000000,0.000000,0.000000
12447440.000000,-0.339453,0.638034,0.425432,-1.527971,-0.291434,2.104269,0.162575,0.042171,0.363275,-0.094605,-0.184791,-0.182279,0.545487,0.107980,0.153547,-39.100300,6.218674,17.388182,0.166105,1.747848,0.028243,0.000000,0.000000,0.000000,0.000000,0.000000,0.000000
12447441.000000,-0.339407,0.638397,0.425334,-1.528151,-0.291611,2.104809,0.162686,0.040465,0.362532,-0.092768,-0.181918,-0.179079,0.541369,0.105168,0.177350,-38.878132,6.218674,17.364378,0.159696,1.747848,0.009017,0.000000,0.000000,0.000000,0.000000,0.000000,0.000000
12447442.000000,-0.339361,0.638767,0.425243,-1.528318,-0.291792,2.105352,0.162789,0.043203,0.364481,-0.093500,-0.177910,-0.180532,0.541264,0.106199,0.177350,-38.806721,6.167099,17.241392,0.135892,1.760665,0.034652,0.000000,0.000000,0.000000,0.000000,0.000000,0.000000
12447443.000000,-0.339318,0.639138,0.425148,-1.528486,-0.291982,2.105897,0.162900,0.041311,0.366885,-0.092119,-0.177004,-0.182968,0.540280,0.108189,0.205121,-38.731342,6.167099,17.066832,0.141385,1.825668,0.021835,0.000000,0.000000,0.000000,0.000000,0.000000,0.000000
12447444.000000,-0.339275,0.639514,0.425050,-1.528658,-0.292171,2.106432,0.163007,0.043073,0.369049,-0.094236,-0.175362,-0.183660,0.537436,0.108719,0.228925,-38.806721,6.167099,16.967649,0.129484,1.832076,0.041976,0.000000,0.000000,0.000000,0.000000,0.000000,0.000000
12447445.000000,-0.339232,0.639898,0.424952,-1.528835,-0.292357,2.106984,0.163114,0.044445,0.373876,-0.096368,-0.177527,-0.185415,0.536961,0.110769,0.252729,-38.901936,6.190903,17.019224,0.141385,1.779891,0.015426,0.000000,0.000000,0.000000,0.000000,0.000000,0.000000
12447446.000000,-0.339186,0.640272,0.424853,-1.528998,-0.292539,2.107524,0.163221,0.046558,0.378274,-0.094071,-0.171666,-0.182230,0.532451,0.110811,0.228925,-39.048725,6.190903,16.920042,0.159696,1.721298,0.021835,0.000000,0.000000,0.000000,0.000000,0.000000,0.000000
12447447.000000,-0.339142,0.640658,0.424756,-1.529167,-0.292721,2.108077,0.163322,0.046459,0.380746,-0.097503,-0.171235,-0.183437,0.531395,0.110386,0.276533,-39.195515,6.266281,16.967649,0.159696,1.708480,0.048385,0.000000,0.000000,0.000000,0.000000,0.000000,0.000000
12447448.000000,-0.339100,0.641034,0.424664,-1.529339,-0.292902,2.108633,0.163431,0.046365,0.376286,-0.096289,-0.169425,-0.180721,0.536201,0.112572,0.328107,-39.318501,6.190903,16.967649,0.178007,1.695663,0.009017,0.000000,0.000000,0.000000,0.000000,0.000000,0.000000
12447449.000000,-0.339055,0.641414,0.424560,-1.529515,-0.293088,2.109178,0.163536,0.043804,0.377053,-0.096027,-0.169808,-0.182053,0.538501,0.106945,0.351911,-39.366108,6.266281,17.043028,0.166105,1.708480,0.034652,0.000000,0.000000,0.000000,0.000000,0.000000,0.000000
12447450.000000,-0.339006,0.641791,0.424462,-1.529686,-0.293276,2.109725,0.163642,0.043588,0.372589,-0.096982,-0.172431,-0.187758,0.539750,0.104735,0.304304,-39.342304,6.266281,17.090635,0.147794,1.702071,0.009017,0.000000,0.000000,0.000000,0.000000,0.000000,0.000000
12447451.000000,-0.338963,0.642168,0.424364,-1.529858,-0.293467,2.110262,0.163740,0.044757,0.374219,-0.093878,-0.171622,-0.184513,0.541771,0.099356,0.328107,-39.366108,6.242477,17.166014,0.178007,1.702071,0.074935,0.000000,0.000000,0.000000,0.000000,0.000000,0.000000
12447452.000000,-0.338914,0.642544,0.424266,-1.530028,-0.293647,2.110801,0.163846,0.043670,0.372439,-0.098655,-0.173728,-0.184673,0.537361,0.104447,0.304304,-39.270893,6.266281,17.213621,0.166105,1.735030,0.034652,0.000000,0.000000,0.000000,0.000000,0.000000,0.000000
12447453.000000,-0.338875,0.642924,0.424164,-1.530205,-0.293829,2.111336,0.163957,0.039878,0.376428,-0.102749,-0.175792,-0.185538,0.533651,0.107792,0.403486,-39.247089,6.290085,17.289000,0.166105,1.779891,0.001693,0.000000,0.000000,0.000000,0.000000,0.000000,0.000000
12447454.000000,-0.338824,0.643304,0.424060,-1.530382,-0.294006,2.111861,0.164059,0.044918,0.377380,-0.102608,-0.173539,-0.185888,0.526965,0.101778,0.304304,-39.270893,6.313889,17.340574,0.154203,1.806442,0.067611,0.000000,0.000000,0.000000,0.000000,0.000000,0.000000
12447455.000000,-0.338780,0.643685,0.423958,-1.530545,-0.294191,2.112385,0.164171,0.041964,0.377880,-0.099457,-0.168992,-0.186832,0.521906,0.106468,0.351911,-39.318501,6.341660,17.265196,0.159696,1.806442,0.021835,0.000000,0.000000,0.000000,0.000000,0.000000,0.000000
12447456.000000,-0.338734,0.644076,0.423855,-1.530723,-0.294377,2.112907,0.164280,0.043602,0.382535,-0.099903,-0.169771,-0.186328,0.534372,0.103059,0.375715,-39.512897,6.365463,17.364378,0.129484,1.812850,0.021835,0.000000,0.000000,0.000000,0.000000,0.000000,0.000000
12447457.000000,-0.338695,0.644463,0.423752,-1.530887,-0.294564,2.113438,0.164384,0.039905,0.384475,-0.100585,-0.170197,-0.186413,0.534136,0.103981,0.474897,-39.659687,6.389267,17.312803,0.123990,1.793624,0.048385,0.000000,0.000000,0.000000,0.000000,0.000000,0.000000
12447458.000000,-0.338645,0.644860,0.423649,-1.531058,-0.294753,2.113975,0.164492,0.043783,0.388747,-0.100357,-0.168557,-0.192242,0.539628,0.102313,0.427289,-39.810444,6.389267,17.312803,0.166105,1.741439,0.028243,0.000000,0.000000,0.000000,0.000000,0.000000,0.000000
12447459.000000,-0.338600,0.645240,0.423542,-1.531241,-0.294936,2.114500,0.164594,0.041129,0.384333,-0.101178,-0.170489,-0.186750,0.537276,0.103730,0.474897,-39.905659,6.436874,17.463560,0.171598,1.721298,0.061202,0.000000,0.000000,0.000000,0.000000,0.000000,0.000000
12447460.000000,-0.338557,0.645625,0.423439,-1.531411,-0.295121,2.115021,0.164706,0.042669,0.380564,-0.101398,-0.168513,-0.183318,0.533832,0.102450,0.502668,-39.881855,6.460678,17.463560,0.195402,1.735030,0.034652,0.000000,0.000000,0.000000,0.000000,0.000000,0.000000
12447461.000000,-0.338509,0.646005,0.423329,-1.531585,-0.295296,2.115542,0.164812,0.044718,0.379141,-0.105248,-0.169345,-0.179374,0.531103,0.104832,0.502668,-39.858051,6.512253,17.562742,0.183500,1.773483,0.034652,0.000000,0.000000,0.000000,0.000000,0.000000,0.000000
12447462.000000,-0.338464,0.646387,0.423226,-1.531762,-0.295476,2.116074,0.164923,0.046167,0.378295,-0.106914,-0.168882,-0.175665,0.526486,0.102946,0.502668,-39.711262,6.512253,17.610350,0.154203,1.754256,0.015426,0.000000,0.000000,0.000000,0.000000,0.000000,0.000000
12447463.000000,-0.338420,0.646769,0.423118,-1.531945,-0.295660,2.116604,0.165027,0.046762,0.374696,-0.106862,-0.170825,-0.178541,0.524686,0.103450,0.526471,-39.564472,6.583664,17.757139,0.141385,1.793624,0.067611,0.000000,0.000000,0.000000,0.000000,0.000000,0.000000
12447464.000000,-0.338378,0.647147,0.423020,-1.532117,-0.295847,2.117118,0.165141,0.042306,0.376054,-0.104246,-0.168784,-0.181154,0.524105,0.106028,0.625654,-39.441486,6.559860,17.784910,0.141385,1.851302,0.061202,0.000000,0.000000,0.000000,0.000000,0.000000,0.000000
12447465.000000,-0.338332,0.647533,0.422918,-1.532292,-0.296032,2.117640,0.165258,0.043786,0.370742,-0.103187,-0.169483,-0.178757,0.523019,0.109649,0.649457,-39.342304,6.559860,17.884092,0.159696,1.909896,0.015426,0.000000,0.000000,0.000000,0.000000,0.000000,0.000000
12447466.000000,-0.338287,0.647914,0.422809,-1.532460,-0.296215,2.118168,0.165366,0.044580,0.375990,-0.104114,-0.168838,-0.181151,0.523800,0.108396,0.697065,-39.318501,6.635239,17.931700,0.159696,1.936446,0.067611,0.000000,0.000000,0.000000,0.000000,0.000000,0.000000
12447467.000000,-0.338243,0.648308,0.422704,-1.532630,-0.296398,2.118697,0.165487,0.045566,0.379416,-0.102981,-0.170218,-0.178432,0.527662,0.107106,0.724836,-39.417683,6.635239,17.931700,0.166105,1.871444,0.009017,0.000000,0.000000,0.000000,0.000000,0.000000,0.000000
12447468.000000,-0.338196,0.648704,0.422593,-1.532806,-0.296579,2.119227,0.165598,0.047639,0.384630,-0.103934,-0.173821,-0.174726,0.523557,0.108223,0.697065,-39.540668,6.706650,18.030882,0.123990,1.832076,0.015426,0.000000,0.000000,0.000000,0.000000,0.000000,0.000000
12447469.000000,-0.338153,0.649092,0.422480,-1.532976,-0.296767,2.119748,0.165702,0.044033,0.387204,-0.103854,-0.170658,-0.182453,0.521215,0.106956,0.748639,-39.588276,6.758224,18.030882,0.112089,1.793624,0.074935,0.000000,0.000000,0.000000,0.000000,0.000000,0.000000
12447470.000000,-0.338112,0.649484,0.422371,-1.533148,-0.296966,2.120273,0.165817,0.044059,0.390447,-0.105861,-0.171130,-0.188776,0.521193,0.111119,0.824018,-39.711262,6.782028,18.130064,0.123990,1.844894,0.009017,0.000000,0.000000,0.000000,0.000000,0.000000,0.000000
12447471.000000,-0.338072,0.649881,0.422265,-1.533314,-0.297163,2.120802,0.165920,0.044225,0.391891,-0.104310,-0.171973,-0.190953,0.516413,0.104823,0.895429,-39.782673,6.782028,18.130064,0.183500,1.897079,0.061202,0.000000,0.000000,0.000000,0.000000,0.000000,0.000000
12447472.000000,-0.338029,0.650265,0.422155,-1.533491,-0.297362,2.121328,0.166026,0.044795,0.392422,-0.104829,-0.174786,-0.196587,0.523849,0.102031,0.947004,-39.834248,6.853439,18.229246,0.225614,1.897079,0.067611,0.000000,0.000000,0.000000,0.000000,0.000000,0.000000
12447473.000000,-0.337992,0.650646,0.422047,-1.533669,-0.297554,2.121854,0.166136,0.043599,0.387027,-0.104185,-0.175282,-0.194098,0.523546,0.101616,1.069990,-39.659687,6.881210,18.376036,0.219205,1.903487,0.028243,0.000000,0.000000,0.000000,0.000000,0.000000,0.000000
12447474.000000,-0.337947,0.651023,0.421940,-1.533849,-0.297742,2.122380,0.166238,0.045747,0.385545,-0.103486,-0.179442,-0.193478,0.529802,0.098237,1.069990,-39.564472,6.905014,18.574400,0.237516,1.832076,0.061202,0.000000,0.000000,0.000000,0.000000,0.000000,0.000000
