chaoyuefei/paper-gmrm-data/robot_logs/s2_dq_mrm_min_0.50_log_20260314_174705.csv
# time_ms,q_0,q_1,q_2,q_3,q_4,q_5,q_6,dq_0,dq_1,dq_2,dq_3,dq_4,dq_5,dq_6,tau_J_0,tau_J_1,tau_J_2,tau_J_3,tau_J_4,tau_J_5,tau_J_6,O_dP_EE_c_0,O_dP_EE_c_1,O_dP_EE_c_2,O_dP_EE_c_3,O_dP_EE_c_4,O_dP_EE_c_5
13087996.000000,-2.417853,-1.662614,1.040155,-1.352899,1.798088,1.079504,-0.546506,-0.000044,-0.001255,0.000178,0.000710,-0.000182,-0.000083,-0.000512,0.030561,41.653790,-21.000870,-5.721254,0.828947,1.318465,0.054794,0.000000,0.000000,0.000000,0.000000,0.000000,0.000000
13087997.000000,-2.417853,-1.662612,1.040152,-1.352902,1.798088,1.079504,-0.546498,-0.000029,-0.000280,0.000118,-0.000640,-0.000122,0.000182,0.001354,0.030561,41.629986,-21.000870,-5.673646,0.828947,1.312057,0.009017,0.000000,0.000000,0.000000,0.000000,0.000000,0.000000
13087998.000000,-2.417855,-1.662611,1.040157,-1.352901,1.798089,1.079504,-0.546501,-0.000576,0.000370,0.001285,0.000130,0.000360,0.000122,0.000428,0.054365,41.606182,-21.052444,-5.697450,0.817045,1.312057,0.021835,0.000000,0.000000,0.000000,0.000000,0.000000,0.000000
13087999.000000,-2.417853,-1.662613,1.040156,-1.352902,1.798087,1.079501,-0.546499,0.000173,0.000247,0.000207,-0.000470,-0.000438,-0.000631,0.000048,0.030561,41.606182,-21.024673,-5.673646,0.835355,1.331283,0.028243,0.000000,0.000000,0.000000,0.000000,0.000000,0.000000
13088000.000000,-2.417851,-1.662614,1.040153,-1.352900,1.798091,1.079505,-0.546506,0.009075,-0.001772,0.005353,0.002300,0.000827,-0.001404,-0.009684,0.328107,41.554607,-20.977066,-5.649843,0.805143,1.357833,0.034652,0.000000,0.000000,0.000000,0.000000,0.000000,0.000000
13088001.000000,-2.417841,-1.662617,1.040158,-1.352898,1.798094,1.079497,-0.546514,0.017589,-0.003132,0.006681,0.004620,0.000081,-0.002756,-0.013560,1.367536,41.360210,-20.953262,-5.499086,0.691617,1.532699,-0.050492,0.000000,0.000000,0.000000,0.000000,0.000000,0.000000
13088002.000000,-2.417809,-1.662620,1.040167,-1.352898,1.798088,1.079497,-0.546539,0.026832,-0.003579,0.007729,0.003253,-0.001891,-0.000969,-0.018684,2.902875,40.991253,-20.929459,-5.205507,0.601896,1.773483,-0.083451,0.000000,0.000000,0.000000,0.000000,0.000000,0.000000
13088003.000000,-2.417762,-1.662621,1.040185,-1.352900,1.798073,1.079515,-0.546583,0.031166,-0.001701,0.011569,0.001954,-0.009146,0.005745,-0.029382,4.783369,40.503277,-20.905655,-4.884157,0.547880,1.884261,-0.056901,0.000000,0.000000,0.000000,0.000000,0.000000,0.000000
13088004.000000,-2.417696,-1.662620,1.040205,-1.352917,1.798045,1.079566,-0.546631,0.036267,-0.000378,0.015408,-0.004163,-0.017181,0.022319,-0.039555,6.640058,39.987530,-20.782669,-4.463624,0.559781,1.812850,-0.097184,0.000000,0.000000,0.000000,0.000000,0.000000,0.000000
13088005.000000,-2.417608,-1.662619,1.040236,-1.352939,1.798003,1.079651,-0.546708,0.051677,0.003417,0.020738,-0.010253,-0.025021,0.045010,-0.055150,8.223004,39.475750,-20.754898,-4.090700,0.625699,1.572067,-0.050492,0.000000,0.000000,0.000000,0.000000,0.000000,0.000000
13088006.000000,-2.417507,-1.662612,1.040274,-1.352976,1.797953,1.079751,-0.546786,0.063589,0.006603,0.026593,-0.020872,-0.034212,0.063137,-0.067373,9.682965,38.936199,-20.683487,-3.721742,0.655912,1.396285,-0.110001,0.000000,0.000000,0.000000,0.000000,0.000000,0.000000
13088007.000000,-2.417390,-1.662612,1.040325,-1.353022,1.797886,1.079863,-0.546903,0.080034,0.005131,0.035429,-0.029477,-0.044472,0.082344,-0.085388,10.948529,38.543438,-20.659683,-3.448000,0.661405,1.324874,-0.056901,0.000000,0.000000,0.000000,0.000000,0.000000,0.000000
13088008.000000,-2.417260,-1.662610,1.040385,-1.353082,1.797800,1.079995,-0.547040,0.093804,0.003620,0.045138,-0.042778,-0.056643,0.103371,-0.105745,12.011762,38.178448,-20.631912,-3.154421,0.661405,1.331283,-0.077042,0.000000,0.000000,0.000000,0.000000,0.000000,0.000000
13088009.000000,-2.417121,-1.662598,1.040456,-1.353146,1.797710,1.080146,-0.547204,0.106340,0.007565,0.055007,-0.052753,-0.066426,0.120294,-0.125325,13.074994,37.738079,-20.584305,-3.003664,0.547880,1.442062,-0.110001,0.000000,0.000000,0.000000,0.000000,0.000000,0.000000
13088010.000000,-2.416974,-1.662589,1.040538,-1.353233,1.797597,1.080317,-0.547404,0.119277,0.008145,0.064049,-0.065215,-0.080684,0.137510,-0.152716,13.967633,37.392925,-20.608109,-2.781496,0.488370,1.572067,-0.056901,0.000000,0.000000,0.000000,0.000000,0.000000,0.000000
13088011.000000,-2.416805,-1.662573,1.040634,-1.353328,1.797472,1.080521,-0.547617,0.135257,0.010272,0.074379,-0.072910,-0.093776,0.157129,-0.173284,14.709516,36.980328,-20.659683,-2.634706,0.356534,1.643478,-0.122819,0.000000,0.000000,0.000000,0.000000,0.000000,0.000000
13088012.000000,-2.416616,-1.662554,1.040753,-1.353436,1.797317,1.080760,-0.547876,0.151066,0.013990,0.092397,-0.083772,-0.111156,0.185374,-0.197823,15.253034,36.611370,-20.877884,-2.535524,0.297025,1.624252,-0.064225,0.000000,0.000000,0.000000,0.000000,0.000000,0.000000
13088013.000000,-2.416412,-1.662534,1.040879,-1.353569,1.797132,1.081036,-0.548138,0.168751,0.016840,0.106279,-0.103420,-0.133221,0.214142,-0.217621,15.649762,36.242413,-21.000870,-2.337160,0.356534,1.519881,-0.110001,0.000000,0.000000,0.000000,0.000000,0.000000,0.000000
13088014.000000,-2.416195,-1.662515,1.041024,-1.353722,1.796933,1.081336,-0.548429,0.183803,0.018370,0.114544,-0.120162,-0.157596,0.239296,-0.240980,16.046492,35.901226,-21.175430,-2.214174,0.374845,1.422836,-0.097184,0.000000,0.000000,0.000000,0.000000,0.000000,0.000000
13088015.000000,-2.415954,-1.662495,1.041181,-1.353890,1.796694,1.081646,-0.548738,0.202215,0.018486,0.129590,-0.135454,-0.182148,0.256724,-0.257364,16.268660,35.607647,-21.322220,-2.114992,0.470060,1.370651,-0.056901,0.000000,0.000000,0.000000,0.000000,0.000000,0.000000
13088016.000000,-2.415707,-1.662477,1.041347,-1.354065,1.796444,1.081973,-0.549039,0.216964,0.018163,0.142514,-0.148175,-0.203950,0.279212,-0.272678,16.542402,35.337872,-21.417435,-2.114992,0.512174,1.435653,-0.077042,0.000000,0.000000,0.000000,0.000000,0.000000,0.000000
13088017.000000,-2.415433,-1.662461,1.041527,-1.354254,1.796182,1.082330,-0.549344,0.234060,0.016303,0.151928,-0.159449,-0.218278,0.302574,-0.278956,16.665388,35.143475,-21.492813,-2.162599,0.494779,1.474105,-0.103593,0.000000,0.000000,0.000000,0.000000,0.000000,0.000000
13088018.000000,-2.415155,-1.662452,1.041706,-1.354468,1.795901,1.082700,-0.549655,0.248659,0.012924,0.161874,-0.177226,-0.233370,0.319657,-0.283751,16.839949,35.044292,-21.417435,-2.114992,0.476469,1.526290,-0.130143,0.000000,0.000000,0.000000,0.000000,0.000000,0.000000
13088019.000000,-2.414856,-1.662440,1.041900,-1.354693,1.795613,1.083093,-0.549975,0.261049,0.010737,0.173658,-0.191880,-0.247795,0.338321,-0.295614,16.939131,34.945110,-21.393631,-2.138796,0.405057,1.649886,-0.064225,0.000000,0.000000,0.000000,0.000000,0.000000,0.000000
13088020.000000,-2.414533,-1.662434,1.042103,-1.354949,1.795301,1.083506,-0.550284,0.279432,0.007566,0.181324,-0.209488,-0.262373,0.360662,-0.295524,16.911360,34.921307,-21.294449,-1.992006,0.315336,1.708480,-0.116410,0.000000,0.000000,0.000000,0.000000,0.000000,0.000000
13088021.000000,-2.414198,-1.662428,1.042322,-1.355221,1.794966,1.083943,-0.550589,0.299024,0.008098,0.189059,-0.231325,-0.284817,0.384651,-0.294078,16.887556,34.921307,-21.270645,-1.769838,0.320829,1.708480,-0.077042,0.000000,0.000000,0.000000,0.000000,0.000000,0.000000
13088022.000000,-2.413846,-1.662425,1.042547,-1.355513,1.794624,1.084422,-0.550891,0.314963,0.006135,0.196493,-0.249169,-0.303381,0.415791,-0.291705,16.887556,34.897503,-21.175430,-1.595277,0.320829,1.591293,-0.070634,0.000000,0.000000,0.000000,0.000000,0.000000,0.000000
13088023.000000,-2.413488,-1.662427,1.042773,-1.355821,1.794254,1.084915,-0.551183,0.327544,0.002462,0.207673,-0.267397,-0.326865,0.442288,-0.292315,16.887556,34.972881,-21.052444,-1.349306,0.332731,1.513473,-0.122819,0.000000,0.000000,0.000000,0.000000,0.000000,0.000000
13088024.000000,-2.413118,-1.662428,1.043021,-1.356121,1.793865,1.085426,-0.551473,0.341164,0.001186,0.219151,-0.278211,-0.346415,0.464361,-0.292025,16.986738,34.996685,-21.076248,-1.349306,0.393156,1.467696,-0.077042,0.000000,0.000000,0.000000,0.000000,0.000000,0.000000
13088025.000000,-2.412736,-1.662430,1.043269,-1.356439,1.793460,1.085956,-0.551746,0.352036,0.003475,0.228463,-0.288182,-0.355167,0.484853,-0.281980,17.185102,35.020489,-20.977066,-1.396913,0.446256,1.474105,-0.142960,0.000000,0.000000,0.000000,0.000000,0.000000,0.000000
13088026.000000,-2.412347,-1.662429,1.043525,-1.356767,1.793035,1.086503,-0.552026,0.363363,0.002637,0.237651,-0.297775,-0.379362,0.498609,-0.285845,17.407270,35.020489,-20.830276,-1.396913,0.452665,1.532699,-0.136552,0.000000,0.000000,0.000000,0.000000,0.000000,0.000000
13088027.000000,-2.411940,-1.662431,1.043800,-1.357118,1.792598,1.087080,-0.552311,0.374287,0.001442,0.249188,-0.314368,-0.393990,0.516624,-0.282864,17.605635,35.044292,-20.754898,-1.396913,0.500272,1.624252,-0.077042,0.000000,0.000000,0.000000,0.000000,0.000000,0.000000
13088028.000000,-2.411520,-1.662432,1.044080,-1.357479,1.792151,1.087668,-0.552581,0.396825,0.000028,0.261245,-0.327341,-0.406833,0.538188,-0.275143,17.803999,35.091900,-20.683487,-1.373109,0.494779,1.656295,-0.149369,0.000000,0.000000,0.000000,0.000000,0.000000,0.000000
13088029.000000,-2.411083,-1.662428,1.044381,-1.357856,1.791685,1.088299,-0.552848,0.411923,0.001268,0.275513,-0.343884,-0.422622,0.561193,-0.269727,17.926985,35.044292,-20.731094,-1.198549,0.494779,1.584884,-0.103593,0.000000,0.000000,0.000000,0.000000,0.000000,0.000000
13088030.000000,-2.410636,-1.662425,1.044676,-1.358252,1.791207,1.088941,-0.553108,0.421430,0.002060,0.287534,-0.361502,-0.433659,0.578810,-0.262162,18.125349,34.996685,-20.631912,-1.027956,0.464567,1.409103,-0.130143,0.000000,0.000000,0.000000,0.000000,0.000000,0.000000
13088031.000000,-2.410181,-1.662421,1.044990,-1.358653,1.790706,1.089612,-0.553370,0.433083,0.002656,0.297310,-0.377186,-0.452969,0.603928,-0.264378,18.276106,34.945110,-20.608109,-0.928774,0.488370,1.266280,-0.089860,0.000000,0.000000,0.000000,0.000000,0.000000,0.000000
13088032.000000,-2.409696,-1.662414,1.045316,-1.359083,1.790200,1.090296,-0.553620,0.446847,0.006558,0.306250,-0.392081,-0.467193,0.627736,-0.259145,18.299910,34.873699,-20.536697,-0.678835,0.494779,1.220504,-0.103593,0.000000,0.000000,0.000000,0.000000,0.000000,0.000000
13088033.000000,-2.409208,-1.662410,1.045648,-1.359523,1.789679,1.090978,-0.553876,0.458393,0.005784,0.317058,-0.409454,-0.476603,0.642737,-0.256318,18.545881,34.826092,-20.485123,-0.532045,0.500272,1.285506,-0.077042,0.000000,0.000000,0.000000,0.000000,0.000000,0.000000
13088034.000000,-2.408715,-1.662400,1.045987,-1.359963,1.789143,1.091682,-0.554120,0.470600,0.006399,0.322273,-0.421403,-0.493324,0.663698,-0.245888,18.819624,34.726910,-20.338333,-0.456667,0.488370,1.337692,-0.083451,0.000000,0.000000,0.000000,0.000000,0.000000,0.000000
13088035.000000,-2.408207,-1.662394,1.046344,-1.360425,1.788596,1.092413,-0.554356,0.480024,0.006197,0.330269,-0.432038,-0.502514,0.681432,-0.242938,19.140974,34.651531,-20.338333,-0.432863,0.494779,1.344100,-0.155778,0.000000,0.000000,0.000000,0.000000,0.000000,0.000000
13088036.000000,-2.407689,-1.662385,1.046700,-1.360897,1.788023,1.093152,-0.554609,0.492474,0.006484,0.341632,-0.442155,-0.518349,0.703206,-0.245569,19.438520,34.556316,-20.290726,-0.357485,0.500272,1.396285,-0.110001,0.000000,0.000000,0.000000,0.000000,0.000000,0.000000
13088037.000000,-2.407147,-1.662374,1.047083,-1.361383,1.787452,1.093913,-0.554852,0.505978,0.007294,0.354203,-0.455951,-0.530239,0.718424,-0.244838,19.712263,34.433331,-20.338333,-0.262270,0.500272,1.416427,-0.136552,0.000000,0.000000,0.000000,0.000000,0.000000,0.000000
13088038.000000,-2.406588,-1.662360,1.047465,-1.361896,1.786851,1.094700,-0.555097,0.520446,0.011103,0.360889,-0.473755,-0.547750,0.738746,-0.244170,19.934431,34.310345,-20.362137,-0.063905,0.512174,1.370651,-0.163102,0.000000,0.000000,0.000000,0.000000,0.000000,0.000000
13088039.000000,-2.406025,-1.662349,1.047871,-1.362409,1.786241,1.095522,-0.555348,0.535343,0.012574,0.371919,-0.483437,-0.573527,0.761249,-0.242844,20.132795,34.238934,-20.512894,0.059080,0.554288,1.266280,-0.083451,0.000000,0.000000,0.000000,0.000000,0.000000,0.000000
13088040.000000,-2.405446,-1.662336,1.048288,-1.362950,1.785626,1.096360,-0.555581,0.542613,0.011213,0.384560,-0.498047,-0.589737,0.777249,-0.241068,20.402571,34.139751,-20.731094,0.233641,0.530485,1.155502,-0.149369,0.000000,0.000000,0.000000,0.000000,0.000000,0.000000
13088041.000000,-2.404863,-1.662322,1.048715,-1.363494,1.784999,1.097198,-0.555831,0.558534,0.012766,0.399502,-0.514991,-0.595994,0.798181,-0.238406,20.700117,34.064373,-20.929459,0.257445,0.500272,1.188461,-0.122819,0.000000,0.000000,0.000000,0.000000,0.000000,0.000000
13088042.000000,-2.404252,-1.662308,1.049155,-1.364046,1.784360,1.098067,-0.556070,0.572093,0.013718,0.411369,-0.527657,-0.605025,0.812792,-0.241804,20.922285,33.992962,-21.076248,0.257445,0.446256,1.234237,-0.083451,0.000000,0.000000,0.000000,0.000000,0.000000,0.000000
13088043.000000,-2.403620,-1.662293,1.049605,-1.364619,1.783699,1.098941,-0.556305,0.589641,0.014621,0.428706,-0.539422,-0.617507,0.852954,-0.235311,21.096846,33.917583,-21.246841,0.285216,0.428861,1.285506,-0.142960,0.000000,0.000000,0.000000,0.000000,0.000000,0.000000
13088044.000000,-2.402992,-1.662275,1.050061,-1.365198,1.783013,1.099837,-0.556540,0.601519,0.016531,0.437304,-0.557836,-0.632815,0.862522,-0.237922,21.342817,33.794598,-21.270645,0.257445,0.416959,1.416427,-0.110001,0.000000,0.000000,0.000000,0.000000,0.000000,0.000000
13088045.000000,-2.402334,-1.662260,1.050546,-1.365798,1.782331,1.100768,-0.556770,0.614380,0.013517,0.450688,-0.565994,-0.649838,0.876592,-0.233826,21.493574,33.723186,-21.445206,0.380431,0.440763,1.461288,-0.142960,0.000000,0.000000,0.000000,0.000000,0.000000,0.000000
13088046.000000,-2.401653,-1.662245,1.051028,-1.366417,1.781623,1.101713,-0.557006,0.644763,0.014658,0.459882,-0.578149,-0.658237,0.902770,-0.231613,21.668135,33.647808,-21.568192,0.531187,0.512174,1.370651,-0.149369,0.000000,0.000000,0.000000,0.000000,0.000000,0.000000
13088047.000000,-2.400965,-1.662231,1.051524,-1.367043,1.780915,1.102704,-0.557240,0.658926,0.015359,0.469491,-0.588557,-0.677711,0.927019,-0.230832,21.838728,33.576397,-21.714981,0.729552,0.649503,1.214095,-0.142960,0.000000,0.000000,0.000000,0.000000,0.000000,0.000000
13088048.000000,-2.400250,-1.662216,1.052032,-1.367679,1.780198,1.103699,-0.557476,0.674028,0.015987,0.479639,-0.601318,-0.682382,0.948073,-0.233848,21.961714,33.501019,-21.810196,0.927916,0.793241,1.129867,-0.155778,0.000000,0.000000,0.000000,0.000000,0.000000,0.000000
13088049.000000,-2.399535,-1.662206,1.052547,-1.368314,1.779481,1.104697,-0.557712,0.690017,0.013920,0.494857,-0.611135,-0.689731,0.964856,-0.233300,22.187849,33.528790,-21.984756,1.074705,0.913175,1.142684,-0.122819,0.000000,0.000000,0.000000,0.000000,0.000000,0.000000
13088050.000000,-2.398803,-1.662197,1.053069,-1.368970,1.778787,1.105726,-0.557939,0.693567,0.012128,0.498471,-0.622577,-0.689265,0.977230,-0.235764,22.060896,33.576397,-21.984756,0.999327,0.990079,1.266280,-0.130143,0.000000,0.000000,0.000000,0.000000,0.000000,0.000000
13088051.000000,-2.398067,-1.662190,1.053597,-1.369644,1.778088,1.106755,-0.558162,0.692453,0.011810,0.510342,-0.640686,-0.689530,0.995523,-0.231019,21.021467,33.723186,-21.786392,0.531187,0.888456,1.461288,-0.182328,0.000000,0.000000,0.000000,0.000000,0.000000,0.000000
13088052.000000,-2.397349,-1.662183,1.054167,-1.370333,1.777395,1.107829,-0.558385,0.695314,0.007424,0.529122,-0.655628,-0.700246,1.016259,-0.223719,19.192549,33.794598,-21.591995,-0.087709,0.852750,1.591293,-0.155778,0.000000,0.000000,0.000000,0.000000,0.000000,0.000000
13088053.000000,-2.396622,-1.662175,1.054752,-1.371032,1.776684,1.108930,-0.558611,0.706980,0.008093,0.545062,-0.664359,-0.697211,1.035679,-0.224125,16.665388,33.699383,-21.076248,-0.976381,0.781339,1.624252,-0.163102,0.000000,0.000000,0.000000,0.000000,0.000000,0.000000
13088054.000000,-2.395903,-1.662167,1.055352,-1.371752,1.775991,1.110032,-0.558837,0.715417,0.008690,0.562651,-0.675271,-0.696664,1.055106,-0.219968,13.892255,33.453411,-20.338333,-1.769838,0.613798,1.662704,-0.163102,0.000000,0.000000,0.000000,0.000000,0.000000,0.000000
13088055.000000,-2.395187,-1.662165,1.055983,-1.372459,1.775309,1.111150,-0.559056,0.720708,0.009741,0.576853,-0.680938,-0.688362,1.074163,-0.218065,11.345258,33.159832,-19.529007,-2.511720,0.500272,1.767074,-0.136552,0.000000,0.000000,0.000000,0.000000,0.000000,0.000000
13088056.000000,-2.394455,-1.662170,1.056624,-1.373171,1.774627,1.112287,-0.559271,0.729335,0.007234,0.597358,-0.684996,-0.680692,1.095783,-0.220253,8.770490,32.989239,-18.743484,-3.225832,0.386747,1.735030,-0.142960,0.000000,0.000000,0.000000,0.000000,0.000000,0.000000
13088057.000000,-2.393737,-1.662184,1.057293,-1.373865,1.773967,1.113457,-0.559494,0.728318,0.002005,0.615685,-0.689396,-0.665895,1.119746,-0.223110,6.517072,32.965435,-18.080948,-3.820925,0.207303,1.624252,-0.110001,0.000000,0.000000,0.000000,0.000000,0.000000,0.000000
13088058.000000,-2.393012,-1.662205,1.057944,-1.374553,1.773306,1.114647,-0.559717,0.722495,-0.004570,0.625828,-0.686272,-0.659287,1.138495,-0.224729,4.537397,33.060650,-17.124832,-4.412050,0.154203,1.578475,-0.083451,0.000000,0.000000,0.000000,0.000000,0.000000,0.000000
13088059.000000,-2.392297,-1.662229,1.058601,-1.375252,1.772668,1.115836,-0.559930,0.719461,-0.009144,0.632131,-0.681034,-0.645105,1.147924,-0.217887,2.851301,33.159832,-16.363113,-4.610414,0.015958,1.565658,-0.149369,0.000000,0.000000,0.000000,0.000000,0.000000,0.000000
13088060.000000,-2.391567,-1.662259,1.059265,-1.375924,1.772022,1.117076,-0.560151,0.723915,-0.015914,0.636594,-0.676144,-0.646752,1.166414,-0.216950,1.315961,33.282818,-15.652969,-4.808778,0.064481,1.422836,-0.110001,0.000000,0.000000,0.000000,0.000000,0.000000,0.000000
13088061.000000,-2.390842,-1.662286,1.059931,-1.376603,1.771380,1.118315,-0.560362,0.718620,-0.022279,0.655491,-0.673556,-0.639429,1.203862,-0.218182,0.054365,33.330425,-15.038040,-4.884157,0.159696,1.389877,-0.130143,0.000000,0.000000,0.000000,0.000000,0.000000,0.000000
13088062.000000,-2.390126,-1.662316,1.060604,-1.377283,1.770741,1.119571,-0.560571,0.715438,-0.022084,0.656973,-0.676607,-0.637671,1.218773,-0.219501,-1.032672,33.306622,-14.399307,-4.634218,0.219205,1.149093,-0.122819,0.000000,0.000000,0.000000,0.000000,0.000000,0.000000
13088063.000000,-2.389397,-1.662352,1.061280,-1.377972,1.770111,1.120838,-0.560775,0.715238,-0.025946,0.660046,-0.682912,-0.631042,1.224188,-0.219265,-1.972918,33.306622,-13.736771,-4.312868,0.393156,0.889083,-0.175919,0.000000,0.000000,0.000000,0.000000,0.000000,0.000000
13088064.000000,-2.388679,-1.662379,1.061959,-1.378669,1.769470,1.122072,-0.560994,0.725723,-0.028606,0.664474,-0.684385,-0.632826,1.225875,-0.219003,-2.619586,33.159832,-13.268631,-3.769350,0.559781,0.830489,-0.103593,0.000000,0.000000,0.000000,0.000000,0.000000,0.000000
13088065.000000,-2.387961,-1.662408,1.062655,-1.379355,1.768865,1.123300,-0.561193,0.724220,-0.029677,0.673334,-0.688490,-0.624726,1.219025,-0.213220,-3.309893,32.965435,-12.852066,-3.225832,0.547880,0.941268,-0.182328,0.000000,0.000000,0.000000,0.000000,0.000000,0.000000
13088066.000000,-2.387247,-1.662434,1.063357,-1.380037,1.768257,1.124537,-0.561394,0.717903,-0.027558,0.682584,-0.685198,-0.615000,1.218118,-0.206446,-3.782000,32.767071,-12.487076,-2.904482,0.434354,1.006271,-0.202470,0.000000,0.000000,0.000000,0.000000,0.000000,0.000000
13088067.000000,-2.386553,-1.662458,1.064045,-1.380704,1.767646,1.125754,-0.561606,0.709134,-0.025182,0.683033,-0.682420,-0.610862,1.215742,-0.205458,-4.027972,32.525066,-12.165726,-2.634706,0.410551,1.006271,-0.116410,0.000000,0.000000,0.000000,0.000000,0.000000,0.000000
13088068.000000,-2.385844,-1.662471,1.064758,-1.381365,1.767056,1.126966,-0.561804,0.700723,-0.023224,0.685717,-0.680293,-0.600389,1.210258,-0.203434,-4.301714,32.132305,-11.995132,-2.634706,0.291532,1.194869,-0.175919,0.000000,0.000000,0.000000,0.000000,0.000000,0.000000
13088069.000000,-2.385138,-1.662476,1.065467,-1.382028,1.766465,1.128149,-0.562015,0.700648,-0.017629,0.691478,-0.672708,-0.588466,1.193265,-0.205951,-4.523882,31.668133,-11.943558,-2.583132,0.231107,1.409103,-0.130143,0.000000,0.000000,0.000000,0.000000,0.000000,0.000000
13088070.000000,-2.384444,-1.662479,1.066195,-1.382669,1.765875,1.129365,-0.562216,0.696464,-0.010342,0.703146,-0.661969,-0.597903,1.192179,-0.206421,-4.698443,31.199993,-11.848343,-2.682314,0.213712,1.454879,-0.142960,0.000000,0.000000,0.000000,0.000000,0.000000,0.000000
13088071.000000,-2.383750,-1.662482,1.066927,-1.383324,1.765284,1.130594,-0.562422,0.694902,-0.007592,0.708221,-0.655789,-0.592433,1.194616,-0.206015,-4.821429,30.835003,-11.725357,-2.706117,0.273221,1.299239,-0.163102,0.000000,0.000000,0.000000,0.000000,0.000000,0.000000
13088072.000000,-2.383060,-1.662470,1.067659,-1.383970,1.764690,1.131808,-0.562633,0.696824,0.002206,0.715496,-0.648380,-0.588104,1.200213,-0.203055,-4.995989,30.271648,-11.626175,-2.757692,0.327238,1.117049,-0.122819,0.000000,0.000000,0.000000,0.000000,0.000000,0.000000
13088073.000000,-2.382365,-1.662448,1.068409,-1.384593,1.764122,1.133017,-0.562827,0.688195,0.010249,0.720683,-0.644410,-0.577078,1.192028,-0.202258,-5.142779,29.660686,-11.578568,-2.979860,0.308927,1.064864,-0.175919,0.000000,0.000000,0.000000,0.000000,0.000000,0.000000
13088074.000000,-2.381664,-1.662432,1.069149,-1.385215,1.763547,1.134222,-0.563030,0.689686,0.012492,0.725734,-0.632160,-0.571265,1.191052,-0.204396,-5.364947,29.196514,-11.404007,-3.178224,0.267728,0.954086,-0.163102,0.000000,0.000000,0.000000,0.000000,0.000000,0.000000
13088075.000000,-2.380982,-1.662417,1.069890,-1.385825,1.762976,1.135441,-0.563231,0.684583,0.011448,0.728308,-0.624117,-0.566444,1.185818,-0.201904,-5.440325,28.851360,-11.011246,-3.400392,0.273221,0.817672,-0.130143,0.000000,0.000000,0.000000,0.000000,0.000000,0.000000
13088076.000000,-2.380298,-1.662395,1.070648,-1.386444,1.762421,1.136641,-0.563430,0.681399,0.016334,0.738036,-0.619324,-0.563360,1.181459,-0.198076,-5.487933,28.410992,-10.693863,-3.570986,0.189908,0.960494,-0.142960,0.000000,0.000000,0.000000,0.000000,0.000000,0.000000
13088077.000000,-2.379612,-1.662375,1.071403,-1.387067,1.761866,1.137817,-0.563631,0.697250,0.018227,0.742321,-0.620689,-0.552902,1.173346,-0.195672,-5.587115,28.046001,-10.348709,-3.547182,0.046171,1.129867,-0.142960,0.000000,0.000000,0.000000,0.000000,0.000000,0.000000
13088078.000000,-2.378919,-1.662350,1.072168,-1.387663,1.761317,1.139023,-0.563822,0.695211,0.020996,0.748747,-0.611830,-0.554669,1.173372,-0.192565,-5.737872,27.629436,-9.955948,-3.646364,-0.031649,1.194869,-0.182328,0.000000,0.000000,0.000000,0.000000,0.000000,0.000000
13088079.000000,-2.378228,-1.662332,1.072933,-1.388271,1.760754,1.140252,-0.564021,0.692721,0.019633,0.770375,-0.609882,-0.558497,1.178782,-0.193560,-5.813250,27.359661,-9.590958,-3.622560,-0.007845,1.045638,-0.122819,0.000000,0.000000,0.000000,0.000000,0.000000,0.000000
13088080.000000,-2.377546,-1.662313,1.073714,-1.388859,1.760194,1.141490,-0.564209,0.687891,0.018337,0.774520,-0.615960,-0.552658,1.193534,-0.194664,-5.912432,27.113689,-9.317215,-3.697939,0.015958,0.739852,-0.188737,0.000000,0.000000,0.000000,0.000000,0.000000,0.000000
13088081.000000,-2.376846,-1.662302,1.074513,-1.389466,1.759651,1.142720,-0.564410,0.690301,0.014722,0.781810,-0.614789,-0.546372,1.186488,-0.195067,-6.206011,26.990704,-9.122818,-3.646364,0.010465,0.583297,-0.142960,0.000000,0.000000,0.000000,0.000000,0.000000,0.000000
13088082.000000,-2.376142,-1.662292,1.075304,-1.390060,1.759102,1.143931,-0.564607,0.688998,0.011200,0.791895,-0.607429,-0.538981,1.188260,-0.193340,-6.455950,26.919292,-8.952225,-3.721742,0.093778,0.538436,-0.142960,0.000000,0.000000,0.000000,0.000000,0.000000,0.000000
13088083.000000,-2.375449,-1.662291,1.076115,-1.390650,1.758550,1.145154,-0.564803,0.691825,0.005583,0.796747,-0.602864,-0.539123,1.185357,-0.197012,-6.753497,26.990704,-8.730057,-3.745546,0.166105,0.570480,-0.142960,0.000000,0.000000,0.000000,0.000000,0.000000,0.000000
13088084.000000,-2.374762,-1.662288,1.076943,-1.391238,1.758008,1.146385,-0.564998,0.687764,0.002355,0.810673,-0.592801,-0.537631,1.189067,-0.195211,-6.824908,27.042278,-8.630875,-3.892336,0.189908,0.648299,-0.130143,0.000000,0.000000,0.000000,0.000000,0.000000,0.000000
13088085.000000,-2.374080,-1.662286,1.077770,-1.391806,1.757468,1.147587,-0.565178,0.681318,0.000893,0.818594,-0.583079,-0.537497,1.189225,-0.191755,-6.951861,27.066082,-8.583267,-4.189882,0.129484,0.804855,-0.182328,0.000000,0.000000,0.000000,0.000000,0.000000,0.000000
13088086.000000,-2.373381,-1.662284,1.078623,-1.392369,1.756942,1.148819,-0.565367,0.685701,0.003002,0.832437,-0.572759,-0.536480,1.185031,-0.192240,-7.197833,27.089886,-8.654678,-4.364442,0.027860,0.876266,-0.155778,0.000000,0.000000,0.000000,0.000000,0.000000,0.000000
13088087.000000,-2.372678,-1.662282,1.079471,-1.392940,1.756404,1.150026,-0.565552,0.685728,0.001631,0.840992,-0.568507,-0.537339,1.186699,-0.190292,-7.471575,27.113689,-8.730057,-4.487428,0.010465,0.895492,-0.175919,0.000000,0.000000,0.000000,0.000000,0.000000,0.000000
13088088.000000,-2.371986,-1.662288,1.080334,-1.393499,1.755879,1.151248,-0.565734,0.688175,-0.001092,0.846667,-0.567311,-0.541507,1.186270,-0.185689,-7.840533,27.212872,-8.706253,-4.562807,0.010465,0.947677,-0.163102,0.000000,0.000000,0.000000,0.000000,0.000000,0.000000
13088089.000000,-2.371272,-1.662288,1.081206,-1.394068,1.755348,1.152459,-0.565915,0.697237,-0.000623,0.850273,-0.565681,-0.535749,1.179511,-0.181606,-8.312640,27.212872,-8.607071,-4.535036,0.076383,1.031905,-0.169511,0.000000,0.000000,0.000000,0.000000,0.000000,0.000000
13088090.000000,-2.370564,-1.662284,1.082083,-1.394649,1.754815,1.153664,-0.566095,0.699570,0.000870,0.860976,-0.568579,-0.534385,1.182689,-0.178309,-8.856158,27.161297,-8.583267,-4.439821,0.112089,1.045638,-0.182328,0.000000,0.000000,0.000000,0.000000,0.000000,0.000000
13088091.000000,-2.369847,-1.662279,1.082979,-1.395213,1.754302,1.154886,-0.566277,0.700029,0.002309,0.864137,-0.569574,-0.521917,1.186051,-0.177310,-9.328265,27.089886,-8.583267,-4.388246,0.088285,0.941268,-0.155778,0.000000,0.000000,0.000000,0.000000,0.000000,0.000000
13088092.000000,-2.369129,-1.662265,1.083864,-1.395770,1.753778,1.156114,-0.566449,0.700216,0.005574,0.874431,-0.559543,-0.522023,1.221467,-0.175112,-9.796405,26.919292,-8.412674,-4.463624,0.069974,0.713302,-0.155778,0.000000,0.000000,0.000000,0.000000,0.000000,0.000000
13088093.000000,-2.368429,-1.662257,1.084762,-1.396314,1.753265,1.157320,-0.566626,0.699069,0.006070,0.880578,-0.556294,-0.516358,1.212401,-0.179078,-10.216937,26.820110,-8.166702,-4.562807,-0.001437,0.739852,-0.142960,0.000000,0.000000,0.000000,0.000000,0.000000,0.000000
13088094.000000,-2.367727,-1.662248,1.085694,-1.396858,1.752766,1.158522,-0.566801,0.694033,0.010124,0.889358,-0.553398,-0.513109,1.205139,-0.175300,-10.490680,26.697124,-8.091324,-4.685792,-0.037142,0.882674,-0.155778,0.000000,0.000000,0.000000,0.000000,0.000000,0.000000
13088095.000000,-2.367026,-1.662235,1.086619,-1.397387,1.752262,1.159707,-0.566974,0.711332,0.009909,0.905970,-0.542421,-0.509460,1.198181,-0.172390,-10.859637,26.574139,-8.043716,-4.931764,-0.079257,0.980636,-0.196061,0.000000,0.000000,0.000000,0.000000,0.000000,0.000000
13088096.000000,-2.366327,-1.662226,1.087555,-1.397922,1.751763,1.160911,-0.567157,0.705949,0.011112,0.911306,-0.538086,-0.505920,1.198339,-0.179003,-11.085773,26.526531,-7.896927,-5.007143,-0.055453,1.006271,-0.142960,0.000000,0.000000,0.000000,0.000000,0.000000,0.000000
13088097.000000,-2.365621,-1.662223,1.088510,-1.398461,1.751251,1.162125,-0.567330,0.698823,0.009894,0.945829,-0.537584,-0.503883,1.199185,-0.175126,-11.407123,26.574139,-8.019913,-5.054750,-0.013339,0.947677,-0.175919,0.000000,0.000000,0.000000,0.000000,0.000000,0.000000
13088098.000000,-2.364921,-1.662219,1.089493,-1.398977,1.750759,1.163324,-0.567507,0.699798,0.006622,0.956375,-0.528381,-0.494053,1.200707,-0.174746,-11.728473,26.597942,-8.214310,-5.253114,-0.037142,0.857040,-0.155778,0.000000,0.000000,0.000000,0.000000,0.000000,0.000000
13088099.000000,-2.364214,-1.662210,1.090492,-1.399505,1.750276,1.164527,-0.567675,0.698946,0.007901,0.962976,-0.525617,-0.492358,1.193573,-0.172995,-12.049823,26.597942,-8.436478,-5.399904,-0.079257,0.811263,-0.169511,0.000000,0.000000,0.000000,0.000000,0.000000,0.000000
13088100.000000,-2.363509,-1.662212,1.091472,-1.400024,1.749785,1.165709,-0.567851,0.695631,0.005366,0.974559,-0.522558,-0.490238,1.195436,-0.172597,-12.347369,26.748699,-8.460281,-5.574464,-0.091158,0.876266,-0.163102,0.000000,0.000000,0.000000,0.000000,0.000000,0.000000
13088101.000000,-2.362814,-1.662216,1.092476,-1.400524,1.749312,1.166900,-0.568020,0.697689,0.003350,0.982571,-0.514234,-0.484304,1.188500,-0.171747,-12.569537,26.919292,-8.507889,-5.772829,-0.126864,0.999862,-0.169511,0.000000,0.000000,0.000000,0.000000,0.000000,0.000000
13088102.000000,-2.362111,-1.662220,1.093476,-1.401036,1.748816,1.168089,-0.568190,0.694564,0.002745,0.987083,-0.512317,-0.486342,1.187496,-0.166741,-12.890887,27.066082,-8.289688,-5.895814,-0.114962,1.162826,-0.163102,0.000000,0.000000,0.000000,0.000000,0.000000,0.000000
13088103.000000,-2.361424,-1.662219,1.094478,-1.401538,1.748339,1.169258,-0.568361,0.690671,0.001561,0.990695,-0.506882,-0.476922,1.180274,-0.168538,-13.113055,27.113689,-8.261917,-6.070375,-0.150668,1.279098,-0.136552,0.000000,0.000000,0.000000,0.000000,0.000000,0.000000
13088104.000000,-2.360724,-1.662219,1.095495,-1.402033,1.747880,1.170454,-0.568520,0.692159,0.001117,0.993722,-0.501380,-0.472464,1.179795,-0.166058,-13.362994,27.137493,-8.067520,-6.169557,-0.228488,1.169235,-0.215287,0.000000,0.000000,0.000000,0.000000,0.000000,0.000000
13088105.000000,-2.360033,-1.662228,1.096504,-1.402538,1.747400,1.171645,-0.568696,0.688759,-0.001100,1.003443,-0.504124,-0.472058,1.180980,-0.169524,-13.561358,27.236675,-7.773941,-6.217165,-0.216586,0.954086,-0.142960,0.000000,0.000000,0.000000,0.000000,0.000000,0.000000
13088106.000000,-2.359353,-1.662235,1.097534,-1.403030,1.746934,1.172847,-0.568857,0.685166,-0.002048,1.008305,-0.500423,-0.472751,1.184421,-0.162717,-13.731952,27.308086,-7.476395,-6.268739,-0.133273,0.804855,-0.110001,0.000000,0.000000,0.000000,0.000000,0.000000,0.000000
13088107.000000,-2.358656,-1.662244,1.098576,-1.403527,1.746466,1.174041,-0.569012,0.685558,-0.002861,1.010182,-0.496080,-0.475679,1.182051,-0.160868,-14.081073,27.383465,-7.135208,-6.363954,-0.162570,0.778304,-0.202470,0.000000,0.000000,0.000000,0.000000,0.000000,0.000000
13088108.000000,-2.357995,-1.662250,1.099631,-1.404026,1.745992,1.175207,-0.569186,0.679024,-0.003377,1.028448,-0.496909,-0.471577,1.182372,-0.165673,-14.081073,27.454876,-7.083633,-6.439332,-0.103060,0.817672,-0.136552,0.000000,0.000000,0.000000,0.000000,0.000000,0.000000
13088109.000000,-2.357325,-1.662257,1.100685,-1.404505,1.745548,1.176404,-0.569342,0.671936,-0.003865,1.030420,-0.490382,-0.460985,1.184368,-0.165690,-14.081073,27.530254,-6.790054,-6.685304,-0.126864,0.739852,-0.175919,0.000000,0.000000,0.000000,0.000000,0.000000,0.000000
13088110.000000,-2.356663,-1.662265,1.101747,-1.404980,1.745095,1.177594,-0.569510,0.667863,-0.004134,1.041329,-0.480454,-0.455046,1.213086,-0.168234,-13.981891,27.601665,-6.643265,-6.982851,-0.211093,0.589706,-0.130143,0.000000,0.000000,0.000000,0.000000,0.000000,0.000000
13088111.000000,-2.356020,-1.662263,1.102857,-1.405441,1.744643,1.178787,-0.569669,0.656703,-0.001558,1.063896,-0.471271,-0.453307,1.211288,-0.166510,-13.807330,27.554058,-6.865433,-7.256593,-0.258700,0.616256,-0.163102,0.000000,0.000000,0.000000,0.000000,0.000000,0.000000
13088112.000000,-2.355363,-1.662265,1.103966,-1.405920,1.744210,1.179987,-0.569833,0.653988,-0.001532,1.075154,-0.470330,-0.454487,1.208638,-0.163163,-13.807330,27.577862,-6.865433,-7.427186,-0.353915,0.629073,-0.149369,0.000000,0.000000,0.000000,0.000000,0.000000,0.000000
13088113.000000,-2.354703,-1.662264,1.105070,-1.406403,1.743757,1.181176,-0.569997,0.663678,0.000140,1.084137,-0.476547,-0.450313,1.210155,-0.162076,-13.858905,27.530254,-6.889236,-7.427186,-0.306307,0.603439,-0.110001,0.000000,0.000000,0.000000,0.000000,0.000000,0.000000
13088114.000000,-2.354049,-1.662265,1.106191,-1.406882,1.743311,1.182378,-0.570147,0.658824,0.000686,1.094003,-0.475801,-0.445724,1.210491,-0.157253,-14.029498,27.506451,-6.889236,-7.379579,-0.199191,0.564071,-0.163102,0.000000,0.000000,0.000000,0.000000,0.000000,0.000000
13088115.000000,-2.353388,-1.662261,1.107325,-1.407363,1.742872,1.183589,-0.570305,0.658477,0.002804,1.118052,-0.479035,-0.442360,1.210670,-0.156751,-14.227862,27.407269,-6.841629,-7.379579,-0.199191,0.538436,-0.130143,0.000000,0.000000,0.000000,0.000000,0.000000,0.000000
13088116.000000,-2.352738,-1.662254,1.108451,-1.407821,1.742425,1.184767,-0.570455,0.660151,0.004766,1.121972,-0.479850,-0.440348,1.203751,-0.153998,-14.350848,27.284283,-6.718643,-7.502565,-0.187289,0.570480,-0.163102,0.000000,0.000000,0.000000,0.000000,0.000000,0.000000
13088117.000000,-2.352091,-1.662251,1.109597,-1.408281,1.742002,1.185968,-0.570611,0.653545,0.001804,1.126280,-0.468305,-0.431040,1.199974,-0.159140,-14.350848,27.212872,-6.544083,-7.724733,-0.258700,0.648299,-0.136552,0.000000,0.000000,0.000000,0.000000,0.000000,0.000000
13088118.000000,-2.351441,-1.662240,1.110723,-1.408749,1.741561,1.187144,-0.570764,0.649083,0.004949,1.125485,-0.466681,-0.428716,1.194686,-0.156625,-14.450030,27.042278,-6.250504,-7.776308,-0.306307,0.733443,-0.142960,0.000000,0.000000,0.000000,0.000000,0.000000,0.000000
13088119.000000,-2.350799,-1.662232,1.111902,-1.409204,1.741135,1.188338,-0.570911,0.648476,0.005994,1.136978,-0.460913,-0.427609,1.189076,-0.154247,-14.525409,26.919292,-6.274307,-7.899293,-0.372225,0.830489,-0.169511,0.000000,0.000000,0.000000,0.000000,0.000000,0.000000
13088120.000000,-2.350164,-1.662216,1.113093,-1.409661,1.740717,1.189534,-0.571066,0.640495,0.009056,1.149993,-0.460065,-0.420898,1.184982,-0.155260,-14.473834,26.697124,-6.302078,-7.998476,-0.473849,0.836898,-0.122819,0.000000,0.000000,0.000000,0.000000,0.000000,0.000000
13088121.000000,-2.349522,-1.662204,1.114298,-1.410124,1.740289,1.190718,-0.571207,0.640985,0.009368,1.177251,-0.459938,-0.422698,1.178843,-0.151708,-14.648395,26.550335,-6.571854,-7.970705,-0.521456,0.785628,-0.188737,0.000000,0.000000,0.000000,0.000000,0.000000,0.000000
13088122.000000,-2.348884,-1.662189,1.115533,-1.410577,1.739859,1.191913,-0.571353,0.635517,0.010159,1.188658,-0.460540,-0.417969,1.173290,-0.148173,-14.699969,26.379742,-6.988419,-8.022280,-0.485751,0.700484,-0.155778,0.000000,0.000000,0.000000,0.000000,0.000000,0.000000
13088123.000000,-2.348249,-1.662183,1.116774,-1.411024,1.739437,1.193093,-0.571504,0.632885,0.008478,1.207245,-0.453037,-0.417977,1.168631,-0.145416,-14.699969,26.304363,-7.504166,-8.097658,-0.443636,0.687667,-0.116410,0.000000,0.000000,0.000000,0.000000,0.000000,0.000000
13088124.000000,-2.347629,-1.662176,1.118034,-1.411465,1.739007,1.194264,-0.571644,0.630141,0.007836,1.224791,-0.450119,-0.431177,1.160443,-0.145230,-14.624591,26.209148,-7.869156,-8.244448,-0.384127,0.817672,-0.155778,0.000000,0.000000,0.000000,0.000000,0.000000,0.000000
13088125.000000,-2.347004,-1.662175,1.119307,-1.411910,1.738582,1.195439,-0.571796,0.624859,0.004635,1.244077,-0.444703,-0.423983,1.152920,-0.148530,-14.600787,26.232952,-8.142899,-8.391237,-0.324618,0.960494,-0.116410,0.000000,0.000000,0.000000,0.000000,0.000000,0.000000
13088126.000000,-2.346394,-1.662177,1.120557,-1.412357,1.738167,1.196596,-0.571940,0.622610,0.004432,1.243089,-0.444380,-0.422999,1.150212,-0.147729,-14.473834,26.304363,-8.289688,-8.518190,-0.264193,1.045638,-0.149369,0.000000,0.000000,0.000000,0.000000,0.000000,0.000000
13088127.000000,-2.345769,-1.662183,1.121822,-1.412797,1.737762,1.197781,-0.572082,0.620218,0.004429,1.237294,-0.443492,-0.414818,1.152278,-0.148601,-14.426227,26.649517,-8.559464,-8.541994,-0.287997,1.071273,-0.149369,0.000000,0.000000,0.000000,0.000000,0.000000,0.000000
13088128.000000,-2.345147,-1.662201,1.123057,-1.413257,1.737365,1.198953,-0.572221,0.621065,-0.001133,1.232917,-0.449744,-0.402205,1.178857,-0.147963,-14.227862,27.407269,-8.999832,-8.367434,-0.353915,1.077682,-0.188737,0.000000,0.000000,0.000000,0.000000,0.000000,0.000000
13088129.000000,-2.344535,-1.662223,1.124280,-1.413716,1.736970,1.200145,-0.572373,0.618565,-0.006604,1.226983,-0.453197,-0.399650,1.176321,-0.155427,-13.882709,28.533978,-9.467972,-8.121462,-0.377719,1.090499,-0.116410,0.000000,0.000000,0.000000,0.000000,0.000000,0.000000
13088130.000000,-2.343918,-1.662241,1.125503,-1.414177,1.736574,1.201348,-0.572507,0.617039,-0.007959,1.214778,-0.457635,-0.399383,1.178515,-0.153029,-13.462176,29.755901,-10.225723,-7.923097,-0.360323,0.999862,-0.149369,0.000000,0.000000,0.000000,0.000000,0.000000,0.000000
13088131.000000,-2.343306,-1.662256,1.126706,-1.414641,1.736181,1.202539,-0.572644,0.626297,-0.012749,1.213209,-0.460031,-0.394883,1.187124,-0.147203,-13.041644,31.053204,-11.158035,-7.748537,-0.306307,0.993453,-0.163102,0.000000,0.000000,0.000000,0.000000,0.000000,0.000000
13088132.000000,-2.342698,-1.662262,1.127914,-1.415082,1.735802,1.203731,-0.572782,0.615849,-0.012528,1.207974,-0.456659,-0.383156,1.187382,-0.141190,-12.494159,32.231487,-12.042740,-7.800111,-0.240389,1.090499,-0.136552,0.000000,0.000000,0.000000,0.000000,0.000000,0.000000
13088133.000000,-2.342093,-1.662268,1.129131,-1.415534,1.735412,1.204930,-0.572916,0.612105,-0.012744,1.212770,-0.455863,-0.388103,1.193623,-0.141961,-11.974444,33.306622,-13.221024,-7.875490,-0.180880,1.234237,-0.175919,0.000000,0.000000,0.000000,0.000000,0.000000,0.000000
13088134.000000,-2.341509,-1.662265,1.130360,-1.415972,1.735011,1.206104,-0.573057,0.604552,-0.009097,1.216281,-0.448691,-0.392981,1.186909,-0.140316,-11.355548,34.211163,-14.177139,-8.022280,-0.079257,1.396285,-0.155778,0.000000,0.000000,0.000000,0.000000,0.000000,0.000000
13088135.000000,-2.340915,-1.662265,1.131600,-1.416420,1.734618,1.207299,-0.573191,0.598213,-0.006232,1.217967,-0.446319,-0.388289,1.186301,-0.143520,-10.986590,34.972881,-15.061844,-8.169069,0.046171,1.487838,-0.142960,0.000000,0.000000,0.000000,0.000000,0.000000,0.000000
13088136.000000,-2.340318,-1.662260,1.132842,-1.416875,1.734229,1.208463,-0.573321,0.594387,-0.004177,1.232118,-0.447888,-0.389605,1.176889,-0.139535,-10.665240,35.583843,-16.117142,-8.169069,0.081876,1.649886,-0.169511,0.000000,0.000000,0.000000,0.000000,0.000000,0.000000
13088137.000000,-2.339730,-1.662258,1.134087,-1.417329,1.733847,1.209643,-0.573454,0.589536,-0.001471,1.230453,-0.446804,-0.392537,1.176386,-0.138361,-10.415301,36.123394,-16.831253,-8.145266,0.064481,1.767074,-0.155778,0.000000,0.000000,0.000000,0.000000,0.000000,0.000000
13088138.000000,-2.339145,-1.662263,1.135346,-1.417786,1.733458,1.210837,-0.573585,0.585280,-0.003040,1.231558,-0.451676,-0.389998,1.180168,-0.136331,-10.169330,36.658978,-17.466019,-7.998476,0.112089,1.676437,-0.169511,0.000000,0.000000,0.000000,0.000000,0.000000,0.000000
13088139.000000,-2.338570,-1.662270,1.136580,-1.418235,1.733084,1.212012,-0.573713,0.582890,-0.003766,1.232609,-0.447723,-0.388983,1.181357,-0.135579,-9.947162,37.150921,-17.834976,-8.046083,0.058073,1.584884,-0.163102,0.000000,0.000000,0.000000,0.000000,0.000000,0.000000
13088140.000000,-2.337996,-1.662274,1.137840,-1.418666,1.732713,1.213187,-0.573837,0.573680,-0.004770,1.235859,-0.445276,-0.379302,1.178473,-0.129367,-9.673419,37.515911,-18.251541,-8.196840,0.010465,1.546432,-0.182328,0.000000,0.000000,0.000000,0.000000,0.000000,0.000000
13088141.000000,-2.337434,-1.662296,1.139096,-1.419098,1.732339,1.214332,-0.573974,0.568034,-0.013127,1.242898,-0.435932,-0.376408,1.175009,-0.128119,-9.300494,38.055462,-18.695877,-8.391237,-0.025240,1.605026,-0.103593,0.000000,0.000000,0.000000,0.000000,0.000000,0.000000
13088142.000000,-2.336890,-1.662324,1.140368,-1.419503,1.731974,1.215489,-0.574097,0.561407,-0.019367,1.247897,-0.427382,-0.381631,1.171622,-0.129198,-8.832355,38.595013,-19.013260,-8.839540,-0.091158,1.662704,-0.182328,0.000000,0.000000,0.000000,0.000000,0.000000,0.000000
13088143.000000,-2.336346,-1.662365,1.141664,-1.419916,1.731601,1.216648,-0.574226,0.547147,-0.026813,1.254015,-0.421104,-0.377951,1.169029,-0.130820,-8.411822,39.253582,-19.529007,-9.160891,-0.031649,1.735030,-0.163102,0.000000,0.000000,0.000000,0.000000,0.000000,0.000000
13088144.000000,-2.335815,-1.662403,1.142950,-1.420325,1.731239,1.217785,-0.574360,0.555593,-0.029925,1.269968,-0.415021,-0.372007,1.161012,-0.133367,-7.963519,39.816936,-20.143936,-9.553652,-0.037142,1.851302,-0.122819,0.000000,0.000000,0.000000,0.000000,0.000000,0.000000
13088145.000000,-2.335275,-1.662448,1.144261,-1.420726,1.730893,1.218948,-0.574483,0.552726,-0.038513,1.276148,-0.407866,-0.362549,1.158964,-0.130933,-7.618365,40.380291,-20.877884,-9.803591,-0.072848,1.793624,-0.175919,0.000000,0.000000,0.000000,0.000000,0.000000,0.000000
13088146.000000,-2.334745,-1.662495,1.145559,-1.421137,1.730527,1.220108,-0.574619,0.540034,-0.042342,1.310096,-0.406542,-0.372488,1.175340,-0.133262,-7.273211,40.967449,-21.516617,-9.974184,-0.025240,1.643478,-0.116410,0.000000,0.000000,0.000000,0.000000,0.000000,0.000000
13088147.000000,-2.334230,-1.662544,1.146846,-1.421542,1.730158,1.221264,-0.574742,0.536028,-0.044171,1.299883,-0.406648,-0.370119,1.160221,-0.131146,-6.876482,41.507000,-21.786392,-9.997988,0.010465,1.624252,-0.142960,0.000000,0.000000,0.000000,0.000000,0.000000,0.000000
13088148.000000,-2.333703,-1.662583,1.148150,-1.421955,1.729797,1.222422,-0.574865,0.531289,-0.042197,1.295143,-0.407253,-0.368786,1.145595,-0.130634,-6.578936,41.899761,-22.179153,-9.974184,0.058073,1.689254,-0.163102,0.000000,0.000000,0.000000,0.000000,0.000000,0.000000
13088149.000000,-2.333186,-1.662630,1.149413,-1.422358,1.729441,1.223543,-0.574991,0.529049,-0.043142,1.284089,-0.403716,-0.369267,1.135185,-0.126430,-6.305193,42.387737,-22.179153,-9.974184,0.040677,1.903487,-0.155778,0.000000,0.000000,0.000000,0.000000,0.000000,0.000000
13088150.000000,-2.332681,-1.662669,1.150702,-1.422762,1.729082,1.224698,-0.575112,0.520354,-0.041122,1.275623,-0.405954,-0.371070,1.130460,-0.127824,-6.011614,42.756695,-22.254532,-9.898806,0.040677,1.995040,-0.155778,0.000000,0.000000,0.000000,0.000000,0.000000,0.000000
13088151.000000,-2.332182,-1.662708,1.151983,-1.423162,1.728726,1.225868,-0.575238,0.514170,-0.039325,1.270539,-0.402525,-0.366552,1.134404,-0.128508,-5.614886,43.097881,-22.079971,-9.851198,0.010465,1.949264,-0.163102,0.000000,0.000000,0.000000,0.000000,0.000000,0.000000
13088152.000000,-2.331688,-1.662738,1.153271,-1.423567,1.728380,1.227014,-0.575361,0.503351,-0.036777,1.271987,-0.403286,-0.359082,1.139538,-0.123865,-5.317339,43.244671,-22.302139,-9.704409,-0.001437,1.949264,-0.188737,0.000000,0.000000,0.000000,0.000000,0.000000,0.000000
13088153.000000,-2.331201,-1.662763,1.154571,-1.423985,1.728032,1.228162,-0.575487,0.496341,-0.033131,1.278467,-0.403320,-0.362451,1.134719,-0.123004,-4.968218,43.292278,-22.548111,-9.406862,-0.031649,1.981307,-0.142960,0.000000,0.000000,0.000000,0.000000,0.000000,0.000000
13088154.000000,-2.330706,-1.662791,1.155853,-1.424406,1.727670,1.229304,-0.575611,0.494016,-0.027859,1.281950,-0.407394,-0.357543,1.134541,-0.121640,-4.698443,43.343853,-22.794083,-9.160891,0.010465,1.974899,-0.116410,0.000000,0.000000,0.000000,0.000000,0.000000,0.000000
13088155.000000,-2.330232,-1.662817,1.157167,-1.424820,1.727312,1.230465,-0.575728,0.486204,-0.026908,1.289703,-0.408092,-0.365328,1.137031,-0.123144,-4.325518,43.367657,-23.210648,-8.910952,0.147794,1.909896,-0.142960,0.000000,0.000000,0.000000,0.000000,0.000000,0.000000
13088156.000000,-2.329755,-1.662840,1.158477,-1.425234,1.726967,1.231627,-0.575849,0.484747,-0.027218,1.283716,-0.408107,-0.363366,1.145181,-0.120517,-4.055743,43.292278,-23.504227,-8.811769,0.154203,1.909896,-0.155778,0.000000,0.000000,0.000000,0.000000,0.000000,0.000000
13088157.000000,-2.329292,-1.662857,1.159776,-1.425652,1.726617,1.232760,-0.575967,0.476568,-0.023480,1.294076,-0.406883,-0.357447,1.150215,-0.117502,-3.706622,43.173260,-23.996170,-8.641176,0.171598,1.949264,-0.188737,0.000000,0.000000,0.000000,0.000000,0.000000,0.000000
13088158.000000,-2.328829,-1.662885,1.161076,-1.426066,1.726284,1.233905,-0.576087,0.469768,-0.024521,1.289642,-0.412439,-0.352513,1.144003,-0.117946,-3.309893,43.197063,-24.242142,-8.466616,0.166105,2.047225,-0.155778,0.000000,0.000000,0.000000,0.000000,0.000000,0.000000
13088159.000000,-2.328365,-1.662907,1.162357,-1.426485,1.725948,1.235043,-0.576198,0.464127,-0.023377,1.286816,-0.411698,-0.340692,1.151084,-0.114790,-3.040118,43.145489,-24.388931,-8.319826,0.207303,2.060043,-0.202470,0.000000,0.000000,0.000000,0.000000,0.000000,0.000000
13088160.000000,-2.327908,-1.662936,1.163637,-1.426919,1.725603,1.236187,-0.576315,0.462369,-0.025144,1.275728,-0.421550,-0.348667,1.149915,-0.116334,-2.742571,43.197063,-24.289749,-7.899293,0.243009,2.118636,-0.155778,0.000000,0.000000,0.000000,0.000000,0.000000,0.000000
13088161.000000,-2.327443,-1.662956,1.164932,-1.427352,1.725277,1.237336,-0.576428,0.460536,-0.023277,1.274853,-0.422861,-0.338681,1.146113,-0.114974,-2.468829,43.121685,-24.365128,-7.577943,0.178007,2.131454,-0.169511,0.000000,0.000000,0.000000,0.000000,0.000000,0.000000
13088162.000000,-2.326996,-1.662979,1.166222,-1.427800,1.724941,1.238482,-0.576539,0.463354,-0.022639,1.283295,-0.433983,-0.334778,1.147974,-0.113633,-2.171282,43.074078,-24.634903,-7.105836,0.207303,2.027084,-0.196061,0.000000,0.000000,0.000000,0.000000,0.000000,0.000000
13088163.000000,-2.326547,-1.663004,1.167506,-1.428236,1.724616,1.239646,-0.576657,0.459678,-0.023793,1.273984,-0.435541,-0.332437,1.147156,-0.115643,-1.925311,43.097881,-24.682510,-6.760683,0.243009,1.884261,-0.142960,0.000000,0.000000,0.000000,0.000000,0.000000,0.000000
13088164.000000,-2.326105,-1.663030,1.168801,-1.428685,1.724280,1.240785,-0.576764,0.449632,-0.024808,1.306496,-0.442018,-0.335797,1.140841,-0.113380,-1.504779,43.121685,-25.075272,-6.415529,0.291532,1.838485,-0.182328,0.000000,0.000000,0.000000,0.000000,0.000000,0.000000
13088165.000000,-2.325673,-1.663052,1.170113,-1.429122,1.723947,1.241928,-0.576874,0.443529,-0.024241,1.305059,-0.447389,-0.332427,1.134100,-0.114159,-1.108050,43.097881,-25.567215,-6.240968,0.308927,1.974899,-0.149369,0.000000,0.000000,0.000000,0.000000,0.000000,0.000000
13088166.000000,-2.325255,-1.663075,1.171436,-1.429576,1.723630,1.243064,-0.576984,0.435556,-0.020842,1.307872,-0.451139,-0.324307,1.125074,-0.113354,-0.612139,43.074078,-26.182144,-5.947389,0.303434,2.177230,-0.142960,0.000000,0.000000,0.000000,0.000000,0.000000,0.000000
13088167.000000,-2.324834,-1.663103,1.172714,-1.430028,1.723309,1.244180,-0.577091,0.427606,-0.023609,1.297990,-0.449215,-0.328303,1.125879,-0.111998,-0.116229,43.145489,-26.376541,-5.721254,0.332731,2.372237,-0.175919,0.000000,0.000000,0.000000,0.000000,0.000000,0.000000
13088168.000000,-2.324414,-1.663126,1.174004,-1.430479,1.722978,1.245328,-0.577200,0.425595,-0.020799,1.290452,-0.447759,-0.333558,1.126811,-0.108856,0.205121,43.145489,-26.523331,-5.499086,0.405057,2.417098,-0.149369,0.000000,0.000000,0.000000,0.000000,0.000000,0.000000
13088169.000000,-2.323992,-1.663147,1.175304,-1.430935,1.722653,1.246481,-0.577297,0.420575,-0.020657,1.288406,-0.444519,-0.329932,1.131071,-0.102908,0.526471,43.097881,-26.670120,-5.205507,0.405057,2.372237,-0.208878,0.000000,0.000000,0.000000,0.000000,0.000000,0.000000
13088170.000000,-2.323577,-1.663168,1.176562,-1.431392,1.722328,1.247606,-0.577404,0.422155,-0.018012,1.279424,-0.450652,-0.323454,1.128537,-0.106733,0.748639,43.074078,-26.547134,-4.856386,0.434354,2.358505,-0.182328,0.000000,0.000000,0.000000,0.000000,0.000000,0.000000
13088171.000000,-2.323156,-1.663193,1.177843,-1.431858,1.722006,1.248754,-0.577504,0.419441,-0.020391,1.279032,-0.454354,-0.323745,1.128070,-0.102915,0.970807,43.097881,-26.475723,-4.388246,0.464567,2.242233,-0.202470,0.000000,0.000000,0.000000,0.000000,0.000000,0.000000
13088172.000000,-2.322734,-1.663217,1.179081,-1.432331,1.721677,1.249893,-0.577604,0.418033,-0.022202,1.266772,-0.457313,-0.324124,1.135131,-0.104910,1.192975,43.121685,-26.154373,-3.991518,0.512174,2.072860,-0.215287,0.000000,0.000000,0.000000,0.000000,0.000000,0.000000
13088173.000000,-2.322326,-1.663243,1.180356,-1.432799,1.721353,1.251042,-0.577708,0.413354,-0.020995,1.265194,-0.461464,-0.329746,1.147536,-0.107379,1.442914,43.173260,-26.154373,-3.547182,0.620206,1.962081,-0.208878,0.000000,0.000000,0.000000,0.000000,0.000000,0.000000
13088174.000000,-2.321914,-1.663261,1.181616,-1.433267,1.721050,1.252189,-0.577811,0.411049,-0.018147,1.255284,-0.460806,-0.318764,1.149560,-0.109338,1.589704,43.145489,-25.912369,-3.249635,0.535978,1.930038,-0.196061,0.000000,0.000000,0.000000,0.000000,0.000000,0.000000
13088175.000000,-2.321510,-1.663286,1.182874,-1.433724,1.720737,1.253316,-0.577919,0.411620,-0.017812,1.254513,-0.459259,-0.318164,1.145624,-0.106833,1.788068,43.197063,-25.959976,-3.154421,0.518583,1.916305,-0.163102,0.000000,0.000000,0.000000,0.000000,0.000000,0.000000
13088176.000000,-2.321104,-1.663311,1.184140,-1.434166,1.720421,1.254454,-0.578017,0.407938,-0.021007,1.250760,-0.455816,-0.315167,1.133559,-0.102187,2.034040,43.268475,-25.983780,-3.178224,0.547880,1.955673,-0.202470,0.000000,0.000000,0.000000,0.000000,0.000000,0.000000
13088177.000000,-2.320702,-1.663331,1.185375,-1.434609,1.720109,1.255583,-0.578118,0.402593,-0.018588,1.243974,-0.448459,-0.312311,1.122320,-0.100192,2.232404,43.268475,-25.860794,-3.249635,0.584501,1.974899,-0.202470,0.000000,0.000000,0.000000,0.000000,0.000000,0.000000
13088178.000000,-2.320297,-1.663352,1.186627,-1.435046,1.719805,1.256714,-0.578220,0.405834,-0.017402,1.242304,-0.443623,-0.309260,1.116189,-0.104964,2.260175,43.292278,-25.860794,-3.225832,0.578092,2.098495,-0.188737,0.000000,0.000000,0.000000,0.000000,0.000000,0.000000
13088179.000000,-2.319892,-1.663364,1.187872,-1.435489,1.719502,1.257868,-0.578327,0.402719,-0.016901,1.237639,-0.442809,-0.308024,1.121219,-0.107906,2.359357,43.197063,-25.761612,-3.202028,0.608304,2.072860,-0.163102,0.000000,0.000000,0.000000,0.000000,0.000000,0.000000
13088180.000000,-2.319477,-1.663375,1.189097,-1.435923,1.719185,1.259028,-0.578423,0.413567,-0.013044,1.235509,-0.436644,-0.304107,1.133055,-0.107670,2.232404,43.074078,-25.690201,-3.178224,0.698026,1.851302,-0.215287,0.000000,0.000000,0.000000,0.000000,0.000000,0.000000
13088181.000000,-2.319062,-1.663386,1.190317,-1.436356,1.718882,1.260198,-0.578528,0.410488,-0.012728,1.222702,-0.436164,-0.304934,1.137015,-0.105693,2.109418,42.927288,-25.396622,-3.102846,0.745634,1.682845,-0.182328,0.000000,0.000000,0.000000,0.000000,0.000000,0.000000
13088182.000000,-2.318649,-1.663386,1.191535,-1.436779,1.718597,1.261346,-0.578628,0.410168,-0.008009,1.245335,-0.426935,-0.295790,1.144081,-0.102725,2.034040,42.705120,-25.321243,-3.079042,0.661405,1.591293,-0.182328,0.000000,0.000000,0.000000,0.000000,0.000000,0.000000
13088183.000000,-2.318235,-1.663393,1.192769,-1.437196,1.718310,1.262499,-0.578724,0.410434,-0.007807,1.239637,-0.432238,-0.294043,1.147453,-0.104009,1.934858,42.609905,-25.321243,-3.154421,0.578092,1.676437,-0.202470,0.000000,0.000000,0.000000,0.000000,0.000000,0.000000
13088184.000000,-2.317829,-1.663397,1.194008,-1.437604,1.718022,1.263655,-0.578827,0.403643,-0.006726,1.235408,-0.422634,-0.289661,1.143114,-0.102864,1.962629,42.486919,-25.368851,-3.249635,0.530485,1.779891,-0.169511,0.000000,0.000000,0.000000,0.000000,0.000000,0.000000
13088185.000000,-2.317428,-1.663401,1.195228,-1.438013,1.717735,1.264791,-0.578923,0.399602,-0.006485,1.229201,-0.414649,-0.286740,1.144376,-0.103866,1.986432,42.387737,-25.491837,-3.376589,0.506681,1.936446,-0.208878,0.000000,0.000000,0.000000,0.000000,0.000000,0.000000
13088186.000000,-2.317027,-1.663408,1.196475,-1.438400,1.717466,1.265937,-0.579026,0.401843,-0.007021,1.232396,-0.404859,-0.282683,1.140531,-0.102578,1.911054,42.316326,-25.789383,-3.547182,0.416959,2.098495,-0.182328,0.000000,0.000000,0.000000,0.000000,0.000000,0.000000
13088187.000000,-2.316626,-1.663403,1.197733,-1.438802,1.717188,1.267087,-0.579126,0.400601,-0.003816,1.235412,-0.400818,-0.279543,1.136766,-0.099884,1.934858,42.094158,-26.205948,-3.570986,0.446256,2.196456,-0.196061,0.000000,0.000000,0.000000,0.000000,0.000000,0.000000
13088188.000000,-2.316225,-1.663408,1.198955,-1.439190,1.716907,1.268225,-0.579223,0.400966,-0.002011,1.232197,-0.395643,-0.281790,1.142293,-0.097614,1.934858,42.022747,-26.424149,-3.570986,0.482877,2.196456,-0.221696,0.000000,0.000000,0.000000,0.000000,0.000000,0.000000
13088189.000000,-2.315814,-1.663419,1.200183,-1.439586,1.716630,1.269372,-0.579323,0.404900,-0.005928,1.222700,-0.393729,-0.280049,1.139102,-0.103265,1.764264,42.046551,-26.574905,-3.475771,0.559781,2.163497,-0.175919,0.000000,0.000000,0.000000,0.000000,0.000000,0.000000
13088190.000000,-2.315414,-1.663424,1.201381,-1.439978,1.716361,1.270499,-0.579418,0.403702,-0.006150,1.216305,-0.392353,-0.271874,1.138771,-0.099585,1.764264,41.971172,-26.475723,-3.348818,0.596403,2.150680,-0.208878,0.000000,0.000000,0.000000,0.000000,0.000000,0.000000
13088191.000000,-2.315015,-1.663430,1.202590,-1.440357,1.716101,1.271638,-0.579518,0.403879,-0.007089,1.211776,-0.392349,-0.273599,1.133202,-0.100593,1.740461,41.923565,-26.253555,-3.325014,0.613798,2.150680,-0.149369,0.000000,0.000000,0.000000,0.000000,0.000000,0.000000
13088192.000000,-2.314614,-1.663440,1.203811,-1.440736,1.715844,1.272770,-0.579607,0.401949,-0.005690,1.209061,-0.385884,-0.268375,1.121604,-0.096380,1.764264,41.923565,-26.154373,-3.301210,0.542386,2.228500,-0.202470,0.000000,0.000000,0.000000,0.000000,0.000000,0.000000
13088193.000000,-2.314225,-1.663447,1.204992,-1.441107,1.715579,1.273903,-0.579700,0.394479,-0.006990,1.199774,-0.382821,-0.269979,1.122486,-0.096188,1.811872,41.899761,-25.737808,-3.348818,0.494779,2.150680,-0.196061,0.000000,0.000000,0.000000,0.000000,0.000000,0.000000
13088194.000000,-2.313837,-1.663451,1.206210,-1.441479,1.715320,1.275050,-0.579796,0.390917,-0.004248,1.200246,-0.382163,-0.267631,1.121691,-0.092802,1.911054,41.848186,-25.714005,-3.325014,0.464567,2.047225,-0.155778,0.000000,0.000000,0.000000,0.000000,0.000000,0.000000
13088195.000000,-2.313449,-1.663462,1.207394,-1.441846,1.715066,1.276180,-0.579880,0.390230,-0.007241,1.197812,-0.375637,-0.263062,1.143301,-0.091448,2.061811,41.875957,-25.491837,-3.376589,0.374845,1.988631,-0.196061,0.000000,0.000000,0.000000,0.000000,0.000000,0.000000
13088196.000000,-2.313069,-1.663468,1.208600,-1.442211,1.714806,1.277322,-0.579971,0.387218,-0.007502,1.193817,-0.372528,-0.259972,1.141243,-0.093298,2.208601,41.824383,-25.444229,-3.400392,0.398649,1.981307,-0.155778,0.000000,0.000000,0.000000,0.000000,0.000000,0.000000
13088197.000000,-2.312688,-1.663472,1.209807,-1.442577,1.714541,1.278471,-0.580053,0.382014,-0.007861,1.192224,-0.371357,-0.264362,1.142074,-0.091994,2.307783,41.776775,-25.345047,-3.376589,0.488370,1.909896,-0.196061,0.000000,0.000000,0.000000,0.000000,0.000000,0.000000
13088198.000000,-2.312318,-1.663472,1.210995,-1.442939,1.714281,1.279619,-0.580137,0.385656,-0.006488,1.189966,-0.367852,-0.263447,1.147127,-0.092213,2.430768,41.653790,-25.297440,-3.475771,0.488370,1.727706,-0.215287,0.000000,0.000000,0.000000,0.000000,0.000000,0.000000
13088199.000000,-2.311944,-1.663475,1.212198,-1.443295,1.714031,1.280758,-0.580233,0.382902,-0.006099,1.190373,-0.360580,-0.258690,1.141329,-0.091262,2.605329,41.554607,-25.368851,-3.499574,0.488370,1.714889,-0.130143,0.000000,0.000000,0.000000,0.000000,0.000000,0.000000
13088200.000000,-2.311570,-1.663470,1.213387,-1.443649,1.713788,1.281896,-0.580320,0.378160,-0.001586,1.205480,-0.356612,-0.253093,1.140617,-0.090748,2.779890,41.407818,-25.198257,-3.570986,0.428861,1.806442,-0.155778,0.000000,0.000000,0.000000,0.000000,0.000000,0.000000
13088201.000000,-2.311202,-1.663474,1.214554,-1.444001,1.713532,1.283019,-0.580398,0.374259,-0.001216,1.200487,-0.360539,-0.253091,1.140052,-0.084942,2.851301,41.384014,-24.952286,-3.547182,0.482877,1.884261,-0.208878,0.000000,0.000000,0.000000,0.000000,0.000000,0.000000
13088202.000000,-2.310830,-1.663469,1.215720,-1.444355,1.713284,1.284151,-0.580482,0.371297,0.001530,1.186471,-0.363838,-0.255229,1.141405,-0.082238,2.879072,41.261028,-24.583328,-3.448000,0.476469,2.014266,-0.221696,0.000000,0.000000,0.000000,0.000000,0.000000,0.000000
13088203.000000,-2.310452,-1.663455,1.216872,-1.444711,1.713035,1.285274,-0.580572,0.371128,0.005722,1.180495,-0.360395,-0.250535,1.144481,-0.087740,2.851301,41.042828,-24.289749,-3.325014,0.440763,2.020675,-0.155778,0.000000,0.000000,0.000000,0.000000,0.000000,0.000000
13088204.000000,-2.310076,-1.663442,1.218052,-1.445054,1.712794,1.286426,-0.580648,0.373719,0.007503,1.173986,-0.357486,-0.248472,1.144421,-0.087390,2.803693,40.872234,-24.242142,-3.225832,0.416959,1.930038,-0.208878,0.000000,0.000000,0.000000,0.000000,0.000000,0.000000
13088205.000000,-2.309699,-1.663427,1.219235,-1.445403,1.712556,1.287587,-0.580740,0.372312,0.008859,1.173979,-0.353635,-0.242123,1.138522,-0.091414,2.752119,40.697674,-24.190567,-3.154421,0.393156,1.754256,-0.149369,0.000000,0.000000,0.000000,0.000000,0.000000,0.000000
13088206.000000,-2.309337,-1.663415,1.220419,-1.445749,1.712311,1.288725,-0.580820,0.369049,0.011550,1.181773,-0.348772,-0.239497,1.137081,-0.086527,2.803693,40.578655,-24.436539,-3.079042,0.434354,1.637069,-0.169511,0.000000,0.000000,0.000000,0.000000,0.000000,0.000000
13088207.000000,-2.308972,-1.663402,1.221609,-1.446076,1.712072,1.289866,-0.580895,0.367073,0.011351,1.174845,-0.344413,-0.240690,1.127431,-0.082535,2.827497,40.427898,-24.611099,-3.154421,0.428861,1.643478,-0.202470,0.000000,0.000000,0.000000,0.000000,0.000000,0.000000
13088208.000000,-2.308608,-1.663394,1.222798,-1.446410,1.711829,1.290987,-0.580987,0.367606,0.009889,1.180029,-0.338769,-0.242075,1.124593,-0.083410,2.902875,40.332684,-25.027664,-3.202028,0.452665,1.741439,-0.130143,0.000000,0.000000,0.000000,0.000000,0.000000,0.000000
13088209.000000,-2.308251,-1.663392,1.223995,-1.446727,1.711593,1.292117,-0.581056,0.365240,0.006663,1.184053,-0.335345,-0.242508,1.123293,-0.078166,2.978254,40.332684,-25.345047,-3.348818,0.482877,1.838485,-0.215287,0.000000,0.000000,0.000000,0.000000,0.000000,0.000000
13088210.000000,-2.307886,-1.663385,1.225182,-1.447051,1.711363,1.293240,-0.581139,0.365263,0.006258,1.183044,-0.330214,-0.237532,1.120824,-0.078498,2.950483,40.257305,-25.396622,-3.499574,0.470060,1.974899,-0.202470,0.000000,0.000000,0.000000,0.000000,0.000000,0.000000
13088211.000000,-2.307528,-1.663381,1.226359,-1.447375,1.711132,1.294351,-0.581222,0.360671,0.004768,1.181588,-0.328321,-0.234583,1.117619,-0.079815,2.879072,40.233501,-25.519608,-3.570986,0.476469,2.027084,-0.149369,0.000000,0.000000,0.000000,0.000000,0.000000,0.000000
13088212.000000,-2.307163,-1.663381,1.227532,-1.447688,1.710915,1.295472,-0.581295,0.359489,0.003209,1.172007,-0.323858,-0.229026,1.114400,-0.080728,2.827497,40.233501,-25.368851,-3.646364,0.381254,2.047225,-0.221696,0.000000,0.000000,0.000000,0.000000,0.000000,0.000000
13088213.000000,-2.306786,-1.663377,1.228685,-1.448016,1.710683,1.296591,-0.581384,0.362185,0.002718,1.166115,-0.324695,-0.231960,1.142025,-0.082498,2.629133,40.209698,-25.150650,-3.499574,0.351041,2.020675,-0.149369,0.000000,0.000000,0.000000,0.000000,0.000000,0.000000
13088214.000000,-2.306424,-1.663377,1.229848,-1.448334,1.710455,1.297730,-0.581465,0.361276,0.003984,1.157845,-0.323127,-0.227008,1.145130,-0.080687,2.529951,40.257305,-24.880875,-3.325014,0.369352,1.884261,-0.149369,0.000000,0.000000,0.000000,0.000000,0.000000,0.000000
13088215.000000,-2.306051,-1.663376,1.231007,-1.448650,1.710231,1.298879,-0.581545,0.362223,0.005997,1.152036,-0.319284,-0.227425,1.146489,-0.078841,2.331586,40.257305,-24.488113,-3.249635,0.386747,1.727706,-0.163102,0.000000,0.000000,0.000000,0.000000,0.000000,0.000000
13088216.000000,-2.305690,-1.663373,1.232172,-1.448974,1.710007,1.299999,-0.581628,0.370579,0.007621,1.154934,-0.319355,-0.224230,1.142101,-0.078397,2.260175,40.257305,-24.488113,-3.055238,0.446256,1.630660,-0.149369,0.000000,0.000000,0.000000,0.000000,0.000000,0.000000
13088217.000000,-2.305325,-1.663367,1.233329,-1.449272,1.709799,1.301129,-0.581709,0.371080,0.006808,1.154185,-0.316572,-0.221785,1.132183,-0.077786,2.133222,40.209698,-24.218338,-3.102846,0.369352,1.630660,-0.155778,0.000000,0.000000,0.000000,0.000000,0.000000,0.000000
13088218.000000,-2.304963,-1.663367,1.234499,-1.449572,1.709567,1.302263,-0.581788,0.370422,0.003886,1.151123,-0.310403,-0.225068,1.121957,-0.077356,2.061811,40.257305,-24.119156,-3.178224,0.428861,1.656295,-0.149369,0.000000,0.000000,0.000000,0.000000,0.000000,0.000000
13088219.000000,-2.304610,-1.663364,1.235646,-1.449859,1.709343,1.303380,-0.581859,0.365573,0.002936,1.153456,-0.309525,-0.221125,1.116905,-0.074978,2.061811,40.257305,-23.948563,-3.325014,0.446256,1.747848,-0.202470,0.000000,0.000000,0.000000,0.000000,0.000000,0.000000
13088220.000000,-2.304249,-1.663361,1.236817,-1.450145,1.709135,1.304505,-0.581941,0.361736,0.002216,1.153089,-0.305831,-0.218749,1.108390,-0.081398,1.911054,40.257305,-24.019974,-3.547182,0.356534,1.903487,-0.163102,0.000000,0.000000,0.000000,0.000000,0.000000,0.000000
13088221.000000,-2.303879,-1.663349,1.237965,-1.450445,1.708918,1.305627,-0.582015,0.361285,0.007724,1.149847,-0.303360,-0.215831,1.108530,-0.079083,1.665082,40.134319,-24.071548,-3.499574,0.362943,1.968490,-0.182328,0.000000,0.000000,0.000000,0.000000,0.000000,0.000000
13088222.000000,-2.303510,-1.663341,1.239124,-1.450727,1.708720,1.306773,-0.582086,0.364242,0.013561,1.149164,-0.292511,-0.214466,1.113517,-0.077247,1.391340,40.062908,-23.996170,-3.570986,0.285123,1.884261,-0.208878,0.000000,0.000000,0.000000,0.000000,0.000000,0.000000
13088223.000000,-2.303139,-1.663332,1.240282,-1.451023,1.708502,1.307913,-0.582166,0.365080,0.014807,1.149417,-0.293671,-0.214722,1.120049,-0.083038,1.145368,39.987530,-23.896988,-3.499574,0.332731,1.851302,-0.169511,0.000000,0.000000,0.000000,0.000000,0.000000,0.000000
13088224.000000,-2.302765,-1.663317,1.241414,-1.451314,1.708278,1.309034,-0.582236,0.368591,0.017226,1.144191,-0.293403,-0.215132,1.122601,-0.080063,0.796247,39.840740,-23.702591,-3.475771,0.393156,1.877853,-0.196061,0.000000,0.000000,0.000000,0.000000,0.000000,0.000000
13088225.000000,-2.302389,-1.663301,1.242550,-1.451589,1.708072,1.310163,-0.582312,0.372271,0.019016,1.130130,-0.287009,-0.211541,1.118725,-0.081489,0.403486,39.693951,-23.432816,-3.570986,0.351041,1.871444,-0.130143,0.000000,0.000000,0.000000,0.000000,0.000000,0.000000
13088226.000000,-2.302007,-1.663285,1.243684,-1.451876,1.707857,1.311289,-0.582376,0.376033,0.019148,1.132184,-0.288033,-0.211309,1.125283,-0.077336,0.078168,39.598736,-23.309830,-3.547182,0.393156,1.800033,-0.196061,0.000000,0.000000,0.000000,0.000000,0.000000,0.000000
13088227.000000,-2.301635,-1.663271,1.244831,-1.452147,1.707656,1.312416,-0.582446,0.373146,0.015519,1.136036,-0.283679,-0.209157,1.133064,-0.071783,-0.144000,39.523357,-23.163040,-3.622560,0.362943,1.793624,-0.208878,0.000000,0.000000,0.000000,0.000000,0.000000,0.000000
13088228.000000,-2.301261,-1.663258,1.245990,-1.452409,1.707460,1.313555,-0.582521,0.369620,0.012202,1.135409,-0.276195,-0.206500,1.134823,-0.074802,-0.314593,39.475750,-23.258255,-3.745546,0.303434,1.735030,-0.155778,0.000000,0.000000,0.000000,0.000000,0.000000,0.000000
13088229.000000,-2.300898,-1.663247,1.247149,-1.452674,1.707259,1.314662,-0.582589,0.367075,0.009249,1.144998,-0.270650,-0.205193,1.124041,-0.069148,-0.465350,39.451946,-23.528030,-3.868532,0.273221,1.760665,-0.182328,0.000000,0.000000,0.000000,0.000000,0.000000,0.000000
13088230.000000,-2.300537,-1.663232,1.248323,-1.452931,1.707056,1.315782,-0.582654,0.364313,0.014695,1.146583,-0.267849,-0.200430,1.112418,-0.065159,-0.564532,39.376568,-23.849380,-3.943910,0.249418,1.825668,-0.208878,0.000000,0.000000,0.000000,0.000000,0.000000,0.000000
13088231.000000,-2.300170,-1.663219,1.249479,-1.453183,1.706853,1.316897,-0.582721,0.363603,0.011196,1.169048,-0.262167,-0.197455,1.120807,-0.067468,-0.711321,39.352764,-24.190567,-4.019289,0.249418,1.930038,-0.215287,0.000000,0.000000,0.000000,0.000000,0.000000,0.000000
13088232.000000,-2.299820,-1.663216,1.250644,-1.453434,1.706651,1.318006,-0.582799,0.359350,0.006333,1.163125,-0.258338,-0.201074,1.118659,-0.072849,-0.687518,39.428143,-24.388931,-4.090700,0.273221,1.974899,-0.116410,0.000000,0.000000,0.000000,0.000000,0.000000,0.000000
13088233.000000,-2.299467,-1.663212,1.251811,-1.453685,1.706456,1.319125,-0.582855,0.356089,0.006196,1.157151,-0.255278,-0.202970,1.111404,-0.065830,-0.687518,39.499554,-24.535721,-4.166078,0.285123,2.001449,-0.188737,0.000000,0.000000,0.000000,0.000000,0.000000,0.000000
13088234.000000,-2.299116,-1.663206,1.252950,-1.453926,1.706264,1.320226,-0.582919,0.358200,0.006796,1.154311,-0.245426,-0.198792,1.110853,-0.063026,-0.786700,39.547161,-24.559525,-4.289064,0.279630,2.047225,-0.208878,0.000000,0.000000,0.000000,0.000000,0.000000,0.000000
13088235.000000,-2.298765,-1.663198,1.254095,-1.454174,1.706067,1.321344,-0.582987,0.356155,0.004609,1.145699,-0.248684,-0.195855,1.106251,-0.063172,-0.786700,39.574932,-24.412735,-4.241457,0.273221,2.033492,-0.163102,0.000000,0.000000,0.000000,0.000000,0.000000,0.000000
13088236.000000,-2.298410,-1.663194,1.255214,-1.454420,1.705863,1.322462,-0.583051,0.352371,0.005799,1.140675,-0.246776,-0.198790,1.104185,-0.065387,-0.834307,39.622540,-24.043777,-4.213686,0.273221,2.027084,-0.182328,0.000000,0.000000,0.000000,0.000000,0.000000,0.000000
13088237.000000,-2.298062,-1.663187,1.256346,-1.454660,1.705657,1.323571,-0.583118,0.353709,0.007020,1.139241,-0.242634,-0.197246,1.107063,-0.069169,-0.909686,39.646343,-23.678787,-4.189882,0.303434,2.007858,-0.149369,0.000000,0.000000,0.000000,0.000000,0.000000,0.000000
13088238.000000,-2.297716,-1.663177,1.257488,-1.454910,1.705461,1.324686,-0.583172,0.350009,0.008501,1.131229,-0.244586,-0.195447,1.110802,-0.067499,-0.933489,39.646343,-23.432816,-4.066896,0.315336,2.001449,-0.235429,0.000000,0.000000,0.000000,0.000000,0.000000,0.000000
13088239.000000,-2.297375,-1.663163,1.258622,-1.455155,1.705272,1.325796,-0.583241,0.346823,0.011334,1.136320,-0.242295,-0.190808,1.119744,-0.067106,-0.909686,39.574932,-23.309830,-4.090700,0.255826,1.936446,-0.175919,0.000000,0.000000,0.000000,0.000000,0.000000,0.000000
13088240.000000,-2.297047,-1.663148,1.259763,-1.455394,1.705086,1.326919,-0.583301,0.341194,0.010205,1.132530,-0.240469,-0.191928,1.119106,-0.069401,-0.762896,39.499554,-23.186844,-4.142274,0.213712,1.786300,-0.169511,0.000000,0.000000,0.000000,0.000000,0.000000,0.000000
13088241.000000,-2.296721,-1.663133,1.260905,-1.455636,1.704894,1.328047,-0.583361,0.333201,0.009138,1.130802,-0.241504,-0.192816,1.121557,-0.066031,-0.588336,39.428143,-23.087662,-4.090700,0.255826,1.676437,-0.175919,0.000000,0.000000,0.000000,0.000000,0.000000,0.000000
13088242.000000,-2.296399,-1.663115,1.262041,-1.455877,1.704701,1.329149,-0.583423,0.331752,0.012611,1.132709,-0.241150,-0.190249,1.110015,-0.063700,-0.441546,39.305157,-23.111465,-4.090700,0.219205,1.670028,-0.175919,0.000000,0.000000,0.000000,0.000000,0.000000,0.000000
13088243.000000,-2.296083,-1.663097,1.263195,-1.456113,1.704508,1.330263,-0.583480,0.326073,0.015089,1.134155,-0.237321,-0.185943,1.106116,-0.061148,-0.243182,39.182171,-23.258255,-4.090700,0.237516,1.727706,-0.196061,0.000000,0.000000,0.000000,0.000000,0.000000,0.000000
13088244.000000,-2.295770,-1.663079,1.264314,-1.456346,1.704322,1.331370,-0.583543,0.322835,0.016849,1.135621,-0.232862,-0.182219,1.103927,-0.061738,-0.068621,39.059185,-23.186844,-4.142274,0.255826,1.721298,-0.149369,0.000000,0.000000,0.000000,0.000000,0.000000,0.000000
13088245.000000,-2.295464,-1.663066,1.265452,-1.456577,1.704130,1.332485,-0.583596,0.316486,0.016333,1.130725,-0.232042,-0.185845,1.101800,-0.058720,0.153547,39.011578,-23.163040,-4.118471,0.303434,1.735030,-0.196061,0.000000,0.000000,0.000000,0.000000,0.000000,0.000000
13088246.000000,-2.295145,-1.663053,1.266588,-1.456817,1.703946,1.333606,-0.583652,0.314963,0.016149,1.128115,-0.232399,-0.187277,1.099105,-0.057124,0.205121,38.960003,-23.040054,-4.043092,0.332731,1.754256,-0.235429,0.000000,0.000000,0.000000,0.000000,0.000000,0.000000
13088247.000000,-2.294842,-1.663031,1.267700,-1.457059,1.703773,1.334706,-0.583716,0.312762,0.015680,1.131019,-0.233498,-0.184275,1.102821,-0.054172,0.328107,38.789410,-22.841690,-3.920107,0.255826,1.779891,-0.188737,0.000000,0.000000,0.000000,0.000000,0.000000,0.000000
13088248.000000,-2.294538,-1.663015,1.268822,-1.457291,1.703595,1.335825,-0.583778,0.311527,0.016641,1.121762,-0.231135,-0.179424,1.109133,-0.055033,0.427289,38.690228,-22.623489,-3.797121,0.219205,1.773483,-0.182328,0.000000,0.000000,0.000000,0.000000,0.000000,0.000000
13088249.000000,-2.294236,-1.662994,1.269938,-1.457527,1.703407,1.336941,-0.583838,0.305597,0.017708,1.144431,-0.232329,-0.181927,1.138914,-0.060818,0.474897,38.571209,-22.500504,-3.670168,0.219205,1.611434,-0.169511,0.000000,0.000000,0.000000,0.000000,0.000000,0.000000
13088250.000000,-2.293941,-1.662977,1.271072,-1.457757,1.703222,1.338081,-0.583890,0.300910,0.020617,1.141370,-0.234467,-0.182721,1.143388,-0.057717,0.649457,38.495831,-22.472733,-3.570986,0.195402,1.467696,-0.215287,0.000000,0.000000,0.000000,0.000000,0.000000,0.000000
13088251.000000,-2.293645,-1.662955,1.272219,-1.457991,1.703040,1.339206,-0.583959,0.295266,0.022499,1.139008,-0.234968,-0.180026,1.134845,-0.060202,0.772443,38.301434,-22.647293,-3.448000,0.207303,1.442062,-0.142960,0.000000,0.000000,0.000000,0.000000,0.000000,0.000000
13088252.000000,-2.293356,-1.662931,1.273362,-1.458221,1.702857,1.340313,-0.584013,0.297325,0.023156,1.143852,-0.234041,-0.178655,1.122914,-0.057461,0.947004,38.130840,-22.893265,-3.376589,0.249418,1.487838,-0.188737,0.000000,0.000000,0.000000,0.000000,0.000000,0.000000
13088253.000000,-2.293080,-1.662919,1.274510,-1.458449,1.702676,1.341427,-0.584072,0.285859,0.020349,1.140301,-0.234703,-0.182389,1.109455,-0.057676,1.244550,38.103069,-23.087662,-3.376589,0.279630,1.617843,-0.182328,0.000000,0.000000,0.000000,0.000000,0.000000,0.000000
13088254.000000,-2.292805,-1.662900,1.275672,-1.458679,1.702495,1.342546,-0.584128,0.281991,0.019492,1.144472,-0.233703,-0.185072,1.105864,-0.058018,1.490522,38.031658,-23.480423,-3.301210,0.308927,1.773483,-0.163102,0.000000,0.000000,0.000000,0.000000,0.000000,0.000000
13088255.000000,-2.292530,-1.662887,1.276812,-1.458903,1.702321,1.343649,-0.584182,0.278739,0.017897,1.146681,-0.232920,-0.183700,1.109574,-0.056721,1.641279,38.007854,-23.750198,-3.249635,0.249418,1.903487,-0.188737,0.000000,0.000000,0.000000,0.000000,0.000000,0.000000
13088256.000000,-2.292255,-1.662870,1.277960,-1.459128,1.702140,1.344764,-0.584237,0.274413,0.017951,1.142234,-0.232760,-0.184884,1.104964,-0.057282,1.835676,37.932476,-23.849380,-3.178224,0.243009,2.007858,-0.175919,0.000000,0.000000,0.000000,0.000000,0.000000,0.000000
13088257.000000,-2.291969,-1.662849,1.279090,-1.459362,1.701959,1.345875,-0.584289,0.275786,0.019532,1.142438,-0.230139,-0.181675,1.109897,-0.056563,1.835676,37.785686,-23.873184,-3.055238,0.261320,1.974899,-0.188737,0.000000,0.000000,0.000000,0.000000,0.000000,0.000000
13088258.000000,-2.291692,-1.662825,1.280222,-1.459600,1.701788,1.346987,-0.584343,0.279100,0.020689,1.132586,-0.232744,-0.186902,1.112136,-0.057020,1.863447,37.638897,-23.750198,-2.757692,0.261320,1.962081,-0.175919,0.000000,0.000000,0.000000,0.000000,0.000000,0.000000
13088259.000000,-2.291412,-1.662810,1.281362,-1.459841,1.701612,1.348105,-0.584395,0.278846,0.015966,1.128075,-0.233932,-0.184863,1.114420,-0.051962,1.835676,37.591290,-23.579605,-2.460146,0.327238,1.936446,-0.182328,0.000000,0.000000,0.000000,0.000000,0.000000,0.000000
13088260.000000,-2.291136,-1.662795,1.282478,-1.460079,1.701432,1.349210,-0.584446,0.277773,0.015679,1.130479,-0.235681,-0.188033,1.118657,-0.052458,1.740461,37.539715,-23.333633,-2.261781,0.398649,1.832076,-0.202470,0.000000,0.000000,0.000000,0.000000,0.000000,0.000000
13088261.000000,-2.290869,-1.662777,1.283607,-1.460311,1.701271,1.350326,-0.584495,0.274648,0.016189,1.118521,-0.236245,-0.181648,1.115613,-0.053362,1.863447,37.468304,-23.135269,-2.091188,0.362943,1.806442,-0.208878,0.000000,0.000000,0.000000,0.000000,0.000000,0.000000
13088262.000000,-2.290602,-1.662761,1.284733,-1.460537,1.701106,1.351410,-0.584547,0.272876,0.015989,1.121895,-0.230304,-0.180805,1.124986,-0.054410,1.962629,37.420696,-23.087662,-2.039613,0.308927,1.858627,-0.202470,0.000000,0.000000,0.000000,0.000000,0.000000,0.000000
13088263.000000,-2.290340,-1.662753,1.285863,-1.460753,1.700937,1.352535,-0.584595,0.269006,0.013098,1.122386,-0.225630,-0.180823,1.118041,-0.054749,2.061811,37.492107,-22.964676,-2.039613,0.261320,1.727706,-0.215287,0.000000,0.000000,0.000000,0.000000,0.000000,0.000000
13088264.000000,-2.290076,-1.662744,1.287002,-1.460971,1.700764,1.353657,-0.584645,0.268529,0.011644,1.121722,-0.220998,-0.179190,1.115217,-0.051285,2.160993,37.539715,-22.940872,-2.091188,0.285123,1.637069,-0.196061,0.000000,0.000000,0.000000,0.000000,0.000000,0.000000
13088265.000000,-2.289820,-1.662726,1.288136,-1.461192,1.700595,1.354753,-0.584694,0.267418,0.013563,1.127210,-0.219774,-0.177549,1.111493,-0.048154,2.260175,37.468304,-23.040054,-2.063417,0.315336,1.721298,-0.188737,0.000000,0.000000,0.000000,0.000000,0.000000,0.000000
13088266.000000,-2.289558,-1.662717,1.289280,-1.461403,1.700440,1.355859,-0.584743,0.264154,0.012663,1.128993,-0.218771,-0.174638,1.100847,-0.046217,2.260175,37.492107,-23.111465,-2.039613,0.297025,1.819259,-0.182328,0.000000,0.000000,0.000000,0.000000,0.000000,0.000000
13088267.000000,-2.289293,-1.662712,1.290397,-1.461613,1.700273,1.356990,-0.584789,0.266216,0.010304,1.147830,-0.213854,-0.176056,1.104515,-0.047938,2.184797,37.591290,-23.087662,-2.039613,0.374845,1.689254,-0.202470,0.000000,0.000000,0.000000,0.000000,0.000000,0.000000
13088268.000000,-2.289035,-1.662706,1.291532,-1.461822,1.700106,1.358111,-0.584842,0.261731,0.009376,1.138552,-0.213682,-0.176972,1.109586,-0.051904,2.232404,37.662701,-23.111465,-2.039613,0.452665,1.507064,-0.155778,0.000000,0.000000,0.000000,0.000000,0.000000,0.000000
13088269.000000,-2.288763,-1.662696,1.292662,-1.462031,1.699951,1.359218,-0.584883,0.265305,0.009902,1.128005,-0.208489,-0.173627,1.112000,-0.050659,2.085615,37.686504,-23.016251,-1.992006,0.422452,1.552840,-0.215287,0.000000,0.000000,0.000000,0.000000,0.000000,0.000000
13088270.000000,-2.288496,-1.662684,1.293766,-1.462235,1.699794,1.360301,-0.584936,0.269192,0.008196,1.127921,-0.207559,-0.169655,1.110540,-0.054003,1.962629,37.662701,-22.817886,-1.940431,0.356534,1.721298,-0.169511,0.000000,0.000000,0.000000,0.000000,0.000000,0.000000
13088271.000000,-2.288231,-1.662676,1.294871,-1.462432,1.699635,1.361415,-0.584987,0.267241,0.005686,1.113422,-0.206358,-0.165616,1.115682,-0.050813,1.835676,37.686504,-22.472733,-1.916628,0.374845,1.708480,-0.142960,0.000000,0.000000,0.000000,0.000000,0.000000,0.000000
13088272.000000,-2.287965,-1.662668,1.295989,-1.462629,1.699477,1.362536,-0.585030,0.266242,0.006903,1.106862,-0.200848,-0.161806,1.115455,-0.045714,1.665082,37.714275,-22.202957,-1.940431,0.374845,1.708480,-0.188737,0.000000,0.000000,0.000000,0.000000,0.000000,0.000000
13088273.000000,-2.287709,-1.662653,1.297105,-1.462816,1.699331,1.363628,-0.585073,0.263626,0.010214,1.118279,-0.196040,-0.160883,1.105117,-0.043291,1.589704,37.638897,-22.230728,-2.015810,0.297025,1.747848,-0.202470,0.000000,0.000000,0.000000,0.000000,0.000000,0.000000
13088274.000000,-2.287446,-1.662634,1.298237,-1.463002,1.699191,1.364749,-0.585117,0.262219,0.012973,1.114482,-0.193348,-0.156968,1.096686,-0.041992,1.490522,37.539715,-22.377518,-2.063417,0.255826,1.708480,-0.202470,0.000000,0.000000,0.000000,0.000000,0.000000,0.000000
13088275.000000,-2.287181,-1.662624,1.299370,-1.463189,1.699041,1.365859,-0.585170,0.260981,0.009495,1.122781,-0.191557,-0.151547,1.100898,-0.043053,1.391340,37.539715,-22.671097,-2.091188,0.279630,1.597701,-0.142960,0.000000,0.000000,0.000000,0.000000,0.000000,0.000000
13088276.000000,-2.286924,-1.662614,1.300514,-1.463373,1.698892,1.366970,-0.585207,0.260141,0.009481,1.128363,-0.189881,-0.151940,1.108918,-0.039097,1.292158,37.567486,-22.964676,-2.138796,0.315336,1.591293,-0.208878,0.000000,0.000000,0.000000,0.000000,0.000000,0.000000
13088277.000000,-2.286662,-1.662599,1.301666,-1.463555,1.698745,1.368077,-0.585255,0.259910,0.011998,1.127904,-0.185572,-0.153762,1.107438,-0.040509,1.169172,37.492107,-23.357437,-2.190370,0.374845,1.662704,-0.163102,0.000000,0.000000,0.000000,0.000000,0.000000,0.000000
13088278.000000,-2.286412,-1.662590,1.302808,-1.463729,1.698598,1.369153,-0.585294,0.258983,0.010851,1.130559,-0.181911,-0.151751,1.098887,-0.039259,1.093793,37.539715,-23.726395,-2.261781,0.351041,1.819259,-0.175919,0.000000,0.000000,0.000000,0.000000,0.000000,0.000000
13088279.000000,-2.286159,-1.662585,1.303952,-1.463887,1.698449,1.370262,-0.585331,0.254876,0.006905,1.131764,-0.173690,-0.151399,1.097339,-0.037193,1.022382,37.591290,-23.920792,-2.436342,0.351041,1.793624,-0.221696,0.000000,0.000000,0.000000,0.000000,0.000000,0.000000
13088280.000000,-2.285909,-1.662581,1.305068,-1.464046,1.698299,1.371341,-0.585378,0.254032,0.003590,1.126025,-0.171061,-0.151759,1.118162,-0.039888,0.994611,37.662701,-23.972366,-2.583132,0.369352,1.819259,-0.155778,0.000000,0.000000,0.000000,0.000000,0.000000,0.000000
13088281.000000,-2.285654,-1.662575,1.306192,-1.464202,1.698159,1.372429,-0.585412,0.256450,0.004840,1.120753,-0.165918,-0.149615,1.105079,-0.037526,0.847822,37.714275,-23.873184,-2.757692,0.320829,1.884261,-0.202470,0.000000,0.000000,0.000000,0.000000,0.000000,0.000000
13088282.000000,-2.285395,-1.662576,1.307311,-1.464371,1.698018,1.373523,-0.585453,0.253894,0.004137,1.116411,-0.167936,-0.145172,1.096946,-0.038392,0.724836,37.833294,-23.579605,-2.682314,0.320829,1.909896,-0.175919,0.000000,0.000000,0.000000,0.000000,0.000000,0.000000
13088283.000000,-2.285138,-1.662574,1.308417,-1.464531,1.697871,1.374603,-0.585497,0.262160,0.001168,1.112622,-0.163455,-0.147458,1.086855,-0.038949,0.526471,37.932476,-23.357437,-2.706117,0.351041,1.949264,-0.155778,0.000000,0.000000,0.000000,0.000000,0.000000,0.000000
13088284.000000,-2.284884,-1.662576,1.309527,-1.464688,1.697739,1.375708,-0.585529,0.258591,0.001737,1.104404,-0.161851,-0.141875,1.081776,-0.041032,0.403486,38.055462,-22.988480,-2.658510,0.308927,1.851302,-0.221696,0.000000,0.000000,0.000000,0.000000,0.000000,0.000000
13088285.000000,-2.284626,-1.662574,1.310651,-1.464838,1.697604,1.376845,-0.585576,0.256841,-0.000477,1.132316,-0.158316,-0.142827,1.095454,-0.043204,0.228925,38.154644,-23.040054,-2.682314,0.273221,1.565658,-0.142960,0.000000,0.000000,0.000000,0.000000,0.000000,0.000000
13088286.000000,-2.284389,-1.662568,1.311772,-1.464982,1.697466,1.377954,-0.585609,0.248244,-0.000362,1.133284,-0.156589,-0.138009,1.101379,-0.039707,0.228925,38.178448,-22.917068,-2.781496,0.213712,1.377059,-0.196061,0.000000,0.000000,0.000000,0.000000,0.000000,0.000000
13088287.000000,-2.284144,-1.662567,1.312907,-1.465123,1.697322,1.379060,-0.585654,0.245103,-0.000970,1.127011,-0.149900,-0.137542,1.101796,-0.041503,0.228925,38.226055,-22.964676,-2.880678,0.237516,1.357833,-0.136552,0.000000,0.000000,0.000000,0.000000,0.000000,0.000000
13088288.000000,-2.283905,-1.662567,1.314019,-1.465253,1.697174,1.380139,-0.585691,0.241407,0.000929,1.125226,-0.139021,-0.137709,1.097919,-0.039966,0.304304,38.301434,-22.940872,-3.102846,0.285123,1.546432,-0.149369,0.000000,0.000000,0.000000,0.000000,0.000000,0.000000
13088289.000000,-2.283672,-1.662565,1.315148,-1.465374,1.697029,1.381226,-0.585724,0.236446,0.001090,1.125997,-0.134975,-0.142555,1.097397,-0.038873,0.351911,38.301434,-22.964676,-3.301210,0.351041,1.767074,-0.163102,0.000000,0.000000,0.000000,0.000000,0.000000,0.000000
13088290.000000,-2.283428,-1.662562,1.316274,-1.465498,1.696894,1.382342,-0.585757,0.239096,0.001080,1.123185,-0.130871,-0.138825,1.100350,-0.037112,0.252729,38.301434,-22.988480,-3.400392,0.327238,1.812850,-0.202470,0.000000,0.000000,0.000000,0.000000,0.000000,0.000000
13088291.000000,-2.283195,-1.662551,1.317385,-1.465616,1.696760,1.383446,-0.585793,0.236833,0.004418,1.117368,-0.127321,-0.135452,1.101931,-0.037591,0.205121,38.154644,-23.040054,-3.523378,0.285123,1.767074,-0.196061,0.000000,0.000000,0.000000,0.000000,0.000000,0.000000
13088292.000000,-2.282950,-1.662553,1.318512,-1.465743,1.696629,1.384563,-0.585831,0.237719,0.003144,1.116512,-0.124544,-0.132919,1.095788,-0.039232,0.030561,38.154644,-23.087662,-3.523378,0.237516,1.714889,-0.155778,0.000000,0.000000,0.000000,0.000000,0.000000,0.000000
13088293.000000,-2.282710,-1.662548,1.319603,-1.465868,1.696499,1.385653,-0.585861,0.239091,0.004008,1.109593,-0.126314,-0.135852,1.090017,-0.031556,-0.167803,38.079266,-22.893265,-3.475771,0.195402,1.741439,-0.221696,0.000000,0.000000,0.000000,0.000000,0.000000,0.000000
13088294.000000,-2.282462,-1.662546,1.320714,-1.465992,1.696361,1.386758,-0.585900,0.241501,0.003341,1.105402,-0.125670,-0.135578,1.089815,-0.035733,-0.441546,38.055462,-22.718704,-3.376589,0.225614,1.800033,-0.155778,0.000000,0.000000,0.000000,0.000000,0.000000,0.000000
13088295.000000,-2.282218,-1.662543,1.321821,-1.466111,1.696224,1.387871,-0.585934,0.239940,0.002868,1.103447,-0.123745,-0.135672,1.091868,-0.035581,-0.612139,38.031658,-22.448929,-3.325014,0.255826,1.800033,-0.169511,0.000000,0.000000,0.000000,0.000000,0.000000,0.000000
13088296.000000,-2.281978,-1.662535,1.322930,-1.466225,1.696093,1.388981,-0.585966,0.240124,0.004295,1.104413,-0.119845,-0.132330,1.100891,-0.030442,-0.810504,37.932476,-22.548111,-3.376589,0.195402,1.702071,-0.196061,0.000000,0.000000,0.000000,0.000000,0.000000,0.000000
13088297.000000,-2.281744,-1.662535,1.324053,-1.466323,1.695960,1.390092,-0.585999,0.237867,0.003467,1.104226,-0.110483,-0.131812,1.099655,-0.033094,-0.909686,37.908672,-22.595718,-3.570986,0.178007,1.643478,-0.175919,0.000000,0.000000,0.000000,0.000000,0.000000,0.000000
13088298.000000,-2.281506,-1.662528,1.325179,-1.466421,1.695825,1.391188,-0.586030,0.236846,0.004110,1.112295,-0.106191,-0.134168,1.126280,-0.033924,-1.032672,37.833294,-22.893265,-3.797121,0.237516,1.617843,-0.182328,0.000000,0.000000,0.000000,0.000000,0.000000,0.000000
13088299.000000,-2.281280,-1.662528,1.326318,-1.466521,1.695692,1.392291,-0.586064,0.232211,0.002766,1.114914,-0.102157,-0.134586,1.117512,-0.035092,-1.108050,37.833294,-23.210648,-3.943910,0.267728,1.649886,-0.175919,0.000000,0.000000,0.000000,0.000000,0.000000,0.000000
13088300.000000,-2.281052,-1.662531,1.327471,-1.466623,1.695567,1.393369,-0.586095,0.228564,0.000658,1.116788,-0.103941,-0.133424,1.107243,-0.034785,-1.207232,37.884869,-23.702591,-4.019289,0.261320,1.884261,-0.202470,0.000000,0.000000,0.000000,0.000000,0.000000,0.000000
13088301.000000,-2.280828,-1.662534,1.328606,-1.466727,1.695443,1.394442,-0.586132,0.230936,-0.001217,1.121985,-0.103754,-0.132008,1.100158,-0.032054,-1.282611,37.956280,-24.095352,-4.019289,0.249418,2.033492,-0.169511,0.000000,0.000000,0.000000,0.000000,0.000000,0.000000
13088302.000000,-2.280599,-1.662542,1.329745,-1.466823,1.695323,1.395543,-0.586167,0.227510,-0.003677,1.119515,-0.103525,-0.131417,1.092098,-0.034392,-1.354022,38.079266,-24.313553,-4.019289,0.237516,1.955673,-0.155778,0.000000,0.000000,0.000000,0.000000,0.000000,0.000000
13088303.000000,-2.280369,-1.662542,1.330881,-1.466918,1.695205,1.396651,-0.586196,0.226088,-0.001886,1.140323,-0.102347,-0.124767,1.088250,-0.029880,-1.480975,38.055462,-24.365128,-4.043092,0.183500,1.871444,-0.169511,0.000000,0.000000,0.000000,0.000000,0.000000,0.000000
13088304.000000,-2.280146,-1.662546,1.332003,-1.467015,1.695086,1.397734,-0.586227,0.222636,-0.002365,1.131846,-0.103002,-0.124942,1.086074,-0.031397,-1.627764,38.103069,-24.436539,-3.991518,0.135892,1.865035,-0.182328,0.000000,0.000000,0.000000,0.000000,0.000000,0.000000
13088305.000000,-2.279917,-1.662555,1.333115,-1.467112,1.694963,1.398826,-0.586254,0.225212,-0.004449,1.122770,-0.100417,-0.131199,1.088286,-0.032032,-1.750750,38.226055,-24.166763,-3.943910,0.123990,1.955673,-0.208878,0.000000,0.000000,0.000000,0.000000,0.000000,0.000000
13088306.000000,-2.279693,-1.662566,1.334211,-1.467199,1.694828,1.399898,-0.586291,0.224294,-0.006396,1.111573,-0.096239,-0.134908,1.085120,-0.036315,-1.873736,38.372845,-23.873184,-3.991518,0.219205,1.974899,-0.136552,0.000000,0.000000,0.000000,0.000000,0.000000,0.000000
13088307.000000,-2.279475,-1.662575,1.335317,-1.467291,1.694696,1.400991,-0.586314,0.220014,-0.012935,1.105189,-0.094238,-0.135747,1.087614,-0.034316,-1.972918,38.472027,-23.528030,-3.991518,0.285123,1.968490,-0.196061,0.000000,0.000000,0.000000,0.000000,0.000000,0.000000
13088308.000000,-2.279261,-1.662577,1.336445,-1.467387,1.694573,1.402090,-0.586342,0.218660,-0.009707,1.110687,-0.093776,-0.130148,1.089116,-0.035026,-2.024493,38.495831,-23.456619,-3.943910,0.297025,2.001449,-0.202470,0.000000,0.000000,0.000000,0.000000,0.000000,0.000000
13088309.000000,-2.279048,-1.662579,1.337549,-1.467472,1.694458,1.403184,-0.586369,0.214089,-0.007424,1.111683,-0.087399,-0.123010,1.099918,-0.035344,-2.048296,38.519634,-23.357437,-4.019289,0.225614,1.877853,-0.215287,0.000000,0.000000,0.000000,0.000000,0.000000,0.000000
13088310.000000,-2.278834,-1.662590,1.338666,-1.467556,1.694340,1.404299,-0.586401,0.213858,-0.011188,1.106695,-0.083882,-0.124248,1.103019,-0.033516,-2.072100,38.642620,-23.258255,-4.043092,0.195402,1.695663,-0.155778,0.000000,0.000000,0.000000,0.000000,0.000000,0.000000
13088311.000000,-2.278624,-1.662599,1.339776,-1.467638,1.694218,1.405383,-0.586431,0.211118,-0.010814,1.107914,-0.084273,-0.126319,1.098260,-0.030389,-2.099871,38.765606,-23.286026,-4.066896,0.207303,1.611434,-0.136552,0.000000,0.000000,0.000000,0.000000,0.000000,0.000000
13088312.000000,-2.278420,-1.662604,1.340905,-1.467720,1.694106,1.406465,-0.586447,0.210175,-0.009238,1.111222,-0.084829,-0.124750,1.082335,-0.024200,-2.171282,38.837017,-23.432816,-4.090700,0.141385,1.747848,-0.221696,0.000000,0.000000,0.000000,0.000000,0.000000,0.000000
13088313.000000,-2.278218,-1.662617,1.342037,-1.467794,1.693989,1.407557,-0.586482,0.207199,-0.009861,1.115580,-0.080373,-0.122084,1.077636,-0.025701,-2.171282,38.983807,-23.528030,-4.189882,0.141385,1.819259,-0.149369,0.000000,0.000000,0.000000,0.000000,0.000000,0.000000
13088314.000000,-2.278020,-1.662624,1.343143,-1.467861,1.693868,1.408648,-0.586508,0.199764,-0.007982,1.114359,-0.075937,-0.120380,1.082834,-0.022873,-2.199053,39.035381,-23.555801,-4.340639,0.159696,1.800033,-0.175919,0.000000,0.000000,0.000000,0.000000,0.000000,0.000000
13088315.000000,-2.277816,-1.662632,1.344257,-1.467929,1.693748,1.409755,-0.586533,0.202401,-0.010129,1.109674,-0.074025,-0.119783,1.087737,-0.021681,-2.298235,39.106792,-23.528030,-4.439821,0.195402,1.695663,-0.182328,0.000000,0.000000,0.000000,0.000000,0.000000,0.000000
13088316.000000,-2.277619,-1.662633,1.345353,-1.467995,1.693624,1.410852,-0.586558,0.200075,-0.006558,1.106753,-0.071950,-0.118721,1.105245,-0.021482,-2.369647,39.082989,-23.432816,-4.562807,0.213712,1.721298,-0.169511,0.000000,0.000000,0.000000,0.000000,0.000000,0.000000
13088317.000000,-2.277420,-1.662642,1.346458,-1.468065,1.693499,1.411929,-0.586580,0.198398,-0.009560,1.100820,-0.072900,-0.118714,1.101176,-0.019876,-2.445025,39.158367,-23.286026,-4.586610,0.255826,1.767074,-0.196061,0.000000,0.000000,0.000000,0.000000,0.000000,0.000000
13088318.000000,-2.277224,-1.662641,1.347556,-1.468136,1.693378,1.413030,-0.586609,0.198642,-0.009242,1.096687,-0.070826,-0.113567,1.105071,-0.021473,-2.468829,39.130596,-23.016251,-4.586610,0.291532,1.727706,-0.149369,0.000000,0.000000,0.000000,0.000000,0.000000,0.000000
13088319.000000,-2.277023,-1.662644,1.348657,-1.468209,1.693263,1.414108,-0.586628,0.201341,-0.006209,1.099984,-0.071470,-0.113665,1.103425,-0.023981,-2.619586,39.106792,-22.988480,-4.487428,0.315336,1.727706,-0.188737,0.000000,0.000000,0.000000,0.000000,0.000000,0.000000
13088320.000000,-2.276830,-1.662638,1.349773,-1.468279,1.693161,1.415210,-0.586654,0.198643,-0.002365,1.097808,-0.074330,-0.109243,1.093565,-0.023224,-2.667193,39.011578,-23.016251,-4.412050,0.207303,1.656295,-0.175919,0.000000,0.000000,0.000000,0.000000,0.000000,0.000000
13088321.000000,-2.276638,-1.662639,1.350904,-1.468341,1.693050,1.416332,-0.586675,0.196136,-0.001917,1.124924,-0.071323,-0.104073,1.095332,-0.025922,-2.690997,39.011578,-23.286026,-4.412050,0.166105,1.481429,-0.202470,0.000000,0.000000,0.000000,0.000000,0.000000,0.000000
13088322.000000,-2.276453,-1.662636,1.352028,-1.468398,1.692941,1.417424,-0.586705,0.194157,0.000231,1.127709,-0.067861,-0.105960,1.094698,-0.027422,-2.690997,38.936199,-23.627213,-4.463624,0.147794,1.494247,-0.116410,0.000000,0.000000,0.000000,0.000000,0.000000,0.000000
13088323.000000,-2.276275,-1.662635,1.353168,-1.468457,1.692838,1.418518,-0.586720,0.187621,0.000519,1.126654,-0.063056,-0.106490,1.088239,-0.022433,-2.619586,38.912395,-24.019974,-4.487428,0.105680,1.597701,-0.188737,0.000000,0.000000,0.000000,0.000000,0.000000,0.000000
13088324.000000,-2.276101,-1.662634,1.354293,-1.468513,1.692722,1.419577,-0.586741,0.182453,0.000760,1.129507,-0.058773,-0.105587,1.084787,-0.021814,-2.520403,38.888592,-24.388931,-4.535036,0.159696,1.884261,-0.182328,0.000000,0.000000,0.000000,0.000000,0.000000,0.000000
13088325.000000,-2.275933,-1.662639,1.355428,-1.468565,1.692611,1.420658,-0.586767,0.178704,-0.001272,1.125257,-0.055489,-0.109477,1.074720,-0.022268,-2.421221,38.960003,-24.682510,-4.586610,0.231107,2.104903,-0.155778,0.000000,0.000000,0.000000,0.000000,0.000000,0.000000
13088326.000000,-2.275762,-1.662637,1.356558,-1.468614,1.692499,1.421758,-0.586783,0.175175,-0.000372,1.125234,-0.053309,-0.109443,1.080184,-0.019904,-2.298235,38.936199,-24.805496,-4.634218,0.213712,2.131454,-0.196061,0.000000,0.000000,0.000000,0.000000,0.000000,0.000000
13088327.000000,-2.275582,-1.662639,1.357669,-1.468668,1.692390,1.422848,-0.586806,0.174368,-0.000308,1.124971,-0.050272,-0.109354,1.087600,-0.020989,-2.369647,38.936199,-24.904678,-4.610414,0.189908,2.079269,-0.163102,0.000000,0.000000,0.000000,0.000000,0.000000,0.000000
13088328.000000,-2.275406,-1.662638,1.358784,-1.468725,1.692281,1.423948,-0.586821,0.171940,0.000306,1.116483,-0.050735,-0.109703,1.084864,-0.018940,-2.369647,38.912395,-24.857071,-4.463624,0.171598,2.039901,-0.202470,0.000000,0.000000,0.000000,0.000000,0.000000,0.000000
13088330.000000,-2.275061,-1.662648,1.360993,-1.468849,1.692059,1.426120,-0.586862,0.169124,-0.004709,1.112549,-0.058151,-0.113499,1.075683,-0.014538,-2.520403,39.011578,-24.436539,-4.066896,0.237516,1.981307,-0.182328,0.000000,0.000000,0.000000,0.000000,0.000000,0.000000
13088331.000000,-2.274899,-1.662645,1.362100,-1.468905,1.691956,1.427207,-0.586875,0.165534,-0.005324,1.105326,-0.057883,-0.112689,1.074205,-0.014697,-2.445025,38.960003,-24.142960,-3.967714,0.225614,2.020675,-0.208878,0.000000,0.000000,0.000000,0.000000,0.000000,0.000000
13088332.000000,-2.274745,-1.662651,1.363217,-1.468958,1.691852,1.428290,-0.586899,0.162587,-0.005178,1.108956,-0.055948,-0.110982,1.080651,-0.017774,-2.345843,39.011578,-24.218338,-3.943910,0.183500,1.995040,-0.155778,0.000000,0.000000,0.000000,0.000000,0.000000,0.000000
13088333.000000,-2.274595,-1.662650,1.364328,-1.469003,1.691750,1.429388,-0.586913,0.158587,-0.002563,1.107038,-0.052890,-0.105404,1.080205,-0.017478,-2.171282,38.960003,-24.095352,-3.991518,0.141385,1.936446,-0.169511,0.000000,0.000000,0.000000,0.000000,0.000000,0.000000
13088334.000000,-2.274451,-1.662650,1.365434,-1.469039,1.691649,1.430476,-0.586930,0.152653,-0.003893,1.105762,-0.048339,-0.101330,1.104835,-0.017501,-1.972918,38.912395,-24.142960,-4.142274,0.100187,1.838485,-0.175919,0.000000,0.000000,0.000000,0.000000,0.000000,0.000000
13088335.000000,-2.274309,-1.662658,1.366558,-1.469085,1.691540,1.431571,-0.586942,0.151044,-0.005349,1.108569,-0.046780,-0.100806,1.104215,-0.016508,-1.750750,39.011578,-24.242142,-4.090700,0.129484,1.800033,-0.208878,0.000000,0.000000,0.000000,0.000000,0.000000,0.000000
13088336.000000,-2.274168,-1.662653,1.367686,-1.469129,1.691433,1.432653,-0.586967,0.148709,-0.001571,1.109318,-0.044461,-0.105378,1.094883,-0.019437,-1.504779,38.912395,-24.313553,-4.090700,0.171598,1.949264,-0.149369,0.000000,0.000000,0.000000,0.000000,0.000000,0.000000
13088337.000000,-2.274025,-1.662661,1.368787,-1.469175,1.691321,1.433730,-0.586982,0.145994,-0.002961,1.104903,-0.045174,-0.108329,1.095579,-0.019234,-1.354022,38.983807,-24.388931,-3.991518,0.207303,1.962081,-0.149369,0.000000,0.000000,0.000000,0.000000,0.000000,0.000000
13088338.000000,-2.273880,-1.662657,1.369904,-1.469214,1.691208,1.434834,-0.586997,0.144781,-0.000487,1.100705,-0.044196,-0.115416,1.090647,-0.019053,-1.330218,38.912395,-24.436539,-3.943910,0.243009,1.819259,-0.149369,0.000000,0.000000,0.000000,0.000000,0.000000,0.000000
13088339.000000,-2.273742,-1.662668,1.371016,-1.469264,1.691094,1.435947,-0.587016,0.142030,-0.003338,1.100050,-0.045769,-0.114908,1.085441,-0.019438,-1.254840,39.035381,-24.365128,-3.797121,0.249418,1.714889,-0.136552,0.000000,0.000000,0.000000,0.000000,0.000000,0.000000
13088340.000000,-2.273605,-1.662662,1.372099,-1.469301,1.690984,1.437032,-0.587023,0.142269,-0.003156,1.093533,-0.043720,-0.109297,1.083183,-0.012572,-1.282611,38.936199,-24.142960,-3.769350,0.243009,1.721298,-0.188737,0.000000,0.000000,0.000000,0.000000,0.000000,0.000000
13088341.000000,-2.273473,-1.662663,1.373199,-1.469339,1.690879,1.438122,-0.587039,0.140373,-0.001887,1.091311,-0.045663,-0.104344,1.079581,-0.010491,-1.231036,38.912395,-23.972366,-3.745546,0.213712,1.819259,-0.163102,0.000000,0.000000,0.000000,0.000000,0.000000,0.000000
13088342.000000,-2.273341,-1.662666,1.374273,-1.469373,1.690774,1.439204,-0.587047,0.135659,-0.004688,1.085838,-0.043328,-0.106124,1.082201,-0.010586,-1.183428,38.912395,-23.651016,-3.745546,0.207303,1.851302,-0.215287,0.000000,0.000000,0.000000,0.000000,0.000000,0.000000
13088343.000000,-2.273212,-1.662669,1.375375,-1.469413,1.690667,1.440306,-0.587068,0.129848,-0.004138,1.084616,-0.044052,-0.107845,1.087845,-0.014720,-1.159625,38.936199,-23.579605,-3.646364,0.219205,1.806442,-0.163102,0.000000,0.000000,0.000000,0.000000,0.000000,0.000000
13088344.000000,-2.273089,-1.662664,1.376490,-1.469445,1.690562,1.441410,-0.587074,0.127047,-0.000780,1.091967,-0.042208,-0.107871,1.093316,-0.009526,-1.084246,38.837017,-23.603409,-3.646364,0.189908,1.832076,-0.202470,0.000000,0.000000,0.000000,0.000000,0.000000,0.000000
13088345.000000,-2.272967,-1.662660,1.377609,-1.469478,1.690462,1.442500,-0.587092,0.126029,0.000894,1.101603,-0.041986,-0.102050,1.100487,-0.012161,-1.032672,38.765606,-23.948563,-3.598757,0.129484,1.819259,-0.196061,0.000000,0.000000,0.000000,0.000000,0.000000,0.000000
13088346.000000,-2.272851,-1.662657,1.378735,-1.469511,1.690356,1.443605,-0.587105,0.123751,0.001517,1.102615,-0.041871,-0.101088,1.094696,-0.009666,-0.933489,38.717999,-24.289749,-3.547182,0.154203,1.754256,-0.182328,0.000000,0.000000,0.000000,0.000000,0.000000,0.000000
13088347.000000,-2.272739,-1.662657,1.379846,-1.469541,1.690249,1.444686,-0.587119,0.121178,0.000868,1.107756,-0.038416,-0.101505,1.090250,-0.012182,-0.786700,38.717999,-24.611099,-3.499574,0.213712,1.760665,-0.175919,0.000000,0.000000,0.000000,0.000000,0.000000,0.000000
13088348.000000,-2.272623,-1.662661,1.380973,-1.469567,1.690140,1.445773,-0.587135,0.121455,-0.000087,1.111871,-0.034767,-0.100852,1.080098,-0.010563,-0.735125,38.741802,-24.976089,-3.499574,0.249418,1.832076,-0.136552,0.000000,0.000000,0.000000,0.000000,0.000000,0.000000
13088349.000000,-2.272513,-1.662658,1.382105,-1.469589,1.690037,1.446858,-0.587142,0.116559,0.000418,1.109789,-0.031576,-0.103264,1.074276,-0.010544,-0.612139,38.717999,-25.273636,-3.523378,0.237516,1.974899,-0.188737,0.000000,0.000000,0.000000,0.000000,0.000000,0.000000
13088350.000000,-2.272402,-1.662657,1.383199,-1.469613,1.689926,1.447934,-0.587155,0.117069,0.000218,1.108490,-0.030389,-0.106311,1.078673,-0.013377,-0.540728,38.717999,-25.174454,-3.499574,0.261320,2.033492,-0.169511,0.000000,0.000000,0.000000,0.000000,0.000000,0.000000
13088351.000000,-2.272287,-1.662667,1.384319,-1.469637,1.689818,1.449039,-0.587163,0.117216,-0.003334,1.106332,-0.027642,-0.109203,1.085518,-0.014002,-0.564532,38.864788,-25.222061,-3.424196,0.297025,1.923629,-0.188737,0.000000,0.000000,0.000000,0.000000,0.000000,0.000000
13088352.000000,-2.272170,-1.662671,1.385400,-1.469660,1.689716,1.450106,-0.587175,0.115239,-0.002814,1.119697,-0.025987,-0.109257,1.083401,-0.016211,-0.635943,38.888592,-25.003860,-3.325014,0.279630,1.923629,-0.163102,0.000000,0.000000,0.000000,0.000000,0.000000,0.000000
13088353.000000,-2.272059,-1.662675,1.386507,-1.469691,1.689618,1.451187,-0.587184,0.116620,-0.003015,1.113223,-0.029884,-0.103890,1.086938,-0.015300,-0.711321,38.936199,-24.880875,-3.126650,0.243009,1.923629,-0.202470,0.000000,0.000000,0.000000,0.000000,0.000000,0.000000
13088354.000000,-2.271950,-1.662677,1.387601,-1.469715,1.689522,1.452281,-0.587197,0.116425,-0.002586,1.102523,-0.027858,-0.100633,1.083836,-0.017071,-0.762896,38.960003,-24.488113,-3.003664,0.219205,1.877853,-0.182328,0.000000,0.000000,0.000000,0.000000,0.000000,0.000000
13088355.000000,-2.271847,-1.662686,1.388691,-1.469734,1.689418,1.453358,-0.587209,0.110706,-0.004059,1.099422,-0.025187,-0.100456,1.083418,-0.014497,-0.687518,39.059185,-24.365128,-2.928285,0.261320,1.844894,-0.136552,0.000000,0.000000,0.000000,0.000000,0.000000,0.000000
13088356.000000,-2.271743,-1.662691,1.389797,-1.469749,1.689323,1.454453,-0.587209,0.108324,-0.003273,1.095786,-0.022050,-0.097808,1.078877,-0.008051,-0.687518,39.082989,-24.313553,-2.904482,0.237516,1.786300,-0.208878,0.000000,0.000000,0.000000,0.000000,0.000000,0.000000
13088357.000000,-2.271652,-1.662692,1.390904,-1.469757,1.689232,1.455566,-0.587223,0.099110,-0.004928,1.090751,-0.017379,-0.095158,1.078874,-0.007625,-0.512957,39.059185,-24.218338,-2.979860,0.189908,1.624252,-0.169511,0.000000,0.000000,0.000000,0.000000,0.000000,0.000000
13088358.000000,-2.271559,-1.662692,1.392006,-1.469758,1.689130,1.456655,-0.587229,0.095014,-0.002452,1.094441,-0.010574,-0.097380,1.079612,-0.009455,-0.441546,39.011578,-24.313553,-3.079042,0.249418,1.578475,-0.196061,0.000000,0.000000,0.000000,0.000000,0.000000,0.000000
13088359.000000,-2.271473,-1.662692,1.393109,-1.469760,1.689036,1.457755,-0.587241,0.090047,-0.000639,1.089172,-0.009435,-0.096578,1.080376,-0.007895,-0.290789,38.960003,-24.289749,-3.154421,0.255826,1.578475,-0.175919,0.000000,0.000000,0.000000,0.000000,0.000000,0.000000
13088360.000000,-2.271386,-1.662701,1.394201,-1.469762,1.688940,1.458828,-0.587248,0.087252,-0.004967,1.092564,-0.008781,-0.101118,1.080351,-0.010862,-0.167803,39.011578,-24.341324,-3.225832,0.273221,1.695663,-0.169511,0.000000,0.000000,0.000000,0.000000,0.000000,0.000000
13088361.000000,-2.271296,-1.662704,1.395305,-1.469766,1.688838,1.459917,-0.587255,0.087534,-0.003694,1.094064,-0.006867,-0.104426,1.080692,-0.012090,-0.144000,39.011578,-24.365128,-3.225832,0.297025,1.819259,-0.188737,0.000000,0.000000,0.000000,0.000000,0.000000,0.000000
13088362.000000,-2.271210,-1.662712,1.396408,-1.469764,1.688747,1.461022,-0.587264,0.087267,-0.006476,1.089992,-0.004131,-0.104834,1.087931,-0.010324,-0.116229,39.035381,-24.313553,-3.277406,0.249418,1.858627,-0.155778,0.000000,0.000000,0.000000,0.000000,0.000000,0.000000
