chaoyuefei/paper-gmrm-data/robot_logs/s2_dq_mrm_max_0.30_log_20260314_172945.csv
# time_ms,q_0,q_1,q_2,q_3,q_4,q_5,q_6,dq_0,dq_1,dq_2,dq_3,dq_4,dq_5,dq_6,tau_J_0,tau_J_1,tau_J_2,tau_J_3,tau_J_4,tau_J_5,tau_J_6,O_dP_EE_c_0,O_dP_EE_c_1,O_dP_EE_c_2,O_dP_EE_c_3,O_dP_EE_c_4,O_dP_EE_c_5
12046971.000000,2.313463,-0.961767,-1.822718,-1.385859,-0.923956,1.666934,0.446176,-0.000098,0.001151,0.000968,-0.000244,-0.000645,-0.000647,-0.000447,0.276533,35.460857,19.544785,12.171202,1.026700,1.422836,-0.155778,0.000000,0.000000,0.000000,0.000000,0.000000,0.000000
12046972.000000,2.313465,-0.961772,-1.822720,-1.385856,-0.923955,1.666936,0.446173,0.000492,-0.000347,0.000088,0.000951,0.000486,0.000314,-0.001247,0.252729,35.508465,19.568588,12.123594,1.001981,1.402694,-0.130143,0.000000,0.000000,0.000000,0.000000,0.000000,0.000000
12046973.000000,2.313463,-0.961769,-1.822723,-1.385855,-0.923954,1.666932,0.446178,-0.000229,0.000326,-0.001055,0.001191,-0.000117,-0.000028,0.000864,0.276533,35.484661,19.616196,12.099791,1.013883,1.409103,-0.175919,0.000000,0.000000,0.000000,0.000000,0.000000,0.000000
12046974.000000,2.313467,-0.961776,-1.822718,-1.385858,-0.923956,1.666934,0.446180,0.000961,-0.001546,0.000967,-0.000877,-0.000078,-0.000290,0.001322,0.228925,35.560040,19.544785,12.171202,1.013883,1.416427,-0.196061,0.000000,0.000000,0.000000,0.000000,0.000000,0.000000
12046975.000000,2.313452,-0.961773,-1.822720,-1.385857,-0.923953,1.666935,0.446172,-0.012660,-0.009868,-0.009275,-0.001234,-0.001208,0.001028,0.005823,-0.144000,34.996685,19.029037,12.198973,0.918668,1.383468,-0.064225,0.000000,0.000000,0.000000,0.000000,0.000000,0.000000
12046976.000000,2.313435,-0.961744,-1.822732,-1.385859,-0.923942,1.666933,0.446193,-0.029340,-0.009741,-0.023887,-0.002493,-0.002422,0.002618,0.011564,-2.000689,32.767071,17.164413,12.270384,0.571683,1.331283,-0.122819,0.000000,0.000000,0.000000,0.000000,0.000000,0.000000
12046977.000000,2.313425,-0.961696,-1.822790,-1.385858,-0.923919,1.666919,0.446223,-0.030467,0.002859,-0.041146,-0.002312,0.004268,-0.000188,0.016720,-5.440325,28.898968,14.339706,12.298155,-0.007845,1.383468,-0.083451,0.000000,0.000000,0.000000,0.000000,0.000000,0.000000
12046978.000000,2.313385,-0.961690,-1.822903,-1.385841,-0.923932,1.666900,0.446257,-0.027620,0.010728,-0.059698,0.004305,-0.001273,-0.004228,0.025003,-9.399676,24.741253,11.027023,12.048216,-0.336520,1.494247,-0.031266,0.000000,0.000000,0.000000,0.000000,0.000000,0.000000
12046979.000000,2.313310,-0.961736,-1.823043,-1.385831,-0.923992,1.666905,0.446315,-0.027950,-0.006793,-0.072397,0.006007,-0.021552,0.008192,0.039041,-13.188434,21.166729,7.515976,11.778440,-0.228488,1.487838,-0.056901,0.000000,0.000000,0.000000,0.000000,0.000000,0.000000
12046980.000000,2.313211,-0.961834,-1.823201,-1.385843,-0.924074,1.666956,0.446381,-0.039597,-0.026637,-0.085923,-0.001285,-0.040029,0.028436,0.050533,-16.457476,18.254742,4.326279,11.726866,-0.007845,1.188461,-0.004716,0.000000,0.000000,0.000000,0.000000,0.000000,0.000000
12046981.000000,2.313109,-0.961958,-1.823360,-1.385862,-0.924168,1.667061,0.446475,-0.043614,-0.045423,-0.093708,-0.010262,-0.056938,0.060288,0.063932,-18.933062,16.072735,1.676132,11.429319,0.201810,0.551253,-0.056901,0.000000,0.000000,0.000000,0.000000,0.000000,0.000000
12046982.000000,2.313008,-0.962112,-1.823513,-1.385886,-0.924282,1.667207,0.446580,-0.049034,-0.073846,-0.100347,-0.022770,-0.074838,0.092473,0.079022,-20.143084,14.949993,-0.140885,10.715208,0.446256,-0.196732,-0.011124,0.000000,0.000000,0.000000,0.000000,0.000000,0.000000
12046983.000000,2.312932,-0.962287,-1.823642,-1.385942,-0.924390,1.667367,0.446696,-0.051176,-0.104401,-0.101757,-0.034298,-0.089650,0.117187,0.090385,-20.369219,14.509624,-1.366776,9.751158,0.494779,-0.729569,0.041976,0.000000,0.000000,0.000000,0.000000,0.000000,0.000000
12046984.000000,2.312873,-0.962464,-1.823759,-1.386013,-0.924504,1.667524,0.446833,-0.049775,-0.124708,-0.100752,-0.047494,-0.095218,0.135691,0.106762,-19.750322,14.481853,-1.906326,8.390379,0.381254,-0.827531,0.015426,0.000000,0.000000,0.000000,0.000000,0.000000,0.000000
12046985.000000,2.312822,-0.962626,-1.823865,-1.386099,-0.924608,1.667683,0.446975,-0.053952,-0.138837,-0.101651,-0.059146,-0.096089,0.147120,0.118839,-18.583941,14.410442,-1.981705,6.759825,0.040677,-0.534562,0.001693,0.000000,0.000000,0.000000,0.000000,0.000000,0.000000
12046986.000000,2.312770,-0.962748,-1.823969,-1.386235,-0.924708,1.667875,0.447125,-0.059336,-0.131823,-0.103697,-0.080355,-0.096454,0.160249,0.124917,-17.024797,13.946270,-1.735733,5.351439,-0.461947,-0.190324,-0.070634,0.000000,0.000000,0.000000,0.000000,0.000000,0.000000
12046987.000000,2.312703,-0.962836,-1.824066,-1.386408,-0.924824,1.668105,0.447269,-0.070248,-0.120436,-0.105480,-0.107487,-0.103048,0.179505,0.129067,-15.168109,13.089336,-1.366776,4.236632,-0.831820,0.011092,-0.011124,0.000000,0.000000,0.000000,0.000000,0.000000,0.000000
12046988.000000,2.312625,-0.962893,-1.824169,-1.386619,-0.924981,1.668361,0.447434,-0.081888,-0.098128,-0.110029,-0.136056,-0.121033,0.203782,0.138063,-13.164630,11.768230,-0.926407,3.621702,-0.987460,0.193282,-0.103593,0.000000,0.000000,0.000000,0.000000,0.000000,0.000000
12046989.000000,2.312518,-0.962933,-1.824287,-1.386868,-0.925186,1.668643,0.447591,-0.096311,-0.075870,-0.117459,-0.170192,-0.146363,0.228862,0.143507,-10.958819,10.296368,-0.386856,3.347960,-0.814425,0.349838,-0.037675,0.000000,0.000000,0.000000,0.000000,0.000000,0.000000
12046990.000000,2.312390,-0.962977,-1.824416,-1.387127,-0.925428,1.668957,0.447758,-0.110528,-0.064435,-0.127195,-0.198504,-0.178961,0.256498,0.146872,-8.657794,8.999065,0.105087,3.224974,-0.372225,0.414840,-0.077042,0.000000,0.000000,0.000000,0.000000,0.000000,0.000000
12046991.000000,2.312246,-0.963022,-1.824543,-1.387416,-0.925687,1.669304,0.447919,-0.122843,-0.056166,-0.132200,-0.222680,-0.206464,0.290282,0.148410,-6.356768,7.848553,0.398666,3.423338,0.088285,0.381881,-0.031266,0.000000,0.000000,0.000000,0.000000,0.000000,0.000000
12046992.000000,2.312097,-0.963090,-1.824682,-1.387727,-0.925945,1.669662,0.448084,-0.132406,-0.059996,-0.135365,-0.248338,-0.222025,0.314902,0.151673,-4.277911,7.114605,0.668442,3.720885,0.428861,0.310470,0.021835,0.000000,0.000000,0.000000,0.000000,0.000000,0.000000
12046993.000000,2.311950,-0.963179,-1.824818,-1.388021,-0.926189,1.670056,0.448259,-0.139466,-0.068602,-0.135713,-0.262879,-0.226960,0.341318,0.162393,-2.468829,6.797222,0.720016,3.744688,0.470060,0.239059,-0.037675,0.000000,0.000000,0.000000,0.000000,0.000000,0.000000
12046994.000000,2.311819,-0.963294,-1.824962,-1.388308,-0.926418,1.670466,0.448428,-0.136395,-0.080716,-0.135359,-0.271851,-0.224468,0.366617,0.163270,-1.032672,6.920208,0.866806,3.447142,0.201810,0.291244,-0.011124,0.000000,0.000000,0.000000,0.000000,0.000000,0.000000
12046995.000000,2.311716,-0.963449,-1.825099,-1.388596,-0.926645,1.670864,0.448602,-0.121180,-0.103928,-0.130524,-0.275615,-0.219905,0.370832,0.164691,0.078168,7.848553,1.211960,2.979002,-0.049044,0.544845,0.001693,0.000000,0.000000,0.000000,0.000000,0.000000,0.000000
12046996.000000,2.311612,-0.963626,-1.825236,-1.388873,-0.926869,1.671295,0.448784,-0.113466,-0.130416,-0.130968,-0.270615,-0.218131,0.391360,0.172809,1.292158,9.292645,1.874496,2.284727,-0.264193,0.824081,-0.050492,0.000000,0.000000,0.000000,0.000000,0.000000,0.000000
12046997.000000,2.311511,-0.963807,-1.825375,-1.389163,-0.927085,1.671764,0.448954,-0.108999,-0.151320,-0.135259,-0.277735,-0.217679,0.421418,0.175960,2.553754,10.911297,2.878219,1.618224,-0.450045,0.895492,-0.011124,0.000000,0.000000,0.000000,0.000000,0.000000,0.000000
12046998.000000,2.311408,-0.963983,-1.825510,-1.389459,-0.927320,1.672288,0.449128,-0.110756,-0.159044,-0.136612,-0.283480,-0.222271,0.464585,0.174005,3.866926,12.402996,3.985092,1.074705,-0.419833,0.687667,0.001693,0.000000,0.000000,0.000000,0.000000,0.000000,0.000000
12046999.000000,2.311309,-0.964139,-1.825640,-1.389776,-0.927572,1.672852,0.449302,-0.107483,-0.162156,-0.135858,-0.294886,-0.233357,0.496594,0.179201,4.981733,13.430523,5.064194,0.729552,-0.287997,0.329696,-0.023942,0.000000,0.000000,0.000000,0.000000,0.000000,0.000000
12047000.000000,2.311214,-0.964282,-1.825769,-1.390105,-0.927830,1.673398,0.449481,-0.102446,-0.157521,-0.136984,-0.312357,-0.238963,0.506708,0.178070,5.973554,14.017681,5.972702,0.432005,-0.085665,0.096236,-0.064225,0.000000,0.000000,0.000000,0.000000,0.000000,0.000000
12047001.000000,2.311113,-0.964405,-1.825902,-1.390451,-0.928101,1.673937,0.449639,-0.100646,-0.148370,-0.137457,-0.320052,-0.248828,0.515787,0.172878,6.886030,14.065289,6.734421,0.233641,0.171598,0.147506,0.021835,0.000000,0.000000,0.000000,0.000000,0.000000,0.000000
12047002.000000,2.311034,-0.964517,-1.826033,-1.390809,-0.928364,1.674466,0.449819,-0.093120,-0.137585,-0.135403,-0.331051,-0.253355,0.519733,0.174347,7.381940,13.724102,7.246201,0.011473,0.351041,0.323287,-0.037675,0.000000,0.000000,0.000000,0.000000,0.000000,0.000000
12047003.000000,2.310970,-0.964620,-1.826165,-1.391176,-0.928618,1.674995,0.449997,-0.082895,-0.123789,-0.136807,-0.341739,-0.255883,0.520544,0.173671,7.631879,13.065533,7.591354,-0.111513,0.386747,0.434066,-0.050492,0.000000,0.000000,0.000000,0.000000,0.000000,0.000000
12047004.000000,2.310911,-0.964731,-1.826315,-1.391557,-0.928877,1.675526,0.450162,-0.072637,-0.116788,-0.141503,-0.354050,-0.257707,0.522039,0.169725,7.703290,12.355389,7.936508,-0.286073,0.297025,0.492660,0.028243,0.000000,0.000000,0.000000,0.000000,0.000000,0.000000
12047005.000000,2.310860,-0.964850,-1.826459,-1.391938,-0.929127,1.676044,0.450346,-0.065399,-0.118649,-0.142241,-0.361418,-0.257299,0.517228,0.172178,7.631879,11.740459,8.031723,-0.432863,0.129484,0.557662,-0.037675,0.000000,0.000000,0.000000,0.000000,0.000000,0.000000
12047006.000000,2.310817,-0.964993,-1.826614,-1.392327,-0.929385,1.676561,0.450517,-0.057979,-0.123962,-0.145803,-0.368999,-0.255396,0.514075,0.169590,7.405744,11.399273,8.182480,-0.730409,0.027860,0.641891,0.009017,0.000000,0.000000,0.000000,0.000000,0.000000,0.000000
12047007.000000,2.310788,-0.965163,-1.826785,-1.392717,-0.929650,1.677069,0.450689,-0.049462,-0.139653,-0.151652,-0.372038,-0.254207,0.512042,0.169794,7.012983,11.423077,8.452255,-1.127138,0.058073,0.727035,0.028243,0.000000,0.000000,0.000000,0.000000,0.000000,0.000000
12047008.000000,2.310754,-0.965363,-1.826952,-1.393107,-0.929924,1.677581,0.450867,-0.043253,-0.158178,-0.151309,-0.376298,-0.259255,0.515471,0.171819,6.592451,11.768230,8.646652,-1.472292,0.123990,0.687667,-0.017533,0.000000,0.000000,0.000000,0.000000,0.000000,0.000000
12047009.000000,2.310724,-0.965589,-1.827122,-1.393501,-0.930218,1.678102,0.451035,-0.038503,-0.181002,-0.158863,-0.375244,-0.269844,0.515095,0.169599,5.874372,12.426800,8.769638,-1.472292,0.273221,0.538436,0.028243,0.000000,0.000000,0.000000,0.000000,0.000000,0.000000
12047010.000000,2.310681,-0.965834,-1.827291,-1.393894,-0.930502,1.678620,0.451217,-0.041940,-0.200475,-0.159454,-0.376193,-0.276540,0.513348,0.172361,5.005537,13.359112,8.793442,-1.099367,0.386747,0.388290,-0.023942,0.000000,0.000000,0.000000,0.000000,0.000000,0.000000
12047011.000000,2.310629,-0.966090,-1.827459,-1.394269,-0.930783,1.679146,0.451389,-0.046438,-0.217432,-0.163338,-0.372275,-0.273093,0.522117,0.172862,4.041486,14.458050,8.817245,-0.484438,0.405057,0.291244,-0.011124,0.000000,0.000000,0.000000,0.000000,0.000000,0.000000
12047012.000000,2.310571,-0.966362,-1.827625,-1.394636,-0.931063,1.679672,0.451563,-0.046411,-0.233232,-0.155972,-0.367886,-0.270863,0.527594,0.171352,3.025861,15.878338,8.940231,0.408202,0.422452,0.239059,0.009017,0.000000,0.000000,0.000000,0.000000,0.000000,0.000000
12047013.000000,2.310502,-0.966635,-1.827773,-1.395007,-0.931346,1.680180,0.451740,-0.051712,-0.245226,-0.151778,-0.371247,-0.278578,0.524321,0.171859,2.208601,17.493023,9.114792,1.642027,0.434354,0.388290,-0.017533,0.000000,0.000000,0.000000,0.000000,0.000000,0.000000
12047014.000000,2.310417,-0.966906,-1.827921,-1.395396,-0.931620,1.680691,0.451908,-0.061520,-0.255966,-0.146739,-0.380610,-0.270024,0.520028,0.171045,1.641279,19.258465,9.479782,3.224974,0.332731,0.557662,-0.004716,0.000000,0.000000,0.000000,0.000000,0.000000,0.000000
12047015.000000,2.310318,-0.967169,-1.828062,-1.395788,-0.931882,1.681211,0.452073,-0.069596,-0.260855,-0.141919,-0.385189,-0.271222,0.526687,0.165312,1.391340,20.968365,9.947922,4.907103,0.195402,0.662032,0.021835,0.000000,0.000000,0.000000,0.000000,0.000000,0.000000
12047016.000000,2.310220,-0.967418,-1.828198,-1.396190,-0.932136,1.681732,0.452239,-0.080999,-0.258168,-0.139276,-0.394542,-0.263914,0.521657,0.163774,1.268354,22.535442,10.487473,6.636839,0.040677,0.752670,0.074935,0.000000,0.000000,0.000000,0.000000,0.000000,0.000000
12047017.000000,2.310117,-0.967665,-1.828338,-1.396607,-0.932400,1.682257,0.452418,-0.087234,-0.256801,-0.142278,-0.404061,-0.262280,0.525796,0.168924,1.216779,24.003338,11.126205,8.267393,-0.007845,0.901900,0.009017,0.000000,0.000000,0.000000,0.000000,0.000000,0.000000
12047018.000000,2.310016,-0.967910,-1.828480,-1.397023,-0.932670,1.682745,0.452589,-0.091888,-0.253427,-0.143644,-0.422414,-0.263763,0.505168,0.167010,1.192975,25.229229,11.764938,9.651976,0.004056,1.214095,0.054794,0.000000,0.000000,0.000000,0.000000,0.000000,0.000000
12047019.000000,2.309902,-0.968164,-1.828630,-1.397443,-0.932944,1.683228,0.452762,-0.095445,-0.251911,-0.144214,-0.422407,-0.267788,0.501268,0.167652,1.343732,26.355938,12.375900,10.762815,0.112089,1.546432,0.061202,0.000000,0.000000,0.000000,0.000000,0.000000,0.000000
12047020.000000,2.309796,-0.968428,-1.828792,-1.397869,-0.933216,1.683723,0.452938,-0.098046,-0.253026,-0.150599,-0.424493,-0.265953,0.495407,0.171155,1.391340,27.407269,13.113815,11.679258,0.213712,1.721298,0.028243,0.000000,0.000000,0.000000,0.000000,0.000000,0.000000
12047021.000000,2.309683,-0.968698,-1.828964,-1.398294,-0.933473,1.684222,0.453109,-0.102433,-0.256960,-0.158182,-0.424523,-0.266398,0.499350,0.170406,1.542096,28.434795,13.851730,12.345762,0.255826,1.656295,0.048385,0.000000,0.000000,0.000000,0.000000,0.000000,0.000000
12047022.000000,2.309571,-0.968985,-1.829141,-1.398712,-0.933737,1.684725,0.453278,-0.105001,-0.266040,-0.162738,-0.419277,-0.263808,0.501479,0.172144,1.688886,29.462322,14.438889,12.619505,0.231107,1.565658,0.015426,0.000000,0.000000,0.000000,0.000000,0.000000,0.000000
12047023.000000,2.309453,-0.969292,-1.829320,-1.399130,-0.934001,1.685204,0.453442,-0.111104,-0.278401,-0.168110,-0.414352,-0.257589,0.482186,0.175275,1.911054,30.565228,14.954636,12.643309,0.201810,1.546432,0.048385,0.000000,0.000000,0.000000,0.000000,0.000000,0.000000
12047024.000000,2.309334,-0.969617,-1.829511,-1.399527,-0.934269,1.685672,0.453615,-0.114238,-0.292066,-0.178018,-0.407003,-0.257982,0.483074,0.174817,2.184797,31.715740,15.446579,12.444944,0.171598,1.617843,0.028243,0.000000,0.000000,0.000000,0.000000,0.000000,0.000000
12047025.000000,2.309209,-0.969944,-1.829713,-1.399930,-0.934536,1.686139,0.453786,-0.116729,-0.303611,-0.184382,-0.401712,-0.259507,0.481678,0.174007,2.482343,32.790874,15.886948,12.099791,0.171598,1.721298,0.041976,0.000000,0.000000,0.000000,0.000000,0.000000,0.000000
12047026.000000,2.309082,-0.970270,-1.829913,-1.400325,-0.934799,1.686608,0.453955,-0.122219,-0.310026,-0.189024,-0.399743,-0.264057,0.481957,0.173102,2.803693,33.624004,16.303513,11.750669,0.135892,1.662704,0.041976,0.000000,0.000000,0.000000,0.000000,0.000000,0.000000
12047027.000000,2.308950,-0.970587,-1.830120,-1.400727,-0.935073,1.687095,0.454124,-0.126193,-0.310271,-0.193781,-0.397182,-0.265387,0.488386,0.170369,3.148847,34.139751,16.624863,11.457090,0.064481,1.546432,0.028243,0.000000,0.000000,0.000000,0.000000,0.000000,0.000000
12047028.000000,2.308827,-0.970895,-1.830333,-1.401127,-0.935349,1.687572,0.454289,-0.127233,-0.314869,-0.198578,-0.397412,-0.273322,0.474590,0.164232,3.398786,34.457134,16.989853,11.234922,0.069974,1.461288,0.054794,0.000000,0.000000,0.000000,0.000000,0.000000,0.000000
12047029.000000,2.308712,-0.971205,-1.830569,-1.401505,-0.935634,1.688037,0.454457,-0.124536,-0.307519,-0.207111,-0.390443,-0.274785,0.472504,0.163603,3.497968,34.580120,17.557175,10.838194,0.166105,1.500655,0.001693,0.000000,0.000000,0.000000,0.000000,0.000000,0.000000
12047030.000000,2.308593,-0.971507,-1.830807,-1.401881,-0.935917,1.688500,0.454617,-0.123160,-0.299161,-0.214698,-0.383528,-0.271276,0.472428,0.158601,3.620954,34.556316,18.072922,10.516844,0.285123,1.649886,0.048385,0.000000,0.000000,0.000000,0.000000,0.000000,0.000000
12047031.000000,2.308478,-0.971781,-1.831054,-1.402255,-0.936201,1.688963,0.454785,-0.118068,-0.293696,-0.226225,-0.387772,-0.276587,0.466785,0.161478,3.692365,34.238934,18.683884,10.270872,0.362943,1.708480,0.074935,0.000000,0.000000,0.000000,0.000000,0.000000,0.000000
12047032.000000,2.308369,-0.972060,-1.831300,-1.402633,-0.936488,1.689436,0.454960,-0.116069,-0.286872,-0.235293,-0.385010,-0.273144,0.472210,0.163226,3.692365,33.917583,19.199631,10.195494,0.386747,1.735030,0.015426,0.000000,0.000000,0.000000,0.000000,0.000000,0.000000
12047033.000000,2.308262,-0.972342,-1.831555,-1.403015,-0.936765,1.689913,0.455132,-0.114009,-0.286531,-0.240640,-0.383285,-0.281638,0.476161,0.165013,3.668561,33.675579,19.643967,10.143919,0.362943,1.656295,0.009017,0.000000,0.000000,0.000000,0.000000,0.000000,0.000000
12047034.000000,2.308152,-0.972632,-1.831808,-1.403384,-0.937045,1.690374,0.455300,-0.114147,-0.289660,-0.247841,-0.378165,-0.276499,0.465212,0.160099,3.692365,33.624004,20.084335,10.072508,0.351041,1.682845,0.041976,0.000000,0.000000,0.000000,0.000000,0.000000,0.000000
12047035.000000,2.308054,-0.972931,-1.832071,-1.403761,-0.937336,1.690833,0.455463,-0.106782,-0.290986,-0.252207,-0.376478,-0.280108,0.460919,0.161658,3.545576,33.675579,20.500900,9.997129,0.422452,1.838485,0.074935,0.000000,0.000000,0.000000,0.000000,0.000000,0.000000
12047036.000000,2.307951,-0.973230,-1.832325,-1.404126,-0.937631,1.691281,0.455636,-0.104951,-0.292863,-0.252681,-0.376552,-0.287082,0.451308,0.165852,3.521772,33.893780,20.770676,9.921751,0.476469,2.001449,0.015426,0.000000,0.000000,0.000000,0.000000,0.000000,0.000000
12047037.000000,2.307860,-0.973532,-1.832593,-1.404505,-0.937923,1.691744,0.455796,-0.099475,-0.296879,-0.252573,-0.377280,-0.286496,0.452855,0.165309,3.323408,33.992962,21.139633,9.921751,0.512174,2.020675,0.054794,0.000000,0.000000,0.000000,0.000000,0.000000,0.000000
12047038.000000,2.307771,-0.973843,-1.832857,-1.404885,-0.938213,1.692224,0.455969,-0.095735,-0.298500,-0.256465,-0.374219,-0.281193,0.462624,0.163727,3.125043,34.163555,21.409409,9.921751,0.535978,1.916305,0.001693,0.000000,0.000000,0.000000,0.000000,0.000000,0.000000
12047039.000000,2.307690,-0.974144,-1.833117,-1.405261,-0.938493,1.692690,0.456138,-0.089299,-0.298837,-0.258022,-0.381708,-0.285412,0.460722,0.164735,2.902875,34.310345,21.607773,9.921751,0.524076,1.800033,0.015426,0.000000,0.000000,0.000000,0.000000,0.000000,0.000000
12047040.000000,2.307615,-0.974460,-1.833385,-1.405649,-0.938787,1.693154,0.456299,-0.086362,-0.299048,-0.259376,-0.382962,-0.287868,0.467237,0.164560,2.629133,34.480938,21.825974,10.020933,0.506681,1.806442,0.054794,0.000000,0.000000,0.000000,0.000000,0.000000,0.000000
12047041.000000,2.307547,-0.974770,-1.833636,-1.406031,-0.939080,1.693606,0.456467,-0.082149,-0.302117,-0.256474,-0.385370,-0.288299,0.456929,0.162220,2.283979,34.627728,21.849777,10.048704,0.566190,1.923629,0.021835,0.000000,0.000000,0.000000,0.000000,0.000000,0.000000
12047042.000000,2.307485,-0.975085,-1.833890,-1.406414,-0.939369,1.694064,0.456626,-0.078232,-0.306621,-0.254334,-0.385481,-0.282319,0.454209,0.162938,1.863447,34.726910,21.849777,10.143919,0.578092,2.014266,0.054794,0.000000,0.000000,0.000000,0.000000,0.000000,0.000000
12047043.000000,2.307433,-0.975397,-1.834152,-1.406800,-0.939651,1.694541,0.456793,-0.068269,-0.307444,-0.255891,-0.384991,-0.280461,0.460222,0.160328,1.391340,34.726910,21.849777,10.243101,0.530485,2.027084,0.048385,0.000000,0.000000,0.000000,0.000000,0.000000,0.000000
12047044.000000,2.307372,-0.975696,-1.834394,-1.407197,-0.939943,1.695006,0.456960,-0.065366,-0.303160,-0.249064,-0.387916,-0.285164,0.459345,0.163734,1.093793,34.627728,21.754562,10.465269,0.512174,2.007858,0.021835,0.000000,0.000000,0.000000,0.000000,0.000000,0.000000
12047045.000000,2.307332,-0.976005,-1.834644,-1.407594,-0.940241,1.695483,0.457117,-0.058438,-0.302054,-0.245752,-0.389496,-0.283511,0.468452,0.164110,0.601850,34.504742,21.726791,10.663633,0.500272,1.955673,0.054794,0.000000,0.000000,0.000000,0.000000,0.000000,0.000000
12047046.000000,2.307288,-0.976312,-1.834892,-1.408002,-0.940534,1.695961,0.457289,-0.055149,-0.305472,-0.246242,-0.393907,-0.292626,0.480327,0.167671,0.177350,34.457134,21.679184,10.885801,0.542386,1.909896,-0.004716,0.000000,0.000000,0.000000,0.000000,0.000000,0.000000
12047047.000000,2.307259,-0.976617,-1.835135,-1.408404,-0.940824,1.696429,0.457451,-0.046711,-0.303274,-0.246524,-0.396697,-0.290684,0.472077,0.167186,-0.366168,34.409527,21.631577,11.084166,0.559781,1.968490,0.034652,0.000000,0.000000,0.000000,0.000000,0.000000,0.000000
12047048.000000,2.307220,-0.976929,-1.835369,-1.408820,-0.941126,1.696904,0.457620,-0.041575,-0.301532,-0.242880,-0.398987,-0.298435,0.469134,0.168515,-0.735125,34.357952,21.433212,11.334105,0.578092,2.047225,0.021835,0.000000,0.000000,0.000000,0.000000,0.000000,0.000000
12047049.000000,2.307190,-0.977240,-1.835598,-1.409222,-0.941426,1.697375,0.457786,-0.036797,-0.303545,-0.237836,-0.406542,-0.298586,0.467743,0.166976,-1.131854,34.433331,21.238815,11.504698,0.566190,2.020675,0.067611,0.000000,0.000000,0.000000,0.000000,0.000000,0.000000
12047050.000000,2.307164,-0.977564,-1.835827,-1.409641,-0.941720,1.697853,0.457961,-0.035860,-0.310251,-0.233576,-0.406119,-0.297895,0.476350,0.169787,-1.552386,34.627728,21.016647,11.703062,0.547880,1.942855,0.015426,0.000000,0.000000,0.000000,0.000000,0.000000,0.000000
12047051.000000,2.307136,-0.977897,-1.836045,-1.410048,-0.942010,1.698327,0.458129,-0.034457,-0.321002,-0.230699,-0.402835,-0.294086,0.484281,0.165360,-1.873736,34.921307,20.794479,11.778440,0.547880,1.936446,0.015426,0.000000,0.000000,0.000000,0.000000,0.000000,0.000000
12047052.000000,2.307110,-0.978230,-1.836252,-1.410455,-0.942302,1.698793,0.458293,-0.033128,-0.326618,-0.222338,-0.403009,-0.294789,0.472666,0.164776,-2.199053,35.266460,20.576279,11.826048,0.524076,1.923629,0.048385,0.000000,0.000000,0.000000,0.000000,0.000000,0.000000
12047053.000000,2.307083,-0.978577,-1.836460,-1.410869,-0.942606,1.699270,0.458464,-0.029895,-0.333793,-0.215207,-0.405724,-0.291543,0.478989,0.169972,-2.492632,35.655254,20.330307,12.000608,0.535978,1.871444,0.015426,0.000000,0.000000,0.000000,0.000000,0.000000,0.000000
12047054.000000,2.307060,-0.978921,-1.836662,-1.411274,-0.942900,1.699737,0.458630,-0.030112,-0.338999,-0.214764,-0.402609,-0.289613,0.475928,0.167702,-2.790179,36.024212,20.131943,12.048216,0.542386,1.806442,0.067611,0.000000,0.000000,0.000000,0.000000,0.000000,0.000000
12047055.000000,2.307032,-0.979274,-1.836866,-1.411685,-0.943185,1.700210,0.458805,-0.029778,-0.345736,-0.209138,-0.401478,-0.286189,0.473794,0.170578,-2.964739,36.389202,19.985153,12.171202,0.506681,1.727706,0.009017,0.000000,0.000000,0.000000,0.000000,0.000000,0.000000
12047056.000000,2.307003,-0.979631,-1.837071,-1.412101,-0.943475,1.700689,0.458968,-0.029470,-0.348904,-0.205895,-0.402771,-0.284796,0.470146,0.170102,-3.139300,36.682781,19.885971,12.270384,0.488370,1.708480,0.054794,0.000000,0.000000,0.000000,0.000000,0.000000,0.000000
12047057.000000,2.306969,-0.979975,-1.837263,-1.412518,-0.943761,1.701159,0.459138,-0.031549,-0.346857,-0.200570,-0.406619,-0.282197,0.470904,0.170022,-3.186907,36.904949,19.667770,12.591734,0.434354,1.727706,0.067611,0.000000,0.000000,0.000000,0.000000,0.000000,0.000000
12047058.000000,2.306942,-0.980333,-1.837461,-1.412933,-0.944048,1.701633,0.459308,-0.031139,-0.348527,-0.200377,-0.407504,-0.281221,0.474173,0.171810,-3.309893,37.150921,19.616196,12.714720,0.422452,1.760665,0.021835,0.000000,0.000000,0.000000,0.000000,0.000000,0.000000
12047059.000000,2.306905,-0.980684,-1.837666,-1.413349,-0.944324,1.702102,0.459470,-0.033796,-0.349499,-0.205279,-0.406468,-0.279575,0.467856,0.169426,-3.286089,37.369122,19.643967,12.889280,0.369352,1.819259,0.074935,0.000000,0.000000,0.000000,0.000000,0.000000,0.000000
12047060.000000,2.306861,-0.981038,-1.837851,-1.413764,-0.944610,1.702569,0.459636,-0.038434,-0.355412,-0.202051,-0.409315,-0.280680,0.464120,0.169547,-3.163104,37.515911,19.520981,13.087645,0.369352,1.858627,0.054794,0.000000,0.000000,0.000000,0.000000,0.000000,0.000000
12047061.000000,2.306817,-0.981390,-1.838053,-1.414179,-0.944897,1.703047,0.459810,-0.043857,-0.351672,-0.202496,-0.407667,-0.284183,0.466997,0.170911,-3.063921,37.591290,19.544785,13.309813,0.315336,1.877853,0.048385,0.000000,0.000000,0.000000,0.000000,0.000000,0.000000
12047062.000000,2.306769,-0.981738,-1.838254,-1.414589,-0.945189,1.703523,0.459987,-0.046480,-0.347812,-0.203704,-0.408814,-0.285952,0.466956,0.170899,-2.889361,37.738079,19.592392,13.456602,0.362943,1.819259,0.041976,0.000000,0.000000,0.000000,0.000000,0.000000,0.000000
12047063.000000,2.306714,-0.982098,-1.838459,-1.415001,-0.945474,1.704000,0.460157,-0.049543,-0.349199,-0.204563,-0.403668,-0.280383,0.473732,0.172948,-2.643389,37.956280,19.643967,13.607359,0.374845,1.786300,0.041976,0.000000,0.000000,0.000000,0.000000,0.000000,0.000000
12047064.000000,2.306658,-0.982447,-1.838672,-1.415410,-0.945752,1.704466,0.460326,-0.050654,-0.354056,-0.206497,-0.402958,-0.288896,0.480464,0.171042,-2.445025,38.130840,19.766953,13.631163,0.381254,1.825668,0.067611,0.000000,0.000000,0.000000,0.000000,0.000000,0.000000
12047065.000000,2.306599,-0.982814,-1.838877,-1.415807,-0.946047,1.704929,0.460501,-0.052400,-0.355437,-0.209492,-0.403063,-0.288793,0.469353,0.172427,-2.199053,38.396648,19.814560,13.654966,0.422452,1.838485,0.048385,0.000000,0.000000,0.000000,0.000000,0.000000,0.000000
12047066.000000,2.306537,-0.983183,-1.839086,-1.416205,-0.946338,1.705406,0.460663,-0.056634,-0.356778,-0.208257,-0.398081,-0.291134,0.477481,0.170563,-1.949114,38.690228,19.885971,13.631163,0.416959,1.779891,0.081344,0.000000,0.000000,0.000000,0.000000,0.000000,0.000000
12047067.000000,2.306468,-0.983550,-1.839300,-1.416588,-0.946620,1.705872,0.460839,-0.061463,-0.364402,-0.210221,-0.399812,-0.286540,0.468081,0.172759,-1.627764,38.983807,20.060532,13.484373,0.356534,1.760665,0.034652,0.000000,0.000000,0.000000,0.000000,0.000000,0.000000
12047068.000000,2.306396,-0.983933,-1.839513,-1.416972,-0.946907,1.706330,0.461007,-0.064874,-0.371994,-0.209931,-0.395501,-0.284661,0.468435,0.169161,-1.306414,39.400372,20.159714,13.262205,0.344633,1.793624,0.034652,0.000000,0.000000,0.000000,0.000000,0.000000,0.000000
12047069.000000,2.306326,-0.984305,-1.839734,-1.417361,-0.947200,1.706792,0.461173,-0.066128,-0.370442,-0.215130,-0.391403,-0.287507,0.465393,0.163836,-1.032672,39.622540,20.354111,13.111448,0.308927,1.865035,0.054794,0.000000,0.000000,0.000000,0.000000,0.000000,0.000000
12047070.000000,2.306254,-0.984682,-1.839953,-1.417735,-0.947498,1.707245,0.461339,-0.067643,-0.373159,-0.215160,-0.388693,-0.286632,0.457964,0.165601,-0.735125,39.868511,20.524704,12.841673,0.308927,1.871444,0.048385,0.000000,0.000000,0.000000,0.000000,0.000000,0.000000
12047071.000000,2.306173,-0.985051,-1.840184,-1.418113,-0.947795,1.707711,0.461501,-0.073050,-0.365859,-0.220807,-0.381044,-0.284893,0.464136,0.161952,-0.366168,40.015301,20.794479,12.619505,0.308927,1.800033,0.054794,0.000000,0.000000,0.000000,0.000000,0.000000,0.000000
12047072.000000,2.306086,-0.985403,-1.840416,-1.418494,-0.948086,1.708171,0.461667,-0.077986,-0.359773,-0.224591,-0.380494,-0.284689,0.463808,0.164329,0.030561,39.963726,21.064255,12.444944,0.315336,1.767074,0.034652,0.000000,0.000000,0.000000,0.000000,0.000000,0.000000
12047073.000000,2.306002,-0.985756,-1.840654,-1.418866,-0.948400,1.708633,0.461824,-0.080306,-0.352160,-0.229070,-0.377548,-0.296724,0.462008,0.159995,0.375715,39.892315,21.286423,12.298155,0.393156,1.767074,0.061202,0.000000,0.000000,0.000000,0.000000,0.000000,0.000000
12047074.000000,2.305911,-0.986104,-1.840900,-1.419236,-0.948707,1.709102,0.461986,-0.082676,-0.349391,-0.231897,-0.374143,-0.297917,0.459943,0.162519,0.748639,39.793133,21.631577,12.147398,0.405057,1.786300,0.061202,0.000000,0.000000,0.000000,0.000000,0.000000,0.000000
12047075.000000,2.305822,-0.986448,-1.841135,-1.419599,-0.949016,1.709558,0.462152,-0.086357,-0.347623,-0.232200,-0.372237,-0.295865,0.453020,0.161253,1.069990,39.693951,21.901352,11.976805,0.458158,1.819259,0.028243,0.000000,0.000000,0.000000,0.000000,0.000000,0.000000
12047076.000000,2.305726,-0.986787,-1.841372,-1.419956,-0.949327,1.710006,0.462310,-0.090641,-0.344988,-0.237112,-0.366609,-0.298000,0.453957,0.157182,1.466718,39.574932,22.119553,11.778440,0.500272,1.903487,0.067611,0.000000,0.000000,0.000000,0.000000,0.000000,0.000000
12047077.000000,2.305634,-0.987116,-1.841624,-1.420319,-0.949627,1.710455,0.462479,-0.091112,-0.346648,-0.237595,-0.360738,-0.300035,0.452955,0.156197,1.740461,39.376568,22.440903,11.627684,0.416959,1.968490,0.048385,0.000000,0.000000,0.000000,0.000000,0.000000,0.000000
12047078.000000,2.305538,-0.987456,-1.841861,-1.420666,-0.949942,1.710914,0.462645,-0.091913,-0.343290,-0.237259,-0.355149,-0.305538,0.454942,0.159187,2.034040,39.281353,22.611496,11.429319,0.422452,1.962081,0.054794,0.000000,0.000000,0.000000,0.000000,0.000000,0.000000
12047079.000000,2.305453,-0.987797,-1.842113,-1.421011,-0.950261,1.711380,0.462809,-0.088675,-0.340959,-0.241491,-0.350094,-0.305580,0.461801,0.162859,2.160993,39.082989,22.857468,11.107969,0.452665,1.909896,0.061202,0.000000,0.000000,0.000000,0.000000,0.000000,0.000000
12047080.000000,2.305365,-0.988131,-1.842370,-1.421349,-0.950561,1.711830,0.462977,-0.087641,-0.337325,-0.246510,-0.345579,-0.303574,0.454678,0.166316,2.331586,38.912395,23.151047,10.838194,0.428861,1.942855,0.015426,0.000000,0.000000,0.000000,0.000000,0.000000,0.000000
12047081.000000,2.305276,-0.988466,-1.842620,-1.421688,-0.950886,1.712273,0.463134,-0.086783,-0.334442,-0.244654,-0.345049,-0.310349,0.442263,0.164984,2.482343,38.765606,23.349411,10.540648,0.512174,1.988631,0.074935,0.000000,0.000000,0.000000,0.000000,0.000000,0.000000
12047082.000000,2.305193,-0.988800,-1.842874,-1.422031,-0.951210,1.712718,0.463305,-0.084324,-0.340919,-0.244426,-0.339922,-0.318471,0.453452,0.167926,2.553754,38.642620,23.595383,10.318480,0.584501,2.001449,0.028243,0.000000,0.000000,0.000000,0.000000,0.000000,0.000000
12047083.000000,2.305114,-0.989133,-1.843126,-1.422360,-0.951527,1.713179,0.463481,-0.081857,-0.337131,-0.247551,-0.339862,-0.314233,0.450570,0.166481,2.581525,38.472027,23.841354,10.120115,0.589994,1.962081,-0.017533,0.000000,0.000000,0.000000,0.000000,0.000000,0.000000
12047084.000000,2.305028,-0.989476,-1.843374,-1.422695,-0.951850,1.713635,0.463641,-0.081850,-0.338385,-0.245657,-0.336424,-0.317169,0.452027,0.165430,2.680707,38.349041,23.936569,9.949522,0.649503,1.923629,0.028243,0.000000,0.000000,0.000000,0.000000,0.000000,0.000000
12047085.000000,2.304949,-0.989802,-1.843623,-1.423026,-0.952170,1.714087,0.463805,-0.079440,-0.329850,-0.246267,-0.341970,-0.316852,0.452386,0.160720,2.680707,38.202251,24.083359,9.897947,0.625699,1.942855,0.054794,0.000000,0.000000,0.000000,0.000000,0.000000,0.000000
12047086.000000,2.304873,-0.990130,-1.843870,-1.423359,-0.952493,1.714543,0.463973,-0.080449,-0.325499,-0.244635,-0.336892,-0.316936,0.446930,0.164267,2.652936,38.031658,24.134933,9.798765,0.613798,1.962081,0.021835,0.000000,0.000000,0.000000,0.000000,0.000000,0.000000
12047087.000000,2.304801,-0.990462,-1.844119,-1.423695,-0.952820,1.714996,0.464141,-0.073857,-0.327842,-0.243031,-0.335473,-0.313301,0.460025,0.167831,2.581525,37.932476,24.158737,9.822569,0.625699,1.968490,0.009017,0.000000,0.000000,0.000000,0.000000,0.000000,0.000000
12047088.000000,2.304730,-0.990781,-1.844364,-1.424023,-0.953131,1.715445,0.464300,-0.072813,-0.327333,-0.243834,-0.331916,-0.313163,0.452533,0.161655,2.529951,37.761883,24.257919,9.874144,0.578092,2.020675,0.061202,0.000000,0.000000,0.000000,0.000000,0.000000,0.000000
12047089.000000,2.304659,-0.991099,-1.844598,-1.424362,-0.953463,1.715909,0.464465,-0.071542,-0.321271,-0.240707,-0.332817,-0.314864,0.452302,0.160879,2.454572,37.515911,24.182541,9.973326,0.596403,1.995040,0.015426,0.000000,0.000000,0.000000,0.000000,0.000000,0.000000
12047090.000000,2.304594,-0.991412,-1.844829,-1.424711,-0.953786,1.716363,0.464629,-0.073063,-0.313896,-0.236468,-0.335205,-0.312473,0.453902,0.160346,2.359357,37.369122,24.158737,10.270872,0.625699,1.995040,0.054794,0.000000,0.000000,0.000000,0.000000,0.000000,0.000000
12047091.000000,2.304532,-0.991731,-1.845065,-1.425053,-0.954104,1.716818,0.464794,-0.071194,-0.317931,-0.233376,-0.340225,-0.314603,0.444374,0.162796,2.232404,37.222332,24.134933,10.465269,0.620206,1.995040,0.054794,0.000000,0.000000,0.000000,0.000000,0.000000,0.000000
12047092.000000,2.304475,-0.992047,-1.845292,-1.425397,-0.954426,1.717263,0.464966,-0.065320,-0.316374,-0.231198,-0.339264,-0.317622,0.442367,0.160318,2.061811,37.027935,23.988144,10.616026,0.667814,2.007858,0.009017,0.000000,0.000000,0.000000,0.000000,0.000000,0.000000
12047093.000000,2.304420,-0.992359,-1.845515,-1.425743,-0.954750,1.717699,0.465130,-0.061772,-0.317224,-0.227989,-0.344434,-0.318431,0.438927,0.160441,1.911054,36.904949,23.888962,10.861998,0.679716,2.060043,0.067611,0.000000,0.000000,0.000000,0.000000,0.000000,0.000000
12047094.000000,2.304369,-0.992681,-1.845732,-1.426089,-0.955072,1.718142,0.465302,-0.060842,-0.316348,-0.225888,-0.345526,-0.316898,0.439251,0.160662,1.688886,36.758160,23.666794,11.012754,0.655912,2.112228,0.009017,0.000000,0.000000,0.000000,0.000000,0.000000,0.000000
12047095.000000,2.304316,-0.992999,-1.845945,-1.426435,-0.955386,1.718573,0.465473,-0.059305,-0.320529,-0.219074,-0.346144,-0.319783,0.434538,0.158803,1.565900,36.734356,23.472397,11.135740,0.632108,2.104903,0.001693,0.000000,0.000000,0.000000,0.000000,0.000000,0.000000
12047096.000000,2.304268,-0.993323,-1.846147,-1.426788,-0.955702,1.719018,0.465636,-0.056330,-0.325364,-0.216607,-0.347773,-0.318155,0.436542,0.164079,1.367536,36.710552,23.250229,11.306334,0.578092,2.066451,0.028243,0.000000,0.000000,0.000000,0.000000,0.000000,0.000000
12047097.000000,2.304222,-0.993653,-1.846346,-1.427141,-0.956023,1.719458,0.465798,-0.054686,-0.323980,-0.210143,-0.345865,-0.315944,0.441145,0.164128,1.192975,36.758160,22.980453,11.504698,0.512174,2.047225,0.067611,0.000000,0.000000,0.000000,0.000000,0.000000,0.000000
12047098.000000,2.304174,-0.993974,-1.846544,-1.427492,-0.956342,1.719882,0.465971,-0.051263,-0.328747,-0.204030,-0.347544,-0.317951,0.440192,0.163198,1.046186,36.781963,22.758286,11.679258,0.530485,2.039901,0.015426,0.000000,0.000000,0.000000,0.000000,0.000000,0.000000
12047099.000000,2.304136,-0.994304,-1.846736,-1.427849,-0.956658,1.720321,0.466133,-0.046160,-0.330529,-0.201640,-0.349488,-0.313191,0.431918,0.156198,0.796247,36.781963,22.488510,11.877623,0.524076,2.072860,0.041976,0.000000,0.000000,0.000000,0.000000,0.000000,0.000000
12047100.000000,2.304094,-0.994636,-1.846929,-1.428209,-0.956973,1.720758,0.466297,-0.041655,-0.329390,-0.195961,-0.351268,-0.323040,0.446496,0.158615,0.649457,36.904949,22.194931,12.099791,0.535978,2.053634,0.067611,0.000000,0.000000,0.000000,0.000000,0.000000,0.000000
12047101.000000,2.304061,-0.994958,-1.847119,-1.428569,-0.957297,1.721201,0.466473,-0.039446,-0.332153,-0.196314,-0.356216,-0.324682,0.445897,0.159642,0.403486,36.928753,21.948959,12.345762,0.589994,2.014266,-0.011124,0.000000,0.000000,0.000000,0.000000,0.000000,0.000000
12047102.000000,2.304030,-0.995278,-1.847311,-1.428933,-0.957616,1.721647,0.466630,-0.037209,-0.325295,-0.194126,-0.356479,-0.317822,0.447461,0.154892,0.153547,36.857342,21.754562,12.619505,0.578092,1.988631,0.081344,0.000000,0.000000,0.000000,0.000000,0.000000,0.000000
12047103.000000,2.303993,-0.995600,-1.847492,-1.429297,-0.957922,1.722090,0.466798,-0.041536,-0.326951,-0.194354,-0.366854,-0.312962,0.442006,0.159546,0.030561,36.904949,21.532394,12.841673,0.559781,1.923629,0.054794,0.000000,0.000000,0.000000,0.000000,0.000000,0.000000
12047104.000000,2.303957,-0.995929,-1.847670,-1.429665,-0.958237,1.722539,0.466965,-0.042024,-0.325577,-0.185379,-0.367602,-0.312925,0.445468,0.163368,-0.092425,36.857342,21.286423,13.087645,0.512174,1.923629,0.021835,0.000000,0.000000,0.000000,0.000000,0.000000,0.000000
12047105.000000,2.303926,-0.996246,-1.847851,-1.430039,-0.958555,1.722984,0.467130,-0.041092,-0.317170,-0.183524,-0.373082,-0.309300,0.445623,0.163477,-0.266986,36.758160,21.115829,13.286009,0.488370,1.995040,0.061202,0.000000,0.000000,0.000000,0.000000,0.000000,0.000000
12047106.000000,2.303898,-0.996560,-1.848024,-1.430412,-0.958864,1.723423,0.467307,-0.037334,-0.319387,-0.179763,-0.374434,-0.306600,0.437127,0.167131,-0.441546,36.611370,20.846054,13.484373,0.464567,2.020675,0.015426,0.000000,0.000000,0.000000,0.000000,0.000000,0.000000
12047107.000000,2.303861,-0.996878,-1.848198,-1.430790,-0.959168,1.723874,0.467468,-0.038151,-0.316966,-0.175554,-0.375694,-0.303061,0.445253,0.166819,-0.465350,36.440777,20.623886,13.706541,0.422452,2.020675,0.054794,0.000000,0.000000,0.000000,0.000000,0.000000,0.000000
12047108.000000,2.303824,-0.997187,-1.848376,-1.431167,-0.959481,1.724317,0.467642,-0.038172,-0.315879,-0.172524,-0.373952,-0.307504,0.444280,0.167301,-0.489153,36.270184,20.429489,13.805723,0.422452,2.001449,0.028243,0.000000,0.000000,0.000000,0.000000,0.000000,0.000000
12047109.000000,2.303792,-0.997508,-1.848549,-1.431539,-0.959797,1.724756,0.467809,-0.034243,-0.315874,-0.170801,-0.374169,-0.306663,0.437445,0.168786,-0.540728,36.123394,20.254929,13.952513,0.422452,1.995040,0.009017,0.000000,0.000000,0.000000,0.000000,0.000000,0.000000
12047110.000000,2.303761,-0.997821,-1.848726,-1.431917,-0.960117,1.725196,0.467973,-0.033568,-0.308725,-0.172800,-0.376232,-0.306671,0.435622,0.167976,-0.612139,35.948833,20.108139,14.075499,0.458158,2.047225,0.034652,0.000000,0.000000,0.000000,0.000000,0.000000,0.000000
12047111.000000,2.303725,-0.998140,-1.848898,-1.432283,-0.960425,1.725642,0.468138,-0.035311,-0.317289,-0.169339,-0.370487,-0.305915,0.436830,0.168493,-0.588336,35.948833,20.008957,14.127073,0.470060,2.020675,0.034652,0.000000,0.000000,0.000000,0.000000,0.000000,0.000000
12047112.000000,2.303691,-0.998464,-1.849078,-1.432651,-0.960746,1.726095,0.468303,-0.035119,-0.316735,-0.171850,-0.370447,-0.307897,0.438696,0.166151,-0.635943,35.976604,20.008957,14.075499,0.452665,1.942855,0.041976,0.000000,0.000000,0.000000,0.000000,0.000000,0.000000
12047113.000000,2.303653,-0.998776,-1.849245,-1.433026,-0.961058,1.726546,0.468475,-0.036539,-0.323906,-0.169713,-0.367282,-0.316306,0.440812,0.168711,-0.612139,35.976604,19.838364,14.150877,0.393156,1.865035,0.009017,0.000000,0.000000,0.000000,0.000000,0.000000,0.000000
12047114.000000,2.303616,-0.999095,-1.849414,-1.433384,-0.961379,1.726987,0.468628,-0.037684,-0.324184,-0.174132,-0.364837,-0.313367,0.439185,0.161793,-0.588336,35.948833,19.790756,14.075499,0.405057,1.871444,0.074935,0.000000,0.000000,0.000000,0.000000,0.000000,0.000000
12047115.000000,2.303581,-0.999418,-1.849593,-1.433745,-0.961694,1.727425,0.468795,-0.037598,-0.320103,-0.174166,-0.359385,-0.313689,0.438854,0.165701,-0.588336,36.024212,19.766953,14.000120,0.374845,1.955673,0.041976,0.000000,0.000000,0.000000,0.000000,0.000000,0.000000
12047116.000000,2.303544,-0.999726,-1.849760,-1.434085,-0.962017,1.727860,0.468960,-0.038352,-0.319888,-0.172875,-0.354657,-0.320336,0.436512,0.162579,-0.564532,35.948833,19.667770,13.730345,0.374845,2.007858,0.021835,0.000000,0.000000,0.000000,0.000000,0.000000,0.000000
12047117.000000,2.303512,-1.000037,-1.849931,-1.434447,-0.962348,1.728306,0.469116,-0.037753,-0.317079,-0.175662,-0.354544,-0.321114,0.431480,0.158462,-0.588336,35.778240,19.592392,13.730345,0.398649,1.981307,0.054794,0.000000,0.000000,0.000000,0.000000,0.000000,0.000000
12047118.000000,2.303475,-1.000335,-1.850112,-1.434791,-0.962671,1.728759,0.469278,-0.039038,-0.311524,-0.176638,-0.349906,-0.328135,0.447793,0.157803,-0.540728,35.536236,19.616196,13.531981,0.398649,1.916305,0.021835,0.000000,0.000000,0.000000,0.000000,0.000000,0.000000
12047119.000000,2.303429,-1.000646,-1.850285,-1.435134,-0.962991,1.729204,0.469436,-0.042124,-0.310885,-0.175818,-0.351020,-0.327026,0.447827,0.155921,-0.389971,35.314068,19.568588,13.385191,0.410551,1.832076,0.054794,0.000000,0.000000,0.000000,0.000000,0.000000,0.000000
12047120.000000,2.303392,-1.000964,-1.850470,-1.435468,-0.963330,1.729645,0.469603,-0.044349,-0.308753,-0.177638,-0.339945,-0.331417,0.449172,0.160967,-0.366168,35.167278,19.643967,13.163023,0.464567,1.793624,0.015426,0.000000,0.000000,0.000000,0.000000,0.000000,0.000000
12047121.000000,2.303350,-1.001270,-1.850638,-1.435801,-0.963665,1.730080,0.469769,-0.047857,-0.310297,-0.177605,-0.340062,-0.335389,0.444443,0.161968,-0.266986,34.996685,19.568588,12.988462,0.524076,1.832076,0.041976,0.000000,0.000000,0.000000,0.000000,0.000000,0.000000
12047122.000000,2.303304,-1.001585,-1.850819,-1.436128,-0.963992,1.730522,0.469936,-0.048414,-0.311593,-0.181172,-0.335794,-0.335176,0.441354,0.164503,-0.116229,34.849895,19.592392,12.766294,0.494779,1.844894,0.028243,0.000000,0.000000,0.000000,0.000000,0.000000,0.000000
12047123.000000,2.303264,-1.001900,-1.850991,-1.436454,-0.964322,1.730966,0.470105,-0.046559,-0.313510,-0.178188,-0.333457,-0.333642,0.440228,0.163029,-0.044818,34.726910,19.520981,12.591734,0.434354,1.851302,0.009017,0.000000,0.000000,0.000000,0.000000,0.000000,0.000000
12047124.000000,2.303222,-1.002217,-1.851164,-1.436766,-0.964657,1.731410,0.470267,-0.042281,-0.318119,-0.176061,-0.327920,-0.328915,0.440888,0.167765,0.030561,34.603924,19.445602,12.369566,0.393156,1.812850,0.054794,0.000000,0.000000,0.000000,0.000000,0.000000,0.000000
12047125.000000,2.303184,-1.002534,-1.851347,-1.437082,-0.964992,1.731851,0.470437,-0.040319,-0.314092,-0.176207,-0.322536,-0.330271,0.438674,0.170239,0.030561,34.480938,19.445602,12.246580,0.381254,1.779891,0.001693,0.000000,0.000000,0.000000,0.000000,0.000000,0.000000
12047126.000000,2.303140,-1.002842,-1.851534,-1.437390,-0.965320,1.732278,0.470594,-0.041053,-0.312539,-0.178063,-0.315379,-0.327167,0.441165,0.163064,0.105939,34.385723,19.520981,11.976805,0.362943,1.832076,0.061202,0.000000,0.000000,0.000000,0.000000,0.000000,0.000000
12047127.000000,2.303099,-1.003163,-1.851717,-1.437688,-0.965667,1.732722,0.470759,-0.038547,-0.315521,-0.176914,-0.308027,-0.331849,0.439622,0.164972,0.177350,34.334148,19.497177,11.750669,0.398649,1.844894,0.074935,0.000000,0.000000,0.000000,0.000000,0.000000,0.000000
12047128.000000,2.303063,-1.003479,-1.851908,-1.437986,-0.966016,1.733171,0.470929,-0.034265,-0.311628,-0.180627,-0.302648,-0.335880,0.435140,0.162316,0.153547,34.286541,19.544785,11.556273,0.464567,1.812850,0.054794,0.000000,0.000000,0.000000,0.000000,0.000000,0.000000
12047129.000000,2.303025,-1.003797,-1.852097,-1.438283,-0.966354,1.733623,0.471101,-0.035609,-0.314764,-0.180731,-0.300839,-0.337779,0.437594,0.160979,0.177350,34.238934,19.592392,11.429319,0.500272,1.754256,0.015426,0.000000,0.000000,0.000000,0.000000,0.000000,0.000000
12047130.000000,2.302983,-1.004113,-1.852277,-1.438576,-0.966687,1.734083,0.471261,-0.038389,-0.311855,-0.181478,-0.295167,-0.336730,0.440071,0.161926,0.276533,34.139751,19.544785,11.258726,0.482877,1.656295,0.054794,0.000000,0.000000,0.000000,0.000000,0.000000,0.000000
12047131.000000,2.302944,-1.004423,-1.852457,-1.438868,-0.967025,1.734521,0.471423,-0.041557,-0.319167,-0.181586,-0.292824,-0.347899,0.451372,0.158740,0.304304,34.088177,19.469406,11.159544,0.446256,1.649886,0.067611,0.000000,0.000000,0.000000,0.000000,0.000000,0.000000
12047132.000000,2.302913,-1.004751,-1.852641,-1.439153,-0.967369,1.734967,0.471588,-0.038523,-0.322002,-0.184245,-0.290569,-0.342592,0.450367,0.162855,0.228925,34.115948,19.497177,11.060362,0.476469,1.708480,0.048385,0.000000,0.000000,0.000000,0.000000,0.000000,0.000000
12047133.000000,2.302883,-1.005070,-1.852827,-1.439432,-0.967706,1.735414,0.471750,-0.033127,-0.318109,-0.183764,-0.283905,-0.335183,0.448131,0.164246,0.153547,34.040569,19.445602,10.913572,0.440763,1.773483,0.061202,0.000000,0.000000,0.000000,0.000000,0.000000,0.000000
12047134.000000,2.302855,-1.005391,-1.853008,-1.439709,-0.968040,1.735861,0.471921,-0.032288,-0.321520,-0.180925,-0.287446,-0.334317,0.447193,0.167187,0.054365,33.941387,19.397995,10.786619,0.386747,1.735030,0.015426,0.000000,0.000000,0.000000,0.000000,0.000000,0.000000
12047135.000000,2.302823,-1.005713,-1.853191,-1.439992,-0.968388,1.736317,0.472088,-0.032987,-0.319918,-0.181834,-0.284619,-0.335186,0.450660,0.167878,0.006757,33.822369,19.346420,10.739012,0.369352,1.682845,0.015426,0.000000,0.000000,0.000000,0.000000,0.000000,0.000000
12047136.000000,2.302796,-1.006032,-1.853378,-1.440277,-0.968739,1.736766,0.472254,-0.031748,-0.319269,-0.180003,-0.281200,-0.337758,0.452191,0.165843,-0.116229,33.699383,19.322617,10.786619,0.410551,1.617843,0.087753,0.000000,0.000000,0.000000,0.000000,0.000000,0.000000
12047137.000000,2.302767,-1.006357,-1.853564,-1.440554,-0.969075,1.737202,0.472438,-0.032409,-0.320497,-0.182363,-0.282941,-0.338851,0.448258,0.165639,-0.167803,33.647808,19.322617,10.762815,0.434354,1.605026,-0.004716,0.000000,0.000000,0.000000,0.000000,0.000000,0.000000
12047138.000000,2.302745,-1.006686,-1.853746,-1.440829,-0.969429,1.737635,0.472600,-0.030559,-0.315706,-0.179593,-0.277060,-0.339174,0.440771,0.164107,-0.314593,33.647808,19.275009,10.715208,0.464567,1.656295,0.061202,0.000000,0.000000,0.000000,0.000000,0.000000,0.000000
12047139.000000,2.302726,-1.007026,-1.853924,-1.441097,-0.969778,1.738063,0.472775,-0.028845,-0.325008,-0.182766,-0.273574,-0.342070,0.432576,0.165377,-0.465350,33.770794,19.223434,10.691404,0.542386,1.714889,0.061202,0.000000,0.000000,0.000000,0.000000,0.000000,0.000000
12047140.000000,2.302705,-1.007361,-1.854103,-1.441375,-0.970121,1.738496,0.472951,-0.029007,-0.325905,-0.182908,-0.274199,-0.341265,0.434161,0.168837,-0.588336,33.794598,19.152023,10.663633,0.535978,1.702071,0.001693,0.000000,0.000000,0.000000,0.000000,0.000000,0.000000
12047141.000000,2.302683,-1.007699,-1.854287,-1.441648,-0.970458,1.738940,0.473123,-0.029498,-0.329054,-0.183262,-0.272947,-0.341237,0.438819,0.168958,-0.687518,33.917583,19.104416,10.592222,0.434354,1.597701,0.001693,0.000000,0.000000,0.000000,0.000000,0.000000,0.000000
12047142.000000,2.302669,-1.008040,-1.854472,-1.441911,-0.970798,1.739361,0.473299,-0.025011,-0.335024,-0.185435,-0.268697,-0.334350,0.434961,0.174183,-0.862078,34.064373,19.128220,10.493040,0.386747,1.546432,0.001693,0.000000,0.000000,0.000000,0.000000,0.000000,0.000000
12047143.000000,2.302657,-1.008374,-1.854655,-1.442185,-0.971146,1.739782,0.473463,-0.021967,-0.332145,-0.181926,-0.268991,-0.335645,0.432267,0.170350,-1.032672,34.088177,19.076645,10.417662,0.405057,1.591293,0.087753,0.000000,0.000000,0.000000,0.000000,0.000000,0.000000
12047144.000000,2.302639,-1.008716,-1.854840,-1.442460,-0.971476,1.740201,0.473647,-0.021724,-0.335257,-0.182811,-0.266514,-0.329459,0.430607,0.172085,-1.108050,34.163555,19.029037,10.342283,0.386747,1.656295,0.009017,0.000000,0.000000,0.000000,0.000000,0.000000,0.000000
12047145.000000,2.302622,-1.009057,-1.855023,-1.442730,-0.971823,1.740625,0.473819,-0.021584,-0.336949,-0.183441,-0.265112,-0.338287,0.421664,0.168539,-1.183428,34.211163,18.981430,10.294676,0.410551,1.656295,0.001693,0.000000,0.000000,0.000000,0.000000,0.000000,0.000000
12047146.000000,2.302605,-1.009392,-1.855213,-1.443006,-0.972178,1.741057,0.473984,-0.018223,-0.336551,-0.184768,-0.266440,-0.340607,0.421173,0.167860,-1.254840,34.187359,18.981430,10.243101,0.476469,1.624252,0.028243,0.000000,0.000000,0.000000,0.000000,0.000000,0.000000
12047147.000000,2.302586,-1.009736,-1.855398,-1.443292,-0.972518,1.741482,0.474156,-0.019879,-0.341002,-0.182309,-0.275175,-0.340998,0.421147,0.168515,-1.282611,34.211163,18.953659,10.342283,0.506681,1.591293,0.021835,0.000000,0.000000,0.000000,0.000000,0.000000,0.000000
12047148.000000,2.302568,-1.010081,-1.855580,-1.443567,-0.972852,1.741906,0.474322,-0.021092,-0.341413,-0.182947,-0.274558,-0.337990,0.419836,0.167907,-1.306414,34.286541,18.906052,10.294676,0.458158,1.565658,0.048385,0.000000,0.000000,0.000000,0.000000,0.000000,0.000000
12047149.000000,2.302552,-1.010434,-1.855768,-1.443849,-0.973203,1.742329,0.474501,-0.021354,-0.351789,-0.181562,-0.276749,-0.345106,0.430939,0.174396,-1.354022,34.433331,18.906052,10.219297,0.446256,1.584884,0.009017,0.000000,0.000000,0.000000,0.000000,0.000000,0.000000
12047150.000000,2.302537,-1.010789,-1.855963,-1.444129,-0.973548,1.742755,0.474673,-0.021561,-0.348275,-0.186536,-0.280295,-0.349065,0.430205,0.171524,-1.405596,34.580120,19.029037,10.219297,0.452665,1.637069,0.054794,0.000000,0.000000,0.000000,0.000000,0.000000,0.000000
12047151.000000,2.302519,-1.011148,-1.856147,-1.444413,-0.973882,1.743190,0.474845,-0.018947,-0.349742,-0.182650,-0.278940,-0.338765,0.425427,0.171212,-1.429400,34.774517,18.953659,10.219297,0.381254,1.611434,0.067611,0.000000,0.000000,0.000000,0.000000,0.000000,0.000000
12047152.000000,2.302504,-1.011500,-1.856334,-1.444696,-0.974221,1.743622,0.475021,-0.017101,-0.349341,-0.187311,-0.284187,-0.341085,0.424424,0.172802,-1.453204,34.897503,18.953659,10.270872,0.308927,1.578475,0.015426,0.000000,0.000000,0.000000,0.000000,0.000000,0.000000
12047153.000000,2.302484,-1.011856,-1.856530,-1.444981,-0.974575,1.744056,0.475183,-0.017420,-0.349656,-0.189538,-0.282780,-0.342963,0.424023,0.165373,-1.405596,35.068096,19.029037,10.294676,0.351041,1.519881,0.067611,0.000000,0.000000,0.000000,0.000000,0.000000,0.000000
12047154.000000,2.302461,-1.012223,-1.856725,-1.445268,-0.974928,1.744481,0.475357,-0.017931,-0.351035,-0.189659,-0.285971,-0.344426,0.435118,0.163725,-1.330218,35.290264,19.052841,10.370054,0.410551,1.500655,0.015426,0.000000,0.000000,0.000000,0.000000,0.000000,0.000000
12047155.000000,2.302432,-1.012577,-1.856914,-1.445552,-0.975273,1.744901,0.475528,-0.023102,-0.348484,-0.189894,-0.285255,-0.348597,0.428051,0.165436,-1.183428,35.484661,19.076645,10.441465,0.434354,1.552840,0.021835,0.000000,0.000000,0.000000,0.000000,0.000000,0.000000
12047156.000000,2.302404,-1.012938,-1.857115,-1.445837,-0.975630,1.745328,0.475691,-0.026089,-0.350206,-0.192520,-0.282278,-0.351093,0.432059,0.169264,-1.060443,35.607647,19.223434,10.441465,0.458158,1.578475,0.074935,0.000000,0.000000,0.000000,0.000000,0.000000,0.000000
12047157.000000,2.302380,-1.013287,-1.857304,-1.446121,-0.975984,1.745751,0.475869,-0.023834,-0.350361,-0.198369,-0.284038,-0.354925,0.434999,0.172234,-0.985064,35.631451,19.251205,10.441465,0.518583,1.532699,0.015426,0.000000,0.000000,0.000000,0.000000,0.000000,0.000000
12047158.000000,2.302348,-1.013643,-1.857501,-1.446409,-0.976326,1.746175,0.476035,-0.027270,-0.352012,-0.198648,-0.286510,-0.348804,0.430338,0.167145,-0.834307,35.583843,19.374191,10.493040,0.446256,1.532699,0.009017,0.000000,0.000000,0.000000,0.000000,0.000000,0.000000
12047159.000000,2.302314,-1.014000,-1.857697,-1.446692,-0.976678,1.746596,0.476199,-0.030151,-0.349266,-0.199355,-0.282953,-0.349911,0.421185,0.167378,-0.663714,35.484661,19.397995,10.465269,0.410551,1.546432,0.034652,0.000000,0.000000,0.000000,0.000000,0.000000,0.000000
12047160.000000,2.302281,-1.014339,-1.857893,-1.446973,-0.977027,1.746999,0.476366,-0.029239,-0.347899,-0.198167,-0.287096,-0.351038,0.416553,0.165171,-0.489153,35.266460,19.469406,10.441465,0.386747,1.630660,0.015426,0.000000,0.000000,0.000000,0.000000,0.000000,0.000000
12047161.000000,2.302247,-1.014702,-1.858099,-1.447257,-0.977377,1.747417,0.476526,-0.030823,-0.350891,-0.198383,-0.286662,-0.347616,0.414595,0.166143,-0.342364,35.238689,19.592392,10.393858,0.381254,1.670028,0.015426,0.000000,0.000000,0.000000,0.000000,0.000000,0.000000
12047162.000000,2.302208,-1.015050,-1.858296,-1.447543,-0.977721,1.747831,0.476683,-0.029713,-0.355051,-0.198141,-0.283897,-0.350440,0.415043,0.161087,-0.144000,35.091900,19.568588,10.370054,0.381254,1.676437,0.061202,0.000000,0.000000,0.000000,0.000000,0.000000,0.000000
12047163.000000,2.302165,-1.015406,-1.858502,-1.447827,-0.978079,1.748243,0.476848,-0.033369,-0.356798,-0.204794,-0.288155,-0.354551,0.415255,0.165630,0.105939,34.921307,19.691574,10.342283,0.416959,1.689254,0.041976,0.000000,0.000000,0.000000,0.000000,0.000000,0.000000
12047164.000000,2.302128,-1.015767,-1.858709,-1.448111,-0.978437,1.748662,0.477018,-0.034193,-0.351898,-0.202327,-0.286373,-0.357282,0.414001,0.172598,0.276533,34.873699,19.790756,10.270872,0.476469,1.689254,0.009017,0.000000,0.000000,0.000000,0.000000,0.000000,0.000000
12047165.000000,2.302086,-1.016124,-1.858914,-1.448393,-0.978780,1.749070,0.477183,-0.038593,-0.355627,-0.205355,-0.283771,-0.349421,0.410517,0.170124,0.474897,34.873699,19.937546,10.243101,0.524076,1.662704,0.054794,0.000000,0.000000,0.000000,0.000000,0.000000,0.000000
12047166.000000,2.302042,-1.016486,-1.859117,-1.448675,-0.979134,1.749479,0.477353,-0.039407,-0.355062,-0.204822,-0.284897,-0.350493,0.411503,0.171625,0.697065,34.897503,19.985153,10.219297,0.512174,1.637069,0.015426,0.000000,0.000000,0.000000,0.000000,0.000000,0.000000
12047167.000000,2.302003,-1.016840,-1.859329,-1.448956,-0.979483,1.749889,0.477516,-0.040730,-0.364988,-0.206016,-0.282076,-0.358405,0.413909,0.170363,0.824018,34.897503,20.084335,10.171690,0.482877,1.670028,0.048385,0.000000,0.000000,0.000000,0.000000,0.000000,0.000000
12047168.000000,2.301962,-1.017203,-1.859534,-1.449233,-0.979834,1.750296,0.477680,-0.041810,-0.359041,-0.205557,-0.278969,-0.353292,0.409134,0.164644,0.947004,34.921307,20.131943,10.219297,0.458158,1.670028,0.054794,0.000000,0.000000,0.000000,0.000000,0.000000,0.000000
12047169.000000,2.301920,-1.017559,-1.859746,-1.449511,-0.980178,1.750702,0.477845,-0.043379,-0.357407,-0.204894,-0.280104,-0.350791,0.408338,0.167727,1.093793,34.945110,20.183517,10.171690,0.369352,1.676437,0.009017,0.000000,0.000000,0.000000,0.000000,0.000000,0.000000
12047170.000000,2.301878,-1.017909,-1.859952,-1.449784,-0.980535,1.751099,0.478003,-0.041762,-0.357684,-0.208224,-0.280982,-0.352639,0.403566,0.166063,1.244550,34.873699,20.159714,10.171690,0.362943,1.714889,0.074935,0.000000,0.000000,0.000000,0.000000,0.000000,0.000000
12047171.000000,2.301835,-1.018257,-1.860167,-1.450056,-0.980898,1.751494,0.478174,-0.039626,-0.353386,-0.211155,-0.277008,-0.351419,0.399259,0.160629,1.367536,34.750713,20.231125,10.171690,0.393156,1.773483,0.041976,0.000000,0.000000,0.000000,0.000000,0.000000,0.000000
12047172.000000,2.301789,-1.018615,-1.860378,-1.450339,-0.981255,1.751895,0.478342,-0.041351,-0.353771,-0.208299,-0.278483,-0.354589,0.409534,0.162390,1.490522,34.627728,20.231125,10.243101,0.428861,1.819259,0.061202,0.000000,0.000000,0.000000,0.000000,0.000000,0.000000
12047173.000000,2.301751,-1.018960,-1.860587,-1.450610,-0.981617,1.752299,0.478511,-0.041361,-0.350919,-0.209644,-0.275716,-0.356759,0.411379,0.164356,1.565900,34.504742,20.231125,10.270872,0.470060,1.819259,0.061202,0.000000,0.000000,0.000000,0.000000,0.000000,0.000000
12047174.000000,2.301706,-1.019311,-1.860793,-1.450879,-0.981976,1.752713,0.478675,-0.043035,-0.350623,-0.206610,-0.271685,-0.352807,0.416761,0.161435,1.712690,34.357952,20.207321,10.243101,0.506681,1.773483,0.067611,0.000000,0.000000,0.000000,0.000000,0.000000,0.000000
12047175.000000,2.301662,-1.019655,-1.861010,-1.451157,-0.982323,1.753120,0.478842,-0.043602,-0.347849,-0.210891,-0.272927,-0.352107,0.412538,0.163410,1.835676,34.211163,20.306503,10.243101,0.464567,1.727706,0.067611,0.000000,0.000000,0.000000,0.000000,0.000000,0.000000
12047176.000000,2.301623,-1.020012,-1.861217,-1.451426,-0.982682,1.753531,0.479014,-0.042793,-0.352772,-0.207375,-0.271035,-0.354959,0.409253,0.163017,1.887250,34.211163,20.254929,10.243101,0.476469,1.702071,-0.004716,0.000000,0.000000,0.000000,0.000000,0.000000,0.000000
12047177.000000,2.301590,-1.020371,-1.861430,-1.451690,-0.983044,1.753940,0.479172,-0.036606,-0.351667,-0.208927,-0.264256,-0.359547,0.404729,0.161599,1.835676,34.163555,20.254929,10.171690,0.452665,1.727706,0.074935,0.000000,0.000000,0.000000,0.000000,0.000000,0.000000
12047178.000000,2.301556,-1.020726,-1.861638,-1.451951,-0.983396,1.754332,0.479348,-0.036318,-0.354634,-0.209717,-0.265813,-0.357270,0.398711,0.165714,1.835676,34.262737,20.231125,10.096312,0.398649,1.812850,0.028243,0.000000,0.000000,0.000000,0.000000,0.000000,0.000000
12047179.000000,2.301524,-1.021092,-1.861856,-1.452218,-0.983751,1.754745,0.479523,-0.033091,-0.356021,-0.211940,-0.263837,-0.352358,0.400354,0.168111,1.835676,34.385723,20.278732,10.020933,0.393156,1.865035,0.001693,0.000000,0.000000,0.000000,0.000000,0.000000,0.000000
12047180.000000,2.301492,-1.021452,-1.862066,-1.452486,-0.984106,1.755161,0.479688,-0.029396,-0.353956,-0.209492,-0.261003,-0.359912,0.406126,0.165534,1.764264,34.480938,20.278732,10.020933,0.356534,1.825668,0.061202,0.000000,0.000000,0.000000,0.000000,0.000000,0.000000
12047181.000000,2.301460,-1.021813,-1.862270,-1.452752,-0.984468,1.755582,0.479863,-0.027879,-0.355660,-0.210560,-0.262064,-0.361091,0.412517,0.169995,1.740461,34.457134,20.278732,10.020933,0.381254,1.714889,0.015426,0.000000,0.000000,0.000000,0.000000,0.000000,0.000000
12047182.000000,2.301434,-1.022176,-1.862482,-1.453019,-0.984837,1.755999,0.480030,-0.025840,-0.354947,-0.209689,-0.260551,-0.358720,0.412431,0.168503,1.688886,34.480938,20.354111,10.072508,0.470060,1.689254,0.054794,0.000000,0.000000,0.000000,0.000000,0.000000,0.000000
12047183.000000,2.301406,-1.022528,-1.862689,-1.453277,-0.985199,1.756406,0.480200,-0.024755,-0.355446,-0.210977,-0.261539,-0.365070,0.407861,0.164453,1.641279,34.409527,20.377914,10.072508,0.524076,1.682845,0.041976,0.000000,0.000000,0.000000,0.000000,0.000000,0.000000
12047184.000000,2.301381,-1.022887,-1.862899,-1.453545,-0.985569,1.756810,0.480369,-0.022524,-0.355349,-0.209616,-0.264681,-0.365063,0.407265,0.164290,1.542096,34.334148,20.429489,10.171690,0.571683,1.714889,0.009017,0.000000,0.000000,0.000000,0.000000,0.000000,0.000000
12047185.000000,2.301358,-1.023243,-1.863113,-1.453814,-0.985932,1.757208,0.480532,-0.021455,-0.357663,-0.212660,-0.264668,-0.366254,0.410417,0.163912,1.442914,34.310345,20.524704,10.318480,0.584501,1.767074,0.074935,0.000000,0.000000,0.000000,0.000000,0.000000,0.000000
12047186.000000,2.301340,-1.023600,-1.863315,-1.454074,-0.986277,1.757623,0.480708,-0.019869,-0.352292,-0.212224,-0.263559,-0.365080,0.407360,0.163463,1.315961,34.139751,20.500900,10.417662,0.476469,1.747848,0.001693,0.000000,0.000000,0.000000,0.000000,0.000000,0.000000
12047187.000000,2.301321,-1.023963,-1.863523,-1.454339,-0.986640,1.758022,0.480871,-0.019584,-0.353166,-0.212167,-0.265448,-0.359981,0.406964,0.159755,1.216779,34.187359,20.500900,10.540648,0.398649,1.754256,0.021835,0.000000,0.000000,0.000000,0.000000,0.000000,0.000000
12047188.000000,2.301302,-1.024318,-1.863727,-1.454608,-0.987006,1.758410,0.481031,-0.019896,-0.355021,-0.210004,-0.273109,-0.364399,0.400990,0.156772,1.145368,34.139751,20.524704,10.691404,0.398649,1.844894,0.054794,0.000000,0.000000,0.000000,0.000000,0.000000,0.000000
12047189.000000,2.301292,-1.024685,-1.863936,-1.454873,-0.987370,1.758801,0.481196,-0.014379,-0.353361,-0.208925,-0.269502,-0.363080,0.391969,0.159165,0.970807,34.238934,20.576279,10.786619,0.386747,1.909896,0.009017,0.000000,0.000000,0.000000,0.000000,0.000000,0.000000
12047190.000000,2.301274,-1.025058,-1.864137,-1.455139,-0.987749,1.759189,0.481359,-0.016010,-0.356273,-0.208420,-0.266727,-0.372813,0.397334,0.157622,0.895429,34.385723,20.524704,10.885801,0.428861,1.942855,-0.004716,0.000000,0.000000,0.000000,0.000000,0.000000,0.000000
12047191.000000,2.301259,-1.025418,-1.864346,-1.455410,-0.988122,1.759579,0.481513,-0.017264,-0.356573,-0.210595,-0.269379,-0.375480,0.392471,0.159600,0.824018,34.457134,20.552475,11.060362,0.476469,1.936446,0.048385,0.000000,0.000000,0.000000,0.000000,0.000000,0.000000
12047192.000000,2.301252,-1.025777,-1.864557,-1.455689,-0.988497,1.759984,0.481669,-0.015670,-0.357856,-0.209209,-0.272088,-0.371405,0.396072,0.158586,0.649457,34.480938,20.600082,11.282530,0.506681,1.844894,0.074935,0.000000,0.000000,0.000000,0.000000,0.000000,0.000000
12047193.000000,2.301247,-1.026131,-1.864764,-1.455957,-0.988864,1.760377,0.481842,-0.011577,-0.354688,-0.207223,-0.270489,-0.372661,0.393245,0.160247,0.474897,34.433331,20.600082,11.334105,0.512174,1.767074,0.001693,0.000000,0.000000,0.000000,0.000000,0.000000,0.000000
12047194.000000,2.301241,-1.026494,-1.864969,-1.456235,-0.989242,1.760773,0.482002,-0.009893,-0.357054,-0.204035,-0.273626,-0.365313,0.397526,0.164128,0.351911,34.433331,20.524704,11.429319,0.512174,1.800033,0.061202,0.000000,0.000000,0.000000,0.000000,0.000000,0.000000
12047195.000000,2.301238,-1.026858,-1.865180,-1.456514,-0.989616,1.761159,0.482165,-0.007147,-0.356881,-0.202693,-0.275746,-0.367436,0.387164,0.161747,0.177350,34.357952,20.500900,11.528502,0.494779,1.909896,0.067611,0.000000,0.000000,0.000000,0.000000,0.000000,0.000000
12047196.000000,2.301240,-1.027220,-1.865382,-1.456785,-0.989982,1.761531,0.482339,-0.004722,-0.356602,-0.201405,-0.276549,-0.369148,0.380785,0.161678,-0.017047,34.385723,20.453293,11.580076,0.476469,2.007858,0.001693,0.000000,0.000000,0.000000,0.000000,0.000000,0.000000
12047197.000000,2.301232,-1.027587,-1.865581,-1.457065,-0.990360,1.761930,0.482499,-0.006612,-0.357344,-0.199887,-0.277226,-0.369867,0.383091,0.153366,-0.068621,34.357952,20.377914,11.627684,0.446256,2.033492,0.067611,0.000000,0.000000,0.000000,0.000000,0.000000,0.000000
12047198.000000,2.301226,-1.027951,-1.865782,-1.457347,-0.990732,1.762330,0.482667,-0.007214,-0.363325,-0.199393,-0.278805,-0.378255,0.392926,0.159835,-0.144000,34.357952,20.330307,11.726866,0.434354,1.936446,0.034652,0.000000,0.000000,0.000000,0.000000,0.000000,0.000000
12047199.000000,2.301225,-1.028326,-1.865980,-1.457624,-0.991100,1.762736,0.482832,-0.005987,-0.369139,-0.201021,-0.280646,-0.374570,0.392611,0.163199,-0.266986,34.334148,20.231125,11.849852,0.446256,1.812850,0.021835,0.000000,0.000000,0.000000,0.000000,0.000000,0.000000
12047200.000000,2.301221,-1.028699,-1.866184,-1.457904,-0.991483,1.763137,0.482992,-0.006645,-0.367455,-0.201174,-0.278470,-0.376166,0.397048,0.162659,-0.342364,34.334148,20.231125,11.849852,0.488370,1.793624,0.081344,0.000000,0.000000,0.000000,0.000000,0.000000,0.000000
12047201.000000,2.301216,-1.029068,-1.866382,-1.458179,-0.991861,1.763519,0.483166,-0.006949,-0.367483,-0.199674,-0.279126,-0.373525,0.394477,0.166604,-0.413775,34.357952,20.159714,11.901426,0.542386,1.858627,0.021835,0.000000,0.000000,0.000000,0.000000,0.000000,0.000000
12047202.000000,2.301215,-1.029449,-1.866582,-1.458451,-0.992239,1.763906,0.483324,-0.005820,-0.368490,-0.199524,-0.275181,-0.370382,0.386893,0.165376,-0.540728,34.457134,20.108139,11.901426,0.554288,1.903487,0.074935,0.000000,0.000000,0.000000,0.000000,0.000000,0.000000
12047203.000000,2.301215,-1.029820,-1.866781,-1.458725,-0.992618,1.764301,0.483487,-0.002091,-0.374533,-0.199326,-0.272261,-0.371010,0.401214,0.166703,-0.663714,34.480938,20.060532,11.901426,0.530485,1.936446,0.081344,0.000000,0.000000,0.000000,0.000000,0.000000,0.000000
12047204.000000,2.301208,-1.030195,-1.866969,-1.458994,-0.992989,1.764703,0.483657,-0.004395,-0.374795,-0.194804,-0.270602,-0.371244,0.401875,0.164560,-0.711321,34.480938,19.961349,11.925230,0.488370,1.877853,0.021835,0.000000,0.000000,0.000000,0.000000,0.000000,0.000000
12047205.000000,2.301202,-1.030567,-1.867165,-1.459264,-0.993354,1.765108,0.483818,-0.006497,-0.370813,-0.193091,-0.271989,-0.365056,0.400124,0.161582,-0.735125,34.457134,19.937546,11.949034,0.428861,1.800033,0.009017,0.000000,0.000000,0.000000,0.000000,0.000000,0.000000
12047206.000000,2.301201,-1.030936,-1.867356,-1.459535,-0.993716,1.765502,0.483970,-0.002946,-0.370592,-0.196782,-0.270151,-0.367783,0.398144,0.156316,-0.834307,34.385723,19.913742,11.949034,0.416959,1.806442,0.074935,0.000000,0.000000,0.000000,0.000000,0.000000,0.000000
12047207.000000,2.301193,-1.031314,-1.867544,-1.459807,-0.994093,1.765891,0.484131,-0.005055,-0.372179,-0.195296,-0.268120,-0.367119,0.393414,0.160255,-0.862078,34.385723,19.790756,11.925230,0.446256,1.903487,0.074935,0.000000,0.000000,0.000000,0.000000,0.000000,0.000000
12047208.000000,2.301185,-1.031695,-1.867736,-1.460069,-0.994474,1.766286,0.484304,-0.006867,-0.371635,-0.192618,-0.265679,-0.370467,0.393348,0.165356,-0.885882,34.310345,19.739182,11.877623,0.476469,1.930038,0.009017,0.000000,0.000000,0.000000,0.000000,0.000000,0.000000
12047209.000000,2.301178,-1.032069,-1.867928,-1.460333,-0.994839,1.766682,0.484463,-0.005435,-0.370210,-0.190920,-0.267414,-0.371794,0.400257,0.163764,-0.885882,34.310345,19.691574,11.826048,0.476469,1.897079,0.081344,0.000000,0.000000,0.000000,0.000000,0.000000,0.000000
12047210.000000,2.301173,-1.032442,-1.868120,-1.460600,-0.995218,1.767092,0.484629,-0.006499,-0.368474,-0.192772,-0.266294,-0.371923,0.400593,0.162187,-0.909686,34.187359,19.643967,11.802244,0.464567,1.825668,0.041976,0.000000,0.000000,0.000000,0.000000,0.000000,0.000000
12047211.000000,2.301166,-1.032815,-1.868312,-1.460862,-0.995591,1.767497,0.484794,-0.008015,-0.367232,-0.193610,-0.265488,-0.371760,0.398002,0.163958,-0.909686,34.163555,19.568588,11.778440,0.434354,1.714889,0.041976,0.000000,0.000000,0.000000,0.000000,0.000000,0.000000
12047212.000000,2.301160,-1.033209,-1.868501,-1.461116,-0.995962,1.767897,0.484953,-0.006684,-0.375915,-0.192328,-0.262417,-0.374296,0.396918,0.163837,-0.885882,34.286541,19.544785,11.655455,0.428861,1.708480,0.061202,0.000000,0.000000,0.000000,0.000000,0.000000,0.000000
12047213.000000,2.301157,-1.033603,-1.868690,-1.461373,-0.996347,1.768287,0.485118,-0.005043,-0.379383,-0.190698,-0.257760,-0.380269,0.392398,0.161610,-0.885882,34.433331,19.497177,11.580076,0.452665,1.812850,0.034652,0.000000,0.000000,0.000000,0.000000,0.000000,0.000000
12047214.000000,2.301152,-1.033992,-1.868875,-1.461616,-0.996725,1.768678,0.485277,-0.004360,-0.386221,-0.189862,-0.250560,-0.380113,0.386303,0.162399,-0.862078,34.627728,19.469406,11.457090,0.464567,1.858627,0.067611,0.000000,0.000000,0.000000,0.000000,0.000000,0.000000
12047215.000000,2.301149,-1.034386,-1.869065,-1.461866,-0.997101,1.769083,0.485439,-0.003886,-0.390220,-0.189981,-0.248371,-0.379543,0.390458,0.160568,-0.834307,34.798321,19.469406,11.334105,0.470060,1.786300,0.048385,0.000000,0.000000,0.000000,0.000000,0.000000,0.000000
12047216.000000,2.301150,-1.034769,-1.869259,-1.462114,-0.997469,1.769492,0.485604,-0.001632,-0.397960,-0.189704,-0.247246,-0.383517,0.404599,0.161049,-0.885882,34.849895,19.469406,11.234922,0.410551,1.656295,0.074935,0.000000,0.000000,0.000000,0.000000,0.000000,0.000000
12047217.000000,2.301144,-1.035161,-1.869449,-1.462349,-0.997848,1.769900,0.485771,-0.003594,-0.393448,-0.189764,-0.243548,-0.377237,0.404159,0.159465,-0.786700,34.897503,19.469406,11.135740,0.398649,1.584884,0.061202,0.000000,0.000000,0.000000,0.000000,0.000000,0.000000
12047218.000000,2.301143,-1.035555,-1.869646,-1.462586,-0.998228,1.770291,0.485936,-0.003092,-0.394830,-0.189972,-0.242033,-0.373607,0.402968,0.162790,-0.762896,35.020489,19.497177,10.984983,0.434354,1.624252,0.041976,0.000000,0.000000,0.000000,0.000000,0.000000,0.000000
12047219.000000,2.301141,-1.035946,-1.869837,-1.462824,-0.998593,1.770678,0.486096,-0.002816,-0.394810,-0.192828,-0.245720,-0.374336,0.398736,0.158346,-0.735125,35.091900,19.497177,10.937376,0.434354,1.682845,0.074935,0.000000,0.000000,0.000000,0.000000,0.000000,0.000000
12047220.000000,2.301136,-1.036346,-1.870031,-1.463059,-0.998975,1.771073,0.486257,-0.003626,-0.395033,-0.191172,-0.243491,-0.376276,0.396297,0.161861,-0.663714,35.191082,19.469406,10.885801,0.452665,1.702071,0.061202,0.000000,0.000000,0.000000,0.000000,0.000000,0.000000
12047221.000000,2.301136,-1.036743,-1.870227,-1.463291,-0.999354,1.771467,0.486420,-0.002476,-0.392839,-0.192361,-0.241619,-0.376054,0.405094,0.160052,-0.663714,35.167278,19.544785,10.838194,0.446256,1.676437,0.054794,0.000000,0.000000,0.000000,0.000000,0.000000,0.000000
12047222.000000,2.301134,-1.037132,-1.870417,-1.463523,-0.999716,1.771868,0.486585,-0.002344,-0.392112,-0.191289,-0.240921,-0.373765,0.403343,0.163435,-0.635943,35.191082,19.544785,10.814390,0.381254,1.649886,0.028243,0.000000,0.000000,0.000000,0.000000,0.000000,0.000000
12047223.000000,2.301132,-1.037528,-1.870608,-1.463751,-1.000101,1.772270,0.486748,-0.002153,-0.391421,-0.187115,-0.235999,-0.377761,0.395123,0.164355,-0.612139,35.238689,19.544785,10.762815,0.351041,1.649886,0.061202,0.000000,0.000000,0.000000,0.000000,0.000000,0.000000
12047224.000000,2.301134,-1.037918,-1.870802,-1.463974,-1.000482,1.772655,0.486916,-0.000903,-0.389328,-0.190725,-0.232110,-0.378365,0.388508,0.161339,-0.635943,35.314068,19.592392,10.691404,0.369352,1.689254,0.048385,0.000000,0.000000,0.000000,0.000000,0.000000,0.000000
12047225.000000,2.301138,-1.038319,-1.871005,-1.464192,-1.000855,1.773058,0.487079,0.000586,-0.389072,-0.192442,-0.228102,-0.374454,0.389397,0.158238,-0.687518,35.437054,19.691574,10.564451,0.374845,1.708480,0.061202,0.000000,0.000000,0.000000,0.000000,0.000000,0.000000
12047226.000000,2.301138,-1.038710,-1.871202,-1.464420,-1.001244,1.773454,0.487246,0.000376,-0.384080,-0.194945,-0.227446,-0.384400,0.391240,0.161267,-0.687518,35.508465,19.715378,10.540648,0.374845,1.708480,0.061202,0.000000,0.000000,0.000000,0.000000,0.000000,0.000000
12047227.000000,2.301139,-1.039104,-1.871400,-1.464639,-1.001628,1.773849,0.487412,0.000797,-0.387479,-0.195001,-0.227711,-0.383072,0.394886,0.159962,-0.711321,35.607647,19.790756,10.540648,0.386747,1.649886,0.041976,0.000000,0.000000,0.000000,0.000000,0.000000,0.000000
12047228.000000,2.301143,-1.039497,-1.871608,-1.464859,-1.002015,1.774251,0.487570,0.001730,-0.384283,-0.198394,-0.224425,-0.382463,0.393989,0.160770,-0.762896,35.631451,19.885971,10.540648,0.422452,1.643478,0.094161,0.000000,0.000000,0.000000,0.000000,0.000000,0.000000
12047229.000000,2.301145,-1.039893,-1.871812,-1.465078,-1.002401,1.774651,0.487735,0.001148,-0.389068,-0.197545,-0.221018,-0.386479,0.399947,0.160837,-0.762896,35.655254,19.961349,10.493040,0.446256,1.630660,0.048385,0.000000,0.000000,0.000000,0.000000,0.000000,0.000000
12047230.000000,2.301151,-1.040283,-1.872006,-1.465292,-1.002797,1.775042,0.487895,0.001874,-0.384246,-0.198248,-0.220912,-0.390598,0.393147,0.166136,-0.810504,35.583843,19.961349,10.417662,0.476469,1.637069,0.067611,0.000000,0.000000,0.000000,0.000000,0.000000,0.000000
12047231.000000,2.301158,-1.040678,-1.872210,-1.465514,-1.003187,1.775432,0.488058,0.002453,-0.386561,-0.200953,-0.219491,-0.386686,0.394107,0.166133,-0.862078,35.508465,20.060532,10.441465,0.476469,1.721298,0.094161,0.000000,0.000000,0.000000,0.000000,0.000000,0.000000
12047232.000000,2.301159,-1.041064,-1.872413,-1.465731,-1.003568,1.775817,0.488228,0.004682,-0.383351,-0.201751,-0.219405,-0.384600,0.389338,0.164520,-0.862078,35.337872,20.108139,10.493040,0.494779,1.727706,0.034652,0.000000,0.000000,0.000000,0.000000,0.000000,0.000000
12047233.000000,2.301169,-1.041457,-1.872618,-1.465946,-1.003956,1.776207,0.488382,0.008301,-0.384174,-0.198294,-0.219405,-0.385206,0.386825,0.159295,-0.933489,35.191082,20.108139,10.417662,0.428861,1.670028,0.087753,0.000000,0.000000,0.000000,0.000000,0.000000,0.000000
12047234.000000,2.301179,-1.041850,-1.872827,-1.466161,-1.004335,1.776595,0.488550,0.008315,-0.392117,-0.202268,-0.214515,-0.388817,0.390740,0.159214,-1.032672,35.143475,20.131943,10.393858,0.386747,1.689254,0.034652,0.000000,0.000000,0.000000,0.000000,0.000000,0.000000
12047235.000000,2.301183,-1.042248,-1.873030,-1.466373,-1.004727,1.776972,0.488710,0.005332,-0.394985,-0.201759,-0.215130,-0.392919,0.384739,0.161370,-1.008868,35.143475,20.131943,10.417662,0.434354,1.741439,0.061202,0.000000,0.000000,0.000000,0.000000,0.000000,0.000000
12047236.000000,2.301184,-1.042649,-1.873238,-1.466584,-1.005113,1.777351,0.488870,0.002700,-0.393921,-0.201168,-0.215100,-0.386402,0.383818,0.160084,-0.961260,35.167278,20.131943,10.441465,0.386747,1.773483,0.028243,0.000000,0.000000,0.000000,0.000000,0.000000,0.000000
12047237.000000,2.301189,-1.043047,-1.873444,-1.466794,-1.005501,1.777726,0.489031,0.001994,-0.397982,-0.205143,-0.216730,-0.385649,0.378232,0.161006,-0.961260,35.238689,20.159714,10.441465,0.428861,1.735030,0.061202,0.000000,0.000000,0.000000,0.000000,0.000000,0.000000
12047238.000000,2.301201,-1.043444,-1.873652,-1.467005,-1.005887,1.778108,0.489192,0.005887,-0.395806,-0.205056,-0.216062,-0.381721,0.378722,0.159736,-1.008868,35.266460,20.207321,10.441465,0.488370,1.682845,0.081344,0.000000,0.000000,0.000000,0.000000,0.000000,0.000000
12047239.000000,2.301203,-1.043842,-1.873858,-1.467217,-1.006279,1.778483,0.489365,0.002546,-0.397967,-0.204656,-0.212990,-0.384674,0.385963,0.165138,-0.933489,35.290264,20.231125,10.465269,0.482877,1.676437,0.048385,0.000000,0.000000,0.000000,0.000000,0.000000,0.000000
12047240.000000,2.301203,-1.044237,-1.874061,-1.467424,-1.006662,1.778847,0.489524,0.002399,-0.396918,-0.202555,-0.213204,-0.381451,0.380266,0.164352,-0.810504,35.337872,20.183517,10.465269,0.452665,1.741439,0.100570,0.000000,0.000000,0.000000,0.000000,0.000000,0.000000
12047241.000000,2.301212,-1.044636,-1.874268,-1.467636,-1.007049,1.779223,0.489696,0.005338,-0.400438,-0.201943,-0.212440,-0.383467,0.376868,0.168263,-0.810504,35.337872,20.183517,10.441465,0.422452,1.773483,0.054794,0.000000,0.000000,0.000000,0.000000,0.000000,0.000000
12047242.000000,2.301222,-1.045037,-1.874481,-1.467849,-1.007432,1.779599,0.489860,0.007269,-0.401810,-0.205928,-0.210895,-0.388129,0.377709,0.167231,-0.810504,35.385479,20.231125,10.493040,0.339139,1.741439,0.087753,0.000000,0.000000,0.000000,0.000000,0.000000,0.000000
12047243.000000,2.301217,-1.045438,-1.874680,-1.468057,-1.007831,1.779966,0.490027,0.001498,-0.405847,-0.206063,-0.209536,-0.391877,0.371099,0.165857,-0.635943,35.413250,20.159714,10.540648,0.332731,1.767074,0.067611,0.000000,0.000000,0.000000,0.000000,0.000000,0.000000
12047244.000000,2.301208,-1.045850,-1.874891,-1.468269,-1.008219,1.780334,0.490194,-0.002998,-0.407160,-0.205256,-0.208328,-0.383399,0.367991,0.167204,-0.441546,35.508465,20.183517,10.592222,0.332731,1.871444,0.061202,0.000000,0.000000,0.000000,0.000000,0.000000,0.000000
12047245.000000,2.301212,-1.046260,-1.875094,-1.468480,-1.008618,1.780710,0.490362,0.000804,-0.408787,-0.204916,-0.210843,-0.392506,0.372144,0.167103,-0.413775,35.655254,20.207321,10.639830,0.362943,1.806442,0.081344,0.000000,0.000000,0.000000,0.000000,0.000000,0.000000
12047246.000000,2.301209,-1.046672,-1.875299,-1.468694,-1.009025,1.781089,0.490533,-0.001221,-0.408118,-0.204614,-0.212145,-0.395783,0.368844,0.169165,-0.314593,35.754436,20.231125,10.663633,0.428861,1.747848,0.061202,0.000000,0.000000,0.000000,0.000000,0.000000,0.000000
12047247.000000,2.301200,-1.047079,-1.875511,-1.468902,-1.009414,1.781460,0.490699,-0.000762,-0.411110,-0.206199,-0.208273,-0.390903,0.374816,0.169143,-0.167803,35.948833,20.330307,10.616026,0.428861,1.767074,0.081344,0.000000,0.000000,0.000000,0.000000,0.000000,0.000000
12047248.000000,2.301190,-1.047497,-1.875715,-1.469115,-1.009812,1.781843,0.490872,-0.003463,-0.412167,-0.208014,-0.216421,-0.396638,0.374156,0.174958,-0.017047,36.123394,20.330307,10.639830,0.398649,1.773483,0.034652,0.000000,0.000000,0.000000,0.000000,0.000000,0.000000
12047249.000000,2.301184,-1.047917,-1.875921,-1.469334,-1.010217,1.782224,0.491034,-0.009289,-0.415644,-0.206740,-0.212880,-0.397245,0.378597,0.171692,0.030561,36.293987,20.354111,10.663633,0.428861,1.741439,0.087753,0.000000,0.000000,0.000000,0.000000,0.000000,0.000000
12047250.000000,2.301183,-1.048330,-1.876129,-1.469545,-1.010608,1.782604,0.491204,-0.005839,-0.414187,-0.207058,-0.212554,-0.392198,0.380608,0.171677,0.006757,36.389202,20.429489,10.639830,0.434354,1.662704,0.074935,0.000000,0.000000,0.000000,0.000000,0.000000,0.000000
12047251.000000,2.301170,-1.048741,-1.876335,-1.469754,-1.011000,1.782981,0.491369,-0.010515,-0.411916,-0.204769,-0.207931,-0.392249,0.372118,0.167793,0.153547,36.488384,20.401718,10.564451,0.405057,1.689254,0.041976,0.000000,0.000000,0.000000,0.000000,0.000000,0.000000
12047252.000000,2.301163,-1.049147,-1.876550,-1.469975,-1.011397,1.783343,0.491535,-0.008583,-0.418527,-0.208869,-0.214074,-0.399088,0.377392,0.163077,0.205121,36.464581,20.477097,10.616026,0.381254,1.779891,0.034652,0.000000,0.000000,0.000000,0.000000,0.000000,0.000000
12047253.000000,2.301160,-1.049559,-1.876759,-1.470190,-1.011790,1.783712,0.491702,-0.005998,-0.417625,-0.208968,-0.217936,-0.395251,0.376455,0.164036,0.205121,36.488384,20.576279,10.639830,0.410551,1.793624,0.061202,0.000000,0.000000,0.000000,0.000000,0.000000,0.000000
12047254.000000,2.301155,-1.049976,-1.876970,-1.470401,-1.012187,1.784098,0.491868,-0.004762,-0.415359,-0.208808,-0.214921,-0.399843,0.381445,0.165645,0.228925,36.464581,20.671494,10.564451,0.434354,1.735030,0.061202,0.000000,0.000000,0.000000,0.000000,0.000000,0.000000
12047255.000000,2.301142,-1.050384,-1.877168,-1.470611,-1.012578,1.784469,0.492030,-0.006763,-0.416860,-0.207971,-0.220315,-0.396855,0.374295,0.160382,0.375715,36.535992,20.647690,10.592222,0.381254,1.741439,0.100570,0.000000,0.000000,0.000000,0.000000,0.000000,0.000000
12047256.000000,2.301136,-1.050802,-1.877386,-1.470830,-1.012978,1.784833,0.492195,-0.005275,-0.413676,-0.208983,-0.222345,-0.398560,0.367528,0.158409,0.403486,36.587566,20.770676,10.616026,0.405057,1.773483,0.094161,0.000000,0.000000,0.000000,0.000000,0.000000,0.000000
12047257.000000,2.301128,-1.051220,-1.877605,-1.471044,-1.013373,1.785205,0.492367,-0.005274,-0.417793,-0.209419,-0.216963,-0.402760,0.376339,0.159035,0.474897,36.734356,20.893661,10.616026,0.405057,1.793624,0.048385,0.000000,0.000000,0.000000,0.000000,0.000000,0.000000
12047258.000000,2.301120,-1.051639,-1.877822,-1.471249,-1.013773,1.785572,0.492528,-0.005345,-0.417540,-0.213786,-0.215689,-0.401018,0.371126,0.155757,0.550275,36.904949,21.040451,10.592222,0.405057,1.779891,0.081344,0.000000,0.000000,0.000000,0.000000,0.000000,0.000000
12047259.000000,2.301113,-1.052053,-1.878040,-1.471456,-1.014180,1.785935,0.492686,-0.008630,-0.419489,-0.216675,-0.211878,-0.399359,0.365144,0.154508,0.625654,37.075542,21.163437,10.592222,0.398649,1.819259,0.094161,0.000000,0.000000,0.000000,0.000000,0.000000,0.000000
12047260.000000,2.301114,-1.052453,-1.878272,-1.471673,-1.014577,1.786295,0.492859,-0.004855,-0.415349,-0.224189,-0.217043,-0.399322,0.367234,0.160620,0.574079,36.980328,21.409409,10.663633,0.416959,1.838485,0.028243,0.000000,0.000000,0.000000,0.000000,0.000000,0.000000
12047261.000000,2.301106,-1.052855,-1.878491,-1.471884,-1.014980,1.786668,0.493015,-0.008277,-0.408826,-0.220518,-0.218789,-0.399738,0.369428,0.160354,0.649457,36.857342,21.532394,10.762815,0.416959,1.838485,0.094161,0.000000,0.000000,0.000000,0.000000,0.000000,0.000000
12047262.000000,2.301100,-1.053259,-1.878709,-1.472093,-1.015391,1.787043,0.493184,-0.007708,-0.405598,-0.219554,-0.214178,-0.401370,0.360750,0.159854,0.724836,36.658978,21.607773,10.786619,0.488370,1.825668,0.048385,0.000000,0.000000,0.000000,0.000000,0.000000,0.000000
12047263.000000,2.301100,-1.053652,-1.878932,-1.472302,-1.015783,1.787397,0.493347,-0.005459,-0.401164,-0.221509,-0.211984,-0.400455,0.356646,0.163246,0.724836,36.488384,21.778366,10.838194,0.506681,1.890670,0.048385,0.000000,0.000000,0.000000,0.000000,0.000000,0.000000
12047264.000000,2.301096,-1.054062,-1.879155,-1.472513,-1.016186,1.787757,0.493508,-0.004436,-0.401741,-0.220582,-0.212427,-0.399669,0.352504,0.164466,0.748639,36.389202,21.849777,10.838194,0.512174,1.974899,0.061202,0.000000,0.000000,0.000000,0.000000,0.000000,0.000000
12047265.000000,2.301095,-1.054463,-1.879374,-1.472723,-1.016581,1.788116,0.493674,-0.003138,-0.403159,-0.218954,-0.213283,-0.405660,0.352009,0.161612,0.748639,36.270184,21.877548,10.861998,0.506681,2.014266,0.041976,0.000000,0.000000,0.000000,0.000000,0.000000,0.000000
12047266.000000,2.301093,-1.054872,-1.879596,-1.472928,-1.016966,1.788478,0.493824,-0.002784,-0.403715,-0.219503,-0.209761,-0.396205,0.349123,0.160637,0.772443,36.147198,21.972763,10.838194,0.428861,1.968490,0.100570,0.000000,0.000000,0.000000,0.000000,0.000000,0.000000
12047267.000000,2.301091,-1.055270,-1.879818,-1.473135,-1.017368,1.788853,0.493990,-0.002514,-0.399691,-0.219583,-0.210325,-0.390931,0.355523,0.160306,0.796247,35.976604,22.024338,10.838194,0.416959,1.916305,0.048385,0.000000,0.000000,0.000000,0.000000,0.000000,0.000000
12047268.000000,2.301093,-1.055672,-1.880041,-1.473342,-1.017765,1.789208,0.494156,-0.001195,-0.402023,-0.219316,-0.207901,-0.389983,0.354061,0.161526,0.772443,35.877422,22.095749,10.838194,0.482877,1.949264,0.074935,0.000000,0.000000,0.000000,0.000000,0.000000,0.000000
12047269.000000,2.301091,-1.056079,-1.880261,-1.473547,-1.018156,1.789559,0.494324,-0.001411,-0.405253,-0.219935,-0.204491,-0.386965,0.345425,0.165140,0.796247,35.877422,22.194931,10.762815,0.470060,2.027084,0.048385,0.000000,0.000000,0.000000,0.000000,0.000000,0.000000
12047270.000000,2.301086,-1.056485,-1.880475,-1.473754,-1.018559,1.789925,0.494487,-0.002746,-0.405400,-0.214303,-0.203296,-0.394033,0.361817,0.165086,0.871625,35.877422,22.171127,10.739012,0.476469,2.001449,0.081344,0.000000,0.000000,0.000000,0.000000,0.000000,0.000000
12047271.000000,2.301095,-1.056884,-1.880684,-1.473961,-1.018959,1.790284,0.494654,0.000457,-0.403035,-0.213034,-0.204290,-0.395180,0.360596,0.166743,0.772443,35.802044,22.119553,10.786619,0.512174,1.981307,0.087753,0.000000,0.000000,0.000000,0.000000,0.000000,0.000000
12047272.000000,2.301096,-1.057293,-1.880902,-1.474171,-1.019356,1.790645,0.494822,0.003306,-0.404075,-0.213392,-0.206561,-0.393536,0.359092,0.168949,0.772443,35.730633,22.147324,10.786619,0.482877,1.962081,0.054794,0.000000,0.000000,0.000000,0.000000,0.000000,0.000000
12047273.000000,2.301093,-1.057694,-1.881109,-1.474371,-1.019757,1.790989,0.494981,0.000675,-0.402794,-0.213834,-0.208475,-0.396106,0.355831,0.168573,0.847822,35.683025,22.071945,10.715208,0.416959,2.014266,0.061202,0.000000,0.000000,0.000000,0.000000,0.000000,0.000000
12047274.000000,2.301097,-1.058102,-1.881326,-1.474576,-1.020169,1.791348,0.495142,0.001832,-0.404235,-0.213661,-0.207943,-0.399298,0.357943,0.164591,0.796247,35.607647,22.048141,10.762815,0.452665,2.072860,0.048385,0.000000,0.000000,0.000000,0.000000,0.000000,0.000000
12047275.000000,2.301105,-1.058500,-1.881536,-1.474778,-1.020571,1.791715,0.495301,0.003023,-0.404080,-0.212304,-0.206787,-0.403464,0.357609,0.160548,0.724836,35.460857,21.972763,10.786619,0.458158,2.060043,0.100570,0.000000,0.000000,0.000000,0.000000,0.000000,0.000000
12047276.000000,2.301106,-1.058901,-1.881741,-1.474978,-1.020976,1.792080,0.495470,0.001558,-0.401550,-0.205085,-0.205438,-0.405949,0.360241,0.165866,0.748639,35.337872,21.901352,10.786619,0.458158,1.962081,0.048385,0.000000,0.000000,0.000000,0.000000,0.000000,0.000000
12047277.000000,2.301104,-1.059305,-1.881939,-1.475184,-1.021393,1.792443,0.495626,-0.000651,-0.402637,-0.201453,-0.206505,-0.404337,0.363239,0.161068,0.824018,35.266460,21.778366,10.885801,0.488370,1.949264,0.087753,0.000000,0.000000,0.000000,0.000000,0.000000,0.000000
12047280.000000,2.301121,-1.060546,-1.882532,-1.475778,-1.022614,1.793526,0.496108,0.002870,-0.414283,-0.192814,-0.200443,-0.403302,0.359460,0.159230,0.796247,35.536236,21.433212,10.961180,0.494779,2.020675,0.094161,0.000000,0.000000,0.000000,0.000000,0.000000,0.000000
12047281.000000,2.301129,-1.060956,-1.882727,-1.475967,-1.023005,1.793894,0.496272,0.002127,-0.413251,-0.190916,-0.195674,-0.394534,0.363637,0.158751,0.796247,35.631451,21.361801,10.885801,0.434354,2.020675,0.054794,0.000000,0.000000,0.000000,0.000000,0.000000,0.000000
12047282.000000,2.301141,-1.061368,-1.882921,-1.476165,-1.023408,1.794273,0.496428,0.006522,-0.411893,-0.188756,-0.195866,-0.398093,0.363624,0.160975,0.724836,35.607647,21.262619,10.961180,0.369352,1.930038,0.074935,0.000000,0.000000,0.000000,0.000000,0.000000,0.000000
12047283.000000,2.301148,-1.061784,-1.883115,-1.476354,-1.023809,1.794636,0.496590,0.004184,-0.420931,-0.190803,-0.190949,-0.408789,0.357294,0.162706,0.748639,35.802044,21.187241,10.961180,0.356534,1.890670,0.100570,0.000000,0.000000,0.000000,0.000000,0.000000,0.000000
12047284.000000,2.301158,-1.062206,-1.883308,-1.476535,-1.024209,1.795011,0.496761,0.002527,-0.417927,-0.189752,-0.190762,-0.403443,0.356827,0.166075,0.772443,35.901226,21.139633,10.838194,0.393156,1.871444,0.061202,0.000000,0.000000,0.000000,0.000000,0.000000,0.000000
12047285.000000,2.301171,-1.062632,-1.883497,-1.476728,-1.024621,1.795383,0.496923,0.005801,-0.419372,-0.190090,-0.190047,-0.407562,0.356162,0.162356,0.724836,36.024212,21.139633,10.838194,0.434354,1.851302,0.054794,0.000000,0.000000,0.000000,0.000000,0.000000,0.000000
12047286.000000,2.301179,-1.063049,-1.883674,-1.476913,-1.025022,1.795740,0.497092,0.006757,-0.419442,-0.186651,-0.191933,-0.410336,0.355595,0.170424,0.748639,36.095623,20.992844,10.838194,0.470060,1.844894,0.028243,0.000000,0.000000,0.000000,0.000000,0.000000,0.000000
12047287.000000,2.301192,-1.063460,-1.883864,-1.477103,-1.025414,1.796107,0.497251,0.006820,-0.413329,-0.187619,-0.188593,-0.406873,0.354549,0.165865,0.673261,36.071819,20.992844,10.861998,0.446256,1.832076,0.067611,0.000000,0.000000,0.000000,0.000000,0.000000,0.000000
12047288.000000,2.301203,-1.063876,-1.884050,-1.477284,-1.025816,1.796480,0.497417,0.004961,-0.415180,-0.185828,-0.186322,-0.406980,0.364416,0.162741,0.673261,36.123394,20.893661,10.762815,0.405057,1.779891,0.048385,0.000000,0.000000,0.000000,0.000000,0.000000,0.000000
12047289.000000,2.301220,-1.064283,-1.884225,-1.477463,-1.026211,1.796838,0.497583,0.008752,-0.412865,-0.183642,-0.184920,-0.401976,0.367160,0.165659,0.574079,36.048016,20.746872,10.663633,0.351041,1.760665,0.048385,0.000000,0.000000,0.000000,0.000000,0.000000,0.000000
12047290.000000,2.301239,-1.064704,-1.884412,-1.477649,-1.026609,1.797185,0.497743,0.011643,-0.410926,-0.187255,-0.180423,-0.399227,0.360028,0.166510,0.474897,36.123394,20.699265,10.691404,0.315336,1.838485,0.054794,0.000000,0.000000,0.000000,0.000000,0.000000,0.000000
12047291.000000,2.301249,-1.065114,-1.884595,-1.477818,-1.027011,1.797535,0.497912,0.011419,-0.413951,-0.192130,-0.176633,-0.407100,0.356832,0.167463,0.474897,36.218609,20.647690,10.564451,0.285123,1.884261,0.054794,0.000000,0.000000,0.000000,0.000000,0.000000,0.000000
12047292.000000,2.301266,-1.065525,-1.884784,-1.477990,-1.027420,1.797890,0.498070,0.013911,-0.412199,-0.191291,-0.175212,-0.406846,0.361635,0.165938,0.375715,36.147198,20.623886,10.493040,0.303434,1.877853,0.114303,0.000000,0.000000,0.000000,0.000000,0.000000,0.000000
12047293.000000,2.301290,-1.065933,-1.884974,-1.478172,-1.027822,1.798250,0.498240,0.017106,-0.410729,-0.188915,-0.179215,-0.394892,0.365420,0.170346,0.205121,36.048016,20.671494,10.516844,0.308927,1.806442,0.054794,0.000000,0.000000,0.000000,0.000000,0.000000,0.000000
12047294.000000,2.301306,-1.066338,-1.885155,-1.478345,-1.028224,1.798606,0.498402,0.016279,-0.409239,-0.190551,-0.178159,-0.400194,0.364160,0.164098,0.153547,35.925030,20.600082,10.493040,0.315336,1.754256,0.094161,0.000000,0.000000,0.000000,0.000000,0.000000,0.000000
12047295.000000,2.301326,-1.066744,-1.885341,-1.478519,-1.028641,1.798963,0.498565,0.016497,-0.409963,-0.186489,-0.177100,-0.405821,0.359849,0.160610,0.078168,35.778240,20.576279,10.465269,0.356534,1.773483,0.081344,0.000000,0.000000,0.000000,0.000000,0.000000,0.000000
12047296.000000,2.301355,-1.067143,-1.885529,-1.478689,-1.029046,1.799311,0.498728,0.019608,-0.406127,-0.189997,-0.175939,-0.403689,0.356225,0.158225,-0.116229,35.536236,20.552475,10.417662,0.374845,1.825668,0.074935,0.000000,0.000000,0.000000,0.000000,0.000000,0.000000
12047297.000000,2.301374,-1.067550,-1.885715,-1.478851,-1.029466,1.799666,0.498891,0.018821,-0.406849,-0.185535,-0.173270,-0.412731,0.356306,0.165116,-0.191607,35.314068,20.500900,10.294676,0.386747,1.812850,0.067611,0.000000,0.000000,0.000000,0.000000,0.000000,0.000000
12047298.000000,2.301395,-1.067954,-1.885899,-1.479019,-1.029889,1.800031,0.499058,0.021342,-0.403957,-0.180773,-0.171668,-0.409452,0.354568,0.166570,-0.266986,35.068096,20.401718,10.195494,0.410551,1.838485,0.061202,0.000000,0.000000,0.000000,0.000000,0.000000,0.000000
12047299.000000,2.301416,-1.068355,-1.886090,-1.479184,-1.030291,1.800378,0.499220,0.020268,-0.405100,-0.180736,-0.169638,-0.399988,0.358019,0.161437,-0.342364,34.945110,20.429489,10.171690,0.374845,1.884261,0.107894,0.000000,0.000000,0.000000,0.000000,0.000000,0.000000
12047300.000000,2.301435,-1.068769,-1.886280,-1.479348,-1.030705,1.800744,0.499392,0.022114,-0.406451,-0.184972,-0.167771,-0.403142,0.355273,0.166212,-0.389971,34.897503,20.377914,10.143919,0.332731,1.779891,0.041976,0.000000,0.000000,0.000000,0.000000,0.000000,0.000000
12047301.000000,2.301460,-1.069177,-1.886465,-1.479507,-1.031120,1.801108,0.499549,0.024813,-0.416461,-0.183197,-0.165760,-0.413061,0.370180,0.160412,-0.489153,34.897503,20.254929,10.096312,0.332731,1.721298,0.094161,0.000000,0.000000,0.000000,0.000000,0.000000,0.000000
12047302.000000,2.301479,-1.069591,-1.886659,-1.479663,-1.031540,1.801467,0.499712,0.024691,-0.411427,-0.186842,-0.165535,-0.410345,0.364530,0.158186,-0.489153,34.945110,20.330307,10.096312,0.362943,1.747848,0.100570,0.000000,0.000000,0.000000,0.000000,0.000000,0.000000
12047303.000000,2.301498,-1.070010,-1.886851,-1.479822,-1.031962,1.801830,0.499877,0.021216,-0.414286,-0.188188,-0.164289,-0.418919,0.361643,0.163102,-0.489153,35.044292,20.354111,10.072508,0.327238,1.754256,0.048385,0.000000,0.000000,0.000000,0.000000,0.000000,0.000000
12047304.000000,2.301514,-1.070420,-1.887032,-1.479982,-1.032375,1.802177,0.500036,0.017869,-0.414282,-0.185587,-0.167029,-0.418758,0.358227,0.158789,-0.441546,35.044292,20.231125,10.096312,0.351041,1.793624,0.074935,0.000000,0.000000,0.000000,0.000000,0.000000,0.000000
12047305.000000,2.301536,-1.070833,-1.887230,-1.480139,-1.032784,1.802533,0.500197,0.020786,-0.413834,-0.190740,-0.166284,-0.409516,0.356265,0.162115,-0.489153,35.044292,20.278732,10.096312,0.351041,1.800033,0.061202,0.000000,0.000000,0.000000,0.000000,0.000000,0.000000
12047306.000000,2.301559,-1.071243,-1.887424,-1.480292,-1.033206,1.802901,0.500356,0.023158,-0.411886,-0.189744,-0.161997,-0.416185,0.361931,0.162668,-0.540728,34.945110,20.254929,10.072508,0.362943,1.714889,0.094161,0.000000,0.000000,0.000000,0.000000,0.000000,0.000000
12047307.000000,2.301573,-1.071649,-1.887610,-1.480448,-1.033624,1.803246,0.500513,0.021981,-0.411579,-0.187608,-0.164388,-0.415894,0.353860,0.160008,-0.465350,34.897503,20.159714,10.143919,0.362943,1.727706,0.081344,0.000000,0.000000,0.000000,0.000000,0.000000,0.000000
12047308.000000,2.301592,-1.072067,-1.887804,-1.480607,-1.034046,1.803596,0.500671,0.019769,-0.409341,-0.187775,-0.161998,-0.416089,0.350294,0.158673,-0.465350,34.921307,20.159714,10.195494,0.374845,1.806442,0.074935,0.000000,0.000000,0.000000,0.000000,0.000000,0.000000
12047309.000000,2.301604,-1.072484,-1.887990,-1.480763,-1.034460,1.803951,0.500826,0.015508,-0.413824,-0.191149,-0.159137,-0.413128,0.346885,0.156449,-0.366168,35.044292,20.060532,10.195494,0.308927,1.786300,0.074935,0.000000,0.000000,0.000000,0.000000,0.000000,0.000000
12047310.000000,2.301626,-1.072912,-1.888187,-1.480919,-1.034886,1.804312,0.500980,0.018146,-0.415290,-0.192579,-0.160025,-0.416792,0.351087,0.154918,-0.366168,35.214886,20.131943,10.195494,0.344633,1.721298,0.074935,0.000000,0.000000,0.000000,0.000000,0.000000,0.000000
12047311.000000,2.301641,-1.073340,-1.888375,-1.481074,-1.035309,1.804666,0.501126,0.017742,-0.418291,-0.187769,-0.157434,-0.417545,0.351941,0.152507,-0.266986,35.361675,20.108139,10.195494,0.381254,1.702071,0.114303,0.000000,0.000000,0.000000,0.000000,0.000000,0.000000
12047312.000000,2.301652,-1.073766,-1.888563,-1.481225,-1.035724,1.805016,0.501284,0.014316,-0.420896,-0.185607,-0.156558,-0.414930,0.352200,0.154455,-0.167803,35.536236,20.131943,10.219297,0.332731,1.702071,0.061202,0.000000,0.000000,0.000000,0.000000,0.000000,0.000000
12047313.000000,2.301665,-1.074201,-1.888743,-1.481379,-1.036150,1.805367,0.501436,0.015876,-0.425618,-0.186519,-0.154476,-0.415756,0.345615,0.152969,-0.092425,35.730633,20.008957,10.195494,0.344633,1.727706,0.074935,0.000000,0.000000,0.000000,0.000000,0.000000,0.000000
12047314.000000,2.301690,-1.074634,-1.888944,-1.481533,-1.036565,1.805709,0.501592,0.020351,-0.427214,-0.187253,-0.151841,-0.427795,0.342718,0.152213,-0.167803,35.948833,20.131943,10.120115,0.362943,1.714889,0.074935,0.000000,0.000000,0.000000,0.000000,0.000000,0.000000
12047315.000000,2.301702,-1.075067,-1.889132,-1.481678,-1.036985,1.806066,0.501748,0.019385,-0.429123,-0.187552,-0.148505,-0.428342,0.341490,0.151530,-0.068621,36.071819,20.131943,9.973326,0.315336,1.682845,0.067611,0.000000,0.000000,0.000000,0.000000,0.000000,0.000000
12047316.000000,2.301721,-1.075500,-1.889318,-1.481830,-1.037406,1.806421,0.501901,0.021097,-0.425979,-0.187046,-0.148675,-0.420253,0.344302,0.156160,-0.068621,36.123394,20.108139,9.949522,0.320829,1.682845,0.067611,0.000000,0.000000,0.000000,0.000000,0.000000,0.000000
12047317.000000,2.301738,-1.075926,-1.889512,-1.481983,-1.037807,1.806771,0.502059,0.021792,-0.428330,-0.189897,-0.150072,-0.417521,0.347083,0.159758,-0.044818,36.123394,20.207321,9.973326,0.285123,1.662704,0.054794,0.000000,0.000000,0.000000,0.000000,0.000000,0.000000
12047318.000000,2.301754,-1.076356,-1.889709,-1.482129,-1.038228,1.807119,0.502213,0.021869,-0.424165,-0.190613,-0.147642,-0.418799,0.347881,0.162011,0.006757,36.147198,20.254929,9.850340,0.303434,1.649886,0.061202,0.000000,0.000000,0.000000,0.000000,0.000000,0.000000
12047319.000000,2.301770,-1.076794,-1.889906,-1.482279,-1.038649,1.807460,0.502370,0.021822,-0.438200,-0.189690,-0.146008,-0.425628,0.354542,0.159170,0.054365,36.293987,20.377914,9.727354,0.332731,1.721298,0.061202,0.000000,0.000000,0.000000,0.000000,0.000000,0.000000
12047320.000000,2.301787,-1.077232,-1.890098,-1.482438,-1.039057,1.807804,0.502522,0.022387,-0.434989,-0.190926,-0.150057,-0.427627,0.347309,0.162441,0.078168,36.440777,20.453293,9.822569,0.327238,1.767074,0.081344,0.000000,0.000000,0.000000,0.000000,0.000000,0.000000
12047321.000000,2.301806,-1.077676,-1.890293,-1.482590,-1.039478,1.808156,0.502682,0.019769,-0.431908,-0.190741,-0.149656,-0.418619,0.350796,0.160740,0.078168,36.563763,20.500900,9.798765,0.308927,1.714889,0.054794,0.000000,0.000000,0.000000,0.000000,0.000000,0.000000
12047322.000000,2.301818,-1.078106,-1.890495,-1.482739,-1.039884,1.808509,0.502841,0.019522,-0.430580,-0.196623,-0.152209,-0.411595,0.354092,0.157280,0.153547,36.710552,20.647690,9.798765,0.273221,1.649886,0.074935,0.000000,0.000000,0.000000,0.000000,0.000000,0.000000
12047323.000000,2.301841,-1.078541,-1.890702,-1.482889,-1.040298,1.808863,0.502993,0.020252,-0.433044,-0.197653,-0.148870,-0.413788,0.354095,0.154493,0.054365,36.758160,20.794479,9.798765,0.273221,1.630660,0.107894,0.000000,0.000000,0.000000,0.000000,0.000000,0.000000
12047324.000000,2.301863,-1.078969,-1.890905,-1.483036,-1.040725,1.809206,0.503152,0.021776,-0.429980,-0.195995,-0.147792,-0.414508,0.347417,0.155074,0.030561,36.710552,20.846054,9.727354,0.285123,1.670028,0.067611,0.000000,0.000000,0.000000,0.000000,0.000000,0.000000
12047325.000000,2.301883,-1.079395,-1.891112,-1.483190,-1.041144,1.809533,0.503305,0.022349,-0.430517,-0.199605,-0.150652,-0.416105,0.340469,0.152809,0.030561,36.635174,20.969040,9.798765,0.327238,1.754256,0.100570,0.000000,0.000000,0.000000,0.000000,0.000000,0.000000
12047326.000000,2.301906,-1.079824,-1.891317,-1.483341,-1.041565,1.809871,0.503464,0.023971,-0.426967,-0.200785,-0.147949,-0.421850,0.335585,0.159487,-0.017047,36.563763,21.040451,9.822569,0.351041,1.819259,0.034652,0.000000,0.000000,0.000000,0.000000,0.000000,0.000000
12047327.000000,2.301927,-1.080251,-1.891524,-1.483489,-1.041991,1.810210,0.503615,0.023838,-0.428571,-0.204008,-0.148580,-0.421433,0.331142,0.156336,-0.017047,36.488384,21.115829,9.822569,0.393156,1.786300,0.048385,0.000000,0.000000,0.000000,0.000000,0.000000,0.000000
12047328.000000,2.301945,-1.080681,-1.891735,-1.483637,-1.042410,1.810550,0.503761,0.023572,-0.433380,-0.203718,-0.150703,-0.420337,0.327688,0.157291,0.006757,36.416973,21.286423,9.897947,0.369352,1.747848,0.114303,0.000000,0.000000,0.000000,0.000000,0.000000,0.000000
12047329.000000,2.301967,-1.081118,-1.891939,-1.483793,-1.042830,1.810890,0.503928,0.023967,-0.430143,-0.202776,-0.155273,-0.426572,0.327402,0.158310,0.006757,36.341595,21.310226,9.973326,0.327238,1.793624,0.048385,0.000000,0.000000,0.000000,0.000000,0.000000,0.000000
12047330.000000,2.301982,-1.081547,-1.892143,-1.483941,-1.043254,1.811228,0.504084,0.019579,-0.435190,-0.205913,-0.154002,-0.427443,0.331265,0.159813,0.078168,36.293987,21.337997,9.973326,0.303434,1.865035,0.074935,0.000000,0.000000,0.000000,0.000000,0.000000,0.000000
12047331.000000,2.302006,-1.081983,-1.892359,-1.484088,-1.043682,1.811566,0.504243,0.019513,-0.432508,-0.207173,-0.153078,-0.429271,0.335281,0.158851,0.006757,36.293987,21.457016,9.973326,0.291532,1.897079,0.041976,0.000000,0.000000,0.000000,0.000000,0.000000,0.000000
12047332.000000,2.302026,-1.082419,-1.892573,-1.484234,-1.044108,1.811901,0.504393,0.016495,-0.432849,-0.209591,-0.151960,-0.431175,0.335245,0.154211,0.054365,36.341595,21.508591,9.949522,0.308927,1.890670,0.107894,0.000000,0.000000,0.000000,0.000000,0.000000,0.000000
12047333.000000,2.302040,-1.082853,-1.892786,-1.484381,-1.044542,1.812246,0.504554,0.016480,-0.431314,-0.212643,-0.150318,-0.433025,0.334751,0.159564,0.153547,36.341595,21.607773,10.020933,0.320829,1.890670,0.048385,0.000000,0.000000,0.000000,0.000000,0.000000,0.000000
12047334.000000,2.302057,-1.083291,-1.893003,-1.484535,-1.044967,1.812591,0.504704,0.017106,-0.432332,-0.213941,-0.153576,-0.424426,0.335234,0.156432,0.228925,36.293987,21.679184,10.171690,0.344633,1.865035,0.081344,0.000000,0.000000,0.000000,0.000000,0.000000,0.000000
12047335.000000,2.302078,-1.083718,-1.893209,-1.484686,-1.045397,1.812931,0.504856,0.020252,-0.430248,-0.211130,-0.154307,-0.426891,0.335418,0.154585,0.205121,36.242413,21.702988,10.243101,0.362943,1.844894,0.094161,0.000000,0.000000,0.000000,0.000000,0.000000,0.000000
12047336.000000,2.302090,-1.084153,-1.893419,-1.484835,-1.045834,1.813266,0.505011,0.018453,-0.429674,-0.209675,-0.153164,-0.430292,0.332218,0.153996,0.351911,36.147198,21.754562,10.243101,0.362943,1.884261,0.048385,0.000000,0.000000,0.000000,0.000000,0.000000,0.000000
12047337.000000,2.302110,-1.084577,-1.893623,-1.484984,-1.046268,1.813603,0.505161,0.020225,-0.426782,-0.206747,-0.150078,-0.431872,0.338729,0.151625,0.375715,36.024212,21.726791,10.270872,0.374845,1.936446,0.100570,0.000000,0.000000,0.000000,0.000000,0.000000,0.000000
12047338.000000,2.302125,-1.085012,-1.893833,-1.485131,-1.046704,1.813941,0.505324,0.020040,-0.425047,-0.209568,-0.148010,-0.437026,0.335155,0.148732,0.451093,35.925030,21.778366,10.318480,0.374845,1.995040,0.048385,0.000000,0.000000,0.000000,0.000000,0.000000,0.000000
12047339.000000,2.302136,-1.085450,-1.894037,-1.485275,-1.047135,1.814281,0.505480,0.015524,-0.425304,-0.205894,-0.147716,-0.428905,0.334762,0.148770,0.574079,35.901226,21.726791,10.294676,0.308927,1.981307,0.041976,0.000000,0.000000,0.000000,0.000000,0.000000,0.000000
12047340.000000,2.302148,-1.085888,-1.894236,-1.485421,-1.047560,1.814620,0.505629,0.013085,-0.430081,-0.207507,-0.150718,-0.430290,0.336518,0.146494,0.673261,35.925030,21.631577,10.294676,0.308927,1.930038,0.107894,0.000000,0.000000,0.000000,0.000000,0.000000,0.000000
