chaoyuefei/paper-gmrm-data/robot_logs/s2_dq_gmrm_xz_max_0.50_log_20260314_175130.csv
# time_ms,q_0,q_1,q_2,q_3,q_4,q_5,q_6,dq_0,dq_1,dq_2,dq_3,dq_4,dq_5,dq_6,tau_J_0,tau_J_1,tau_J_2,tau_J_3,tau_J_4,tau_J_5,tau_J_6,O_dP_EE_c_0,O_dP_EE_c_1,O_dP_EE_c_2,O_dP_EE_c_3,O_dP_EE_c_4,O_dP_EE_c_5
13352501.000000,-0.258968,0.525647,0.336241,-1.429391,-0.177856,1.925849,0.097038,-0.000721,-0.000999,0.000865,0.000413,-0.000069,-0.000187,0.000746,0.006757,-39.024921,4.619858,19.562254,0.996488,1.350509,-0.163102,0.000000,0.000000,0.000000,0.000000,0.000000,0.000000
13352502.000000,-0.258967,0.525647,0.336241,-1.429393,-0.177859,1.925850,0.097040,0.000076,-0.000666,0.000577,-0.000374,-0.000927,0.000113,0.001447,-0.017047,-39.024921,4.619858,19.590025,1.020292,1.344100,-0.188737,0.000000,0.000000,0.000000,0.000000,0.000000,0.000000
13352503.000000,-0.258967,0.525652,0.336241,-1.429393,-0.177855,1.925849,0.097032,0.000051,0.001319,0.000384,-0.000249,0.000501,-0.000162,-0.001952,-0.017047,-39.100300,4.619858,19.590025,0.990079,1.350509,-0.110001,0.000000,0.000000,0.000000,0.000000,0.000000,0.000000
13352504.000000,-0.258967,0.525649,0.336233,-1.429389,-0.177857,1.925849,0.097038,0.000034,-0.000327,-0.001507,0.001040,-0.000107,-0.000108,0.000903,-0.017047,-39.048725,4.695236,19.538450,1.001981,1.350509,-0.169511,0.000000,0.000000,0.000000,0.000000,0.000000,0.000000
13352505.000000,-0.258989,0.525645,0.336238,-1.429393,-0.177855,1.925851,0.097036,-0.020862,0.006975,-0.010128,-0.002928,-0.002134,-0.008659,-0.001365,-0.465350,-38.413960,4.008896,19.292479,0.930570,1.331283,-0.116410,0.000000,0.000000,0.000000,0.000000,0.000000,0.000000
13352506.000000,-0.259024,0.525638,0.336216,-1.429397,-0.177836,1.925848,0.097056,-0.043658,0.016895,-0.031744,-0.010157,0.002231,-0.005598,0.003781,-2.520403,-36.307331,2.021286,18.276854,0.566190,1.305648,-0.116410,0.000000,0.000000,0.000000,0.000000,0.000000,0.000000
13352507.000000,-0.259051,0.525668,0.336136,-1.429414,-0.177815,1.925840,0.097087,-0.038714,0.023347,-0.049293,-0.019175,0.008990,-0.005263,0.012870,-6.059222,-33.200947,-0.728043,16.523314,0.081876,1.331283,-0.130143,0.000000,0.000000,0.000000,0.000000,0.000000,0.000000
13352508.000000,-0.259099,0.525725,0.336004,-1.429440,-0.177832,1.925837,0.097124,-0.021296,0.024564,-0.060149,-0.021868,0.000455,-0.005402,0.026065,-9.475055,-29.872395,-3.306778,14.075499,-0.060946,1.370651,-0.064225,0.000000,0.000000,0.000000,0.000000,0.000000,0.000000
13352509.000000,-0.259178,0.525808,0.335870,-1.429506,-0.177893,1.925838,0.097179,-0.022137,0.030561,-0.064005,-0.031775,-0.014528,0.001608,0.034703,-11.478534,-26.908833,-5.246780,11.726866,0.159696,1.474105,-0.083451,0.000000,0.000000,0.000000,0.000000,0.000000,0.000000
13352510.000000,-0.259263,0.525891,0.335748,-1.429611,-0.177971,1.925902,0.097234,-0.030062,0.039668,-0.063737,-0.052073,-0.036745,0.024127,0.043280,-12.125201,-24.191242,-6.250504,9.822569,0.458158,1.117049,-0.037675,0.000000,0.000000,0.000000,0.000000,0.000000,0.000000
13352511.000000,-0.259327,0.525997,0.335647,-1.429721,-0.178062,1.926047,0.097298,-0.036961,0.051733,-0.065309,-0.061831,-0.055499,0.070778,0.050111,-11.926837,-22.084614,-6.302078,7.799254,0.715421,0.167648,-0.004716,0.000000,0.000000,0.000000,0.000000,0.000000,0.000000
13352512.000000,-0.259375,0.526096,0.335590,-1.429826,-0.178153,1.926217,0.097364,-0.037392,0.061310,-0.056471,-0.070426,-0.066211,0.107203,0.056152,-11.109576,-20.299335,-5.980728,5.819579,0.774930,-0.756120,0.009017,0.000000,0.000000,0.000000,0.000000,0.000000,0.000000
13352513.000000,-0.259417,0.526201,0.335571,-1.429935,-0.178225,1.926362,0.097429,-0.043946,0.074261,-0.047368,-0.076124,-0.070626,0.123725,0.058538,-9.871783,-18.807636,-5.516556,4.189024,0.476469,-1.049088,0.081344,0.000000,0.000000,0.000000,0.000000,0.000000,0.000000
13352514.000000,-0.259433,0.526305,0.335562,-1.430040,-0.178298,1.926475,0.097520,-0.036320,0.084372,-0.037929,-0.082344,-0.070147,0.121692,0.072066,-8.780780,-17.411152,-4.802444,2.681456,0.040677,-0.671891,-0.031266,0.000000,0.000000,0.000000,0.000000,0.000000,0.000000
13352515.000000,-0.259435,0.526396,0.335568,-1.430159,-0.178392,1.926612,0.097608,-0.027226,0.089040,-0.028853,-0.097936,-0.076064,0.120364,0.078731,-7.864336,-15.967060,-4.092300,1.570616,-0.252291,-0.112504,-0.064225,0.000000,0.000000,0.000000,0.000000,0.000000,0.000000
13352516.000000,-0.259450,0.526448,0.335568,-1.430302,-0.178488,1.926794,0.097702,-0.029872,0.076116,-0.025481,-0.110790,-0.076372,0.138686,0.083019,-6.777300,-14.205585,-3.183792,1.050902,-0.545260,0.258285,-0.083451,0.000000,0.000000,0.000000,0.000000,0.000000,0.000000
13352517.000000,-0.259476,0.526476,0.335547,-1.430498,-0.178596,1.927034,0.097800,-0.031440,0.060768,-0.032053,-0.138176,-0.082841,0.171517,0.085920,-5.662493,-12.198139,-2.104691,1.372252,-0.677096,0.258285,-0.116410,0.000000,0.000000,0.000000,0.000000,0.000000,0.000000
13352518.000000,-0.259514,0.526484,0.335530,-1.430719,-0.178752,1.927314,0.097898,-0.037528,0.043411,-0.035579,-0.165890,-0.108558,0.200883,0.087519,-4.448504,-10.043903,-1.172379,2.114134,-0.365817,0.102645,-0.110001,0.000000,0.000000,0.000000,0.000000,0.000000,0.000000
13352519.000000,-0.259554,0.526523,0.335487,-1.430947,-0.178923,1.927585,0.097998,-0.039603,0.041102,-0.041346,-0.188547,-0.129461,0.228162,0.088183,-3.309893,-8.453022,-0.089310,2.804442,0.034269,0.174056,-0.083451,0.000000,0.000000,0.000000,0.000000,0.000000,0.000000
13352520.000000,-0.259613,0.526580,0.335448,-1.431167,-0.179106,1.927874,0.098094,-0.049452,0.048560,-0.041662,-0.199334,-0.148505,0.243219,0.091425,-2.072100,-7.278706,0.720016,3.149595,0.440763,0.394698,-0.004716,0.000000,0.000000,0.000000,0.000000,0.000000,0.000000
13352521.000000,-0.259680,0.526669,0.335415,-1.431393,-0.179275,1.928194,0.098205,-0.055821,0.063383,-0.038326,-0.208107,-0.153143,0.263275,0.097582,-0.862078,-6.691547,1.235763,3.423338,0.625699,0.532027,-0.023942,0.000000,0.000000,0.000000,0.000000,0.000000,0.000000
13352522.000000,-0.259730,0.526770,0.335398,-1.431620,-0.179416,1.928533,0.098318,-0.053752,0.079409,-0.031583,-0.212711,-0.144241,0.287349,0.101777,-0.068621,-6.274982,1.406357,3.494749,0.446256,0.551253,-0.031266,0.000000,0.000000,0.000000,0.000000,0.000000,0.000000
13352523.000000,-0.259760,0.526898,0.335386,-1.431850,-0.179538,1.928912,0.098433,-0.043042,0.098078,-0.026738,-0.218151,-0.135233,0.316258,0.104714,0.304304,-6.199604,1.406357,3.347960,0.052579,0.499068,-0.031266,0.000000,0.000000,0.000000,0.000000,0.000000,0.000000
13352524.000000,-0.259795,0.527042,0.335379,-1.432087,-0.179651,1.929310,0.098553,-0.038762,0.115875,-0.019310,-0.219688,-0.128817,0.343221,0.108049,0.649457,-6.223408,1.330978,3.078184,-0.377719,0.446883,-0.077042,0.000000,0.000000,0.000000,0.000000,0.000000,0.000000
13352525.000000,-0.259832,0.527183,0.335359,-1.432325,-0.179774,1.929719,0.098667,-0.038482,0.124879,-0.018689,-0.224256,-0.126134,0.357921,0.108996,0.947004,-6.128193,1.430160,2.657652,-0.641390,0.532027,-0.070634,0.000000,0.000000,0.000000,0.000000,0.000000,0.000000
13352526.000000,-0.259872,0.527312,0.335332,-1.432593,-0.179927,1.930160,0.098784,-0.036917,0.125781,-0.017608,-0.237957,-0.135486,0.377592,0.109640,1.292158,-5.806843,1.628525,2.506895,-0.587374,0.641891,-0.064225,0.000000,0.000000,0.000000,0.000000,0.000000,0.000000
13352527.000000,-0.259916,0.527425,0.335306,-1.432889,-0.180111,1.930617,0.098901,-0.039750,0.120597,-0.022939,-0.252829,-0.152669,0.401281,0.108582,1.665082,-5.247456,1.822922,2.582274,-0.258700,0.648299,-0.011124,0.000000,0.000000,0.000000,0.000000,0.000000,0.000000
13352528.000000,-0.259949,0.527526,0.335266,-1.433196,-0.180304,1.931119,0.099029,-0.034996,0.117848,-0.029920,-0.270234,-0.165558,0.434088,0.115862,1.863447,-4.438129,2.144272,2.780638,0.112089,0.466109,-0.044083,0.000000,0.000000,0.000000,0.000000,0.000000,0.000000
13352529.000000,-0.259984,0.527631,0.335242,-1.433527,-0.180492,1.931662,0.099145,-0.035656,0.109682,-0.027898,-0.288786,-0.171271,0.481007,0.113285,2.085615,-3.605000,2.168075,2.979002,0.398649,0.245467,0.001693,0.000000,0.000000,0.000000,0.000000,0.000000,0.000000
13352530.000000,-0.260014,0.527748,0.335221,-1.433856,-0.180664,1.932203,0.099260,-0.034102,0.110372,-0.028208,-0.300915,-0.171899,0.495769,0.111703,2.208601,-2.894856,2.116501,2.979002,0.476469,0.147506,0.048385,0.000000,0.000000,0.000000,0.000000,0.000000,0.000000
13352531.000000,-0.260032,0.527885,0.335210,-1.434181,-0.180815,1.932757,0.099392,-0.029204,0.118474,-0.020582,-0.311411,-0.162773,0.511691,0.115464,2.160993,-2.506062,1.846725,2.756834,0.279630,0.291244,-0.037675,0.000000,0.000000,0.000000,0.000000,0.000000,0.000000
13352532.000000,-0.260046,0.528035,0.335202,-1.434504,-0.180953,1.933298,0.099516,-0.020619,0.127486,-0.018198,-0.312422,-0.152648,0.519401,0.120310,2.010236,-2.283894,1.553146,2.260924,-0.031649,0.583297,-0.056901,0.000000,0.000000,0.000000,0.000000,0.000000,0.000000
13352533.000000,-0.260055,0.528201,0.335189,-1.434831,-0.181084,1.933868,0.099632,-0.013650,0.144531,-0.015443,-0.323995,-0.143401,0.533448,0.121871,1.811872,-2.160908,1.330978,1.840392,-0.407931,0.889083,-0.023942,0.000000,0.000000,0.000000,0.000000,0.000000,0.000000
13352534.000000,-0.260060,0.528377,0.335170,-1.435168,-0.181223,1.934495,0.099754,-0.010896,0.156371,-0.015320,-0.327008,-0.142342,0.556044,0.114973,1.565900,-2.113301,1.184189,1.344481,-0.658785,0.798446,-0.044083,0.000000,0.000000,0.000000,0.000000,0.000000,0.000000
13352535.000000,-0.260081,0.528573,0.335152,-1.435512,-0.181391,1.935149,0.099870,-0.011928,0.169270,-0.016456,-0.328418,-0.151499,0.584037,0.118282,1.565900,-2.137104,1.088974,0.927916,-0.646884,0.499068,-0.037675,0.000000,0.000000,0.000000,0.000000,0.000000,0.000000
13352536.000000,-0.260099,0.528773,0.335128,-1.435868,-0.181575,1.935818,0.099982,-0.015184,0.179271,-0.018138,-0.334638,-0.164744,0.600667,0.115800,1.542096,-2.184712,1.037399,0.578795,-0.443636,0.251876,-0.004716,0.000000,0.000000,0.000000,0.000000,0.000000,0.000000
13352537.000000,-0.260116,0.528993,0.335104,-1.436223,-0.181769,1.936500,0.100101,-0.017351,0.193357,-0.019804,-0.336820,-0.173150,0.626417,0.114084,1.514325,-2.406880,1.013595,0.158263,-0.126864,0.063277,0.021835,0.000000,0.000000,0.000000,0.000000,0.000000,0.000000
13352538.000000,-0.260131,0.529224,0.335083,-1.436593,-0.181963,1.937212,0.100220,-0.015870,0.206065,-0.019916,-0.343911,-0.176931,0.653654,0.114498,1.490522,-2.601277,0.942184,-0.210695,0.159696,-0.106095,0.009017,0.000000,0.000000,0.000000,0.000000,0.000000,0.000000
13352539.000000,-0.260140,0.529457,0.335061,-1.436954,-0.182135,1.937953,0.100340,-0.011800,0.215500,-0.019894,-0.346943,-0.183075,0.676994,0.113598,1.343732,-2.676655,0.866806,-0.655031,0.189908,-0.229691,0.021835,0.000000,0.000000,0.000000,0.000000,0.000000,0.000000
13352540.000000,-0.260135,0.529687,0.335045,-1.437340,-0.182287,1.938695,0.100456,-0.006012,0.216098,-0.018236,-0.354161,-0.175893,0.702000,0.117776,1.069990,-2.625080,0.720016,-1.000185,-0.013339,-0.274552,0.034652,0.000000,0.000000,0.000000,0.000000,0.000000,0.000000
13352541.000000,-0.260128,0.529927,0.335031,-1.437727,-0.182430,1.939457,0.100574,-0.000930,0.224066,-0.015922,-0.362597,-0.163210,0.709460,0.118336,0.748639,-2.601277,0.521652,-1.250124,-0.312716,-0.203141,-0.011124,0.000000,0.000000,0.000000,0.000000,0.000000,0.000000
13352542.000000,-0.260124,0.530170,0.335007,-1.438143,-0.182583,1.940219,0.100691,0.000194,0.228286,-0.017355,-0.375196,-0.161187,0.727128,0.116760,0.526471,-2.359272,0.450241,-1.349306,-0.563571,-0.008134,-0.011124,0.000000,0.000000,0.000000,0.000000,0.000000,0.000000
13352543.000000,-0.260133,0.530432,0.334983,-1.438574,-0.182750,1.941007,0.100803,-0.003643,0.236302,-0.019985,-0.389956,-0.161727,0.751741,0.115648,0.502668,-2.307698,0.450241,-1.349306,-0.634982,0.141097,-0.004716,0.000000,0.000000,0.000000,0.000000,0.000000,0.000000
13352544.000000,-0.260153,0.530683,0.334954,-1.439017,-0.182928,1.941827,0.100918,-0.010124,0.242840,-0.019099,-0.404694,-0.167581,0.765515,0.114960,0.649457,-2.137104,0.474045,-1.297731,-0.533358,0.180465,-0.004716,0.000000,0.000000,0.000000,0.000000,0.000000,0.000000
13352545.000000,-0.260171,0.530955,0.334920,-1.439488,-0.183113,1.942668,0.101029,-0.013252,0.252750,-0.019505,-0.425059,-0.175076,0.783975,0.112397,0.748639,-2.061726,0.549423,-1.051759,-0.353915,0.121871,0.054794,0.000000,0.000000,0.000000,0.000000,0.000000,0.000000
13352546.000000,-0.260200,0.531240,0.334892,-1.439965,-0.183299,1.943543,0.101144,-0.018303,0.261809,-0.024058,-0.440522,-0.180812,0.808779,0.113560,0.970807,-2.160908,0.549423,-0.805788,-0.150668,-0.047501,0.034652,0.000000,0.000000,0.000000,0.000000,0.000000,0.000000
13352547.000000,-0.260221,0.531551,0.334859,-1.440459,-0.183473,1.944446,0.101258,-0.019291,0.275695,-0.024893,-0.461966,-0.179844,0.852526,0.113329,1.093793,-2.454487,0.573227,-0.655031,-0.079257,-0.229691,0.034652,0.000000,0.000000,0.000000,0.000000,0.000000,0.000000
13352548.000000,-0.260243,0.531875,0.334823,-1.440957,-0.183638,1.945348,0.101369,-0.022489,0.291696,-0.027143,-0.471040,-0.179435,0.866623,0.111789,1.192975,-2.748066,0.668442,-0.678835,-0.126864,-0.287370,0.074935,0.000000,0.000000,0.000000,0.000000,0.000000,0.000000
13352549.000000,-0.260260,0.532210,0.334793,-1.441469,-0.183804,1.946258,0.101482,-0.020618,0.306712,-0.024735,-0.481871,-0.172524,0.878212,0.111663,1.244550,-3.188435,0.597031,-0.655031,-0.240389,-0.157365,0.094161,0.000000,0.000000,0.000000,0.000000,0.000000,0.000000
13352550.000000,-0.260275,0.532549,0.334757,-1.441998,-0.183965,1.947182,0.101609,-0.018111,0.314226,-0.027755,-0.496274,-0.170264,0.899294,0.115373,1.244550,-3.509785,0.597031,-0.730409,-0.414340,-0.027360,0.009017,0.000000,0.000000,0.000000,0.000000,0.000000,0.000000
13352551.000000,-0.260299,0.532891,0.334719,-1.442549,-0.184133,1.948134,0.101724,-0.019835,0.320739,-0.031388,-0.525084,-0.172460,0.913008,0.110500,1.391340,-3.727986,0.644638,-0.631227,-0.485751,-0.001725,-0.004716,0.000000,0.000000,0.000000,0.000000,0.000000,0.000000
13352552.000000,-0.260331,0.533220,0.334669,-1.443138,-0.184307,1.949123,0.101829,-0.023908,0.326397,-0.040066,-0.544597,-0.172720,0.931857,0.107871,1.665082,-3.704182,0.819198,-0.357485,-0.479342,-0.053910,0.074935,0.000000,0.000000,0.000000,0.000000,0.000000,0.000000
13352553.000000,-0.260362,0.533563,0.334621,-1.443749,-0.184485,1.950110,0.101954,-0.025386,0.331181,-0.042578,-0.568016,-0.175281,0.950200,0.110652,1.887250,-3.557392,0.965988,-0.063905,-0.401522,-0.092362,0.015426,0.000000,0.000000,0.000000,0.000000,0.000000,0.000000
13352554.000000,-0.260402,0.533904,0.334570,-1.444368,-0.184673,1.951118,0.102066,-0.031782,0.333421,-0.046785,-0.581893,-0.179286,0.961902,0.110928,2.208601,-3.434407,1.088974,0.309019,-0.258700,-0.008134,0.021835,0.000000,0.000000,0.000000,0.000000,0.000000,0.000000
13352555.000000,-0.260442,0.534261,0.334514,-1.445005,-0.184850,1.952127,0.102172,-0.035761,0.341796,-0.051064,-0.596321,-0.179143,0.979251,0.108738,2.506147,-3.335224,1.259567,0.531187,-0.187289,0.147506,0.094161,0.000000,0.000000,0.000000,0.000000,0.000000,0.000000
13352556.000000,-0.260480,0.534627,0.334457,-1.445660,-0.185025,1.953178,0.102289,-0.037396,0.349249,-0.053602,-0.611435,-0.179772,1.000010,0.111632,2.752119,-3.263813,1.406357,0.630369,-0.211093,0.128280,0.048385,0.000000,0.000000,0.000000,0.000000,0.000000,0.000000
13352557.000000,-0.260520,0.534998,0.334402,-1.446312,-0.185196,1.954246,0.102404,-0.038127,0.354801,-0.053715,-0.622312,-0.177660,1.011522,0.111074,2.978254,-3.311421,1.481735,0.701781,-0.294406,0.076095,0.067611,0.000000,0.000000,0.000000,0.000000,0.000000,0.000000
13352558.000000,-0.260551,0.535390,0.334347,-1.446975,-0.185363,1.955292,0.102517,-0.034016,0.355215,-0.051315,-0.627190,-0.172055,1.019594,0.110937,3.002058,-4.045368,1.576950,1.074705,-0.396029,0.056869,0.087753,0.000000,0.000000,0.000000,0.000000,0.000000,0.000000
13352559.000000,-0.260587,0.535778,0.334295,-1.447632,-0.185532,1.956370,0.102641,-0.033374,0.360281,-0.050160,-0.627870,-0.170821,1.031238,0.114316,2.978254,-5.564838,1.699936,1.939574,-0.419833,0.050460,0.015426,0.000000,0.000000,0.000000,0.000000,0.000000,0.000000
13352560.000000,-0.260632,0.536175,0.334244,-1.448282,-0.185706,1.957436,0.102752,-0.038647,0.372440,-0.050526,-0.628050,-0.168862,1.029916,0.110950,3.049665,-7.814289,1.874496,3.272581,-0.348422,0.102645,0.074935,0.000000,0.000000,0.000000,0.000000,0.000000,0.000000
13352561.000000,-0.260682,0.536550,0.334189,-1.448925,-0.185888,1.958518,0.102871,-0.043266,0.374545,-0.052210,-0.630262,-0.170301,1.044825,0.112644,3.148847,-10.166889,2.116501,5.030089,-0.180880,0.251876,0.048385,0.000000,0.000000,0.000000,0.000000,0.000000,0.000000
13352562.000000,-0.260723,0.536899,0.334125,-1.449552,-0.186072,1.959609,0.102991,-0.040068,0.368388,-0.056171,-0.628754,-0.181124,1.050873,0.112952,3.101240,-12.416340,2.485458,7.005797,0.004056,0.401107,0.041976,0.000000,0.000000,0.000000,0.000000,0.000000,0.000000
13352563.000000,-0.260754,0.537248,0.334066,-1.450190,-0.186251,1.960660,0.103104,-0.036846,0.366603,-0.057031,-0.632445,-0.186140,1.056217,0.115719,2.879072,-14.594379,2.779037,9.179869,0.117582,0.700484,0.094161,0.000000,0.000000,0.000000,0.000000,0.000000,0.000000
13352565.000000,-0.260813,0.537940,0.333944,-1.451427,-0.186609,1.962799,0.103350,-0.028949,0.363347,-0.058134,-0.635819,-0.185277,1.083471,0.116546,2.454572,-18.339497,3.247177,12.766294,0.117582,1.194869,0.041976,0.000000,0.000000,0.000000,0.000000,0.000000,0.000000
13352566.000000,-0.260832,0.538303,0.333883,-1.452035,-0.186784,1.963832,0.103472,-0.025067,0.365998,-0.059452,-0.630039,-0.184457,1.063606,0.116606,2.160993,-20.128742,3.445541,13.976316,0.088285,1.461288,0.015426,0.000000,0.000000,0.000000,0.000000,0.000000,0.000000
13352567.000000,-0.260851,0.538668,0.333821,-1.452647,-0.186963,1.964858,0.103583,-0.022922,0.370198,-0.062347,-0.625720,-0.183671,1.041029,0.113467,1.887250,-21.719624,3.592331,14.991941,0.046171,1.773483,0.074935,0.000000,0.000000,0.000000,0.000000,0.000000,0.000000
13352568.000000,-0.260865,0.539055,0.333755,-1.453260,-0.187139,1.965900,0.103713,-0.020891,0.374828,-0.064427,-0.619147,-0.178766,1.046782,0.120965,1.589704,-23.235126,3.739120,15.634642,0.010465,1.793624,0.001693,0.000000,0.000000,0.000000,0.000000,0.000000,0.000000
13352569.000000,-0.260878,0.539467,0.333682,-1.453866,-0.187328,1.966943,0.103830,-0.016954,0.386948,-0.068159,-0.624685,-0.183481,1.042062,0.116741,1.315961,-24.948994,3.957321,16.078978,0.081876,1.747848,0.061202,0.000000,0.000000,0.000000,0.000000,0.000000,0.000000
13352570.000000,-0.260893,0.539883,0.333606,-1.454463,-0.187524,1.967991,0.103956,-0.015923,0.395442,-0.071443,-0.610080,-0.188451,1.040792,0.119102,1.121564,-26.516071,4.203293,16.178160,0.183500,1.643478,0.074935,0.000000,0.000000,0.000000,0.000000,0.000000,0.000000
13352571.000000,-0.260903,0.540325,0.333526,-1.455071,-0.187727,1.969013,0.104084,-0.014951,0.410457,-0.073257,-0.603633,-0.195371,1.042385,0.127035,0.923200,-28.059345,4.425461,16.178160,0.249418,1.565658,0.054794,0.000000,0.000000,0.000000,0.000000,0.000000,0.000000
13352572.000000,-0.260908,0.540770,0.333452,-1.455665,-0.187932,1.970043,0.104204,-0.013017,0.423291,-0.074753,-0.599245,-0.196135,1.033020,0.126804,0.673261,-29.503437,4.524643,16.078978,0.327238,1.461288,0.094161,0.000000,0.000000,0.000000,0.000000,0.000000,0.000000
13352573.000000,-0.260906,0.541222,0.333377,-1.456272,-0.188131,1.971064,0.104334,-0.007291,0.434248,-0.073056,-0.604159,-0.199208,1.020848,0.129422,0.375715,-30.725361,4.619858,16.078978,0.351041,1.429244,0.048385,0.000000,0.000000,0.000000,0.000000,0.000000,0.000000
13352574.000000,-0.260898,0.541679,0.333306,-1.456876,-0.188327,1.972101,0.104452,-0.002013,0.443539,-0.069077,-0.598228,-0.194346,1.022533,0.128774,0.030561,-31.828266,4.596054,16.003599,0.315336,1.383468,0.081344,0.000000,0.000000,0.000000,0.000000,0.000000,0.000000
13352575.000000,-0.260886,0.542138,0.333237,-1.457475,-0.188512,1.973140,0.104582,0.005551,0.450050,-0.066369,-0.596884,-0.192957,1.028904,0.130537,-0.342364,-32.732807,4.572250,15.928221,0.225614,1.402694,0.054794,0.000000,0.000000,0.000000,0.000000,0.000000,0.000000
13352576.000000,-0.260864,0.542590,0.333172,-1.458096,-0.188710,1.974147,0.104708,0.009676,0.449485,-0.066724,-0.599576,-0.189793,1.022476,0.126631,-0.786700,-33.419147,4.500839,16.055174,0.166105,1.507064,0.041976,0.000000,0.000000,0.000000,0.000000,0.000000,0.000000
13352577.000000,-0.260847,0.543051,0.333103,-1.458714,-0.188915,1.975165,0.104828,0.010113,0.455323,-0.067673,-0.608383,-0.194114,1.020554,0.122087,-1.131854,-34.153095,4.449265,16.277342,0.154203,1.605026,0.061202,0.000000,0.000000,0.000000,0.000000,0.000000,0.000000
13352578.000000,-0.260836,0.543526,0.333030,-1.459330,-0.189117,1.976168,0.104957,0.010716,0.461832,-0.069745,-0.606972,-0.193620,1.036928,0.126283,-1.354022,-34.962421,4.449265,16.447935,0.171598,1.649886,0.009017,0.000000,0.000000,0.000000,0.000000,0.000000,0.000000
13352579.000000,-0.260827,0.544016,0.332965,-1.459964,-0.189324,1.977186,0.105078,0.010310,0.469498,-0.068924,-0.610173,-0.194276,1.019033,0.125149,-1.528582,-35.743977,4.350082,16.670103,0.231107,1.643478,0.074935,0.000000,0.000000,0.000000,0.000000,0.000000,0.000000
13352580.000000,-0.260823,0.544502,0.332903,-1.460590,-0.189527,1.978214,0.105206,0.007948,0.475720,-0.064639,-0.617073,-0.195486,1.019781,0.126876,-1.603961,-36.529499,4.227097,16.943846,0.308927,1.624252,0.074935,0.000000,0.000000,0.000000,0.000000,0.000000,0.000000
13352581.000000,-0.260813,0.545015,0.332842,-1.461218,-0.189725,1.979219,0.105333,0.013264,0.483280,-0.065543,-0.620340,-0.195000,1.015205,0.127266,-1.703143,-37.481647,4.131882,17.090635,0.351041,1.637069,0.100570,0.000000,0.000000,0.000000,0.000000,0.000000,0.000000
13352582.000000,-0.260807,0.545544,0.332790,-1.461839,-0.189919,1.980239,0.105461,0.009526,0.508245,-0.060137,-0.618721,-0.196110,1.015150,0.130601,-1.726946,-38.560749,3.909714,17.241392,0.315336,1.605026,0.048385,0.000000,0.000000,0.000000,0.000000,0.000000,0.000000
13352583.000000,-0.260802,0.546074,0.332736,-1.462467,-0.190109,1.981275,0.105582,0.005889,0.515467,-0.057029,-0.616007,-0.195029,1.020248,0.129385,-1.703143,-39.564472,3.715317,17.340574,0.219205,1.481429,0.081344,0.000000,0.000000,0.000000,0.000000,0.000000,0.000000
13352584.000000,-0.260795,0.546603,0.332683,-1.463108,-0.190303,1.982278,0.105707,0.003997,0.520395,-0.055306,-0.620089,-0.191431,1.011277,0.129147,-1.703143,-40.298420,3.540756,17.562742,0.159696,1.448470,0.107894,0.000000,0.000000,0.000000,0.000000,0.000000,0.000000
13352585.000000,-0.260786,0.547120,0.332632,-1.463736,-0.190503,1.983301,0.105838,0.005279,0.519199,-0.051438,-0.626165,-0.191651,1.000805,0.127245,-1.679339,-40.933186,3.393966,17.784910,0.171598,1.454879,0.054794,0.000000,0.000000,0.000000,0.000000,0.000000,0.000000
13352586.000000,-0.260785,0.547643,0.332580,-1.464373,-0.190693,1.984305,0.105959,0.004635,0.516319,-0.053219,-0.624305,-0.190922,1.003550,0.126852,-1.580157,-41.349751,3.322555,18.054686,0.166105,1.494247,0.094161,0.000000,0.000000,0.000000,0.000000,0.000000,0.000000
13352587.000000,-0.260785,0.548179,0.332528,-1.465009,-0.190889,1.985316,0.106087,0.000607,0.517260,-0.051522,-0.625051,-0.191509,1.003042,0.129544,-1.453204,-41.960712,3.247177,18.352232,0.207303,1.584884,0.061202,0.000000,0.000000,0.000000,0.000000,0.000000,0.000000
13352588.000000,-0.260790,0.548700,0.332472,-1.465653,-0.191081,1.986336,0.106211,-0.002665,0.514119,-0.051849,-0.629372,-0.191861,1.002143,0.128398,-1.306414,-42.405048,3.247177,18.697386,0.237516,1.591293,0.100570,0.000000,0.000000,0.000000,0.000000,0.000000,0.000000
13352589.000000,-0.260800,0.549225,0.332423,-1.466312,-0.191276,1.987337,0.106344,-0.002814,0.517095,-0.050178,-0.638060,-0.196512,1.006409,0.130293,-1.108050,-42.698627,3.171798,19.193296,0.255826,1.597701,0.061202,0.000000,0.000000,0.000000,0.000000,0.000000,0.000000
13352590.000000,-0.260805,0.549749,0.332367,-1.466957,-0.191477,1.988347,0.106477,-0.004827,0.518597,-0.054356,-0.637662,-0.195039,0.995787,0.130841,-0.961260,-43.039814,3.199569,19.637632,0.273221,1.637069,0.054794,0.000000,0.000000,0.000000,0.000000,0.000000,0.000000
13352591.000000,-0.260819,0.550281,0.332308,-1.467613,-0.191672,1.989339,0.106596,-0.008146,0.519450,-0.057312,-0.637912,-0.193537,0.994450,0.123371,-0.735125,-43.357197,3.223373,20.133543,0.279630,1.708480,0.133529,0.000000,0.000000,0.000000,0.000000,0.000000,0.000000
13352592.000000,-0.260836,0.550815,0.332248,-1.468267,-0.191866,1.990333,0.106726,-0.010356,0.523582,-0.056815,-0.638597,-0.191352,0.988838,0.125219,-0.512957,-43.674580,3.270981,20.478697,0.267728,1.916305,0.114303,0.000000,0.000000,0.000000,0.000000,0.000000,0.000000
13352593.000000,-0.260845,0.551338,0.332185,-1.468902,-0.192052,1.991330,0.106857,-0.015189,0.523497,-0.056860,-0.639866,-0.191832,0.981408,0.128307,-0.413775,-43.849140,3.346359,20.748472,0.201810,2.066451,0.074935,0.000000,0.000000,0.000000,0.000000,0.000000,0.000000
13352594.000000,-0.260858,0.551868,0.332121,-1.469539,-0.192236,1.992315,0.106988,-0.015904,0.522368,-0.057437,-0.634435,-0.188461,0.989512,0.130182,-0.314593,-43.995930,3.445541,20.946836,0.129484,2.137862,0.048385,0.000000,0.000000,0.000000,0.000000,0.000000,0.000000
13352595.000000,-0.260869,0.552399,0.332054,-1.470178,-0.192428,1.993317,0.107106,-0.012802,0.525911,-0.057629,-0.632756,-0.186384,0.986102,0.123390,-0.243182,-44.289509,3.540756,21.145201,0.069974,2.137862,0.114303,0.000000,0.000000,0.000000,0.000000,0.000000,0.000000
13352596.000000,-0.260881,0.552935,0.331980,-1.470825,-0.192623,1.994303,0.107239,-0.013293,0.523670,-0.062629,-0.631275,-0.187693,1.001330,0.122846,-0.191607,-44.507710,3.715317,21.343565,0.076383,2.072860,0.048385,0.000000,0.000000,0.000000,0.000000,0.000000,0.000000
13352597.000000,-0.260895,0.553476,0.331896,-1.471476,-0.192825,1.995314,0.107354,-0.014322,0.525037,-0.072155,-0.636213,-0.191175,1.004929,0.122743,-0.116229,-44.729877,4.008896,21.514158,0.166105,1.981307,0.107894,0.000000,0.000000,0.000000,0.000000,0.000000,0.000000
13352598.000000,-0.260911,0.554005,0.331810,-1.472100,-0.193036,1.996313,0.107483,-0.015655,0.524751,-0.077650,-0.633100,-0.195557,0.993563,0.125945,-0.017047,-44.876667,4.254868,21.514158,0.303434,1.981307,0.087753,0.000000,0.000000,0.000000,0.000000,0.000000,0.000000
13352599.000000,-0.260926,0.554532,0.331722,-1.472734,-0.193240,1.997291,0.107614,-0.015933,0.518524,-0.082320,-0.630003,-0.201800,0.996935,0.123794,0.054365,-44.825092,4.524643,21.541929,0.405057,2.039901,0.061202,0.000000,0.000000,0.000000,0.000000,0.000000,0.000000
13352600.000000,-0.260939,0.555070,0.331629,-1.473354,-0.193436,1.998290,0.107737,-0.016349,0.531275,-0.085634,-0.637406,-0.201427,0.997721,0.119782,0.129743,-44.900471,4.794418,21.391172,0.386747,1.988631,0.094161,0.000000,0.000000,0.000000,0.000000,0.000000,0.000000
13352601.000000,-0.260948,0.555585,0.331535,-1.473975,-0.193632,1.999289,0.107865,-0.014946,0.528132,-0.086843,-0.631964,-0.199814,0.991171,0.119198,0.129743,-44.825092,5.012619,21.268187,0.315336,1.923629,0.061202,0.000000,0.000000,0.000000,0.000000,0.000000,0.000000
13352602.000000,-0.260953,0.556100,0.331437,-1.474589,-0.193835,2.000266,0.107983,-0.013471,0.520657,-0.092300,-0.625242,-0.198993,0.985270,0.116200,0.105939,-44.531513,5.286362,21.046019,0.237516,2.007858,0.100570,0.000000,0.000000,0.000000,0.000000,0.000000,0.000000
13352603.000000,-0.260955,0.556613,0.331334,-1.475181,-0.194040,2.001253,0.108111,-0.011290,0.516761,-0.095344,-0.609211,-0.199152,0.980876,0.117209,0.030561,-44.408527,5.528366,20.724669,0.183500,2.033492,0.054794,0.000000,0.000000,0.000000,0.000000,0.000000,0.000000
13352604.000000,-0.260968,0.557132,0.331235,-1.475774,-0.194243,2.002240,0.108235,-0.013985,0.513538,-0.098188,-0.602356,-0.201107,0.995912,0.120646,0.129743,-44.289509,5.679123,20.355711,0.171598,2.020675,0.061202,0.000000,0.000000,0.000000,0.000000,0.000000,0.000000
13352605.000000,-0.260974,0.557661,0.331130,-1.476366,-0.194451,2.003236,0.108353,-0.010877,0.515463,-0.102112,-0.596950,-0.203214,0.994938,0.122252,0.153547,-44.190327,5.873520,20.058165,0.189908,2.053634,0.094161,0.000000,0.000000,0.000000,0.000000,0.000000,0.000000
13352606.000000,-0.260985,0.558165,0.331020,-1.476943,-0.194659,2.004253,0.108481,-0.012869,0.511265,-0.101849,-0.592270,-0.201426,0.992815,0.121497,0.228925,-43.995930,6.067917,19.883604,0.237516,1.877853,0.048385,0.000000,0.000000,0.000000,0.000000,0.000000,0.000000
13352607.000000,-0.260989,0.558674,0.330911,-1.477511,-0.194878,2.005271,0.108602,-0.009398,0.508673,-0.104553,-0.578688,-0.205448,1.001593,0.118440,0.228925,-43.849140,6.242477,19.590025,0.308927,1.662704,0.074935,0.000000,0.000000,0.000000,0.000000,0.000000,0.000000
13352608.000000,-0.260998,0.559192,0.330803,-1.478070,-0.195100,2.006277,0.108730,-0.008643,0.512391,-0.105270,-0.570747,-0.210824,1.001868,0.121839,0.304304,-43.773762,6.365463,19.316282,0.320829,1.662704,0.074935,0.000000,0.000000,0.000000,0.000000,0.000000,0.000000
13352609.000000,-0.261004,0.559709,0.330696,-1.478626,-0.195319,2.007273,0.108855,-0.007337,0.513999,-0.104917,-0.564764,-0.211345,1.005466,0.122291,0.351911,-43.650776,6.436874,19.070311,0.362943,1.670028,0.107894,0.000000,0.000000,0.000000,0.000000,0.000000,0.000000
13352610.000000,-0.261015,0.560229,0.330595,-1.479173,-0.195535,2.008285,0.108988,-0.007557,0.509751,-0.104330,-0.552030,-0.214576,1.007367,0.122414,0.451093,-43.555561,6.488449,18.848143,0.369352,1.676437,0.048385,0.000000,0.000000,0.000000,0.000000,0.000000,0.000000
13352611.000000,-0.261014,0.560745,0.330494,-1.479718,-0.195745,2.009295,0.109111,-0.004184,0.515758,-0.101964,-0.550819,-0.213816,1.004517,0.122918,0.403486,-43.456379,6.460678,18.721189,0.315336,1.695663,0.094161,0.000000,0.000000,0.000000,0.000000,0.000000,0.000000
13352612.000000,-0.261018,0.561269,0.330395,-1.480256,-0.195949,2.010298,0.109243,-0.002984,0.515291,-0.097054,-0.544895,-0.210311,0.998413,0.126243,0.403486,-43.456379,6.413071,18.574400,0.267728,1.714889,0.067611,0.000000,0.000000,0.000000,0.000000,0.000000,0.000000
13352613.000000,-0.261017,0.561791,0.330299,-1.480785,-0.196153,2.011314,0.109370,-0.001485,0.524654,-0.095545,-0.537524,-0.211055,0.994910,0.127088,0.375715,-43.579365,6.313889,18.550596,0.183500,1.741439,0.061202,0.000000,0.000000,0.000000,0.000000,0.000000,0.000000
13352614.000000,-0.261024,0.562321,0.330204,-1.481325,-0.196359,2.012318,0.109497,-0.003420,0.528974,-0.092152,-0.534370,-0.208491,1.016645,0.126533,0.474897,-43.726154,6.242477,18.625975,0.129484,1.773483,0.100570,0.000000,0.000000,0.000000,0.000000,0.000000,0.000000
13352615.000000,-0.261022,0.562856,0.330108,-1.481866,-0.196567,2.013325,0.109631,-0.002362,0.529415,-0.093315,-0.533915,-0.203922,1.011328,0.130139,0.474897,-43.896748,6.190903,18.820372,0.135892,1.806442,0.041976,0.000000,0.000000,0.000000,0.000000,0.000000,0.000000
13352616.000000,-0.261025,0.563389,0.330008,-1.482405,-0.196786,2.014345,0.109750,-0.002842,0.529847,-0.093323,-0.534248,-0.207909,1.014017,0.128370,0.526471,-44.091145,6.242477,19.169493,0.213712,1.747848,0.100570,0.000000,0.000000,0.000000,0.000000,0.000000,0.000000
13352617.000000,-0.261031,0.563926,0.329915,-1.482960,-0.196994,2.015338,0.109884,-0.004818,0.532290,-0.091546,-0.537079,-0.210148,1.000569,0.135028,0.649457,-44.289509,6.218674,19.590025,0.279630,1.754256,0.074935,0.000000,0.000000,0.000000,0.000000,0.000000,0.000000
13352618.000000,-0.261037,0.564466,0.329831,-1.483511,-0.197209,2.016329,0.110018,-0.005567,0.543336,-0.088504,-0.553812,-0.215888,0.990648,0.134771,0.748639,-44.436298,6.119492,20.058165,0.344633,1.851302,0.061202,0.000000,0.000000,0.000000,0.000000,0.000000,0.000000
13352619.000000,-0.261033,0.565006,0.329750,-1.484062,-0.197418,2.017329,0.110148,-0.000065,0.542623,-0.085776,-0.552374,-0.212957,0.984343,0.132379,0.724836,-44.630695,5.996506,20.355711,0.332731,1.962081,0.100570,0.000000,0.000000,0.000000,0.000000,0.000000,0.000000
13352620.000000,-0.261031,0.565556,0.329670,-1.484621,-0.197629,2.018297,0.110281,0.000846,0.544032,-0.083295,-0.549931,-0.209652,0.979244,0.133310,0.697065,-44.900471,5.849716,20.625486,0.285123,2.092086,0.054794,0.000000,0.000000,0.000000,0.000000,0.000000,0.000000
13352621.000000,-0.261029,0.566098,0.329592,-1.485168,-0.197837,2.019277,0.110410,0.001301,0.537041,-0.078931,-0.549551,-0.206208,0.979791,0.133127,0.673261,-45.094868,5.726730,20.923033,0.207303,2.169906,0.048385,0.000000,0.000000,0.000000,0.000000,0.000000,0.000000
13352622.000000,-0.261019,0.566645,0.329516,-1.485723,-0.198042,2.020261,0.110537,0.003323,0.538935,-0.076402,-0.547381,-0.209066,0.981264,0.132035,0.574079,-45.217854,5.627548,21.169004,0.141385,2.039901,0.067611,0.000000,0.000000,0.000000,0.000000,0.000000,0.000000
13352623.000000,-0.261019,0.567187,0.329436,-1.486292,-0.198250,2.021248,0.110660,0.002316,0.540584,-0.078257,-0.551326,-0.213046,0.978050,0.130837,0.574079,-45.317036,5.556137,21.490355,0.135892,1.988631,0.100570,0.000000,0.000000,0.000000,0.000000,0.000000,0.000000
13352624.000000,-0.261011,0.567730,0.329356,-1.486845,-0.198467,2.022229,0.110797,0.002734,0.539357,-0.080534,-0.552213,-0.219092,0.972311,0.132939,0.526471,-45.440022,5.528366,21.740294,0.231107,2.027084,0.048385,0.000000,0.000000,0.000000,0.000000,0.000000,0.000000
13352625.000000,-0.261003,0.568284,0.329272,-1.487404,-0.198696,2.023190,0.110916,0.005477,0.540207,-0.080370,-0.553339,-0.223843,0.966807,0.129759,0.502668,-45.535236,5.556137,21.910887,0.315336,2.112228,0.120712,0.000000,0.000000,0.000000,0.000000,0.000000,0.000000
13352626.000000,-0.260995,0.568807,0.329195,-1.487962,-0.198927,2.024163,0.111053,0.007750,0.539167,-0.078153,-0.556515,-0.224052,0.971027,0.132193,0.474897,-45.388447,5.504562,22.109251,0.440763,2.163497,0.074935,0.000000,0.000000,0.000000,0.000000,0.000000,0.000000
13352627.000000,-0.260985,0.569335,0.329116,-1.488530,-0.199147,2.025130,0.111186,0.009359,0.530084,-0.077197,-0.556614,-0.220957,0.965661,0.131672,0.451093,-45.118671,5.480759,22.355223,0.482877,2.125045,0.081344,0.000000,0.000000,0.000000,0.000000,0.000000,0.000000
13352628.000000,-0.260967,0.569875,0.329041,-1.489088,-0.199363,2.026117,0.111320,0.009742,0.532538,-0.080174,-0.551814,-0.219090,0.963834,0.136275,0.328107,-44.971882,5.480759,22.382994,0.422452,2.020675,0.081344,0.000000,0.000000,0.000000,0.000000,0.000000,0.000000
13352629.000000,-0.260950,0.570393,0.328969,-1.489637,-0.199575,2.027099,0.111458,0.011832,0.529966,-0.079851,-0.551685,-0.220832,0.967424,0.135471,0.252729,-44.753681,5.381577,22.406797,0.339139,2.033492,0.074935,0.000000,0.000000,0.000000,0.000000,0.000000,0.000000
13352630.000000,-0.260926,0.570916,0.328891,-1.490189,-0.199788,2.028055,0.111588,0.019305,0.520045,-0.078495,-0.548177,-0.219885,0.963946,0.133745,0.054365,-44.483906,5.357773,22.478209,0.273221,2.104903,0.094161,0.000000,0.000000,0.000000,0.000000,0.000000,0.000000
13352631.000000,-0.260908,0.571439,0.328813,-1.490724,-0.200014,2.029017,0.111726,0.019879,0.533777,-0.077436,-0.541549,-0.221037,0.960895,0.136049,-0.068621,-44.289509,5.333969,22.430601,0.261320,2.235824,0.021835,0.000000,0.000000,0.000000,0.000000,0.000000,0.000000
13352632.000000,-0.260894,0.571965,0.328733,-1.491271,-0.200239,2.029961,0.111851,0.017959,0.532992,-0.077092,-0.542082,-0.219655,0.968423,0.131333,-0.092425,-44.142719,5.333969,22.478209,0.308927,2.397872,0.094161,0.000000,0.000000,0.000000,0.000000,0.000000,0.000000
13352633.000000,-0.260873,0.572494,0.328652,-1.491824,-0.200467,2.030937,0.111988,0.021589,0.525623,-0.077989,-0.542193,-0.222805,0.966257,0.132620,-0.191607,-43.968159,5.381577,22.676573,0.351041,2.423507,0.067611,0.000000,0.000000,0.000000,0.000000,0.000000,0.000000
13352634.000000,-0.260853,0.573011,0.328573,-1.492362,-0.200687,2.031932,0.112121,0.021098,0.525065,-0.080373,-0.537666,-0.219992,0.968848,0.133278,-0.290789,-43.726154,5.381577,22.799559,0.374845,2.300826,0.048385,0.000000,0.000000,0.000000,0.000000,0.000000,0.000000
13352635.000000,-0.260831,0.573530,0.328495,-1.492910,-0.200911,2.032910,0.112246,0.021298,0.519616,-0.081272,-0.538788,-0.222878,0.977553,0.130256,-0.413775,-43.456379,5.357773,23.025694,0.410551,2.137862,0.120712,0.000000,0.000000,0.000000,0.000000,0.000000,0.000000
13352636.000000,-0.260809,0.574075,0.328416,-1.493426,-0.201142,2.033881,0.112377,0.020824,0.524023,-0.081350,-0.537360,-0.223192,0.977234,0.131094,-0.512957,-43.503986,5.286362,22.997923,0.416959,2.112228,0.114303,0.000000,0.000000,0.000000,0.000000,0.000000,0.000000
13352638.000000,-0.260764,0.575161,0.328272,-1.494473,-0.201611,2.035784,0.112655,0.023209,0.533924,-0.076359,-0.529493,-0.226131,0.952822,0.136724,-0.711321,-43.797565,5.135605,23.120909,0.464567,2.397872,0.054794,0.000000,0.000000,0.000000,0.000000,0.000000,0.000000
13352639.000000,-0.260746,0.575703,0.328195,-1.494983,-0.201842,2.036750,0.112784,0.020516,0.534973,-0.075789,-0.521699,-0.224804,0.946912,0.133830,-0.735125,-43.920551,5.111801,23.220091,0.434354,2.437240,0.100570,0.000000,0.000000,0.000000,0.000000,0.000000,0.000000
13352640.000000,-0.260722,0.576241,0.328123,-1.495504,-0.202067,2.037718,0.112926,0.022471,0.535854,-0.074327,-0.519846,-0.229080,0.955942,0.135871,-0.786700,-43.920551,5.040390,23.394651,0.410551,2.300826,0.034652,0.000000,0.000000,0.000000,0.000000,0.000000,0.000000
13352641.000000,-0.260706,0.576773,0.328046,-1.496026,-0.202294,2.038691,0.113053,0.021532,0.531148,-0.074284,-0.522427,-0.230920,0.956730,0.132362,-0.735125,-43.821369,5.012619,23.593016,0.362943,2.183639,0.100570,0.000000,0.000000,0.000000,0.000000,0.000000,0.000000
13352642.000000,-0.260687,0.577305,0.327968,-1.496538,-0.202534,2.039651,0.113188,0.022185,0.530407,-0.074744,-0.520956,-0.239562,0.954495,0.132678,-0.735125,-43.674580,5.012619,23.640623,0.410551,2.261459,0.087753,0.000000,0.000000,0.000000,0.000000,0.000000,0.000000
13352643.000000,-0.260672,0.577842,0.327900,-1.497041,-0.202773,2.040602,0.113324,0.020467,0.531070,-0.072975,-0.512260,-0.238576,0.958981,0.133019,-0.635943,-43.626972,4.917404,23.541441,0.476469,2.326461,0.074935,0.000000,0.000000,0.000000,0.000000,0.000000,0.000000
13352644.000000,-0.260663,0.578376,0.327827,-1.497533,-0.203007,2.041561,0.113458,0.015192,0.533670,-0.075271,-0.506059,-0.235417,0.954380,0.131865,-0.489153,-43.626972,4.842026,23.394651,0.482877,2.417098,0.074935,0.000000,0.000000,0.000000,0.000000,0.000000,0.000000
13352645.000000,-0.260649,0.578914,0.327755,-1.498033,-0.203229,2.042511,0.113599,0.013127,0.533016,-0.073371,-0.501233,-0.232255,0.977306,0.132629,-0.413775,-43.503986,4.742844,23.247862,0.458158,2.462875,0.048385,0.000000,0.000000,0.000000,0.000000,0.000000,0.000000
13352646.000000,-0.260626,0.579453,0.327682,-1.498526,-0.203454,2.043499,0.113732,0.017746,0.533430,-0.075864,-0.497648,-0.232737,0.972922,0.130702,-0.465350,-43.432575,4.671432,23.073301,0.393156,2.215682,0.094161,0.000000,0.000000,0.000000,0.000000,0.000000,0.000000
13352647.000000,-0.260615,0.579971,0.327609,-1.499009,-0.203677,2.044494,0.113875,0.013710,0.530093,-0.074388,-0.490368,-0.227989,0.977140,0.131801,-0.342364,-43.186604,4.596054,22.950315,0.303434,2.014266,0.061202,0.000000,0.000000,0.000000,0.000000,0.000000,0.000000
13352648.000000,-0.260605,0.580507,0.327535,-1.499490,-0.203904,2.045457,0.114011,0.013791,0.527542,-0.071379,-0.484345,-0.228606,0.972580,0.131099,-0.215411,-42.964436,4.572250,22.728148,0.320829,2.014266,0.081344,0.000000,0.000000,0.000000,0.000000,0.000000,0.000000
13352649.000000,-0.260597,0.581050,0.327459,-1.499950,-0.204138,2.046422,0.114153,0.011098,0.539118,-0.072720,-0.473272,-0.230680,0.968702,0.136584,-0.092425,-42.893024,4.572250,22.430601,0.398649,2.092086,0.054794,0.000000,0.000000,0.000000,0.000000,0.000000,0.000000
13352650.000000,-0.260592,0.581573,0.327383,-1.500414,-0.204360,2.047380,0.114288,0.008038,0.534566,-0.072457,-0.470862,-0.225690,0.987850,0.134884,0.078168,-42.647053,4.524643,22.109251,0.422452,2.248641,0.061202,0.000000,0.000000,0.000000,0.000000,0.000000,0.000000
13352651.000000,-0.260583,0.582103,0.327308,-1.500880,-0.204585,2.048335,0.114420,0.007619,0.531216,-0.072983,-0.471638,-0.226591,0.974493,0.130764,0.177350,-42.282063,4.500839,21.887083,0.446256,2.313644,0.120712,0.000000,0.000000,0.000000,0.000000,0.000000,0.000000
13352652.000000,-0.260567,0.582616,0.327231,-1.501329,-0.204811,2.049330,0.114559,0.009570,0.526379,-0.073045,-0.463921,-0.228336,0.979849,0.132479,0.177350,-41.913105,4.473068,21.565733,0.369352,2.169906,0.087753,0.000000,0.000000,0.000000,0.000000,0.000000,0.000000
13352653.000000,-0.260558,0.583136,0.327155,-1.501781,-0.205028,2.050316,0.114693,0.008446,0.522655,-0.075981,-0.459914,-0.223356,0.981080,0.132136,0.276533,-41.571918,4.449265,21.367369,0.243009,2.007858,0.094161,0.000000,0.000000,0.000000,0.000000,0.000000,0.000000
13352654.000000,-0.260546,0.583651,0.327077,-1.502224,-0.205247,2.051303,0.114832,0.009308,0.515321,-0.075509,-0.460396,-0.222194,0.986353,0.133776,0.304304,-41.107746,4.425461,21.121397,0.189908,1.955673,0.048385,0.000000,0.000000,0.000000,0.000000,0.000000,0.000000
13352655.000000,-0.260534,0.584155,0.326996,-1.502656,-0.205470,2.052278,0.114962,0.009348,0.508121,-0.076205,-0.450410,-0.220489,0.976854,0.130526,0.351911,-40.714985,4.449265,20.871458,0.231107,2.020675,0.114303,0.000000,0.000000,0.000000,0.000000,0.000000,0.000000
13352656.000000,-0.260527,0.584668,0.326908,-1.503071,-0.205690,2.053234,0.115106,0.007609,0.506789,-0.078998,-0.436623,-0.219626,0.964677,0.133320,0.474897,-40.397602,4.572250,20.502501,0.291532,2.118636,0.034652,0.000000,0.000000,0.000000,0.000000,0.000000,0.000000
13352657.000000,-0.260515,0.585168,0.326828,-1.503488,-0.205919,2.054214,0.115236,0.008103,0.505196,-0.077852,-0.431298,-0.222405,0.965767,0.130180,0.526471,-39.881855,4.572250,20.304136,0.327238,2.125045,0.107894,0.000000,0.000000,0.000000,0.000000,0.000000,0.000000
13352658.000000,-0.260497,0.585670,0.326743,-1.503896,-0.206144,2.055183,0.115378,0.013310,0.500208,-0.078970,-0.422497,-0.223186,0.968533,0.136360,0.502668,-39.318501,4.647629,20.058165,0.327238,2.039901,0.081344,0.000000,0.000000,0.000000,0.000000,0.000000,0.000000
13352659.000000,-0.260478,0.586177,0.326654,-1.504309,-0.206367,2.056160,0.115514,0.014555,0.499029,-0.083188,-0.417242,-0.221551,0.974092,0.135610,0.451093,-38.878132,4.742844,19.835997,0.279630,1.962081,0.074935,0.000000,0.000000,0.000000,0.000000,0.000000,0.000000
13352660.000000,-0.260463,0.586680,0.326571,-1.504699,-0.206587,2.057134,0.115652,0.013501,0.498376,-0.083357,-0.408541,-0.224141,0.971506,0.134629,0.474897,-38.413960,4.719040,19.562254,0.225614,1.942855,0.074935,0.000000,0.000000,0.000000,0.000000,0.000000,0.000000
13352661.000000,-0.260444,0.587195,0.326485,-1.505092,-0.206804,2.058084,0.115792,0.014457,0.501736,-0.088071,-0.400399,-0.218365,0.960448,0.134533,0.427289,-38.167988,4.742844,19.268675,0.178007,2.027084,0.061202,0.000000,0.000000,0.000000,0.000000,0.000000,0.000000
13352662.000000,-0.260424,0.587703,0.326396,-1.505468,-0.207029,2.059057,0.115925,0.017660,0.500697,-0.089199,-0.387694,-0.220765,0.958783,0.137668,0.403486,-37.997395,4.794418,18.919554,0.183500,2.014266,0.087753,0.000000,0.000000,0.000000,0.000000,0.000000,0.000000
13352663.000000,-0.260402,0.588223,0.326307,-1.505857,-0.207256,2.060023,0.116069,0.020747,0.508761,-0.089873,-0.385735,-0.223089,0.980733,0.141375,0.351911,-37.826801,4.842026,18.748960,0.201810,1.903487,0.061202,0.000000,0.000000,0.000000,0.000000,0.000000,0.000000
13352664.000000,-0.260379,0.588735,0.326219,-1.506247,-0.207488,2.060998,0.116215,0.019666,0.507589,-0.089779,-0.384281,-0.223922,0.981926,0.143755,0.304304,-37.628437,4.865829,18.721189,0.207303,1.832076,0.061202,0.000000,0.000000,0.000000,0.000000,0.000000,0.000000
13352665.000000,-0.260356,0.589247,0.326125,-1.506623,-0.207721,2.061979,0.116360,0.021395,0.508433,-0.093339,-0.381401,-0.226302,0.975342,0.141062,0.276533,-37.509418,4.917404,18.625975,0.255826,1.714889,0.054794,0.000000,0.000000,0.000000,0.000000,0.000000,0.000000
13352666.000000,-0.260333,0.589776,0.326032,-1.506996,-0.207951,2.062941,0.116505,0.022527,0.518158,-0.092894,-0.376118,-0.228358,0.967342,0.138318,0.252729,-37.434040,4.965012,18.574400,0.315336,1.708480,0.048385,0.000000,0.000000,0.000000,0.000000,0.000000,0.000000
13352667.000000,-0.260312,0.590304,0.325938,-1.507363,-0.208176,2.063900,0.116644,0.023019,0.532367,-0.091493,-0.382146,-0.227666,0.959843,0.140997,0.252729,-37.362629,4.965012,18.499022,0.327238,1.800033,0.061202,0.000000,0.000000,0.000000,0.000000,0.000000,0.000000
13352668.000000,-0.260284,0.590824,0.325852,-1.507727,-0.208405,2.064879,0.116790,0.025735,0.527231,-0.088743,-0.372513,-0.230864,0.961844,0.138386,0.153547,-37.287251,4.893600,18.399839,0.303434,1.767074,0.061202,0.000000,0.000000,0.000000,0.000000,0.000000,0.000000
13352669.000000,-0.260256,0.591356,0.325765,-1.508099,-0.208641,2.065829,0.116936,0.026419,0.530089,-0.090009,-0.372402,-0.232721,0.961272,0.141776,0.105939,-37.239643,4.818222,18.475218,0.261320,1.779891,0.054794,0.000000,0.000000,0.000000,0.000000,0.000000,0.000000
13352670.000000,-0.260227,0.591878,0.325676,-1.508457,-0.208874,2.066787,0.117078,0.026985,0.529103,-0.088459,-0.369508,-0.234743,0.949333,0.139409,0.054365,-37.188068,4.770615,18.427610,0.231107,1.793624,0.041976,0.000000,0.000000,0.000000,0.000000,0.000000,0.000000
13352671.000000,-0.260200,0.592424,0.325586,-1.508815,-0.209104,2.067737,0.117215,0.029882,0.528906,-0.091201,-0.365800,-0.231069,0.950693,0.140399,0.030561,-37.334858,4.770615,18.352232,0.183500,1.844894,0.094161,0.000000,0.000000,0.000000,0.000000,0.000000,0.000000
13352672.000000,-0.260175,0.592972,0.325502,-1.509173,-0.209337,2.068687,0.117364,0.028435,0.536004,-0.087082,-0.361871,-0.230283,0.949570,0.140337,0.030561,-37.509418,4.619858,18.177671,0.195402,1.942855,0.041976,0.000000,0.000000,0.000000,0.000000,0.000000,0.000000
13352673.000000,-0.260147,0.593528,0.325414,-1.509523,-0.209566,2.069645,0.117503,0.027386,0.542745,-0.089740,-0.354969,-0.233386,0.950767,0.140872,0.030561,-37.775227,4.572250,18.106260,0.178007,1.988631,0.087753,0.000000,0.000000,0.000000,0.000000,0.000000,0.000000
13352674.000000,-0.260123,0.594079,0.325326,-1.509878,-0.209807,2.070604,0.117650,0.026146,0.541244,-0.089123,-0.351354,-0.237138,0.954046,0.143593,0.054365,-37.802998,4.548447,17.983274,0.189908,1.851302,0.087753,0.000000,0.000000,0.000000,0.000000,0.000000,0.000000
13352675.000000,-0.260093,0.594631,0.325236,-1.510227,-0.210048,2.071582,0.117792,0.026401,0.547227,-0.088498,-0.348985,-0.234977,0.954617,0.141992,0.030561,-37.826801,4.524643,17.856321,0.201810,1.689254,0.054794,0.000000,0.000000,0.000000,0.000000,0.000000,0.000000
13352676.000000,-0.260066,0.595186,0.325149,-1.510581,-0.210289,2.072541,0.117926,0.025447,0.548796,-0.087560,-0.349758,-0.239206,0.959630,0.136679,0.054365,-37.850605,4.473068,17.709532,0.243009,1.605026,0.127120,0.000000,0.000000,0.000000,0.000000,0.000000,0.000000
13352677.000000,-0.260039,0.595753,0.325070,-1.510933,-0.210525,2.073486,0.118075,0.024809,0.551936,-0.085733,-0.347848,-0.236603,0.956572,0.138913,0.078168,-37.949787,4.377853,17.562742,0.273221,1.676437,0.041976,0.000000,0.000000,0.000000,0.000000,0.000000,0.000000
13352678.000000,-0.260014,0.596321,0.324989,-1.511270,-0.210755,2.074440,0.118213,0.026727,0.556984,-0.084244,-0.344844,-0.241679,0.955227,0.136442,0.129743,-38.167988,4.278671,17.364378,0.267728,1.727706,0.054794,0.000000,0.000000,0.000000,0.000000,0.000000,0.000000
13352679.000000,-0.259993,0.596891,0.324908,-1.511610,-0.210991,2.075382,0.118347,0.024688,0.561150,-0.084427,-0.343053,-0.244489,0.944869,0.133559,0.205121,-38.314777,4.227097,17.213621,0.201810,1.682845,0.100570,0.000000,0.000000,0.000000,0.000000,0.000000,0.000000
13352680.000000,-0.259959,0.597461,0.324820,-1.511949,-0.211227,2.076344,0.118494,0.026776,0.573001,-0.085772,-0.343836,-0.238182,0.944342,0.134735,0.129743,-38.536945,4.227097,17.114439,0.154203,1.611434,0.061202,0.000000,0.000000,0.000000,0.000000,0.000000,0.000000
13352681.000000,-0.259930,0.598047,0.324729,-1.512286,-0.211454,2.077310,0.118636,0.029037,0.582026,-0.087188,-0.339047,-0.238266,0.963462,0.136932,0.153547,-38.778950,4.254868,16.920042,0.100187,1.539108,0.100570,0.000000,0.000000,0.000000,0.000000,0.000000,0.000000
13352682.000000,-0.259906,0.598634,0.324639,-1.512634,-0.211685,2.078239,0.118787,0.026357,0.584565,-0.088678,-0.336925,-0.229389,0.956741,0.145853,0.228925,-38.977314,4.302475,16.920042,0.064481,1.572067,0.041976,0.000000,0.000000,0.000000,0.000000,0.000000,0.000000
13352683.000000,-0.259881,0.599209,0.324555,-1.512966,-0.211923,2.079180,0.118925,0.028150,0.577426,-0.086640,-0.338512,-0.231193,0.941296,0.144811,0.276533,-39.048725,4.227097,16.793089,0.123990,1.617843,0.100570,0.000000,0.000000,0.000000,0.000000,0.000000,0.000000
13352684.000000,-0.259852,0.599803,0.324459,-1.513300,-0.212162,2.080122,0.119077,0.030031,0.578880,-0.092605,-0.335300,-0.231902,0.944182,0.147031,0.304304,-39.195515,4.326279,16.646299,0.171598,1.565658,0.087753,0.000000,0.000000,0.000000,0.000000,0.000000,0.000000
13352685.000000,-0.259829,0.600399,0.324364,-1.513635,-0.212406,2.081066,0.119220,0.026653,0.591959,-0.092628,-0.339114,-0.230818,0.940979,0.146446,0.403486,-39.417683,4.377853,16.598692,0.195402,1.597701,0.114303,0.000000,0.000000,0.000000,0.000000,0.000000,0.000000
13352686.000000,-0.259803,0.600988,0.324272,-1.513976,-0.212638,2.082023,0.119374,0.024901,0.591831,-0.091837,-0.339206,-0.229151,0.947782,0.149529,0.474897,-39.612080,4.401657,16.570921,0.183500,1.552840,0.054794,0.000000,0.000000,0.000000,0.000000,0.000000,0.000000
13352687.000000,-0.259773,0.601597,0.324175,-1.514312,-0.212866,2.082966,0.119515,0.028469,0.592892,-0.092462,-0.335981,-0.226057,0.945254,0.148457,0.474897,-39.881855,4.473068,16.570921,0.123990,1.448470,0.067611,0.000000,0.000000,0.000000,0.000000,0.000000,0.000000
13352688.000000,-0.259746,0.602189,0.324081,-1.514645,-0.213099,2.083927,0.119660,0.029776,0.594363,-0.091682,-0.336907,-0.231651,0.941873,0.148747,0.526471,-40.028645,4.500839,16.570921,0.141385,1.344100,0.074935,0.000000,0.000000,0.000000,0.000000,0.000000,0.000000
13352689.000000,-0.259714,0.602785,0.323971,-1.514979,-0.213334,2.084857,0.119811,0.028895,0.592808,-0.100901,-0.333649,-0.233170,0.938304,0.148861,0.526471,-40.076252,4.695236,16.547117,0.088285,1.429244,0.074935,0.000000,0.000000,0.000000,0.000000,0.000000,0.000000
13352690.000000,-0.259691,0.603379,0.323869,-1.515313,-0.213582,2.085794,0.119958,0.025784,0.586162,-0.098958,-0.343264,-0.236615,0.937589,0.148653,0.625654,-39.981037,4.770615,16.499510,0.112089,1.481429,0.094161,0.000000,0.000000,0.000000,0.000000,0.000000,0.000000
13352691.000000,-0.259659,0.603976,0.323762,-1.515651,-0.213826,2.086727,0.120113,0.026431,0.588031,-0.101078,-0.339109,-0.243558,0.932829,0.146277,0.601850,-40.028645,4.865829,16.622496,0.154203,1.637069,0.041976,0.000000,0.000000,0.000000,0.000000,0.000000,0.000000
13352692.000000,-0.259634,0.604575,0.323656,-1.515977,-0.214068,2.087646,0.120255,0.024606,0.590453,-0.105812,-0.331552,-0.244045,0.924312,0.145071,0.673261,-40.028645,4.965012,16.598692,0.154203,1.708480,0.100570,0.000000,0.000000,0.000000,0.000000,0.000000,0.000000
13352693.000000,-0.259604,0.605172,0.323545,-1.516301,-0.214308,2.088593,0.120408,0.027537,0.591925,-0.106339,-0.330413,-0.243904,0.928636,0.147823,0.697065,-40.104023,5.064194,16.598692,0.141385,1.662704,0.067611,0.000000,0.000000,0.000000,0.000000,0.000000,0.000000
13352694.000000,-0.259571,0.605777,0.323430,-1.516644,-0.214551,2.089537,0.120559,0.030835,0.593214,-0.104656,-0.334410,-0.248072,0.932894,0.149230,0.673261,-40.175434,5.210983,16.820860,0.117582,1.539108,0.041976,0.000000,0.000000,0.000000,0.000000,0.000000,0.000000
13352695.000000,-0.259541,0.606384,0.323325,-1.516977,-0.214808,2.090473,0.120696,0.028962,0.597210,-0.103632,-0.335553,-0.246470,0.934410,0.147958,0.697065,-40.127827,5.234787,16.844664,0.105680,1.546432,0.087753,0.000000,0.000000,0.000000,0.000000,0.000000,0.000000
13352696.000000,-0.259515,0.606988,0.323215,-1.517309,-0.215058,2.091403,0.120847,0.029941,0.599517,-0.106566,-0.335456,-0.246607,0.923186,0.150140,0.748639,-40.151630,5.286362,16.943846,0.112089,1.624252,0.048385,0.000000,0.000000,0.000000,0.000000,0.000000,0.000000
13352697.000000,-0.259489,0.607589,0.323101,-1.517630,-0.215308,2.092321,0.120991,0.026995,0.596687,-0.107484,-0.329079,-0.248648,0.920459,0.148803,0.824018,-40.028645,5.405380,16.943846,0.178007,1.727706,0.087753,0.000000,0.000000,0.000000,0.000000,0.000000,0.000000
13352698.000000,-0.259453,0.608174,0.322987,-1.517961,-0.215552,2.093246,0.121144,0.027453,0.598228,-0.109608,-0.327771,-0.247449,0.918285,0.151085,0.796247,-39.758869,5.456955,17.066832,0.178007,1.773483,0.041976,0.000000,0.000000,0.000000,0.000000,0.000000,0.000000
13352699.000000,-0.259417,0.608776,0.322869,-1.518295,-0.215803,2.094179,0.121290,0.031170,0.599976,-0.112423,-0.329277,-0.251651,0.943014,0.147817,0.748639,-39.612080,5.556137,17.166014,0.183500,1.773483,0.094161,0.000000,0.000000,0.000000,0.000000,0.000000,0.000000
13352700.000000,-0.259388,0.609372,0.322750,-1.518629,-0.216058,2.095089,0.121442,0.028504,0.595760,-0.113839,-0.333515,-0.254155,0.930289,0.150565,0.796247,-39.366108,5.627548,17.265196,0.171598,1.735030,0.041976,0.000000,0.000000,0.000000,0.000000,0.000000,0.000000
13352701.000000,-0.259351,0.609965,0.322630,-1.518962,-0.216311,2.096015,0.121584,0.032105,0.595341,-0.111678,-0.335384,-0.251522,0.923003,0.148455,0.748639,-39.219318,5.702927,17.435789,0.159696,1.727706,0.100570,0.000000,0.000000,0.000000,0.000000,0.000000,0.000000
13352702.000000,-0.259319,0.610568,0.322519,-1.519286,-0.216562,2.096919,0.121735,0.032318,0.592111,-0.107903,-0.329831,-0.252156,0.916853,0.149338,0.796247,-39.124104,5.679123,17.487364,0.213712,1.773483,0.074935,0.000000,0.000000,0.000000,0.000000,0.000000,0.000000
13352703.000000,-0.259288,0.611176,0.322411,-1.519620,-0.216810,2.097828,0.121880,0.032539,0.595877,-0.104740,-0.337447,-0.250794,0.911372,0.150760,0.847822,-39.001118,5.627548,17.685728,0.243009,1.812850,0.048385,0.000000,0.000000,0.000000,0.000000,0.000000,0.000000
13352704.000000,-0.259254,0.611757,0.322291,-1.519954,-0.217058,2.098749,0.122020,0.030217,0.594565,-0.108553,-0.334898,-0.254119,0.911014,0.144686,0.871625,-38.707539,5.702927,17.856321,0.249418,1.779891,0.074935,0.000000,0.000000,0.000000,0.000000,0.000000,0.000000
13352705.000000,-0.259221,0.612343,0.322180,-1.520289,-0.217318,2.099646,0.122168,0.032200,0.585293,-0.108331,-0.335144,-0.253433,0.907118,0.150404,0.871625,-38.338581,5.651352,18.007078,0.291532,1.844894,0.067611,0.000000,0.000000,0.000000,0.000000,0.000000,0.000000
13352706.000000,-0.259185,0.612936,0.322065,-1.520614,-0.217567,2.100557,0.122314,0.034163,0.583588,-0.112504,-0.330166,-0.249215,0.904061,0.149458,0.847822,-38.144184,5.651352,18.054686,0.243009,1.844894,0.087753,0.000000,0.000000,0.000000,0.000000,0.000000,0.000000
13352707.000000,-0.259154,0.613538,0.321954,-1.520937,-0.217810,2.101459,0.122468,0.033927,0.587481,-0.111783,-0.323201,-0.246809,0.908619,0.151804,0.895429,-38.045002,5.603745,18.106260,0.201810,1.844894,0.034652,0.000000,0.000000,0.000000,0.000000,0.000000,0.000000
13352708.000000,-0.259121,0.614157,0.321842,-1.521261,-0.218055,2.102362,0.122609,0.037494,0.596198,-0.110471,-0.324113,-0.245875,0.896259,0.145253,0.923200,-38.191792,5.528366,18.130064,0.195402,1.884261,0.074935,0.000000,0.000000,0.000000,0.000000,0.000000,0.000000
13352709.000000,-0.259081,0.614757,0.321734,-1.521581,-0.218304,2.103284,0.122758,0.038218,0.595983,-0.110164,-0.321754,-0.251628,0.899074,0.142260,0.895429,-38.215595,5.480759,18.153868,0.147794,1.858627,0.061202,0.000000,0.000000,0.000000,0.000000,0.000000,0.000000
13352710.000000,-0.259046,0.615368,0.321633,-1.521902,-0.218561,2.104200,0.122908,0.034955,0.596768,-0.105091,-0.322750,-0.252215,0.903364,0.140305,0.895429,-38.215595,5.357773,18.177671,0.201810,1.779891,0.041976,0.000000,0.000000,0.000000,0.000000,0.000000,0.000000
13352711.000000,-0.259015,0.615986,0.321523,-1.522229,-0.218818,2.105117,0.123049,0.033334,0.606060,-0.106958,-0.321561,-0.251709,0.903203,0.136704,0.994611,-38.390156,5.333969,18.229246,0.237516,1.721298,0.081344,0.000000,0.000000,0.000000,0.000000,0.000000,0.000000
13352712.000000,-0.258975,0.616591,0.321413,-1.522553,-0.219074,2.106012,0.123198,0.035186,0.605918,-0.108113,-0.320316,-0.251900,0.896881,0.141482,0.970807,-38.267170,5.310165,18.276854,0.285123,1.767074,0.041976,0.000000,0.000000,0.000000,0.000000,0.000000,0.000000
13352713.000000,-0.258936,0.617200,0.321312,-1.522874,-0.219329,2.106923,0.123338,0.037010,0.602298,-0.108536,-0.320501,-0.251352,0.901341,0.142608,0.923200,-38.144184,5.258591,18.229246,0.332731,1.825668,0.074935,0.000000,0.000000,0.000000,0.000000,0.000000,0.000000
13352714.000000,-0.258896,0.617806,0.321206,-1.523193,-0.219583,2.107829,0.123491,0.037024,0.600826,-0.104463,-0.318811,-0.251549,0.898874,0.145412,0.923200,-38.045002,5.163376,18.229246,0.261320,1.942855,0.054794,0.000000,0.000000,0.000000,0.000000,0.000000,0.000000
13352715.000000,-0.258846,0.618427,0.321101,-1.523514,-0.219835,2.108731,0.123645,0.039883,0.605308,-0.106480,-0.317573,-0.248351,0.904107,0.147449,0.796247,-38.096577,5.135605,18.253050,0.219205,1.988631,0.034652,0.000000,0.000000,0.000000,0.000000,0.000000,0.000000
13352716.000000,-0.258804,0.619046,0.320999,-1.523834,-0.220084,2.109657,0.123792,0.043304,0.623655,-0.103167,-0.319841,-0.245297,0.906418,0.143445,0.748639,-38.120380,5.040390,18.253050,0.159696,1.897079,0.034652,0.000000,0.000000,0.000000,0.000000,0.000000,0.000000
13352717.000000,-0.258764,0.619671,0.320893,-1.524153,-0.220330,2.110583,0.123937,0.041062,0.625544,-0.106117,-0.319556,-0.244828,0.925905,0.142926,0.772443,-38.290974,5.040390,18.304625,0.141385,1.838485,0.087753,0.000000,0.000000,0.000000,0.000000,0.000000,0.000000
13352718.000000,-0.258720,0.620293,0.320794,-1.524469,-0.220581,2.111493,0.124087,0.041332,0.618901,-0.103297,-0.320648,-0.246162,0.921179,0.148520,0.724836,-38.267170,4.965012,18.304625,0.166105,1.812850,0.081344,0.000000,0.000000,0.000000,0.000000,0.000000,0.000000
13352719.000000,-0.258676,0.620916,0.320690,-1.524778,-0.220843,2.112394,0.124243,0.040840,0.621372,-0.102762,-0.315866,-0.251876,0.914023,0.151494,0.697065,-38.267170,4.965012,18.304625,0.195402,1.865035,0.021835,0.000000,0.000000,0.000000,0.000000,0.000000,0.000000
13352720.000000,-0.258628,0.621540,0.320585,-1.525076,-0.221112,2.113285,0.124382,0.041549,0.621795,-0.105607,-0.307405,-0.253653,0.911433,0.149073,0.625654,-38.243366,4.988815,18.130064,0.285123,1.884261,0.081344,0.000000,0.000000,0.000000,0.000000,0.000000,0.000000
13352721.000000,-0.258583,0.622180,0.320480,-1.525375,-0.221367,2.114196,0.124532,0.043490,0.624309,-0.104576,-0.308015,-0.249721,0.909726,0.150445,0.625654,-38.413960,4.988815,18.007078,0.255826,1.858627,0.054794,0.000000,0.000000,0.000000,0.000000,0.000000,0.000000
13352722.000000,-0.258531,0.622805,0.320375,-1.525680,-0.221620,2.115109,0.124683,0.043509,0.619450,-0.103575,-0.303532,-0.255024,0.911213,0.150024,0.550275,-38.437763,4.988815,18.007078,0.225614,1.800033,0.061202,0.000000,0.000000,0.000000,0.000000,0.000000,0.000000
13352723.000000,-0.258476,0.623447,0.320273,-1.525977,-0.221883,2.116013,0.124836,0.045279,0.626140,-0.101847,-0.298644,-0.261573,0.908423,0.154248,0.403486,-38.536945,4.941208,17.955503,0.213712,1.702071,0.054794,0.000000,0.000000,0.000000,0.000000,0.000000,0.000000
13352724.000000,-0.258423,0.624093,0.320164,-1.526273,-0.222152,2.116923,0.124987,0.047798,0.639270,-0.102610,-0.295970,-0.257488,0.901833,0.153703,0.328107,-38.830524,4.988815,17.931700,0.207303,1.656295,0.048385,0.000000,0.000000,0.000000,0.000000,0.000000,0.000000
13352725.000000,-0.258375,0.624735,0.320064,-1.526564,-0.222414,2.117803,0.125132,0.047427,0.640008,-0.100999,-0.291557,-0.259983,0.898736,0.150935,0.351911,-38.878132,4.941208,17.832518,0.225614,1.747848,0.081344,0.000000,0.000000,0.000000,0.000000,0.000000,0.000000
13352726.000000,-0.258320,0.625372,0.319963,-1.526865,-0.222674,2.118707,0.125287,0.050208,0.631807,-0.099878,-0.292002,-0.256335,0.903311,0.157757,0.252729,-38.806721,4.893600,17.856321,0.237516,1.800033,0.028243,0.000000,0.000000,0.000000,0.000000,0.000000,0.000000
13352727.000000,-0.258265,0.626009,0.319852,-1.527160,-0.222937,2.119617,0.125435,0.052078,0.633246,-0.101788,-0.292675,-0.263577,0.895787,0.149758,0.153547,-38.778950,4.965012,17.907896,0.303434,1.747848,0.061202,0.000000,0.000000,0.000000,0.000000,0.000000,0.000000
13352728.000000,-0.258218,0.626656,0.319754,-1.527466,-0.223202,2.120512,0.125588,0.052741,0.636835,-0.102900,-0.293999,-0.262747,0.898177,0.150144,0.205121,-38.755146,4.893600,18.153868,0.285123,1.754256,0.061202,0.000000,0.000000,0.000000,0.000000,0.000000,0.000000
13352729.000000,-0.258162,0.627296,0.319641,-1.527761,-0.223468,2.121424,0.125736,0.053146,0.640352,-0.104732,-0.295223,-0.261850,0.893813,0.149529,0.153547,-38.854328,4.988815,18.276854,0.261320,1.735030,0.081344,0.000000,0.000000,0.000000,0.000000,0.000000,0.000000
13352730.000000,-0.258110,0.627950,0.319533,-1.528053,-0.223734,2.122312,0.125894,0.055141,0.640816,-0.103508,-0.294852,-0.262767,0.910679,0.156297,0.153547,-39.001118,4.988815,18.352232,0.267728,1.727706,0.028243,0.000000,0.000000,0.000000,0.000000,0.000000,0.000000
13352731.000000,-0.258058,0.628603,0.319429,-1.528344,-0.223997,2.123213,0.126044,0.053211,0.635103,-0.101105,-0.291535,-0.262518,0.902677,0.157398,0.177350,-39.048725,4.917404,18.427610,0.261320,1.779891,0.087753,0.000000,0.000000,0.000000,0.000000,0.000000,0.000000
13352732.000000,-0.258008,0.629239,0.319322,-1.528632,-0.224265,2.124122,0.126204,0.051670,0.635755,-0.103425,-0.291553,-0.264460,0.898097,0.156876,0.205121,-38.901936,4.893600,18.475218,0.297025,1.779891,0.061202,0.000000,0.000000,0.000000,0.000000,0.000000,0.000000
13352733.000000,-0.257960,0.629885,0.319212,-1.528929,-0.224538,2.125013,0.126363,0.049936,0.639138,-0.106498,-0.290458,-0.266270,0.905613,0.155740,0.252729,-38.778950,4.917404,18.625975,0.356534,1.754256,0.054794,0.000000,0.000000,0.000000,0.000000,0.000000,0.000000
13352734.000000,-0.257907,0.630542,0.319105,-1.529201,-0.224807,2.125909,0.126514,0.050106,0.655332,-0.107038,-0.283381,-0.266501,0.901018,0.153295,0.252729,-38.806721,4.865829,18.625975,0.393156,1.819259,0.087753,0.000000,0.000000,0.000000,0.000000,0.000000,0.000000
13352735.000000,-0.257855,0.631183,0.318995,-1.529483,-0.225065,2.126802,0.126672,0.050110,0.653159,-0.108168,-0.281602,-0.259729,0.907742,0.153042,0.252729,-38.731342,4.842026,18.649778,0.362943,1.923629,0.048385,0.000000,0.000000,0.000000,0.000000,0.000000,0.000000
13352736.000000,-0.257805,0.631832,0.318885,-1.529760,-0.225312,2.127693,0.126818,0.049071,0.645523,-0.109490,-0.276932,-0.253252,0.903428,0.154706,0.304304,-38.659931,4.842026,18.649778,0.285123,1.909896,0.087753,0.000000,0.000000,0.000000,0.000000,0.000000,0.000000
13352737.000000,-0.257749,0.632479,0.318775,-1.530027,-0.225567,2.128601,0.126979,0.053190,0.646396,-0.109249,-0.273013,-0.253762,0.903375,0.161413,0.276533,-38.608356,4.794418,18.625975,0.225614,1.871444,0.015426,0.000000,0.000000,0.000000,0.000000,0.000000,0.000000
13352738.000000,-0.257698,0.633126,0.318665,-1.530299,-0.225825,2.129482,0.127129,0.051309,0.646423,-0.109816,-0.268789,-0.255925,0.894019,0.156729,0.328107,-38.413960,4.794418,18.574400,0.207303,1.890670,0.041976,0.000000,0.000000,0.000000,0.000000,0.000000,0.000000
13352739.000000,-0.257649,0.633773,0.318558,-1.530562,-0.226090,2.130382,0.127273,0.046261,0.647129,-0.110170,-0.271075,-0.259956,0.891280,0.153171,0.403486,-38.191792,4.770615,18.526793,0.267728,1.903487,0.100570,0.000000,0.000000,0.000000,0.000000,0.000000,0.000000
13352740.000000,-0.257605,0.634413,0.318449,-1.530818,-0.226350,2.131283,0.127433,0.043928,0.642434,-0.107887,-0.260642,-0.258719,0.889820,0.155114,0.550275,-38.021198,4.770615,18.427610,0.332731,1.909896,0.028243,0.000000,0.000000,0.000000,0.000000,0.000000,0.000000
13352741.000000,-0.257563,0.635060,0.318342,-1.531084,-0.226606,2.132161,0.127572,0.042569,0.634271,-0.108603,-0.265581,-0.255794,0.888992,0.150786,0.697065,-37.826801,4.742844,18.475218,0.351041,1.890670,0.094161,0.000000,0.000000,0.000000,0.000000,0.000000,0.000000
13352742.000000,-0.257508,0.635694,0.318237,-1.531335,-0.226869,2.133055,0.127727,0.046198,0.633296,-0.105404,-0.259864,-0.261051,0.882583,0.151217,0.649457,-37.533222,4.695236,18.376036,0.315336,1.851302,0.061202,0.000000,0.000000,0.000000,0.000000,0.000000,0.000000
13352743.000000,-0.257452,0.636335,0.318122,-1.531586,-0.227128,2.133930,0.127877,0.049289,0.634352,-0.105029,-0.253572,-0.260140,0.882652,0.146492,0.574079,-37.311054,4.719040,18.328428,0.267728,1.871444,0.054794,0.000000,0.000000,0.000000,0.000000,0.000000,0.000000
13352744.000000,-0.257401,0.636980,0.318012,-1.531828,-0.227387,2.134806,0.128030,0.052063,0.635640,-0.110167,-0.248957,-0.254597,0.880845,0.149032,0.601850,-37.116657,4.719040,18.130064,0.225614,1.949264,0.015426,0.000000,0.000000,0.000000,0.000000,0.000000,0.000000
13352745.000000,-0.257350,0.637607,0.317899,-1.532071,-0.227641,2.135688,0.128170,0.050443,0.633360,-0.110800,-0.248374,-0.257923,0.874734,0.146111,0.649457,-36.771503,4.719040,18.054686,0.166105,2.007858,0.100570,0.000000,0.000000,0.000000,0.000000,0.000000,0.000000
13352746.000000,-0.257299,0.638246,0.317786,-1.532306,-0.227900,2.136563,0.128325,0.049428,0.627591,-0.111407,-0.239848,-0.256905,0.869737,0.148664,0.697065,-36.430317,4.719040,17.931700,0.219205,1.981307,0.067611,0.000000,0.000000,0.000000,0.000000,0.000000,0.000000
13352747.000000,-0.257245,0.638886,0.317675,-1.532531,-0.228171,2.137450,0.128482,0.050390,0.630022,-0.109249,-0.234735,-0.254067,0.874726,0.150480,0.673261,-36.184345,4.742844,17.832518,0.225614,1.903487,0.034652,0.000000,0.000000,0.000000,0.000000,0.000000,0.000000
13352748.000000,-0.257195,0.639540,0.317565,-1.532757,-0.228432,2.138329,0.128628,0.049213,0.635558,-0.109039,-0.230319,-0.256440,0.893703,0.147930,0.724836,-36.089130,4.695236,17.709532,0.219205,1.832076,0.094161,0.000000,0.000000,0.000000,0.000000,0.000000,0.000000
13352749.000000,-0.257139,0.640203,0.317450,-1.532973,-0.228707,2.139204,0.128787,0.050244,0.643634,-0.110264,-0.222160,-0.260659,0.881512,0.151706,0.697065,-36.212116,4.695236,17.511168,0.291532,1.832076,0.015426,0.000000,0.000000,0.000000,0.000000,0.000000,0.000000
13352750.000000,-0.257085,0.640861,0.317332,-1.533184,-0.228969,2.140101,0.128934,0.050140,0.651186,-0.112633,-0.215042,-0.256869,0.883169,0.149450,0.697065,-36.382710,4.770615,17.388182,0.297025,1.800033,0.067611,0.000000,0.000000,0.000000,0.000000,0.000000,0.000000
13352751.000000,-0.257033,0.641526,0.317220,-1.533393,-0.229228,2.140982,0.129091,0.052348,0.649656,-0.112636,-0.212425,-0.263281,0.884990,0.150278,0.724836,-36.505695,4.770615,17.265196,0.297025,1.779891,0.054794,0.000000,0.000000,0.000000,0.000000,0.000000,0.000000
13352752.000000,-0.256975,0.642195,0.317097,-1.533597,-0.229493,2.141872,0.129242,0.056192,0.671811,-0.117924,-0.210140,-0.261401,0.881602,0.150248,0.673261,-36.652485,4.865829,17.166014,0.255826,1.702071,0.061202,0.000000,0.000000,0.000000,0.000000,0.000000,0.000000
13352753.000000,-0.256911,0.642868,0.316980,-1.533804,-0.229754,2.142777,0.129395,0.057169,0.674970,-0.114023,-0.207944,-0.261672,0.881986,0.150324,0.574079,-36.747700,4.893600,17.142210,0.249418,1.605026,0.054794,0.000000,0.000000,0.000000,0.000000,0.000000,0.000000
13352754.000000,-0.256858,0.643537,0.316871,-1.534002,-0.230015,2.143653,0.129552,0.057166,0.672263,-0.112917,-0.202246,-0.256913,0.881002,0.153531,0.625654,-36.771503,4.865829,17.090635,0.231107,1.643478,0.048385,0.000000,0.000000,0.000000,0.000000,0.000000,0.000000
13352755.000000,-0.256800,0.644209,0.316757,-1.534193,-0.230276,2.144530,0.129700,0.054787,0.671420,-0.112228,-0.199368,-0.259669,0.882334,0.150789,0.649457,-36.946064,4.842026,16.967649,0.261320,1.708480,0.107894,0.000000,0.000000,0.000000,0.000000,0.000000,0.000000
13352756.000000,-0.256742,0.644887,0.316640,-1.534391,-0.230535,2.145391,0.129862,0.054278,0.670326,-0.116124,-0.195140,-0.256320,0.870134,0.153575,0.625654,-37.140461,4.865829,16.892271,0.267728,1.819259,0.034652,0.000000,0.000000,0.000000,0.000000,0.000000,0.000000
13352757.000000,-0.256683,0.645578,0.316529,-1.534581,-0.230798,2.146278,0.130011,0.053826,0.674374,-0.114744,-0.195445,-0.252417,0.868532,0.151738,0.601850,-37.362629,4.842026,16.820860,0.249418,1.832076,0.048385,0.000000,0.000000,0.000000,0.000000,0.000000,0.000000
13352758.000000,-0.256619,0.646263,0.316412,-1.534771,-0.231045,2.147168,0.130163,0.058169,0.681834,-0.117390,-0.192407,-0.252182,0.874240,0.151285,0.502668,-37.533222,4.842026,16.745481,0.159696,1.806442,0.048385,0.000000,0.000000,0.000000,0.000000,0.000000,0.000000
13352759.000000,-0.256558,0.646956,0.316291,-1.534961,-0.231300,2.148049,0.130308,0.057112,0.685138,-0.118037,-0.189229,-0.248342,0.879542,0.145038,0.451093,-37.656208,4.917404,16.646299,0.093778,1.747848,0.087753,0.000000,0.000000,0.000000,0.000000,0.000000,0.000000
13352760.000000,-0.256496,0.647636,0.316168,-1.535146,-0.231561,2.148943,0.130459,0.055112,0.685030,-0.117621,-0.186177,-0.249699,0.876890,0.143596,0.451093,-37.751423,4.965012,16.499510,0.135892,1.676437,0.041976,0.000000,0.000000,0.000000,0.000000,0.000000,0.000000
13352761.000000,-0.256433,0.648343,0.316051,-1.535327,-0.231823,2.149816,0.130602,0.057322,0.690597,-0.115856,-0.180028,-0.254818,0.873252,0.143373,0.427289,-38.068806,4.941208,16.324949,0.171598,1.708480,0.087753,0.000000,0.000000,0.000000,0.000000,0.000000,0.000000
13352762.000000,-0.256373,0.649053,0.315935,-1.535505,-0.232086,2.150699,0.130751,0.058544,0.689231,-0.117497,-0.179453,-0.258222,0.869937,0.145613,0.427289,-38.314777,4.917404,16.178160,0.213712,1.747848,0.081344,0.000000,0.000000,0.000000,0.000000,0.000000,0.000000
13352763.000000,-0.256310,0.649768,0.315814,-1.535680,-0.232347,2.151580,0.130908,0.056217,0.695760,-0.119316,-0.180251,-0.259842,0.860757,0.148512,0.427289,-38.755146,4.917404,16.078978,0.225614,1.714889,0.034652,0.000000,0.000000,0.000000,0.000000,0.000000,0.000000
13352764.000000,-0.256247,0.650498,0.315695,-1.535857,-0.232596,2.152465,0.131051,0.058007,0.708532,-0.117678,-0.180332,-0.254831,0.872076,0.145744,0.403486,-39.219318,4.917404,15.979795,0.195402,1.584884,0.120712,0.000000,0.000000,0.000000,0.000000,0.000000,0.000000
13352765.000000,-0.256182,0.651213,0.315573,-1.536039,-0.232845,2.153356,0.131208,0.059758,0.730289,-0.119528,-0.180931,-0.253272,0.872819,0.150465,0.375715,-39.512897,4.917404,16.027403,0.100187,1.467696,0.034652,0.000000,0.000000,0.000000,0.000000,0.000000,0.000000
13352766.000000,-0.256113,0.651942,0.315447,-1.536220,-0.233107,2.154236,0.131362,0.065078,0.729484,-0.121585,-0.180669,-0.259969,0.893957,0.150049,0.304304,-39.834248,4.941208,16.055174,0.069974,1.448470,0.034652,0.000000,0.000000,0.000000,0.000000,0.000000,0.000000
13352767.000000,-0.256052,0.652677,0.315325,-1.536397,-0.233381,2.155097,0.131508,0.063168,0.731983,-0.119369,-0.176553,-0.258591,0.883507,0.148629,0.351911,-40.151630,4.941208,16.055174,0.129484,1.539108,0.074935,0.000000,0.000000,0.000000,0.000000,0.000000,0.000000
13352768.000000,-0.255986,0.653401,0.315198,-1.536577,-0.233652,2.155963,0.131657,0.062869,0.729453,-0.123051,-0.178933,-0.265719,0.873928,0.144378,0.351911,-40.421406,5.040390,16.150389,0.154203,1.649886,0.081344,0.000000,0.000000,0.000000,0.000000,0.000000,0.000000
13352769.000000,-0.255928,0.654141,0.315081,-1.536762,-0.233919,2.156815,0.131804,0.062659,0.727877,-0.121509,-0.180003,-0.267871,0.876614,0.145622,0.474897,-40.762592,4.988815,16.249571,0.225614,1.676437,0.094161,0.000000,0.000000,0.000000,0.000000,0.000000,0.000000
13352770.000000,-0.255859,0.654876,0.314954,-1.536954,-0.234188,2.157682,0.131961,0.065198,0.720901,-0.122882,-0.187814,-0.273787,0.864045,0.148714,0.375715,-40.909382,5.012619,16.547117,0.178007,1.676437,0.048385,0.000000,0.000000,0.000000,0.000000,0.000000,0.000000
13352771.000000,-0.255795,0.655598,0.314827,-1.537141,-0.234461,2.158562,0.132108,0.064472,0.719197,-0.124046,-0.185614,-0.275579,0.862698,0.141402,0.375715,-40.956989,5.040390,16.745481,0.166105,1.617843,0.100570,0.000000,0.000000,0.000000,0.000000,0.000000,0.000000
13352772.000000,-0.255728,0.656331,0.314699,-1.537325,-0.234734,2.159417,0.132268,0.064682,0.724270,-0.125248,-0.183621,-0.272836,0.863215,0.153592,0.351911,-41.008564,5.087997,16.943846,0.166105,1.637069,0.067611,0.000000,0.000000,0.000000,0.000000,0.000000,0.000000
13352773.000000,-0.255662,0.657054,0.314574,-1.537502,-0.235005,2.160273,0.132421,0.063510,0.726068,-0.124465,-0.181659,-0.269992,0.853707,0.152448,0.375715,-41.079975,5.064194,16.991453,0.147794,1.741439,0.081344,0.000000,0.000000,0.000000,0.000000,0.000000,0.000000
13352774.000000,-0.255597,0.657794,0.314446,-1.537683,-0.235275,2.161117,0.132580,0.062578,0.729813,-0.126506,-0.177349,-0.274331,0.844865,0.151912,0.403486,-41.254536,5.040390,17.043028,0.171598,1.838485,0.061202,0.000000,0.000000,0.000000,0.000000,0.000000,0.000000
13352775.000000,-0.255531,0.658534,0.314316,-1.537868,-0.235553,2.161980,0.132732,0.063323,0.729341,-0.127381,-0.179969,-0.275766,0.846759,0.150654,0.375715,-41.401325,5.087997,17.189817,0.171598,1.812850,0.087753,0.000000,0.000000,0.000000,0.000000,0.000000,0.000000
13352776.000000,-0.255464,0.659268,0.314181,-1.538048,-0.235827,2.162860,0.132887,0.062388,0.730946,-0.128593,-0.180224,-0.280693,0.858166,0.146311,0.403486,-41.496540,5.163376,17.265196,0.171598,1.643478,0.074935,0.000000,0.000000,0.000000,0.000000,0.000000,0.000000
13352777.000000,-0.255397,0.660009,0.314050,-1.538227,-0.236109,2.163710,0.133045,0.063187,0.732417,-0.131762,-0.179334,-0.282790,0.851495,0.147942,0.375715,-41.520344,5.210983,17.312803,0.213712,1.611434,0.061202,0.000000,0.000000,0.000000,0.000000,0.000000,0.000000
13352778.000000,-0.255337,0.660728,0.313916,-1.538405,-0.236392,2.164567,0.133193,0.060091,0.725135,-0.133528,-0.178602,-0.285694,0.853005,0.150043,0.502668,-41.401325,5.234787,17.340574,0.297025,1.617843,0.120712,0.000000,0.000000,0.000000,0.000000,0.000000,0.000000
13352779.000000,-0.255263,0.661463,0.313778,-1.538582,-0.236670,2.165399,0.133356,0.062265,0.721591,-0.132561,-0.177969,-0.284812,0.850858,0.152166,0.451093,-41.349751,5.286362,17.364378,0.303434,1.767074,0.067611,0.000000,0.000000,0.000000,0.000000,0.000000,0.000000
13352780.000000,-0.255197,0.662194,0.313645,-1.538756,-0.236950,2.166245,0.133511,0.061886,0.716350,-0.134245,-0.174010,-0.278918,0.839129,0.155639,0.474897,-41.179157,5.310165,17.364378,0.297025,1.819259,0.094161,0.000000,0.000000,0.000000,0.000000,0.000000,0.000000
13352781.000000,-0.255128,0.662910,0.313512,-1.538931,-0.237221,2.167118,0.133667,0.062017,0.714088,-0.135392,-0.174099,-0.272245,0.842474,0.159704,0.474897,-40.933186,5.333969,17.487364,0.225614,1.779891,0.081344,0.000000,0.000000,0.000000,0.000000,0.000000,0.000000
13352782.000000,-0.255055,0.663632,0.313377,-1.539105,-0.237481,2.167970,0.133828,0.066685,0.714352,-0.136886,-0.175365,-0.262521,0.845796,0.163296,0.403486,-40.691181,5.381577,17.562742,0.141385,1.747848,0.048385,0.000000,0.000000,0.000000,0.000000,0.000000,0.000000
13352783.000000,-0.254991,0.664331,0.313246,-1.539274,-0.237749,2.168816,0.133982,0.064464,0.726583,-0.136398,-0.175192,-0.267200,0.842051,0.163582,0.451093,-40.250813,5.357773,17.562742,0.135892,1.800033,0.081344,0.000000,0.000000,0.000000,0.000000,0.000000,0.000000
13352784.000000,-0.254923,0.665040,0.313108,-1.539443,-0.238030,2.169668,0.134141,0.063493,0.723355,-0.137370,-0.171902,-0.273586,0.857650,0.161673,0.474897,-39.881855,5.381577,17.562742,0.195402,1.923629,0.041976,0.000000,0.000000,0.000000,0.000000,0.000000,0.000000
13352785.000000,-0.254855,0.665748,0.312973,-1.539610,-0.238312,2.170504,0.134285,0.066551,0.717133,-0.137352,-0.168905,-0.272757,0.849176,0.156719,0.474897,-39.489094,5.381577,17.534971,0.243009,1.968490,0.100570,0.000000,0.000000,0.000000,0.000000,0.000000,0.000000
13352786.000000,-0.254784,0.666461,0.312833,-1.539773,-0.238584,2.171349,0.134445,0.066069,0.717439,-0.138514,-0.165074,-0.270387,0.844766,0.162619,0.451093,-39.417683,5.433151,17.562742,0.243009,1.949264,0.034652,0.000000,0.000000,0.000000,0.000000,0.000000,0.000000
13352787.000000,-0.254714,0.667195,0.312702,-1.539940,-0.238850,2.172192,0.134599,0.068305,0.719391,-0.139297,-0.164143,-0.273296,0.843351,0.158857,0.451093,-39.512897,5.381577,17.562742,0.243009,1.897079,0.054794,0.000000,0.000000,0.000000,0.000000,0.000000,0.000000
13352788.000000,-0.254647,0.667934,0.312564,-1.540107,-0.239121,2.173044,0.134752,0.069462,0.719082,-0.139505,-0.167288,-0.273988,0.841150,0.151764,0.474897,-39.635883,5.405380,17.610350,0.213712,1.832076,0.067611,0.000000,0.000000,0.000000,0.000000,0.000000,0.000000
13352789.000000,-0.254578,0.668670,0.312428,-1.540269,-0.239396,2.173896,0.134903,0.070995,0.723902,-0.138014,-0.162861,-0.272158,0.845167,0.150335,0.474897,-39.858051,5.357773,17.610350,0.231107,1.786300,0.094161,0.000000,0.000000,0.000000,0.000000,0.000000,0.000000
13352790.000000,-0.254510,0.669406,0.312290,-1.540429,-0.239671,2.174732,0.135061,0.071475,0.724264,-0.138526,-0.162727,-0.270566,0.834886,0.154409,0.502668,-39.881855,5.381577,17.610350,0.243009,1.812850,0.081344,0.000000,0.000000,0.000000,0.000000,0.000000,0.000000
13352791.000000,-0.254445,0.670137,0.312149,-1.540584,-0.239941,2.175566,0.135218,0.070743,0.728249,-0.139452,-0.160972,-0.269089,0.823087,0.154300,0.574079,-40.004841,5.433151,17.661924,0.249418,1.909896,0.061202,0.000000,0.000000,0.000000,0.000000,0.000000,0.000000
13352792.000000,-0.254372,0.670875,0.312015,-1.540734,-0.240208,2.176393,0.135363,0.072031,0.731676,-0.139504,-0.161101,-0.266963,0.828211,0.156260,0.574079,-40.052448,5.357773,17.661924,0.225614,1.949264,0.107894,0.000000,0.000000,0.000000,0.000000,0.000000,0.000000
13352793.000000,-0.254305,0.671625,0.311884,-1.540901,-0.240478,2.177239,0.135520,0.072411,0.737245,-0.139169,-0.162548,-0.267814,0.831127,0.157325,0.601850,-40.223042,5.357773,17.832518,0.154203,1.897079,0.041976,0.000000,0.000000,0.000000,0.000000,0.000000,0.000000
13352794.000000,-0.254237,0.672359,0.311750,-1.541052,-0.240761,2.178085,0.135674,0.069415,0.739824,-0.138836,-0.157371,-0.275439,0.832307,0.159569,0.625654,-40.298420,5.357773,17.884092,0.171598,1.858627,0.054794,0.000000,0.000000,0.000000,0.000000,0.000000,0.000000
13352795.000000,-0.254172,0.673090,0.311615,-1.541213,-0.241033,2.178921,0.135826,0.066813,0.735578,-0.136548,-0.159580,-0.277044,0.837090,0.160477,0.673261,-40.175434,5.405380,18.078489,0.166105,1.844894,0.100570,0.000000,0.000000,0.000000,0.000000,0.000000,0.000000
13352796.000000,-0.254105,0.673819,0.311483,-1.541356,-0.241312,2.179759,0.135989,0.065978,0.735186,-0.133057,-0.153739,-0.280425,0.832222,0.160109,0.697065,-40.104023,5.381577,18.078489,0.219205,1.865035,0.048385,0.000000,0.000000,0.000000,0.000000,0.000000,0.000000
13352797.000000,-0.254038,0.674564,0.311346,-1.541498,-0.241596,2.180587,0.136142,0.067300,0.732480,-0.134947,-0.148748,-0.283465,0.824243,0.155358,0.748639,-40.175434,5.405380,18.054686,0.285123,1.936446,0.100570,0.000000,0.000000,0.000000,0.000000,0.000000,0.000000
13352798.000000,-0.253968,0.675326,0.311211,-1.541638,-0.241883,2.181419,0.136301,0.066403,0.733534,-0.136250,-0.144817,-0.278775,0.831471,0.154967,0.748639,-40.397602,5.433151,18.007078,0.308927,2.014266,0.087753,0.000000,0.000000,0.000000,0.000000,0.000000,0.000000
13352799.000000,-0.253899,0.676073,0.311083,-1.541776,-0.242163,2.182272,0.136463,0.068021,0.732371,-0.132136,-0.139348,-0.278549,0.834619,0.155093,0.772443,-40.544392,5.381577,17.983274,0.279630,1.930038,0.054794,0.000000,0.000000,0.000000,0.000000,0.000000,0.000000
13352800.000000,-0.253829,0.676850,0.310954,-1.541915,-0.242427,2.183119,0.136616,0.070098,0.741656,-0.132248,-0.139389,-0.271982,0.838800,0.152249,0.748639,-40.909382,5.357773,18.007078,0.201810,1.779891,0.100570,0.000000,0.000000,0.000000,0.000000,0.000000,0.000000
13352801.000000,-0.253758,0.677615,0.310809,-1.542045,-0.242704,2.183964,0.136769,0.071972,0.764601,-0.135991,-0.138303,-0.277895,0.838760,0.151116,0.724836,-41.202961,5.456955,17.983274,0.171598,1.760665,0.120712,0.000000,0.000000,0.000000,0.000000,0.000000,0.000000
13352802.000000,-0.253686,0.678389,0.310672,-1.542176,-0.242983,2.184784,0.136932,0.069601,0.769403,-0.136991,-0.135686,-0.278399,0.830240,0.157566,0.724836,-41.448933,5.480759,18.007078,0.147794,1.825668,0.067611,0.000000,0.000000,0.000000,0.000000,0.000000,0.000000
13352803.000000,-0.253615,0.679177,0.310538,-1.542296,-0.243270,2.185618,0.137097,0.070480,0.775059,-0.137025,-0.131405,-0.282276,0.827018,0.157003,0.748639,-41.790119,5.480759,17.931700,0.219205,1.890670,0.034652,0.000000,0.000000,0.000000,0.000000,0.000000,0.000000
13352804.000000,-0.253541,0.679945,0.310390,-1.542426,-0.243550,2.186449,0.137249,0.071563,0.780464,-0.139907,-0.132344,-0.282728,0.822466,0.152100,0.748639,-42.036091,5.603745,18.030882,0.231107,2.001449,0.120712,0.000000,0.000000,0.000000,0.000000,0.000000,0.000000
13352805.000000,-0.253468,0.680722,0.310255,-1.542563,-0.243826,2.187285,0.137415,0.073080,0.779059,-0.141296,-0.134302,-0.279499,0.826833,0.153939,0.724836,-42.258259,5.603745,18.205442,0.273221,1.949264,0.067611,0.000000,0.000000,0.000000,0.000000,0.000000,0.000000
13352806.000000,-0.253391,0.681486,0.310113,-1.542703,-0.244107,2.188145,0.137573,0.075947,0.774455,-0.139265,-0.137761,-0.283662,0.832580,0.152878,0.625654,-42.258259,5.702927,18.499022,0.255826,1.793624,0.074935,0.000000,0.000000,0.000000,0.000000,0.000000,0.000000
13352807.000000,-0.253316,0.682236,0.309970,-1.542838,-0.244386,2.188989,0.137730,0.075967,0.771181,-0.139277,-0.138545,-0.290885,0.831590,0.155475,0.601850,-42.107502,5.726730,18.697386,0.255826,1.786300,0.081344,0.000000,0.000000,0.000000,0.000000,0.000000,0.000000
13352808.000000,-0.253239,0.683001,0.309832,-1.542968,-0.244666,2.189802,0.137882,0.076388,0.766279,-0.139090,-0.133879,-0.285882,0.825705,0.158108,0.574079,-42.012287,5.750534,18.820372,0.297025,1.916305,0.107894,0.000000,0.000000,0.000000,0.000000,0.000000,0.000000
13352809.000000,-0.253160,0.683751,0.309689,-1.543093,-0.244943,2.190617,0.138045,0.077027,0.759733,-0.141595,-0.132743,-0.281534,0.814779,0.161959,0.526471,-41.865498,5.750534,18.895750,0.327238,2.072860,0.087753,0.000000,0.000000,0.000000,0.000000,0.000000,0.000000
13352810.000000,-0.253083,0.684518,0.309546,-1.543215,-0.245216,2.191422,0.138212,0.076909,0.755454,-0.142508,-0.128100,-0.280380,0.806293,0.160133,0.502668,-41.865498,5.702927,18.947325,0.291532,2.177230,0.048385,0.000000,0.000000,0.000000,0.000000,0.000000,0.000000
13352811.000000,-0.252999,0.685289,0.309405,-1.543343,-0.245491,2.192253,0.138364,0.079866,0.754487,-0.138721,-0.128462,-0.277280,0.815571,0.155539,0.351911,-41.841694,5.726730,19.018736,0.213712,2.104903,0.107894,0.000000,0.000000,0.000000,0.000000,0.000000,0.000000
13352812.000000,-0.252916,0.686044,0.309260,-1.543469,-0.245770,2.193089,0.138534,0.079848,0.748137,-0.141931,-0.126379,-0.281576,0.815139,0.161407,0.276533,-41.694904,5.750534,19.117918,0.201810,1.962081,0.041976,0.000000,0.000000,0.000000,0.000000,0.000000,0.000000
13352813.000000,-0.252837,0.686813,0.309119,-1.543586,-0.246046,2.193907,0.138690,0.078262,0.743685,-0.140724,-0.122152,-0.277345,0.815342,0.156798,0.276533,-41.619526,5.750534,19.117918,0.207303,1.923629,0.094161,0.000000,0.000000,0.000000,0.000000,0.000000,0.000000
13352814.000000,-0.252757,0.687574,0.308972,-1.543697,-0.246325,2.194720,0.138854,0.077199,0.745082,-0.143635,-0.119437,-0.280472,0.809732,0.156478,0.276533,-41.548115,5.774338,19.117918,0.255826,1.995040,0.061202,0.000000,0.000000,0.000000,0.000000,0.000000,0.000000
13352815.000000,-0.252675,0.688336,0.308831,-1.543799,-0.246616,2.195519,0.139016,0.076438,0.747459,-0.141076,-0.110961,-0.284472,0.799527,0.159766,0.276533,-41.401325,5.726730,18.971128,0.351041,2.039901,0.054794,0.000000,0.000000,0.000000,0.000000,0.000000,0.000000
13352816.000000,-0.252590,0.689096,0.308688,-1.543901,-0.246899,2.196329,0.139171,0.078324,0.743799,-0.140811,-0.106858,-0.280155,0.800026,0.157134,0.177350,-41.179157,5.750534,18.895750,0.386747,2.112228,0.067611,0.000000,0.000000,0.000000,0.000000,0.000000,0.000000
13352817.000000,-0.252516,0.689846,0.308554,-1.544001,-0.247173,2.197157,0.139329,0.075300,0.749173,-0.137635,-0.105032,-0.274714,0.805375,0.159461,0.252729,-40.984760,5.651352,18.871946,0.356534,2.027084,0.094161,0.000000,0.000000,0.000000,0.000000,0.000000,0.000000
13352818.000000,-0.252434,0.690589,0.308420,-1.544103,-0.247437,2.197978,0.139488,0.078522,0.745462,-0.140850,-0.101366,-0.269059,0.808276,0.156373,0.228925,-40.516621,5.556137,18.895750,0.279630,1.871444,0.120712,0.000000,0.000000,0.000000,0.000000,0.000000,0.000000
13352819.000000,-0.252349,0.691330,0.308281,-1.544201,-0.247720,2.198795,0.139654,0.079370,0.756891,-0.139649,-0.100623,-0.271341,0.805676,0.162146,0.153547,-39.981037,5.528366,18.871946,0.261320,1.903487,0.061202,0.000000,0.000000,0.000000,0.000000,0.000000,0.000000
13352820.000000,-0.252264,0.692065,0.308144,-1.544289,-0.248003,2.199602,0.139808,0.079160,0.753146,-0.138394,-0.097075,-0.269385,0.801357,0.161815,0.105939,-39.612080,5.480759,18.721189,0.255826,2.047225,0.107894,0.000000,0.000000,0.000000,0.000000,0.000000,0.000000
13352821.000000,-0.252190,0.692831,0.308008,-1.544372,-0.248284,2.200400,0.139971,0.075689,0.758861,-0.136610,-0.091591,-0.267198,0.800295,0.160747,0.205121,-39.635883,5.405380,18.574400,0.231107,2.137862,0.067611,0.000000,0.000000,0.000000,0.000000,0.000000,0.000000
13352822.000000,-0.252109,0.693581,0.307876,-1.544453,-0.248569,2.201226,0.140130,0.074925,0.759129,-0.131196,-0.089500,-0.272057,0.808915,0.162390,0.228925,-39.612080,5.286362,18.499022,0.255826,2.079269,0.081344,0.000000,0.000000,0.000000,0.000000,0.000000,0.000000
13352823.000000,-0.252027,0.694342,0.307736,-1.544538,-0.248846,2.202046,0.140287,0.078270,0.761635,-0.133058,-0.087559,-0.275879,0.815494,0.158468,0.228925,-39.635883,5.310165,18.550596,0.285123,1.930038,0.107894,0.000000,0.000000,0.000000,0.000000,0.000000,0.000000
13352824.000000,-0.251945,0.695117,0.307606,-1.544610,-0.249136,2.202881,0.140445,0.079561,0.764989,-0.132665,-0.082339,-0.277275,0.820104,0.158649,0.276533,-39.687458,5.234787,18.451414,0.291532,1.747848,0.054794,0.000000,0.000000,0.000000,0.000000,0.000000,0.000000
13352825.000000,-0.251868,0.695881,0.307468,-1.544678,-0.249416,2.203706,0.140596,0.079717,0.764763,-0.133883,-0.075499,-0.283342,0.822022,0.158208,0.375715,-39.782673,5.210983,18.352232,0.339139,1.735030,0.127120,0.000000,0.000000,0.000000,0.000000,0.000000,0.000000
13352826.000000,-0.251789,0.696657,0.307330,-1.544743,-0.249700,2.204505,0.140759,0.078269,0.764780,-0.134904,-0.070195,-0.280472,0.817997,0.160130,0.403486,-39.929462,5.210983,18.253050,0.398649,1.877853,0.114303,0.000000,0.000000,0.000000,0.000000,0.000000,0.000000
13352827.000000,-0.251713,0.697420,0.307201,-1.544800,-0.249975,2.205313,0.140926,0.079184,0.758717,-0.129054,-0.066507,-0.279738,0.808483,0.160276,0.474897,-40.052448,5.064194,18.153868,0.369352,2.033492,0.048385,0.000000,0.000000,0.000000,0.000000,0.000000,0.000000
13352828.000000,-0.251631,0.698203,0.307069,-1.544859,-0.250248,2.206134,0.141078,0.078467,0.758315,-0.127429,-0.064228,-0.281604,0.811450,0.160033,0.474897,-40.250813,5.012619,18.078489,0.267728,2.001449,0.107894,0.000000,0.000000,0.000000,0.000000,0.000000,0.000000
13352829.000000,-0.251546,0.698972,0.306941,-1.544921,-0.250525,2.206970,0.141235,0.082676,0.753487,-0.128719,-0.061341,-0.279720,0.816555,0.161704,0.403486,-40.127827,4.941208,18.078489,0.213712,1.877853,0.120712,0.000000,0.000000,0.000000,0.000000,0.000000,0.000000
13352830.000000,-0.251467,0.699735,0.306805,-1.544980,-0.250798,2.207806,0.141395,0.079572,0.754019,-0.131319,-0.059500,-0.276713,0.821082,0.159643,0.451093,-40.004841,4.941208,18.106260,0.154203,1.832076,0.100570,0.000000,0.000000,0.000000,0.000000,0.000000,0.000000
13352831.000000,-0.251393,0.700508,0.306673,-1.545026,-0.251076,2.208616,0.141556,0.076345,0.750960,-0.130514,-0.051315,-0.270929,0.821442,0.159221,0.550275,-39.929462,4.965012,17.983274,0.207303,1.890670,0.054794,0.000000,0.000000,0.000000,0.000000,0.000000,0.000000
13352832.000000,-0.251316,0.701289,0.306543,-1.545066,-0.251413,2.209692,0.141737,0.075740,0.764730,-0.130628,-0.047823,-0.292914,0.905069,0.171007,0.601850,-40.076252,4.893600,17.832518,0.721830,-0.366105,-0.196061,0.000000,0.000000,0.000000,0.000000,0.000000,0.000000
13352833.000000,-0.251236,0.702072,0.306390,-1.545110,-0.251929,2.210814,0.141966,0.078511,0.769867,-0.137422,-0.044013,-0.369734,1.000589,0.191322,0.625654,-40.151630,5.087997,17.757139,2.777189,-2.895707,-0.789323,0.000000,0.000000,0.000000,0.000000,0.000000,0.000000
13352834.000000,-0.251165,0.702872,0.306272,-1.545100,-0.252159,2.211978,0.141986,0.077110,0.781144,-0.128322,-0.025607,-0.321919,1.060973,0.130939,0.796247,-40.397602,4.842026,17.019224,2.024625,-5.125932,0.503402,0.000000,0.000000,0.000000,0.000000,0.000000,0.000000
13352835.000000,-0.251058,0.703703,0.306177,-1.544995,-0.252539,2.213014,0.142246,0.088161,0.798660,-0.114686,0.020113,-0.341369,1.055274,0.170600,0.451093,-41.202961,4.278671,14.991941,2.496122,-5.574540,-0.367265,0.000000,0.000000,0.000000,0.000000,0.000000,0.000000
13352836.000000,-0.250888,0.704520,0.305922,-1.544835,-0.252918,2.213994,0.142405,0.116141,0.805475,-0.164211,0.069532,-0.356798,1.034140,0.167256,-0.762896,-41.571918,5.996506,12.444944,2.758878,-5.171708,-0.307755,0.000000,0.000000,0.000000,0.000000,0.000000,0.000000
13352837.000000,-0.250868,0.705254,0.305827,-1.544673,-0.253243,2.215081,0.142533,0.087610,0.796521,-0.139368,0.106105,-0.338927,1.047784,0.156183,0.177350,-40.691181,5.333969,10.171690,2.365201,-5.347489,-0.011124,0.000000,0.000000,0.000000,0.000000,0.000000,0.000000
13352838.000000,-0.250840,0.705979,0.305807,-1.544534,-0.253520,2.216105,0.142645,0.067357,0.775958,-0.097961,0.119012,-0.311959,1.024923,0.143045,1.046186,-39.858051,3.592331,8.588743,1.653837,-4.807328,0.443893,0.000000,0.000000,0.000000,0.000000,0.000000,0.000000
13352839.000000,-0.250677,0.706667,0.305629,-1.544273,-0.253929,2.217176,0.142826,0.100367,0.743814,-0.124719,0.167746,-0.344443,1.030796,0.158810,-0.068621,-38.413960,4.179489,5.621214,2.167448,-4.800920,0.219589,0.000000,0.000000,0.000000,0.000000,0.000000,0.000000
13352840.000000,-0.250642,0.707256,0.305587,-1.544050,-0.254354,2.218102,0.143031,0.076199,0.694382,-0.095768,0.186083,-0.361624,0.977717,0.178855,0.649457,-35.866962,2.902023,3.593931,2.807401,-3.539323,-0.235429,0.000000,0.000000,0.000000,0.000000,0.000000,0.000000
13352841.000000,-0.250681,0.707773,0.305658,-1.543830,-0.254612,2.219029,0.143167,0.035669,0.629028,-0.038962,0.197987,-0.325856,0.947226,0.162729,2.406965,-32.268635,0.156662,2.038756,2.053922,-2.615556,-0.017533,0.000000,0.000000,0.000000,0.000000,0.000000,0.000000
13352842.000000,-0.250537,0.708231,0.305553,-1.543586,-0.254868,2.220000,0.143337,0.072720,0.563582,-0.058432,0.211509,-0.299685,0.944175,0.163755,1.415143,-28.158527,0.156662,0.479613,1.379179,-2.426957,-0.122819,0.000000,0.000000,0.000000,0.000000,0.000000,0.000000
13352843.000000,-0.250386,0.708588,0.305455,-1.543361,-0.255238,2.220778,0.143505,0.098193,0.493973,-0.069300,0.214103,-0.332319,0.881516,0.163046,0.375715,-23.116108,0.228073,-0.456667,1.845182,-0.905351,-0.208878,0.000000,0.000000,0.000000,0.000000,0.000000,0.000000
13352844.000000,-0.250343,0.708893,0.305421,-1.543143,-0.255533,2.221448,0.143641,0.081388,0.421008,-0.056041,0.210680,-0.319729,0.801578,0.151107,0.895429,-17.728535,-0.509842,-0.976381,1.701444,0.974227,0.021835,0.000000,0.000000,0.000000,0.000000,0.000000,0.000000
13352845.000000,-0.250283,0.709177,0.305339,-1.542884,-0.255783,2.222236,0.143830,0.075430,0.377630,-0.066809,0.222190,-0.295122,0.788561,0.164403,1.216779,-12.614704,-0.533646,-1.869020,1.271146,1.234237,-0.215287,0.000000,0.000000,0.000000,0.000000,0.000000,0.000000
13352846.000000,-0.250227,0.709442,0.305293,-1.542626,-0.256149,2.222943,0.143996,0.067891,0.335984,-0.059398,0.229097,-0.313886,0.762022,0.161305,1.565900,-7.695271,-1.049393,-2.535524,2.060331,1.546432,-0.241837,0.000000,0.000000,0.000000,0.000000,0.000000,0.000000
13352847.000000,-0.250175,0.709650,0.305255,-1.542400,-0.256455,2.223521,0.144117,0.062238,0.289505,-0.052735,0.225209,-0.311120,0.696011,0.146685,1.934858,-2.506062,-1.612747,-2.634706,2.245267,2.684432,0.074935,0.000000,0.000000,0.000000,0.000000,0.000000,0.000000
13352848.000000,-0.250140,0.709860,0.305222,-1.542135,-0.256653,2.224169,0.144319,0.050264,0.264732,-0.043085,0.235796,-0.273137,0.678434,0.163587,2.506147,2.171367,-2.251480,-3.249635,1.450590,2.735702,-0.235429,0.000000,0.000000,0.000000,0.000000,0.000000,0.000000
13352849.000000,-0.250129,0.710079,0.305243,-1.541861,-0.256900,2.224831,0.144498,0.038002,0.248067,-0.023977,0.245525,-0.269119,0.680973,0.168631,3.371015,6.186260,-3.524979,-3.820925,1.235441,2.307235,-0.340714,0.000000,0.000000,0.000000,0.000000,0.000000,0.000000
13352850.000000,-0.250097,0.710221,0.305218,-1.541613,-0.257121,2.225401,0.144635,0.032490,0.218712,-0.022906,0.243986,-0.250236,0.648257,0.154241,3.866926,10.788311,-4.040726,-4.118471,0.859159,2.554427,-0.089860,0.000000,0.000000,0.000000,0.000000,0.000000,0.000000
13352851.000000,-0.250026,0.710324,0.305149,-1.541366,-0.257259,2.225907,0.144823,0.042811,0.181426,-0.038923,0.241739,-0.215506,0.614160,0.160537,3.743940,15.608562,-3.822525,-4.340639,-0.103060,3.386642,-0.281205,0.000000,0.000000,0.000000,0.000000,0.000000,0.000000
13352852.000000,-0.249967,0.710411,0.305093,-1.541123,-0.257458,2.226443,0.144996,0.049550,0.145762,-0.045070,0.238958,-0.209833,0.594112,0.165942,3.743940,20.258221,-3.770951,-4.487428,-0.450045,3.698837,-0.307755,0.000000,0.000000,0.000000,0.000000,0.000000,0.000000
13352853.000000,-0.249940,0.710471,0.305041,-1.540896,-0.257661,2.226994,0.145153,0.043511,0.118710,-0.049686,0.230130,-0.206417,0.581329,0.163710,4.188276,24.788860,-3.822525,-4.463624,-0.634982,3.932296,-0.229020,0.000000,0.000000,0.000000,0.000000,0.000000,0.000000
13352854.000000,-0.249919,0.710475,0.304992,-1.540709,-0.257833,2.227580,0.145321,0.034052,0.077296,-0.050693,0.212018,-0.191545,0.584800,0.161812,4.735761,29.783672,-3.945511,-3.943910,-0.880343,3.692428,-0.261979,0.000000,0.000000,0.000000,0.000000,0.000000,0.000000
13352855.000000,-0.249885,0.710469,0.304937,-1.540533,-0.258031,2.228254,0.145470,0.036547,0.061783,-0.049152,0.202429,-0.190193,0.612939,0.158190,5.029340,34.433331,-4.040726,-3.424196,-0.838229,2.814437,-0.110001,0.000000,0.000000,0.000000,0.000000,0.000000,0.000000
13352856.000000,-0.249836,0.710482,0.304881,-1.540325,-0.258245,2.228958,0.145647,0.040141,0.048529,-0.051035,0.205881,-0.201772,0.640081,0.164321,5.104719,38.472027,-4.139908,-3.400392,-0.563571,1.858627,-0.196061,0.000000,0.000000,0.000000,0.000000,0.000000,0.000000
13352857.000000,-0.249791,0.710524,0.304842,-1.540108,-0.258411,2.229664,0.145792,0.041305,0.047203,-0.046469,0.208011,-0.193373,0.665591,0.158436,5.227705,41.800579,-4.485062,-3.646364,-0.712802,1.182052,-0.023942,0.000000,0.000000,0.000000,0.000000,0.000000,0.000000
13352858.000000,-0.249740,0.710602,0.304784,-1.539863,-0.258619,2.230382,0.145965,0.044118,0.061857,-0.048735,0.219742,-0.201888,0.677066,0.159933,5.255476,44.248394,-4.608047,-4.487428,-0.592867,0.785628,-0.103593,0.000000,0.000000,0.000000,0.000000,0.000000,0.000000
13352859.000000,-0.249648,0.710721,0.304690,-1.539582,-0.258830,2.231123,0.146118,0.059311,0.082227,-0.061820,0.240987,-0.209969,0.697455,0.159352,4.707990,46.009869,-4.239090,-5.820436,-0.545260,0.511886,-0.017533,0.000000,0.000000,0.000000,0.000000,0.000000,0.000000
13352860.000000,-0.249558,0.710867,0.304604,-1.539282,-0.259043,2.231905,0.146260,0.071879,0.107639,-0.069603,0.263187,-0.210206,0.726567,0.152649,4.188276,47.330975,-4.040726,-7.355775,-0.509554,0.258285,0.114303,0.000000,0.000000,0.000000,0.000000,0.000000,0.000000
13352861.000000,-0.249478,0.711036,0.304524,-1.538963,-0.259263,2.232711,0.146422,0.075074,0.131398,-0.073782,0.281367,-0.218416,0.742591,0.156032,3.890729,48.187908,-4.040726,-9.033937,-0.479342,0.044051,0.021835,0.000000,0.000000,0.000000,0.000000,0.000000,0.000000
13352862.000000,-0.249411,0.711226,0.304450,-1.538626,-0.259491,2.233566,0.146569,0.074758,0.155446,-0.077539,0.302004,-0.220889,0.782270,0.148844,3.843122,48.898052,-4.116104,-10.815248,-0.461947,-0.385331,0.041976,0.000000,0.000000,0.000000,0.000000,0.000000,0.000000
13352863.000000,-0.249355,0.711439,0.304403,-1.538278,-0.259736,2.234460,0.146710,0.069961,0.180365,-0.065286,0.320475,-0.232526,0.818373,0.143107,4.017683,49.366192,-4.608047,-12.497377,-0.431735,-0.918168,0.087753,0.000000,0.000000,0.000000,0.000000,0.000000,0.000000
13352864.000000,-0.249287,0.711671,0.304347,-1.537913,-0.259976,2.235351,0.146868,0.067218,0.199605,-0.062097,0.336976,-0.235145,0.837758,0.147604,4.041486,49.731182,-5.024612,-14.052553,-0.575472,-1.341141,0.021835,0.000000,0.000000,0.000000,0.000000,0.000000,0.000000
13352865.000000,-0.249217,0.711920,0.304270,-1.537531,-0.260221,2.236280,0.147010,0.069569,0.218194,-0.067527,0.350119,-0.234645,0.863115,0.145315,4.017683,49.977154,-5.123795,-15.635500,-0.778719,-1.679887,0.054794,0.000000,0.000000,0.000000,0.000000,0.000000,0.000000
13352866.000000,-0.249149,0.712193,0.304192,-1.537149,-0.260472,2.237198,0.147152,0.070108,0.242107,-0.072004,0.361728,-0.241952,0.872793,0.142129,4.041486,50.024761,-5.195206,-17.043886,-0.927950,-1.770524,0.054794,0.000000,0.000000,0.000000,0.000000,0.000000,0.000000
13352867.000000,-0.249081,0.712497,0.304112,-1.536733,-0.260719,2.238083,0.147288,0.070389,0.260042,-0.075010,0.376218,-0.243447,0.876303,0.137601,4.065290,49.854168,-5.246780,-18.575258,-1.065279,-1.581925,0.114303,0.000000,0.000000,0.000000,0.000000,0.000000,0.000000
13352868.000000,-0.248987,0.712849,0.304017,-1.536314,-0.260984,2.238985,0.147426,0.078016,0.299736,-0.079071,0.393414,-0.253497,0.869988,0.135800,3.791547,49.243206,-5.096024,-20.082827,-1.077181,-1.425370,0.133529,0.000000,0.000000,0.000000,0.000000,0.000000,0.000000
13352869.000000,-0.248899,0.713237,0.303932,-1.535885,-0.261270,2.239919,0.147582,0.080775,0.329690,-0.082815,0.404235,-0.266703,0.900082,0.143652,3.620954,48.509258,-5.171402,-21.368227,-0.939852,-1.523331,0.015426,0.000000,0.000000,0.000000,0.000000,0.000000,0.000000
13352870.000000,-0.248824,0.713663,0.303855,-1.535458,-0.261533,2.240856,0.147703,0.078411,0.360843,-0.078942,0.406420,-0.262669,0.909233,0.135182,3.668561,47.477764,-5.393570,-22.383852,-1.029574,-1.868485,0.160079,0.000000,0.000000,0.000000,0.000000,0.000000,0.000000
13352871.000000,-0.248731,0.714131,0.303775,-1.535022,-0.261804,2.241803,0.147858,0.085472,0.399212,-0.077202,0.413291,-0.262747,0.916598,0.143021,3.446393,46.156658,-5.587967,-23.447084,-1.041476,-2.284135,0.067611,0.000000,0.000000,0.000000,0.000000,0.000000,0.000000
13352872.000000,-0.248640,0.714635,0.303689,-1.534578,-0.262075,2.242718,0.148013,0.089591,0.433338,-0.081238,0.416346,-0.269277,0.910310,0.147325,3.271833,44.641155,-5.663345,-24.434938,-1.011263,-2.498368,0.001693,0.000000,0.000000,0.000000,0.000000,0.000000,0.000000
13352873.000000,-0.248557,0.715187,0.303608,-1.534154,-0.262338,2.243606,0.148159,0.089503,0.471838,-0.079321,0.423066,-0.266337,0.900536,0.147414,3.224226,42.951092,-5.833939,-25.125246,-1.166903,-2.349137,0.015426,0.000000,0.000000,0.000000,0.000000,0.000000,0.000000
