chaoyuefei/paper-gmrm-data/robot_logs/s2_dq_mrm_min_0.50_log_20260314_174254.csv
# time_ms,q_0,q_1,q_2,q_3,q_4,q_5,q_6,dq_0,dq_1,dq_2,dq_3,dq_4,dq_5,dq_6,tau_J_0,tau_J_1,tau_J_2,tau_J_3,tau_J_4,tau_J_5,tau_J_6,O_dP_EE_c_0,O_dP_EE_c_1,O_dP_EE_c_2,O_dP_EE_c_3,O_dP_EE_c_4,O_dP_EE_c_5
12836815.000000,-2.417847,-1.662622,1.040145,-1.352866,1.798100,1.079506,-0.546493,-0.000004,-0.000169,0.000533,0.000667,-0.000016,-0.000260,-0.000389,0.030561,41.629986,-21.000870,-5.772829,0.811552,1.331283,0.028243,0.000000,0.000000,0.000000,0.000000,0.000000,0.000000
12836816.000000,-2.417845,-1.662622,1.040147,-1.352865,1.798101,1.079506,-0.546497,0.000554,-0.000112,0.000912,0.001002,0.000430,-0.000173,-0.001480,0.006757,41.629986,-21.024673,-5.796632,0.799650,1.331283,0.061202,0.000000,0.000000,0.000000,0.000000,0.000000,0.000000
12836817.000000,-2.417849,-1.662622,1.040145,-1.352870,1.798100,1.079504,-0.546489,-0.000744,-0.000075,0.000051,-0.001096,-0.000154,0.000122,0.001692,0.054365,41.629986,-21.000870,-5.721254,0.811552,1.324874,-0.011124,0.000000,0.000000,0.000000,0.000000,0.000000,0.000000
12836818.000000,-2.417843,-1.662618,1.040147,-1.352866,1.798101,1.079506,-0.546495,0.000617,0.001156,0.000591,-0.000081,0.000338,0.000081,-0.000839,0.006757,41.578411,-21.024673,-5.749025,0.799650,1.324874,0.041976,0.000000,0.000000,0.000000,0.000000,0.000000,0.000000
12836819.000000,-2.417842,-1.662626,1.040145,-1.352867,1.798100,1.079506,-0.546494,0.005884,-0.003023,-0.000720,0.001584,-0.008790,0.008074,-0.002706,0.304304,41.606182,-20.977066,-5.697450,0.781339,1.357833,-0.023942,0.000000,0.000000,0.000000,0.000000,0.000000,0.000000
12836820.000000,-2.417835,-1.662626,1.040143,-1.352865,1.798096,1.079501,-0.546507,0.014725,-0.005947,0.000250,0.002906,-0.009168,0.004615,-0.006202,1.367536,41.360210,-20.877884,-5.526857,0.721830,1.526290,-0.044083,0.000000,0.000000,0.000000,0.000000,0.000000,0.000000
12836821.000000,-2.417803,-1.662628,1.040156,-1.352861,1.798092,1.079497,-0.546540,0.021970,-0.004628,0.006759,0.002312,-0.007866,0.003687,-0.010485,2.879072,40.943645,-20.877884,-5.276918,0.613798,1.779891,-0.017533,0.000000,0.000000,0.000000,0.000000,0.000000,0.000000
12836822.000000,-2.417756,-1.662633,1.040177,-1.352869,1.798073,1.079518,-0.546572,0.026662,-0.003660,0.012103,-0.001136,-0.014883,0.008911,-0.018641,4.783369,40.503277,-20.905655,-4.884157,0.589994,1.897079,-0.110001,0.000000,0.000000,0.000000,0.000000,0.000000,0.000000
12836823.000000,-2.417689,-1.662629,1.040197,-1.352878,1.798043,1.079567,-0.546627,0.037540,0.002661,0.013655,-0.007100,-0.017392,0.020332,-0.029103,6.592451,39.939922,-20.830276,-4.562807,0.620206,1.812850,-0.089860,0.000000,0.000000,0.000000,0.000000,0.000000,0.000000
12836824.000000,-2.417602,-1.662632,1.040226,-1.352905,1.798003,1.079652,-0.546701,0.048479,0.004360,0.018070,-0.013689,-0.029236,0.043694,-0.041520,8.223004,39.475750,-20.754898,-4.142274,0.673307,1.565658,-0.070634,0.000000,0.000000,0.000000,0.000000,0.000000,0.000000
12836825.000000,-2.417505,-1.662627,1.040260,-1.352947,1.797949,1.079753,-0.546790,0.059685,0.006638,0.024244,-0.023912,-0.032655,0.062386,-0.055313,9.710736,38.960003,-20.659683,-3.721742,0.709928,1.377059,-0.056901,0.000000,0.000000,0.000000,0.000000,0.000000,0.000000
12836826.000000,-2.417388,-1.662627,1.040314,-1.352995,1.797881,1.079863,-0.546899,0.078555,0.005162,0.034764,-0.031316,-0.043696,0.081021,-0.077893,10.996137,38.571209,-20.683487,-3.424196,0.715421,1.324874,-0.089860,0.000000,0.000000,0.000000,0.000000,0.000000,0.000000
12836827.000000,-2.417261,-1.662621,1.040367,-1.353055,1.797798,1.079996,-0.547044,0.094792,0.007318,0.042869,-0.039154,-0.059265,0.102383,-0.102958,12.087140,38.178448,-20.584305,-3.154421,0.679716,1.324874,-0.037675,0.000000,0.000000,0.000000,0.000000,0.000000,0.000000
12836828.000000,-2.417121,-1.662610,1.040435,-1.353127,1.797705,1.080146,-0.547206,0.104317,0.009755,0.049549,-0.050196,-0.068482,0.114462,-0.122540,13.126569,37.761883,-20.512894,-2.904482,0.566190,1.442062,-0.089860,0.000000,0.000000,0.000000,0.000000,0.000000,0.000000
12836829.000000,-2.416968,-1.662600,1.040517,-1.353210,1.797587,1.080317,-0.547402,0.119532,0.010369,0.058835,-0.062768,-0.083625,0.132717,-0.148170,13.967633,37.392925,-20.485123,-2.706117,0.506681,1.565658,-0.097184,0.000000,0.000000,0.000000,0.000000,0.000000,0.000000
12836830.000000,-2.416796,-1.662587,1.040622,-1.353307,1.797459,1.080518,-0.547625,0.136567,0.010812,0.076883,-0.071531,-0.095876,0.153635,-0.173845,14.634137,37.027935,-20.659683,-2.559328,0.369352,1.637069,-0.089860,0.000000,0.000000,0.000000,0.000000,0.000000,0.000000
12836831.000000,-2.416609,-1.662566,1.040735,-1.353420,1.797304,1.080759,-0.547872,0.153799,0.012289,0.092064,-0.082974,-0.110460,0.190441,-0.195098,15.229230,36.611370,-20.806473,-2.460146,0.320829,1.591293,-0.116410,0.000000,0.000000,0.000000,0.000000,0.000000,0.000000
12836832.000000,-2.416408,-1.662545,1.040864,-1.353553,1.797122,1.081032,-0.548144,0.169467,0.013064,0.107164,-0.099201,-0.131810,0.212402,-0.218567,15.677533,36.218609,-20.977066,-2.285585,0.362943,1.507064,-0.083451,0.000000,0.000000,0.000000,0.000000,0.000000,0.000000
12836833.000000,-2.416183,-1.662525,1.041007,-1.353704,1.796920,1.081328,-0.548437,0.185974,0.016578,0.118484,-0.114496,-0.157965,0.235841,-0.239989,15.998883,35.829815,-21.147659,-2.190370,0.410551,1.448470,-0.070634,0.000000,0.000000,0.000000,0.000000,0.000000,0.000000
12836834.000000,-2.415942,-1.662508,1.041165,-1.353878,1.796683,1.081635,-0.548738,0.207353,0.017000,0.129929,-0.135032,-0.185004,0.258035,-0.254154,16.197248,35.536236,-21.322220,-2.063417,0.506681,1.422836,-0.103593,0.000000,0.000000,0.000000,0.000000,0.000000,0.000000
12836835.000000,-2.415694,-1.662489,1.041329,-1.354055,1.796432,1.081969,-0.549045,0.220451,0.017604,0.139586,-0.144822,-0.206655,0.280940,-0.272458,16.490828,35.238689,-21.417435,-2.091188,0.542386,1.435653,-0.064225,0.000000,0.000000,0.000000,0.000000,0.000000,0.000000
12836836.000000,-2.415427,-1.662477,1.041503,-1.354247,1.796174,1.082319,-0.549351,0.234341,0.020873,0.148277,-0.157990,-0.224048,0.310473,-0.278906,16.716963,35.091900,-21.445206,-2.138796,0.506681,1.474105,-0.089860,0.000000,0.000000,0.000000,0.000000,0.000000,0.000000
12836837.000000,-2.415145,-1.662462,1.041689,-1.354455,1.795893,1.082693,-0.549657,0.250672,0.019839,0.161008,-0.175212,-0.238025,0.330528,-0.291883,16.839949,34.972881,-21.492813,-2.114992,0.500272,1.526290,-0.103593,0.000000,0.000000,0.000000,0.000000,0.000000,0.000000
12836838.000000,-2.414848,-1.662455,1.041881,-1.354695,1.795602,1.083083,-0.549974,0.261579,0.014224,0.169601,-0.191904,-0.255398,0.352754,-0.301574,16.962934,34.945110,-21.445206,-2.015810,0.398649,1.630660,-0.070634,0.000000,0.000000,0.000000,0.000000,0.000000,0.000000
12836839.000000,-2.414529,-1.662448,1.042088,-1.354954,1.795292,1.083491,-0.550285,0.286872,0.013321,0.181787,-0.215781,-0.270590,0.369630,-0.299867,16.939131,34.921307,-21.369827,-1.892824,0.332731,1.721298,-0.110001,0.000000,0.000000,0.000000,0.000000,0.000000,0.000000
12836840.000000,-2.414188,-1.662449,1.042302,-1.355222,1.794958,1.083934,-0.550592,0.302341,0.007565,0.191994,-0.232768,-0.289454,0.385608,-0.301823,16.863752,34.996685,-21.322220,-1.742067,0.344633,1.721298,-0.077042,0.000000,0.000000,0.000000,0.000000,0.000000,0.000000
12836841.000000,-2.413838,-1.662449,1.042524,-1.355516,1.794621,1.084410,-0.550887,0.314501,0.004266,0.197532,-0.251511,-0.296905,0.414649,-0.300129,16.863752,35.044292,-21.199234,-1.547670,0.332731,1.617843,-0.110001,0.000000,0.000000,0.000000,0.000000,0.000000,0.000000
12836842.000000,-2.413483,-1.662447,1.042761,-1.355819,1.794247,1.084899,-0.551185,0.328981,0.002539,0.210137,-0.272257,-0.322504,0.441362,-0.297865,16.939131,35.068096,-21.147659,-1.373109,0.356534,1.539108,-0.110001,0.000000,0.000000,0.000000,0.000000,0.000000,0.000000
12836843.000000,-2.413106,-1.662448,1.043000,-1.356127,1.793854,1.085413,-0.551468,0.343494,0.001325,0.222450,-0.282605,-0.344943,0.464047,-0.293506,16.939131,35.091900,-21.076248,-1.321535,0.422452,1.494247,-0.130143,0.000000,0.000000,0.000000,0.000000,0.000000,0.000000
12836844.000000,-2.412725,-1.662447,1.043252,-1.356450,1.793453,1.085943,-0.551747,0.352838,0.001025,0.230606,-0.292687,-0.360869,0.480972,-0.290239,17.161299,35.091900,-20.977066,-1.349306,0.482877,1.474105,-0.136552,0.000000,0.000000,0.000000,0.000000,0.000000,0.000000
12836845.000000,-2.412325,-1.662451,1.043508,-1.356776,1.793025,1.086487,-0.552034,0.367162,0.000140,0.240418,-0.299821,-0.381442,0.499327,-0.291191,17.236677,35.119671,-20.877884,-1.396913,0.512174,1.546432,-0.064225,0.000000,0.000000,0.000000,0.000000,0.000000,0.000000
12836846.000000,-2.411923,-1.662454,1.043778,-1.357129,1.792597,1.087069,-0.552305,0.375165,-0.000384,0.250894,-0.311936,-0.389167,0.523226,-0.281841,17.530256,35.143475,-20.782669,-1.373109,0.500272,1.591293,-0.130143,0.000000,0.000000,0.000000,0.000000,0.000000,0.000000
12836847.000000,-2.411514,-1.662454,1.044066,-1.357494,1.792149,1.087663,-0.552586,0.389472,-0.000753,0.259442,-0.329565,-0.408437,0.542369,-0.283237,17.780195,35.167278,-20.707291,-1.297731,0.506681,1.605026,-0.103593,0.000000,0.000000,0.000000,0.000000,0.000000,0.000000
12836849.000000,-2.410632,-1.662448,1.044660,-1.358263,1.791203,1.088932,-0.553110,0.416328,0.001121,0.279804,-0.355662,-0.435494,0.591417,-0.270695,18.200727,35.091900,-20.631912,-1.051759,0.446256,1.429244,-0.110001,0.000000,0.000000,0.000000,0.000000,0.000000,0.000000
12836850.000000,-2.410173,-1.662443,1.044968,-1.358668,1.790700,1.089601,-0.553367,0.430136,0.002443,0.287930,-0.374307,-0.459613,0.612584,-0.264611,18.323713,35.020489,-20.584305,-0.904970,0.494779,1.318465,-0.110001,0.000000,0.000000,0.000000,0.000000,0.000000,0.000000
12836851.000000,-2.409693,-1.662435,1.045297,-1.359094,1.790195,1.090282,-0.553625,0.446799,0.003968,0.299609,-0.384882,-0.473926,0.633336,-0.260710,18.399092,34.921307,-20.512894,-0.706606,0.494779,1.272689,-0.089860,0.000000,0.000000,0.000000,0.000000,0.000000,0.000000
12836852.000000,-2.409211,-1.662429,1.045635,-1.359539,1.789672,1.090974,-0.553877,0.459362,0.004886,0.312139,-0.409084,-0.491523,0.654110,-0.256155,18.621260,34.826092,-20.461319,-0.484438,0.518583,1.266280,-0.110001,0.000000,0.000000,0.000000,0.000000,0.000000,0.000000
12836853.000000,-2.408708,-1.662421,1.045971,-1.359978,1.789134,1.091681,-0.554125,0.473116,0.005032,0.320138,-0.416503,-0.498763,0.670334,-0.254810,18.819624,34.750713,-20.362137,-0.456667,0.470060,1.292831,-0.083451,0.000000,0.000000,0.000000,0.000000,0.000000,0.000000
12836854.000000,-2.408200,-1.662413,1.046325,-1.360446,1.788586,1.092402,-0.554365,0.482520,0.008213,0.330813,-0.429453,-0.512983,0.691365,-0.255107,19.164778,34.679302,-20.338333,-0.357485,0.518583,1.305648,-0.149369,0.000000,0.000000,0.000000,0.000000,0.000000,0.000000
12836855.000000,-2.407681,-1.662400,1.046691,-1.360908,1.788015,1.093144,-0.554615,0.494696,0.009830,0.346455,-0.434671,-0.525532,0.704055,-0.262389,19.462324,34.504742,-20.314529,-0.333681,0.518583,1.396285,-0.110001,0.000000,0.000000,0.000000,0.000000,0.000000,0.000000
12836856.000000,-2.407139,-1.662389,1.047064,-1.361399,1.787435,1.093908,-0.554865,0.505733,0.008984,0.354070,-0.446828,-0.536075,0.719219,-0.258986,19.759871,34.409527,-20.290726,-0.262270,0.524076,1.442062,-0.089860,0.000000,0.000000,0.000000,0.000000,0.000000,0.000000
12836857.000000,-2.406593,-1.662382,1.047457,-1.361913,1.786840,1.094695,-0.555111,0.528836,0.010367,0.362245,-0.465378,-0.557466,0.753673,-0.253102,20.005842,34.357952,-20.389908,-0.111513,0.535978,1.409103,-0.149369,0.000000,0.000000,0.000000,0.000000,0.000000,0.000000
12836858.000000,-2.406029,-1.662369,1.047853,-1.362433,1.786236,1.095517,-0.555358,0.539357,0.012107,0.371159,-0.477421,-0.568379,0.774878,-0.252693,20.279585,34.286541,-20.461319,0.086851,0.542386,1.305648,-0.116410,0.000000,0.000000,0.000000,0.000000,0.000000,0.000000
12836859.000000,-2.405444,-1.662352,1.048273,-1.362965,1.785623,1.096358,-0.555602,0.549244,0.015188,0.384112,-0.487489,-0.585921,0.790217,-0.250409,20.454145,34.139751,-20.707291,0.158263,0.512174,1.175643,-0.122819,0.000000,0.000000,0.000000,0.000000,0.000000,0.000000
12836860.000000,-2.404859,-1.662336,1.048707,-1.363509,1.784992,1.097202,-0.555848,0.561173,0.016284,0.398447,-0.515319,-0.594280,0.810964,-0.244013,20.723921,34.040569,-20.877884,0.309019,0.482877,1.149093,-0.136552,0.000000,0.000000,0.000000,0.000000,0.000000,0.000000
12836861.000000,-2.404242,-1.662318,1.049148,-1.364070,1.784342,1.098076,-0.556091,0.577928,0.017630,0.412879,-0.520382,-0.605198,0.825588,-0.241355,20.874678,33.917583,-21.076248,0.332823,0.434354,1.155502,-0.097184,0.000000,0.000000,0.000000,0.000000,0.000000,0.000000
12836862.000000,-2.403616,-1.662304,1.049599,-1.364644,1.783688,1.098949,-0.556330,0.608296,0.017429,0.420562,-0.530956,-0.621278,0.847557,-0.242829,21.096846,33.846172,-21.175430,0.309019,0.440763,1.240646,-0.103593,0.000000,0.000000,0.000000,0.000000,0.000000,0.000000
12836863.000000,-2.402984,-1.662287,1.050053,-1.365222,1.783005,1.099838,-0.556559,0.616712,0.017972,0.432062,-0.546622,-0.634852,0.854728,-0.237207,21.271406,33.746990,-21.223038,0.285216,0.434354,1.442062,-0.142960,0.000000,0.000000,0.000000,0.000000,0.000000,0.000000
12836864.000000,-2.402329,-1.662273,1.050533,-1.365825,1.782322,1.100772,-0.556795,0.625208,0.017759,0.450526,-0.552120,-0.657871,0.875273,-0.235508,21.469770,33.675579,-21.369827,0.408202,0.476469,1.494247,-0.122819,0.000000,0.000000,0.000000,0.000000,0.000000,0.000000
12836865.000000,-2.401660,-1.662252,1.051023,-1.366443,1.781609,1.101721,-0.557037,0.642396,0.018857,0.461743,-0.579825,-0.671972,0.900306,-0.238128,21.640364,33.552593,-21.445206,0.531187,0.542386,1.383468,-0.116410,0.000000,0.000000,0.000000,0.000000,0.000000,0.000000
12836866.000000,-2.400963,-1.662237,1.051513,-1.367069,1.780887,1.102708,-0.557268,0.658085,0.018498,0.468788,-0.590775,-0.687783,0.929946,-0.239955,21.791121,33.477215,-21.591995,0.729552,0.661405,1.201278,-0.142960,0.000000,0.000000,0.000000,0.000000,0.000000,0.000000
12836867.000000,-2.400249,-1.662225,1.052021,-1.367710,1.780187,1.103683,-0.557505,0.673074,0.017066,0.478935,-0.603026,-0.688116,0.960160,-0.240779,21.937910,33.453411,-21.738785,0.975523,0.727323,1.136276,-0.149369,0.000000,0.000000,0.000000,0.000000,0.000000,0.000000
12836868.000000,-2.399528,-1.662209,1.052533,-1.368347,1.779467,1.104692,-0.557734,0.690853,0.017863,0.492118,-0.610357,-0.696900,0.974582,-0.237062,22.088667,33.354229,-21.933182,1.150084,0.871061,1.142684,-0.155778,0.000000,0.000000,0.000000,0.000000,0.000000,0.000000
12836869.000000,-2.398800,-1.662206,1.053057,-1.369004,1.778767,1.105727,-0.557970,0.695927,0.013156,0.498569,-0.616398,-0.697964,0.984019,-0.241275,22.112471,33.477215,-21.984756,1.098509,0.972684,1.247054,-0.097184,0.000000,0.000000,0.000000,0.000000,0.000000,0.000000
12836870.000000,-2.398067,-1.662201,1.053596,-1.369680,1.778059,1.106753,-0.558193,0.699198,0.012151,0.511867,-0.646466,-0.703427,0.999571,-0.235025,21.144453,33.647808,-21.861771,0.701781,0.906766,1.448470,-0.163102,0.000000,0.000000,0.000000,0.000000,0.000000,0.000000
12836871.000000,-2.397338,-1.662187,1.054148,-1.370368,1.777349,1.107824,-0.558422,0.697928,0.008750,0.531486,-0.656928,-0.702038,1.017496,-0.233806,19.438520,33.675579,-21.591995,0.086851,0.864652,1.597701,-0.142960,0.000000,0.000000,0.000000,0.000000,0.000000,0.000000
12836872.000000,-2.396612,-1.662181,1.054731,-1.371066,1.776648,1.108911,-0.558650,0.704103,0.007457,0.545005,-0.661887,-0.698800,1.064082,-0.232896,17.062117,33.647808,-21.175430,-0.805788,0.805143,1.611434,-0.122819,0.000000,0.000000,0.000000,0.000000,0.000000,0.000000
12836873.000000,-2.395888,-1.662177,1.055338,-1.371771,1.775949,1.110027,-0.558866,0.714406,0.006535,0.577988,-0.683429,-0.713299,1.076260,-0.232570,14.312787,33.477215,-20.485123,-1.670656,0.661405,1.643478,-0.182328,0.000000,0.000000,0.000000,0.000000,0.000000,0.000000
12836874.000000,-2.395164,-1.662168,1.055957,-1.372492,1.775253,1.111140,-0.559088,0.720425,0.006369,0.594055,-0.684842,-0.701514,1.087644,-0.228469,11.714215,33.136028,-19.727371,-2.337160,0.542386,1.838485,-0.142960,0.000000,0.000000,0.000000,0.000000,0.000000,0.000000
12836875.000000,-2.394444,-1.662175,1.056602,-1.373208,1.774576,1.112274,-0.559316,0.738336,0.000634,0.604858,-0.685767,-0.693687,1.108996,-0.229326,9.191022,33.013042,-18.914078,-3.079042,0.405057,1.819259,-0.097184,0.000000,0.000000,0.000000,0.000000,0.000000,0.000000
12836876.000000,-2.393713,-1.662192,1.057255,-1.373909,1.773915,1.113444,-0.559524,0.740562,-0.006192,0.619809,-0.688668,-0.673661,1.123854,-0.220451,6.838422,32.989239,-18.180130,-3.622560,0.219205,1.676437,-0.188737,0.000000,0.000000,0.000000,0.000000,0.000000,0.000000
12836877.000000,-2.392985,-1.662208,1.057909,-1.374603,1.773254,1.114643,-0.559756,0.736419,-0.008813,0.626356,-0.683530,-0.656459,1.137052,-0.221471,4.834943,33.013042,-17.295425,-4.166078,0.123990,1.565658,-0.077042,0.000000,0.000000,0.000000,0.000000,0.000000,0.000000
12836878.000000,-2.392261,-1.662235,1.058575,-1.375296,1.772610,1.115830,-0.559980,0.735442,-0.017156,0.631294,-0.687635,-0.647985,1.146615,-0.223207,3.049665,33.183636,-16.486099,-4.511232,-0.031649,1.519881,-0.097184,0.000000,0.000000,0.000000,0.000000,0.000000,0.000000
12836879.000000,-2.391527,-1.662259,1.059236,-1.375979,1.771950,1.117066,-0.560189,0.733464,-0.017662,0.635365,-0.679346,-0.650530,1.164766,-0.216815,1.442914,33.259014,-15.823563,-4.586610,0.010465,1.416427,-0.163102,0.000000,0.000000,0.000000,0.000000,0.000000,0.000000
12836880.000000,-2.390801,-1.662287,1.059904,-1.376652,1.771305,1.118289,-0.560411,0.729118,-0.020373,0.640671,-0.669713,-0.654931,1.182716,-0.222370,0.177350,33.306622,-15.061844,-4.832582,0.135892,1.357833,-0.077042,0.000000,0.000000,0.000000,0.000000,0.000000,0.000000
12836881.000000,-2.390080,-1.662320,1.060565,-1.377336,1.770660,1.119553,-0.560615,0.723948,-0.025400,0.644933,-0.673413,-0.653517,1.205344,-0.215987,-0.961260,33.354229,-14.375504,-4.586610,0.255826,1.169235,-0.142960,0.000000,0.000000,0.000000,0.000000,0.000000,0.000000
12836882.000000,-2.389353,-1.662349,1.061240,-1.378028,1.770032,1.120819,-0.560830,0.720049,-0.026079,0.652043,-0.674787,-0.650785,1.216496,-0.215405,-1.873736,33.259014,-13.712967,-4.265260,0.386747,0.980636,-0.110001,0.000000,0.000000,0.000000,0.000000,0.000000,0.000000
12836883.000000,-2.388641,-1.662383,1.061938,-1.378723,1.769391,1.122062,-0.561038,0.715907,-0.027182,0.659706,-0.687682,-0.654231,1.222679,-0.212449,-2.591815,33.183636,-13.296402,-3.797121,0.571683,0.863448,-0.136552,0.000000,0.000000,0.000000,0.000000,0.000000,0.000000
12836884.000000,-2.387918,-1.662410,1.062620,-1.379410,1.768772,1.123297,-0.561245,0.713353,-0.025381,0.669265,-0.685380,-0.647051,1.219074,-0.210892,-3.186907,32.989239,-12.804459,-3.249635,0.547880,0.895492,-0.142960,0.000000,0.000000,0.000000,0.000000,0.000000,0.000000
12836885.000000,-2.387196,-1.662441,1.063319,-1.380096,1.768165,1.124533,-0.561448,0.711445,-0.028553,0.674590,-0.681017,-0.638241,1.235470,-0.204845,-3.706622,32.842449,-12.435501,-2.904482,0.434354,0.987045,-0.149369,0.000000,0.000000,0.000000,0.000000,0.000000,0.000000
12836886.000000,-2.386499,-1.662466,1.064014,-1.380768,1.767553,1.125746,-0.561652,0.705345,-0.025697,0.682334,-0.676411,-0.628086,1.227018,-0.209493,-3.980364,32.596478,-12.189529,-2.606935,0.398649,1.031905,-0.136552,0.000000,0.000000,0.000000,0.000000,0.000000,0.000000
12836887.000000,-2.385790,-1.662477,1.064724,-1.381436,1.766962,1.126969,-0.561860,0.697045,-0.023278,0.689180,-0.667493,-0.620598,1.214777,-0.209122,-4.250140,32.203716,-11.995132,-2.559328,0.249418,1.155502,-0.136552,0.000000,0.000000,0.000000,0.000000,0.000000,0.000000
12836888.000000,-2.385091,-1.662487,1.065444,-1.382096,1.766364,1.128160,-0.562066,0.695301,-0.016066,0.692613,-0.672425,-0.618620,1.202522,-0.202840,-4.500079,31.814922,-11.895950,-2.583132,0.213712,1.331283,-0.163102,0.000000,0.000000,0.000000,0.000000,0.000000,0.000000
12836889.000000,-2.384390,-1.662486,1.066160,-1.382741,1.765762,1.129369,-0.562275,0.691489,-0.011015,0.703129,-0.661467,-0.616881,1.198362,-0.205725,-4.623065,31.299175,-11.749161,-2.682314,0.225614,1.448470,-0.122819,0.000000,0.000000,0.000000,0.000000,0.000000,0.000000
12836890.000000,-2.383687,-1.662483,1.066891,-1.383391,1.765177,1.130595,-0.562479,0.689526,-0.005206,0.706934,-0.648504,-0.606193,1.221609,-0.205485,-4.773821,30.811199,-11.649979,-2.757692,0.273221,1.357833,-0.163102,0.000000,0.000000,0.000000,0.000000,0.000000,0.000000
12836891.000000,-2.382994,-1.662477,1.067624,-1.384029,1.764576,1.131819,-0.562682,0.695194,0.000904,0.730402,-0.652960,-0.609144,1.217917,-0.202220,-4.920611,30.370831,-11.602371,-2.833071,0.374845,1.123458,-0.142960,0.000000,0.000000,0.000000,0.000000,0.000000,0.000000
12836892.000000,-2.382302,-1.662456,1.068372,-1.384660,1.763997,1.133037,-0.562889,0.688524,0.010016,0.732122,-0.643607,-0.601088,1.210122,-0.204618,-5.043597,29.732098,-11.503189,-3.055238,0.332731,1.006271,-0.116410,0.000000,0.000000,0.000000,0.000000,0.000000,0.000000
12836893.000000,-2.381596,-1.662436,1.069128,-1.385291,1.763424,1.134238,-0.563089,0.702248,0.013577,0.738028,-0.634661,-0.588606,1.204870,-0.202982,-5.293536,29.220318,-11.380203,-3.202028,0.315336,0.941268,-0.169511,0.000000,0.000000,0.000000,0.000000,0.000000,0.000000
12836894.000000,-2.380909,-1.662420,1.069864,-1.385906,1.762852,1.135450,-0.563293,0.698194,0.015905,0.735009,-0.624755,-0.577493,1.191155,-0.201137,-5.416522,28.851360,-11.039017,-3.348818,0.320829,0.889083,-0.130143,0.000000,0.000000,0.000000,0.000000,0.000000,0.000000
12836895.000000,-2.380224,-1.662398,1.070617,-1.386533,1.762295,1.136655,-0.563491,0.691192,0.019015,0.738151,-0.618071,-0.561532,1.177513,-0.201692,-5.392718,28.434795,-10.693863,-3.424196,0.195402,1.006271,-0.155778,0.000000,0.000000,0.000000,0.000000,0.000000,0.000000
12836896.000000,-2.379537,-1.662377,1.071390,-1.387145,1.761738,1.137842,-0.563693,0.693557,0.020215,0.747110,-0.623701,-0.557727,1.168496,-0.203369,-5.515704,28.069805,-10.424088,-3.570986,0.046171,1.071273,-0.149369,0.000000,0.000000,0.000000,0.000000,0.000000,0.000000
12836897.000000,-2.378846,-1.662352,1.072152,-1.387755,1.761175,1.139053,-0.563886,0.690407,0.022471,0.755047,-0.621027,-0.557544,1.167321,-0.199326,-5.614886,27.653240,-10.078934,-3.499574,-0.067355,1.123458,-0.163102,0.000000,0.000000,0.000000,0.000000,0.000000,0.000000
12836898.000000,-2.378156,-1.662334,1.072922,-1.388359,1.760613,1.140255,-0.564081,0.688638,0.020172,0.757650,-0.608024,-0.562672,1.168110,-0.196961,-5.662493,27.407269,-9.638565,-3.570986,-0.037142,1.031905,-0.169511,0.000000,0.000000,0.000000,0.000000,0.000000,0.000000
12836899.000000,-2.377474,-1.662314,1.073696,-1.388951,1.760049,1.141496,-0.564281,0.688328,0.018780,0.768484,-0.600079,-0.567127,1.181132,-0.196069,-5.785479,27.161297,-9.368790,-3.670168,0.022367,0.798446,-0.136552,0.000000,0.000000,0.000000,0.000000,0.000000,0.000000
12836900.000000,-2.376769,-1.662298,1.074489,-1.389556,1.759502,1.142732,-0.564477,0.690003,0.015637,0.774185,-0.597192,-0.569853,1.182323,-0.197745,-6.059222,27.014507,-9.122818,-3.697939,0.052579,0.654708,-0.169511,0.000000,0.000000,0.000000,0.000000,0.000000,0.000000
12836901.000000,-2.376073,-1.662287,1.075296,-1.390161,1.758942,1.143952,-0.564680,0.690251,0.014984,0.786276,-0.603293,-0.570406,1.185753,-0.197337,-6.356768,26.943096,-8.952225,-3.670168,0.159696,0.557662,-0.122819,0.000000,0.000000,0.000000,0.000000,0.000000,0.000000
12836902.000000,-2.375371,-1.662283,1.076098,-1.390754,1.758380,1.145177,-0.564870,0.693214,0.012686,0.793181,-0.598171,-0.565288,1.178720,-0.194771,-6.654315,26.966900,-8.706253,-3.697939,0.201810,0.551253,-0.155778,0.000000,0.000000,0.000000,0.000000,0.000000,0.000000
12836903.000000,-2.374675,-1.662282,1.076920,-1.391346,1.757844,1.146412,-0.565062,0.693948,0.010196,0.802142,-0.593124,-0.556124,1.206483,-0.192674,-6.777300,27.042278,-8.583267,-3.797121,0.219205,0.616256,-0.163102,0.000000,0.000000,0.000000,0.000000,0.000000,0.000000
12836904.000000,-2.373994,-1.662279,1.077751,-1.391912,1.757299,1.147618,-0.565251,0.691386,0.006749,0.817221,-0.595596,-0.549989,1.202661,-0.191973,-6.876482,27.066082,-8.583267,-4.066896,0.135892,0.733443,-0.130143,0.000000,0.000000,0.000000,0.000000,0.000000,0.000000
12836905.000000,-2.373294,-1.662277,1.078595,-1.392481,1.756762,1.148846,-0.565433,0.688186,0.004325,0.831089,-0.578713,-0.542980,1.197164,-0.189691,-7.122454,27.089886,-8.559464,-4.265260,0.046171,0.850631,-0.169511,0.000000,0.000000,0.000000,0.000000,0.000000,0.000000
12836906.000000,-2.372599,-1.662277,1.079463,-1.393053,1.756228,1.150050,-0.565624,0.687396,0.002056,0.837424,-0.579888,-0.540386,1.193516,-0.189804,-7.396197,27.137493,-8.682449,-4.439821,-0.001437,0.922042,-0.163102,0.000000,0.000000,0.000000,0.000000,0.000000,0.000000
12836907.000000,-2.371893,-1.662278,1.080313,-1.393617,1.755690,1.151271,-0.565808,0.689997,0.001029,0.843916,-0.574996,-0.538300,1.189113,-0.190663,-7.792925,27.161297,-8.607071,-4.487428,-0.007845,0.993453,-0.136552,0.000000,0.000000,0.000000,0.000000,0.000000,0.000000
12836908.000000,-2.371175,-1.662278,1.081183,-1.394192,1.755158,1.152489,-0.565990,0.696650,0.000847,0.843978,-0.572536,-0.540242,1.184672,-0.188956,-8.261065,27.161297,-8.531693,-4.463624,0.093778,1.025497,-0.169511,0.000000,0.000000,0.000000,0.000000,0.000000,0.000000
12836909.000000,-2.370462,-1.662275,1.082070,-1.394768,1.754624,1.153696,-0.566172,0.703884,0.002356,0.852123,-0.578429,-0.535375,1.185856,-0.189839,-8.832355,27.089886,-8.484085,-4.463624,0.141385,1.012679,-0.149369,0.000000,0.000000,0.000000,0.000000,0.000000,0.000000
12836910.000000,-2.369749,-1.662270,1.082960,-1.395336,1.754105,1.154915,-0.566347,0.703089,0.002775,0.864909,-0.572673,-0.527718,1.189177,-0.184342,-9.229083,27.042278,-8.559464,-4.364442,0.123990,0.941268,-0.182328,0.000000,0.000000,0.000000,0.000000,0.000000,0.000000
12836911.000000,-2.369022,-1.662254,1.083862,-1.395897,1.753584,1.156137,-0.566528,0.720375,0.007115,0.871332,-0.566227,-0.528365,1.217571,-0.182780,-9.820209,26.820110,-8.436478,-4.412050,0.112089,0.733443,-0.122819,0.000000,0.000000,0.000000,0.000000,0.000000,0.000000
12836912.000000,-2.368314,-1.662250,1.084746,-1.396438,1.753073,1.157355,-0.566700,0.717310,0.005351,0.873984,-0.556183,-0.522300,1.210609,-0.183039,-10.268512,26.796307,-8.142899,-4.562807,0.040677,0.674850,-0.155778,0.000000,0.000000,0.000000,0.000000,0.000000,0.000000
12836913.000000,-2.367611,-1.662239,1.085671,-1.396982,1.752563,1.158556,-0.566879,0.706246,0.007039,0.886993,-0.545214,-0.513251,1.201342,-0.179163,-10.514483,26.649517,-8.067520,-4.685792,-0.007845,0.830489,-0.169511,0.000000,0.000000,0.000000,0.000000,0.000000,0.000000
12836914.000000,-2.366902,-1.662226,1.086610,-1.397523,1.752055,1.159731,-0.567061,0.707970,0.007598,0.904179,-0.551176,-0.510625,1.191008,-0.179044,-10.986590,26.526531,-8.043716,-4.856386,-0.060946,1.052047,-0.136552,0.000000,0.000000,0.000000,0.000000,0.000000,0.000000
12836915.000000,-2.366199,-1.662216,1.087538,-1.398056,1.751552,1.160940,-0.567234,0.705510,0.006201,0.912342,-0.543100,-0.511886,1.185074,-0.175267,-11.184955,26.478924,-7.944534,-4.955568,-0.091158,1.071273,-0.175919,0.000000,0.000000,0.000000,0.000000,0.000000,0.000000
12836916.000000,-2.365488,-1.662211,1.088500,-1.398592,1.751047,1.162142,-0.567417,0.704385,0.006213,0.921750,-0.540215,-0.508245,1.191839,-0.175515,-11.530108,26.526531,-7.968338,-5.078554,-0.055453,0.934859,-0.130143,0.000000,0.000000,0.000000,0.000000,0.000000,0.000000
12836917.000000,-2.364779,-1.662202,1.089465,-1.399117,1.750552,1.163351,-0.567585,0.709701,0.007677,0.937215,-0.534142,-0.498593,1.191117,-0.167321,-11.950641,26.526531,-8.115128,-5.229311,-0.043551,0.863448,-0.182328,0.000000,0.000000,0.000000,0.000000,0.000000,0.000000
12836918.000000,-2.364070,-1.662198,1.090464,-1.399637,1.750063,1.164551,-0.567761,0.703939,0.004484,0.954861,-0.524267,-0.506982,1.185684,-0.169100,-12.196612,26.574139,-8.384903,-5.451478,-0.079257,0.882674,-0.155778,0.000000,0.000000,0.000000,0.000000,0.000000,0.000000
12836919.000000,-2.363366,-1.662196,1.091461,-1.400158,1.749567,1.165737,-0.567939,0.704217,0.004041,0.966698,-0.524425,-0.505622,1.185248,-0.170660,-12.569537,26.673321,-8.460281,-5.626039,-0.060946,0.915633,-0.116410,0.000000,0.000000,0.000000,0.000000,0.000000,0.000000
12836920.000000,-2.362664,-1.662203,1.092452,-1.400669,1.749077,1.166935,-0.568101,0.698329,0.001839,0.975552,-0.518217,-0.501287,1.185620,-0.171364,-12.791705,26.867718,-8.460281,-5.721254,-0.067355,0.987045,-0.182328,0.000000,0.000000,0.000000,0.000000,0.000000,0.000000
12836921.000000,-2.361958,-1.662205,1.093454,-1.401181,1.748594,1.168123,-0.568275,0.697908,-0.000439,0.980987,-0.511848,-0.497334,1.200421,-0.171732,-13.065448,26.966900,-8.337296,-5.872011,-0.097567,1.129867,-0.155778,0.000000,0.000000,0.000000,0.000000,0.000000,0.000000
12836922.000000,-2.361263,-1.662210,1.094454,-1.401681,1.748124,1.169287,-0.568447,0.697200,-0.002679,0.984438,-0.516468,-0.484462,1.187667,-0.173186,-13.311419,27.089886,-8.289688,-5.994997,-0.145175,1.279098,-0.130143,0.000000,0.000000,0.000000,0.000000,0.000000,0.000000
12836923.000000,-2.360560,-1.662215,1.095469,-1.402180,1.747649,1.170485,-0.568610,0.693586,-0.002531,0.991121,-0.506899,-0.478508,1.182243,-0.169703,-13.608966,27.137493,-8.067520,-6.117982,-0.258700,1.201278,-0.202470,0.000000,0.000000,0.000000,0.000000,0.000000,0.000000
12836924.000000,-2.359875,-1.662220,1.096501,-1.402681,1.747175,1.171678,-0.568782,0.688549,-0.003174,1.004677,-0.509079,-0.474299,1.183852,-0.171753,-13.783526,27.212872,-7.845352,-6.292543,-0.211093,0.966903,-0.149369,0.000000,0.000000,0.000000,0.000000,0.000000,0.000000
12836925.000000,-2.359183,-1.662233,1.097511,-1.403175,1.746696,1.172876,-0.568946,0.688217,-0.005343,1.006312,-0.503981,-0.476466,1.187770,-0.171405,-13.954120,27.359661,-7.428787,-6.363954,-0.126864,0.843307,-0.149369,0.000000,0.000000,0.000000,0.000000,0.000000,0.000000
12836926.000000,-2.358493,-1.662238,1.098544,-1.403674,1.746225,1.174049,-0.569109,0.682895,-0.005077,1.005537,-0.500004,-0.475925,1.183089,-0.170661,-14.152484,27.431072,-7.012222,-6.439332,-0.114962,0.836898,-0.182328,0.000000,0.000000,0.000000,0.000000,0.000000,0.000000
12836927.000000,-2.357828,-1.662248,1.099600,-1.404181,1.745755,1.175229,-0.569279,0.680225,-0.005031,1.029540,-0.507463,-0.476457,1.175961,-0.171649,-14.128680,27.506451,-6.964615,-6.439332,-0.055453,0.857040,-0.155778,0.000000,0.000000,0.000000,0.000000,0.000000,0.000000
12836928.000000,-2.357162,-1.662255,1.100652,-1.404657,1.745293,1.176439,-0.569440,0.670191,-0.004937,1.034027,-0.492859,-0.468758,1.183298,-0.165298,-14.081073,27.577862,-6.667068,-6.685304,-0.109469,0.706893,-0.188737,0.000000,0.000000,0.000000,0.000000,0.000000,0.000000
12836929.000000,-2.356500,-1.662263,1.101737,-1.405135,1.744846,1.177634,-0.569615,0.665426,-0.004989,1.042360,-0.481267,-0.461250,1.190430,-0.168811,-13.930316,27.653240,-6.619461,-6.982851,-0.222994,0.524703,-0.116410,0.000000,0.000000,0.000000,0.000000,0.000000,0.000000
12836930.000000,-2.355847,-1.662269,1.102823,-1.405603,1.744397,1.178832,-0.569776,0.659182,-0.004391,1.065062,-0.479198,-0.457139,1.187239,-0.168031,-13.807330,27.700848,-6.694839,-7.232790,-0.264193,0.544845,-0.142960,0.000000,0.000000,0.000000,0.000000,0.000000,0.000000
12836931.000000,-2.355192,-1.662265,1.103926,-1.406079,1.743952,1.180030,-0.569935,0.653391,-0.004370,1.071322,-0.473136,-0.465149,1.185514,-0.168247,-13.783526,27.629436,-6.643265,-7.403383,-0.348422,0.576888,-0.149369,0.000000,0.000000,0.000000,0.000000,0.000000,0.000000
12836932.000000,-2.354539,-1.662268,1.105048,-1.406566,1.743499,1.181217,-0.570096,0.657623,-0.005552,1.078989,-0.482484,-0.460589,1.195168,-0.164649,-13.831134,27.601665,-6.694839,-7.403383,-0.282504,0.609847,-0.130143,0.000000,0.000000,0.000000,0.000000,0.000000,0.000000
12836933.000000,-2.353884,-1.662265,1.106152,-1.407038,1.743053,1.182420,-0.570249,0.653352,-0.001905,1.095086,-0.472801,-0.461011,1.202524,-0.160303,-13.954120,27.506451,-6.667068,-7.478761,-0.222994,0.570480,-0.155778,0.000000,0.000000,0.000000,0.000000,0.000000,0.000000
12836934.000000,-2.353222,-1.662259,1.107283,-1.407519,1.742607,1.183619,-0.570409,0.655300,0.000727,1.099699,-0.472318,-0.455416,1.211893,-0.164422,-14.053302,27.407269,-6.667068,-7.502565,-0.199191,0.479842,-0.130143,0.000000,0.000000,0.000000,0.000000,0.000000,0.000000
12836937.000000,-2.351271,-1.662235,1.110702,-1.408919,1.741283,1.187204,-0.570869,0.648908,0.005986,1.118966,-0.468550,-0.456379,1.196525,-0.157230,-14.402423,27.014507,-6.179092,-7.776308,-0.270602,0.687667,-0.142960,0.000000,0.000000,0.000000,0.000000,0.000000,0.000000
12836938.000000,-2.350627,-1.662222,1.111862,-1.409374,1.740848,1.188399,-0.571016,0.640767,0.008436,1.134924,-0.459058,-0.449218,1.193065,-0.154443,-14.426227,26.820110,-6.151321,-7.875490,-0.306307,0.811263,-0.175919,0.000000,0.000000,0.000000,0.000000,0.000000,0.000000
12836939.000000,-2.349977,-1.662204,1.113052,-1.409837,1.740427,1.189601,-0.571170,0.638822,0.010744,1.145657,-0.453438,-0.445369,1.212657,-0.150370,-14.525409,26.597942,-6.202896,-7.899293,-0.431735,0.811263,-0.130143,0.000000,0.000000,0.000000,0.000000,0.000000,0.000000
12836940.000000,-2.349337,-1.662191,1.114254,-1.410285,1.739998,1.190788,-0.571311,0.638301,0.011096,1.193091,-0.456093,-0.440598,1.205279,-0.152638,-14.624591,26.427349,-6.520279,-7.998476,-0.491244,0.752670,-0.175919,0.000000,0.000000,0.000000,0.000000,0.000000,0.000000
12836941.000000,-2.348701,-1.662177,1.115492,-1.410747,1.739565,1.191979,-0.571461,0.633173,0.011345,1.202807,-0.452666,-0.438710,1.193501,-0.153998,-14.600787,26.256756,-6.964615,-8.046083,-0.455538,0.706893,-0.155778,0.000000,0.000000,0.000000,0.000000,0.000000,0.000000
12836942.000000,-2.348078,-1.662169,1.116748,-1.411200,1.739138,1.193149,-0.571612,0.641024,0.009201,1.212477,-0.450955,-0.438945,1.186201,-0.154311,-14.501605,26.185345,-7.476395,-8.097658,-0.431735,0.759078,-0.122819,0.000000,0.000000,0.000000,0.000000,0.000000,0.000000
12836943.000000,-2.347445,-1.662167,1.118001,-1.411650,1.738706,1.194319,-0.571760,0.634139,0.005553,1.229024,-0.446853,-0.435926,1.164982,-0.153223,-14.327044,26.209148,-8.019913,-8.145266,-0.377719,0.915633,-0.130143,0.000000,0.000000,0.000000,0.000000,0.000000,0.000000
12836944.000000,-2.346813,-1.662164,1.119267,-1.412097,1.738289,1.195486,-0.571912,0.630813,0.003684,1.243375,-0.446391,-0.427995,1.161698,-0.148827,-14.104877,26.209148,-8.361099,-8.292055,-0.318209,0.960494,-0.103593,0.000000,0.000000,0.000000,0.000000,0.000000,0.000000
12836945.000000,-2.346188,-1.662163,1.120538,-1.412545,1.737859,1.196665,-0.572049,0.629650,0.001885,1.245078,-0.448844,-0.427796,1.155509,-0.145743,-14.029498,26.232952,-8.460281,-8.367434,-0.270602,0.974227,-0.202470,0.000000,0.000000,0.000000,0.000000,0.000000,0.000000
12836946.000000,-2.345554,-1.662172,1.121803,-1.412998,1.737434,1.197848,-0.572201,0.629559,0.001285,1.249525,-0.450138,-0.426658,1.151003,-0.149492,-14.053302,26.502728,-8.730057,-8.319826,-0.216586,1.031905,-0.142960,0.000000,0.000000,0.000000,0.000000,0.000000,0.000000
12836947.000000,-2.344925,-1.662186,1.123063,-1.413457,1.737036,1.199013,-0.572349,0.625565,-0.000525,1.242755,-0.449835,-0.412108,1.173212,-0.144961,-13.906512,27.113689,-9.023636,-8.196840,-0.282504,1.071273,-0.142960,0.000000,0.000000,0.000000,0.000000,0.000000,0.000000
12836948.000000,-2.344310,-1.662210,1.124288,-1.413916,1.736628,1.200208,-0.572485,0.624183,-0.004791,1.242295,-0.449384,-0.410378,1.177538,-0.139768,-13.533587,28.165020,-9.440201,-8.069887,-0.330111,1.045638,-0.196061,0.000000,0.000000,0.000000,0.000000,0.000000,0.000000
12836949.000000,-2.343687,-1.662236,1.125509,-1.414384,1.736223,1.201404,-0.572634,0.619120,-0.011964,1.226761,-0.447304,-0.409476,1.171632,-0.141033,-13.164630,29.438519,-10.055130,-7.847719,-0.282504,1.019088,-0.116410,0.000000,0.000000,0.000000,0.000000,0.000000,0.000000
12836950.000000,-2.343074,-1.662245,1.126733,-1.414846,1.735837,1.202588,-0.572771,0.618396,-0.014235,1.221103,-0.453442,-0.400793,1.174627,-0.136942,-12.692523,30.664410,-10.888260,-7.823915,-0.306307,1.071273,-0.163102,0.000000,0.000000,0.000000,0.000000,0.000000,0.000000
12836951.000000,-2.342459,-1.662254,1.127942,-1.415305,1.735439,1.203786,-0.572912,0.615599,-0.015163,1.220988,-0.452236,-0.406125,1.173867,-0.140820,-12.248187,31.886333,-11.820572,-7.776308,-0.282504,1.136276,-0.155778,0.000000,0.000000,0.000000,0.000000,0.000000,0.000000
12836952.000000,-2.341849,-1.662259,1.129170,-1.415763,1.735030,1.204976,-0.573060,0.606329,-0.015553,1.221352,-0.451373,-0.409162,1.182121,-0.140212,-11.752276,32.989239,-12.879837,-7.875490,-0.145175,1.182052,-0.110001,0.000000,0.000000,0.000000,0.000000,0.000000,0.000000
12836953.000000,-2.341261,-1.662261,1.130388,-1.416216,1.734630,1.206174,-0.573187,0.599923,-0.012981,1.227734,-0.459439,-0.399070,1.183477,-0.134976,-11.109576,33.969158,-13.883560,-7.970705,-0.055453,1.285506,-0.196061,0.000000,0.000000,0.000000,0.000000,0.000000,0.000000
12836954.000000,-2.340650,-1.662261,1.131627,-1.416673,1.734229,1.207373,-0.573329,0.600255,-0.010968,1.229780,-0.453556,-0.410077,1.185721,-0.140425,-10.887408,34.798321,-14.815872,-8.069887,0.081876,1.402694,-0.163102,0.000000,0.000000,0.000000,0.000000,0.000000,0.000000
12836955.000000,-2.340064,-1.662255,1.132889,-1.417141,1.733831,1.208540,-0.573470,0.596498,-0.004558,1.243216,-0.461606,-0.408676,1.180085,-0.139018,-10.466876,35.413250,-15.871170,-8.046083,0.123990,1.605026,-0.142960,0.000000,0.000000,0.000000,0.000000,0.000000,0.000000
12836956.000000,-2.339462,-1.662248,1.134128,-1.417592,1.733438,1.209732,-0.573598,0.593442,-0.001511,1.241479,-0.455420,-0.400827,1.178536,-0.135656,-10.292315,35.948833,-16.680496,-8.046083,0.117582,1.670028,-0.188737,0.000000,0.000000,0.000000,0.000000,0.000000,0.000000
12836957.000000,-2.338862,-1.662252,1.135374,-1.418052,1.733049,1.210912,-0.573730,0.592718,-0.000036,1.234413,-0.453016,-0.401724,1.179877,-0.135884,-10.093951,36.488384,-17.196243,-8.046083,0.166105,1.605026,-0.169511,0.000000,0.000000,0.000000,0.000000,0.000000,0.000000
12836958.000000,-2.338271,-1.662260,1.136614,-1.418507,1.732661,1.212098,-0.573862,0.590726,-0.002524,1.259870,-0.457603,-0.393173,1.177253,-0.135554,-9.947162,37.027935,-17.711990,-8.046083,0.117582,1.617843,-0.155778,0.000000,0.000000,0.000000,0.000000,0.000000,0.000000
12836959.000000,-2.337692,-1.662262,1.137873,-1.418951,1.732277,1.213279,-0.573996,0.588071,-0.003625,1.257189,-0.449024,-0.388931,1.166728,-0.135385,-9.697223,37.392925,-18.057144,-8.145266,0.069974,1.617843,-0.136552,0.000000,0.000000,0.000000,0.000000,0.000000,0.000000
12836960.000000,-2.337128,-1.662286,1.139159,-1.419385,1.731904,1.214432,-0.574124,0.591592,-0.009439,1.260102,-0.449875,-0.384502,1.172459,-0.132384,-9.375873,37.956280,-18.620499,-8.367434,0.015958,1.630660,-0.188737,0.000000,0.000000,0.000000,0.000000,0.000000,0.000000
12836961.000000,-2.336566,-1.662310,1.140414,-1.419807,1.731528,1.215596,-0.574261,0.582859,-0.012787,1.260256,-0.439401,-0.375864,1.169734,-0.129901,-8.955340,38.472027,-18.914078,-8.688784,-0.043551,1.643478,-0.163102,0.000000,0.000000,0.000000,0.000000,0.000000,0.000000
12836962.000000,-2.336009,-1.662349,1.141714,-1.420231,1.731156,1.216761,-0.574394,0.574452,-0.018230,1.267077,-0.431712,-0.373504,1.164144,-0.130877,-8.582416,39.106792,-19.529007,-9.010134,0.004056,1.695663,-0.149369,0.000000,0.000000,0.000000,0.000000,0.000000,0.000000
12836963.000000,-2.335471,-1.662390,1.143027,-1.420646,1.730792,1.217901,-0.574524,0.564199,-0.024073,1.279987,-0.428166,-0.371480,1.159520,-0.130247,-8.138080,39.693951,-20.191544,-9.406862,-0.013339,1.793624,-0.175919,0.000000,0.000000,0.000000,0.000000,0.000000,0.000000
12836964.000000,-2.334929,-1.662433,1.144328,-1.421058,1.730419,1.219060,-0.574658,0.555731,-0.034663,1.285630,-0.422758,-0.371911,1.160441,-0.131978,-7.693743,40.281109,-20.953262,-9.676638,-0.049044,1.806442,-0.142960,0.000000,0.000000,0.000000,0.000000,0.000000,0.000000
12836965.000000,-2.334391,-1.662480,1.145641,-1.421469,1.730044,1.220235,-0.574791,0.548683,-0.039066,1.285757,-0.417007,-0.372392,1.180065,-0.131750,-7.320818,40.844463,-21.540421,-9.898806,0.040677,1.702071,-0.142960,0.000000,0.000000,0.000000,0.000000,0.000000,0.000000
12836966.000000,-2.333871,-1.662526,1.146924,-1.421878,1.729679,1.221380,-0.574916,0.542075,-0.041708,1.281100,-0.420364,-0.368179,1.173732,-0.131770,-6.900286,41.384014,-21.909378,-10.025759,0.040677,1.676437,-0.142960,0.000000,0.000000,0.000000,0.000000,0.000000,0.000000
12836967.000000,-2.333341,-1.662573,1.148227,-1.422289,1.729303,1.222526,-0.575040,0.535119,-0.041821,1.284376,-0.410799,-0.374878,1.155953,-0.125945,-6.578936,41.848186,-22.302139,-10.025759,0.117582,1.773483,-0.175919,0.000000,0.000000,0.000000,0.000000,0.000000,0.000000
12836968.000000,-2.332829,-1.662617,1.149517,-1.422703,1.728932,1.223645,-0.575170,0.531836,-0.041191,1.281016,-0.419449,-0.365475,1.142650,-0.128096,-6.281390,42.264751,-22.325943,-9.997988,0.105680,1.995040,-0.163102,0.000000,0.000000,0.000000,0.000000,0.000000,0.000000
12836969.000000,-2.332315,-1.662662,1.150792,-1.423108,1.728564,1.224803,-0.575302,0.524643,-0.040804,1.276549,-0.411763,-0.359712,1.131525,-0.126386,-5.936236,42.681316,-22.325943,-9.926577,0.117582,1.988631,-0.110001,0.000000,0.000000,0.000000,0.000000,0.000000,0.000000
12836970.000000,-2.331802,-1.662700,1.152074,-1.423521,1.728207,1.225951,-0.575423,0.519047,-0.038467,1.268433,-0.411861,-0.364095,1.134424,-0.120229,-5.587115,42.998699,-22.179153,-9.827394,0.105680,1.949264,-0.175919,0.000000,0.000000,0.000000,0.000000,0.000000,0.000000
12836971.000000,-2.331307,-1.662731,1.153365,-1.423936,1.727848,1.227109,-0.575552,0.515178,-0.036134,1.274869,-0.418170,-0.364388,1.129395,-0.119669,-5.241961,43.145489,-22.425125,-9.605227,0.040677,1.968490,-0.149369,0.000000,0.000000,0.000000,0.000000,0.000000,0.000000
12836972.000000,-2.330810,-1.662761,1.154664,-1.424352,1.727487,1.228274,-0.575674,0.505038,-0.034281,1.281989,-0.417512,-0.357396,1.130522,-0.117123,-4.896807,43.268475,-22.548111,-9.430666,0.010465,1.955673,-0.175919,0.000000,0.000000,0.000000,0.000000,0.000000,0.000000
12836973.000000,-2.330315,-1.662792,1.155963,-1.424776,1.727128,1.229424,-0.575798,0.509903,-0.030208,1.285400,-0.422238,-0.362401,1.139355,-0.115965,-4.646868,43.391460,-22.694901,-9.184694,0.100187,1.890670,-0.182328,0.000000,0.000000,0.000000,0.000000,0.000000,0.000000
12836974.000000,-2.329840,-1.662815,1.157260,-1.425196,1.726764,1.230581,-0.575925,0.499812,-0.026729,1.291765,-0.424256,-0.362640,1.140393,-0.116302,-4.226336,43.343853,-23.016251,-8.962526,0.147794,1.890670,-0.155778,0.000000,0.000000,0.000000,0.000000,0.000000,0.000000
12836975.000000,-2.329355,-1.662841,1.158572,-1.425616,1.726417,1.231735,-0.576045,0.495019,-0.025019,1.288169,-0.420161,-0.357258,1.157258,-0.119988,-3.904986,43.320049,-23.381241,-8.839540,0.147794,1.962081,-0.175919,0.000000,0.000000,0.000000,0.000000,0.000000,0.000000
12836976.000000,-2.328882,-1.662857,1.159873,-1.426046,1.726070,1.232873,-0.576172,0.487674,-0.021080,1.293941,-0.430045,-0.349447,1.155496,-0.120884,-3.559832,43.173260,-23.849380,-8.589602,0.189908,1.995040,-0.110001,0.000000,0.000000,0.000000,0.000000,0.000000,0.000000
12836977.000000,-2.328411,-1.662887,1.161172,-1.426466,1.725731,1.234032,-0.576283,0.478470,-0.022691,1.297173,-0.425376,-0.352219,1.152795,-0.121625,-3.238482,43.197063,-24.043777,-8.419008,0.171598,1.981307,-0.163102,0.000000,0.000000,0.000000,0.000000,0.000000,0.000000
12836978.000000,-2.327942,-1.662910,1.162474,-1.426896,1.725380,1.235176,-0.576404,0.484034,-0.022648,1.291156,-0.426925,-0.351571,1.154387,-0.124877,-2.865557,43.173260,-24.190567,-8.196840,0.243009,1.942855,-0.142960,0.000000,0.000000,0.000000,0.000000,0.000000,0.000000
12836979.000000,-2.327476,-1.662937,1.163751,-1.427330,1.725033,1.236318,-0.576516,0.483532,-0.023278,1.289401,-0.427839,-0.353821,1.153121,-0.116788,-2.568011,43.173260,-24.265945,-7.847719,0.285123,2.047225,-0.182328,0.000000,0.000000,0.000000,0.000000,0.000000,0.000000
12836980.000000,-2.327011,-1.662953,1.165041,-1.427780,1.724703,1.237471,-0.576634,0.477390,-0.020395,1.285870,-0.433107,-0.340434,1.155402,-0.115701,-2.298235,43.026470,-24.313553,-7.379579,0.279630,2.092086,-0.188737,0.000000,0.000000,0.000000,0.000000,0.000000,0.000000
12836981.000000,-2.326556,-1.662982,1.166349,-1.428229,1.724355,1.238619,-0.576758,0.472571,-0.019728,1.290074,-0.444011,-0.346900,1.156274,-0.122411,-2.024493,43.074078,-24.535721,-7.006654,0.315336,1.988631,-0.122819,0.000000,0.000000,0.000000,0.000000,0.000000,0.000000
12836982.000000,-2.326105,-1.663012,1.167631,-1.428677,1.724011,1.239787,-0.576861,0.464036,-0.019741,1.284894,-0.445623,-0.346184,1.157982,-0.117137,-1.679339,43.145489,-24.706314,-6.661500,0.344633,1.851302,-0.202470,0.000000,0.000000,0.000000,0.000000,0.000000,0.000000
12836983.000000,-2.325653,-1.663034,1.168951,-1.429130,1.723679,1.240923,-0.576977,0.455027,-0.020969,1.289827,-0.442306,-0.339673,1.168909,-0.117787,-1.330218,43.145489,-25.198257,-6.391725,0.344633,1.871444,-0.155778,0.000000,0.000000,0.000000,0.000000,0.000000,0.000000
12836984.000000,-2.325220,-1.663053,1.170248,-1.429588,1.723355,1.242055,-0.577092,0.450566,-0.017153,1.291399,-0.453621,-0.337901,1.153015,-0.118111,-0.961260,43.074078,-25.666397,-6.042604,0.315336,2.053634,-0.116410,0.000000,0.000000,0.000000,0.000000,0.000000,0.000000
12836985.000000,-2.324786,-1.663085,1.171566,-1.430048,1.723017,1.243197,-0.577203,0.445245,-0.021508,1.297043,-0.450431,-0.341425,1.135873,-0.116008,-0.540728,43.173260,-26.205948,-5.749025,0.362943,2.202865,-0.136552,0.000000,0.000000,0.000000,0.000000,0.000000,0.000000
12836986.000000,-2.324353,-1.663112,1.172874,-1.430512,1.722677,1.244321,-0.577313,0.444498,-0.019737,1.298515,-0.456544,-0.337957,1.131699,-0.114839,-0.215411,43.197063,-26.475723,-5.526857,0.410551,2.339278,-0.149369,0.000000,0.000000,0.000000,0.000000,0.000000,0.000000
12836987.000000,-2.323923,-1.663137,1.174159,-1.430967,1.722342,1.245469,-0.577415,0.437100,-0.021436,1.294076,-0.449922,-0.331560,1.123783,-0.104258,0.129743,43.220867,-26.697891,-5.276918,0.464567,2.423507,-0.169511,0.000000,0.000000,0.000000,0.000000,0.000000,0.000000
12836988.000000,-2.323505,-1.663160,1.175459,-1.431435,1.722013,1.246595,-0.577523,0.432790,-0.018564,1.292909,-0.449544,-0.329479,1.126375,-0.107272,0.574079,43.197063,-26.892288,-4.955568,0.482877,2.456466,-0.142960,0.000000,0.000000,0.000000,0.000000,0.000000,0.000000
12836989.000000,-2.323076,-1.663180,1.176722,-1.431894,1.721674,1.247741,-0.577622,0.431537,-0.018962,1.279649,-0.454872,-0.329258,1.122663,-0.106607,0.796247,43.145489,-26.769302,-4.757204,0.512174,2.378646,-0.202470,0.000000,0.000000,0.000000,0.000000,0.000000,0.000000
12836990.000000,-2.322652,-1.663208,1.178000,-1.432372,1.721336,1.248898,-0.577734,0.428260,-0.022158,1.276403,-0.459179,-0.329958,1.131672,-0.109365,1.069990,43.220867,-26.574905,-4.289064,0.584501,2.228500,-0.175919,0.000000,0.000000,0.000000,0.000000,0.000000,0.000000
12836991.000000,-2.322232,-1.663230,1.179272,-1.432850,1.721016,1.250050,-0.577847,0.429968,-0.022742,1.268544,-0.472755,-0.328909,1.150411,-0.107513,1.244550,43.220867,-26.305130,-3.868532,0.608304,2.118636,-0.142960,0.000000,0.000000,0.000000,0.000000,0.000000,0.000000
12836992.000000,-2.321811,-1.663249,1.180540,-1.433326,1.720691,1.251183,-0.577949,0.426640,-0.022181,1.263954,-0.471752,-0.330564,1.150298,-0.102466,1.415143,43.173260,-26.305130,-3.424196,0.601896,2.072860,-0.188737,0.000000,0.000000,0.000000,0.000000,0.000000,0.000000
12836993.000000,-2.321388,-1.663275,1.181798,-1.433794,1.720372,1.252337,-0.578058,0.419523,-0.021495,1.253144,-0.469568,-0.322222,1.150070,-0.101606,1.641279,43.244671,-26.007584,-3.249635,0.566190,1.974899,-0.155778,0.000000,0.000000,0.000000,0.000000,0.000000,0.000000
12836994.000000,-2.320977,-1.663298,1.183054,-1.434257,1.720046,1.253474,-0.578159,0.415015,-0.022333,1.255126,-0.467846,-0.322276,1.153556,-0.103160,1.835676,43.244671,-25.983780,-3.154421,0.571683,1.871444,-0.196061,0.000000,0.000000,0.000000,0.000000,0.000000,0.000000
12836995.000000,-2.320572,-1.663319,1.184316,-1.434706,1.719732,1.254616,-0.578268,0.407212,-0.023000,1.258590,-0.456629,-0.322089,1.152102,-0.102050,2.061811,43.244671,-25.912369,-3.202028,0.554288,1.903487,-0.169511,0.000000,0.000000,0.000000,0.000000,0.000000,0.000000
12836996.000000,-2.320163,-1.663340,1.185574,-1.435150,1.719416,1.255736,-0.578378,0.416933,-0.020937,1.253236,-0.449119,-0.322852,1.143353,-0.100463,2.208601,43.268475,-25.836990,-3.277406,0.584501,2.020675,-0.155778,0.000000,0.000000,0.000000,0.000000,0.000000,0.000000
12836997.000000,-2.319748,-1.663362,1.186811,-1.435598,1.719092,1.256874,-0.578476,0.414731,-0.021743,1.253032,-0.443065,-0.319216,1.136010,-0.097289,2.307783,43.268475,-25.737808,-3.249635,0.655912,2.112228,-0.202470,0.000000,0.000000,0.000000,0.000000,0.000000,0.000000
12836998.000000,-2.319328,-1.663375,1.188052,-1.436047,1.718779,1.258036,-0.578584,0.414402,-0.017077,1.245161,-0.439937,-0.311032,1.136002,-0.097866,2.331586,43.173260,-25.614822,-3.154421,0.721830,1.995040,-0.175919,0.000000,0.000000,0.000000,0.000000,0.000000,0.000000
12836999.000000,-2.318913,-1.663384,1.189297,-1.436489,1.718471,1.259197,-0.578681,0.414436,-0.013123,1.244242,-0.441787,-0.312258,1.137473,-0.095306,2.232404,43.050274,-25.519608,-3.154421,0.786832,1.786300,-0.221696,0.000000,0.000000,0.000000,0.000000,0.000000,0.000000
12837000.000000,-2.318489,-1.663390,1.190506,-1.436921,1.718166,1.260361,-0.578792,0.417201,-0.012560,1.237399,-0.438614,-0.307185,1.137572,-0.098672,2.109418,42.875713,-25.297440,-3.102846,0.733732,1.676437,-0.130143,0.000000,0.000000,0.000000,0.000000,0.000000,0.000000
12837001.000000,-2.318066,-1.663393,1.191745,-1.437354,1.717866,1.261534,-0.578884,0.417662,-0.009048,1.231191,-0.431419,-0.305164,1.161839,-0.098764,2.061811,42.705120,-25.297440,-3.126650,0.685209,1.572067,-0.215287,0.000000,0.000000,0.000000,0.000000,0.000000,0.000000
12837002.000000,-2.317652,-1.663403,1.192961,-1.437778,1.717575,1.262676,-0.578994,0.418545,-0.006383,1.227719,-0.436223,-0.301083,1.154569,-0.100088,1.986432,42.657513,-25.222061,-3.102846,0.608304,1.676437,-0.155778,0.000000,0.000000,0.000000,0.000000,0.000000,0.000000
12837003.000000,-2.317241,-1.663408,1.194203,-1.438193,1.717283,1.263827,-0.579093,0.413206,-0.006639,1.230200,-0.423697,-0.296917,1.152533,-0.102221,1.986432,42.582134,-25.345047,-3.225832,0.584501,1.825668,-0.182328,0.000000,0.000000,0.000000,0.000000,0.000000,0.000000
12837004.000000,-2.316839,-1.663410,1.195453,-1.438598,1.717002,1.264963,-0.579197,0.408793,-0.005894,1.232147,-0.419417,-0.290925,1.151316,-0.100318,2.034040,42.463116,-25.614822,-3.325014,0.506681,1.981307,-0.182328,0.000000,0.000000,0.000000,0.000000,0.000000,0.000000
12837005.000000,-2.316427,-1.663406,1.196702,-1.439001,1.716719,1.266116,-0.579301,0.410809,-0.002975,1.239905,-0.411776,-0.282455,1.144655,-0.099615,2.010236,42.240948,-26.082962,-3.475771,0.452665,2.079269,-0.163102,0.000000,0.000000,0.000000,0.000000,0.000000,0.000000
12837006.000000,-2.316017,-1.663417,1.197950,-1.439406,1.716440,1.267255,-0.579392,0.407771,-0.006350,1.235554,-0.406565,-0.279819,1.145796,-0.095982,2.034040,42.240948,-26.400345,-3.499574,0.488370,2.137862,-0.221696,0.000000,0.000000,0.000000,0.000000,0.000000,0.000000
12837007.000000,-2.315613,-1.663420,1.199166,-1.439801,1.716162,1.268404,-0.579503,0.407504,-0.002990,1.257949,-0.407307,-0.279524,1.138114,-0.103548,1.986432,42.141766,-26.499527,-3.475771,0.554288,2.137862,-0.122819,0.000000,0.000000,0.000000,0.000000,0.000000,0.000000
12837008.000000,-2.315199,-1.663428,1.200403,-1.440196,1.715883,1.269547,-0.579599,0.410096,-0.004863,1.250598,-0.404017,-0.283636,1.139330,-0.098860,1.911054,42.094158,-26.721695,-3.424196,0.644010,2.202865,-0.163102,0.000000,0.000000,0.000000,0.000000,0.000000,0.000000
12837009.000000,-2.314786,-1.663437,1.201624,-1.440589,1.715604,1.270668,-0.579690,0.414948,-0.003555,1.237621,-0.399645,-0.280201,1.139583,-0.095545,1.887250,42.070354,-26.598709,-3.348818,0.649503,2.287093,-0.221696,0.000000,0.000000,0.000000,0.000000,0.000000,0.000000
12837010.000000,-2.314377,-1.663439,1.202827,-1.440978,1.715328,1.271812,-0.579790,0.413499,-0.004410,1.228757,-0.395490,-0.275004,1.142353,-0.098672,1.811872,41.994976,-26.424149,-3.301210,0.632108,2.261459,-0.163102,0.000000,0.000000,0.000000,0.000000,0.000000,0.000000
12837011.000000,-2.313980,-1.663453,1.204040,-1.441370,1.715062,1.272959,-0.579880,0.405172,-0.008707,1.224191,-0.389427,-0.263679,1.138833,-0.097022,1.887250,42.070354,-26.154373,-3.249635,0.578092,2.209274,-0.175919,0.000000,0.000000,0.000000,0.000000,0.000000,0.000000
12837012.000000,-2.313585,-1.663462,1.205252,-1.441741,1.714799,1.274095,-0.579971,0.403130,-0.005526,1.211214,-0.385233,-0.257103,1.138291,-0.096139,1.934858,42.022747,-25.860794,-3.325014,0.524076,2.079269,-0.182328,0.000000,0.000000,0.000000,0.000000,0.000000,0.000000
12837013.000000,-2.313186,-1.663467,1.206459,-1.442126,1.714526,1.275234,-0.580063,0.399633,-0.002547,1.211993,-0.380754,-0.263802,1.129362,-0.095261,2.034040,41.947369,-25.789383,-3.325014,0.500272,2.033492,-0.196061,0.000000,0.000000,0.000000,0.000000,0.000000,0.000000
12837014.000000,-2.312790,-1.663473,1.207655,-1.442500,1.714266,1.276364,-0.580156,0.395397,-0.001611,1.199221,-0.375103,-0.261610,1.128107,-0.095377,2.109418,41.923565,-25.444229,-3.325014,0.428861,1.974899,-0.196061,0.000000,0.000000,0.000000,0.000000,0.000000,0.000000
12837015.000000,-2.312414,-1.663481,1.208853,-1.442876,1.714000,1.277515,-0.580248,0.388895,-0.001426,1.202558,-0.374957,-0.258990,1.126118,-0.095529,2.331586,41.923565,-25.396622,-3.376589,0.470060,1.884261,-0.188737,0.000000,0.000000,0.000000,0.000000,0.000000,0.000000
12837016.000000,-2.312024,-1.663487,1.210056,-1.443251,1.713740,1.278665,-0.580341,0.387096,-0.003715,1.195684,-0.369661,-0.257066,1.124371,-0.096002,2.406965,41.899761,-25.297440,-3.400392,0.500272,1.832076,-0.169511,0.000000,0.000000,0.000000,0.000000,0.000000,0.000000
12837017.000000,-2.311645,-1.663478,1.211269,-1.443614,1.713489,1.279800,-0.580430,0.384466,-0.000896,1.194149,-0.370159,-0.258822,1.127024,-0.090195,2.581525,41.677593,-25.297440,-3.475771,0.464567,1.806442,-0.188737,0.000000,0.000000,0.000000,0.000000,0.000000,0.000000
12837018.000000,-2.311262,-1.663480,1.212452,-1.443985,1.713223,1.280939,-0.580519,0.380605,0.000470,1.187987,-0.367974,-0.260876,1.124369,-0.091593,2.680707,41.606182,-25.249832,-3.424196,0.482877,1.825668,-0.182328,0.000000,0.000000,0.000000,0.000000,0.000000,0.000000
12837019.000000,-2.310884,-1.663477,1.213640,-1.444341,1.712960,1.282076,-0.580607,0.376882,-0.000314,1.184434,-0.365746,-0.263836,1.133691,-0.092572,2.827497,41.483196,-25.075272,-3.523378,0.535978,1.779891,-0.169511,0.000000,0.000000,0.000000,0.000000,0.000000,0.000000
12837020.000000,-2.310505,-1.663470,1.214807,-1.444702,1.712698,1.283217,-0.580699,0.377584,0.003188,1.180437,-0.363170,-0.265629,1.131718,-0.093761,2.827497,41.312603,-24.880875,-3.424196,0.596403,1.832076,-0.149369,0.000000,0.000000,0.000000,0.000000,0.000000,0.000000
12837021.000000,-2.310114,-1.663466,1.215973,-1.445059,1.712450,1.284357,-0.580784,0.382028,0.004000,1.170465,-0.357325,-0.265088,1.124043,-0.088449,2.752119,41.213421,-24.511917,-3.348818,0.566190,1.974899,-0.169511,0.000000,0.000000,0.000000,0.000000,0.000000,0.000000
12837022.000000,-2.309734,-1.663452,1.217153,-1.445420,1.712203,1.285485,-0.580869,0.381371,0.006880,1.167549,-0.357180,-0.258317,1.129104,-0.089182,2.728315,41.019024,-24.313553,-3.225832,0.518583,2.027084,-0.188737,0.000000,0.000000,0.000000,0.000000,0.000000,0.000000
12837023.000000,-2.309353,-1.663441,1.218323,-1.445770,1.711953,1.286642,-0.580956,0.381105,0.007770,1.168490,-0.351669,-0.258140,1.134302,-0.091042,2.704511,40.872234,-24.289749,-3.178224,0.482877,1.909896,-0.175919,0.000000,0.000000,0.000000,0.000000,0.000000,0.000000
12837024.000000,-2.308972,-1.663428,1.219507,-1.446115,1.711714,1.287785,-0.581047,0.381003,0.011486,1.162640,-0.350505,-0.253322,1.163109,-0.088425,2.652936,40.725445,-24.265945,-3.249635,0.428861,1.735030,-0.136552,0.000000,0.000000,0.000000,0.000000,0.000000,0.000000
12837025.000000,-2.308599,-1.663415,1.220697,-1.446463,1.711474,1.288932,-0.581120,0.380324,0.014358,1.176050,-0.347795,-0.255979,1.147994,-0.082160,2.652936,40.578655,-24.583328,-3.178224,0.393156,1.682845,-0.202470,0.000000,0.000000,0.000000,0.000000,0.000000,0.000000
12837026.000000,-2.308221,-1.663402,1.221898,-1.446804,1.711237,1.290069,-0.581209,0.378483,0.013447,1.185493,-0.340308,-0.248545,1.137117,-0.087646,2.652936,40.427898,-24.904678,-3.225832,0.386747,1.747848,-0.155778,0.000000,0.000000,0.000000,0.000000,0.000000,0.000000
12837027.000000,-2.307847,-1.663394,1.223104,-1.447134,1.710996,1.291191,-0.581292,0.384453,0.010896,1.186770,-0.335192,-0.246599,1.137303,-0.088239,2.680707,40.356487,-25.297440,-3.376589,0.458158,1.786300,-0.182328,0.000000,0.000000,0.000000,0.000000,0.000000,0.000000
12837028.000000,-2.307480,-1.663389,1.224284,-1.447468,1.710748,1.292326,-0.581376,0.379957,0.008017,1.186321,-0.330337,-0.242313,1.123467,-0.089428,2.652936,40.332684,-25.491837,-3.448000,0.494779,1.819259,-0.196061,0.000000,0.000000,0.000000,0.000000,0.000000,0.000000
12837029.000000,-2.307112,-1.663386,1.225471,-1.447790,1.710511,1.293448,-0.581464,0.374381,0.006048,1.182989,-0.323439,-0.232041,1.111670,-0.086465,2.704511,40.308880,-25.519608,-3.670168,0.518583,1.981307,-0.182328,0.000000,0.000000,0.000000,0.000000,0.000000,0.000000
12837030.000000,-2.306749,-1.663380,1.226669,-1.448115,1.710277,1.294556,-0.581548,0.371068,0.005906,1.179928,-0.326599,-0.230009,1.108678,-0.083064,2.752119,40.233501,-25.690201,-3.670168,0.512174,2.079269,-0.202470,0.000000,0.000000,0.000000,0.000000,0.000000,0.000000
12837031.000000,-2.306372,-1.663380,1.227828,-1.448435,1.710050,1.295682,-0.581632,0.370347,0.003463,1.168746,-0.324509,-0.226881,1.110008,-0.081447,2.680707,40.257305,-25.468033,-3.721742,0.440763,2.118636,-0.196061,0.000000,0.000000,0.000000,0.000000,0.000000,0.000000
12837032.000000,-2.305993,-1.663384,1.228998,-1.448758,1.709821,1.296804,-0.581715,0.369276,0.000607,1.163208,-0.324489,-0.227096,1.114241,-0.080050,2.529951,40.332684,-25.198257,-3.598757,0.440763,2.053634,-0.188737,0.000000,0.000000,0.000000,0.000000,0.000000,0.000000
12837033.000000,-2.305626,-1.663387,1.230146,-1.449082,1.709586,1.297943,-0.581799,0.369808,0.001790,1.163617,-0.322270,-0.231048,1.112799,-0.079870,2.454572,40.404095,-24.829300,-3.424196,0.434354,1.877853,-0.163102,0.000000,0.000000,0.000000,0.000000,0.000000,0.000000
12837034.000000,-2.305243,-1.663379,1.231314,-1.449400,1.709356,1.299084,-0.581876,0.372924,0.003150,1.158058,-0.317060,-0.237677,1.121694,-0.077732,2.232404,40.332684,-24.611099,-3.400392,0.416959,1.786300,-0.202470,0.000000,0.000000,0.000000,0.000000,0.000000,0.000000
12837035.000000,-2.304872,-1.663378,1.232495,-1.449717,1.709128,1.300208,-0.581962,0.372443,0.005467,1.159377,-0.318615,-0.235870,1.122885,-0.078468,2.133222,40.332684,-24.488113,-3.249635,0.416959,1.670028,-0.169511,0.000000,0.000000,0.000000,0.000000,0.000000,0.000000
12837036.000000,-2.304498,-1.663374,1.233633,-1.450023,1.708901,1.301353,-0.582044,0.370322,0.004625,1.154279,-0.318554,-0.232904,1.126242,-0.074423,1.986432,40.308880,-24.095352,-3.277406,0.398649,1.552840,-0.130143,0.000000,0.000000,0.000000,0.000000,0.000000,0.000000
12837037.000000,-2.304133,-1.663374,1.234802,-1.450330,1.708671,1.302493,-0.582119,0.366574,0.002287,1.152547,-0.313807,-0.234508,1.141280,-0.072653,1.911054,40.356487,-24.019974,-3.376589,0.482877,1.559249,-0.182328,0.000000,0.000000,0.000000,0.000000,0.000000,0.000000
12837038.000000,-2.303767,-1.663371,1.235949,-1.450626,1.708451,1.303604,-0.582201,0.364896,0.001763,1.150834,-0.307165,-0.234815,1.133440,-0.074893,1.811872,40.356487,-23.873184,-3.499574,0.422452,1.714889,-0.142960,0.000000,0.000000,0.000000,0.000000,0.000000,0.000000
12837039.000000,-2.303396,-1.663367,1.237114,-1.450917,1.708230,1.304727,-0.582268,0.362844,0.002468,1.153262,-0.298091,-0.232032,1.120026,-0.072600,1.688886,40.308880,-23.849380,-3.697939,0.381254,1.897079,-0.208878,0.000000,0.000000,0.000000,0.000000,0.000000,0.000000
12837040.000000,-2.303030,-1.663359,1.238283,-1.451209,1.708008,1.305850,-0.582346,0.361937,0.003542,1.158172,-0.297309,-0.230656,1.117282,-0.074138,1.589704,40.233501,-23.849380,-3.769350,0.381254,1.942855,-0.188737,0.000000,0.000000,0.000000,0.000000,0.000000,0.000000
12837041.000000,-2.302652,-1.663351,1.239423,-1.451494,1.707785,1.306995,-0.582424,0.365266,0.004132,1.153540,-0.291105,-0.230363,1.115074,-0.077202,1.315961,40.162090,-23.726395,-3.943910,0.398649,1.871444,-0.142960,0.000000,0.000000,0.000000,0.000000,0.000000,0.000000
12837042.000000,-2.302265,-1.663339,1.240583,-1.451805,1.707566,1.308116,-0.582492,0.372844,0.005707,1.152463,-0.298422,-0.227116,1.141374,-0.069382,0.923200,40.039104,-23.702591,-3.745546,0.464567,1.897079,-0.208878,0.000000,0.000000,0.000000,0.000000,0.000000,0.000000
12837043.000000,-2.301874,-1.663317,1.241729,-1.452099,1.707357,1.309253,-0.582572,0.379121,0.012702,1.166881,-0.294603,-0.225954,1.130589,-0.072819,0.502668,39.793133,-23.480423,-3.670168,0.422452,1.909896,-0.149369,0.000000,0.000000,0.000000,0.000000,0.000000,0.000000
12837044.000000,-2.301488,-1.663302,1.242856,-1.452390,1.707140,1.310401,-0.582642,0.383183,0.011644,1.155007,-0.287217,-0.225487,1.135938,-0.066762,0.205121,39.670147,-23.286026,-3.570986,0.410551,1.773483,-0.202470,0.000000,0.000000,0.000000,0.000000,0.000000,0.000000
12837045.000000,-2.301101,-1.663292,1.244011,-1.452675,1.706923,1.311538,-0.582717,0.392748,0.011688,1.147908,-0.287859,-0.221253,1.138136,-0.069679,-0.167803,39.646343,-23.234451,-3.523378,0.416959,1.643478,-0.182328,0.000000,0.000000,0.000000,0.000000,0.000000,0.000000
12837046.000000,-2.300730,-1.663276,1.245147,-1.452946,1.706723,1.312666,-0.582792,0.387370,0.013570,1.147111,-0.281880,-0.213024,1.128871,-0.071160,-0.314593,39.547161,-23.186844,-3.646364,0.297025,1.682845,-0.182328,0.000000,0.000000,0.000000,0.000000,0.000000,0.000000
12837047.000000,-2.300351,-1.663263,1.246314,-1.453212,1.706515,1.313794,-0.582863,0.383882,0.010736,1.150674,-0.271667,-0.204227,1.121013,-0.072567,-0.489153,39.499554,-23.409012,-3.797121,0.297025,1.767074,-0.175919,0.000000,0.000000,0.000000,0.000000,0.000000,0.000000
12837048.000000,-2.299983,-1.663250,1.247488,-1.453480,1.706308,1.314890,-0.582939,0.379766,0.008702,1.152142,-0.270814,-0.205056,1.118027,-0.074986,-0.588336,39.451946,-23.678787,-3.892336,0.291532,1.930038,-0.130143,0.000000,0.000000,0.000000,0.000000,0.000000,0.000000
12837049.000000,-2.299610,-1.663239,1.248650,-1.453748,1.706101,1.316017,-0.582998,0.373280,0.006682,1.157467,-0.267580,-0.206870,1.116122,-0.071926,-0.687518,39.428143,-23.996170,-3.967714,0.297025,1.949264,-0.215287,0.000000,0.000000,0.000000,0.000000,0.000000,0.000000
12837050.000000,-2.299242,-1.663226,1.249829,-1.454004,1.705887,1.317117,-0.583073,0.369094,0.005904,1.161474,-0.262865,-0.208622,1.114800,-0.070342,-0.762896,39.376568,-24.365128,-4.043092,0.339139,1.995040,-0.155778,0.000000,0.000000,0.000000,0.000000,0.000000,0.000000
12837051.000000,-2.298885,-1.663221,1.250986,-1.454267,1.705674,1.318233,-0.583136,0.364229,0.005360,1.160266,-0.262380,-0.207928,1.107474,-0.066081,-0.786700,39.451946,-24.658707,-4.090700,0.332731,2.020675,-0.188737,0.000000,0.000000,0.000000,0.000000,0.000000,0.000000
12837052.000000,-2.298523,-1.663219,1.252151,-1.454528,1.705464,1.319356,-0.583203,0.363635,0.001733,1.158100,-0.260560,-0.213408,1.100898,-0.063795,-0.810504,39.547161,-24.781693,-4.118471,0.381254,2.007858,-0.188737,0.000000,0.000000,0.000000,0.000000,0.000000,0.000000
12837053.000000,-2.298155,-1.663207,1.253303,-1.454773,1.705256,1.320461,-0.583278,0.364242,0.005000,1.151655,-0.253767,-0.212989,1.098760,-0.069721,-0.961260,39.523357,-24.658707,-4.213686,0.393156,2.033492,-0.116410,0.000000,0.000000,0.000000,0.000000,0.000000,0.000000
12837054.000000,-2.297796,-1.663206,1.254432,-1.455034,1.705050,1.321576,-0.583335,0.361068,0.003984,1.144592,-0.257001,-0.211457,1.096320,-0.062826,-0.985064,39.646343,-24.412735,-4.213686,0.393156,2.027084,-0.208878,0.000000,0.000000,0.000000,0.000000,0.000000,0.000000
12837055.000000,-2.297438,-1.663204,1.255579,-1.455292,1.704853,1.322673,-0.583406,0.355410,0.004674,1.136498,-0.255452,-0.209678,1.100571,-0.068247,-1.008868,39.721722,-24.142960,-4.241457,0.374845,2.053634,-0.149369,0.000000,0.000000,0.000000,0.000000,0.000000,0.000000
12837056.000000,-2.297093,-1.663195,1.256706,-1.455544,1.704657,1.323787,-0.583469,0.352661,0.006972,1.131600,-0.255761,-0.206385,1.102162,-0.065565,-0.933489,39.721722,-23.825577,-4.213686,0.303434,2.118636,-0.142960,0.000000,0.000000,0.000000,0.000000,0.000000,0.000000
12837057.000000,-2.296743,-1.663183,1.257842,-1.455803,1.704458,1.324913,-0.583530,0.351443,0.010256,1.130647,-0.257838,-0.200118,1.098506,-0.066332,-0.909686,39.646343,-23.456619,-4.118471,0.237516,2.053634,-0.188737,0.000000,0.000000,0.000000,0.000000,0.000000,0.000000
12837058.000000,-2.296405,-1.663172,1.258982,-1.456056,1.704262,1.326033,-0.583597,0.348528,0.011419,1.125960,-0.257834,-0.197467,1.108909,-0.065222,-0.786700,39.622540,-23.186844,-4.066896,0.237516,1.884261,-0.155778,0.000000,0.000000,0.000000,0.000000,0.000000,0.000000
12837059.000000,-2.296068,-1.663153,1.260116,-1.456310,1.704070,1.327161,-0.583661,0.344497,0.012508,1.127060,-0.254041,-0.191338,1.117820,-0.068204,-0.687518,39.451946,-23.087662,-4.043092,0.261320,1.735030,-0.142960,0.000000,0.000000,0.000000,0.000000,0.000000,0.000000
12837060.000000,-2.295742,-1.663137,1.261265,-1.456565,1.703880,1.328269,-0.583725,0.338899,0.011337,1.130284,-0.255043,-0.186700,1.144521,-0.065675,-0.489153,39.352764,-23.087662,-3.967714,0.273221,1.689254,-0.130143,0.000000,0.000000,0.000000,0.000000,0.000000,0.000000
12837061.000000,-2.295418,-1.663119,1.262394,-1.456814,1.703686,1.329382,-0.583786,0.335439,0.013541,1.149512,-0.254701,-0.189348,1.131160,-0.066352,-0.290789,39.253582,-23.063858,-3.943910,0.308927,1.676437,-0.175919,0.000000,0.000000,0.000000,0.000000,0.000000,0.000000
12837062.000000,-2.295092,-1.663105,1.263541,-1.457063,1.703488,1.330513,-0.583853,0.330173,0.013841,1.145479,-0.251417,-0.190180,1.122677,-0.065441,-0.144000,39.205975,-23.063858,-3.920107,0.339139,1.624252,-0.136552,0.000000,0.000000,0.000000,0.000000,0.000000,0.000000
12837063.000000,-2.294769,-1.663085,1.264685,-1.457293,1.703295,1.331639,-0.583913,0.333953,0.016406,1.141939,-0.243694,-0.189093,1.127138,-0.065562,0.006757,39.059185,-23.063858,-4.019289,0.308927,1.624252,-0.196061,0.000000,0.000000,0.000000,0.000000,0.000000,0.000000
12837064.000000,-2.294463,-1.663070,1.265803,-1.457538,1.703099,1.332733,-0.583981,0.324474,0.016524,1.135445,-0.243907,-0.188654,1.115745,-0.069851,0.228925,38.983807,-22.964676,-3.991518,0.308927,1.773483,-0.149369,0.000000,0.000000,0.000000,0.000000,0.000000,0.000000
12837065.000000,-2.294152,-1.663050,1.266940,-1.457779,1.702909,1.333855,-0.584042,0.320180,0.015305,1.129247,-0.238827,-0.185252,1.108270,-0.070757,0.328107,38.837017,-22.893265,-3.967714,0.308927,1.786300,-0.163102,0.000000,0.000000,0.000000,0.000000,0.000000,0.000000
12837066.000000,-2.293847,-1.663032,1.268061,-1.458015,1.702722,1.334963,-0.584099,0.312116,0.016805,1.123254,-0.237558,-0.181101,1.115210,-0.070079,0.502668,38.717999,-22.571915,-3.920107,0.297025,1.779891,-0.215287,0.000000,0.000000,0.000000,0.000000,0.000000,0.000000
12837067.000000,-2.293534,-1.663012,1.269179,-1.458263,1.702532,1.336086,-0.584166,0.308885,0.014826,1.125129,-0.245419,-0.189110,1.107964,-0.069339,0.550275,38.595013,-22.472733,-3.745546,0.320829,1.721298,-0.149369,0.000000,0.000000,0.000000,0.000000,0.000000,0.000000
12837068.000000,-2.293220,-1.662990,1.270313,-1.458508,1.702349,1.337205,-0.584223,0.308904,0.014433,1.119329,-0.243177,-0.191255,1.114679,-0.064789,0.625654,38.424419,-22.448929,-3.670168,0.255826,1.584884,-0.182328,0.000000,0.000000,0.000000,0.000000,0.000000,0.000000
12837069.000000,-2.292920,-1.662968,1.271438,-1.458753,1.702157,1.338344,-0.584283,0.304772,0.017266,1.122880,-0.246876,-0.190729,1.119906,-0.063100,0.748639,38.249859,-22.524307,-3.475771,0.231107,1.461288,-0.175919,0.000000,0.000000,0.000000,0.000000,0.000000,0.000000
12837070.000000,-2.292625,-1.662948,1.272591,-1.458997,1.701971,1.339479,-0.584342,0.297859,0.018046,1.138059,-0.243656,-0.190768,1.125449,-0.061903,0.895429,38.130840,-22.770279,-3.325014,0.261320,1.383468,-0.163102,0.000000,0.000000,0.000000,0.000000,0.000000,0.000000
12837071.000000,-2.292341,-1.662934,1.273751,-1.459233,1.701783,1.340593,-0.584399,0.293593,0.017092,1.137738,-0.243344,-0.192024,1.124356,-0.059635,1.145368,38.079266,-23.063858,-3.277406,0.279630,1.435653,-0.196061,0.000000,0.000000,0.000000,0.000000,0.000000,0.000000
12837072.000000,-2.292057,-1.662915,1.274893,-1.459467,1.701596,1.341698,-0.584464,0.290178,0.017578,1.136277,-0.238679,-0.193587,1.111617,-0.060955,1.415143,37.984051,-23.357437,-3.301210,0.344633,1.643478,-0.142960,0.000000,0.000000,0.000000,0.000000,0.000000,0.000000
12837073.000000,-2.291770,-1.662897,1.276054,-1.459701,1.701415,1.342807,-0.584518,0.287089,0.017366,1.143014,-0.235863,-0.188406,1.114791,-0.058461,1.589704,37.908672,-23.702591,-3.301210,0.369352,1.890670,-0.175919,0.000000,0.000000,0.000000,0.000000,0.000000,0.000000
12837074.000000,-2.291492,-1.662883,1.277190,-1.459932,1.701241,1.343903,-0.584579,0.284073,0.013584,1.161985,-0.234789,-0.186942,1.101477,-0.063289,1.788068,37.861065,-23.896988,-3.277406,0.339139,2.020675,-0.149369,0.000000,0.000000,0.000000,0.000000,0.000000,0.000000
12837075.000000,-2.291214,-1.662866,1.278340,-1.460172,1.701053,1.345025,-0.584629,0.279333,0.014601,1.158682,-0.234300,-0.184233,1.095833,-0.060170,1.934858,37.785686,-23.972366,-3.154421,0.369352,2.066451,-0.188737,0.000000,0.000000,0.000000,0.000000,0.000000,0.000000
12837076.000000,-2.290932,-1.662843,1.279492,-1.460409,1.700877,1.346134,-0.584688,0.287429,0.017096,1.153721,-0.234140,-0.183538,1.098021,-0.060320,1.934858,37.638897,-23.948563,-2.979860,0.315336,2.033492,-0.163102,0.000000,0.000000,0.000000,0.000000,0.000000,0.000000
12837077.000000,-2.290646,-1.662829,1.280620,-1.460657,1.700701,1.347256,-0.584738,0.285050,0.016466,1.147016,-0.237646,-0.178520,1.104129,-0.059213,1.962629,37.591290,-23.896988,-2.634706,0.279630,1.949264,-0.169511,0.000000,0.000000,0.000000,0.000000,0.000000,0.000000
12837078.000000,-2.290353,-1.662810,1.281754,-1.460911,1.700526,1.348375,-0.584786,0.285610,0.016802,1.132927,-0.243291,-0.178968,1.099385,-0.057274,1.887250,37.515911,-23.678787,-2.261781,0.344633,1.884261,-0.202470,0.000000,0.000000,0.000000,0.000000,0.000000,0.000000
12837079.000000,-2.290072,-1.662796,1.282883,-1.461150,1.700349,1.349475,-0.584847,0.286710,0.014719,1.147498,-0.243070,-0.178066,1.093135,-0.059884,1.887250,37.539715,-23.258255,-2.063417,0.369352,1.825668,-0.130143,0.000000,0.000000,0.000000,0.000000,0.000000,0.000000
12837080.000000,-2.289794,-1.662779,1.284006,-1.461389,1.700172,1.350592,-0.584896,0.282781,0.014938,1.144999,-0.239602,-0.177906,1.093912,-0.053993,1.934858,37.492107,-23.111465,-1.892824,0.428861,1.779891,-0.136552,0.000000,0.000000,0.000000,0.000000,0.000000,0.000000
12837081.000000,-2.289522,-1.662768,1.285144,-1.461610,1.700013,1.351682,-0.584943,0.281205,0.013502,1.136086,-0.237693,-0.173661,1.114316,-0.047108,2.010236,37.515911,-23.016251,-1.940431,0.374845,1.806442,-0.208878,0.000000,0.000000,0.000000,0.000000,0.000000,0.000000
12837082.000000,-2.289263,-1.662754,1.286262,-1.461837,1.699848,1.352807,-0.585002,0.275567,0.014243,1.132123,-0.233922,-0.170607,1.122155,-0.051609,2.208601,37.468304,-22.841690,-1.992006,0.327238,1.695663,-0.155778,0.000000,0.000000,0.000000,0.000000,0.000000,0.000000
12837083.000000,-2.288995,-1.662741,1.287398,-1.462060,1.699670,1.353919,-0.585052,0.273497,0.013658,1.133801,-0.228653,-0.169362,1.114307,-0.047184,2.331586,37.468304,-22.770279,-2.063417,0.386747,1.662704,-0.182328,0.000000,0.000000,0.000000,0.000000,0.000000,0.000000
12837084.000000,-2.288724,-1.662734,1.288544,-1.462282,1.699504,1.355019,-0.585102,0.272055,0.011624,1.133909,-0.224062,-0.164694,1.108452,-0.049596,2.307783,37.539715,-22.841690,-2.015810,0.386747,1.708480,-0.182328,0.000000,0.000000,0.000000,0.000000,0.000000,0.000000
12837085.000000,-2.288455,-1.662723,1.289675,-1.462510,1.699343,1.356124,-0.585155,0.272885,0.011826,1.132161,-0.225299,-0.161618,1.093432,-0.052124,2.331586,37.539715,-22.917068,-1.892824,0.386747,1.779891,-0.163102,0.000000,0.000000,0.000000,0.000000,0.000000,0.000000
12837086.000000,-2.288174,-1.662720,1.290811,-1.462728,1.699180,1.357240,-0.585208,0.274910,0.006588,1.126745,-0.221111,-0.160188,1.102439,-0.048361,2.160993,37.638897,-22.917068,-1.869020,0.422452,1.689254,-0.163102,0.000000,0.000000,0.000000,0.000000,0.000000,0.000000
12837087.000000,-2.287908,-1.662709,1.291922,-1.462947,1.699023,1.358376,-0.585259,0.273425,0.008307,1.123967,-0.220660,-0.157477,1.104460,-0.050976,2.109418,37.638897,-22.841690,-1.841249,0.410551,1.481429,-0.149369,0.000000,0.000000,0.000000,0.000000,0.000000,0.000000
12837088.000000,-2.287638,-1.662698,1.293054,-1.463154,1.698870,1.359499,-0.585304,0.271936,0.009553,1.121603,-0.213958,-0.155324,1.107049,-0.045644,2.034040,37.638897,-22.865494,-1.892824,0.393156,1.474105,-0.202470,0.000000,0.000000,0.000000,0.000000,0.000000,0.000000
12837089.000000,-2.287371,-1.662687,1.294179,-1.463362,1.698717,1.360587,-0.585354,0.271444,0.010978,1.117904,-0.213967,-0.153989,1.093094,-0.045012,1.962629,37.615093,-22.694901,-1.940431,0.356534,1.637069,-0.169511,0.000000,0.000000,0.000000,0.000000,0.000000,0.000000
12837090.000000,-2.287097,-1.662677,1.295270,-1.463565,1.698559,1.361693,-0.585398,0.272040,0.011413,1.113304,-0.210492,-0.152032,1.098071,-0.041987,1.835676,37.615093,-22.302139,-2.015810,0.327238,1.727706,-0.202470,0.000000,0.000000,0.000000,0.000000,0.000000,0.000000
12837091.000000,-2.286828,-1.662669,1.296389,-1.463769,1.698390,1.362812,-0.585448,0.271736,0.007458,1.107755,-0.206327,-0.155184,1.116467,-0.042936,1.740461,37.662701,-22.179153,-2.039613,0.416959,1.793624,-0.149369,0.000000,0.000000,0.000000,0.000000,0.000000,0.000000
12837092.000000,-2.286561,-1.662652,1.297505,-1.463964,1.698240,1.363918,-0.585489,0.265905,0.011060,1.134409,-0.203764,-0.152067,1.122623,-0.044325,1.613508,37.567486,-22.230728,-2.039613,0.362943,1.747848,-0.202470,0.000000,0.000000,0.000000,0.000000,0.000000,0.000000
12837093.000000,-2.286290,-1.662632,1.298649,-1.464164,1.698090,1.365043,-0.585535,0.265071,0.014777,1.141199,-0.200624,-0.145190,1.119599,-0.043284,1.442914,37.420696,-22.500504,-2.015810,0.303434,1.662704,-0.188737,0.000000,0.000000,0.000000,0.000000,0.000000,0.000000
12837094.000000,-2.286027,-1.662618,1.299807,-1.464357,1.697933,1.366144,-0.585587,0.269241,0.015102,1.139860,-0.193587,-0.148689,1.111857,-0.043840,1.292158,37.369122,-22.940872,-2.063417,0.351041,1.591293,-0.136552,0.000000,0.000000,0.000000,0.000000,0.000000,0.000000
12837095.000000,-2.285763,-1.662605,1.300942,-1.464547,1.697783,1.367256,-0.585625,0.267839,0.014690,1.139108,-0.189986,-0.149593,1.093946,-0.040155,1.268354,37.345318,-23.258255,-2.114992,0.356534,1.597701,-0.196061,0.000000,0.000000,0.000000,0.000000,0.000000,0.000000
12837096.000000,-2.285492,-1.662598,1.302103,-1.464733,1.697636,1.368356,-0.585674,0.269058,0.012036,1.147611,-0.187999,-0.150524,1.090861,-0.041376,1.145368,37.420696,-23.702591,-2.138796,0.369352,1.708480,-0.149369,0.000000,0.000000,0.000000,0.000000,0.000000,0.000000
12837097.000000,-2.285236,-1.662589,1.303249,-1.464909,1.697485,1.369435,-0.585719,0.264800,0.011450,1.143612,-0.184275,-0.151464,1.077807,-0.040984,1.121564,37.444500,-23.920792,-2.261781,0.369352,1.923629,-0.136552,0.000000,0.000000,0.000000,0.000000,0.000000,0.000000
12837098.000000,-2.284974,-1.662581,1.304380,-1.465087,1.697331,1.370539,-0.585755,0.261444,0.011111,1.139842,-0.182142,-0.150802,1.077329,-0.037885,1.069990,37.468304,-24.071548,-2.360964,0.351041,1.909896,-0.196061,0.000000,0.000000,0.000000,0.000000,0.000000,0.000000
12837099.000000,-2.284701,-1.662574,1.305510,-1.465256,1.697178,1.371637,-0.585800,0.264025,0.010290,1.130869,-0.178426,-0.150433,1.091622,-0.038611,0.847822,37.515911,-24.043777,-2.436342,0.339139,1.916305,-0.182328,0.000000,0.000000,0.000000,0.000000,0.000000,0.000000
12837100.000000,-2.284450,-1.662573,1.306619,-1.465422,1.697027,1.372722,-0.585840,0.258268,0.004974,1.127339,-0.175707,-0.145851,1.097870,-0.038641,0.796247,37.638897,-23.873184,-2.511720,0.344633,1.897079,-0.175919,0.000000,0.000000,0.000000,0.000000,0.000000,0.000000
12837101.000000,-2.284181,-1.662572,1.307746,-1.465589,1.696878,1.373815,-0.585885,0.263337,0.000625,1.122640,-0.172159,-0.144079,1.092888,-0.043828,0.601850,37.785686,-23.651016,-2.460146,0.369352,1.890670,-0.155778,0.000000,0.000000,0.000000,0.000000,0.000000,0.000000
12837102.000000,-2.283921,-1.662576,1.308866,-1.465746,1.696726,1.374895,-0.585924,0.262456,0.000046,1.116867,-0.171352,-0.146294,1.087996,-0.041033,0.474897,37.956280,-23.258255,-2.511720,0.381254,1.923629,-0.188737,0.000000,0.000000,0.000000,0.000000,0.000000,0.000000
12837103.000000,-2.283663,-1.662576,1.309975,-1.465912,1.696579,1.375996,-0.585967,0.259612,-0.001616,1.114784,-0.167267,-0.147674,1.084374,-0.041250,0.427289,38.055462,-23.063858,-2.460146,0.393156,1.819259,-0.163102,0.000000,0.000000,0.000000,0.000000,0.000000,0.000000
12837104.000000,-2.283402,-1.662571,1.311101,-1.466066,1.696441,1.377113,-0.586007,0.256807,-0.001129,1.112210,-0.160622,-0.141365,1.093031,-0.040784,0.304304,38.079266,-22.940872,-2.559328,0.327238,1.532699,-0.149369,0.000000,0.000000,0.000000,0.000000,0.000000,0.000000
12837105.000000,-2.283156,-1.662575,1.312208,-1.466209,1.696298,1.378235,-0.586044,0.252600,-0.000113,1.113871,-0.157611,-0.142718,1.094721,-0.038221,0.276533,38.202251,-22.770279,-2.706117,0.291532,1.337692,-0.196061,0.000000,0.000000,0.000000,0.000000,0.000000,0.000000
12837106.000000,-2.282910,-1.662575,1.313339,-1.466347,1.696145,1.379351,-0.586087,0.248251,-0.001293,1.120920,-0.150155,-0.146552,1.093956,-0.039725,0.276533,38.277630,-22.794083,-2.904482,0.332731,1.324874,-0.155778,0.000000,0.000000,0.000000,0.000000,0.000000,0.000000
12837107.000000,-2.282671,-1.662566,1.314467,-1.466480,1.695998,1.380449,-0.586123,0.245521,0.003443,1.114441,-0.142485,-0.147701,1.103904,-0.038123,0.276533,38.249859,-22.742508,-3.126650,0.320829,1.546432,-0.188737,0.000000,0.000000,0.000000,0.000000,0.000000,0.000000
12837108.000000,-2.282427,-1.662570,1.315580,-1.466619,1.695847,1.381531,-0.586165,0.246534,0.001109,1.114074,-0.142407,-0.150277,1.097715,-0.039321,0.276533,38.325237,-22.770279,-3.249635,0.374845,1.735030,-0.155778,0.000000,0.000000,0.000000,0.000000,0.000000,0.000000
12837109.000000,-2.282180,-1.662567,1.316697,-1.466744,1.695708,1.382644,-0.586199,0.247959,0.001729,1.111846,-0.136151,-0.146079,1.119423,-0.037552,0.252729,38.301434,-22.718704,-3.499574,0.381254,1.754256,-0.188737,0.000000,0.000000,0.000000,0.000000,0.000000,0.000000
12837110.000000,-2.281934,-1.662558,1.317807,-1.466870,1.695576,1.383755,-0.586242,0.245794,0.004354,1.125336,-0.132504,-0.140378,1.122093,-0.039156,0.105939,38.178448,-22.817886,-3.598757,0.327238,1.689254,-0.149369,0.000000,0.000000,0.000000,0.000000,0.000000,0.000000
12837111.000000,-2.281675,-1.662550,1.318930,-1.467005,1.695441,1.384871,-0.586278,0.250390,0.006023,1.118064,-0.132720,-0.136930,1.119376,-0.037996,-0.191607,38.055462,-22.841690,-3.547182,0.285123,1.682845,-0.175919,0.000000,0.000000,0.000000,0.000000,0.000000,0.000000
12837112.000000,-2.281425,-1.662545,1.320045,-1.467121,1.695318,1.385967,-0.586314,0.257454,0.005869,1.117291,-0.124194,-0.132774,1.123024,-0.037192,-0.441546,37.984051,-22.694901,-3.646364,0.201810,1.695663,-0.196061,0.000000,0.000000,0.000000,0.000000,0.000000,0.000000
12837113.000000,-2.281169,-1.662545,1.321140,-1.467253,1.695188,1.387073,-0.586359,0.258613,0.004049,1.108389,-0.128072,-0.128116,1.107171,-0.039654,-0.735125,37.984051,-22.524307,-3.523378,0.201810,1.735030,-0.136552,0.000000,0.000000,0.000000,0.000000,0.000000,0.000000
12837114.000000,-2.280921,-1.662541,1.322250,-1.467376,1.695053,1.388178,-0.586386,0.256961,0.004009,1.103520,-0.123492,-0.131048,1.099248,-0.036626,-0.933489,37.932476,-22.377518,-3.547182,0.243009,1.767074,-0.202470,0.000000,0.000000,0.000000,0.000000,0.000000,0.000000
12837115.000000,-2.280675,-1.662536,1.323386,-1.467493,1.694923,1.389281,-0.586428,0.254902,0.003863,1.112874,-0.119576,-0.130279,1.096115,-0.038453,-1.084246,37.884869,-22.548111,-3.622560,0.189908,1.747848,-0.163102,0.000000,0.000000,0.000000,0.000000,0.000000,0.000000
12837116.000000,-2.280439,-1.662523,1.324500,-1.467601,1.694791,1.390389,-0.586459,0.249549,0.006624,1.115752,-0.114335,-0.130613,1.089280,-0.032267,-1.084246,37.714275,-22.742508,-3.797121,0.166105,1.754256,-0.196061,0.000000,0.000000,0.000000,0.000000,0.000000,0.000000
12837117.000000,-2.280194,-1.662523,1.325651,-1.467709,1.694657,1.391507,-0.586493,0.246473,0.004459,1.120317,-0.112039,-0.133242,1.107265,-0.033558,-1.231036,37.714275,-23.163040,-3.920107,0.219205,1.695663,-0.202470,0.000000,0.000000,0.000000,0.000000,0.000000,0.000000
12837118.000000,-2.279961,-1.662520,1.326785,-1.467817,1.694525,1.392597,-0.586529,0.241140,0.006156,1.129341,-0.108827,-0.133928,1.104390,-0.035666,-1.254840,37.714275,-23.579605,-3.991518,0.249418,1.689254,-0.175919,0.000000,0.000000,0.000000,0.000000,0.000000,0.000000
12837119.000000,-2.279723,-1.662523,1.327930,-1.467918,1.694393,1.393682,-0.586567,0.238461,0.003277,1.132598,-0.104055,-0.130833,1.094221,-0.036396,-1.330218,37.761883,-24.019974,-4.118471,0.297025,1.865035,-0.169511,0.000000,0.000000,0.000000,0.000000,0.000000,0.000000
12837120.000000,-2.279497,-1.662526,1.329084,-1.468024,1.694268,1.394749,-0.586600,0.232318,0.000730,1.135837,-0.103500,-0.125404,1.090201,-0.037188,-1.354022,37.833294,-24.365128,-4.166078,0.273221,2.014266,-0.155778,0.000000,0.000000,0.000000,0.000000,0.000000,0.000000
12837121.000000,-2.279264,-1.662537,1.330210,-1.468133,1.694141,1.395844,-0.586629,0.233188,-0.003435,1.135852,-0.103828,-0.125821,1.087443,-0.036052,-1.480975,38.007854,-24.488113,-4.166078,0.249418,2.027084,-0.188737,0.000000,0.000000,0.000000,0.000000,0.000000,0.000000
12837122.000000,-2.279027,-1.662546,1.331345,-1.468238,1.694015,1.396935,-0.586664,0.236907,-0.005046,1.129255,-0.106484,-0.127621,1.092984,-0.033497,-1.603961,38.130840,-24.535721,-4.189882,0.249418,1.942855,-0.142960,0.000000,0.000000,0.000000,0.000000,0.000000,0.000000
12837123.000000,-2.278790,-1.662552,1.332449,-1.468343,1.693896,1.398031,-0.586693,0.238875,-0.005501,1.124524,-0.107038,-0.126702,1.086397,-0.033634,-1.802325,38.226055,-24.341324,-4.142274,0.195402,1.877853,-0.169511,0.000000,0.000000,0.000000,0.000000,0.000000,0.000000
12837124.000000,-2.278558,-1.662559,1.333571,-1.468454,1.693778,1.399122,-0.586724,0.231046,-0.005919,1.117794,-0.108168,-0.122451,1.081295,-0.033773,-1.925311,38.325237,-24.119156,-4.019289,0.166105,1.942855,-0.196061,0.000000,0.000000,0.000000,0.000000,0.000000,0.000000
12837125.000000,-2.278323,-1.662568,1.334691,-1.468553,1.693642,1.400192,-0.586761,0.230911,-0.006215,1.115803,-0.107399,-0.127510,1.093912,-0.032370,-2.147479,38.424419,-23.825577,-3.991518,0.219205,1.995040,-0.136552,0.000000,0.000000,0.000000,0.000000,0.000000,0.000000
12837126.000000,-2.278096,-1.662577,1.335782,-1.468654,1.693509,1.401288,-0.586782,0.228007,-0.006889,1.105262,-0.103912,-0.130398,1.092472,-0.030939,-2.246661,38.543438,-23.432816,-3.967714,0.273221,1.995040,-0.208878,0.000000,0.000000,0.000000,0.000000,0.000000,0.000000
12837127.000000,-2.277876,-1.662583,1.336907,-1.468747,1.693380,1.402392,-0.586821,0.220863,-0.006327,1.101745,-0.099545,-0.127242,1.108174,-0.030506,-2.270464,38.618816,-23.333633,-4.019289,0.308927,1.936446,-0.142960,0.000000,0.000000,0.000000,0.000000,0.000000,0.000000
12837128.000000,-2.277665,-1.662590,1.338005,-1.468833,1.693264,1.403492,-0.586850,0.215489,-0.005867,1.124499,-0.094166,-0.120812,1.110038,-0.031782,-2.270464,38.690228,-23.135269,-4.166078,0.231107,1.806442,-0.155778,0.000000,0.000000,0.000000,0.000000,0.000000,0.000000
12837129.000000,-2.277457,-1.662596,1.339140,-1.468924,1.693143,1.404601,-0.586873,0.211843,-0.005658,1.122463,-0.091935,-0.114168,1.105794,-0.026539,-2.171282,38.765606,-23.309830,-4.241457,0.225614,1.689254,-0.208878,0.000000,0.000000,0.000000,0.000000,0.000000,0.000000
12837130.000000,-2.277240,-1.662605,1.340256,-1.469008,1.693019,1.405683,-0.586911,0.217875,-0.009694,1.114700,-0.090013,-0.115001,1.108747,-0.027962,-2.199053,38.888592,-23.163040,-4.340639,0.255826,1.662704,-0.122819,0.000000,0.000000,0.000000,0.000000,0.000000,0.000000
12837131.000000,-2.277030,-1.662614,1.341378,-1.469102,1.692903,1.406775,-0.586936,0.216662,-0.008935,1.123670,-0.089293,-0.113260,1.101673,-0.024102,-2.199053,38.983807,-23.357437,-4.289064,0.225614,1.708480,-0.163102,0.000000,0.000000,0.000000,0.000000,0.000000,0.000000
12837132.000000,-2.276820,-1.662622,1.342499,-1.469186,1.692786,1.407868,-0.586967,0.213222,-0.007904,1.115618,-0.088804,-0.113386,1.093913,-0.028308,-2.222857,39.059185,-23.409012,-4.312868,0.225614,1.754256,-0.142960,0.000000,0.000000,0.000000,0.000000,0.000000,0.000000
12837133.000000,-2.276606,-1.662628,1.343625,-1.469270,1.692673,1.408960,-0.586992,0.216121,-0.006521,1.111436,-0.086843,-0.112759,1.095276,-0.029400,-2.345843,39.106792,-23.456619,-4.312868,0.201810,1.721298,-0.175919,0.000000,0.000000,0.000000,0.000000,0.000000,0.000000
12837134.000000,-2.276401,-1.662635,1.344730,-1.469347,1.692551,1.410065,-0.587021,0.211908,-0.005658,1.113581,-0.084732,-0.118027,1.091244,-0.032726,-2.345843,39.158367,-23.456619,-4.340639,0.207303,1.649886,-0.142960,0.000000,0.000000,0.000000,0.000000,0.000000,0.000000
12837135.000000,-2.276195,-1.662640,1.345830,-1.469418,1.692432,1.411163,-0.587045,0.207358,-0.003849,1.106674,-0.078659,-0.117390,1.099344,-0.027992,-2.397418,39.158367,-23.286026,-4.439821,0.219205,1.708480,-0.175919,0.000000,0.000000,0.000000,0.000000,0.000000,0.000000
12837136.000000,-2.275994,-1.662646,1.346925,-1.469489,1.692312,1.412245,-0.587066,0.204171,-0.003181,1.104499,-0.078393,-0.116624,1.098485,-0.024350,-2.468829,39.182171,-23.163040,-4.487428,0.231107,1.727706,-0.215287,0.000000,0.000000,0.000000,0.000000,0.000000,0.000000
12837137.000000,-2.275787,-1.662651,1.348021,-1.469563,1.692190,1.413338,-0.587097,0.207537,-0.002721,1.098926,-0.076250,-0.123332,1.087842,-0.025329,-2.544207,39.205975,-22.893265,-4.463624,0.285123,1.786300,-0.155778,0.000000,0.000000,0.000000,0.000000,0.000000,0.000000
12837138.000000,-2.275583,-1.662647,1.349141,-1.469635,1.692068,1.414421,-0.587121,0.207211,0.000473,1.102148,-0.075186,-0.122511,1.090838,-0.022389,-2.619586,39.106792,-22.988480,-4.439821,0.339139,1.773483,-0.188737,0.000000,0.000000,0.000000,0.000000,0.000000,0.000000
12837139.000000,-2.275384,-1.662640,1.350255,-1.469710,1.691961,1.415533,-0.587148,0.201891,0.003168,1.108829,-0.077104,-0.122495,1.098473,-0.023304,-2.619586,38.983807,-23.186844,-4.412050,0.267728,1.662704,-0.142960,0.000000,0.000000,0.000000,0.000000,0.000000,0.000000
12837140.000000,-2.275189,-1.662635,1.351397,-1.469784,1.691853,1.416634,-0.587173,0.195772,0.003764,1.111384,-0.076215,-0.117938,1.102922,-0.026513,-2.643389,38.912395,-23.579605,-4.364442,0.201810,1.519881,-0.149369,0.000000,0.000000,0.000000,0.000000,0.000000,0.000000
12837141.000000,-2.275000,-1.662630,1.352521,-1.469857,1.691740,1.417729,-0.587191,0.193498,0.004259,1.115143,-0.076532,-0.116901,1.094506,-0.023378,-2.619586,38.837017,-23.948563,-4.265260,0.183500,1.507064,-0.182328,0.000000,0.000000,0.000000,0.000000,0.000000,0.000000
12837142.000000,-2.274820,-1.662634,1.353671,-1.469919,1.691626,1.418822,-0.587221,0.185462,0.001622,1.124126,-0.069617,-0.115810,1.085222,-0.024553,-2.492632,38.888592,-24.436539,-4.340639,0.171598,1.624252,-0.122819,0.000000,0.000000,0.000000,0.000000,0.000000,0.000000
12837143.000000,-2.274639,-1.662634,1.354819,-1.469982,1.691511,1.419877,-0.587240,0.184896,0.001631,1.126465,-0.069480,-0.116576,1.085751,-0.021249,-2.445025,38.864788,-24.781693,-4.340639,0.201810,1.974899,-0.169511,0.000000,0.000000,0.000000,0.000000,0.000000,0.000000
12837144.000000,-2.274463,-1.662635,1.355935,-1.470040,1.691396,1.420957,-0.587262,0.180667,0.000524,1.127800,-0.068230,-0.115867,1.077251,-0.021428,-2.345843,38.888592,-24.952286,-4.388246,0.213712,2.235824,-0.149369,0.000000,0.000000,0.000000,0.000000,0.000000,0.000000
12837145.000000,-2.274287,-1.662640,1.357058,-1.470093,1.691276,1.422061,-0.587279,0.178069,-0.000768,1.122802,-0.063782,-0.117971,1.073875,-0.018519,-2.270464,38.936199,-25.003860,-4.463624,0.255826,2.248641,-0.208878,0.000000,0.000000,0.000000,0.000000,0.000000,0.000000
12837146.000000,-2.274106,-1.662637,1.358194,-1.470151,1.691161,1.423153,-0.587307,0.178092,0.001155,1.142071,-0.059647,-0.115728,1.079589,-0.021438,-2.270464,38.864788,-25.126846,-4.463624,0.231107,2.144271,-0.136552,0.000000,0.000000,0.000000,0.000000,0.000000,0.000000
12837147.000000,-2.273928,-1.662638,1.359290,-1.470217,1.691043,1.424252,-0.587323,0.178273,0.000767,1.129287,-0.062567,-0.110054,1.078270,-0.018236,-2.298235,38.864788,-24.857071,-4.312868,0.219205,2.060043,-0.202470,0.000000,0.000000,0.000000,0.000000,0.000000,0.000000
12837148.000000,-2.273744,-1.662638,1.360410,-1.470287,1.690926,1.425332,-0.587343,0.182144,0.000510,1.119215,-0.063977,-0.112079,1.080699,-0.018505,-2.397418,38.864788,-24.706314,-4.066896,0.255826,1.988631,-0.202470,0.000000,0.000000,0.000000,0.000000,0.000000,0.000000
12837149.000000,-2.273571,-1.662643,1.361502,-1.470355,1.690805,1.426424,-0.587368,0.179128,-0.004470,1.108419,-0.066367,-0.114337,1.079936,-0.025128,-2.468829,38.936199,-24.365128,-3.868532,0.315336,1.962081,-0.155778,0.000000,0.000000,0.000000,0.000000,0.000000,0.000000
12837150.000000,-2.273405,-1.662649,1.362619,-1.470416,1.690693,1.427511,-0.587387,0.176332,-0.004356,1.110035,-0.064613,-0.118565,1.073482,-0.026983,-2.397418,38.983807,-24.166763,-3.797121,0.315336,1.974899,-0.188737,0.000000,0.000000,0.000000,0.000000,0.000000,0.000000
12837151.000000,-2.273244,-1.662649,1.363735,-1.470469,1.690592,1.428593,-0.587411,0.170956,-0.001988,1.104176,-0.061485,-0.113351,1.065179,-0.026491,-2.298235,38.936199,-24.019974,-3.820925,0.195402,1.949264,-0.149369,0.000000,0.000000,0.000000,0.000000,0.000000,0.000000
12837152.000000,-2.273101,-1.662653,1.364838,-1.470515,1.690485,1.429699,-0.587426,0.165747,-0.005086,1.105248,-0.054397,-0.106523,1.068987,-0.023026,-2.024493,38.960003,-23.972366,-3.943910,0.129484,1.851302,-0.188737,0.000000,0.000000,0.000000,0.000000,0.000000,0.000000
12837153.000000,-2.272954,-1.662656,1.365959,-1.470559,1.690374,1.430805,-0.587449,0.160742,-0.006927,1.107409,-0.051718,-0.109929,1.091968,-0.023256,-1.802325,38.960003,-23.996170,-4.090700,0.154203,1.793624,-0.155778,0.000000,0.000000,0.000000,0.000000,0.000000,0.000000
12837154.000000,-2.272808,-1.662659,1.367063,-1.470601,1.690267,1.431884,-0.587466,0.156069,-0.005713,1.106252,-0.047757,-0.105170,1.086584,-0.021339,-1.679339,38.983807,-24.043777,-4.213686,0.129484,1.825668,-0.175919,0.000000,0.000000,0.000000,0.000000,0.000000,0.000000
12837155.000000,-2.272665,-1.662658,1.368185,-1.470651,1.690153,1.432966,-0.587485,0.155061,-0.003099,1.100982,-0.047884,-0.110072,1.079846,-0.020501,-1.528582,38.936199,-24.166763,-4.189882,0.189908,1.974899,-0.182328,0.000000,0.000000,0.000000,0.000000,0.000000,0.000000
12837156.000000,-2.272516,-1.662660,1.369310,-1.470702,1.690035,1.434054,-0.587504,0.153745,-0.001812,1.104838,-0.047168,-0.113965,1.085491,-0.021151,-1.480975,38.912395,-24.289749,-4.090700,0.273221,1.930038,-0.155778,0.000000,0.000000,0.000000,0.000000,0.000000,0.000000
12837157.000000,-2.272366,-1.662666,1.370398,-1.470749,1.689917,1.435167,-0.587518,0.153773,-0.002549,1.099277,-0.048450,-0.115572,1.089297,-0.019295,-1.480975,38.960003,-24.166763,-4.019289,0.320829,1.767074,-0.188737,0.000000,0.000000,0.000000,0.000000,0.000000,0.000000
12837158.000000,-2.272222,-1.662666,1.371508,-1.470796,1.689809,1.436265,-0.587536,0.152192,-0.000756,1.095383,-0.047164,-0.114604,1.096750,-0.021192,-1.429400,38.912395,-24.119156,-3.920107,0.315336,1.617843,-0.136552,0.000000,0.000000,0.000000,0.000000,0.000000,0.000000
12837159.000000,-2.272077,-1.662664,1.372597,-1.470838,1.689706,1.437358,-0.587548,0.149754,-0.001880,1.096442,-0.047755,-0.112435,1.085416,-0.018917,-1.453204,38.837017,-24.019974,-3.868532,0.261320,1.643478,-0.182328,0.000000,0.000000,0.000000,0.000000,0.000000,0.000000
12837160.000000,-2.271939,-1.662664,1.373690,-1.470884,1.689603,1.438446,-0.587565,0.146338,-0.000486,1.092327,-0.049202,-0.106669,1.073572,-0.019423,-1.429400,38.789410,-23.825577,-3.769350,0.225614,1.773483,-0.169511,0.000000,0.000000,0.000000,0.000000,0.000000,0.000000
12837161.000000,-2.271806,-1.662666,1.374787,-1.470923,1.689498,1.439526,-0.587578,0.142430,-0.001141,1.091491,-0.046310,-0.109404,1.076693,-0.018774,-1.354022,38.813213,-23.579605,-3.721742,0.243009,1.871444,-0.182328,0.000000,0.000000,0.000000,0.000000,0.000000,0.000000
12837162.000000,-2.271670,-1.662672,1.375877,-1.470956,1.689395,1.440624,-0.587592,0.140450,-0.002162,1.092962,-0.041201,-0.109804,1.072553,-0.019530,-1.306414,38.864788,-23.555801,-3.797121,0.231107,1.930038,-0.163102,0.000000,0.000000,0.000000,0.000000,0.000000,0.000000
12837163.000000,-2.271544,-1.662663,1.376997,-1.470997,1.689298,1.441733,-0.587602,0.134291,0.001846,1.094531,-0.038774,-0.105524,1.080452,-0.013666,-1.183428,38.717999,-23.801773,-3.697939,0.183500,1.909896,-0.188737,0.000000,0.000000,0.000000,0.000000,0.000000,0.000000
12837164.000000,-2.271418,-1.662656,1.378138,-1.471037,1.689200,1.442829,-0.587615,0.133806,0.003441,1.127602,-0.036294,-0.101709,1.086646,-0.009798,-1.108050,38.618816,-24.190567,-3.622560,0.154203,1.832076,-0.202470,0.000000,0.000000,0.000000,0.000000,0.000000,0.000000
12837165.000000,-2.271293,-1.662658,1.379259,-1.471073,1.689096,1.443938,-0.587635,0.129626,0.002212,1.127600,-0.033762,-0.102698,1.087005,-0.010617,-1.008868,38.618816,-24.611099,-3.570986,0.219205,1.727706,-0.116410,0.000000,0.000000,0.000000,0.000000,0.000000,0.000000
12837166.000000,-2.271177,-1.662657,1.380387,-1.471110,1.688994,1.445017,-0.587641,0.127900,0.001413,1.126827,-0.035845,-0.106825,1.092004,-0.005309,-0.862078,38.618816,-25.003860,-3.475771,0.261320,1.786300,-0.182328,0.000000,0.000000,0.000000,0.000000,0.000000,0.000000
12837167.000000,-2.271059,-1.662662,1.381500,-1.471139,1.688890,1.446099,-0.587656,0.123128,-0.000775,1.129710,-0.035174,-0.109438,1.081855,-0.005265,-0.786700,38.690228,-25.249832,-3.475771,0.303434,1.890670,-0.149369,0.000000,0.000000,0.000000,0.000000,0.000000,0.000000
12837168.000000,-2.270941,-1.662664,1.382623,-1.471168,1.688785,1.447176,-0.587670,0.121023,-0.000551,1.128418,-0.032370,-0.110075,1.080316,-0.008827,-0.663714,38.690228,-25.396622,-3.448000,0.320829,2.033492,-0.142960,0.000000,0.000000,0.000000,0.000000,0.000000,0.000000
12837169.000000,-2.270826,-1.662669,1.383744,-1.471197,1.688689,1.448251,-0.587675,0.121366,-0.002157,1.119582,-0.031052,-0.109388,1.069890,-0.009626,-0.612139,38.765606,-25.420425,-3.400392,0.273221,2.047225,-0.188737,0.000000,0.000000,0.000000,0.000000,0.000000,0.000000
12837170.000000,-2.270713,-1.662678,1.384836,-1.471226,1.688586,1.449349,-0.587694,0.118153,-0.004334,1.111425,-0.030591,-0.109172,1.069383,-0.013785,-0.540728,38.888592,-25.222061,-3.325014,0.237516,1.930038,-0.142960,0.000000,0.000000,0.000000,0.000000,0.000000,0.000000
12837171.000000,-2.270589,-1.662678,1.385934,-1.471258,1.688483,1.450419,-0.587698,0.115801,-0.002904,1.101189,-0.031280,-0.106593,1.071198,-0.012784,-0.612139,38.888592,-24.928482,-3.202028,0.261320,1.936446,-0.202470,0.000000,0.000000,0.000000,0.000000,0.000000,0.000000
12837172.000000,-2.270476,-1.662687,1.387025,-1.471292,1.688378,1.451504,-0.587708,0.115712,-0.004174,1.099542,-0.035786,-0.109701,1.078944,-0.009723,-0.635943,38.983807,-24.757889,-3.027467,0.303434,1.916305,-0.202470,0.000000,0.000000,0.000000,0.000000,0.000000,0.000000
12837173.000000,-2.270362,-1.662697,1.388119,-1.471321,1.688282,1.452592,-0.587717,0.116115,-0.005111,1.094622,-0.031867,-0.104571,1.075762,-0.007382,-0.687518,39.082989,-24.412735,-2.904482,0.267728,1.930038,-0.202470,0.000000,0.000000,0.000000,0.000000,0.000000,0.000000
12837174.000000,-2.270259,-1.662700,1.389224,-1.471351,1.688179,1.453675,-0.587728,0.113353,-0.006469,1.092531,-0.031787,-0.103907,1.083272,-0.005833,-0.612139,39.082989,-24.218338,-2.781496,0.315336,1.865035,-0.196061,0.000000,0.000000,0.000000,0.000000,0.000000,0.000000
12837175.000000,-2.270159,-1.662705,1.390309,-1.471363,1.688081,1.454782,-0.587737,0.107926,-0.005129,1.090579,-0.026080,-0.104336,1.083767,-0.004395,-0.512957,39.106792,-24.043777,-2.904482,0.267728,1.682845,-0.196061,0.000000,0.000000,0.000000,0.000000,0.000000,0.000000
12837176.000000,-2.270063,-1.662705,1.391419,-1.471375,1.687985,1.455879,-0.587743,0.102809,-0.005002,1.088445,-0.022794,-0.101189,1.094048,-0.002089,-0.366168,39.035381,-24.095352,-3.003664,0.249418,1.487838,-0.229020,0.000000,0.000000,0.000000,0.000000,0.000000,0.000000
12837177.000000,-2.269971,-1.662704,1.392518,-1.471385,1.687887,1.456976,-0.587764,0.100175,-0.005119,1.111241,-0.018162,-0.104181,1.082149,-0.009135,-0.266986,38.960003,-24.166763,-3.079042,0.237516,1.487838,-0.155778,0.000000,0.000000,0.000000,0.000000,0.000000,0.000000
12837178.000000,-2.269874,-1.662704,1.393619,-1.471391,1.687784,1.458072,-0.587770,0.096663,-0.005481,1.108599,-0.014804,-0.107473,1.072191,-0.009949,-0.243182,38.888592,-24.095352,-3.154421,0.261320,1.552840,-0.196061,0.000000,0.000000,0.000000,0.000000,0.000000,0.000000
12837179.000000,-2.269784,-1.662714,1.394722,-1.471400,1.687680,1.459145,-0.587786,0.095561,-0.008595,1.098316,-0.013607,-0.106689,1.071367,-0.009214,-0.167803,38.936199,-24.095352,-3.178224,0.315336,1.741439,-0.149369,0.000000,0.000000,0.000000,0.000000,0.000000,0.000000
12837180.000000,-2.269691,-1.662719,1.395810,-1.471407,1.687577,1.460239,-0.587794,0.094139,-0.005950,1.094933,-0.013318,-0.103593,1.070813,-0.010963,-0.167803,38.912395,-24.095352,-3.178224,0.320829,1.871444,-0.163102,0.000000,0.000000,0.000000,0.000000,0.000000,0.000000
12837181.000000,-2.269598,-1.662722,1.396907,-1.471409,1.687477,1.461350,-0.587796,0.092576,-0.003436,1.088893,-0.011822,-0.100677,1.074834,-0.006720,-0.167803,38.864788,-24.043777,-3.225832,0.273221,1.871444,-0.202470,0.000000,0.000000,0.000000,0.000000,0.000000,0.000000
12837182.000000,-2.269498,-1.662723,1.397999,-1.471410,1.687380,1.462452,-0.587812,0.094260,-0.003458,1.084087,-0.009059,-0.097885,1.083071,-0.007574,-0.290789,38.765606,-23.972366,-3.225832,0.237516,1.793624,-0.136552,0.000000,0.000000,0.000000,0.000000,0.000000,0.000000
12837183.000000,-2.269403,-1.662722,1.399076,-1.471409,1.687282,1.463557,-0.587814,0.093607,-0.003155,1.085182,-0.005716,-0.100861,1.085481,-0.007861,-0.342364,38.642620,-23.873184,-3.277406,0.207303,1.735030,-0.202470,0.000000,0.000000,0.000000,0.000000,0.000000,0.000000
