chaoyuefei/paper-gmrm-data/robot_logs/s2_dq_gmrm_xz_min_0.30_log_20260314_183044.csv
# time_ms,q_0,q_1,q_2,q_3,q_4,q_5,q_6,dq_0,dq_1,dq_2,dq_3,dq_4,dq_5,dq_6,tau_J_0,tau_J_1,tau_J_2,tau_J_3,tau_J_4,tau_J_5,tau_J_6,O_dP_EE_c_0,O_dP_EE_c_1,O_dP_EE_c_2,O_dP_EE_c_3,O_dP_EE_c_4,O_dP_EE_c_5
15706434.000000,-2.415974,-1.662589,1.042293,-1.355779,1.795724,1.080889,-0.548507,-0.000455,-0.000925,0.000837,0.000082,-0.001130,0.000002,0.000234,0.030561,41.530804,-21.052444,-5.796632,0.925077,1.312057,0.021835,0.000000,0.000000,0.000000,0.000000,0.000000,0.000000
15706435.000000,-2.415976,-1.662586,1.042291,-1.355779,1.795727,1.080889,-0.548513,-0.000303,0.000497,-0.000091,0.000055,0.000366,0.000001,-0.000827,0.030561,41.483196,-21.024673,-5.796632,0.894864,1.312057,0.048385,0.000000,0.000000,0.000000,0.000000,0.000000,0.000000
15706436.000000,-2.415975,-1.662587,1.042291,-1.355778,1.795727,1.080889,-0.548505,-0.000202,-0.000225,-0.000061,0.000593,0.000244,0.000001,0.001178,0.030561,41.507000,-21.024673,-5.820436,0.894864,1.312057,0.001693,0.000000,0.000000,0.000000,0.000000,0.000000,0.000000
15706437.000000,-2.415974,-1.662587,1.042291,-1.355778,1.795729,1.080889,-0.548510,-0.000135,-0.000150,-0.000041,0.000396,-0.000278,0.000001,-0.000198,0.030561,41.507000,-21.024673,-5.820436,0.906766,1.312057,0.028243,0.000000,0.000000,0.000000,0.000000,0.000000,0.000000
15706438.000000,-2.415966,-1.662588,1.042288,-1.355777,1.795728,1.080888,-0.548509,0.007266,-0.001492,0.005208,0.002313,-0.008220,-0.001424,-0.007849,0.252729,41.431622,-20.977066,-5.772829,0.871061,1.350509,-0.017533,0.000000,0.000000,0.000000,0.000000,0.000000,0.000000
15706439.000000,-2.415957,-1.662591,1.042291,-1.355779,1.795729,1.080878,-0.548528,0.016363,-0.001813,0.006060,0.003309,-0.007782,-0.003176,-0.015845,1.292158,41.189617,-20.929459,-5.574464,0.786832,1.532699,-0.004716,0.000000,0.000000,0.000000,0.000000,0.000000,0.000000
15706440.000000,-2.415925,-1.662593,1.042304,-1.355770,1.795728,1.080875,-0.548555,0.026273,-0.002237,0.007854,0.004917,-0.001311,-0.001875,-0.019718,2.803693,40.796856,-20.929459,-5.399904,0.655912,1.793624,-0.044083,0.000000,0.000000,0.000000,0.000000,0.000000,0.000000
15706441.000000,-2.415881,-1.662591,1.042323,-1.355777,1.795713,1.080895,-0.548597,0.029880,0.000532,0.012348,-0.001596,-0.004295,0.010076,-0.024172,4.684186,40.257305,-20.929459,-5.007143,0.601896,1.897079,-0.050492,0.000000,0.000000,0.000000,0.000000,0.000000,0.000000
15706442.000000,-2.415823,-1.662590,1.042338,-1.355791,1.795686,1.080944,-0.548658,0.032793,0.001164,0.012260,-0.008735,-0.014252,0.025309,-0.037654,6.616254,39.745525,-20.782669,-4.634218,0.632108,1.832076,-0.031266,0.000000,0.000000,0.000000,0.000000,0.000000,0.000000
15706443.000000,-2.415735,-1.662593,1.042367,-1.355823,1.795650,1.081027,-0.548727,0.045472,0.000156,0.016591,-0.016542,-0.021457,0.042399,-0.050351,8.223004,39.281353,-20.683487,-4.142274,0.661405,1.584884,-0.070634,0.000000,0.000000,0.000000,0.000000,0.000000,0.000000
15706444.000000,-2.415630,-1.662592,1.042408,-1.355865,1.795599,1.081125,-0.548823,0.058675,0.001837,0.025023,-0.029604,-0.031679,0.062216,-0.066204,9.682965,38.837017,-20.659683,-3.721742,0.703519,1.389877,-0.064225,0.000000,0.000000,0.000000,0.000000,0.000000,0.000000
15706445.000000,-2.415518,-1.662584,1.042454,-1.355916,1.795534,1.081231,-0.548946,0.076551,0.007612,0.029954,-0.040669,-0.043592,0.081231,-0.083473,10.948529,38.325237,-20.584305,-3.376589,0.745634,1.324874,-0.044083,0.000000,0.000000,0.000000,0.000000,0.000000,0.000000
15706446.000000,-2.415379,-1.662584,1.042510,-1.355980,1.795456,1.081362,-0.549080,0.091990,0.004768,0.039938,-0.052123,-0.054206,0.098171,-0.094743,11.936383,37.984051,-20.512894,-3.027467,0.698026,1.305648,-0.064225,0.000000,0.000000,0.000000,0.000000,0.000000,0.000000
15706447.000000,-2.415245,-1.662568,1.042573,-1.356053,1.795362,1.081507,-0.549237,0.105398,0.009489,0.050629,-0.057824,-0.069869,0.119235,-0.113834,12.975812,37.492107,-20.437515,-2.805300,0.596403,1.396285,-0.044083,0.000000,0.000000,0.000000,0.000000,0.000000,0.000000
15706448.000000,-2.415090,-1.662559,1.042654,-1.356138,1.795248,1.081673,-0.549396,0.119758,0.009486,0.059757,-0.067647,-0.083332,0.132181,-0.127452,13.820844,37.150921,-20.413712,-2.634706,0.530485,1.513473,-0.050492,0.000000,0.000000,0.000000,0.000000,0.000000,0.000000
15706449.000000,-2.414918,-1.662543,1.042760,-1.356240,1.795124,1.081871,-0.549568,0.136438,0.010908,0.077572,-0.081451,-0.090592,0.152570,-0.141864,14.511151,36.758160,-20.584305,-2.460146,0.393156,1.591293,-0.070634,0.000000,0.000000,0.000000,0.000000,0.000000,0.000000
15706450.000000,-2.414737,-1.662528,1.042871,-1.356358,1.794968,1.082105,-0.549753,0.147105,0.010092,0.087908,-0.091029,-0.117392,0.181033,-0.154007,15.106244,36.440777,-20.659683,-2.337160,0.339139,1.578475,-0.056901,0.000000,0.000000,0.000000,0.000000,0.000000,0.000000
15706451.000000,-2.414527,-1.662506,1.042992,-1.356490,1.794787,1.082368,-0.549935,0.165385,0.015127,0.101238,-0.104473,-0.137968,0.206997,-0.162729,15.479169,36.024212,-20.731094,-2.214174,0.398649,1.513473,-0.056901,0.000000,0.000000,0.000000,0.000000,0.000000,0.000000
15706452.000000,-2.414307,-1.662483,1.043136,-1.356644,1.794582,1.082651,-0.550124,0.187751,0.018820,0.115542,-0.121344,-0.156998,0.232860,-0.173320,15.800519,35.607647,-20.953262,-2.063417,0.446256,1.461288,-0.056901,0.000000,0.000000,0.000000,0.000000,0.000000,0.000000
15706453.000000,-2.414068,-1.662465,1.043292,-1.356811,1.794352,1.082957,-0.550308,0.204074,0.019214,0.131333,-0.138980,-0.183522,0.255051,-0.175001,16.070295,35.290264,-21.147659,-1.940431,0.566190,1.442062,-0.083451,0.000000,0.000000,0.000000,0.000000,0.000000,0.000000
15706454.000000,-2.413804,-1.662450,1.043454,-1.356994,1.794095,1.083291,-0.550499,0.222383,0.017995,0.140950,-0.153509,-0.205258,0.279703,-0.179481,16.169477,35.044292,-21.246841,-1.940431,0.625699,1.474105,-0.050492,0.000000,0.000000,0.000000,0.000000,0.000000,0.000000
15706455.000000,-2.413541,-1.662431,1.043624,-1.357195,1.793830,1.083641,-0.550684,0.235721,0.016675,0.148832,-0.165119,-0.227671,0.303885,-0.179890,16.391645,34.826092,-21.246841,-1.916628,0.589994,1.487838,-0.097184,0.000000,0.000000,0.000000,0.000000,0.000000,0.000000
15706456.000000,-2.413255,-1.662422,1.043814,-1.357397,1.793549,1.084017,-0.550873,0.247156,0.015716,0.163518,-0.177523,-0.240752,0.320389,-0.182266,16.518599,34.750713,-21.322220,-2.015810,0.578092,1.519881,-0.089860,0.000000,0.000000,0.000000,0.000000,0.000000,0.000000
15706457.000000,-2.412955,-1.662415,1.044006,-1.357629,1.793260,1.084408,-0.551063,0.265171,0.011058,0.171816,-0.194991,-0.255638,0.348473,-0.184208,16.641584,34.726910,-21.294449,-1.892824,0.464567,1.643478,-0.070634,0.000000,0.000000,0.000000,0.000000,0.000000,0.000000
15706458.000000,-2.412629,-1.662409,1.044207,-1.357885,1.792953,1.084820,-0.551246,0.283045,0.007389,0.179399,-0.216261,-0.276929,0.371012,-0.187556,16.566206,34.726910,-21.199234,-1.769838,0.339139,1.741439,-0.103593,0.000000,0.000000,0.000000,0.000000,0.000000,0.000000
15706459.000000,-2.412292,-1.662406,1.044419,-1.358150,1.792614,1.085264,-0.551434,0.297181,0.007398,0.190627,-0.231064,-0.293691,0.387116,-0.189266,16.566206,34.750713,-21.175430,-1.619081,0.356534,1.714889,-0.064225,0.000000,0.000000,0.000000,0.000000,0.000000,0.000000
15706460.000000,-2.411941,-1.662408,1.044635,-1.358433,1.792271,1.085738,-0.551615,0.315536,0.004079,0.196075,-0.244773,-0.309755,0.416132,-0.187995,16.542402,34.798321,-21.024673,-1.472292,0.339139,1.643478,-0.077042,0.000000,0.000000,0.000000,0.000000,0.000000,0.000000
15706461.000000,-2.411576,-1.662406,1.044868,-1.358728,1.791904,1.086235,-0.551792,0.328177,0.002915,0.208855,-0.259667,-0.328699,0.437681,-0.187066,16.518599,34.798321,-20.953262,-1.420717,0.386747,1.597701,-0.103593,0.000000,0.000000,0.000000,0.000000,0.000000,0.000000
15706462.000000,-2.411198,-1.662405,1.045108,-1.359040,1.791513,1.086749,-0.551974,0.341967,0.002091,0.218678,-0.274846,-0.347471,0.465584,-0.182988,16.590010,34.798321,-20.905655,-1.321535,0.464567,1.578475,-0.089860,0.000000,0.000000,0.000000,0.000000,0.000000,0.000000
15706463.000000,-2.410824,-1.662409,1.045363,-1.359354,1.791121,1.087288,-0.552161,0.351554,0.000854,0.227396,-0.286082,-0.367143,0.493389,-0.184007,16.839949,34.826092,-20.806473,-1.373109,0.488370,1.513473,-0.103593,0.000000,0.000000,0.000000,0.000000,0.000000,0.000000
15706464.000000,-2.410426,-1.662409,1.045621,-1.359684,1.790699,1.087856,-0.552338,0.363168,0.000652,0.237557,-0.301324,-0.390686,0.516249,-0.183946,17.010542,34.826092,-20.683487,-1.420717,0.554288,1.474105,-0.136552,0.000000,0.000000,0.000000,0.000000,0.000000,0.000000
15706465.000000,-2.410019,-1.662407,1.045895,-1.360035,1.790272,1.088442,-0.552525,0.376747,0.000497,0.246895,-0.314206,-0.399341,0.538908,-0.181505,17.137495,34.826092,-20.631912,-1.373109,0.512174,1.513473,-0.097184,0.000000,0.000000,0.000000,0.000000,0.000000,0.000000
15706466.000000,-2.409597,-1.662410,1.046186,-1.360402,1.789838,1.089032,-0.552703,0.388988,-0.000736,0.258802,-0.331835,-0.409762,0.550977,-0.178234,17.308088,34.873699,-20.659683,-1.321535,0.440763,1.513473,-0.103593,0.000000,0.000000,0.000000,0.000000,0.000000,0.000000
15706467.000000,-2.409157,-1.662404,1.046469,-1.360790,1.789378,1.089657,-0.552878,0.403614,0.001307,0.264647,-0.344680,-0.423124,0.569638,-0.171574,17.482649,34.798321,-20.560501,-1.099367,0.410551,1.454879,-0.097184,0.000000,0.000000,0.000000,0.000000,0.000000,0.000000
15706468.000000,-2.408713,-1.662403,1.046769,-1.361189,1.788907,1.090291,-0.553049,0.417758,0.001455,0.275228,-0.361732,-0.444406,0.589526,-0.174912,17.704817,34.774517,-20.485123,-0.952577,0.356534,1.377059,-0.116410,0.000000,0.000000,0.000000,0.000000,0.000000,0.000000
15706469.000000,-2.408253,-1.662399,1.047078,-1.361598,1.788428,1.090949,-0.553224,0.428912,0.002103,0.286365,-0.376064,-0.456231,0.602237,-0.174307,17.978559,34.726910,-20.461319,-0.754213,0.362943,1.350509,-0.097184,0.000000,0.000000,0.000000,0.000000,0.000000,0.000000
15706470.000000,-2.407779,-1.662394,1.047401,-1.362029,1.787923,1.091608,-0.553395,0.442889,0.002530,0.296696,-0.391803,-0.465885,0.626000,-0.172238,18.347517,34.679302,-20.461319,-0.532045,0.416959,1.357833,-0.110001,0.000000,0.000000,0.000000,0.000000,0.000000,0.000000
15706471.000000,-2.407298,-1.662385,1.047731,-1.362455,1.787418,1.092298,-0.553559,0.446259,0.002904,0.304495,-0.400338,-0.476289,0.643268,-0.174567,18.375288,34.627728,-20.338333,-0.532045,0.535978,1.357833,-0.130143,0.000000,0.000000,0.000000,0.000000,0.000000,0.000000
15706472.000000,-2.406811,-1.662374,1.048063,-1.362919,1.786894,1.093021,-0.553728,0.447635,0.006194,0.316695,-0.418319,-0.498230,0.667794,-0.173884,17.728621,34.580120,-20.068558,-0.555849,0.673307,1.318465,-0.116410,0.000000,0.000000,0.000000,0.000000,0.000000,0.000000
15706473.000000,-2.406333,-1.662359,1.048432,-1.363398,1.786364,1.093740,-0.553895,0.453242,0.007831,0.335227,-0.436060,-0.503901,0.684169,-0.172624,16.443220,34.433331,-19.774979,-0.805788,0.774930,1.344100,-0.122819,0.000000,0.000000,0.000000,0.000000,0.000000,0.000000
15706474.000000,-2.405853,-1.662344,1.048826,-1.363887,1.785840,1.094499,-0.554053,0.457471,0.011175,0.354675,-0.450458,-0.508412,0.699863,-0.166114,14.634137,34.187359,-19.283035,-1.174745,0.888456,1.370651,-0.149369,0.000000,0.000000,0.000000,0.000000,0.000000,0.000000
15706475.000000,-2.405380,-1.662328,1.049241,-1.364393,1.785324,1.095267,-0.554215,0.466986,0.016138,0.375306,-0.463051,-0.502441,0.717213,-0.162838,12.706037,33.822369,-18.767288,-1.595277,0.781339,1.461288,-0.130143,0.000000,0.000000,0.000000,0.000000,0.000000,0.000000
15706476.000000,-2.404925,-1.662320,1.049673,-1.364896,1.784826,1.096043,-0.554377,0.469264,0.015784,0.390581,-0.468142,-0.497958,0.730886,-0.164722,10.920758,33.477215,-18.128555,-2.138796,0.625699,1.467696,-0.122819,0.000000,0.000000,0.000000,0.000000,0.000000,0.000000
15706477.000000,-2.404470,-1.662317,1.050131,-1.365404,1.784329,1.096838,-0.554537,0.465702,0.014075,0.411675,-0.476025,-0.491324,0.747973,-0.164964,9.191022,33.183636,-17.565201,-2.511720,0.362943,1.389877,-0.149369,0.000000,0.000000,0.000000,0.000000,0.000000,0.000000
15706478.000000,-2.404027,-1.662319,1.050619,-1.365909,1.783843,1.097636,-0.554707,0.462549,0.009075,0.434957,-0.481942,-0.477819,0.760983,-0.167074,7.731061,32.913860,-17.049454,-2.833071,0.112089,1.227828,-0.116410,0.000000,0.000000,0.000000,0.000000,0.000000,0.000000
15706479.000000,-2.403567,-1.662321,1.051116,-1.366406,1.783353,1.098449,-0.554872,0.463325,0.006353,0.447921,-0.483251,-0.483178,0.767666,-0.169353,6.267133,32.596478,-16.486099,-3.079042,0.010465,0.966903,-0.070634,0.000000,0.000000,0.000000,0.000000,0.000000,0.000000
15706480.000000,-2.403108,-1.662327,1.051616,-1.366905,1.782864,1.099255,-0.555034,0.461320,0.003779,0.463163,-0.480992,-0.477914,0.780168,-0.167653,5.057111,32.302898,-15.871170,-3.301210,-0.049044,0.759078,-0.110001,0.000000,0.000000,0.000000,0.000000,0.000000,0.000000
15706481.000000,-2.402665,-1.662334,1.052132,-1.367386,1.782380,1.100016,-0.555200,0.456901,0.003732,0.478432,-0.480746,-0.488453,0.770976,-0.167829,4.140668,32.056927,-15.331619,-3.622560,0.081876,0.771896,-0.116410,0.000000,0.000000,0.000000,0.000000,0.000000,0.000000
15706482.000000,-2.402212,-1.662345,1.052624,-1.367859,1.781876,1.100782,-0.555358,0.455524,-0.000997,0.487748,-0.475594,-0.496537,0.761527,-0.163630,3.271833,31.886333,-14.645279,-3.868532,0.279630,0.850631,-0.116410,0.000000,0.000000,0.000000,0.000000,0.000000,0.000000
15706483.000000,-2.401771,-1.662356,1.053123,-1.368324,1.781394,1.101545,-0.555515,0.450229,-0.004493,0.488438,-0.468506,-0.491322,0.771739,-0.163404,2.652936,31.715740,-13.935135,-4.213686,0.327238,0.908309,-0.149369,0.000000,0.000000,0.000000,0.000000,0.000000,0.000000
15706484.000000,-2.401311,-1.662369,1.053627,-1.368786,1.780915,1.102302,-0.555678,0.454253,-0.008085,0.488214,-0.461011,-0.493901,0.767347,-0.161222,1.986432,31.592754,-13.344009,-4.289064,0.410551,0.922042,-0.122819,0.000000,0.000000,0.000000,0.000000,0.000000,0.000000
15706485.000000,-2.400848,-1.662376,1.054128,-1.369261,1.780444,1.103065,-0.555835,0.452158,-0.009400,0.492760,-0.463752,-0.484147,0.763024,-0.161824,1.391340,31.422161,-12.951248,-4.265260,0.339139,0.928451,-0.163102,0.000000,0.000000,0.000000,0.000000,0.000000,0.000000
15706486.000000,-2.400376,-1.662384,1.054642,-1.369747,1.779985,1.103810,-0.555996,0.458452,-0.007829,0.495540,-0.471543,-0.471611,0.756140,-0.159659,0.673261,31.275372,-12.606094,-3.967714,0.213712,0.922042,-0.149369,0.000000,0.000000,0.000000,0.000000,0.000000,0.000000
15706487.000000,-2.399905,-1.662385,1.055155,-1.370237,1.779526,1.104567,-0.556156,0.460887,-0.004703,0.511837,-0.477586,-0.468760,0.748807,-0.159095,0.129743,31.053204,-12.165726,-3.499574,0.135892,0.941268,-0.103593,0.000000,0.000000,0.000000,0.000000,0.000000,0.000000
15706488.000000,-2.399433,-1.662381,1.055673,-1.370720,1.779069,1.105321,-0.556310,0.464706,-0.000907,0.516631,-0.481243,-0.456473,0.770804,-0.160003,-0.413775,30.759624,-11.943558,-3.126650,0.058073,0.922042,-0.136552,0.000000,0.000000,0.000000,0.000000,0.000000,0.000000
15706489.000000,-2.398960,-1.662371,1.056198,-1.371192,1.778622,1.106080,-0.556464,0.466075,0.002842,0.515058,-0.476754,-0.455200,0.757978,-0.161415,-0.909686,30.418438,-11.673782,-2.979860,0.040677,0.882674,-0.136552,0.000000,0.000000,0.000000,0.000000,0.000000,0.000000
15706490.000000,-2.398490,-1.662353,1.056735,-1.371647,1.778159,1.106841,-0.556615,0.465514,0.007325,0.524815,-0.471478,-0.451307,0.755740,-0.154041,-1.207232,30.001873,-11.578568,-3.027467,0.064481,0.908309,-0.136552,0.000000,0.000000,0.000000,0.000000,0.000000,0.000000
15706491.000000,-2.398034,-1.662328,1.057270,-1.372095,1.777705,1.107591,-0.556774,0.463227,0.011414,0.528949,-0.459471,-0.443357,0.759825,-0.154085,-1.381793,29.537701,-11.380203,-3.154421,0.093778,0.934859,-0.110001,0.000000,0.000000,0.000000,0.000000,0.000000,0.000000
15706492.000000,-2.397560,-1.662310,1.057828,-1.372532,1.777255,1.108350,-0.556926,0.462903,0.012457,0.537527,-0.452753,-0.449695,0.750978,-0.157167,-1.603961,29.144939,-11.281021,-3.348818,0.207303,0.987045,-0.130143,0.000000,0.000000,0.000000,0.000000,0.000000,0.000000
15706493.000000,-2.397086,-1.662291,1.058383,-1.372976,1.776798,1.109100,-0.557080,0.462893,0.015697,0.546243,-0.446113,-0.447774,0.747253,-0.154322,-1.826129,28.779949,-11.158035,-3.475771,0.303434,1.077682,-0.155778,0.000000,0.000000,0.000000,0.000000,0.000000,0.000000
15706494.000000,-2.396602,-1.662270,1.058942,-1.373422,1.776358,1.109847,-0.557236,0.471309,0.018236,0.549838,-0.441946,-0.444758,0.744196,-0.149726,-2.246661,28.410992,-10.963638,-3.622560,0.339139,1.096908,-0.136552,0.000000,0.000000,0.000000,0.000000,0.000000,0.000000
15706495.000000,-2.396114,-1.662254,1.059518,-1.373863,1.775915,1.110622,-0.557383,0.479119,0.017267,0.559964,-0.439293,-0.440147,0.750351,-0.153464,-2.643389,28.165020,-10.888260,-3.598757,0.308927,0.966903,-0.169511,0.000000,0.000000,0.000000,0.000000,0.000000,0.000000
15706496.000000,-2.395633,-1.662246,1.060111,-1.374308,1.775479,1.111378,-0.557546,0.475297,0.013255,0.568681,-0.435600,-0.435093,0.752572,-0.155009,-2.988543,28.069805,-10.864456,-3.598757,0.225614,0.817672,-0.103593,0.000000,0.000000,0.000000,0.000000,0.000000,0.000000
15706497.000000,-2.395138,-1.662234,1.060708,-1.374745,1.775064,1.112143,-0.557692,0.477472,0.010794,0.576872,-0.440815,-0.425354,0.751215,-0.152133,-3.436846,27.970623,-10.793045,-3.547182,0.093778,0.727035,-0.149369,0.000000,0.000000,0.000000,0.000000,0.000000,0.000000
15706498.000000,-2.394641,-1.662225,1.061302,-1.375189,1.774637,1.112897,-0.557844,0.478105,0.011284,0.583999,-0.438879,-0.421184,0.749369,-0.152554,-3.829607,27.923016,-10.646255,-3.475771,-0.060946,0.778304,-0.130143,0.000000,0.000000,0.000000,0.000000,0.000000,0.000000
15706499.000000,-2.394154,-1.662224,1.061913,-1.375619,1.774207,1.113622,-0.557995,0.481651,0.009089,0.589497,-0.437764,-0.430953,0.743410,-0.148074,-4.079546,27.994427,-10.570877,-3.523378,-0.085665,0.960494,-0.110001,0.000000,0.000000,0.000000,0.000000,0.000000,0.000000
15706500.000000,-2.393654,-1.662216,1.062532,-1.376038,1.773788,1.114358,-0.558139,0.486059,0.007487,0.611102,-0.429698,-0.427542,0.738068,-0.145989,-4.448504,27.946819,-10.547073,-3.622560,-0.085665,1.149093,-0.182328,0.000000,0.000000,0.000000,0.000000,0.000000,0.000000
15706501.000000,-2.393155,-1.662220,1.063166,-1.376461,1.773343,1.115099,-0.558299,0.500444,0.002907,0.618316,-0.428291,-0.428213,0.741267,-0.144805,-4.845232,28.046001,-10.495499,-3.745546,0.022367,1.201278,-0.116410,0.000000,0.000000,0.000000,0.000000,0.000000,0.000000
15706502.000000,-2.392648,-1.662222,1.063805,-1.376881,1.772906,1.115841,-0.558441,0.504020,0.001001,0.621098,-0.426553,-0.434513,0.735854,-0.144882,-5.218157,28.093609,-10.471695,-3.820925,0.154203,1.201278,-0.155778,0.000000,0.000000,0.000000,0.000000,0.000000,0.000000
15706503.000000,-2.392144,-1.662223,1.064460,-1.377298,1.772479,1.116601,-0.558594,0.498970,0.000243,0.636261,-0.423811,-0.434781,0.735004,-0.146845,-5.563311,28.117413,-10.594681,-3.967714,0.189908,1.129867,-0.142960,0.000000,0.000000,0.000000,0.000000,0.000000,0.000000
15706504.000000,-2.391637,-1.662225,1.065130,-1.377729,1.772043,1.117344,-0.558746,0.500701,-0.000295,0.644274,-0.422996,-0.431524,0.738123,-0.148470,-5.960040,28.141216,-10.793045,-3.920107,0.237516,1.071273,-0.122819,0.000000,0.000000,0.000000,0.000000,0.000000,0.000000
15706505.000000,-2.391137,-1.662233,1.065799,-1.378154,1.771617,1.118088,-0.558885,0.496128,-0.002999,0.655050,-0.422884,-0.425977,0.734710,-0.142220,-6.158404,28.264202,-10.864456,-3.844728,0.219205,1.096908,-0.182328,0.000000,0.000000,0.000000,0.000000,0.000000,0.000000
15706506.000000,-2.390632,-1.662249,1.066489,-1.378570,1.771203,1.118844,-0.559040,0.494351,-0.007140,0.664942,-0.415009,-0.423040,0.755779,-0.146769,-6.332964,28.486370,-10.916031,-3.920107,0.123990,1.052047,-0.110001,0.000000,0.000000,0.000000,0.000000,0.000000,0.000000
15706507.000000,-2.390134,-1.662263,1.067180,-1.378987,1.770787,1.119580,-0.559180,0.497294,-0.008709,0.668904,-0.421356,-0.418617,0.744067,-0.149444,-6.578936,28.656963,-10.864456,-3.943910,0.064481,1.084090,-0.163102,0.000000,0.000000,0.000000,0.000000,0.000000,0.000000
15706508.000000,-2.389636,-1.662270,1.067872,-1.379389,1.770374,1.120331,-0.559334,0.495857,-0.008002,0.675553,-0.413460,-0.416162,0.745342,-0.152087,-6.701922,28.752178,-10.765274,-4.066896,0.015958,1.110641,-0.103593,0.000000,0.000000,0.000000,0.000000,0.000000,0.000000
15706509.000000,-2.389137,-1.662281,1.068585,-1.379791,1.769966,1.121062,-0.559481,0.497167,-0.008745,0.688935,-0.408592,-0.413848,0.745823,-0.151404,-6.876482,28.898968,-10.717667,-4.265260,-0.043551,1.136276,-0.110001,0.000000,0.000000,0.000000,0.000000,0.000000,0.000000
15706510.000000,-2.388634,-1.662293,1.069298,-1.380196,1.769548,1.121817,-0.559626,0.496104,-0.009246,0.694130,-0.407378,-0.418152,0.745076,-0.146417,-7.098650,29.045757,-10.471695,-4.265260,0.058073,1.090499,-0.110001,0.000000,0.000000,0.000000,0.000000,0.000000,0.000000
15706511.000000,-2.388125,-1.662305,1.070002,-1.380604,1.769122,1.122568,-0.559767,0.496706,-0.009027,0.694719,-0.408460,-0.415879,0.740691,-0.145122,-7.297015,29.168743,-10.201920,-4.289064,0.171598,1.064864,-0.169511,0.000000,0.000000,0.000000,0.000000,0.000000,0.000000
15706512.000000,-2.387617,-1.662318,1.070724,-1.381019,1.768712,1.123297,-0.559915,0.503725,-0.009442,0.695971,-0.408667,-0.427988,0.736063,-0.146584,-7.594561,29.315533,-9.908340,-4.213686,0.201810,1.039230,-0.175919,0.000000,0.000000,0.000000,0.000000,0.000000,0.000000
15706513.000000,-2.387109,-1.662323,1.071450,-1.381422,1.768292,1.124043,-0.560069,0.500076,-0.006937,0.707080,-0.408874,-0.424240,0.734052,-0.146109,-7.816729,29.343304,-9.686172,-4.265260,0.207303,1.045638,-0.097184,0.000000,0.000000,0.000000,0.000000,0.000000,0.000000
15706514.000000,-2.386609,-1.662325,1.072187,-1.381831,1.767876,1.124786,-0.560207,0.497695,-0.003969,0.716392,-0.406258,-0.420610,0.737177,-0.139868,-8.015094,29.315533,-9.392593,-4.265260,0.183500,0.966903,-0.155778,0.000000,0.000000,0.000000,0.000000,0.000000,0.000000
15706515.000000,-2.386108,-1.662328,1.072943,-1.382221,1.767469,1.125539,-0.560346,0.494538,-0.002642,0.728585,-0.401476,-0.417997,0.735550,-0.143038,-8.138080,29.315533,-9.146622,-4.412050,0.154203,0.882674,-0.142960,0.000000,0.000000,0.000000,0.000000,0.000000,0.000000
15706516.000000,-2.385601,-1.662321,1.073695,-1.382619,1.767067,1.126281,-0.560490,0.494215,0.001675,0.739645,-0.397563,-0.408038,0.736394,-0.145875,-8.261065,29.168743,-8.999832,-4.463624,0.064481,0.980636,-0.116410,0.000000,0.000000,0.000000,0.000000,0.000000,0.000000
15706517.000000,-2.385108,-1.662319,1.074470,-1.383015,1.766673,1.127018,-0.560630,0.497640,0.002790,0.751009,-0.395907,-0.409757,0.733121,-0.141087,-8.360248,29.097332,-8.924454,-4.586610,-0.013339,1.064864,-0.149369,0.000000,0.000000,0.000000,0.000000,0.000000,0.000000
15706518.000000,-2.384615,-1.662314,1.075243,-1.383398,1.766275,1.127784,-0.560773,0.491739,0.004738,0.778279,-0.389927,-0.404952,0.739343,-0.139996,-8.411822,28.974346,-8.853043,-4.661989,-0.055453,1.012679,-0.122819,0.000000,0.000000,0.000000,0.000000,0.000000,0.000000
15706519.000000,-2.384128,-1.662304,1.076044,-1.383778,1.765859,1.128549,-0.560907,0.501129,0.006594,0.785078,-0.387810,-0.404634,0.761815,-0.136087,-8.435626,28.827557,-8.829239,-4.856386,0.004056,0.922042,-0.169511,0.000000,0.000000,0.000000,0.000000,0.000000,0.000000
15706520.000000,-2.383639,-1.662291,1.076867,-1.384148,1.765468,1.129306,-0.561045,0.492355,0.008944,0.797721,-0.388902,-0.401201,0.762078,-0.139638,-8.459430,28.633160,-8.976028,-5.030946,-0.031649,0.863448,-0.155778,0.000000,0.000000,0.000000,0.000000,0.000000,0.000000
15706521.000000,-2.383144,-1.662277,1.077687,-1.384535,1.765080,1.130066,-0.561193,0.491556,0.015664,0.807205,-0.388746,-0.398604,0.760760,-0.144593,-8.483233,28.486370,-9.146622,-5.078554,-0.055453,0.843307,-0.097184,0.000000,0.000000,0.000000,0.000000,0.000000,0.000000
15706522.000000,-2.382666,-1.662271,1.078516,-1.384917,1.764679,1.130808,-0.561321,0.490064,0.013724,0.812692,-0.384643,-0.399819,0.759500,-0.143285,-8.312640,28.633160,-9.467972,-5.153932,-0.007845,0.843307,-0.169511,0.000000,0.000000,0.000000,0.000000,0.000000,0.000000
15706523.000000,-2.382183,-1.662265,1.079320,-1.385293,1.764296,1.131562,-0.561458,0.483138,0.013493,0.805513,-0.386626,-0.393722,0.757647,-0.141285,-8.062701,29.021954,-9.908340,-5.153932,-0.013339,0.941268,-0.149369,0.000000,0.000000,0.000000,0.000000,0.000000,0.000000
15706524.000000,-2.381700,-1.662255,1.080128,-1.385673,1.763922,1.132305,-0.561595,0.479001,0.013179,0.799981,-0.382444,-0.387091,0.761675,-0.138436,-7.693743,29.585308,-10.670059,-5.205507,-0.049044,1.090499,-0.155778,0.000000,0.000000,0.000000,0.000000,0.000000,0.000000
15706525.000000,-2.381222,-1.662245,1.080932,-1.386054,1.763544,1.133054,-0.561744,0.480068,0.013053,0.794996,-0.388665,-0.384617,0.756173,-0.142865,-7.197833,30.319256,-11.626175,-5.205507,-0.049044,1.201278,-0.097184,0.000000,0.000000,0.000000,0.000000,0.000000,0.000000
15706526.000000,-2.380735,-1.662232,1.081706,-1.386435,1.763167,1.133826,-0.561875,0.478784,0.011394,0.790744,-0.386200,-0.379872,0.758632,-0.137443,-6.678118,31.152386,-12.534683,-5.177736,-0.001437,1.259872,-0.169511,0.000000,0.000000,0.000000,0.000000,0.000000,0.000000
15706527.000000,-2.380254,-1.662219,1.082496,-1.386826,1.762790,1.134587,-0.562022,0.480719,0.010213,0.790807,-0.387642,-0.373643,0.762008,-0.137479,-6.257586,32.009319,-13.490799,-4.983339,0.112089,1.292831,-0.130143,0.000000,0.000000,0.000000,0.000000,0.000000,0.000000
15706528.000000,-2.379762,-1.662193,1.083279,-1.387213,1.762412,1.135345,-0.562168,0.478995,0.011631,0.785584,-0.388579,-0.376532,0.752143,-0.141473,-5.860857,32.671856,-14.351700,-4.808778,0.183500,1.389877,-0.110001,0.000000,0.000000,0.000000,0.000000,0.000000,0.000000
15706529.000000,-2.379270,-1.662170,1.084061,-1.387607,1.762024,1.136095,-0.562304,0.478861,0.013309,0.790555,-0.387531,-0.382734,0.745929,-0.140879,-5.487933,33.306622,-15.208633,-4.562807,0.261320,1.552840,-0.182328,0.000000,0.000000,0.000000,0.000000,0.000000,0.000000
15706530.000000,-2.378788,-1.662142,1.084851,-1.388010,1.761640,1.136844,-0.562452,0.480586,0.018011,0.790078,-0.389335,-0.390488,0.746437,-0.140334,-5.194354,33.794598,-15.847366,-4.340639,0.332731,1.572067,-0.142960,0.000000,0.000000,0.000000,0.000000,0.000000,0.000000
15706531.000000,-2.378306,-1.662110,1.085634,-1.388394,1.761249,1.137617,-0.562589,0.476053,0.023401,0.796029,-0.386367,-0.393259,0.745905,-0.137218,-4.869036,34.187359,-16.386917,-4.289064,0.393156,1.500655,-0.169511,0.000000,0.000000,0.000000,0.000000,0.000000,0.000000
15706532.000000,-2.377833,-1.662083,1.086446,-1.388784,1.760859,1.138358,-0.562724,0.474024,0.020392,0.799788,-0.381949,-0.392155,0.750946,-0.135193,-4.547686,34.603924,-17.001846,-4.312868,0.369352,1.552840,-0.182328,0.000000,0.000000,0.000000,0.000000,0.000000,0.000000
15706533.000000,-2.377353,-1.662055,1.087274,-1.389166,1.760477,1.139104,-0.562863,0.472102,0.020223,0.807248,-0.379053,-0.391384,0.742190,-0.135707,-4.349322,34.921307,-17.688187,-4.364442,0.327238,1.649886,-0.149369,0.000000,0.000000,0.000000,0.000000,0.000000,0.000000
15706534.000000,-2.376882,-1.662042,1.088082,-1.389561,1.760087,1.139858,-0.563001,0.466027,0.015590,0.809300,-0.384633,-0.391896,0.739835,-0.133757,-3.980364,35.413250,-18.080948,-4.364442,0.344633,1.708480,-0.175919,0.000000,0.000000,0.000000,0.000000,0.000000,0.000000
15706535.000000,-2.376404,-1.662036,1.088913,-1.389947,1.759699,1.140597,-0.563145,0.468074,0.009120,0.814907,-0.382176,-0.394134,0.739964,-0.134729,-3.881182,35.901226,-18.572891,-4.511232,0.315336,1.682845,-0.136552,0.000000,0.000000,0.000000,0.000000,0.000000,0.000000
15706536.000000,-2.375934,-1.662033,1.089749,-1.390320,1.759318,1.141351,-0.563278,0.462967,0.008165,0.836202,-0.379268,-0.390215,0.743202,-0.131985,-3.682818,36.365398,-19.112442,-4.709596,0.327238,1.656295,-0.188737,0.000000,0.000000,0.000000,0.000000,0.000000,0.000000
15706537.000000,-2.375475,-1.662037,1.090598,-1.390691,1.758934,1.142085,-0.563417,0.470193,0.003529,0.838396,-0.370945,-0.386268,0.741330,-0.128043,-3.508257,36.857342,-19.651993,-5.030946,0.339139,1.670028,-0.163102,0.000000,0.000000,0.000000,0.000000,0.000000,0.000000
15706538.000000,-2.375002,-1.662055,1.091450,-1.391049,1.758547,1.142822,-0.563555,0.467404,-0.005711,0.838991,-0.375602,-0.388880,0.731954,-0.134081,-3.409075,37.468304,-20.044754,-5.376100,0.344633,1.643478,-0.130143,0.000000,0.000000,0.000000,0.000000,0.000000,0.000000
15706539.000000,-2.374532,-1.662082,1.092282,-1.391413,1.758157,1.143568,-0.563684,0.467527,-0.010339,0.836268,-0.368234,-0.388809,0.733689,-0.136094,-3.286089,38.130840,-20.266922,-5.626039,0.428861,1.624252,-0.182328,0.000000,0.000000,0.000000,0.000000,0.000000,0.000000
15706540.000000,-2.374067,-1.662114,1.093125,-1.391771,1.757770,1.144286,-0.563821,0.467582,-0.016195,0.831189,-0.363451,-0.383055,0.735257,-0.136016,-3.262286,38.765606,-20.389908,-5.848207,0.494779,1.735030,-0.155778,0.000000,0.000000,0.000000,0.000000,0.000000,0.000000
15706542.000000,-2.373103,-1.662182,1.094793,-1.392480,1.757002,1.145745,-0.564083,0.471380,-0.024053,0.827901,-0.355292,-0.378836,0.731409,-0.134788,-3.508257,39.816936,-20.512894,-6.193361,0.494779,1.890670,-0.142960,0.000000,0.000000,0.000000,0.000000,0.000000,0.000000
15706543.000000,-2.372633,-1.662220,1.095627,-1.392833,1.756635,1.146482,-0.564215,0.472133,-0.026362,0.826545,-0.357988,-0.370299,0.735682,-0.133780,-3.682818,40.308880,-20.512894,-6.391725,0.416959,1.819259,-0.149369,0.000000,0.000000,0.000000,0.000000,0.000000,0.000000
15706544.000000,-2.372153,-1.662257,1.096449,-1.393179,1.756260,1.147228,-0.564340,0.473328,-0.030240,0.822459,-0.352174,-0.368950,0.732863,-0.131295,-3.881182,40.749249,-20.437515,-6.490907,0.344633,1.747848,-0.202470,0.000000,0.000000,0.000000,0.000000,0.000000,0.000000
15706545.000000,-2.371679,-1.662292,1.097282,-1.393530,1.755876,1.147958,-0.564481,0.471222,-0.029511,0.826760,-0.353298,-0.367443,0.740942,-0.133808,-4.055743,41.165813,-20.389908,-6.590089,0.374845,1.800033,-0.136552,0.000000,0.000000,0.000000,0.000000,0.000000,0.000000
15706546.000000,-2.371190,-1.662321,1.098121,-1.393866,1.755506,1.148687,-0.564606,0.475155,-0.028754,0.826375,-0.348547,-0.366362,0.737784,-0.137213,-4.301714,41.431622,-20.338333,-6.812257,0.405057,1.844894,-0.155778,0.000000,0.000000,0.000000,0.000000,0.000000,0.000000
15706547.000000,-2.370711,-1.662346,1.098948,-1.394203,1.755141,1.149429,-0.564734,0.474593,-0.026436,0.830121,-0.346787,-0.363293,0.739532,-0.134440,-4.424700,41.606182,-20.314529,-7.082033,0.405057,1.793624,-0.188737,0.000000,0.000000,0.000000,0.000000,0.000000,0.000000
15706548.000000,-2.370235,-1.662377,1.099781,-1.394539,1.754770,1.150161,-0.564870,0.477503,-0.024228,0.829112,-0.342606,-0.370283,0.736789,-0.135544,-4.547686,41.875957,-20.191544,-7.355775,0.434354,1.670028,-0.142960,0.000000,0.000000,0.000000,0.000000,0.000000,0.000000
15706549.000000,-2.369748,-1.662396,1.100620,-1.394863,1.754407,1.150903,-0.564995,0.478013,-0.019156,0.839131,-0.337138,-0.360349,0.727830,-0.128353,-4.773821,41.994976,-20.413712,-7.601747,0.386747,1.611434,-0.182328,0.000000,0.000000,0.000000,0.000000,0.000000,0.000000
15706550.000000,-2.369271,-1.662420,1.101465,-1.395190,1.754051,1.151629,-0.565125,0.467290,-0.020739,0.843386,-0.332385,-0.357845,0.729302,-0.125501,-5.019793,42.193340,-20.560501,-7.847719,0.351041,1.617843,-0.149369,0.000000,0.000000,0.000000,0.000000,0.000000,0.000000
15706551.000000,-2.368795,-1.662438,1.102304,-1.395516,1.753692,1.152360,-0.565246,0.469760,-0.019485,0.842938,-0.329535,-0.356743,0.723116,-0.126739,-5.218157,42.288555,-20.560501,-7.970705,0.320829,1.708480,-0.155778,0.000000,0.000000,0.000000,0.000000,0.000000,0.000000
15706552.000000,-2.368308,-1.662460,1.103136,-1.395839,1.753334,1.153097,-0.565369,0.469776,-0.018990,0.841428,-0.328814,-0.350745,0.729654,-0.122965,-5.464129,42.387737,-20.631912,-8.145266,0.291532,1.760665,-0.163102,0.000000,0.000000,0.000000,0.000000,0.000000,0.000000
15706553.000000,-2.367833,-1.662484,1.103973,-1.396153,1.752981,1.153822,-0.565496,0.471981,-0.019359,0.840695,-0.320400,-0.348182,0.724980,-0.125013,-5.662493,42.510723,-20.683487,-8.391237,0.291532,1.806442,-0.169511,0.000000,0.000000,0.000000,0.000000,0.000000,0.000000
15706554.000000,-2.367354,-1.662502,1.104812,-1.396462,1.752633,1.154544,-0.565619,0.472756,-0.016713,0.860015,-0.318996,-0.350905,0.717775,-0.122246,-5.860857,42.510723,-20.877884,-8.565798,0.291532,1.923629,-0.169511,0.000000,0.000000,0.000000,0.000000,0.000000,0.000000
15706555.000000,-2.366869,-1.662522,1.105651,-1.396769,1.752288,1.155276,-0.565746,0.484181,-0.016359,0.856907,-0.309040,-0.344907,0.736854,-0.120895,-6.083025,42.558331,-20.953262,-8.811769,0.225614,1.890670,-0.136552,0.000000,0.000000,0.000000,0.000000,0.000000,0.000000
15706556.000000,-2.366398,-1.662543,1.106502,-1.397072,1.751934,1.156010,-0.565863,0.480251,-0.016731,0.855159,-0.314160,-0.346889,0.735499,-0.125877,-6.182208,42.633709,-21.199234,-9.010134,0.315336,1.812850,-0.175919,0.000000,0.000000,0.000000,0.000000,0.000000,0.000000
15706557.000000,-2.365931,-1.662562,1.107334,-1.397375,1.751593,1.156737,-0.565985,0.471999,-0.018241,0.852012,-0.312589,-0.348831,0.732003,-0.122194,-6.206011,42.633709,-21.346024,-9.256105,0.308927,1.871444,-0.188737,0.000000,0.000000,0.000000,0.000000,0.000000,0.000000
15706558.000000,-2.365471,-1.662585,1.108178,-1.397681,1.751248,1.157442,-0.566110,0.470182,-0.024329,0.849666,-0.309919,-0.343124,0.718931,-0.126168,-6.233782,42.705120,-21.516617,-9.430666,0.225614,1.988631,-0.149369,0.000000,0.000000,0.000000,0.000000,0.000000,0.000000
15706559.000000,-2.365012,-1.662608,1.109022,-1.397972,1.750906,1.158170,-0.566230,0.465354,-0.022704,0.849899,-0.303125,-0.342505,0.717877,-0.127213,-6.134600,42.780499,-21.615799,-9.676638,0.231107,1.981307,-0.155778,0.000000,0.000000,0.000000,0.000000,0.000000,0.000000
15706560.000000,-2.364564,-1.662628,1.109852,-1.398262,1.750580,1.158914,-0.566351,0.456036,-0.020248,0.845618,-0.300885,-0.338605,0.721874,-0.123872,-5.884661,42.804302,-21.687210,-10.049562,0.159696,1.877853,-0.142960,0.000000,0.000000,0.000000,0.000000,0.000000,0.000000
15706561.000000,-2.364126,-1.662645,1.110693,-1.398555,1.750255,1.159641,-0.566467,0.450005,-0.020558,0.844408,-0.299052,-0.340320,0.724464,-0.124412,-5.662493,42.780499,-21.738785,-10.347109,0.064481,1.844894,-0.182328,0.000000,0.000000,0.000000,0.000000,0.000000,0.000000
15706562.000000,-2.363681,-1.662662,1.111512,-1.398841,1.749921,1.160357,-0.566593,0.445612,-0.020994,0.838640,-0.295085,-0.332948,0.722570,-0.123730,-5.464129,42.756695,-21.663406,-10.616884,-0.007845,1.942855,-0.122819,0.000000,0.000000,0.000000,0.000000,0.000000,0.000000
15706563.000000,-2.363255,-1.662678,1.112348,-1.399133,1.749584,1.161079,-0.566716,0.437204,-0.018328,0.839399,-0.293525,-0.329701,0.721201,-0.125067,-5.142779,42.728924,-21.639603,-10.791445,-0.013339,1.936446,-0.130143,0.000000,0.000000,0.000000,0.000000,0.000000,0.000000
15706564.000000,-2.362822,-1.662693,1.113190,-1.399424,1.749258,1.161819,-0.566831,0.433179,-0.018847,0.832425,-0.296418,-0.328517,0.724098,-0.125006,-4.896807,42.681316,-21.687210,-10.815248,0.010465,1.838485,-0.175919,0.000000,0.000000,0.000000,0.000000,0.000000,0.000000
15706565.000000,-2.362394,-1.662713,1.114025,-1.399722,1.748926,1.162557,-0.566964,0.432659,-0.018388,0.831115,-0.295301,-0.328544,0.718574,-0.128746,-4.674639,42.728924,-21.786392,-10.815248,-0.043551,1.727706,-0.122819,0.000000,0.000000,0.000000,0.000000,0.000000,0.000000
15706566.000000,-2.361981,-1.662724,1.114869,-1.400037,1.748589,1.163290,-0.567084,0.424836,-0.015256,0.826773,-0.299756,-0.335641,0.722605,-0.123938,-4.349322,42.657513,-21.960953,-10.593081,-0.007845,1.682845,-0.142960,0.000000,0.000000,0.000000,0.000000,0.000000,0.000000
15706567.000000,-2.361559,-1.662746,1.115709,-1.400336,1.748255,1.164019,-0.567207,0.423071,-0.015837,0.828846,-0.299283,-0.333912,0.722715,-0.121999,-4.103350,42.705120,-22.155350,-10.493898,0.046171,1.708480,-0.122819,0.000000,0.000000,0.000000,0.000000,0.000000,0.000000
15706568.000000,-2.361152,-1.662764,1.116557,-1.400652,1.747927,1.164730,-0.567325,0.425610,-0.016116,0.830844,-0.305721,-0.335225,0.717502,-0.117915,-3.805804,42.756695,-22.377518,-10.319338,0.052579,1.812850,-0.163102,0.000000,0.000000,0.000000,0.000000,0.000000,0.000000
15706569.000000,-2.360745,-1.662788,1.117406,-1.400965,1.747595,1.165441,-0.567448,0.417397,-0.017924,0.831830,-0.308199,-0.336019,0.709890,-0.117393,-3.508257,42.875713,-22.571915,-10.148745,0.046171,2.039901,-0.149369,0.000000,0.000000,0.000000,0.000000,0.000000,0.000000
15706570.000000,-2.360336,-1.662809,1.118249,-1.401281,1.747250,1.166170,-0.567566,0.411835,-0.017919,0.833247,-0.309856,-0.335465,0.709712,-0.112032,-3.238482,42.951092,-22.964676,-9.974184,0.147794,2.125045,-0.136552,0.000000,0.000000,0.000000,0.000000,0.000000,0.000000
15706571.000000,-2.359941,-1.662835,1.119100,-1.401618,1.746914,1.166899,-0.567674,0.403871,-0.019132,0.835675,-0.316728,-0.332293,0.711636,-0.109560,-2.917132,43.074078,-23.234451,-9.676638,0.178007,2.092086,-0.208878,0.000000,0.000000,0.000000,0.000000,0.000000,0.000000
15706572.000000,-2.359537,-1.662864,1.119935,-1.401947,1.746583,1.167636,-0.567798,0.398482,-0.021030,0.834516,-0.320844,-0.334482,0.718773,-0.112234,-2.742571,43.244671,-23.409012,-9.430666,0.207303,2.033492,-0.163102,0.000000,0.000000,0.000000,0.000000,0.000000,0.000000
15706573.000000,-2.359139,-1.662894,1.120791,-1.402294,1.746237,1.168377,-0.567918,0.396932,-0.022392,0.838227,-0.327023,-0.336933,0.735522,-0.112672,-2.492632,43.415264,-23.651016,-9.133120,0.267728,1.955673,-0.149369,0.000000,0.000000,0.000000,0.000000,0.000000,0.000000
15706574.000000,-2.358758,-1.662925,1.121648,-1.402639,1.745896,1.169101,-0.568032,0.393477,-0.023185,0.836659,-0.338481,-0.340469,0.729649,-0.115654,-2.123675,43.585857,-23.896988,-8.887148,0.362943,1.897079,-0.175919,0.000000,0.000000,0.000000,0.000000,0.000000,0.000000
15706575.000000,-2.358370,-1.662967,1.122481,-1.402991,1.745563,1.169811,-0.568147,0.388940,-0.029582,0.834719,-0.343477,-0.335300,0.720410,-0.113748,-1.802325,43.879436,-23.920792,-8.613405,0.381254,1.916305,-0.208878,0.000000,0.000000,0.000000,0.000000,0.000000,0.000000
15706576.000000,-2.358003,-1.663001,1.123316,-1.403350,1.745230,1.170515,-0.568271,0.380974,-0.031207,0.831273,-0.345917,-0.334158,0.711660,-0.115151,-1.381793,44.053997,-23.873184,-8.391237,0.344633,1.995040,-0.169511,0.000000,0.000000,0.000000,0.000000,0.000000,0.000000
15706577.000000,-2.357626,-1.663031,1.124168,-1.403699,1.744894,1.171233,-0.568392,0.376903,-0.027132,0.835797,-0.348151,-0.335130,0.712365,-0.116056,-1.032672,44.125408,-23.996170,-8.292055,0.344633,1.988631,-0.130143,0.000000,0.000000,0.000000,0.000000,0.000000,0.000000
15706578.000000,-2.357256,-1.663063,1.125002,-1.404062,1.744561,1.171961,-0.568503,0.375007,-0.028001,0.834995,-0.350826,-0.329554,0.710841,-0.112292,-0.612139,44.224590,-24.043777,-8.145266,0.320829,1.930038,-0.202470,0.000000,0.000000,0.000000,0.000000,0.000000,0.000000
15706579.000000,-2.356882,-1.663090,1.125836,-1.404435,1.744239,1.172672,-0.568623,0.371921,-0.023951,0.830989,-0.356629,-0.334580,0.715117,-0.114082,-0.366168,44.248394,-23.896988,-7.875490,0.315336,1.930038,-0.163102,0.000000,0.000000,0.000000,0.000000,0.000000,0.000000
15706580.000000,-2.356501,-1.663117,1.126664,-1.404810,1.743899,1.173391,-0.568739,0.371289,-0.024242,0.830475,-0.362326,-0.337262,0.714206,-0.115038,-0.243182,44.272198,-23.896988,-7.526369,0.362943,1.930038,-0.130143,0.000000,0.000000,0.000000,0.000000,0.000000,0.000000
15706581.000000,-2.356133,-1.663136,1.127510,-1.405190,1.743554,1.174109,-0.568841,0.370126,-0.021774,0.833362,-0.367115,-0.332578,0.712090,-0.106478,-0.068621,44.173016,-23.996170,-7.232790,0.482877,1.884261,-0.208878,0.000000,0.000000,0.000000,0.000000,0.000000,0.000000
15706582.000000,-2.355755,-1.663156,1.128351,-1.405573,1.743227,1.174827,-0.568957,0.372429,-0.021314,0.831726,-0.373372,-0.330747,0.710350,-0.105223,0.006757,44.125408,-24.071548,-6.859865,0.530485,1.844894,-0.163102,0.000000,0.000000,0.000000,0.000000,0.000000,0.000000
15706583.000000,-2.355372,-1.663174,1.129176,-1.405962,1.742909,1.175549,-0.569071,0.376723,-0.016838,0.830187,-0.375244,-0.329405,0.711494,-0.106143,0.054365,44.026226,-24.019974,-6.590089,0.470060,1.916305,-0.188737,0.000000,0.000000,0.000000,0.000000,0.000000,0.000000
15706584.000000,-2.355010,-1.663191,1.130025,-1.406341,1.742574,1.176275,-0.569183,0.372398,-0.014780,0.834562,-0.370535,-0.340542,0.719268,-0.107865,0.276533,43.978619,-24.265945,-6.463136,0.500272,1.832076,-0.188737,0.000000,0.000000,0.000000,0.000000,0.000000,0.000000
15706585.000000,-2.354638,-1.663206,1.130862,-1.406735,1.742242,1.176996,-0.569299,0.375015,-0.015220,0.848036,-0.377198,-0.339968,0.716975,-0.109836,0.351911,43.879436,-24.436539,-6.193361,0.500272,1.832076,-0.169511,0.000000,0.000000,0.000000,0.000000,0.000000,0.000000
15706586.000000,-2.354262,-1.663221,1.131702,-1.407127,1.741916,1.177694,-0.569410,0.382820,-0.016305,0.846345,-0.376051,-0.334322,0.714847,-0.108900,0.375715,43.808025,-24.559525,-5.994997,0.488370,2.027084,-0.208878,0.000000,0.000000,0.000000,0.000000,0.000000,0.000000
15706587.000000,-2.353886,-1.663239,1.132539,-1.407521,1.741590,1.178403,-0.569528,0.383237,-0.018262,0.838882,-0.379290,-0.335196,0.704188,-0.112280,0.451093,43.784222,-24.583328,-5.796632,0.482877,2.177230,-0.149369,0.000000,0.000000,0.000000,0.000000,0.000000,0.000000
15706588.000000,-2.353507,-1.663248,1.133377,-1.407915,1.741250,1.179134,-0.569637,0.380311,-0.016830,0.839443,-0.381061,-0.338245,0.705326,-0.111964,0.502668,43.637432,-24.857071,-5.626039,0.547880,2.125045,-0.163102,0.000000,0.000000,0.000000,0.000000,0.000000,0.000000
15706589.000000,-2.353132,-1.663264,1.134217,-1.408309,1.740916,1.179857,-0.569742,0.379362,-0.015704,0.835117,-0.381692,-0.334702,0.714411,-0.110228,0.474897,43.613628,-24.976089,-5.499086,0.578092,1.988631,-0.215287,0.000000,0.000000,0.000000,0.000000,0.000000,0.000000
15706590.000000,-2.352752,-1.663273,1.135049,-1.408704,1.740599,1.180591,-0.569853,0.376729,-0.012986,0.830003,-0.385057,-0.326561,0.716880,-0.111292,0.403486,43.514446,-24.952286,-5.253114,0.589994,1.903487,-0.208878,0.000000,0.000000,0.000000,0.000000,0.000000,0.000000
15706591.000000,-2.352371,-1.663280,1.135871,-1.409093,1.740265,1.181316,-0.569971,0.374506,-0.013640,0.824632,-0.382470,-0.326020,0.717678,-0.109251,0.375715,43.391460,-25.003860,-5.177736,0.637601,1.930038,-0.142960,0.000000,0.000000,0.000000,0.000000,0.000000,0.000000
15706592.000000,-2.352000,-1.663296,1.136692,-1.409475,1.739936,1.182016,-0.570074,0.372561,-0.014481,0.820064,-0.385713,-0.326236,0.706039,-0.103574,0.474897,43.415264,-24.952286,-5.106325,0.691617,1.955673,-0.175919,0.000000,0.000000,0.000000,0.000000,0.000000,0.000000
15706593.000000,-2.351625,-1.663306,1.137498,-1.409863,1.739608,1.182731,-0.570177,0.369300,-0.013201,0.812571,-0.385331,-0.325135,0.704167,-0.104942,0.502668,43.367657,-24.781693,-4.983339,0.709928,2.053634,-0.202470,0.000000,0.000000,0.000000,0.000000,0.000000,0.000000
15706594.000000,-2.351250,-1.663308,1.138309,-1.410249,1.739299,1.183437,-0.570287,0.372757,-0.010415,0.806179,-0.382874,-0.316709,0.706284,-0.108301,0.451093,43.244671,-24.583328,-4.931764,0.649503,2.104903,-0.163102,0.000000,0.000000,0.000000,0.000000,0.000000,0.000000
15706595.000000,-2.350880,-1.663317,1.139136,-1.410625,1.738981,1.184169,-0.570386,0.367773,-0.010299,0.803167,-0.384312,-0.317213,0.710397,-0.107268,0.550275,43.197063,-24.559525,-4.907960,0.637601,2.053634,-0.221696,0.000000,0.000000,0.000000,0.000000,0.000000,0.000000
15706596.000000,-2.350496,-1.663317,1.139944,-1.411013,1.738663,1.184897,-0.570495,0.371869,-0.007830,0.803397,-0.384000,-0.318480,0.719306,-0.109977,0.474897,43.050274,-24.511917,-4.808778,0.667814,1.995040,-0.188737,0.000000,0.000000,0.000000,0.000000,0.000000,0.000000
15706597.000000,-2.350116,-1.663315,1.140760,-1.411403,1.738365,1.185627,-0.570605,0.372815,-0.005493,0.799281,-0.383102,-0.315427,0.719608,-0.106264,0.351911,42.875713,-24.488113,-4.610414,0.625699,1.936446,-0.182328,0.000000,0.000000,0.000000,0.000000,0.000000,0.000000
15706598.000000,-2.349734,-1.663316,1.141570,-1.411790,1.738065,1.186354,-0.570706,0.371460,-0.005195,0.804030,-0.384049,-0.307739,0.716903,-0.102425,0.252729,42.756695,-24.583328,-4.463624,0.637601,1.936446,-0.202470,0.000000,0.000000,0.000000,0.000000,0.000000,0.000000
15706599.000000,-2.349365,-1.663315,1.142388,-1.412174,1.737756,1.187065,-0.570818,0.366473,-0.004342,0.803520,-0.379919,-0.306441,0.711245,-0.102671,0.276533,42.609905,-24.682510,-4.364442,0.649503,1.968490,-0.136552,0.000000,0.000000,0.000000,0.000000,0.000000,0.000000
15706600.000000,-2.348992,-1.663320,1.143213,-1.412556,1.737454,1.187796,-0.570918,0.368273,-0.005525,0.806086,-0.380417,-0.305484,0.715384,-0.098606,0.304304,42.534527,-24.880875,-4.289064,0.661405,2.020675,-0.182328,0.000000,0.000000,0.000000,0.000000,0.000000,0.000000
15706601.000000,-2.348615,-1.663320,1.144015,-1.412941,1.737161,1.188520,-0.571020,0.368797,-0.005050,0.803611,-0.379155,-0.298658,0.715914,-0.096324,0.351911,42.411541,-24.928482,-4.142274,0.637601,2.092086,-0.215287,0.000000,0.000000,0.000000,0.000000,0.000000,0.000000
15706602.000000,-2.348249,-1.663325,1.144829,-1.413320,1.736869,1.189233,-0.571130,0.367639,-0.005953,0.799113,-0.377820,-0.295517,0.715346,-0.097579,0.375715,42.340130,-25.075272,-4.142274,0.655912,2.092086,-0.169511,0.000000,0.000000,0.000000,0.000000,0.000000,0.000000
15706603.000000,-2.347890,-1.663328,1.145631,-1.413694,1.736570,1.189948,-0.571234,0.365406,-0.002732,0.815811,-0.375698,-0.298107,0.711722,-0.097205,0.550275,42.240948,-25.126846,-4.066896,0.691617,2.169906,-0.155778,0.000000,0.000000,0.000000,0.000000,0.000000,0.000000
15706604.000000,-2.347524,-1.663328,1.146429,-1.414079,1.736275,1.190647,-0.571332,0.371510,-0.000963,0.807666,-0.378246,-0.293527,0.707451,-0.095181,0.601850,42.169537,-25.051468,-3.920107,0.685209,2.222091,-0.182328,0.000000,0.000000,0.000000,0.000000,0.000000,0.000000
15706605.000000,-2.347155,-1.663338,1.147230,-1.414459,1.735982,1.191361,-0.571429,0.368644,-0.004851,0.801906,-0.385337,-0.286632,0.703077,-0.097894,0.649457,42.193340,-24.976089,-3.745546,0.703519,2.255050,-0.215287,0.000000,0.000000,0.000000,0.000000,0.000000,0.000000
15706606.000000,-2.346800,-1.663343,1.148017,-1.414839,1.735694,1.192083,-0.571539,0.361703,-0.003388,0.798988,-0.385594,-0.280494,0.709771,-0.103664,0.847822,42.169537,-24.928482,-3.598757,0.698026,2.169906,-0.163102,0.000000,0.000000,0.000000,0.000000,0.000000,0.000000
15706607.000000,-2.346451,-1.663350,1.148808,-1.415219,1.735407,1.192797,-0.571638,0.359574,-0.005773,0.795885,-0.380410,-0.283293,0.714362,-0.103867,0.994611,42.169537,-24.781693,-3.547182,0.632108,2.104903,-0.215287,0.000000,0.000000,0.000000,0.000000,0.000000,0.000000
15706608.000000,-2.346098,-1.663350,1.149595,-1.415587,1.735111,1.193517,-0.571744,0.356303,-0.003290,0.788179,-0.376766,-0.287817,0.715108,-0.106399,1.192975,42.117962,-24.583328,-3.499574,0.632108,2.060043,-0.208878,0.000000,0.000000,0.000000,0.000000,0.000000,0.000000
15706609.000000,-2.345752,-1.663354,1.150370,-1.415960,1.734813,1.194232,-0.571850,0.352885,-0.005165,0.783859,-0.371302,-0.291126,0.708004,-0.104465,1.466718,42.094158,-24.313553,-3.523378,0.644010,2.060043,-0.175919,0.000000,0.000000,0.000000,0.000000,0.000000,0.000000
15706610.000000,-2.345416,-1.663351,1.151153,-1.416332,1.734520,1.194943,-0.571948,0.348702,-0.001741,0.778228,-0.373923,-0.291711,0.708543,-0.100607,1.811872,41.994976,-24.119156,-3.499574,0.721830,2.027084,-0.208878,0.000000,0.000000,0.000000,0.000000,0.000000,0.000000
15706611.000000,-2.345075,-1.663344,1.151920,-1.416697,1.734237,1.195666,-0.572049,0.345666,0.001160,0.773166,-0.369979,-0.288888,0.702571,-0.104954,2.010236,41.875957,-23.825577,-3.547182,0.715421,1.962081,-0.175919,0.000000,0.000000,0.000000,0.000000,0.000000,0.000000
15706612.000000,-2.344733,-1.663340,1.152701,-1.417070,1.733941,1.196390,-0.572150,0.341795,0.002189,0.770046,-0.369057,-0.293132,0.710029,-0.101531,2.160993,41.800579,-23.702591,-3.499574,0.751127,1.819259,-0.188737,0.000000,0.000000,0.000000,0.000000,0.000000,0.000000
15706613.000000,-2.344393,-1.663333,1.153487,-1.417441,1.733658,1.197123,-0.572245,0.340330,0.003518,0.769250,-0.369963,-0.290269,0.714125,-0.103204,2.359357,41.701397,-23.627213,-3.400392,0.751127,1.721298,-0.221696,0.000000,0.000000,0.000000,0.000000,0.000000,0.000000
15706614.000000,-2.344041,-1.663319,1.154249,-1.417808,1.733377,1.197868,-0.572345,0.342643,0.006140,0.766202,-0.369370,-0.286624,0.717386,-0.102246,2.430768,41.530804,-23.480423,-3.325014,0.727323,1.637069,-0.188737,0.000000,0.000000,0.000000,0.000000,0.000000,0.000000
15706615.000000,-2.343699,-1.663304,1.155019,-1.418193,1.733104,1.198591,-0.572445,0.342127,0.007937,0.762232,-0.374710,-0.288773,0.712558,-0.100177,2.454572,41.360210,-23.309830,-3.027467,0.727323,1.649886,-0.188737,0.000000,0.000000,0.000000,0.000000,0.000000,0.000000
15706616.000000,-2.343355,-1.663289,1.155778,-1.418552,1.732829,1.199313,-0.572538,0.343509,0.009729,0.765324,-0.368439,-0.290693,0.705278,-0.098628,2.482343,41.165813,-23.186844,-3.003664,0.691617,1.695663,-0.188737,0.000000,0.000000,0.000000,0.000000,0.000000,0.000000
15706617.000000,-2.343019,-1.663273,1.156561,-1.418923,1.732549,1.200047,-0.572631,0.343240,0.014204,0.774837,-0.369167,-0.284006,0.719950,-0.096253,2.605329,40.967449,-23.258255,-2.856874,0.698026,1.760665,-0.215287,0.000000,0.000000,0.000000,0.000000,0.000000,0.000000
15706618.000000,-2.342676,-1.663255,1.157330,-1.419274,1.732282,1.200768,-0.572732,0.341990,0.015332,0.773005,-0.362253,-0.277514,0.720978,-0.102405,2.629133,40.725445,-23.111465,-2.928285,0.655912,1.727706,-0.163102,0.000000,0.000000,0.000000,0.000000,0.000000,0.000000
15706619.000000,-2.342330,-1.663237,1.158094,-1.419631,1.732014,1.201500,-0.572823,0.342092,0.015569,0.776310,-0.356244,-0.269950,0.721988,-0.097503,2.680707,40.503277,-23.135269,-2.928285,0.673307,1.682845,-0.235429,0.000000,0.000000,0.000000,0.000000,0.000000,0.000000
15706620.000000,-2.341991,-1.663217,1.158869,-1.419994,1.731733,1.202209,-0.572924,0.340910,0.018844,0.771451,-0.357974,-0.270646,0.721884,-0.098255,2.704511,40.281109,-23.210648,-2.928285,0.733732,1.747848,-0.196061,0.000000,0.000000,0.000000,0.000000,0.000000,0.000000
15706621.000000,-2.341640,-1.663197,1.159631,-1.420346,1.731459,1.202922,-0.573019,0.345054,0.020622,0.784416,-0.356389,-0.269926,0.710931,-0.096724,2.629133,40.086712,-23.309830,-2.928285,0.763029,1.844894,-0.208878,0.000000,0.000000,0.000000,0.000000,0.000000,0.000000
15706622.000000,-2.341294,-1.663186,1.160397,-1.420701,1.731193,1.203635,-0.573116,0.348332,0.019106,0.776547,-0.353421,-0.268047,0.708837,-0.096113,2.581525,40.015301,-23.286026,-2.956056,0.769437,1.865035,-0.202470,0.000000,0.000000,0.000000,0.000000,0.000000,0.000000
15706623.000000,-2.340947,-1.663161,1.161168,-1.421045,1.730936,1.204355,-0.573213,0.349184,0.018034,0.770365,-0.354940,-0.265076,0.708938,-0.100151,2.581525,39.816936,-23.286026,-3.055238,0.727323,1.838485,-0.188737,0.000000,0.000000,0.000000,0.000000,0.000000,0.000000
15706624.000000,-2.340598,-1.663138,1.161933,-1.421389,1.730687,1.205090,-0.573301,0.346368,0.020192,0.768163,-0.352549,-0.261293,0.712481,-0.096849,2.581525,39.622540,-23.333633,-3.126650,0.632108,1.806442,-0.235429,0.000000,0.000000,0.000000,0.000000,0.000000,0.000000
15706625.000000,-2.340249,-1.663116,1.162696,-1.421726,1.730429,1.205805,-0.573401,0.348059,0.021178,0.764998,-0.344603,-0.263254,0.714783,-0.102865,2.430768,39.451946,-23.234451,-3.325014,0.535978,1.793624,-0.182328,0.000000,0.000000,0.000000,0.000000,0.000000,0.000000
15706626.000000,-2.339898,-1.663090,1.163455,-1.422062,1.730166,1.206530,-0.573493,0.350580,0.022533,0.758734,-0.340913,-0.262942,0.715237,-0.100324,2.383161,39.253582,-23.040054,-3.325014,0.512174,1.754256,-0.188737,0.000000,0.000000,0.000000,0.000000,0.000000,0.000000
15706627.000000,-2.339540,-1.663070,1.164201,-1.422399,1.729901,1.207257,-0.573582,0.351244,0.022294,0.753803,-0.338400,-0.263371,0.711415,-0.097584,2.232404,39.106792,-22.841690,-3.400392,0.524076,1.767074,-0.215287,0.000000,0.000000,0.000000,0.000000,0.000000,0.000000
15706628.000000,-2.339182,-1.663051,1.164958,-1.422738,1.729640,1.207959,-0.573681,0.352561,0.017944,0.752169,-0.336874,-0.259751,0.703002,-0.093719,2.034040,39.011578,-22.671097,-3.348818,0.554288,1.838485,-0.169511,0.000000,0.000000,0.000000,0.000000,0.000000,0.000000
15706629.000000,-2.338821,-1.663026,1.165710,-1.423060,1.729379,1.208674,-0.573765,0.355186,0.021762,0.749216,-0.332644,-0.259636,0.700349,-0.091991,1.835676,38.888592,-22.595718,-3.424196,0.524076,1.844894,-0.215287,0.000000,0.000000,0.000000,0.000000,0.000000,0.000000
15706630.000000,-2.338470,-1.663006,1.166467,-1.423385,1.729104,1.209390,-0.573861,0.353832,0.020366,0.749253,-0.325671,-0.261985,0.704832,-0.094096,1.665082,38.813213,-22.500504,-3.499574,0.559781,1.695663,-0.169511,0.000000,0.000000,0.000000,0.000000,0.000000,0.000000
15706631.000000,-2.338109,-1.662986,1.167232,-1.423699,1.728842,1.210118,-0.573947,0.352473,0.019295,0.747758,-0.321513,-0.262229,0.706774,-0.092555,1.514325,38.741802,-22.500504,-3.570986,0.559781,1.578475,-0.208878,0.000000,0.000000,0.000000,0.000000,0.000000,0.000000
15706632.000000,-2.337748,-1.662968,1.167990,-1.424016,1.728578,1.210830,-0.574043,0.350979,0.017567,0.754421,-0.319690,-0.257331,0.707491,-0.088708,1.391340,38.717999,-22.548111,-3.697939,0.559781,1.605026,-0.196061,0.000000,0.000000,0.000000,0.000000,0.000000,0.000000
15706633.000000,-2.337384,-1.662958,1.168758,-1.424343,1.728324,1.211508,-0.574146,0.355164,0.014661,0.755227,-0.320255,-0.257663,0.696875,-0.091816,1.192975,38.765606,-22.623489,-3.622560,0.559781,1.786300,-0.149369,0.000000,0.000000,0.000000,0.000000,0.000000,0.000000
15706634.000000,-2.337026,-1.662950,1.169505,-1.424650,1.728067,1.212210,-0.574236,0.355087,0.012395,0.756823,-0.316968,-0.258110,0.696682,-0.086209,1.093793,38.837017,-22.671097,-3.697939,0.530485,1.903487,-0.188737,0.000000,0.000000,0.000000,0.000000,0.000000,0.000000
15706635.000000,-2.336667,-1.662944,1.170263,-1.424956,1.727800,1.212912,-0.574328,0.365306,0.009470,0.754947,-0.312129,-0.260814,0.695604,-0.087321,0.895429,38.960003,-22.742508,-3.844728,0.571683,1.851302,-0.208878,0.000000,0.000000,0.000000,0.000000,0.000000,0.000000
15706636.000000,-2.336303,-1.662934,1.171028,-1.425253,1.727542,1.213622,-0.574422,0.363643,0.006138,0.754569,-0.305363,-0.256998,0.696963,-0.089375,0.772443,39.011578,-22.865494,-4.043092,0.578092,1.832076,-0.202470,0.000000,0.000000,0.000000,0.000000,0.000000,0.000000
15706637.000000,-2.335934,-1.662924,1.171778,-1.425551,1.727293,1.214319,-0.574518,0.365987,0.007441,0.752255,-0.303651,-0.250786,0.694146,-0.091329,0.574079,39.035381,-22.893265,-4.241457,0.500272,1.877853,-0.182328,0.000000,0.000000,0.000000,0.000000,0.000000,0.000000
15706638.000000,-2.335567,-1.662923,1.172537,-1.425848,1.727040,1.215015,-0.574611,0.362582,0.002925,0.748125,-0.296824,-0.255497,0.689732,-0.090937,0.375715,39.158367,-22.893265,-4.412050,0.535978,1.897079,-0.208878,0.000000,0.000000,0.000000,0.000000,0.000000,0.000000
15706639.000000,-2.335198,-1.662922,1.173286,-1.426139,1.726781,1.215729,-0.574708,0.360257,-0.000296,0.758255,-0.294534,-0.259546,0.693658,-0.092307,0.129743,39.281353,-22.647293,-4.463624,0.589994,1.819259,-0.196061,0.000000,0.000000,0.000000,0.000000,0.000000,0.000000
15706640.000000,-2.334833,-1.662928,1.174027,-1.426436,1.726529,1.216421,-0.574809,0.360077,0.001503,0.755050,-0.295021,-0.253835,0.705090,-0.094284,0.006757,39.499554,-22.524307,-4.511232,0.554288,1.819259,-0.149369,0.000000,0.000000,0.000000,0.000000,0.000000,0.000000
15706641.000000,-2.334466,-1.662927,1.174779,-1.426715,1.726291,1.217130,-0.574896,0.361232,0.002294,0.749400,-0.294393,-0.248887,0.703722,-0.091631,-0.191607,39.622540,-22.425125,-4.685792,0.482877,1.858627,-0.202470,0.000000,0.000000,0.000000,0.000000,0.000000,0.000000
15706642.000000,-2.334105,-1.662924,1.175513,-1.426991,1.726055,1.217848,-0.574987,0.358668,0.000145,0.741654,-0.288502,-0.245253,0.704975,-0.093255,-0.266986,39.721722,-22.302139,-4.907960,0.405057,1.767074,-0.175919,0.000000,0.000000,0.000000,0.000000,0.000000,0.000000
15706643.000000,-2.333747,-1.662925,1.176250,-1.427276,1.725814,1.218570,-0.575076,0.357872,0.000351,0.735423,-0.286377,-0.245500,0.707726,-0.088224,-0.342364,39.868511,-22.008560,-5.030946,0.405057,1.617843,-0.188737,0.000000,0.000000,0.000000,0.000000,0.000000,0.000000
15706644.000000,-2.333388,-1.662925,1.177002,-1.427541,1.725570,1.219287,-0.575170,0.358217,0.000618,0.739364,-0.282151,-0.250262,0.709811,-0.085963,-0.465350,40.015301,-21.909378,-5.276918,0.405057,1.591293,-0.163102,0.000000,0.000000,0.000000,0.000000,0.000000,0.000000
15706645.000000,-2.333025,-1.662921,1.177736,-1.427816,1.725330,1.219999,-0.575257,0.354321,0.000133,0.739923,-0.278834,-0.242754,0.704534,-0.086563,-0.540728,40.062908,-21.714981,-5.376100,0.369352,1.676437,-0.196061,0.000000,0.000000,0.000000,0.000000,0.000000,0.000000
15706646.000000,-2.332670,-1.662920,1.178481,-1.428087,1.725084,1.220700,-0.575348,0.355472,-0.000956,0.737796,-0.275605,-0.241472,0.704438,-0.088503,-0.635943,40.134319,-21.615799,-5.526857,0.446256,1.702071,-0.196061,0.000000,0.000000,0.000000,0.000000,0.000000,0.000000
15706647.000000,-2.332309,-1.662913,1.179211,-1.428352,1.724840,1.221428,-0.575439,0.354247,0.002977,0.736861,-0.272949,-0.238982,0.698420,-0.089875,-0.687518,40.134319,-21.469009,-5.673646,0.488370,1.539108,-0.196061,0.000000,0.000000,0.000000,0.000000,0.000000,0.000000
15706648.000000,-2.331953,-1.662907,1.179955,-1.428613,1.724606,1.222156,-0.575530,0.352285,0.005758,0.735253,-0.269553,-0.239387,0.708198,-0.090708,-0.786700,40.134319,-21.445206,-5.872011,0.464567,1.377059,-0.196061,0.000000,0.000000,0.000000,0.000000,0.000000,0.000000
15706649.000000,-2.331595,-1.662899,1.180706,-1.428886,1.724373,1.222869,-0.575622,0.353694,0.005676,0.735191,-0.268236,-0.243679,0.703952,-0.092750,-0.885882,40.086712,-21.469009,-5.895814,0.416959,1.409103,-0.163102,0.000000,0.000000,0.000000,0.000000,0.000000,0.000000
15706650.000000,-2.331236,-1.662895,1.181443,-1.429161,1.724133,1.223582,-0.575709,0.356801,0.007466,0.737879,-0.267087,-0.236889,0.701843,-0.092005,-0.933489,40.086712,-21.469009,-5.919618,0.362943,1.539108,-0.188737,0.000000,0.000000,0.000000,0.000000,0.000000,0.000000
15706651.000000,-2.330878,-1.662887,1.182190,-1.429433,1.723896,1.224284,-0.575799,0.354995,0.007966,0.735025,-0.266051,-0.237209,0.705091,-0.087626,-1.060443,39.987530,-21.469009,-5.947389,0.351041,1.662704,-0.196061,0.000000,0.000000,0.000000,0.000000,0.000000,0.000000
15706652.000000,-2.330522,-1.662873,1.182929,-1.429698,1.723670,1.225000,-0.575893,0.354188,0.009803,0.737705,-0.264098,-0.227321,0.704704,-0.091250,-1.108050,39.816936,-21.469009,-6.018800,0.285123,1.702071,-0.142960,0.000000,0.000000,0.000000,0.000000,0.000000,0.000000
15706653.000000,-2.330176,-1.662860,1.183682,-1.429974,1.723443,1.225727,-0.575974,0.355950,0.010345,0.739412,-0.267874,-0.225897,0.714496,-0.088698,-1.183428,39.670147,-21.615799,-5.971193,0.255826,1.695663,-0.221696,0.000000,0.000000,0.000000,0.000000,0.000000,0.000000
15706654.000000,-2.329821,-1.662846,1.184450,-1.430233,1.723214,1.226439,-0.576066,0.356620,0.013899,0.745715,-0.267796,-0.230602,0.712585,-0.086926,-1.282611,39.523357,-21.861771,-6.070375,0.243009,1.662704,-0.182328,0.000000,0.000000,0.000000,0.000000,0.000000,0.000000
15706655.000000,-2.329470,-1.662829,1.185203,-1.430510,1.722971,1.227157,-0.576147,0.355691,0.014299,0.748785,-0.268771,-0.230266,0.717247,-0.087936,-1.254840,39.328960,-22.056168,-5.994997,0.267728,1.702071,-0.202470,0.000000,0.000000,0.000000,0.000000,0.000000,0.000000
15706656.000000,-2.329121,-1.662824,1.185958,-1.430776,1.722726,1.227856,-0.576232,0.355201,0.009897,0.747087,-0.269470,-0.232147,0.716118,-0.089275,-1.282611,39.328960,-22.131546,-6.042604,0.344633,1.747848,-0.208878,0.000000,0.000000,0.000000,0.000000,0.000000,0.000000
15706657.000000,-2.328774,-1.662812,1.186714,-1.431046,1.722486,1.228557,-0.576319,0.348877,0.007984,0.749836,-0.269937,-0.232722,0.702849,-0.092271,-1.231036,39.281353,-22.155350,-5.971193,0.410551,1.812850,-0.163102,0.000000,0.000000,0.000000,0.000000,0.000000,0.000000
15706658.000000,-2.328438,-1.662803,1.187472,-1.431321,1.722248,1.229251,-0.576397,0.343570,0.008673,0.755487,-0.269164,-0.235545,0.715588,-0.085347,-1.108050,39.281353,-22.353714,-5.919618,0.422452,1.858627,-0.229020,0.000000,0.000000,0.000000,0.000000,0.000000,0.000000
15706659.000000,-2.328104,-1.662790,1.188227,-1.431583,1.722020,1.229949,-0.576488,0.342490,0.007404,0.747930,-0.271114,-0.230599,0.699436,-0.089903,-0.985064,39.229778,-22.377518,-5.971193,0.356534,1.871444,-0.155778,0.000000,0.000000,0.000000,0.000000,0.000000,0.000000
15706660.000000,-2.327771,-1.662782,1.188977,-1.431857,1.721785,1.230666,-0.576567,0.336689,0.007945,0.748708,-0.270986,-0.231444,0.698551,-0.084169,-0.786700,39.253582,-22.472733,-5.895814,0.291532,1.747848,-0.208878,0.000000,0.000000,0.000000,0.000000,0.000000,0.000000
15706661.000000,-2.327440,-1.662771,1.189725,-1.432136,1.721548,1.231367,-0.576652,0.333583,0.009342,0.746553,-0.272925,-0.230257,0.702990,-0.087362,-0.612139,39.229778,-22.353714,-5.848207,0.291532,1.747848,-0.188737,0.000000,0.000000,0.000000,0.000000,0.000000,0.000000
15706662.000000,-2.327104,-1.662760,1.190483,-1.432417,1.721317,1.232055,-0.576735,0.332092,0.007969,0.744480,-0.277627,-0.229907,0.698486,-0.089301,-0.540728,39.182171,-22.302139,-5.673646,0.308927,1.825668,-0.182328,0.000000,0.000000,0.000000,0.000000,0.000000,0.000000
15706663.000000,-2.326774,-1.662746,1.191234,-1.432700,1.721087,1.232740,-0.576816,0.332280,0.006990,0.747055,-0.280364,-0.228530,0.691129,-0.085496,-0.441546,39.130596,-22.278336,-5.499086,0.308927,1.949264,-0.188737,0.000000,0.000000,0.000000,0.000000,0.000000,0.000000
15706664.000000,-2.326442,-1.662739,1.191991,-1.432979,1.720863,1.233426,-0.576897,0.333867,0.006848,0.747325,-0.279433,-0.231522,0.687656,-0.083910,-0.413775,39.182171,-22.278336,-5.475282,0.315336,1.930038,-0.163102,0.000000,0.000000,0.000000,0.000000,0.000000,0.000000
15706665.000000,-2.326118,-1.662730,1.192740,-1.433274,1.720622,1.234146,-0.576972,0.328191,0.008229,0.747295,-0.284577,-0.230965,0.698298,-0.084659,-0.266986,39.182171,-22.302139,-5.205507,0.344633,1.695663,-0.208878,0.000000,0.000000,0.000000,0.000000,0.000000,0.000000
15706666.000000,-2.325792,-1.662720,1.193504,-1.433555,1.720388,1.234841,-0.577056,0.329661,0.006694,0.750046,-0.285009,-0.224442,0.691047,-0.083229,-0.191607,39.158367,-22.448929,-5.177736,0.327238,1.611434,-0.182328,0.000000,0.000000,0.000000,0.000000,0.000000,0.000000
15706667.000000,-2.325465,-1.662708,1.194278,-1.433848,1.720154,1.235534,-0.577132,0.328214,0.006157,0.753270,-0.286057,-0.226863,0.685340,-0.080499,-0.144000,39.106792,-22.671097,-5.007143,0.381254,1.689254,-0.202470,0.000000,0.000000,0.000000,0.000000,0.000000,0.000000
15706668.000000,-2.325138,-1.662702,1.195038,-1.434143,1.719923,1.236213,-0.577213,0.330651,0.003914,0.756572,-0.286252,-0.226623,0.677614,-0.078269,-0.116229,39.130596,-22.817886,-4.856386,0.386747,1.877853,-0.229020,0.000000,0.000000,0.000000,0.000000,0.000000,0.000000
15706669.000000,-2.324818,-1.662699,1.195806,-1.434439,1.719689,1.236909,-0.577297,0.327861,0.001121,0.758630,-0.289056,-0.237039,0.682585,-0.079295,-0.017047,39.205975,-23.016251,-4.733400,0.458158,1.890670,-0.182328,0.000000,0.000000,0.000000,0.000000,0.000000,0.000000
15706670.000000,-2.324491,-1.662700,1.196564,-1.434734,1.719459,1.237602,-0.577374,0.326251,-0.001924,0.778764,-0.288907,-0.239070,0.683414,-0.078070,0.030561,39.328960,-23.186844,-4.562807,0.464567,1.936446,-0.188737,0.000000,0.000000,0.000000,0.000000,0.000000,0.000000
15706671.000000,-2.324169,-1.662694,1.197335,-1.435022,1.719229,1.238303,-0.577449,0.330710,0.002024,0.778262,-0.285239,-0.232993,0.697882,-0.076674,0.054365,39.328960,-23.432816,-4.511232,0.405057,1.955673,-0.202470,0.000000,0.000000,0.000000,0.000000,0.000000,0.000000
15706672.000000,-2.323846,-1.662696,1.198114,-1.435318,1.719001,1.238994,-0.577525,0.326389,0.002012,0.774544,-0.294229,-0.232198,0.695006,-0.080095,0.078168,39.451946,-23.702591,-4.340639,0.428861,1.955673,-0.215287,0.000000,0.000000,0.000000,0.000000,0.000000,0.000000
15706673.000000,-2.323531,-1.662698,1.198860,-1.435615,1.718770,1.239697,-0.577607,0.323668,-0.000338,0.765235,-0.294977,-0.232408,0.693308,-0.079920,0.205121,39.547161,-23.678787,-4.213686,0.482877,1.877853,-0.188737,0.000000,0.000000,0.000000,0.000000,0.000000,0.000000
15706674.000000,-2.323217,-1.662703,1.199618,-1.435911,1.718538,1.240384,-0.577687,0.322644,0.000290,0.756052,-0.292803,-0.232598,0.694131,-0.079395,0.304304,39.670147,-23.603409,-4.066896,0.542386,1.890670,-0.169511,0.000000,0.000000,0.000000,0.000000,0.000000,0.000000
15706675.000000,-2.322902,-1.662706,1.200380,-1.436204,1.718311,1.241060,-0.577763,0.318129,0.000193,0.755564,-0.292705,-0.230831,0.682589,-0.076890,0.403486,39.693951,-23.579605,-3.991518,0.554288,2.007858,-0.208878,0.000000,0.000000,0.000000,0.000000,0.000000,0.000000
15706676.000000,-2.322589,-1.662719,1.201131,-1.436502,1.718082,1.241759,-0.577848,0.314208,-0.002888,0.757866,-0.290676,-0.231405,0.681733,-0.082286,0.574079,39.840740,-23.555801,-3.844728,0.500272,2.039901,-0.175919,0.000000,0.000000,0.000000,0.000000,0.000000,0.000000
15706677.000000,-2.322285,-1.662725,1.201881,-1.436792,1.717849,1.242453,-0.577927,0.307949,-0.003376,0.751905,-0.295034,-0.236122,0.684477,-0.083935,0.724836,39.916119,-23.381241,-3.797121,0.542386,1.903487,-0.196061,0.000000,0.000000,0.000000,0.000000,0.000000,0.000000
15706678.000000,-2.321980,-1.662732,1.202622,-1.437079,1.717625,1.243162,-0.578007,0.306671,-0.003686,0.748598,-0.294755,-0.232755,0.691196,-0.082284,0.847822,39.987530,-23.186844,-3.844728,0.524076,1.786300,-0.182328,0.000000,0.000000,0.000000,0.000000,0.000000,0.000000
15706679.000000,-2.321676,-1.662735,1.203379,-1.437384,1.717402,1.243857,-0.578084,0.307431,-0.002931,0.749669,-0.293431,-0.225206,0.703691,-0.079222,0.923200,40.015301,-23.135269,-3.670168,0.494779,1.844894,-0.215287,0.000000,0.000000,0.000000,0.000000,0.000000,0.000000
15706680.000000,-2.321363,-1.662735,1.204130,-1.437663,1.717183,1.244543,-0.578162,0.306971,-0.001822,0.747224,-0.290609,-0.221054,0.698015,-0.078561,0.947004,40.015301,-22.940872,-3.721742,0.500272,1.923629,-0.208878,0.000000,0.000000,0.000000,0.000000,0.000000,0.000000
15706681.000000,-2.321053,-1.662739,1.204862,-1.437962,1.716948,1.245268,-0.578249,0.307797,-0.002229,0.741347,-0.292488,-0.224468,0.704663,-0.079644,0.994611,40.062908,-22.694901,-3.598757,0.571683,1.767074,-0.155778,0.000000,0.000000,0.000000,0.000000,0.000000,0.000000
15706682.000000,-2.320751,-1.662740,1.205616,-1.438263,1.716729,1.245976,-0.578321,0.305902,-0.005128,0.744371,-0.291516,-0.223358,0.701312,-0.075690,1.022382,40.086712,-22.671097,-3.448000,0.571683,1.624252,-0.229020,0.000000,0.000000,0.000000,0.000000,0.000000,0.000000
15706683.000000,-2.320441,-1.662732,1.206359,-1.438552,1.716508,1.246691,-0.578406,0.302864,-0.000193,0.748479,-0.288747,-0.223771,0.699564,-0.077750,0.947004,39.939922,-22.694901,-3.376589,0.578092,1.584884,-0.175919,0.000000,0.000000,0.000000,0.000000,0.000000,0.000000
15706684.000000,-2.320136,-1.662724,1.207112,-1.438859,1.716297,1.247377,-0.578485,0.302899,0.002593,0.752419,-0.292092,-0.218495,0.695844,-0.072971,0.947004,39.816936,-22.770279,-3.178224,0.554288,1.656295,-0.155778,0.000000,0.000000,0.000000,0.000000,0.000000,0.000000
15706685.000000,-2.319828,-1.662719,1.207855,-1.439152,1.716080,1.248079,-0.578556,0.304350,0.002725,0.747327,-0.292466,-0.217512,0.695900,-0.076140,0.994611,39.769329,-22.671097,-3.102846,0.601896,1.676437,-0.208878,0.000000,0.000000,0.000000,0.000000,0.000000,0.000000
15706686.000000,-2.319518,-1.662715,1.208596,-1.439446,1.715866,1.248775,-0.578632,0.303359,0.003493,0.741121,-0.293343,-0.220404,0.698698,-0.075810,0.994611,39.693951,-22.718704,-3.003664,0.620206,1.754256,-0.215287,0.000000,0.000000,0.000000,0.000000,0.000000,0.000000
15706687.000000,-2.319214,-1.662703,1.209352,-1.439745,1.715651,1.249456,-0.578707,0.303308,0.005696,0.742492,-0.291439,-0.214189,0.689735,-0.075281,0.970807,39.547161,-22.817886,-2.880678,0.542386,1.819259,-0.229020,0.000000,0.000000,0.000000,0.000000,0.000000,0.000000
15706688.000000,-2.318904,-1.662687,1.210103,-1.440037,1.715437,1.250156,-0.578790,0.303846,0.008852,0.757801,-0.289886,-0.216801,0.686577,-0.078330,0.895429,39.328960,-22.988480,-2.757692,0.535978,1.812850,-0.149369,0.000000,0.000000,0.000000,0.000000,0.000000,0.000000
15706689.000000,-2.318600,-1.662679,1.210861,-1.440333,1.715221,1.250841,-0.578858,0.310215,0.008742,0.753114,-0.290471,-0.215363,0.686963,-0.074801,0.923200,39.205975,-23.111465,-2.658510,0.566190,1.773483,-0.215287,0.000000,0.000000,0.000000,0.000000,0.000000,0.000000
15706690.000000,-2.318296,-1.662668,1.211612,-1.440628,1.715009,1.251539,-0.578936,0.311667,0.009234,0.748513,-0.296035,-0.214702,0.686175,-0.079666,0.895429,39.059185,-23.210648,-2.559328,0.601896,1.793624,-0.202470,0.000000,0.000000,0.000000,0.000000,0.000000,0.000000
15706691.000000,-2.317990,-1.662652,1.212351,-1.440922,1.714792,1.252221,-0.579013,0.308495,0.010682,0.748110,-0.292652,-0.209991,0.679365,-0.083471,0.895429,38.864788,-23.286026,-2.460146,0.661405,1.890670,-0.196061,0.000000,0.000000,0.000000,0.000000,0.000000,0.000000
15706692.000000,-2.317689,-1.662643,1.213104,-1.441216,1.714587,1.252907,-0.579087,0.307024,0.009983,0.746291,-0.294380,-0.207061,0.678685,-0.075744,0.871625,38.741802,-23.333633,-2.436342,0.613798,1.916305,-0.221696,0.000000,0.000000,0.000000,0.000000,0.000000,0.000000
15706693.000000,-2.317394,-1.662636,1.213853,-1.441503,1.714375,1.253593,-0.579166,0.303570,0.008964,0.747698,-0.292614,-0.207506,0.681567,-0.077644,0.947004,38.642620,-23.309830,-2.436342,0.625699,1.942855,-0.169511,0.000000,0.000000,0.000000,0.000000,0.000000,0.000000
15706694.000000,-2.317099,-1.662627,1.214593,-1.441782,1.714166,1.254292,-0.579235,0.301805,0.008287,0.749319,-0.284833,-0.205890,0.683057,-0.074558,0.994611,38.543438,-23.309830,-2.559328,0.601896,1.897079,-0.229020,0.000000,0.000000,0.000000,0.000000,0.000000,0.000000
15706695.000000,-2.316807,-1.662612,1.215326,-1.442068,1.713968,1.254980,-0.579313,0.297171,0.009509,0.742203,-0.291602,-0.204014,0.682181,-0.076365,1.069990,38.372845,-23.135269,-2.634706,0.547880,1.838485,-0.188737,0.000000,0.000000,0.000000,0.000000,0.000000,0.000000
15706696.000000,-2.316510,-1.662604,1.216058,-1.442353,1.713766,1.255670,-0.579393,0.295841,0.011148,0.737397,-0.287299,-0.199998,0.675498,-0.077733,1.145368,38.301434,-23.040054,-2.658510,0.542386,1.844894,-0.142960,0.000000,0.000000,0.000000,0.000000,0.000000,0.000000
15706697.000000,-2.316217,-1.662594,1.216793,-1.442642,1.713568,1.256358,-0.579460,0.296792,0.010010,0.732120,-0.285817,-0.196986,0.684612,-0.073607,1.192975,38.202251,-22.893265,-2.583132,0.535978,1.897079,-0.229020,0.000000,0.000000,0.000000,0.000000,0.000000,0.000000
15706698.000000,-2.315917,-1.662585,1.217524,-1.442925,1.713367,1.257045,-0.579541,0.296002,0.008538,0.726706,-0.287132,-0.199674,0.685264,-0.071953,1.145368,38.130840,-22.647293,-2.559328,0.542386,1.844894,-0.163102,0.000000,0.000000,0.000000,0.000000,0.000000,0.000000
15706699.000000,-2.315629,-1.662574,1.218260,-1.443202,1.713160,1.257756,-0.579614,0.291868,0.010187,0.728079,-0.281749,-0.202489,0.690454,-0.071928,1.244550,38.079266,-22.623489,-2.658510,0.566190,1.721298,-0.182328,0.000000,0.000000,0.000000,0.000000,0.000000,0.000000
15706700.000000,-2.315342,-1.662567,1.218998,-1.443484,1.712960,1.258458,-0.579688,0.292616,0.006605,0.730317,-0.280465,-0.206423,0.696119,-0.073936,1.315961,38.103069,-22.595718,-2.658510,0.547880,1.578475,-0.149369,0.000000,0.000000,0.000000,0.000000,0.000000,0.000000
15706701.000000,-2.315046,-1.662558,1.219732,-1.443756,1.712762,1.259160,-0.579752,0.294342,0.007958,0.729433,-0.280062,-0.203041,0.690259,-0.071792,1.315961,38.103069,-22.647293,-2.757692,0.571683,1.546432,-0.215287,0.000000,0.000000,0.000000,0.000000,0.000000,0.000000
15706702.000000,-2.314757,-1.662553,1.220472,-1.444036,1.712565,1.259843,-0.579828,0.299335,0.006509,0.730013,-0.279716,-0.204023,0.688011,-0.069617,1.391340,38.202251,-22.647293,-2.706117,0.578092,1.662704,-0.169511,0.000000,0.000000,0.000000,0.000000,0.000000,0.000000
15706703.000000,-2.314463,-1.662547,1.221216,-1.444303,1.712376,1.260536,-0.579891,0.293563,0.004397,0.730932,-0.275657,-0.199764,0.680338,-0.064401,1.391340,38.226055,-22.718704,-2.706117,0.571683,1.714889,-0.221696,0.000000,0.000000,0.000000,0.000000,0.000000,0.000000
15706704.000000,-2.314165,-1.662545,1.221950,-1.444577,1.712178,1.261239,-0.579961,0.293563,0.001629,0.737597,-0.273393,-0.202674,0.680155,-0.063210,1.343732,38.301434,-22.865494,-2.682314,0.608304,1.714889,-0.202470,0.000000,0.000000,0.000000,0.000000,0.000000,0.000000
15706705.000000,-2.313885,-1.662542,1.222686,-1.444845,1.711985,1.261924,-0.580037,0.290474,0.000318,0.736578,-0.270246,-0.201306,0.675756,-0.067970,1.415143,38.349041,-22.964676,-2.706117,0.547880,1.773483,-0.155778,0.000000,0.000000,0.000000,0.000000,0.000000,0.000000
15706706.000000,-2.313593,-1.662540,1.223422,-1.445104,1.711792,1.262627,-0.580102,0.285501,-0.001848,0.740107,-0.267469,-0.197998,0.678611,-0.067455,1.442914,38.448223,-23.186844,-2.757692,0.542386,1.806442,-0.215287,0.000000,0.000000,0.000000,0.000000,0.000000,0.000000
15706707.000000,-2.313302,-1.662545,1.224158,-1.445367,1.711598,1.263318,-0.580175,0.295038,-0.001864,0.734005,-0.264163,-0.192016,0.699640,-0.071062,1.415143,38.618816,-23.210648,-2.833071,0.578092,1.786300,-0.169511,0.000000,0.000000,0.000000,0.000000,0.000000,0.000000
15706708.000000,-2.313012,-1.662550,1.224893,-1.445624,1.711408,1.264021,-0.580243,0.293157,-0.004824,0.727431,-0.264634,-0.191805,0.695610,-0.067074,1.415143,38.789410,-23.163040,-2.880678,0.601896,1.812850,-0.169511,0.000000,0.000000,0.000000,0.000000,0.000000,0.000000
15706709.000000,-2.312716,-1.662553,1.225622,-1.445880,1.711214,1.264724,-0.580307,0.291928,-0.002209,0.727361,-0.257189,-0.192124,0.698890,-0.066831,1.315961,38.888592,-23.111465,-2.928285,0.637601,1.858627,-0.229020,0.000000,0.000000,0.000000,0.000000,0.000000,0.000000
15706710.000000,-2.312432,-1.662556,1.226360,-1.446131,1.711033,1.265422,-0.580384,0.287768,-0.003218,0.728149,-0.254645,-0.188624,0.694953,-0.071056,1.315961,38.983807,-23.135269,-3.102846,0.571683,1.844894,-0.175919,0.000000,0.000000,0.000000,0.000000,0.000000,0.000000
15706711.000000,-2.312144,-1.662561,1.227100,-1.446378,1.710845,1.266135,-0.580447,0.287509,-0.004661,0.731449,-0.251650,-0.187644,0.692576,-0.070064,1.315961,39.106792,-23.111465,-3.225832,0.547880,1.714889,-0.229020,0.000000,0.000000,0.000000,0.000000,0.000000,0.000000
15706712.000000,-2.311860,-1.662564,1.227821,-1.446622,1.710653,1.266844,-0.580519,0.286804,-0.003393,0.725646,-0.247488,-0.186808,0.692262,-0.068247,1.367536,39.130596,-23.040054,-3.400392,0.524076,1.630660,-0.188737,0.000000,0.000000,0.000000,0.000000,0.000000,0.000000
15706713.000000,-2.311572,-1.662563,1.228549,-1.446876,1.710466,1.267537,-0.580584,0.287817,-0.001502,0.728289,-0.248868,-0.190916,0.689219,-0.069139,1.343732,39.106792,-22.917068,-3.424196,0.530485,1.630660,-0.208878,0.000000,0.000000,0.000000,0.000000,0.000000,0.000000
15706714.000000,-2.311276,-1.662565,1.229270,-1.447117,1.710280,1.268222,-0.580655,0.289658,-0.000849,0.729343,-0.246300,-0.190061,0.686332,-0.072184,1.244550,39.106792,-22.794083,-3.570986,0.524076,1.721298,-0.169511,0.000000,0.000000,0.000000,0.000000,0.000000,0.000000
15706715.000000,-2.310992,-1.662561,1.229995,-1.447362,1.710094,1.268920,-0.580722,0.287499,0.001219,0.727203,-0.245463,-0.185693,0.689446,-0.071452,1.169172,39.035381,-22.647293,-3.670168,0.542386,1.747848,-0.202470,0.000000,0.000000,0.000000,0.000000,0.000000,0.000000
15706716.000000,-2.310700,-1.662559,1.230724,-1.447595,1.709917,1.269624,-0.580790,0.289911,0.001455,0.724577,-0.242096,-0.180607,0.692349,-0.067718,1.069990,39.011578,-22.472733,-3.769350,0.518583,1.605026,-0.202470,0.000000,0.000000,0.000000,0.000000,0.000000,0.000000
15706717.000000,-2.310408,-1.662555,1.231446,-1.447832,1.709738,1.270327,-0.580862,0.290836,0.001684,0.723946,-0.236447,-0.181194,0.695185,-0.071006,0.994611,38.983807,-22.472733,-3.868532,0.476469,1.539108,-0.163102,0.000000,0.000000,0.000000,0.000000,0.000000,0.000000
15706718.000000,-2.310114,-1.662550,1.232177,-1.448064,1.709556,1.271008,-0.580923,0.293437,0.002841,0.723590,-0.235124,-0.189834,0.696459,-0.070047,0.847822,38.912395,-22.448929,-3.967714,0.434354,1.605026,-0.215287,0.000000,0.000000,0.000000,0.000000,0.000000,0.000000
15706719.000000,-2.309815,-1.662548,1.232901,-1.448291,1.709377,1.271690,-0.580993,0.291369,0.002487,0.724334,-0.233005,-0.184711,0.681836,-0.067742,0.697065,38.888592,-22.500504,-3.991518,0.428861,1.708480,-0.188737,0.000000,0.000000,0.000000,0.000000,0.000000,0.000000
15706720.000000,-2.309518,-1.662544,1.233616,-1.448526,1.709186,1.272372,-0.581063,0.294688,0.002892,0.719118,-0.231812,-0.188458,0.679187,-0.070146,0.502668,38.837017,-22.325943,-3.967714,0.506681,1.786300,-0.169511,0.000000,0.000000,0.000000,0.000000,0.000000,0.000000
15706721.000000,-2.309223,-1.662539,1.234355,-1.448746,1.709010,1.273065,-0.581122,0.292092,0.003619,0.721664,-0.228185,-0.183869,0.676940,-0.069245,0.375715,38.765606,-22.425125,-4.066896,0.512174,1.767074,-0.215287,0.000000,0.000000,0.000000,0.000000,0.000000,0.000000
15706722.000000,-2.308922,-1.662532,1.235089,-1.448969,1.708838,1.273771,-0.581193,0.295408,0.005305,0.728194,-0.225604,-0.177469,0.685356,-0.072582,0.153547,38.642620,-22.595718,-4.166078,0.440763,1.682845,-0.169511,0.000000,0.000000,0.000000,0.000000,0.000000,0.000000
15706723.000000,-2.308629,-1.662531,1.235828,-1.449182,1.708663,1.274466,-0.581257,0.292903,0.003548,0.730622,-0.221884,-0.174935,0.695332,-0.066551,0.030561,38.642620,-22.742508,-4.340639,0.416959,1.572067,-0.221696,0.000000,0.000000,0.000000,0.000000,0.000000,0.000000
15706724.000000,-2.308331,-1.662534,1.236567,-1.449399,1.708486,1.275158,-0.581329,0.292780,0.001260,0.732857,-0.221792,-0.177896,0.687783,-0.065400,-0.068621,38.690228,-22.865494,-4.412050,0.405057,1.597701,-0.188737,0.000000,0.000000,0.000000,0.000000,0.000000,0.000000
15706725.000000,-2.308029,-1.662534,1.237291,-1.449615,1.708299,1.275840,-0.581399,0.300213,0.000847,0.729372,-0.217420,-0.177823,0.696847,-0.068611,-0.266986,38.690228,-22.917068,-4.511232,0.464567,1.741439,-0.163102,0.000000,0.000000,0.000000,0.000000,0.000000,0.000000
15706726.000000,-2.307726,-1.662536,1.238028,-1.449820,1.708120,1.276503,-0.581460,0.300764,-0.000080,0.727880,-0.215446,-0.180430,0.683330,-0.067909,-0.512957,38.717999,-23.040054,-4.661989,0.470060,1.923629,-0.215287,0.000000,0.000000,0.000000,0.000000,0.000000,0.000000
15706727.000000,-2.307428,-1.662541,1.238752,-1.450034,1.707951,1.277190,-0.581532,0.299643,-0.001720,0.731857,-0.213163,-0.180206,0.680255,-0.065618,-0.663714,38.789410,-23.063858,-4.757204,0.416959,1.955673,-0.202470,0.000000,0.000000,0.000000,0.000000,0.000000,0.000000
15706728.000000,-2.307133,-1.662546,1.239498,-1.450239,1.707778,1.277878,-0.581606,0.300189,-0.002907,0.732678,-0.208467,-0.176482,0.679999,-0.065285,-0.834307,38.864788,-23.286026,-4.983339,0.393156,1.806442,-0.149369,0.000000,0.000000,0.000000,0.000000,0.000000,0.000000
15706729.000000,-2.306842,-1.662551,1.240232,-1.450440,1.707607,1.278579,-0.581670,0.296124,-0.003050,0.727928,-0.204194,-0.170132,0.684937,-0.067639,-0.834307,38.912395,-23.258255,-5.130128,0.393156,1.656295,-0.149369,0.000000,0.000000,0.000000,0.000000,0.000000,0.000000
15706730.000000,-2.306539,-1.662555,1.240955,-1.450641,1.707443,1.279260,-0.581730,0.297400,-0.003702,0.721364,-0.201053,-0.168260,0.676832,-0.067177,-0.985064,38.983807,-23.234451,-5.253114,0.344633,1.695663,-0.208878,0.000000,0.000000,0.000000,0.000000,0.000000,0.000000
15706731.000000,-2.306243,-1.662563,1.241679,-1.450850,1.707271,1.279924,-0.581800,0.294383,-0.004787,0.719542,-0.200555,-0.173998,0.668721,-0.065891,-1.108050,39.082989,-23.135269,-5.304689,0.386747,1.832076,-0.175919,0.000000,0.000000,0.000000,0.000000,0.000000,0.000000
15706732.000000,-2.305954,-1.662567,1.242391,-1.451061,1.707092,1.280592,-0.581866,0.289053,-0.004304,0.718417,-0.204449,-0.174143,0.666672,-0.068943,-1.131854,39.130596,-22.964676,-5.304689,0.422452,1.936446,-0.155778,0.000000,0.000000,0.000000,0.000000,0.000000,0.000000
15706733.000000,-2.305662,-1.662575,1.243109,-1.451265,1.706919,1.281267,-0.581925,0.288112,-0.004632,0.718404,-0.204817,-0.173019,0.667067,-0.067851,-1.231036,39.205975,-22.817886,-5.376100,0.428861,1.903487,-0.221696,0.000000,0.000000,0.000000,0.000000,0.000000,0.000000
15706734.000000,-2.305366,-1.662577,1.243841,-1.451464,1.706757,1.281959,-0.581995,0.291042,-0.003644,0.718692,-0.202510,-0.169272,0.674903,-0.072012,-1.354022,39.229778,-22.794083,-5.451478,0.356534,1.767074,-0.163102,0.000000,0.000000,0.000000,0.000000,0.000000,0.000000
15706735.000000,-2.305074,-1.662576,1.244570,-1.451662,1.706593,1.282656,-0.582054,0.289703,-0.001872,0.723138,-0.198840,-0.166435,0.678854,-0.066598,-1.354022,39.205975,-22.964676,-5.598268,0.285123,1.637069,-0.202470,0.000000,0.000000,0.000000,0.000000,0.000000,0.000000
15706736.000000,-2.304784,-1.662580,1.245300,-1.451870,1.706431,1.283329,-0.582117,0.287546,-0.001805,0.719519,-0.199979,-0.165729,0.675216,-0.064327,-1.429400,39.229778,-22.940872,-5.598268,0.255826,1.689254,-0.196061,0.000000,0.000000,0.000000,0.000000,0.000000,0.000000
15706737.000000,-2.304487,-1.662591,1.246013,-1.452072,1.706260,1.284005,-0.582184,0.289673,-0.004637,0.730177,-0.201717,-0.169169,0.666019,-0.068550,-1.552386,39.376568,-22.917068,-5.550661,0.315336,1.812850,-0.155778,0.000000,0.000000,0.000000,0.000000,0.000000,0.000000
15706738.000000,-2.304197,-1.662598,1.246753,-1.452275,1.706092,1.284685,-0.582241,0.296328,-0.005411,0.731520,-0.201696,-0.169621,0.665638,-0.063604,-1.679339,39.475750,-23.087662,-5.526857,0.332731,1.930038,-0.202470,0.000000,0.000000,0.000000,0.000000,0.000000,0.000000
15706739.000000,-2.303908,-1.662602,1.247495,-1.452476,1.705919,1.285366,-0.582310,0.292775,-0.004721,0.729188,-0.202180,-0.170431,0.666641,-0.068614,-1.778521,39.523357,-23.309830,-5.499086,0.351041,1.936446,-0.136552,0.000000,0.000000,0.000000,0.000000,0.000000,0.000000
15706740.000000,-2.303618,-1.662612,1.248231,-1.452673,1.705742,1.286067,-0.582362,0.292721,-0.006024,0.734686,-0.196995,-0.170012,0.673803,-0.062942,-1.849932,39.646343,-23.579605,-5.574464,0.344633,1.838485,-0.202470,0.000000,0.000000,0.000000,0.000000,0.000000,0.000000
15706741.000000,-2.303337,-1.662626,1.248976,-1.452873,1.705563,1.286754,-0.582423,0.291107,-0.007450,0.736928,-0.194720,-0.166522,0.681639,-0.066138,-1.826129,39.793133,-23.801773,-5.574464,0.381254,1.754256,-0.202470,0.000000,0.000000,0.000000,0.000000,0.000000,0.000000
15706742.000000,-2.303046,-1.662639,1.249719,-1.453066,1.705389,1.287432,-0.582481,0.291830,-0.008400,0.737023,-0.192632,-0.163841,0.675830,-0.063538,-1.925311,39.939922,-24.043777,-5.598268,0.422452,1.832076,-0.208878,0.000000,0.000000,0.000000,0.000000,0.000000,0.000000
15706743.000000,-2.302761,-1.662660,1.250446,-1.453270,1.705209,1.288095,-0.582548,0.284119,-0.013952,0.733412,-0.195327,-0.167099,0.666583,-0.063685,-1.901507,40.162090,-24.119156,-5.550661,0.488370,2.007858,-0.155778,0.000000,0.000000,0.000000,0.000000,0.000000,0.000000
15706744.000000,-2.302488,-1.662686,1.251183,-1.453479,1.705046,1.288756,-0.582612,0.280808,-0.019474,0.730371,-0.199735,-0.166571,0.656190,-0.061998,-1.849932,40.455669,-24.265945,-5.499086,0.470060,2.072860,-0.142960,0.000000,0.000000,0.000000,0.000000,0.000000,0.000000
15706745.000000,-2.302209,-1.662703,1.251908,-1.453681,1.704875,1.289433,-0.582663,0.276866,-0.020128,0.729706,-0.201076,-0.166959,0.658563,-0.062442,-1.849932,40.602459,-24.265945,-5.451478,0.470060,2.039901,-0.215287,0.000000,0.000000,0.000000,0.000000,0.000000,0.000000
15706746.000000,-2.301937,-1.662722,1.252647,-1.453878,1.704708,1.290105,-0.582732,0.274416,-0.019960,0.728951,-0.196862,-0.164786,0.658019,-0.068441,-1.750750,40.725445,-24.388931,-5.475282,0.405057,1.923629,-0.142960,0.000000,0.000000,0.000000,0.000000,0.000000,0.000000
15706747.000000,-2.301660,-1.662735,1.253381,-1.454081,1.704538,1.290788,-0.582784,0.273350,-0.015132,0.727911,-0.202113,-0.164883,0.655621,-0.067852,-1.679339,40.773052,-24.341324,-5.427675,0.374845,1.871444,-0.202470,0.000000,0.000000,0.000000,0.000000,0.000000,0.000000
15706748.000000,-2.301391,-1.662754,1.254101,-1.454284,1.704368,1.291464,-0.582841,0.271092,-0.016090,0.722748,-0.198338,-0.167281,0.656581,-0.069285,-1.528582,40.872234,-24.242142,-5.427675,0.405057,1.871444,-0.215287,0.000000,0.000000,0.000000,0.000000,0.000000,0.000000
15706749.000000,-2.301122,-1.662770,1.254835,-1.454490,1.704196,1.292131,-0.582903,0.268740,-0.016223,0.725041,-0.199568,-0.173970,0.656758,-0.067649,-1.480975,40.943645,-24.166763,-5.399904,0.470060,1.923629,-0.175919,0.000000,0.000000,0.000000,0.000000,0.000000,0.000000
15706750.000000,-2.300855,-1.662778,1.255553,-1.454692,1.704031,1.292798,-0.582957,0.265218,-0.011019,0.725975,-0.200315,-0.173162,0.658916,-0.063796,-1.381793,40.919842,-23.996170,-5.376100,0.488370,1.962081,-0.202470,0.000000,0.000000,0.000000,0.000000,0.000000,0.000000
15706751.000000,-2.300591,-1.662788,1.256281,-1.454904,1.703870,1.293482,-0.583018,0.264927,-0.010523,0.725992,-0.204424,-0.166223,0.669771,-0.059434,-1.354022,40.896038,-23.920792,-5.304689,0.464567,1.968490,-0.142960,0.000000,0.000000,0.000000,0.000000,0.000000,0.000000
15706752.000000,-2.300322,-1.662795,1.257011,-1.455113,1.703713,1.294169,-0.583074,0.266215,-0.009110,0.721771,-0.202698,-0.161634,0.678828,-0.057065,-1.306414,40.820660,-23.801773,-5.328493,0.446256,1.806442,-0.182328,0.000000,0.000000,0.000000,0.000000,0.000000,0.000000
15706753.000000,-2.300054,-1.662799,1.257727,-1.455330,1.703555,1.294863,-0.583128,0.264498,-0.007114,0.717287,-0.208106,-0.160732,0.677283,-0.056709,-1.254840,40.697674,-23.750198,-5.205507,0.374845,1.708480,-0.188737,0.000000,0.000000,0.000000,0.000000,0.000000,0.000000
15706754.000000,-2.299785,-1.662804,1.258462,-1.455548,1.703385,1.295533,-0.583187,0.266000,-0.007517,0.720313,-0.209358,-0.163868,0.678570,-0.057598,-1.306414,40.650066,-23.801773,-5.054750,0.381254,1.779891,-0.163102,0.000000,0.000000,0.000000,0.000000,0.000000,0.000000
15706755.000000,-2.299519,-1.662805,1.259192,-1.455768,1.703220,1.296214,-0.583248,0.263735,-0.002467,0.730643,-0.213846,-0.160435,0.675450,-0.058288,-1.254840,40.503277,-23.801773,-4.884157,0.374845,1.825668,-0.136552,0.000000,0.000000,0.000000,0.000000,0.000000,0.000000
15706756.000000,-2.299257,-1.662812,1.259907,-1.455990,1.703046,1.296898,-0.583301,0.269330,-0.001198,0.726033,-0.216241,-0.165707,0.685635,-0.051459,-1.282611,40.455669,-23.726395,-4.733400,0.464567,1.844894,-0.175919,0.000000,0.000000,0.000000,0.000000,0.000000,0.000000
15706757.000000,-2.298994,-1.662813,1.260634,-1.456209,1.702882,1.297587,-0.583350,0.265335,-0.001472,0.724663,-0.219212,-0.167641,0.681258,-0.050747,-1.306414,40.332684,-23.774002,-4.634218,0.500272,1.844894,-0.221696,0.000000,0.000000,0.000000,0.000000,0.000000,0.000000
15706758.000000,-2.298727,-1.662807,1.261356,-1.456429,1.702724,1.298286,-0.583414,0.264048,-0.000106,0.728279,-0.219275,-0.166775,0.683331,-0.050097,-1.282611,40.134319,-23.849380,-4.535036,0.470060,1.786300,-0.155778,0.000000,0.000000,0.000000,0.000000,0.000000,0.000000
15706759.000000,-2.298467,-1.662809,1.262092,-1.456652,1.702565,1.298979,-0.583465,0.263632,0.000866,0.730400,-0.221993,-0.162470,0.693256,-0.044913,-1.254840,40.062908,-23.948563,-4.463624,0.464567,1.773483,-0.208878,0.000000,0.000000,0.000000,0.000000,0.000000,0.000000
15706760.000000,-2.298207,-1.662817,1.262820,-1.456874,1.702404,1.299664,-0.583518,0.261966,-0.003133,0.728004,-0.221607,-0.164725,0.689420,-0.047424,-1.207232,40.062908,-23.996170,-4.364442,0.482877,1.735030,-0.221696,0.000000,0.000000,0.000000,0.000000,0.000000,0.000000
15706761.000000,-2.297940,-1.662816,1.263541,-1.457103,1.702238,1.300335,-0.583574,0.263277,-0.002489,0.724330,-0.222572,-0.166049,0.679551,-0.050552,-1.231036,39.916119,-24.095352,-4.189882,0.494779,1.825668,-0.196061,0.000000,0.000000,0.000000,0.000000,0.000000,0.000000
15706762.000000,-2.297680,-1.662824,1.264272,-1.457325,1.702074,1.300992,-0.583632,0.261557,-0.004917,0.722347,-0.223019,-0.170501,0.670643,-0.052439,-1.282611,39.892315,-24.289749,-4.118471,0.494779,2.007858,-0.175919,0.000000,0.000000,0.000000,0.000000,0.000000,0.000000
15706763.000000,-2.297430,-1.662828,1.264992,-1.457546,1.701919,1.301672,-0.583685,0.255516,-0.006047,0.724745,-0.224203,-0.163994,0.669512,-0.053125,-1.159625,39.840740,-24.341324,-4.066896,0.452665,2.066451,-0.182328,0.000000,0.000000,0.000000,0.000000,0.000000,0.000000
15706764.000000,-2.297181,-1.662833,1.265716,-1.457769,1.701758,1.302354,-0.583736,0.252652,-0.007457,0.720177,-0.222341,-0.161616,0.666493,-0.051911,-1.060443,39.816936,-24.365128,-3.991518,0.476469,1.955673,-0.235429,0.000000,0.000000,0.000000,0.000000,0.000000,0.000000
15706765.000000,-2.296931,-1.662831,1.266439,-1.457986,1.701601,1.303041,-0.583798,0.252280,-0.003017,0.714698,-0.223265,-0.164114,0.662084,-0.055876,-0.909686,39.693951,-24.313553,-3.967714,0.488370,1.923629,-0.163102,0.000000,0.000000,0.000000,0.000000,0.000000,0.000000
15706766.000000,-2.296679,-1.662827,1.267154,-1.458206,1.701451,1.303724,-0.583849,0.250747,-0.002406,0.715358,-0.224478,-0.159526,0.665050,-0.054170,-0.834307,39.547161,-24.313553,-3.920107,0.458158,1.962081,-0.208878,0.000000,0.000000,0.000000,0.000000,0.000000,0.000000
15706767.000000,-2.296429,-1.662826,1.267875,-1.458438,1.701301,1.304399,-0.583908,0.250831,-0.003760,0.716749,-0.227498,-0.157489,0.665021,-0.055547,-0.810504,39.475750,-24.265945,-3.797121,0.482877,2.039901,-0.188737,0.000000,0.000000,0.000000,0.000000,0.000000,0.000000
15706768.000000,-2.296180,-1.662828,1.268571,-1.458666,1.701145,1.305084,-0.583957,0.248839,-0.003346,0.710980,-0.226482,-0.161882,0.668884,-0.054035,-0.735125,39.475750,-23.996170,-3.670168,0.524076,2.007858,-0.235429,0.000000,0.000000,0.000000,0.000000,0.000000,0.000000
15706769.000000,-2.295936,-1.662826,1.269282,-1.458896,1.700992,1.305780,-0.584021,0.248750,-0.002303,0.707710,-0.222944,-0.157808,0.679510,-0.057091,-0.687518,39.451946,-23.873184,-3.499574,0.494779,1.962081,-0.169511,0.000000,0.000000,0.000000,0.000000,0.000000,0.000000
15706770.000000,-2.295692,-1.662819,1.270004,-1.459117,1.700836,1.306464,-0.584072,0.249128,-0.000244,0.709552,-0.221024,-0.155583,0.677813,-0.055404,-0.663714,39.376568,-23.825577,-3.448000,0.482877,1.897079,-0.196061,0.000000,0.000000,0.000000,0.000000,0.000000,0.000000
15706771.000000,-2.295452,-1.662810,1.270711,-1.459347,1.700687,1.307158,-0.584124,0.244351,0.002360,0.707752,-0.221292,-0.148605,0.682516,-0.050757,-0.512957,39.253582,-23.774002,-3.325014,0.458158,1.773483,-0.202470,0.000000,0.000000,0.000000,0.000000,0.000000,0.000000
15706772.000000,-2.295208,-1.662805,1.271426,-1.459574,1.700536,1.307832,-0.584183,0.246730,0.002979,0.704702,-0.222823,-0.149581,0.683222,-0.048270,-0.489153,39.182171,-23.702591,-3.277406,0.470060,1.773483,-0.182328,0.000000,0.000000,0.000000,0.000000,0.000000,0.000000
15706773.000000,-2.294965,-1.662799,1.272134,-1.459793,1.700383,1.308510,-0.584235,0.245563,0.002993,0.703628,-0.220668,-0.147600,0.669742,-0.049860,-0.489153,39.130596,-23.750198,-3.249635,0.535978,1.832076,-0.196061,0.000000,0.000000,0.000000,0.000000,0.000000,0.000000
15706774.000000,-2.294728,-1.662793,1.272854,-1.460013,1.700236,1.309175,-0.584286,0.249393,0.003516,0.708589,-0.219399,-0.144033,0.668369,-0.051741,-0.389971,39.059185,-23.801773,-3.325014,0.559781,1.955673,-0.188737,0.000000,0.000000,0.000000,0.000000,0.000000,0.000000
15706775.000000,-2.294491,-1.662796,1.273583,-1.460239,1.700096,1.309847,-0.584334,0.245566,0.001119,0.713203,-0.224205,-0.139515,0.662322,-0.051398,-0.342364,39.106792,-23.948563,-3.249635,0.524076,2.001449,-0.221696,0.000000,0.000000,0.000000,0.000000,0.000000,0.000000
15706776.000000,-2.294260,-1.662791,1.274294,-1.460453,1.699952,1.310539,-0.584389,0.239552,0.002332,0.715017,-0.216980,-0.142292,0.672339,-0.048048,-0.243182,39.035381,-24.119156,-3.301210,0.524076,1.974899,-0.221696,0.000000,0.000000,0.000000,0.000000,0.000000,0.000000
15706777.000000,-2.294030,-1.662793,1.275011,-1.460674,1.699805,1.311219,-0.584452,0.241106,0.000935,0.708141,-0.217440,-0.143063,0.676836,-0.053121,-0.167803,39.059185,-24.242142,-3.225832,0.494779,1.916305,-0.142960,0.000000,0.000000,0.000000,0.000000,0.000000,0.000000
15706778.000000,-2.293795,-1.662792,1.275727,-1.460887,1.699663,1.311897,-0.584495,0.235834,0.000019,0.702357,-0.215986,-0.143654,0.669620,-0.045882,-0.092425,39.082989,-24.341324,-3.249635,0.458158,1.949264,-0.229020,0.000000,0.000000,0.000000,0.000000,0.000000,0.000000
15706779.000000,-2.293563,-1.662799,1.276438,-1.461110,1.699512,1.312572,-0.584556,0.231605,-0.002343,0.707055,-0.217809,-0.146572,0.674579,-0.046340,0.006757,39.182171,-24.388931,-3.126650,0.488370,1.981307,-0.163102,0.000000,0.000000,0.000000,0.000000,0.000000,0.000000
15706780.000000,-2.293329,-1.662803,1.277150,-1.461320,1.699373,1.313242,-0.584607,0.234023,-0.003259,0.705040,-0.215805,-0.147975,0.670277,-0.053032,0.006757,39.253582,-24.412735,-3.154421,0.518583,1.949264,-0.175919,0.000000,0.000000,0.000000,0.000000,0.000000,0.000000
15706781.000000,-2.293095,-1.662807,1.277855,-1.461528,1.699230,1.313927,-0.584653,0.231613,-0.002842,0.707079,-0.216383,-0.144870,0.672832,-0.052593,0.054365,39.281353,-24.365128,-3.102846,0.542386,1.903487,-0.208878,0.000000,0.000000,0.000000,0.000000,0.000000,0.000000
15706782.000000,-2.292876,-1.662818,1.278571,-1.461735,1.699089,1.314589,-0.584707,0.229120,-0.005343,0.706133,-0.212551,-0.141543,0.669335,-0.054549,0.252729,39.428143,-24.341324,-3.202028,0.547880,1.916305,-0.182328,0.000000,0.000000,0.000000,0.000000,0.000000,0.000000
15706783.000000,-2.292651,-1.662822,1.279284,-1.461943,1.698955,1.315266,-0.584759,0.224581,-0.004687,0.707656,-0.210691,-0.138494,0.668266,-0.055681,0.304304,39.475750,-24.265945,-3.154421,0.535978,1.903487,-0.163102,0.000000,0.000000,0.000000,0.000000,0.000000,0.000000
15706784.000000,-2.292433,-1.662825,1.279978,-1.462139,1.698817,1.315946,-0.584804,0.221583,-0.004247,0.703025,-0.205782,-0.136299,0.667228,-0.053918,0.474897,39.523357,-24.095352,-3.249635,0.530485,1.897079,-0.215287,0.000000,0.000000,0.000000,0.000000,0.000000,0.000000
15706785.000000,-2.292216,-1.662829,1.280683,-1.462343,1.698681,1.316617,-0.584859,0.216361,-0.004044,0.697911,-0.207728,-0.138508,0.666913,-0.055438,0.625654,39.574932,-24.019974,-3.249635,0.512174,1.916305,-0.196061,0.000000,0.000000,0.000000,0.000000,0.000000,0.000000
15706786.000000,-2.291992,-1.662829,1.281380,-1.462540,1.698546,1.317297,-0.584910,0.217273,-0.002701,0.700565,-0.204869,-0.139935,0.670230,-0.056252,0.697065,39.574932,-23.896988,-3.301210,0.470060,1.871444,-0.182328,0.000000,0.000000,0.000000,0.000000,0.000000,0.000000
15706787.000000,-2.291772,-1.662829,1.282084,-1.462744,1.698404,1.317977,-0.584957,0.221052,-0.001804,0.699645,-0.205447,-0.142677,0.676164,-0.054712,0.724836,39.574932,-23.774002,-3.225832,0.470060,1.779891,-0.221696,0.000000,0.000000,0.000000,0.000000,0.000000,0.000000
15706788.000000,-2.291547,-1.662825,1.282791,-1.462936,1.698263,1.318674,-0.585008,0.224290,0.000001,0.697513,-0.199882,-0.141583,0.683682,-0.055662,0.748639,39.523357,-23.603409,-3.277406,0.512174,1.656295,-0.202470,0.000000,0.000000,0.000000,0.000000,0.000000,0.000000
15706789.000000,-2.291325,-1.662817,1.283486,-1.463134,1.698123,1.319368,-0.585064,0.221035,0.002876,0.698397,-0.197676,-0.140495,0.677445,-0.057090,0.796247,39.400372,-23.504227,-3.249635,0.554288,1.605026,-0.169511,0.000000,0.000000,0.000000,0.000000,0.000000,0.000000
15706790.000000,-2.291104,-1.662817,1.284184,-1.463335,1.697990,1.320042,-0.585108,0.220686,0.001916,0.699340,-0.198314,-0.132813,0.677843,-0.050385,0.748639,39.400372,-23.381241,-3.249635,0.535978,1.656295,-0.215287,0.000000,0.000000,0.000000,0.000000,0.000000,0.000000
15706791.000000,-2.290892,-1.662812,1.284888,-1.463524,1.697860,1.320723,-0.585164,0.219710,0.002946,0.708524,-0.194794,-0.132361,0.674530,-0.053618,0.824018,39.328960,-23.309830,-3.301210,0.530485,1.708480,-0.169511,0.000000,0.000000,0.000000,0.000000,0.000000,0.000000
15706792.000000,-2.290666,-1.662803,1.285570,-1.463717,1.697730,1.321404,-0.585208,0.218306,0.004840,0.698538,-0.192309,-0.130781,0.676228,-0.047526,0.824018,39.205975,-23.163040,-3.325014,0.500272,1.695663,-0.221696,0.000000,0.000000,0.000000,0.000000,0.000000,0.000000
15706793.000000,-2.290442,-1.662798,1.286277,-1.463903,1.697603,1.322084,-0.585260,0.220933,0.004989,0.700413,-0.196533,-0.130005,0.668894,-0.050825,0.796247,39.130596,-23.186844,-3.325014,0.470060,1.721298,-0.188737,0.000000,0.000000,0.000000,0.000000,0.000000,0.000000
15706794.000000,-2.290216,-1.662784,1.286972,-1.464101,1.697472,1.322767,-0.585308,0.220128,0.007316,0.696999,-0.198746,-0.128831,0.671326,-0.052220,0.724836,38.960003,-23.234451,-3.277406,0.422452,1.832076,-0.188737,0.000000,0.000000,0.000000,0.000000,0.000000,0.000000
15706795.000000,-2.289994,-1.662774,1.287682,-1.464291,1.697336,1.323466,-0.585353,0.223130,0.007754,0.698228,-0.195387,-0.128944,0.687517,-0.047789,0.649457,38.837017,-23.333633,-3.301210,0.398649,1.819259,-0.208878,0.000000,0.000000,0.000000,0.000000,0.000000,0.000000
15706796.000000,-2.289766,-1.662771,1.288388,-1.464479,1.697193,1.324160,-0.585399,0.225905,0.009447,0.695207,-0.193695,-0.132383,0.693148,-0.050257,0.550275,38.789410,-23.409012,-3.301210,0.464567,1.727706,-0.202470,0.000000,0.000000,0.000000,0.000000,0.000000,0.000000
15706797.000000,-2.289541,-1.662757,1.289089,-1.464666,1.697057,1.324846,-0.585446,0.226135,0.010552,0.702603,-0.191354,-0.132646,0.695767,-0.051721,0.526471,38.618816,-23.504227,-3.325014,0.482877,1.682845,-0.202470,0.000000,0.000000,0.000000,0.000000,0.000000,0.000000
15706798.000000,-2.289316,-1.662742,1.289803,-1.464851,1.696926,1.325516,-0.585498,0.226275,0.011223,0.702989,-0.188937,-0.135997,0.688082,-0.049698,0.375715,38.448223,-23.702591,-3.400392,0.476469,1.721298,-0.163102,0.000000,0.000000,0.000000,0.000000,0.000000,0.000000
15706799.000000,-2.289100,-1.662735,1.290506,-1.465035,1.696792,1.326196,-0.585537,0.223318,0.008187,0.704139,-0.184720,-0.135038,0.682652,-0.044877,0.451093,38.424419,-23.896988,-3.448000,0.482877,1.767074,-0.208878,0.000000,0.000000,0.000000,0.000000,0.000000,0.000000
15706800.000000,-2.288884,-1.662731,1.291207,-1.465215,1.696665,1.326857,-0.585589,0.219557,0.008735,0.699551,-0.184299,-0.133059,0.675962,-0.049487,0.474897,38.424419,-23.849380,-3.499574,0.452665,1.786300,-0.163102,0.000000,0.000000,0.000000,0.000000,0.000000,0.000000
