chaoyuefei/paper-gmrm-data/robot_logs/s2_dq_gmrm_xz_min_0.30_log_20260314_173106.csv
# time_ms,q_0,q_1,q_2,q_3,q_4,q_5,q_6,dq_0,dq_1,dq_2,dq_3,dq_4,dq_5,dq_6,tau_J_0,tau_J_1,tau_J_2,tau_J_3,tau_J_4,tau_J_5,tau_J_6,O_dP_EE_c_0,O_dP_EE_c_1,O_dP_EE_c_2,O_dP_EE_c_3,O_dP_EE_c_4,O_dP_EE_c_5
12128440.000000,-2.415946,-1.662592,1.042299,-1.355807,1.795740,1.080865,-0.548495,0.000133,0.000471,-0.001430,0.001073,-0.000373,-0.000587,0.000547,-0.044818,41.530804,-21.000870,-5.772829,0.913175,1.357833,0.009017,0.000000,0.000000,0.000000,0.000000,0.000000,0.000000
12128441.000000,-2.415945,-1.662594,1.042299,-1.355808,1.795740,1.080865,-0.548501,0.000646,-0.000243,-0.001023,0.000158,0.000003,-0.000120,-0.001568,-0.068621,41.554607,-21.000870,-5.749025,0.906766,1.350509,0.061202,0.000000,0.000000,0.000000,0.000000,0.000000,0.000000
12128442.000000,-2.415946,-1.662594,1.042301,-1.355808,1.795743,1.080866,-0.548497,-0.000126,-0.000162,-0.000178,0.000106,0.000894,0.000157,0.000175,-0.044818,41.554607,-21.024673,-5.749025,0.882963,1.344100,0.028243,0.000000,0.000000,0.000000,0.000000,0.000000,0.000000
12128443.000000,-2.415948,-1.662592,1.042300,-1.355810,1.795741,1.080867,-0.548497,-0.000734,0.000449,0.000491,-0.000579,-0.000040,0.000342,0.001100,-0.017047,41.530804,-21.052444,-5.721254,0.900358,1.337692,0.001693,0.000000,0.000000,0.000000,0.000000,0.000000,0.000000
12128444.000000,-2.415944,-1.662595,1.042299,-1.355809,1.795740,1.080866,-0.548506,0.006284,0.000856,0.004871,0.001558,0.000861,-0.000993,-0.010097,0.252729,41.507000,-20.977066,-5.673646,0.876554,1.370651,0.041976,0.000000,0.000000,0.000000,0.000000,0.000000,0.000000
12128445.000000,-2.415937,-1.662600,1.042302,-1.355806,1.795742,1.080860,-0.548512,0.016507,-0.000551,0.006373,0.004832,0.000099,-0.002722,-0.013036,1.268354,41.284832,-20.953262,-5.550661,0.763029,1.552840,-0.064225,0.000000,0.000000,0.000000,0.000000,0.000000,0.000000
12128446.000000,-2.415909,-1.662599,1.042312,-1.355807,1.795742,1.080862,-0.548542,0.023711,0.000127,0.009976,0.002781,-0.000604,-0.005040,-0.024011,2.851301,40.844463,-20.905655,-5.229311,0.644010,1.779891,-0.077042,0.000000,0.000000,0.000000,0.000000,0.000000,0.000000
12128447.000000,-2.415862,-1.662604,1.042327,-1.355808,1.795727,1.080883,-0.548588,0.031565,-0.000264,0.012633,-0.000745,-0.008652,0.007868,-0.033639,4.684186,40.404095,-20.854080,-4.931764,0.596403,1.871444,-0.044083,0.000000,0.000000,0.000000,0.000000,0.000000,0.000000
12128448.000000,-2.415806,-1.662602,1.042350,-1.355823,1.795703,1.080933,-0.548642,0.035560,0.001347,0.014360,-0.008698,-0.012193,0.018708,-0.042477,6.640058,39.868511,-20.782669,-4.535036,0.608304,1.806442,-0.089860,0.000000,0.000000,0.000000,0.000000,0.000000,0.000000
12128449.000000,-2.415718,-1.662601,1.042379,-1.355845,1.795667,1.081012,-0.548727,0.049627,0.002010,0.019308,-0.013063,-0.020196,0.041298,-0.057174,8.250775,39.328960,-20.731094,-4.189882,0.637601,1.591293,-0.044083,0.000000,0.000000,0.000000,0.000000,0.000000,0.000000
12128450.000000,-2.415617,-1.662598,1.042416,-1.355892,1.795616,1.081111,-0.548825,0.059504,0.001047,0.026229,-0.025913,-0.035603,0.061610,-0.072651,9.710736,38.837017,-20.683487,-3.697939,0.679716,1.389877,-0.037675,0.000000,0.000000,0.000000,0.000000,0.000000,0.000000
12128451.000000,-2.415502,-1.662595,1.042464,-1.355942,1.795549,1.081221,-0.548950,0.078309,0.002339,0.031310,-0.034267,-0.046578,0.080986,-0.092593,10.972333,38.396648,-20.631912,-3.376589,0.709928,1.318465,-0.037675,0.000000,0.000000,0.000000,0.000000,0.000000,0.000000
12128452.000000,-2.415366,-1.662594,1.042516,-1.356003,1.795472,1.081351,-0.549090,0.094575,0.005096,0.033563,-0.043674,-0.056858,0.097428,-0.111843,12.011762,38.007854,-20.512894,-3.055238,0.673307,1.312057,-0.044083,0.000000,0.000000,0.000000,0.000000,0.000000,0.000000
12128453.000000,-2.415228,-1.662584,1.042585,-1.356075,1.795381,1.081497,-0.549239,0.107248,0.007921,0.044488,-0.054885,-0.067721,0.116673,-0.120803,12.975812,37.591290,-20.512894,-2.833071,0.584501,1.396285,-0.070634,0.000000,0.000000,0.000000,0.000000,0.000000,0.000000
12128454.000000,-2.415075,-1.662575,1.042664,-1.356159,1.795263,1.081666,-0.549410,0.122661,0.008501,0.057884,-0.065506,-0.086045,0.134583,-0.134740,13.844647,37.246136,-20.485123,-2.658510,0.506681,1.519881,-0.023942,0.000000,0.000000,0.000000,0.000000,0.000000,0.000000
12128455.000000,-2.414908,-1.662559,1.042760,-1.356254,1.795134,1.081861,-0.549575,0.135991,0.013149,0.070656,-0.074348,-0.094124,0.148608,-0.141188,14.534955,36.857342,-20.560501,-2.583132,0.398649,1.637069,-0.103593,0.000000,0.000000,0.000000,0.000000,0.000000,0.000000
12128456.000000,-2.414722,-1.662541,1.042874,-1.356374,1.794979,1.082092,-0.549762,0.148647,0.016187,0.080573,-0.090495,-0.112269,0.172916,-0.149977,15.106244,36.488384,-20.659683,-2.360964,0.362943,1.643478,-0.064225,0.000000,0.000000,0.000000,0.000000,0.000000,0.000000
12128457.000000,-2.414520,-1.662525,1.043003,-1.356509,1.794791,1.082357,-0.549951,0.170287,0.015331,0.092153,-0.104559,-0.133885,0.202602,-0.158925,15.602155,36.123394,-20.806473,-2.214174,0.422452,1.572067,-0.056901,0.000000,0.000000,0.000000,0.000000,0.000000,0.000000
12128458.000000,-2.414297,-1.662502,1.043141,-1.356659,1.794590,1.082646,-0.550136,0.187569,0.018470,0.107392,-0.117828,-0.157174,0.238692,-0.167063,15.848126,35.730633,-20.977066,-2.091188,0.458158,1.467696,-0.110001,0.000000,0.000000,0.000000,0.000000,0.000000,0.000000
12128459.000000,-2.414060,-1.662482,1.043302,-1.356828,1.794359,1.082956,-0.550329,0.206127,0.019684,0.122051,-0.131648,-0.181829,0.260995,-0.173815,16.145674,35.385479,-21.175430,-1.940431,0.530485,1.409103,-0.070634,0.000000,0.000000,0.000000,0.000000,0.000000,0.000000
12128460.000000,-2.413802,-1.662466,1.043459,-1.357008,1.794103,1.083291,-0.550518,0.226054,0.018256,0.135061,-0.147956,-0.208828,0.283706,-0.179099,16.296431,35.143475,-21.223038,-1.940431,0.589994,1.429244,-0.056901,0.000000,0.000000,0.000000,0.000000,0.000000,0.000000
12128461.000000,-2.413535,-1.662452,1.043632,-1.357210,1.793839,1.083641,-0.550695,0.236588,0.015765,0.149125,-0.161871,-0.226767,0.300382,-0.174571,16.443220,34.972881,-21.270645,-1.892824,0.578092,1.481429,-0.116410,0.000000,0.000000,0.000000,0.000000,0.000000,0.000000
12128462.000000,-2.413251,-1.662442,1.043816,-1.357414,1.793554,1.084009,-0.550889,0.254046,0.015138,0.157318,-0.172694,-0.244273,0.311382,-0.180444,16.566206,34.897503,-21.223038,-1.964235,0.559781,1.559249,-0.070634,0.000000,0.000000,0.000000,0.000000,0.000000,0.000000
12128463.000000,-2.412948,-1.662433,1.044009,-1.357644,1.793265,1.084406,-0.551071,0.269909,0.014296,0.170585,-0.190293,-0.259686,0.334038,-0.178051,16.590010,34.849895,-21.199234,-1.892824,0.464567,1.649886,-0.064225,0.000000,0.000000,0.000000,0.000000,0.000000,0.000000
12128464.000000,-2.412627,-1.662427,1.044211,-1.357892,1.792954,1.084820,-0.551259,0.291215,0.010372,0.179311,-0.207632,-0.270945,0.360523,-0.180694,16.617781,34.826092,-21.123856,-1.793642,0.344633,1.735030,-0.064225,0.000000,0.000000,0.000000,0.000000,0.000000,0.000000
12128465.000000,-2.412286,-1.662426,1.044418,-1.358160,1.792618,1.085266,-0.551444,0.311640,0.006572,0.193766,-0.224232,-0.287401,0.378442,-0.182908,16.566206,34.849895,-21.024673,-1.670656,0.327238,1.721298,-0.056901,0.000000,0.000000,0.000000,0.000000,0.000000,0.000000
12128466.000000,-2.411934,-1.662422,1.044644,-1.358448,1.792274,1.085734,-0.551623,0.320612,0.004541,0.204385,-0.241577,-0.306233,0.403065,-0.180306,16.518599,34.849895,-20.977066,-1.472292,0.339139,1.689254,-0.070634,0.000000,0.000000,0.000000,0.000000,0.000000,0.000000
12128467.000000,-2.411567,-1.662422,1.044878,-1.358741,1.791905,1.086236,-0.551805,0.336171,0.002034,0.211915,-0.257032,-0.330174,0.432974,-0.177917,16.467024,34.897503,-20.929459,-1.420717,0.362943,1.591293,-0.056901,0.000000,0.000000,0.000000,0.000000,0.000000,0.000000
12128468.000000,-2.411197,-1.662427,1.045117,-1.359052,1.791514,1.086757,-0.551984,0.340983,0.000333,0.223649,-0.271188,-0.348589,0.458434,-0.176701,16.566206,34.945110,-20.854080,-1.373109,0.416959,1.532699,-0.083451,0.000000,0.000000,0.000000,0.000000,0.000000,0.000000
12128469.000000,-2.410813,-1.662422,1.045369,-1.359365,1.791119,1.087299,-0.552169,0.347499,0.001960,0.230734,-0.292046,-0.366898,0.486789,-0.179423,16.740767,34.873699,-20.707291,-1.373109,0.464567,1.481429,-0.089860,0.000000,0.000000,0.000000,0.000000,0.000000,0.000000
12128470.000000,-2.410413,-1.662426,1.045636,-1.359700,1.790698,1.087862,-0.552355,0.364328,0.000244,0.241799,-0.306485,-0.384968,0.509592,-0.178328,16.911360,34.921307,-20.659683,-1.396913,0.524076,1.474105,-0.064225,0.000000,0.000000,0.000000,0.000000,0.000000,0.000000
12128471.000000,-2.410015,-1.662422,1.045902,-1.360048,1.790274,1.088440,-0.552530,0.371147,0.000757,0.248845,-0.319730,-0.406830,0.531945,-0.178510,17.161299,34.897503,-20.560501,-1.448488,0.476469,1.494247,-0.130143,0.000000,0.000000,0.000000,0.000000,0.000000,0.000000
12128472.000000,-2.409594,-1.662418,1.046193,-1.360411,1.789834,1.089038,-0.552713,0.389413,0.001647,0.259380,-0.332305,-0.417200,0.549368,-0.177439,17.383467,34.849895,-20.584305,-1.396913,0.446256,1.507064,-0.097184,0.000000,0.000000,0.000000,0.000000,0.000000,0.000000
12128473.000000,-2.409163,-1.662418,1.046482,-1.360798,1.789375,1.089657,-0.552887,0.396539,0.001119,0.269317,-0.347880,-0.428061,0.567490,-0.175310,17.581831,34.849895,-20.536697,-1.174745,0.369352,1.500655,-0.077042,0.000000,0.000000,0.000000,0.000000,0.000000,0.000000
12128474.000000,-2.408712,-1.662414,1.046780,-1.361194,1.788906,1.090291,-0.553060,0.412329,0.001969,0.278207,-0.375558,-0.444284,0.589216,-0.177779,17.780195,34.798321,-20.413712,-1.000185,0.369352,1.422836,-0.097184,0.000000,0.000000,0.000000,0.000000,0.000000,0.000000
12128475.000000,-2.408252,-1.662408,1.047096,-1.361608,1.788425,1.090953,-0.553231,0.431102,0.002438,0.287500,-0.390068,-0.459294,0.602270,-0.171005,18.053938,34.750713,-20.389908,-0.778017,0.356534,1.364242,-0.116410,0.000000,0.000000,0.000000,0.000000,0.000000,0.000000
12128476.000000,-2.407781,-1.662399,1.047413,-1.362047,1.787915,1.091626,-0.553405,0.440770,0.006991,0.296591,-0.405529,-0.469658,0.636877,-0.172127,18.347517,34.651531,-20.338333,-0.456667,0.428861,1.331283,-0.083451,0.000000,0.000000,0.000000,0.000000,0.000000,0.000000
12128477.000000,-2.407289,-1.662390,1.047743,-1.362476,1.787413,1.092315,-0.553568,0.455024,0.006034,0.308746,-0.411136,-0.478591,0.652189,-0.170435,18.323713,34.603924,-20.266922,-0.409059,0.530485,1.305648,-0.130143,0.000000,0.000000,0.000000,0.000000,0.000000,0.000000
12128478.000000,-2.406808,-1.662376,1.048076,-1.362941,1.786891,1.093036,-0.553738,0.455251,0.005331,0.324046,-0.428879,-0.493315,0.677221,-0.171449,17.704817,34.556316,-20.020950,-0.432863,0.625699,1.272689,-0.136552,0.000000,0.000000,0.000000,0.000000,0.000000,0.000000
12128479.000000,-2.406326,-1.662363,1.048443,-1.363414,1.786369,1.093752,-0.553903,0.455821,0.007134,0.343154,-0.442366,-0.500938,0.684677,-0.171000,16.443220,34.409527,-19.699600,-0.754213,0.733732,1.324874,-0.149369,0.000000,0.000000,0.000000,0.000000,0.000000,0.000000
12128480.000000,-2.405846,-1.662347,1.048837,-1.363895,1.785842,1.094498,-0.554063,0.462071,0.011176,0.363447,-0.452132,-0.515487,0.696557,-0.170273,14.661908,34.139751,-19.211624,-1.273927,0.847257,1.435653,-0.155778,0.000000,0.000000,0.000000,0.000000,0.000000,0.000000
12128481.000000,-2.405378,-1.662337,1.049253,-1.364400,1.785319,1.095269,-0.554225,0.466816,0.009405,0.380562,-0.464516,-0.510760,0.713706,-0.166765,12.682233,33.794598,-18.644302,-1.694460,0.781339,1.487838,-0.122819,0.000000,0.000000,0.000000,0.000000,0.000000,0.000000
12128482.000000,-2.404924,-1.662327,1.049697,-1.364895,1.784824,1.096041,-0.554389,0.463793,0.009856,0.398311,-0.470772,-0.503419,0.726636,-0.167971,10.873151,33.354229,-18.005569,-2.190370,0.601896,1.416427,-0.136552,0.000000,0.000000,0.000000,0.000000,0.000000,0.000000
12128483.000000,-2.404473,-1.662322,1.050172,-1.365409,1.784325,1.096827,-0.554554,0.467177,0.008052,0.422821,-0.476027,-0.495293,0.742159,-0.168465,9.163251,32.989239,-17.394608,-2.535524,0.356534,1.266280,-0.149369,0.000000,0.000000,0.000000,0.000000,0.000000,0.000000
12128484.000000,-2.404027,-1.662321,1.050657,-1.365916,1.783846,1.097606,-0.554722,0.461685,0.008472,0.442554,-0.483951,-0.491321,0.750696,-0.166472,7.679487,32.671856,-16.831253,-2.856874,0.123990,1.104232,-0.089860,0.000000,0.000000,0.000000,0.000000,0.000000,0.000000
12128485.000000,-2.403569,-1.662322,1.051149,-1.366408,1.783350,1.098398,-0.554882,0.465078,0.007776,0.452404,-0.484112,-0.493869,0.761047,-0.166599,6.267133,32.402081,-16.216324,-3.154421,0.022367,0.947677,-0.110001,0.000000,0.000000,0.000000,0.000000,0.000000,0.000000
12128486.000000,-2.403125,-1.662328,1.051649,-1.366905,1.782858,1.099190,-0.555048,0.456771,0.006217,0.465182,-0.480743,-0.487316,0.767806,-0.167552,5.180097,32.179913,-15.676773,-3.400392,-0.031649,0.811263,-0.110001,0.000000,0.000000,0.000000,0.000000,0.000000,0.000000
12128487.000000,-2.402679,-1.662341,1.052154,-1.367377,1.782376,1.099940,-0.555215,0.452380,-0.000964,0.473391,-0.477859,-0.483965,0.755914,-0.164851,4.263654,32.084698,-15.061844,-3.697939,0.076383,0.869857,-0.077042,0.000000,0.000000,0.000000,0.000000,0.000000,0.000000
12128488.000000,-2.402224,-1.662344,1.052656,-1.367844,1.781873,1.100710,-0.555367,0.456198,-0.001956,0.476829,-0.470701,-0.487405,0.750517,-0.158607,3.422590,31.814922,-14.474686,-4.090700,0.267728,0.934859,-0.149369,0.000000,0.000000,0.000000,0.000000,0.000000,0.000000
12128489.000000,-2.401775,-1.662354,1.053153,-1.368319,1.781399,1.101465,-0.555532,0.455528,-0.005691,0.483335,-0.469758,-0.487042,0.754958,-0.163911,2.704511,31.668133,-13.907364,-4.289064,0.320829,0.954086,-0.097184,0.000000,0.000000,0.000000,0.000000,0.000000,0.000000
12128490.000000,-2.401318,-1.662364,1.053655,-1.368781,1.780918,1.102234,-0.555692,0.462672,-0.005740,0.485735,-0.462341,-0.484604,0.756130,-0.160628,2.061811,31.545147,-13.419388,-4.364442,0.374845,0.908309,-0.110001,0.000000,0.000000,0.000000,0.000000,0.000000,0.000000
12128491.000000,-2.400856,-1.662372,1.054154,-1.369268,1.780442,1.103003,-0.555847,0.457564,-0.007564,0.490733,-0.465424,-0.480065,0.754999,-0.157105,1.343732,31.374554,-13.026627,-4.142274,0.356534,0.908309,-0.149369,0.000000,0.000000,0.000000,0.000000,0.000000,0.000000
12128492.000000,-2.400382,-1.662378,1.054669,-1.369749,1.779985,1.103747,-0.556004,0.460703,-0.009519,0.498099,-0.471268,-0.469966,0.749693,-0.155102,0.649457,31.227764,-12.681473,-3.797121,0.273221,0.915633,-0.163102,0.000000,0.000000,0.000000,0.000000,0.000000,0.000000
12128493.000000,-2.399903,-1.662378,1.055186,-1.370242,1.779518,1.104502,-0.556164,0.466493,-0.005442,0.503203,-0.476113,-0.467246,0.746948,-0.154678,0.030561,30.981792,-12.312515,-3.376589,0.201810,0.960494,-0.149369,0.000000,0.000000,0.000000,0.000000,0.000000,0.000000
12128494.000000,-2.399437,-1.662369,1.055697,-1.370726,1.779065,1.105267,-0.556323,0.466463,-0.000817,0.502088,-0.479315,-0.460167,0.762963,-0.156257,-0.441546,30.664410,-12.018936,-3.055238,0.093778,0.960494,-0.142960,0.000000,0.000000,0.000000,0.000000,0.000000,0.000000
12128495.000000,-2.398965,-1.662356,1.056227,-1.371182,1.778620,1.106017,-0.556477,0.458691,0.006092,0.508256,-0.472010,-0.457438,0.758075,-0.154551,-0.885882,30.319256,-11.820572,-3.027467,0.052579,0.901900,-0.149369,0.000000,0.000000,0.000000,0.000000,0.000000,0.000000
12128496.000000,-2.398497,-1.662342,1.056762,-1.371643,1.778162,1.106773,-0.556628,0.465106,0.010965,0.531348,-0.468204,-0.451009,0.753929,-0.159344,-1.159625,29.978069,-11.701553,-3.055238,0.040677,0.934859,-0.149369,0.000000,0.000000,0.000000,0.000000,0.000000,0.000000
12128497.000000,-2.398034,-1.662326,1.057297,-1.372093,1.777714,1.107520,-0.556783,0.458716,0.015132,0.533283,-0.457968,-0.449465,0.751572,-0.158244,-1.429400,29.609112,-11.479385,-3.178224,0.105680,0.999862,-0.122819,0.000000,0.000000,0.000000,0.000000,0.000000,0.000000
12128498.000000,-2.397562,-1.662307,1.057858,-1.372532,1.777256,1.108276,-0.556934,0.460999,0.016084,0.541051,-0.452091,-0.454685,0.744878,-0.159507,-1.651568,29.196514,-11.431778,-3.376589,0.225614,1.064864,-0.175919,0.000000,0.000000,0.000000,0.000000,0.000000,0.000000
12128499.000000,-2.397099,-1.662290,1.058414,-1.372977,1.776800,1.109033,-0.557095,0.460976,0.014935,0.548959,-0.445751,-0.452101,0.744995,-0.164316,-1.849932,28.851360,-11.308792,-3.499574,0.297025,1.117049,-0.116410,0.000000,0.000000,0.000000,0.000000,0.000000,0.000000
12128500.000000,-2.396613,-1.662274,1.058978,-1.373421,1.776358,1.109786,-0.557246,0.462376,0.016030,0.552500,-0.443515,-0.448888,0.745228,-0.160109,-2.222857,28.557781,-11.134232,-3.547182,0.344633,1.052047,-0.142960,0.000000,0.000000,0.000000,0.000000,0.000000,0.000000
12128501.000000,-2.396119,-1.662264,1.059561,-1.373859,1.775911,1.110562,-0.557400,0.476113,0.014081,0.559856,-0.438312,-0.447430,0.746728,-0.157114,-2.667193,28.387188,-10.987442,-3.622560,0.315336,0.882674,-0.163102,0.000000,0.000000,0.000000,0.000000,0.000000,0.000000
12128502.000000,-2.395634,-1.662248,1.060146,-1.374307,1.775484,1.111313,-0.557560,0.474111,0.013488,0.568275,-0.440127,-0.439583,0.751483,-0.158836,-3.063921,28.192791,-10.963638,-3.598757,0.195402,0.792037,-0.089860,0.000000,0.000000,0.000000,0.000000,0.000000,0.000000
12128503.000000,-2.395140,-1.662244,1.060737,-1.374739,1.775064,1.112065,-0.557706,0.484756,0.009306,0.575972,-0.440547,-0.428623,0.746697,-0.154332,-3.508257,28.165020,-10.793045,-3.598757,0.064481,0.792037,-0.149369,0.000000,0.000000,0.000000,0.000000,0.000000,0.000000
12128504.000000,-2.394654,-1.662239,1.061329,-1.375182,1.774634,1.112816,-0.557857,0.480884,0.009007,0.579798,-0.441646,-0.425471,0.744178,-0.162456,-3.857378,28.165020,-10.618484,-3.523378,-0.072848,0.889083,-0.136552,0.000000,0.000000,0.000000,0.000000,0.000000,0.000000
12128505.000000,-2.394158,-1.662238,1.061942,-1.375610,1.774212,1.113545,-0.558010,0.482497,0.004864,0.592431,-0.448213,-0.417571,0.736965,-0.160728,-4.154925,28.216595,-10.570877,-3.523378,-0.109469,1.019088,-0.103593,0.000000,0.000000,0.000000,0.000000,0.000000,0.000000
12128506.000000,-2.393658,-1.662237,1.062576,-1.376031,1.773785,1.114287,-0.558158,0.492056,0.002736,0.602522,-0.443817,-0.421534,0.736513,-0.162414,-4.500079,28.240398,-10.570877,-3.646364,-0.103060,1.110641,-0.136552,0.000000,0.000000,0.000000,0.000000,0.000000,0.000000
12128507.000000,-2.393153,-1.662234,1.063199,-1.376450,1.773350,1.115031,-0.558311,0.494594,0.002418,0.614378,-0.438826,-0.433565,0.754770,-0.160848,-4.968218,28.216595,-10.495499,-3.820925,-0.055453,1.136276,-0.103593,0.000000,0.000000,0.000000,0.000000,0.000000,0.000000
12128508.000000,-2.392648,-1.662238,1.063836,-1.376867,1.772905,1.115775,-0.558458,0.505667,-0.000031,0.616292,-0.434428,-0.435377,0.744457,-0.156097,-5.317339,28.288006,-10.447891,-3.920107,0.123990,1.162826,-0.155778,0.000000,0.000000,0.000000,0.000000,0.000000,0.000000
12128509.000000,-2.392151,-1.662242,1.064490,-1.377295,1.772470,1.116528,-0.558610,0.508913,-0.000556,0.632015,-0.432343,-0.438222,0.743463,-0.156032,-5.614886,28.311810,-10.570877,-3.920107,0.231107,1.117049,-0.130143,0.000000,0.000000,0.000000,0.000000,0.000000,0.000000
12128510.000000,-2.391642,-1.662246,1.065153,-1.377714,1.772041,1.117267,-0.558762,0.504207,-0.001562,0.640392,-0.431390,-0.432384,0.741638,-0.151578,-5.960040,28.363384,-10.693863,-3.943910,0.243009,1.110641,-0.110001,0.000000,0.000000,0.000000,0.000000,0.000000,0.000000
12128511.000000,-2.391137,-1.662255,1.065836,-1.378137,1.771614,1.118020,-0.558907,0.505956,-0.003906,0.649162,-0.429586,-0.426969,0.739073,-0.149060,-6.206011,28.486370,-10.816849,-3.991518,0.237516,1.090499,-0.169511,0.000000,0.000000,0.000000,0.000000,0.000000,0.000000
12128512.000000,-2.390641,-1.662269,1.066521,-1.378549,1.771198,1.118773,-0.559061,0.501381,-0.007143,0.665542,-0.420030,-0.424990,0.758356,-0.151087,-6.380572,28.680767,-10.939835,-4.090700,0.141385,1.052047,-0.103593,0.000000,0.000000,0.000000,0.000000,0.000000,0.000000
12128513.000000,-2.390140,-1.662283,1.067211,-1.378956,1.770778,1.119517,-0.559203,0.503201,-0.009302,0.673229,-0.417523,-0.421439,0.747959,-0.145147,-6.578936,28.875164,-10.916031,-4.166078,0.112089,1.031905,-0.130143,0.000000,0.000000,0.000000,0.000000,0.000000,0.000000
12128514.000000,-2.389633,-1.662286,1.067900,-1.379365,1.770365,1.120262,-0.559346,0.505558,-0.013739,0.688590,-0.412626,-0.417101,0.739610,-0.141417,-6.801104,28.926739,-10.765274,-4.213686,0.052579,1.123458,-0.169511,0.000000,0.000000,0.000000,0.000000,0.000000,0.000000
12128515.000000,-2.389132,-1.662299,1.068608,-1.379782,1.769965,1.120987,-0.559500,0.503017,-0.013117,0.690663,-0.413825,-0.414234,0.735456,-0.146160,-6.999468,29.073528,-10.670059,-4.213686,-0.019747,1.207687,-0.110001,0.000000,0.000000,0.000000,0.000000,0.000000,0.000000
12128516.000000,-2.388628,-1.662312,1.069325,-1.380187,1.769539,1.121747,-0.559643,0.508560,-0.012572,0.694790,-0.407917,-0.412915,0.738729,-0.146379,-7.197833,29.220318,-10.447891,-4.213686,0.052579,1.117049,-0.130143,0.000000,0.000000,0.000000,0.000000,0.000000,0.000000
12128517.000000,-2.388127,-1.662320,1.070029,-1.380591,1.769121,1.122509,-0.559789,0.507463,-0.010347,0.699113,-0.404024,-0.416028,0.746334,-0.147117,-7.396197,29.291729,-10.201920,-4.289064,0.117582,0.999862,-0.142960,0.000000,0.000000,0.000000,0.000000,0.000000,0.000000
12128518.000000,-2.387613,-1.662328,1.070755,-1.380998,1.768710,1.123243,-0.559936,0.505851,-0.008882,0.703652,-0.404937,-0.416863,0.739885,-0.150037,-7.669940,29.367107,-9.932144,-4.241457,0.141385,0.947677,-0.130143,0.000000,0.000000,0.000000,0.000000,0.000000,0.000000
12128519.000000,-2.387099,-1.662334,1.071502,-1.381404,1.768287,1.123978,-0.560083,0.508888,-0.006087,0.712107,-0.406357,-0.416134,0.733068,-0.145324,-7.963519,29.367107,-9.809158,-4.312868,0.166105,1.031905,-0.136552,0.000000,0.000000,0.000000,0.000000,0.000000,0.000000
12128520.000000,-2.386606,-1.662336,1.072229,-1.381810,1.767877,1.124711,-0.560223,0.504107,-0.003626,0.718572,-0.405100,-0.411138,0.736848,-0.141557,-8.062701,29.343304,-9.440201,-4.340639,0.178007,1.071273,-0.149369,0.000000,0.000000,0.000000,0.000000,0.000000,0.000000
12128521.000000,-2.386103,-1.662335,1.072972,-1.382207,1.767469,1.125465,-0.560366,0.512121,-0.001861,0.722701,-0.403282,-0.410227,0.738532,-0.140608,-8.213458,29.315533,-9.075211,-4.412050,0.123990,1.012679,-0.122819,0.000000,0.000000,0.000000,0.000000,0.000000,0.000000
12128522.000000,-2.385604,-1.662333,1.073728,-1.382592,1.767060,1.126214,-0.560500,0.514334,0.000360,0.736764,-0.394266,-0.404624,0.737319,-0.138494,-8.336444,29.244122,-8.976028,-4.634218,0.058073,1.031905,-0.136552,0.000000,0.000000,0.000000,0.000000,0.000000,0.000000
12128523.000000,-2.385104,-1.662327,1.074511,-1.382984,1.766667,1.126958,-0.560645,0.504415,0.003064,0.748744,-0.402907,-0.400404,0.737140,-0.142895,-8.459430,29.121136,-8.976028,-4.685792,-0.013339,1.019088,-0.103593,0.000000,0.000000,0.000000,0.000000,0.000000,0.000000
12128524.000000,-2.384609,-1.662318,1.075303,-1.383367,1.766271,1.127724,-0.560780,0.503633,0.005994,0.762996,-0.393629,-0.397129,0.742777,-0.137503,-8.511004,28.950542,-8.952225,-4.832582,-0.067355,0.928451,-0.175919,0.000000,0.000000,0.000000,0.000000,0.000000,0.000000
12128525.000000,-2.384123,-1.662313,1.076085,-1.383758,1.765860,1.128475,-0.560924,0.494344,0.006843,0.771246,-0.392889,-0.404688,0.761674,-0.144001,-8.511004,28.827557,-8.805435,-4.832582,-0.049044,0.863448,-0.116410,0.000000,0.000000,0.000000,0.000000,0.000000,0.000000
12128526.000000,-2.383637,-1.662304,1.076900,-1.384132,1.765468,1.129233,-0.561068,0.495733,0.007974,0.786856,-0.389289,-0.397821,0.755425,-0.142059,-8.483233,28.680767,-8.876846,-4.983339,-0.049044,0.843307,-0.097184,0.000000,0.000000,0.000000,0.000000,0.000000,0.000000
12128527.000000,-2.383154,-1.662288,1.077723,-1.384509,1.765078,1.129992,-0.561203,0.499754,0.009847,0.800621,-0.386781,-0.396584,0.747794,-0.141928,-8.459430,28.486370,-9.099014,-5.106325,-0.072848,0.889083,-0.169511,0.000000,0.000000,0.000000,0.000000,0.000000,0.000000
12128528.000000,-2.382670,-1.662281,1.078552,-1.384890,1.764686,1.130727,-0.561348,0.493901,0.009395,0.809492,-0.383339,-0.397166,0.738167,-0.142218,-8.288836,28.633160,-9.440201,-5.177736,-0.055453,0.928451,-0.097184,0.000000,0.000000,0.000000,0.000000,0.000000,0.000000
12128529.000000,-2.382188,-1.662270,1.079370,-1.385256,1.764300,1.131489,-0.561476,0.492241,0.011751,0.804742,-0.379014,-0.392718,0.744263,-0.132342,-8.038898,28.950542,-9.860733,-5.328493,-0.043551,0.954086,-0.163102,0.000000,0.000000,0.000000,0.000000,0.000000,0.000000
12128530.000000,-2.381718,-1.662265,1.080164,-1.385634,1.763921,1.132250,-0.561609,0.486283,0.007031,0.798861,-0.377034,-0.388775,0.752162,-0.136743,-7.594561,29.585308,-10.594681,-5.399904,-0.037142,1.058456,-0.175919,0.000000,0.000000,0.000000,0.000000,0.000000,0.000000
12128531.000000,-2.381230,-1.662256,1.080959,-1.386012,1.763543,1.132994,-0.561759,0.483456,0.007669,0.792311,-0.381934,-0.386910,0.747668,-0.143375,-7.197833,30.343060,-11.479385,-5.352296,-0.007845,1.194869,-0.097184,0.000000,0.000000,0.000000,0.000000,0.000000,0.000000
12128532.000000,-2.380742,-1.662245,1.081753,-1.386399,1.763162,1.133758,-0.561895,0.489889,0.007109,0.791403,-0.383178,-0.382142,0.749531,-0.143442,-6.678118,31.199993,-12.510880,-5.253114,0.076383,1.285506,-0.149369,0.000000,0.000000,0.000000,0.000000,0.000000,0.000000
12128533.000000,-2.380261,-1.662218,1.082523,-1.386795,1.762794,1.134520,-0.562039,0.487173,0.010813,0.785652,-0.384749,-0.373805,0.760401,-0.140708,-6.257586,31.910137,-13.367813,-5.007143,0.147794,1.292831,-0.149369,0.000000,0.000000,0.000000,0.000000,0.000000,0.000000
12128534.000000,-2.379771,-1.662200,1.083306,-1.387188,1.762414,1.135291,-0.562186,0.488972,0.012181,0.781934,-0.388144,-0.375344,0.758848,-0.144692,-5.837054,32.695660,-14.300125,-4.784975,0.183500,1.299239,-0.122819,0.000000,0.000000,0.000000,0.000000,0.000000,0.000000
12128535.000000,-2.379287,-1.662169,1.084085,-1.387585,1.762029,1.136049,-0.562324,0.482613,0.016155,0.786882,-0.386527,-0.376954,0.758273,-0.140822,-5.464129,33.235210,-15.137222,-4.535036,0.219205,1.402694,-0.142960,0.000000,0.000000,0.000000,0.000000,0.000000,0.000000
12128536.000000,-2.378801,-1.662143,1.084878,-1.387981,1.761651,1.136791,-0.562467,0.483971,0.015677,0.790769,-0.391034,-0.382395,0.748968,-0.143826,-5.142779,33.770794,-15.871170,-4.340639,0.237516,1.513473,-0.142960,0.000000,0.000000,0.000000,0.000000,0.000000,0.000000
12128537.000000,-2.378318,-1.662117,1.085676,-1.388372,1.761254,1.137551,-0.562611,0.487212,0.020104,0.797164,-0.387854,-0.388220,0.746711,-0.146009,-4.773821,34.238934,-16.438492,-4.289064,0.327238,1.572067,-0.136552,0.000000,0.000000,0.000000,0.000000,0.000000,0.000000
12128538.000000,-2.377849,-1.662088,1.086472,-1.388761,1.760864,1.138287,-0.562743,0.482769,0.021721,0.797854,-0.389761,-0.397944,0.745051,-0.142116,-4.400897,34.627728,-16.950272,-4.340639,0.369352,1.676437,-0.155778,0.000000,0.000000,0.000000,0.000000,0.000000,0.000000
12128539.000000,-2.377373,-1.662063,1.087294,-1.389147,1.760477,1.139031,-0.562884,0.483886,0.019479,0.807499,-0.384966,-0.392458,0.744313,-0.139667,-4.178729,35.020489,-17.616776,-4.388246,0.369352,1.767074,-0.149369,0.000000,0.000000,0.000000,0.000000,0.000000,0.000000
12128540.000000,-2.376905,-1.662047,1.088105,-1.389537,1.760079,1.139790,-0.563020,0.473888,0.020214,0.810226,-0.384256,-0.395274,0.743824,-0.138310,-3.904986,35.437054,-18.057144,-4.439821,0.428861,1.735030,-0.149369,0.000000,0.000000,0.000000,0.000000,0.000000,0.000000
12128541.000000,-2.376424,-1.662037,1.088945,-1.389915,1.759697,1.140535,-0.563167,0.475214,0.016749,0.820301,-0.388518,-0.389344,0.741776,-0.138415,-3.805804,35.877422,-18.695877,-4.634218,0.393156,1.617843,-0.103593,0.000000,0.000000,0.000000,0.000000,0.000000,0.000000
12128542.000000,-2.375951,-1.662038,1.089792,-1.390298,1.759310,1.141290,-0.563302,0.478393,0.014787,0.820385,-0.389463,-0.389804,0.740112,-0.140482,-3.631243,36.416973,-19.160049,-4.757204,0.386747,1.559249,-0.142960,0.000000,0.000000,0.000000,0.000000,0.000000,0.000000
12128543.000000,-2.375484,-1.662046,1.090634,-1.390670,1.758931,1.142017,-0.563433,0.475237,0.007019,0.826040,-0.383044,-0.386032,0.754620,-0.137689,-3.559832,36.980328,-19.699600,-5.054750,0.362943,1.637069,-0.163102,0.000000,0.000000,0.000000,0.000000,0.000000,0.000000
12128544.000000,-2.375013,-1.662065,1.091481,-1.391030,1.758541,1.142748,-0.563577,0.467213,0.000351,0.827136,-0.378207,-0.386733,0.742628,-0.138952,-3.436846,37.591290,-20.020950,-5.376100,0.315336,1.689254,-0.103593,0.000000,0.000000,0.000000,0.000000,0.000000,0.000000
12128545.000000,-2.374551,-1.662090,1.092317,-1.391398,1.758153,1.143485,-0.563703,0.472769,-0.007141,0.832534,-0.373393,-0.381046,0.738733,-0.134185,-3.286089,38.178448,-20.314529,-5.598268,0.351041,1.727706,-0.182328,0.000000,0.000000,0.000000,0.000000,0.000000,0.000000
12128546.000000,-2.374081,-1.662123,1.093158,-1.391756,1.757777,1.144204,-0.563837,0.471908,-0.016952,0.829850,-0.366275,-0.376999,0.730706,-0.130135,-3.238482,38.813213,-20.437515,-5.872011,0.398649,1.800033,-0.155778,0.000000,0.000000,0.000000,0.000000,0.000000,0.000000
12128547.000000,-2.373596,-1.662159,1.093995,-1.392112,1.757385,1.144939,-0.563970,0.483652,-0.022486,0.828963,-0.363250,-0.383435,0.724096,-0.131409,-3.409075,39.376568,-20.485123,-6.042604,0.452665,1.844894,-0.130143,0.000000,0.000000,0.000000,0.000000,0.000000,0.000000
12128548.000000,-2.373125,-1.662192,1.094822,-1.392466,1.756994,1.145673,-0.564089,0.478156,-0.025003,0.825714,-0.356978,-0.383924,0.731104,-0.129237,-3.508257,39.868511,-20.512894,-6.217165,0.512174,1.865035,-0.196061,0.000000,0.000000,0.000000,0.000000,0.000000,0.000000
12128549.000000,-2.372645,-1.662235,1.095657,-1.392814,1.756620,1.146405,-0.564228,0.476120,-0.031886,0.825361,-0.352145,-0.377162,0.732557,-0.131597,-3.706622,40.427898,-20.536697,-6.415529,0.506681,1.858627,-0.155778,0.000000,0.000000,0.000000,0.000000,0.000000,0.000000
12128550.000000,-2.372159,-1.662270,1.096476,-1.393163,1.756239,1.147149,-0.564363,0.481195,-0.033482,0.825152,-0.348155,-0.375757,0.733240,-0.132414,-3.956561,40.844463,-20.437515,-6.514711,0.488370,1.806442,-0.155778,0.000000,0.000000,0.000000,0.000000,0.000000,0.000000
12128551.000000,-2.371684,-1.662309,1.097313,-1.393508,1.755868,1.147878,-0.564498,0.477441,-0.032449,0.832472,-0.348875,-0.370567,0.730767,-0.133627,-4.127154,41.284832,-20.437515,-6.713075,0.464567,1.754256,-0.122819,0.000000,0.000000,0.000000,0.000000,0.000000,0.000000
12128552.000000,-2.371199,-1.662339,1.098157,-1.393848,1.755502,1.148620,-0.564622,0.484279,-0.031531,0.834759,-0.343866,-0.365769,0.731008,-0.130623,-4.349322,41.578411,-20.461319,-6.883668,0.416959,1.754256,-0.175919,0.000000,0.000000,0.000000,0.000000,0.000000,0.000000
12128553.000000,-2.370722,-1.662369,1.098983,-1.394179,1.755142,1.149362,-0.564754,0.483656,-0.030553,0.836247,-0.341754,-0.361662,0.730773,-0.128594,-4.599261,41.848186,-20.437515,-7.205019,0.356534,1.767074,-0.155778,0.000000,0.000000,0.000000,0.000000,0.000000,0.000000
12128554.000000,-2.370247,-1.662398,1.099815,-1.394508,1.754777,1.150097,-0.564887,0.477804,-0.030184,0.831727,-0.339475,-0.360920,0.729853,-0.131420,-4.698443,42.117962,-20.314529,-7.478761,0.356534,1.689254,-0.116410,0.000000,0.000000,0.000000,0.000000,0.000000,0.000000
12128555.000000,-2.369755,-1.662422,1.100659,-1.394838,1.754417,1.150833,-0.565011,0.485759,-0.025308,0.839486,-0.332777,-0.358316,0.733993,-0.129440,-4.995989,42.316326,-20.389908,-7.700929,0.320829,1.676437,-0.169511,0.000000,0.000000,0.000000,0.000000,0.000000,0.000000
12128556.000000,-2.369281,-1.662444,1.101492,-1.395166,1.754069,1.151561,-0.565134,0.482897,-0.023230,0.839915,-0.327536,-0.364325,0.743892,-0.125439,-5.218157,42.435345,-20.485123,-7.923097,0.285123,1.670028,-0.169511,0.000000,0.000000,0.000000,0.000000,0.000000,0.000000
12128557.000000,-2.368806,-1.662462,1.102333,-1.395492,1.753705,1.152299,-0.565265,0.473863,-0.019872,0.838403,-0.325474,-0.363240,0.740110,-0.129122,-5.392718,42.463116,-20.584305,-8.069887,0.291532,1.702071,-0.110001,0.000000,0.000000,0.000000,0.000000,0.000000,0.000000
12128558.000000,-2.368327,-1.662482,1.103155,-1.395808,1.753344,1.153035,-0.565376,0.470795,-0.018650,0.835699,-0.323629,-0.363199,0.737897,-0.122943,-5.638690,42.534527,-20.536697,-8.319826,0.320829,1.702071,-0.196061,0.000000,0.000000,0.000000,0.000000,0.000000,0.000000
12128559.000000,-2.367848,-1.662505,1.104004,-1.396126,1.752995,1.153757,-0.565502,0.472165,-0.018777,0.845652,-0.326599,-0.358463,0.729887,-0.126037,-5.785479,42.633709,-20.754898,-8.466616,0.344633,1.779891,-0.182328,0.000000,0.000000,0.000000,0.000000,0.000000,0.000000
12128560.000000,-2.367363,-1.662522,1.104854,-1.396431,1.752643,1.154479,-0.565631,0.475239,-0.018987,0.848460,-0.323238,-0.353092,0.720233,-0.124514,-6.035418,42.609905,-20.929459,-8.664980,0.351041,1.909896,-0.136552,0.000000,0.000000,0.000000,0.000000,0.000000,0.000000
12128561.000000,-2.366888,-1.662545,1.105682,-1.396731,1.752291,1.155209,-0.565746,0.476381,-0.019079,0.848815,-0.317548,-0.357181,0.735094,-0.119929,-6.206011,42.705120,-21.000870,-8.986330,0.303434,1.884261,-0.188737,0.000000,0.000000,0.000000,0.000000,0.000000,0.000000
12128562.000000,-2.366415,-1.662567,1.106526,-1.397029,1.751947,1.155942,-0.565869,0.469920,-0.018076,0.843654,-0.312620,-0.352432,0.732952,-0.124167,-6.257586,42.756695,-21.223038,-9.232302,0.291532,1.819259,-0.169511,0.000000,0.000000,0.000000,0.000000,0.000000,0.000000
12128563.000000,-2.365954,-1.662587,1.107355,-1.397327,1.751608,1.156672,-0.565998,0.470596,-0.020584,0.860331,-0.308384,-0.347844,0.731204,-0.127096,-6.281390,42.804302,-21.369827,-9.482241,0.261320,1.851302,-0.149369,0.000000,0.000000,0.000000,0.000000,0.000000,0.000000
12128564.000000,-2.365487,-1.662609,1.108195,-1.397629,1.751268,1.157375,-0.566120,0.464057,-0.021802,0.854894,-0.304077,-0.348021,0.722755,-0.124842,-6.332964,42.828106,-21.492813,-9.652834,0.189908,1.981307,-0.116410,0.000000,0.000000,0.000000,0.000000,0.000000,0.000000
12128565.000000,-2.365031,-1.662630,1.109041,-1.397923,1.750926,1.158103,-0.566243,0.463157,-0.022839,0.853598,-0.298293,-0.341026,0.720490,-0.126809,-6.182208,42.851910,-21.615799,-9.803591,0.183500,1.988631,-0.116410,0.000000,0.000000,0.000000,0.000000,0.000000,0.000000
12128566.000000,-2.364588,-1.662651,1.109869,-1.398212,1.750600,1.158843,-0.566358,0.451997,-0.023629,0.845130,-0.294646,-0.333651,0.722759,-0.123958,-5.983843,42.875713,-21.663406,-10.148745,0.112089,1.909896,-0.136552,0.000000,0.000000,0.000000,0.000000,0.000000,0.000000
12128567.000000,-2.364146,-1.662671,1.110710,-1.398497,1.750274,1.159571,-0.566479,0.448103,-0.023788,0.841543,-0.291794,-0.333313,0.722430,-0.122140,-5.761675,42.875713,-21.738785,-10.418520,0.052579,1.865035,-0.122819,0.000000,0.000000,0.000000,0.000000,0.000000,0.000000
12128568.000000,-2.363708,-1.662685,1.111532,-1.398789,1.749941,1.160292,-0.566596,0.448110,-0.022465,0.834961,-0.294271,-0.332116,0.721786,-0.117898,-5.464129,42.804302,-21.714981,-10.616884,-0.013339,1.916305,-0.175919,0.000000,0.000000,0.000000,0.000000,0.000000,0.000000
12128569.000000,-2.363279,-1.662702,1.112369,-1.399079,1.749611,1.161011,-0.566722,0.440298,-0.022658,0.836331,-0.291918,-0.329482,0.720327,-0.119209,-5.166583,42.780499,-21.714981,-10.862856,-0.019747,1.916305,-0.122819,0.000000,0.000000,0.000000,0.000000,0.000000,0.000000
12128570.000000,-2.362856,-1.662720,1.113213,-1.399369,1.749280,1.161749,-0.566844,0.438414,-0.022843,0.828980,-0.291634,-0.328908,0.726296,-0.122216,-4.821429,42.756695,-21.786392,-10.914431,0.010465,1.858627,-0.136552,0.000000,0.000000,0.000000,0.000000,0.000000,0.000000
12128571.000000,-2.362432,-1.662737,1.114041,-1.399669,1.748947,1.162478,-0.566964,0.433760,-0.020392,0.826124,-0.295140,-0.335355,0.721205,-0.118536,-4.623065,42.756695,-21.786392,-10.890627,-0.019747,1.779891,-0.175919,0.000000,0.000000,0.000000,0.000000,0.000000,0.000000
12128572.000000,-2.362017,-1.662750,1.114888,-1.399972,1.748610,1.163205,-0.567093,0.430926,-0.017282,0.829112,-0.302908,-0.333461,0.719895,-0.120324,-4.277911,42.705120,-22.008560,-10.716066,0.015958,1.767074,-0.103593,0.000000,0.000000,0.000000,0.000000,0.000000,0.000000
12128573.000000,-2.361598,-1.662773,1.115749,-1.400274,1.748281,1.163935,-0.567210,0.433435,-0.018590,0.835345,-0.298869,-0.330029,0.716467,-0.116226,-4.004168,42.804302,-22.278336,-10.616884,0.022367,1.773483,-0.163102,0.000000,0.000000,0.000000,0.000000,0.000000,0.000000
12128574.000000,-2.361195,-1.662793,1.116590,-1.400591,1.747964,1.164654,-0.567330,0.422378,-0.017442,0.836915,-0.304451,-0.334802,0.714804,-0.115073,-3.659014,42.828106,-22.548111,-10.394716,0.022367,1.812850,-0.175919,0.000000,0.000000,0.000000,0.000000,0.000000,0.000000
12128575.000000,-2.360790,-1.662815,1.117434,-1.400905,1.747630,1.165372,-0.567459,0.421010,-0.018006,0.836294,-0.307989,-0.341344,0.714581,-0.117462,-3.385272,42.903484,-22.718704,-10.196352,0.040677,1.949264,-0.097184,0.000000,0.000000,0.000000,0.000000,0.000000,0.000000
12128576.000000,-2.360391,-1.662837,1.118272,-1.401227,1.747292,1.166102,-0.567569,0.420024,-0.019322,0.835633,-0.314161,-0.336840,0.712038,-0.113516,-3.111529,43.026470,-23.063858,-9.950380,0.064481,2.033492,-0.155778,0.000000,0.000000,0.000000,0.000000,0.000000,0.000000
12128577.000000,-2.359989,-1.662865,1.119123,-1.401555,1.746960,1.166828,-0.567683,0.411046,-0.020552,0.839482,-0.324266,-0.335111,0.712850,-0.111976,-2.841753,43.173260,-23.333633,-9.676638,0.123990,2.066451,-0.196061,0.000000,0.000000,0.000000,0.000000,0.000000,0.000000
12128578.000000,-2.359590,-1.662901,1.119969,-1.401891,1.746626,1.167552,-0.567807,0.406846,-0.029822,0.835698,-0.327035,-0.338405,0.716343,-0.119894,-2.619586,43.415264,-23.480423,-9.406862,0.201810,2.072860,-0.130143,0.000000,0.000000,0.000000,0.000000,0.000000,0.000000
12128579.000000,-2.359197,-1.662928,1.120815,-1.402236,1.746280,1.168291,-0.567921,0.403836,-0.028009,0.838391,-0.335473,-0.335922,0.732830,-0.116501,-2.397418,43.562054,-23.702591,-9.109316,0.261320,2.033492,-0.175919,0.000000,0.000000,0.000000,0.000000,0.000000,0.000000
12128580.000000,-2.358812,-1.662959,1.121664,-1.402580,1.745937,1.169012,-0.568044,0.391163,-0.029761,0.834267,-0.340652,-0.339838,0.735507,-0.117236,-2.024493,43.708843,-23.873184,-8.863344,0.351041,1.974899,-0.142960,0.000000,0.000000,0.000000,0.000000,0.000000,0.000000
12128581.000000,-2.358424,-1.662994,1.122503,-1.402934,1.745608,1.169728,-0.568158,0.392732,-0.032322,0.852583,-0.342672,-0.334189,0.720494,-0.114471,-1.703143,43.907207,-23.996170,-8.565798,0.356534,1.962081,-0.188737,0.000000,0.000000,0.000000,0.000000,0.000000,0.000000
12128582.000000,-2.358054,-1.663030,1.123338,-1.403298,1.745278,1.170440,-0.568273,0.381190,-0.034113,0.845971,-0.349873,-0.334864,0.720153,-0.114966,-1.330218,44.101604,-23.996170,-8.292055,0.351041,1.949264,-0.175919,0.000000,0.000000,0.000000,0.000000,0.000000,0.000000
12128583.000000,-2.357683,-1.663063,1.124191,-1.403657,1.744942,1.171154,-0.568395,0.380435,-0.033674,0.845837,-0.353339,-0.335559,0.717238,-0.115815,-0.933489,44.224590,-24.071548,-8.097658,0.351041,1.968490,-0.136552,0.000000,0.000000,0.000000,0.000000,0.000000,0.000000
12128584.000000,-2.357315,-1.663092,1.125026,-1.404023,1.744602,1.171879,-0.568504,0.375147,-0.031765,0.843205,-0.358333,-0.331778,0.718072,-0.112690,-0.588336,44.272198,-24.142960,-7.923097,0.351041,1.942855,-0.202470,0.000000,0.000000,0.000000,0.000000,0.000000,0.000000
12128585.000000,-2.356944,-1.663117,1.125861,-1.404389,1.744280,1.172587,-0.568626,0.368442,-0.029378,0.834484,-0.360740,-0.327616,0.721864,-0.115113,-0.243182,44.272198,-23.996170,-7.700929,0.303434,1.955673,-0.142960,0.000000,0.000000,0.000000,0.000000,0.000000,0.000000
12128586.000000,-2.356562,-1.663144,1.126701,-1.404761,1.743946,1.173311,-0.568740,0.374644,-0.031610,0.832710,-0.363120,-0.335520,0.718736,-0.115917,-0.144000,44.296001,-23.972366,-7.454957,0.320829,1.949264,-0.122819,0.000000,0.000000,0.000000,0.000000,0.000000,0.000000
12128588.000000,-2.355820,-1.663190,1.128376,-1.405522,1.743277,1.174750,-0.568958,0.372118,-0.023594,0.831456,-0.373690,-0.329763,0.715363,-0.114471,0.129743,44.224590,-24.095352,-6.883668,0.482877,1.844894,-0.149369,0.000000,0.000000,0.000000,0.000000,0.000000,0.000000
12128589.000000,-2.355442,-1.663207,1.129203,-1.405909,1.742954,1.175470,-0.569065,0.371063,-0.021798,0.828768,-0.374206,-0.331826,0.712325,-0.112933,0.153547,44.125408,-24.119156,-6.661500,0.482877,1.909896,-0.182328,0.000000,0.000000,0.000000,0.000000,0.000000,0.000000
12128590.000000,-2.355073,-1.663223,1.130048,-1.406296,1.742622,1.176193,-0.569177,0.368850,-0.020571,0.829992,-0.374219,-0.335337,0.714717,-0.112109,0.304304,44.026226,-24.289749,-6.363954,0.524076,1.871444,-0.196061,0.000000,0.000000,0.000000,0.000000,0.000000,0.000000
12128591.000000,-2.354695,-1.663242,1.130894,-1.406687,1.742291,1.176924,-0.569297,0.371070,-0.017787,0.829285,-0.377842,-0.335890,0.710368,-0.109534,0.304304,43.978619,-24.388931,-6.169557,0.535978,1.819259,-0.149369,0.000000,0.000000,0.000000,0.000000,0.000000,0.000000
12128592.000000,-2.354327,-1.663257,1.131724,-1.407083,1.741972,1.177627,-0.569405,0.369397,-0.018159,0.829903,-0.380828,-0.337181,0.725927,-0.109483,0.427289,43.907207,-24.535721,-5.971193,0.482877,1.949264,-0.175919,0.000000,0.000000,0.000000,0.000000,0.000000,0.000000
12128593.000000,-2.353943,-1.663270,1.132565,-1.407479,1.741651,1.178332,-0.569519,0.373174,-0.014675,0.827090,-0.387221,-0.336305,0.711810,-0.110709,0.427289,43.808025,-24.634903,-5.749025,0.446256,2.131454,-0.182328,0.000000,0.000000,0.000000,0.000000,0.000000,0.000000
12128594.000000,-2.353578,-1.663282,1.133394,-1.407870,1.741309,1.179060,-0.569631,0.374944,-0.012143,0.825368,-0.385717,-0.334505,0.708460,-0.111752,0.625654,43.708843,-24.829300,-5.626039,0.506681,2.125045,-0.175919,0.000000,0.000000,0.000000,0.000000,0.000000,0.000000
12128595.000000,-2.353198,-1.663297,1.134227,-1.408265,1.740978,1.179780,-0.569741,0.372331,-0.015277,0.824771,-0.391229,-0.333515,0.715933,-0.111903,0.601850,43.685040,-24.880875,-5.399904,0.578092,2.001449,-0.182328,0.000000,0.000000,0.000000,0.000000,0.000000,0.000000
12128596.000000,-2.352819,-1.663307,1.135063,-1.408660,1.740660,1.180507,-0.569855,0.375745,-0.015286,0.819979,-0.386646,-0.324935,0.719835,-0.113406,0.574079,43.562054,-24.928482,-5.253114,0.578092,1.974899,-0.149369,0.000000,0.000000,0.000000,0.000000,0.000000,0.000000
12128597.000000,-2.352443,-1.663315,1.135884,-1.409052,1.740329,1.181235,-0.569955,0.372369,-0.012874,0.816099,-0.388869,-0.325094,0.734312,-0.106366,0.526471,43.466839,-24.928482,-5.130128,0.613798,1.942855,-0.208878,0.000000,0.000000,0.000000,0.000000,0.000000,0.000000
12128598.000000,-2.352064,-1.663323,1.136709,-1.409440,1.739999,1.181942,-0.570067,0.371432,-0.011424,0.811868,-0.388060,-0.326034,0.724354,-0.104156,0.550275,43.391460,-24.952286,-5.007143,0.679716,1.949264,-0.188737,0.000000,0.000000,0.000000,0.000000,0.000000,0.000000
12128599.000000,-2.351695,-1.663331,1.137511,-1.409827,1.739669,1.182665,-0.570176,0.371734,-0.010540,0.820063,-0.386673,-0.325375,0.721450,-0.103078,0.673261,43.320049,-24.757889,-4.907960,0.727323,1.936446,-0.163102,0.000000,0.000000,0.000000,0.000000,0.000000,0.000000
12128600.000000,-2.351319,-1.663333,1.138326,-1.410215,1.739366,1.183371,-0.570279,0.374818,-0.006047,0.817767,-0.381573,-0.316883,0.713437,-0.099635,0.574079,43.220867,-24.634903,-4.856386,0.667814,2.001449,-0.196061,0.000000,0.000000,0.000000,0.000000,0.000000,0.000000
12128601.000000,-2.350944,-1.663336,1.139150,-1.410591,1.739045,1.184091,-0.570389,0.379559,-0.005325,0.811734,-0.377948,-0.322484,0.711128,-0.104823,0.601850,43.097881,-24.535721,-4.808778,0.667814,2.060043,-0.155778,0.000000,0.000000,0.000000,0.000000,0.000000,0.000000
12128602.000000,-2.350566,-1.663336,1.139957,-1.410981,1.738727,1.184816,-0.570493,0.378499,-0.004305,0.813399,-0.379056,-0.316435,0.716437,-0.102953,0.526471,42.951092,-24.511917,-4.709596,0.644010,2.060043,-0.163102,0.000000,0.000000,0.000000,0.000000,0.000000,0.000000
12128603.000000,-2.350184,-1.663339,1.140774,-1.411361,1.738424,1.185542,-0.570598,0.379031,-0.004269,0.806324,-0.378506,-0.312433,0.723105,-0.099675,0.427289,42.828106,-24.464310,-4.562807,0.620206,2.014266,-0.196061,0.000000,0.000000,0.000000,0.000000,0.000000,0.000000
12128604.000000,-2.349808,-1.663339,1.141595,-1.411745,1.738124,1.186282,-0.570706,0.383575,-0.003625,0.809508,-0.379375,-0.304826,0.726588,-0.104727,0.403486,42.681316,-24.559525,-4.487428,0.625699,1.949264,-0.155778,0.000000,0.000000,0.000000,0.000000,0.000000,0.000000
12128605.000000,-2.349434,-1.663336,1.142404,-1.412134,1.737823,1.186997,-0.570806,0.378560,-0.003190,0.806784,-0.378407,-0.311575,0.718936,-0.100393,0.351911,42.534527,-24.634903,-4.364442,0.625699,1.942855,-0.202470,0.000000,0.000000,0.000000,0.000000,0.000000,0.000000
12128606.000000,-2.349058,-1.663340,1.143227,-1.412524,1.737517,1.187727,-0.570909,0.373059,-0.004665,0.805786,-0.381713,-0.305933,0.715202,-0.098516,0.328107,42.463116,-24.829300,-4.189882,0.661405,2.027084,-0.221696,0.000000,0.000000,0.000000,0.000000,0.000000,0.000000
12128607.000000,-2.348689,-1.663339,1.144032,-1.412912,1.737217,1.188451,-0.571016,0.363599,-0.004889,0.804838,-0.379464,-0.304866,0.713270,-0.106994,0.403486,42.363934,-24.928482,-4.043092,0.667814,2.079269,-0.202470,0.000000,0.000000,0.000000,0.000000,0.000000,0.000000
12128608.000000,-2.348321,-1.663343,1.144843,-1.413287,1.736922,1.189168,-0.571122,0.358633,-0.006317,0.804763,-0.389070,-0.300672,0.716167,-0.109185,0.451093,42.316326,-25.051468,-4.019289,0.703519,2.039901,-0.202470,0.000000,0.000000,0.000000,0.000000,0.000000,0.000000
12128609.000000,-2.347957,-1.663345,1.145660,-1.413668,1.736625,1.189883,-0.571225,0.365749,-0.006591,0.799495,-0.387402,-0.299814,0.711828,-0.110463,0.625654,42.240948,-25.126846,-3.943910,0.691617,2.112228,-0.196061,0.000000,0.000000,0.000000,0.000000,0.000000,0.000000
12128610.000000,-2.347598,-1.663348,1.146452,-1.414046,1.736327,1.190580,-0.571325,0.361658,-0.007477,0.794327,-0.384508,-0.302316,0.719696,-0.106212,0.748639,42.193340,-25.126846,-3.920107,0.667814,2.209274,-0.202470,0.000000,0.000000,0.000000,0.000000,0.000000,0.000000
12128611.000000,-2.347231,-1.663353,1.147246,-1.414427,1.736027,1.191284,-0.571430,0.361865,-0.006027,0.789027,-0.386141,-0.299983,0.711300,-0.109048,0.824018,42.193340,-25.003860,-3.769350,0.733732,2.280685,-0.169511,0.000000,0.000000,0.000000,0.000000,0.000000,0.000000
12128612.000000,-2.346876,-1.663358,1.148032,-1.414806,1.735742,1.192000,-0.571530,0.365654,-0.007961,0.785995,-0.385778,-0.289481,0.709576,-0.108898,0.923200,42.193340,-24.952286,-3.646364,0.703519,2.228500,-0.202470,0.000000,0.000000,0.000000,0.000000,0.000000,0.000000
12128613.000000,-2.346524,-1.663358,1.148815,-1.415185,1.735458,1.192714,-0.571635,0.361587,-0.005600,0.785029,-0.381082,-0.291380,0.709375,-0.105257,1.069990,42.169537,-24.706314,-3.598757,0.667814,2.163497,-0.202470,0.000000,0.000000,0.000000,0.000000,0.000000,0.000000
12128614.000000,-2.346174,-1.663361,1.149608,-1.415554,1.735164,1.193439,-0.571743,0.359179,-0.004371,0.781412,-0.374807,-0.292566,0.714080,-0.103771,1.292158,42.169537,-24.583328,-3.547182,0.637601,2.047225,-0.175919,0.000000,0.000000,0.000000,0.000000,0.000000,0.000000
12128615.000000,-2.345834,-1.663362,1.150387,-1.415928,1.734865,1.194158,-0.571843,0.353262,-0.002742,0.781317,-0.370770,-0.295374,0.711471,-0.100679,1.542096,42.141766,-24.412735,-3.570986,0.649503,1.995040,-0.196061,0.000000,0.000000,0.000000,0.000000,0.000000,0.000000
12128616.000000,-2.345487,-1.663358,1.151165,-1.416297,1.734571,1.194868,-0.571941,0.353159,-0.000516,0.777232,-0.370924,-0.294474,0.713086,-0.099271,1.764264,42.070354,-24.142960,-3.499574,0.709928,1.968490,-0.196061,0.000000,0.000000,0.000000,0.000000,0.000000,0.000000
12128617.000000,-2.345145,-1.663355,1.151932,-1.416668,1.734284,1.195591,-0.572049,0.349871,0.000500,0.789177,-0.368655,-0.291610,0.708556,-0.099502,1.986432,42.022747,-23.849380,-3.523378,0.727323,1.930038,-0.155778,0.000000,0.000000,0.000000,0.000000,0.000000,0.000000
12128618.000000,-2.344806,-1.663348,1.152711,-1.417034,1.733992,1.196315,-0.572144,0.345619,0.002452,0.781814,-0.365704,-0.291254,0.714200,-0.096063,2.184797,41.923565,-23.678787,-3.598757,0.781339,1.825668,-0.208878,0.000000,0.000000,0.000000,0.000000,0.000000,0.000000
12128619.000000,-2.344462,-1.663333,1.153494,-1.417403,1.733709,1.197044,-0.572244,0.349916,0.006031,0.776592,-0.367567,-0.282868,0.715715,-0.095354,2.331586,41.729168,-23.579605,-3.523378,0.739225,1.773483,-0.215287,0.000000,0.000000,0.000000,0.000000,0.000000,0.000000
12128620.000000,-2.344119,-1.663321,1.154256,-1.417775,1.733432,1.197793,-0.572348,0.350004,0.007433,0.772121,-0.365189,-0.280330,0.722623,-0.093390,2.406965,41.578411,-23.432816,-3.424196,0.673307,1.689254,-0.155778,0.000000,0.000000,0.000000,0.000000,0.000000,0.000000
12128621.000000,-2.343772,-1.663311,1.155025,-1.418148,1.733162,1.198520,-0.572446,0.345265,0.014450,0.766952,-0.374087,-0.276660,0.730985,-0.093741,2.454572,41.431622,-23.258255,-3.178224,0.673307,1.656295,-0.149369,0.000000,0.000000,0.000000,0.000000,0.000000,0.000000
12128622.000000,-2.343430,-1.663298,1.155810,-1.418513,1.732885,1.199244,-0.572536,0.347113,0.013516,0.769042,-0.369179,-0.277136,0.724100,-0.092298,2.529951,41.284832,-23.286026,-3.126650,0.655912,1.676437,-0.202470,0.000000,0.000000,0.000000,0.000000,0.000000,0.000000
12128623.000000,-2.343092,-1.663273,1.156574,-1.418884,1.732607,1.199965,-0.572630,0.345904,0.019934,0.771168,-0.368589,-0.275256,0.723570,-0.092462,2.605329,40.967449,-23.234451,-2.956056,0.685209,1.741439,-0.215287,0.000000,0.000000,0.000000,0.000000,0.000000,0.000000
12128624.000000,-2.342745,-1.663253,1.157343,-1.419237,1.732333,1.200694,-0.572736,0.341398,0.019466,0.770561,-0.366172,-0.272137,0.723080,-0.095038,2.629133,40.725445,-23.135269,-3.003664,0.679716,1.702071,-0.155778,0.000000,0.000000,0.000000,0.000000,0.000000,0.000000
12128625.000000,-2.342400,-1.663243,1.158105,-1.419592,1.732058,1.201427,-0.572826,0.340867,0.018730,0.773199,-0.358577,-0.266281,0.717594,-0.096647,2.652936,40.626263,-23.111465,-3.003664,0.698026,1.656295,-0.215287,0.000000,0.000000,0.000000,0.000000,0.000000,0.000000
12128626.000000,-2.342051,-1.663218,1.158883,-1.419945,1.731786,1.202139,-0.572924,0.344882,0.020455,0.773185,-0.366440,-0.268445,0.719786,-0.101279,2.605329,40.308880,-23.258255,-3.027467,0.769437,1.714889,-0.202470,0.000000,0.000000,0.000000,0.000000,0.000000,0.000000
12128627.000000,-2.341706,-1.663198,1.159657,-1.420296,1.731512,1.202847,-0.573022,0.351853,0.021109,0.768244,-0.361587,-0.270630,0.706630,-0.100323,2.581525,40.134319,-23.357437,-3.079042,0.751127,1.871444,-0.182328,0.000000,0.000000,0.000000,0.000000,0.000000,0.000000
12128628.000000,-2.341362,-1.663184,1.160411,-1.420651,1.731242,1.203572,-0.573115,0.350139,0.020012,0.763314,-0.362200,-0.275951,0.723131,-0.093101,2.581525,40.039104,-23.286026,-3.079042,0.733732,1.897079,-0.208878,0.000000,0.000000,0.000000,0.000000,0.000000,0.000000
12128629.000000,-2.341010,-1.663164,1.161179,-1.420991,1.730984,1.204286,-0.573214,0.350828,0.021162,0.760868,-0.356926,-0.271574,0.723392,-0.094882,2.482343,39.868511,-23.309830,-3.202028,0.698026,1.851302,-0.182328,0.000000,0.000000,0.000000,0.000000,0.000000,0.000000
12128630.000000,-2.340665,-1.663142,1.161935,-1.421336,1.730734,1.205015,-0.573306,0.352696,0.021355,0.758909,-0.348698,-0.265938,0.722546,-0.095259,2.482343,39.721722,-23.286026,-3.225832,0.601896,1.812850,-0.188737,0.000000,0.000000,0.000000,0.000000,0.000000,0.000000
12128631.000000,-2.340309,-1.663116,1.162700,-1.421677,1.730476,1.205725,-0.573401,0.348202,0.020266,0.757076,-0.340522,-0.268019,0.724974,-0.090521,2.331586,39.499554,-23.234451,-3.348818,0.535978,1.832076,-0.188737,0.000000,0.000000,0.000000,0.000000,0.000000,0.000000
12128632.000000,-2.339953,-1.663096,1.163464,-1.422017,1.730206,1.206451,-0.573497,0.360144,0.017569,0.753048,-0.338164,-0.267028,0.723478,-0.091594,2.208601,39.352764,-23.087662,-3.325014,0.530485,1.773483,-0.182328,0.000000,0.000000,0.000000,0.000000,0.000000,0.000000
12128633.000000,-2.339600,-1.663073,1.164205,-1.422356,1.729937,1.207179,-0.573588,0.359363,0.019216,0.748180,-0.340257,-0.268549,0.726971,-0.091811,2.109418,39.182171,-22.841690,-3.376589,0.578092,1.754256,-0.196061,0.000000,0.000000,0.000000,0.000000,0.000000,0.000000
12128634.000000,-2.339239,-1.663055,1.164963,-1.422684,1.729677,1.207878,-0.573677,0.359971,0.018871,0.745030,-0.336967,-0.264030,0.711260,-0.087538,1.911054,39.082989,-22.671097,-3.400392,0.608304,1.838485,-0.221696,0.000000,0.000000,0.000000,0.000000,0.000000,0.000000
12128635.000000,-2.338882,-1.663029,1.165716,-1.423008,1.729422,1.208592,-0.573769,0.364043,0.020335,0.747655,-0.335799,-0.256548,0.705406,-0.091208,1.811872,38.912395,-22.595718,-3.475771,0.547880,1.851302,-0.182328,0.000000,0.000000,0.000000,0.000000,0.000000,0.000000
12128636.000000,-2.338527,-1.663013,1.166480,-1.423327,1.729155,1.209305,-0.573857,0.356809,0.018615,0.753797,-0.326694,-0.262698,0.708053,-0.090184,1.613508,38.864788,-22.595718,-3.646364,0.530485,1.721298,-0.229020,0.000000,0.000000,0.000000,0.000000,0.000000,0.000000
12128637.000000,-2.338169,-1.662999,1.167240,-1.423641,1.728884,1.210035,-0.573950,0.358741,0.015980,0.752362,-0.322609,-0.265130,0.709017,-0.091824,1.490522,38.888592,-22.524307,-3.721742,0.578092,1.617843,-0.221696,0.000000,0.000000,0.000000,0.000000,0.000000,0.000000
12128638.000000,-2.337812,-1.662980,1.167995,-1.423961,1.728625,1.210742,-0.574047,0.353255,0.015816,0.756604,-0.322994,-0.259231,0.706769,-0.094479,1.343732,38.837017,-22.500504,-3.745546,0.559781,1.702071,-0.169511,0.000000,0.000000,0.000000,0.000000,0.000000,0.000000
12128639.000000,-2.337440,-1.662968,1.168765,-1.424277,1.728376,1.211423,-0.574142,0.357011,0.013955,0.762134,-0.321389,-0.254614,0.693619,-0.093527,1.093793,38.864788,-22.623489,-3.745546,0.524076,1.858627,-0.196061,0.000000,0.000000,0.000000,0.000000,0.000000,0.000000
12128640.000000,-2.337073,-1.662958,1.169529,-1.424582,1.728116,1.212131,-0.574239,0.359986,0.012199,0.762536,-0.317152,-0.262142,0.692034,-0.095079,0.923200,38.912395,-22.671097,-3.868532,0.547880,1.897079,-0.163102,0.000000,0.000000,0.000000,0.000000,0.000000,0.000000
12128641.000000,-2.336718,-1.662949,1.170276,-1.424886,1.727859,1.212841,-0.574328,0.358710,0.011154,0.761480,-0.312547,-0.264388,0.694175,-0.093017,0.796247,38.960003,-22.718704,-4.066896,0.512174,1.760665,-0.215287,0.000000,0.000000,0.000000,0.000000,0.000000,0.000000
12128642.000000,-2.336354,-1.662943,1.171035,-1.425189,1.727596,1.213560,-0.574421,0.360246,0.009260,0.757296,-0.308720,-0.265599,0.697713,-0.094046,0.649457,39.059185,-22.817886,-4.142274,0.542386,1.689254,-0.208878,0.000000,0.000000,0.000000,0.000000,0.000000,0.000000
12128643.000000,-2.335992,-1.662939,1.171782,-1.425484,1.727342,1.214256,-0.574517,0.362745,0.011064,0.753995,-0.305891,-0.259692,0.693530,-0.096054,0.474897,39.158367,-22.841690,-4.312868,0.518583,1.779891,-0.163102,0.000000,0.000000,0.000000,0.000000,0.000000,0.000000
12128644.000000,-2.335619,-1.662941,1.172533,-1.425774,1.727089,1.214941,-0.574606,0.363165,0.004659,0.749594,-0.304938,-0.253245,0.693556,-0.094226,0.252729,39.328960,-22.770279,-4.535036,0.566190,1.936446,-0.215287,0.000000,0.000000,0.000000,0.000000,0.000000,0.000000
12128645.000000,-2.335253,-1.662938,1.173280,-1.426068,1.726833,1.215646,-0.574703,0.365312,0.004164,0.746058,-0.297163,-0.256797,0.698121,-0.094758,0.105939,39.451946,-22.548111,-4.610414,0.601896,1.930038,-0.202470,0.000000,0.000000,0.000000,0.000000,0.000000,0.000000
12128646.000000,-2.334893,-1.662940,1.174020,-1.426356,1.726583,1.216359,-0.574797,0.365415,0.002790,0.746608,-0.295667,-0.251196,0.714747,-0.096380,-0.017047,39.622540,-22.448929,-4.757204,0.535978,1.877853,-0.155778,0.000000,0.000000,0.000000,0.000000,0.000000,0.000000
12128647.000000,-2.334525,-1.662942,1.174776,-1.426640,1.726340,1.217064,-0.574882,0.362789,0.001876,0.743895,-0.292987,-0.247294,0.711958,-0.093686,-0.167803,39.793133,-22.425125,-4.856386,0.464567,1.825668,-0.208878,0.000000,0.000000,0.000000,0.000000,0.000000,0.000000
12128648.000000,-2.334158,-1.662935,1.175516,-1.426918,1.726100,1.217778,-0.574977,0.369725,0.000472,0.739809,-0.285691,-0.239798,0.706192,-0.090763,-0.266986,39.868511,-22.377518,-5.007143,0.398649,1.727706,-0.169511,0.000000,0.000000,0.000000,0.000000,0.000000,0.000000
12128649.000000,-2.333797,-1.662939,1.176254,-1.427200,1.725862,1.218496,-0.575063,0.366911,0.000209,0.737921,-0.284705,-0.242386,0.707171,-0.089899,-0.389971,40.039104,-22.107742,-5.130128,0.422452,1.630660,-0.215287,0.000000,0.000000,0.000000,0.000000,0.000000,0.000000
12128650.000000,-2.333433,-1.662937,1.177000,-1.427475,1.725617,1.219202,-0.575152,0.367635,-0.000715,0.736184,-0.281182,-0.243215,0.707388,-0.092050,-0.564532,40.110516,-21.960953,-5.229311,0.422452,1.649886,-0.202470,0.000000,0.000000,0.000000,0.000000,0.000000,0.000000
12128651.000000,-2.333079,-1.662936,1.177737,-1.427740,1.725371,1.219922,-0.575250,0.361804,-0.001071,0.740794,-0.275602,-0.238562,0.703965,-0.094195,-0.635943,40.162090,-21.786392,-5.427675,0.405057,1.643478,-0.163102,0.000000,0.000000,0.000000,0.000000,0.000000,0.000000
12128652.000000,-2.332720,-1.662933,1.178481,-1.428003,1.725126,1.220626,-0.575332,0.360547,0.002873,0.743963,-0.272193,-0.242323,0.706802,-0.092457,-0.687518,40.162090,-21.663406,-5.626039,0.458158,1.630660,-0.221696,0.000000,0.000000,0.000000,0.000000,0.000000,0.000000
12128653.000000,-2.332357,-1.662931,1.179226,-1.428264,1.724889,1.221343,-0.575433,0.363353,0.004566,0.741413,-0.266493,-0.241765,0.705448,-0.090748,-0.735125,40.209698,-21.540421,-5.820436,0.434354,1.546432,-0.155778,0.000000,0.000000,0.000000,0.000000,0.000000,0.000000
12128654.000000,-2.332009,-1.662925,1.179965,-1.428531,1.724656,1.222059,-0.575521,0.358036,0.004318,0.742154,-0.267141,-0.243549,0.709827,-0.091262,-0.711321,40.185894,-21.516617,-5.947389,0.464567,1.481429,-0.163102,0.000000,0.000000,0.000000,0.000000,0.000000,0.000000
12128655.000000,-2.331654,-1.662922,1.180704,-1.428797,1.724417,1.222767,-0.575606,0.355872,0.003416,0.737100,-0.267793,-0.243557,0.708716,-0.090077,-0.810504,40.185894,-21.417435,-6.070375,0.452665,1.546432,-0.208878,0.000000,0.000000,0.000000,0.000000,0.000000,0.000000
12128656.000000,-2.331300,-1.662915,1.181439,-1.429070,1.724181,1.223482,-0.575703,0.356701,0.004444,0.734591,-0.266354,-0.237263,0.706796,-0.093472,-0.885882,40.110516,-21.369827,-6.094179,0.398649,1.637069,-0.149369,0.000000,0.000000,0.000000,0.000000,0.000000,0.000000
12128657.000000,-2.330938,-1.662908,1.182195,-1.429345,1.723948,1.224193,-0.575785,0.357087,0.004936,0.739679,-0.268865,-0.234123,0.712900,-0.091384,-1.008868,40.039104,-21.469009,-5.994997,0.386747,1.662704,-0.208878,0.000000,0.000000,0.000000,0.000000,0.000000,0.000000
12128658.000000,-2.330576,-1.662896,1.182950,-1.429621,1.723720,1.224925,-0.575878,0.359287,0.006951,0.742465,-0.267668,-0.233319,0.709840,-0.092701,-1.131854,39.892315,-21.540421,-6.018800,0.297025,1.591293,-0.208878,0.000000,0.000000,0.000000,0.000000,0.000000,0.000000
12128659.000000,-2.330229,-1.662884,1.183704,-1.429899,1.723499,1.225642,-0.575974,0.353883,0.008238,0.747754,-0.271921,-0.233447,0.712959,-0.090950,-1.207232,39.745525,-21.762589,-5.947389,0.243009,1.539108,-0.142960,0.000000,0.000000,0.000000,0.000000,0.000000,0.000000
12128660.000000,-2.329877,-1.662872,1.184456,-1.430160,1.723267,1.226356,-0.576056,0.351619,0.008496,0.746376,-0.267786,-0.231920,0.706549,-0.085377,-1.254840,39.622540,-21.837967,-6.042604,0.243009,1.591293,-0.182328,0.000000,0.000000,0.000000,0.000000,0.000000,0.000000
12128661.000000,-2.329533,-1.662862,1.185204,-1.430438,1.723029,1.227064,-0.576140,0.355419,0.008080,0.748550,-0.271319,-0.231429,0.697432,-0.087178,-1.231036,39.523357,-21.960953,-5.971193,0.255826,1.773483,-0.182328,0.000000,0.000000,0.000000,0.000000,0.000000,0.000000
12128662.000000,-2.329184,-1.662853,1.185963,-1.430702,1.722786,1.227754,-0.576229,0.352508,0.006572,0.753161,-0.272991,-0.232335,0.698170,-0.086038,-1.183428,39.475750,-22.107742,-6.018800,0.315336,1.890670,-0.142960,0.000000,0.000000,0.000000,0.000000,0.000000,0.000000
12128663.000000,-2.328843,-1.662842,1.186721,-1.430971,1.722547,1.228461,-0.576311,0.350812,0.009405,0.754003,-0.271102,-0.237978,0.697227,-0.081832,-1.060443,39.400372,-22.155350,-6.018800,0.386747,1.897079,-0.182328,0.000000,0.000000,0.000000,0.000000,0.000000,0.000000
12128664.000000,-2.328507,-1.662827,1.187478,-1.431248,1.722308,1.229174,-0.576393,0.344871,0.008805,0.759140,-0.273896,-0.235473,0.705411,-0.080074,-1.032672,39.305157,-22.377518,-5.947389,0.398649,1.832076,-0.188737,0.000000,0.000000,0.000000,0.000000,0.000000,0.000000
12128665.000000,-2.328172,-1.662810,1.188234,-1.431516,1.722076,1.229867,-0.576477,0.338270,0.007864,0.753881,-0.268432,-0.237771,0.703892,-0.078814,-0.885882,39.229778,-22.425125,-5.947389,0.398649,1.825668,-0.202470,0.000000,0.000000,0.000000,0.000000,0.000000,0.000000
12128666.000000,-2.327832,-1.662806,1.188982,-1.431793,1.721837,1.230569,-0.576565,0.341061,0.006814,0.752838,-0.270217,-0.242227,0.697408,-0.084677,-0.762896,39.305157,-22.500504,-5.820436,0.356534,1.806442,-0.155778,0.000000,0.000000,0.000000,0.000000,0.000000,0.000000
12128667.000000,-2.327500,-1.662796,1.189731,-1.432079,1.721601,1.231255,-0.576648,0.336113,0.008084,0.744903,-0.279859,-0.237472,0.692269,-0.081559,-0.612139,39.305157,-22.425125,-5.626039,0.339139,1.819259,-0.175919,0.000000,0.000000,0.000000,0.000000,0.000000,0.000000
12128668.000000,-2.327165,-1.662785,1.190483,-1.432357,1.721366,1.231954,-0.576725,0.332929,0.007153,0.740088,-0.279697,-0.235598,0.691682,-0.079195,-0.540728,39.253582,-22.302139,-5.574464,0.362943,1.851302,-0.196061,0.000000,0.000000,0.000000,0.000000,0.000000,0.000000
12128669.000000,-2.326845,-1.662772,1.191235,-1.432645,1.721142,1.232651,-0.576810,0.331209,0.009457,0.745396,-0.282614,-0.230994,0.693062,-0.079804,-0.389971,39.205975,-22.325943,-5.376100,0.297025,1.851302,-0.155778,0.000000,0.000000,0.000000,0.000000,0.000000,0.000000
12128670.000000,-2.326514,-1.662767,1.191996,-1.432922,1.720920,1.233341,-0.576888,0.330578,0.006325,0.747420,-0.280341,-0.233014,0.688540,-0.078342,-0.314593,39.229778,-22.353714,-5.376100,0.249418,1.877853,-0.182328,0.000000,0.000000,0.000000,0.000000,0.000000,0.000000
12128671.000000,-2.326183,-1.662755,1.192760,-1.433215,1.720680,1.234051,-0.576969,0.335601,0.008920,0.750161,-0.282462,-0.238359,0.693464,-0.077595,-0.215411,39.182171,-22.377518,-5.229311,0.315336,1.767074,-0.188737,0.000000,0.000000,0.000000,0.000000,0.000000,0.000000
12128672.000000,-2.325856,-1.662745,1.193507,-1.433507,1.720443,1.234738,-0.577057,0.334023,0.009143,0.746136,-0.283185,-0.241034,0.689701,-0.078103,-0.144000,39.205975,-22.425125,-5.106325,0.344633,1.754256,-0.163102,0.000000,0.000000,0.000000,0.000000,0.000000,0.000000
12128673.000000,-2.325526,-1.662735,1.194280,-1.433803,1.720206,1.235434,-0.577132,0.328907,0.006800,0.749546,-0.288396,-0.234604,0.689420,-0.076104,-0.116229,39.205975,-22.647293,-4.931764,0.393156,1.812850,-0.196061,0.000000,0.000000,0.000000,0.000000,0.000000,0.000000
12128674.000000,-2.325211,-1.662727,1.195039,-1.434109,1.719972,1.236121,-0.577215,0.323376,0.008227,0.754075,-0.289808,-0.233490,0.678889,-0.081218,-0.017047,39.205975,-22.794083,-4.685792,0.422452,1.903487,-0.182328,0.000000,0.000000,0.000000,0.000000,0.000000,0.000000
12128675.000000,-2.324884,-1.662724,1.195808,-1.434394,1.719743,1.236823,-0.577299,0.326659,0.008047,0.761076,-0.297619,-0.228565,0.682163,-0.081209,0.006757,39.253582,-22.988480,-4.634218,0.470060,1.844894,-0.155778,0.000000,0.000000,0.000000,0.000000,0.000000,0.000000
12128676.000000,-2.324560,-1.662720,1.196581,-1.434696,1.719507,1.237521,-0.577372,0.325919,0.004348,0.766075,-0.299651,-0.227779,0.685517,-0.077943,0.105939,39.328960,-23.163040,-4.439821,0.482877,1.825668,-0.202470,0.000000,0.000000,0.000000,0.000000,0.000000,0.000000
12128677.000000,-2.324240,-1.662718,1.197345,-1.434985,1.719279,1.238208,-0.577444,0.322621,0.005057,0.766122,-0.293556,-0.232946,0.700611,-0.076726,0.177350,39.400372,-23.432816,-4.412050,0.422452,1.897079,-0.221696,0.000000,0.000000,0.000000,0.000000,0.000000,0.000000
12128678.000000,-2.323921,-1.662717,1.198114,-1.435279,1.719048,1.238892,-0.577529,0.319454,0.005453,0.762153,-0.295607,-0.231183,0.695183,-0.083671,0.252729,39.475750,-23.627213,-4.265260,0.422452,2.020675,-0.163102,0.000000,0.000000,0.000000,0.000000,0.000000,0.000000
12128679.000000,-2.323613,-1.662721,1.198862,-1.435573,1.718811,1.239596,-0.577612,0.323640,0.004029,0.756891,-0.293851,-0.227558,0.692188,-0.086781,0.375715,39.622540,-23.651016,-4.213686,0.482877,1.981307,-0.149369,0.000000,0.000000,0.000000,0.000000,0.000000,0.000000
12128680.000000,-2.323299,-1.662729,1.199619,-1.435866,1.718584,1.240286,-0.577685,0.317340,0.003225,0.751527,-0.299778,-0.224362,0.694967,-0.082000,0.502668,39.769329,-23.603409,-4.090700,0.535978,1.955673,-0.215287,0.000000,0.000000,0.000000,0.000000,0.000000,0.000000
12128681.000000,-2.322979,-1.662729,1.200382,-1.436161,1.718356,1.240974,-0.577770,0.312855,0.001928,0.749489,-0.299305,-0.224785,0.683618,-0.081704,0.574079,39.816936,-23.603409,-3.967714,0.547880,1.995040,-0.182328,0.000000,0.000000,0.000000,0.000000,0.000000,0.000000
12128682.000000,-2.322667,-1.662727,1.201132,-1.436460,1.718129,1.241673,-0.577851,0.311549,0.002510,0.750688,-0.294989,-0.223430,0.696835,-0.085550,0.673261,39.793133,-23.603409,-3.868532,0.500272,2.007858,-0.163102,0.000000,0.000000,0.000000,0.000000,0.000000,0.000000
12128683.000000,-2.322355,-1.662739,1.201883,-1.436753,1.717898,1.242368,-0.577925,0.312027,-0.007426,0.747098,-0.293014,-0.226166,0.697200,-0.080933,0.748639,39.939922,-23.456619,-3.745546,0.559781,1.884261,-0.215287,0.000000,0.000000,0.000000,0.000000,0.000000,0.000000
12128684.000000,-2.322047,-1.662745,1.202621,-1.437046,1.717671,1.243072,-0.578005,0.312252,-0.006203,0.757846,-0.294512,-0.224973,0.693070,-0.080346,0.847822,39.987530,-23.210648,-3.745546,0.542386,1.819259,-0.202470,0.000000,0.000000,0.000000,0.000000,0.000000,0.000000
12128685.000000,-2.321739,-1.662748,1.203378,-1.437345,1.717448,1.243760,-0.578084,0.311516,-0.004888,0.756067,-0.291542,-0.220480,0.697941,-0.079933,0.871625,40.015301,-23.135269,-3.670168,0.542386,1.832076,-0.182328,0.000000,0.000000,0.000000,0.000000,0.000000,0.000000
12128686.000000,-2.321432,-1.662749,1.204131,-1.437637,1.717236,1.244457,-0.578158,0.306243,-0.003893,0.752231,-0.289222,-0.219661,0.694260,-0.077947,0.994611,40.039104,-22.988480,-3.598757,0.488370,1.909896,-0.208878,0.000000,0.000000,0.000000,0.000000,0.000000,0.000000
12128687.000000,-2.321126,-1.662750,1.204870,-1.437938,1.717009,1.245178,-0.578240,0.304907,-0.002097,0.749911,-0.293629,-0.223046,0.702489,-0.078110,1.022382,40.015301,-22.817886,-3.499574,0.530485,1.825668,-0.188737,0.000000,0.000000,0.000000,0.000000,0.000000,0.000000
12128688.000000,-2.320824,-1.662754,1.205620,-1.438233,1.716787,1.245885,-0.578317,0.300766,-0.003112,0.749552,-0.294483,-0.219488,0.700506,-0.077557,1.121564,40.086712,-22.742508,-3.400392,0.535978,1.708480,-0.196061,0.000000,0.000000,0.000000,0.000000,0.000000,0.000000
12128689.000000,-2.320513,-1.662748,1.206377,-1.438522,1.716569,1.246595,-0.578398,0.304439,0.000213,0.752213,-0.293469,-0.216241,0.693895,-0.077425,1.046186,39.987530,-22.770279,-3.376589,0.535978,1.682845,-0.188737,0.000000,0.000000,0.000000,0.000000,0.000000,0.000000
12128690.000000,-2.320210,-1.662741,1.207111,-1.438832,1.716355,1.247282,-0.578472,0.303888,0.002901,0.748471,-0.296832,-0.218882,0.688843,-0.076897,1.069990,39.868511,-22.694901,-3.178224,0.542386,1.708480,-0.196061,0.000000,0.000000,0.000000,0.000000,0.000000,0.000000
12128691.000000,-2.319902,-1.662734,1.207866,-1.439124,1.716135,1.247986,-0.578547,0.306436,0.004236,0.744178,-0.295864,-0.218511,0.686566,-0.075937,1.093793,39.769329,-22.742508,-3.126650,0.613798,1.727706,-0.208878,0.000000,0.000000,0.000000,0.000000,0.000000,0.000000
12128692.000000,-2.319596,-1.662725,1.208604,-1.439418,1.715924,1.248686,-0.578629,0.305387,0.005687,0.740930,-0.295871,-0.215837,0.688593,-0.078423,1.069990,39.646343,-22.742508,-3.003664,0.620206,1.741439,-0.155778,0.000000,0.000000,0.000000,0.000000,0.000000,0.000000
12128693.000000,-2.319285,-1.662716,1.209355,-1.439710,1.715714,1.249375,-0.578697,0.303569,0.006101,0.739275,-0.296023,-0.211016,0.690733,-0.069868,1.022382,39.547161,-22.770279,-2.904482,0.554288,1.760665,-0.235429,0.000000,0.000000,0.000000,0.000000,0.000000,0.000000
12128694.000000,-2.318976,-1.662706,1.210117,-1.440004,1.715491,1.250073,-0.578777,0.307989,0.008050,0.744089,-0.296171,-0.210011,0.694831,-0.077369,0.994611,39.376568,-22.940872,-2.805300,0.554288,1.786300,-0.202470,0.000000,0.000000,0.000000,0.000000,0.000000,0.000000
12128695.000000,-2.318676,-1.662694,1.210862,-1.440298,1.715279,1.250758,-0.578859,0.307733,0.008795,0.745674,-0.295233,-0.211650,0.691300,-0.078635,0.970807,39.229778,-23.040054,-2.733888,0.524076,1.800033,-0.155778,0.000000,0.000000,0.000000,0.000000,0.000000,0.000000
12128696.000000,-2.318370,-1.662683,1.211610,-1.440590,1.715070,1.251454,-0.578928,0.307010,0.009292,0.744862,-0.294524,-0.210664,0.686460,-0.075192,0.947004,39.082989,-23.111465,-2.682314,0.530485,1.851302,-0.229020,0.000000,0.000000,0.000000,0.000000,0.000000,0.000000
12128697.000000,-2.318065,-1.662674,1.212350,-1.440883,1.714853,1.252144,-0.579012,0.307093,0.008512,0.742964,-0.293914,-0.211662,0.678064,-0.077836,0.923200,38.983807,-23.210648,-2.606935,0.584501,1.890670,-0.163102,0.000000,0.000000,0.000000,0.000000,0.000000,0.000000
12128698.000000,-2.317759,-1.662661,1.213097,-1.441180,1.714646,1.252832,-0.579086,0.310155,0.009662,0.742449,-0.294575,-0.211667,0.678823,-0.076358,0.895429,38.813213,-23.210648,-2.511720,0.613798,1.897079,-0.182328,0.000000,0.000000,0.000000,0.000000,0.000000,0.000000
12128699.000000,-2.317462,-1.662652,1.213850,-1.441464,1.714432,1.253522,-0.579159,0.307893,0.012488,0.746458,-0.292312,-0.211010,0.677580,-0.074890,0.947004,38.690228,-23.258255,-2.535524,0.632108,1.897079,-0.215287,0.000000,0.000000,0.000000,0.000000,0.000000,0.000000
12128700.000000,-2.317161,-1.662638,1.214584,-1.441748,1.714219,1.254217,-0.579243,0.304049,0.015735,0.747814,-0.289784,-0.209761,0.683419,-0.077301,0.895429,38.519634,-23.210648,-2.583132,0.620206,1.877853,-0.155778,0.000000,0.000000,0.000000,0.000000,0.000000,0.000000
12128701.000000,-2.316871,-1.662628,1.215320,-1.442028,1.714020,1.254907,-0.579309,0.297926,0.013177,0.739697,-0.288134,-0.206887,0.688951,-0.074249,1.022382,38.424419,-23.111465,-2.658510,0.559781,1.832076,-0.221696,0.000000,0.000000,0.000000,0.000000,0.000000,0.000000
12128702.000000,-2.316579,-1.662620,1.216045,-1.442316,1.713814,1.255598,-0.579384,0.300513,0.010893,0.749144,-0.287707,-0.202049,0.685809,-0.070115,1.169172,38.349041,-22.964676,-2.682314,0.554288,1.812850,-0.221696,0.000000,0.000000,0.000000,0.000000,0.000000,0.000000
12128703.000000,-2.316286,-1.662608,1.216779,-1.442598,1.713620,1.256276,-0.579464,0.298048,0.012987,0.740758,-0.283822,-0.198108,0.681971,-0.073894,1.216779,38.249859,-22.794083,-2.733888,0.535978,1.890670,-0.163102,0.000000,0.000000,0.000000,0.000000,0.000000,0.000000
12128704.000000,-2.315989,-1.662602,1.217519,-1.442884,1.713423,1.256964,-0.579535,0.295012,0.012829,0.738088,-0.283441,-0.199704,0.677152,-0.072607,1.244550,38.226055,-22.671097,-2.682314,0.506681,1.871444,-0.202470,0.000000,0.000000,0.000000,0.000000,0.000000,0.000000
12128705.000000,-2.315695,-1.662592,1.218247,-1.443160,1.713214,1.257671,-0.579613,0.295865,0.012326,0.732135,-0.278563,-0.202576,0.680686,-0.074819,1.244550,38.226055,-22.595718,-2.805300,0.524076,1.786300,-0.163102,0.000000,0.000000,0.000000,0.000000,0.000000,0.000000
12128706.000000,-2.315405,-1.662583,1.218987,-1.443437,1.713012,1.258373,-0.579685,0.298365,0.011953,0.730599,-0.278953,-0.204499,0.686950,-0.075548,1.292158,38.226055,-22.548111,-2.781496,0.542386,1.617843,-0.163102,0.000000,0.000000,0.000000,0.000000,0.000000,0.000000
12128707.000000,-2.315112,-1.662571,1.219732,-1.443717,1.712813,1.259079,-0.579753,0.299694,0.012353,0.729310,-0.278003,-0.200501,0.689598,-0.074179,1.343732,38.202251,-22.595718,-2.805300,0.554288,1.546432,-0.202470,0.000000,0.000000,0.000000,0.000000,0.000000,0.000000
12128708.000000,-2.314818,-1.662569,1.220465,-1.443995,1.712620,1.259763,-0.579826,0.294383,0.009802,0.730401,-0.279022,-0.193803,0.693636,-0.076031,1.343732,38.301434,-22.623489,-2.757692,0.578092,1.624252,-0.163102,0.000000,0.000000,0.000000,0.000000,0.000000,0.000000
12128709.000000,-2.314519,-1.662559,1.221209,-1.444261,1.712425,1.260457,-0.579887,0.293518,0.010463,0.731915,-0.272321,-0.192397,0.688097,-0.073727,1.315961,38.301434,-22.742508,-2.757692,0.578092,1.682845,-0.221696,0.000000,0.000000,0.000000,0.000000,0.000000,0.000000
12128710.000000,-2.314234,-1.662555,1.221941,-1.444533,1.712229,1.261159,-0.579956,0.290566,0.009274,0.734022,-0.269739,-0.192792,0.690291,-0.075313,1.367536,38.372845,-22.865494,-2.757692,0.613798,1.670028,-0.202470,0.000000,0.000000,0.000000,0.000000,0.000000,0.000000
12128711.000000,-2.313943,-1.662554,1.222675,-1.444792,1.712036,1.261838,-0.580032,0.291823,0.004249,0.730653,-0.270616,-0.195795,0.689392,-0.072425,1.343732,38.495831,-22.917068,-2.856874,0.589994,1.767074,-0.155778,0.000000,0.000000,0.000000,0.000000,0.000000,0.000000
12128712.000000,-2.313655,-1.662555,1.223420,-1.445048,1.711846,1.262534,-0.580092,0.293086,0.003758,0.727901,-0.263791,-0.191669,0.686664,-0.070359,1.442914,38.618816,-23.111465,-2.956056,0.535978,1.865035,-0.229020,0.000000,0.000000,0.000000,0.000000,0.000000,0.000000
12128713.000000,-2.313360,-1.662553,1.224153,-1.445315,1.711652,1.263220,-0.580165,0.293840,0.004784,0.729753,-0.266942,-0.191525,0.698979,-0.073927,1.367536,38.690228,-23.186844,-2.979860,0.547880,1.897079,-0.175919,0.000000,0.000000,0.000000,0.000000,0.000000,0.000000
12128714.000000,-2.313071,-1.662557,1.224890,-1.445570,1.711466,1.263931,-0.580240,0.292716,0.003767,0.727604,-0.264970,-0.190674,0.702619,-0.074916,1.391340,38.837017,-23.186844,-3.055238,0.542386,1.819259,-0.163102,0.000000,0.000000,0.000000,0.000000,0.000000,0.000000
12128715.000000,-2.312776,-1.662559,1.225621,-1.445827,1.711278,1.264636,-0.580305,0.295845,0.001096,0.728417,-0.261808,-0.190788,0.705973,-0.073592,1.268354,38.936199,-23.210648,-3.055238,0.559781,1.806442,-0.208878,0.000000,0.000000,0.000000,0.000000,0.000000,0.000000
12128716.000000,-2.312486,-1.662559,1.226355,-1.446081,1.711096,1.265332,-0.580376,0.295300,0.000295,0.727504,-0.259957,-0.189500,0.704108,-0.070696,1.268354,38.983807,-23.163040,-3.154421,0.542386,1.825668,-0.175919,0.000000,0.000000,0.000000,0.000000,0.000000,0.000000
12128717.000000,-2.312202,-1.662560,1.227096,-1.446328,1.710911,1.266041,-0.580442,0.292664,0.000056,0.731338,-0.254778,-0.187693,0.708955,-0.065431,1.292158,39.011578,-23.186844,-3.301210,0.506681,1.767074,-0.215287,0.000000,0.000000,0.000000,0.000000,0.000000,0.000000
12128718.000000,-2.311917,-1.662566,1.227809,-1.446573,1.710716,1.266750,-0.580508,0.291591,-0.001809,0.722564,-0.250773,-0.193185,0.704996,-0.064199,1.292158,39.106792,-22.988480,-3.448000,0.518583,1.670028,-0.208878,0.000000,0.000000,0.000000,0.000000,0.000000,0.000000
12128719.000000,-2.311626,-1.662567,1.228542,-1.446811,1.710527,1.267444,-0.580580,0.291962,-0.000363,0.725505,-0.250863,-0.188318,0.699901,-0.063139,1.292158,39.082989,-22.940872,-3.622560,0.542386,1.656295,-0.188737,0.000000,0.000000,0.000000,0.000000,0.000000,0.000000
12128720.000000,-2.311332,-1.662569,1.229267,-1.447053,1.710342,1.268130,-0.580646,0.297463,-0.000584,0.731708,-0.248850,-0.187403,0.689902,-0.065591,1.216779,39.106792,-22.865494,-3.745546,0.524076,1.727706,-0.208878,0.000000,0.000000,0.000000,0.000000,0.000000,0.000000
12128721.000000,-2.311047,-1.662567,1.229993,-1.447295,1.710161,1.268807,-0.580717,0.294005,0.000328,0.728722,-0.243483,-0.186870,0.684862,-0.069603,1.169172,39.082989,-22.718704,-3.892336,0.500272,1.800033,-0.169511,0.000000,0.000000,0.000000,0.000000,0.000000,0.000000
12128722.000000,-2.310758,-1.662562,1.230715,-1.447531,1.709977,1.269509,-0.580783,0.290391,0.002010,0.723041,-0.242538,-0.187912,0.691950,-0.070650,1.093793,39.011578,-22.472733,-3.920107,0.512174,1.708480,-0.182328,0.000000,0.000000,0.000000,0.000000,0.000000,0.000000
12128723.000000,-2.310464,-1.662568,1.231437,-1.447765,1.709797,1.270216,-0.580847,0.289856,-0.000240,0.721855,-0.239253,-0.187484,0.695793,-0.070655,0.923200,39.082989,-22.448929,-4.019289,0.494779,1.624252,-0.215287,0.000000,0.000000,0.000000,0.000000,0.000000,0.000000
12128724.000000,-2.310171,-1.662558,1.232169,-1.447995,1.709620,1.270901,-0.580920,0.290063,0.002228,0.723309,-0.238579,-0.180176,0.701088,-0.073968,0.824018,38.983807,-22.425125,-4.066896,0.416959,1.637069,-0.163102,0.000000,0.000000,0.000000,0.000000,0.000000,0.000000
12128725.000000,-2.309868,-1.662558,1.232907,-1.448228,1.709438,1.271595,-0.580983,0.294228,0.002093,0.727545,-0.236617,-0.180604,0.697972,-0.068410,0.649457,38.960003,-22.500504,-4.043092,0.374845,1.649886,-0.196061,0.000000,0.000000,0.000000,0.000000,0.000000,0.000000
12128726.000000,-2.309571,-1.662560,1.233622,-1.448458,1.709256,1.272284,-0.581049,0.296724,0.000877,0.725913,-0.233109,-0.183582,0.687548,-0.070862,0.474897,38.983807,-22.377518,-4.090700,0.422452,1.676437,-0.208878,0.000000,0.000000,0.000000,0.000000,0.000000,0.000000
12128727.000000,-2.309274,-1.662552,1.234359,-1.448679,1.709071,1.272967,-0.581117,0.294520,0.003397,0.725742,-0.230243,-0.187307,0.683442,-0.068716,0.328107,38.864788,-22.500504,-4.166078,0.488370,1.741439,-0.169511,0.000000,0.000000,0.000000,0.000000,0.000000,0.000000
12128728.000000,-2.308979,-1.662550,1.235086,-1.448899,1.708893,1.273663,-0.581178,0.294917,0.002936,0.729070,-0.223777,-0.181948,0.680223,-0.064166,0.129743,38.837017,-22.595718,-4.265260,0.464567,1.779891,-0.215287,0.000000,0.000000,0.000000,0.000000,0.000000,0.000000
12128729.000000,-2.308681,-1.662550,1.235825,-1.449109,1.708722,1.274356,-0.581251,0.297274,0.001973,0.732440,-0.226160,-0.177614,0.689038,-0.069299,-0.017047,38.837017,-22.718704,-4.412050,0.428861,1.695663,-0.155778,0.000000,0.000000,0.000000,0.000000,0.000000,0.000000
12128730.000000,-2.308384,-1.662549,1.236563,-1.449322,1.708541,1.275058,-0.581319,0.300270,0.001884,0.734217,-0.222977,-0.181606,0.686327,-0.065416,-0.092425,38.813213,-22.841690,-4.586610,0.470060,1.656295,-0.175919,0.000000,0.000000,0.000000,0.000000,0.000000,0.000000
12128731.000000,-2.308086,-1.662554,1.237290,-1.449537,1.708359,1.275748,-0.581382,0.301508,-0.000498,0.732180,-0.218983,-0.182493,0.701631,-0.061240,-0.290789,38.888592,-22.940872,-4.685792,0.452665,1.714889,-0.229020,0.000000,0.000000,0.000000,0.000000,0.000000,0.000000
12128732.000000,-2.307781,-1.662559,1.238032,-1.449748,1.708178,1.276413,-0.581458,0.300042,-0.001996,0.730792,-0.220042,-0.183586,0.691258,-0.063395,-0.512957,38.960003,-23.135269,-4.757204,0.440763,1.871444,-0.149369,0.000000,0.000000,0.000000,0.000000,0.000000,0.000000
12128733.000000,-2.307485,-1.662561,1.238757,-1.449963,1.708002,1.277101,-0.581521,0.301938,-0.001882,0.728096,-0.218462,-0.178805,0.690465,-0.065181,-0.687518,38.983807,-23.186844,-4.784975,0.410551,1.923629,-0.182328,0.000000,0.000000,0.000000,0.000000,0.000000,0.000000
12128734.000000,-2.307185,-1.662566,1.239491,-1.450171,1.707832,1.277786,-0.581591,0.305447,-0.009298,0.725932,-0.213197,-0.175224,0.687474,-0.063884,-0.885882,39.059185,-23.234451,-4.983339,0.369352,1.844894,-0.163102,0.000000,0.000000,0.000000,0.000000,0.000000,0.000000
12128735.000000,-2.306890,-1.662571,1.240229,-1.450373,1.707659,1.278482,-0.581659,0.301013,-0.007833,0.726976,-0.210777,-0.173662,0.689977,-0.062738,-0.933489,39.106792,-23.258255,-5.130128,0.362943,1.721298,-0.149369,0.000000,0.000000,0.000000,0.000000,0.000000,0.000000
12128736.000000,-2.306593,-1.662572,1.240947,-1.450570,1.707489,1.279168,-0.581719,0.299940,-0.005613,0.724015,-0.204373,-0.167346,0.683094,-0.059662,-1.060443,39.106792,-23.234451,-5.304689,0.344633,1.702071,-0.188737,0.000000,0.000000,0.000000,0.000000,0.000000,0.000000
12128737.000000,-2.306297,-1.662579,1.241678,-1.450773,1.707318,1.279838,-0.581786,0.299822,-0.006355,0.723353,-0.202998,-0.168350,0.679972,-0.064482,-1.131854,39.205975,-23.210648,-5.376100,0.351041,1.786300,-0.175919,0.000000,0.000000,0.000000,0.000000,0.000000,0.000000
12128738.000000,-2.305998,-1.662586,1.242401,-1.450975,1.707136,1.280503,-0.581852,0.303829,-0.006776,0.720791,-0.203187,-0.170884,0.672846,-0.066754,-1.254840,39.305157,-23.016251,-5.526857,0.416959,1.916305,-0.188737,0.000000,0.000000,0.000000,0.000000,0.000000,0.000000
12128739.000000,-2.305708,-1.662593,1.243113,-1.451188,1.706960,1.281174,-0.581917,0.297579,-0.006353,0.723594,-0.204154,-0.166666,0.674639,-0.069908,-1.306414,39.376568,-22.865494,-5.499086,0.440763,1.949264,-0.175919,0.000000,0.000000,0.000000,0.000000,0.000000,0.000000
12128740.000000,-2.305414,-1.662588,1.243844,-1.451386,1.706798,1.281863,-0.581982,0.296895,-0.002132,0.721157,-0.201622,-0.169649,0.684440,-0.066065,-1.405596,39.281353,-22.841690,-5.598268,0.374845,1.884261,-0.188737,0.000000,0.000000,0.000000,0.000000,0.000000,0.000000
12128741.000000,-2.305121,-1.662589,1.244570,-1.451589,1.706636,1.282564,-0.582045,0.290170,-0.002071,0.721289,-0.200485,-0.167630,0.688561,-0.063906,-1.504779,39.305157,-22.988480,-5.649843,0.315336,1.727706,-0.188737,0.000000,0.000000,0.000000,0.000000,0.000000,0.000000
12128742.000000,-2.304829,-1.662595,1.245302,-1.451789,1.706475,1.283253,-0.582109,0.288450,-0.002563,0.723895,-0.199996,-0.166270,0.695526,-0.063000,-1.552386,39.352764,-23.016251,-5.697450,0.255826,1.637069,-0.175919,0.000000,0.000000,0.000000,0.000000,0.000000,0.000000
12128743.000000,-2.304534,-1.662597,1.246036,-1.452003,1.706306,1.283934,-0.582172,0.294313,-0.002318,0.724368,-0.204761,-0.168448,0.681604,-0.061542,-1.627764,39.376568,-23.087662,-5.526857,0.291532,1.714889,-0.175919,0.000000,0.000000,0.000000,0.000000,0.000000,0.000000
12128744.000000,-2.304239,-1.662610,1.246764,-1.452206,1.706140,1.284608,-0.582232,0.293132,-0.005575,0.724550,-0.204554,-0.173682,0.676307,-0.064306,-1.778521,39.547161,-23.186844,-5.499086,0.320829,1.858627,-0.196061,0.000000,0.000000,0.000000,0.000000,0.000000,0.000000
12128745.000000,-2.303953,-1.662617,1.247507,-1.452409,1.705967,1.285279,-0.582299,0.289650,-0.005509,0.729270,-0.204460,-0.167741,0.668213,-0.068804,-1.826129,39.622540,-23.409012,-5.475282,0.315336,2.001449,-0.149369,0.000000,0.000000,0.000000,0.000000,0.000000,0.000000
12128746.000000,-2.303671,-1.662628,1.248242,-1.452606,1.705792,1.285975,-0.582354,0.291271,-0.010172,0.734923,-0.200655,-0.172792,0.672513,-0.064335,-1.873736,39.769329,-23.651016,-5.574464,0.315336,1.974899,-0.188737,0.000000,0.000000,0.000000,0.000000,0.000000,0.000000
12128747.000000,-2.303387,-1.662643,1.248981,-1.452798,1.705619,1.286656,-0.582419,0.290249,-0.013616,0.736969,-0.204249,-0.168146,0.679558,-0.063706,-1.826129,39.916119,-23.825577,-5.649843,0.339139,1.884261,-0.155778,0.000000,0.000000,0.000000,0.000000,0.000000,0.000000
12128748.000000,-2.303098,-1.662659,1.249727,-1.452992,1.705442,1.287348,-0.582475,0.287179,-0.016701,0.740016,-0.203326,-0.171011,0.675531,-0.059934,-1.873736,40.086712,-24.071548,-5.673646,0.410551,1.844894,-0.208878,0.000000,0.000000,0.000000,0.000000,0.000000,0.000000
12128749.000000,-2.302812,-1.662674,1.250455,-1.453199,1.705267,1.288004,-0.582535,0.288504,-0.015179,0.735855,-0.205207,-0.166891,0.682830,-0.064583,-1.925311,40.233501,-24.190567,-5.574464,0.440763,1.949264,-0.196061,0.000000,0.000000,0.000000,0.000000,0.000000,0.000000
12128750.000000,-2.302530,-1.662698,1.251192,-1.453409,1.705098,1.288671,-0.582602,0.286424,-0.019355,0.731472,-0.206537,-0.168407,0.679151,-0.064453,-1.925311,40.479473,-24.313553,-5.475282,0.470060,2.060043,-0.149369,0.000000,0.000000,0.000000,0.000000,0.000000,0.000000
12128751.000000,-2.302255,-1.662718,1.251914,-1.453614,1.704927,1.289351,-0.582657,0.287360,-0.020542,0.741169,-0.205998,-0.169699,0.682830,-0.065149,-1.873736,40.650066,-24.289749,-5.427675,0.506681,2.060043,-0.208878,0.000000,0.000000,0.000000,0.000000,0.000000,0.000000
12128752.000000,-2.301983,-1.662735,1.252650,-1.453815,1.704765,1.290024,-0.582720,0.282481,-0.019430,0.740319,-0.204467,-0.166339,0.677161,-0.064293,-1.750750,40.725445,-24.388931,-5.427675,0.428861,1.981307,-0.175919,0.000000,0.000000,0.000000,0.000000,0.000000,0.000000
12128753.000000,-2.301709,-1.662751,1.253386,-1.454015,1.704598,1.290707,-0.582775,0.280145,-0.015979,0.736336,-0.203579,-0.164443,0.675708,-0.061016,-1.651568,40.820660,-24.365128,-5.427675,0.356534,1.909896,-0.202470,0.000000,0.000000,0.000000,0.000000,0.000000,0.000000
12128754.000000,-2.301442,-1.662770,1.254108,-1.454222,1.704430,1.291384,-0.582833,0.272730,-0.016857,0.732759,-0.205646,-0.160605,0.673042,-0.060712,-1.528582,40.919842,-24.289749,-5.427675,0.339139,1.871444,-0.196061,0.000000,0.000000,0.000000,0.000000,0.000000,0.000000
12128755.000000,-2.301172,-1.662781,1.254836,-1.454421,1.704261,1.292055,-0.582897,0.272513,-0.015081,0.731253,-0.207339,-0.160577,0.670112,-0.060693,-1.405596,40.919842,-24.166763,-5.451478,0.393156,1.903487,-0.169511,0.000000,0.000000,0.000000,0.000000,0.000000,0.000000
12128756.000000,-2.300903,-1.662794,1.255555,-1.454630,1.704094,1.292721,-0.582951,0.277056,-0.014570,0.727965,-0.207680,-0.159382,0.663286,-0.057968,-1.330218,40.943645,-24.019974,-5.376100,0.434354,1.962081,-0.215287,0.000000,0.000000,0.000000,0.000000,0.000000,0.000000
12128757.000000,-2.300640,-1.662805,1.256285,-1.454838,1.703927,1.293385,-0.583010,0.273164,-0.013068,0.727196,-0.206483,-0.163464,0.667122,-0.059255,-1.282611,40.919842,-23.948563,-5.352296,0.476469,2.001449,-0.175919,0.000000,0.000000,0.000000,0.000000,0.000000,0.000000
12128758.000000,-2.300369,-1.662815,1.257014,-1.455050,1.703767,1.294078,-0.583067,0.271522,-0.008501,0.720076,-0.209112,-0.159889,0.680722,-0.059103,-1.306414,40.872234,-23.801773,-5.304689,0.470060,1.884261,-0.169511,0.000000,0.000000,0.000000,0.000000,0.000000,0.000000
12128759.000000,-2.300106,-1.662815,1.257732,-1.455272,1.703606,1.294779,-0.583120,0.271180,-0.006076,0.715855,-0.212603,-0.160706,0.685427,-0.052476,-1.254840,40.725445,-23.750198,-5.177736,0.434354,1.727706,-0.202470,0.000000,0.000000,0.000000,0.000000,0.000000,0.000000
12128760.000000,-2.299840,-1.662820,1.258466,-1.455484,1.703447,1.295454,-0.583179,0.270286,-0.006190,0.720330,-0.215007,-0.160603,0.684682,-0.054922,-1.231036,40.650066,-23.774002,-5.078554,0.369352,1.727706,-0.163102,0.000000,0.000000,0.000000,0.000000,0.000000,0.000000
12128761.000000,-2.299572,-1.662822,1.259189,-1.455703,1.703281,1.296136,-0.583237,0.273045,-0.005816,0.718744,-0.214582,-0.157564,0.674448,-0.054863,-1.231036,40.550884,-23.702591,-4.931764,0.356534,1.786300,-0.175919,0.000000,0.000000,0.000000,0.000000,0.000000,0.000000
12128762.000000,-2.299311,-1.662828,1.259902,-1.455928,1.703111,1.296809,-0.583290,0.269776,-0.007363,0.716648,-0.217271,-0.167318,0.673539,-0.054876,-1.207232,40.527081,-23.603409,-4.784975,0.434354,1.877853,-0.196061,0.000000,0.000000,0.000000,0.000000,0.000000,0.000000
12128763.000000,-2.299047,-1.662827,1.260633,-1.456147,1.702947,1.297494,-0.583348,0.265776,-0.005121,0.714895,-0.218187,-0.163431,0.671108,-0.055570,-1.231036,40.356487,-23.678787,-4.685792,0.446256,1.877853,-0.188737,0.000000,0.000000,0.000000,0.000000,0.000000,0.000000
12128764.000000,-2.298787,-1.662827,1.261357,-1.456369,1.702781,1.298189,-0.583399,0.269229,-0.000952,0.721406,-0.215993,-0.165868,0.673860,-0.054935,-1.207232,40.209698,-23.774002,-4.562807,0.476469,1.844894,-0.215287,0.000000,0.000000,0.000000,0.000000,0.000000,0.000000
12128765.000000,-2.298521,-1.662829,1.262094,-1.456586,1.702621,1.298872,-0.583462,0.269427,-0.002614,0.727801,-0.222977,-0.166772,0.677417,-0.057682,-1.231036,40.134319,-23.948563,-4.487428,0.476469,1.800033,-0.155778,0.000000,0.000000,0.000000,0.000000,0.000000,0.000000
12128766.000000,-2.298256,-1.662837,1.262822,-1.456816,1.702463,1.299570,-0.583509,0.263702,-0.005191,0.726749,-0.224122,-0.167819,0.680466,-0.051626,-1.231036,40.110516,-24.019974,-4.312868,0.494779,1.721298,-0.182328,0.000000,0.000000,0.000000,0.000000,0.000000,0.000000
12128767.000000,-2.297999,-1.662835,1.263538,-1.457044,1.702299,1.300251,-0.583562,0.259168,-0.004614,0.720928,-0.223443,-0.163672,0.692370,-0.051869,-1.207232,39.987530,-24.043777,-4.189882,0.500272,1.779891,-0.208878,0.000000,0.000000,0.000000,0.000000,0.000000,0.000000
12128768.000000,-2.297738,-1.662842,1.264265,-1.457265,1.702134,1.300912,-0.583622,0.261001,-0.006575,0.719213,-0.219490,-0.164666,0.683869,-0.055512,-1.207232,39.963726,-24.190567,-4.090700,0.488370,1.974899,-0.149369,0.000000,0.000000,0.000000,0.000000,0.000000,0.000000
12128769.000000,-2.297486,-1.662841,1.264982,-1.457489,1.701972,1.301588,-0.583671,0.260610,-0.005615,0.733343,-0.221538,-0.160157,0.677733,-0.048584,-1.108050,39.840740,-24.218338,-4.043092,0.470060,2.079269,-0.215287,0.000000,0.000000,0.000000,0.000000,0.000000,0.000000
12128770.000000,-2.297238,-1.662844,1.265708,-1.457711,1.701816,1.302267,-0.583725,0.261061,-0.006642,0.728240,-0.219530,-0.162306,0.681995,-0.050583,-1.008868,39.793133,-24.313553,-4.019289,0.464567,2.027084,-0.215287,0.000000,0.000000,0.000000,0.000000,0.000000,0.000000
12128771.000000,-2.296991,-1.662842,1.266432,-1.457927,1.701655,1.302963,-0.583788,0.254642,-0.001978,0.724439,-0.217846,-0.160432,0.685379,-0.054650,-0.862078,39.646343,-24.289749,-4.019289,0.488370,1.930038,-0.155778,0.000000,0.000000,0.000000,0.000000,0.000000,0.000000
12128772.000000,-2.296738,-1.662842,1.267147,-1.458151,1.701504,1.303648,-0.583835,0.252786,-0.003429,0.719612,-0.218255,-0.156792,0.683807,-0.052829,-0.834307,39.574932,-24.289749,-3.920107,0.458158,1.923629,-0.215287,0.000000,0.000000,0.000000,0.000000,0.000000,0.000000
12128773.000000,-2.296488,-1.662843,1.267860,-1.458378,1.701348,1.304329,-0.583896,0.251623,-0.001886,0.718117,-0.218655,-0.157308,0.682902,-0.055535,-0.762896,39.523357,-24.166763,-3.844728,0.506681,1.968490,-0.175919,0.000000,0.000000,0.000000,0.000000,0.000000,0.000000
12128774.000000,-2.296238,-1.662844,1.268574,-1.458611,1.701191,1.305013,-0.583954,0.254583,-0.001863,0.714150,-0.221180,-0.156725,0.679582,-0.056376,-0.687518,39.523357,-23.996170,-3.670168,0.542386,1.981307,-0.163102,0.000000,0.000000,0.000000,0.000000,0.000000,0.000000
12128775.000000,-2.295993,-1.662838,1.269269,-1.458842,1.701038,1.305699,-0.584006,0.253034,0.000532,0.707439,-0.222461,-0.154186,0.672256,-0.055708,-0.663714,39.428143,-23.801773,-3.523378,0.518583,1.949264,-0.188737,0.000000,0.000000,0.000000,0.000000,0.000000,0.000000
12128776.000000,-2.295748,-1.662827,1.269989,-1.459063,1.700884,1.306385,-0.584064,0.248408,0.002891,0.708517,-0.224658,-0.156844,0.681898,-0.056603,-0.635943,39.305157,-23.774002,-3.448000,0.482877,1.903487,-0.169511,0.000000,0.000000,0.000000,0.000000,0.000000,0.000000
12128777.000000,-2.295512,-1.662817,1.270697,-1.459285,1.700736,1.307079,-0.584115,0.246394,0.010203,0.708205,-0.223306,-0.148443,0.678933,-0.050961,-0.489153,39.205975,-23.750198,-3.475771,0.422452,1.819259,-0.196061,0.000000,0.000000,0.000000,0.000000,0.000000,0.000000
12128778.000000,-2.295269,-1.662811,1.271414,-1.459504,1.700590,1.307752,-0.584171,0.243392,0.008892,0.707087,-0.225493,-0.145099,0.680585,-0.052928,-0.413775,39.130596,-23.702591,-3.475771,0.434354,1.812850,-0.196061,0.000000,0.000000,0.000000,0.000000,0.000000,0.000000
12128779.000000,-2.295025,-1.662806,1.272128,-1.459733,1.700435,1.308428,-0.584228,0.237958,0.007843,0.705359,-0.225422,-0.144338,0.672530,-0.050006,-0.413775,39.059185,-23.651016,-3.348818,0.506681,1.858627,-0.175919,0.000000,0.000000,0.000000,0.000000,0.000000,0.000000
12128780.000000,-2.294787,-1.662802,1.272842,-1.459959,1.700286,1.309093,-0.584276,0.236592,0.005969,0.711093,-0.226359,-0.147260,0.680856,-0.050153,-0.366168,39.035381,-23.750198,-3.301210,0.542386,1.968490,-0.215287,0.000000,0.000000,0.000000,0.000000,0.000000,0.000000
12128781.000000,-2.294549,-1.662799,1.273566,-1.460180,1.700141,1.309766,-0.584334,0.235038,0.004674,0.715080,-0.223198,-0.143492,0.671649,-0.053363,-0.290789,39.011578,-23.896988,-3.301210,0.547880,2.001449,-0.175919,0.000000,0.000000,0.000000,0.000000,0.000000,0.000000
12128782.000000,-2.294319,-1.662797,1.274269,-1.460400,1.700002,1.310463,-0.584387,0.236294,0.003869,0.714245,-0.220958,-0.138742,0.675857,-0.054487,-0.243182,38.983807,-23.972366,-3.277406,0.506681,1.930038,-0.169511,0.000000,0.000000,0.000000,0.000000,0.000000,0.000000
12128783.000000,-2.294093,-1.662795,1.274996,-1.460619,1.699860,1.311146,-0.584439,0.233459,0.003213,0.713546,-0.220681,-0.141170,0.681688,-0.058568,-0.068621,38.960003,-24.190567,-3.202028,0.488370,1.844894,-0.202470,0.000000,0.000000,0.000000,0.000000,0.000000,0.000000
12128784.000000,-2.293856,-1.662799,1.275717,-1.460833,1.699713,1.311822,-0.584495,0.233404,0.003604,0.715041,-0.218675,-0.148174,0.679562,-0.063329,-0.017047,39.035381,-24.365128,-3.202028,0.488370,1.897079,-0.188737,0.000000,0.000000,0.000000,0.000000,0.000000,0.000000
12128785.000000,-2.293626,-1.662809,1.276422,-1.461047,1.699569,1.312492,-0.584546,0.228510,-0.000167,0.714356,-0.214394,-0.148846,0.675653,-0.056284,0.078168,39.158367,-24.341324,-3.178224,0.482877,1.995040,-0.208878,0.000000,0.000000,0.000000,0.000000,0.000000,0.000000
12128786.000000,-2.293397,-1.662812,1.277131,-1.461252,1.699421,1.313161,-0.584597,0.226186,-0.001551,0.706614,-0.213792,-0.151757,0.677173,-0.052429,0.153547,39.229778,-24.313553,-3.202028,0.542386,2.014266,-0.188737,0.000000,0.000000,0.000000,0.000000,0.000000,0.000000
12128787.000000,-2.293165,-1.662819,1.277834,-1.461458,1.699282,1.313841,-0.584652,0.232299,-0.002624,0.722347,-0.209895,-0.151094,0.677413,-0.053326,0.228925,39.305157,-24.242142,-3.225832,0.542386,1.995040,-0.196061,0.000000,0.000000,0.000000,0.000000,0.000000,0.000000
12128788.000000,-2.292945,-1.662826,1.278553,-1.461670,1.699146,1.314507,-0.584704,0.230267,-0.003847,0.722466,-0.207202,-0.145901,0.677294,-0.054910,0.375715,39.400372,-24.265945,-3.249635,0.535978,1.942855,-0.175919,0.000000,0.000000,0.000000,0.000000,0.000000,0.000000
12128789.000000,-2.292719,-1.662830,1.279264,-1.461868,1.699012,1.315187,-0.584750,0.226702,-0.003674,0.719529,-0.204001,-0.141303,0.682179,-0.049359,0.474897,39.451946,-24.218338,-3.325014,0.506681,1.858627,-0.202470,0.000000,0.000000,0.000000,0.000000,0.000000,0.000000
12128790.000000,-2.292500,-1.662837,1.279962,-1.462074,1.698877,1.315871,-0.584797,0.223954,-0.004604,0.713467,-0.203483,-0.138657,0.678170,-0.046294,0.550275,39.547161,-24.095352,-3.301210,0.494779,1.800033,-0.208878,0.000000,0.000000,0.000000,0.000000,0.000000,0.000000
12128791.000000,-2.292278,-1.662842,1.280662,-1.462274,1.698743,1.316542,-0.584852,0.221772,-0.004778,0.709119,-0.204188,-0.141775,0.673950,-0.045499,0.673261,39.622540,-23.972366,-3.249635,0.488370,1.844894,-0.175919,0.000000,0.000000,0.000000,0.000000,0.000000,0.000000
12128792.000000,-2.292055,-1.662842,1.281366,-1.462476,1.698603,1.317218,-0.584898,0.225118,-0.003144,0.706488,-0.199737,-0.143640,0.673226,-0.047269,0.772443,39.622540,-23.750198,-3.277406,0.482877,1.851302,-0.202470,0.000000,0.000000,0.000000,0.000000,0.000000,0.000000
12128793.000000,-2.291837,-1.662839,1.282063,-1.462674,1.698463,1.317896,-0.584950,0.223870,-0.000952,0.701993,-0.199660,-0.144978,0.662546,-0.050875,0.824018,39.574932,-23.678787,-3.301210,0.488370,1.800033,-0.169511,0.000000,0.000000,0.000000,0.000000,0.000000,0.000000
12128794.000000,-2.291615,-1.662833,1.282765,-1.462864,1.698325,1.318593,-0.584998,0.225985,0.001152,0.697365,-0.194670,-0.141578,0.672125,-0.047698,0.871625,39.499554,-23.480423,-3.400392,0.482877,1.689254,-0.169511,0.000000,0.000000,0.000000,0.000000,0.000000,0.000000
12128795.000000,-2.291395,-1.662830,1.283461,-1.463052,1.698185,1.319284,-0.585045,0.224916,0.001899,0.698172,-0.194278,-0.145144,0.668643,-0.048103,0.871625,39.451946,-23.381241,-3.475771,0.518583,1.662704,-0.208878,0.000000,0.000000,0.000000,0.000000,0.000000,0.000000
12128796.000000,-2.291172,-1.662826,1.284160,-1.463246,1.698050,1.319959,-0.585103,0.228466,0.002485,0.698057,-0.198300,-0.141572,0.677367,-0.047617,0.824018,39.400372,-23.258255,-3.475771,0.518583,1.682845,-0.155778,0.000000,0.000000,0.000000,0.000000,0.000000,0.000000
12128797.000000,-2.290955,-1.662818,1.284866,-1.463448,1.697917,1.320641,-0.585146,0.226173,0.004451,0.700242,-0.197894,-0.138548,0.674683,-0.047530,0.847822,39.281353,-23.258255,-3.400392,0.506681,1.741439,-0.215287,0.000000,0.000000,0.000000,0.000000,0.000000,0.000000
12128798.000000,-2.290733,-1.662814,1.285552,-1.463642,1.697781,1.321324,-0.585198,0.225025,0.010499,0.694396,-0.195613,-0.137359,0.677783,-0.045903,0.847822,39.229778,-23.210648,-3.400392,0.518583,1.695663,-0.208878,0.000000,0.000000,0.000000,0.000000,0.000000,0.000000
12128799.000000,-2.290503,-1.662807,1.286256,-1.463831,1.697656,1.322010,-0.585254,0.226452,0.009852,0.695591,-0.195224,-0.133964,0.672146,-0.046029,0.772443,39.130596,-23.163040,-3.348818,0.464567,1.662704,-0.149369,0.000000,0.000000,0.000000,0.000000,0.000000,0.000000
12128800.000000,-2.290279,-1.662795,1.286956,-1.464023,1.697523,1.322695,-0.585294,0.231363,0.010400,0.698276,-0.193986,-0.132336,0.674650,-0.046044,0.724836,38.983807,-23.286026,-3.325014,0.434354,1.741439,-0.221696,0.000000,0.000000,0.000000,0.000000,0.000000,0.000000
12128801.000000,-2.290054,-1.662786,1.287661,-1.464212,1.697392,1.323379,-0.585350,0.231432,0.010017,0.701268,-0.192151,-0.131218,0.681684,-0.051227,0.649457,38.864788,-23.333633,-3.348818,0.398649,1.754256,-0.155778,0.000000,0.000000,0.000000,0.000000,0.000000,0.000000
12128802.000000,-2.289826,-1.662773,1.288371,-1.464402,1.697252,1.324079,-0.585394,0.229487,0.010986,0.700165,-0.187570,-0.138282,0.683988,-0.047832,0.601850,38.690228,-23.409012,-3.376589,0.452665,1.708480,-0.155778,0.000000,0.000000,0.000000,0.000000,0.000000,0.000000
12128803.000000,-2.289606,-1.662766,1.289070,-1.464583,1.697108,1.324760,-0.585441,0.223953,0.009163,0.702797,-0.181575,-0.138724,0.680682,-0.049684,0.574079,38.618816,-23.504227,-3.499574,0.506681,1.754256,-0.163102,0.000000,0.000000,0.000000,0.000000,0.000000,0.000000
12128804.000000,-2.289380,-1.662758,1.289782,-1.464760,1.696980,1.325425,-0.585484,0.226805,0.007998,0.701604,-0.184478,-0.135484,0.679253,-0.050090,0.451093,38.543438,-23.651016,-3.598757,0.470060,1.844894,-0.202470,0.000000,0.000000,0.000000,0.000000,0.000000,0.000000
12128805.000000,-2.289162,-1.662750,1.290485,-1.464946,1.696847,1.326105,-0.585531,0.229736,0.007097,0.714741,-0.184632,-0.134262,0.678346,-0.046880,0.474897,38.472027,-23.825577,-3.646364,0.464567,1.838485,-0.208878,0.000000,0.000000,0.000000,0.000000,0.000000,0.000000
12128806.000000,-2.288942,-1.662747,1.291190,-1.465127,1.696720,1.326773,-0.585582,0.224684,0.004802,0.708806,-0.178389,-0.133812,0.673754,-0.046868,0.502668,38.472027,-23.825577,-3.697939,0.464567,1.773483,-0.155778,0.000000,0.000000,0.000000,0.000000,0.000000,0.000000
