chaoyuefei/paper-gmrm-data/robot_logs/s2_dq_mrm_min_0.50_log_20260314_174122.csv
# time_ms,q_0,q_1,q_2,q_3,q_4,q_5,q_6,dq_0,dq_1,dq_2,dq_3,dq_4,dq_5,dq_6,tau_J_0,tau_J_1,tau_J_2,tau_J_3,tau_J_4,tau_J_5,tau_J_6,O_dP_EE_c_0,O_dP_EE_c_1,O_dP_EE_c_2,O_dP_EE_c_3,O_dP_EE_c_4,O_dP_EE_c_5
12744876.000000,-2.417847,-1.662618,1.040148,-1.352871,1.798083,1.079526,-0.546488,-0.000331,0.000115,-0.001100,-0.000041,0.000887,0.000255,0.001358,0.030561,41.629986,-20.953262,-5.749025,0.828947,1.292831,-0.017533,0.000000,0.000000,0.000000,0.000000,0.000000,0.000000
12744877.000000,-2.417845,-1.662615,1.040151,-1.352871,1.798083,1.079528,-0.546499,0.000336,0.001283,0.000380,-0.000027,0.000354,0.000170,-0.002519,0.006757,41.578411,-21.000870,-5.749025,0.835355,1.292831,0.074935,0.000000,0.000000,0.000000,0.000000,0.000000,0.000000
12744878.000000,-2.417845,-1.662618,1.040150,-1.352873,1.798083,1.079527,-0.546492,0.000224,-0.000351,-0.000303,-0.000668,0.000473,0.000622,0.000525,0.006757,41.629986,-20.977066,-5.721254,0.828947,1.279098,0.015426,0.000000,0.000000,0.000000,0.000000,0.000000,0.000000
12744879.000000,-2.417847,-1.662618,1.040150,-1.352870,1.798081,1.079526,-0.546492,-0.000407,-0.000234,-0.000202,0.000761,-0.000363,0.000177,0.000350,0.030561,41.629986,-20.977066,-5.772829,0.847257,1.285506,0.015426,0.000000,0.000000,0.000000,0.000000,0.000000,0.000000
12744880.000000,-2.417839,-1.662620,1.040152,-1.352872,1.798081,1.079525,-0.546495,0.006867,-0.001573,0.006101,0.001346,0.000877,0.008420,-0.003427,0.252729,41.554607,-20.977066,-5.673646,0.817045,1.318465,-0.011124,0.000000,0.000000,0.000000,0.000000,0.000000,0.000000
12744881.000000,-2.417837,-1.662623,1.040155,-1.352868,1.798080,1.079518,-0.546508,0.011346,-0.003120,0.007095,0.003916,0.003670,0.004115,-0.006685,1.367536,41.360210,-20.953262,-5.526857,0.733732,1.507064,-0.031266,0.000000,0.000000,0.000000,0.000000,0.000000,0.000000
12744882.000000,-2.417805,-1.662626,1.040162,-1.352864,1.798076,1.079514,-0.546536,0.022116,-0.003604,0.007306,0.003910,0.001975,0.003746,-0.018454,2.902875,40.991253,-20.905655,-5.276918,0.620206,1.760665,-0.050492,0.000000,0.000000,0.000000,0.000000,0.000000,0.000000
12744883.000000,-2.417756,-1.662622,1.040184,-1.352872,1.798060,1.079533,-0.546576,0.026568,0.000039,0.012501,0.000946,-0.008487,0.008848,-0.027298,4.783369,40.427898,-20.929459,-4.884157,0.601896,1.884261,-0.070634,0.000000,0.000000,0.000000,0.000000,0.000000,0.000000
12744884.000000,-2.417690,-1.662627,1.040201,-1.352883,1.798034,1.079583,-0.546635,0.034090,-0.000323,0.012725,-0.003728,-0.011720,0.019433,-0.035716,6.616254,39.963726,-20.806473,-4.511232,0.608304,1.825668,-0.044083,0.000000,0.000000,0.000000,0.000000,0.000000,0.000000
12744885.000000,-2.417600,-1.662621,1.040230,-1.352907,1.797994,1.079665,-0.546700,0.045792,0.004602,0.017569,-0.010415,-0.025101,0.042840,-0.043867,8.223004,39.400372,-20.731094,-4.118471,0.661405,1.591293,-0.089860,0.000000,0.000000,0.000000,0.000000,0.000000,0.000000
12744886.000000,-2.417500,-1.662623,1.040267,-1.352946,1.797940,1.079764,-0.546794,0.058539,0.001743,0.024376,-0.020483,-0.034757,0.067618,-0.062759,9.710736,38.960003,-20.659683,-3.769350,0.703519,1.389877,-0.050492,0.000000,0.000000,0.000000,0.000000,0.000000,0.000000
12744887.000000,-2.417384,-1.662625,1.040315,-1.353000,1.797875,1.079877,-0.546903,0.076645,0.001014,0.033605,-0.031462,-0.044970,0.085549,-0.078315,10.972333,38.595013,-20.631912,-3.400392,0.709928,1.318465,-0.089860,0.000000,0.000000,0.000000,0.000000,0.000000,0.000000
12744888.000000,-2.417254,-1.662618,1.040368,-1.353061,1.797792,1.080003,-0.547042,0.093249,0.002026,0.038452,-0.041690,-0.056471,0.100694,-0.099034,12.063336,38.178448,-20.512894,-3.079042,0.691617,1.331283,-0.103593,0.000000,0.000000,0.000000,0.000000,0.000000,0.000000
12744889.000000,-2.417111,-1.662607,1.040437,-1.353127,1.797701,1.080152,-0.547212,0.107874,0.003182,0.047566,-0.048944,-0.066139,0.117942,-0.123454,13.074994,37.738079,-20.485123,-2.904482,0.554288,1.442062,-0.050492,0.000000,0.000000,0.000000,0.000000,0.000000,0.000000
12744890.000000,-2.416961,-1.662600,1.040523,-1.353214,1.797588,1.080318,-0.547403,0.124855,0.004183,0.058686,-0.065326,-0.080477,0.138869,-0.142554,13.916059,37.420696,-20.512894,-2.658510,0.482877,1.578475,-0.097184,0.000000,0.000000,0.000000,0.000000,0.000000,0.000000
12744891.000000,-2.416794,-1.662582,1.040619,-1.353306,1.797461,1.080518,-0.547626,0.138861,0.007448,0.068497,-0.074364,-0.099446,0.158919,-0.167689,14.685712,37.004131,-20.608109,-2.583132,0.374845,1.643478,-0.110001,0.000000,0.000000,0.000000,0.000000,0.000000,0.000000
12744892.000000,-2.416609,-1.662563,1.040739,-1.353424,1.797305,1.080763,-0.547883,0.153568,0.009423,0.085111,-0.086146,-0.115458,0.186301,-0.191912,15.229230,36.611370,-20.854080,-2.436342,0.320829,1.617843,-0.056901,0.000000,0.000000,0.000000,0.000000,0.000000,0.000000
12744893.000000,-2.416404,-1.662539,1.040864,-1.353557,1.797123,1.081032,-0.548143,0.166942,0.011890,0.094645,-0.102074,-0.142248,0.214396,-0.216294,15.649762,36.171001,-20.977066,-2.261781,0.356534,1.526290,-0.103593,0.000000,0.000000,0.000000,0.000000,0.000000,0.000000
12744894.000000,-2.416181,-1.662523,1.041009,-1.353711,1.796918,1.081330,-0.548438,0.190097,0.010779,0.109673,-0.118883,-0.166250,0.239482,-0.238880,15.947309,35.853619,-21.175430,-2.138796,0.428861,1.435653,-0.089860,0.000000,0.000000,0.000000,0.000000,0.000000,0.000000
12744895.000000,-2.415946,-1.662501,1.041163,-1.353879,1.796682,1.081641,-0.548742,0.205157,0.014496,0.121922,-0.133805,-0.193527,0.256068,-0.259334,16.244856,35.484661,-21.294449,-2.063417,0.518583,1.402694,-0.077042,0.000000,0.000000,0.000000,0.000000,0.000000,0.000000
12744896.000000,-2.415692,-1.662480,1.041330,-1.354057,1.796435,1.081964,-0.549042,0.219870,0.015541,0.137147,-0.149557,-0.211921,0.279349,-0.262393,16.490828,35.191082,-21.393631,-2.063417,0.542386,1.454879,-0.122819,0.000000,0.000000,0.000000,0.000000,0.000000,0.000000
12744897.000000,-2.415427,-1.662471,1.041505,-1.354253,1.796170,1.082316,-0.549353,0.235624,0.018267,0.147650,-0.161281,-0.225131,0.296929,-0.273579,16.665388,35.091900,-21.469009,-2.063417,0.530485,1.494247,-0.083451,0.000000,0.000000,0.000000,0.000000,0.000000,0.000000
12744898.000000,-2.415141,-1.662459,1.041686,-1.354459,1.795893,1.082684,-0.549666,0.248171,0.017547,0.162081,-0.176503,-0.233545,0.315555,-0.279692,16.764570,34.996685,-21.445206,-2.091188,0.494779,1.546432,-0.110001,0.000000,0.000000,0.000000,0.000000,0.000000,0.000000
12744899.000000,-2.414843,-1.662452,1.041877,-1.354694,1.795605,1.083075,-0.549986,0.260090,0.013147,0.173603,-0.193058,-0.253153,0.338164,-0.292223,16.887556,34.945110,-21.393631,-2.039613,0.398649,1.624252,-0.050492,0.000000,0.000000,0.000000,0.000000,0.000000,0.000000
12744900.000000,-2.414530,-1.662444,1.042086,-1.354950,1.795290,1.083495,-0.550293,0.278091,0.009503,0.188717,-0.213083,-0.266945,0.358857,-0.291294,16.939131,34.921307,-21.346024,-1.916628,0.327238,1.721298,-0.089860,0.000000,0.000000,0.000000,0.000000,0.000000,0.000000
12744901.000000,-2.414188,-1.662444,1.042300,-1.355223,1.794963,1.083928,-0.550591,0.294542,0.005265,0.197114,-0.233877,-0.280542,0.377764,-0.292683,16.863752,34.972881,-21.294449,-1.694460,0.320829,1.735030,-0.130143,0.000000,0.000000,0.000000,0.000000,0.000000,0.000000
12744902.000000,-2.413845,-1.662444,1.042518,-1.355517,1.794619,1.084406,-0.550898,0.311408,0.002499,0.200395,-0.250373,-0.300671,0.409872,-0.293283,16.911360,35.020489,-21.123856,-1.519899,0.327238,1.605026,-0.056901,0.000000,0.000000,0.000000,0.000000,0.000000,0.000000
12744903.000000,-2.413483,-1.662445,1.042755,-1.355813,1.794247,1.084896,-0.551189,0.327528,0.001185,0.213227,-0.263392,-0.320547,0.437918,-0.288349,16.939131,35.044292,-21.100052,-1.396913,0.344633,1.526290,-0.116410,0.000000,0.000000,0.000000,0.000000,0.000000,0.000000
12744904.000000,-2.413107,-1.662447,1.042998,-1.356123,1.793860,1.085404,-0.551473,0.342935,0.002902,0.222208,-0.280250,-0.341460,0.461790,-0.286815,16.986738,35.091900,-21.052444,-1.321535,0.393156,1.500655,-0.122819,0.000000,0.000000,0.000000,0.000000,0.000000,0.000000
12744905.000000,-2.412732,-1.662447,1.043251,-1.356447,1.793452,1.085947,-0.551758,0.353379,0.002242,0.231693,-0.290154,-0.363011,0.484453,-0.282271,17.208906,35.091900,-21.000870,-1.349306,0.470060,1.467696,-0.077042,0.000000,0.000000,0.000000,0.000000,0.000000,0.000000
12744906.000000,-2.412334,-1.662451,1.043503,-1.356778,1.793032,1.086491,-0.552030,0.367692,0.000518,0.236917,-0.299349,-0.381914,0.498057,-0.281930,17.383467,35.143475,-20.854080,-1.321535,0.494779,1.526290,-0.116410,0.000000,0.000000,0.000000,0.000000,0.000000,0.000000
12744907.000000,-2.411931,-1.662449,1.043775,-1.357127,1.792599,1.087067,-0.552313,0.385766,0.001075,0.248277,-0.310807,-0.400257,0.516283,-0.279580,17.558027,35.119671,-20.754898,-1.349306,0.470060,1.591293,-0.064225,0.000000,0.000000,0.000000,0.000000,0.000000,0.000000
12744908.000000,-2.411518,-1.662447,1.044063,-1.357485,1.792147,1.087659,-0.552583,0.394890,0.001496,0.261760,-0.331871,-0.418684,0.538672,-0.272767,17.827803,35.091900,-20.731094,-1.321535,0.494779,1.605026,-0.103593,0.000000,0.000000,0.000000,0.000000,0.000000,0.000000
12744909.000000,-2.411084,-1.662447,1.044355,-1.357865,1.791683,1.088292,-0.552843,0.402586,0.001094,0.275078,-0.348937,-0.429960,0.567105,-0.263027,18.053938,35.091900,-20.707291,-1.198549,0.446256,1.546432,-0.136552,0.000000,0.000000,0.000000,0.000000,0.000000,0.000000
12744910.000000,-2.410635,-1.662449,1.044659,-1.358263,1.791206,1.088940,-0.553108,0.415205,0.000153,0.284058,-0.365311,-0.439519,0.585281,-0.259424,18.149153,35.119671,-20.683487,-1.027956,0.428861,1.416427,-0.103593,0.000000,0.000000,0.000000,0.000000,0.000000,0.000000
12744911.000000,-2.410177,-1.662442,1.044967,-1.358671,1.790710,1.089600,-0.553366,0.423303,0.002477,0.287503,-0.380542,-0.468692,0.607618,-0.260687,18.347517,35.020489,-20.631912,-0.877199,0.464567,1.318465,-0.110001,0.000000,0.000000,0.000000,0.000000,0.000000,0.000000
12744912.000000,-2.409702,-1.662433,1.045292,-1.359100,1.790200,1.090277,-0.553621,0.449883,0.004012,0.299341,-0.393564,-0.479059,0.626284,-0.257539,18.399092,34.921307,-20.560501,-0.631227,0.470060,1.279098,-0.089860,0.000000,0.000000,0.000000,0.000000,0.000000,0.000000
12744913.000000,-2.409213,-1.662426,1.045629,-1.359536,1.789671,1.090974,-0.553873,0.460837,0.004933,0.310935,-0.406681,-0.492983,0.642974,-0.254690,18.597456,34.826092,-20.485123,-0.532045,0.512174,1.312057,-0.110001,0.000000,0.000000,0.000000,0.000000,0.000000,0.000000
12744914.000000,-2.408713,-1.662422,1.045965,-1.359978,1.789137,1.091675,-0.554117,0.469040,0.004518,0.318960,-0.419011,-0.505888,0.666634,-0.247767,18.867231,34.774517,-20.362137,-0.456667,0.488370,1.305648,-0.110001,0.000000,0.000000,0.000000,0.000000,0.000000,0.000000
12744915.000000,-2.408211,-1.662411,1.046323,-1.360448,1.788590,1.092404,-0.554357,0.477264,0.005906,0.326908,-0.431797,-0.518290,0.683020,-0.245508,19.192549,34.651531,-20.362137,-0.333681,0.494779,1.305648,-0.149369,0.000000,0.000000,0.000000,0.000000,0.000000,0.000000
12744916.000000,-2.407690,-1.662400,1.046679,-1.360912,1.788017,1.093143,-0.554608,0.489552,0.006734,0.343228,-0.440474,-0.535772,0.704685,-0.240474,19.537703,34.532513,-20.314529,-0.286073,0.506681,1.357833,-0.142960,0.000000,0.000000,0.000000,0.000000,0.000000,0.000000
12744917.000000,-2.407146,-1.662388,1.047061,-1.361404,1.787448,1.093903,-0.554861,0.504422,0.007376,0.352922,-0.454614,-0.543727,0.719649,-0.243828,19.811445,34.409527,-20.338333,-0.163088,0.494779,1.435653,-0.089860,0.000000,0.000000,0.000000,0.000000,0.000000,0.000000
12744918.000000,-2.406593,-1.662381,1.047453,-1.361918,1.786851,1.094700,-0.555103,0.517484,0.005482,0.363290,-0.476496,-0.558083,0.739970,-0.241542,19.982038,34.385723,-20.389908,0.011473,0.494779,1.409103,-0.142960,0.000000,0.000000,0.000000,0.000000,0.000000,0.000000
12744919.000000,-2.406029,-1.662369,1.047850,-1.362433,1.786252,1.095514,-0.555345,0.527530,0.009713,0.371722,-0.487993,-0.571149,0.767403,-0.237484,20.279585,34.262737,-20.461319,0.134459,0.535978,1.292831,-0.149369,0.000000,0.000000,0.000000,0.000000,0.000000,0.000000
12744920.000000,-2.405460,-1.662354,1.048274,-1.362968,1.785630,1.096349,-0.555594,0.546508,0.012230,0.385642,-0.502151,-0.582461,0.785431,-0.241026,20.529524,34.163555,-20.754898,0.257445,0.494779,1.188461,-0.110001,0.000000,0.000000,0.000000,0.000000,0.000000,0.000000
12744921.000000,-2.404861,-1.662339,1.048708,-1.363506,1.785003,1.097189,-0.555836,0.564784,0.011496,0.399574,-0.521030,-0.592590,0.806023,-0.236918,20.700117,34.040569,-20.929459,0.285216,0.458158,1.188461,-0.122819,0.000000,0.000000,0.000000,0.000000,0.000000,0.000000
12744922.000000,-2.404247,-1.662323,1.049146,-1.364069,1.784358,1.098064,-0.556078,0.574628,0.013386,0.412433,-0.529972,-0.609941,0.826784,-0.235618,20.922285,33.941387,-21.076248,0.356627,0.458158,1.182052,-0.089860,0.000000,0.000000,0.000000,0.000000,0.000000,0.000000
12744923.000000,-2.403630,-1.662309,1.049597,-1.364643,1.783699,1.098949,-0.556311,0.591042,0.014253,0.423397,-0.540468,-0.620951,0.839047,-0.235182,21.144453,33.869976,-21.175430,0.332823,0.458158,1.247054,-0.149369,0.000000,0.000000,0.000000,0.000000,0.000000,0.000000
12744924.000000,-2.402993,-1.662296,1.050048,-1.365225,1.783026,1.099831,-0.556546,0.599413,0.014243,0.437727,-0.555715,-0.635910,0.849647,-0.234758,21.342817,33.822369,-21.223038,0.332823,0.428861,1.422836,-0.155778,0.000000,0.000000,0.000000,0.000000,0.000000,0.000000
12744925.000000,-2.402346,-1.662274,1.050531,-1.365820,1.782331,1.100756,-0.556780,0.613254,0.017367,0.454579,-0.563819,-0.654316,0.869152,-0.234740,21.541182,33.647808,-21.393631,0.380431,0.476469,1.494247,-0.110001,0.000000,0.000000,0.000000,0.000000,0.000000,0.000000
12744926.000000,-2.401668,-1.662259,1.051024,-1.366443,1.781621,1.101721,-0.557013,0.634641,0.017218,0.462975,-0.592690,-0.666416,0.894003,-0.236166,21.691938,33.576397,-21.540421,0.554991,0.518583,1.357833,-0.136552,0.000000,0.000000,0.000000,0.000000,0.000000,0.000000
12744927.000000,-2.400969,-1.662243,1.051513,-1.367067,1.780921,1.102701,-0.557246,0.651264,0.017840,0.469815,-0.603159,-0.681438,0.927755,-0.234250,21.862532,33.477215,-21.687210,0.777159,0.584501,1.175643,-0.130143,0.000000,0.000000,0.000000,0.000000,0.000000,0.000000
12744928.000000,-2.400263,-1.662229,1.052022,-1.367702,1.780203,1.103686,-0.557485,0.669318,0.016405,0.476766,-0.614710,-0.685462,0.940694,-0.230783,21.989485,33.453411,-21.837967,0.951720,0.745634,1.136276,-0.116410,0.000000,0.000000,0.000000,0.000000,0.000000,0.000000
12744929.000000,-2.399540,-1.662219,1.052537,-1.368338,1.779487,1.104679,-0.557711,0.684334,0.014372,0.490009,-0.619605,-0.691977,0.958767,-0.227588,22.235456,33.477215,-22.008560,1.074705,0.859159,1.182052,-0.175919,0.000000,0.000000,0.000000,0.000000,0.000000,0.000000
12744930.000000,-2.398818,-1.662211,1.053060,-1.368994,1.778793,1.105705,-0.557943,0.704907,0.012064,0.499976,-0.630458,-0.692225,0.973669,-0.229634,22.112471,33.552593,-22.032364,0.999327,0.966276,1.299239,-0.110001,0.000000,0.000000,0.000000,0.000000,0.000000,0.000000
12744931.000000,-2.398078,-1.662203,1.053597,-1.369666,1.778086,1.106753,-0.558169,0.703544,0.009312,0.510715,-0.647636,-0.696234,0.999289,-0.226543,20.973860,33.675579,-21.810196,0.554991,0.918668,1.461288,-0.155778,0.000000,0.000000,0.000000,0.000000,0.000000,0.000000
12744932.000000,-2.397350,-1.662193,1.054156,-1.370356,1.777391,1.107819,-0.558390,0.703236,0.009838,0.531502,-0.659861,-0.694395,1.015286,-0.225633,19.140974,33.699383,-21.568192,-0.063905,0.864652,1.565658,-0.182328,0.000000,0.000000,0.000000,0.000000,0.000000,0.000000
12744933.000000,-2.396625,-1.662188,1.054738,-1.371048,1.776683,1.108916,-0.558620,0.715440,0.009343,0.548611,-0.663744,-0.698757,1.037290,-0.227421,16.566206,33.624004,-21.024673,-1.027956,0.817045,1.597701,-0.136552,0.000000,0.000000,0.000000,0.000000,0.000000,0.000000
12744934.000000,-2.395901,-1.662181,1.055341,-1.371761,1.775986,1.110016,-0.558843,0.717984,0.009589,0.581153,-0.674493,-0.696345,1.059881,-0.226457,13.820844,33.382000,-20.314529,-1.769838,0.637601,1.643478,-0.155778,0.000000,0.000000,0.000000,0.000000,0.000000,0.000000
12744935.000000,-2.395177,-1.662177,1.055968,-1.372482,1.775307,1.111129,-0.559056,0.723810,0.007328,0.595260,-0.681815,-0.687895,1.078445,-0.225689,11.246076,33.088421,-19.481400,-2.436342,0.482877,1.779891,-0.182328,0.000000,0.000000,0.000000,0.000000,0.000000,0.000000
12744936.000000,-2.394455,-1.662187,1.056618,-1.373194,1.774625,1.112284,-0.559281,0.731383,0.001201,0.605057,-0.685513,-0.681347,1.102716,-0.226453,8.695111,32.965435,-18.644302,-3.178224,0.356534,1.767074,-0.122819,0.000000,0.000000,0.000000,0.000000,0.000000,0.000000
12744937.000000,-2.393733,-1.662200,1.057271,-1.373890,1.773978,1.113438,-0.559495,0.727014,-0.004956,0.619928,-0.686430,-0.669844,1.124708,-0.225135,6.493268,32.913860,-17.910355,-3.745546,0.159696,1.656295,-0.155778,0.000000,0.000000,0.000000,0.000000,0.000000,0.000000
12744938.000000,-2.392998,-1.662219,1.057925,-1.374586,1.773316,1.114631,-0.559725,0.738595,-0.009189,0.630467,-0.683818,-0.664834,1.141412,-0.229238,4.410444,32.989239,-17.049454,-4.241457,0.046171,1.559249,-0.056901,0.000000,0.000000,0.000000,0.000000,0.000000,0.000000
12744939.000000,-2.392283,-1.662243,1.058589,-1.375263,1.772670,1.115814,-0.559943,0.730302,-0.016391,0.638547,-0.675168,-0.652238,1.174204,-0.221750,2.728315,33.112225,-16.263931,-4.562807,-0.037142,1.565658,-0.103593,0.000000,0.000000,0.000000,0.000000,0.000000,0.000000
12744940.000000,-2.391554,-1.662276,1.059247,-1.375944,1.772018,1.117054,-0.560151,0.732252,-0.023692,0.641026,-0.668074,-0.649942,1.193699,-0.210859,1.216779,33.330425,-15.601395,-4.733400,0.064481,1.409103,-0.169511,0.000000,0.000000,0.000000,0.000000,0.000000,0.000000
12744941.000000,-2.390842,-1.662307,1.059916,-1.376630,1.771372,1.118298,-0.560374,0.721258,-0.025247,0.646192,-0.667734,-0.646188,1.199442,-0.218060,-0.017047,33.405804,-14.867447,-4.784975,0.183500,1.331283,-0.070634,0.000000,0.000000,0.000000,0.000000,0.000000,0.000000
12744942.000000,-2.390114,-1.662331,1.060581,-1.377310,1.770734,1.119549,-0.560570,0.720205,-0.026034,0.651246,-0.670911,-0.654727,1.213711,-0.214974,-1.131854,33.330425,-14.276321,-4.562807,0.291532,1.136276,-0.175919,0.000000,0.000000,0.000000,0.000000,0.000000,0.000000
12744943.000000,-2.389397,-1.662360,1.061256,-1.378001,1.770106,1.120808,-0.560785,0.731276,-0.023361,0.657041,-0.676913,-0.646918,1.216199,-0.214808,-2.048296,33.235210,-13.637589,-4.213686,0.386747,0.974227,-0.136552,0.000000,0.000000,0.000000,0.000000,0.000000,0.000000
12744944.000000,-2.388682,-1.662392,1.061944,-1.378696,1.769469,1.122071,-0.560998,0.723462,-0.027682,0.658702,-0.694352,-0.640597,1.223479,-0.213235,-2.690997,33.136028,-13.173416,-3.697939,0.530485,0.836898,-0.116410,0.000000,0.000000,0.000000,0.000000,0.000000,0.000000
12744945.000000,-2.387957,-1.662426,1.062629,-1.379382,1.768863,1.123294,-0.561195,0.719722,-0.028781,0.670742,-0.692373,-0.623739,1.217778,-0.209308,-3.286089,33.060650,-12.756851,-3.154421,0.518583,0.850631,-0.182328,0.000000,0.000000,0.000000,0.000000,0.000000,0.000000
12744946.000000,-2.387251,-1.662448,1.063321,-1.380061,1.768253,1.124521,-0.561407,0.714140,-0.024952,0.673835,-0.682670,-0.612828,1.212537,-0.210865,-3.758196,32.790874,-12.288712,-2.880678,0.393156,0.987045,-0.122819,0.000000,0.000000,0.000000,0.000000,0.000000,0.000000
12744949.000000,-2.385145,-1.662481,1.065444,-1.382054,1.766462,1.128165,-0.562019,0.703353,-0.013749,0.689560,-0.663637,-0.595798,1.197412,-0.209687,-4.500079,31.640362,-11.796768,-2.559328,0.201810,1.299239,-0.122819,0.000000,0.000000,0.000000,0.000000,0.000000,0.000000
12744950.000000,-2.384445,-1.662482,1.066163,-1.382693,1.765864,1.129360,-0.562215,0.701018,-0.007544,0.702354,-0.654776,-0.590660,1.192061,-0.207268,-4.646868,31.176189,-11.701553,-2.658510,0.261320,1.422836,-0.188737,0.000000,0.000000,0.000000,0.000000,0.000000,0.000000
12744951.000000,-2.383754,-1.662472,1.066895,-1.383347,1.765276,1.130573,-0.562429,0.701849,0.001679,0.712217,-0.648186,-0.581583,1.186795,-0.204532,-4.845232,30.640606,-11.649979,-2.706117,0.303434,1.377059,-0.142960,0.000000,0.000000,0.000000,0.000000,0.000000,0.000000
12744952.000000,-2.383055,-1.662462,1.067626,-1.383982,1.764678,1.131792,-0.562633,0.697760,0.003955,0.721795,-0.643682,-0.585563,1.191411,-0.204972,-4.995989,30.148663,-11.550797,-2.781496,0.393156,1.162826,-0.136552,0.000000,0.000000,0.000000,0.000000,0.000000,0.000000
12744953.000000,-2.382358,-1.662443,1.068369,-1.384614,1.764116,1.133016,-0.562832,0.693563,0.009808,0.727018,-0.638689,-0.578067,1.188303,-0.205614,-5.043597,29.609112,-11.503189,-2.956056,0.327238,0.980636,-0.136552,0.000000,0.000000,0.000000,0.000000,0.000000,0.000000
12744954.000000,-2.381668,-1.662425,1.069125,-1.385234,1.763537,1.134240,-0.563034,0.692034,0.011731,0.733936,-0.628625,-0.576715,1.185595,-0.204955,-5.019793,29.168743,-11.503189,-3.154421,0.261320,0.908309,-0.155778,0.000000,0.000000,0.000000,0.000000,0.000000,0.000000
12744955.000000,-2.380972,-1.662409,1.069860,-1.385850,1.762975,1.135437,-0.563236,0.686443,0.014061,0.737889,-0.620587,-0.573024,1.181993,-0.205692,-4.944415,28.827557,-11.281021,-3.249635,0.225614,0.889083,-0.155778,0.000000,0.000000,0.000000,0.000000,0.000000,0.000000
12744956.000000,-2.380290,-1.662385,1.070609,-1.386476,1.762410,1.136630,-0.563440,0.697076,0.015199,0.744890,-0.615285,-0.572552,1.170688,-0.206841,-4.896807,28.387188,-10.987442,-3.277406,0.123990,1.045638,-0.136552,0.000000,0.000000,0.000000,0.000000,0.000000,0.000000
12744957.000000,-2.379592,-1.662362,1.071369,-1.387086,1.761844,1.137814,-0.563639,0.697542,0.015026,0.749287,-0.626608,-0.568345,1.184509,-0.201579,-4.968218,27.994427,-10.594681,-3.325014,0.046171,1.123458,-0.155778,0.000000,0.000000,0.000000,0.000000,0.000000,0.000000
12744958.000000,-2.378896,-1.662338,1.072129,-1.387696,1.761284,1.139026,-0.563837,0.694754,0.018018,0.757743,-0.619387,-0.566763,1.185537,-0.203236,-5.043597,27.601665,-10.277298,-3.376589,-0.007845,1.129867,-0.155778,0.000000,0.000000,0.000000,0.000000,0.000000,0.000000
12744959.000000,-2.378204,-1.662316,1.072903,-1.388310,1.760711,1.140254,-0.564032,0.695592,0.019103,0.760599,-0.611783,-0.567775,1.186229,-0.199501,-5.241961,27.260479,-9.884537,-3.400392,0.004056,1.012679,-0.149369,0.000000,0.000000,0.000000,0.000000,0.000000,0.000000
12744960.000000,-2.377510,-1.662300,1.073678,-1.388900,1.760151,1.141484,-0.564232,0.690838,0.016615,0.770521,-0.602744,-0.579997,1.196175,-0.198894,-5.416522,27.066082,-9.614761,-3.570986,0.046171,0.752670,-0.163102,0.000000,0.000000,0.000000,0.000000,0.000000,0.000000
12744961.000000,-2.376818,-1.662292,1.074469,-1.389505,1.759587,1.142714,-0.564430,0.707974,0.011783,0.777031,-0.601761,-0.575298,1.196576,-0.196064,-5.662493,27.014507,-9.293411,-3.598757,0.088285,0.622665,-0.169511,0.000000,0.000000,0.000000,0.000000,0.000000,0.000000
12744962.000000,-2.376112,-1.662286,1.075281,-1.390111,1.759023,1.143945,-0.564632,0.704279,0.010636,0.788660,-0.607800,-0.571637,1.199248,-0.196726,-5.983843,27.014507,-9.122818,-3.622560,0.183500,0.609847,-0.130143,0.000000,0.000000,0.000000,0.000000,0.000000,0.000000
12744963.000000,-2.375403,-1.662280,1.076087,-1.390706,1.758469,1.145145,-0.564820,0.702938,0.010239,0.795384,-0.605408,-0.564817,1.188682,-0.192131,-6.380572,27.014507,-8.900650,-3.670168,0.171598,0.687667,-0.202470,0.000000,0.000000,0.000000,0.000000,0.000000,0.000000
12744964.000000,-2.374716,-1.662280,1.076916,-1.391297,1.757925,1.146379,-0.565022,0.699848,0.007914,0.809041,-0.596348,-0.554646,1.191155,-0.192935,-6.531329,27.113689,-8.829239,-3.868532,0.154203,0.687667,-0.155778,0.000000,0.000000,0.000000,0.000000,0.000000,0.000000
12744965.000000,-2.374021,-1.662279,1.077749,-1.391866,1.757373,1.147599,-0.565214,0.692066,0.004613,0.821479,-0.592949,-0.551473,1.196794,-0.192508,-6.725726,27.161297,-8.805435,-4.090700,0.088285,0.654708,-0.136552,0.000000,0.000000,0.000000,0.000000,0.000000,0.000000
12744966.000000,-2.373328,-1.662278,1.078596,-1.392434,1.756839,1.148829,-0.565401,0.691277,0.003413,0.833781,-0.579751,-0.542551,1.197704,-0.186280,-6.975665,27.161297,-8.753860,-4.364442,-0.001437,0.713302,-0.149369,0.000000,0.000000,0.000000,0.000000,0.000000,0.000000
12744967.000000,-2.372619,-1.662283,1.079460,-1.393010,1.756289,1.150044,-0.565592,0.695413,0.000766,0.842767,-0.573409,-0.543025,1.189709,-0.187678,-7.320818,27.236675,-8.753860,-4.535036,0.004056,0.908309,-0.116410,0.000000,0.000000,0.000000,0.000000,0.000000,0.000000
12744968.000000,-2.371902,-1.662283,1.080317,-1.393573,1.755758,1.151245,-0.565769,0.697351,0.000701,0.855305,-0.573178,-0.539659,1.185135,-0.185502,-7.816729,27.236675,-8.730057,-4.634218,0.004056,1.064864,-0.182328,0.000000,0.000000,0.000000,0.000000,0.000000,0.000000
12744969.000000,-2.371194,-1.662286,1.081185,-1.394152,1.755216,1.152464,-0.565955,0.702542,0.000053,0.855223,-0.572363,-0.546033,1.180008,-0.183000,-8.288836,27.260479,-8.607071,-4.562807,0.117582,1.045638,-0.149369,0.000000,0.000000,0.000000,0.000000,0.000000,0.000000
12744970.000000,-2.370470,-1.662287,1.082056,-1.394719,1.754672,1.153678,-0.566135,0.708333,-0.000415,0.863629,-0.570623,-0.543694,1.185900,-0.177870,-8.879962,27.284283,-8.507889,-4.562807,0.183500,0.966903,-0.196061,0.000000,0.000000,0.000000,0.000000,0.000000,0.000000
12744971.000000,-2.369745,-1.662278,1.082946,-1.395290,1.754155,1.154898,-0.566314,0.707459,0.002681,0.870477,-0.567714,-0.533049,1.189154,-0.181450,-9.375873,27.161297,-8.436478,-4.511232,0.141385,0.901900,-0.175919,0.000000,0.000000,0.000000,0.000000,0.000000,0.000000
12744972.000000,-2.369024,-1.662269,1.083851,-1.395862,1.753628,1.156132,-0.566497,0.712848,0.004631,0.876218,-0.568338,-0.529332,1.198809,-0.178783,-9.970965,27.042278,-8.337296,-4.463624,0.100187,0.771896,-0.130143,0.000000,0.000000,0.000000,0.000000,0.000000,0.000000
12744973.000000,-2.368309,-1.662260,1.084743,-1.396416,1.753119,1.157339,-0.566666,0.706560,0.008515,0.879931,-0.561141,-0.527531,1.198820,-0.178416,-10.367694,26.943096,-8.142899,-4.463624,0.015958,0.706893,-0.202470,0.000000,0.000000,0.000000,0.000000,0.000000,0.000000
12744974.000000,-2.367597,-1.662250,1.085664,-1.396964,1.752602,1.158542,-0.566850,0.712884,0.008286,0.889285,-0.555356,-0.522054,1.189844,-0.182174,-10.665240,26.843914,-7.992142,-4.562807,-0.031649,0.804855,-0.169511,0.000000,0.000000,0.000000,0.000000,0.000000,0.000000
12744975.000000,-2.366888,-1.662244,1.086606,-1.397492,1.752085,1.159719,-0.567029,0.708688,0.007411,0.903783,-0.560871,-0.515768,1.204170,-0.183861,-11.085773,26.772503,-7.992142,-4.808778,-0.043551,0.993453,-0.163102,0.000000,0.000000,0.000000,0.000000,0.000000,0.000000
12744976.000000,-2.366181,-1.662228,1.087533,-1.398033,1.751582,1.160919,-0.567206,0.706210,0.009744,0.916075,-0.550480,-0.513883,1.198240,-0.183673,-11.307940,26.574139,-7.896927,-4.907960,-0.067355,1.058456,-0.202470,0.000000,0.000000,0.000000,0.000000,0.000000,0.000000
12744977.000000,-2.365482,-1.662224,1.088495,-1.398569,1.751071,1.162142,-0.567392,0.700757,0.009204,0.929450,-0.543240,-0.508127,1.195045,-0.182362,-11.577716,26.597942,-7.944534,-5.106325,-0.060946,0.954086,-0.136552,0.000000,0.000000,0.000000,0.000000,0.000000,0.000000
12744978.000000,-2.364769,-1.662219,1.089460,-1.399096,1.750581,1.163343,-0.567559,0.699650,0.010109,0.936779,-0.538591,-0.499715,1.203141,-0.181405,-11.926837,26.574139,-8.091324,-5.304689,-0.055453,0.850631,-0.175919,0.000000,0.000000,0.000000,0.000000,0.000000,0.000000
12744979.000000,-2.364071,-1.662210,1.090456,-1.399618,1.750079,1.164545,-0.567730,0.712603,0.007816,0.952730,-0.527795,-0.497372,1.204951,-0.178306,-12.125201,26.550335,-8.337296,-5.526857,-0.060946,0.824081,-0.182328,0.000000,0.000000,0.000000,0.000000,0.000000,0.000000
12744980.000000,-2.363362,-1.662217,1.091454,-1.400143,1.749581,1.165751,-0.567910,0.712540,0.001611,0.967063,-0.531423,-0.495828,1.202695,-0.177991,-12.422748,26.720928,-8.384903,-5.673646,-0.043551,0.901900,-0.149369,0.000000,0.000000,0.000000,0.000000,0.000000,0.000000
12744981.000000,-2.362648,-1.662218,1.092449,-1.400657,1.749095,1.166926,-0.568079,0.706247,-0.000954,0.975644,-0.526774,-0.490564,1.194781,-0.174639,-12.716327,26.820110,-8.484085,-5.721254,-0.067355,1.045638,-0.182328,0.000000,0.000000,0.000000,0.000000,0.000000,0.000000
12744982.000000,-2.361953,-1.662220,1.093450,-1.401174,1.748606,1.168118,-0.568256,0.703533,-0.000125,0.980356,-0.520796,-0.483700,1.186649,-0.175610,-12.942462,26.943096,-8.337296,-5.848207,-0.121371,1.162826,-0.122819,0.000000,0.000000,0.000000,0.000000,0.000000,0.000000
12744983.000000,-2.361255,-1.662225,1.094441,-1.401681,1.748127,1.169296,-0.568419,0.699159,0.000527,1.002496,-0.518366,-0.481577,1.182686,-0.171320,-13.113055,27.066082,-8.190506,-5.919618,-0.138766,1.194869,-0.196061,0.000000,0.000000,0.000000,0.000000,0.000000,0.000000
12744984.000000,-2.360564,-1.662223,1.095465,-1.402180,1.747654,1.170497,-0.568587,0.696167,0.000371,1.005794,-0.507410,-0.480810,1.189574,-0.170591,-13.362994,27.089886,-8.115128,-6.094179,-0.234896,1.096908,-0.208878,0.000000,0.000000,0.000000,0.000000,0.000000,0.000000
12744985.000000,-2.359865,-1.662229,1.096490,-1.402687,1.747172,1.171700,-0.568763,0.696177,-0.001640,1.011818,-0.503535,-0.478447,1.185175,-0.172806,-13.585162,27.189068,-7.821548,-6.217165,-0.222994,0.974227,-0.136552,0.000000,0.000000,0.000000,0.000000,0.000000,0.000000
12744986.000000,-2.359168,-1.662236,1.097510,-1.403186,1.746698,1.172877,-0.568919,0.691591,-0.002440,1.014461,-0.502401,-0.481193,1.183440,-0.165403,-13.783526,27.260479,-7.527969,-6.268739,-0.126864,0.934859,-0.188737,0.000000,0.000000,0.000000,0.000000,0.000000,0.000000
12744987.000000,-2.358489,-1.662245,1.098546,-1.403696,1.746217,1.174073,-0.569087,0.686238,-0.003703,1.015123,-0.501906,-0.480892,1.179627,-0.162554,-13.981891,27.359661,-7.111404,-6.268739,-0.097567,0.876266,-0.169511,0.000000,0.000000,0.000000,0.000000,0.000000,0.000000
12744988.000000,-2.357812,-1.662253,1.099613,-1.404187,1.745736,1.175249,-0.569261,0.683488,-0.003957,1.058734,-0.498144,-0.476688,1.183048,-0.164728,-13.981891,27.431072,-6.988419,-6.439332,-0.019747,0.850631,-0.136552,0.000000,0.000000,0.000000,0.000000,0.000000,0.000000
12744989.000000,-2.357145,-1.662258,1.100668,-1.404677,1.745282,1.176455,-0.569421,0.673384,-0.003058,1.056763,-0.492111,-0.478090,1.184874,-0.164230,-13.882709,27.454876,-6.865433,-6.613893,-0.079257,0.713302,-0.182328,0.000000,0.000000,0.000000,0.000000,0.000000,0.000000
12744990.000000,-2.356489,-1.662261,1.101746,-1.405162,1.744826,1.177665,-0.569592,0.666366,-0.002586,1.059959,-0.485665,-0.465898,1.196130,-0.166603,-13.783526,27.482647,-6.742447,-6.883668,-0.211093,0.551253,-0.149369,0.000000,0.000000,0.000000,0.000000,0.000000,0.000000
12744991.000000,-2.355829,-1.662269,1.102838,-1.405634,1.744378,1.178850,-0.569754,0.660433,-0.003317,1.075478,-0.484416,-0.469296,1.199722,-0.166877,-13.660541,27.554058,-6.865433,-7.157411,-0.234896,0.544845,-0.163102,0.000000,0.000000,0.000000,0.000000,0.000000,0.000000
12744992.000000,-2.355169,-1.662269,1.103941,-1.406112,1.743922,1.180045,-0.569915,0.666658,-0.002154,1.079324,-0.477888,-0.463271,1.201912,-0.161876,-13.632770,27.554058,-6.813858,-7.355775,-0.300814,0.583297,-0.188737,0.000000,0.000000,0.000000,0.000000,0.000000,0.000000
12744993.000000,-2.354518,-1.662270,1.105067,-1.406596,1.743467,1.181228,-0.570081,0.663746,-0.000836,1.081862,-0.491405,-0.457340,1.201799,-0.161114,-13.632770,27.530254,-6.889236,-7.355775,-0.270602,0.641891,-0.136552,0.000000,0.000000,0.000000,0.000000,0.000000,0.000000
12744994.000000,-2.353862,-1.662269,1.106170,-1.407072,1.743024,1.182427,-0.570236,0.658771,0.000032,1.092966,-0.488749,-0.454581,1.204523,-0.162891,-13.731952,27.506451,-6.813858,-7.478761,-0.199191,0.609847,-0.142960,0.000000,0.000000,0.000000,0.000000,0.000000,0.000000
12744995.000000,-2.353203,-1.662268,1.107300,-1.407560,1.742572,1.183651,-0.570387,0.659437,0.001252,1.095925,-0.482881,-0.454167,1.208917,-0.157622,-13.930316,27.454876,-6.742447,-7.478761,-0.192782,0.486251,-0.196061,0.000000,0.000000,0.000000,0.000000,0.000000,0.000000
12744996.000000,-2.352539,-1.662257,1.108430,-1.408030,1.742121,1.184836,-0.570546,0.657026,0.005400,1.108523,-0.483644,-0.449784,1.208123,-0.155892,-14.081073,27.260479,-6.718643,-7.526369,-0.168978,0.499068,-0.182328,0.000000,0.000000,0.000000,0.000000,0.000000,0.000000
12744997.000000,-2.351893,-1.662251,1.109567,-1.408501,1.741680,1.186037,-0.570703,0.667315,0.005934,1.114806,-0.476831,-0.449742,1.205077,-0.156187,-14.204059,27.161297,-6.421097,-7.625551,-0.192782,0.583297,-0.142960,0.000000,0.000000,0.000000,0.000000,0.000000,0.000000
12744998.000000,-2.351240,-1.662245,1.110717,-1.408978,1.741233,1.187238,-0.570852,0.660061,0.006193,1.117571,-0.476596,-0.444035,1.202512,-0.159073,-14.279437,27.066082,-6.202896,-7.649354,-0.228488,0.681258,-0.169511,0.000000,0.000000,0.000000,0.000000,0.000000,0.000000
12744999.000000,-2.350586,-1.662233,1.111877,-1.409424,1.740807,1.188415,-0.571009,0.650979,0.008127,1.130814,-0.465279,-0.434599,1.194388,-0.158031,-14.402423,26.895489,-6.179092,-7.875490,-0.282504,0.824081,-0.142960,0.000000,0.000000,0.000000,0.000000,0.000000,0.000000
12745000.000000,-2.349945,-1.662219,1.113065,-1.409895,1.740376,1.189611,-0.571159,0.649553,0.010064,1.145602,-0.461938,-0.434956,1.191221,-0.157421,-14.450030,26.697124,-6.202896,-7.847719,-0.401522,0.836898,-0.136552,0.000000,0.000000,0.000000,0.000000,0.000000,0.000000
12745001.000000,-2.349297,-1.662207,1.114267,-1.410348,1.739940,1.190800,-0.571300,0.646948,0.010147,1.196727,-0.460247,-0.434745,1.190586,-0.148338,-14.525409,26.550335,-6.496475,-7.946901,-0.455538,0.739852,-0.208878,0.000000,0.000000,0.000000,0.000000,0.000000,0.000000
12745002.000000,-2.348657,-1.662192,1.115504,-1.410805,1.739514,1.191993,-0.571456,0.645489,0.011315,1.207560,-0.455464,-0.426001,1.183759,-0.152328,-14.525409,26.355938,-6.936844,-8.069887,-0.450045,0.674850,-0.122819,0.000000,0.000000,0.000000,0.000000,0.000000,0.000000
12745003.000000,-2.348028,-1.662183,1.116762,-1.411264,1.739074,1.193181,-0.571598,0.641253,0.009866,1.218445,-0.456922,-0.424826,1.172787,-0.148844,-14.525409,26.256756,-7.452591,-8.121462,-0.414340,0.759078,-0.196061,0.000000,0.000000,0.000000,0.000000,0.000000,0.000000
12745004.000000,-2.347387,-1.662181,1.118010,-1.411717,1.738648,1.194334,-0.571749,0.632754,0.007136,1.233875,-0.454930,-0.424730,1.166426,-0.144838,-14.624591,26.232952,-7.869156,-8.169069,-0.360323,0.928451,-0.182328,0.000000,0.000000,0.000000,0.000000,0.000000,0.000000
12745005.000000,-2.346762,-1.662181,1.119279,-1.412169,1.738221,1.195527,-0.571901,0.631318,0.004759,1.259451,-0.453758,-0.422347,1.166531,-0.143840,-14.600787,26.232952,-8.142899,-8.292055,-0.252291,0.901900,-0.122819,0.000000,0.000000,0.000000,0.000000,0.000000,0.000000
12745006.000000,-2.346126,-1.662182,1.120537,-1.412613,1.737790,1.196698,-0.572041,0.632194,0.002617,1.263177,-0.449259,-0.421884,1.164797,-0.142838,-14.648395,26.256756,-8.313492,-8.343630,-0.204684,0.869857,-0.196061,0.000000,0.000000,0.000000,0.000000,0.000000,0.000000
12745007.000000,-2.345490,-1.662188,1.121818,-1.413069,1.737380,1.197867,-0.572189,0.636460,0.004851,1.262206,-0.447182,-0.420963,1.152682,-0.147030,-14.723773,26.526531,-8.630875,-8.343630,-0.204684,1.006271,-0.142960,0.000000,0.000000,0.000000,0.000000,0.000000,0.000000
12745008.000000,-2.344885,-1.662206,1.123071,-1.413523,1.736985,1.199046,-0.572334,0.628304,0.000005,1.244135,-0.446457,-0.410064,1.149299,-0.146303,-14.426227,27.236675,-8.853043,-8.292055,-0.300814,1.110641,-0.149369,0.000000,0.000000,0.000000,0.000000,0.000000,0.000000
12745009.000000,-2.344258,-1.662230,1.124291,-1.413982,1.736582,1.200229,-0.572476,0.622289,-0.005287,1.238153,-0.450684,-0.399724,1.160932,-0.146615,-14.104877,28.339581,-9.269608,-8.169069,-0.306307,1.084090,-0.149369,0.000000,0.000000,0.000000,0.000000,0.000000,0.000000
12745010.000000,-2.343636,-1.662255,1.125515,-1.414441,1.736175,1.201425,-0.572613,0.630951,-0.008562,1.227267,-0.450798,-0.400786,1.162476,-0.142286,-13.660541,29.609112,-10.007523,-8.022280,-0.264193,1.045638,-0.169511,0.000000,0.000000,0.000000,0.000000,0.000000,0.000000
12745011.000000,-2.343019,-1.662271,1.126749,-1.414901,1.735798,1.202618,-0.572749,0.625200,-0.013271,1.221869,-0.461377,-0.388244,1.160830,-0.138414,-13.212237,30.906414,-11.039017,-7.847719,-0.330111,1.169235,-0.202470,0.000000,0.000000,0.000000,0.000000,0.000000,0.000000
12745012.000000,-2.342411,-1.662279,1.127954,-1.415357,1.735399,1.203804,-0.572895,0.616172,-0.013480,1.221275,-0.461451,-0.393728,1.169262,-0.144151,-12.644916,32.108501,-11.971329,-7.847719,-0.246798,1.155502,-0.136552,0.000000,0.000000,0.000000,0.000000,0.000000,0.000000
12745013.000000,-2.341813,-1.662288,1.129179,-1.415817,1.734989,1.205013,-0.573030,0.606075,-0.011552,1.216780,-0.460412,-0.399908,1.178399,-0.143968,-12.097430,33.235210,-12.998856,-7.899293,-0.085665,1.136276,-0.175919,0.000000,0.000000,0.000000,0.000000,0.000000,0.000000
12745014.000000,-2.341209,-1.662284,1.130399,-1.416266,1.734590,1.206190,-0.573167,0.597497,-0.009776,1.227753,-0.459496,-0.393569,1.185307,-0.141352,-11.553912,34.088177,-14.006546,-7.970705,0.034269,1.292831,-0.169511,0.000000,0.000000,0.000000,0.000000,0.000000,0.000000
12745015.000000,-2.340614,-1.662277,1.131652,-1.416715,1.734197,1.207375,-0.573303,0.608559,-0.005062,1.237451,-0.452715,-0.395005,1.178101,-0.142975,-11.184955,34.774517,-15.137222,-8.145266,0.081876,1.519881,-0.188737,0.000000,0.000000,0.000000,0.000000,0.000000,0.000000
12745016.000000,-2.340024,-1.662278,1.132900,-1.417181,1.733799,1.208566,-0.573438,0.597394,-0.005857,1.241053,-0.457055,-0.391512,1.181256,-0.141003,-10.689044,35.484661,-15.994156,-8.097658,0.141385,1.649886,-0.188737,0.000000,0.000000,0.000000,0.000000,0.000000,0.000000
12745017.000000,-2.339430,-1.662275,1.134127,-1.417625,1.733415,1.209743,-0.573575,0.590747,-0.002615,1.240022,-0.448327,-0.387849,1.184139,-0.139453,-10.391498,36.024212,-16.656693,-8.145266,0.147794,1.662704,-0.169511,0.000000,0.000000,0.000000,0.000000,0.000000,0.000000
12745018.000000,-2.338839,-1.662274,1.135385,-1.418083,1.733028,1.210927,-0.573702,0.592302,-0.002295,1.240117,-0.449408,-0.389951,1.174819,-0.136059,-10.216937,36.488384,-17.319229,-8.097658,0.154203,1.649886,-0.208878,0.000000,0.000000,0.000000,0.000000,0.000000,0.000000
12745019.000000,-2.338248,-1.662273,1.136624,-1.418528,1.732652,1.212086,-0.573834,0.591192,-0.001475,1.262662,-0.449827,-0.383927,1.172036,-0.135934,-9.994769,36.904949,-17.811172,-8.097658,0.022367,1.721298,-0.188737,0.000000,0.000000,0.000000,0.000000,0.000000,0.000000
12745020.000000,-2.337671,-1.662285,1.137877,-1.418969,1.732273,1.213273,-0.573968,0.586279,-0.006136,1.261864,-0.443714,-0.378728,1.176949,-0.131876,-9.697223,37.392925,-18.104752,-8.244448,0.046171,1.617843,-0.142960,0.000000,0.000000,0.000000,0.000000,0.000000,0.000000
12745021.000000,-2.337112,-1.662308,1.139152,-1.419400,1.731894,1.214452,-0.574094,0.577533,-0.014612,1.258206,-0.440130,-0.382714,1.176978,-0.129009,-9.328265,37.956280,-18.572891,-8.490419,0.052579,1.552840,-0.208878,0.000000,0.000000,0.000000,0.000000,0.000000,0.000000
12745022.000000,-2.336552,-1.662332,1.140416,-1.419821,1.731528,1.215601,-0.574230,0.568124,-0.019813,1.261778,-0.433560,-0.378302,1.168376,-0.130702,-8.879962,38.472027,-18.965652,-8.787966,-0.031649,1.597701,-0.188737,0.000000,0.000000,0.000000,0.000000,0.000000,0.000000
12745023.000000,-2.336013,-1.662368,1.141711,-1.420241,1.731156,1.216755,-0.574361,0.558876,-0.025449,1.270252,-0.427448,-0.379626,1.162178,-0.126568,-8.411822,39.059185,-19.552811,-9.109316,0.004056,1.721298,-0.182328,0.000000,0.000000,0.000000,0.000000,0.000000,0.000000
12745024.000000,-2.335473,-1.662410,1.143018,-1.420645,1.730794,1.217896,-0.574495,0.551899,-0.031343,1.282169,-0.428996,-0.373930,1.185049,-0.127082,-7.915911,39.721722,-20.167740,-9.506044,0.004056,1.773483,-0.182328,0.000000,0.000000,0.000000,0.000000,0.000000,0.000000
12745025.000000,-2.334936,-1.662454,1.144314,-1.421053,1.730426,1.219066,-0.574624,0.541119,-0.033790,1.286352,-0.422866,-0.376328,1.180468,-0.128108,-7.443804,40.308880,-20.854080,-9.803591,0.015958,1.702071,-0.188737,0.000000,0.000000,0.000000,0.000000,0.000000,0.000000
12745026.000000,-2.334417,-1.662504,1.145628,-1.421464,1.730051,1.220234,-0.574758,0.537098,-0.039334,1.289741,-0.417314,-0.376981,1.174010,-0.130126,-6.999468,40.919842,-21.516617,-9.997988,0.040677,1.662704,-0.155778,0.000000,0.000000,0.000000,0.000000,0.000000,0.000000
12745027.000000,-2.333884,-1.662548,1.146903,-1.421876,1.729693,1.221378,-0.574885,0.531473,-0.043098,1.285618,-0.420389,-0.379226,1.163819,-0.130049,-6.725726,41.384014,-21.810196,-10.025759,0.027860,1.676437,-0.149369,0.000000,0.000000,0.000000,0.000000,0.000000,0.000000
12745028.000000,-2.333356,-1.662598,1.148208,-1.422289,1.729312,1.222526,-0.575010,0.534617,-0.044771,1.290484,-0.417153,-0.382307,1.150389,-0.129018,-6.404376,41.923565,-22.254532,-9.997988,0.123990,1.773483,-0.182328,0.000000,0.000000,0.000000,0.000000,0.000000,0.000000
12745029.000000,-2.332841,-1.662643,1.149485,-1.422701,1.728939,1.223672,-0.575140,0.530332,-0.043733,1.284059,-0.425528,-0.376719,1.136384,-0.130224,-6.182208,42.363934,-22.131546,-9.926577,0.135892,1.923629,-0.169511,0.000000,0.000000,0.000000,0.000000,0.000000,0.000000
12745030.000000,-2.332328,-1.662681,1.150772,-1.423103,1.728583,1.224818,-0.575266,0.518031,-0.040956,1.285247,-0.417576,-0.371581,1.136713,-0.130663,-5.860857,42.705120,-22.377518,-9.875002,0.117582,1.936446,-0.169511,0.000000,0.000000,0.000000,0.000000,0.000000,0.000000
12745031.000000,-2.331829,-1.662722,1.152050,-1.423513,1.728225,1.225979,-0.575388,0.510648,-0.039282,1.274010,-0.415325,-0.374074,1.134721,-0.129671,-5.487933,43.050274,-22.202957,-9.775820,0.112089,1.923629,-0.202470,0.000000,0.000000,0.000000,0.000000,0.000000,0.000000
12745032.000000,-2.331331,-1.662756,1.153343,-1.423925,1.727863,1.227123,-0.575522,0.504972,-0.038476,1.282138,-0.413758,-0.369141,1.133828,-0.126900,-5.142779,43.268475,-22.472733,-9.553652,0.076383,1.949264,-0.149369,0.000000,0.000000,0.000000,0.000000,0.000000,0.000000
12745033.000000,-2.330842,-1.662782,1.154643,-1.424351,1.727506,1.228279,-0.575640,0.498520,-0.034782,1.289019,-0.423480,-0.366700,1.133981,-0.126628,-4.797625,43.343853,-22.647293,-9.256105,0.064481,1.949264,-0.188737,0.000000,0.000000,0.000000,0.000000,0.000000,0.000000
12745034.000000,-2.330343,-1.662817,1.155941,-1.424774,1.727148,1.229440,-0.575765,0.492682,-0.031146,1.283254,-0.422710,-0.362461,1.138399,-0.128828,-4.547686,43.490643,-22.794083,-9.033937,0.141385,1.930038,-0.182328,0.000000,0.000000,0.000000,0.000000,0.000000,0.000000
12745037.000000,-2.328908,-1.662883,1.159859,-1.426026,1.726089,1.232869,-0.576136,0.481983,-0.018953,1.317982,-0.418739,-0.356465,1.144027,-0.128610,-3.583636,43.268475,-24.095352,-8.518190,0.243009,2.014266,-0.136552,0.000000,0.000000,0.000000,0.000000,0.000000,0.000000
12745038.000000,-2.328438,-1.662909,1.161151,-1.426454,1.725759,1.234023,-0.576247,0.475819,-0.020609,1.309704,-0.418195,-0.350292,1.142577,-0.122755,-3.262286,43.268475,-24.166763,-8.319826,0.195402,2.001449,-0.188737,0.000000,0.000000,0.000000,0.000000,0.000000,0.000000
12745039.000000,-2.327974,-1.662933,1.162462,-1.426892,1.725404,1.235187,-0.576368,0.473953,-0.021016,1.304643,-0.426049,-0.351169,1.150396,-0.121923,-2.940936,43.244671,-24.436539,-8.022280,0.291532,1.968490,-0.142960,0.000000,0.000000,0.000000,0.000000,0.000000,0.000000
12745040.000000,-2.327505,-1.662960,1.163734,-1.427324,1.725064,1.236310,-0.576478,0.475153,-0.022688,1.294105,-0.429320,-0.348411,1.146202,-0.116925,-2.643389,43.268475,-24.412735,-7.700929,0.297025,2.098495,-0.182328,0.000000,0.000000,0.000000,0.000000,0.000000,0.000000
12745041.000000,-2.327042,-1.662978,1.165020,-1.427767,1.724730,1.237460,-0.576597,0.473143,-0.019897,1.290572,-0.433014,-0.341867,1.145030,-0.116040,-2.322039,43.121685,-24.388931,-7.304201,0.308927,2.098495,-0.182328,0.000000,0.000000,0.000000,0.000000,0.000000,0.000000
12745042.000000,-2.326577,-1.663001,1.166323,-1.428210,1.724383,1.238606,-0.576715,0.472337,-0.019858,1.295294,-0.443023,-0.342999,1.173557,-0.116128,-2.000689,43.050274,-24.511917,-6.883668,0.356534,1.988631,-0.163102,0.000000,0.000000,0.000000,0.000000,0.000000,0.000000
12745043.000000,-2.326127,-1.663025,1.167608,-1.428662,1.724046,1.239767,-0.576825,0.459732,-0.019243,1.293477,-0.448046,-0.342628,1.172488,-0.114605,-1.453204,42.951092,-24.706314,-6.538515,0.351041,1.871444,-0.182328,0.000000,0.000000,0.000000,0.000000,0.000000,0.000000
12745044.000000,-2.325677,-1.663052,1.168931,-1.429117,1.723713,1.240921,-0.576939,0.454952,-0.021129,1.293650,-0.450189,-0.335495,1.155158,-0.114119,-1.084246,42.951092,-25.198257,-6.240968,0.327238,1.897079,-0.182328,0.000000,0.000000,0.000000,0.000000,0.000000,0.000000
12745045.000000,-2.325237,-1.663078,1.170223,-1.429574,1.723389,1.242042,-0.577051,0.446451,-0.022974,1.290307,-0.452838,-0.338666,1.139836,-0.113991,-0.663714,42.974895,-25.591019,-5.919618,0.308927,2.060043,-0.182328,0.000000,0.000000,0.000000,0.000000,0.000000,0.000000
12745046.000000,-2.324800,-1.663103,1.171535,-1.430038,1.723042,1.243185,-0.577168,0.450859,-0.024263,1.294691,-0.450754,-0.341791,1.133648,-0.115033,-0.191607,42.998699,-26.007584,-5.598268,0.381254,2.150680,-0.149369,0.000000,0.000000,0.000000,0.000000,0.000000,0.000000
12745047.000000,-2.324362,-1.663130,1.172848,-1.430499,1.722697,1.244328,-0.577274,0.447632,-0.023163,1.296315,-0.456739,-0.343035,1.128925,-0.107568,0.078168,43.074078,-26.328934,-5.427675,0.422452,2.287093,-0.202470,0.000000,0.000000,0.000000,0.000000,0.000000,0.000000
12745048.000000,-2.323932,-1.663154,1.174130,-1.430953,1.722365,1.245456,-0.577381,0.442142,-0.024161,1.293365,-0.452060,-0.343675,1.127144,-0.108796,0.427289,43.097881,-26.547134,-5.229311,0.470060,2.397872,-0.208878,0.000000,0.000000,0.000000,0.000000,0.000000,0.000000
12745049.000000,-2.323512,-1.663170,1.175421,-1.431425,1.722030,1.246602,-0.577492,0.435996,-0.018836,1.287920,-0.453783,-0.344282,1.124776,-0.111540,0.772443,42.998699,-26.622513,-4.931764,0.488370,2.437240,-0.163102,0.000000,0.000000,0.000000,0.000000,0.000000,0.000000
12745050.000000,-2.323080,-1.663194,1.176682,-1.431883,1.721685,1.247739,-0.577594,0.433322,-0.018612,1.279682,-0.453945,-0.345378,1.132389,-0.109724,0.994611,43.050274,-26.523331,-4.709596,0.547880,2.326461,-0.221696,0.000000,0.000000,0.000000,0.000000,0.000000,0.000000
12745051.000000,-2.322655,-1.663215,1.177966,-1.432361,1.721358,1.248892,-0.577704,0.433065,-0.020824,1.279892,-0.456982,-0.340498,1.138015,-0.110566,1.192975,43.074078,-26.475723,-4.340639,0.578092,2.196456,-0.188737,0.000000,0.000000,0.000000,0.000000,0.000000,0.000000
12745052.000000,-2.322231,-1.663236,1.179235,-1.432843,1.721035,1.250046,-0.577816,0.426629,-0.019252,1.270682,-0.467967,-0.335021,1.135447,-0.112471,1.367536,43.097881,-26.182144,-3.892336,0.589994,2.104903,-0.163102,0.000000,0.000000,0.000000,0.000000,0.000000,0.000000
12745053.000000,-2.321802,-1.663255,1.180506,-1.433320,1.720704,1.251180,-0.577923,0.425249,-0.020708,1.268910,-0.471294,-0.337903,1.141473,-0.107760,1.466718,43.097881,-26.229752,-3.499574,0.644010,2.060043,-0.163102,0.000000,0.000000,0.000000,0.000000,0.000000,0.000000
12745054.000000,-2.321387,-1.663283,1.181764,-1.433794,1.720386,1.252335,-0.578024,0.421492,-0.024020,1.257978,-0.471556,-0.330168,1.144853,-0.107413,1.712690,43.197063,-25.959976,-3.277406,0.554288,1.949264,-0.208878,0.000000,0.000000,0.000000,0.000000,0.000000,0.000000
12745055.000000,-2.320967,-1.663305,1.183020,-1.434248,1.720054,1.253473,-0.578130,0.419900,-0.021509,1.259043,-0.462610,-0.329373,1.148682,-0.109743,1.887250,43.220867,-25.959976,-3.225832,0.596403,1.871444,-0.202470,0.000000,0.000000,0.000000,0.000000,0.000000,0.000000
12745056.000000,-2.320556,-1.663328,1.184282,-1.434702,1.719746,1.254615,-0.578238,0.412043,-0.020206,1.261614,-0.457430,-0.321581,1.148020,-0.111649,2.085615,43.268475,-25.860794,-3.277406,0.571683,1.909896,-0.175919,0.000000,0.000000,0.000000,0.000000,0.000000,0.000000
12745057.000000,-2.320142,-1.663342,1.185551,-1.435153,1.719425,1.255755,-0.578343,0.412036,-0.019563,1.257172,-0.451262,-0.321009,1.145186,-0.105695,2.184797,43.197063,-25.884598,-3.301210,0.578092,2.020675,-0.215287,0.000000,0.000000,0.000000,0.000000,0.000000,0.000000
12745058.000000,-2.319726,-1.663363,1.186788,-1.435608,1.719102,1.256882,-0.578455,0.413572,-0.021514,1.252510,-0.449373,-0.320333,1.134462,-0.109525,2.283979,43.220867,-25.813187,-3.225832,0.685209,2.118636,-0.163102,0.000000,0.000000,0.000000,0.000000,0.000000,0.000000
12745059.000000,-2.319306,-1.663377,1.188021,-1.436051,1.718782,1.258040,-0.578555,0.413093,-0.018136,1.243327,-0.446406,-0.319150,1.131318,-0.107818,2.232404,43.173260,-25.543411,-3.202028,0.757535,2.020675,-0.215287,0.000000,0.000000,0.000000,0.000000,0.000000,0.000000
12745060.000000,-2.318883,-1.663385,1.189274,-1.436491,1.718474,1.259195,-0.578655,0.412862,-0.016426,1.246235,-0.452071,-0.315118,1.150490,-0.103587,2.160993,43.026470,-25.591019,-3.154421,0.786832,1.819259,-0.241837,0.000000,0.000000,0.000000,0.000000,0.000000,0.000000
12745061.000000,-2.318458,-1.663388,1.190492,-1.436925,1.718168,1.260365,-0.578767,0.417706,-0.011180,1.236104,-0.444838,-0.315382,1.145815,-0.109818,2.085615,42.828106,-25.444229,-3.178224,0.757535,1.676437,-0.142960,0.000000,0.000000,0.000000,0.000000,0.000000,0.000000
12745062.000000,-2.318034,-1.663395,1.191729,-1.437366,1.717864,1.261542,-0.578863,0.419995,-0.009705,1.232288,-0.441416,-0.309249,1.149838,-0.107524,1.962629,42.728924,-25.368851,-3.126650,0.691617,1.565658,-0.215287,0.000000,0.000000,0.000000,0.000000,0.000000,0.000000
12745063.000000,-2.317612,-1.663401,1.192945,-1.437787,1.717574,1.262682,-0.578975,0.417091,-0.008825,1.227732,-0.439105,-0.307524,1.150550,-0.109729,1.863447,42.633709,-25.249832,-3.178224,0.613798,1.676437,-0.175919,0.000000,0.000000,0.000000,0.000000,0.000000,0.000000
12745064.000000,-2.317210,-1.663407,1.194188,-1.438207,1.717280,1.263832,-0.579081,0.422405,-0.008051,1.231904,-0.429808,-0.300777,1.144688,-0.111265,1.911054,42.534527,-25.368851,-3.249635,0.584501,1.832076,-0.155778,0.000000,0.000000,0.000000,0.000000,0.000000,0.000000
12745065.000000,-2.316798,-1.663408,1.195436,-1.438617,1.716994,1.264988,-0.579179,0.417460,-0.006349,1.232046,-0.432559,-0.298110,1.146493,-0.104566,1.934858,42.387737,-25.567215,-3.400392,0.506681,1.974899,-0.215287,0.000000,0.000000,0.000000,0.000000,0.000000,0.000000
12745066.000000,-2.316379,-1.663409,1.196675,-1.439025,1.716708,1.266128,-0.579286,0.415237,-0.005728,1.240134,-0.423222,-0.288875,1.145036,-0.105102,1.911054,42.264751,-25.884598,-3.475771,0.470060,2.072860,-0.136552,0.000000,0.000000,0.000000,0.000000,0.000000,0.000000
12745067.000000,-2.315977,-1.663414,1.197928,-1.439431,1.716425,1.267279,-0.579380,0.413783,-0.005801,1.240612,-0.416593,-0.279728,1.142012,-0.099380,1.986432,42.169537,-26.277359,-3.499574,0.506681,2.131454,-0.196061,0.000000,0.000000,0.000000,0.000000,0.000000,0.000000
12745068.000000,-2.315565,-1.663418,1.199150,-1.439825,1.716147,1.268413,-0.579483,0.411131,-0.005734,1.262332,-0.409908,-0.278265,1.135551,-0.099230,1.934858,42.070354,-26.424149,-3.499574,0.566190,2.150680,-0.169511,0.000000,0.000000,0.000000,0.000000,0.000000,0.000000
12745069.000000,-2.315148,-1.663427,1.200379,-1.440226,1.715866,1.269556,-0.579577,0.416682,-0.007984,1.253217,-0.409479,-0.278069,1.138604,-0.096789,1.887250,42.070354,-26.523331,-3.424196,0.644010,2.209274,-0.202470,0.000000,0.000000,0.000000,0.000000,0.000000,0.000000
12745070.000000,-2.314735,-1.663432,1.201602,-1.440620,1.715579,1.270695,-0.579676,0.418082,-0.004640,1.241814,-0.403930,-0.284465,1.139867,-0.097035,1.811872,41.994976,-26.424149,-3.448000,0.679716,2.280685,-0.175919,0.000000,0.000000,0.000000,0.000000,0.000000,0.000000
12745071.000000,-2.314324,-1.663439,1.202805,-1.441010,1.715309,1.271826,-0.579768,0.413815,-0.007083,1.232899,-0.402428,-0.282792,1.144591,-0.094947,1.788068,41.994976,-26.277359,-3.348818,0.649503,2.242233,-0.215287,0.000000,0.000000,0.000000,0.000000,0.000000,0.000000
12745072.000000,-2.313916,-1.663448,1.204024,-1.441403,1.715039,1.272969,-0.579861,0.415734,-0.008887,1.227452,-0.400103,-0.274930,1.142441,-0.094635,1.764264,41.994976,-26.106766,-3.277406,0.566190,2.183639,-0.215287,0.000000,0.000000,0.000000,0.000000,0.000000,0.000000
12745073.000000,-2.313524,-1.663456,1.205204,-1.441777,1.714769,1.274107,-0.579958,0.408665,-0.009472,1.210958,-0.392048,-0.276535,1.141388,-0.092226,1.911054,41.971172,-25.690201,-3.348818,0.542386,2.020675,-0.163102,0.000000,0.000000,0.000000,0.000000,0.000000,0.000000
12745074.000000,-2.313124,-1.663459,1.206427,-1.442163,1.714503,1.275246,-0.580044,0.407592,-0.008222,1.215636,-0.390555,-0.271503,1.130412,-0.090714,2.034040,41.875957,-25.690201,-3.376589,0.482877,2.001449,-0.215287,0.000000,0.000000,0.000000,0.000000,0.000000,0.000000
12745075.000000,-2.312729,-1.663466,1.207634,-1.442543,1.714236,1.276391,-0.580139,0.402340,-0.006467,1.206930,-0.382872,-0.264009,1.122422,-0.092670,2.085615,41.875957,-25.420425,-3.424196,0.458158,1.981307,-0.175919,0.000000,0.000000,0.000000,0.000000,0.000000,0.000000
12745076.000000,-2.312346,-1.663468,1.208839,-1.442929,1.713969,1.277528,-0.580233,0.393961,-0.003287,1.208513,-0.383666,-0.265837,1.118616,-0.093823,2.283979,41.800579,-25.444229,-3.325014,0.494779,1.909896,-0.155778,0.000000,0.000000,0.000000,0.000000,0.000000,0.000000
12745077.000000,-2.311962,-1.663473,1.210042,-1.443297,1.713706,1.278679,-0.580323,0.390743,-0.001632,1.198656,-0.376088,-0.267760,1.122628,-0.097497,2.406965,41.752972,-25.297440,-3.424196,0.518583,1.838485,-0.188737,0.000000,0.000000,0.000000,0.000000,0.000000,0.000000
12745078.000000,-2.311579,-1.663470,1.211257,-1.443662,1.713448,1.279813,-0.580416,0.386915,-0.001350,1.199524,-0.378653,-0.265455,1.126353,-0.096938,2.605329,41.606182,-25.345047,-3.499574,0.482877,1.793624,-0.182328,0.000000,0.000000,0.000000,0.000000,0.000000,0.000000
12745079.000000,-2.311193,-1.663471,1.212443,-1.444032,1.713181,1.280952,-0.580502,0.382573,-0.002776,1.195598,-0.372459,-0.266907,1.126094,-0.095140,2.728315,41.530804,-25.321243,-3.475771,0.518583,1.832076,-0.202470,0.000000,0.000000,0.000000,0.000000,0.000000,0.000000
12745080.000000,-2.310818,-1.663472,1.213623,-1.444398,1.712918,1.282107,-0.580594,0.380472,-0.001431,1.187770,-0.369832,-0.266421,1.127457,-0.090900,2.803693,41.483196,-25.051468,-3.475771,0.535978,1.800033,-0.182328,0.000000,0.000000,0.000000,0.000000,0.000000,0.000000
12745081.000000,-2.310433,-1.663464,1.214798,-1.444758,1.712655,1.283232,-0.580681,0.377571,0.002517,1.184463,-0.366661,-0.265152,1.127200,-0.091594,2.827497,41.312603,-24.928482,-3.424196,0.632108,1.858627,-0.188737,0.000000,0.000000,0.000000,0.000000,0.000000,0.000000
12745082.000000,-2.310049,-1.663456,1.215966,-1.445115,1.712405,1.284365,-0.580773,0.386217,0.004165,1.173986,-0.362586,-0.257714,1.126685,-0.087942,2.803693,41.189617,-24.559525,-3.400392,0.571683,2.014266,-0.175919,0.000000,0.000000,0.000000,0.000000,0.000000,0.000000
12745083.000000,-2.309665,-1.663445,1.217149,-1.445475,1.712154,1.285508,-0.580862,0.383427,0.006474,1.170342,-0.365186,-0.258745,1.132313,-0.089963,2.827497,41.019024,-24.365128,-3.348818,0.530485,2.060043,-0.155778,0.000000,0.000000,0.000000,0.000000,0.000000,0.000000
12745084.000000,-2.309274,-1.663436,1.218313,-1.445825,1.711902,1.286659,-0.580942,0.379005,0.006417,1.166084,-0.359820,-0.254753,1.148711,-0.088785,2.728315,40.919842,-24.242142,-3.277406,0.506681,1.897079,-0.215287,0.000000,0.000000,0.000000,0.000000,0.000000,0.000000
12745085.000000,-2.308897,-1.663421,1.219509,-1.446174,1.711659,1.287821,-0.581035,0.379830,0.008104,1.172963,-0.355107,-0.250676,1.153888,-0.092343,2.704511,40.749249,-24.388931,-3.348818,0.464567,1.714889,-0.155778,0.000000,0.000000,0.000000,0.000000,0.000000,0.000000
12745086.000000,-2.308518,-1.663404,1.220697,-1.446522,1.711419,1.288951,-0.581114,0.378436,0.012977,1.178961,-0.350332,-0.243238,1.154428,-0.085388,2.704511,40.550884,-24.634903,-3.249635,0.422452,1.670028,-0.229020,0.000000,0.000000,0.000000,0.000000,0.000000,0.000000
12745087.000000,-2.308128,-1.663396,1.221891,-1.446865,1.711181,1.290081,-0.581206,0.381338,0.011041,1.183790,-0.349105,-0.240420,1.146247,-0.089888,2.581525,40.455669,-24.805496,-3.301210,0.440763,1.747848,-0.142960,0.000000,0.000000,0.000000,0.000000,0.000000,0.000000
12745088.000000,-2.307756,-1.663394,1.223101,-1.447211,1.710936,1.291224,-0.581289,0.380290,0.007482,1.185997,-0.345425,-0.242465,1.135985,-0.089694,2.581525,40.455669,-25.222061,-3.348818,0.476469,1.786300,-0.169511,0.000000,0.000000,0.000000,0.000000,0.000000,0.000000
12745089.000000,-2.307386,-1.663386,1.224284,-1.447540,1.710691,1.292346,-0.581371,0.375157,0.007400,1.185632,-0.338350,-0.244725,1.124810,-0.089734,2.605329,40.356487,-25.420425,-3.448000,0.518583,1.825668,-0.202470,0.000000,0.000000,0.000000,0.000000,0.000000,0.000000
12745090.000000,-2.307011,-1.663387,1.225473,-1.447867,1.710452,1.293466,-0.581464,0.379929,0.004445,1.181005,-0.331991,-0.235021,1.114379,-0.093204,2.629133,40.380291,-25.491837,-3.570986,0.512174,1.968490,-0.142960,0.000000,0.000000,0.000000,0.000000,0.000000,0.000000
12745091.000000,-2.306646,-1.663378,1.226666,-1.448191,1.710216,1.294576,-0.581541,0.378072,0.005335,1.175973,-0.329645,-0.233187,1.116135,-0.090334,2.680707,40.281109,-25.543411,-3.622560,0.500272,2.066451,-0.221696,0.000000,0.000000,0.000000,0.000000,0.000000,0.000000
12745092.000000,-2.306270,-1.663377,1.227827,-1.448517,1.709986,1.295698,-0.581625,0.376179,0.002945,1.169727,-0.329103,-0.230874,1.119628,-0.087241,2.629133,40.308880,-25.345047,-3.622560,0.482877,2.112228,-0.215287,0.000000,0.000000,0.000000,0.000000,0.000000,0.000000
12745093.000000,-2.305900,-1.663378,1.228999,-1.448839,1.709752,1.296843,-0.581714,0.372523,0.001436,1.159861,-0.322456,-0.234132,1.125094,-0.090110,2.529951,40.332684,-25.150650,-3.622560,0.482877,2.039901,-0.182328,0.000000,0.000000,0.000000,0.000000,0.000000,0.000000
12745094.000000,-2.305525,-1.663381,1.230146,-1.449161,1.709522,1.297970,-0.581793,0.371869,-0.000692,1.161498,-0.324423,-0.234110,1.133863,-0.089901,2.430768,40.404095,-24.781693,-3.448000,0.440763,1.890670,-0.215287,0.000000,0.000000,0.000000,0.000000,0.000000,0.000000
12745095.000000,-2.305142,-1.663378,1.231316,-1.449484,1.709284,1.299108,-0.581882,0.378839,-0.000445,1.157103,-0.323654,-0.229627,1.130768,-0.088239,2.184797,40.404095,-24.583328,-3.348818,0.470060,1.767074,-0.149369,0.000000,0.000000,0.000000,0.000000,0.000000,0.000000
12745096.000000,-2.304768,-1.663372,1.232505,-1.449804,1.709053,1.300250,-0.581963,0.379746,0.001386,1.161883,-0.326154,-0.228329,1.134254,-0.083843,2.109418,40.332684,-24.611099,-3.178224,0.464567,1.649886,-0.188737,0.000000,0.000000,0.000000,0.000000,0.000000,0.000000
12745097.000000,-2.304386,-1.663373,1.233637,-1.450115,1.708835,1.301380,-0.582044,0.379954,-0.000180,1.153381,-0.320593,-0.225866,1.140853,-0.082540,1.911054,40.380291,-24.119156,-3.249635,0.405057,1.565658,-0.169511,0.000000,0.000000,0.000000,0.000000,0.000000,0.000000
12745098.000000,-2.304022,-1.663372,1.234811,-1.450425,1.708604,1.302515,-0.582123,0.377681,0.003036,1.153835,-0.317096,-0.229349,1.136545,-0.080053,1.811872,40.380291,-24.095352,-3.301210,0.494779,1.565658,-0.182328,0.000000,0.000000,0.000000,0.000000,0.000000,0.000000
12745099.000000,-2.303653,-1.663368,1.235961,-1.450714,1.708381,1.303625,-0.582206,0.371580,0.002848,1.153490,-0.305287,-0.230911,1.129523,-0.079273,1.740461,40.356487,-23.972366,-3.499574,0.428861,1.735030,-0.169511,0.000000,0.000000,0.000000,0.000000,0.000000,0.000000
12745100.000000,-2.303290,-1.663363,1.237133,-1.451008,1.708157,1.304747,-0.582279,0.377692,0.003213,1.156809,-0.298298,-0.228698,1.118410,-0.077606,1.688886,40.308880,-23.996170,-3.745546,0.398649,1.930038,-0.188737,0.000000,0.000000,0.000000,0.000000,0.000000,0.000000
12745101.000000,-2.302911,-1.663356,1.238296,-1.451313,1.707933,1.305884,-0.582355,0.378218,0.004056,1.155739,-0.299292,-0.229019,1.115221,-0.076918,1.466718,40.233501,-23.896988,-3.769350,0.410551,1.995040,-0.188737,0.000000,0.000000,0.000000,0.000000,0.000000,0.000000
12745102.000000,-2.302534,-1.663346,1.239437,-1.451602,1.707715,1.307016,-0.582431,0.374149,0.005137,1.151646,-0.294578,-0.228143,1.114062,-0.077323,1.244550,40.134319,-23.801773,-3.868532,0.405057,1.916305,-0.169511,0.000000,0.000000,0.000000,0.000000,0.000000,0.000000
12745103.000000,-2.302152,-1.663331,1.240596,-1.451911,1.707487,1.308154,-0.582501,0.375550,0.007500,1.149594,-0.294150,-0.226965,1.117618,-0.074526,0.923200,39.963726,-23.750198,-3.697939,0.512174,1.890670,-0.215287,0.000000,0.000000,0.000000,0.000000,0.000000,0.000000
12745104.000000,-2.301759,-1.663319,1.241728,-1.452206,1.707275,1.309270,-0.582579,0.376602,0.007291,1.166694,-0.295155,-0.224310,1.116583,-0.075321,0.550275,39.868511,-23.579605,-3.598757,0.452665,1.923629,-0.202470,0.000000,0.000000,0.000000,0.000000,0.000000,0.000000
12745105.000000,-2.301367,-1.663304,1.242869,-1.452508,1.707056,1.310414,-0.582659,0.382922,0.010968,1.157538,-0.297829,-0.224330,1.126281,-0.076667,0.228925,39.745525,-23.381241,-3.400392,0.434354,1.800033,-0.169511,0.000000,0.000000,0.000000,0.000000,0.000000,0.000000
12745106.000000,-2.300984,-1.663287,1.244026,-1.452789,1.706837,1.311566,-0.582730,0.383407,0.010490,1.152691,-0.289584,-0.221010,1.128320,-0.075811,-0.044818,39.622540,-23.309830,-3.499574,0.458158,1.670028,-0.188737,0.000000,0.000000,0.000000,0.000000,0.000000,0.000000
12745107.000000,-2.300604,-1.663277,1.245174,-1.453058,1.706638,1.312678,-0.582804,0.381161,0.011505,1.153402,-0.282558,-0.210132,1.123120,-0.075395,-0.266986,39.574932,-23.357437,-3.646364,0.327238,1.695663,-0.182328,0.000000,0.000000,0.000000,0.000000,0.000000,0.000000
12745108.000000,-2.300229,-1.663261,1.246337,-1.453337,1.706429,1.313802,-0.582873,0.383108,0.013044,1.156159,-0.280779,-0.208981,1.119966,-0.074841,-0.366168,39.499554,-23.480423,-3.670168,0.308927,1.793624,-0.202470,0.000000,0.000000,0.000000,0.000000,0.000000,0.000000
12745109.000000,-2.299861,-1.663249,1.247510,-1.453599,1.706219,1.314899,-0.582951,0.377097,0.013010,1.153160,-0.275154,-0.209834,1.139106,-0.076766,-0.489153,39.475750,-23.726395,-3.868532,0.320829,1.942855,-0.155778,0.000000,0.000000,0.000000,0.000000,0.000000,0.000000
12745110.000000,-2.299494,-1.663241,1.248676,-1.453869,1.706012,1.316029,-0.583014,0.370364,0.011989,1.158667,-0.271395,-0.209842,1.137834,-0.074671,-0.512957,39.499554,-24.043777,-3.920107,0.327238,1.955673,-0.202470,0.000000,0.000000,0.000000,0.000000,0.000000,0.000000
12745111.000000,-2.299126,-1.663229,1.249855,-1.454136,1.705789,1.317145,-0.583088,0.365736,0.012611,1.162881,-0.268240,-0.211230,1.125997,-0.076662,-0.663714,39.475750,-24.388931,-3.991518,0.386747,2.007858,-0.142960,0.000000,0.000000,0.000000,0.000000,0.000000,0.000000
12745112.000000,-2.298756,-1.663220,1.251005,-1.454398,1.705580,1.318252,-0.583154,0.366028,0.012372,1.157754,-0.266279,-0.213704,1.118147,-0.071726,-0.762896,39.475750,-24.535721,-4.043092,0.381254,2.027084,-0.155778,0.000000,0.000000,0.000000,0.000000,0.000000,0.000000
12745113.000000,-2.298394,-1.663217,1.252173,-1.454660,1.705364,1.319375,-0.583218,0.366342,0.010659,1.160870,-0.261647,-0.209660,1.107810,-0.066683,-0.810504,39.547161,-24.658707,-4.066896,0.440763,1.974899,-0.188737,0.000000,0.000000,0.000000,0.000000,0.000000,0.000000
12745114.000000,-2.298025,-1.663211,1.253334,-1.454915,1.705150,1.320501,-0.583286,0.365643,0.007403,1.158214,-0.268509,-0.209501,1.104843,-0.064459,-0.933489,39.574932,-24.611099,-4.142274,0.464567,1.981307,-0.182328,0.000000,0.000000,0.000000,0.000000,0.000000,0.000000
12745115.000000,-2.297666,-1.663205,1.254453,-1.455178,1.704953,1.321606,-0.583351,0.361748,0.007590,1.146513,-0.264357,-0.206582,1.102225,-0.065993,-0.933489,39.622540,-24.289749,-4.142274,0.398649,2.001449,-0.196061,0.000000,0.000000,0.000000,0.000000,0.000000,0.000000
12745117.000000,-2.296960,-1.663192,1.256724,-1.455696,1.704542,1.323828,-0.583476,0.357652,0.006427,1.136066,-0.259754,-0.201908,1.099192,-0.064453,-0.909686,39.670147,-23.678787,-4.090700,0.327238,2.092086,-0.215287,0.000000,0.000000,0.000000,0.000000,0.000000,0.000000
12745118.000000,-2.296617,-1.663177,1.257866,-1.455962,1.704347,1.324946,-0.583546,0.361489,0.009754,1.140558,-0.261955,-0.202689,1.104372,-0.063968,-0.862078,39.598736,-23.409012,-4.019289,0.297025,2.039901,-0.175919,0.000000,0.000000,0.000000,0.000000,0.000000,0.000000
12745119.000000,-2.296273,-1.663164,1.259010,-1.456217,1.704154,1.326083,-0.583606,0.350665,0.008448,1.135197,-0.262372,-0.198428,1.107078,-0.065461,-0.735125,39.547161,-23.210648,-4.019289,0.267728,1.903487,-0.202470,0.000000,0.000000,0.000000,0.000000,0.000000,0.000000
12745120.000000,-2.295933,-1.663146,1.260142,-1.456470,1.703962,1.327199,-0.583669,0.343795,0.012032,1.136171,-0.257482,-0.197030,1.114746,-0.067917,-0.635943,39.428143,-23.087662,-3.967714,0.285123,1.747848,-0.202470,0.000000,0.000000,0.000000,0.000000,0.000000,0.000000
12745121.000000,-2.295603,-1.663127,1.261293,-1.456731,1.703771,1.328327,-0.583741,0.342663,0.015834,1.137922,-0.257233,-0.191086,1.122599,-0.067301,-0.465350,39.253582,-23.087662,-3.892336,0.303434,1.689254,-0.142960,0.000000,0.000000,0.000000,0.000000,0.000000,0.000000
12745122.000000,-2.295270,-1.663114,1.262421,-1.456982,1.703570,1.329429,-0.583797,0.339407,0.015598,1.155092,-0.252881,-0.196516,1.120690,-0.066756,-0.215411,39.205975,-23.040054,-3.868532,0.339139,1.656295,-0.208878,0.000000,0.000000,0.000000,0.000000,0.000000,0.000000
12745123.000000,-2.294940,-1.663096,1.263573,-1.457232,1.703368,1.330551,-0.583868,0.336340,0.017176,1.152576,-0.247560,-0.200230,1.114161,-0.069862,-0.017047,39.082989,-23.111465,-3.797121,0.362943,1.643478,-0.163102,0.000000,0.000000,0.000000,0.000000,0.000000,0.000000
12745124.000000,-2.294624,-1.663082,1.264719,-1.457476,1.703172,1.331672,-0.583935,0.328842,0.017029,1.147017,-0.243832,-0.196093,1.107732,-0.066581,0.252729,39.011578,-23.111465,-3.844728,0.344633,1.649886,-0.163102,0.000000,0.000000,0.000000,0.000000,0.000000,0.000000
12745125.000000,-2.294306,-1.663064,1.265843,-1.457715,1.702975,1.332765,-0.583996,0.319751,0.021378,1.142092,-0.241223,-0.195570,1.100301,-0.063148,0.375715,38.888592,-23.040054,-3.892336,0.381254,1.786300,-0.188737,0.000000,0.000000,0.000000,0.000000,0.000000,0.000000
12745126.000000,-2.293987,-1.663044,1.266977,-1.457961,1.702785,1.333886,-0.584057,0.325797,0.021942,1.133006,-0.241087,-0.192984,1.096852,-0.065588,0.502668,38.741802,-22.917068,-3.844728,0.356534,1.786300,-0.208878,0.000000,0.000000,0.000000,0.000000,0.000000,0.000000
12745127.000000,-2.293674,-1.663026,1.268104,-1.458199,1.702596,1.334995,-0.584117,0.320796,0.021834,1.127752,-0.240997,-0.186314,1.125127,-0.062510,0.649457,38.618816,-22.647293,-3.820925,0.327238,1.754256,-0.229020,0.000000,0.000000,0.000000,0.000000,0.000000,0.000000
12745128.000000,-2.293365,-1.663006,1.269217,-1.458451,1.702406,1.336122,-0.584187,0.317206,0.022172,1.129721,-0.242601,-0.187517,1.119376,-0.063944,0.772443,38.472027,-22.472733,-3.721742,0.339139,1.714889,-0.155778,0.000000,0.000000,0.000000,0.000000,0.000000,0.000000
12745129.000000,-2.293053,-1.662984,1.270355,-1.458706,1.702219,1.337256,-0.584239,0.316123,0.025723,1.126362,-0.244685,-0.185029,1.116998,-0.059373,0.824018,38.325237,-22.500504,-3.570986,0.249418,1.605026,-0.221696,0.000000,0.000000,0.000000,0.000000,0.000000,0.000000
12745130.000000,-2.292745,-1.662964,1.271481,-1.458952,1.702026,1.338381,-0.584304,0.310910,0.023445,1.126693,-0.243327,-0.186259,1.121849,-0.064984,0.895429,38.249859,-22.524307,-3.400392,0.249418,1.461288,-0.188737,0.000000,0.000000,0.000000,0.000000,0.000000,0.000000
12745131.000000,-2.292452,-1.662944,1.272638,-1.459201,1.701833,1.339511,-0.584364,0.312764,0.022985,1.140646,-0.243777,-0.185091,1.131036,-0.062087,1.069990,38.130840,-22.770279,-3.277406,0.308927,1.377059,-0.208878,0.000000,0.000000,0.000000,0.000000,0.000000,0.000000
12745132.000000,-2.292154,-1.662925,1.273795,-1.459440,1.701649,1.340642,-0.584423,0.309985,0.022600,1.137535,-0.247348,-0.185847,1.133750,-0.061198,1.244550,38.007854,-23.040054,-3.249635,0.315336,1.435653,-0.202470,0.000000,0.000000,0.000000,0.000000,0.000000,0.000000
12745133.000000,-2.291858,-1.662910,1.274944,-1.459679,1.701459,1.341735,-0.584486,0.302249,0.020641,1.140806,-0.244523,-0.185212,1.125900,-0.061537,1.391340,37.956280,-23.409012,-3.249635,0.410551,1.630660,-0.163102,0.000000,0.000000,0.000000,0.000000,0.000000,0.000000
12745134.000000,-2.291577,-1.662896,1.276100,-1.459915,1.701280,1.342839,-0.584541,0.297125,0.018635,1.140983,-0.238609,-0.180173,1.112233,-0.059190,1.665082,37.932476,-23.651016,-3.277406,0.393156,1.877853,-0.188737,0.000000,0.000000,0.000000,0.000000,0.000000,0.000000
12745135.000000,-2.291292,-1.662878,1.277234,-1.460152,1.701093,1.343935,-0.584598,0.292418,0.018530,1.138620,-0.235371,-0.181353,1.103183,-0.058415,1.811872,37.861065,-23.801773,-3.277406,0.374845,2.027084,-0.188737,0.000000,0.000000,0.000000,0.000000,0.000000,0.000000
12745136.000000,-2.291014,-1.662864,1.278384,-1.460395,1.700905,1.345054,-0.584656,0.290012,0.017740,1.141805,-0.235449,-0.178721,1.100648,-0.058244,1.934858,37.809490,-23.873184,-3.154421,0.381254,2.079269,-0.188737,0.000000,0.000000,0.000000,0.000000,0.000000,0.000000
12745137.000000,-2.290724,-1.662840,1.279538,-1.460636,1.700731,1.346184,-0.584717,0.287963,0.023221,1.138578,-0.237428,-0.177650,1.097399,-0.058889,1.986432,37.638897,-23.873184,-2.956056,0.291532,2.020675,-0.155778,0.000000,0.000000,0.000000,0.000000,0.000000,0.000000
12745138.000000,-2.290423,-1.662823,1.280660,-1.460888,1.700554,1.347303,-0.584762,0.290799,0.020557,1.135968,-0.241324,-0.180912,1.107440,-0.051299,1.887250,37.615093,-23.702591,-2.634706,0.303434,1.871444,-0.215287,0.000000,0.000000,0.000000,0.000000,0.000000,0.000000
12745139.000000,-2.290138,-1.662808,1.281792,-1.461144,1.700370,1.348418,-0.584821,0.291356,0.018824,1.127506,-0.248157,-0.181520,1.103618,-0.053900,1.863447,37.591290,-23.456619,-2.261781,0.393156,1.844894,-0.182328,0.000000,0.000000,0.000000,0.000000,0.000000,0.000000
12745140.000000,-2.289848,-1.662792,1.282908,-1.461388,1.700195,1.349513,-0.584876,0.288055,0.018164,1.143969,-0.247241,-0.179013,1.107090,-0.054997,1.835676,37.539715,-23.186844,-1.992006,0.410551,1.825668,-0.169511,0.000000,0.000000,0.000000,0.000000,0.000000,0.000000
12745141.000000,-2.289562,-1.662777,1.284047,-1.461623,1.700023,1.350635,-0.584927,0.282308,0.017029,1.142766,-0.244729,-0.177768,1.110929,-0.054862,1.835676,37.515911,-23.063858,-1.940431,0.434354,1.773483,-0.182328,0.000000,0.000000,0.000000,0.000000,0.000000,0.000000
12745142.000000,-2.289300,-1.662764,1.285181,-1.461856,1.699851,1.351748,-0.584986,0.279479,0.015651,1.135895,-0.241008,-0.174623,1.116380,-0.056451,2.034040,37.515911,-22.865494,-1.992006,0.410551,1.767074,-0.155778,0.000000,0.000000,0.000000,0.000000,0.000000,0.000000
12745143.000000,-2.289032,-1.662748,1.286308,-1.462083,1.699680,1.352860,-0.585033,0.274032,0.015732,1.134952,-0.235490,-0.174189,1.118926,-0.054790,2.232404,37.468304,-22.794083,-2.039613,0.386747,1.689254,-0.188737,0.000000,0.000000,0.000000,0.000000,0.000000,0.000000
12745144.000000,-2.288749,-1.662739,1.287455,-1.462308,1.699508,1.353968,-0.585092,0.279653,0.010475,1.135531,-0.229082,-0.168314,1.108340,-0.056615,2.208601,37.515911,-22.865494,-2.039613,0.381254,1.727706,-0.155778,0.000000,0.000000,0.000000,0.000000,0.000000,0.000000
12745145.000000,-2.288481,-1.662725,1.288593,-1.462533,1.699340,1.355069,-0.585143,0.277146,0.015254,1.128773,-0.233010,-0.165195,1.104670,-0.055583,2.307783,37.468304,-22.841690,-2.039613,0.393156,1.741439,-0.182328,0.000000,0.000000,0.000000,0.000000,0.000000,0.000000
12745146.000000,-2.288206,-1.662720,1.289730,-1.462769,1.699173,1.356181,-0.585200,0.277621,0.012169,1.132753,-0.234344,-0.163873,1.097486,-0.052652,2.307783,37.567486,-22.940872,-1.892824,0.452665,1.741439,-0.142960,0.000000,0.000000,0.000000,0.000000,0.000000,0.000000
12745147.000000,-2.287930,-1.662710,1.290875,-1.462989,1.699011,1.357310,-0.585244,0.278101,0.011146,1.134887,-0.228367,-0.160786,1.100199,-0.045520,2.160993,37.615093,-23.063858,-1.892824,0.446256,1.676437,-0.221696,0.000000,0.000000,0.000000,0.000000,0.000000,0.000000
12745148.000000,-2.287658,-1.662696,1.291985,-1.463207,1.698857,1.358431,-0.585295,0.275459,0.009083,1.125717,-0.224809,-0.161344,1.108223,-0.049320,2.109418,37.591290,-22.964676,-1.869020,0.398649,1.539108,-0.208878,0.000000,0.000000,0.000000,0.000000,0.000000,0.000000
12745149.000000,-2.287385,-1.662686,1.293110,-1.463427,1.698693,1.359552,-0.585350,0.282161,0.007433,1.118786,-0.223794,-0.159995,1.113583,-0.053378,2.034040,37.567486,-22.865494,-1.892824,0.416959,1.500655,-0.149369,0.000000,0.000000,0.000000,0.000000,0.000000,0.000000
12745150.000000,-2.287109,-1.662676,1.294233,-1.463636,1.698531,1.360666,-0.585395,0.279058,0.008173,1.110977,-0.220592,-0.156256,1.109668,-0.047125,1.962629,37.591290,-22.647293,-1.992006,0.381254,1.584884,-0.208878,0.000000,0.000000,0.000000,0.000000,0.000000,0.000000
12745151.000000,-2.286833,-1.662664,1.295340,-1.463847,1.698370,1.361754,-0.585443,0.277430,0.010020,1.109219,-0.216360,-0.155195,1.109599,-0.049898,1.863447,37.567486,-22.448929,-1.964235,0.386747,1.747848,-0.188737,0.000000,0.000000,0.000000,0.000000,0.000000,0.000000
12745152.000000,-2.286562,-1.662650,1.296455,-1.464047,1.698204,1.362860,-0.585491,0.273665,0.013829,1.102307,-0.211312,-0.156466,1.109436,-0.050757,1.740461,37.567486,-22.230728,-2.015810,0.452665,1.865035,-0.208878,0.000000,0.000000,0.000000,0.000000,0.000000,0.000000
12745153.000000,-2.286293,-1.662639,1.297572,-1.464246,1.698053,1.363971,-0.585540,0.268597,0.013655,1.106330,-0.206443,-0.152378,1.115578,-0.053314,1.641279,37.567486,-22.278336,-2.114992,0.381254,1.760665,-0.182328,0.000000,0.000000,0.000000,0.000000,0.000000,0.000000
12745154.000000,-2.286026,-1.662615,1.298722,-1.464449,1.697903,1.365097,-0.585584,0.269065,0.018040,1.122027,-0.202022,-0.151526,1.119336,-0.053509,1.565900,37.369122,-22.623489,-2.114992,0.369352,1.649886,-0.208878,0.000000,0.000000,0.000000,0.000000,0.000000,0.000000
12745155.000000,-2.285757,-1.662601,1.299877,-1.464648,1.697752,1.366217,-0.585636,0.269612,0.017955,1.126526,-0.198236,-0.150591,1.116792,-0.055489,1.466718,37.297710,-22.988480,-2.138796,0.344633,1.584884,-0.169511,0.000000,0.000000,0.000000,0.000000,0.000000,0.000000
12745156.000000,-2.285478,-1.662590,1.301020,-1.464841,1.697604,1.367312,-0.585681,0.267513,0.015559,1.132893,-0.196421,-0.150522,1.105216,-0.051274,1.292158,37.321514,-23.357437,-2.114992,0.332731,1.624252,-0.163102,0.000000,0.000000,0.000000,0.000000,0.000000,0.000000
12745157.000000,-2.285216,-1.662583,1.302181,-1.465038,1.697437,1.368406,-0.585725,0.264535,0.012953,1.139977,-0.194494,-0.155189,1.092326,-0.051309,1.216779,37.392925,-23.750198,-2.114992,0.428861,1.721298,-0.196061,0.000000,0.000000,0.000000,0.000000,0.000000,0.000000
12745158.000000,-2.284952,-1.662576,1.303306,-1.465217,1.697283,1.369485,-0.585776,0.260822,0.007944,1.137267,-0.187504,-0.153087,1.086415,-0.050189,1.192975,37.468304,-23.896988,-2.214174,0.405057,1.909896,-0.136552,0.000000,0.000000,0.000000,0.000000,0.000000,0.000000
12745159.000000,-2.284681,-1.662567,1.304444,-1.465393,1.697129,1.370593,-0.585814,0.261648,0.005543,1.133383,-0.185030,-0.156667,1.086794,-0.044799,1.046186,37.492107,-23.948563,-2.337160,0.393156,1.884261,-0.182328,0.000000,0.000000,0.000000,0.000000,0.000000,0.000000
12745160.000000,-2.284425,-1.662562,1.305587,-1.465557,1.696976,1.371691,-0.585854,0.259820,0.003184,1.131027,-0.175701,-0.154802,1.088083,-0.042258,0.994611,37.539715,-23.972366,-2.511720,0.386747,1.903487,-0.208878,0.000000,0.000000,0.000000,0.000000,0.000000,0.000000
12745161.000000,-2.284159,-1.662562,1.306693,-1.465730,1.696825,1.372781,-0.585893,0.261701,0.002801,1.122848,-0.179412,-0.158033,1.087935,-0.040792,0.923200,37.662701,-23.750198,-2.511720,0.398649,1.838485,-0.221696,0.000000,0.000000,0.000000,0.000000,0.000000,0.000000
12745162.000000,-2.283889,-1.662564,1.307817,-1.465901,1.696675,1.373873,-0.585941,0.265289,-0.001525,1.121724,-0.178544,-0.156621,1.090142,-0.046761,0.772443,37.833294,-23.480423,-2.511720,0.405057,1.871444,-0.169511,0.000000,0.000000,0.000000,0.000000,0.000000,0.000000
12745163.000000,-2.283622,-1.662567,1.308939,-1.466065,1.696521,1.374943,-0.585978,0.266090,-0.001607,1.115940,-0.176600,-0.156459,1.088697,-0.042570,0.574079,38.007854,-23.111465,-2.535524,0.422452,1.974899,-0.215287,0.000000,0.000000,0.000000,0.000000,0.000000,0.000000
12745164.000000,-2.283357,-1.662568,1.310060,-1.466233,1.696378,1.376052,-0.586017,0.264544,-0.003358,1.117393,-0.174003,-0.153740,1.092113,-0.040963,0.451093,38.130840,-23.063858,-2.511720,0.386747,1.825668,-0.229020,0.000000,0.000000,0.000000,0.000000,0.000000,0.000000
12745165.000000,-2.283094,-1.662565,1.311183,-1.466388,1.696230,1.377193,-0.586065,0.266424,0.000243,1.108696,-0.165762,-0.156260,1.095311,-0.042338,0.328107,38.178448,-22.917068,-2.606935,0.332731,1.474105,-0.169511,0.000000,0.000000,0.000000,0.000000,0.000000,0.000000
12745166.000000,-2.282850,-1.662564,1.312292,-1.466536,1.696083,1.378306,-0.586104,0.258324,0.002702,1.106460,-0.164423,-0.154038,1.098414,-0.040964,0.328107,38.226055,-22.770279,-2.781496,0.297025,1.259872,-0.175919,0.000000,0.000000,0.000000,0.000000,0.000000,0.000000
12745167.000000,-2.282602,-1.662562,1.313426,-1.466685,1.695925,1.379418,-0.586149,0.258822,0.005115,1.120575,-0.159547,-0.155425,1.100147,-0.036153,0.304304,38.249859,-22.817886,-2.979860,0.351041,1.285506,-0.155778,0.000000,0.000000,0.000000,0.000000,0.000000,0.000000
12745168.000000,-2.282354,-1.662559,1.314558,-1.466826,1.695774,1.380507,-0.586183,0.256045,0.004199,1.116916,-0.154040,-0.151046,1.092381,-0.034815,0.328107,38.249859,-22.817886,-3.154421,0.393156,1.559249,-0.202470,0.000000,0.000000,0.000000,0.000000,0.000000,0.000000
12745169.000000,-2.282103,-1.662559,1.315669,-1.466965,1.695627,1.381590,-0.586229,0.252152,0.002742,1.110399,-0.151096,-0.152475,1.090310,-0.036854,0.304304,38.277630,-22.770279,-3.277406,0.434354,1.786300,-0.169511,0.000000,0.000000,0.000000,0.000000,0.000000,0.000000
12745170.000000,-2.281853,-1.662557,1.316792,-1.467091,1.695487,1.382702,-0.586268,0.251810,0.002922,1.111203,-0.142971,-0.150968,1.087457,-0.037013,0.177350,38.249859,-22.794083,-3.523378,0.410551,1.825668,-0.169511,0.000000,0.000000,0.000000,0.000000,0.000000,0.000000
12745171.000000,-2.281597,-1.662554,1.317907,-1.467224,1.695357,1.383817,-0.586301,0.251919,0.003395,1.110831,-0.144724,-0.148092,1.093977,-0.035102,0.006757,38.202251,-22.940872,-3.570986,0.315336,1.727706,-0.221696,0.000000,0.000000,0.000000,0.000000,0.000000,0.000000
12745172.000000,-2.281336,-1.662540,1.319022,-1.467356,1.695229,1.384933,-0.586347,0.251686,0.007060,1.111124,-0.141877,-0.141491,1.095105,-0.038553,-0.266986,38.007854,-22.841690,-3.646364,0.243009,1.702071,-0.155778,0.000000,0.000000,0.000000,0.000000,0.000000,0.000000
12745173.000000,-2.281081,-1.662535,1.320143,-1.467493,1.695098,1.386048,-0.586380,0.254363,0.006658,1.114753,-0.142310,-0.138363,1.105025,-0.036362,-0.564532,37.932476,-22.770279,-3.622560,0.207303,1.708480,-0.202470,0.000000,0.000000,0.000000,0.000000,0.000000,0.000000
12745174.000000,-2.280820,-1.662536,1.321235,-1.467629,1.694962,1.387139,-0.586425,0.253858,0.003373,1.106650,-0.140814,-0.137789,1.106183,-0.038929,-0.810504,37.984051,-22.595718,-3.523378,0.225614,1.760665,-0.142960,0.000000,0.000000,0.000000,0.000000,0.000000,0.000000
12745175.000000,-2.280567,-1.662528,1.322356,-1.467759,1.694816,1.388239,-0.586455,0.253622,0.004674,1.112520,-0.133570,-0.139500,1.095817,-0.035552,-1.008868,37.884869,-22.548111,-3.523378,0.297025,1.800033,-0.221696,0.000000,0.000000,0.000000,0.000000,0.000000,0.000000
12745176.000000,-2.280318,-1.662528,1.323488,-1.467876,1.694683,1.389337,-0.586494,0.250881,0.003195,1.114562,-0.128504,-0.132147,1.110429,-0.032031,-1.108050,37.884869,-22.647293,-3.622560,0.279630,1.760665,-0.208878,0.000000,0.000000,0.000000,0.000000,0.000000,0.000000
12745177.000000,-2.280072,-1.662523,1.324609,-1.467990,1.694555,1.390449,-0.586532,0.246652,0.003952,1.119090,-0.121451,-0.126229,1.109635,-0.034283,-1.231036,37.809490,-22.893265,-3.769350,0.243009,1.702071,-0.188737,0.000000,0.000000,0.000000,0.000000,0.000000,0.000000
12745178.000000,-2.279834,-1.662514,1.325760,-1.468103,1.694421,1.391569,-0.586571,0.240826,0.004907,1.127041,-0.118217,-0.124268,1.107110,-0.035977,-1.231036,37.714275,-23.286026,-3.967714,0.279630,1.643478,-0.169511,0.000000,0.000000,0.000000,0.000000,0.000000,0.000000
12745179.000000,-2.279596,-1.662522,1.326901,-1.468214,1.694292,1.392652,-0.586602,0.239959,0.000520,1.132520,-0.117196,-0.130053,1.101142,-0.034468,-1.254840,37.833294,-23.750198,-4.118471,0.279630,1.735030,-0.208878,0.000000,0.000000,0.000000,0.000000,0.000000,0.000000
12745180.000000,-2.279365,-1.662527,1.328038,-1.468329,1.694161,1.393733,-0.586637,0.237577,-0.001391,1.131002,-0.115526,-0.131093,1.089447,-0.035863,-1.306414,37.908672,-24.043777,-4.166078,0.291532,1.962081,-0.196061,0.000000,0.000000,0.000000,0.000000,0.000000,0.000000
12745181.000000,-2.279116,-1.662534,1.329190,-1.468442,1.694032,1.394801,-0.586677,0.241656,-0.003229,1.132338,-0.114962,-0.130881,1.082440,-0.033636,-1.480975,38.007854,-24.341324,-4.166078,0.285123,2.104903,-0.142960,0.000000,0.000000,0.000000,0.000000,0.000000,0.000000
12745182.000000,-2.278875,-1.662540,1.330317,-1.468553,1.693910,1.395898,-0.586704,0.242463,-0.004366,1.132921,-0.112338,-0.129974,1.093047,-0.032328,-1.580157,38.103069,-24.436539,-4.142274,0.249418,2.072860,-0.202470,0.000000,0.000000,0.000000,0.000000,0.000000,0.000000
12745183.000000,-2.278636,-1.662544,1.331451,-1.468664,1.693787,1.397020,-0.586741,0.238312,-0.003550,1.132517,-0.110173,-0.129326,1.099482,-0.034559,-1.726946,38.130840,-24.436539,-4.118471,0.201810,1.897079,-0.169511,0.000000,0.000000,0.000000,0.000000,0.000000,0.000000
12745184.000000,-2.278393,-1.662552,1.332558,-1.468768,1.693656,1.398106,-0.586775,0.239270,-0.004586,1.125371,-0.108397,-0.129854,1.097925,-0.035620,-1.949114,38.226055,-24.289749,-4.090700,0.189908,1.793624,-0.163102,0.000000,0.000000,0.000000,0.000000,0.000000,0.000000
12745185.000000,-2.278160,-1.662557,1.333682,-1.468878,1.693524,1.399194,-0.586807,0.240199,-0.004814,1.119701,-0.107461,-0.127383,1.086120,-0.035618,-2.024493,38.301434,-24.095352,-4.043092,0.231107,1.832076,-0.175919,0.000000,0.000000,0.000000,0.000000,0.000000,0.000000
12745186.000000,-2.277925,-1.662573,1.334796,-1.468987,1.693387,1.400282,-0.586840,0.236974,-0.008309,1.117510,-0.106224,-0.132006,1.079129,-0.035837,-2.199053,38.519634,-23.702591,-4.019289,0.332731,1.942855,-0.182328,0.000000,0.000000,0.000000,0.000000,0.000000,0.000000
12745187.000000,-2.277700,-1.662585,1.335887,-1.469090,1.693254,1.401355,-0.586872,0.231241,-0.009527,1.106827,-0.103999,-0.129590,1.078871,-0.035504,-2.246661,38.690228,-23.286026,-4.043092,0.405057,2.053634,-0.196061,0.000000,0.000000,0.000000,0.000000,0.000000,0.000000
12745188.000000,-2.277480,-1.662587,1.337011,-1.469188,1.693134,1.402458,-0.586907,0.229616,-0.006349,1.102117,-0.101942,-0.128457,1.077556,-0.037538,-2.246661,38.690228,-23.234451,-4.090700,0.369352,2.027084,-0.155778,0.000000,0.000000,0.000000,0.000000,0.000000,0.000000
12745189.000000,-2.277262,-1.662597,1.338124,-1.469283,1.693017,1.403564,-0.586933,0.221976,-0.009736,1.133130,-0.101052,-0.121212,1.090839,-0.035342,-2.171282,38.789410,-23.234451,-4.118471,0.267728,1.812850,-0.215287,0.000000,0.000000,0.000000,0.000000,0.000000,0.000000
12745190.000000,-2.277041,-1.662601,1.339245,-1.469379,1.692900,1.404681,-0.586969,0.219371,-0.007868,1.125455,-0.097893,-0.122203,1.095187,-0.038283,-2.147479,38.837017,-23.234451,-4.118471,0.213712,1.591293,-0.155778,0.000000,0.000000,0.000000,0.000000,0.000000,0.000000
12745191.000000,-2.276824,-1.662609,1.340375,-1.469472,1.692780,1.405782,-0.586993,0.218964,-0.007207,1.121775,-0.094879,-0.118955,1.099167,-0.031492,-2.199053,38.912395,-23.234451,-4.142274,0.183500,1.605026,-0.202470,0.000000,0.000000,0.000000,0.000000,0.000000,0.000000
12745192.000000,-2.276610,-1.662619,1.341500,-1.469566,1.692662,1.406855,-0.587023,0.216443,-0.007273,1.123848,-0.091298,-0.123556,1.093247,-0.028889,-2.171282,39.011578,-23.456619,-4.090700,0.213712,1.727706,-0.196061,0.000000,0.000000,0.000000,0.000000,0.000000,0.000000
12745193.000000,-2.276396,-1.662626,1.342617,-1.469655,1.692540,1.407942,-0.587052,0.217649,-0.007187,1.115310,-0.089047,-0.121523,1.088628,-0.026387,-2.246661,39.106792,-23.456619,-4.142274,0.219205,1.819259,-0.196061,0.000000,0.000000,0.000000,0.000000,0.000000,0.000000
12745194.000000,-2.276188,-1.662630,1.343740,-1.469733,1.692413,1.409032,-0.587088,0.211969,-0.005432,1.115948,-0.090409,-0.126452,1.110676,-0.027001,-2.222857,39.130596,-23.432816,-4.312868,0.279630,1.773483,-0.130143,0.000000,0.000000,0.000000,0.000000,0.000000,0.000000
12745195.000000,-2.275980,-1.662637,1.344846,-1.469821,1.692288,1.410137,-0.587109,0.212886,-0.004890,1.111621,-0.086911,-0.129615,1.107281,-0.026433,-2.246661,39.182171,-23.456619,-4.312868,0.320829,1.670028,-0.202470,0.000000,0.000000,0.000000,0.000000,0.000000,0.000000
12745196.000000,-2.275769,-1.662638,1.345951,-1.469900,1.692165,1.411241,-0.587134,0.211273,-0.002750,1.102777,-0.082477,-0.125144,1.102753,-0.029480,-2.298235,39.158367,-23.333633,-4.388246,0.320829,1.689254,-0.202470,0.000000,0.000000,0.000000,0.000000,0.000000,0.000000
12745197.000000,-2.275558,-1.662640,1.347043,-1.469981,1.692050,1.412326,-0.587163,0.212218,-0.001219,1.101157,-0.081548,-0.117752,1.101752,-0.028287,-2.345843,39.130596,-23.163040,-4.364442,0.320829,1.682845,-0.163102,0.000000,0.000000,0.000000,0.000000,0.000000,0.000000
12745198.000000,-2.275345,-1.662641,1.348152,-1.470067,1.691929,1.413413,-0.587183,0.212419,-0.000282,1.100669,-0.082822,-0.117698,1.095519,-0.029113,-2.421221,39.106792,-23.040054,-4.241457,0.351041,1.767074,-0.202470,0.000000,0.000000,0.000000,0.000000,0.000000,0.000000
12745199.000000,-2.275141,-1.662641,1.349275,-1.470147,1.691813,1.414511,-0.587214,0.211926,0.000905,1.104189,-0.082097,-0.120251,1.089027,-0.032402,-2.520403,39.059185,-23.135269,-4.166078,0.320829,1.819259,-0.169511,0.000000,0.000000,0.000000,0.000000,0.000000,0.000000
12745200.000000,-2.274939,-1.662635,1.350389,-1.470224,1.691705,1.415606,-0.587236,0.208802,-0.000384,1.108008,-0.080141,-0.114777,1.099340,-0.032697,-2.520403,38.960003,-23.357437,-4.166078,0.219205,1.714889,-0.196061,0.000000,0.000000,0.000000,0.000000,0.000000,0.000000
12745201.000000,-2.274746,-1.662633,1.351534,-1.470296,1.691595,1.416728,-0.587265,0.202329,0.001129,1.114386,-0.078195,-0.112212,1.107948,-0.035668,-2.492632,38.888592,-23.774002,-4.189882,0.154203,1.519881,-0.149369,0.000000,0.000000,0.000000,0.000000,0.000000,0.000000
12745202.000000,-2.274553,-1.662625,1.352660,-1.470361,1.691479,1.417810,-0.587287,0.195439,0.003415,1.122680,-0.075152,-0.112859,1.104970,-0.030631,-2.492632,38.765606,-24.095352,-4.289064,0.159696,1.519881,-0.169511,0.000000,0.000000,0.000000,0.000000,0.000000,0.000000
12745203.000000,-2.274372,-1.662625,1.353811,-1.470432,1.691355,1.418893,-0.587309,0.193448,0.002116,1.130317,-0.075102,-0.121330,1.090707,-0.026694,-2.397418,38.765606,-24.611099,-4.289064,0.237516,1.689254,-0.188737,0.000000,0.000000,0.000000,0.000000,0.000000,0.000000
12745204.000000,-2.274185,-1.662624,1.354953,-1.470495,1.691228,1.419964,-0.587341,0.194586,0.001847,1.129283,-0.069684,-0.126623,1.074634,-0.031072,-2.345843,38.741802,-24.857071,-4.388246,0.315336,2.033492,-0.142960,0.000000,0.000000,0.000000,0.000000,0.000000,0.000000
12745205.000000,-2.273999,-1.662629,1.356068,-1.470562,1.691101,1.421031,-0.587360,0.188857,-0.000529,1.125961,-0.067605,-0.125952,1.073242,-0.025930,-2.298235,38.813213,-24.904678,-4.412050,0.362943,2.255050,-0.202470,0.000000,0.000000,0.000000,0.000000,0.000000,0.000000
12745206.000000,-2.273815,-1.662632,1.357191,-1.470624,1.690977,1.422132,-0.587387,0.189414,-0.001627,1.118845,-0.065282,-0.123305,1.079143,-0.029977,-2.298235,38.864788,-24.952286,-4.463624,0.386747,2.235824,-0.175919,0.000000,0.000000,0.000000,0.000000,0.000000,0.000000
12745207.000000,-2.273630,-1.662634,1.358307,-1.470689,1.690871,1.423227,-0.587408,0.186457,-0.001136,1.141788,-0.065972,-0.117382,1.089436,-0.030780,-2.322039,38.864788,-25.027664,-4.412050,0.291532,2.098495,-0.202470,0.000000,0.000000,0.000000,0.000000,0.000000,0.000000
12745208.000000,-2.273449,-1.662637,1.359422,-1.470763,1.690768,1.424330,-0.587435,0.185229,-0.001352,1.138019,-0.066054,-0.112343,1.095048,-0.033587,-2.369647,38.888592,-24.829300,-4.241457,0.178007,1.995040,-0.175919,0.000000,0.000000,0.000000,0.000000,0.000000,0.000000
12745209.000000,-2.273264,-1.662639,1.360538,-1.470841,1.690651,1.425429,-0.587459,0.185467,-0.001487,1.123447,-0.071211,-0.114003,1.091455,-0.030883,-2.492632,38.912395,-24.583328,-3.967714,0.195402,1.936446,-0.149369,0.000000,0.000000,0.000000,0.000000,0.000000,0.000000
12745210.000000,-2.273085,-1.662644,1.361627,-1.470907,1.690532,1.426500,-0.587479,0.179545,-0.002126,1.110700,-0.071244,-0.116367,1.085867,-0.026826,-2.520403,38.960003,-24.190567,-3.844728,0.255826,1.981307,-0.175919,0.000000,0.000000,0.000000,0.000000,0.000000,0.000000
12745211.000000,-2.272919,-1.662647,1.362744,-1.470972,1.690416,1.427581,-0.587500,0.176894,-0.005157,1.105658,-0.069871,-0.121286,1.078613,-0.023893,-2.445025,38.983807,-24.019974,-3.769350,0.273221,2.047225,-0.202470,0.000000,0.000000,0.000000,0.000000,0.000000,0.000000
12745212.000000,-2.272759,-1.662649,1.363864,-1.471029,1.690311,1.428662,-0.587519,0.166362,-0.003714,1.103308,-0.065915,-0.117053,1.097799,-0.022512,-2.298235,38.983807,-23.972366,-3.820925,0.213712,1.995040,-0.208878,0.000000,0.000000,0.000000,0.000000,0.000000,0.000000
12745213.000000,-2.272607,-1.662650,1.364968,-1.471072,1.690200,1.429772,-0.587546,0.163423,-0.002126,1.104497,-0.059630,-0.111545,1.093713,-0.024149,-2.048296,38.960003,-23.920792,-4.043092,0.213712,1.844894,-0.142960,0.000000,0.000000,0.000000,0.000000,0.000000,0.000000
12745214.000000,-2.272454,-1.662655,1.366091,-1.471124,1.690082,1.430886,-0.587560,0.159747,-0.002129,1.105365,-0.055675,-0.113461,1.098443,-0.020643,-1.849932,38.983807,-23.972366,-4.118471,0.255826,1.714889,-0.196061,0.000000,0.000000,0.000000,0.000000,0.000000,0.000000
12745215.000000,-2.272304,-1.662655,1.367197,-1.471171,1.689972,1.431965,-0.587584,0.153966,-0.000422,1.106245,-0.052768,-0.112464,1.095215,-0.021603,-1.679339,38.936199,-24.071548,-4.189882,0.249418,1.767074,-0.155778,0.000000,0.000000,0.000000,0.000000,0.000000,0.000000
12745216.000000,-2.272148,-1.662661,1.368315,-1.471223,1.689852,1.433047,-0.587597,0.156043,-0.001483,1.107924,-0.053283,-0.113392,1.082156,-0.024531,-1.580157,38.983807,-24.119156,-4.142274,0.267728,1.936446,-0.182328,0.000000,0.000000,0.000000,0.000000,0.000000,0.000000
12745217.000000,-2.271994,-1.662661,1.369439,-1.471280,1.689737,1.434150,-0.587616,0.153229,0.000060,1.106807,-0.055235,-0.115501,1.081851,-0.023413,-1.603961,38.936199,-24.218338,-4.019289,0.327238,1.923629,-0.175919,0.000000,0.000000,0.000000,0.000000,0.000000,0.000000
12745218.000000,-2.271842,-1.662665,1.370531,-1.471332,1.689629,1.435248,-0.587633,0.152609,-0.002628,1.102025,-0.054985,-0.113949,1.089272,-0.023001,-1.580157,38.912395,-24.142960,-3.967714,0.303434,1.812850,-0.155778,0.000000,0.000000,0.000000,0.000000,0.000000,0.000000
12745219.000000,-2.271690,-1.662665,1.371640,-1.471387,1.689526,1.436363,-0.587644,0.153249,-0.000940,1.104370,-0.055862,-0.107923,1.098557,-0.015696,-1.603961,38.864788,-24.119156,-3.868532,0.267728,1.656295,-0.196061,0.000000,0.000000,0.000000,0.000000,0.000000,0.000000
12745220.000000,-2.271543,-1.662663,1.372723,-1.471432,1.689427,1.437445,-0.587664,0.148883,0.000911,1.101652,-0.053971,-0.106892,1.097016,-0.017292,-1.580157,38.789410,-23.948563,-3.868532,0.207303,1.676437,-0.175919,0.000000,0.000000,0.000000,0.000000,0.000000,0.000000
12745221.000000,-2.271399,-1.662667,1.373821,-1.471483,1.689322,1.438532,-0.587678,0.147512,-0.002061,1.097093,-0.051225,-0.109095,1.082706,-0.017348,-1.528582,38.765606,-23.801773,-3.797121,0.201810,1.793624,-0.188737,0.000000,0.000000,0.000000,0.000000,0.000000,0.000000
12745222.000000,-2.271261,-1.662669,1.374917,-1.471525,1.689211,1.439625,-0.587693,0.143888,-0.001756,1.094165,-0.050781,-0.108376,1.074543,-0.017918,-1.453204,38.765606,-23.555801,-3.797121,0.279630,1.871444,-0.182328,0.000000,0.000000,0.000000,0.000000,0.000000,0.000000
12745223.000000,-2.271129,-1.662672,1.376014,-1.471572,1.689108,1.440710,-0.587704,0.136629,-0.000900,1.098904,-0.049554,-0.110214,1.072401,-0.016798,-1.330218,38.741802,-23.579605,-3.697939,0.297025,1.942855,-0.215287,0.000000,0.000000,0.000000,0.000000,0.000000,0.000000
12745224.000000,-2.270999,-1.662669,1.377139,-1.471609,1.689015,1.441820,-0.587721,0.134774,-0.001550,1.103148,-0.046101,-0.104761,1.077895,-0.018117,-1.207232,38.642620,-23.873184,-3.697939,0.255826,1.903487,-0.196061,0.000000,0.000000,0.000000,0.000000,0.000000,0.000000
12745225.000000,-2.270869,-1.662662,1.378265,-1.471649,1.688915,1.442916,-0.587738,0.132713,-0.001748,1.135679,-0.044471,-0.106037,1.080290,-0.019341,-1.060443,38.519634,-24.313553,-3.670168,0.225614,1.825668,-0.169511,0.000000,0.000000,0.000000,0.000000,0.000000,0.000000
12745226.000000,-2.270743,-1.662661,1.379398,-1.471688,1.688813,1.444024,-0.587748,0.131198,-0.000628,1.137485,-0.043654,-0.102586,1.087172,-0.013955,-0.909686,38.472027,-24.734085,-3.622560,0.207303,1.735030,-0.182328,0.000000,0.000000,0.000000,0.000000,0.000000,0.000000
12745227.000000,-2.270618,-1.662665,1.380525,-1.471726,1.688703,1.445117,-0.587762,0.128886,-0.002521,1.130901,-0.040474,-0.102423,1.086419,-0.015272,-0.834307,38.543438,-25.003860,-3.547182,0.249418,1.806442,-0.175919,0.000000,0.000000,0.000000,0.000000,0.000000,0.000000
12745228.000000,-2.270491,-1.662672,1.381641,-1.471764,1.688594,1.446187,-0.587773,0.127173,-0.003768,1.127677,-0.038068,-0.102756,1.084294,-0.015334,-0.810504,38.618816,-25.297440,-3.475771,0.308927,1.923629,-0.202470,0.000000,0.000000,0.000000,0.000000,0.000000,0.000000
12745229.000000,-2.270372,-1.662675,1.382758,-1.471800,1.688492,1.447258,-0.587794,0.125575,-0.003869,1.118237,-0.035579,-0.100869,1.079233,-0.013768,-0.735125,38.666424,-25.321243,-3.424196,0.315336,2.092086,-0.142960,0.000000,0.000000,0.000000,0.000000,0.000000,0.000000
12745230.000000,-2.270253,-1.662679,1.383881,-1.471831,1.688388,1.448328,-0.587798,0.124338,-0.003968,1.115352,-0.032994,-0.098903,1.071008,-0.012727,-0.663714,38.717999,-25.345047,-3.400392,0.315336,2.079269,-0.202470,0.000000,0.000000,0.000000,0.000000,0.000000,0.000000
12745231.000000,-2.270133,-1.662690,1.384972,-1.471866,1.688289,1.449432,-0.587811,0.121263,-0.006216,1.105234,-0.035166,-0.097049,1.069733,-0.014924,-0.635943,38.864788,-25.150650,-3.348818,0.291532,1.909896,-0.182328,0.000000,0.000000,0.000000,0.000000,0.000000,0.000000
12745232.000000,-2.270013,-1.662695,1.386064,-1.471904,1.688187,1.450529,-0.587826,0.120420,-0.005917,1.091642,-0.035732,-0.096536,1.068296,-0.016876,-0.663714,38.936199,-24.781693,-3.202028,0.297025,1.825668,-0.155778,0.000000,0.000000,0.000000,0.000000,0.000000,0.000000
12745233.000000,-2.269892,-1.662702,1.387154,-1.471939,1.688083,1.451599,-0.587832,0.119791,-0.005785,1.097727,-0.035641,-0.097098,1.069375,-0.010844,-0.711321,39.011578,-24.559525,-3.079042,0.327238,1.838485,-0.202470,0.000000,0.000000,0.000000,0.000000,0.000000,0.000000
12745234.000000,-2.269776,-1.662710,1.388252,-1.471975,1.687986,1.452674,-0.587850,0.117376,-0.005585,1.091129,-0.035947,-0.100001,1.065806,-0.014635,-0.711321,39.082989,-24.289749,-2.928285,0.297025,1.942855,-0.155778,0.000000,0.000000,0.000000,0.000000,0.000000,0.000000
12745235.000000,-2.269668,-1.662716,1.389352,-1.472004,1.687879,1.453773,-0.587854,0.112387,-0.004880,1.085436,-0.036713,-0.099355,1.070675,-0.013020,-0.687518,39.130596,-24.071548,-2.880678,0.320829,1.897079,-0.221696,0.000000,0.000000,0.000000,0.000000,0.000000,0.000000
12745237.000000,-2.269474,-1.662719,1.391554,-1.472039,1.687683,1.455993,-0.587879,0.101621,-0.001812,1.088822,-0.022010,-0.095621,1.092587,-0.015952,-0.389971,39.011578,-24.019974,-3.055238,0.273221,1.429244,-0.202470,0.000000,0.000000,0.000000,0.000000,0.000000,0.000000
12745238.000000,-2.269373,-1.662720,1.392654,-1.472052,1.687584,1.457069,-0.587894,0.100217,-0.002835,1.094692,-0.020452,-0.093701,1.086749,-0.019210,-0.314593,38.936199,-24.142960,-3.154421,0.225614,1.454879,-0.136552,0.000000,0.000000,0.000000,0.000000,0.000000,0.000000
12745239.000000,-2.269278,-1.662722,1.393751,-1.472062,1.687475,1.458160,-0.587894,0.097365,-0.003702,1.095679,-0.016382,-0.101399,1.080908,-0.011556,-0.167803,38.864788,-24.043777,-3.249635,0.279630,1.552840,-0.208878,0.000000,0.000000,0.000000,0.000000,0.000000,0.000000
12745240.000000,-2.269170,-1.662731,1.394858,-1.472074,1.687358,1.459247,-0.587907,0.101690,-0.007297,1.092146,-0.015667,-0.103889,1.068162,-0.014499,-0.290789,38.912395,-24.043777,-3.249635,0.398649,1.741439,-0.182328,0.000000,0.000000,0.000000,0.000000,0.000000,0.000000
12745241.000000,-2.269072,-1.662736,1.395941,-1.472083,1.687257,1.460327,-0.587921,0.103538,-0.008181,1.086228,-0.015135,-0.100751,1.070171,-0.017086,-0.243182,38.888592,-24.019974,-3.249635,0.393156,1.903487,-0.142960,0.000000,0.000000,0.000000,0.000000,0.000000,0.000000
12745242.000000,-2.268974,-1.662741,1.397041,-1.472091,1.687164,1.461435,-0.587924,0.104845,-0.005682,1.094244,-0.015191,-0.096083,1.075777,-0.010720,-0.191607,38.864788,-24.043777,-3.225832,0.315336,1.903487,-0.196061,0.000000,0.000000,0.000000,0.000000,0.000000,0.000000
12745243.000000,-2.268865,-1.662738,1.398117,-1.472092,1.687070,1.462540,-0.587932,0.102988,-0.001500,1.089179,-0.010241,-0.093776,1.086008,-0.008390,-0.290789,38.741802,-23.948563,-3.277406,0.255826,1.779891,-0.188737,0.000000,0.000000,0.000000,0.000000,0.000000,0.000000
12745244.000000,-2.268764,-1.662740,1.399206,-1.472098,1.686980,1.463656,-0.587938,0.103826,0.000322,1.081738,-0.007817,-0.091830,1.088836,-0.005576,-0.342364,38.666424,-23.825577,-3.277406,0.189908,1.656295,-0.208878,0.000000,0.000000,0.000000,0.000000,0.000000,0.000000
12745245.000000,-2.268659,-1.662739,1.400293,-1.472107,1.686882,1.464760,-0.587950,0.103238,-0.001596,1.079289,-0.007717,-0.092995,1.089134,-0.005247,-0.489153,38.595013,-23.627213,-3.202028,0.201810,1.670028,-0.182328,0.000000,0.000000,0.000000,0.000000,0.000000,0.000000
12745246.000000,-2.268559,-1.662741,1.401378,-1.472112,1.686781,1.465832,-0.587956,0.103750,-0.003358,1.078715,-0.009863,-0.099550,1.088928,-0.007386,-0.588336,38.543438,-23.651016,-3.154421,0.249418,1.838485,-0.215287,0.000000,0.000000,0.000000,0.000000,0.000000,0.000000
12745247.000000,-2.268459,-1.662739,1.402478,-1.472115,1.686684,1.466931,-0.587968,0.101534,-0.001757,1.081660,-0.007897,-0.099422,1.083575,-0.011333,-0.687518,38.495831,-23.750198,-3.126650,0.285123,1.858627,-0.188737,0.000000,0.000000,0.000000,0.000000,0.000000,0.000000
