chaoyuefei/paper-gmrm-data/robot_logs/s2_dq_mrm_max_0.30_log_20260314_172727.csv
# time_ms,q_0,q_1,q_2,q_3,q_4,q_5,q_6,dq_0,dq_1,dq_2,dq_3,dq_4,dq_5,dq_6,tau_J_0,tau_J_1,tau_J_2,tau_J_3,tau_J_4,tau_J_5,tau_J_6,O_dP_EE_c_0,O_dP_EE_c_1,O_dP_EE_c_2,O_dP_EE_c_3,O_dP_EE_c_4,O_dP_EE_c_5
11910930.000000,2.313375,-0.961836,-1.822531,-1.385956,-0.923321,1.666330,0.445884,0.000053,0.001126,-0.000692,0.000260,-0.000784,0.000163,0.000838,0.451093,35.460857,19.251205,12.222776,0.285123,2.196456,0.048385,0.000000,0.000000,0.000000,0.000000,0.000000,0.000000
11910931.000000,2.313373,-0.961840,-1.822531,-1.385956,-0.923319,1.666330,0.445883,-0.000522,-0.001012,-0.000487,0.000173,-0.000082,-0.000129,0.000084,0.474897,35.536236,19.251205,12.222776,0.273221,2.202865,0.061202,0.000000,0.000000,0.000000,0.000000,0.000000,0.000000
11910932.000000,2.313376,-0.961837,-1.822529,-1.385956,-0.923320,1.666331,0.445882,0.000766,-0.000025,0.000307,0.000115,0.000589,0.000389,-0.000453,0.427289,35.508465,19.223434,12.222776,0.255826,2.190048,0.074935,0.000000,0.000000,0.000000,0.000000,0.000000,0.000000
11910933.000000,2.313373,-0.961839,-1.822529,-1.385956,-0.923323,1.666328,0.445886,-0.000603,-0.000666,0.000190,0.000077,-0.000251,0.000259,0.001190,0.474897,35.536236,19.223434,12.222776,0.273221,2.190048,0.034652,0.000000,0.000000,0.000000,0.000000,0.000000,0.000000
11910934.000000,2.313362,-0.961841,-1.822530,-1.385960,-0.923319,1.666325,0.445882,-0.012417,-0.007761,-0.008170,0.002070,-0.001053,0.000648,0.002177,0.054365,35.044292,18.683884,12.270384,0.171598,2.177230,0.127120,0.000000,0.000000,0.000000,0.000000,0.000000,0.000000
11910935.000000,2.313352,-0.961811,-1.822543,-1.385958,-0.923306,1.666330,0.445909,-0.025065,-0.008240,-0.023437,0.003052,-0.000586,-0.001082,0.012967,-1.849932,32.842449,16.870834,12.345762,-0.222994,2.092086,0.081344,0.000000,0.000000,0.000000,0.000000,0.000000,0.000000
11910936.000000,2.313341,-0.961770,-1.822602,-1.385955,-0.923299,1.666327,0.445944,-0.023032,-0.002695,-0.041328,0.004553,-0.000907,0.000551,0.023561,-5.341143,29.073528,13.974716,12.393370,-0.754916,2.047225,0.087753,0.000000,0.000000,0.000000,0.000000,0.000000,0.000000
11910937.000000,2.313304,-0.961766,-1.822703,-1.385940,-0.923333,1.666325,0.445999,-0.020758,0.004671,-0.056810,0.008192,-0.010770,-0.001823,0.031368,-9.375873,24.983257,10.586655,12.198973,-1.059786,2.098495,0.100570,0.000000,0.000000,0.000000,0.000000,0.000000,0.000000
11910938.000000,2.313230,-0.961809,-1.822838,-1.385936,-0.923414,1.666325,0.446073,-0.030989,-0.003950,-0.072159,-0.000657,-0.036607,-0.000391,0.046421,-13.089252,21.313519,7.075607,12.072020,-0.999362,2.196456,0.120712,0.000000,0.000000,0.000000,0.000000,0.000000,0.000000
11910939.000000,2.313139,-0.961899,-1.823006,-1.385944,-0.923534,1.666369,0.446169,-0.035542,-0.023520,-0.094372,-0.008053,-0.063056,0.010699,0.061044,-16.481279,18.373760,4.008896,11.976805,-0.712802,2.033492,0.173812,0.000000,0.000000,0.000000,0.000000,0.000000,0.000000
11910940.000000,2.313035,-0.962026,-1.823169,-1.385953,-0.923682,1.666467,0.446292,-0.044948,-0.045864,-0.097634,-0.012964,-0.094578,0.040912,0.075383,-18.956865,16.318707,1.358749,11.580076,-0.312716,1.513473,0.186630,0.000000,0.000000,0.000000,0.000000,0.000000,0.000000
11910941.000000,2.312938,-0.962176,-1.823329,-1.385986,-0.923841,1.666619,0.446434,-0.047076,-0.078172,-0.102969,-0.024585,-0.122812,0.079507,0.094067,-20.170855,15.168194,-0.410660,10.961180,-0.025240,0.785628,0.199447,0.000000,0.000000,0.000000,0.000000,0.000000,0.000000
11910942.000000,2.312852,-0.962346,-1.823465,-1.386040,-0.924007,1.666800,0.446591,-0.049928,-0.105766,-0.101739,-0.038150,-0.137937,0.118266,0.115573,-20.242266,14.628643,-1.588944,9.997129,0.112089,0.121871,0.160079,0.000000,0.000000,0.000000,0.000000,0.000000,0.000000
11910943.000000,2.312797,-0.962528,-1.823584,-1.386107,-0.924164,1.666997,0.446755,-0.053515,-0.129379,-0.101524,-0.046702,-0.145193,0.143628,0.130653,-19.674944,14.628643,-2.176102,8.612547,0.010465,-0.215958,0.120712,0.000000,0.000000,0.000000,0.000000,0.000000,0.000000
11910944.000000,2.312754,-0.962685,-1.823699,-1.386198,-0.924310,1.667185,0.446916,-0.052300,-0.139440,-0.109459,-0.061457,-0.138552,0.159301,0.137424,-18.560137,14.557232,-2.152298,7.005797,-0.306307,-0.066727,0.193038,0.000000,0.000000,0.000000,0.000000,0.000000,0.000000
11910945.000000,2.312704,-0.962807,-1.823803,-1.386326,-0.924451,1.667384,0.447093,-0.058657,-0.132471,-0.111203,-0.079636,-0.139672,0.168313,0.148888,-16.977190,14.093060,-1.906326,5.498229,-0.754916,0.336105,0.107894,0.000000,0.000000,0.000000,0.000000,0.000000,0.000000
11910946.000000,2.312647,-0.962902,-1.823907,-1.386485,-0.924595,1.667629,0.447264,-0.063309,-0.122460,-0.112728,-0.102081,-0.137358,0.187889,0.154538,-15.243487,13.307537,-1.537369,4.312010,-1.190707,0.700484,0.107894,0.000000,0.000000,0.000000,0.000000,0.000000,0.000000
11910947.000000,2.312567,-0.962955,-1.824006,-1.386702,-0.924770,1.667917,0.447438,-0.077759,-0.102164,-0.111437,-0.136425,-0.150221,0.218539,0.159027,-13.212237,11.962627,-1.196182,3.792296,-1.363741,0.804855,0.087753,0.000000,0.000000,0.000000,0.000000,0.000000,0.000000
11910948.000000,2.312467,-0.963001,-1.824131,-1.386952,-0.924983,1.668241,0.447614,-0.089362,-0.083028,-0.122425,-0.171665,-0.169822,0.250209,0.162860,-11.034198,10.542339,-0.581253,3.546324,-1.274020,0.771896,0.054794,0.000000,0.000000,0.000000,0.000000,0.000000,0.000000
11910949.000000,2.312342,-0.963041,-1.824263,-1.387218,-0.925236,1.668578,0.447779,-0.108398,-0.068963,-0.130115,-0.198090,-0.198089,0.277522,0.161464,-8.756976,9.221233,-0.065506,3.522520,-0.921542,0.771896,0.127120,0.000000,0.000000,0.000000,0.000000,0.000000,0.000000
11910950.000000,2.312194,-0.963096,-1.824398,-1.387503,-0.925519,1.668942,0.447957,-0.125841,-0.061615,-0.135054,-0.224240,-0.225140,0.297808,0.169454,-6.404376,8.142132,0.275680,3.693114,-0.372225,0.778304,0.074935,0.000000,0.000000,0.000000,0.000000,0.000000,0.000000
11910951.000000,2.312052,-0.963162,-1.824541,-1.387809,-0.925800,1.669338,0.448125,-0.137212,-0.063326,-0.139599,-0.252223,-0.239421,0.324708,0.166821,-4.349322,7.384380,0.521652,3.990660,0.052579,0.720626,0.147262,0.000000,0.000000,0.000000,0.000000,0.000000,0.000000
11910952.000000,2.311910,-0.963249,-1.824684,-1.388106,-0.926057,1.669758,0.448299,-0.141365,-0.073097,-0.140272,-0.263822,-0.242075,0.358141,0.168187,-2.591815,7.019390,0.620834,3.990660,0.171598,0.557662,0.147262,0.000000,0.000000,0.000000,0.000000,0.000000,0.000000
11910953.000000,2.311782,-0.963357,-1.824837,-1.388396,-0.926297,1.670201,0.448469,-0.137704,-0.081199,-0.143655,-0.272267,-0.246475,0.382303,0.170007,-1.159625,7.019390,0.843002,3.669310,-0.007845,0.505477,0.114303,0.000000,0.000000,0.000000,0.000000,0.000000,0.000000
11910954.000000,2.311675,-0.963505,-1.824981,-1.388680,-0.926532,1.670641,0.448645,-0.124439,-0.104292,-0.135253,-0.275045,-0.238197,0.405422,0.170972,0.054365,7.824749,1.184189,3.173399,-0.318209,0.648299,0.094161,0.000000,0.000000,0.000000,0.000000,0.000000,0.000000
11910955.000000,2.311577,-0.963680,-1.825119,-1.388951,-0.926765,1.671103,0.448821,-0.111296,-0.127621,-0.132605,-0.266856,-0.226705,0.424035,0.171765,1.216779,9.245037,1.846725,2.383909,-0.551669,0.857040,0.061202,0.000000,0.000000,0.000000,0.000000,0.000000,0.000000
11910956.000000,2.311481,-0.963857,-1.825255,-1.389225,-0.926987,1.671602,0.448989,-0.106507,-0.142452,-0.132644,-0.276542,-0.220713,0.447109,0.170749,2.430768,10.812115,2.779037,1.594420,-0.736605,0.954086,0.074935,0.000000,0.000000,0.000000,0.000000,0.000000,0.000000
11910957.000000,2.311382,-0.964023,-1.825392,-1.389518,-0.927224,1.672132,0.449159,-0.104668,-0.153744,-0.132949,-0.279709,-0.222291,0.471029,0.170348,3.692365,12.208599,3.909714,0.975523,-0.743014,0.876266,0.067611,0.000000,0.000000,0.000000,0.000000,0.000000,0.000000
11910958.000000,2.311287,-0.964182,-1.825527,-1.389834,-0.927477,1.672708,0.449329,-0.102988,-0.156990,-0.137807,-0.289403,-0.232082,0.496350,0.168100,4.807172,13.307537,4.988815,0.606566,-0.616671,0.564071,0.048385,0.000000,0.000000,0.000000,0.000000,0.000000,0.000000
11910959.000000,2.311186,-0.964321,-1.825657,-1.390161,-0.927739,1.673288,0.449491,-0.104201,-0.149415,-0.135868,-0.301696,-0.238007,0.513933,0.162059,5.874372,13.847088,5.849716,0.332823,-0.419833,0.271102,0.094161,0.000000,0.000000,0.000000,0.000000,0.000000,0.000000
11910960.000000,2.311096,-0.964440,-1.825791,-1.390503,-0.928001,1.673845,0.449660,-0.099513,-0.139494,-0.138300,-0.311705,-0.246187,0.528831,0.165491,6.687665,13.894695,6.583664,0.158263,-0.216586,0.180465,0.054794,0.000000,0.000000,0.000000,0.000000,0.000000,0.000000
11910961.000000,2.311016,-0.964555,-1.825925,-1.390852,-0.928262,1.674391,0.449821,-0.095209,-0.132822,-0.138373,-0.323303,-0.253326,0.526939,0.164578,7.282758,13.652691,7.099411,-0.012331,0.010465,0.304061,0.107894,0.000000,0.000000,0.000000,0.000000,0.000000,0.000000
11910962.000000,2.310952,-0.964661,-1.826062,-1.391217,-0.928521,1.674929,0.449998,-0.084569,-0.123612,-0.142232,-0.330740,-0.253962,0.530986,0.167895,7.532697,13.013958,7.468369,-0.163088,0.129484,0.446883,0.048385,0.000000,0.000000,0.000000,0.000000,0.000000,0.000000
11910963.000000,2.310895,-0.964775,-1.826208,-1.391598,-0.928779,1.675463,0.450167,-0.073494,-0.118568,-0.140513,-0.343229,-0.258064,0.525154,0.168373,7.604108,12.379192,7.738144,-0.309877,0.081876,0.583297,0.048385,0.000000,0.000000,0.000000,0.000000,0.000000,0.000000
11910964.000000,2.310848,-0.964892,-1.826360,-1.391967,-0.929032,1.675998,0.450332,-0.061808,-0.115495,-0.145243,-0.350359,-0.254274,0.529272,0.166901,7.481122,11.716656,7.936508,-0.555849,-0.043551,0.635482,0.107894,0.000000,0.000000,0.000000,0.000000,0.000000,0.000000
11910965.000000,2.310805,-0.965035,-1.826516,-1.392352,-0.929285,1.676517,0.450514,-0.056453,-0.122718,-0.148877,-0.355910,-0.249906,0.527577,0.174628,7.306562,11.423077,8.107101,-0.853395,-0.204684,0.694076,0.048385,0.000000,0.000000,0.000000,0.000000,0.000000,0.000000
11910966.000000,2.310774,-0.965204,-1.826681,-1.392739,-0.929539,1.677034,0.450678,-0.045848,-0.140752,-0.151297,-0.363311,-0.251317,0.516943,0.171958,6.937604,11.423077,8.253891,-1.250124,-0.264193,0.727035,0.107894,0.000000,0.000000,0.000000,0.000000,0.000000,0.000000
11910967.000000,2.310744,-0.965404,-1.826853,-1.393125,-0.929810,1.677544,0.450848,-0.040095,-0.158865,-0.160475,-0.363266,-0.257746,0.515103,0.167056,6.493268,11.768230,8.452255,-1.595277,-0.187289,0.739852,0.094161,0.000000,0.000000,0.000000,0.000000,0.000000,0.000000
11910968.000000,2.310713,-0.965632,-1.827019,-1.393512,-0.930096,1.678063,0.451018,-0.037516,-0.180128,-0.161979,-0.358224,-0.268310,0.507598,0.175943,5.822797,12.474407,8.523666,-1.619081,-0.067355,0.654708,0.100570,0.000000,0.000000,0.000000,0.000000,0.000000,0.000000
11910969.000000,2.310669,-0.965876,-1.827186,-1.393888,-0.930387,1.678596,0.451199,-0.040600,-0.199485,-0.161430,-0.361043,-0.273129,0.513781,0.181084,5.057111,13.406719,8.523666,-1.349306,0.100187,0.499068,0.048385,0.000000,0.000000,0.000000,0.000000,0.000000,0.000000
11910970.000000,2.310620,-0.966128,-1.827353,-1.394271,-0.930674,1.679120,0.451372,-0.040632,-0.216753,-0.163247,-0.362230,-0.272571,0.518202,0.178737,4.041486,14.509624,8.575241,-0.631227,0.189908,0.343429,0.054794,0.000000,0.000000,0.000000,0.000000,0.000000,0.000000
11910971.000000,2.310560,-0.966393,-1.827518,-1.394641,-0.930943,1.679652,0.451537,-0.048065,-0.230621,-0.158246,-0.365146,-0.273204,0.527319,0.175052,3.049665,15.854534,8.646652,0.332823,0.201810,0.245467,0.094161,0.000000,0.000000,0.000000,0.000000,0.000000,0.000000
11910972.000000,2.310487,-0.966662,-1.827670,-1.395015,-0.931227,1.680177,0.451713,-0.053554,-0.241246,-0.149867,-0.367367,-0.276142,0.534735,0.179862,2.260175,17.421612,8.817245,1.618224,0.231107,0.329696,0.054794,0.000000,0.000000,0.000000,0.000000,0.000000,0.000000
11910973.000000,2.310403,-0.966932,-1.827812,-1.395399,-0.931507,1.680684,0.451881,-0.059593,-0.249043,-0.146960,-0.372260,-0.274417,0.526092,0.169929,1.688886,19.135479,9.138596,3.149595,0.154203,0.505477,0.127120,0.000000,0.000000,0.000000,0.000000,0.000000,0.000000
11910974.000000,2.310306,-0.967198,-1.827954,-1.395780,-0.931763,1.681202,0.452049,-0.067716,-0.252732,-0.144682,-0.385425,-0.269576,0.519322,0.171614,1.415143,20.944561,9.630539,4.780150,-0.025240,0.700484,0.087753,0.000000,0.000000,0.000000,0.000000,0.000000,0.000000
11910975.000000,2.310206,-0.967442,-1.828086,-1.396179,-0.932017,1.681720,0.452220,-0.075885,-0.247769,-0.141957,-0.391970,-0.261428,0.513265,0.171406,1.292158,22.464031,10.118515,6.438475,-0.204684,0.824081,0.074935,0.000000,0.000000,0.000000,0.000000,0.000000,0.000000
11910976.000000,2.310107,-0.967682,-1.828225,-1.396592,-0.932276,1.682243,0.452385,-0.082529,-0.246506,-0.140061,-0.398969,-0.263439,0.515746,0.165837,1.216779,23.832745,10.757248,8.045225,-0.276095,0.987045,0.133529,0.000000,0.000000,0.000000,0.000000,0.000000,0.000000
11910977.000000,2.310004,-0.967928,-1.828366,-1.397008,-0.932541,1.682748,0.452566,-0.091984,-0.248558,-0.141058,-0.409062,-0.264243,0.506102,0.168750,1.216779,25.034832,11.372177,9.477415,-0.270602,1.234237,0.087753,0.000000,0.000000,0.000000,0.000000,0.000000,0.000000
11910978.000000,2.309892,-0.968177,-1.828517,-1.397423,-0.932817,1.683233,0.452736,-0.097441,-0.251807,-0.150046,-0.409904,-0.264160,0.499256,0.168353,1.315961,26.157574,12.058517,10.540648,-0.138766,1.481429,0.120712,0.000000,0.000000,0.000000,0.000000,0.000000,0.000000
11910979.000000,2.309782,-0.968437,-1.828685,-1.397850,-0.933089,1.683722,0.452910,-0.101978,-0.251985,-0.155071,-0.413950,-0.264598,0.494784,0.170423,1.442914,27.189068,12.844040,11.528502,0.004056,1.702071,0.081344,0.000000,0.000000,0.000000,0.000000,0.000000,0.000000
11910980.000000,2.309669,-0.968705,-1.828855,-1.398278,-0.933356,1.684211,0.453083,-0.105936,-0.256274,-0.158450,-0.416842,-0.263204,0.490162,0.169496,1.613508,28.216595,13.506577,12.246580,0.117582,1.714889,0.094161,0.000000,0.000000,0.000000,0.000000,0.000000,0.000000
11910981.000000,2.309552,-0.968990,-1.829030,-1.398698,-0.933621,1.684716,0.453253,-0.111439,-0.263204,-0.164588,-0.417842,-0.262822,0.490822,0.169689,1.788068,29.244122,14.145309,12.591734,0.123990,1.605026,0.094161,0.000000,0.000000,0.000000,0.000000,0.000000,0.000000
11910982.000000,2.309434,-0.969296,-1.829214,-1.399107,-0.933883,1.685204,0.453420,-0.113936,-0.275860,-0.166903,-0.412365,-0.263444,0.483285,0.169649,2.034040,30.319256,14.684860,12.591734,0.022367,1.559249,0.107894,0.000000,0.000000,0.000000,0.000000,0.000000,0.000000
11910983.000000,2.309315,-0.969616,-1.829401,-1.399511,-0.934149,1.685665,0.453589,-0.112306,-0.290402,-0.178109,-0.404077,-0.260553,0.478035,0.168942,2.283979,31.469769,15.176804,12.421141,-0.037142,1.630660,0.127120,0.000000,0.000000,0.000000,0.000000,0.000000,0.000000
11910984.000000,2.309194,-0.969938,-1.829597,-1.399914,-0.934414,1.686125,0.453761,-0.114672,-0.300511,-0.184094,-0.399957,-0.260543,0.470573,0.165330,2.553754,32.497295,15.569565,12.072020,-0.060946,1.767074,0.107894,0.000000,0.000000,0.000000,0.000000,0.000000,0.000000
11910985.000000,2.309063,-0.970266,-1.829798,-1.400312,-0.934673,1.686586,0.453928,-0.121097,-0.308797,-0.184857,-0.398411,-0.254122,0.466427,0.166016,2.902875,33.382000,15.910751,11.750669,-0.133273,1.779891,0.114303,0.000000,0.000000,0.000000,0.000000,0.000000,0.000000
11910986.000000,2.308932,-0.970579,-1.830010,-1.400709,-0.934950,1.687070,0.454097,-0.125157,-0.309450,-0.191904,-0.393893,-0.259922,0.471998,0.167392,3.224226,33.869976,16.378891,11.405516,-0.174471,1.682845,0.107894,0.000000,0.000000,0.000000,0.000000,0.000000,0.000000
11910987.000000,2.308809,-0.970888,-1.830228,-1.401102,-0.935230,1.687554,0.454261,-0.126152,-0.306485,-0.198958,-0.394853,-0.267471,0.471569,0.167824,3.470197,34.163555,16.795456,11.183348,-0.133273,1.572067,0.114303,0.000000,0.000000,0.000000,0.000000,0.000000,0.000000
11910988.000000,2.308687,-0.971190,-1.830456,-1.401490,-0.935520,1.688013,0.454427,-0.125857,-0.299885,-0.210011,-0.389148,-0.269322,0.467733,0.164406,3.668561,34.238934,17.287399,10.885801,-0.049044,1.552840,0.114303,0.000000,0.000000,0.000000,0.000000,0.000000,0.000000
11910989.000000,2.308568,-0.971487,-1.830700,-1.401870,-0.935803,1.688476,0.454588,-0.126393,-0.296345,-0.220346,-0.386839,-0.271737,0.458632,0.160829,3.791547,34.211163,17.874557,10.592222,0.100187,1.662704,0.120712,0.000000,0.000000,0.000000,0.000000,0.000000,0.000000
11910990.000000,2.308455,-0.971764,-1.830950,-1.402244,-0.936093,1.688944,0.454759,-0.122883,-0.297027,-0.228366,-0.380287,-0.273498,0.466231,0.164537,3.819318,33.941387,18.465683,10.342283,0.219205,1.727706,0.094161,0.000000,0.000000,0.000000,0.000000,0.000000,0.000000
11910991.000000,2.308343,-0.972041,-1.831194,-1.402621,-0.936383,1.689406,0.454934,-0.120233,-0.286951,-0.232248,-0.376529,-0.280135,0.469624,0.167020,3.843122,33.624004,18.981430,10.219297,0.237516,1.806442,0.061202,0.000000,0.000000,0.000000,0.000000,0.000000,0.000000
11910992.000000,2.308240,-0.972326,-1.831445,-1.402994,-0.936668,1.689881,0.455094,-0.116538,-0.280977,-0.239433,-0.382905,-0.280329,0.470778,0.165695,3.791547,33.477215,19.421799,10.120115,0.243009,1.793624,0.114303,0.000000,0.000000,0.000000,0.000000,0.000000,0.000000
11910993.000000,2.308132,-0.972616,-1.831698,-1.403361,-0.936945,1.690347,0.455270,-0.111453,-0.282011,-0.241261,-0.375054,-0.281801,0.468158,0.168194,3.767744,33.405804,19.814560,9.997129,0.159696,1.754256,0.067611,0.000000,0.000000,0.000000,0.000000,0.000000,0.000000
11910994.000000,2.308029,-0.972911,-1.831961,-1.403739,-0.937233,1.690808,0.455432,-0.109238,-0.284862,-0.247600,-0.371494,-0.282364,0.468842,0.166637,3.668561,33.453411,20.254929,9.921751,0.166105,1.871444,0.127120,0.000000,0.000000,0.000000,0.000000,0.000000,0.000000
11910995.000000,2.307927,-0.973214,-1.832220,-1.404105,-0.937529,1.691263,0.455602,-0.106480,-0.291419,-0.248127,-0.365045,-0.284880,0.464841,0.168331,3.644758,33.675579,20.524704,9.822569,0.243009,2.014266,0.107894,0.000000,0.000000,0.000000,0.000000,0.000000,0.000000
11910996.000000,2.307839,-0.973520,-1.832489,-1.404483,-0.937824,1.691718,0.455774,-0.099173,-0.296135,-0.251126,-0.369908,-0.284693,0.460938,0.171191,3.398786,33.917583,20.893661,9.798765,0.279630,2.060043,0.041976,0.000000,0.000000,0.000000,0.000000,0.000000,0.000000
11910997.000000,2.307746,-0.973826,-1.832753,-1.404863,-0.938113,1.692193,0.455932,-0.097039,-0.299008,-0.250851,-0.369547,-0.285201,0.461709,0.167702,3.271833,34.040569,21.163437,9.798765,0.315336,1.988631,0.120712,0.000000,0.000000,0.000000,0.000000,0.000000,0.000000
11910998.000000,2.307661,-0.974130,-1.833012,-1.405239,-0.938406,1.692661,0.456104,-0.090448,-0.303647,-0.254497,-0.374874,-0.291690,0.460087,0.169796,3.073469,34.238934,21.337997,9.822569,0.398649,1.851302,0.074935,0.000000,0.000000,0.000000,0.000000,0.000000,0.000000
11910999.000000,2.307588,-0.974442,-1.833274,-1.405624,-0.938694,1.693133,0.456268,-0.082348,-0.305055,-0.251898,-0.377106,-0.290845,0.460502,0.167749,2.728315,34.357952,21.508591,9.921751,0.327238,1.779891,0.107894,0.000000,0.000000,0.000000,0.000000,0.000000,0.000000
11911000.000000,2.307516,-0.974762,-1.833529,-1.406003,-0.938987,1.693595,0.456441,-0.077802,-0.307989,-0.250440,-0.379115,-0.290398,0.458726,0.170141,2.430768,34.556316,21.556198,9.997129,0.374845,1.890670,0.061202,0.000000,0.000000,0.000000,0.000000,0.000000,0.000000
11911001.000000,2.307454,-0.975067,-1.833781,-1.406388,-0.939283,1.694044,0.456604,-0.072340,-0.309642,-0.249002,-0.378417,-0.289343,0.457800,0.169367,2.034040,34.603924,21.556198,10.072508,0.422452,2.007858,0.074935,0.000000,0.000000,0.000000,0.000000,0.000000,0.000000
11911002.000000,2.307405,-0.975378,-1.834041,-1.406777,-0.939553,1.694514,0.456772,-0.062551,-0.309866,-0.249314,-0.380562,-0.290836,0.453880,0.170608,1.514325,34.627728,21.607773,10.171690,0.315336,2.066451,0.061202,0.000000,0.000000,0.000000,0.000000,0.000000,0.000000
11911003.000000,2.307351,-0.975681,-1.834292,-1.407170,-0.939846,1.694980,0.456937,-0.058642,-0.306392,-0.243888,-0.382925,-0.288179,0.454411,0.165516,1.121564,34.580120,21.532394,10.342283,0.297025,2.060043,0.054794,0.000000,0.000000,0.000000,0.000000,0.000000,0.000000
11911004.000000,2.307301,-0.975985,-1.834534,-1.407569,-0.940145,1.695450,0.457097,-0.056408,-0.307793,-0.243237,-0.384737,-0.286596,0.460187,0.170098,0.748639,34.433331,21.457016,10.540648,0.285123,2.020675,0.087753,0.000000,0.000000,0.000000,0.000000,0.000000,0.000000
11911005.000000,2.307263,-0.976298,-1.834781,-1.407972,-0.940429,1.695933,0.457263,-0.051676,-0.305383,-0.243370,-0.387717,-0.285343,0.469368,0.166430,0.252729,34.385723,21.409409,10.786619,0.273221,1.974899,0.061202,0.000000,0.000000,0.000000,0.000000,0.000000,0.000000
11911006.000000,2.307220,-0.976601,-1.835018,-1.408377,-0.940725,1.696399,0.457425,-0.048098,-0.307510,-0.238695,-0.386980,-0.290700,0.464321,0.165119,-0.116229,34.357952,21.286423,10.984983,0.327238,2.001449,0.133529,0.000000,0.000000,0.000000,0.000000,0.000000,0.000000
11911007.000000,2.307191,-0.976911,-1.835254,-1.408792,-0.941022,1.696871,0.457599,-0.042375,-0.307473,-0.238069,-0.394453,-0.302702,0.467689,0.168560,-0.612139,34.310345,21.139633,11.183348,0.374845,2.066451,0.081344,0.000000,0.000000,0.000000,0.000000,0.000000,0.000000
11911008.000000,2.307160,-0.977227,-1.835486,-1.409193,-0.941320,1.697347,0.457768,-0.040736,-0.307307,-0.233524,-0.393437,-0.301712,0.475719,0.164546,-1.008868,34.480938,20.945236,11.357908,0.369352,2.066451,0.067611,0.000000,0.000000,0.000000,0.000000,0.000000,0.000000
11911009.000000,2.307126,-0.977553,-1.835714,-1.409615,-0.941619,1.697815,0.457935,-0.037557,-0.320363,-0.230084,-0.399011,-0.296809,0.477453,0.164254,-1.354022,34.703106,20.746872,11.627684,0.381254,1.988631,0.107894,0.000000,0.000000,0.000000,0.000000,0.000000,0.000000
11911010.000000,2.307095,-0.977885,-1.835938,-1.410016,-0.941905,1.698293,0.458107,-0.036195,-0.322808,-0.228385,-0.405249,-0.291517,0.476309,0.166814,-1.651568,34.921307,20.600082,11.726866,0.339139,1.968490,0.081344,0.000000,0.000000,0.000000,0.000000,0.000000,0.000000
11911011.000000,2.307074,-0.978221,-1.836148,-1.410432,-0.942194,1.698760,0.458274,-0.032355,-0.326026,-0.221954,-0.405556,-0.292840,0.471753,0.167088,-2.048296,35.314068,20.354111,11.877623,0.315336,1.923629,0.087753,0.000000,0.000000,0.000000,0.000000,0.000000,0.000000
11911012.000000,2.307041,-0.978568,-1.836355,-1.410843,-0.942496,1.699234,0.458441,-0.030862,-0.333707,-0.217618,-0.400147,-0.295154,0.475983,0.168622,-2.270464,35.706829,20.131943,12.000608,0.315336,1.923629,0.067611,0.000000,0.000000,0.000000,0.000000,0.000000,0.000000
11911013.000000,2.307024,-0.978918,-1.836566,-1.411252,-0.942790,1.699708,0.458610,-0.025708,-0.339128,-0.215799,-0.398778,-0.291557,0.475163,0.167642,-2.643389,36.071819,19.961349,12.099791,0.303434,1.923629,0.100570,0.000000,0.000000,0.000000,0.000000,0.000000,0.000000
11911014.000000,2.306994,-0.979264,-1.836763,-1.411665,-0.943078,1.700172,0.458781,-0.029511,-0.344765,-0.210412,-0.397127,-0.287580,0.471645,0.169335,-2.817950,36.365398,19.766953,12.246580,0.279630,1.871444,0.087753,0.000000,0.000000,0.000000,0.000000,0.000000,0.000000
11911015.000000,2.306968,-0.979619,-1.836968,-1.412083,-0.943359,1.700657,0.458944,-0.025814,-0.343781,-0.204212,-0.400702,-0.285907,0.469199,0.168852,-3.012347,36.635174,19.643967,12.369566,0.267728,1.786300,0.107894,0.000000,0.000000,0.000000,0.000000,0.000000,0.000000
11911016.000000,2.306935,-0.979964,-1.837172,-1.412495,-0.943650,1.701129,0.459117,-0.029001,-0.343047,-0.205966,-0.401128,-0.283671,0.464601,0.169927,-3.063921,36.857342,19.544785,12.567930,0.231107,1.786300,0.081344,0.000000,0.000000,0.000000,0.000000,0.000000,0.000000
11911017.000000,2.306902,-0.980321,-1.837372,-1.412911,-0.943942,1.701605,0.459282,-0.030438,-0.346592,-0.205532,-0.402831,-0.283086,0.466007,0.165054,-3.139300,37.099346,19.469406,12.714720,0.213712,1.793624,0.087753,0.000000,0.000000,0.000000,0.000000,0.000000,0.000000
11911018.000000,2.306863,-0.980674,-1.837571,-1.413322,-0.944228,1.702082,0.459448,-0.034282,-0.347423,-0.201751,-0.403011,-0.283225,0.465460,0.165967,-3.087725,37.273907,19.421799,12.889280,0.213712,1.838485,0.100570,0.000000,0.000000,0.000000,0.000000,0.000000,0.000000
11911019.000000,2.306825,-0.981017,-1.837767,-1.413737,-0.944511,1.702545,0.459616,-0.036043,-0.345377,-0.199958,-0.405557,-0.282257,0.461042,0.167139,-3.063921,37.321514,19.397995,12.988462,0.207303,1.877853,0.094161,0.000000,0.000000,0.000000,0.000000,0.000000,0.000000
11911020.000000,2.306782,-0.981370,-1.837967,-1.414160,-0.944794,1.703019,0.459785,-0.039579,-0.344420,-0.201921,-0.407583,-0.285886,0.461633,0.167178,-2.940936,37.420696,19.397995,13.286009,0.171598,1.916305,0.114303,0.000000,0.000000,0.000000,0.000000,0.000000,0.000000
11911021.000000,2.306730,-0.981718,-1.838168,-1.414571,-0.945079,1.703492,0.459961,-0.043651,-0.346205,-0.203903,-0.408747,-0.283672,0.460568,0.169052,-2.742571,37.591290,19.397995,13.432798,0.129484,1.890670,0.074935,0.000000,0.000000,0.000000,0.000000,0.000000,0.000000
11911022.000000,2.306680,-0.982076,-1.838370,-1.414984,-0.945371,1.703966,0.460128,-0.044979,-0.349181,-0.202844,-0.407743,-0.284337,0.464068,0.167607,-2.591815,37.809490,19.445602,13.555784,0.154203,1.877853,0.120712,0.000000,0.000000,0.000000,0.000000,0.000000,0.000000
11911023.000000,2.306621,-0.982437,-1.838578,-1.415392,-0.945650,1.704437,0.460298,-0.051339,-0.349436,-0.202043,-0.405695,-0.279363,0.464157,0.167606,-2.345843,38.103069,19.520981,13.654966,0.159696,1.930038,0.140853,0.000000,0.000000,0.000000,0.000000,0.000000,0.000000
11911024.000000,2.306561,-0.982797,-1.838785,-1.415796,-0.945936,1.704898,0.460476,-0.055937,-0.355014,-0.201665,-0.403087,-0.283543,0.461986,0.171779,-2.099871,38.349041,19.592392,13.678770,0.147794,1.916305,0.067611,0.000000,0.000000,0.000000,0.000000,0.000000,0.000000
11911025.000000,2.306497,-0.983161,-1.838998,-1.416197,-0.946235,1.705369,0.460638,-0.059685,-0.354776,-0.201853,-0.401086,-0.287958,0.466381,0.164564,-1.826129,38.595013,19.691574,13.631163,0.189908,1.844894,0.120712,0.000000,0.000000,0.000000,0.000000,0.000000,0.000000
11911026.000000,2.306431,-0.983525,-1.839211,-1.416587,-0.946521,1.705839,0.460811,-0.059064,-0.360753,-0.206564,-0.399066,-0.291207,0.468147,0.163328,-1.552386,38.912395,19.838364,13.531981,0.189908,1.825668,0.074935,0.000000,0.000000,0.000000,0.000000,0.000000,0.000000
11911027.000000,2.306361,-0.983900,-1.839423,-1.416972,-0.946808,1.706293,0.460982,-0.063044,-0.364198,-0.205856,-0.392594,-0.291909,0.463771,0.164703,-1.231036,39.205975,19.961349,13.309813,0.154203,1.844894,0.081344,0.000000,0.000000,0.000000,0.000000,0.000000,0.000000
11911028.000000,2.306290,-0.984274,-1.839647,-1.417346,-0.947094,1.706754,0.461146,-0.065148,-0.365138,-0.210982,-0.383716,-0.293650,0.457918,0.164633,-0.933489,39.475750,20.207321,13.063841,0.135892,1.916305,0.120712,0.000000,0.000000,0.000000,0.000000,0.000000,0.000000
11911029.000000,2.306213,-0.984648,-1.839863,-1.417729,-0.947397,1.707204,0.461317,-0.070958,-0.365327,-0.214466,-0.383099,-0.296285,0.455818,0.167627,-0.588336,39.693951,20.330307,12.865477,0.154203,1.942855,0.067611,0.000000,0.000000,0.000000,0.000000,0.000000,0.000000
11911030.000000,2.306136,-0.985016,-1.840090,-1.418113,-0.947690,1.707666,0.461480,-0.074179,-0.360364,-0.217137,-0.381449,-0.295345,0.457255,0.163112,-0.290789,39.840740,20.552475,12.690916,0.100187,1.877853,0.074935,0.000000,0.000000,0.000000,0.000000,0.000000,0.000000
11911031.000000,2.306055,-0.985375,-1.840329,-1.418491,-0.947983,1.708135,0.461643,-0.077060,-0.356151,-0.220471,-0.384343,-0.291662,0.462277,0.164712,0.030561,39.793133,20.846054,12.544127,0.088285,1.838485,0.074935,0.000000,0.000000,0.000000,0.000000,0.000000,0.000000
11911032.000000,2.305961,-0.985729,-1.840564,-1.418864,-0.948285,1.708590,0.461809,-0.081989,-0.354031,-0.224475,-0.376404,-0.295547,0.459175,0.161255,0.474897,39.769329,21.064255,12.345762,0.141385,1.844894,0.074935,0.000000,0.000000,0.000000,0.000000,0.000000,0.000000
11911033.000000,2.305877,-0.986078,-1.840810,-1.419234,-0.948589,1.709055,0.461972,-0.085380,-0.350062,-0.226851,-0.373847,-0.292464,0.460372,0.159122,0.772443,39.693951,21.409409,12.171202,0.154203,1.871444,0.061202,0.000000,0.000000,0.000000,0.000000,0.000000,0.000000
11911034.000000,2.305788,-0.986424,-1.841045,-1.419604,-0.948906,1.709512,0.462128,-0.088359,-0.348568,-0.230857,-0.372740,-0.298149,0.462414,0.158290,1.093793,39.622540,21.607773,12.072020,0.249418,1.890670,0.147262,0.000000,0.000000,0.000000,0.000000,0.000000,0.000000
11911035.000000,2.305688,-0.986763,-1.841281,-1.419963,-0.949217,1.709965,0.462297,-0.089871,-0.347398,-0.232836,-0.365948,-0.299297,0.458903,0.166972,1.514325,39.547161,21.849777,11.877623,0.267728,1.930038,0.100570,0.000000,0.000000,0.000000,0.000000,0.000000,0.000000
11911036.000000,2.305598,-0.987098,-1.841530,-1.420313,-0.949515,1.710431,0.462467,-0.090445,-0.339972,-0.235380,-0.360250,-0.297449,0.461505,0.169117,1.788068,39.305157,22.147324,11.603880,0.207303,1.955673,0.067611,0.000000,0.000000,0.000000,0.000000,0.000000,0.000000
11911037.000000,2.305508,-0.987426,-1.841775,-1.420667,-0.949832,1.710887,0.462626,-0.089691,-0.336387,-0.236341,-0.350893,-0.302452,0.459355,0.167790,2.010236,39.130596,22.393295,11.457090,0.213712,1.962081,0.107894,0.000000,0.000000,0.000000,0.000000,0.000000,0.000000
11911038.000000,2.305418,-0.987768,-1.842023,-1.421012,-0.950146,1.711345,0.462798,-0.089427,-0.336549,-0.236244,-0.347957,-0.314594,0.456856,0.169936,2.208601,38.983807,22.611496,11.135740,0.225614,1.968490,0.067611,0.000000,0.000000,0.000000,0.000000,0.000000,0.000000
11911039.000000,2.305328,-0.988107,-1.842278,-1.421349,-0.950453,1.711794,0.462959,-0.089159,-0.340509,-0.241087,-0.343205,-0.310956,0.461222,0.168775,2.406965,38.912395,22.881271,10.838194,0.213712,2.007858,0.094161,0.000000,0.000000,0.000000,0.000000,0.000000,0.000000
11911040.000000,2.305242,-0.988441,-1.842530,-1.421687,-0.950773,1.712244,0.463126,-0.086515,-0.339758,-0.243423,-0.340277,-0.315675,0.454089,0.164656,2.506147,38.741802,23.103439,10.493040,0.291532,2.020675,0.087753,0.000000,0.000000,0.000000,0.000000,0.000000,0.000000
11911041.000000,2.305156,-0.988779,-1.842781,-1.422027,-0.951096,1.712698,0.463292,-0.089158,-0.338409,-0.245056,-0.345600,-0.318487,0.453683,0.166726,2.652936,38.543438,23.349411,10.342283,0.344633,2.027084,0.067611,0.000000,0.000000,0.000000,0.000000,0.000000,0.000000
11911042.000000,2.305076,-0.989109,-1.843023,-1.422357,-0.951422,1.713154,0.463455,-0.088286,-0.335283,-0.244633,-0.340901,-0.319388,0.455497,0.161363,2.680707,38.349041,23.496201,10.072508,0.393156,1.981307,0.100570,0.000000,0.000000,0.000000,0.000000,0.000000,0.000000
11911043.000000,2.304993,-0.989446,-1.843273,-1.422697,-0.951733,1.713608,0.463626,-0.085112,-0.335742,-0.243997,-0.336057,-0.314620,0.454818,0.164760,2.728315,38.178448,23.619186,9.949522,0.393156,1.955673,0.067611,0.000000,0.000000,0.000000,0.000000,0.000000,0.000000
11911044.000000,2.304912,-0.989770,-1.843524,-1.423024,-0.952054,1.714067,0.463789,-0.082792,-0.330121,-0.243822,-0.332129,-0.316054,0.453975,0.166205,2.752119,37.984051,23.742172,9.822569,0.398649,1.968490,0.081344,0.000000,0.000000,0.000000,0.000000,0.000000,0.000000
11911045.000000,2.304838,-0.990105,-1.843766,-1.423364,-0.952382,1.714517,0.463961,-0.079231,-0.331719,-0.241279,-0.329580,-0.316396,0.448569,0.167941,2.704511,37.908672,23.765976,9.798765,0.398649,1.974899,0.061202,0.000000,0.000000,0.000000,0.000000,0.000000,0.000000
11911046.000000,2.304766,-0.990441,-1.844017,-1.423701,-0.952703,1.714964,0.464119,-0.076752,-0.329470,-0.240976,-0.334213,-0.317332,0.447763,0.166986,2.652936,37.861065,23.865158,9.822569,0.405057,2.007858,0.100570,0.000000,0.000000,0.000000,0.000000,0.000000,0.000000
11911047.000000,2.304692,-0.990755,-1.844263,-1.424030,-0.953016,1.715412,0.464284,-0.075666,-0.328627,-0.243181,-0.335967,-0.316253,0.447303,0.168133,2.629133,37.686504,23.960373,9.850340,0.362943,2.060043,0.081344,0.000000,0.000000,0.000000,0.000000,0.000000,0.000000
11911048.000000,2.304621,-0.991082,-1.844497,-1.424368,-0.953344,1.715869,0.464448,-0.074675,-0.325366,-0.243139,-0.335548,-0.317876,0.448498,0.168939,2.581525,37.539715,23.912766,9.949522,0.381254,2.066451,0.074935,0.000000,0.000000,0.000000,0.000000,0.000000,0.000000
11911049.000000,2.304561,-0.991403,-1.844730,-1.424706,-0.953659,1.716331,0.464615,-0.067970,-0.317221,-0.239880,-0.336023,-0.316837,0.455315,0.169447,2.406965,37.420696,23.888962,10.195494,0.339139,2.047225,0.067611,0.000000,0.000000,0.000000,0.000000,0.000000,0.000000
11911050.000000,2.304499,-0.991714,-1.844955,-1.425045,-0.953985,1.716781,0.464781,-0.067321,-0.315234,-0.235116,-0.337512,-0.314366,0.455062,0.173983,2.283979,37.198528,23.742172,10.318480,0.386747,2.047225,0.074935,0.000000,0.000000,0.000000,0.000000,0.000000,0.000000
11911051.000000,2.304440,-0.992033,-1.845193,-1.425393,-0.954297,1.717227,0.464945,-0.066902,-0.314919,-0.232036,-0.339851,-0.317191,0.443725,0.168044,2.160993,37.051739,23.765976,10.540648,0.422452,2.060043,0.081344,0.000000,0.000000,0.000000,0.000000,0.000000,0.000000
11911052.000000,2.304383,-0.992341,-1.845415,-1.425735,-0.954621,1.717668,0.465114,-0.062919,-0.314506,-0.235150,-0.343164,-0.318168,0.445223,0.169259,2.010236,36.857342,23.619186,10.739012,0.428861,2.085677,0.054794,0.000000,0.000000,0.000000,0.000000,0.000000,0.000000
11911053.000000,2.304328,-0.992662,-1.845632,-1.426082,-0.954948,1.718107,0.465280,-0.063446,-0.314958,-0.230962,-0.341008,-0.319182,0.445477,0.171602,1.863447,36.710552,23.420822,10.913572,0.446256,2.137862,0.094161,0.000000,0.000000,0.000000,0.000000,0.000000,0.000000
11911054.000000,2.304276,-0.992986,-1.845845,-1.426430,-0.955264,1.718548,0.465449,-0.059748,-0.314262,-0.220057,-0.342694,-0.317940,0.442517,0.172334,1.688886,36.658978,23.202621,11.183348,0.410551,2.144271,0.067611,0.000000,0.000000,0.000000,0.000000,0.000000,0.000000
11911055.000000,2.304229,-0.993309,-1.846052,-1.426781,-0.955577,1.718990,0.465613,-0.052784,-0.321552,-0.217403,-0.341669,-0.316440,0.442045,0.166778,1.466718,36.658978,23.028061,11.306334,0.374845,2.112228,0.067611,0.000000,0.000000,0.000000,0.000000,0.000000,0.000000
11911056.000000,2.304183,-0.993632,-1.846250,-1.427136,-0.955892,1.719430,0.465772,-0.048931,-0.321679,-0.210105,-0.341281,-0.323196,0.440476,0.163307,1.292158,36.611370,22.786057,11.504698,0.327238,2.085677,0.107894,0.000000,0.000000,0.000000,0.000000,0.000000,0.000000
11911057.000000,2.304133,-0.993948,-1.846455,-1.427485,-0.956207,1.719859,0.465949,-0.047478,-0.327113,-0.209474,-0.342855,-0.316426,0.446529,0.167644,1.169172,36.587566,22.587692,11.655455,0.279630,2.066451,0.034652,0.000000,0.000000,0.000000,0.000000,0.000000,0.000000
11911058.000000,2.304097,-0.994285,-1.846642,-1.427845,-0.956529,1.720294,0.466110,-0.042495,-0.329958,-0.198703,-0.344740,-0.317331,0.441772,0.165781,0.895429,36.682781,22.242538,11.877623,0.285123,2.104903,0.100570,0.000000,0.000000,0.000000,0.000000,0.000000,0.000000
11911059.000000,2.304058,-0.994611,-1.846837,-1.428197,-0.956836,1.720736,0.466273,-0.041686,-0.323678,-0.196340,-0.357253,-0.317900,0.443474,0.161517,0.724836,36.734356,22.000534,12.072020,0.273221,2.118636,0.120712,0.000000,0.000000,0.000000,0.000000,0.000000,0.000000
11911060.000000,2.304023,-0.994935,-1.847020,-1.428553,-0.957160,1.721179,0.466449,-0.036439,-0.325825,-0.193906,-0.353998,-0.322956,0.448448,0.161970,0.502668,36.781963,21.702988,12.222776,0.285123,2.053634,0.034652,0.000000,0.000000,0.000000,0.000000,0.000000,0.000000
11911061.000000,2.303990,-0.995266,-1.847214,-1.428919,-0.957486,1.721631,0.466611,-0.032587,-0.324300,-0.193821,-0.352914,-0.326437,0.446119,0.162993,0.276533,36.881145,21.484787,12.520323,0.320829,2.001449,0.054794,0.000000,0.000000,0.000000,0.000000,0.000000,0.000000
11911062.000000,2.303954,-0.995588,-1.847400,-1.429281,-0.957797,1.722079,0.466777,-0.031808,-0.321520,-0.189945,-0.354250,-0.319648,0.443886,0.160352,0.129743,36.857342,21.262619,12.766294,0.308927,1.974899,0.061202,0.000000,0.000000,0.000000,0.000000,0.000000,0.000000
11911063.000000,2.303923,-0.995914,-1.847579,-1.429646,-0.958108,1.722518,0.466943,-0.030193,-0.318709,-0.187780,-0.352418,-0.322667,0.445795,0.157518,-0.044818,36.833538,21.064255,12.988462,0.279630,1.974899,0.074935,0.000000,0.000000,0.000000,0.000000,0.000000,0.000000
11911064.000000,2.303890,-0.996234,-1.847757,-1.430014,-0.958427,1.722964,0.467113,-0.033300,-0.315617,-0.182319,-0.357418,-0.322252,0.440654,0.161456,-0.167803,36.781963,20.869858,13.135252,0.279630,2.014266,0.054794,0.000000,0.000000,0.000000,0.000000,0.000000,0.000000
11911065.000000,2.303859,-0.996547,-1.847935,-1.430386,-0.958742,1.723406,0.467281,-0.032193,-0.318068,-0.188156,-0.358782,-0.321025,0.439225,0.165904,-0.290789,36.635174,20.699265,13.333616,0.255826,2.007858,0.107894,0.000000,0.000000,0.000000,0.000000,0.000000,0.000000
11911066.000000,2.303827,-0.996858,-1.848108,-1.430770,-0.959052,1.723857,0.467454,-0.032057,-0.312885,-0.182045,-0.365754,-0.313938,0.442705,0.171697,-0.389971,36.317791,20.477097,13.654966,0.195402,2.001449,0.081344,0.000000,0.000000,0.000000,0.000000,0.000000,0.000000
11911067.000000,2.303790,-0.997171,-1.848282,-1.431142,-0.959365,1.724302,0.467621,-0.033408,-0.315670,-0.180189,-0.367510,-0.315570,0.444275,0.171697,-0.413775,36.123394,20.231125,13.805723,0.195402,2.027084,0.067611,0.000000,0.000000,0.000000,0.000000,0.000000,0.000000
11911068.000000,2.303754,-0.997486,-1.848452,-1.431522,-0.959683,1.724730,0.467786,-0.035144,-0.311447,-0.176207,-0.367526,-0.316090,0.440242,0.169585,-0.413775,35.925030,20.008957,13.976316,0.189908,2.072860,0.107894,0.000000,0.000000,0.000000,0.000000,0.000000,0.000000
11911069.000000,2.303728,-0.997805,-1.848629,-1.431901,-0.959996,1.725167,0.467954,-0.036402,-0.310740,-0.174788,-0.366842,-0.313082,0.440146,0.171746,-0.540728,35.853619,19.862167,14.051695,0.207303,2.144271,0.054794,0.000000,0.000000,0.000000,0.000000,0.000000,0.000000
11911070.000000,2.303690,-0.998120,-1.848813,-1.432266,-0.960310,1.725608,0.468112,-0.038059,-0.311678,-0.179143,-0.362842,-0.310468,0.439652,0.168242,-0.512957,35.829815,19.838364,14.075499,0.207303,2.125045,0.127120,0.000000,0.000000,0.000000,0.000000,0.000000,0.000000
11911071.000000,2.303655,-0.998443,-1.848983,-1.432638,-0.960627,1.726064,0.468281,-0.037328,-0.313273,-0.174499,-0.361867,-0.316945,0.447087,0.164567,-0.540728,35.853619,19.739182,14.099302,0.189908,2.020675,0.114303,0.000000,0.000000,0.000000,0.000000,0.000000,0.000000
11911072.000000,2.303615,-0.998764,-1.849156,-1.432998,-0.960944,1.726524,0.468452,-0.038810,-0.315182,-0.174635,-0.356145,-0.316725,0.447612,0.168219,-0.489153,35.901226,19.667770,14.075499,0.159696,1.909896,0.054794,0.000000,0.000000,0.000000,0.000000,0.000000,0.000000
11911073.000000,2.303582,-0.999085,-1.849327,-1.433359,-0.961268,1.726962,0.468612,-0.037909,-0.315721,-0.175542,-0.356848,-0.316988,0.445289,0.165996,-0.512957,35.925030,19.616196,13.976316,0.154203,1.877853,0.114303,0.000000,0.000000,0.000000,0.000000,0.000000,0.000000
11911074.000000,2.303546,-0.999409,-1.849502,-1.433716,-0.961580,1.727399,0.468779,-0.040930,-0.316852,-0.178802,-0.355711,-0.320569,0.443612,0.164336,-0.512957,36.024212,19.544785,13.853331,0.147794,1.942855,0.061202,0.000000,0.000000,0.000000,0.000000,0.000000,0.000000
11911075.000000,2.303508,-0.999720,-1.849678,-1.434066,-0.961905,1.727839,0.468938,-0.038212,-0.323035,-0.175163,-0.354865,-0.320918,0.449829,0.159799,-0.465350,36.000408,19.497177,13.730345,0.154203,2.020675,0.087753,0.000000,0.000000,0.000000,0.000000,0.000000,0.000000
11911076.000000,2.303473,-1.000037,-1.849849,-1.434422,-0.962238,1.728282,0.469098,-0.037738,-0.320989,-0.171822,-0.351561,-0.320539,0.446717,0.158081,-0.465350,35.877422,19.421799,13.678770,0.159696,2.001449,0.087753,0.000000,0.000000,0.000000,0.000000,0.000000,0.000000
11911077.000000,2.303438,-1.000339,-1.850029,-1.434766,-0.962558,1.728735,0.469254,-0.038199,-0.313000,-0.174430,-0.356380,-0.325671,0.445068,0.160297,-0.441546,35.631451,19.445602,13.555784,0.171598,1.949264,0.107894,0.000000,0.000000,0.000000,0.000000,0.000000,0.000000
11911078.000000,2.303397,-1.000646,-1.850202,-1.435116,-0.962880,1.729182,0.469422,-0.037195,-0.308217,-0.175187,-0.351290,-0.323567,0.445360,0.164449,-0.342364,35.385479,19.397995,13.408995,0.159696,1.858627,0.054794,0.000000,0.000000,0.000000,0.000000,0.000000,0.000000
11911079.000000,2.303358,-1.000956,-1.850386,-1.435456,-0.963215,1.729619,0.469585,-0.038480,-0.304506,-0.174061,-0.343966,-0.328560,0.442294,0.165064,-0.290789,35.143475,19.445602,13.234434,0.189908,1.851302,0.074935,0.000000,0.000000,0.000000,0.000000,0.000000,0.000000
11911080.000000,2.303322,-1.001268,-1.850562,-1.435786,-0.963546,1.730061,0.469751,-0.038839,-0.307854,-0.174882,-0.340836,-0.327372,0.437798,0.166050,-0.243182,34.996685,19.421799,13.012266,0.219205,1.916305,0.087753,0.000000,0.000000,0.000000,0.000000,0.000000,0.000000
11911081.000000,2.303276,-1.001582,-1.850739,-1.436112,-0.963878,1.730500,0.469917,-0.038370,-0.310628,-0.177456,-0.333032,-0.325368,0.441003,0.167702,-0.116229,34.873699,19.469406,12.742491,0.243009,1.930038,0.067611,0.000000,0.000000,0.000000,0.000000,0.000000,0.000000
11911082.000000,2.303230,-1.001894,-1.850912,-1.436439,-0.964197,1.730943,0.470081,-0.038117,-0.308284,-0.172416,-0.331803,-0.322118,0.439326,0.167266,0.030561,34.726910,19.397995,12.567930,0.201810,1.909896,0.094161,0.000000,0.000000,0.000000,0.000000,0.000000,0.000000
11911083.000000,2.303192,-1.002210,-1.851091,-1.436759,-0.964529,1.731386,0.470250,-0.038749,-0.311401,-0.175721,-0.324314,-0.323498,0.435006,0.168295,0.078168,34.627728,19.346420,12.421141,0.117582,1.858627,0.074935,0.000000,0.000000,0.000000,0.000000,0.000000,0.000000
11911084.000000,2.303151,-1.002526,-1.851269,-1.437072,-0.964873,1.731826,0.470411,-0.039149,-0.310127,-0.173063,-0.318046,-0.328893,0.435394,0.162833,0.129743,34.504742,19.322617,12.246580,0.147794,1.832076,0.107894,0.000000,0.000000,0.000000,0.000000,0.000000,0.000000
11911085.000000,2.303110,-1.002843,-1.851451,-1.437379,-0.965204,1.732259,0.470584,-0.039443,-0.313148,-0.178240,-0.316901,-0.326585,0.433855,0.166701,0.177350,34.433331,19.322617,12.072020,0.141385,1.858627,0.054794,0.000000,0.000000,0.000000,0.000000,0.000000,0.000000
11911086.000000,2.303072,-1.003154,-1.851633,-1.437679,-0.965541,1.732693,0.470750,-0.038914,-0.311152,-0.179052,-0.309653,-0.333749,0.431985,0.162226,0.205121,34.310345,19.322617,11.826048,0.141385,1.909896,0.067611,0.000000,0.000000,0.000000,0.000000,0.000000,0.000000
11911087.000000,2.303032,-1.003472,-1.851818,-1.437983,-0.965889,1.733141,0.470912,-0.038858,-0.308658,-0.179778,-0.308730,-0.337877,0.432442,0.162316,0.228925,34.310345,19.346420,11.703062,0.219205,1.897079,0.114303,0.000000,0.000000,0.000000,0.000000,0.000000,0.000000
11911088.000000,2.302998,-1.003790,-1.852011,-1.438279,-0.966230,1.733589,0.471081,-0.036810,-0.311987,-0.181324,-0.303597,-0.339674,0.446710,0.160731,0.177350,34.238934,19.397995,11.528502,0.255826,1.825668,0.074935,0.000000,0.000000,0.000000,0.000000,0.000000,0.000000
11911089.000000,2.302955,-1.004113,-1.852197,-1.438578,-0.966561,1.734046,0.471245,-0.039235,-0.312793,-0.182034,-0.297280,-0.332831,0.446899,0.161954,0.276533,34.238934,19.445602,11.429319,0.213712,1.741439,0.100570,0.000000,0.000000,0.000000,0.000000,0.000000,0.000000
11911090.000000,2.302919,-1.004435,-1.852379,-1.438863,-0.966902,1.734491,0.471413,-0.035524,-0.316649,-0.179157,-0.300221,-0.328997,0.445081,0.161500,0.276533,34.262737,19.374191,11.282530,0.201810,1.689254,0.041976,0.000000,0.000000,0.000000,0.000000,0.000000,0.000000
11911091.000000,2.302885,-1.004758,-1.852560,-1.439151,-0.967246,1.734924,0.471574,-0.035467,-0.318666,-0.179525,-0.293485,-0.326498,0.447949,0.161892,0.252729,34.238934,19.374191,11.135740,0.207303,1.786300,0.074935,0.000000,0.000000,0.000000,0.000000,0.000000,0.000000
11911092.000000,2.302857,-1.005080,-1.852746,-1.439431,-0.967584,1.735370,0.471729,-0.033399,-0.315572,-0.182544,-0.285651,-0.337104,0.445318,0.159281,0.153547,34.187359,19.346420,10.961180,0.201810,1.865035,0.127120,0.000000,0.000000,0.000000,0.000000,0.000000,0.000000
11911093.000000,2.302824,-1.005402,-1.852930,-1.439711,-0.967919,1.735819,0.471901,-0.034011,-0.325503,-0.179952,-0.287103,-0.340752,0.455334,0.163948,0.129743,34.040569,19.251205,10.838194,0.154203,1.838485,0.074935,0.000000,0.000000,0.000000,0.000000,0.000000,0.000000
11911094.000000,2.302796,-1.005716,-1.853116,-1.439995,-0.968263,1.736266,0.472072,-0.029656,-0.321585,-0.182986,-0.285471,-0.342759,0.451485,0.165759,0.030561,33.846172,19.223434,10.786619,0.105680,1.793624,0.061202,0.000000,0.000000,0.000000,0.000000,0.000000,0.000000
11911095.000000,2.302771,-1.006038,-1.853302,-1.440279,-0.968612,1.736718,0.472240,-0.029279,-0.320384,-0.181199,-0.285331,-0.344271,0.449957,0.161816,-0.092425,33.746990,19.199631,10.786619,0.159696,1.702071,0.067611,0.000000,0.000000,0.000000,0.000000,0.000000,0.000000
11911096.000000,2.302743,-1.006357,-1.853485,-1.440551,-0.968951,1.737150,0.472409,-0.027242,-0.319266,-0.183414,-0.281218,-0.344272,0.446809,0.157146,-0.144000,33.600201,19.152023,10.715208,0.189908,1.670028,0.114303,0.000000,0.000000,0.000000,0.000000,0.000000,0.000000
11911097.000000,2.302715,-1.006687,-1.853673,-1.440830,-0.969302,1.737588,0.472586,-0.025497,-0.319452,-0.182597,-0.279104,-0.342893,0.441304,0.162749,-0.215411,33.647808,19.152023,10.691404,0.189908,1.714889,0.054794,0.000000,0.000000,0.000000,0.000000,0.000000,0.000000
11911098.000000,2.302695,-1.007029,-1.853850,-1.441100,-0.969655,1.738024,0.472756,-0.025669,-0.326679,-0.179443,-0.277907,-0.349554,0.433716,0.163350,-0.342364,33.723186,19.052841,10.663633,0.273221,1.741439,0.100570,0.000000,0.000000,0.000000,0.000000,0.000000,0.000000
11911099.000000,2.302677,-1.007360,-1.854030,-1.441377,-0.969998,1.738452,0.472922,-0.022279,-0.327259,-0.179905,-0.274759,-0.346127,0.433917,0.163772,-0.512957,33.746990,19.052841,10.616026,0.279630,1.735030,0.133529,0.000000,0.000000,0.000000,0.000000,0.000000,0.000000
11911100.000000,2.302656,-1.007697,-1.854211,-1.441656,-0.970324,1.738891,0.473106,-0.021725,-0.333416,-0.182205,-0.274664,-0.340495,0.431507,0.169454,-0.588336,33.917583,19.005234,10.592222,0.178007,1.656295,0.028243,0.000000,0.000000,0.000000,0.000000,0.000000,0.000000
11911101.000000,2.302642,-1.008036,-1.854395,-1.441925,-0.970674,1.739311,0.473278,-0.019357,-0.337304,-0.186028,-0.271123,-0.340246,0.427776,0.171590,-0.762896,34.040569,18.929855,10.564451,0.159696,1.637069,0.087753,0.000000,0.000000,0.000000,0.000000,0.000000,0.000000
11911102.000000,2.302628,-1.008373,-1.854577,-1.442204,-0.971020,1.739734,0.473454,-0.017597,-0.339138,-0.184441,-0.270537,-0.339456,0.427472,0.175397,-0.933489,34.115948,18.906052,10.516844,0.141385,1.676437,0.074935,0.000000,0.000000,0.000000,0.000000,0.000000,0.000000
11911103.000000,2.302614,-1.008713,-1.854761,-1.442475,-0.971353,1.740163,0.473628,-0.017364,-0.338338,-0.182389,-0.275295,-0.339525,0.427880,0.174411,-1.060443,34.115948,18.858444,10.465269,0.141385,1.708480,0.067611,0.000000,0.000000,0.000000,0.000000,0.000000,0.000000
11911104.000000,2.302598,-1.009055,-1.854945,-1.442750,-0.971696,1.740587,0.473800,-0.014516,-0.337399,-0.178586,-0.273631,-0.339472,0.425346,0.176758,-1.159625,34.211163,18.858444,10.441465,0.159696,1.695663,0.100570,0.000000,0.000000,0.000000,0.000000,0.000000,0.000000
11911105.000000,2.302583,-1.009387,-1.855132,-1.443031,-0.972041,1.741018,0.473976,-0.016265,-0.338590,-0.178337,-0.273281,-0.347983,0.431348,0.176943,-1.231036,34.163555,18.830673,10.393858,0.195402,1.702071,0.054794,0.000000,0.000000,0.000000,0.000000,0.000000,0.000000
11911106.000000,2.302565,-1.009729,-1.855320,-1.443315,-0.972386,1.741445,0.474137,-0.018593,-0.346530,-0.174382,-0.275050,-0.347498,0.440522,0.172198,-1.254840,34.187359,18.783066,10.441465,0.237516,1.656295,0.127120,0.000000,0.000000,0.000000,0.000000,0.000000,0.000000
11911107.000000,2.302549,-1.010074,-1.855502,-1.443599,-0.972720,1.741869,0.474317,-0.019523,-0.345714,-0.174942,-0.274294,-0.343996,0.435845,0.174686,-1.306414,34.238934,18.735458,10.465269,0.213712,1.605026,0.048385,0.000000,0.000000,0.000000,0.000000,0.000000,0.000000
11911108.000000,2.302526,-1.010436,-1.855685,-1.443876,-0.973063,1.742302,0.474481,-0.019305,-0.347654,-0.175557,-0.280493,-0.346182,0.434712,0.170660,-1.254840,34.409527,18.711655,10.393858,0.183500,1.617843,0.120712,0.000000,0.000000,0.000000,0.000000,0.000000,0.000000
11911109.000000,2.302509,-1.010788,-1.855872,-1.444153,-0.973410,1.742724,0.474660,-0.017672,-0.346599,-0.178210,-0.279156,-0.345018,0.432640,0.172696,-1.254840,34.603924,18.759262,10.294676,0.201810,1.676437,0.054794,0.000000,0.000000,0.000000,0.000000,0.000000,0.000000
11911110.000000,2.302496,-1.011140,-1.856064,-1.444437,-0.973751,1.743149,0.474825,-0.017814,-0.351856,-0.182954,-0.281677,-0.349438,0.426735,0.166981,-1.330218,34.703106,18.783066,10.294676,0.166105,1.695663,0.100570,0.000000,0.000000,0.000000,0.000000,0.000000,0.000000
11911111.000000,2.302474,-1.011499,-1.856254,-1.444719,-0.974087,1.743592,0.474995,-0.021011,-0.358830,-0.182163,-0.280133,-0.348981,0.437334,0.167538,-1.282611,34.849895,18.783066,10.294676,0.081876,1.643478,0.107894,0.000000,0.000000,0.000000,0.000000,0.000000,0.000000
11911112.000000,2.302457,-1.011844,-1.856448,-1.445001,-0.974441,1.744018,0.475164,-0.018842,-0.358152,-0.183465,-0.277142,-0.347128,0.433851,0.169064,-1.282611,34.921307,18.858444,10.270872,0.105680,1.584884,0.107894,0.000000,0.000000,0.000000,0.000000,0.000000,0.000000
11911113.000000,2.302433,-1.012214,-1.856640,-1.445288,-0.974789,1.744441,0.475328,-0.022266,-0.360632,-0.182716,-0.281570,-0.346493,0.429891,0.168908,-1.207232,35.167278,18.882248,10.342283,0.141385,1.546432,0.120712,0.000000,0.000000,0.000000,0.000000,0.000000,0.000000
11911114.000000,2.302409,-1.012566,-1.856835,-1.445577,-0.975134,1.744858,0.475502,-0.024661,-0.359076,-0.192244,-0.281943,-0.344803,0.428219,0.176046,-1.131854,35.361675,18.929855,10.441465,0.141385,1.605026,0.054794,0.000000,0.000000,0.000000,0.000000,0.000000,0.000000
11911115.000000,2.302378,-1.012921,-1.857025,-1.445861,-0.975493,1.745284,0.475667,-0.025304,-0.357715,-0.189055,-0.280747,-0.354136,0.428295,0.173367,-0.961260,35.437054,18.929855,10.493040,0.178007,1.637069,0.081344,0.000000,0.000000,0.000000,0.000000,0.000000,0.000000
11911116.000000,2.302352,-1.013274,-1.857226,-1.446140,-0.975851,1.745711,0.475833,-0.026919,-0.355399,-0.192798,-0.282609,-0.357425,0.430587,0.171543,-0.862078,35.437054,19.052841,10.516844,0.243009,1.611434,0.120712,0.000000,0.000000,0.000000,0.000000,0.000000,0.000000
11911117.000000,2.302320,-1.013623,-1.857416,-1.446426,-0.976198,1.746129,0.476009,-0.026220,-0.358410,-0.193294,-0.278817,-0.350293,0.426487,0.173763,-0.711321,35.361675,19.076645,10.516844,0.207303,1.617843,0.054794,0.000000,0.000000,0.000000,0.000000,0.000000,0.000000
11911118.000000,2.302293,-1.013977,-1.857616,-1.446715,-0.976541,1.746544,0.476164,-0.027671,-0.353631,-0.195038,-0.278427,-0.350540,0.421874,0.170527,-0.612139,35.266460,19.175827,10.540648,0.171598,1.643478,0.114303,0.000000,0.000000,0.000000,0.000000,0.000000,0.000000
11911119.000000,2.302263,-1.014319,-1.857815,-1.447000,-0.976895,1.746952,0.476332,-0.029347,-0.352611,-0.197810,-0.280979,-0.346689,0.423955,0.170912,-0.489153,35.119671,19.223434,10.564451,0.129484,1.670028,0.094161,0.000000,0.000000,0.000000,0.000000,0.000000,0.000000
11911120.000000,2.302226,-1.014677,-1.858013,-1.447278,-0.977248,1.747371,0.476493,-0.032007,-0.353561,-0.198824,-0.277709,-0.345187,0.415157,0.169839,-0.314593,35.020489,19.322617,10.393858,0.135892,1.721298,0.094161,0.000000,0.000000,0.000000,0.000000,0.000000,0.000000
11911121.000000,2.302189,-1.015026,-1.858213,-1.447562,-0.977594,1.747793,0.476650,-0.034430,-0.351945,-0.197386,-0.282190,-0.344540,0.410410,0.169226,-0.116229,34.826092,19.346420,10.417662,0.147794,1.727706,0.114303,0.000000,0.000000,0.000000,0.000000,0.000000,0.000000
11911122.000000,2.302154,-1.015382,-1.858414,-1.447845,-0.977949,1.748208,0.476821,-0.034385,-0.356586,-0.198004,-0.283310,-0.347095,0.412505,0.166567,0.030561,34.726910,19.421799,10.318480,0.147794,1.708480,0.061202,0.000000,0.000000,0.000000,0.000000,0.000000,0.000000
11911123.000000,2.302113,-1.015739,-1.858619,-1.448129,-0.978301,1.748627,0.476980,-0.036436,-0.351188,-0.197699,-0.282259,-0.354384,0.412637,0.165820,0.252729,34.679302,19.469406,10.219297,0.189908,1.708480,0.100570,0.000000,0.000000,0.000000,0.000000,0.000000,0.000000
11911124.000000,2.302072,-1.016097,-1.858822,-1.448409,-0.978657,1.749043,0.477148,-0.033991,-0.359748,-0.198380,-0.279954,-0.353090,0.420592,0.167482,0.451093,34.703106,19.544785,10.195494,0.249418,1.689254,0.081344,0.000000,0.000000,0.000000,0.000000,0.000000,0.000000
11911125.000000,2.302032,-1.016462,-1.859022,-1.448692,-0.979008,1.749453,0.477311,-0.035397,-0.359265,-0.198742,-0.279533,-0.354006,0.415623,0.161857,0.649457,34.750713,19.616196,10.143919,0.261320,1.656295,0.120712,0.000000,0.000000,0.000000,0.000000,0.000000,0.000000
11911126.000000,2.301989,-1.016827,-1.859229,-1.448968,-0.979361,1.749869,0.477483,-0.039137,-0.358880,-0.198811,-0.280582,-0.354555,0.410309,0.161745,0.824018,34.826092,19.715378,10.048704,0.255826,1.662704,0.054794,0.000000,0.000000,0.000000,0.000000,0.000000,0.000000
11911127.000000,2.301950,-1.017181,-1.859438,-1.449237,-0.979712,1.750275,0.477647,-0.040687,-0.359609,-0.199635,-0.274256,-0.354350,0.406503,0.157660,0.947004,34.798321,19.814560,9.997129,0.225614,1.676437,0.081344,0.000000,0.000000,0.000000,0.000000,0.000000,0.000000
11911128.000000,2.301908,-1.017527,-1.859644,-1.449521,-0.980053,1.750682,0.477804,-0.042184,-0.354943,-0.205160,-0.276443,-0.352162,0.407428,0.156493,1.093793,34.703106,19.838364,10.072508,0.135892,1.682845,0.114303,0.000000,0.000000,0.000000,0.000000,0.000000,0.000000
11911129.000000,2.301865,-1.017881,-1.859854,-1.449793,-0.980407,1.751092,0.477972,-0.043848,-0.354929,-0.205915,-0.272888,-0.356857,0.404734,0.162011,1.244550,34.603924,19.862167,10.072508,0.081876,1.689254,0.061202,0.000000,0.000000,0.000000,0.000000,0.000000,0.000000
11911130.000000,2.301822,-1.018223,-1.860064,-1.450064,-0.980768,1.751481,0.478140,-0.044444,-0.350749,-0.207322,-0.269308,-0.353595,0.399178,0.162859,1.367536,34.457134,19.913742,10.096312,0.123990,1.779891,0.107894,0.000000,0.000000,0.000000,0.000000,0.000000,0.000000
11911131.000000,2.301779,-1.018576,-1.860273,-1.450345,-0.981120,1.751876,0.478315,-0.041473,-0.351553,-0.206546,-0.276825,-0.351000,0.394864,0.166730,1.490522,34.357952,19.913742,10.171690,0.147794,1.865035,0.054794,0.000000,0.000000,0.000000,0.000000,0.000000,0.000000
11911132.000000,2.301733,-1.018927,-1.860475,-1.450618,-0.981480,1.752275,0.478478,-0.043166,-0.347925,-0.208316,-0.274324,-0.354283,0.394021,0.165448,1.641279,34.310345,19.885971,10.243101,0.183500,1.903487,0.100570,0.000000,0.000000,0.000000,0.000000,0.000000,0.000000
11911133.000000,2.301690,-1.019281,-1.860693,-1.450889,-0.981844,1.752691,0.478646,-0.044062,-0.351164,-0.210365,-0.271161,-0.351821,0.397298,0.163288,1.764264,34.262737,19.985153,10.270872,0.231107,1.844894,0.067611,0.000000,0.000000,0.000000,0.000000,0.000000,0.000000
11911134.000000,2.301647,-1.019634,-1.860905,-1.451167,-0.982196,1.753107,0.478816,-0.044180,-0.349246,-0.213312,-0.276427,-0.352766,0.404799,0.164915,1.863447,34.163555,20.008957,10.342283,0.225614,1.767074,0.074935,0.000000,0.000000,0.000000,0.000000,0.000000,0.000000
11911135.000000,2.301612,-1.019983,-1.861118,-1.451435,-0.982547,1.753514,0.478979,-0.038677,-0.348670,-0.212265,-0.273268,-0.352331,0.407781,0.164257,1.863447,34.088177,20.036728,10.294676,0.201810,1.747848,0.120712,0.000000,0.000000,0.000000,0.000000,0.000000,0.000000
11911136.000000,2.301574,-1.020341,-1.861328,-1.451697,-0.982905,1.753918,0.479149,-0.038789,-0.348889,-0.209372,-0.265437,-0.352889,0.403322,0.167564,1.911054,34.088177,19.985153,10.219297,0.178007,1.767074,0.074935,0.000000,0.000000,0.000000,0.000000,0.000000,0.000000
11911137.000000,2.301544,-1.020701,-1.861540,-1.451957,-0.983264,1.754310,0.479317,-0.033905,-0.353992,-0.210640,-0.264756,-0.353442,0.403195,0.167229,1.863447,34.262737,19.961349,10.096312,0.141385,1.851302,0.087753,0.000000,0.000000,0.000000,0.000000,0.000000,0.000000
11911138.000000,2.301511,-1.021067,-1.861753,-1.452220,-0.983621,1.754718,0.479497,-0.033426,-0.358542,-0.210647,-0.261210,-0.354017,0.404329,0.169559,1.811872,34.357952,19.985153,9.997129,0.129484,1.909896,0.048385,0.000000,0.000000,0.000000,0.000000,0.000000,0.000000
11911139.000000,2.301478,-1.021425,-1.861965,-1.452485,-0.983974,1.755140,0.479664,-0.034681,-0.356329,-0.205799,-0.263915,-0.359032,0.404542,0.167692,1.811872,34.357952,19.985153,10.020933,0.105680,1.858627,0.100570,0.000000,0.000000,0.000000,0.000000,0.000000,0.000000
11911140.000000,2.301450,-1.021783,-1.862165,-1.452752,-0.984338,1.755556,0.479836,-0.030372,-0.358156,-0.205727,-0.262391,-0.358732,0.411410,0.172361,1.740461,34.357952,19.961349,9.997129,0.105680,1.747848,0.114303,0.000000,0.000000,0.000000,0.000000,0.000000,0.000000
11911141.000000,2.301416,-1.022149,-1.862375,-1.453020,-0.984697,1.755975,0.480009,-0.029807,-0.356922,-0.204476,-0.260660,-0.363485,0.407102,0.168608,1.764264,34.409527,20.036728,10.048704,0.166105,1.727706,0.074935,0.000000,0.000000,0.000000,0.000000,0.000000,0.000000
11911142.000000,2.301390,-1.022500,-1.862590,-1.453278,-0.985065,1.756384,0.480180,-0.030022,-0.364613,-0.207527,-0.258325,-0.366379,0.410868,0.164851,1.688886,34.357952,20.131943,10.072508,0.267728,1.735030,0.054794,0.000000,0.000000,0.000000,0.000000,0.000000,0.000000
11911143.000000,2.301368,-1.022860,-1.862800,-1.453541,-0.985438,1.756782,0.480347,-0.029408,-0.363420,-0.206245,-0.255868,-0.365484,0.410128,0.160890,1.565900,34.310345,20.231125,10.120115,0.315336,1.773483,0.067611,0.000000,0.000000,0.000000,0.000000,0.000000,0.000000
11911144.000000,2.301346,-1.023217,-1.863005,-1.453807,-0.985796,1.757191,0.480509,-0.029497,-0.357874,-0.205107,-0.261638,-0.362592,0.410468,0.161452,1.466718,34.211163,20.207321,10.243101,0.303434,1.800033,0.114303,0.000000,0.000000,0.000000,0.000000,0.000000,0.000000
11911145.000000,2.301328,-1.023568,-1.863210,-1.454068,-0.986147,1.757598,0.480684,-0.025943,-0.355163,-0.206404,-0.260631,-0.354895,0.407559,0.170291,1.343732,34.016766,20.231125,10.370054,0.255826,1.786300,0.054794,0.000000,0.000000,0.000000,0.000000,0.000000,0.000000
11911146.000000,2.301309,-1.023926,-1.863417,-1.454336,-0.986506,1.757997,0.480845,-0.023858,-0.353616,-0.206019,-0.261167,-0.355963,0.403395,0.161286,1.244550,33.992962,20.207321,10.540648,0.141385,1.800033,0.081344,0.000000,0.000000,0.000000,0.000000,0.000000,0.000000
11911147.000000,2.301294,-1.024289,-1.863626,-1.454601,-0.986871,1.758393,0.481011,-0.021643,-0.356761,-0.203830,-0.260049,-0.356661,0.398824,0.163284,1.121564,33.992962,20.254929,10.639830,0.129484,1.884261,0.087753,0.000000,0.000000,0.000000,0.000000,0.000000,0.000000
11911148.000000,2.301282,-1.024653,-1.863830,-1.454869,-0.987241,1.758778,0.481178,-0.019374,-0.355368,-0.201814,-0.258451,-0.357077,0.390725,0.161154,0.970807,34.115948,20.278732,10.762815,0.141385,1.962081,0.067611,0.000000,0.000000,0.000000,0.000000,0.000000,0.000000
11911149.000000,2.301265,-1.025025,-1.864041,-1.455136,-0.987607,1.759164,0.481336,-0.020209,-0.360109,-0.201443,-0.258898,-0.362337,0.390742,0.157830,0.923200,34.262737,20.377914,10.913572,0.147794,2.001449,0.087753,0.000000,0.000000,0.000000,0.000000,0.000000,0.000000
11911150.000000,2.301252,-1.025388,-1.864243,-1.455405,-0.987988,1.759559,0.481497,-0.015781,-0.363631,-0.204843,-0.261696,-0.368739,0.393365,0.156832,0.796247,34.385723,20.377914,11.036558,0.207303,1.974899,0.061202,0.000000,0.000000,0.000000,0.000000,0.000000,0.000000
11911151.000000,2.301243,-1.025752,-1.864459,-1.455680,-0.988367,1.759963,0.481652,-0.012623,-0.365304,-0.207135,-0.264180,-0.372183,0.393339,0.158664,0.673261,34.480938,20.453293,11.207151,0.255826,1.877853,0.100570,0.000000,0.000000,0.000000,0.000000,0.000000,0.000000
11911152.000000,2.301235,-1.026107,-1.864669,-1.455948,-0.988736,1.760364,0.481821,-0.012799,-0.361421,-0.206717,-0.272557,-0.373251,0.392088,0.163384,0.526471,34.357952,20.453293,11.306334,0.261320,1.800033,0.061202,0.000000,0.000000,0.000000,0.000000,0.000000,0.000000
11911153.000000,2.301223,-1.026465,-1.864874,-1.456224,-0.989111,1.760752,0.481987,-0.011813,-0.362084,-0.205557,-0.269272,-0.372114,0.391274,0.163674,0.451093,34.357952,20.401718,11.357908,0.237516,1.844894,0.094161,0.000000,0.000000,0.000000,0.000000,0.000000,0.000000
11911154.000000,2.301221,-1.026833,-1.865087,-1.456501,-0.989480,1.761136,0.482151,-0.011735,-0.361502,-0.205096,-0.271026,-0.375488,0.382897,0.166003,0.276533,34.357952,20.377914,11.405516,0.237516,1.955673,0.074935,0.000000,0.000000,0.000000,0.000000,0.000000,0.000000
11911155.000000,2.301222,-1.027191,-1.865290,-1.456772,-0.989852,1.761511,0.482314,-0.008198,-0.358859,-0.205400,-0.272672,-0.371846,0.382892,0.165823,0.078168,34.357952,20.278732,11.480894,0.231107,2.047225,0.100570,0.000000,0.000000,0.000000,0.000000,0.000000,0.000000
11911156.000000,2.301214,-1.027556,-1.865486,-1.457046,-0.990233,1.761908,0.482486,-0.008975,-0.362007,-0.199945,-0.268550,-0.371419,0.390804,0.168402,0.030561,34.310345,20.159714,11.480894,0.189908,2.066451,0.061202,0.000000,0.000000,0.000000,0.000000,0.000000,0.000000
11911157.000000,2.301208,-1.027924,-1.865689,-1.457325,-0.990603,1.762317,0.482646,-0.009120,-0.361500,-0.197521,-0.274024,-0.367646,0.391200,0.167544,-0.017047,34.262737,20.131943,11.603880,0.178007,1.974899,0.094161,0.000000,0.000000,0.000000,0.000000,0.000000,0.000000
11911158.000000,2.301208,-1.028293,-1.865893,-1.457604,-0.990977,1.762717,0.482816,-0.007124,-0.365381,-0.200489,-0.274695,-0.366434,0.392255,0.169015,-0.167803,34.262737,20.131943,11.679258,0.213712,1.844894,0.067611,0.000000,0.000000,0.000000,0.000000,0.000000,0.000000
11911159.000000,2.301202,-1.028671,-1.866094,-1.457886,-0.991352,1.763117,0.482982,-0.007231,-0.362605,-0.194237,-0.271848,-0.377789,0.393247,0.169728,-0.243182,34.334148,20.084335,11.726866,0.261320,1.812850,0.054794,0.000000,0.000000,0.000000,0.000000,0.000000,0.000000
11911160.000000,2.301197,-1.029032,-1.866297,-1.458159,-0.991737,1.763508,0.483143,-0.007619,-0.369264,-0.197506,-0.269557,-0.379734,0.397727,0.166765,-0.314593,34.286541,20.060532,11.750669,0.315336,1.877853,0.133529,0.000000,0.000000,0.000000,0.000000,0.000000,0.000000
11911161.000000,2.301189,-1.029408,-1.866489,-1.458434,-0.992118,1.763887,0.483313,-0.005596,-0.369020,-0.193488,-0.267665,-0.374178,0.391035,0.169480,-0.342364,34.334148,19.913742,11.826048,0.332731,1.923629,0.087753,0.000000,0.000000,0.000000,0.000000,0.000000,0.000000
11911162.000000,2.301195,-1.029789,-1.866689,-1.458708,-0.992484,1.764280,0.483473,-0.003244,-0.372918,-0.195786,-0.269724,-0.372621,0.395470,0.169436,-0.540728,34.433331,19.862167,11.802244,0.279630,1.962081,0.094161,0.000000,0.000000,0.000000,0.000000,0.000000,0.000000
11911163.000000,2.301188,-1.030163,-1.866884,-1.458986,-0.992861,1.764675,0.483636,-0.005328,-0.373639,-0.190327,-0.273665,-0.372028,0.396096,0.168453,-0.564532,34.433331,19.814560,11.949034,0.225614,1.955673,0.114303,0.000000,0.000000,0.000000,0.000000,0.000000,0.000000
11911164.000000,2.301182,-1.030538,-1.867077,-1.459256,-0.993234,1.765078,0.483802,-0.006653,-0.371853,-0.193282,-0.271178,-0.371870,0.393319,0.162988,-0.612139,34.480938,19.739182,12.000608,0.189908,1.897079,0.061202,0.000000,0.000000,0.000000,0.000000,0.000000,0.000000
11911165.000000,2.301176,-1.030916,-1.867275,-1.459528,-0.993588,1.765479,0.483950,-0.007242,-0.372358,-0.193723,-0.276068,-0.371011,0.395251,0.157093,-0.663714,34.457134,19.739182,12.000608,0.117582,1.865035,0.133529,0.000000,0.000000,0.000000,0.000000,0.000000,0.000000
11911166.000000,2.301172,-1.031290,-1.867465,-1.459802,-0.993965,1.765868,0.484120,-0.007163,-0.370243,-0.192978,-0.270680,-0.373388,0.393162,0.159597,-0.735125,34.457134,19.691574,12.000608,0.154203,1.916305,0.048385,0.000000,0.000000,0.000000,0.000000,0.000000,0.000000
11911167.000000,2.301166,-1.031671,-1.867657,-1.460065,-0.994338,1.766260,0.484279,-0.009053,-0.372548,-0.187558,-0.266302,-0.376277,0.388121,0.161123,-0.735125,34.385723,19.616196,11.925230,0.207303,1.930038,0.074935,0.000000,0.000000,0.000000,0.000000,0.000000,0.000000
11911168.000000,2.301164,-1.032047,-1.867854,-1.460326,-0.994710,1.766653,0.484441,-0.005844,-0.370617,-0.192465,-0.263195,-0.373463,0.390070,0.161515,-0.786700,34.385723,19.643967,11.849852,0.237516,1.936446,0.114303,0.000000,0.000000,0.000000,0.000000,0.000000,0.000000
11911169.000000,2.301156,-1.032420,-1.868041,-1.460594,-0.995087,1.767059,0.484604,-0.005864,-0.371106,-0.189928,-0.261903,-0.373886,0.392791,0.159810,-0.735125,34.211163,19.520981,11.849852,0.225614,1.903487,0.094161,0.000000,0.000000,0.000000,0.000000,0.000000,0.000000
11911170.000000,2.301147,-1.032799,-1.868232,-1.460854,-0.995462,1.767466,0.484764,-0.005594,-0.371231,-0.193266,-0.265734,-0.369514,0.391211,0.162031,-0.687518,34.139751,19.469406,11.826048,0.219205,1.838485,0.114303,0.000000,0.000000,0.000000,0.000000,0.000000,0.000000
11911171.000000,2.301146,-1.033180,-1.868423,-1.461115,-0.995839,1.767863,0.484932,-0.003044,-0.376685,-0.193146,-0.261562,-0.366028,0.393976,0.165726,-0.735125,34.163555,19.445602,11.726866,0.213712,1.793624,0.067611,0.000000,0.000000,0.000000,0.000000,0.000000,0.000000
11911172.000000,2.301136,-1.033569,-1.868615,-1.461371,-0.996210,1.768262,0.485086,-0.004021,-0.375165,-0.189901,-0.259265,-0.380234,0.392407,0.160291,-0.663714,34.262737,19.445602,11.603880,0.207303,1.825668,0.114303,0.000000,0.000000,0.000000,0.000000,0.000000,0.000000
11911173.000000,2.301130,-1.033965,-1.868808,-1.461609,-0.996588,1.768652,0.485253,-0.006381,-0.381822,-0.192769,-0.251758,-0.379789,0.389390,0.159467,-0.635943,34.532513,19.421799,11.381712,0.189908,1.877853,0.067611,0.000000,0.000000,0.000000,0.000000,0.000000,0.000000
11911174.000000,2.301133,-1.034350,-1.868991,-1.461862,-0.996967,1.769048,0.485414,-0.002348,-0.380924,-0.191591,-0.248974,-0.378691,0.391839,0.155575,-0.735125,34.580120,19.346420,11.306334,0.189908,1.858627,0.114303,0.000000,0.000000,0.000000,0.000000,0.000000,0.000000
11911175.000000,2.301132,-1.034743,-1.869184,-1.462106,-0.997336,1.769467,0.485582,-0.001877,-0.385264,-0.191631,-0.249026,-0.376984,0.396976,0.160613,-0.735125,34.703106,19.322617,11.207151,0.159696,1.747848,0.074935,0.000000,0.000000,0.000000,0.000000,0.000000,0.000000
11911176.000000,2.301126,-1.035128,-1.869375,-1.462345,-0.997716,1.769870,0.485745,-0.002598,-0.383514,-0.191999,-0.243741,-0.375967,0.399498,0.161276,-0.687518,34.750713,19.298813,11.107969,0.135892,1.670028,0.114303,0.000000,0.000000,0.000000,0.000000,0.000000,0.000000
11911177.000000,2.301124,-1.035518,-1.869573,-1.462583,-0.998092,1.770265,0.485911,-0.002464,-0.385823,-0.196724,-0.242592,-0.384873,0.398159,0.164338,-0.663714,34.849895,19.322617,10.984983,0.183500,1.649886,0.094161,0.000000,0.000000,0.000000,0.000000,0.000000,0.000000
11911178.000000,2.301127,-1.035922,-1.869769,-1.462827,-0.998464,1.770662,0.486073,-0.000660,-0.397362,-0.195598,-0.242235,-0.383885,0.402023,0.165125,-0.711321,35.020489,19.298813,11.012754,0.201810,1.702071,0.107894,0.000000,0.000000,0.000000,0.000000,0.000000,0.000000
11911179.000000,2.301124,-1.036315,-1.869959,-1.463059,-0.998847,1.771052,0.486234,-0.001652,-0.396911,-0.194213,-0.238161,-0.382124,0.399237,0.160844,-0.663714,35.119671,19.251205,10.937376,0.213712,1.735030,0.127120,0.000000,0.000000,0.000000,0.000000,0.000000,0.000000
11911180.000000,2.301123,-1.036714,-1.870158,-1.463293,-0.999223,1.771443,0.486398,-0.001175,-0.394268,-0.192879,-0.237715,-0.380437,0.398227,0.165698,-0.663714,35.143475,19.346420,10.913572,0.201810,1.727706,0.061202,0.000000,0.000000,0.000000,0.000000,0.000000,0.000000
11911181.000000,2.301123,-1.037105,-1.870346,-1.463525,-0.999591,1.771839,0.486553,-0.000839,-0.390493,-0.195281,-0.236881,-0.373619,0.402913,0.158618,-0.663714,35.191082,19.346420,10.885801,0.147794,1.714889,0.140853,0.000000,0.000000,0.000000,0.000000,0.000000,0.000000
11911182.000000,2.301123,-1.037499,-1.870539,-1.463755,-0.999974,1.772239,0.486724,-0.000601,-0.385945,-0.194956,-0.232528,-0.376756,0.400868,0.168793,-0.663714,35.167278,19.346420,10.838194,0.081876,1.714889,0.074935,0.000000,0.000000,0.000000,0.000000,0.000000,0.000000
11911183.000000,2.301124,-1.037891,-1.870740,-1.463975,-1.000359,1.772630,0.486889,-0.001081,-0.383575,-0.196949,-0.227045,-0.382382,0.397726,0.164063,-0.635943,35.167278,19.445602,10.739012,0.100187,1.760665,0.081344,0.000000,0.000000,0.000000,0.000000,0.000000,0.000000
11911184.000000,2.301128,-1.038289,-1.870931,-1.464197,-1.000738,1.773022,0.487051,0.000462,-0.383927,-0.195592,-0.223435,-0.380702,0.396546,0.158876,-0.687518,35.266460,19.421799,10.639830,0.117582,1.773483,0.133529,0.000000,0.000000,0.000000,0.000000,0.000000,0.000000
11911185.000000,2.301134,-1.038683,-1.871133,-1.464421,-1.001116,1.773418,0.487221,0.001404,-0.383670,-0.197794,-0.219256,-0.379652,0.391544,0.163775,-0.735125,35.385479,19.544785,10.564451,0.117582,1.754256,0.081344,0.000000,0.000000,0.000000,0.000000,0.000000,0.000000
11911186.000000,2.301131,-1.039078,-1.871327,-1.464643,-1.001506,1.773808,0.487382,-0.000191,-0.387896,-0.197799,-0.217721,-0.380723,0.389279,0.162948,-0.687518,35.536236,19.497177,10.564451,0.135892,1.721298,0.133529,0.000000,0.000000,0.000000,0.000000,0.000000,0.000000
11911187.000000,2.301135,-1.039468,-1.871525,-1.464860,-1.001897,1.774207,0.487548,0.000977,-0.384308,-0.198328,-0.215056,-0.381822,0.391493,0.165607,-0.735125,35.536236,19.568588,10.540648,0.195402,1.708480,0.087753,0.000000,0.000000,0.000000,0.000000,0.000000,0.000000
11911188.000000,2.301138,-1.039870,-1.871736,-1.465075,-1.002280,1.774613,0.487703,0.001850,-0.388795,-0.200741,-0.216161,-0.385666,0.394208,0.165457,-0.786700,35.560040,19.739182,10.417662,0.207303,1.662704,0.127120,0.000000,0.000000,0.000000,0.000000,0.000000,0.000000
11911189.000000,2.301140,-1.040256,-1.871932,-1.465293,-1.002674,1.775005,0.487868,0.001228,-0.383790,-0.199364,-0.217044,-0.383791,0.390808,0.166730,-0.786700,35.484661,19.766953,10.393858,0.225614,1.637069,0.120712,0.000000,0.000000,0.000000,0.000000,0.000000,0.000000
11911190.000000,2.301149,-1.040648,-1.872132,-1.465511,-1.003061,1.775397,0.488030,0.002578,-0.388374,-0.198688,-0.215840,-0.389436,0.389014,0.167263,-0.862078,35.385479,19.814560,10.393858,0.237516,1.695663,0.133529,0.000000,0.000000,0.000000,0.000000,0.000000,0.000000
11911191.000000,2.301153,-1.041035,-1.872339,-1.465721,-1.003443,1.775776,0.488197,0.002272,-0.393035,-0.202995,-0.213577,-0.385976,0.394901,0.168974,-0.885882,35.266460,19.913742,10.342283,0.213712,1.773483,0.100570,0.000000,0.000000,0.000000,0.000000,0.000000,0.000000
11911192.000000,2.301155,-1.041427,-1.872538,-1.465932,-1.003833,1.776164,0.488364,0.000956,-0.394258,-0.203131,-0.209938,-0.382263,0.391577,0.170405,-0.862078,35.091900,19.885971,10.243101,0.183500,1.747848,0.067611,0.000000,0.000000,0.000000,0.000000,0.000000,0.000000
11911193.000000,2.301164,-1.041829,-1.872741,-1.466153,-1.004215,1.776557,0.488519,0.004794,-0.392822,-0.200257,-0.214136,-0.379441,0.393710,0.162730,-0.909686,35.068096,19.885971,10.318480,0.141385,1.727706,0.140853,0.000000,0.000000,0.000000,0.000000,0.000000,0.000000
11911194.000000,2.301166,-1.042214,-1.872945,-1.466365,-1.004602,1.776940,0.488689,0.002891,-0.393326,-0.202199,-0.210668,-0.379737,0.388866,0.166558,-0.885882,34.972881,19.885971,10.342283,0.159696,1.754256,0.081344,0.000000,0.000000,0.000000,0.000000,0.000000,0.000000
11911195.000000,2.301170,-1.042611,-1.873153,-1.466572,-1.004993,1.777317,0.488841,0.001560,-0.391286,-0.204800,-0.209934,-0.389930,0.383830,0.166092,-0.862078,34.945110,19.937546,10.318480,0.141385,1.793624,0.114303,0.000000,0.000000,0.000000,0.000000,0.000000,0.000000
11911196.000000,2.301178,-1.043014,-1.873364,-1.466786,-1.005381,1.777698,0.489005,0.001182,-0.402813,-0.202519,-0.208382,-0.388275,0.382982,0.168098,-0.862078,35.020489,19.961349,10.370054,0.178007,1.773483,0.087753,0.000000,0.000000,0.000000,0.000000,0.000000,0.000000
11911197.000000,2.301185,-1.043410,-1.873570,-1.466993,-1.005766,1.778077,0.489173,0.003928,-0.400479,-0.202215,-0.203815,-0.382468,0.378726,0.168253,-0.862078,35.068096,20.036728,10.318480,0.249418,1.721298,0.094161,0.000000,0.000000,0.000000,0.000000,0.000000,0.000000
11911198.000000,2.301186,-1.043807,-1.873771,-1.467208,-1.006147,1.778456,0.489337,0.004474,-0.399204,-0.201104,-0.209775,-0.384071,0.377385,0.168288,-0.786700,35.167278,19.961349,10.417662,0.213712,1.727706,0.107894,0.000000,0.000000,0.000000,0.000000,0.000000,0.000000
11911199.000000,2.301187,-1.044203,-1.873970,-1.467420,-1.006536,1.778816,0.489504,0.001743,-0.394565,-0.207761,-0.207710,-0.386092,0.375172,0.164048,-0.711321,35.214886,19.937546,10.465269,0.171598,1.786300,0.100570,0.000000,0.000000,0.000000,0.000000,0.000000,0.000000
11911200.000000,2.301192,-1.044601,-1.874177,-1.467634,-1.006926,1.779193,0.489668,0.000997,-0.396820,-0.207829,-0.208037,-0.387497,0.374293,0.162642,-0.687518,35.266460,19.937546,10.465269,0.147794,1.819259,0.100570,0.000000,0.000000,0.000000,0.000000,0.000000,0.000000
11911201.000000,2.301202,-1.045011,-1.874385,-1.467848,-1.007314,1.779579,0.489840,0.004791,-0.396264,-0.204643,-0.211907,-0.392547,0.376587,0.165050,-0.711321,35.337872,19.961349,10.516844,0.100187,1.786300,0.081344,0.000000,0.000000,0.000000,0.000000,0.000000,0.000000
11911202.000000,2.301201,-1.045414,-1.874586,-1.468061,-1.007712,1.779943,0.490000,0.000811,-0.400119,-0.204539,-0.212495,-0.388576,0.370760,0.165121,-0.588336,35.460857,19.913742,10.592222,0.112089,1.819259,0.133529,0.000000,0.000000,0.000000,0.000000,0.000000,0.000000
11911203.000000,2.301195,-1.045821,-1.874795,-1.468273,-1.008100,1.780314,0.490169,-0.002523,-0.398676,-0.202225,-0.211739,-0.390668,0.364759,0.163320,-0.441546,35.460857,19.937546,10.592222,0.117582,1.884261,0.087753,0.000000,0.000000,0.000000,0.000000,0.000000,0.000000
11911204.000000,2.301194,-1.046228,-1.875003,-1.468490,-1.008490,1.780690,0.490337,-0.000451,-0.402263,-0.207235,-0.213596,-0.393155,0.369797,0.164113,-0.342364,35.607647,19.985153,10.691404,0.105680,1.844894,0.100570,0.000000,0.000000,0.000000,0.000000,0.000000,0.000000
11911205.000000,2.301191,-1.046637,-1.875209,-1.468702,-1.008902,1.781070,0.490508,-0.002139,-0.401967,-0.208360,-0.212086,-0.396908,0.370257,0.169377,-0.243182,35.631451,20.036728,10.691404,0.195402,1.760665,0.100570,0.000000,0.000000,0.000000,0.000000,0.000000,0.000000
11911206.000000,2.301182,-1.047055,-1.875413,-1.468915,-1.009296,1.781445,0.490675,-0.005149,-0.407175,-0.207681,-0.214010,-0.396965,0.369957,0.163979,-0.068621,35.877422,20.036728,10.715208,0.207303,1.793624,0.127120,0.000000,0.000000,0.000000,0.000000,0.000000,0.000000
11911207.000000,2.301178,-1.047467,-1.875621,-1.469123,-1.009692,1.781818,0.490841,-0.004925,-0.411764,-0.206150,-0.214279,-0.399850,0.366518,0.164823,0.006757,36.024212,20.108139,10.663633,0.171598,1.819259,0.140853,0.000000,0.000000,0.000000,0.000000,0.000000,0.000000
11911208.000000,2.301173,-1.047886,-1.875824,-1.469344,-1.010088,1.782202,0.491015,-0.004194,-0.413264,-0.204438,-0.217056,-0.406016,0.365055,0.169155,0.054365,36.270184,20.036728,10.691404,0.178007,1.786300,0.061202,0.000000,0.000000,0.000000,0.000000,0.000000,0.000000
11911209.000000,2.301170,-1.048296,-1.876034,-1.469554,-1.010485,1.782581,0.491171,-0.002644,-0.420258,-0.203591,-0.211646,-0.404297,0.378210,0.160952,0.054365,36.317791,20.108139,10.663633,0.178007,1.702071,0.153671,0.000000,0.000000,0.000000,0.000000,0.000000,0.000000
11911210.000000,2.301159,-1.048709,-1.876244,-1.469760,-1.010875,1.782956,0.491344,-0.004525,-0.417631,-0.206315,-0.208297,-0.400526,0.377301,0.165149,0.177350,36.440777,20.183517,10.564451,0.141385,1.708480,0.107894,0.000000,0.000000,0.000000,0.000000,0.000000,0.000000
11911211.000000,2.301150,-1.049123,-1.876452,-1.469976,-1.011267,1.783325,0.491511,-0.004694,-0.415750,-0.207161,-0.213929,-0.399043,0.368917,0.167288,0.252729,36.440777,20.231125,10.564451,0.129484,1.793624,0.081344,0.000000,0.000000,0.000000,0.000000,0.000000,0.000000
11911212.000000,2.301149,-1.049528,-1.876660,-1.470185,-1.011666,1.783688,0.491674,-0.002509,-0.411077,-0.208298,-0.208982,-0.399838,0.370022,0.160495,0.228925,36.416973,20.278732,10.516844,0.147794,1.819259,0.147262,0.000000,0.000000,0.000000,0.000000,0.000000,0.000000
11911213.000000,2.301142,-1.049943,-1.876872,-1.470401,-1.012062,1.784070,0.491848,-0.002738,-0.409604,-0.206770,-0.210182,-0.400449,0.368547,0.166048,0.276533,36.365398,20.377914,10.540648,0.195402,1.773483,0.067611,0.000000,0.000000,0.000000,0.000000,0.000000,0.000000
11911214.000000,2.301125,-1.050358,-1.877080,-1.470605,-1.012460,1.784449,0.492005,-0.006429,-0.409311,-0.208113,-0.211029,-0.398673,0.371788,0.168453,0.474897,36.440777,20.429489,10.493040,0.189908,1.741439,0.153671,0.000000,0.000000,0.000000,0.000000,0.000000,0.000000
11911215.000000,2.301123,-1.050766,-1.877289,-1.470824,-1.012856,1.784810,0.492176,-0.003702,-0.406818,-0.209987,-0.214870,-0.391776,0.366957,0.165133,0.451093,36.440777,20.524704,10.564451,0.171598,1.773483,0.127120,0.000000,0.000000,0.000000,0.000000,0.000000,0.000000
11911216.000000,2.301120,-1.051184,-1.877508,-1.471040,-1.013241,1.785174,0.492348,-0.002448,-0.408656,-0.208127,-0.211102,-0.392750,0.366582,0.164113,0.451093,36.611370,20.647690,10.592222,0.171598,1.838485,0.061202,0.000000,0.000000,0.000000,0.000000,0.000000,0.000000
11911217.000000,2.301108,-1.051604,-1.877725,-1.471244,-1.013649,1.785538,0.492507,-0.004494,-0.414092,-0.216402,-0.206458,-0.398717,0.368672,0.162600,0.574079,36.805767,20.794479,10.540648,0.154203,1.858627,0.127120,0.000000,0.000000,0.000000,0.000000,0.000000,0.000000
11911218.000000,2.301105,-1.052018,-1.877947,-1.471453,-1.014056,1.785903,0.492672,-0.003634,-0.414189,-0.217286,-0.208349,-0.402132,0.366316,0.162182,0.601850,36.980328,20.945236,10.592222,0.141385,1.858627,0.094161,0.000000,0.000000,0.000000,0.000000,0.000000,0.000000
11911219.000000,2.301105,-1.052422,-1.878174,-1.471660,-1.014449,1.786272,0.492832,-0.005226,-0.410700,-0.218549,-0.210665,-0.401218,0.368348,0.162282,0.601850,36.857342,21.139633,10.592222,0.154203,1.877853,0.140853,0.000000,0.000000,0.000000,0.000000,0.000000,0.000000
11911220.000000,2.301101,-1.052816,-1.878397,-1.471879,-1.014856,1.786644,0.493002,-0.004268,-0.404706,-0.217323,-0.209664,-0.404925,0.366836,0.161254,0.625654,36.710552,21.310226,10.715208,0.171598,1.858627,0.114303,0.000000,0.000000,0.000000,0.000000,0.000000,0.000000
11911221.000000,2.301091,-1.053227,-1.878623,-1.472089,-1.015263,1.787014,0.493162,-0.005337,-0.403815,-0.217791,-0.207050,-0.405572,0.364358,0.158432,0.724836,36.611370,21.484787,10.739012,0.261320,1.851302,0.120712,0.000000,0.000000,0.000000,0.000000,0.000000,0.000000
11911222.000000,2.301090,-1.053622,-1.878841,-1.472294,-1.015663,1.787368,0.493326,-0.003686,-0.403199,-0.218849,-0.205096,-0.405766,0.360566,0.161539,0.724836,36.464581,21.580002,10.762815,0.308927,1.923629,0.107894,0.000000,0.000000,0.000000,0.000000,0.000000,0.000000
11911223.000000,2.301087,-1.054030,-1.879060,-1.472510,-1.016066,1.787735,0.493496,-0.003667,-0.403616,-0.220287,-0.206601,-0.406841,0.357828,0.164970,0.772443,36.341595,21.631577,10.814390,0.303434,1.981307,0.074935,0.000000,0.000000,0.000000,0.000000,0.000000,0.000000
11911224.000000,2.301087,-1.054437,-1.879281,-1.472721,-1.016463,1.788102,0.493651,-0.002517,-0.400579,-0.216592,-0.209697,-0.404145,0.356943,0.165377,0.772443,36.218609,21.655380,10.838194,0.308927,2.020675,0.120712,0.000000,0.000000,0.000000,0.000000,0.000000,0.000000
11911225.000000,2.301081,-1.054845,-1.879511,-1.472928,-1.016854,1.788461,0.493814,-0.003495,-0.399761,-0.221587,-0.206303,-0.399927,0.353826,0.167572,0.847822,36.147198,21.825974,10.838194,0.249418,2.001449,0.087753,0.000000,0.000000,0.000000,0.000000,0.000000,0.000000
11911226.000000,2.301081,-1.055245,-1.879728,-1.473134,-1.017246,1.788832,0.493970,-0.002371,-0.397693,-0.218572,-0.207905,-0.404408,0.355513,0.166108,0.847822,36.048016,21.825974,10.861998,0.201810,1.968490,0.140853,0.000000,0.000000,0.000000,0.000000,0.000000,0.000000
11911227.000000,2.301080,-1.055643,-1.879958,-1.473336,-1.017646,1.789199,0.494137,-0.002168,-0.406075,-0.218231,-0.206480,-0.403843,0.362794,0.167637,0.871625,35.901226,21.948959,10.786619,0.219205,1.988631,0.127120,0.000000,0.000000,0.000000,0.000000,0.000000,0.000000
11911228.000000,2.301080,-1.056049,-1.880171,-1.473546,-1.018040,1.789555,0.494310,-0.001468,-0.405567,-0.215546,-0.203678,-0.397623,0.360396,0.170275,0.871625,35.901226,21.948959,10.786619,0.243009,2.020675,0.074935,0.000000,0.000000,0.000000,0.000000,0.000000,0.000000
11911229.000000,2.301076,-1.056459,-1.880388,-1.473747,-1.018437,1.789917,0.494468,-0.002202,-0.403022,-0.213261,-0.204878,-0.397699,0.360327,0.167909,0.923200,35.829815,21.972763,10.691404,0.255826,2.001449,0.133529,0.000000,0.000000,0.000000,0.000000,0.000000,0.000000
11911230.000000,2.301080,-1.056859,-1.880601,-1.473952,-1.018844,1.790273,0.494638,-0.000831,-0.403012,-0.212585,-0.207093,-0.399238,0.355114,0.170372,0.895429,35.829815,22.000534,10.715208,0.291532,2.001449,0.100570,0.000000,0.000000,0.000000,0.000000,0.000000,0.000000
11911231.000000,2.301083,-1.057270,-1.880824,-1.474167,-1.019247,1.790631,0.494802,-0.000007,-0.405005,-0.218057,-0.205853,-0.399036,0.351025,0.171178,0.871625,35.802044,22.095749,10.762815,0.315336,2.001449,0.074935,0.000000,0.000000,0.000000,0.000000,0.000000,0.000000
11911232.000000,2.301078,-1.057675,-1.881031,-1.474364,-1.019647,1.790986,0.494960,-0.001775,-0.402641,-0.211581,-0.204107,-0.404417,0.351690,0.165143,0.947004,35.706829,21.948959,10.691404,0.243009,2.039901,0.114303,0.000000,0.000000,0.000000,0.000000,0.000000,0.000000
11911233.000000,2.301080,-1.058073,-1.881241,-1.474568,-1.020059,1.791342,0.495127,-0.001189,-0.401731,-0.210406,-0.198718,-0.402305,0.352307,0.163132,0.947004,35.536236,21.877548,10.691404,0.255826,2.072860,0.074935,0.000000,0.000000,0.000000,0.000000,0.000000,0.000000
11911234.000000,2.301087,-1.058472,-1.881454,-1.474771,-1.020456,1.791706,0.495289,0.001523,-0.398212,-0.208259,-0.199787,-0.395493,0.352705,0.164632,0.847822,35.413250,21.825974,10.739012,0.237516,2.092086,0.081344,0.000000,0.000000,0.000000,0.000000,0.000000,0.000000
11911235.000000,2.301088,-1.058870,-1.881661,-1.474974,-1.020868,1.792067,0.495453,0.000456,-0.399152,-0.211971,-0.199107,-0.411755,0.356405,0.161086,0.871625,35.266460,21.702988,10.739012,0.243009,2.039901,0.074935,0.000000,0.000000,0.000000,0.000000,0.000000,0.000000
11911236.000000,2.301087,-1.059276,-1.881865,-1.475175,-1.021287,1.792426,0.495606,-0.000905,-0.402373,-0.205386,-0.196496,-0.413925,0.357429,0.156575,0.923200,35.214886,21.655380,10.786619,0.279630,2.027084,0.133529,0.000000,0.000000,0.000000,0.000000,0.000000,0.000000
11911237.000000,2.301091,-1.059691,-1.882066,-1.475380,-1.021695,1.792788,0.495772,-0.001162,-0.402700,-0.200203,-0.200922,-0.405863,0.357496,0.161243,0.947004,35.214886,21.556198,10.885801,0.315336,2.027084,0.100570,0.000000,0.000000,0.000000,0.000000,0.000000,0.000000
11911238.000000,2.301098,-1.060105,-1.882265,-1.475577,-1.022106,1.793150,0.495932,0.003450,-0.404506,-0.200371,-0.201343,-0.407218,0.358525,0.162709,0.895429,35.413250,21.457016,10.961180,0.303434,2.014266,0.120712,0.000000,0.000000,0.000000,0.000000,0.000000,0.000000
11911239.000000,2.301098,-1.060520,-1.882464,-1.475779,-1.022507,1.793515,0.496089,0.001344,-0.403452,-0.199835,-0.200527,-0.403886,0.363051,0.164492,0.947004,35.437054,21.337997,10.984983,0.291532,2.001449,0.120712,0.000000,0.000000,0.000000,0.000000,0.000000,0.000000
11911240.000000,2.301107,-1.060930,-1.882660,-1.475966,-1.022907,1.793876,0.496249,0.002291,-0.409005,-0.205012,-0.194069,-0.401634,0.358679,0.161686,0.895429,35.560040,21.215012,10.885801,0.261320,2.027084,0.100570,0.000000,0.000000,0.000000,0.000000,0.000000,0.000000
11911241.000000,2.301117,-1.061348,-1.882859,-1.476166,-1.023308,1.794248,0.496408,0.006057,-0.411013,-0.203953,-0.193478,-0.401616,0.360216,0.158399,0.847822,35.607647,21.187241,10.984983,0.189908,1.981307,0.114303,0.000000,0.000000,0.000000,0.000000,0.000000,0.000000
11911242.000000,2.301127,-1.061763,-1.883048,-1.476350,-1.023712,1.794620,0.496575,0.004973,-0.413101,-0.198037,-0.195251,-0.404967,0.360840,0.158177,0.824018,35.683025,21.040451,10.937376,0.183500,1.949264,0.074935,0.000000,0.000000,0.000000,0.000000,0.000000,0.000000
11911243.000000,2.301137,-1.062186,-1.883241,-1.476537,-1.024112,1.794989,0.496735,0.007823,-0.416299,-0.194678,-0.191300,-0.403664,0.370816,0.158750,0.772443,35.829815,20.969040,10.885801,0.183500,1.923629,0.127120,0.000000,0.000000,0.000000,0.000000,0.000000,0.000000
11911244.000000,2.301147,-1.062601,-1.883433,-1.476732,-1.024511,1.795358,0.496903,0.005123,-0.417384,-0.193525,-0.188114,-0.413449,0.368322,0.158469,0.796247,35.829815,20.969040,10.937376,0.189908,1.884261,0.094161,0.000000,0.000000,0.000000,0.000000,0.000000,0.000000
11911245.000000,2.301157,-1.063025,-1.883614,-1.476916,-1.024921,1.795727,0.497070,0.007041,-0.426043,-0.187131,-0.183849,-0.411262,0.369859,0.161404,0.796247,35.948833,20.822250,10.913572,0.237516,1.844894,0.087753,0.000000,0.000000,0.000000,0.000000,0.000000,0.000000
11911246.000000,2.301164,-1.063434,-1.883799,-1.477097,-1.025324,1.796083,0.497228,0.007383,-0.422146,-0.186165,-0.180022,-0.402863,0.366211,0.156938,0.824018,35.925030,20.746872,10.885801,0.261320,1.858627,0.140853,0.000000,0.000000,0.000000,0.000000,0.000000,0.000000
11911247.000000,2.301181,-1.063856,-1.883988,-1.477278,-1.025717,1.796450,0.497398,0.010926,-0.419573,-0.183645,-0.182415,-0.404801,0.364598,0.162631,0.724836,35.948833,20.699265,10.838194,0.237516,1.844894,0.081344,0.000000,0.000000,0.000000,0.000000,0.000000,0.000000
11911248.000000,2.301194,-1.064265,-1.884166,-1.477460,-1.026120,1.796808,0.497558,0.012251,-0.418215,-0.184012,-0.182033,-0.402633,0.363564,0.162964,0.673261,35.948833,20.552475,10.786619,0.207303,1.825668,0.114303,0.000000,0.000000,0.000000,0.000000,0.000000,0.000000
11911249.000000,2.301216,-1.064680,-1.884355,-1.477643,-1.026522,1.797157,0.497723,0.015676,-0.416823,-0.184929,-0.179765,-0.399711,0.359856,0.165498,0.526471,35.948833,20.524704,10.786619,0.159696,1.871444,0.094161,0.000000,0.000000,0.000000,0.000000,0.000000,0.000000
11911250.000000,2.301229,-1.065098,-1.884542,-1.477815,-1.026919,1.797516,0.497883,0.017657,-0.415788,-0.184273,-0.180099,-0.401130,0.359047,0.159827,0.526471,36.048016,20.524704,10.663633,0.100187,1.890670,0.147262,0.000000,0.000000,0.000000,0.000000,0.000000,0.000000
11911251.000000,2.301248,-1.065507,-1.884725,-1.477979,-1.027330,1.797866,0.498054,0.021575,-0.413940,-0.186923,-0.175259,-0.400479,0.358727,0.163517,0.427289,36.000408,20.453293,10.540648,0.112089,1.897079,0.120712,0.000000,0.000000,0.000000,0.000000,0.000000,0.000000
11911252.000000,2.301272,-1.065919,-1.884915,-1.478162,-1.027732,1.798220,0.498217,0.022603,-0.415584,-0.184631,-0.176322,-0.400288,0.354477,0.165936,0.276533,35.976604,20.477097,10.592222,0.135892,1.865035,0.100570,0.000000,0.000000,0.000000,0.000000,0.000000,0.000000
11911253.000000,2.301287,-1.066327,-1.885099,-1.478330,-1.028138,1.798577,0.498379,0.021353,-0.412630,-0.189478,-0.170184,-0.405276,0.357753,0.166351,0.205121,35.877422,20.477097,10.493040,0.123990,1.800033,0.107894,0.000000,0.000000,0.000000,0.000000,0.000000,0.000000
11911254.000000,2.301301,-1.066722,-1.885281,-1.478503,-1.028555,1.798935,0.498543,0.019440,-0.406271,-0.190600,-0.167122,-0.408659,0.357543,0.168052,0.177350,35.583843,20.401718,10.465269,0.154203,1.812850,0.094161,0.000000,0.000000,0.000000,0.000000,0.000000,0.000000
11911255.000000,2.301326,-1.067130,-1.885469,-1.478673,-1.028964,1.799290,0.498700,0.021224,-0.403641,-0.191555,-0.170115,-0.406511,0.356035,0.163038,0.006757,35.361675,20.401718,10.441465,0.178007,1.858627,0.114303,0.000000,0.000000,0.000000,0.000000,0.000000,0.000000
11911256.000000,2.301351,-1.067529,-1.885653,-1.478837,-1.029386,1.799643,0.498870,0.021633,-0.405154,-0.188663,-0.169785,-0.414675,0.357751,0.167039,-0.144000,35.143475,20.306503,10.393858,0.219205,1.832076,0.074935,0.000000,0.000000,0.000000,0.000000,0.000000,0.000000
11911257.000000,2.301368,-1.067940,-1.885837,-1.479000,-1.029803,1.800000,0.499030,0.019697,-0.400952,-0.186910,-0.167274,-0.426402,0.356607,0.166484,-0.191607,34.996685,20.231125,10.243101,0.225614,1.851302,0.107894,0.000000,0.000000,0.000000,0.000000,0.000000,0.000000
11911258.000000,2.301387,-1.068337,-1.886030,-1.479163,-1.030219,1.800349,0.499197,0.021345,-0.407783,-0.191220,-0.164911,-0.424873,0.363200,0.166221,-0.215411,34.798321,20.231125,10.195494,0.243009,1.884261,0.133529,0.000000,0.000000,0.000000,0.000000,0.000000,0.000000
11911259.000000,2.301410,-1.068750,-1.886216,-1.479324,-1.030632,1.800712,0.499371,0.020961,-0.408555,-0.189527,-0.162475,-0.419924,0.360402,0.170141,-0.314593,34.726910,20.183517,10.143919,0.189908,1.812850,0.054794,0.000000,0.000000,0.000000,0.000000,0.000000,0.000000
11911260.000000,2.301429,-1.069165,-1.886408,-1.479485,-1.031051,1.801078,0.499528,0.018535,-0.413116,-0.189776,-0.164363,-0.414119,0.361891,0.163244,-0.314593,34.703106,20.159714,10.143919,0.195402,1.760665,0.107894,0.000000,0.000000,0.000000,0.000000,0.000000,0.000000
11911261.000000,2.301454,-1.069574,-1.886592,-1.479636,-1.031466,1.801437,0.499693,0.018930,-0.411190,-0.185109,-0.161911,-0.414424,0.360520,0.159313,-0.413775,34.726910,20.108139,10.072508,0.178007,1.773483,0.127120,0.000000,0.000000,0.000000,0.000000,0.000000,0.000000
11911262.000000,2.301476,-1.069986,-1.886782,-1.479796,-1.031889,1.801797,0.499858,0.019997,-0.412529,-0.186684,-0.158686,-0.418258,0.359180,0.158785,-0.413775,34.774517,20.131943,10.072508,0.147794,1.773483,0.087753,0.000000,0.000000,0.000000,0.000000,0.000000,0.000000
11911263.000000,2.301497,-1.070405,-1.886966,-1.479954,-1.032304,1.802149,0.500019,0.018662,-0.421315,-0.182855,-0.158977,-0.418073,0.364693,0.161893,-0.441546,34.826092,20.036728,10.096312,0.154203,1.812850,0.074935,0.000000,0.000000,0.000000,0.000000,0.000000,0.000000
11911264.000000,2.301517,-1.070819,-1.887158,-1.480108,-1.032721,1.802500,0.500180,0.020070,-0.420925,-0.184650,-0.152889,-0.413217,0.361675,0.163881,-0.441546,34.897503,20.036728,10.096312,0.195402,1.844894,0.074935,0.000000,0.000000,0.000000,0.000000,0.000000,0.000000
11911265.000000,2.301538,-1.071232,-1.887350,-1.480262,-1.033134,1.802859,0.500336,0.017946,-0.415435,-0.185849,-0.153350,-0.418178,0.358199,0.164194,-0.441546,34.897503,20.008957,10.072508,0.201810,1.786300,0.107894,0.000000,0.000000,0.000000,0.000000,0.000000,0.000000
11911266.000000,2.301554,-1.071647,-1.887538,-1.480416,-1.033560,1.803210,0.500499,0.015173,-0.417075,-0.188231,-0.153206,-0.418725,0.354953,0.161565,-0.389971,34.996685,19.985153,10.120115,0.201810,1.747848,0.100570,0.000000,0.000000,0.000000,0.000000,0.000000,0.000000
11911267.000000,2.301576,-1.072063,-1.887727,-1.480573,-1.033981,1.803559,0.500654,0.017505,-0.415340,-0.186516,-0.152686,-0.413778,0.354258,0.158735,-0.389971,34.996685,19.913742,10.171690,0.213712,1.779891,0.107894,0.000000,0.000000,0.000000,0.000000,0.000000,0.000000
11911268.000000,2.301587,-1.072487,-1.887916,-1.480728,-1.034398,1.803920,0.500813,0.013551,-0.419767,-0.186855,-0.152462,-0.416099,0.350677,0.157528,-0.266986,35.068096,19.838364,10.120115,0.147794,1.773483,0.094161,0.000000,0.000000,0.000000,0.000000,0.000000,0.000000
11911269.000000,2.301609,-1.072907,-1.888106,-1.480880,-1.034824,1.804276,0.500968,0.016456,-0.420410,-0.184396,-0.148565,-0.416864,0.349976,0.155835,-0.266986,35.167278,19.838364,10.143919,0.178007,1.714889,0.094161,0.000000,0.000000,0.000000,0.000000,0.000000,0.000000
11911270.000000,2.301625,-1.073337,-1.888299,-1.481035,-1.035241,1.804628,0.501113,0.014584,-0.425045,-0.186108,-0.145908,-0.417658,0.351731,0.152694,-0.215411,35.361675,19.885971,10.171690,0.219205,1.702071,0.147262,0.000000,0.000000,0.000000,0.000000,0.000000,0.000000
11911271.000000,2.301636,-1.073760,-1.888482,-1.481186,-1.035665,1.804975,0.501272,0.014364,-0.427247,-0.188281,-0.143144,-0.421675,0.346435,0.159039,-0.092425,35.460857,19.862167,10.171690,0.183500,1.760665,0.087753,0.000000,0.000000,0.000000,0.000000,0.000000,0.000000
11911272.000000,2.301650,-1.074194,-1.888670,-1.481338,-1.036093,1.805324,0.501428,0.015485,-0.430142,-0.188772,-0.143936,-0.415436,0.344381,0.157695,-0.017047,35.607647,19.885971,10.171690,0.189908,1.773483,0.087753,0.000000,0.000000,0.000000,0.000000,0.000000,0.000000
11911273.000000,2.301664,-1.074633,-1.888861,-1.481490,-1.036508,1.805676,0.501578,0.016444,-0.429616,-0.186325,-0.148153,-0.415421,0.339981,0.159226,0.054365,35.802044,19.885971,10.096312,0.195402,1.727706,0.127120,0.000000,0.000000,0.000000,0.000000,0.000000,0.000000
11911274.000000,2.301682,-1.075062,-1.889046,-1.481636,-1.036934,1.806023,0.501737,0.015438,-0.431046,-0.186748,-0.145856,-0.419974,0.339935,0.157865,0.078168,35.925030,19.885971,9.997129,0.171598,1.721298,0.107894,0.000000,0.000000,0.000000,0.000000,0.000000,0.000000
11911275.000000,2.301697,-1.075495,-1.889239,-1.481786,-1.037343,1.806379,0.501892,0.013976,-0.426991,-0.188142,-0.145477,-0.425126,0.339148,0.156134,0.129743,36.000408,19.937546,9.949522,0.154203,1.714889,0.107894,0.000000,0.000000,0.000000,0.000000,0.000000,0.000000
11911276.000000,2.301718,-1.075927,-1.889430,-1.481933,-1.037754,1.806724,0.502047,0.017677,-0.437032,-0.187899,-0.145686,-0.423004,0.346492,0.159849,0.105939,36.048016,20.008957,9.921751,0.141385,1.714889,0.094161,0.000000,0.000000,0.000000,0.000000,0.000000,0.000000
11911277.000000,2.301734,-1.076356,-1.889629,-1.482078,-1.038176,1.807073,0.502201,0.018635,-0.428100,-0.190689,-0.143769,-0.420585,0.345789,0.161393,0.153547,36.071819,20.131943,9.822569,0.147794,1.682845,0.120712,0.000000,0.000000,0.000000,0.000000,0.000000,0.000000
11911278.000000,2.301753,-1.076800,-1.889822,-1.482232,-1.038592,1.807422,0.502358,0.020498,-0.429928,-0.188358,-0.146359,-0.420369,0.346945,0.160088,0.153547,36.194805,20.183517,9.774961,0.178007,1.727706,0.094161,0.000000,0.000000,0.000000,0.000000,0.000000,0.000000
11911279.000000,2.301769,-1.077236,-1.890017,-1.482382,-1.039005,1.807766,0.502510,0.020572,-0.432720,-0.190850,-0.143784,-0.419917,0.348667,0.156686,0.205121,36.365398,20.306503,9.774961,0.183500,1.767074,0.114303,0.000000,0.000000,0.000000,0.000000,0.000000,0.000000
11911280.000000,2.301790,-1.077680,-1.890216,-1.482532,-1.039427,1.808110,0.502668,0.022475,-0.434304,-0.192695,-0.141946,-0.417552,0.341655,0.155926,0.177350,36.563763,20.429489,9.774961,0.154203,1.760665,0.100570,0.000000,0.000000,0.000000,0.000000,0.000000,0.000000
11911281.000000,2.301802,-1.078120,-1.890416,-1.482677,-1.039840,1.808466,0.502827,0.020937,-0.438938,-0.193978,-0.144613,-0.417260,0.342718,0.155105,0.276533,36.710552,20.500900,9.727354,0.154203,1.714889,0.087753,0.000000,0.000000,0.000000,0.000000,0.000000,0.000000
11911282.000000,2.301828,-1.078545,-1.890624,-1.482824,-1.040250,1.808817,0.502980,0.024556,-0.433897,-0.198802,-0.142699,-0.410434,0.343039,0.152242,0.177350,36.682781,20.647690,9.751158,0.129484,1.682845,0.133529,0.000000,0.000000,0.000000,0.000000,0.000000,0.000000
11911283.000000,2.301847,-1.078973,-1.890830,-1.482975,-1.040671,1.809161,0.503137,0.021439,-0.433427,-0.201101,-0.146235,-0.412272,0.341219,0.153778,0.177350,36.658978,20.770676,9.751158,0.154203,1.689254,0.087753,0.000000,0.000000,0.000000,0.000000,0.000000,0.000000
11911284.000000,2.301867,-1.079399,-1.891037,-1.483114,-1.041101,1.809488,0.503291,0.018685,-0.429745,-0.202863,-0.140693,-0.415912,0.338524,0.152827,0.205121,36.587566,20.869858,9.628172,0.201810,1.747848,0.107894,0.000000,0.000000,0.000000,0.000000,0.000000,0.000000
11911285.000000,2.301892,-1.079824,-1.891241,-1.483270,-1.041524,1.809820,0.503443,0.022398,-0.429815,-0.202886,-0.142582,-0.415986,0.339769,0.148277,0.129743,36.512188,20.917465,9.774961,0.207303,1.851302,0.094161,0.000000,0.000000,0.000000,0.000000,0.000000,0.000000
11911286.000000,2.301908,-1.080259,-1.891451,-1.483420,-1.041948,1.810163,0.503594,0.018841,-0.427513,-0.201304,-0.144034,-0.416387,0.335353,0.143722,0.177350,36.440777,20.969040,9.822569,0.231107,1.844894,0.107894,0.000000,0.000000,0.000000,0.000000,0.000000,0.000000
11911287.000000,2.301933,-1.080687,-1.891656,-1.483568,-1.042373,1.810503,0.503746,0.021528,-0.431530,-0.206106,-0.142501,-0.420551,0.334139,0.149853,0.129743,36.341595,21.064255,9.874144,0.225614,1.793624,0.120712,0.000000,0.000000,0.000000,0.000000,0.000000,0.000000
11911288.000000,2.301951,-1.081126,-1.891865,-1.483715,-1.042787,1.810838,0.503908,0.018553,-0.429019,-0.206244,-0.141726,-0.422638,0.338859,0.152250,0.153547,36.317791,21.163437,9.921751,0.201810,1.819259,0.067611,0.000000,0.000000,0.000000,0.000000,0.000000,0.000000
11911289.000000,2.301972,-1.081551,-1.892071,-1.483863,-1.043217,1.811171,0.504059,0.019978,-0.433185,-0.208992,-0.145937,-0.426074,0.332102,0.149089,0.153547,36.242413,21.187241,9.921751,0.178007,1.877853,0.133529,0.000000,0.000000,0.000000,0.000000,0.000000,0.000000
11911290.000000,2.301996,-1.081987,-1.892286,-1.484011,-1.043650,1.811507,0.504217,0.021611,-0.431581,-0.209370,-0.142955,-0.423391,0.331902,0.154842,0.129743,36.218609,21.310226,9.921751,0.189908,1.949264,0.100570,0.000000,0.000000,0.000000,0.000000,0.000000,0.000000
11911291.000000,2.302017,-1.082428,-1.892495,-1.484163,-1.044079,1.811846,0.504376,0.021941,-0.434534,-0.209154,-0.148082,-0.425967,0.329854,0.154528,0.153547,36.242413,21.361801,9.997129,0.189908,1.936446,0.081344,0.000000,0.000000,0.000000,0.000000,0.000000,0.000000
11911292.000000,2.302035,-1.082858,-1.892706,-1.484310,-1.044516,1.812186,0.504531,0.021318,-0.429700,-0.208281,-0.145788,-0.424953,0.333418,0.152833,0.205121,36.242413,21.433212,10.048704,0.219205,1.909896,0.114303,0.000000,0.000000,0.000000,0.000000,0.000000,0.000000
11911293.000000,2.302049,-1.083297,-1.892920,-1.484460,-1.044940,1.812525,0.504682,0.020201,-0.431922,-0.210379,-0.144595,-0.434519,0.334324,0.147686,0.304304,36.270184,21.484787,10.120115,0.231107,1.909896,0.114303,0.000000,0.000000,0.000000,0.000000,0.000000,0.000000
11911294.000000,2.302066,-1.083729,-1.893139,-1.484606,-1.045372,1.812864,0.504835,0.020317,-0.439874,-0.208547,-0.145373,-0.434996,0.343776,0.148359,0.375715,36.242413,21.607773,10.171690,0.243009,1.884261,0.114303,0.000000,0.000000,0.000000,0.000000,0.000000,0.000000
11911295.000000,2.302081,-1.084167,-1.893339,-1.484755,-1.045811,1.813199,0.504993,0.019784,-0.437489,-0.205382,-0.142738,-0.429945,0.342220,0.150758,0.474897,36.147198,21.580002,10.195494,0.249418,1.897079,0.067611,0.000000,0.000000,0.000000,0.000000,0.000000,0.000000
11911296.000000,2.302097,-1.084600,-1.893550,-1.484904,-1.046242,1.813538,0.505143,0.020370,-0.432282,-0.203447,-0.143562,-0.430973,0.339247,0.155081,0.526471,36.048016,21.655380,10.219297,0.255826,1.955673,0.100570,0.000000,0.000000,0.000000,0.000000,0.000000,0.000000
11911297.000000,2.302114,-1.085031,-1.893750,-1.485052,-1.046683,1.813869,0.505302,0.020156,-0.430703,-0.200746,-0.146118,-0.431820,0.337311,0.159214,0.601850,35.901226,21.580002,10.294676,0.225614,2.020675,0.081344,0.000000,0.000000,0.000000,0.000000,0.000000,0.000000
