chaoyuefei/paper-gmrm-data/robot_logs/s2_dq_gmrm_xz_max_0.30_log_20260314_173635.csv
# time_ms,q_0,q_1,q_2,q_3,q_4,q_5,q_6,dq_0,dq_1,dq_2,dq_3,dq_4,dq_5,dq_6,tau_J_0,tau_J_1,tau_J_2,tau_J_3,tau_J_4,tau_J_5,tau_J_6,O_dP_EE_c_0,O_dP_EE_c_1,O_dP_EE_c_2,O_dP_EE_c_3,O_dP_EE_c_4,O_dP_EE_c_5
12457817.000000,-0.344672,0.544239,0.451051,-1.426819,-0.242504,1.916511,0.131709,-0.000018,0.000217,0.000569,-0.001163,0.000531,-0.000012,0.000214,0.078168,-38.461567,5.972702,19.391661,0.840848,1.350509,-0.149369,0.000000,0.000000,0.000000,0.000000,0.000000,0.000000
12457818.000000,-0.344674,0.544237,0.451051,-1.426817,-0.242504,1.916511,0.131708,-0.000662,-0.000412,0.000379,-0.000126,0.000558,-0.000008,-0.000094,0.105939,-38.437763,5.972702,19.363890,0.835355,1.350509,-0.142960,0.000000,0.000000,0.000000,0.000000,0.000000,0.000000
12457819.000000,-0.344672,0.544237,0.451049,-1.426817,-0.242505,1.916510,0.131704,0.000208,-0.000275,-0.000304,-0.000084,0.000168,-0.000277,-0.001284,0.078168,-38.437763,5.996506,19.363890,0.840848,1.357833,-0.110001,0.000000,0.000000,0.000000,0.000000,0.000000,0.000000
12457820.000000,-0.344674,0.544236,0.451049,-1.426815,-0.242508,1.916510,0.131710,0.000139,-0.000740,-0.000203,0.000501,-0.000769,-0.000184,0.000840,0.078168,-38.413960,5.996506,19.340086,0.864652,1.357833,-0.155778,0.000000,0.000000,0.000000,0.000000,0.000000,0.000000
12457821.000000,-0.344696,0.544241,0.451048,-1.426819,-0.242504,1.916509,0.131711,-0.019446,0.011575,-0.011525,-0.007024,-0.002193,0.000623,-0.000152,-0.290789,-37.850605,5.405380,19.117918,0.769437,1.337692,-0.136552,0.000000,0.000000,0.000000,0.000000,0.000000,0.000000
12457822.000000,-0.344713,0.544233,0.451033,-1.426823,-0.242483,1.916506,0.131720,-0.025665,0.018882,-0.023823,-0.012541,0.005953,-0.002815,0.002176,-1.726946,-35.696369,3.862106,18.078489,0.416959,1.299239,-0.070634,0.000000,0.000000,0.000000,0.000000,0.000000,0.000000
12457823.000000,-0.344723,0.544238,0.450957,-1.426840,-0.242475,1.916500,0.131753,-0.018604,0.019373,-0.041157,-0.020879,0.006014,-0.002502,0.008332,-3.904986,-32.490803,2.144272,16.324949,0.064481,1.305648,-0.116410,0.000000,0.000000,0.000000,0.000000,0.000000,0.000000
12457824.000000,-0.344737,0.544281,0.450873,-1.426859,-0.242515,1.916498,0.131788,-0.004705,0.023332,-0.051313,-0.018409,-0.009115,-0.003146,0.015709,-6.059222,-28.963886,0.081283,13.678770,0.100187,1.337692,-0.116410,0.000000,0.000000,0.000000,0.000000,0.000000,0.000000
12457825.000000,-0.344762,0.544358,0.450750,-1.426929,-0.242557,1.916499,0.131819,-0.003285,0.026068,-0.061586,-0.026923,-0.016387,-0.000546,0.019072,-7.642169,-25.805927,-1.537369,11.334105,0.046171,1.416427,-0.056901,0.000000,0.000000,0.000000,0.000000,0.000000,0.000000
12457826.000000,-0.344795,0.544446,0.450632,-1.427012,-0.242617,1.916566,0.131861,-0.004016,0.036888,-0.070575,-0.038652,-0.034912,0.022990,0.025157,-8.483233,-23.088337,-2.739456,9.132261,0.069974,1.045638,-0.089860,0.000000,0.000000,0.000000,0.000000,0.000000,0.000000
12457827.000000,-0.344812,0.544567,0.450524,-1.427098,-0.242715,1.916702,0.131895,-0.002315,0.055403,-0.070499,-0.049655,-0.052742,0.065429,0.025896,-8.832355,-21.084858,-3.405960,7.005797,0.351041,0.212508,-0.023942,0.000000,0.000000,0.000000,0.000000,0.000000,0.000000
12457828.000000,-0.344826,0.544690,0.450426,-1.427189,-0.242808,1.916856,0.131930,-0.003827,0.075334,-0.072761,-0.055230,-0.069201,0.095842,0.027816,-8.582416,-19.565388,-3.378189,5.129271,0.470060,-0.496110,0.009017,0.000000,0.000000,0.000000,0.000000,0.000000,0.000000
12457829.000000,-0.344853,0.544800,0.450370,-1.427292,-0.242893,1.917004,0.131976,-0.011780,0.083863,-0.064263,-0.065165,-0.074801,0.119265,0.036019,-7.669940,-18.192707,-3.282974,3.645506,0.422452,-0.743302,0.009017,0.000000,0.000000,0.000000,0.000000,0.000000,0.000000
12457830.000000,-0.344864,0.544900,0.450332,-1.427402,-0.242979,1.917143,0.132030,-0.012466,0.086899,-0.050177,-0.074124,-0.077951,0.126201,0.039054,-6.725726,-16.871601,-2.914017,2.530699,0.320829,-0.561112,-0.056901,0.000000,0.000000,0.000000,0.000000,0.000000,0.000000
12457831.000000,-0.344853,0.544979,0.450301,-1.427524,-0.243054,1.917313,0.132089,-0.007017,0.085769,-0.046271,-0.089930,-0.077342,0.136277,0.044096,-5.960040,-15.451313,-2.322891,1.864195,0.129484,-0.326737,-0.077042,0.000000,0.000000,0.000000,0.000000,0.000000,0.000000
12457832.000000,-0.344852,0.545040,0.450279,-1.427669,-0.243116,1.917517,0.132144,-0.009367,0.077026,-0.039812,-0.105449,-0.069098,0.155138,0.046123,-5.019793,-13.860432,-1.684158,1.570616,-0.150668,-0.131730,-0.050492,0.000000,0.000000,0.000000,0.000000,0.000000,0.000000
12457833.000000,-0.344862,0.545080,0.450257,-1.427845,-0.243178,1.917752,0.132214,-0.012688,0.062186,-0.036326,-0.130631,-0.063781,0.183970,0.055574,-3.956561,-12.174335,-1.073197,1.840392,-0.419833,0.044051,-0.110001,0.000000,0.000000,0.000000,0.000000,0.000000,0.000000
12457834.000000,-0.344871,0.545108,0.450217,-1.428041,-0.243266,1.918002,0.132277,-0.013968,0.051168,-0.040269,-0.153570,-0.070987,0.204741,0.059448,-3.040118,-10.484272,-0.287674,2.336302,-0.389620,0.304061,-0.083451,0.000000,0.000000,0.000000,0.000000,0.000000,0.000000
12457835.000000,-0.344881,0.545149,0.450172,-1.428258,-0.243375,1.918268,0.132354,-0.012847,0.048605,-0.043902,-0.175656,-0.082724,0.219578,0.064724,-2.199053,-9.040180,0.426437,3.002806,-0.180880,0.589706,-0.116410,0.000000,0.000000,0.000000,0.000000,0.000000,0.000000
12457836.000000,-0.344920,0.545205,0.450126,-1.428467,-0.243491,1.918564,0.132424,-0.024688,0.053960,-0.049986,-0.190141,-0.092620,0.243100,0.065379,-1.084246,-7.913471,1.037399,3.371763,0.088285,0.694076,-0.064225,0.000000,0.000000,0.000000,0.000000,0.000000,0.000000
12457837.000000,-0.344968,0.545285,0.450083,-1.428697,-0.243594,1.918889,0.132496,-0.035525,0.063013,-0.046961,-0.206021,-0.094104,0.268130,0.066846,0.006757,-7.179523,1.453964,3.720885,0.213712,0.700484,-0.031266,0.000000,0.000000,0.000000,0.000000,0.000000,0.000000
12457838.000000,-0.344998,0.545385,0.450050,-1.428930,-0.243699,1.919252,0.132580,-0.035131,0.076347,-0.039875,-0.215665,-0.098132,0.294683,0.070214,0.748639,-6.786762,1.652328,3.843870,0.279630,0.629073,-0.064225,0.000000,0.000000,0.000000,0.000000,0.000000,0.000000
12457839.000000,-0.345022,0.545510,0.450013,-1.429162,-0.243790,1.919634,0.132658,-0.029554,0.091482,-0.035134,-0.222981,-0.100184,0.325539,0.074366,1.244550,-6.810566,1.846725,3.816099,0.178007,0.499068,-0.011124,0.000000,0.000000,0.000000,0.000000,0.000000,0.000000
12457840.000000,-0.345041,0.545642,0.449988,-1.429401,-0.243866,1.920026,0.132747,-0.026329,0.104638,-0.027459,-0.227621,-0.095720,0.344074,0.076042,1.613508,-6.862141,1.846725,3.494749,-0.103060,0.459701,-0.044083,0.000000,0.000000,0.000000,0.000000,0.000000,0.000000
12457841.000000,-0.345067,0.545782,0.449961,-1.429649,-0.243954,1.920440,0.132838,-0.025330,0.119055,-0.025551,-0.232456,-0.096034,0.366636,0.077881,2.010236,-6.885944,1.846725,3.173399,-0.300814,0.453292,-0.089860,0.000000,0.000000,0.000000,0.000000,0.000000,0.000000
12457842.000000,-0.345083,0.545915,0.449924,-1.429910,-0.244063,1.920865,0.132915,-0.020399,0.124030,-0.030562,-0.237923,-0.098919,0.384799,0.079684,2.208601,-6.691547,1.969711,2.903624,-0.306307,0.544845,-0.031266,0.000000,0.000000,0.000000,0.000000,0.000000,0.000000
12457843.000000,-0.345093,0.546038,0.449883,-1.430191,-0.244181,1.921308,0.133006,-0.014517,0.123794,-0.031784,-0.253792,-0.104636,0.404149,0.085333,2.283979,-6.199604,2.116501,2.729063,-0.204684,0.622665,-0.083451,0.000000,0.000000,0.000000,0.000000,0.000000,0.000000
12457844.000000,-0.345109,0.546149,0.449838,-1.430491,-0.244297,1.921789,0.133089,-0.015006,0.119554,-0.035337,-0.271174,-0.109042,0.432353,0.081820,2.406965,-5.513264,2.239486,2.780638,-0.085665,0.589706,-0.056901,0.000000,0.000000,0.000000,0.000000,0.000000,0.000000
12457845.000000,-0.345129,0.546255,0.449793,-1.430803,-0.244423,1.922312,0.133172,-0.016351,0.115041,-0.036942,-0.283622,-0.120628,0.452864,0.085057,2.553754,-4.755512,2.314865,2.852049,0.129484,0.414840,-0.056901,0.000000,0.000000,0.000000,0.000000,0.000000,0.000000
12457846.000000,-0.345147,0.546372,0.449754,-1.431128,-0.244545,1.922852,0.133254,-0.016457,0.115386,-0.035905,-0.303866,-0.119353,0.485785,0.080591,2.652936,-4.021564,2.291061,2.927428,0.237516,0.291244,-0.004716,0.000000,0.000000,0.000000,0.000000,0.000000,0.000000
12457847.000000,-0.345157,0.546503,0.449721,-1.431455,-0.244655,1.923395,0.133347,-0.014404,0.121505,-0.035676,-0.311251,-0.123035,0.503515,0.081592,2.652936,-3.482014,2.144272,2.852049,0.201810,0.343429,-0.056901,0.000000,0.000000,0.000000,0.000000,0.000000,0.000000
12457848.000000,-0.345162,0.546657,0.449689,-1.431782,-0.244761,1.923947,0.133435,-0.012137,0.127372,-0.033254,-0.317686,-0.119170,0.518069,0.080558,2.605329,-3.410603,2.021286,2.681456,0.100187,0.616256,-0.070634,0.000000,0.000000,0.000000,0.000000,0.000000,0.000000
12457849.000000,-0.345152,0.546832,0.449661,-1.432099,-0.244857,1.924521,0.133521,-0.004651,0.139713,-0.030803,-0.314784,-0.113700,0.531528,0.079377,2.430768,-4.120747,1.997482,2.582274,-0.079257,0.857040,-0.064225,0.000000,0.000000,0.000000,0.000000,0.000000,0.000000
12457850.000000,-0.345155,0.547009,0.449640,-1.432417,-0.244953,1.925155,0.133606,-0.004140,0.148716,-0.026490,-0.312367,-0.106568,0.564741,0.079113,2.454572,-5.318867,1.997482,2.629881,-0.222994,0.830489,-0.083451,0.000000,0.000000,0.000000,0.000000,0.000000,0.000000
12457851.000000,-0.345157,0.547184,0.449615,-1.432756,-0.245045,1.925820,0.133685,-0.002985,0.158942,-0.027695,-0.323525,-0.101152,0.594906,0.075823,2.581525,-6.762959,2.191879,3.026610,-0.372225,0.564071,-0.023942,0.000000,0.000000,0.000000,0.000000,0.000000,0.000000
12457852.000000,-0.345158,0.547360,0.449591,-1.433095,-0.245164,1.926520,0.133765,-0.001736,0.169320,-0.025684,-0.332113,-0.111382,0.631809,0.079632,2.704511,-8.282429,2.414047,3.522520,-0.282504,0.258285,0.001693,0.000000,0.000000,0.000000,0.000000,0.000000,0.000000
12457853.000000,-0.345152,0.547539,0.449564,-1.433449,-0.245296,1.927219,0.133854,0.001124,0.174811,-0.028632,-0.343728,-0.118257,0.646750,0.081380,2.752119,-9.774128,2.707626,4.014464,-0.055453,0.134689,-0.064225,0.000000,0.000000,0.000000,0.000000,0.000000,0.000000
12457854.000000,-0.345148,0.547714,0.449532,-1.433800,-0.245434,1.927903,0.133927,0.002576,0.179226,-0.030454,-0.350402,-0.123534,0.659472,0.081572,2.827497,-11.047626,3.001205,4.288207,0.201810,0.115462,0.015426,0.000000,0.000000,0.000000,0.000000,0.000000,0.000000
12457855.000000,-0.345144,0.547885,0.449507,-1.434169,-0.245556,1.928584,0.134012,0.001760,0.177493,-0.030776,-0.354178,-0.121665,0.663091,0.081475,2.851301,-12.245747,3.124191,4.657164,0.315336,0.121871,-0.017533,0.000000,0.000000,0.000000,0.000000,0.000000,0.000000
12457856.000000,-0.345128,0.548057,0.449476,-1.434550,-0.245675,1.929275,0.134092,0.005453,0.170209,-0.034296,-0.359831,-0.123404,0.668556,0.080594,2.553754,-13.594624,3.247177,5.276061,0.369352,0.199691,-0.037675,0.000000,0.000000,0.000000,0.000000,0.000000,0.000000
12457857.000000,-0.345109,0.548223,0.449452,-1.434922,-0.245783,1.929953,0.134166,0.008441,0.165825,-0.031647,-0.359876,-0.119566,0.675599,0.073380,2.085615,-15.133930,3.270981,6.140929,0.279630,0.336105,-0.004716,0.000000,0.000000,0.000000,0.000000,0.000000,0.000000
12457858.000000,-0.345108,0.548394,0.449426,-1.435296,-0.245876,1.930641,0.134252,0.003205,0.166449,-0.029330,-0.365247,-0.112830,0.674774,0.075965,1.764264,-16.871601,3.270981,7.303343,0.069974,0.486251,-0.056901,0.000000,0.000000,0.000000,0.000000,0.000000,0.000000
12457859.000000,-0.345118,0.548566,0.449397,-1.435662,-0.245986,1.931314,0.134326,-0.001183,0.170657,-0.027256,-0.365013,-0.109118,0.674414,0.078394,1.589704,-18.660847,3.247177,8.564939,0.022367,0.681258,0.009017,0.000000,0.000000,0.000000,0.000000,0.000000,0.000000
12457860.000000,-0.345125,0.548742,0.449365,-1.436035,-0.246095,1.931983,0.134410,-0.000657,0.176757,-0.028257,-0.367891,-0.107704,0.669663,0.079773,1.391340,-20.469929,3.322555,9.997129,0.022367,0.999862,-0.044083,0.000000,0.000000,0.000000,0.000000,0.000000,0.000000
12457861.000000,-0.345132,0.548929,0.449324,-1.436408,-0.246222,1.932659,0.134483,-0.003921,0.181000,-0.030617,-0.376061,-0.112987,0.663089,0.076648,1.216779,-22.282978,3.469345,11.334105,0.183500,1.285506,0.015426,0.000000,0.000000,0.000000,0.000000,0.000000,0.000000
12457862.000000,-0.345144,0.549130,0.449287,-1.436786,-0.246340,1.933324,0.134563,-0.008664,0.188209,-0.029898,-0.378198,-0.112733,0.666606,0.079807,1.145368,-24.143635,3.516952,12.643309,0.249418,1.370651,0.054794,0.000000,0.000000,0.000000,0.000000,0.000000,0.000000
12457863.000000,-0.345152,0.549345,0.449243,-1.437161,-0.246455,1.934006,0.134650,-0.010836,0.198137,-0.033779,-0.375491,-0.115924,0.666754,0.080398,1.022382,-25.952717,3.616134,13.678770,0.267728,1.337692,0.015426,0.000000,0.000000,0.000000,0.000000,0.000000,0.000000
12457864.000000,-0.345154,0.549575,0.449188,-1.437535,-0.246577,1.934677,0.134734,-0.007482,0.209560,-0.039482,-0.382300,-0.113841,0.671270,0.078614,0.824018,-27.690388,3.838302,14.472227,0.308927,1.214095,0.028243,0.000000,0.000000,0.000000,0.000000,0.000000,0.000000
12457865.000000,-0.345151,0.549810,0.449133,-1.437915,-0.246702,1.935330,0.134818,-0.003284,0.221647,-0.045992,-0.379516,-0.116385,0.662957,0.080087,0.550275,-29.281269,4.032700,15.063353,0.332731,1.253463,-0.011124,0.000000,0.000000,0.000000,0.000000,0.000000,0.000000
12457866.000000,-0.345150,0.550056,0.449078,-1.438298,-0.246816,1.935960,0.134893,-0.002721,0.228308,-0.050086,-0.380525,-0.117036,0.652128,0.076924,0.375715,-30.753132,4.203293,15.483885,0.303434,1.402694,0.041976,0.000000,0.000000,0.000000,0.000000,0.000000,0.000000
12457867.000000,-0.345157,0.550303,0.449015,-1.438689,-0.246941,1.936585,0.134985,-0.005150,0.234242,-0.056651,-0.384241,-0.119583,0.646495,0.079454,0.328107,-31.975056,4.401657,15.856810,0.327238,1.519881,-0.031266,0.000000,0.000000,0.000000,0.000000,0.000000,0.000000
12457868.000000,-0.345169,0.550537,0.448944,-1.439087,-0.247066,1.937218,0.135068,-0.008290,0.231998,-0.063541,-0.388281,-0.116827,0.644828,0.078326,0.351911,-32.879597,4.671432,16.150389,0.362943,1.532699,-0.031266,0.000000,0.000000,0.000000,0.000000,0.000000,0.000000
12457869.000000,-0.345184,0.550767,0.448869,-1.439508,-0.247190,1.937856,0.135141,-0.008494,0.230307,-0.067921,-0.396009,-0.118693,0.643611,0.074390,0.427289,-33.589741,4.917404,16.598692,0.369352,1.435653,0.048385,0.000000,0.000000,0.000000,0.000000,0.000000,0.000000
12457870.000000,-0.345201,0.550994,0.448800,-1.439929,-0.247317,1.938469,0.135230,-0.011478,0.228671,-0.068218,-0.405504,-0.124304,0.638133,0.081785,0.502668,-34.105488,5.040390,17.066832,0.369352,1.448470,-0.023942,0.000000,0.000000,0.000000,0.000000,0.000000,0.000000
12457871.000000,-0.345220,0.551226,0.448715,-1.440354,-0.247444,1.939083,0.135307,-0.014577,0.230049,-0.072632,-0.408121,-0.120670,0.628962,0.078764,0.625654,-34.569660,5.333969,17.364378,0.410551,1.565658,0.015426,0.000000,0.000000,0.000000,0.000000,0.000000,0.000000
12457872.000000,-0.345242,0.551461,0.448633,-1.440785,-0.247572,1.939678,0.135386,-0.017227,0.232931,-0.074128,-0.413299,-0.126564,0.617925,0.076964,0.772443,-35.061604,5.556137,17.757139,0.416959,1.714889,0.041976,0.000000,0.000000,0.000000,0.000000,0.000000,0.000000
12457873.000000,-0.345254,0.551703,0.448549,-1.441214,-0.247701,1.940274,0.135473,-0.016192,0.236071,-0.075125,-0.416614,-0.130270,0.610499,0.079429,0.796247,-35.573383,5.774338,17.983274,0.393156,1.838485,-0.004716,0.000000,0.000000,0.000000,0.000000,0.000000,0.000000
12457874.000000,-0.345266,0.551947,0.448465,-1.441649,-0.247833,1.940877,0.135556,-0.018089,0.239950,-0.077967,-0.421130,-0.126960,0.614518,0.083677,0.796247,-35.989948,5.948898,18.276854,0.344633,1.838485,-0.023942,0.000000,0.000000,0.000000,0.000000,0.000000,0.000000
12457875.000000,-0.345277,0.552199,0.448380,-1.442090,-0.247968,1.941480,0.135633,-0.015897,0.246897,-0.083273,-0.424310,-0.126814,0.613490,0.084906,0.772443,-36.430317,6.119492,18.574400,0.344633,1.812850,0.015426,0.000000,0.000000,0.000000,0.000000,0.000000,0.000000
12457876.000000,-0.345294,0.552453,0.448286,-1.442525,-0.248097,1.942082,0.135710,-0.014134,0.245555,-0.085410,-0.427133,-0.126888,0.611648,0.081172,0.871625,-36.870686,6.341660,18.772764,0.356534,1.786300,0.054794,0.000000,0.000000,0.000000,0.000000,0.000000,0.000000
12457877.000000,-0.345297,0.552706,0.448193,-1.442958,-0.248229,1.942667,0.135797,-0.008015,0.255665,-0.085201,-0.425075,-0.127257,0.602493,0.080967,0.772443,-37.287251,6.488449,18.871946,0.386747,1.858627,0.034652,0.000000,0.000000,0.000000,0.000000,0.000000,0.000000
12457878.000000,-0.345307,0.552961,0.448098,-1.443395,-0.248365,1.943259,0.135885,-0.005470,0.257810,-0.089404,-0.426042,-0.133997,0.601284,0.085110,0.748639,-37.680012,6.682846,18.947325,0.470060,1.909896,0.015426,0.000000,0.000000,0.000000,0.000000,0.000000,0.000000
12457879.000000,-0.345320,0.553214,0.448005,-1.443852,-0.248496,1.943865,0.135974,-0.007329,0.252429,-0.094527,-0.433698,-0.132381,0.601824,0.083423,0.748639,-37.898212,6.829636,19.169493,0.500272,1.930038,-0.004716,0.000000,0.000000,0.000000,0.000000,0.000000,0.000000
12457880.000000,-0.345330,0.553458,0.447913,-1.444299,-0.248621,1.944462,0.136057,-0.008645,0.249823,-0.097316,-0.441450,-0.128483,0.608243,0.081323,0.748639,-38.021198,6.928818,19.340086,0.458158,1.916305,-0.004716,0.000000,0.000000,0.000000,0.000000,0.000000,0.000000
12457881.000000,-0.345342,0.553712,0.447822,-1.444756,-0.248749,1.945075,0.136135,-0.007066,0.251491,-0.095211,-0.447090,-0.127085,0.603182,0.077408,0.772443,-38.167988,6.976425,19.538450,0.446256,1.865035,0.061202,0.000000,0.000000,0.000000,0.000000,0.000000,0.000000
12457882.000000,-0.345345,0.553967,0.447728,-1.445206,-0.248878,1.945668,0.136228,-0.006113,0.256689,-0.094474,-0.458786,-0.131372,0.613160,0.084064,0.673261,-38.243366,7.051804,19.613829,0.446256,1.890670,-0.004716,0.000000,0.000000,0.000000,0.000000,0.000000,0.000000
12457883.000000,-0.345354,0.554217,0.447646,-1.445652,-0.249007,1.946277,0.136304,-0.007891,0.253234,-0.090543,-0.453255,-0.132939,0.607803,0.085403,0.673261,-38.338581,6.976425,19.613829,0.416959,1.968490,0.054794,0.000000,0.000000,0.000000,0.000000,0.000000,0.000000
12457884.000000,-0.345362,0.554473,0.447569,-1.446110,-0.249140,1.946886,0.136391,-0.008637,0.254033,-0.087843,-0.451548,-0.135793,0.604276,0.083562,0.649457,-38.437763,6.905014,19.713011,0.405057,2.020675,0.041976,0.000000,0.000000,0.000000,0.000000,0.000000,0.000000
12457885.000000,-0.345363,0.554724,0.447489,-1.446548,-0.249271,1.947492,0.136482,-0.006803,0.253583,-0.083188,-0.444603,-0.132953,0.605626,0.084688,0.526471,-38.485371,6.853439,19.685240,0.410551,2.001449,-0.031266,0.000000,0.000000,0.000000,0.000000,0.000000,0.000000
12457886.000000,-0.345363,0.554973,0.447409,-1.446998,-0.249394,1.948104,0.136558,-0.001341,0.248136,-0.079723,-0.441917,-0.130773,0.606319,0.084036,0.351911,-38.437763,6.782028,19.661436,0.405057,1.962081,0.048385,0.000000,0.000000,0.000000,0.000000,0.000000,0.000000
12457887.000000,-0.345358,0.555227,0.447331,-1.447439,-0.249518,1.948722,0.136648,0.001873,0.249634,-0.078158,-0.439785,-0.124003,0.607579,0.083320,0.205121,-38.485371,6.734421,19.613829,0.405057,1.930038,0.009017,0.000000,0.000000,0.000000,0.000000,0.000000,0.000000
12457888.000000,-0.345354,0.555479,0.447259,-1.447875,-0.249645,1.949327,0.136727,0.004275,0.249931,-0.078541,-0.436864,-0.119710,0.605931,0.079877,0.054365,-38.485371,6.635239,19.490843,0.422452,1.949264,0.048385,0.000000,0.000000,0.000000,0.000000,0.000000,0.000000
12457889.000000,-0.345343,0.555740,0.447187,-1.448309,-0.249766,1.949939,0.136817,0.007672,0.250276,-0.076012,-0.436642,-0.120644,0.600117,0.080619,-0.167803,-38.513142,6.536057,19.340086,0.416959,1.949264,0.001693,0.000000,0.000000,0.000000,0.000000,0.000000,0.000000
12457890.000000,-0.345330,0.555994,0.447120,-1.448748,-0.249891,1.950551,0.136899,0.009473,0.252742,-0.072924,-0.435934,-0.116870,0.608020,0.082694,-0.366168,-38.608356,6.389267,19.268675,0.434354,1.897079,0.034652,0.000000,0.000000,0.000000,0.000000,0.000000,0.000000
12457891.000000,-0.345315,0.556255,0.447055,-1.449185,-0.250008,1.951175,0.136988,0.010745,0.254462,-0.067004,-0.435710,-0.122372,0.616179,0.086423,-0.564532,-38.707539,6.218674,19.193296,0.393156,1.897079,0.015426,0.000000,0.000000,0.000000,0.000000,0.000000,0.000000
12457892.000000,-0.345303,0.556516,0.446991,-1.449612,-0.250129,1.951810,0.137079,0.016200,0.255605,-0.066188,-0.429941,-0.122342,0.624609,0.084285,-0.687518,-38.806721,6.067917,19.018736,0.374845,1.851302,-0.004716,0.000000,0.000000,0.000000,0.000000,0.000000,0.000000
12457893.000000,-0.345291,0.556772,0.446926,-1.450034,-0.250261,1.952434,0.137161,0.016077,0.253643,-0.063945,-0.427816,-0.123559,0.625544,0.084820,-0.762896,-38.925739,5.972702,18.919554,0.386747,1.812850,0.048385,0.000000,0.000000,0.000000,0.000000,0.000000,0.000000
12457894.000000,-0.345273,0.557031,0.446871,-1.450458,-0.250384,1.953055,0.137252,0.017320,0.254396,-0.060325,-0.425736,-0.122797,0.623617,0.084081,-0.885882,-39.024921,5.798141,18.848143,0.356534,1.812850,0.009017,0.000000,0.000000,0.000000,0.000000,0.000000,0.000000
12457895.000000,-0.345257,0.557293,0.446809,-1.450871,-0.250506,1.953678,0.137333,0.017166,0.263339,-0.060217,-0.425010,-0.122832,0.629494,0.085322,-0.961260,-39.124104,5.726730,18.772764,0.351041,1.786300,0.054794,0.000000,0.000000,0.000000,0.000000,0.000000,0.000000
12457896.000000,-0.345241,0.557555,0.446754,-1.451279,-0.250627,1.954306,0.137419,0.013894,0.258821,-0.059260,-0.419803,-0.122929,0.629007,0.087703,-1.032672,-39.219318,5.627548,18.625975,0.356534,1.760665,0.054794,0.000000,0.000000,0.000000,0.000000,0.000000,0.000000
12457897.000000,-0.345223,0.557824,0.446699,-1.451687,-0.250746,1.954937,0.137511,0.015998,0.264247,-0.057951,-0.415159,-0.121817,0.624126,0.086503,-1.159625,-39.417683,5.504562,18.451414,0.315336,1.727706,0.009017,0.000000,0.000000,0.000000,0.000000,0.000000,0.000000
12457898.000000,-0.345206,0.558087,0.446651,-1.452081,-0.250863,1.955551,0.137591,0.016724,0.265795,-0.052194,-0.405702,-0.121447,0.629574,0.081483,-1.254840,-39.512897,5.310165,18.276854,0.285123,1.702071,0.067611,0.000000,0.000000,0.000000,0.000000,0.000000,0.000000
12457899.000000,-0.345189,0.558350,0.446598,-1.452489,-0.250982,1.956183,0.137682,0.016864,0.259661,-0.052793,-0.406916,-0.116617,0.623583,0.081862,-1.330218,-39.588276,5.187180,18.229246,0.267728,1.649886,0.021835,0.000000,0.000000,0.000000,0.000000,0.000000,0.000000
12457900.000000,-0.345170,0.558615,0.446547,-1.452879,-0.251106,1.956807,0.137770,0.017553,0.262541,-0.050654,-0.409040,-0.119954,0.640623,0.080823,-1.429400,-39.687458,5.087997,18.054686,0.303434,1.591293,0.001693,0.000000,0.000000,0.000000,0.000000,0.000000,0.000000
12457901.000000,-0.345156,0.558880,0.446496,-1.453281,-0.251225,1.957428,0.137849,0.016284,0.265872,-0.049501,-0.407193,-0.125349,0.635833,0.077902,-1.453204,-39.711262,5.012619,18.007078,0.297025,1.591293,0.067611,0.000000,0.000000,0.000000,0.000000,0.000000,0.000000
12457902.000000,-0.345141,0.559152,0.446446,-1.453680,-0.251349,1.958047,0.137939,0.019272,0.262666,-0.048031,-0.406087,-0.125747,0.629656,0.078680,-1.504779,-39.758869,4.917404,18.007078,0.308927,1.649886,0.034652,0.000000,0.000000,0.000000,0.000000,0.000000,0.000000
12457903.000000,-0.345129,0.559424,0.446394,-1.454069,-0.251476,1.958665,0.138024,0.017214,0.266056,-0.048401,-0.402399,-0.125183,0.627213,0.077342,-1.504779,-39.905659,4.893600,18.007078,0.308927,1.682845,0.048385,0.000000,0.000000,0.000000,0.000000,0.000000,0.000000
12457904.000000,-0.345117,0.559695,0.446342,-1.454460,-0.251605,1.959291,0.138114,0.016247,0.265352,-0.048157,-0.397119,-0.124891,0.632042,0.078190,-1.528582,-39.929462,4.842026,18.054686,0.303434,1.643478,0.015426,0.000000,0.000000,0.000000,0.000000,0.000000,0.000000
12457905.000000,-0.345115,0.559972,0.446285,-1.454848,-0.251726,1.959916,0.138198,0.011667,0.266781,-0.052786,-0.395988,-0.123168,0.626981,0.080249,-1.381793,-40.028645,4.865829,18.078489,0.261320,1.597701,0.061202,0.000000,0.000000,0.000000,0.000000,0.000000,0.000000
12457906.000000,-0.345110,0.560240,0.446233,-1.455233,-0.251852,1.960526,0.138289,0.009726,0.268101,-0.051866,-0.391994,-0.123982,0.624833,0.085007,-1.282611,-40.127827,4.842026,18.106260,0.267728,1.624252,0.034652,0.000000,0.000000,0.000000,0.000000,0.000000,0.000000
12457907.000000,-0.345110,0.560522,0.446184,-1.455624,-0.251972,1.961140,0.138379,0.007185,0.273354,-0.050623,-0.387697,-0.123850,0.620311,0.082965,-1.131854,-40.298420,4.794418,18.253050,0.255826,1.702071,0.028243,0.000000,0.000000,0.000000,0.000000,0.000000,0.000000
12457908.000000,-0.345107,0.560799,0.446125,-1.456000,-0.252095,1.961757,0.138467,0.003555,0.273067,-0.052458,-0.384569,-0.122803,0.622582,0.080022,-1.032672,-40.421406,4.865829,18.253050,0.225614,1.670028,0.054794,0.000000,0.000000,0.000000,0.000000,0.000000,0.000000
12457909.000000,-0.345105,0.561083,0.446064,-1.456389,-0.252219,1.962378,0.138558,0.002919,0.276535,-0.057424,-0.385725,-0.122752,0.619270,0.080099,-0.885882,-40.691181,4.965012,18.399839,0.207303,1.630660,0.028243,0.000000,0.000000,0.000000,0.000000,0.000000,0.000000
12457910.000000,-0.345107,0.561366,0.446002,-1.456783,-0.252345,1.962992,0.138642,0.001862,0.276894,-0.056518,-0.388212,-0.129010,0.617832,0.077821,-0.711321,-40.885578,5.012619,18.475218,0.219205,1.695663,0.054794,0.000000,0.000000,0.000000,0.000000,0.000000,0.000000
12457911.000000,-0.345101,0.561652,0.445929,-1.457169,-0.252472,1.963601,0.138730,0.004738,0.275313,-0.063163,-0.387271,-0.127827,0.617099,0.082791,-0.687518,-41.131550,5.234787,18.574400,0.213712,1.754256,0.034652,0.000000,0.000000,0.000000,0.000000,0.000000,0.000000
12457912.000000,-0.345105,0.561932,0.445860,-1.457559,-0.252603,1.964229,0.138819,0.000024,0.275387,-0.065447,-0.383533,-0.133084,0.620106,0.086372,-0.512957,-41.325947,5.357773,18.574400,0.231107,1.689254,0.015426,0.000000,0.000000,0.000000,0.000000,0.000000,0.000000
12457913.000000,-0.345109,0.562207,0.445784,-1.457952,-0.252740,1.964840,0.138902,-0.003263,0.280763,-0.068829,-0.384473,-0.131152,0.616958,0.081855,-0.342364,-41.401325,5.556137,18.697386,0.243009,1.676437,0.067611,0.000000,0.000000,0.000000,0.000000,0.000000,0.000000
12457914.000000,-0.345111,0.562490,0.445710,-1.458351,-0.252876,1.965463,0.138996,-0.002007,0.276799,-0.072593,-0.386899,-0.135610,0.620249,0.082347,-0.191607,-41.448933,5.679123,18.772764,0.285123,1.637069,0.015426,0.000000,0.000000,0.000000,0.000000,0.000000,0.000000
12457915.000000,-0.345116,0.562774,0.445627,-1.458750,-0.253014,1.966089,0.139082,-0.004757,0.276831,-0.076967,-0.389068,-0.134245,0.622311,0.080378,-0.017047,-41.619526,5.873520,18.848143,0.327238,1.597701,0.021835,0.000000,0.000000,0.000000,0.000000,0.000000,0.000000
12457916.000000,-0.345123,0.563051,0.445544,-1.459143,-0.253151,1.966688,0.139161,-0.007221,0.277183,-0.080290,-0.389453,-0.136624,0.618881,0.081587,0.177350,-41.667133,6.067917,18.871946,0.327238,1.695663,0.081344,0.000000,0.000000,0.000000,0.000000,0.000000,0.000000
12457917.000000,-0.345129,0.563337,0.445455,-1.459537,-0.253283,1.967292,0.139248,-0.007967,0.278318,-0.082816,-0.385864,-0.138469,0.606768,0.081452,0.328107,-41.766315,6.266281,18.895750,0.320829,1.773483,0.048385,0.000000,0.000000,0.000000,0.000000,0.000000,0.000000
12457918.000000,-0.345145,0.563627,0.445366,-1.459927,-0.253414,1.967897,0.139339,-0.010785,0.278803,-0.087622,-0.396319,-0.132959,0.612016,0.085253,0.574079,-41.960712,6.460678,18.895750,0.273221,1.760665,0.028243,0.000000,0.000000,0.000000,0.000000,0.000000,0.000000
12457919.000000,-0.345149,0.563903,0.445279,-1.460329,-0.253541,1.968510,0.139426,-0.007630,0.279395,-0.087122,-0.393340,-0.132636,0.609282,0.087719,0.601850,-41.913105,6.611435,18.994932,0.201810,1.793624,0.021835,0.000000,0.000000,0.000000,0.000000,0.000000,0.000000
12457920.000000,-0.345158,0.564190,0.445190,-1.460735,-0.253673,1.969128,0.139513,-0.007156,0.278464,-0.086496,-0.397608,-0.135192,0.607602,0.083385,0.697065,-41.936909,6.758224,19.117918,0.178007,1.793624,0.054794,0.000000,0.000000,0.000000,0.000000,0.000000,0.000000
12457921.000000,-0.345172,0.564469,0.445098,-1.461129,-0.253813,1.969734,0.139601,-0.010078,0.279389,-0.092077,-0.396388,-0.139643,0.607370,0.086997,0.796247,-42.012287,6.905014,19.169493,0.231107,1.786300,0.048385,0.000000,0.000000,0.000000,0.000000,0.000000,0.000000
12457922.000000,-0.345190,0.564748,0.445002,-1.461533,-0.253957,1.970343,0.139690,-0.013021,0.280780,-0.094744,-0.398719,-0.138164,0.609311,0.085188,0.923200,-41.988483,7.099411,19.240904,0.291532,1.838485,0.021835,0.000000,0.000000,0.000000,0.000000,0.000000,0.000000
12457923.000000,-0.345205,0.565031,0.444909,-1.461934,-0.254098,1.970959,0.139772,-0.010185,0.279529,-0.093281,-0.396862,-0.140642,0.611222,0.086184,0.970807,-41.988483,7.150986,19.268675,0.315336,1.903487,0.061202,0.000000,0.000000,0.000000,0.000000,0.000000,0.000000
12457924.000000,-0.345213,0.565311,0.444813,-1.462328,-0.254242,1.971572,0.139864,-0.006527,0.280908,-0.094094,-0.395708,-0.137939,0.616213,0.089467,0.947004,-42.083698,7.273972,19.316282,0.356534,1.851302,0.015426,0.000000,0.000000,0.000000,0.000000,0.000000,0.000000
12457925.000000,-0.345221,0.565583,0.444714,-1.462733,-0.254375,1.972196,0.139951,-0.007712,0.279442,-0.092890,-0.395976,-0.138888,0.615525,0.089961,0.947004,-41.960712,7.444565,19.439268,0.332731,1.767074,0.034652,0.000000,0.000000,0.000000,0.000000,0.000000,0.000000
12457926.000000,-0.345228,0.565860,0.444616,-1.463134,-0.254511,1.972798,0.140043,-0.008726,0.275807,-0.093272,-0.400044,-0.134367,0.611784,0.091405,0.947004,-41.960712,7.543747,19.562254,0.315336,1.786300,0.021835,0.000000,0.000000,0.000000,0.000000,0.000000,0.000000
12457927.000000,-0.345233,0.566136,0.444519,-1.463535,-0.254644,1.973410,0.140129,-0.009011,0.276768,-0.092957,-0.398090,-0.135679,0.609370,0.091800,0.923200,-41.988483,7.615158,19.613829,0.297025,1.800033,0.034652,0.000000,0.000000,0.000000,0.000000,0.000000,0.000000
12457928.000000,-0.345232,0.566411,0.444422,-1.463938,-0.254778,1.974010,0.140215,-0.004388,0.275535,-0.092735,-0.401499,-0.132546,0.604011,0.087186,0.824018,-41.936909,7.690536,19.736814,0.285123,1.897079,0.048385,0.000000,0.000000,0.000000,0.000000,0.000000,0.000000
12457929.000000,-0.345242,0.566683,0.444331,-1.464332,-0.254917,1.974598,0.140305,-0.007118,0.272364,-0.094247,-0.399691,-0.131018,0.597196,0.090590,0.847822,-41.913105,7.690536,19.812193,0.297025,1.968490,0.009017,0.000000,0.000000,0.000000,0.000000,0.000000,0.000000
12457930.000000,-0.345244,0.566949,0.444239,-1.464738,-0.255056,1.975198,0.140387,-0.006777,0.273323,-0.092367,-0.403534,-0.129865,0.603510,0.090079,0.772443,-41.790119,7.690536,20.006590,0.308927,1.955673,0.048385,0.000000,0.000000,0.000000,0.000000,0.000000,0.000000
12457931.000000,-0.345251,0.567225,0.444145,-1.465141,-0.255201,1.975795,0.140480,-0.008436,0.280543,-0.094159,-0.413016,-0.134381,0.604230,0.092060,0.772443,-41.718708,7.690536,20.157347,0.332731,1.949264,0.021835,0.000000,0.000000,0.000000,0.000000,0.000000,0.000000
12457932.000000,-0.345247,0.567493,0.444057,-1.465550,-0.255347,1.976390,0.140569,-0.003018,0.273880,-0.091281,-0.413413,-0.138295,0.603727,0.092129,0.625654,-41.595722,7.638962,20.454893,0.381254,1.974899,0.034652,0.000000,0.000000,0.000000,0.000000,0.000000,0.000000
12457933.000000,-0.345244,0.567769,0.443967,-1.465955,-0.255485,1.976989,0.140661,-0.000313,0.275051,-0.086649,-0.408790,-0.139684,0.602989,0.098006,0.526471,-41.595722,7.615158,20.554075,0.374845,2.001449,0.021835,0.000000,0.000000,0.000000,0.000000,0.000000,0.000000
12457934.000000,-0.345242,0.568045,0.443880,-1.466358,-0.255625,1.977568,0.140752,0.000532,0.277822,-0.085984,-0.407431,-0.135896,0.601869,0.097095,0.474897,-41.548115,7.567551,20.724669,0.381254,2.047225,0.021835,0.000000,0.000000,0.000000,0.000000,0.000000,0.000000
12457935.000000,-0.345236,0.568320,0.443796,-1.466769,-0.255762,1.978167,0.140838,0.001676,0.273080,-0.086937,-0.405449,-0.133208,0.595464,0.090011,0.403486,-41.496540,7.444565,20.899229,0.386747,2.092086,0.067611,0.000000,0.000000,0.000000,0.000000,0.000000,0.000000
12457936.000000,-0.345224,0.568590,0.443709,-1.467166,-0.255896,1.978751,0.140936,0.003825,0.270632,-0.089536,-0.407757,-0.134739,0.597003,0.088563,0.276533,-41.349751,7.396957,21.046019,0.351041,2.125045,0.009017,0.000000,0.000000,0.000000,0.000000,0.000000,0.000000
12457937.000000,-0.345215,0.568862,0.443630,-1.467571,-0.256032,1.979347,0.141020,0.003467,0.272893,-0.086575,-0.406125,-0.131522,0.594617,0.088736,0.228925,-41.226765,7.273972,21.220579,0.327238,2.118636,0.041976,0.000000,0.000000,0.000000,0.000000,0.000000,0.000000
12457938.000000,-0.345207,0.569138,0.443549,-1.467976,-0.256172,1.979937,0.141112,0.002164,0.269720,-0.085439,-0.402015,-0.135791,0.591078,0.090734,0.228925,-41.179157,7.198593,21.418943,0.344633,2.131454,0.028243,0.000000,0.000000,0.000000,0.000000,0.000000,0.000000
12457939.000000,-0.345193,0.569409,0.443474,-1.468384,-0.256315,1.980529,0.141205,0.005681,0.272460,-0.084274,-0.406469,-0.143194,0.590492,0.092307,0.177350,-41.202961,7.099411,21.641111,0.344633,2.118636,0.009017,0.000000,0.000000,0.000000,0.000000,0.000000,0.000000
12457940.000000,-0.345177,0.569682,0.443394,-1.468785,-0.256465,1.981119,0.141289,0.005080,0.272167,-0.081538,-0.401242,-0.146058,0.583326,0.091794,0.129743,-41.131550,7.051804,21.787901,0.405057,2.144271,0.034652,0.000000,0.000000,0.000000,0.000000,0.000000,0.000000
12457941.000000,-0.345162,0.569946,0.443326,-1.469193,-0.256611,1.981710,0.141381,0.008967,0.268076,-0.076866,-0.401563,-0.141648,0.581589,0.092821,0.030561,-41.032368,6.905014,21.962461,0.434354,2.202865,0.021835,0.000000,0.000000,0.000000,0.000000,0.000000,0.000000
12457942.000000,-0.345145,0.570206,0.443257,-1.469588,-0.256748,1.982288,0.141467,0.008659,0.265219,-0.071121,-0.396761,-0.135862,0.580709,0.088028,-0.068621,-40.933186,6.782028,22.061644,0.398649,2.267867,0.034652,0.000000,0.000000,0.000000,0.000000,0.000000,0.000000
12457943.000000,-0.345132,0.570474,0.443191,-1.469999,-0.256888,1.982893,0.141557,0.009737,0.265185,-0.069452,-0.402236,-0.138486,0.582036,0.085242,-0.092425,-40.810200,6.635239,22.184629,0.398649,2.235824,0.034652,0.000000,0.000000,0.000000,0.000000,0.000000,0.000000
12457944.000000,-0.345116,0.570734,0.443123,-1.470403,-0.257029,1.983481,0.141646,0.011319,0.260134,-0.069891,-0.401711,-0.139301,0.583611,0.088171,-0.144000,-40.714985,6.559860,22.331419,0.386747,2.228500,0.015426,0.000000,0.000000,0.000000,0.000000,0.000000,0.000000
12457945.000000,-0.345097,0.570994,0.443066,-1.470807,-0.257165,1.984082,0.141731,0.014167,0.261865,-0.064284,-0.405082,-0.143776,0.585686,0.089052,-0.266986,-40.591999,6.365463,22.355223,0.351041,2.202865,0.034652,0.000000,0.000000,0.000000,0.000000,0.000000,0.000000
12457946.000000,-0.345086,0.571261,0.443006,-1.471211,-0.257305,1.984675,0.141826,0.013857,0.261307,-0.061179,-0.404606,-0.138059,0.580182,0.086397,-0.290789,-40.516621,6.218674,22.382994,0.327238,2.228500,0.015426,0.000000,0.000000,0.000000,0.000000,0.000000,0.000000
12457947.000000,-0.345070,0.571523,0.442944,-1.471604,-0.257456,1.985263,0.141916,0.013704,0.258417,-0.060110,-0.404394,-0.141532,0.579399,0.088584,-0.314593,-40.469013,6.119492,22.283812,0.369352,2.287093,0.028243,0.000000,0.000000,0.000000,0.000000,0.000000,0.000000
12457948.000000,-0.345054,0.571789,0.442884,-1.471995,-0.257605,1.985865,0.142008,0.014898,0.262455,-0.059799,-0.396842,-0.142693,0.576684,0.090346,-0.389971,-40.445210,6.044113,22.156858,0.374845,2.255050,0.021835,0.000000,0.000000,0.000000,0.000000,0.000000,0.000000
12457949.000000,-0.345041,0.572055,0.442832,-1.472383,-0.257757,1.986466,0.142102,0.013983,0.267437,-0.054640,-0.403901,-0.143449,0.592474,0.090919,-0.389971,-40.298420,5.897324,22.085447,0.386747,2.169906,0.028243,0.000000,0.000000,0.000000,0.000000,0.000000,0.000000
12457950.000000,-0.345027,0.572313,0.442778,-1.472765,-0.257910,1.987070,0.142188,0.014631,0.259999,-0.055736,-0.395412,-0.148280,0.594024,0.090811,-0.441546,-40.127827,5.825912,21.863279,0.386747,2.079269,0.054794,0.000000,0.000000,0.000000,0.000000,0.000000,0.000000
12457951.000000,-0.345012,0.572576,0.442718,-1.473151,-0.258057,1.987673,0.142282,0.015005,0.262898,-0.058181,-0.393873,-0.147535,0.599704,0.088324,-0.489153,-40.052448,5.825912,21.712523,0.386747,2.092086,0.021835,0.000000,0.000000,0.000000,0.000000,0.000000,0.000000
12457952.000000,-0.345003,0.572836,0.442670,-1.473527,-0.258208,1.988263,0.142370,0.013573,0.260320,-0.056393,-0.390247,-0.147842,0.599734,0.088798,-0.465350,-39.905659,5.679123,21.565733,0.416959,2.131454,0.048385,0.000000,0.000000,0.000000,0.000000,0.000000,0.000000
12457953.000000,-0.344993,0.573094,0.442614,-1.473895,-0.258350,1.988863,0.142459,0.014970,0.257101,-0.057393,-0.385055,-0.145955,0.599345,0.090792,-0.413775,-39.711262,5.627548,21.343565,0.381254,2.137862,0.034652,0.000000,0.000000,0.000000,0.000000,0.000000,0.000000
12457954.000000,-0.344979,0.573350,0.442555,-1.474264,-0.258488,1.989470,0.142550,0.014379,0.256843,-0.055554,-0.386045,-0.143725,0.596285,0.095482,-0.413775,-39.588276,5.603745,21.121397,0.327238,2.125045,0.054794,0.000000,0.000000,0.000000,0.000000,0.000000,0.000000
12457955.000000,-0.344972,0.573617,0.442500,-1.474624,-0.258627,1.990064,0.142640,0.012282,0.261271,-0.053522,-0.377315,-0.142856,0.601144,0.095774,-0.342364,-39.540668,5.556137,20.946836,0.279630,2.169906,0.041976,0.000000,0.000000,0.000000,0.000000,0.000000,0.000000
12457956.000000,-0.344959,0.573885,0.442445,-1.474990,-0.258766,1.990683,0.142733,0.012521,0.261554,-0.054911,-0.369926,-0.142269,0.603142,0.096397,-0.342364,-39.512897,5.504562,20.748472,0.237516,2.104903,0.015426,0.000000,0.000000,0.000000,0.000000,0.000000,0.000000
12457957.000000,-0.344950,0.574141,0.442384,-1.475343,-0.258915,1.991294,0.142820,0.011395,0.260797,-0.058498,-0.366306,-0.143730,0.612071,0.094621,-0.290789,-39.441486,5.556137,20.601683,0.255826,2.001449,0.048385,0.000000,0.000000,0.000000,0.000000,0.000000,0.000000
12457958.000000,-0.344940,0.574404,0.442322,-1.475696,-0.259062,1.991907,0.142912,0.013876,0.264022,-0.058277,-0.358552,-0.146360,0.610877,0.095841,-0.243182,-39.393879,5.627548,20.379515,0.308927,1.968490,0.015426,0.000000,0.000000,0.000000,0.000000,0.000000,0.000000
12457959.000000,-0.344933,0.574666,0.442260,-1.476048,-0.259204,1.992523,0.143000,0.012509,0.262370,-0.059348,-0.355086,-0.147617,0.613968,0.094859,-0.191607,-39.318501,5.627548,20.256529,0.351041,1.962081,0.034652,0.000000,0.000000,0.000000,0.000000,0.000000,0.000000
12457960.000000,-0.344933,0.574912,0.442197,-1.476388,-0.259345,1.993135,0.143093,0.008683,0.261920,-0.060767,-0.349422,-0.146890,0.613056,0.094465,-0.017047,-39.124104,5.651352,20.006590,0.351041,1.923629,0.041976,0.000000,0.000000,0.000000,0.000000,0.000000,0.000000
12457961.000000,-0.344926,0.575174,0.442125,-1.476733,-0.259486,1.993750,0.143186,0.008501,0.260922,-0.061006,-0.347387,-0.146969,0.615436,0.094716,0.054365,-39.048725,5.774338,19.883604,0.362943,1.890670,0.034652,0.000000,0.000000,0.000000,0.000000,0.000000,0.000000
12457962.000000,-0.344917,0.575437,0.442058,-1.477062,-0.259618,1.994353,0.143282,0.009425,0.261159,-0.062461,-0.342346,-0.138472,0.613234,0.094027,0.078168,-39.001118,5.825912,19.713011,0.291532,1.871444,0.048385,0.000000,0.000000,0.000000,0.000000,0.000000,0.000000
12457963.000000,-0.344912,0.575702,0.441993,-1.477393,-0.259751,1.994961,0.143376,0.008830,0.262861,-0.063406,-0.339112,-0.142954,0.611954,0.091652,0.153547,-39.024921,5.873520,19.562254,0.243009,1.844894,0.015426,0.000000,0.000000,0.000000,0.000000,0.000000,0.000000
12457964.000000,-0.344906,0.575964,0.441930,-1.477723,-0.259890,1.995569,0.143463,0.005246,0.261905,-0.066016,-0.333480,-0.141356,0.603685,0.090003,0.228925,-38.953510,5.873520,19.415464,0.178007,1.877853,0.074935,0.000000,0.000000,0.000000,0.000000,0.000000,0.000000
12457965.000000,-0.344911,0.576225,0.441857,-1.478047,-0.260041,1.996166,0.143563,0.002278,0.260469,-0.067441,-0.329479,-0.143785,0.604297,0.092964,0.451093,-38.854328,5.972702,19.268675,0.207303,1.871444,0.028243,0.000000,0.000000,0.000000,0.000000,0.000000,0.000000
12457966.000000,-0.344901,0.576485,0.441783,-1.478372,-0.260191,1.996772,0.143657,0.004940,0.260426,-0.067666,-0.326100,-0.145081,0.598678,0.098253,0.474897,-38.806721,6.044113,19.141722,0.225614,1.865035,0.021835,0.000000,0.000000,0.000000,0.000000,0.000000,0.000000
12457967.000000,-0.344902,0.576749,0.441707,-1.478685,-0.260345,1.997367,0.143749,0.003279,0.268222,-0.068676,-0.328630,-0.146641,0.615864,0.091660,0.649457,-38.632160,6.143295,19.018736,0.273221,1.858627,0.041976,0.000000,0.000000,0.000000,0.000000,0.000000,0.000000
12457968.000000,-0.344896,0.577011,0.441635,-1.479006,-0.260491,1.997976,0.143842,0.005192,0.267344,-0.070473,-0.324685,-0.145633,0.610133,0.092615,0.697065,-38.485371,6.167099,18.971128,0.279630,1.812850,0.034652,0.000000,0.000000,0.000000,0.000000,0.000000,0.000000
12457969.000000,-0.344893,0.577269,0.441554,-1.479320,-0.260641,1.998588,0.143932,0.005261,0.266479,-0.074120,-0.320103,-0.146468,0.615578,0.091562,0.796247,-38.338581,6.290085,18.871946,0.303434,1.741439,0.074935,0.000000,0.000000,0.000000,0.000000,0.000000,0.000000
12457970.000000,-0.344886,0.577526,0.441477,-1.479623,-0.260785,1.999180,0.144032,0.006935,0.263731,-0.078425,-0.314106,-0.144458,0.607107,0.094813,0.824018,-38.215595,6.341660,18.649778,0.267728,1.767074,0.009017,0.000000,0.000000,0.000000,0.000000,0.000000,0.000000
12457971.000000,-0.344881,0.577799,0.441400,-1.479933,-0.260926,1.999771,0.144118,0.004514,0.263719,-0.074746,-0.308899,-0.138121,0.598520,0.092949,0.871625,-38.191792,6.365463,18.550596,0.225614,1.825668,0.054794,0.000000,0.000000,0.000000,0.000000,0.000000,0.000000
12457972.000000,-0.344871,0.578060,0.441324,-1.480230,-0.261071,2.000376,0.144211,0.004320,0.262607,-0.074595,-0.305758,-0.139122,0.594795,0.092439,0.847822,-38.120380,6.365463,18.328428,0.201810,1.851302,0.074935,0.000000,0.000000,0.000000,0.000000,0.000000,0.000000
12457973.000000,-0.344868,0.578324,0.441240,-1.480534,-0.261223,2.000970,0.144308,0.004245,0.262379,-0.076859,-0.304964,-0.144401,0.598602,0.097879,0.947004,-38.068806,6.460678,18.304625,0.154203,1.812850,0.054794,0.000000,0.000000,0.000000,0.000000,0.000000,0.000000
12457974.000000,-0.344862,0.578592,0.441160,-1.480834,-0.261376,2.001578,0.144409,0.005558,0.260511,-0.073609,-0.299314,-0.141134,0.600799,0.098690,0.994611,-37.973591,6.488449,18.229246,0.189908,1.760665,0.009017,0.000000,0.000000,0.000000,0.000000,0.000000,0.000000
12457975.000000,-0.344855,0.578852,0.441081,-1.481130,-0.261534,2.002177,0.144503,0.003832,0.261201,-0.074353,-0.299316,-0.144201,0.602825,0.097492,1.022382,-37.949787,6.512253,18.177671,0.249418,1.721298,0.021835,0.000000,0.000000,0.000000,0.000000,0.000000,0.000000
12457976.000000,-0.344845,0.579113,0.440995,-1.481436,-0.261681,2.002780,0.144594,0.005748,0.263032,-0.076754,-0.300989,-0.145727,0.600062,0.094998,1.046186,-37.850605,6.611435,18.205442,0.285123,1.786300,0.067611,0.000000,0.000000,0.000000,0.000000,0.000000,0.000000
12457977.000000,-0.344835,0.579384,0.440915,-1.481728,-0.261833,2.003387,0.144693,0.005089,0.266264,-0.079125,-0.296621,-0.146951,0.602339,0.097364,1.022382,-37.826801,6.611435,18.130064,0.327238,1.747848,0.015426,0.000000,0.000000,0.000000,0.000000,0.000000,0.000000
12457978.000000,-0.344822,0.579644,0.440831,-1.482020,-0.261974,2.003991,0.144783,0.007648,0.261727,-0.078643,-0.296508,-0.149239,0.604245,0.095073,0.994611,-37.775227,6.635239,18.054686,0.267728,1.714889,0.054794,0.000000,0.000000,0.000000,0.000000,0.000000,0.000000
12457979.000000,-0.344805,0.579914,0.440754,-1.482316,-0.262120,2.004599,0.144882,0.008070,0.264828,-0.079031,-0.293681,-0.147559,0.604509,0.100942,0.895429,-37.751423,6.559860,18.030882,0.243009,1.670028,0.021835,0.000000,0.000000,0.000000,0.000000,0.000000,0.000000
12457980.000000,-0.344791,0.580193,0.440673,-1.482610,-0.262262,2.005199,0.144977,0.010085,0.274107,-0.081295,-0.294676,-0.144488,0.603312,0.098877,0.847822,-37.802998,6.559860,17.983274,0.183500,1.695663,0.028243,0.000000,0.000000,0.000000,0.000000,0.000000,0.000000
12457981.000000,-0.344769,0.580473,0.440596,-1.482898,-0.262407,2.005792,0.145069,0.013965,0.274045,-0.078252,-0.290979,-0.148201,0.600996,0.096797,0.697065,-37.898212,6.488449,17.733335,0.154203,1.767074,0.061202,0.000000,0.000000,0.000000,0.000000,0.000000,0.000000
12457982.000000,-0.344755,0.580758,0.440513,-1.483190,-0.262566,2.006398,0.145168,0.014288,0.277391,-0.076979,-0.287699,-0.149165,0.598228,0.098230,0.649457,-38.021198,6.460678,17.586546,0.189908,1.741439,0.009017,0.000000,0.000000,0.000000,0.000000,0.000000,0.000000
12457983.000000,-0.344740,0.581030,0.440433,-1.483480,-0.262722,2.006989,0.145255,0.017664,0.277643,-0.076204,-0.289548,-0.148595,0.596756,0.094792,0.601850,-37.922016,6.436874,17.487364,0.207303,1.708480,0.074935,0.000000,0.000000,0.000000,0.000000,0.000000,0.000000
12457984.000000,-0.344724,0.581309,0.440354,-1.483774,-0.262873,2.007605,0.145349,0.017701,0.277594,-0.075649,-0.290939,-0.149260,0.595794,0.095331,0.526471,-37.949787,6.413071,17.411985,0.243009,1.611434,0.061202,0.000000,0.000000,0.000000,0.000000,0.000000,0.000000
12457985.000000,-0.344707,0.581589,0.440278,-1.484059,-0.263023,2.008209,0.145450,0.017823,0.275921,-0.078914,-0.292700,-0.148569,0.605891,0.096896,0.451093,-37.898212,6.389267,17.289000,0.261320,1.552840,0.009017,0.000000,0.000000,0.000000,0.000000,0.000000,0.000000
12457986.000000,-0.344686,0.581871,0.440204,-1.484352,-0.263174,2.008807,0.145540,0.015287,0.276165,-0.076463,-0.293231,-0.147704,0.605127,0.093192,0.351911,-37.898212,6.313889,17.189817,0.285123,1.565658,0.087753,0.000000,0.000000,0.000000,0.000000,0.000000,0.000000
12457987.000000,-0.344665,0.582154,0.440126,-1.484645,-0.263316,2.009403,0.145639,0.013326,0.277656,-0.078883,-0.290747,-0.145894,0.598681,0.094655,0.252729,-37.973591,6.290085,17.114439,0.255826,1.591293,0.061202,0.000000,0.000000,0.000000,0.000000,0.000000,0.000000
12457988.000000,-0.344647,0.582431,0.440057,-1.484927,-0.263460,2.010002,0.145740,0.014398,0.281039,-0.078105,-0.285675,-0.143308,0.598246,0.096093,0.177350,-37.997395,6.167099,17.019224,0.195402,1.649886,0.021835,0.000000,0.000000,0.000000,0.000000,0.000000,0.000000
12457989.000000,-0.344625,0.582720,0.439985,-1.485220,-0.263602,2.010604,0.145837,0.015706,0.281248,-0.075535,-0.286075,-0.141597,0.595020,0.095836,0.078168,-38.068806,6.067917,16.991453,0.123990,1.643478,0.015426,0.000000,0.000000,0.000000,0.000000,0.000000,0.000000
12457990.000000,-0.344604,0.583008,0.439915,-1.485509,-0.263754,2.011216,0.145928,0.018669,0.285781,-0.073122,-0.285707,-0.141733,0.598821,0.092544,0.030561,-38.191792,5.948898,16.920042,0.093778,1.617843,0.087753,0.000000,0.000000,0.000000,0.000000,0.000000,0.000000
12457991.000000,-0.344580,0.583291,0.439839,-1.485796,-0.263905,2.011808,0.146029,0.019005,0.286809,-0.072389,-0.290060,-0.143093,0.594744,0.099750,-0.068621,-38.215595,5.972702,16.920042,0.100187,1.630660,0.021835,0.000000,0.000000,0.000000,0.000000,0.000000,0.000000
12457992.000000,-0.344562,0.583585,0.439764,-1.486093,-0.264053,2.012416,0.146125,0.016907,0.285587,-0.072784,-0.288782,-0.145433,0.592119,0.098804,-0.068621,-38.314777,5.948898,16.892271,0.141385,1.617843,0.009017,0.000000,0.000000,0.000000,0.000000,0.000000,0.000000
12457993.000000,-0.344543,0.583876,0.439692,-1.486382,-0.264202,2.013003,0.146214,0.018625,0.287005,-0.069943,-0.289170,-0.146941,0.586428,0.095699,-0.068621,-38.485371,5.921127,16.892271,0.189908,1.605026,0.074935,0.000000,0.000000,0.000000,0.000000,0.000000,0.000000
12457994.000000,-0.344519,0.584170,0.439620,-1.486678,-0.264347,2.013606,0.146314,0.018649,0.291893,-0.070968,-0.293690,-0.147038,0.588925,0.097055,-0.144000,-38.560749,5.897324,16.943846,0.231107,1.532699,0.034652,0.000000,0.000000,0.000000,0.000000,0.000000,0.000000
12457995.000000,-0.344502,0.584468,0.439552,-1.486972,-0.264493,2.014201,0.146401,0.016185,0.289298,-0.071294,-0.291348,-0.141541,0.584635,0.094580,-0.116229,-38.632160,5.849716,16.892271,0.237516,1.500655,0.087753,0.000000,0.000000,0.000000,0.000000,0.000000,0.000000
12457996.000000,-0.344484,0.584760,0.439485,-1.487266,-0.264636,2.014788,0.146500,0.011442,0.290598,-0.071392,-0.292014,-0.140743,0.583621,0.096183,-0.092425,-38.707539,5.798141,16.943846,0.195402,1.526290,0.048385,0.000000,0.000000,0.000000,0.000000,0.000000,0.000000
12457997.000000,-0.344463,0.585060,0.439417,-1.487562,-0.264781,2.015380,0.146594,0.012228,0.295249,-0.071125,-0.295645,-0.140743,0.577864,0.096467,-0.116229,-38.707539,5.726730,16.892271,0.159696,1.539108,0.028243,0.000000,0.000000,0.000000,0.000000,0.000000,0.000000
12457998.000000,-0.344444,0.585354,0.439343,-1.487862,-0.264930,2.015959,0.146683,0.011674,0.295104,-0.071953,-0.295127,-0.140030,0.581755,0.093791,-0.092425,-38.707539,5.702927,16.943846,0.112089,1.617843,0.081344,0.000000,0.000000,0.000000,0.000000,0.000000,0.000000
12457999.000000,-0.344425,0.585644,0.439273,-1.488153,-0.265085,2.016544,0.146784,0.014495,0.293563,-0.072578,-0.291897,-0.146509,0.582420,0.092781,-0.068621,-38.584553,5.679123,16.868467,0.123990,1.649886,0.009017,0.000000,0.000000,0.000000,0.000000,0.000000,0.000000
12458000.000000,-0.344410,0.585938,0.439199,-1.488461,-0.265232,2.017136,0.146876,0.012842,0.292101,-0.070881,-0.297360,-0.146124,0.586791,0.097023,-0.017047,-38.437763,5.702927,16.991453,0.117582,1.682845,0.028243,0.000000,0.000000,0.000000,0.000000,0.000000,0.000000
12458001.000000,-0.344397,0.586224,0.439126,-1.488760,-0.265387,2.017723,0.146965,0.010610,0.289413,-0.072719,-0.300243,-0.147095,0.588244,0.094149,0.078168,-38.338581,5.726730,17.066832,0.147794,1.643478,0.087753,0.000000,0.000000,0.000000,0.000000,0.000000,0.000000
12458002.000000,-0.344381,0.586519,0.439056,-1.489065,-0.265540,2.018316,0.147058,0.010084,0.287671,-0.072356,-0.302513,-0.148042,0.588861,0.094399,0.129743,-38.267170,5.679123,17.189817,0.183500,1.584884,0.087753,0.000000,0.000000,0.000000,0.000000,0.000000,0.000000
12458003.000000,-0.344366,0.586815,0.438981,-1.489369,-0.265696,2.018893,0.147156,0.009858,0.287420,-0.073954,-0.308193,-0.148244,0.597627,0.091850,0.177350,-38.215595,5.702927,17.265196,0.213712,1.611434,0.028243,0.000000,0.000000,0.000000,0.000000,0.000000,0.000000
12458004.000000,-0.344350,0.587112,0.438905,-1.489673,-0.265844,2.019479,0.147243,0.009599,0.290575,-0.075567,-0.305122,-0.152509,0.600614,0.087442,0.228925,-38.314777,5.750534,17.364378,0.201810,1.578475,0.034652,0.000000,0.000000,0.000000,0.000000,0.000000,0.000000
12458005.000000,-0.344336,0.587410,0.438829,-1.489978,-0.265995,2.020063,0.147330,0.009516,0.290905,-0.075847,-0.305482,-0.154468,0.594467,0.082449,0.276533,-38.362385,5.774338,17.435789,0.166105,1.611434,0.087753,0.000000,0.000000,0.000000,0.000000,0.000000,0.000000
12458006.000000,-0.344327,0.587706,0.438751,-1.490281,-0.266154,2.020630,0.147433,0.007555,0.291870,-0.077090,-0.305864,-0.156637,0.590637,0.087975,0.403486,-38.413960,5.849716,17.511168,0.154203,1.662704,0.021835,0.000000,0.000000,0.000000,0.000000,0.000000,0.000000
12458007.000000,-0.344315,0.588002,0.438675,-1.490588,-0.266316,2.021204,0.147524,0.004433,0.292603,-0.077083,-0.303120,-0.159005,0.581916,0.089055,0.474897,-38.485371,5.873520,17.610350,0.147794,1.727706,0.034652,0.000000,0.000000,0.000000,0.000000,0.000000,0.000000
12458008.000000,-0.344302,0.588299,0.438593,-1.490898,-0.266474,2.021782,0.147609,0.005679,0.293086,-0.075665,-0.306914,-0.155262,0.583140,0.087993,0.526471,-38.413960,5.972702,17.661924,0.135892,1.741439,0.094161,0.000000,0.000000,0.000000,0.000000,0.000000,0.000000
12458009.000000,-0.344293,0.588586,0.438513,-1.491212,-0.266635,2.022362,0.147710,0.005474,0.287345,-0.076464,-0.309013,-0.158789,0.579580,0.092051,0.625654,-38.338581,6.020309,17.832518,0.154203,1.721298,0.034652,0.000000,0.000000,0.000000,0.000000,0.000000,0.000000
12458010.000000,-0.344282,0.588876,0.438435,-1.491528,-0.266798,2.022944,0.147800,0.006019,0.288919,-0.076417,-0.307137,-0.157171,0.576761,0.087334,0.697065,-38.267170,6.044113,18.007078,0.195402,1.689254,0.048385,0.000000,0.000000,0.000000,0.000000,0.000000,0.000000
12458011.000000,-0.344273,0.589166,0.438342,-1.491843,-0.266958,2.023522,0.147895,0.005757,0.286993,-0.080052,-0.306403,-0.159583,0.578027,0.089577,0.796247,-38.167988,6.218674,18.205442,0.213712,1.708480,0.048385,0.000000,0.000000,0.000000,0.000000,0.000000,0.000000
12458012.000000,-0.344257,0.589454,0.438266,-1.492148,-0.267119,2.024099,0.147995,0.011102,0.285380,-0.077788,-0.304327,-0.161313,0.573285,0.091357,0.796247,-38.068806,6.190903,18.205442,0.243009,1.767074,0.034652,0.000000,0.000000,0.000000,0.000000,0.000000,0.000000
12458013.000000,-0.344252,0.589758,0.438174,-1.492463,-0.267285,2.024683,0.148087,0.008257,0.291169,-0.083441,-0.309266,-0.161339,0.570133,0.090974,0.947004,-38.120380,6.341660,18.328428,0.219205,1.819259,0.074935,0.000000,0.000000,0.000000,0.000000,0.000000,0.000000
12458014.000000,-0.344238,0.590053,0.438091,-1.492778,-0.267452,2.025259,0.148193,0.009810,0.292447,-0.084080,-0.309636,-0.167747,0.565799,0.094167,0.947004,-38.045002,6.341660,18.451414,0.219205,1.800033,0.015426,0.000000,0.000000,0.000000,0.000000,0.000000,0.000000
12458015.000000,-0.344228,0.590350,0.438003,-1.493091,-0.267620,2.025847,0.148284,0.006584,0.290594,-0.086516,-0.309295,-0.168367,0.566327,0.091926,0.994611,-38.021198,6.413071,18.574400,0.243009,1.767074,0.074935,0.000000,0.000000,0.000000,0.000000,0.000000,0.000000
12458016.000000,-0.344211,0.590649,0.437909,-1.493403,-0.267784,2.026415,0.148385,0.008921,0.299209,-0.089439,-0.318342,-0.167660,0.566044,0.093820,0.970807,-38.068806,6.536057,18.748960,0.249418,1.779891,0.034652,0.000000,0.000000,0.000000,0.000000,0.000000,0.000000
12458017.000000,-0.344201,0.590946,0.437824,-1.493716,-0.267953,2.026991,0.148476,0.008252,0.295487,-0.086600,-0.316458,-0.168362,0.570182,0.093643,1.046186,-38.021198,6.583664,18.871946,0.303434,1.812850,0.048385,0.000000,0.000000,0.000000,0.000000,0.000000,0.000000
12458018.000000,-0.344185,0.591254,0.437736,-1.494027,-0.268114,2.027565,0.148574,0.009590,0.299422,-0.090786,-0.314866,-0.169247,0.572485,0.093877,1.046186,-38.120380,6.635239,18.994932,0.344633,1.865035,0.048385,0.000000,0.000000,0.000000,0.000000,0.000000,0.000000
12458019.000000,-0.344173,0.591556,0.437647,-1.494341,-0.268272,2.028131,0.148672,0.009947,0.300639,-0.091012,-0.316175,-0.166871,0.574905,0.099330,1.069990,-38.144184,6.682846,19.094114,0.315336,1.897079,0.034652,0.000000,0.000000,0.000000,0.000000,0.000000,0.000000
12458020.000000,-0.344154,0.591863,0.437555,-1.494653,-0.268420,2.028706,0.148766,0.011795,0.300292,-0.091149,-0.313201,-0.164291,0.575839,0.097314,1.022382,-38.267170,6.734421,19.169493,0.249418,1.916305,0.054794,0.000000,0.000000,0.000000,0.000000,0.000000,0.000000
12458021.000000,-0.344135,0.592166,0.437470,-1.494962,-0.268583,2.029271,0.148869,0.015842,0.301636,-0.088908,-0.317657,-0.158245,0.582140,0.097948,0.994611,-38.314777,6.682846,19.193296,0.213712,1.955673,0.015426,0.000000,0.000000,0.000000,0.000000,0.000000,0.000000
12458022.000000,-0.344118,0.592458,0.437379,-1.495273,-0.268744,2.029851,0.148960,0.018109,0.301442,-0.089824,-0.318444,-0.159257,0.578496,0.095815,0.994611,-38.191792,6.734421,19.292479,0.178007,1.955673,0.048385,0.000000,0.000000,0.000000,0.000000,0.000000,0.000000
12458023.000000,-0.344102,0.592749,0.437290,-1.495582,-0.268909,2.030431,0.149058,0.016715,0.298805,-0.089284,-0.312812,-0.158762,0.579979,0.095552,0.994611,-38.096577,6.734421,19.268675,0.249418,1.949264,0.048385,0.000000,0.000000,0.000000,0.000000,0.000000,0.000000
12458024.000000,-0.344082,0.593042,0.437197,-1.495893,-0.269067,2.031009,0.149162,0.016189,0.297348,-0.092529,-0.314230,-0.161359,0.582793,0.096489,0.970807,-37.997395,6.758224,19.316282,0.279630,1.916305,0.015426,0.000000,0.000000,0.000000,0.000000,0.000000,0.000000
12458025.000000,-0.344060,0.593340,0.437107,-1.496211,-0.269228,2.031580,0.149257,0.019478,0.295176,-0.091987,-0.314190,-0.164124,0.578453,0.094235,0.923200,-37.850605,6.782028,19.340086,0.320829,1.916305,0.061202,0.000000,0.000000,0.000000,0.000000,0.000000,0.000000
12458026.000000,-0.344042,0.593644,0.437022,-1.496523,-0.269389,2.032164,0.149360,0.020191,0.296630,-0.089723,-0.310853,-0.156066,0.577401,0.095158,0.947004,-37.826801,6.734421,19.340086,0.374845,1.858627,0.034652,0.000000,0.000000,0.000000,0.000000,0.000000,0.000000
12458027.000000,-0.344020,0.593943,0.436937,-1.496825,-0.269544,2.032730,0.149457,0.022587,0.296509,-0.089380,-0.305255,-0.156694,0.575623,0.094701,0.895429,-37.751423,6.734421,19.217100,0.332731,1.832076,0.041976,0.000000,0.000000,0.000000,0.000000,0.000000,0.000000
12458028.000000,-0.343996,0.594246,0.436849,-1.497141,-0.269701,2.033294,0.149560,0.024752,0.296088,-0.089050,-0.307419,-0.158185,0.565052,0.095836,0.824018,-37.680012,6.734421,19.240904,0.308927,1.897079,0.009017,0.000000,0.000000,0.000000,0.000000,0.000000,0.000000
12458029.000000,-0.343971,0.594544,0.436767,-1.497441,-0.269861,2.033851,0.149657,0.023261,0.298702,-0.087798,-0.303969,-0.158201,0.559597,0.095172,0.748639,-37.580830,6.659042,19.141722,0.267728,1.936446,0.015426,0.000000,0.000000,0.000000,0.000000,0.000000,0.000000
12458030.000000,-0.343944,0.594859,0.436684,-1.497751,-0.270018,2.034417,0.149749,0.025177,0.306272,-0.086912,-0.302501,-0.162533,0.560119,0.093529,0.673261,-37.580830,6.611435,19.094114,0.213712,1.968490,0.054794,0.000000,0.000000,0.000000,0.000000,0.000000,0.000000
12458031.000000,-0.343926,0.595168,0.436603,-1.498056,-0.270186,2.034987,0.149849,0.020468,0.305956,-0.082706,-0.299039,-0.164980,0.558033,0.099142,0.724836,-37.604633,6.536057,19.070311,0.249418,1.949264,0.041976,0.000000,0.000000,0.000000,0.000000,0.000000,0.000000
12458032.000000,-0.343904,0.595468,0.436522,-1.498353,-0.270343,2.035554,0.149948,0.019014,0.305190,-0.083255,-0.298049,-0.159391,0.561731,0.097492,0.697065,-37.604633,6.488449,18.994932,0.231107,1.909896,0.054794,0.000000,0.000000,0.000000,0.000000,0.000000,0.000000
12458033.000000,-0.343872,0.595781,0.436433,-1.498655,-0.270502,2.036127,0.150048,0.020137,0.301892,-0.085352,-0.298969,-0.162195,0.558500,0.097736,0.574079,-37.656208,6.512253,18.994932,0.255826,1.871444,0.028243,0.000000,0.000000,0.000000,0.000000,0.000000,0.000000
12458034.000000,-0.343854,0.596087,0.436355,-1.498948,-0.270668,2.036698,0.150142,0.019330,0.310243,-0.083330,-0.300134,-0.160552,0.567295,0.100606,0.649457,-37.703815,6.389267,18.947325,0.332731,1.825668,0.048385,0.000000,0.000000,0.000000,0.000000,0.000000,0.000000
12458035.000000,-0.343822,0.596390,0.436276,-1.499253,-0.270821,2.037271,0.150234,0.023026,0.312890,-0.080576,-0.301173,-0.159430,0.566834,0.099775,0.550275,-37.656208,6.341660,18.971128,0.291532,1.825668,0.061202,0.000000,0.000000,0.000000,0.000000,0.000000,0.000000
12458036.000000,-0.343799,0.596699,0.436195,-1.499550,-0.270978,2.037849,0.150335,0.023320,0.310918,-0.079504,-0.299922,-0.155633,0.566765,0.104474,0.550275,-37.703815,6.341660,18.919554,0.285123,1.819259,0.028243,0.000000,0.000000,0.000000,0.000000,0.000000,0.000000
12458037.000000,-0.343771,0.596996,0.436121,-1.499842,-0.271145,2.038414,0.150431,0.024692,0.306699,-0.075910,-0.301467,-0.158624,0.566319,0.095749,0.502668,-37.628437,6.218674,18.947325,0.303434,1.825668,0.067611,0.000000,0.000000,0.000000,0.000000,0.000000,0.000000
12458038.000000,-0.343741,0.597294,0.436043,-1.500140,-0.271299,2.038979,0.150536,0.026211,0.302038,-0.075523,-0.294220,-0.158563,0.562716,0.097199,0.427289,-37.481647,6.190903,18.919554,0.249418,1.890670,0.021835,0.000000,0.000000,0.000000,0.000000,0.000000,0.000000
12458039.000000,-0.343712,0.597603,0.435971,-1.500430,-0.271457,2.039543,0.150636,0.029992,0.302822,-0.075554,-0.290661,-0.159994,0.562740,0.095980,0.375715,-37.509418,6.044113,18.820372,0.237516,1.930038,0.028243,0.000000,0.000000,0.000000,0.000000,0.000000,0.000000
12458040.000000,-0.343684,0.597911,0.435893,-1.500717,-0.271611,2.040120,0.150729,0.029067,0.307052,-0.074911,-0.288008,-0.156260,0.565408,0.098226,0.351911,-37.557026,5.996506,18.721189,0.231107,1.890670,0.067611,0.000000,0.000000,0.000000,0.000000,0.000000,0.000000
12458041.000000,-0.343655,0.598224,0.435811,-1.501010,-0.271761,2.040706,0.150831,0.028416,0.307199,-0.076377,-0.289553,-0.157406,0.566782,0.099073,0.328107,-37.509418,6.020309,18.649778,0.189908,1.844894,0.021835,0.000000,0.000000,0.000000,0.000000,0.000000,0.000000
12458042.000000,-0.343627,0.598533,0.435740,-1.501299,-0.271920,2.041278,0.150926,0.024246,0.310232,-0.076761,-0.286216,-0.156238,0.563757,0.101279,0.328107,-37.557026,5.897324,18.625975,0.243009,1.806442,0.054794,0.000000,0.000000,0.000000,0.000000,0.000000,0.000000
12458043.000000,-0.343593,0.598845,0.435660,-1.501581,-0.272074,2.041856,0.151028,0.029253,0.309999,-0.076894,-0.284777,-0.157805,0.563660,0.105819,0.252729,-37.509418,5.897324,18.526793,0.219205,1.812850,0.015426,0.000000,0.000000,0.000000,0.000000,0.000000,0.000000
12458044.000000,-0.343563,0.599163,0.435585,-1.501862,-0.272241,2.042430,0.151122,0.029063,0.308549,-0.078207,-0.283993,-0.155777,0.563687,0.105710,0.205121,-37.533222,5.825912,18.427610,0.243009,1.838485,0.061202,0.000000,0.000000,0.000000,0.000000,0.000000,0.000000
12458045.000000,-0.343534,0.599478,0.435511,-1.502136,-0.272413,2.043002,0.151221,0.027236,0.311269,-0.076729,-0.277706,-0.154861,0.564495,0.103503,0.228925,-37.580830,5.774338,18.352232,0.291532,1.838485,0.048385,0.000000,0.000000,0.000000,0.000000,0.000000,0.000000
12458046.000000,-0.343503,0.599806,0.435436,-1.502419,-0.272569,2.043588,0.151321,0.030910,0.314175,-0.076689,-0.279946,-0.154858,0.562184,0.107245,0.177350,-37.703815,5.774338,18.328428,0.219205,1.767074,0.015426,0.000000,0.000000,0.000000,0.000000,0.000000,0.000000
12458047.000000,-0.343473,0.600128,0.435363,-1.502693,-0.272734,2.044175,0.151416,0.029266,0.316736,-0.078228,-0.279003,-0.156940,0.565968,0.104138,0.177350,-37.898212,5.702927,18.304625,0.201810,1.695663,0.021835,0.000000,0.000000,0.000000,0.000000,0.000000,0.000000
12458048.000000,-0.343441,0.600448,0.435286,-1.502967,-0.272900,2.044759,0.151510,0.029209,0.319993,-0.074689,-0.275120,-0.164421,0.567015,0.101218,0.129743,-37.949787,5.702927,18.276854,0.219205,1.656295,0.034652,0.000000,0.000000,0.000000,0.000000,0.000000,0.000000
12458049.000000,-0.343403,0.600772,0.435202,-1.503241,-0.273061,2.045340,0.151608,0.030392,0.316125,-0.077004,-0.273945,-0.164082,0.570287,0.104085,0.030561,-37.997395,5.774338,18.205442,0.195402,1.676437,0.048385,0.000000,0.000000,0.000000,0.000000,0.000000,0.000000
12458050.000000,-0.343373,0.601087,0.435123,-1.503505,-0.273233,2.045904,0.151710,0.031249,0.319009,-0.077192,-0.270583,-0.166575,0.570539,0.102305,0.054365,-38.021198,5.798141,18.153868,0.249418,1.773483,0.034652,0.000000,0.000000,0.000000,0.000000,0.000000,0.000000
12458051.000000,-0.343344,0.601406,0.435042,-1.503770,-0.273396,2.046479,0.151807,0.032099,0.321580,-0.077422,-0.266825,-0.166208,0.572210,0.105119,0.078168,-37.949787,5.825912,18.078489,0.243009,1.800033,0.034652,0.000000,0.000000,0.000000,0.000000,0.000000,0.000000
12458052.000000,-0.343310,0.601724,0.434966,-1.504038,-0.273565,2.047050,0.151903,0.034544,0.325280,-0.078815,-0.272999,-0.164565,0.582676,0.101264,0.030561,-37.997395,5.774338,18.030882,0.207303,1.786300,0.061202,0.000000,0.000000,0.000000,0.000000,0.000000,0.000000
12458053.000000,-0.343282,0.602046,0.434886,-1.504302,-0.273741,2.047630,0.152003,0.034081,0.322240,-0.078598,-0.269225,-0.166401,0.589115,0.100303,0.078168,-37.997395,5.798141,17.955503,0.237516,1.760665,0.041976,0.000000,0.000000,0.000000,0.000000,0.000000,0.000000
12458054.000000,-0.343252,0.602366,0.434803,-1.504567,-0.273900,2.048217,0.152104,0.034364,0.317691,-0.078350,-0.264931,-0.159564,0.583866,0.099365,0.105939,-37.898212,5.825912,17.955503,0.195402,1.741439,0.028243,0.000000,0.000000,0.000000,0.000000,0.000000,0.000000
12458055.000000,-0.343218,0.602681,0.434727,-1.504822,-0.274067,2.048790,0.152202,0.035807,0.319985,-0.080118,-0.263353,-0.161423,0.584665,0.096340,0.078168,-37.898212,5.798141,17.884092,0.207303,1.735030,0.074935,0.000000,0.000000,0.000000,0.000000,0.000000,0.000000
12458056.000000,-0.343188,0.603009,0.434643,-1.505077,-0.274232,2.049373,0.152306,0.035382,0.321042,-0.079674,-0.259794,-0.163008,0.586952,0.097751,0.105939,-37.874409,5.825912,17.733335,0.213712,1.773483,0.028243,0.000000,0.000000,0.000000,0.000000,0.000000,0.000000
12458057.000000,-0.343157,0.603333,0.434562,-1.505334,-0.274391,2.049953,0.152404,0.035450,0.319248,-0.080046,-0.259208,-0.158057,0.581614,0.096205,0.129743,-37.874409,5.873520,17.634153,0.201810,1.793624,0.041976,0.000000,0.000000,0.000000,0.000000,0.000000,0.000000
12458058.000000,-0.343124,0.603665,0.434475,-1.505585,-0.274553,2.050533,0.152507,0.033482,0.320933,-0.080563,-0.259264,-0.159176,0.583206,0.100724,0.105939,-37.997395,5.948898,17.562742,0.178007,1.773483,0.021835,0.000000,0.000000,0.000000,0.000000,0.000000,0.000000
12458059.000000,-0.343097,0.604000,0.434396,-1.505845,-0.274717,2.051118,0.152596,0.030269,0.323254,-0.078202,-0.254725,-0.161049,0.581098,0.096454,0.153547,-38.068806,5.897324,17.586546,0.178007,1.689254,0.094161,0.000000,0.000000,0.000000,0.000000,0.000000,0.000000
12458060.000000,-0.343063,0.604335,0.434311,-1.506090,-0.274885,2.051695,0.152702,0.033257,0.331786,-0.081254,-0.248771,-0.162651,0.578923,0.102905,0.105939,-38.267170,5.921127,17.487364,0.195402,1.649886,0.034652,0.000000,0.000000,0.000000,0.000000,0.000000,0.000000
12458061.000000,-0.343036,0.604674,0.434225,-1.506336,-0.275049,2.052268,0.152805,0.028851,0.335258,-0.084147,-0.249235,-0.159256,0.570421,0.101510,0.205121,-38.362385,5.972702,17.463560,0.219205,1.656295,0.015426,0.000000,0.000000,0.000000,0.000000,0.000000,0.000000
12458062.000000,-0.343005,0.605011,0.434142,-1.506587,-0.275217,2.052848,0.152898,0.031242,0.332398,-0.084860,-0.247552,-0.156608,0.570358,0.097053,0.205121,-38.485371,5.972702,17.487364,0.243009,1.643478,0.081344,0.000000,0.000000,0.000000,0.000000,0.000000,0.000000
12458063.000000,-0.342972,0.605339,0.434059,-1.506828,-0.275382,2.053406,0.153007,0.033565,0.331146,-0.085884,-0.247983,-0.158267,0.562544,0.098328,0.177350,-38.513142,5.972702,17.463560,0.225614,1.695663,0.034652,0.000000,0.000000,0.000000,0.000000,0.000000,0.000000
12458064.000000,-0.342941,0.605674,0.433966,-1.507070,-0.275541,2.053973,0.153108,0.032026,0.332180,-0.088044,-0.245786,-0.159628,0.561066,0.097300,0.153547,-38.513142,6.044113,17.487364,0.207303,1.727706,0.034652,0.000000,0.000000,0.000000,0.000000,0.000000,0.000000
12458065.000000,-0.342909,0.606000,0.433878,-1.507316,-0.275699,2.054530,0.153207,0.032866,0.332501,-0.089066,-0.244554,-0.159403,0.562266,0.095530,0.177350,-38.461567,6.095688,17.511168,0.166105,1.741439,0.061202,0.000000,0.000000,0.000000,0.000000,0.000000,0.000000
12458066.000000,-0.342880,0.606338,0.433796,-1.507563,-0.275861,2.055095,0.153307,0.029739,0.333403,-0.087981,-0.243636,-0.164184,0.562415,0.101099,0.228925,-38.437763,6.067917,17.534971,0.129484,1.779891,0.034652,0.000000,0.000000,0.000000,0.000000,0.000000,0.000000
12458067.000000,-0.342850,0.606680,0.433711,-1.507810,-0.276031,2.055664,0.153408,0.031314,0.336748,-0.084670,-0.241269,-0.164659,0.563068,0.103521,0.252729,-38.513142,6.067917,17.610350,0.123990,1.793624,0.054794,0.000000,0.000000,0.000000,0.000000,0.000000,0.000000
12458068.000000,-0.342821,0.607019,0.433625,-1.508047,-0.276203,2.056217,0.153511,0.031768,0.339050,-0.086179,-0.243059,-0.160917,0.563733,0.102103,0.304304,-38.584553,6.095688,17.586546,0.154203,1.806442,0.034652,0.000000,0.000000,0.000000,0.000000,0.000000,0.000000
12458069.000000,-0.342786,0.607361,0.433540,-1.508289,-0.276368,2.056782,0.153611,0.034602,0.339997,-0.082899,-0.240780,-0.162337,0.563430,0.099911,0.252729,-38.659931,6.067917,17.562742,0.154203,1.800033,0.041976,0.000000,0.000000,0.000000,0.000000,0.000000,0.000000
12458070.000000,-0.342759,0.607705,0.433449,-1.508533,-0.276538,2.057343,0.153711,0.033641,0.347245,-0.084904,-0.246318,-0.159262,0.576926,0.098155,0.328107,-38.683735,6.095688,17.610350,0.189908,1.760665,0.048385,0.000000,0.000000,0.000000,0.000000,0.000000,0.000000
12458071.000000,-0.342720,0.608047,0.433364,-1.508772,-0.276705,2.057909,0.153813,0.033421,0.345002,-0.085695,-0.243251,-0.165957,0.569516,0.094684,0.252729,-38.683735,6.095688,17.562742,0.213712,1.754256,0.009017,0.000000,0.000000,0.000000,0.000000,0.000000,0.000000
12458072.000000,-0.342682,0.608395,0.433269,-1.509019,-0.276865,2.058473,0.153903,0.036231,0.346865,-0.091400,-0.244027,-0.159681,0.564305,0.092326,0.177350,-38.854328,6.190903,17.511168,0.183500,1.741439,0.067611,0.000000,0.000000,0.000000,0.000000,0.000000,0.000000
12458073.000000,-0.342653,0.608742,0.433184,-1.509259,-0.277029,2.059033,0.154008,0.035162,0.349873,-0.091934,-0.245041,-0.160087,0.565787,0.093709,0.228925,-38.953510,6.143295,17.463560,0.159696,1.721298,0.048385,0.000000,0.000000,0.000000,0.000000,0.000000,0.000000
12458074.000000,-0.342617,0.609083,0.433094,-1.509499,-0.277199,2.059592,0.154107,0.036362,0.344123,-0.090957,-0.242026,-0.166972,0.560153,0.093255,0.205121,-38.977314,6.143295,17.411985,0.154203,1.727706,0.067611,0.000000,0.000000,0.000000,0.000000,0.000000,0.000000
12458075.000000,-0.342585,0.609431,0.433008,-1.509748,-0.277376,2.060161,0.154212,0.036620,0.343614,-0.088990,-0.245231,-0.167430,0.562593,0.095849,0.205121,-39.024921,6.095688,17.435789,0.171598,1.714889,0.001693,0.000000,0.000000,0.000000,0.000000,0.000000,0.000000
12458076.000000,-0.342552,0.609765,0.432919,-1.509992,-0.277549,2.060714,0.154308,0.033150,0.336958,-0.089405,-0.246979,-0.168204,0.557693,0.093633,0.228925,-38.925739,6.119492,17.435789,0.195402,1.741439,0.034652,0.000000,0.000000,0.000000,0.000000,0.000000,0.000000
12458077.000000,-0.342518,0.610112,0.432832,-1.510238,-0.277715,2.061280,0.154406,0.034879,0.342466,-0.088710,-0.244578,-0.167874,0.558696,0.093077,0.205121,-39.024921,6.095688,17.435789,0.201810,1.741439,0.054794,0.000000,0.000000,0.000000,0.000000,0.000000,0.000000
12458078.000000,-0.342480,0.610448,0.432741,-1.510479,-0.277882,2.061842,0.154512,0.036701,0.345986,-0.085471,-0.243340,-0.167122,0.561346,0.099847,0.153547,-38.953510,6.095688,17.435789,0.207303,1.721298,0.009017,0.000000,0.000000,0.000000,0.000000,0.000000,0.000000
12458079.000000,-0.342444,0.610791,0.432649,-1.510737,-0.278045,2.062408,0.154605,0.034790,0.341951,-0.087279,-0.245108,-0.165211,0.567680,0.096000,0.105939,-38.977314,6.143295,17.562742,0.189908,1.721298,0.074935,0.000000,0.000000,0.000000,0.000000,0.000000,0.000000
12458080.000000,-0.342406,0.611140,0.432562,-1.510991,-0.278208,2.062977,0.154708,0.036518,0.343800,-0.086756,-0.245668,-0.158944,0.567048,0.096324,0.054365,-38.953510,6.119492,17.661924,0.154203,1.727706,0.054794,0.000000,0.000000,0.000000,0.000000,0.000000,0.000000
12458081.000000,-0.342369,0.611479,0.432478,-1.511231,-0.278380,2.063533,0.154813,0.037071,0.337913,-0.085366,-0.243651,-0.160181,0.566627,0.102080,0.030561,-38.878132,6.044113,17.661924,0.141385,1.735030,0.015426,0.000000,0.000000,0.000000,0.000000,0.000000,0.000000
12458082.000000,-0.342331,0.611830,0.432384,-1.511470,-0.278558,2.064098,0.154908,0.034986,0.341493,-0.086208,-0.239560,-0.168618,0.569854,0.098392,-0.017047,-38.901936,6.044113,17.562742,0.183500,1.747848,0.061202,0.000000,0.000000,0.000000,0.000000,0.000000,0.000000
12458083.000000,-0.342291,0.612172,0.432298,-1.511708,-0.278729,2.064649,0.155010,0.036074,0.349739,-0.085100,-0.238295,-0.168368,0.563919,0.098911,-0.044818,-38.830524,5.972702,17.511168,0.201810,1.767074,0.028243,0.000000,0.000000,0.000000,0.000000,0.000000,0.000000
12458084.000000,-0.342250,0.612513,0.432206,-1.511953,-0.278895,2.065217,0.155108,0.037355,0.346814,-0.086110,-0.236261,-0.171247,0.560568,0.097271,-0.092425,-38.806721,5.972702,17.534971,0.183500,1.760665,0.041976,0.000000,0.000000,0.000000,0.000000,0.000000,0.000000
12458085.000000,-0.342216,0.612865,0.432120,-1.512193,-0.279067,2.065781,0.155213,0.037235,0.347510,-0.086205,-0.234542,-0.169927,0.554941,0.098418,-0.092425,-38.778950,5.948898,17.435789,0.183500,1.695663,-0.004716,0.000000,0.000000,0.000000,0.000000,0.000000,0.000000
12458086.000000,-0.342179,0.613214,0.432027,-1.512437,-0.279235,2.066339,0.155314,0.037074,0.343275,-0.087936,-0.235895,-0.167668,0.553804,0.096336,-0.092425,-38.925739,5.996506,17.435789,0.154203,1.682845,0.021835,0.000000,0.000000,0.000000,0.000000,0.000000,0.000000
12458087.000000,-0.342143,0.613563,0.431938,-1.512682,-0.279408,2.066900,0.155416,0.036899,0.342910,-0.091288,-0.236949,-0.172766,0.550412,0.100874,-0.092425,-38.977314,5.996506,17.463560,0.159696,1.695663,0.015426,0.000000,0.000000,0.000000,0.000000,0.000000,0.000000
12458088.000000,-0.342108,0.613917,0.431847,-1.512927,-0.279585,2.067465,0.155520,0.033313,0.340940,-0.091021,-0.245026,-0.175569,0.564132,0.103447,-0.068621,-39.072529,6.020309,17.586546,0.141385,1.727706,0.021835,0.000000,0.000000,0.000000,0.000000,0.000000,0.000000
12458089.000000,-0.342073,0.614262,0.431762,-1.513168,-0.279774,2.068017,0.155619,0.033820,0.344568,-0.091996,-0.243046,-0.180024,0.558904,0.104969,-0.044818,-39.124104,5.948898,17.586546,0.178007,1.767074,0.048385,0.000000,0.000000,0.000000,0.000000,0.000000,0.000000
12458090.000000,-0.342039,0.614607,0.431673,-1.513425,-0.279957,2.068578,0.155723,0.033658,0.343996,-0.091010,-0.248661,-0.177920,0.559589,0.103359,0.006757,-39.048725,5.948898,17.757139,0.213712,1.779891,0.021835,0.000000,0.000000,0.000000,0.000000,0.000000,0.000000
12458091.000000,-0.342004,0.614946,0.431582,-1.513676,-0.280134,2.069134,0.155822,0.034744,0.342744,-0.087859,-0.252393,-0.173956,0.560524,0.104285,0.006757,-39.048725,5.972702,17.907896,0.201810,1.806442,0.061202,0.000000,0.000000,0.000000,0.000000,0.000000,0.000000
12458092.000000,-0.341969,0.615295,0.431492,-1.513935,-0.280314,2.069702,0.155929,0.034224,0.348024,-0.087429,-0.254794,-0.172909,0.567112,0.108115,0.054365,-39.048725,5.948898,18.054686,0.225614,1.786300,0.021835,0.000000,0.000000,0.000000,0.000000,0.000000,0.000000
12458093.000000,-0.341931,0.615643,0.431396,-1.514196,-0.280496,2.070270,0.156031,0.035202,0.346301,-0.088741,-0.254857,-0.176474,0.566846,0.108575,0.054365,-39.072529,5.996506,18.253050,0.231107,1.793624,0.034652,0.000000,0.000000,0.000000,0.000000,0.000000,0.000000
12458094.000000,-0.341891,0.615994,0.431308,-1.514442,-0.280673,2.070821,0.156133,0.036428,0.349584,-0.088585,-0.251770,-0.178654,0.566753,0.104588,0.030561,-39.147907,5.996506,18.328428,0.219205,1.793624,0.034652,0.000000,0.000000,0.000000,0.000000,0.000000,0.000000
12458095.000000,-0.341860,0.616346,0.431216,-1.514692,-0.280851,2.071380,0.156238,0.035009,0.345733,-0.089671,-0.251012,-0.175642,0.563841,0.107058,0.105939,-39.124104,6.044113,18.352232,0.219205,1.838485,0.028243,0.000000,0.000000,0.000000,0.000000,0.000000,0.000000
12458096.000000,-0.341821,0.616699,0.431122,-1.514936,-0.281033,2.071925,0.156336,0.033325,0.349527,-0.092957,-0.250368,-0.173546,0.558451,0.102584,0.078168,-39.219318,6.067917,18.352232,0.237516,1.877853,0.061202,0.000000,0.000000,0.000000,0.000000,0.000000,0.000000
12458097.000000,-0.341792,0.617059,0.431028,-1.515187,-0.281209,2.072483,0.156446,0.032146,0.354253,-0.095478,-0.248988,-0.175910,0.551869,0.102577,0.177350,-39.270893,6.095688,18.427610,0.237516,1.865035,0.009017,0.000000,0.000000,0.000000,0.000000,0.000000,0.000000
12458098.000000,-0.341756,0.617409,0.430936,-1.515444,-0.281386,2.073036,0.156547,0.033809,0.354137,-0.093293,-0.252101,-0.173637,0.547324,0.098926,0.177350,-39.294697,6.095688,18.550596,0.243009,1.838485,0.048385,0.000000,0.000000,0.000000,0.000000,0.000000,0.000000
12458099.000000,-0.341726,0.617765,0.430850,-1.515687,-0.281565,2.073586,0.156655,0.029977,0.357794,-0.093563,-0.247101,-0.176282,0.548851,0.098834,0.252729,-39.342304,6.020309,18.499022,0.231107,1.793624,0.021835,0.000000,0.000000,0.000000,0.000000,0.000000,0.000000
12458100.000000,-0.341691,0.618122,0.430749,-1.515939,-0.281736,2.074134,0.156758,0.032136,0.354777,-0.094633,-0.246002,-0.173542,0.547285,0.096685,0.252729,-39.441486,6.119492,18.574400,0.225614,1.800033,0.048385,0.000000,0.000000,0.000000,0.000000,0.000000,0.000000
12458101.000000,-0.341656,0.618472,0.430656,-1.516178,-0.281913,2.074673,0.156861,0.033127,0.361707,-0.092645,-0.249254,-0.171807,0.546756,0.095810,0.276533,-39.465290,6.095688,18.598204,0.237516,1.819259,0.067611,0.000000,0.000000,0.000000,0.000000,0.000000,0.000000
12458102.000000,-0.341625,0.618826,0.430563,-1.516431,-0.282090,2.075217,0.156966,0.032654,0.355449,-0.095135,-0.251293,-0.179865,0.545437,0.096284,0.351911,-39.441486,6.119492,18.673582,0.243009,1.877853,0.048385,0.000000,0.000000,0.000000,0.000000,0.000000,0.000000
12458103.000000,-0.341590,0.619173,0.430467,-1.516678,-0.282269,2.075762,0.157068,0.031027,0.353275,-0.093740,-0.249065,-0.175801,0.545305,0.096239,0.351911,-39.393879,6.143295,18.721189,0.225614,1.903487,0.041976,0.000000,0.000000,0.000000,0.000000,0.000000,0.000000
12458104.000000,-0.341558,0.619520,0.430370,-1.516923,-0.282446,2.076305,0.157173,0.031570,0.350309,-0.097188,-0.248125,-0.173805,0.545968,0.097224,0.403486,-39.270893,6.218674,18.796568,0.243009,1.916305,0.001693,0.000000,0.000000,0.000000,0.000000,0.000000,0.000000
12458105.000000,-0.341521,0.619870,0.430270,-1.517176,-0.282619,2.076854,0.157267,0.036838,0.350467,-0.099090,-0.250466,-0.176931,0.542412,0.094208,0.375715,-39.270893,6.266281,18.895750,0.237516,1.884261,0.061202,0.000000,0.000000,0.000000,0.000000,0.000000,0.000000
12458106.000000,-0.341489,0.620224,0.430174,-1.517424,-0.282792,2.077400,0.157371,0.035940,0.351286,-0.099291,-0.251322,-0.174007,0.540101,0.095220,0.427289,-39.147907,6.266281,18.994932,0.237516,1.858627,0.034652,0.000000,0.000000,0.000000,0.000000,0.000000,0.000000
12458107.000000,-0.341453,0.620565,0.430077,-1.517668,-0.282968,2.077937,0.157469,0.037119,0.349272,-0.097680,-0.248874,-0.173258,0.535802,0.095651,0.403486,-39.048725,6.313889,19.042540,0.267728,1.903487,0.028243,0.000000,0.000000,0.000000,0.000000,0.000000,0.000000
12458108.000000,-0.341419,0.620918,0.429975,-1.517912,-0.283139,2.078476,0.157567,0.036813,0.346939,-0.099837,-0.249661,-0.172201,0.535784,0.093883,0.427289,-38.925739,6.389267,19.070311,0.285123,1.981307,0.067611,0.000000,0.000000,0.000000,0.000000,0.000000,0.000000
12458109.000000,-0.341386,0.621271,0.429871,-1.518153,-0.283315,2.079006,0.157674,0.036478,0.345018,-0.101586,-0.246805,-0.168446,0.531124,0.100539,0.451093,-38.901936,6.460678,19.070311,0.237516,2.079269,0.021835,0.000000,0.000000,0.000000,0.000000,0.000000,0.000000
12458110.000000,-0.341354,0.621624,0.429772,-1.518398,-0.283492,2.079558,0.157773,0.035118,0.347088,-0.101722,-0.246184,-0.168408,0.538190,0.097483,0.526471,-38.901936,6.488449,19.141722,0.249418,2.014266,0.061202,0.000000,0.000000,0.000000,0.000000,0.000000,0.000000
12458111.000000,-0.341318,0.621982,0.429675,-1.518639,-0.283664,2.080115,0.157886,0.036520,0.348326,-0.101657,-0.244795,-0.167715,0.542553,0.103991,0.502668,-38.901936,6.512253,19.169493,0.243009,1.968490,-0.011124,0.000000,0.000000,0.000000,0.000000,0.000000,0.000000
12458112.000000,-0.341281,0.622325,0.429579,-1.518884,-0.283838,2.080653,0.157990,0.033723,0.345920,-0.098010,-0.245347,-0.162334,0.540004,0.105085,0.502668,-38.878132,6.512253,19.268675,0.249418,1.949264,0.001693,0.000000,0.000000,0.000000,0.000000,0.000000,0.000000
12458113.000000,-0.341249,0.622690,0.429484,-1.519116,-0.284010,2.081205,0.158088,0.033648,0.352542,-0.096751,-0.240590,-0.164285,0.545234,0.104293,0.550275,-38.977314,6.436874,19.169493,0.273221,1.955673,0.067611,0.000000,0.000000,0.000000,0.000000,0.000000,0.000000
12458114.000000,-0.341212,0.623042,0.429376,-1.519353,-0.284180,2.081745,0.158203,0.035305,0.351766,-0.100684,-0.239880,-0.163598,0.545142,0.104797,0.526471,-39.072529,6.559860,19.292479,0.255826,1.974899,-0.011124,0.000000,0.000000,0.000000,0.000000,0.000000,0.000000
12458115.000000,-0.341171,0.623393,0.429279,-1.519581,-0.284349,2.082306,0.158303,0.037160,0.349890,-0.097316,-0.239042,-0.168446,0.546096,0.101448,0.474897,-39.001118,6.559860,19.268675,0.261320,1.968490,0.034652,0.000000,0.000000,0.000000,0.000000,0.000000,0.000000
12458116.000000,-0.341137,0.623752,0.429180,-1.519824,-0.284524,2.082855,0.158411,0.036550,0.347742,-0.094679,-0.238981,-0.172406,0.536465,0.100625,0.502668,-39.024921,6.559860,19.415464,0.237516,1.995040,0.009017,0.000000,0.000000,0.000000,0.000000,0.000000,0.000000
12458117.000000,-0.341100,0.624109,0.429079,-1.520054,-0.284706,2.083406,0.158514,0.036798,0.350810,-0.093811,-0.236039,-0.175381,0.540731,0.097151,0.502668,-39.100300,6.559860,19.439268,0.219205,1.962081,0.061202,0.000000,0.000000,0.000000,0.000000,0.000000,0.000000
12458118.000000,-0.341058,0.624476,0.428977,-1.520283,-0.284890,2.083967,0.158626,0.038804,0.354581,-0.092334,-0.233292,-0.175745,0.537465,0.103265,0.427289,-39.147907,6.559860,19.463072,0.285123,1.930038,0.009017,0.000000,0.000000,0.000000,0.000000,0.000000,0.000000
12458119.000000,-0.341019,0.624828,0.428874,-1.520512,-0.285073,2.084503,0.158735,0.038958,0.361175,-0.096006,-0.239308,-0.179176,0.548825,0.101245,0.403486,-39.147907,6.611435,19.463072,0.308927,1.995040,0.009017,0.000000,0.000000,0.000000,0.000000,0.000000,0.000000
12458120.000000,-0.340981,0.625185,0.428785,-1.520742,-0.285251,2.085054,0.158836,0.038451,0.360032,-0.094207,-0.235717,-0.179841,0.548520,0.097586,0.403486,-39.072529,6.488449,19.463072,0.308927,2.001449,0.061202,0.000000,0.000000,0.000000,0.000000,0.000000,0.000000
12458121.000000,-0.340941,0.625550,0.428685,-1.520970,-0.285423,2.085604,0.158950,0.041972,0.360801,-0.096875,-0.230812,-0.175439,0.549753,0.103319,0.375715,-39.195515,6.512253,19.490843,0.285123,1.962081,0.015426,0.000000,0.000000,0.000000,0.000000,0.000000,0.000000
12458122.000000,-0.340900,0.625909,0.428588,-1.521181,-0.285596,2.086144,0.159063,0.042389,0.361027,-0.094147,-0.223399,-0.178222,0.547728,0.105461,0.304304,-39.171711,6.488449,19.363890,0.285123,2.014266,0.021835,0.000000,0.000000,0.000000,0.000000,0.000000,0.000000
12458123.000000,-0.340856,0.626280,0.428487,-1.521401,-0.285769,2.086688,0.159174,0.045055,0.358373,-0.096419,-0.221582,-0.177426,0.541444,0.107441,0.252729,-39.318501,6.512253,19.268675,0.201810,2.033492,0.021835,0.000000,0.000000,0.000000,0.000000,0.000000,0.000000
12458124.000000,-0.340817,0.626656,0.428396,-1.521617,-0.285950,2.087240,0.159286,0.042984,0.364039,-0.092595,-0.224718,-0.179618,0.548706,0.109129,0.252729,-39.512897,6.436874,19.141722,0.189908,2.014266,0.009017,0.000000,0.000000,0.000000,0.000000,0.000000,0.000000
12458125.000000,-0.340776,0.627026,0.428297,-1.521830,-0.286124,2.087792,0.159390,0.040947,0.360676,-0.095018,-0.220593,-0.175880,0.544934,0.104975,0.276533,-39.659687,6.436874,19.070311,0.171598,1.968490,0.034652,0.000000,0.000000,0.000000,0.000000,0.000000,0.000000
12458126.000000,-0.340731,0.627398,0.428202,-1.522048,-0.286302,2.088354,0.159504,0.041756,0.365827,-0.095204,-0.220990,-0.175428,0.546037,0.108546,0.205121,-39.758869,6.389267,19.018736,0.213712,1.923629,-0.004716,0.000000,0.000000,0.000000,0.000000,0.000000,0.000000
12458127.000000,-0.340694,0.627766,0.428105,-1.522260,-0.286484,2.088908,0.159610,0.039932,0.366537,-0.094217,-0.216856,-0.179665,0.546499,0.104047,0.228925,-39.834248,6.389267,18.895750,0.261320,1.916305,0.028243,0.000000,0.000000,0.000000,0.000000,0.000000,0.000000
12458128.000000,-0.340646,0.628138,0.428007,-1.522479,-0.286657,2.089473,0.159717,0.041065,0.368458,-0.093408,-0.215858,-0.182247,0.552519,0.106473,0.153547,-39.957233,6.413071,18.871946,0.285123,1.884261,0.028243,0.000000,0.000000,0.000000,0.000000,0.000000,0.000000
12458129.000000,-0.340608,0.628512,0.427912,-1.522691,-0.286830,2.090033,0.159828,0.039498,0.370553,-0.094135,-0.215304,-0.182654,0.551147,0.103802,0.177350,-39.981037,6.365463,18.848143,0.267728,1.890670,0.015426,0.000000,0.000000,0.000000,0.000000,0.000000,0.000000
12458130.000000,-0.340560,0.628875,0.427816,-1.522904,-0.287008,2.090577,0.159931,0.040614,0.368711,-0.092740,-0.213969,-0.182033,0.549225,0.100246,0.105939,-39.981037,6.365463,18.796568,0.225614,1.923629,0.048385,0.000000,0.000000,0.000000,0.000000,0.000000,0.000000
12458131.000000,-0.340513,0.629239,0.427717,-1.523116,-0.287188,2.091132,0.160038,0.041458,0.366892,-0.094736,-0.215111,-0.182533,0.548508,0.105193,0.030561,-39.858051,6.365463,18.721189,0.195402,1.909896,0.009017,0.000000,0.000000,0.000000,0.000000,0.000000,0.000000
12458132.000000,-0.340466,0.629601,0.427624,-1.523324,-0.287363,2.091670,0.160142,0.045095,0.364521,-0.095063,-0.213417,-0.182450,0.541721,0.106713,-0.044818,-39.782673,6.313889,18.649778,0.166105,1.955673,0.015426,0.000000,0.000000,0.000000,0.000000,0.000000,0.000000
12458133.000000,-0.340424,0.629973,0.427531,-1.523530,-0.287541,2.092220,0.160249,0.042226,0.367285,-0.095168,-0.209145,-0.182409,0.538367,0.103377,-0.017047,-39.758869,6.242477,18.574400,0.159696,1.968490,0.021835,0.000000,0.000000,0.000000,0.000000,0.000000,0.000000
12458134.000000,-0.340377,0.630348,0.427429,-1.523740,-0.287722,2.092764,0.160360,0.044726,0.364296,-0.097718,-0.208888,-0.179620,0.537037,0.106334,-0.044818,-39.782673,6.290085,18.499022,0.189908,1.949264,0.009017,0.000000,0.000000,0.000000,0.000000,0.000000,0.000000
12458135.000000,-0.340324,0.630719,0.427328,-1.523941,-0.287900,2.093307,0.160464,0.048126,0.365749,-0.093857,-0.205798,-0.182706,0.540699,0.101161,-0.144000,-39.834248,6.313889,18.427610,0.225614,1.930038,0.067611,0.000000,0.000000,0.000000,0.000000,0.000000,0.000000
12458136.000000,-0.340282,0.631100,0.427228,-1.524139,-0.288075,2.093860,0.160577,0.047110,0.363281,-0.093630,-0.199301,-0.183716,0.538329,0.101833,-0.092425,-39.905659,6.365463,18.328428,0.219205,1.890670,0.009017,0.000000,0.000000,0.000000,0.000000,0.000000,0.000000
12458137.000000,-0.340237,0.631480,0.427135,-1.524339,-0.288257,2.094407,0.160681,0.047242,0.375714,-0.091008,-0.205686,-0.183661,0.557360,0.099170,-0.068621,-40.004841,6.290085,18.352232,0.201810,1.858627,0.028243,0.000000,0.000000,0.000000,0.000000,0.000000,0.000000
12458138.000000,-0.340187,0.631854,0.427043,-1.524531,-0.288444,2.094958,0.160784,0.045394,0.376847,-0.089213,-0.204654,-0.189068,0.555645,0.102025,-0.092425,-40.052448,6.242477,18.205442,0.213712,1.838485,0.048385,0.000000,0.000000,0.000000,0.000000,0.000000,0.000000
12458139.000000,-0.340135,0.632227,0.426940,-1.524735,-0.288618,2.095500,0.160894,0.046277,0.376877,-0.093748,-0.204807,-0.182999,0.557462,0.106564,-0.215411,-40.076252,6.290085,18.229246,0.183500,1.858627,0.009017,0.000000,0.000000,0.000000,0.000000,0.000000,0.000000
12458140.000000,-0.340089,0.632597,0.426847,-1.524928,-0.288799,2.096045,0.160998,0.046865,0.375706,-0.094398,-0.199847,-0.183994,0.554960,0.107497,-0.215411,-40.028645,6.242477,18.177671,0.189908,1.865035,0.028243,0.000000,0.000000,0.000000,0.000000,0.000000,0.000000
12458141.000000,-0.340043,0.632963,0.426752,-1.525126,-0.288975,2.096591,0.161107,0.046755,0.370090,-0.092401,-0.200616,-0.185444,0.551934,0.110210,-0.191607,-39.929462,6.218674,18.205442,0.201810,1.865035,-0.004716,0.000000,0.000000,0.000000,0.000000,0.000000,0.000000
12458142.000000,-0.339995,0.633346,0.426650,-1.525322,-0.289151,2.097141,0.161204,0.048119,0.372106,-0.095115,-0.201360,-0.180412,0.551392,0.103389,-0.215411,-39.929462,6.242477,18.153868,0.195402,1.865035,0.067611,0.000000,0.000000,0.000000,0.000000,0.000000,0.000000
12458143.000000,-0.339946,0.633706,0.426549,-1.525518,-0.289329,2.097676,0.161310,0.048540,0.366447,-0.094743,-0.198244,-0.182442,0.540658,0.107936,-0.215411,-39.758869,6.290085,18.153868,0.201810,1.858627,0.034652,0.000000,0.000000,0.000000,0.000000,0.000000,0.000000
12458144.000000,-0.339898,0.634081,0.426458,-1.525713,-0.289512,2.098217,0.161418,0.048923,0.367307,-0.093692,-0.196145,-0.183434,0.535992,0.110480,-0.215411,-39.687458,6.190903,18.177671,0.195402,1.877853,0.001693,0.000000,0.000000,0.000000,0.000000,0.000000,0.000000
12458145.000000,-0.339853,0.634448,0.426358,-1.525898,-0.289696,2.098754,0.161520,0.048006,0.364659,-0.097900,-0.192550,-0.183364,0.534651,0.108815,-0.167803,-39.588276,6.266281,18.106260,0.178007,1.865035,0.061202,0.000000,0.000000,0.000000,0.000000,0.000000,0.000000
12458146.000000,-0.339809,0.634821,0.426262,-1.526091,-0.289875,2.099292,0.161634,0.047411,0.365052,-0.092309,-0.193109,-0.185466,0.536523,0.112533,-0.116229,-39.588276,6.266281,18.030882,0.201810,1.903487,-0.004716,0.000000,0.000000,0.000000,0.000000,0.000000,0.000000
12458147.000000,-0.339763,0.635197,0.426170,-1.526279,-0.290053,2.099835,0.161737,0.048265,0.364988,-0.089360,-0.189978,-0.186086,0.533896,0.110741,-0.116229,-39.588276,6.190903,17.931700,0.201810,1.930038,0.041976,0.000000,0.000000,0.000000,0.000000,0.000000,0.000000
12458148.000000,-0.339717,0.635567,0.426068,-1.526462,-0.290227,2.100370,0.161842,0.048223,0.365765,-0.093557,-0.186526,-0.180043,0.539136,0.110737,-0.092425,-39.612080,6.242477,17.784910,0.178007,1.884261,0.061202,0.000000,0.000000,0.000000,0.000000,0.000000,0.000000
12458149.000000,-0.339677,0.635940,0.425974,-1.526652,-0.290401,2.100923,0.161954,0.047078,0.366789,-0.094422,-0.186543,-0.177078,0.547868,0.113247,-0.017047,-39.564472,6.190903,17.757139,0.171598,1.806442,0.009017,0.000000,0.000000,0.000000,0.000000,0.000000,0.000000
12458150.000000,-0.339631,0.636298,0.425880,-1.526839,-0.290578,2.101467,0.162055,0.047492,0.363666,-0.095497,-0.189339,-0.178534,0.549140,0.111512,0.006757,-39.441486,6.167099,17.709532,0.154203,1.760665,0.048385,0.000000,0.000000,0.000000,0.000000,0.000000,0.000000
12458151.000000,-0.339585,0.636686,0.425785,-1.527024,-0.290758,2.102019,0.162169,0.047849,0.373989,-0.092827,-0.186251,-0.184240,0.552900,0.110048,0.030561,-39.588276,6.119492,17.562742,0.141385,1.773483,0.001693,0.000000,0.000000,0.000000,0.000000,0.000000,0.000000
12458152.000000,-0.339535,0.637059,0.425683,-1.527209,-0.290943,2.102561,0.162274,0.048640,0.374382,-0.095917,-0.186295,-0.186282,0.540754,0.110284,0.030561,-39.564472,6.167099,17.511168,0.166105,1.806442,0.015426,0.000000,0.000000,0.000000,0.000000,0.000000,0.000000
12458153.000000,-0.339492,0.637427,0.425585,-1.527388,-0.291122,2.103104,0.162377,0.047959,0.375170,-0.098328,-0.183043,-0.186193,0.542394,0.109126,0.078168,-39.441486,6.218674,17.463560,0.166105,1.812850,0.067611,0.000000,0.000000,0.000000,0.000000,0.000000,0.000000
12458154.000000,-0.339452,0.637789,0.425491,-1.527566,-0.291300,2.103661,0.162484,0.043829,0.366394,-0.095070,-0.183681,-0.186991,0.544745,0.111514,0.153547,-39.195515,6.190903,17.435789,0.171598,1.760665,0.034652,0.000000,0.000000,0.000000,0.000000,0.000000,0.000000
12458155.000000,-0.339407,0.638164,0.425395,-1.527744,-0.291478,2.104210,0.162589,0.045159,0.376881,-0.096158,-0.186005,-0.182504,0.557374,0.111268,0.177350,-39.072529,6.167099,17.388182,0.178007,1.727706,0.061202,0.000000,0.000000,0.000000,0.000000,0.000000,0.000000
12458156.000000,-0.339360,0.638526,0.425297,-1.527921,-0.291656,2.104754,0.162700,0.047196,0.369841,-0.098565,-0.181418,-0.186706,0.544806,0.113304,0.153547,-38.878132,6.218674,17.289000,0.154203,1.741439,0.021835,0.000000,0.000000,0.000000,0.000000,0.000000,0.000000
12458157.000000,-0.339316,0.638906,0.425203,-1.528097,-0.291840,2.105294,0.162807,0.047524,0.372617,-0.094726,-0.181698,-0.191241,0.542805,0.108073,0.177350,-38.901936,6.167099,17.213621,0.141385,1.806442,0.034652,0.000000,0.000000,0.000000,0.000000,0.000000,0.000000
12458158.000000,-0.339272,0.639280,0.425107,-1.528259,-0.292029,2.105832,0.162921,0.048247,0.371155,-0.096288,-0.174114,-0.188630,0.538854,0.105824,0.177350,-38.901936,6.190903,17.066832,0.112089,1.825668,0.001693,0.000000,0.000000,0.000000,0.000000,0.000000,0.000000
12458159.000000,-0.339227,0.639653,0.425011,-1.528429,-0.292216,2.106378,0.163025,0.050948,0.372725,-0.100247,-0.172970,-0.184398,0.537637,0.106622,0.205121,-38.901936,6.167099,16.991453,0.123990,1.779891,0.028243,0.000000,0.000000,0.000000,0.000000,0.000000,0.000000
12458160.000000,-0.339184,0.640035,0.424911,-1.528607,-0.292400,2.106931,0.163127,0.049746,0.375368,-0.100899,-0.174213,-0.180832,0.537392,0.102184,0.252729,-38.953510,6.190903,16.991453,0.129484,1.727706,0.061202,0.000000,0.000000,0.000000,0.000000,0.000000,0.000000
12458161.000000,-0.339137,0.640414,0.424811,-1.528775,-0.292586,2.107472,0.163239,0.049958,0.379788,-0.102616,-0.171334,-0.182275,0.536107,0.107887,0.252729,-39.124104,6.242477,16.967649,0.129484,1.695663,0.001693,0.000000,0.000000,0.000000,0.000000,0.000000,0.000000
12458162.000000,-0.339094,0.640795,0.424718,-1.528950,-0.292769,2.108015,0.163341,0.049584,0.379107,-0.100661,-0.174215,-0.180230,0.536191,0.107875,0.276533,-39.171711,6.190903,17.043028,0.159696,1.735030,0.034652,0.000000,0.000000,0.000000,0.000000,0.000000,0.000000
12458163.000000,-0.339052,0.641170,0.424617,-1.529109,-0.292956,2.108558,0.163447,0.048014,0.378009,-0.102510,-0.170244,-0.177116,0.534465,0.109602,0.351911,-39.294697,6.266281,16.991453,0.178007,1.735030,0.034652,0.000000,0.000000,0.000000,0.000000,0.000000,0.000000
12458164.000000,-0.339003,0.641552,0.424521,-1.529277,-0.293142,2.109113,0.163554,0.049900,0.377964,-0.102009,-0.171757,-0.179580,0.542444,0.106530,0.304304,-39.318501,6.266281,16.991453,0.171598,1.735030,0.015426,0.000000,0.000000,0.000000,0.000000,0.000000,0.000000
12458165.000000,-0.338958,0.641930,0.424421,-1.529456,-0.293328,2.109663,0.163653,0.050032,0.377954,-0.102026,-0.172546,-0.185166,0.539835,0.106892,0.304304,-39.342304,6.290085,17.114439,0.141385,1.727706,0.048385,0.000000,0.000000,0.000000,0.000000,0.000000,0.000000
12458166.000000,-0.338915,0.642304,0.424324,-1.529629,-0.293515,2.110201,0.163763,0.046312,0.378853,-0.101055,-0.171724,-0.185310,0.542928,0.110501,0.328107,-39.270893,6.266281,17.189817,0.135892,1.702071,-0.004716,0.000000,0.000000,0.000000,0.000000,0.000000,0.000000
12458168.000000,-0.338824,0.643065,0.424117,-1.529962,-0.293886,2.111265,0.163969,0.045593,0.391019,-0.105788,-0.167899,-0.183848,0.538067,0.109507,0.351911,-39.318501,6.341660,17.213621,0.166105,1.767074,0.067611,0.000000,0.000000,0.000000,0.000000,0.000000,0.000000
12458169.000000,-0.338777,0.643448,0.424016,-1.530132,-0.294069,2.111795,0.164081,0.046781,0.384792,-0.107929,-0.169321,-0.185254,0.529775,0.111585,0.351911,-39.342304,6.341660,17.189817,0.201810,1.806442,0.041976,0.000000,0.000000,0.000000,0.000000,0.000000,0.000000
12458170.000000,-0.338735,0.643840,0.423917,-1.530313,-0.294248,2.112321,0.164192,0.046515,0.385670,-0.105862,-0.170714,-0.184051,0.519988,0.112328,0.403486,-39.465290,6.341660,17.312803,0.154203,1.806442,0.034652,0.000000,0.000000,0.000000,0.000000,0.000000,0.000000
12458171.000000,-0.338691,0.644222,0.423816,-1.530481,-0.294436,2.112843,0.164298,0.046317,0.381885,-0.101907,-0.168741,-0.189202,0.522959,0.107584,0.451093,-39.540668,6.365463,17.312803,0.141385,1.800033,0.041976,0.000000,0.000000,0.000000,0.000000,0.000000,0.000000
12458172.000000,-0.338642,0.644609,0.423712,-1.530653,-0.294622,2.113375,0.164403,0.045245,0.385561,-0.101520,-0.168685,-0.188659,0.519894,0.103876,0.403486,-39.659687,6.365463,17.388182,0.129484,1.767074,0.054794,0.000000,0.000000,0.000000,0.000000,0.000000,0.000000
12458173.000000,-0.338595,0.645001,0.423608,-1.530817,-0.294810,2.113910,0.164516,0.049121,0.384893,-0.102426,-0.169015,-0.185174,0.529847,0.108110,0.427289,-39.735065,6.389267,17.388182,0.166105,1.727706,0.015426,0.000000,0.000000,0.000000,0.000000,0.000000,0.000000
12458174.000000,-0.338546,0.645389,0.423501,-1.530995,-0.294995,2.114433,0.164617,0.049452,0.386666,-0.103621,-0.172192,-0.186463,0.530108,0.107453,0.427289,-39.905659,6.460678,17.463560,0.183500,1.714889,0.067611,0.000000,0.000000,0.000000,0.000000,0.000000,0.000000
12458175.000000,-0.338504,0.645768,0.423398,-1.531167,-0.295176,2.114953,0.164731,0.048600,0.383317,-0.105030,-0.172860,-0.187178,0.527258,0.110836,0.474897,-39.782673,6.436874,17.463560,0.195402,1.767074,0.021835,0.000000,0.000000,0.000000,0.000000,0.000000,0.000000
12458176.000000,-0.338458,0.646153,0.423288,-1.531342,-0.295351,2.115476,0.164843,0.045296,0.386682,-0.108661,-0.172736,-0.180590,0.526375,0.107378,0.502668,-39.858051,6.536057,17.562742,0.171598,1.806442,0.001693,0.000000,0.000000,0.000000,0.000000,0.000000,0.000000
12458177.000000,-0.338411,0.646534,0.423184,-1.531518,-0.295529,2.116003,0.164943,0.046631,0.383368,-0.107030,-0.171635,-0.176943,0.521858,0.101847,0.502668,-39.711262,6.559860,17.634153,0.147794,1.800033,0.061202,0.000000,0.000000,0.000000,0.000000,0.000000,0.000000
12458178.000000,-0.338368,0.646921,0.423076,-1.531692,-0.295719,2.116543,0.165061,0.046484,0.383371,-0.106425,-0.170567,-0.179542,0.524816,0.106297,0.550275,-39.635883,6.611435,17.685728,0.135892,1.779891,0.015426,0.000000,0.000000,0.000000,0.000000,0.000000,0.000000
12458179.000000,-0.338324,0.647305,0.422977,-1.531869,-0.295903,2.117060,0.165168,0.045728,0.386448,-0.102336,-0.170148,-0.181219,0.519462,0.110812,0.625654,-39.540668,6.583664,17.757139,0.129484,1.812850,0.048385,0.000000,0.000000,0.000000,0.000000,0.000000,0.000000
12458180.000000,-0.338281,0.647681,0.422871,-1.532045,-0.296091,2.117573,0.165281,0.045980,0.380425,-0.102354,-0.168821,-0.184702,0.517512,0.111248,0.673261,-39.393879,6.611435,17.808714,0.171598,1.890670,0.054794,0.000000,0.000000,0.000000,0.000000,0.000000,0.000000
12458181.000000,-0.338234,0.648065,0.422763,-1.532220,-0.296275,2.118090,0.165401,0.044104,0.383136,-0.106779,-0.169020,-0.180236,0.518780,0.108763,0.673261,-39.393879,6.659042,17.884092,0.183500,1.942855,0.009017,0.000000,0.000000,0.000000,0.000000,0.000000,0.000000
12458182.000000,-0.338195,0.648454,0.422657,-1.532391,-0.296459,2.118621,0.165505,0.043475,0.383474,-0.105056,-0.168356,-0.181644,0.524579,0.107386,0.772443,-39.441486,6.659042,17.931700,0.195402,1.865035,0.074935,0.000000,0.000000,0.000000,0.000000,0.000000,0.000000
12458183.000000,-0.338146,0.648845,0.422544,-1.532561,-0.296639,2.119156,0.165622,0.046060,0.388846,-0.105458,-0.168541,-0.176870,0.521696,0.110973,0.748639,-39.465290,6.734421,18.007078,0.154203,1.832076,0.021835,0.000000,0.000000,0.000000,0.000000,0.000000,0.000000
12458184.000000,-0.338106,0.649240,0.422438,-1.532729,-0.296830,2.119678,0.165728,0.045392,0.390172,-0.107297,-0.170165,-0.182693,0.519559,0.110312,0.824018,-39.635883,6.734421,18.007078,0.105680,1.812850,0.054794,0.000000,0.000000,0.000000,0.000000,0.000000,0.000000
12458185.000000,-0.338063,0.649631,0.422325,-1.532906,-0.297022,2.120201,0.165840,0.046270,0.387260,-0.107251,-0.167605,-0.183856,0.519267,0.112407,0.847822,-39.687458,6.805832,18.130064,0.093778,1.858627,0.015426,0.000000,0.000000,0.000000,0.000000,0.000000,0.000000
12458186.000000,-0.338021,0.650020,0.422219,-1.533069,-0.297219,2.120721,0.165942,0.045738,0.390470,-0.108557,-0.165593,-0.186288,0.520643,0.111075,0.923200,-39.782673,6.805832,18.106260,0.135892,1.897079,0.048385,0.000000,0.000000,0.000000,0.000000,0.000000,0.000000
12458187.000000,-0.337983,0.650417,0.422110,-1.533244,-0.297417,2.121252,0.166052,0.041653,0.392134,-0.111661,-0.167828,-0.192654,0.528431,0.108457,1.022382,-39.881855,6.881210,18.229246,0.195402,1.877853,0.009017,0.000000,0.000000,0.000000,0.000000,0.000000,0.000000
12458188.000000,-0.337940,0.650803,0.421995,-1.533419,-0.297610,2.121783,0.166159,0.042501,0.384365,-0.110710,-0.169307,-0.192646,0.528588,0.105143,1.093793,-39.735065,6.976425,18.352232,0.231107,1.877853,0.001693,0.000000,0.000000,0.000000,0.000000,0.000000,0.000000
