chaoyuefei/paper-gmrm-data/robot_logs/s2_dq_mrm_max_0.30_log_20260314_172821.csv
# time_ms,q_0,q_1,q_2,q_3,q_4,q_5,q_6,dq_0,dq_1,dq_2,dq_3,dq_4,dq_5,dq_6,tau_J_0,tau_J_1,tau_J_2,tau_J_3,tau_J_4,tau_J_5,tau_J_6,O_dP_EE_c_0,O_dP_EE_c_1,O_dP_EE_c_2,O_dP_EE_c_3,O_dP_EE_c_4,O_dP_EE_c_5
11963253.000000,2.313467,-0.961773,-1.822710,-1.385853,-0.923959,1.666948,0.446169,0.000257,-0.000484,-0.000039,0.000570,0.000022,0.000194,-0.000079,0.228925,35.508465,19.568588,12.123594,1.020292,1.383468,-0.142960,0.000000,0.000000,0.000000,0.000000,0.000000,0.000000
11963254.000000,2.313465,-0.961775,-1.822712,-1.385860,-0.923957,1.666946,0.446172,-0.000385,-0.001002,-0.000583,-0.002497,0.000456,-0.000346,0.000693,0.252729,35.536236,19.592392,12.246580,1.008390,1.396285,-0.163102,0.000000,0.000000,0.000000,0.000000,0.000000,0.000000
11963255.000000,2.313468,-0.961773,-1.822709,-1.385858,-0.923959,1.666947,0.446172,0.000857,-0.000041,0.000725,-0.000551,-0.000374,0.000007,0.000462,0.205121,35.508465,19.544785,12.198973,1.026700,1.389877,-0.163102,0.000000,0.000000,0.000000,0.000000,0.000000,0.000000
11963256.000000,2.313461,-0.961774,-1.822707,-1.385855,-0.923959,1.666947,0.446171,-0.001099,0.000513,0.001040,0.000839,-0.000250,-0.000233,0.000037,0.276533,35.484661,19.520981,12.147398,1.026700,1.396285,-0.155778,0.000000,0.000000,0.000000,0.000000,0.000000,0.000000
11963257.000000,2.313448,-0.961778,-1.822711,-1.385856,-0.923957,1.666946,0.446172,-0.016081,-0.007726,-0.009029,-0.000647,-0.010519,0.000557,-0.000688,-0.144000,35.020489,19.005234,12.198973,0.925077,1.377059,-0.136552,0.000000,0.000000,0.000000,0.000000,0.000000,0.000000
11963258.000000,2.313434,-0.961740,-1.822722,-1.385855,-0.923943,1.666945,0.446187,-0.029502,-0.006562,-0.023963,-0.001545,-0.004439,-0.002368,0.003851,-1.972918,32.719463,17.140610,12.246580,0.571683,1.312057,-0.122819,0.000000,0.000000,0.000000,0.000000,0.000000,0.000000
11963259.000000,2.313426,-0.961698,-1.822790,-1.385853,-0.923924,1.666928,0.446214,-0.029429,0.004536,-0.044914,-0.001587,0.002309,-0.009939,0.010701,-5.515704,28.875164,14.339706,12.270384,0.004056,1.389877,-0.077042,0.000000,0.000000,0.000000,0.000000,0.000000,0.000000
11963260.000000,2.313379,-0.961689,-1.822903,-1.385838,-0.923936,1.666911,0.446255,-0.028941,0.010898,-0.061596,0.004139,0.001126,-0.010997,0.021938,-9.399676,24.713482,11.027023,12.048216,-0.306307,1.487838,-0.070634,0.000000,0.000000,0.000000,0.000000,0.000000,0.000000
11963261.000000,2.313308,-0.961745,-1.823033,-1.385833,-0.924000,1.666916,0.446313,-0.032536,-0.000711,-0.075730,0.004346,-0.015624,-0.007651,0.035109,-13.164630,21.214336,7.468369,11.849852,-0.187289,1.481429,-0.064225,0.000000,0.000000,0.000000,0.000000,0.000000,0.000000
11963262.000000,2.313212,-0.961841,-1.823202,-1.385842,-0.924078,1.666964,0.446378,-0.038133,-0.021290,-0.093838,-0.000803,-0.033784,0.010039,0.047585,-16.481279,18.302349,4.377853,11.726866,-0.013339,1.201278,-0.011124,0.000000,0.000000,0.000000,0.000000,0.000000,0.000000
11963263.000000,2.313112,-0.961966,-1.823362,-1.385857,-0.924178,1.667065,0.446474,-0.044986,-0.046831,-0.096940,-0.009509,-0.054461,0.040285,0.060180,-18.956865,16.195721,1.723740,11.405516,0.255826,0.576888,-0.031266,0.000000,0.000000,0.000000,0.000000,0.000000,0.000000
11963264.000000,2.313007,-0.962115,-1.823509,-1.385891,-0.924282,1.667216,0.446580,-0.047915,-0.073031,-0.104977,-0.021247,-0.070480,0.082336,0.071879,-20.119280,14.997601,-0.140885,10.762815,0.434354,-0.196732,0.015426,0.000000,0.000000,0.000000,0.000000,0.000000,0.000000
11963265.000000,2.312929,-0.962293,-1.823647,-1.385942,-0.924392,1.667370,0.446707,-0.047871,-0.102223,-0.104980,-0.035228,-0.081700,0.112972,0.088331,-20.317644,14.604839,-1.219986,9.751158,0.476469,-0.703934,-0.017533,0.000000,0.000000,0.000000,0.000000,0.000000,0.000000
11963266.000000,2.312869,-0.962468,-1.823747,-1.386015,-0.924508,1.667531,0.446843,-0.049151,-0.124565,-0.101478,-0.048243,-0.090735,0.131017,0.099750,-19.722551,14.509624,-1.957901,8.390379,0.405057,-0.821122,-0.031266,0.000000,0.000000,0.000000,0.000000,0.000000,0.000000
11963267.000000,2.312818,-0.962630,-1.823858,-1.386109,-0.924611,1.667689,0.446987,-0.051041,-0.136112,-0.107233,-0.064364,-0.092796,0.141897,0.108167,-18.536333,14.458050,-1.957901,6.835204,0.064481,-0.534562,-0.037675,0.000000,0.000000,0.000000,0.000000,0.000000,0.000000
11963268.000000,2.312771,-0.962748,-1.823961,-1.386233,-0.924709,1.667877,0.447133,-0.058328,-0.132765,-0.111080,-0.081463,-0.093233,0.149616,0.118609,-17.048601,13.970074,-1.711929,5.299864,-0.455538,-0.190324,-0.031266,0.000000,0.000000,0.000000,0.000000,0.000000,0.000000
11963269.000000,2.312703,-0.962835,-1.824058,-1.386404,-0.924829,1.668111,0.447284,-0.066833,-0.120730,-0.110798,-0.107364,-0.101062,0.177373,0.132050,-15.168109,13.089336,-1.366776,4.165221,-0.819918,0.023910,-0.050492,0.000000,0.000000,0.000000,0.000000,0.000000,0.000000
11963270.000000,2.312621,-0.962893,-1.824161,-1.386621,-0.924982,1.668362,0.447445,-0.080000,-0.101664,-0.113882,-0.142983,-0.114471,0.194548,0.143790,-13.140826,11.768230,-0.926407,3.645506,-0.987460,0.206100,-0.110001,0.000000,0.000000,0.000000,0.000000,0.000000,0.000000
11963271.000000,2.312513,-0.962933,-1.824278,-1.386866,-0.925184,1.668643,0.447605,-0.094819,-0.081889,-0.123002,-0.174699,-0.140614,0.219565,0.145505,-10.935016,10.296368,-0.386856,3.324156,-0.831820,0.336105,-0.077042,0.000000,0.000000,0.000000,0.000000,0.000000,0.000000
11963272.000000,2.312389,-0.962974,-1.824400,-1.387132,-0.925426,1.668954,0.447769,-0.112144,-0.067639,-0.129516,-0.202221,-0.174749,0.255351,0.150810,-8.657794,8.951458,0.033676,3.224974,-0.389620,0.401107,-0.056901,0.000000,0.000000,0.000000,0.000000,0.000000,0.000000
11963273.000000,2.312248,-0.963026,-1.824538,-1.387417,-0.925685,1.669297,0.447929,-0.125584,-0.067051,-0.136877,-0.225704,-0.203717,0.281816,0.154442,-6.432147,7.900127,0.450241,3.423338,0.069974,0.369064,-0.023942,0.000000,0.000000,0.000000,0.000000,0.000000,0.000000
11963274.000000,2.312094,-0.963093,-1.824672,-1.387730,-0.925952,1.669666,0.448096,-0.139490,-0.068146,-0.136532,-0.251248,-0.225904,0.306710,0.155999,-4.277911,7.166180,0.620834,3.768492,0.434354,0.310470,0.034652,0.000000,0.000000,0.000000,0.000000,0.000000,0.000000
11963275.000000,2.311945,-0.963181,-1.824810,-1.388034,-0.926192,1.670054,0.448272,-0.144448,-0.076506,-0.137133,-0.266403,-0.229927,0.335449,0.163738,-2.468829,6.797222,0.696213,3.843870,0.482877,0.271102,-0.023942,0.000000,0.000000,0.000000,0.000000,0.000000,0.000000
11963276.000000,2.311818,-0.963298,-1.824953,-1.388319,-0.926416,1.670464,0.448436,-0.135347,-0.088013,-0.133964,-0.275361,-0.225766,0.360141,0.164071,-1.108050,6.967815,0.866806,3.570128,0.207303,0.284835,0.009017,0.000000,0.000000,0.000000,0.000000,0.000000,0.000000
11963277.000000,2.311713,-0.963453,-1.825091,-1.388606,-0.926639,1.670872,0.448614,-0.123971,-0.108842,-0.132846,-0.276496,-0.220055,0.375988,0.171153,0.030561,7.872356,1.211960,3.050413,-0.067355,0.524703,-0.023942,0.000000,0.000000,0.000000,0.000000,0.000000,0.000000
11963278.000000,2.311611,-0.963628,-1.825227,-1.388882,-0.926867,1.671295,0.448789,-0.114967,-0.130705,-0.132503,-0.275228,-0.219092,0.391950,0.171904,1.216779,9.292645,1.874496,2.383909,-0.276095,0.811263,-0.037675,0.000000,0.000000,0.000000,0.000000,0.000000,0.000000
11963279.000000,2.311508,-0.963810,-1.825362,-1.389169,-0.927086,1.671770,0.448959,-0.111321,-0.148935,-0.135146,-0.277548,-0.214696,0.410511,0.169859,2.506147,10.911297,2.830612,1.693602,-0.467440,0.889083,0.015426,0.000000,0.000000,0.000000,0.000000,0.000000,0.000000
11963280.000000,2.311401,-0.963986,-1.825498,-1.389467,-0.927317,1.672287,0.449139,-0.109701,-0.160386,-0.136917,-0.281957,-0.219343,0.445518,0.176614,3.843122,12.402996,3.957321,1.098509,-0.455538,0.706893,-0.064225,0.000000,0.000000,0.000000,0.000000,0.000000,0.000000
11963281.000000,2.311306,-0.964141,-1.825631,-1.389777,-0.927573,1.672848,0.449302,-0.106713,-0.163900,-0.136720,-0.295302,-0.232514,0.477849,0.176749,4.957929,13.454327,5.064194,0.654173,-0.287997,0.343429,0.009017,0.000000,0.000000,0.000000,0.000000,0.000000,0.000000
11963282.000000,2.311208,-0.964286,-1.825759,-1.390116,-0.927831,1.673411,0.449479,-0.105879,-0.161802,-0.138064,-0.309793,-0.243223,0.502573,0.175456,5.973554,14.041485,5.996506,0.432005,-0.049044,0.063277,0.001693,0.000000,0.000000,0.000000,0.000000,0.000000,0.000000
11963283.000000,2.311105,-0.964406,-1.825894,-1.390457,-0.928094,1.673943,0.449642,-0.104033,-0.150730,-0.138071,-0.321360,-0.250371,0.509265,0.173051,6.913801,14.041485,6.758224,0.233641,0.154203,0.115462,0.034652,0.000000,0.000000,0.000000,0.000000,0.000000,0.000000
11963284.000000,2.311028,-0.964515,-1.826026,-1.390816,-0.928364,1.674469,0.449824,-0.092682,-0.139829,-0.139618,-0.333351,-0.255638,0.508033,0.173625,7.405744,13.724102,7.297775,0.059080,0.362943,0.304061,-0.037675,0.000000,0.000000,0.000000,0.000000,0.000000,0.000000
11963285.000000,2.310963,-0.964625,-1.826161,-1.391188,-0.928621,1.674999,0.450001,-0.082478,-0.129579,-0.139646,-0.342678,-0.258093,0.523945,0.174216,7.655683,13.113140,7.638962,-0.087709,0.410551,0.421249,-0.044083,0.000000,0.000000,0.000000,0.000000,0.000000,0.000000
11963286.000000,2.310905,-0.964726,-1.826308,-1.391565,-0.928875,1.675531,0.450169,-0.074949,-0.119168,-0.142802,-0.355102,-0.257771,0.515282,0.170197,7.731061,12.303814,7.936508,-0.262270,0.279630,0.492660,0.034652,0.000000,0.000000,0.000000,0.000000,0.000000,0.000000
11963287.000000,2.310855,-0.964846,-1.826452,-1.391952,-0.929125,1.676058,0.450349,-0.067363,-0.117129,-0.142055,-0.361759,-0.249271,0.520164,0.172047,7.655683,11.669048,8.083298,-0.385256,0.135892,0.557662,-0.017533,0.000000,0.000000,0.000000,0.000000,0.000000,0.000000
11963288.000000,2.310810,-0.964990,-1.826613,-1.392336,-0.929383,1.676566,0.450519,-0.056538,-0.122954,-0.145873,-0.376561,-0.248916,0.511432,0.170454,7.457319,11.323895,8.253891,-0.678835,0.022367,0.668441,0.009017,0.000000,0.000000,0.000000,0.000000,0.000000,0.000000
11963289.000000,2.310780,-0.965160,-1.826782,-1.392728,-0.929648,1.677069,0.450698,-0.048399,-0.140422,-0.153972,-0.375465,-0.257103,0.505284,0.172855,7.084394,11.399273,8.523666,-1.051759,0.015958,0.746261,-0.017533,0.000000,0.000000,0.000000,0.000000,0.000000,0.000000
11963290.000000,2.310755,-0.965362,-1.826950,-1.393119,-0.929924,1.677591,0.450866,-0.042368,-0.162110,-0.158747,-0.373983,-0.268710,0.518781,0.171472,6.540876,11.768230,8.694260,-1.472292,0.147794,0.694076,0.009017,0.000000,0.000000,0.000000,0.000000,0.000000,0.000000
11963291.000000,2.310717,-0.965588,-1.827122,-1.393506,-0.930213,1.678105,0.451036,-0.043474,-0.181820,-0.161171,-0.369391,-0.275273,0.519652,0.171148,5.921979,12.450603,8.817245,-1.519899,0.237516,0.544845,0.028243,0.000000,0.000000,0.000000,0.000000,0.000000,0.000000
11963292.000000,2.310671,-0.965829,-1.827289,-1.393889,-0.930506,1.678630,0.451218,-0.047178,-0.199857,-0.161119,-0.369364,-0.281672,0.518844,0.174058,5.128522,13.331341,8.845016,-1.250124,0.369352,0.394698,-0.037675,0.000000,0.000000,0.000000,0.000000,0.000000,0.000000
11963293.000000,2.310620,-0.966090,-1.827455,-1.394272,-0.930784,1.679151,0.451383,-0.049647,-0.215485,-0.160044,-0.369525,-0.278636,0.523800,0.169993,4.140668,14.509624,8.817245,-0.555849,0.428861,0.251876,0.041976,0.000000,0.000000,0.000000,0.000000,0.000000,0.000000
11963294.000000,2.310566,-0.966359,-1.827616,-1.394637,-0.931058,1.679673,0.451562,-0.049924,-0.231078,-0.159208,-0.367165,-0.277846,0.528622,0.166923,3.049665,15.902142,8.892624,0.380431,0.410551,0.199691,0.015426,0.000000,0.000000,0.000000,0.000000,0.000000,0.000000
11963295.000000,2.310497,-0.966635,-1.827769,-1.395013,-0.931340,1.680190,0.451737,-0.054439,-0.244095,-0.151761,-0.370505,-0.279106,0.515554,0.167914,2.232404,17.544598,9.087021,1.618224,0.422452,0.343429,0.009017,0.000000,0.000000,0.000000,0.000000,0.000000,0.000000
11963296.000000,2.310408,-0.966905,-1.827917,-1.395395,-0.931620,1.680693,0.451904,-0.064925,-0.254192,-0.149248,-0.376194,-0.277075,0.509732,0.167105,1.712690,19.258465,9.432175,3.173399,0.351041,0.524703,0.034652,0.000000,0.000000,0.000000,0.000000,0.000000,0.000000
11963297.000000,2.310315,-0.967163,-1.828055,-1.395787,-0.931881,1.681214,0.452073,-0.074155,-0.253705,-0.146197,-0.385489,-0.266741,0.506052,0.163141,1.391340,20.944561,9.872543,4.879332,0.159696,0.681258,0.028243,0.000000,0.000000,0.000000,0.000000,0.000000,0.000000
11963298.000000,2.310213,-0.967410,-1.828189,-1.396195,-0.932129,1.681734,0.452235,-0.082098,-0.253573,-0.141624,-0.395202,-0.260883,0.507432,0.163282,1.315961,22.412457,10.364487,6.613036,-0.001437,0.759078,0.074935,0.000000,0.000000,0.000000,0.000000,0.000000,0.000000
11963299.000000,2.310114,-0.967653,-1.828330,-1.396605,-0.932395,1.682258,0.452409,-0.090678,-0.254098,-0.146259,-0.403165,-0.260194,0.507141,0.166099,1.244550,23.761333,10.955612,8.168211,-0.049044,0.876266,0.048385,0.000000,0.000000,0.000000,0.000000,0.000000,0.000000
11963300.000000,2.310011,-0.967898,-1.828479,-1.397032,-0.932659,1.682755,0.452588,-0.093884,-0.253297,-0.148364,-0.413240,-0.260847,0.499507,0.168059,1.216779,24.911846,11.641953,9.651976,-0.037142,1.201278,0.021835,0.000000,0.000000,0.000000,0.000000,0.000000,0.000000
11963301.000000,2.309905,-0.968159,-1.828633,-1.397450,-0.932938,1.683231,0.452759,-0.100878,-0.251079,-0.149881,-0.415997,-0.262478,0.494069,0.168600,1.268354,26.109966,12.352097,10.786619,0.105680,1.539108,0.015426,0.000000,0.000000,0.000000,0.000000,0.000000,0.000000
11963302.000000,2.309792,-0.968419,-1.828790,-1.397869,-0.933209,1.683725,0.452932,-0.102435,-0.253283,-0.153371,-0.418565,-0.262607,0.484922,0.168204,1.442914,27.189068,13.038437,11.655455,0.231107,1.714889,0.028243,0.000000,0.000000,0.000000,0.000000,0.000000,0.000000
11963303.000000,2.309683,-0.968698,-1.828958,-1.398297,-0.933462,1.684221,0.453106,-0.104155,-0.260884,-0.159658,-0.419611,-0.257842,0.500056,0.169150,1.542096,28.387188,13.752548,12.298155,0.237516,1.662704,0.028243,0.000000,0.000000,0.000000,0.000000,0.000000,0.000000
11963304.000000,2.309567,-0.968984,-1.829136,-1.398710,-0.933729,1.684732,0.453275,-0.108885,-0.267969,-0.165533,-0.419401,-0.258962,0.496014,0.169352,1.740461,29.490093,14.391281,12.591734,0.249418,1.500655,0.028243,0.000000,0.000000,0.000000,0.000000,0.000000,0.000000
11963305.000000,2.309453,-0.969292,-1.829316,-1.399122,-0.933996,1.685219,0.453436,-0.110327,-0.279590,-0.170720,-0.416227,-0.252815,0.487519,0.171481,1.911054,30.589031,14.930832,12.591734,0.183500,1.467696,0.094161,0.000000,0.000000,0.000000,0.000000,0.000000,0.000000
11963306.000000,2.309335,-0.969620,-1.829510,-1.399521,-0.934255,1.685680,0.453611,-0.109010,-0.293878,-0.180852,-0.409538,-0.252704,0.480937,0.172500,2.133222,31.791119,15.470383,12.444944,0.112089,1.591293,0.061202,0.000000,0.000000,0.000000,0.000000,0.000000,0.000000
11963307.000000,2.309211,-0.969945,-1.829704,-1.399925,-0.934527,1.686143,0.453785,-0.113467,-0.305044,-0.190723,-0.404810,-0.256395,0.469557,0.172645,2.454572,32.866253,15.863144,12.123594,0.141385,1.727706,0.041976,0.000000,0.000000,0.000000,0.000000,0.000000,0.000000
11963308.000000,2.309083,-0.970268,-1.829909,-1.400331,-0.934790,1.686620,0.453953,-0.116435,-0.308762,-0.190587,-0.401688,-0.261187,0.481302,0.166709,2.779890,33.624004,16.279709,11.778440,0.093778,1.689254,0.054794,0.000000,0.000000,0.000000,0.000000,0.000000,0.000000
11963309.000000,2.308954,-0.970584,-1.830113,-1.400724,-0.935060,1.687107,0.454124,-0.121570,-0.310791,-0.194728,-0.397512,-0.264227,0.486280,0.168401,3.101240,34.163555,16.601059,11.429319,0.027860,1.539108,0.034652,0.000000,0.000000,0.000000,0.000000,0.000000,0.000000
11963310.000000,2.308825,-0.970888,-1.830330,-1.401121,-0.935344,1.687590,0.454288,-0.125463,-0.305549,-0.201102,-0.396635,-0.266072,0.486585,0.162499,3.422590,34.385723,17.041428,11.183348,0.076383,1.448470,0.067611,0.000000,0.000000,0.000000,0.000000,0.000000,0.000000
11963311.000000,2.308707,-0.971199,-1.830561,-1.401510,-0.935627,1.688053,0.454458,-0.124011,-0.300181,-0.209538,-0.389159,-0.268644,0.478469,0.162887,3.569379,34.504742,17.505600,10.861998,0.154203,1.467696,0.021835,0.000000,0.000000,0.000000,0.000000,0.000000,0.000000
11963312.000000,2.308593,-0.971490,-1.830807,-1.401884,-0.935908,1.688513,0.454617,-0.118749,-0.296060,-0.219413,-0.387124,-0.271241,0.467151,0.163139,3.644758,34.409527,18.120529,10.564451,0.273221,1.624252,0.061202,0.000000,0.000000,0.000000,0.000000,0.000000,0.000000
11963313.000000,2.308479,-0.971772,-1.831049,-1.402262,-0.936201,1.688979,0.454785,-0.114140,-0.290094,-0.227859,-0.382059,-0.278717,0.461851,0.164697,3.692365,34.163555,18.660080,10.294676,0.410551,1.708480,0.074935,0.000000,0.000000,0.000000,0.000000,0.000000,0.000000
11963314.000000,2.308368,-0.972057,-1.831297,-1.402641,-0.936479,1.689449,0.454955,-0.111219,-0.286297,-0.233940,-0.382019,-0.277897,0.460831,0.166569,3.720136,33.893780,19.199631,10.270872,0.381254,1.727706,0.061202,0.000000,0.000000,0.000000,0.000000,0.000000,0.000000
11963315.000000,2.308259,-0.972331,-1.831549,-1.403020,-0.936765,1.689930,0.455130,-0.111499,-0.281651,-0.240111,-0.380331,-0.278167,0.460977,0.167926,3.743940,33.647808,19.667770,10.195494,0.362943,1.682845,0.028243,0.000000,0.000000,0.000000,0.000000,0.000000,0.000000
11963316.000000,2.308155,-0.972626,-1.831802,-1.403391,-0.937040,1.690391,0.455298,-0.110069,-0.283037,-0.242340,-0.374568,-0.277783,0.455766,0.165863,3.692365,33.624004,20.036728,10.072508,0.327238,1.670028,0.009017,0.000000,0.000000,0.000000,0.000000,0.000000,0.000000
11963317.000000,2.308058,-0.972923,-1.832069,-1.403763,-0.937326,1.690848,0.455463,-0.103210,-0.287022,-0.247105,-0.374421,-0.284600,0.456533,0.165112,3.521772,33.699383,20.524704,9.997129,0.369352,1.812850,0.054794,0.000000,0.000000,0.000000,0.000000,0.000000,0.000000
11963318.000000,2.307952,-0.973227,-1.832329,-1.404132,-0.937621,1.691300,0.455630,-0.105725,-0.289861,-0.249967,-0.369265,-0.290345,0.451051,0.166851,3.521772,33.917583,20.846054,9.874144,0.458158,1.981307,0.067611,0.000000,0.000000,0.000000,0.000000,0.000000,0.000000
11963319.000000,2.307864,-0.973539,-1.832601,-1.404503,-0.937916,1.691756,0.455794,-0.098875,-0.297670,-0.253000,-0.378115,-0.289251,0.452147,0.164053,3.271833,34.139751,21.215012,9.822569,0.500272,2.027084,0.041976,0.000000,0.000000,0.000000,0.000000,0.000000,0.000000
11963320.000000,2.307769,-0.973840,-1.832859,-1.404880,-0.938208,1.692231,0.455966,-0.094446,-0.297920,-0.252801,-0.378264,-0.288125,0.457026,0.161334,3.172651,34.262737,21.457016,9.798765,0.530485,1.916305,0.021835,0.000000,0.000000,0.000000,0.000000,0.000000,0.000000
11963321.000000,2.307683,-0.974146,-1.833124,-1.405267,-0.938490,1.692701,0.456133,-0.088734,-0.301285,-0.255720,-0.380962,-0.291364,0.471691,0.163141,2.978254,34.409527,21.679184,9.897947,0.535978,1.754256,0.061202,0.000000,0.000000,0.000000,0.000000,0.000000,0.000000
11963322.000000,2.307609,-0.974454,-1.833391,-1.405646,-0.938784,1.693165,0.456294,-0.084818,-0.303193,-0.256901,-0.381506,-0.292864,0.467595,0.160344,2.680707,34.504742,21.849777,9.949522,0.524076,1.754256,0.067611,0.000000,0.000000,0.000000,0.000000,0.000000,0.000000
11963323.000000,2.307542,-0.974764,-1.833641,-1.406030,-0.939076,1.693624,0.456466,-0.080786,-0.304163,-0.256700,-0.384499,-0.295934,0.459484,0.164498,2.307783,34.580120,21.825974,10.020933,0.547880,1.884261,0.015426,0.000000,0.000000,0.000000,0.000000,0.000000,0.000000
11963324.000000,2.307480,-0.975081,-1.833895,-1.406421,-0.939362,1.694073,0.456624,-0.074203,-0.308951,-0.253975,-0.382467,-0.288165,0.455211,0.163831,1.887250,34.703106,21.825974,10.143919,0.554288,2.001449,0.067611,0.000000,0.000000,0.000000,0.000000,0.000000,0.000000
11963325.000000,2.307430,-0.975386,-1.834153,-1.406804,-0.939643,1.694544,0.456793,-0.064607,-0.309503,-0.252482,-0.387010,-0.283777,0.460025,0.163775,1.391340,34.679302,21.802170,10.270872,0.494779,2.020675,0.021835,0.000000,0.000000,0.000000,0.000000,0.000000,0.000000
11963326.000000,2.307372,-0.975690,-1.834404,-1.407204,-0.939935,1.695021,0.456955,-0.061130,-0.304839,-0.254516,-0.389203,-0.287817,0.468195,0.160383,1.046186,34.603924,21.778366,10.493040,0.482877,2.001449,0.034652,0.000000,0.000000,0.000000,0.000000,0.000000,0.000000
11963327.000000,2.307329,-0.975997,-1.834656,-1.407601,-0.940231,1.695489,0.457111,-0.052867,-0.308172,-0.253080,-0.391237,-0.286495,0.472885,0.162272,0.574079,34.504742,21.778366,10.739012,0.482877,1.942855,0.067611,0.000000,0.000000,0.000000,0.000000,0.000000,0.000000
11963328.000000,2.307293,-0.976302,-1.834896,-1.407999,-0.940527,1.695967,0.457282,-0.049334,-0.306371,-0.249857,-0.391962,-0.286268,0.473561,0.162174,0.078168,34.357952,21.655380,10.838194,0.506681,1.930038,0.015426,0.000000,0.000000,0.000000,0.000000,0.000000,0.000000
11963329.000000,2.307255,-0.976610,-1.835139,-1.408411,-0.940817,1.696430,0.457446,-0.042008,-0.307768,-0.245591,-0.396727,-0.287280,0.468077,0.158688,-0.342364,34.334148,21.580002,11.084166,0.559781,1.981307,0.034652,0.000000,0.000000,0.000000,0.000000,0.000000,0.000000
11963330.000000,2.307221,-0.976918,-1.835374,-1.408819,-0.941119,1.696907,0.457618,-0.039829,-0.306830,-0.244774,-0.401692,-0.291252,0.463671,0.162124,-0.762896,34.334148,21.457016,11.258726,0.589994,2.027084,0.028243,0.000000,0.000000,0.000000,0.000000,0.000000,0.000000
11963331.000000,2.307188,-0.977232,-1.835602,-1.409227,-0.941408,1.697389,0.457787,-0.039412,-0.305200,-0.240569,-0.401115,-0.287045,0.463968,0.163076,-1.131854,34.433331,21.187241,11.429319,0.542386,1.988631,0.054794,0.000000,0.000000,0.000000,0.000000,0.000000,0.000000
11963332.000000,2.307156,-0.977563,-1.835829,-1.409637,-0.941710,1.697860,0.457956,-0.036406,-0.313169,-0.235465,-0.401437,-0.291228,0.465016,0.162767,-1.480975,34.679302,20.969040,11.603880,0.559781,1.909896,0.028243,0.000000,0.000000,0.000000,0.000000,0.000000,0.000000
11963333.000000,2.307130,-0.977895,-1.836046,-1.410049,-0.941997,1.698336,0.458122,-0.031197,-0.316904,-0.230158,-0.401107,-0.287211,0.467867,0.162787,-1.826129,34.972881,20.794479,11.750669,0.518583,1.890670,0.067611,0.000000,0.000000,0.000000,0.000000,0.000000,0.000000
11963334.000000,2.307100,-0.978231,-1.836253,-1.410464,-0.942290,1.698798,0.458288,-0.028465,-0.320267,-0.220776,-0.400148,-0.290208,0.465353,0.163898,-2.099871,35.337872,20.524704,11.849852,0.500272,1.884261,0.087753,0.000000,0.000000,0.000000,0.000000,0.000000,0.000000
11963335.000000,2.307075,-0.978569,-1.836460,-1.410871,-0.942591,1.699267,0.458460,-0.025995,-0.328144,-0.214476,-0.400378,-0.292983,0.462597,0.167831,-2.397418,35.655254,20.278732,12.000608,0.512174,1.897079,0.021835,0.000000,0.000000,0.000000,0.000000,0.000000,0.000000
11963336.000000,2.307054,-0.978924,-1.836667,-1.411286,-0.942883,1.699747,0.458627,-0.023264,-0.336169,-0.212850,-0.403023,-0.298450,0.463198,0.165845,-2.718768,36.071819,20.159714,12.147398,0.518583,1.838485,0.081344,0.000000,0.000000,0.000000,0.000000,0.000000,0.000000
11963337.000000,2.307024,-0.979270,-1.836871,-1.411694,-0.943170,1.700214,0.458799,-0.021653,-0.341405,-0.210217,-0.409522,-0.292522,0.464738,0.164207,-2.889361,36.341595,20.008957,12.298155,0.470060,1.754256,0.028243,0.000000,0.000000,0.000000,0.000000,0.000000,0.000000
11963338.000000,2.306997,-0.979622,-1.837070,-1.412112,-0.943463,1.700689,0.458968,-0.020075,-0.342566,-0.209447,-0.409826,-0.290286,0.467679,0.169418,-3.063921,36.611370,19.885971,12.421141,0.476469,1.735030,0.048385,0.000000,0.000000,0.000000,0.000000,0.000000,0.000000
11963339.000000,2.306965,-0.979975,-1.837267,-1.412532,-0.943752,1.701168,0.459133,-0.023676,-0.343633,-0.206775,-0.409621,-0.287458,0.479096,0.164076,-3.163104,36.904949,19.691574,12.667112,0.446256,1.714889,0.081344,0.000000,0.000000,0.000000,0.000000,0.000000,0.000000
11963340.000000,2.306934,-0.980324,-1.837470,-1.412936,-0.944041,1.701634,0.459305,-0.026994,-0.349463,-0.202104,-0.405002,-0.284966,0.476754,0.169164,-3.238482,37.075542,19.643967,12.714720,0.416959,1.767074,0.009017,0.000000,0.000000,0.000000,0.000000,0.000000,0.000000
11963341.000000,2.306900,-0.980678,-1.837670,-1.413354,-0.944329,1.702109,0.459464,-0.029972,-0.347217,-0.203222,-0.404395,-0.283963,0.470020,0.166396,-3.262286,37.273907,19.667770,12.913084,0.398649,1.812850,0.081344,0.000000,0.000000,0.000000,0.000000,0.000000,0.000000
11963342.000000,2.306858,-0.981030,-1.837860,-1.413774,-0.944608,1.702570,0.459632,-0.034744,-0.349153,-0.196346,-0.406632,-0.283000,0.466324,0.167416,-3.163104,37.369122,19.520981,13.063841,0.374845,1.844894,0.081344,0.000000,0.000000,0.000000,0.000000,0.000000,0.000000
11963343.000000,2.306819,-0.981377,-1.838061,-1.414184,-0.944894,1.703050,0.459808,-0.036878,-0.347651,-0.198622,-0.406970,-0.285066,0.464200,0.171433,-3.111529,37.444500,19.544785,13.286009,0.320829,1.844894,0.028243,0.000000,0.000000,0.000000,0.000000,0.000000,0.000000
11963344.000000,2.306770,-0.981728,-1.838254,-1.414596,-0.945182,1.703533,0.459978,-0.041286,-0.348410,-0.197865,-0.407594,-0.285649,0.475918,0.169242,-2.940936,37.615093,19.469406,13.432798,0.344633,1.819259,0.074935,0.000000,0.000000,0.000000,0.000000,0.000000,0.000000
11963345.000000,2.306710,-0.982089,-1.838467,-1.414995,-0.945466,1.704003,0.460144,-0.046703,-0.350343,-0.201694,-0.404296,-0.285029,0.482746,0.168085,-2.667193,37.833294,19.592392,13.508177,0.344633,1.786300,0.114303,0.000000,0.000000,0.000000,0.000000,0.000000,0.000000
11963346.000000,2.306658,-0.982442,-1.838669,-1.415409,-0.945750,1.704476,0.460323,-0.048317,-0.352947,-0.199081,-0.406098,-0.280046,0.479138,0.169669,-2.468829,38.103069,19.616196,13.654966,0.351041,1.832076,0.081344,0.000000,0.000000,0.000000,0.000000,0.000000,0.000000
11963347.000000,2.306598,-0.982811,-1.838880,-1.415814,-0.946041,1.704938,0.460498,-0.053410,-0.361051,-0.201292,-0.402202,-0.282301,0.469821,0.171775,-2.222857,38.396648,19.691574,13.678770,0.393156,1.812850,0.041976,0.000000,0.000000,0.000000,0.000000,0.000000,0.000000
11963348.000000,2.306540,-0.983174,-1.839089,-1.416209,-0.946330,1.705412,0.460658,-0.053572,-0.360806,-0.200452,-0.404677,-0.285917,0.474725,0.169533,-2.000689,38.666424,19.790756,13.654966,0.386747,1.747848,0.087753,0.000000,0.000000,0.000000,0.000000,0.000000,0.000000
11963349.000000,2.306469,-0.983547,-1.839303,-1.416596,-0.946618,1.705884,0.460832,-0.059217,-0.368361,-0.205031,-0.395185,-0.292322,0.470461,0.171197,-1.679339,39.011578,19.985153,13.456602,0.374845,1.747848,0.048385,0.000000,0.000000,0.000000,0.000000,0.000000,0.000000
11963350.000000,2.306404,-0.983923,-1.839512,-1.416979,-0.946898,1.706337,0.460999,-0.058252,-0.369105,-0.205314,-0.393224,-0.288395,0.470751,0.165374,-1.429400,39.281353,20.084335,13.286009,0.339139,1.786300,0.067611,0.000000,0.000000,0.000000,0.000000,0.000000,0.000000
11963351.000000,2.306331,-0.984289,-1.839730,-1.417365,-0.947191,1.706799,0.461174,-0.062476,-0.372363,-0.211634,-0.389043,-0.290764,0.459136,0.167074,-1.108050,39.523357,20.278732,13.111448,0.308927,1.851302,0.034652,0.000000,0.000000,0.000000,0.000000,0.000000,0.000000
11963352.000000,2.306252,-0.984669,-1.839956,-1.417740,-0.947490,1.707257,0.461334,-0.066353,-0.373039,-0.217140,-0.385327,-0.294008,0.459689,0.168105,-0.735125,39.721722,20.524704,12.766294,0.327238,1.838485,0.054794,0.000000,0.000000,0.000000,0.000000,0.000000,0.000000
11963353.000000,2.306176,-0.985028,-1.840184,-1.418115,-0.947790,1.707723,0.461500,-0.067961,-0.368226,-0.220679,-0.380006,-0.290253,0.461320,0.168668,-0.413775,39.793133,20.746872,12.567930,0.320829,1.779891,0.054794,0.000000,0.000000,0.000000,0.000000,0.000000,0.000000
11963354.000000,2.306090,-0.985391,-1.840420,-1.418494,-0.948080,1.708190,0.461665,-0.074098,-0.366879,-0.225406,-0.382195,-0.292157,0.460829,0.168895,-0.017047,39.816936,21.064255,12.393370,0.339139,1.767074,0.048385,0.000000,0.000000,0.000000,0.000000,0.000000,0.000000
11963355.000000,2.306002,-0.985739,-1.840652,-1.418864,-0.948389,1.708646,0.461821,-0.078499,-0.359767,-0.224738,-0.382986,-0.300541,0.454646,0.164802,0.375715,39.693951,21.238815,12.246580,0.381254,1.767074,0.087753,0.000000,0.000000,0.000000,0.000000,0.000000,0.000000
11963356.000000,2.305911,-0.986090,-1.840890,-1.419235,-0.948699,1.709114,0.461987,-0.081470,-0.361607,-0.233842,-0.382836,-0.300910,0.459037,0.164668,0.748639,39.721722,21.580002,12.123594,0.393156,1.773483,0.015426,0.000000,0.000000,0.000000,0.000000,0.000000,0.000000
11963357.000000,2.305821,-0.986434,-1.841126,-1.419603,-0.949011,1.709576,0.462145,-0.083002,-0.352574,-0.235753,-0.377958,-0.303522,0.465221,0.163232,1.093793,39.598736,21.802170,11.949034,0.458158,1.806442,0.081344,0.000000,0.000000,0.000000,0.000000,0.000000,0.000000
11963358.000000,2.305727,-0.986772,-1.841370,-1.419962,-0.949314,1.710016,0.462307,-0.086716,-0.355806,-0.238214,-0.373258,-0.302413,0.460402,0.164931,1.442914,39.547161,22.071945,11.826048,0.458158,1.890670,0.094161,0.000000,0.000000,0.000000,0.000000,0.000000,0.000000
11963359.000000,2.305633,-0.987106,-1.841617,-1.420322,-0.949618,1.710474,0.462482,-0.089500,-0.350589,-0.243725,-0.367644,-0.299923,0.457871,0.168759,1.764264,39.352764,22.365524,11.655455,0.393156,1.936446,0.021835,0.000000,0.000000,0.000000,0.000000,0.000000,0.000000
11963360.000000,2.305542,-0.987447,-1.841854,-1.420675,-0.949933,1.710929,0.462646,-0.089506,-0.345753,-0.240569,-0.360123,-0.300161,0.453245,0.168943,2.010236,39.253582,22.488510,11.457090,0.386747,1.936446,0.021835,0.000000,0.000000,0.000000,0.000000,0.000000,0.000000
11963361.000000,2.305458,-0.987784,-1.842110,-1.421013,-0.950249,1.711392,0.462811,-0.083912,-0.344164,-0.244568,-0.354341,-0.301075,0.455922,0.165255,2.133222,39.082989,22.857468,11.107969,0.416959,1.897079,0.034652,0.000000,0.000000,0.000000,0.000000,0.000000,0.000000
11963362.000000,2.305368,-0.988123,-1.842369,-1.421358,-0.950552,1.711844,0.462979,-0.084265,-0.340612,-0.248421,-0.348945,-0.301228,0.449582,0.166768,2.307783,38.960003,23.151047,10.861998,0.422452,1.936446,0.028243,0.000000,0.000000,0.000000,0.000000,0.000000,0.000000
11963363.000000,2.305282,-0.988460,-1.842625,-1.421692,-0.950875,1.712284,0.463140,-0.083784,-0.340599,-0.246628,-0.346771,-0.313366,0.445270,0.168054,2.430768,38.789410,23.397018,10.540648,0.494779,1.962081,0.028243,0.000000,0.000000,0.000000,0.000000,0.000000,0.000000
11963364.000000,2.305196,-0.988797,-1.842870,-1.422032,-0.951202,1.712731,0.463301,-0.083566,-0.338288,-0.247502,-0.341896,-0.317578,0.445862,0.166643,2.553754,38.666424,23.567612,10.342283,0.566190,1.995040,0.074935,0.000000,0.000000,0.000000,0.000000,0.000000,0.000000
11963365.000000,2.305114,-0.989131,-1.843118,-1.422366,-0.951520,1.713187,0.463475,-0.085068,-0.334720,-0.248177,-0.340661,-0.319181,0.450656,0.173829,2.629133,38.495831,23.742172,10.120115,0.601896,1.949264,0.009017,0.000000,0.000000,0.000000,0.000000,0.000000,0.000000
11963366.000000,2.305032,-0.989463,-1.843371,-1.422697,-0.951840,1.713643,0.463644,-0.082958,-0.332194,-0.247571,-0.341138,-0.318984,0.454167,0.172032,2.680707,38.301434,23.865158,9.949522,0.620206,1.903487,0.028243,0.000000,0.000000,0.000000,0.000000,0.000000,0.000000
11963367.000000,2.304952,-0.989791,-1.843621,-1.423031,-0.952160,1.714104,0.463806,-0.083625,-0.328039,-0.247969,-0.336251,-0.326473,0.449707,0.169545,2.680707,38.130840,24.011948,9.874144,0.613798,1.897079,0.081344,0.000000,0.000000,0.000000,0.000000,0.000000,0.000000
11963368.000000,2.304874,-0.990121,-1.843863,-1.423368,-0.952482,1.714552,0.463979,-0.080632,-0.327688,-0.244578,-0.338218,-0.323833,0.450901,0.171950,2.652936,37.956280,24.011948,9.874144,0.589994,1.916305,0.009017,0.000000,0.000000,0.000000,0.000000,0.000000,0.000000
11963369.000000,2.304800,-0.990449,-1.844112,-1.423699,-0.952809,1.715001,0.464138,-0.075882,-0.327672,-0.247974,-0.334891,-0.323580,0.444511,0.169340,2.629133,37.908672,24.111130,9.822569,0.608304,1.962081,0.054794,0.000000,0.000000,0.000000,0.000000,0.000000,0.000000
11963370.000000,2.304731,-0.990778,-1.844358,-1.424035,-0.953128,1.715450,0.464300,-0.073076,-0.328997,-0.246687,-0.338466,-0.322424,0.441503,0.168922,2.529951,37.833294,24.182541,9.897947,0.601896,2.014266,0.067611,0.000000,0.000000,0.000000,0.000000,0.000000,0.000000
11963372.000000,2.304593,-0.991411,-1.844829,-1.424715,-0.953776,1.716376,0.464630,-0.070814,-0.319581,-0.243151,-0.337706,-0.323914,0.446151,0.169453,2.383161,37.468304,24.158737,10.270872,0.578092,1.974899,0.054794,0.000000,0.000000,0.000000,0.000000,0.000000,0.000000
11963373.000000,2.304532,-0.991735,-1.845061,-1.425059,-0.954100,1.716822,0.464800,-0.068067,-0.319366,-0.240316,-0.347532,-0.324818,0.448686,0.168651,2.208601,37.345318,24.111130,10.493040,0.632108,1.995040,0.001693,0.000000,0.000000,0.000000,0.000000,0.000000,0.000000
11963374.000000,2.304471,-0.992045,-1.845290,-1.425400,-0.954418,1.717268,0.464959,-0.064751,-0.316910,-0.243524,-0.345158,-0.323362,0.444372,0.166235,2.109418,37.127117,24.059555,10.639830,0.637601,2.001449,0.074935,0.000000,0.000000,0.000000,0.000000,0.000000,0.000000
11963375.000000,2.304415,-0.992361,-1.845509,-1.425744,-0.954744,1.717712,0.465128,-0.061251,-0.316508,-0.234847,-0.346088,-0.328645,0.454104,0.168344,1.962629,36.980328,23.865158,10.786619,0.673307,2.047225,0.061202,0.000000,0.000000,0.000000,0.000000,0.000000,0.000000
11963376.000000,2.304363,-0.992681,-1.845735,-1.426095,-0.955069,1.718141,0.465300,-0.055040,-0.324722,-0.229964,-0.349683,-0.326065,0.447380,0.171142,1.764264,36.857342,23.742172,11.036558,0.667814,2.118636,0.015426,0.000000,0.000000,0.000000,0.000000,0.000000,0.000000
11963377.000000,2.304315,-0.993001,-1.845945,-1.426439,-0.955388,1.718585,0.465460,-0.053154,-0.322450,-0.221863,-0.345195,-0.318974,0.445294,0.165342,1.565900,36.833538,23.543808,11.135740,0.637601,2.085677,0.054794,0.000000,0.000000,0.000000,0.000000,0.000000,0.000000
11963378.000000,2.304263,-0.993323,-1.846151,-1.426788,-0.955699,1.719023,0.465625,-0.049579,-0.321897,-0.215951,-0.346070,-0.317761,0.439614,0.162012,1.415143,36.758160,23.349411,11.258726,0.596403,2.047225,0.048385,0.000000,0.000000,0.000000,0.000000,0.000000,0.000000
11963379.000000,2.304217,-0.993643,-1.846349,-1.427148,-0.956016,1.719463,0.465790,-0.045911,-0.323173,-0.210655,-0.349424,-0.310493,0.439961,0.163772,1.216779,36.734356,23.103439,11.504698,0.524076,2.014266,0.061202,0.000000,0.000000,0.000000,0.000000,0.000000,0.000000
11963380.000000,2.304167,-0.993966,-1.846546,-1.427509,-0.956330,1.719897,0.465964,-0.044959,-0.321315,-0.205330,-0.350334,-0.307630,0.438672,0.162935,1.093793,36.734356,22.786057,11.726866,0.500272,2.027084,0.001693,0.000000,0.000000,0.000000,0.000000,0.000000,0.000000
11963381.000000,2.304127,-0.994304,-1.846744,-1.427865,-0.956651,1.720326,0.466125,-0.042101,-0.326246,-0.202244,-0.351824,-0.312701,0.430997,0.162369,0.871625,36.857342,22.512314,11.949034,0.542386,2.092086,0.061202,0.000000,0.000000,0.000000,0.000000,0.000000,0.000000
11963382.000000,2.304091,-0.994620,-1.846935,-1.428226,-0.956968,1.720766,0.466294,-0.040410,-0.323212,-0.200419,-0.356244,-0.313942,0.431610,0.164730,0.673261,36.857342,22.242538,12.171202,0.524076,2.085677,0.041976,0.000000,0.000000,0.000000,0.000000,0.000000,0.000000
11963383.000000,2.304055,-0.994952,-1.847129,-1.428588,-0.957287,1.721210,0.466464,-0.038161,-0.325837,-0.200066,-0.355095,-0.316001,0.435273,0.167050,0.427289,36.952557,22.024338,12.345762,0.535978,2.027084,0.028243,0.000000,0.000000,0.000000,0.000000,0.000000,0.000000
11963384.000000,2.304019,-0.995271,-1.847317,-1.428948,-0.957601,1.721660,0.466631,-0.037841,-0.325683,-0.193229,-0.355819,-0.316615,0.432748,0.167446,0.228925,36.928753,21.778366,12.591734,0.542386,1.962081,0.034652,0.000000,0.000000,0.000000,0.000000,0.000000,0.000000
11963385.000000,2.303987,-0.995592,-1.847503,-1.429318,-0.957907,1.722108,0.466795,-0.037573,-0.325683,-0.188921,-0.359228,-0.319425,0.430051,0.163341,0.030561,36.904949,21.580002,12.865477,0.512174,1.903487,0.034652,0.000000,0.000000,0.000000,0.000000,0.000000,0.000000
11963386.000000,2.303954,-0.995925,-1.847686,-1.429671,-0.958224,1.722551,0.466958,-0.037986,-0.323692,-0.184863,-0.358491,-0.319344,0.436520,0.163937,-0.144000,36.928753,21.361801,12.964659,0.506681,1.916305,0.067611,0.000000,0.000000,0.000000,0.000000,0.000000,0.000000
11963387.000000,2.303921,-0.996239,-1.847859,-1.430047,-0.958541,1.722995,0.467133,-0.035571,-0.319311,-0.184641,-0.367779,-0.315293,0.432750,0.166216,-0.290789,36.833538,21.115829,13.210630,0.518583,1.988631,0.034652,0.000000,0.000000,0.000000,0.000000,0.000000,0.000000
11963388.000000,2.303894,-0.996557,-1.848033,-1.430424,-0.958851,1.723433,0.467303,-0.032704,-0.320488,-0.183900,-0.367271,-0.310312,0.435981,0.167047,-0.465350,36.682781,20.846054,13.408995,0.482877,1.995040,0.048385,0.000000,0.000000,0.000000,0.000000,0.000000,0.000000
11963389.000000,2.303857,-0.996872,-1.848208,-1.430798,-0.959154,1.723887,0.467475,-0.034176,-0.326026,-0.184630,-0.371239,-0.301201,0.441799,0.168802,-0.489153,36.512188,20.623886,13.654966,0.434354,1.981307,0.021835,0.000000,0.000000,0.000000,0.000000,0.000000,0.000000
11963390.000000,2.303820,-0.997179,-1.848381,-1.431180,-0.959466,1.724337,0.467647,-0.035155,-0.321356,-0.179275,-0.372211,-0.302141,0.440662,0.169824,-0.512957,36.270184,20.429489,13.853331,0.440763,1.968490,0.021835,0.000000,0.000000,0.000000,0.000000,0.000000,0.000000
11963391.000000,2.303787,-0.997499,-1.848555,-1.431556,-0.959781,1.724771,0.467809,-0.034715,-0.319550,-0.178512,-0.385766,-0.300889,0.438522,0.165771,-0.588336,36.095623,20.254929,14.027891,0.416959,1.995040,0.054794,0.000000,0.000000,0.000000,0.000000,0.000000,0.000000
11963392.000000,2.303754,-0.997812,-1.848730,-1.431936,-0.960103,1.725209,0.467979,-0.034809,-0.316565,-0.180908,-0.381717,-0.302447,0.435232,0.168640,-0.635943,35.976604,20.108139,14.127073,0.464567,2.060043,0.028243,0.000000,0.000000,0.000000,0.000000,0.000000,0.000000
11963393.000000,2.303717,-0.998127,-1.848906,-1.432310,-0.960409,1.725662,0.468137,-0.036794,-0.317741,-0.179185,-0.374793,-0.301859,0.444519,0.162171,-0.612139,35.901226,20.036728,14.198484,0.452665,2.027084,0.081344,0.000000,0.000000,0.000000,0.000000,0.000000,0.000000
11963394.000000,2.303679,-0.998450,-1.849082,-1.432673,-0.960727,1.726115,0.468307,-0.036983,-0.319699,-0.174769,-0.370211,-0.309295,0.445821,0.161878,-0.612139,35.976604,19.985153,14.127073,0.410551,1.942855,0.028243,0.000000,0.000000,0.000000,0.000000,0.000000,0.000000
11963395.000000,2.303642,-0.998768,-1.849248,-1.433045,-0.961044,1.726568,0.468475,-0.040862,-0.316836,-0.169908,-0.368756,-0.310947,0.445396,0.163165,-0.588336,36.024212,19.862167,14.150877,0.374845,1.871444,0.034652,0.000000,0.000000,0.000000,0.000000,0.000000,0.000000
11963396.000000,2.303610,-0.999089,-1.849423,-1.433409,-0.961365,1.727004,0.468638,-0.038666,-0.318432,-0.170888,-0.368133,-0.314133,0.438078,0.157051,-0.635943,36.000408,19.814560,14.027891,0.393156,1.871444,0.028243,0.000000,0.000000,0.000000,0.000000,0.000000,0.000000
11963397.000000,2.303571,-0.999408,-1.849600,-1.433764,-0.961680,1.727443,0.468798,-0.039879,-0.319575,-0.171793,-0.365874,-0.309767,0.434948,0.160342,-0.588336,36.071819,19.766953,13.952513,0.374845,1.936446,0.028243,0.000000,0.000000,0.000000,0.000000,0.000000,0.000000
11963398.000000,2.303532,-0.999720,-1.849773,-1.434108,-0.962002,1.727889,0.468958,-0.037312,-0.319738,-0.172779,-0.358958,-0.317964,0.434363,0.156615,-0.540728,36.000408,19.739182,13.678770,0.398649,1.962081,0.067611,0.000000,0.000000,0.000000,0.000000,0.000000,0.000000
11963399.000000,2.303495,-1.000035,-1.849946,-1.434464,-0.962333,1.728325,0.469121,-0.034876,-0.319037,-0.171966,-0.357566,-0.320112,0.430670,0.162312,-0.512957,35.877422,19.667770,13.654966,0.434354,1.942855,0.021835,0.000000,0.000000,0.000000,0.000000,0.000000,0.000000
11963400.000000,2.303459,-1.000333,-1.850127,-1.434809,-0.962657,1.728777,0.469279,-0.032693,-0.312013,-0.172603,-0.350419,-0.324011,0.437528,0.164157,-0.489153,35.607647,19.766953,13.508177,0.416959,1.909896,0.041976,0.000000,0.000000,0.000000,0.000000,0.000000,0.000000
11963401.000000,2.303411,-1.000648,-1.850303,-1.435165,-0.962978,1.729224,0.469438,-0.038031,-0.311893,-0.175511,-0.349773,-0.323297,0.436072,0.166929,-0.314593,35.437054,19.715378,13.432798,0.422452,1.825668,0.048385,0.000000,0.000000,0.000000,0.000000,0.000000,0.000000
11963402.000000,2.303371,-1.000947,-1.850481,-1.435502,-0.963312,1.729664,0.469603,-0.039142,-0.305956,-0.174747,-0.344005,-0.326735,0.437197,0.168394,-0.243182,35.119671,19.667770,13.262205,0.428861,1.793624,0.041976,0.000000,0.000000,0.000000,0.000000,0.000000,0.000000
11963403.000000,2.303334,-1.001259,-1.850660,-1.435840,-0.963640,1.730105,0.469768,-0.039206,-0.309665,-0.173293,-0.341628,-0.333669,0.433957,0.163515,-0.215411,34.996685,19.715378,13.063841,0.458158,1.858627,0.061202,0.000000,0.000000,0.000000,0.000000,0.000000,0.000000
11963404.000000,2.303287,-1.001577,-1.850835,-1.436164,-0.963972,1.730543,0.469937,-0.042172,-0.311774,-0.172206,-0.333669,-0.335732,0.433966,0.169741,-0.044818,34.849895,19.643967,12.841673,0.482877,1.884261,0.021835,0.000000,0.000000,0.000000,0.000000,0.000000,0.000000
11963405.000000,2.303242,-1.001885,-1.851008,-1.436485,-0.964297,1.730979,0.470098,-0.039577,-0.307628,-0.175233,-0.330439,-0.333515,0.432963,0.167953,0.054365,34.726910,19.592392,12.591734,0.410551,1.903487,0.067611,0.000000,0.000000,0.000000,0.000000,0.000000,0.000000
11963406.000000,2.303208,-1.002206,-1.851186,-1.436806,-0.964630,1.731421,0.470269,-0.034031,-0.308172,-0.177148,-0.322431,-0.333108,0.443772,0.165039,0.006757,34.651531,19.520981,12.369566,0.362943,1.851302,0.034652,0.000000,0.000000,0.000000,0.000000,0.000000,0.000000
11963407.000000,2.303168,-1.002520,-1.851365,-1.437110,-0.964970,1.731867,0.470432,-0.032330,-0.312849,-0.176066,-0.316282,-0.329377,0.440122,0.160681,0.054365,34.556316,19.469406,12.123594,0.362943,1.767074,0.054794,0.000000,0.000000,0.000000,0.000000,0.000000,0.000000
11963408.000000,2.303125,-1.002836,-1.851545,-1.437420,-0.965304,1.732306,0.470603,-0.034786,-0.312750,-0.179465,-0.312096,-0.327519,0.443603,0.159532,0.105939,34.504742,19.469406,11.925230,0.369352,1.773483,0.015426,0.000000,0.000000,0.000000,0.000000,0.000000,0.000000
11963409.000000,2.303083,-1.003151,-1.851732,-1.437719,-0.965645,1.732743,0.470766,-0.039293,-0.314002,-0.179078,-0.309440,-0.336032,0.446400,0.159280,0.153547,34.385723,19.497177,11.726866,0.393156,1.800033,0.021835,0.000000,0.000000,0.000000,0.000000,0.000000,0.000000
11963410.000000,2.303048,-1.003461,-1.851916,-1.438020,-0.965997,1.733190,0.470929,-0.038015,-0.313198,-0.186838,-0.308436,-0.335744,0.444190,0.159717,0.129743,34.310345,19.497177,11.580076,0.506681,1.773483,0.081344,0.000000,0.000000,0.000000,0.000000,0.000000,0.000000
11963411.000000,2.303010,-1.003782,-1.852104,-1.438321,-0.966328,1.733650,0.471102,-0.037695,-0.315823,-0.185442,-0.301631,-0.336530,0.449649,0.160585,0.129743,34.262737,19.544785,11.457090,0.512174,1.727706,0.015426,0.000000,0.000000,0.000000,0.000000,0.000000,0.000000
11963412.000000,2.302969,-1.004101,-1.852285,-1.438615,-0.966661,1.734102,0.471260,-0.039619,-0.315504,-0.182308,-0.297938,-0.335505,0.453731,0.156231,0.205121,34.238934,19.520981,11.381712,0.476469,1.670028,0.067611,0.000000,0.000000,0.000000,0.000000,0.000000,0.000000
11963413.000000,2.302927,-1.004414,-1.852466,-1.438907,-0.967003,1.734545,0.471434,-0.040557,-0.317222,-0.183404,-0.296110,-0.339992,0.448900,0.161999,0.276533,34.163555,19.497177,11.234922,0.440763,1.662704,0.001693,0.000000,0.000000,0.000000,0.000000,0.000000,0.000000
11963414.000000,2.302896,-1.004736,-1.852650,-1.439199,-0.967341,1.734986,0.471593,-0.037770,-0.314290,-0.184678,-0.290426,-0.339849,0.443759,0.160211,0.205121,34.088177,19.497177,11.159544,0.434354,1.727706,0.015426,0.000000,0.000000,0.000000,0.000000,0.000000,0.000000
11963415.000000,2.302864,-1.005051,-1.852836,-1.439477,-0.967681,1.735434,0.471749,-0.036442,-0.313309,-0.185346,-0.288141,-0.338640,0.440291,0.156197,0.153547,34.016766,19.469406,11.036558,0.428861,1.773483,0.074935,0.000000,0.000000,0.000000,0.000000,0.000000,0.000000
11963416.000000,2.302834,-1.005376,-1.853016,-1.439758,-0.968015,1.735888,0.471925,-0.031948,-0.318607,-0.185214,-0.285023,-0.341752,0.440638,0.163263,0.078168,33.941387,19.421799,10.885801,0.374845,1.747848,-0.017533,0.000000,0.000000,0.000000,0.000000,0.000000,0.000000
11963417.000000,2.302807,-1.005696,-1.853200,-1.440040,-0.968358,1.736332,0.472085,-0.027593,-0.317519,-0.184813,-0.283197,-0.335441,0.440954,0.161211,-0.044818,33.770794,19.374191,10.861998,0.344633,1.727706,0.074935,0.000000,0.000000,0.000000,0.000000,0.000000,0.000000
11963418.000000,2.302781,-1.006014,-1.853383,-1.440321,-0.968712,1.736780,0.472256,-0.027888,-0.319428,-0.186096,-0.281921,-0.339206,0.441350,0.163140,-0.144000,33.723186,19.374191,10.838194,0.416959,1.662704,0.081344,0.000000,0.000000,0.000000,0.000000,0.000000,0.000000
11963419.000000,2.302750,-1.006345,-1.853573,-1.440598,-0.969052,1.737215,0.472433,-0.029562,-0.324620,-0.186865,-0.278817,-0.340709,0.441559,0.168074,-0.191607,33.723186,19.374191,10.739012,0.458158,1.630660,0.009017,0.000000,0.000000,0.000000,0.000000,0.000000,0.000000
11963420.000000,2.302724,-1.006670,-1.853755,-1.440874,-0.969401,1.737655,0.472609,-0.029877,-0.322937,-0.183892,-0.278918,-0.344439,0.439651,0.168696,-0.290789,33.746990,19.346420,10.739012,0.458158,1.643478,0.001693,0.000000,0.000000,0.000000,0.000000,0.000000,0.000000
11963421.000000,2.302701,-1.007007,-1.853935,-1.441142,-0.969750,1.738088,0.472781,-0.026622,-0.325596,-0.184139,-0.276163,-0.349177,0.432066,0.169796,-0.389971,33.794598,19.298813,10.639830,0.547880,1.682845,0.009017,0.000000,0.000000,0.000000,0.000000,0.000000,0.000000
11963422.000000,2.302683,-1.007349,-1.854118,-1.441414,-0.970089,1.738519,0.472945,-0.023250,-0.331439,-0.184665,-0.279493,-0.344752,0.433685,0.167952,-0.540728,33.893780,19.275009,10.564451,0.506681,1.676437,0.061202,0.000000,0.000000,0.000000,0.000000,0.000000,0.000000
11963423.000000,2.302662,-1.007677,-1.854295,-1.441690,-0.970425,1.738956,0.473124,-0.021504,-0.332269,-0.184116,-0.278805,-0.344653,0.431327,0.173983,-0.663714,33.969158,19.199631,10.540648,0.428861,1.597701,0.021835,0.000000,0.000000,0.000000,0.000000,0.000000,0.000000
11963424.000000,2.302644,-1.008014,-1.854482,-1.441960,-0.970771,1.739377,0.473301,-0.020588,-0.333911,-0.185085,-0.276835,-0.342557,0.436676,0.173979,-0.786700,33.992962,19.175827,10.465269,0.405057,1.565658,0.015426,0.000000,0.000000,0.000000,0.000000,0.000000,0.000000
11963425.000000,2.302625,-1.008348,-1.854668,-1.442231,-0.971111,1.739798,0.473478,-0.020011,-0.341530,-0.185008,-0.278241,-0.339789,0.433887,0.177852,-0.885882,34.064373,19.128220,10.370054,0.356534,1.617843,0.015426,0.000000,0.000000,0.000000,0.000000,0.000000,0.000000
11963426.000000,2.302616,-1.008684,-1.854851,-1.442505,-0.971450,1.740228,0.473647,-0.017328,-0.340251,-0.184489,-0.276337,-0.335049,0.427557,0.174477,-1.084246,34.040569,19.052841,10.318480,0.351041,1.643478,0.067611,0.000000,0.000000,0.000000,0.000000,0.000000,0.000000
11963427.000000,2.302596,-1.009025,-1.855033,-1.442777,-0.971796,1.740648,0.473822,-0.019095,-0.336791,-0.183186,-0.276471,-0.343199,0.425603,0.175696,-1.131854,34.040569,18.953659,10.294676,0.405057,1.637069,0.015426,0.000000,0.000000,0.000000,0.000000,0.000000,0.000000
11963428.000000,2.302581,-1.009352,-1.855223,-1.443062,-0.972144,1.741081,0.473993,-0.019294,-0.336498,-0.185696,-0.276800,-0.342732,0.423901,0.174246,-1.207232,33.992962,18.981430,10.294676,0.446256,1.611434,0.028243,0.000000,0.000000,0.000000,0.000000,0.000000,0.000000
11963429.000000,2.302565,-1.009696,-1.855403,-1.443354,-0.972484,1.741511,0.474161,-0.016540,-0.337773,-0.181006,-0.281587,-0.343311,0.423046,0.172983,-1.282611,34.016766,18.882248,10.370054,0.494779,1.597701,0.034652,0.000000,0.000000,0.000000,0.000000,0.000000,0.000000
11963430.000000,2.302548,-1.010046,-1.855585,-1.443631,-0.972821,1.741928,0.474330,-0.017906,-0.345745,-0.178742,-0.282691,-0.341675,0.417104,0.172871,-1.330218,34.187359,18.830673,10.342283,0.482877,1.572067,0.028243,0.000000,0.000000,0.000000,0.000000,0.000000,0.000000
11963431.000000,2.302532,-1.010403,-1.855769,-1.443912,-0.973171,1.742362,0.474499,-0.015484,-0.350786,-0.182809,-0.280041,-0.339992,0.420230,0.170803,-1.381793,34.334148,18.882248,10.294676,0.458158,1.584884,0.074935,0.000000,0.000000,0.000000,0.000000,0.000000,0.000000
11963432.000000,2.302514,-1.010763,-1.855957,-1.444190,-0.973512,1.742790,0.474680,-0.014155,-0.348971,-0.188114,-0.276667,-0.339832,0.419320,0.173461,-1.429400,34.556316,18.906052,10.171690,0.458158,1.597701,0.001693,0.000000,0.000000,0.000000,0.000000,0.000000,0.000000
11963433.000000,2.302496,-1.011118,-1.856149,-1.444471,-0.973846,1.743217,0.474843,-0.017294,-0.354795,-0.185737,-0.280245,-0.335404,0.418722,0.170332,-1.429400,34.798321,18.929855,10.171690,0.369352,1.605026,0.061202,0.000000,0.000000,0.000000,0.000000,0.000000,0.000000
11963434.000000,2.302474,-1.011472,-1.856331,-1.444760,-0.974187,1.743660,0.475013,-0.017603,-0.355228,-0.184829,-0.279586,-0.343627,0.419742,0.174537,-1.381793,34.873699,18.858444,10.195494,0.303434,1.546432,0.081344,0.000000,0.000000,0.000000,0.000000,0.000000,0.000000
11963435.000000,2.302452,-1.011830,-1.856527,-1.445043,-0.974540,1.744088,0.475188,-0.021362,-0.355259,-0.187825,-0.280623,-0.344041,0.419958,0.172884,-1.306414,35.068096,18.953659,10.270872,0.339139,1.507064,0.028243,0.000000,0.000000,0.000000,0.000000,0.000000,0.000000
11963436.000000,2.302430,-1.012191,-1.856721,-1.445326,-0.974893,1.744515,0.475356,-0.023696,-0.358214,-0.187031,-0.286622,-0.345158,0.418994,0.167379,-1.254840,35.266460,19.052841,10.294676,0.393156,1.467696,0.021835,0.000000,0.000000,0.000000,0.000000,0.000000,0.000000
11963437.000000,2.302399,-1.012545,-1.856915,-1.445615,-0.975234,1.744932,0.475521,-0.027880,-0.351895,-0.187809,-0.286018,-0.349111,0.423290,0.166935,-1.084246,35.385479,19.076645,10.370054,0.416959,1.539108,0.048385,0.000000,0.000000,0.000000,0.000000,0.000000,0.000000
11963438.000000,2.302371,-1.012894,-1.857109,-1.445900,-0.975590,1.745358,0.475683,-0.029672,-0.351987,-0.185963,-0.285807,-0.351290,0.420378,0.166113,-0.961260,35.437054,19.128220,10.465269,0.446256,1.572067,0.100570,0.000000,0.000000,0.000000,0.000000,0.000000,0.000000
11963439.000000,2.302343,-1.013250,-1.857304,-1.446186,-0.975944,1.745789,0.475863,-0.027313,-0.352021,-0.189825,-0.283147,-0.357359,0.415156,0.169975,-0.862078,35.460857,19.275009,10.493040,0.494779,1.539108,0.021835,0.000000,0.000000,0.000000,0.000000,0.000000,0.000000
11963440.000000,2.302316,-1.013600,-1.857495,-1.446470,-0.976284,1.746208,0.476024,-0.024987,-0.354819,-0.189371,-0.286489,-0.350507,0.415025,0.168477,-0.786700,35.337872,19.298813,10.516844,0.446256,1.546432,0.061202,0.000000,0.000000,0.000000,0.000000,0.000000,0.000000
11963441.000000,2.302278,-1.013955,-1.857693,-1.446756,-0.976635,1.746622,0.476194,-0.032578,-0.353468,-0.199484,-0.280775,-0.355240,0.407169,0.169827,-0.564532,35.290264,19.397995,10.516844,0.410551,1.591293,0.034652,0.000000,0.000000,0.000000,0.000000,0.000000,0.000000
11963442.000000,2.302249,-1.014300,-1.857890,-1.447045,-0.976984,1.747035,0.476360,-0.032017,-0.352147,-0.197600,-0.285903,-0.350319,0.414969,0.169031,-0.465350,35.143475,19.445602,10.516844,0.381254,1.656295,0.048385,0.000000,0.000000,0.000000,0.000000,0.000000,0.000000
11963444.000000,2.302177,-1.015005,-1.858294,-1.447616,-0.977685,1.747873,0.476685,-0.037338,-0.354900,-0.198790,-0.283809,-0.349030,0.409914,0.170829,-0.144000,34.972881,19.616196,10.493040,0.381254,1.662704,0.009017,0.000000,0.000000,0.000000,0.000000,0.000000,0.000000
11963445.000000,2.302132,-1.015369,-1.858503,-1.447900,-0.978038,1.748284,0.476838,-0.039640,-0.352600,-0.200421,-0.287059,-0.347634,0.412225,0.167474,0.129743,34.897503,19.691574,10.417662,0.410551,1.643478,0.087753,0.000000,0.000000,0.000000,0.000000,0.000000,0.000000
11963446.000000,2.302098,-1.015722,-1.858707,-1.448188,-0.978392,1.748695,0.477011,-0.037834,-0.351448,-0.204990,-0.286065,-0.351850,0.406863,0.169485,0.252729,34.826092,19.814560,10.342283,0.476469,1.670028,0.054794,0.000000,0.000000,0.000000,0.000000,0.000000,0.000000
11963447.000000,2.302052,-1.016082,-1.858911,-1.448473,-0.978739,1.749108,0.477183,-0.039793,-0.355068,-0.205080,-0.286410,-0.350026,0.403702,0.170908,0.502668,34.826092,19.885971,10.318480,0.518583,1.676437,0.021835,0.000000,0.000000,0.000000,0.000000,0.000000,0.000000
11963448.000000,2.302012,-1.016446,-1.859116,-1.448748,-0.979088,1.749514,0.477346,-0.038710,-0.355987,-0.200931,-0.284460,-0.351292,0.408119,0.170178,0.649457,34.873699,19.913742,10.195494,0.506681,1.643478,0.034652,0.000000,0.000000,0.000000,0.000000,0.000000,0.000000
11963449.000000,2.301970,-1.016800,-1.859321,-1.449025,-0.979442,1.749927,0.477513,-0.041742,-0.358370,-0.202243,-0.280010,-0.347147,0.404188,0.168867,0.824018,34.873699,19.985153,10.072508,0.482877,1.643478,0.034652,0.000000,0.000000,0.000000,0.000000,0.000000,0.000000
11963450.000000,2.301932,-1.017156,-1.859528,-1.449306,-0.979785,1.750336,0.477674,-0.038863,-0.351698,-0.198975,-0.279529,-0.343144,0.402430,0.171940,0.923200,34.826092,20.008957,10.072508,0.428861,1.637069,0.061202,0.000000,0.000000,0.000000,0.000000,0.000000,0.000000
11963451.000000,2.301893,-1.017503,-1.859733,-1.449583,-0.980125,1.750742,0.477842,-0.039978,-0.352269,-0.198859,-0.278640,-0.342997,0.400629,0.174130,1.022382,34.826092,19.985153,10.048704,0.339139,1.630660,0.021835,0.000000,0.000000,0.000000,0.000000,0.000000,0.000000
11963452.000000,2.301844,-1.017857,-1.859942,-1.449858,-0.980483,1.751146,0.478005,-0.044027,-0.353921,-0.200686,-0.273349,-0.354280,0.397060,0.171826,1.244550,34.750713,20.036728,9.997129,0.332731,1.682845,0.054794,0.000000,0.000000,0.000000,0.000000,0.000000,0.000000
11963453.000000,2.301802,-1.018201,-1.860149,-1.450131,-0.980847,1.751542,0.478172,-0.043999,-0.346941,-0.202261,-0.273317,-0.357711,0.394902,0.172632,1.343732,34.580120,19.985153,10.072508,0.398649,1.735030,0.021835,0.000000,0.000000,0.000000,0.000000,0.000000,0.000000
11963454.000000,2.301760,-1.018546,-1.860363,-1.450409,-0.981200,1.751940,0.478336,-0.040818,-0.347997,-0.205011,-0.272326,-0.352995,0.396789,0.174078,1.442914,34.409527,20.108139,10.120115,0.405057,1.806442,0.081344,0.000000,0.000000,0.000000,0.000000,0.000000,0.000000
11963455.000000,2.301715,-1.018900,-1.860570,-1.450690,-0.981562,1.752344,0.478507,-0.039331,-0.347797,-0.203411,-0.272554,-0.357305,0.405651,0.174147,1.589704,34.357952,20.084335,10.219297,0.482877,1.800033,0.081344,0.000000,0.000000,0.000000,0.000000,0.000000,0.000000
11963456.000000,2.301671,-1.019250,-1.860780,-1.450957,-0.981923,1.752760,0.478672,-0.038602,-0.352071,-0.206594,-0.270209,-0.352888,0.405468,0.169170,1.740461,34.334148,20.108139,10.219297,0.512174,1.741439,0.061202,0.000000,0.000000,0.000000,0.000000,0.000000,0.000000
11963457.000000,2.301638,-1.019602,-1.860994,-1.451234,-0.982272,1.753177,0.478844,-0.033269,-0.350972,-0.210763,-0.271793,-0.347144,0.409644,0.171251,1.688886,34.238934,20.207321,10.243101,0.452665,1.689254,0.009017,0.000000,0.000000,0.000000,0.000000,0.000000,0.000000
11963458.000000,2.301596,-1.019956,-1.861210,-1.451505,-0.982625,1.753584,0.479006,-0.036178,-0.353499,-0.211461,-0.275059,-0.349858,0.405534,0.165331,1.788068,34.187359,20.231125,10.270872,0.458158,1.702071,0.028243,0.000000,0.000000,0.000000,0.000000,0.000000,0.000000
11963459.000000,2.301557,-1.020310,-1.861415,-1.451767,-0.982988,1.753989,0.479169,-0.036979,-0.353491,-0.212089,-0.269955,-0.354805,0.399916,0.163594,1.835676,34.163555,20.159714,10.171690,0.428861,1.760665,0.087753,0.000000,0.000000,0.000000,0.000000,0.000000,0.000000
11963460.000000,2.301527,-1.020673,-1.861633,-1.452039,-0.983337,1.754392,0.479351,-0.034958,-0.353101,-0.211232,-0.266526,-0.353827,0.413082,0.169322,1.764264,34.310345,20.231125,10.096312,0.374845,1.838485,-0.004716,0.000000,0.000000,0.000000,0.000000,0.000000,0.000000
11963461.000000,2.301487,-1.021026,-1.861850,-1.452305,-0.983690,1.754804,0.479513,-0.036929,-0.358127,-0.215235,-0.264980,-0.350245,0.412650,0.162400,1.835676,34.357952,20.254929,10.048704,0.381254,1.871444,0.054794,0.000000,0.000000,0.000000,0.000000,0.000000,0.000000
11963462.000000,2.301460,-1.021388,-1.862056,-1.452571,-0.984051,1.755230,0.479686,-0.034832,-0.357204,-0.214750,-0.264842,-0.356357,0.411146,0.163175,1.740461,34.385723,20.254929,10.048704,0.362943,1.786300,0.074935,0.000000,0.000000,0.000000,0.000000,0.000000,0.000000
11963463.000000,2.301428,-1.021745,-1.862263,-1.452846,-0.984411,1.755645,0.479862,-0.034800,-0.357545,-0.211259,-0.266087,-0.357553,0.415331,0.164021,1.712690,34.334148,20.254929,10.096312,0.381254,1.708480,0.015426,0.000000,0.000000,0.000000,0.000000,0.000000,0.000000
11963464.000000,2.301393,-1.022107,-1.862472,-1.453108,-0.984778,1.756063,0.480031,-0.035994,-0.357516,-0.211175,-0.262341,-0.360712,0.421335,0.164882,1.740461,34.385723,20.354111,10.096312,0.482877,1.676437,0.041976,0.000000,0.000000,0.000000,0.000000,0.000000,0.000000
11963465.000000,2.301368,-1.022465,-1.862685,-1.453371,-0.985138,1.756471,0.480201,-0.030990,-0.359761,-0.209713,-0.263209,-0.366196,0.419372,0.167664,1.641279,34.409527,20.401718,10.120115,0.530485,1.689254,0.009017,0.000000,0.000000,0.000000,0.000000,0.000000,0.000000
11963466.000000,2.301346,-1.022825,-1.862896,-1.453636,-0.985505,1.756870,0.480360,-0.029311,-0.356708,-0.208700,-0.265251,-0.364655,0.416666,0.165417,1.490522,34.357952,20.477097,10.195494,0.554288,1.741439,0.074935,0.000000,0.000000,0.000000,0.000000,0.000000,0.000000
11963467.000000,2.301316,-1.023177,-1.863104,-1.453904,-0.985870,1.757281,0.480529,-0.028313,-0.357574,-0.209905,-0.264722,-0.362915,0.414952,0.168322,1.466718,34.310345,20.477097,10.318480,0.554288,1.760665,0.041976,0.000000,0.000000,0.000000,0.000000,0.000000,0.000000
11963468.000000,2.301295,-1.023535,-1.863313,-1.454168,-0.986214,1.757685,0.480695,-0.024871,-0.352032,-0.207914,-0.263420,-0.358094,0.406838,0.172471,1.343732,34.163555,20.500900,10.417662,0.464567,1.721298,0.041976,0.000000,0.000000,0.000000,0.000000,0.000000,0.000000
11963469.000000,2.301277,-1.023885,-1.863523,-1.454437,-0.986573,1.758087,0.480867,-0.023359,-0.347229,-0.205568,-0.269255,-0.354570,0.403130,0.168546,1.244550,34.064373,20.477097,10.540648,0.381254,1.747848,0.001693,0.000000,0.000000,0.000000,0.000000,0.000000,0.000000
11963470.000000,2.301264,-1.024245,-1.863726,-1.454705,-0.986941,1.758480,0.481024,-0.020248,-0.351403,-0.201359,-0.265915,-0.364146,0.397947,0.166263,1.069990,34.040569,20.477097,10.639830,0.410551,1.838485,0.067611,0.000000,0.000000,0.000000,0.000000,0.000000,0.000000
11963471.000000,2.301249,-1.024613,-1.863933,-1.454971,-0.987308,1.758862,0.481188,-0.019325,-0.351256,-0.204960,-0.265364,-0.363503,0.394970,0.164617,0.947004,34.139751,20.524704,10.786619,0.428861,1.916305,0.067611,0.000000,0.000000,0.000000,0.000000,0.000000,0.000000
11963472.000000,2.301233,-1.024978,-1.864139,-1.455244,-0.987682,1.759247,0.481355,-0.018966,-0.358442,-0.205174,-0.267932,-0.366485,0.393383,0.163446,0.847822,34.286541,20.576279,10.937376,0.428861,1.949264,0.028243,0.000000,0.000000,0.000000,0.000000,0.000000,0.000000
11963473.000000,2.301222,-1.025343,-1.864346,-1.455520,-0.988056,1.759643,0.481514,-0.014784,-0.360726,-0.206034,-0.267078,-0.371579,0.398790,0.164498,0.724836,34.357952,20.524704,11.107969,0.488370,1.916305,0.041976,0.000000,0.000000,0.000000,0.000000,0.000000,0.000000
11963474.000000,2.301211,-1.025694,-1.864557,-1.455796,-0.988431,1.760047,0.481675,-0.014853,-0.369529,-0.206701,-0.267046,-0.372834,0.396286,0.166740,0.601850,34.385723,20.600082,11.306334,0.518583,1.812850,0.048385,0.000000,0.000000,0.000000,0.000000,0.000000,0.000000
11963475.000000,2.301200,-1.026057,-1.864765,-1.456072,-0.988806,1.760446,0.481839,-0.012142,-0.369162,-0.204879,-0.273029,-0.374576,0.397870,0.166905,0.474897,34.433331,20.576279,11.381712,0.530485,1.754256,0.061202,0.000000,0.000000,0.000000,0.000000,0.000000,0.000000
11963476.000000,2.301193,-1.026412,-1.864972,-1.456351,-0.989172,1.760833,0.482012,-0.009467,-0.365969,-0.205339,-0.275577,-0.368657,0.389717,0.169230,0.328107,34.357952,20.524704,11.480894,0.494779,1.812850,0.009017,0.000000,0.000000,0.000000,0.000000,0.000000,0.000000
11963477.000000,2.301191,-1.026779,-1.865177,-1.456624,-0.989543,1.761215,0.482172,-0.006827,-0.366333,-0.211406,-0.272166,-0.369247,0.385948,0.167946,0.153547,34.385723,20.477097,11.480894,0.476469,1.936446,0.048385,0.000000,0.000000,0.000000,0.000000,0.000000,0.000000
11963478.000000,2.301190,-1.027146,-1.865376,-1.456908,-0.989905,1.761600,0.482334,-0.004996,-0.362864,-0.203516,-0.274920,-0.366093,0.394141,0.166912,-0.017047,34.409527,20.377914,11.580076,0.458158,1.995040,0.087753,0.000000,0.000000,0.000000,0.000000,0.000000,0.000000
11963479.000000,2.301179,-1.027511,-1.865576,-1.457185,-0.990285,1.761994,0.482504,-0.007782,-0.364737,-0.201289,-0.276214,-0.372527,0.394548,0.169738,-0.017047,34.457134,20.306503,11.627684,0.428861,2.007858,0.034652,0.000000,0.000000,0.000000,0.000000,0.000000,0.000000
11963480.000000,2.301175,-1.027876,-1.865780,-1.457461,-0.990661,1.762408,0.482665,-0.007717,-0.363009,-0.202762,-0.273399,-0.368811,0.399079,0.167495,-0.092425,34.385723,20.354111,11.655455,0.422452,1.884261,0.087753,0.000000,0.000000,0.000000,0.000000,0.000000,0.000000
11963481.000000,2.301171,-1.028247,-1.865985,-1.457748,-0.991030,1.762806,0.482835,-0.006483,-0.368762,-0.204829,-0.276939,-0.368406,0.397549,0.166334,-0.215411,34.357952,20.330307,11.778440,0.476469,1.773483,0.009017,0.000000,0.000000,0.000000,0.000000,0.000000,0.000000
11963482.000000,2.301168,-1.028621,-1.866187,-1.458024,-0.991411,1.763203,0.482992,-0.006427,-0.368139,-0.204248,-0.276957,-0.375767,0.395097,0.168857,-0.314593,34.357952,20.330307,11.802244,0.518583,1.806442,0.087753,0.000000,0.000000,0.000000,0.000000,0.000000,0.000000
11963483.000000,2.301160,-1.028990,-1.866382,-1.458299,-0.991789,1.763593,0.483164,-0.008770,-0.370454,-0.203448,-0.272967,-0.377696,0.392021,0.170539,-0.314593,34.357952,20.183517,11.802244,0.578092,1.884261,0.067611,0.000000,0.000000,0.000000,0.000000,0.000000,0.000000
11963484.000000,2.301158,-1.029367,-1.866585,-1.458571,-0.992165,1.763977,0.483324,-0.007049,-0.369916,-0.201881,-0.273767,-0.377150,0.387567,0.165012,-0.441546,34.385723,20.131943,11.802244,0.578092,1.890670,0.087753,0.000000,0.000000,0.000000,0.000000,0.000000,0.000000
11963485.000000,2.301158,-1.029734,-1.866790,-1.458852,-0.992536,1.764375,0.483494,-0.002365,-0.368979,-0.202668,-0.276903,-0.379677,0.387647,0.163752,-0.588336,34.385723,20.159714,11.901426,0.518583,1.909896,0.021835,0.000000,0.000000,0.000000,0.000000,0.000000,0.000000
11963486.000000,2.301149,-1.030110,-1.866978,-1.459118,-0.992906,1.764776,0.483654,-0.005642,-0.367249,-0.195807,-0.271259,-0.372304,0.391578,0.164562,-0.588336,34.385723,20.008957,11.802244,0.464567,1.858627,0.015426,0.000000,0.000000,0.000000,0.000000,0.000000,0.000000
11963487.000000,2.301144,-1.030478,-1.867176,-1.459395,-0.993275,1.765180,0.483811,-0.003536,-0.367631,-0.197635,-0.275230,-0.366500,0.389580,0.160082,-0.635943,34.433331,20.008957,11.901426,0.416959,1.800033,0.067611,0.000000,0.000000,0.000000,0.000000,0.000000,0.000000
11963488.000000,2.301141,-1.030855,-1.867367,-1.459675,-0.993638,1.765582,0.483971,-0.001261,-0.366860,-0.197162,-0.273736,-0.375981,0.394891,0.158339,-0.711321,34.433331,19.937546,11.976805,0.405057,1.812850,0.054794,0.000000,0.000000,0.000000,0.000000,0.000000,0.000000
11963489.000000,2.301137,-1.031237,-1.867561,-1.459938,-0.994016,1.765968,0.484129,-0.002622,-0.367908,-0.196447,-0.266688,-0.378149,0.387009,0.161006,-0.786700,34.480938,19.862167,11.925230,0.446256,1.884261,0.061202,0.000000,0.000000,0.000000,0.000000,0.000000,0.000000
11963490.000000,2.301129,-1.031611,-1.867748,-1.460208,-0.994394,1.766358,0.484298,-0.005107,-0.371146,-0.193155,-0.269258,-0.374210,0.381770,0.164379,-0.810504,34.385723,19.790756,11.925230,0.482877,1.916305,0.028243,0.000000,0.000000,0.000000,0.000000,0.000000,0.000000
11963491.000000,2.301123,-1.031988,-1.867939,-1.460481,-0.994759,1.766757,0.484456,-0.006856,-0.370618,-0.193797,-0.267867,-0.370129,0.394405,0.164095,-0.834307,34.310345,19.715378,11.925230,0.482877,1.890670,0.100570,0.000000,0.000000,0.000000,0.000000,0.000000,0.000000
11963492.000000,2.301118,-1.032359,-1.868133,-1.460745,-0.995138,1.767166,0.484625,-0.007401,-0.380999,-0.195625,-0.266441,-0.375645,0.396417,0.164283,-0.885882,34.238934,19.691574,11.901426,0.476469,1.844894,0.034652,0.000000,0.000000,0.000000,0.000000,0.000000,0.000000
11963493.000000,2.301114,-1.032737,-1.868321,-1.461008,-0.995517,1.767579,0.484789,-0.007755,-0.375989,-0.195067,-0.263785,-0.374574,0.395189,0.165445,-0.933489,34.187359,19.592392,11.826048,0.440763,1.721298,0.048385,0.000000,0.000000,0.000000,0.000000,0.000000,0.000000
11963494.000000,2.301106,-1.033125,-1.868507,-1.461263,-0.995888,1.767976,0.484944,-0.009982,-0.381621,-0.191365,-0.265283,-0.370685,0.399693,0.164966,-0.909686,34.262737,19.497177,11.679258,0.452665,1.735030,0.094161,0.000000,0.000000,0.000000,0.000000,0.000000,0.000000
11963495.000000,2.301103,-1.033509,-1.868696,-1.461516,-0.996264,1.768370,0.485112,-0.009470,-0.382302,-0.188773,-0.259511,-0.371218,0.395390,0.163616,-0.961260,34.334148,19.520981,11.556273,0.446256,1.806442,0.048385,0.000000,0.000000,0.000000,0.000000,0.000000,0.000000
11963496.000000,2.301095,-1.033904,-1.868880,-1.461767,-0.996641,1.768766,0.485270,-0.008501,-0.385932,-0.186609,-0.254252,-0.367951,0.397556,0.159818,-0.909686,34.580120,19.421799,11.405516,0.446256,1.832076,0.087753,0.000000,0.000000,0.000000,0.000000,0.000000,0.000000
11963497.000000,2.301095,-1.034298,-1.869075,-1.462014,-0.997016,1.769168,0.485440,-0.005197,-0.386553,-0.188380,-0.248446,-0.370595,0.404857,0.164964,-0.961260,34.726910,19.469406,11.282530,0.464567,1.767074,0.021835,0.000000,0.000000,0.000000,0.000000,0.000000,0.000000
11963498.000000,2.301086,-1.034677,-1.869264,-1.462260,-0.997387,1.769584,0.485604,-0.005780,-0.387243,-0.188639,-0.244881,-0.370628,0.405592,0.164890,-0.885882,34.750713,19.469406,11.207151,0.422452,1.656295,0.041976,0.000000,0.000000,0.000000,0.000000,0.000000,0.000000
11963499.000000,2.301076,-1.035066,-1.869453,-1.462503,-0.997764,1.769986,0.485765,-0.006587,-0.387326,-0.188153,-0.245808,-0.372235,0.405840,0.162015,-0.786700,34.774517,19.445602,11.135740,0.410551,1.572067,0.067611,0.000000,0.000000,0.000000,0.000000,0.000000,0.000000
11963500.000000,2.301077,-1.035451,-1.869651,-1.462743,-0.998141,1.770380,0.485924,-0.004145,-0.384144,-0.188896,-0.244992,-0.374424,0.401797,0.162700,-0.810504,34.897503,19.469406,11.012754,0.458158,1.597701,0.107894,0.000000,0.000000,0.000000,0.000000,0.000000,0.000000
11963501.000000,2.301076,-1.035846,-1.869844,-1.462984,-0.998504,1.770772,0.486094,-0.002996,-0.386927,-0.192273,-0.242385,-0.369872,0.397295,0.166630,-0.810504,34.972881,19.469406,10.961180,0.446256,1.670028,0.074935,0.000000,0.000000,0.000000,0.000000,0.000000,0.000000
11963502.000000,2.301071,-1.036243,-1.870039,-1.463211,-0.998883,1.771158,0.486260,-0.003935,-0.389091,-0.190576,-0.236079,-0.376098,0.390177,0.169252,-0.735125,35.044292,19.445602,10.838194,0.440763,1.702071,0.034652,0.000000,0.000000,0.000000,0.000000,0.000000,0.000000
11963503.000000,2.301069,-1.036641,-1.870233,-1.463447,-0.999262,1.771554,0.486419,-0.003311,-0.390941,-0.191922,-0.234228,-0.380600,0.395850,0.163962,-0.711321,35.119671,19.520981,10.838194,0.434354,1.689254,0.061202,0.000000,0.000000,0.000000,0.000000,0.000000,0.000000
11963504.000000,2.301068,-1.037032,-1.870427,-1.463685,-0.999626,1.771952,0.486581,-0.002863,-0.386172,-0.192115,-0.233274,-0.373224,0.396248,0.168957,-0.687518,35.119671,19.568588,10.861998,0.386747,1.682845,0.067611,0.000000,0.000000,0.000000,0.000000,0.000000,0.000000
11963505.000000,2.301070,-1.037427,-1.870619,-1.463910,-1.000005,1.772356,0.486748,-0.001982,-0.388465,-0.190459,-0.227104,-0.376038,0.396745,0.169425,-0.687518,35.191082,19.544785,10.786619,0.339139,1.656295,0.061202,0.000000,0.000000,0.000000,0.000000,0.000000,0.000000
11963506.000000,2.301072,-1.037826,-1.870818,-1.464136,-1.000386,1.772750,0.486917,-0.000263,-0.388408,-0.195575,-0.228941,-0.387087,0.399881,0.170182,-0.735125,35.314068,19.643967,10.739012,0.362943,1.695663,0.041976,0.000000,0.000000,0.000000,0.000000,0.000000,0.000000
11963507.000000,2.301071,-1.038224,-1.871019,-1.464363,-1.000766,1.773142,0.487075,-0.000217,-0.391910,-0.195326,-0.231691,-0.381122,0.398200,0.172723,-0.735125,35.337872,19.739182,10.663633,0.405057,1.721298,0.100570,0.000000,0.000000,0.000000,0.000000,0.000000,0.000000
11963508.000000,2.301069,-1.038614,-1.871210,-1.464590,-1.001145,1.773541,0.487247,-0.000732,-0.390422,-0.197870,-0.230146,-0.383056,0.397672,0.174941,-0.711321,35.437054,19.715378,10.639830,0.369352,1.702071,0.048385,0.000000,0.000000,0.000000,0.000000,0.000000,0.000000
11963509.000000,2.301071,-1.039012,-1.871410,-1.464816,-1.001532,1.773937,0.487411,-0.000512,-0.392866,-0.196576,-0.226215,-0.387191,0.405389,0.173587,-0.711321,35.583843,19.766953,10.639830,0.393156,1.689254,0.081344,0.000000,0.000000,0.000000,0.000000,0.000000,0.000000
11963510.000000,2.301077,-1.039404,-1.871618,-1.465034,-1.001919,1.774336,0.487570,0.001405,-0.401256,-0.199733,-0.225393,-0.385437,0.408903,0.167890,-0.786700,35.683025,19.862167,10.592222,0.428861,1.670028,0.100570,0.000000,0.000000,0.000000,0.000000,0.000000,0.000000
11963511.000000,2.301081,-1.039799,-1.871822,-1.465254,-1.002300,1.774746,0.487739,0.002037,-0.401314,-0.202679,-0.220621,-0.387291,0.402308,0.170393,-0.834307,35.683025,19.985153,10.516844,0.405057,1.611434,0.041976,0.000000,0.000000,0.000000,0.000000,0.000000,0.000000
11963512.000000,2.301082,-1.040194,-1.872019,-1.465480,-1.002687,1.775138,0.487891,0.000791,-0.398762,-0.201685,-0.223212,-0.384956,0.401036,0.162959,-0.810504,35.607647,19.985153,10.540648,0.410551,1.605026,0.107894,0.000000,0.000000,0.000000,0.000000,0.000000,0.000000
11963513.000000,2.301090,-1.040580,-1.872213,-1.465696,-1.003083,1.775526,0.488062,0.005235,-0.398003,-0.201390,-0.220511,-0.384968,0.390162,0.163562,-0.885882,35.536236,19.985153,10.516844,0.482877,1.695663,0.054794,0.000000,0.000000,0.000000,0.000000,0.000000,0.000000
11963514.000000,2.301092,-1.040974,-1.872421,-1.465911,-1.003459,1.775913,0.488232,0.007545,-0.392282,-0.203453,-0.219033,-0.381572,0.390495,0.160926,-0.909686,35.413250,20.084335,10.393858,0.458158,1.735030,0.034652,0.000000,0.000000,0.000000,0.000000,0.000000,0.000000
11963515.000000,2.301096,-1.041366,-1.872626,-1.466126,-1.003848,1.776298,0.488386,0.006038,-0.394661,-0.199095,-0.218135,-0.384203,0.388217,0.161546,-0.933489,35.266460,20.084335,10.393858,0.434354,1.695663,0.094161,0.000000,0.000000,0.000000,0.000000,0.000000,0.000000
11963516.000000,2.301105,-1.041755,-1.872830,-1.466341,-1.004240,1.776692,0.488547,0.006128,-0.390773,-0.200073,-0.217382,-0.382135,0.389534,0.158214,-1.008868,35.119671,20.108139,10.393858,0.434354,1.670028,0.107894,0.000000,0.000000,0.000000,0.000000,0.000000,0.000000
11963517.000000,2.301107,-1.042146,-1.873033,-1.466548,-1.004618,1.777076,0.488715,0.006484,-0.392078,-0.199700,-0.211937,-0.384604,0.384997,0.161199,-0.961260,35.044292,20.084335,10.318480,0.410551,1.695663,0.061202,0.000000,0.000000,0.000000,0.000000,0.000000,0.000000
11963518.000000,2.301109,-1.042541,-1.873245,-1.466766,-1.005010,1.777451,0.488875,0.004135,-0.395160,-0.204361,-0.214571,-0.386597,0.376405,0.164476,-0.933489,35.044292,20.131943,10.393858,0.410551,1.721298,0.028243,0.000000,0.000000,0.000000,0.000000,0.000000,0.000000
11963519.000000,2.301118,-1.042938,-1.873448,-1.466978,-1.005397,1.777830,0.489030,0.007354,-0.398204,-0.203655,-0.210772,-0.392730,0.374740,0.164293,-0.985064,35.068096,20.131943,10.393858,0.446256,1.741439,0.081344,0.000000,0.000000,0.000000,0.000000,0.000000,0.000000
11963520.000000,2.301124,-1.043345,-1.873656,-1.467187,-1.005781,1.778205,0.489198,0.005417,-0.399077,-0.203830,-0.209042,-0.385260,0.375015,0.166506,-0.985064,35.191082,20.183517,10.417662,0.482877,1.727706,0.061202,0.000000,0.000000,0.000000,0.000000,0.000000,0.000000
11963521.000000,2.301127,-1.043731,-1.873857,-1.467398,-1.006167,1.778577,0.489362,0.002790,-0.397490,-0.199392,-0.207695,-0.391380,0.367959,0.165267,-0.933489,35.214886,20.159714,10.441465,0.458158,1.747848,0.081344,0.000000,0.000000,0.000000,0.000000,0.000000,0.000000
11963522.000000,2.301132,-1.044131,-1.874063,-1.467613,-1.006556,1.778951,0.489527,0.001035,-0.396022,-0.199894,-0.209139,-0.392691,0.382936,0.166659,-0.885882,35.266460,20.159714,10.441465,0.464567,1.741439,0.081344,0.000000,0.000000,0.000000,0.000000,0.000000,0.000000
11963523.000000,2.301137,-1.044528,-1.874272,-1.467823,-1.006936,1.779333,0.489697,0.003334,-0.399381,-0.197850,-0.210479,-0.385010,0.382028,0.169750,-0.862078,35.361675,20.183517,10.441465,0.386747,1.702071,0.048385,0.000000,0.000000,0.000000,0.000000,0.000000,0.000000
11963524.000000,2.301138,-1.044934,-1.874475,-1.468037,-1.007331,1.779711,0.489861,0.000870,-0.401029,-0.198290,-0.209111,-0.387000,0.374697,0.173158,-0.786700,35.413250,20.159714,10.493040,0.362943,1.702071,0.074935,0.000000,0.000000,0.000000,0.000000,0.000000,0.000000
11963525.000000,2.301134,-1.045336,-1.874680,-1.468247,-1.007723,1.780073,0.490028,0.000410,-0.399046,-0.200868,-0.213202,-0.383740,0.371253,0.171964,-0.635943,35.460857,20.131943,10.540648,0.339139,1.793624,0.087753,0.000000,0.000000,0.000000,0.000000,0.000000,0.000000
11963526.000000,2.301134,-1.045743,-1.874891,-1.468463,-1.008114,1.780442,0.490194,0.000927,-0.402497,-0.207594,-0.213294,-0.381750,0.369148,0.172169,-0.512957,35.583843,20.183517,10.540648,0.344633,1.858627,0.067611,0.000000,0.000000,0.000000,0.000000,0.000000,0.000000
11963527.000000,2.301134,-1.046150,-1.875099,-1.468679,-1.008505,1.780828,0.490367,-0.000435,-0.400075,-0.202797,-0.214501,-0.387657,0.376458,0.172498,-0.441546,35.655254,20.183517,10.592222,0.393156,1.786300,0.041976,0.000000,0.000000,0.000000,0.000000,0.000000,0.000000
11963528.000000,2.301131,-1.046556,-1.875304,-1.468894,-1.008903,1.781198,0.490528,-0.002147,-0.408474,-0.199722,-0.212207,-0.384569,0.377560,0.164308,-0.342364,35.706829,20.207321,10.639830,0.393156,1.747848,0.114303,0.000000,0.000000,0.000000,0.000000,0.000000,0.000000
11963529.000000,2.301124,-1.046963,-1.875509,-1.469110,-1.009305,1.781579,0.490704,-0.004610,-0.406309,-0.201821,-0.211459,-0.387542,0.375198,0.167246,-0.191607,35.829815,20.278732,10.616026,0.405057,1.773483,0.067611,0.000000,0.000000,0.000000,0.000000,0.000000,0.000000
11963530.000000,2.301113,-1.047383,-1.875715,-1.469331,-1.009697,1.781958,0.490871,-0.006896,-0.409419,-0.200698,-0.211940,-0.389425,0.375782,0.168109,-0.017047,36.048016,20.254929,10.616026,0.405057,1.760665,0.061202,0.000000,0.000000,0.000000,0.000000,0.000000,0.000000
11963531.000000,2.301111,-1.047791,-1.875923,-1.469550,-1.010097,1.782340,0.491033,-0.004402,-0.407320,-0.202483,-0.213016,-0.390139,0.371178,0.167492,-0.017047,36.194805,20.330307,10.639830,0.410551,1.727706,0.100570,0.000000,0.000000,0.000000,0.000000,0.000000,0.000000
11963532.000000,2.301105,-1.048209,-1.876133,-1.469761,-1.010493,1.782723,0.491204,-0.009974,-0.404369,-0.206342,-0.208757,-0.392948,0.372709,0.169854,0.030561,36.293987,20.377914,10.592222,0.446256,1.708480,0.067611,0.000000,0.000000,0.000000,0.000000,0.000000,0.000000
11963533.000000,2.301095,-1.048621,-1.876344,-1.469974,-1.010882,1.783097,0.491362,-0.009366,-0.403437,-0.205816,-0.208886,-0.392552,0.373561,0.166320,0.129743,36.416973,20.429489,10.540648,0.416959,1.702071,0.100570,0.000000,0.000000,0.000000,0.000000,0.000000,0.000000
11963534.000000,2.301084,-1.049035,-1.876552,-1.470190,-1.011276,1.783467,0.491538,-0.011580,-0.407766,-0.208918,-0.208947,-0.391404,0.366046,0.170306,0.205121,36.512188,20.477097,10.493040,0.369352,1.735030,0.009017,0.000000,0.000000,0.000000,0.000000,0.000000,0.000000
11963535.000000,2.301078,-1.049442,-1.876762,-1.470411,-1.011669,1.783839,0.491693,-0.011467,-0.404603,-0.208389,-0.211671,-0.393932,0.379198,0.169912,0.205121,36.488384,20.552475,10.540648,0.405057,1.727706,0.114303,0.000000,0.000000,0.000000,0.000000,0.000000,0.000000
11963536.000000,2.301069,-1.049855,-1.876976,-1.470624,-1.012063,1.784218,0.491869,-0.013243,-0.403567,-0.209308,-0.210438,-0.394105,0.372893,0.171891,0.276533,36.488384,20.671494,10.592222,0.422452,1.727706,0.067611,0.000000,0.000000,0.000000,0.000000,0.000000,0.000000
11963537.000000,2.301057,-1.050264,-1.877178,-1.470843,-1.012459,1.784592,0.492036,-0.012554,-0.400029,-0.207581,-0.213900,-0.405447,0.367427,0.170582,0.403486,36.488384,20.699265,10.592222,0.398649,1.741439,0.087753,0.000000,0.000000,0.000000,0.000000,0.000000,0.000000
11963538.000000,2.301050,-1.050680,-1.877389,-1.471057,-1.012856,1.784952,0.492201,-0.009493,-0.401275,-0.209006,-0.215049,-0.398988,0.362990,0.170654,0.427289,36.535992,20.723068,10.639830,0.416959,1.793624,0.087753,0.000000,0.000000,0.000000,0.000000,0.000000,0.000000
11963539.000000,2.301046,-1.051090,-1.877606,-1.471272,-1.013250,1.785322,0.492373,-0.006754,-0.404293,-0.213432,-0.215887,-0.393207,0.364617,0.172580,0.427289,36.658978,20.869858,10.691404,0.416959,1.825668,0.041976,0.000000,0.000000,0.000000,0.000000,0.000000,0.000000
11963540.000000,2.301035,-1.051508,-1.877827,-1.471483,-1.013640,1.785687,0.492529,-0.010402,-0.405397,-0.217116,-0.212640,-0.396597,0.375840,0.165112,0.526471,36.758160,21.040451,10.715208,0.362943,1.819259,0.114303,0.000000,0.000000,0.000000,0.000000,0.000000,0.000000
11963541.000000,2.301027,-1.051914,-1.878044,-1.471689,-1.014049,1.786051,0.492697,-0.011314,-0.400813,-0.217970,-0.208517,-0.396333,0.370080,0.168238,0.574079,36.881145,21.139633,10.663633,0.374845,1.825668,0.067611,0.000000,0.000000,0.000000,0.000000,0.000000,0.000000
11963542.000000,2.301023,-1.052320,-1.878271,-1.471904,-1.014453,1.786421,0.492868,-0.008155,-0.403002,-0.221165,-0.210761,-0.397422,0.369723,0.170449,0.574079,36.833538,21.337997,10.715208,0.405057,1.858627,0.028243,0.000000,0.000000,0.000000,0.000000,0.000000,0.000000
11963543.000000,2.301017,-1.052724,-1.878495,-1.472112,-1.014853,1.786792,0.493026,-0.006546,-0.397610,-0.218622,-0.214002,-0.397208,0.372636,0.165233,0.601850,36.758160,21.484787,10.739012,0.410551,1.832076,0.087753,0.000000,0.000000,0.000000,0.000000,0.000000,0.000000
11963544.000000,2.301011,-1.053126,-1.878715,-1.472319,-1.015263,1.787163,0.493192,-0.005822,-0.399615,-0.221955,-0.213864,-0.399231,0.367949,0.162651,0.649457,36.658978,21.631577,10.739012,0.494779,1.838485,0.061202,0.000000,0.000000,0.000000,0.000000,0.000000,0.000000
11963545.000000,2.301004,-1.053523,-1.878933,-1.472542,-1.015659,1.787527,0.493350,-0.005254,-0.392900,-0.223901,-0.215774,-0.400203,0.375856,0.158913,0.697065,36.488384,21.702988,10.838194,0.547880,1.890670,0.107894,0.000000,0.000000,0.000000,0.000000,0.000000,0.000000
11963546.000000,2.301003,-1.053929,-1.879163,-1.472752,-1.016054,1.787886,0.493518,-0.003696,-0.400925,-0.223841,-0.215611,-0.401140,0.368303,0.163952,0.697065,36.416973,21.849777,10.861998,0.494779,1.955673,0.061202,0.000000,0.000000,0.000000,0.000000,0.000000,0.000000
11963547.000000,2.300993,-1.054331,-1.879381,-1.472966,-1.016460,1.788252,0.493678,-0.004930,-0.398331,-0.221390,-0.212901,-0.400932,0.363935,0.165918,0.796247,36.270184,21.877548,10.913572,0.524076,1.974899,0.054794,0.000000,0.000000,0.000000,0.000000,0.000000,0.000000
11963548.000000,2.300994,-1.054742,-1.879603,-1.473169,-1.016842,1.788615,0.493830,-0.002839,-0.397243,-0.219716,-0.211901,-0.392062,0.364306,0.161222,0.772443,36.171001,21.925156,10.861998,0.452665,1.936446,0.120712,0.000000,0.000000,0.000000,0.000000,0.000000,0.000000
11963549.000000,2.300997,-1.055137,-1.879826,-1.473379,-1.017239,1.788982,0.493996,-0.000861,-0.396426,-0.220445,-0.211361,-0.395438,0.362835,0.165079,0.724836,36.048016,22.024338,10.814390,0.416959,1.930038,0.081344,0.000000,0.000000,0.000000,0.000000,0.000000,0.000000
11963550.000000,2.300997,-1.055540,-1.880047,-1.473591,-1.017632,1.789341,0.494164,-0.000635,-0.395975,-0.218754,-0.208613,-0.391823,0.353698,0.161985,0.724836,35.925030,22.048141,10.814390,0.446256,1.981307,0.061202,0.000000,0.000000,0.000000,0.000000,0.000000,0.000000
11963551.000000,2.300994,-1.055945,-1.880265,-1.473793,-1.018021,1.789696,0.494329,-0.001583,-0.394220,-0.218324,-0.205166,-0.384456,0.355186,0.160778,0.772443,35.877422,22.119553,10.739012,0.476469,1.974899,0.081344,0.000000,0.000000,0.000000,0.000000,0.000000,0.000000
11963552.000000,2.300987,-1.056348,-1.880481,-1.474006,-1.018420,1.790063,0.494491,-0.003967,-0.395673,-0.218090,-0.208159,-0.391428,0.354837,0.162013,0.895429,35.829815,22.171127,10.762815,0.470060,1.955673,0.100570,0.000000,0.000000,0.000000,0.000000,0.000000,0.000000
11963553.000000,2.300991,-1.056748,-1.880694,-1.474219,-1.018823,1.790419,0.494665,-0.001557,-0.392966,-0.216654,-0.206681,-0.393892,0.350439,0.164762,0.847822,35.778240,22.171127,10.762815,0.506681,1.968490,0.034652,0.000000,0.000000,0.000000,0.000000,0.000000,0.000000
11963554.000000,2.300993,-1.057155,-1.880910,-1.474421,-1.019223,1.790771,0.494828,-0.000500,-0.400133,-0.218202,-0.204220,-0.389131,0.346329,0.160925,0.824018,35.829815,22.147324,10.715208,0.524076,2.007858,0.041976,0.000000,0.000000,0.000000,0.000000,0.000000,0.000000
11963555.000000,2.300996,-1.057552,-1.881122,-1.474626,-1.019622,1.791130,0.494988,-0.000348,-0.394526,-0.216614,-0.203845,-0.405568,0.352997,0.157685,0.824018,35.683025,22.119553,10.739012,0.476469,2.027084,0.074935,0.000000,0.000000,0.000000,0.000000,0.000000,0.000000
11963556.000000,2.300995,-1.057959,-1.881333,-1.474820,-1.020028,1.791490,0.495149,-0.000800,-0.397687,-0.214250,-0.198268,-0.401663,0.363028,0.156467,0.847822,35.583843,22.048141,10.663633,0.440763,2.060043,0.067611,0.000000,0.000000,0.000000,0.000000,0.000000,0.000000
11963557.000000,2.301000,-1.058350,-1.881544,-1.475028,-1.020430,1.791857,0.495308,0.001222,-0.389216,-0.213509,-0.197728,-0.404826,0.361139,0.153716,0.772443,35.413250,22.000534,10.739012,0.446256,2.033492,0.094161,0.000000,0.000000,0.000000,0.000000,0.000000,0.000000
11963558.000000,2.301006,-1.058751,-1.881753,-1.475235,-1.020832,1.792218,0.495483,0.001922,-0.391942,-0.209417,-0.197497,-0.407172,0.369929,0.161111,0.724836,35.266460,21.948959,10.814390,0.440763,1.974899,0.009017,0.000000,0.000000,0.000000,0.000000,0.000000,0.000000
11963559.000000,2.300998,-1.059145,-1.881952,-1.475431,-1.021243,1.792581,0.495630,-0.002157,-0.399226,-0.204142,-0.198486,-0.403148,0.370834,0.155540,0.871625,35.143475,21.802170,10.814390,0.428861,1.988631,0.107894,0.000000,0.000000,0.000000,0.000000,0.000000,0.000000
11963560.000000,2.301005,-1.059559,-1.882150,-1.475633,-1.021662,1.792940,0.495794,-0.000328,-0.404366,-0.202110,-0.200345,-0.405038,0.369696,0.155323,0.824018,35.167278,21.726791,10.885801,0.524076,2.033492,0.081344,0.000000,0.000000,0.000000,0.000000,0.000000,0.000000
11963561.000000,2.301010,-1.059974,-1.882354,-1.475834,-1.022067,1.793304,0.495954,-0.000221,-0.401472,-0.203336,-0.203748,-0.408539,0.373421,0.154813,0.824018,35.314068,21.655380,10.937376,0.554288,1.981307,0.067611,0.000000,0.000000,0.000000,0.000000,0.000000,0.000000
11963562.000000,2.301013,-1.060390,-1.882547,-1.476032,-1.022472,1.793672,0.496122,-0.001263,-0.405368,-0.205032,-0.199772,-0.401889,0.372936,0.155817,0.871625,35.460857,21.508591,10.937376,0.488370,1.988631,0.015426,0.000000,0.000000,0.000000,0.000000,0.000000,0.000000
11963563.000000,2.301022,-1.060802,-1.882745,-1.476228,-1.022870,1.794045,0.496279,0.000270,-0.402547,-0.202224,-0.197299,-0.395124,0.376981,0.157399,0.824018,35.536236,21.409409,10.961180,0.476469,1.974899,0.061202,0.000000,0.000000,0.000000,0.000000,0.000000,0.000000
11963564.000000,2.301031,-1.061221,-1.882942,-1.476413,-1.023266,1.794419,0.496438,0.004120,-0.404073,-0.198075,-0.193966,-0.397284,0.374870,0.161146,0.796247,35.607647,21.361801,10.913572,0.398649,1.909896,0.067611,0.000000,0.000000,0.000000,0.000000,0.000000,0.000000
11963565.000000,2.301041,-1.061627,-1.883134,-1.476607,-1.023675,1.794790,0.496603,0.006857,-0.403563,-0.197047,-0.192576,-0.397420,0.374413,0.162948,0.772443,35.631451,21.262619,10.913572,0.393156,1.890670,0.074935,0.000000,0.000000,0.000000,0.000000,0.000000,0.000000
11963566.000000,2.301050,-1.062050,-1.883326,-1.476796,-1.024076,1.795156,0.496763,0.004493,-0.408615,-0.194294,-0.187458,-0.398019,0.370217,0.163612,0.796247,35.754436,21.215012,10.861998,0.410551,1.890670,0.107894,0.000000,0.000000,0.000000,0.000000,0.000000,0.000000
11963567.000000,2.301062,-1.062460,-1.883515,-1.476982,-1.024482,1.795526,0.496932,0.010252,-0.407694,-0.193551,-0.187875,-0.397179,0.367601,0.162090,0.772443,35.778240,21.215012,10.861998,0.422452,1.865035,0.054794,0.000000,0.000000,0.000000,0.000000,0.000000,0.000000
11963568.000000,2.301075,-1.062890,-1.883697,-1.477168,-1.024881,1.795891,0.497093,0.012500,-0.412306,-0.188016,-0.183834,-0.397890,0.364385,0.162329,0.697065,35.925030,21.016647,10.838194,0.446256,1.844894,0.100570,0.000000,0.000000,0.000000,0.000000,0.000000,0.000000
11963569.000000,2.301084,-1.063301,-1.883880,-1.477354,-1.025282,1.796252,0.497256,0.012461,-0.405745,-0.189292,-0.185114,-0.393557,0.362491,0.161623,0.697065,35.901226,20.917465,10.838194,0.476469,1.844894,0.107894,0.000000,0.000000,0.000000,0.000000,0.000000,0.000000
11963570.000000,2.301095,-1.063716,-1.884068,-1.477540,-1.025674,1.796621,0.497434,0.012593,-0.409214,-0.188845,-0.185598,-0.395177,0.361542,0.167027,0.673261,35.948833,20.869858,10.814390,0.393156,1.786300,0.009017,0.000000,0.000000,0.000000,0.000000,0.000000,0.000000
11963571.000000,2.301115,-1.064124,-1.884249,-1.477726,-1.026075,1.796979,0.497583,0.016010,-0.404720,-0.186385,-0.183215,-0.395108,0.361677,0.164137,0.526471,35.877422,20.746872,10.814390,0.386747,1.754256,0.114303,0.000000,0.000000,0.000000,0.000000,0.000000,0.000000
11963572.000000,2.301133,-1.064536,-1.884435,-1.477902,-1.026481,1.797323,0.497755,0.017564,-0.406923,-0.185976,-0.180383,-0.394650,0.352358,0.168915,0.403486,35.877422,20.671494,10.762815,0.393156,1.844894,0.054794,0.000000,0.000000,0.000000,0.000000,0.000000,0.000000
11963573.000000,2.301147,-1.064954,-1.884622,-1.478071,-1.026873,1.797675,0.497917,0.016614,-0.409460,-0.187337,-0.174958,-0.397181,0.345441,0.167487,0.375715,36.024212,20.671494,10.592222,0.315336,1.903487,0.100570,0.000000,0.000000,0.000000,0.000000,0.000000,0.000000
11963574.000000,2.301164,-1.065371,-1.884807,-1.478246,-1.027282,1.798030,0.498084,0.017671,-0.407934,-0.189297,-0.179073,-0.397016,0.345325,0.165448,0.276533,36.048016,20.600082,10.516844,0.320829,1.877853,0.048385,0.000000,0.000000,0.000000,0.000000,0.000000,0.000000
11963575.000000,2.301186,-1.065777,-1.884990,-1.478425,-1.027688,1.798384,0.498247,0.016798,-0.405296,-0.186273,-0.175696,-0.396581,0.349814,0.165872,0.105939,36.000408,20.600082,10.516844,0.327238,1.825668,0.074935,0.000000,0.000000,0.000000,0.000000,0.000000,0.000000
11963576.000000,2.301198,-1.066189,-1.885175,-1.478602,-1.028083,1.798747,0.498407,0.015224,-0.404927,-0.187292,-0.176262,-0.399892,0.361625,0.160965,0.105939,35.901226,20.600082,10.516844,0.285123,1.754256,0.107894,0.000000,0.000000,0.000000,0.000000,0.000000,0.000000
11963577.000000,2.301214,-1.066587,-1.885350,-1.478768,-1.028493,1.799105,0.498567,0.015423,-0.409134,-0.180747,-0.171719,-0.399392,0.360254,0.158691,0.054365,35.778240,20.429489,10.441465,0.303434,1.754256,0.107894,0.000000,0.000000,0.000000,0.000000,0.000000,0.000000
11963578.000000,2.301240,-1.066991,-1.885538,-1.478940,-1.028915,1.799457,0.498732,0.022153,-0.405404,-0.186715,-0.171603,-0.401204,0.350474,0.162301,-0.144000,35.536236,20.429489,10.393858,0.369352,1.825668,0.081344,0.000000,0.000000,0.000000,0.000000,0.000000,0.000000
11963579.000000,2.301262,-1.067397,-1.885724,-1.479109,-1.029323,1.799811,0.498900,0.021565,-0.403273,-0.189507,-0.168700,-0.405154,0.352196,0.166507,-0.243182,35.314068,20.401718,10.342283,0.386747,1.838485,0.034652,0.000000,0.000000,0.000000,0.000000,0.000000,0.000000
11963580.000000,2.301276,-1.067801,-1.885907,-1.479269,-1.029746,1.800171,0.499059,0.018373,-0.401586,-0.188490,-0.164881,-0.402778,0.347918,0.160501,-0.243182,35.091900,20.354111,10.219297,0.416959,1.858627,0.094161,0.000000,0.000000,0.000000,0.000000,0.000000,0.000000
11963581.000000,2.301298,-1.068203,-1.886098,-1.479436,-1.030155,1.800531,0.499229,0.021333,-0.399024,-0.191406,-0.162397,-0.400992,0.358975,0.163431,-0.314593,34.945110,20.330307,10.243101,0.416959,1.825668,0.094161,0.000000,0.000000,0.000000,0.000000,0.000000,0.000000
11963582.000000,2.301325,-1.068619,-1.886293,-1.479595,-1.030564,1.800893,0.499393,0.022167,-0.402738,-0.195006,-0.162998,-0.402647,0.361544,0.161529,-0.465350,34.873699,20.377914,10.243101,0.369352,1.741439,0.081344,0.000000,0.000000,0.000000,0.000000,0.000000,0.000000
11963583.000000,2.301342,-1.069026,-1.886478,-1.479754,-1.030987,1.801260,0.499561,0.018777,-0.406088,-0.191917,-0.161537,-0.405882,0.358688,0.163906,-0.441546,34.849895,20.306503,10.171690,0.374845,1.735030,0.067611,0.000000,0.000000,0.000000,0.000000,0.000000,0.000000
11963584.000000,2.301365,-1.069440,-1.886663,-1.479915,-1.031396,1.801615,0.499722,0.018440,-0.404543,-0.192312,-0.161811,-0.402187,0.356975,0.160385,-0.512957,34.826092,20.231125,10.143919,0.344633,1.773483,0.087753,0.000000,0.000000,0.000000,0.000000,0.000000,0.000000
11963585.000000,2.301381,-1.069845,-1.886854,-1.480070,-1.031817,1.801969,0.499887,0.018920,-0.406099,-0.192872,-0.161915,-0.408978,0.351735,0.164386,-0.465350,34.897503,20.278732,10.120115,0.339139,1.793624,0.048385,0.000000,0.000000,0.000000,0.000000,0.000000,0.000000
11963586.000000,2.301404,-1.070263,-1.887046,-1.480227,-1.032231,1.802330,0.500049,0.021618,-0.406228,-0.189268,-0.161695,-0.417961,0.352106,0.160631,-0.512957,34.945110,20.306503,10.096312,0.351041,1.800033,0.048385,0.000000,0.000000,0.000000,0.000000,0.000000,0.000000
11963587.000000,2.301425,-1.070675,-1.887236,-1.480380,-1.032644,1.802679,0.500203,0.019717,-0.405107,-0.190170,-0.159183,-0.412414,0.348428,0.160905,-0.540728,34.921307,20.231125,10.096312,0.356534,1.806442,0.100570,0.000000,0.000000,0.000000,0.000000,0.000000,0.000000
11963588.000000,2.301444,-1.071090,-1.887426,-1.480538,-1.033064,1.803039,0.500369,0.020955,-0.409446,-0.186240,-0.157404,-0.413378,0.345802,0.164706,-0.540728,34.996685,20.207321,10.096312,0.374845,1.754256,0.054794,0.000000,0.000000,0.000000,0.000000,0.000000,0.000000
11963589.000000,2.301460,-1.071502,-1.887618,-1.480697,-1.033484,1.803385,0.500524,0.020120,-0.406816,-0.189643,-0.155852,-0.419015,0.349253,0.159984,-0.465350,34.996685,20.183517,10.096312,0.393156,1.735030,0.094161,0.000000,0.000000,0.000000,0.000000,0.000000,0.000000
11963590.000000,2.301478,-1.071917,-1.887810,-1.480855,-1.033903,1.803746,0.500684,0.020935,-0.409825,-0.189097,-0.156647,-0.416512,0.350265,0.163983,-0.441546,35.044292,20.159714,10.171690,0.381254,1.767074,0.054794,0.000000,0.000000,0.000000,0.000000,0.000000,0.000000
11963591.000000,2.301494,-1.072335,-1.888003,-1.481007,-1.034323,1.804107,0.500842,0.017871,-0.415219,-0.191730,-0.153623,-0.420663,0.352180,0.165563,-0.389971,35.091900,20.131943,10.120115,0.369352,1.741439,0.048385,0.000000,0.000000,0.000000,0.000000,0.000000,0.000000
11963592.000000,2.301512,-1.072763,-1.888196,-1.481163,-1.034747,1.804462,0.500989,0.019005,-0.417059,-0.191468,-0.156500,-0.423470,0.350557,0.159269,-0.342364,35.191082,20.159714,10.171690,0.362943,1.689254,0.120712,0.000000,0.000000,0.000000,0.000000,0.000000,0.000000
11963593.000000,2.301527,-1.073179,-1.888381,-1.481316,-1.035166,1.804812,0.501140,0.019157,-0.419009,-0.186978,-0.157667,-0.416606,0.349528,0.151518,-0.266986,35.290264,20.131943,10.143919,0.381254,1.741439,0.120712,0.000000,0.000000,0.000000,0.000000,0.000000,0.000000
11963594.000000,2.301541,-1.073613,-1.888564,-1.481476,-1.035582,1.805166,0.501297,0.019159,-0.423896,-0.185834,-0.159783,-0.419779,0.358472,0.152586,-0.191607,35.460857,20.060532,10.171690,0.351041,1.754256,0.100570,0.000000,0.000000,0.000000,0.000000,0.000000,0.000000
11963595.000000,2.301558,-1.074034,-1.888753,-1.481631,-1.036008,1.805517,0.501457,0.020352,-0.432789,-0.189152,-0.156945,-0.418458,0.358862,0.154586,-0.167803,35.536236,20.036728,10.143919,0.356534,1.735030,0.054794,0.000000,0.000000,0.000000,0.000000,0.000000,0.000000
11963596.000000,2.301576,-1.074473,-1.888949,-1.481785,-1.036428,1.805868,0.501604,0.021325,-0.435860,-0.191509,-0.154113,-0.413729,0.357643,0.151359,-0.144000,35.754436,20.131943,10.096312,0.369352,1.714889,0.107894,0.000000,0.000000,0.000000,0.000000,0.000000,0.000000
11963597.000000,2.301592,-1.074906,-1.889135,-1.481930,-1.036847,1.806220,0.501762,0.021519,-0.436670,-0.193584,-0.150727,-0.417840,0.358388,0.152855,-0.092425,35.901226,20.131943,9.973326,0.344633,1.702071,0.067611,0.000000,0.000000,0.000000,0.000000,0.000000,0.000000
11963598.000000,2.301604,-1.075335,-1.889320,-1.482083,-1.037260,1.806575,0.501914,0.017121,-0.435300,-0.193184,-0.149283,-0.410976,0.355130,0.151678,0.006757,35.976604,20.084335,9.897947,0.327238,1.649886,0.087753,0.000000,0.000000,0.000000,0.000000,0.000000,0.000000
11963599.000000,2.301625,-1.075767,-1.889515,-1.482243,-1.037666,1.806923,0.502071,0.020055,-0.437284,-0.195070,-0.152234,-0.406809,0.352631,0.151806,-0.017047,36.048016,20.207321,9.874144,0.320829,1.637069,0.081344,0.000000,0.000000,0.000000,0.000000,0.000000,0.000000
11963600.000000,2.301639,-1.076209,-1.889718,-1.482393,-1.038086,1.807270,0.502225,0.019878,-0.433202,-0.192760,-0.151149,-0.409788,0.353016,0.151374,0.054365,36.147198,20.330307,9.822569,0.344633,1.656295,0.087753,0.000000,0.000000,0.000000,0.000000,0.000000,0.000000
11963601.000000,2.301656,-1.076639,-1.889903,-1.482544,-1.038504,1.807619,0.502381,0.020946,-0.436538,-0.192647,-0.149673,-0.410482,0.351156,0.151834,0.078168,36.242413,20.377914,9.751158,0.327238,1.695663,0.067611,0.000000,0.000000,0.000000,0.000000,0.000000,0.000000
11963602.000000,2.301669,-1.077077,-1.890099,-1.482700,-1.038912,1.807959,0.502530,0.016858,-0.435438,-0.189925,-0.150954,-0.411661,0.346868,0.154239,0.177350,36.341595,20.453293,9.774961,0.327238,1.735030,0.100570,0.000000,0.000000,0.000000,0.000000,0.000000,0.000000
11963603.000000,2.301689,-1.077512,-1.890297,-1.482849,-1.039334,1.808306,0.502690,0.019868,-0.435902,-0.192263,-0.151892,-0.410966,0.345936,0.157519,0.153547,36.488384,20.576279,9.798765,0.308927,1.714889,0.100570,0.000000,0.000000,0.000000,0.000000,0.000000,0.000000
11963604.000000,2.301705,-1.077948,-1.890503,-1.483000,-1.039743,1.808661,0.502855,0.017186,-0.429086,-0.193845,-0.151576,-0.422397,0.343973,0.158411,0.205121,36.587566,20.699265,9.798765,0.267728,1.682845,0.048385,0.000000,0.000000,0.000000,0.000000,0.000000,0.000000
11963605.000000,2.301729,-1.078382,-1.890709,-1.483148,-1.040150,1.809006,0.503003,0.017917,-0.429293,-0.194428,-0.148320,-0.415369,0.343019,0.156141,0.129743,36.635174,20.822250,9.798765,0.255826,1.676437,0.114303,0.000000,0.000000,0.000000,0.000000,0.000000,0.000000
11963606.000000,2.301750,-1.078807,-1.890910,-1.483298,-1.040577,1.809343,0.503162,0.017281,-0.428044,-0.196812,-0.145848,-0.421849,0.334221,0.156408,0.105939,36.635174,20.869858,9.798765,0.303434,1.689254,0.067611,0.000000,0.000000,0.000000,0.000000,0.000000,0.000000
11963607.000000,2.301769,-1.079243,-1.891115,-1.483441,-1.040997,1.809674,0.503319,0.019486,-0.427525,-0.200397,-0.145489,-0.421904,0.332984,0.160253,0.105939,36.635174,20.992844,9.727354,0.351041,1.760665,0.061202,0.000000,0.000000,0.000000,0.000000,0.000000,0.000000
11963608.000000,2.301790,-1.079660,-1.891330,-1.483595,-1.041413,1.810009,0.503467,0.021443,-0.428028,-0.202377,-0.149885,-0.413925,0.326930,0.157431,0.078168,36.535992,21.092026,9.850340,0.344633,1.838485,0.094161,0.000000,0.000000,0.000000,0.000000,0.000000,0.000000
11963609.000000,2.301813,-1.080094,-1.891535,-1.483744,-1.041847,1.810357,0.503623,0.022885,-0.426718,-0.202675,-0.151006,-0.419514,0.330962,0.156793,0.054365,36.488384,21.139633,9.897947,0.362943,1.779891,0.067611,0.000000,0.000000,0.000000,0.000000,0.000000,0.000000
11963610.000000,2.301837,-1.080525,-1.891742,-1.483895,-1.042265,1.810691,0.503777,0.024483,-0.425536,-0.203176,-0.156694,-0.423220,0.334180,0.155690,0.006757,36.416973,21.215012,9.921751,0.374845,1.754256,0.054794,0.000000,0.000000,0.000000,0.000000,0.000000,0.000000
11963611.000000,2.301856,-1.080958,-1.891950,-1.484046,-1.042682,1.811034,0.503935,0.024122,-0.424877,-0.206668,-0.156368,-0.423932,0.337135,0.159327,0.030561,36.365398,21.310226,9.973326,0.351041,1.812850,0.048385,0.000000,0.000000,0.000000,0.000000,0.000000,0.000000
11963612.000000,2.301879,-1.081392,-1.892159,-1.484192,-1.043105,1.811373,0.504096,0.021292,-0.424352,-0.209161,-0.150947,-0.425002,0.342833,0.157447,0.030561,36.341595,21.361801,9.949522,0.308927,1.858627,0.067611,0.000000,0.000000,0.000000,0.000000,0.000000,0.000000
11963613.000000,2.301899,-1.081825,-1.892373,-1.484340,-1.043536,1.811708,0.504256,0.022354,-0.434830,-0.208131,-0.148800,-0.422268,0.341156,0.161558,0.030561,36.317791,21.433212,9.997129,0.315336,1.884261,0.041976,0.000000,0.000000,0.000000,0.000000,0.000000,0.000000
11963614.000000,2.301921,-1.082257,-1.892584,-1.484486,-1.043967,1.812047,0.504411,0.020013,-0.434736,-0.211044,-0.146396,-0.425085,0.344288,0.153695,0.030561,36.270184,21.508591,10.020933,0.315336,1.890670,0.067611,0.000000,0.000000,0.000000,0.000000,0.000000,0.000000
11963615.000000,2.301936,-1.082692,-1.892801,-1.484638,-1.044394,1.812387,0.504562,0.018974,-0.431408,-0.210329,-0.148710,-0.422376,0.343264,0.148365,0.129743,36.218609,21.607773,10.072508,0.308927,1.890670,0.107894,0.000000,0.000000,0.000000,0.000000,0.000000,0.000000
11963616.000000,2.301950,-1.083122,-1.893006,-1.484789,-1.044827,1.812731,0.504721,0.018980,-0.433127,-0.211411,-0.149581,-0.420906,0.342219,0.151772,0.205121,36.218609,21.631577,10.096312,0.356534,1.890670,0.054794,0.000000,0.000000,0.000000,0.000000,0.000000,0.000000
11963617.000000,2.301970,-1.083556,-1.893222,-1.484940,-1.045252,1.813070,0.504873,0.020007,-0.432676,-0.210577,-0.148170,-0.429452,0.335083,0.150932,0.228925,36.147198,21.726791,10.171690,0.374845,1.877853,0.074935,0.000000,0.000000,0.000000,0.000000,0.000000,0.000000
11963618.000000,2.301984,-1.083997,-1.893428,-1.485092,-1.045687,1.813413,0.505028,0.018670,-0.434596,-0.207005,-0.150209,-0.425469,0.335821,0.151837,0.351911,36.147198,21.702988,10.243101,0.369352,1.884261,0.061202,0.000000,0.000000,0.000000,0.000000,0.000000,0.000000
11963619.000000,2.301999,-1.084417,-1.893631,-1.485237,-1.046122,1.813758,0.505182,0.018960,-0.427934,-0.206655,-0.146368,-0.422590,0.333711,0.151229,0.427289,35.948833,21.754562,10.219297,0.362943,1.903487,0.081344,0.000000,0.000000,0.000000,0.000000,0.000000,0.000000
11963620.000000,2.302017,-1.084853,-1.893838,-1.485391,-1.046556,1.814093,0.505341,0.017322,-0.431899,-0.207057,-0.149846,-0.430082,0.333685,0.149248,0.451093,35.877422,21.702988,10.318480,0.369352,1.942855,0.041976,0.000000,0.000000,0.000000,0.000000,0.000000,0.000000
11963621.000000,2.302033,-1.085279,-1.894049,-1.485535,-1.046989,1.814429,0.505492,0.014829,-0.425674,-0.206269,-0.148218,-0.427946,0.335033,0.147720,0.526471,35.778240,21.726791,10.243101,0.327238,1.949264,0.094161,0.000000,0.000000,0.000000,0.000000,0.000000,0.000000
11963622.000000,2.302041,-1.085726,-1.894248,-1.485686,-1.047415,1.814771,0.505652,0.010810,-0.428753,-0.203371,-0.149156,-0.431540,0.333915,0.154942,0.697065,35.853619,21.655380,10.270872,0.308927,1.955673,0.048385,0.000000,0.000000,0.000000,0.000000,0.000000,0.000000
