chaoyuefei/paper-gmrm-data/robot_logs/s2_dq_gmrm_xz_min_0.30_log_20260314_173213.csv
# time_ms,q_0,q_1,q_2,q_3,q_4,q_5,q_6,dq_0,dq_1,dq_2,dq_3,dq_4,dq_5,dq_6,tau_J_0,tau_J_1,tau_J_2,tau_J_3,tau_J_4,tau_J_5,tau_J_6,O_dP_EE_c_0,O_dP_EE_c_1,O_dP_EE_c_2,O_dP_EE_c_3,O_dP_EE_c_4,O_dP_EE_c_5
12195910.000000,-2.415956,-1.662596,1.042302,-1.355832,1.795769,1.080866,-0.548492,-0.000097,0.000573,0.000106,-0.000466,-0.000211,-0.000597,0.001522,-0.044818,41.530804,-21.000870,-5.673646,0.859159,1.344100,-0.017533,0.000000,0.000000,0.000000,0.000000,0.000000,0.000000
12195911.000000,-2.415956,-1.662599,1.042301,-1.355829,1.795768,1.080865,-0.548501,-0.000715,-0.000732,-0.000486,0.000803,-0.000785,-0.000660,-0.001901,-0.017047,41.578411,-20.977066,-5.721254,0.876554,1.350509,0.061202,0.000000,0.000000,0.000000,0.000000,0.000000,0.000000
12195912.000000,-2.415954,-1.662597,1.042301,-1.355831,1.795770,1.080865,-0.548496,0.000730,0.000069,-0.000324,-0.000021,0.000358,-0.000459,0.000191,-0.068621,41.554607,-20.977066,-5.697450,0.852750,1.350509,0.021835,0.000000,0.000000,0.000000,0.000000,0.000000,0.000000
12195913.000000,-2.415957,-1.662596,1.042304,-1.355833,1.795768,1.080867,-0.548491,-0.001277,0.000603,0.000898,-0.000571,0.000680,0.000155,0.001823,0.006757,41.530804,-21.024673,-5.673646,0.840848,1.337692,-0.023942,0.000000,0.000000,0.000000,0.000000,0.000000,0.000000
12195914.000000,-2.415952,-1.662602,1.042301,-1.355830,1.795769,1.080867,-0.548493,0.007905,-0.002760,-0.001072,-0.000938,0.000894,-0.000890,0.001724,0.304304,41.530804,-20.953262,-5.649843,0.828947,1.364242,-0.037675,0.000000,0.000000,0.000000,0.000000,0.000000,0.000000
12195915.000000,-2.415942,-1.662606,1.042302,-1.355828,1.795770,1.080859,-0.548515,0.018077,-0.006473,0.001879,0.001508,0.000187,-0.003114,-0.008808,1.292158,41.312603,-20.929459,-5.475282,0.727323,1.559249,-0.023942,0.000000,0.000000,0.000000,0.000000,0.000000,0.000000
12195916.000000,-2.415909,-1.662608,1.042314,-1.355824,1.795763,1.080860,-0.548549,0.023576,-0.005520,0.007856,0.002547,-0.005407,-0.004576,-0.016590,2.827497,40.919842,-20.929459,-5.253114,0.644010,1.767074,-0.011124,0.000000,0.000000,0.000000,0.000000,0.000000,0.000000
12195917.000000,-2.415866,-1.662604,1.042333,-1.355829,1.795746,1.080882,-0.548584,0.028726,-0.001614,0.014873,-0.002298,-0.011615,0.003110,-0.024189,4.735761,40.356487,-20.905655,-4.907960,0.608304,1.871444,-0.077042,0.000000,0.000000,0.000000,0.000000,0.000000,0.000000
12195918.000000,-2.415804,-1.662604,1.042350,-1.355842,1.795723,1.080929,-0.548648,0.033436,0.000202,0.014705,-0.009311,-0.017369,0.019711,-0.038708,6.616254,39.816936,-20.782669,-4.535036,0.601896,1.806442,-0.031266,0.000000,0.000000,0.000000,0.000000,0.000000,0.000000
12195919.000000,-2.415718,-1.662604,1.042379,-1.355871,1.795683,1.081011,-0.548721,0.048840,0.000332,0.019001,-0.015893,-0.024214,0.043097,-0.051134,8.250775,39.305157,-20.707291,-4.090700,0.667814,1.565658,-0.070634,0.000000,0.000000,0.000000,0.000000,0.000000,0.000000
12195920.000000,-2.415618,-1.662604,1.042419,-1.355913,1.795630,1.081106,-0.548818,0.061550,0.001868,0.026345,-0.026352,-0.035975,0.061847,-0.066009,9.682965,38.864788,-20.683487,-3.670168,0.698026,1.389877,-0.089860,0.000000,0.000000,0.000000,0.000000,0.000000,0.000000
12195921.000000,-2.415503,-1.662598,1.042466,-1.355963,1.795560,1.081215,-0.548947,0.074455,0.003487,0.030961,-0.034622,-0.049099,0.081152,-0.084701,10.972333,38.396648,-20.608109,-3.348818,0.721830,1.324874,-0.031266,0.000000,0.000000,0.000000,0.000000,0.000000,0.000000
12195922.000000,-2.415372,-1.662593,1.042519,-1.356023,1.795477,1.081346,-0.549082,0.089656,0.006617,0.036956,-0.042736,-0.064874,0.098092,-0.099551,12.035565,37.984051,-20.512894,-3.079042,0.685209,1.312057,-0.077042,0.000000,0.000000,0.000000,0.000000,0.000000,0.000000
12195923.000000,-2.415233,-1.662587,1.042586,-1.356097,1.795381,1.081494,-0.549236,0.104879,0.008438,0.046306,-0.051664,-0.073932,0.112197,-0.117551,13.027387,37.591290,-20.485123,-2.833071,0.571683,1.409103,-0.056901,0.000000,0.000000,0.000000,0.000000,0.000000,0.000000
12195924.000000,-2.415079,-1.662580,1.042665,-1.356181,1.795263,1.081656,-0.549404,0.118108,0.008769,0.056893,-0.066282,-0.091062,0.126170,-0.135859,13.892255,37.246136,-20.485123,-2.658510,0.506681,1.546432,-0.011124,0.000000,0.000000,0.000000,0.000000,0.000000,0.000000
12195925.000000,-2.414908,-1.662567,1.042765,-1.356283,1.795130,1.081854,-0.549575,0.136453,0.012805,0.067840,-0.077488,-0.102647,0.153254,-0.146144,14.534955,36.881145,-20.608109,-2.483949,0.405057,1.624252,-0.083451,0.000000,0.000000,0.000000,0.000000,0.000000,0.000000
12195926.000000,-2.414722,-1.662544,1.042878,-1.356394,1.794969,1.082087,-0.549760,0.150649,0.017096,0.081371,-0.088112,-0.119213,0.182178,-0.157154,15.106244,36.464581,-20.707291,-2.360964,0.381254,1.611434,-0.070634,0.000000,0.000000,0.000000,0.000000,0.000000,0.000000
12195927.000000,-2.414525,-1.662528,1.043004,-1.356530,1.794784,1.082350,-0.549940,0.171348,0.014753,0.094891,-0.103317,-0.138812,0.205625,-0.164057,15.578351,36.147198,-20.830276,-2.190370,0.440763,1.546432,-0.097184,0.000000,0.000000,0.000000,0.000000,0.000000,0.000000
12195928.000000,-2.414297,-1.662507,1.043147,-1.356685,1.794578,1.082645,-0.550137,0.186715,0.014807,0.109863,-0.119432,-0.156585,0.228592,-0.171335,15.824323,35.754436,-21.024673,-1.964235,0.488370,1.448470,-0.056901,0.000000,0.000000,0.000000,0.000000,0.000000,0.000000
12195929.000000,-2.414063,-1.662488,1.043302,-1.356849,1.794341,1.082947,-0.550328,0.200725,0.015767,0.123566,-0.134180,-0.182115,0.252715,-0.175638,16.169477,35.460857,-21.199234,-1.892824,0.554288,1.416427,-0.056901,0.000000,0.000000,0.000000,0.000000,0.000000,0.000000
12195930.000000,-2.413806,-1.662468,1.043467,-1.357031,1.794084,1.083285,-0.550505,0.219749,0.016649,0.134909,-0.146331,-0.205049,0.277769,-0.172340,16.296431,35.167278,-21.294449,-1.916628,0.596403,1.429244,-0.103593,0.000000,0.000000,0.000000,0.000000,0.000000,0.000000
12195931.000000,-2.413536,-1.662453,1.043636,-1.357228,1.793817,1.083637,-0.550699,0.235663,0.015100,0.147016,-0.163553,-0.220414,0.296772,-0.177850,16.443220,34.972881,-21.270645,-1.892824,0.571683,1.467696,-0.056901,0.000000,0.000000,0.000000,0.000000,0.000000,0.000000
12195932.000000,-2.413257,-1.662448,1.043822,-1.357438,1.793538,1.084007,-0.550883,0.249165,0.010306,0.159607,-0.178493,-0.236161,0.318500,-0.175699,16.641584,34.945110,-21.270645,-1.892824,0.547880,1.559249,-0.056901,0.000000,0.000000,0.000000,0.000000,0.000000,0.000000
12195933.000000,-2.412951,-1.662436,1.044006,-1.357660,1.793248,1.084401,-0.551063,0.267719,0.011943,0.165992,-0.199603,-0.248455,0.343950,-0.176492,16.617781,34.849895,-21.123856,-1.841249,0.446256,1.662704,-0.116410,0.000000,0.000000,0.000000,0.000000,0.000000,0.000000
12195934.000000,-2.412629,-1.662432,1.044212,-1.357913,1.792932,1.084820,-0.551254,0.285419,0.007994,0.177793,-0.214556,-0.270389,0.364965,-0.181190,16.641584,34.849895,-21.100052,-1.742067,0.344633,1.721298,-0.077042,0.000000,0.000000,0.000000,0.000000,0.000000,0.000000
12195935.000000,-2.412283,-1.662427,1.044424,-1.358180,1.792600,1.085266,-0.551436,0.308774,0.005910,0.184472,-0.229142,-0.287315,0.387994,-0.182531,16.518599,34.826092,-21.000870,-1.619081,0.339139,1.689254,-0.089860,0.000000,0.000000,0.000000,0.000000,0.000000,0.000000
12195936.000000,-2.411937,-1.662429,1.044643,-1.358460,1.792260,1.085738,-0.551615,0.322152,0.002845,0.193044,-0.244129,-0.298943,0.426819,-0.177765,16.566206,34.873699,-20.905655,-1.472292,0.297025,1.649886,-0.122819,0.000000,0.000000,0.000000,0.000000,0.000000,0.000000
12195937.000000,-2.411568,-1.662428,1.044880,-1.358759,1.791892,1.086238,-0.551800,0.334739,0.001353,0.207736,-0.260273,-0.320154,0.450018,-0.182399,16.490828,34.897503,-20.905655,-1.373109,0.362943,1.597701,-0.070634,0.000000,0.000000,0.000000,0.000000,0.000000,0.000000
12195938.000000,-2.411197,-1.662423,1.045117,-1.359067,1.791502,1.086759,-0.551980,0.344957,0.003232,0.224584,-0.274636,-0.338624,0.476193,-0.182335,16.566206,34.798321,-20.806473,-1.321535,0.434354,1.526290,-0.110001,0.000000,0.000000,0.000000,0.000000,0.000000,0.000000
12195939.000000,-2.410818,-1.662421,1.045375,-1.359376,1.791101,1.087299,-0.552164,0.350112,0.002162,0.237141,-0.288944,-0.348070,0.495523,-0.183074,16.816145,34.798321,-20.754898,-1.396913,0.476469,1.481429,-0.130143,0.000000,0.000000,0.000000,0.000000,0.000000,0.000000
12195940.000000,-2.410420,-1.662426,1.045639,-1.359707,1.790684,1.087861,-0.552352,0.371931,-0.000316,0.244669,-0.302522,-0.368997,0.517842,-0.182500,16.911360,34.873699,-20.659683,-1.448488,0.542386,1.481429,-0.056901,0.000000,0.000000,0.000000,0.000000,0.000000,0.000000
12195941.000000,-2.410020,-1.662417,1.045908,-1.360046,1.790261,1.088453,-0.552528,0.374169,0.002671,0.253958,-0.313496,-0.378840,0.539223,-0.180572,17.208906,34.750713,-20.560501,-1.496095,0.476469,1.494247,-0.136552,0.000000,0.000000,0.000000,0.000000,0.000000,0.000000
12195942.000000,-2.409595,-1.662420,1.046196,-1.360418,1.789825,1.089043,-0.552711,0.388359,0.000670,0.263386,-0.328792,-0.400028,0.555431,-0.183891,17.359663,34.798321,-20.560501,-1.396913,0.458158,1.500655,-0.077042,0.000000,0.000000,0.000000,0.000000,0.000000,0.000000
12195943.000000,-2.409160,-1.662416,1.046487,-1.360801,1.789368,1.089664,-0.552879,0.406138,0.001006,0.268364,-0.344851,-0.418488,0.572435,-0.178228,17.482649,34.774517,-20.485123,-1.226320,0.381254,1.481429,-0.130143,0.000000,0.000000,0.000000,0.000000,0.000000,0.000000
12195944.000000,-2.408713,-1.662412,1.046781,-1.361198,1.788893,1.090295,-0.553057,0.414866,0.001786,0.277883,-0.364173,-0.427853,0.593337,-0.176379,17.756392,34.726910,-20.389908,-1.000185,0.356534,1.396285,-0.122819,0.000000,0.000000,0.000000,0.000000,0.000000,0.000000
12195945.000000,-2.408248,-1.662408,1.047098,-1.361615,1.788417,1.090957,-0.553231,0.432793,0.001749,0.290343,-0.378120,-0.444033,0.612691,-0.175943,17.978559,34.703106,-20.413712,-0.754213,0.362943,1.331283,-0.089860,0.000000,0.000000,0.000000,0.000000,0.000000,0.000000
12195946.000000,-2.407780,-1.662400,1.047410,-1.362037,1.787911,1.091628,-0.553399,0.443883,0.002930,0.294161,-0.400756,-0.452180,0.634815,-0.172858,18.299910,34.627728,-20.314529,-0.555849,0.410551,1.312057,-0.122819,0.000000,0.000000,0.000000,0.000000,0.000000,0.000000
12195947.000000,-2.407294,-1.662393,1.047737,-1.362474,1.787399,1.092310,-0.553566,0.449610,0.002511,0.303867,-0.411959,-0.472105,0.650232,-0.172461,18.323713,34.603924,-20.215347,-0.456667,0.524076,1.324874,-0.116410,0.000000,0.000000,0.000000,0.000000,0.000000,0.000000
12195948.000000,-2.406813,-1.662381,1.048078,-1.362931,1.786879,1.093030,-0.553730,0.449772,0.005492,0.314139,-0.423913,-0.484600,0.675914,-0.170753,17.728621,34.580120,-19.997147,-0.607423,0.655912,1.292831,-0.142960,0.000000,0.000000,0.000000,0.000000,0.000000,0.000000
12195949.000000,-2.406331,-1.662364,1.048442,-1.363402,1.786351,1.093744,-0.553900,0.451708,0.008481,0.335983,-0.440229,-0.494773,0.684013,-0.166438,16.443220,34.385723,-19.699600,-0.877199,0.786832,1.357833,-0.116410,0.000000,0.000000,0.000000,0.000000,0.000000,0.000000
12195950.000000,-2.405854,-1.662352,1.048832,-1.363893,1.785831,1.094497,-0.554057,0.456085,0.008560,0.353269,-0.451193,-0.499603,0.700429,-0.160998,14.685712,34.139751,-19.211624,-1.321535,0.852750,1.409103,-0.155778,0.000000,0.000000,0.000000,0.000000,0.000000,0.000000
12195951.000000,-2.405389,-1.662337,1.049244,-1.364388,1.785309,1.095270,-0.554224,0.460847,0.008494,0.383964,-0.465024,-0.500713,0.722467,-0.159816,12.753644,33.746990,-18.596695,-1.742067,0.786832,1.442062,-0.116410,0.000000,0.000000,0.000000,0.000000,0.000000,0.000000
12195952.000000,-2.404930,-1.662327,1.049685,-1.364889,1.784804,1.096043,-0.554387,0.460218,0.009004,0.401760,-0.473878,-0.505544,0.733635,-0.162337,10.873151,33.306622,-17.957962,-2.237978,0.608304,1.383468,-0.116410,0.000000,0.000000,0.000000,0.000000,0.000000,0.000000
12195953.000000,-2.404484,-1.662321,1.050156,-1.365401,1.784311,1.096830,-0.554546,0.461870,0.006800,0.420755,-0.477082,-0.497105,0.741998,-0.162753,9.163251,32.965435,-17.319229,-2.606935,0.362943,1.266280,-0.155778,0.000000,0.000000,0.000000,0.000000,0.000000,0.000000
12195954.000000,-2.404037,-1.662320,1.050644,-1.365905,1.783827,1.097610,-0.554721,0.456094,0.005859,0.439456,-0.485887,-0.483291,0.767903,-0.162701,7.778669,32.719463,-16.855057,-2.880678,0.112089,1.169235,-0.070634,0.000000,0.000000,0.000000,0.000000,0.000000,0.000000
12195955.000000,-2.403581,-1.662325,1.051131,-1.366400,1.783338,1.098412,-0.554882,0.454890,0.000344,0.446771,-0.483681,-0.480503,0.775392,-0.162983,6.465497,32.548870,-16.240128,-3.249635,0.010465,0.999862,-0.103593,0.000000,0.000000,0.000000,0.000000,0.000000,0.000000
12195956.000000,-2.403133,-1.662335,1.051634,-1.366903,1.782844,1.099214,-0.555049,0.453914,-0.003934,0.469395,-0.486384,-0.478152,0.780910,-0.164853,5.326887,32.402081,-15.676773,-3.448000,-0.001437,0.798446,-0.097184,0.000000,0.000000,0.000000,0.000000,0.000000,0.000000
12195957.000000,-2.402681,-1.662339,1.052137,-1.367374,1.782347,1.099980,-0.555217,0.451312,-0.004798,0.482088,-0.481884,-0.478950,0.769063,-0.162755,4.311262,32.156109,-15.161026,-3.769350,0.141385,0.785628,-0.056901,0.000000,0.000000,0.000000,0.000000,0.000000,0.000000
12195958.000000,-2.402234,-1.662344,1.052630,-1.367846,1.781852,1.100747,-0.555366,0.459983,-0.005402,0.480251,-0.474986,-0.479646,0.761333,-0.161611,3.422590,31.910137,-14.498489,-4.066896,0.303434,0.863448,-0.130143,0.000000,0.000000,0.000000,0.000000,0.000000,0.000000
12195959.000000,-2.401781,-1.662353,1.053132,-1.368312,1.781370,1.101512,-0.555528,0.456533,-0.004023,0.485924,-0.475723,-0.474836,0.762958,-0.158786,2.680707,31.715740,-13.958939,-4.289064,0.362943,0.901900,-0.122819,0.000000,0.000000,0.000000,0.000000,0.000000,0.000000
12195960.000000,-2.401316,-1.662364,1.053636,-1.368781,1.780891,1.102267,-0.555686,0.456760,-0.004479,0.490880,-0.469726,-0.486726,0.760670,-0.160078,1.962629,31.592754,-13.443192,-4.364442,0.422452,0.908309,-0.136552,0.000000,0.000000,0.000000,0.000000,0.000000,0.000000
12195961.000000,-2.400861,-1.662373,1.054145,-1.369266,1.780417,1.103028,-0.555847,0.457151,-0.004046,0.493382,-0.471662,-0.480089,0.757199,-0.157641,1.367536,31.445965,-13.026627,-4.166078,0.374845,0.928451,-0.142960,0.000000,0.000000,0.000000,0.000000,0.000000,0.000000
12195962.000000,-2.400385,-1.662375,1.054653,-1.369748,1.779961,1.103768,-0.556008,0.461347,-0.001290,0.498822,-0.478219,-0.469454,0.751393,-0.156582,0.649457,31.199993,-12.633865,-3.844728,0.243009,0.954086,-0.122819,0.000000,0.000000,0.000000,0.000000,0.000000,0.000000
12195963.000000,-2.399912,-1.662378,1.055171,-1.370240,1.779500,1.104525,-0.556164,0.462080,0.000363,0.505498,-0.483642,-0.468131,0.756608,-0.155028,0.078168,30.957989,-12.288712,-3.424196,0.166105,0.974227,-0.122819,0.000000,0.000000,0.000000,0.000000,0.000000,0.000000
12195964.000000,-2.399439,-1.662374,1.055686,-1.370713,1.779048,1.105288,-0.556319,0.462159,0.002180,0.510566,-0.494809,-0.460550,0.762075,-0.152901,-0.465350,30.688213,-12.042740,-3.126650,0.064481,0.954086,-0.142960,0.000000,0.000000,0.000000,0.000000,0.000000,0.000000
12195965.000000,-2.398973,-1.662363,1.056215,-1.371177,1.778594,1.106038,-0.556477,0.458072,0.005195,0.514758,-0.484857,-0.465749,0.753742,-0.153795,-0.862078,30.343060,-11.796768,-3.055238,0.052579,0.889083,-0.110001,0.000000,0.000000,0.000000,0.000000,0.000000,0.000000
12195966.000000,-2.398508,-1.662348,1.056757,-1.371647,1.778136,1.106791,-0.556624,0.461225,0.007708,0.525768,-0.477534,-0.456954,0.750941,-0.156586,-1.183428,29.978069,-11.649979,-2.979860,0.076383,0.941268,-0.142960,0.000000,0.000000,0.000000,0.000000,0.000000,0.000000
12195967.000000,-2.398040,-1.662325,1.057290,-1.372089,1.777685,1.107533,-0.556785,0.458637,0.014320,0.527178,-0.464710,-0.450983,0.749390,-0.156607,-1.429400,29.537701,-11.479385,-3.102846,0.129484,1.025497,-0.097184,0.000000,0.000000,0.000000,0.000000,0.000000,0.000000
12195968.000000,-2.397566,-1.662311,1.057848,-1.372534,1.777235,1.108297,-0.556929,0.460271,0.015574,0.534777,-0.456374,-0.455786,0.751460,-0.151669,-1.651568,29.244122,-11.380203,-3.277406,0.219205,1.039230,-0.188737,0.000000,0.000000,0.000000,0.000000,0.000000,0.000000
12195969.000000,-2.397103,-1.662296,1.058395,-1.372965,1.776778,1.109061,-0.557094,0.461252,0.014687,0.550469,-0.447208,-0.449217,0.757690,-0.154205,-1.849932,28.898968,-11.158035,-3.499574,0.315336,1.031905,-0.116410,0.000000,0.000000,0.000000,0.000000,0.000000,0.000000
12195970.000000,-2.396616,-1.662277,1.058965,-1.373416,1.776331,1.109810,-0.557250,0.468553,0.017038,0.558324,-0.444363,-0.449337,0.748774,-0.153667,-2.222857,28.557781,-11.110428,-3.570986,0.351041,1.006271,-0.103593,0.000000,0.000000,0.000000,0.000000,0.000000,0.000000
12195971.000000,-2.396134,-1.662263,1.059547,-1.373852,1.775895,1.110579,-0.557397,0.475164,0.015912,0.566421,-0.440842,-0.448971,0.752224,-0.150646,-2.619586,28.339581,-10.963638,-3.670168,0.297025,0.928451,-0.163102,0.000000,0.000000,0.000000,0.000000,0.000000,0.000000
12195972.000000,-2.395641,-1.662248,1.060131,-1.374293,1.775463,1.111336,-0.557559,0.476125,0.014836,0.571296,-0.442367,-0.438180,0.754746,-0.152351,-3.063921,28.141216,-10.888260,-3.622560,0.189908,0.882674,-0.116410,0.000000,0.000000,0.000000,0.000000,0.000000,0.000000
12195973.000000,-2.395146,-1.662243,1.060722,-1.374739,1.775043,1.112089,-0.557708,0.480879,0.012751,0.579575,-0.444285,-0.437887,0.752345,-0.151457,-3.484454,28.141216,-10.741470,-3.547182,0.100187,0.824081,-0.130143,0.000000,0.000000,0.000000,0.000000,0.000000,0.000000
12195974.000000,-2.394656,-1.662241,1.061329,-1.375178,1.774618,1.112843,-0.557853,0.484495,0.007976,0.595918,-0.439644,-0.428058,0.750795,-0.150723,-3.881182,28.165020,-10.646255,-3.570986,-0.037142,0.850631,-0.142960,0.000000,0.000000,0.000000,0.000000,0.000000,0.000000
12195975.000000,-2.394158,-1.662232,1.061938,-1.375607,1.774193,1.113571,-0.558011,0.483752,0.006455,0.601288,-0.438008,-0.424254,0.738327,-0.157511,-4.202532,28.117413,-10.618484,-3.523378,-0.121371,0.966903,-0.083451,0.000000,0.000000,0.000000,0.000000,0.000000,0.000000
12195976.000000,-2.393661,-1.662232,1.062565,-1.376028,1.773770,1.114311,-0.558156,0.499754,0.003764,0.606485,-0.427811,-0.421599,0.733080,-0.154224,-4.623065,28.141216,-10.570877,-3.670168,-0.091158,1.096908,-0.122819,0.000000,0.000000,0.000000,0.000000,0.000000,0.000000
12195977.000000,-2.393155,-1.662229,1.063191,-1.376450,1.773328,1.115066,-0.558304,0.501144,0.002523,0.614268,-0.430122,-0.428212,0.736784,-0.151403,-4.995989,28.141216,-10.523270,-3.721742,-0.013339,1.149093,-0.163102,0.000000,0.000000,0.000000,0.000000,0.000000,0.000000
12195978.000000,-2.392644,-1.662232,1.063829,-1.376867,1.772884,1.115799,-0.558462,0.505014,0.000486,0.619363,-0.425353,-0.434470,0.731921,-0.157910,-5.392718,28.192791,-10.523270,-3.920107,0.147794,1.175643,-0.089860,0.000000,0.000000,0.000000,0.000000,0.000000,0.000000
12195979.000000,-2.392149,-1.662235,1.064492,-1.377293,1.772464,1.116545,-0.558604,0.501969,-0.000225,0.630247,-0.425651,-0.431505,0.733189,-0.157450,-5.686297,28.216595,-10.618484,-3.967714,0.178007,1.149093,-0.175919,0.000000,0.000000,0.000000,0.000000,0.000000,0.000000
12195980.000000,-2.391639,-1.662243,1.065157,-1.377713,1.772026,1.117286,-0.558753,0.500515,-0.002372,0.640679,-0.426547,-0.431069,0.735848,-0.155245,-6.011614,28.311810,-10.816849,-3.967714,0.225614,1.117049,-0.188737,0.000000,0.000000,0.000000,0.000000,0.000000,0.000000
12195981.000000,-2.391132,-1.662252,1.065838,-1.378132,1.771602,1.118035,-0.558909,0.498978,-0.004454,0.651606,-0.424847,-0.424835,0.742011,-0.152984,-6.281390,28.434795,-10.963638,-4.043092,0.237516,1.104232,-0.097184,0.000000,0.000000,0.000000,0.000000,0.000000,0.000000
12195982.000000,-2.390636,-1.662266,1.066512,-1.378544,1.771188,1.118788,-0.559049,0.499269,-0.007606,0.659580,-0.429546,-0.418795,0.741502,-0.150839,-6.455950,28.633160,-10.916031,-4.066896,0.135892,1.077682,-0.130143,0.000000,0.000000,0.000000,0.000000,0.000000,0.000000
12195983.000000,-2.390129,-1.662279,1.067204,-1.378954,1.770760,1.119526,-0.559198,0.500197,-0.009616,0.671573,-0.424125,-0.425310,0.740092,-0.151417,-6.701922,28.827557,-10.916031,-4.166078,0.123990,1.090499,-0.116410,0.000000,0.000000,0.000000,0.000000,0.000000,0.000000
12195984.000000,-2.389639,-1.662295,1.067906,-1.379364,1.770353,1.120273,-0.559338,0.498755,-0.017255,0.676805,-0.417522,-0.417988,0.734695,-0.149457,-6.801104,29.021954,-10.793045,-4.213686,0.052579,1.162826,-0.163102,0.000000,0.000000,0.000000,0.000000,0.000000,0.000000
12195985.000000,-2.389130,-1.662305,1.068607,-1.379768,1.769945,1.121004,-0.559489,0.500586,-0.017408,0.684590,-0.415049,-0.413629,0.730986,-0.149812,-7.023272,29.121136,-10.693863,-4.312868,0.010465,1.188461,-0.155778,0.000000,0.000000,0.000000,0.000000,0.000000,0.000000
12195986.000000,-2.388626,-1.662315,1.069317,-1.380176,1.769529,1.121763,-0.559641,0.498324,-0.014573,0.692852,-0.408526,-0.406986,0.737256,-0.151872,-7.221636,29.220318,-10.447891,-4.312868,0.040677,1.071273,-0.103593,0.000000,0.000000,0.000000,0.000000,0.000000,0.000000
12195987.000000,-2.388125,-1.662328,1.070024,-1.380581,1.769107,1.122520,-0.559784,0.497081,-0.014192,0.710674,-0.407866,-0.404167,0.744219,-0.149950,-7.420001,29.390911,-10.201920,-4.289064,0.123990,0.987045,-0.142960,0.000000,0.000000,0.000000,0.000000,0.000000,0.000000
12195988.000000,-2.387609,-1.662340,1.070748,-1.380987,1.768687,1.123251,-0.559928,0.503175,-0.012146,0.713780,-0.406552,-0.416204,0.737089,-0.148571,-7.717547,29.490093,-9.908340,-4.312868,0.166105,0.993453,-0.182328,0.000000,0.000000,0.000000,0.000000,0.000000,0.000000
12195989.000000,-2.387105,-1.662343,1.071482,-1.381400,1.768270,1.123985,-0.560078,0.501623,-0.011434,0.714211,-0.407594,-0.414256,0.728452,-0.151781,-7.963519,29.490093,-9.614761,-4.340639,0.195402,1.071273,-0.116410,0.000000,0.000000,0.000000,0.000000,0.000000,0.000000
12195990.000000,-2.386602,-1.662343,1.072214,-1.381792,1.767859,1.124721,-0.560217,0.501116,-0.006877,0.721296,-0.403043,-0.410061,0.736354,-0.145042,-8.114276,29.438519,-9.317215,-4.487428,0.159696,1.071273,-0.155778,0.000000,0.000000,0.000000,0.000000,0.000000,0.000000
12195991.000000,-2.386099,-1.662343,1.072964,-1.382194,1.767446,1.125483,-0.560356,0.496782,-0.006310,0.727536,-0.405727,-0.414790,0.741761,-0.146368,-8.213458,29.367107,-9.047440,-4.535036,0.147794,0.941268,-0.136552,0.000000,0.000000,0.000000,0.000000,0.000000,0.000000
12195992.000000,-2.385599,-1.662340,1.073736,-1.382585,1.767050,1.126237,-0.560499,0.497835,-0.002400,0.740526,-0.401194,-0.407231,0.748557,-0.143171,-8.360248,29.267925,-8.999832,-4.709596,0.034269,0.941268,-0.122819,0.000000,0.000000,0.000000,0.000000,0.000000,0.000000
12195993.000000,-2.385105,-1.662333,1.074502,-1.382974,1.766652,1.126981,-0.560636,0.498356,0.001449,0.751290,-0.396882,-0.400569,0.744752,-0.139160,-8.435626,29.121136,-8.876846,-4.808778,-0.031649,0.966903,-0.155778,0.000000,0.000000,0.000000,0.000000,0.000000,0.000000
12195994.000000,-2.384603,-1.662328,1.075282,-1.383367,1.766254,1.127745,-0.560778,0.495207,0.003554,0.760597,-0.394195,-0.402224,0.748634,-0.138630,-8.558612,28.998150,-8.753860,-4.832582,-0.025240,0.934859,-0.122819,0.000000,0.000000,0.000000,0.000000,0.000000,0.000000
12195995.000000,-2.384116,-1.662321,1.076070,-1.383747,1.765850,1.128508,-0.560913,0.492868,0.005587,0.770896,-0.392163,-0.398260,0.752431,-0.135153,-8.534808,28.851360,-8.706253,-4.907960,-0.025240,0.889083,-0.163102,0.000000,0.000000,0.000000,0.000000,0.000000,0.000000
12195996.000000,-2.383630,-1.662309,1.076893,-1.384128,1.765453,1.129260,-0.561057,0.488118,0.008666,0.788700,-0.386453,-0.401667,0.754350,-0.138952,-8.534808,28.633160,-8.876846,-5.007143,-0.049044,0.857040,-0.149369,0.000000,0.000000,0.000000,0.000000,0.000000,0.000000
12195997.000000,-2.383149,-1.662295,1.077724,-1.384505,1.765069,1.130017,-0.561201,0.487085,0.009089,0.798315,-0.384394,-0.397357,0.748299,-0.138526,-8.459430,28.486370,-8.999832,-5.153932,-0.067355,0.857040,-0.110001,0.000000,0.000000,0.000000,0.000000,0.000000,0.000000
12195998.000000,-2.382663,-1.662290,1.078542,-1.384878,1.764674,1.130757,-0.561336,0.487885,0.008793,0.806675,-0.380961,-0.391876,0.745133,-0.134820,-8.312640,28.633160,-9.317215,-5.253114,-0.055453,0.869857,-0.155778,0.000000,0.000000,0.000000,0.000000,0.000000,0.000000
12195999.000000,-2.382182,-1.662281,1.079361,-1.385255,1.764288,1.131512,-0.561476,0.482512,0.010878,0.803252,-0.378747,-0.388725,0.743400,-0.135539,-8.015094,28.974346,-9.832962,-5.304689,-0.007845,0.987045,-0.116410,0.000000,0.000000,0.000000,0.000000,0.000000,0.000000
12196000.000000,-2.381702,-1.662270,1.080155,-1.385624,1.763913,1.132266,-0.561612,0.480991,0.010453,0.797912,-0.384013,-0.377591,0.746384,-0.133929,-7.693743,29.561504,-10.594681,-5.399904,-0.043551,1.136276,-0.130143,0.000000,0.000000,0.000000,0.000000,0.000000,0.000000
12196001.000000,-2.381218,-1.662265,1.080952,-1.386010,1.763526,1.133015,-0.561751,0.477990,0.009912,0.795690,-0.384979,-0.383972,0.741821,-0.132285,-7.197833,30.343060,-11.503189,-5.304689,0.004056,1.220504,-0.163102,0.000000,0.000000,0.000000,0.000000,0.000000,0.000000
12196002.000000,-2.380739,-1.662247,1.081740,-1.386399,1.763150,1.133789,-0.561897,0.474771,0.010412,0.791184,-0.384807,-0.378988,0.749449,-0.138252,-6.701922,31.128582,-12.459305,-5.229311,0.076383,1.220504,-0.130143,0.000000,0.000000,0.000000,0.000000,0.000000,0.000000
12196003.000000,-2.380250,-1.662227,1.082517,-1.386790,1.762779,1.134552,-0.562039,0.477845,0.008335,0.789819,-0.385783,-0.369937,0.775925,-0.140250,-6.281390,31.910137,-13.391617,-4.983339,0.129484,1.220504,-0.149369,0.000000,0.000000,0.000000,0.000000,0.000000,0.000000
12196004.000000,-2.379758,-1.662206,1.083304,-1.387186,1.762404,1.135315,-0.562176,0.477493,0.008350,0.783270,-0.385119,-0.378404,0.767625,-0.141974,-5.884661,32.644085,-14.375504,-4.757204,0.171598,1.305648,-0.175919,0.000000,0.000000,0.000000,0.000000,0.000000,0.000000
12196005.000000,-2.379276,-1.662175,1.084082,-1.387573,1.762020,1.136067,-0.562324,0.480080,0.013114,0.801588,-0.386832,-0.372407,0.764153,-0.141219,-5.487933,33.183636,-15.184830,-4.562807,0.213712,1.448470,-0.130143,0.000000,0.000000,0.000000,0.000000,0.000000,0.000000
12196006.000000,-2.378791,-1.662151,1.084869,-1.387972,1.761628,1.136809,-0.562466,0.478635,0.016115,0.797213,-0.390488,-0.377441,0.754379,-0.142764,-5.142779,33.746990,-15.799759,-4.412050,0.303434,1.565658,-0.149369,0.000000,0.000000,0.000000,0.000000,0.000000,0.000000
12196007.000000,-2.378316,-1.662121,1.085663,-1.388365,1.761237,1.137568,-0.562602,0.482619,0.021626,0.799932,-0.387278,-0.378067,0.751774,-0.138906,-4.821429,34.163555,-16.339310,-4.340639,0.374845,1.630660,-0.182328,0.000000,0.000000,0.000000,0.000000,0.000000,0.000000
12196008.000000,-2.377840,-1.662094,1.086469,-1.388746,1.760847,1.138315,-0.562741,0.478901,0.022197,0.806197,-0.386231,-0.379534,0.749816,-0.137625,-4.476275,34.580120,-17.001846,-4.388246,0.374845,1.721298,-0.163102,0.000000,0.000000,0.000000,0.000000,0.000000,0.000000
12196009.000000,-2.377364,-1.662067,1.087286,-1.389137,1.760456,1.139058,-0.562874,0.474092,0.023455,0.813090,-0.386492,-0.387251,0.746700,-0.139637,-4.202532,34.945110,-17.589005,-4.412050,0.362943,1.735030,-0.175919,0.000000,0.000000,0.000000,0.000000,0.000000,0.000000
12196010.000000,-2.376892,-1.662053,1.088117,-1.389534,1.760067,1.139819,-0.563020,0.473120,0.018617,0.830536,-0.389889,-0.384080,0.746246,-0.139724,-3.956561,35.413250,-18.128555,-4.412050,0.416959,1.662704,-0.130143,0.000000,0.000000,0.000000,0.000000,0.000000,0.000000
12196011.000000,-2.376410,-1.662047,1.088941,-1.389916,1.759679,1.140558,-0.563156,0.475351,0.013866,0.832744,-0.387128,-0.379777,0.747139,-0.136112,-3.829607,35.925030,-18.672073,-4.535036,0.398649,1.584884,-0.169511,0.000000,0.000000,0.000000,0.000000,0.000000,0.000000
12196012.000000,-2.375938,-1.662047,1.089789,-1.390294,1.759301,1.141304,-0.563289,0.481658,0.007895,0.832646,-0.382742,-0.376261,0.743576,-0.134391,-3.682818,36.416973,-19.211624,-4.733400,0.362943,1.611434,-0.188737,0.000000,0.000000,0.000000,0.000000,0.000000,0.000000
12196013.000000,-2.375476,-1.662057,1.090631,-1.390662,1.758919,1.142043,-0.563432,0.474968,0.001329,0.835063,-0.378158,-0.373516,0.744059,-0.136040,-3.508257,37.004131,-19.774979,-5.030946,0.356534,1.689254,-0.122819,0.000000,0.000000,0.000000,0.000000,0.000000,0.000000
12196014.000000,-2.375008,-1.662070,1.091478,-1.391028,1.758531,1.142766,-0.563562,0.469482,-0.004897,0.834221,-0.371523,-0.381751,0.737871,-0.133451,-3.361468,37.515911,-20.120132,-5.352296,0.308927,1.682845,-0.163102,0.000000,0.000000,0.000000,0.000000,0.000000,0.000000
12196015.000000,-2.374541,-1.662101,1.092321,-1.391400,1.758143,1.143505,-0.563699,0.468215,-0.014132,0.830990,-0.369639,-0.377405,0.736580,-0.134143,-3.286089,38.226055,-20.314529,-5.550661,0.374845,1.682845,-0.136552,0.000000,0.000000,0.000000,0.000000,0.000000,0.000000
12196016.000000,-2.374072,-1.662132,1.093160,-1.391745,1.757762,1.144217,-0.563829,0.465428,-0.020941,0.830202,-0.361707,-0.377724,0.727870,-0.133007,-3.262286,38.813213,-20.536697,-5.895814,0.422452,1.806442,-0.142960,0.000000,0.000000,0.000000,0.000000,0.000000,0.000000
12196017.000000,-2.373598,-1.662166,1.093992,-1.392107,1.757378,1.144946,-0.563952,0.466912,-0.025478,0.827857,-0.359447,-0.381201,0.722172,-0.126464,-3.286089,39.376568,-20.560501,-6.070375,0.452665,1.916305,-0.182328,0.000000,0.000000,0.000000,0.000000,0.000000,0.000000
12196018.000000,-2.373118,-1.662207,1.094820,-1.392457,1.756984,1.145676,-0.564085,0.471765,-0.030031,0.826673,-0.355070,-0.379758,0.725711,-0.128592,-3.484454,39.987530,-20.584305,-6.240968,0.524076,1.936446,-0.163102,0.000000,0.000000,0.000000,0.000000,0.000000,0.000000
12196019.000000,-2.372638,-1.662245,1.095652,-1.392810,1.756604,1.146416,-0.564216,0.470896,-0.030593,0.827619,-0.350738,-0.384154,0.732306,-0.129601,-3.706622,40.479473,-20.560501,-6.439332,0.542386,1.851302,-0.155778,0.000000,0.000000,0.000000,0.000000,0.000000,0.000000
12196020.000000,-2.372163,-1.662285,1.096486,-1.393158,1.756231,1.147166,-0.564343,0.471138,-0.034272,0.824156,-0.345956,-0.381993,0.731311,-0.127933,-3.928790,40.967449,-20.437515,-6.562318,0.464567,1.741439,-0.215287,0.000000,0.000000,0.000000,0.000000,0.000000,0.000000
12196021.000000,-2.371683,-1.662319,1.097311,-1.393502,1.755858,1.147903,-0.564483,0.470494,-0.034511,0.826506,-0.344455,-0.373587,0.733251,-0.131157,-4.127154,41.336407,-20.389908,-6.736879,0.434354,1.727706,-0.155778,0.000000,0.000000,0.000000,0.000000,0.000000,0.000000
12196022.000000,-2.371200,-1.662358,1.098150,-1.393841,1.755493,1.148645,-0.564610,0.472117,-0.032273,0.829592,-0.341597,-0.374307,0.735170,-0.129979,-4.301714,41.729168,-20.338333,-6.982851,0.398649,1.689254,-0.188737,0.000000,0.000000,0.000000,0.000000,0.000000,0.000000
12196023.000000,-2.370724,-1.662383,1.098985,-1.394181,1.755133,1.149382,-0.564742,0.474082,-0.029817,0.847208,-0.341085,-0.366602,0.733743,-0.126488,-4.500079,41.947369,-20.239151,-7.181215,0.351041,1.721298,-0.169511,0.000000,0.000000,0.000000,0.000000,0.000000,0.000000
12196024.000000,-2.370247,-1.662411,1.099815,-1.394510,1.754763,1.150110,-0.564883,0.473281,-0.028552,0.843961,-0.334750,-0.364762,0.726440,-0.130371,-4.646868,42.169537,-20.239151,-7.478761,0.369352,1.682845,-0.097184,0.000000,0.000000,0.000000,0.000000,0.000000,0.000000
12196025.000000,-2.369763,-1.662433,1.100657,-1.394832,1.754410,1.150846,-0.565001,0.484300,-0.026572,0.844870,-0.329253,-0.359972,0.726937,-0.122653,-4.944415,42.340130,-20.338333,-7.800111,0.315336,1.714889,-0.182328,0.000000,0.000000,0.000000,0.000000,0.000000,0.000000
12196026.000000,-2.369282,-1.662454,1.101487,-1.395157,1.754057,1.151587,-0.565129,0.480262,-0.023733,0.846208,-0.328678,-0.357132,0.730599,-0.120764,-5.166583,42.435345,-20.437515,-7.998476,0.285123,1.695663,-0.163102,0.000000,0.000000,0.000000,0.000000,0.000000,0.000000
12196027.000000,-2.368803,-1.662472,1.102324,-1.395478,1.753690,1.152321,-0.565256,0.476330,-0.021492,0.846966,-0.323697,-0.363912,0.727802,-0.124899,-5.392718,42.510723,-20.485123,-8.244448,0.303434,1.676437,-0.110001,0.000000,0.000000,0.000000,0.000000,0.000000,0.000000
12196028.000000,-2.368314,-1.662499,1.103167,-1.395802,1.753330,1.153058,-0.565371,0.483130,-0.025406,0.847992,-0.322775,-0.363020,0.733742,-0.123714,-5.686297,42.681316,-20.560501,-8.391237,0.351041,1.662704,-0.196061,0.000000,0.000000,0.000000,0.000000,0.000000,0.000000
12196029.000000,-2.367833,-1.662512,1.104002,-1.396114,1.752980,1.153774,-0.565496,0.482290,-0.020058,0.849259,-0.318578,-0.356727,0.724814,-0.126316,-5.912432,42.633709,-20.707291,-8.541994,0.362943,1.800033,-0.182328,0.000000,0.000000,0.000000,0.000000,0.000000,0.000000
12196030.000000,-2.367355,-1.662535,1.104851,-1.396425,1.752631,1.154499,-0.565627,0.481035,-0.019441,0.850168,-0.314674,-0.355801,0.720285,-0.129841,-6.083025,42.705120,-20.905655,-8.688784,0.362943,1.897079,-0.130143,0.000000,0.000000,0.000000,0.000000,0.000000,0.000000
12196031.000000,-2.366879,-1.662555,1.105678,-1.396727,1.752284,1.155231,-0.565742,0.484167,-0.018429,0.851245,-0.314603,-0.352028,0.722232,-0.127871,-6.281390,42.756695,-20.953262,-8.934755,0.308927,1.858627,-0.188737,0.000000,0.000000,0.000000,0.000000,0.000000,0.000000
12196032.000000,-2.366403,-1.662575,1.106519,-1.397022,1.751934,1.155966,-0.565861,0.479238,-0.020289,0.848971,-0.305134,-0.354556,0.728901,-0.124022,-6.356768,42.780499,-21.123856,-9.256105,0.297025,1.800033,-0.196061,0.000000,0.000000,0.000000,0.000000,0.000000,0.000000
12196033.000000,-2.365941,-1.662594,1.107370,-1.397330,1.751599,1.156695,-0.565989,0.471478,-0.021168,0.848967,-0.305743,-0.348335,0.727424,-0.128726,-6.380572,42.780499,-21.369827,-9.383059,0.249418,1.858627,-0.122819,0.000000,0.000000,0.000000,0.000000,0.000000,0.000000
12196034.000000,-2.365477,-1.662616,1.108202,-1.397620,1.751256,1.157397,-0.566107,0.466028,-0.019942,0.845926,-0.299185,-0.346408,0.719797,-0.127338,-6.380572,42.828106,-21.492813,-9.676638,0.154203,2.001449,-0.169511,0.000000,0.000000,0.000000,0.000000,0.000000,0.000000
12196035.000000,-2.365019,-1.662637,1.109042,-1.397917,1.750916,1.158129,-0.566228,0.459329,-0.018994,0.842508,-0.297165,-0.347377,0.721185,-0.123726,-6.233782,42.875713,-21.591995,-9.827394,0.171598,1.968490,-0.169511,0.000000,0.000000,0.000000,0.000000,0.000000,0.000000
12196036.000000,-2.364573,-1.662660,1.109865,-1.398202,1.750587,1.158867,-0.566348,0.457200,-0.018897,0.835372,-0.302873,-0.338249,0.722749,-0.120972,-6.059222,42.951092,-21.591995,-10.148745,0.129484,1.909896,-0.169511,0.000000,0.000000,0.000000,0.000000,0.000000,0.000000
12196037.000000,-2.364133,-1.662676,1.110706,-1.398492,1.750262,1.159587,-0.566473,0.450107,-0.018970,0.837232,-0.297981,-0.341936,0.717338,-0.120493,-5.813250,42.903484,-21.687210,-10.418520,0.046171,1.909896,-0.130143,0.000000,0.000000,0.000000,0.000000,0.000000,0.000000
12196038.000000,-2.363698,-1.662691,1.111548,-1.398778,1.749930,1.160311,-0.566591,0.445583,-0.019131,0.832624,-0.292916,-0.340199,0.720080,-0.118016,-5.563311,42.851910,-21.762589,-10.716066,0.015958,1.930038,-0.142960,0.000000,0.000000,0.000000,0.000000,0.000000,0.000000
12196039.000000,-2.363264,-1.662707,1.112376,-1.399071,1.749596,1.161051,-0.566713,0.440954,-0.019622,0.832038,-0.293233,-0.334722,0.722211,-0.115884,-5.241961,42.804302,-21.786392,-10.862856,0.004056,1.871444,-0.155778,0.000000,0.000000,0.000000,0.000000,0.000000,0.000000
12196040.000000,-2.362837,-1.662724,1.113210,-1.399361,1.749270,1.161782,-0.566837,0.437802,-0.017996,0.828247,-0.287799,-0.333603,0.728027,-0.121140,-4.920611,42.804302,-21.762589,-10.962038,-0.001437,1.812850,-0.122819,0.000000,0.000000,0.000000,0.000000,0.000000,0.000000
12196041.000000,-2.362416,-1.662741,1.114058,-1.399663,1.748941,1.162505,-0.566960,0.430879,-0.019291,0.847486,-0.294103,-0.333217,0.720705,-0.118807,-4.674639,42.780499,-21.885574,-10.890627,-0.025240,1.793624,-0.130143,0.000000,0.000000,0.000000,0.000000,0.000000,0.000000
12196042.000000,-2.362004,-1.662756,1.114891,-1.399964,1.748606,1.163222,-0.567079,0.421342,-0.020361,0.843341,-0.296514,-0.326014,0.722481,-0.116576,-4.277911,42.756695,-22.032364,-10.767641,-0.019747,1.844894,-0.149369,0.000000,0.000000,0.000000,0.000000,0.000000,0.000000
12196043.000000,-2.361585,-1.662774,1.115749,-1.400269,1.748278,1.163955,-0.567208,0.430576,-0.022168,0.845213,-0.294798,-0.326279,0.726350,-0.122350,-4.103350,42.780499,-22.325943,-10.616884,0.022367,1.819259,-0.097184,0.000000,0.000000,0.000000,0.000000,0.000000,0.000000
12196044.000000,-2.361179,-1.662792,1.116583,-1.400577,1.747959,1.164685,-0.567325,0.422424,-0.020257,0.837733,-0.299870,-0.318959,0.723773,-0.121915,-3.758196,42.804302,-22.500504,-10.470095,0.004056,1.832076,-0.163102,0.000000,0.000000,0.000000,0.000000,0.000000,0.000000
12196045.000000,-2.360774,-1.662815,1.117437,-1.400899,1.747624,1.165396,-0.567445,0.412896,-0.023780,0.840987,-0.309225,-0.329955,0.722814,-0.124410,-3.460650,42.903484,-22.817886,-10.220156,0.010465,1.949264,-0.149369,0.000000,0.000000,0.000000,0.000000,0.000000,0.000000
12196046.000000,-2.360372,-1.662841,1.118287,-1.401222,1.747288,1.166124,-0.567567,0.409612,-0.024199,0.837294,-0.312588,-0.329525,0.717811,-0.123948,-3.210711,43.050274,-23.111465,-9.974184,0.076383,2.027084,-0.116410,0.000000,0.000000,0.000000,0.000000,0.000000,0.000000
12196047.000000,-2.359977,-1.662871,1.119130,-1.401548,1.746949,1.166844,-0.567677,0.401950,-0.024808,0.837547,-0.317849,-0.330008,0.716631,-0.118890,-2.841753,43.220867,-23.409012,-9.728212,0.159696,2.092086,-0.175919,0.000000,0.000000,0.000000,0.000000,0.000000,0.000000
12196048.000000,-2.359574,-1.662897,1.119978,-1.401886,1.746619,1.167568,-0.567802,0.396678,-0.023475,0.833781,-0.325434,-0.333024,0.716799,-0.119552,-2.667193,43.320049,-23.603409,-9.430666,0.207303,2.104903,-0.122819,0.000000,0.000000,0.000000,0.000000,0.000000,0.000000
12196049.000000,-2.359186,-1.662931,1.120818,-1.402219,1.746273,1.168304,-0.567919,0.392917,-0.025382,0.834402,-0.336714,-0.330911,0.724057,-0.116955,-2.369647,43.538250,-23.750198,-9.232302,0.279630,2.060043,-0.142960,0.000000,0.000000,0.000000,0.000000,0.000000,0.000000
12196050.000000,-2.358799,-1.662968,1.121667,-1.402576,1.745933,1.169028,-0.568035,0.384996,-0.030442,0.839206,-0.344161,-0.340637,0.725159,-0.114535,-2.024493,43.784222,-23.920792,-8.887148,0.344633,1.988631,-0.182328,0.000000,0.000000,0.000000,0.000000,0.000000,0.000000
12196051.000000,-2.358420,-1.663003,1.122516,-1.402923,1.745605,1.169739,-0.568156,0.379268,-0.032646,0.836134,-0.342555,-0.334606,0.717191,-0.115924,-1.679339,43.978619,-23.972366,-8.712587,0.339139,1.995040,-0.136552,0.000000,0.000000,0.000000,0.000000,0.000000,0.000000
12196052.000000,-2.358043,-1.663037,1.123344,-1.403285,1.745272,1.170452,-0.568270,0.375663,-0.033636,0.837132,-0.351179,-0.331676,0.732797,-0.114299,-1.330218,44.149212,-23.972366,-8.391237,0.369352,1.974899,-0.149369,0.000000,0.000000,0.000000,0.000000,0.000000,0.000000
12196053.000000,-2.357671,-1.663070,1.124186,-1.403649,1.744942,1.171170,-0.568383,0.371910,-0.033406,0.837781,-0.354952,-0.333715,0.730190,-0.112931,-0.933489,44.272198,-23.996170,-8.145266,0.332731,1.955673,-0.175919,0.000000,0.000000,0.000000,0.000000,0.000000,0.000000
12196054.000000,-2.357310,-1.663100,1.125021,-1.404011,1.744601,1.171900,-0.568506,0.368797,-0.032186,0.836907,-0.357180,-0.330259,0.724981,-0.110037,-0.512957,44.347576,-24.043777,-7.946901,0.356534,1.877853,-0.130143,0.000000,0.000000,0.000000,0.000000,0.000000,0.000000
12196055.000000,-2.356932,-1.663131,1.125853,-1.404382,1.744275,1.172608,-0.568618,0.369575,-0.031500,0.831892,-0.363051,-0.328988,0.732152,-0.104380,-0.266986,44.418987,-23.873184,-7.724733,0.320829,1.897079,-0.169511,0.000000,0.000000,0.000000,0.000000,0.000000,0.000000
12196056.000000,-2.356563,-1.663156,1.126699,-1.404757,1.743945,1.173330,-0.568733,0.368959,-0.029318,0.832034,-0.364806,-0.331084,0.726104,-0.107668,-0.068621,44.418987,-23.896988,-7.454957,0.320829,1.930038,-0.142960,0.000000,0.000000,0.000000,0.000000,0.000000,0.000000
12196057.000000,-2.356189,-1.663178,1.127535,-1.405129,1.743601,1.174062,-0.568843,0.373926,-0.029943,0.833274,-0.365103,-0.331970,0.721914,-0.103829,0.030561,44.371380,-23.972366,-7.256593,0.440763,1.865035,-0.149369,0.000000,0.000000,0.000000,0.000000,0.000000,0.000000
12196058.000000,-2.355817,-1.663202,1.128370,-1.405510,1.743267,1.174774,-0.568949,0.372044,-0.028044,0.831339,-0.367563,-0.333371,0.717732,-0.104721,0.205121,44.347576,-23.996170,-6.959047,0.494779,1.832076,-0.188737,0.000000,0.000000,0.000000,0.000000,0.000000,0.000000
12196059.000000,-2.355439,-1.663219,1.129213,-1.405898,1.742947,1.175492,-0.569064,0.374619,-0.024912,0.831909,-0.371335,-0.329336,0.719218,-0.108330,0.205121,44.248394,-24.043777,-6.713075,0.494779,1.890670,-0.149369,0.000000,0.000000,0.000000,0.000000,0.000000,0.000000
12196060.000000,-2.355066,-1.663233,1.130043,-1.406284,1.742613,1.176209,-0.569177,0.372838,-0.022292,0.830494,-0.371790,-0.327747,0.719927,-0.109169,0.328107,44.125408,-24.142960,-6.439332,0.530485,1.871444,-0.155778,0.000000,0.000000,0.000000,0.000000,0.000000,0.000000
12196061.000000,-2.354700,-1.663248,1.130890,-1.406679,1.742287,1.176935,-0.569288,0.380323,-0.021073,0.830343,-0.379870,-0.324641,0.719648,-0.108938,0.375715,44.026226,-24.341324,-6.193361,0.518583,1.851302,-0.188737,0.000000,0.000000,0.000000,0.000000,0.000000,0.000000
12196062.000000,-2.354318,-1.663264,1.131715,-1.407068,1.741963,1.177652,-0.569405,0.380226,-0.017166,0.826086,-0.382324,-0.321187,0.719188,-0.107171,0.375715,43.931011,-24.436539,-5.994997,0.488370,1.974899,-0.136552,0.000000,0.000000,0.000000,0.000000,0.000000,0.000000
12196063.000000,-2.353938,-1.663274,1.132553,-1.407473,1.741636,1.178357,-0.569509,0.377665,-0.016263,0.830543,-0.389119,-0.326889,0.710604,-0.105823,0.375715,43.784222,-24.535721,-5.721254,0.470060,2.072860,-0.196061,0.000000,0.000000,0.000000,0.000000,0.000000,0.000000
12196064.000000,-2.353569,-1.663290,1.133403,-1.407865,1.741307,1.179083,-0.569628,0.375722,-0.014722,0.829548,-0.387526,-0.325652,0.707068,-0.109495,0.474897,43.732647,-24.829300,-5.598268,0.488370,2.066451,-0.149369,0.000000,0.000000,0.000000,0.000000,0.000000,0.000000
12196065.000000,-2.353186,-1.663297,1.134228,-1.408255,1.740973,1.179799,-0.569740,0.372871,-0.014455,0.826554,-0.390604,-0.322498,0.713333,-0.110463,0.427289,43.585857,-24.904678,-5.451478,0.554288,1.995040,-0.142960,0.000000,0.000000,0.000000,0.000000,0.000000,0.000000
12196066.000000,-2.352805,-1.663304,1.135058,-1.408650,1.740658,1.180521,-0.569845,0.372589,-0.012402,0.823752,-0.392037,-0.324741,0.713754,-0.109053,0.375715,43.490643,-24.952286,-5.304689,0.571683,2.020675,-0.196061,0.000000,0.000000,0.000000,0.000000,0.000000,0.000000
12196067.000000,-2.352436,-1.663316,1.135872,-1.409036,1.740332,1.181242,-0.569959,0.373094,-0.008692,0.817108,-0.400356,-0.323919,0.720168,-0.106541,0.403486,43.439068,-24.904678,-5.205507,0.613798,2.020675,-0.163102,0.000000,0.000000,0.000000,0.000000,0.000000,0.000000
12196068.000000,-2.352060,-1.663326,1.136701,-1.409429,1.739996,1.181952,-0.570062,0.370063,-0.008959,0.820910,-0.396814,-0.327934,0.716367,-0.102221,0.451093,43.391460,-24.952286,-5.078554,0.685209,1.988631,-0.196061,0.000000,0.000000,0.000000,0.000000,0.000000,0.000000
12196069.000000,-2.351692,-1.663329,1.137520,-1.409814,1.739676,1.182674,-0.570168,0.367557,-0.007427,0.812455,-0.392536,-0.321191,0.715573,-0.100405,0.502668,43.268475,-24.805496,-5.007143,0.679716,1.981307,-0.196061,0.000000,0.000000,0.000000,0.000000,0.000000,0.000000
12196070.000000,-2.351316,-1.663334,1.138322,-1.410196,1.739364,1.183382,-0.570278,0.371434,-0.007042,0.806537,-0.390484,-0.315154,0.725596,-0.104541,0.451093,43.173260,-24.634903,-4.907960,0.655912,2.007858,-0.163102,0.000000,0.000000,0.000000,0.000000,0.000000,0.000000
12196071.000000,-2.350943,-1.663339,1.139138,-1.410580,1.739048,1.184105,-0.570380,0.368013,-0.007220,0.804711,-0.385375,-0.323198,0.723490,-0.100873,0.526471,43.097881,-24.511917,-4.808778,0.667814,2.027084,-0.188737,0.000000,0.000000,0.000000,0.000000,0.000000,0.000000
12196072.000000,-2.350568,-1.663337,1.139951,-1.410970,1.738736,1.184827,-0.570484,0.371288,-0.002485,0.820934,-0.385502,-0.316002,0.729766,-0.103463,0.502668,42.951092,-24.583328,-4.685792,0.625699,2.053634,-0.202470,0.000000,0.000000,0.000000,0.000000,0.000000,0.000000
12196073.000000,-2.350182,-1.663338,1.140764,-1.411347,1.738427,1.185553,-0.570593,0.372612,-0.002342,0.816403,-0.378752,-0.311583,0.728414,-0.106985,0.351911,42.804302,-24.511917,-4.586610,0.589994,2.033492,-0.169511,0.000000,0.000000,0.000000,0.000000,0.000000,0.000000
12196074.000000,-2.349814,-1.663337,1.141586,-1.411733,1.738134,1.186291,-0.570693,0.377896,-0.002199,0.811940,-0.376252,-0.305212,0.727216,-0.107769,0.351911,42.657513,-24.611099,-4.487428,0.589994,1.962081,-0.188737,0.000000,0.000000,0.000000,0.000000,0.000000,0.000000
12196075.000000,-2.349436,-1.663339,1.142395,-1.412115,1.737828,1.187018,-0.570802,0.375417,-0.002698,0.808472,-0.379052,-0.301183,0.724634,-0.105624,0.304304,42.534527,-24.682510,-4.364442,0.625699,1.981307,-0.149369,0.000000,0.000000,0.000000,0.000000,0.000000,0.000000
12196076.000000,-2.349060,-1.663338,1.143219,-1.412504,1.737519,1.187734,-0.570897,0.375618,-0.002509,0.808631,-0.384019,-0.305519,0.724322,-0.104578,0.304304,42.387737,-24.928482,-4.241457,0.661405,2.072860,-0.208878,0.000000,0.000000,0.000000,0.000000,0.000000,0.000000
12196077.000000,-2.348692,-1.663342,1.144034,-1.412889,1.737225,1.188456,-0.571003,0.370434,-0.001549,0.805729,-0.380533,-0.299999,0.724962,-0.102481,0.403486,42.340130,-24.976089,-4.166078,0.661405,2.118636,-0.196061,0.000000,0.000000,0.000000,0.000000,0.000000,0.000000
12196078.000000,-2.348329,-1.663347,1.144840,-1.413264,1.736931,1.189169,-0.571114,0.363090,-0.004275,0.802120,-0.383728,-0.293658,0.724710,-0.106952,0.502668,42.316326,-25.126846,-4.118471,0.703519,2.092086,-0.142960,0.000000,0.000000,0.000000,0.000000,0.000000,0.000000
12196079.000000,-2.347973,-1.663350,1.145649,-1.413652,1.736640,1.189882,-0.571209,0.363035,-0.005747,0.799682,-0.385361,-0.297900,0.726729,-0.106026,0.673261,42.264751,-25.174454,-3.943910,0.698026,2.137862,-0.208878,0.000000,0.000000,0.000000,0.000000,0.000000,0.000000
12196080.000000,-2.347605,-1.663353,1.146441,-1.414025,1.736346,1.190593,-0.571315,0.366333,-0.003600,0.796293,-0.384644,-0.292584,0.712718,-0.109337,0.724836,42.217144,-25.150650,-3.868532,0.655912,2.209274,-0.163102,0.000000,0.000000,0.000000,0.000000,0.000000,0.000000
12196081.000000,-2.347242,-1.663361,1.147235,-1.414404,1.736048,1.191295,-0.571420,0.361011,-0.007354,0.794597,-0.383897,-0.290312,0.708174,-0.106739,0.847822,42.264751,-25.027664,-3.797121,0.685209,2.248641,-0.130143,0.000000,0.000000,0.000000,0.000000,0.000000,0.000000
12196082.000000,-2.346898,-1.663365,1.148032,-1.414785,1.735768,1.192007,-0.571513,0.354154,-0.005107,0.791397,-0.381643,-0.284622,0.707367,-0.100250,1.069990,42.240948,-24.952286,-3.670168,0.655912,2.190048,-0.221696,0.000000,0.000000,0.000000,0.000000,0.000000,0.000000
12196083.000000,-2.346545,-1.663369,1.148809,-1.415154,1.735482,1.192717,-0.571623,0.354326,-0.006714,0.786602,-0.377012,-0.285127,0.706269,-0.100488,1.192975,42.217144,-24.734085,-3.670168,0.655912,2.169906,-0.175919,0.000000,0.000000,0.000000,0.000000,0.000000,0.000000
12196084.000000,-2.346198,-1.663375,1.149595,-1.415529,1.735191,1.193441,-0.571727,0.348010,-0.005735,0.784172,-0.375415,-0.291132,0.711892,-0.104077,1.415143,42.240948,-24.583328,-3.570986,0.632108,2.098495,-0.163102,0.000000,0.000000,0.000000,0.000000,0.000000,0.000000
12196085.000000,-2.345865,-1.663375,1.150365,-1.415899,1.734894,1.194158,-0.571826,0.345661,-0.003237,0.780377,-0.382169,-0.289515,0.710381,-0.099756,1.740461,42.193340,-24.313553,-3.570986,0.644010,2.047225,-0.208878,0.000000,0.000000,0.000000,0.000000,0.000000,0.000000
12196086.000000,-2.345515,-1.663377,1.151148,-1.416271,1.734598,1.194879,-0.571934,0.343341,-0.001997,0.782241,-0.375096,-0.288781,0.720148,-0.100552,1.934858,42.169537,-24.119156,-3.547182,0.691617,1.949264,-0.155778,0.000000,0.000000,0.000000,0.000000,0.000000,0.000000
12196087.000000,-2.345171,-1.663370,1.151922,-1.416640,1.734315,1.195605,-0.572027,0.346341,-0.001236,0.776197,-0.373866,-0.289285,0.711607,-0.097151,2.085615,42.022747,-23.750198,-3.598757,0.727323,1.858627,-0.202470,0.000000,0.000000,0.000000,0.000000,0.000000,0.000000
12196088.000000,-2.344835,-1.663364,1.152693,-1.417010,1.734022,1.196331,-0.572135,0.343831,0.001020,0.768896,-0.370686,-0.288801,0.716658,-0.098065,2.307783,41.923565,-23.627213,-3.499574,0.745634,1.754256,-0.155778,0.000000,0.000000,0.000000,0.000000,0.000000,0.000000
12196089.000000,-2.344491,-1.663355,1.153475,-1.417379,1.733737,1.197063,-0.572233,0.344471,0.002643,0.770721,-0.369762,-0.290248,0.722919,-0.092283,2.430768,41.824383,-23.528030,-3.475771,0.739225,1.714889,-0.155778,0.000000,0.000000,0.000000,0.000000,0.000000,0.000000
12196090.000000,-2.344150,-1.663339,1.154248,-1.417748,1.733464,1.197804,-0.572329,0.342962,0.006599,0.777563,-0.367691,-0.286133,0.726523,-0.091488,2.506147,41.606182,-23.357437,-3.376589,0.667814,1.682845,-0.188737,0.000000,0.000000,0.000000,0.000000,0.000000,0.000000
12196091.000000,-2.343802,-1.663327,1.155003,-1.418124,1.733188,1.198530,-0.572431,0.341810,0.007632,0.774271,-0.372632,-0.278047,0.728870,-0.093695,2.529951,41.459393,-23.135269,-3.126650,0.673307,1.682845,-0.149369,0.000000,0.000000,0.000000,0.000000,0.000000,0.000000
12196092.000000,-2.343468,-1.663310,1.155777,-1.418491,1.732919,1.199254,-0.572523,0.345236,0.010134,0.772503,-0.369894,-0.274094,0.724129,-0.097161,2.581525,41.237225,-23.135269,-3.102846,0.625699,1.714889,-0.188737,0.000000,0.000000,0.000000,0.000000,0.000000,0.000000
12196093.000000,-2.343126,-1.663294,1.156543,-1.418851,1.732639,1.199989,-0.572617,0.342838,0.011191,0.773787,-0.364238,-0.277722,0.721791,-0.095568,2.652936,41.042828,-23.111465,-3.003664,0.655912,1.735030,-0.208878,0.000000,0.000000,0.000000,0.000000,0.000000,0.000000
12196094.000000,-2.342780,-1.663271,1.157317,-1.419212,1.732364,1.200714,-0.572718,0.342067,0.014243,0.778169,-0.363807,-0.278849,0.722607,-0.101146,2.680707,40.749249,-23.111465,-3.003664,0.667814,1.682845,-0.163102,0.000000,0.000000,0.000000,0.000000,0.000000,0.000000
12196095.000000,-2.342434,-1.663256,1.158092,-1.419573,1.732093,1.201444,-0.572809,0.345153,0.013422,0.775633,-0.361156,-0.273252,0.716652,-0.097820,2.680707,40.578655,-23.111465,-2.979860,0.698026,1.637069,-0.202470,0.000000,0.000000,0.000000,0.000000,0.000000,0.000000
12196096.000000,-2.342085,-1.663234,1.158856,-1.419923,1.731816,1.202148,-0.572909,0.341216,0.018390,0.769027,-0.358210,-0.275305,0.722762,-0.097132,2.629133,40.308880,-23.210648,-3.003664,0.781339,1.735030,-0.196061,0.000000,0.000000,0.000000,0.000000,0.000000,0.000000
12196097.000000,-2.341736,-1.663216,1.159627,-1.420281,1.731549,1.202856,-0.573007,0.341970,0.016573,0.766280,-0.353340,-0.272963,0.716382,-0.096944,2.581525,40.134319,-23.286026,-2.979860,0.769437,1.884261,-0.182328,0.000000,0.000000,0.000000,0.000000,0.000000,0.000000
12196098.000000,-2.341390,-1.663194,1.160383,-1.420624,1.731284,1.203581,-0.573103,0.342440,0.018947,0.758780,-0.354374,-0.265642,0.716855,-0.095897,2.506147,39.939922,-23.258255,-3.055238,0.733732,1.897079,-0.188737,0.000000,0.000000,0.000000,0.000000,0.000000,0.000000
12196099.000000,-2.341042,-1.663175,1.161146,-1.420970,1.731026,1.204294,-0.573198,0.341163,0.019501,0.759141,-0.348071,-0.262849,0.715387,-0.090569,2.482343,39.793133,-23.210648,-3.178224,0.667814,1.832076,-0.196061,0.000000,0.000000,0.000000,0.000000,0.000000,0.000000
12196100.000000,-2.340695,-1.663153,1.161919,-1.421310,1.730780,1.205028,-0.573294,0.341303,0.020135,0.758043,-0.343573,-0.256537,0.720312,-0.098055,2.454572,39.646343,-23.234451,-3.277406,0.566190,1.806442,-0.163102,0.000000,0.000000,0.000000,0.000000,0.000000,0.000000
12196101.000000,-2.340341,-1.663127,1.162683,-1.421650,1.730523,1.205734,-0.573386,0.343503,0.019202,0.759406,-0.341706,-0.257160,0.717999,-0.096896,2.331586,39.428143,-23.333633,-3.325014,0.494779,1.871444,-0.163102,0.000000,0.000000,0.000000,0.000000,0.000000,0.000000
12196102.000000,-2.339980,-1.663103,1.163435,-1.421995,1.730254,1.206458,-0.573484,0.350370,0.020558,0.752576,-0.339090,-0.264064,0.719606,-0.092668,2.109418,39.253582,-23.063858,-3.277406,0.512174,1.838485,-0.130143,0.000000,0.000000,0.000000,0.000000,0.000000,0.000000
12196103.000000,-2.339628,-1.663082,1.164180,-1.422333,1.729986,1.207180,-0.573568,0.352943,0.020932,0.749281,-0.340388,-0.262804,0.724648,-0.085566,2.010236,39.106792,-22.893265,-3.249635,0.566190,1.812850,-0.202470,0.000000,0.000000,0.000000,0.000000,0.000000,0.000000
12196104.000000,-2.339267,-1.663058,1.164933,-1.422663,1.729722,1.207889,-0.573660,0.355919,0.024376,0.750510,-0.335603,-0.264451,0.717840,-0.087851,1.811872,38.960003,-22.647293,-3.325014,0.608304,1.819259,-0.202470,0.000000,0.000000,0.000000,0.000000,0.000000,0.000000
12196105.000000,-2.338910,-1.663031,1.165703,-1.422984,1.729474,1.208609,-0.573752,0.362680,0.025044,0.752805,-0.330573,-0.258449,0.717806,-0.091048,1.712690,38.765606,-22.671097,-3.448000,0.535978,1.786300,-0.163102,0.000000,0.000000,0.000000,0.000000,0.000000,0.000000
12196106.000000,-2.338557,-1.663014,1.166452,-1.423298,1.729209,1.209318,-0.573839,0.356736,0.021612,0.751720,-0.323556,-0.264384,0.721538,-0.090405,1.565900,38.741802,-22.595718,-3.598757,0.512174,1.689254,-0.196061,0.000000,0.000000,0.000000,0.000000,0.000000,0.000000
12196108.000000,-2.337843,-1.662992,1.167974,-1.423933,1.728681,1.210743,-0.574026,0.356804,0.016786,0.770508,-0.319858,-0.262568,0.712463,-0.092569,1.292158,38.837017,-22.500504,-3.769350,0.554288,1.735030,-0.169511,0.000000,0.000000,0.000000,0.000000,0.000000,0.000000
12196109.000000,-2.337473,-1.662979,1.168729,-1.424245,1.728428,1.211420,-0.574121,0.359245,0.014838,0.771818,-0.315192,-0.254167,0.702520,-0.092686,1.069990,38.864788,-22.548111,-3.797121,0.512174,1.930038,-0.175919,0.000000,0.000000,0.000000,0.000000,0.000000,0.000000
12196110.000000,-2.337113,-1.662963,1.169496,-1.424554,1.728179,1.212133,-0.574212,0.364780,0.014143,0.770987,-0.309910,-0.249335,0.701802,-0.092483,0.895429,38.864788,-22.718704,-3.868532,0.506681,1.923629,-0.188737,0.000000,0.000000,0.000000,0.000000,0.000000,0.000000
12196111.000000,-2.336754,-1.662961,1.170244,-1.424852,1.727924,1.212860,-0.574310,0.360950,0.006586,0.761942,-0.308072,-0.248294,0.704449,-0.093898,0.748639,39.035381,-22.794083,-4.019289,0.476469,1.714889,-0.155778,0.000000,0.000000,0.000000,0.000000,0.000000,0.000000
12196112.000000,-2.336391,-1.662953,1.171003,-1.425155,1.727661,1.213574,-0.574399,0.363231,0.007304,0.758066,-0.307685,-0.253554,0.705670,-0.092235,0.649457,39.082989,-22.893265,-4.142274,0.512174,1.630660,-0.188737,0.000000,0.000000,0.000000,0.000000,0.000000,0.000000
12196113.000000,-2.336023,-1.662949,1.171762,-1.425452,1.727408,1.214259,-0.574498,0.364093,0.007160,0.754187,-0.306302,-0.249293,0.701306,-0.094221,0.474897,39.158367,-22.917068,-4.312868,0.518583,1.779891,-0.149369,0.000000,0.000000,0.000000,0.000000,0.000000,0.000000
12196114.000000,-2.335657,-1.662952,1.172503,-1.425744,1.727153,1.214936,-0.574592,0.361198,0.003712,0.750681,-0.302503,-0.246220,0.697934,-0.088877,0.403486,39.376568,-22.794083,-4.463624,0.530485,1.988631,-0.163102,0.000000,0.000000,0.000000,0.000000,0.000000,0.000000
12196115.000000,-2.335293,-1.662954,1.173246,-1.426037,1.726897,1.215642,-0.574682,0.361136,0.002508,0.745148,-0.297342,-0.253020,0.699718,-0.089266,0.276533,39.547161,-22.548111,-4.562807,0.601896,1.968490,-0.188737,0.000000,0.000000,0.000000,0.000000,0.000000,0.000000
12196116.000000,-2.334932,-1.662951,1.173990,-1.426315,1.726648,1.216357,-0.574777,0.360349,0.000332,0.742153,-0.301741,-0.249222,0.698783,-0.086056,0.129743,39.646343,-22.448929,-4.784975,0.524076,1.871444,-0.182328,0.000000,0.000000,0.000000,0.000000,0.000000,0.000000
12196117.000000,-2.334566,-1.662948,1.174745,-1.426600,1.726406,1.217062,-0.574868,0.359431,-0.001364,0.744455,-0.296678,-0.245398,0.706255,-0.087720,0.006757,39.745525,-22.425125,-4.907960,0.434354,1.806442,-0.196061,0.000000,0.000000,0.000000,0.000000,0.000000,0.000000
12196118.000000,-2.334207,-1.662949,1.175495,-1.426876,1.726172,1.217779,-0.574962,0.359474,-0.003792,0.740877,-0.284696,-0.239699,0.702242,-0.085850,-0.092425,39.892315,-22.325943,-5.106325,0.339139,1.702071,-0.175919,0.000000,0.000000,0.000000,0.000000,0.000000,0.000000
12196119.000000,-2.333843,-1.662953,1.176223,-1.427153,1.725925,1.218494,-0.575051,0.358486,-0.006105,0.735134,-0.284690,-0.240763,0.709187,-0.088188,-0.215411,40.062908,-22.056168,-5.205507,0.393156,1.617843,-0.163102,0.000000,0.000000,0.000000,0.000000,0.000000,0.000000
12196120.000000,-2.333476,-1.662949,1.176969,-1.427434,1.725686,1.219203,-0.575136,0.358699,-0.002260,0.738239,-0.285229,-0.246428,0.710363,-0.087996,-0.441546,40.134319,-21.909378,-5.253114,0.386747,1.637069,-0.208878,0.000000,0.000000,0.000000,0.000000,0.000000,0.000000
12196121.000000,-2.333122,-1.662949,1.177703,-1.427694,1.725440,1.219922,-0.575231,0.357721,-0.003330,0.742292,-0.278623,-0.247233,0.707524,-0.091202,-0.512957,40.233501,-21.738785,-5.475282,0.381254,1.637069,-0.169511,0.000000,0.000000,0.000000,0.000000,0.000000,0.000000
12196122.000000,-2.332762,-1.662944,1.178446,-1.427962,1.725192,1.220632,-0.575328,0.353393,0.000766,0.744087,-0.277442,-0.244039,0.711537,-0.092627,-0.588336,40.257305,-21.591995,-5.673646,0.410551,1.605026,-0.149369,0.000000,0.000000,0.000000,0.000000,0.000000,0.000000
12196123.000000,-2.332400,-1.662943,1.179190,-1.428223,1.724955,1.221357,-0.575415,0.359495,-0.000709,0.741324,-0.272882,-0.241401,0.711046,-0.091250,-0.635943,40.332684,-21.469009,-5.895814,0.398649,1.487838,-0.196061,0.000000,0.000000,0.000000,0.000000,0.000000,0.000000
12196124.000000,-2.332048,-1.662933,1.179926,-1.428480,1.724719,1.222078,-0.575510,0.354529,0.001698,0.738428,-0.268438,-0.239702,0.720521,-0.093019,-0.663714,40.257305,-21.445206,-6.042604,0.398649,1.416427,-0.163102,0.000000,0.000000,0.000000,0.000000,0.000000,0.000000
12196125.000000,-2.331689,-1.662925,1.180669,-1.428752,1.724474,1.222782,-0.575600,0.357405,0.003108,0.737742,-0.265693,-0.243358,0.715365,-0.093439,-0.810504,40.185894,-21.417435,-6.141786,0.452665,1.532699,-0.142960,0.000000,0.000000,0.000000,0.000000,0.000000,0.000000
12196126.000000,-2.331332,-1.662918,1.181419,-1.429028,1.724240,1.223494,-0.575689,0.358575,0.003508,0.752744,-0.266241,-0.239246,0.710366,-0.088290,-0.933489,40.134319,-21.369827,-6.141786,0.405057,1.656295,-0.155778,0.000000,0.000000,0.000000,0.000000,0.000000,0.000000
12196127.000000,-2.330972,-1.662912,1.182165,-1.429298,1.724003,1.224199,-0.575780,0.354697,0.004181,0.753038,-0.263969,-0.237511,0.710988,-0.085181,-1.032672,40.062908,-21.469009,-6.117982,0.381254,1.708480,-0.149369,0.000000,0.000000,0.000000,0.000000,0.000000,0.000000
12196128.000000,-2.330617,-1.662899,1.182921,-1.429577,1.723783,1.224934,-0.575867,0.360008,0.010081,0.752980,-0.265020,-0.233641,0.711795,-0.087219,-1.131854,39.892315,-21.591995,-6.070375,0.291532,1.605026,-0.155778,0.000000,0.000000,0.000000,0.000000,0.000000,0.000000
12196129.000000,-2.330262,-1.662887,1.183668,-1.429852,1.723563,1.225668,-0.575958,0.353663,0.010516,0.750185,-0.270298,-0.226363,0.715901,-0.089023,-1.231036,39.745525,-21.738785,-5.971193,0.201810,1.532699,-0.149369,0.000000,0.000000,0.000000,0.000000,0.000000,0.000000
12196130.000000,-2.329907,-1.662875,1.184428,-1.430115,1.723329,1.226373,-0.576042,0.354570,0.010158,0.750993,-0.266875,-0.228261,0.710216,-0.088832,-1.330218,39.622540,-21.909378,-6.042604,0.207303,1.572067,-0.175919,0.000000,0.000000,0.000000,0.000000,0.000000,0.000000
12196131.000000,-2.329564,-1.662864,1.185191,-1.430390,1.723096,1.227077,-0.576129,0.351233,0.009852,0.751280,-0.266892,-0.231089,0.703858,-0.085559,-1.254840,39.499554,-22.056168,-6.018800,0.225614,1.760665,-0.175919,0.000000,0.000000,0.000000,0.000000,0.000000,0.000000
12196132.000000,-2.329219,-1.662855,1.185935,-1.430659,1.722855,1.227761,-0.576215,0.349590,0.010894,0.749447,-0.269924,-0.234072,0.697204,-0.083696,-1.207232,39.451946,-22.107742,-5.994997,0.267728,1.923629,-0.155778,0.000000,0.000000,0.000000,0.000000,0.000000,0.000000
12196133.000000,-2.328875,-1.662839,1.186694,-1.430925,1.722614,1.228465,-0.576297,0.348315,0.014238,0.752761,-0.264966,-0.235898,0.697965,-0.080529,-1.108050,39.305157,-22.202957,-5.994997,0.344633,1.949264,-0.182328,0.000000,0.000000,0.000000,0.000000,0.000000,0.000000
12196134.000000,-2.328542,-1.662826,1.187447,-1.431196,1.722376,1.229178,-0.576383,0.341220,0.010590,0.755805,-0.269115,-0.235331,0.706461,-0.079350,-1.008868,39.281353,-22.353714,-5.947389,0.351041,1.877853,-0.175919,0.000000,0.000000,0.000000,0.000000,0.000000,0.000000
12196135.000000,-2.328203,-1.662815,1.188208,-1.431465,1.722142,1.229878,-0.576469,0.336715,0.011145,0.756584,-0.267002,-0.241392,0.702922,-0.079519,-0.909686,39.253582,-22.472733,-5.971193,0.332731,1.812850,-0.149369,0.000000,0.000000,0.000000,0.000000,0.000000,0.000000
12196136.000000,-2.327869,-1.662802,1.188962,-1.431743,1.721901,1.230583,-0.576549,0.334662,0.009100,0.751604,-0.269027,-0.240667,0.702296,-0.076710,-0.786700,39.205975,-22.448929,-5.848207,0.356534,1.773483,-0.196061,0.000000,0.000000,0.000000,0.000000,0.000000,0.000000
12196137.000000,-2.327535,-1.662792,1.189707,-1.432024,1.721661,1.231266,-0.576634,0.336106,0.009532,0.747439,-0.274455,-0.238249,0.710987,-0.082273,-0.635943,39.205975,-22.401321,-5.697450,0.332731,1.806442,-0.175919,0.000000,0.000000,0.000000,0.000000,0.000000,0.000000
12196138.000000,-2.327197,-1.662790,1.190460,-1.432305,1.721426,1.231964,-0.576719,0.335883,0.008207,0.749531,-0.272766,-0.240610,0.705665,-0.086285,-0.564532,39.281353,-22.353714,-5.626039,0.339139,1.877853,-0.149369,0.000000,0.000000,0.000000,0.000000,0.000000,0.000000
12196139.000000,-2.326876,-1.662772,1.191209,-1.432586,1.721200,1.232661,-0.576806,0.331513,0.008471,0.764400,-0.274435,-0.232781,0.703788,-0.083896,-0.441546,39.182171,-22.325943,-5.451478,0.291532,1.890670,-0.136552,0.000000,0.000000,0.000000,0.000000,0.000000,0.000000
12196140.000000,-2.326545,-1.662760,1.191968,-1.432868,1.720981,1.233354,-0.576886,0.327962,0.013049,0.760857,-0.278669,-0.226536,0.704631,-0.086595,-0.342364,39.158367,-22.353714,-5.399904,0.219205,1.858627,-0.130143,0.000000,0.000000,0.000000,0.000000,0.000000,0.000000
12196141.000000,-2.326217,-1.662752,1.192733,-1.433160,1.720744,1.234066,-0.576961,0.330805,0.012343,0.757903,-0.283517,-0.233335,0.707421,-0.082118,-0.191607,39.182171,-22.425125,-5.276918,0.285123,1.721298,-0.175919,0.000000,0.000000,0.000000,0.000000,0.000000,0.000000
12196142.000000,-2.325892,-1.662742,1.193483,-1.433449,1.720506,1.234767,-0.577046,0.331628,0.012355,0.751982,-0.282212,-0.234247,0.700557,-0.081595,-0.092425,39.182171,-22.500504,-5.106325,0.303434,1.727706,-0.142960,0.000000,0.000000,0.000000,0.000000,0.000000,0.000000
12196143.000000,-2.325563,-1.662733,1.194251,-1.433751,1.720273,1.235450,-0.577119,0.330087,0.012944,0.758168,-0.288052,-0.234281,0.696196,-0.077662,-0.044818,39.158367,-22.647293,-4.907960,0.369352,1.825668,-0.196061,0.000000,0.000000,0.000000,0.000000,0.000000,0.000000
12196144.000000,-2.325241,-1.662728,1.195025,-1.434055,1.720037,1.236132,-0.577207,0.330026,0.009073,0.761792,-0.291999,-0.235543,0.686511,-0.078631,-0.044818,39.182171,-22.841690,-4.709596,0.405057,1.942855,-0.155778,0.000000,0.000000,0.000000,0.000000,0.000000,0.000000
12196145.000000,-2.324916,-1.662721,1.195786,-1.434343,1.719802,1.236831,-0.577287,0.324573,0.009228,0.766914,-0.289075,-0.236724,0.692952,-0.078216,0.006757,39.205975,-23.040054,-4.634218,0.446256,1.877853,-0.142960,0.000000,0.000000,0.000000,0.000000,0.000000,0.000000
12196146.000000,-2.324595,-1.662717,1.196555,-1.434647,1.719576,1.237534,-0.577359,0.318760,0.008254,0.770608,-0.288351,-0.237259,0.696131,-0.075809,0.153547,39.281353,-23.258255,-4.463624,0.434354,1.825668,-0.188737,0.000000,0.000000,0.000000,0.000000,0.000000,0.000000
12196147.000000,-2.324275,-1.662716,1.197316,-1.434937,1.719343,1.238234,-0.577439,0.320304,0.007426,0.768299,-0.289674,-0.235411,0.690139,-0.076583,0.205121,39.376568,-23.504227,-4.388246,0.416959,1.871444,-0.163102,0.000000,0.000000,0.000000,0.000000,0.000000,0.000000
12196148.000000,-2.323955,-1.662715,1.198086,-1.435232,1.719115,1.238909,-0.577516,0.317302,0.004109,0.766933,-0.291688,-0.232274,0.692363,-0.080416,0.276533,39.451946,-23.678787,-4.265260,0.405057,2.001449,-0.163102,0.000000,0.000000,0.000000,0.000000,0.000000,0.000000
12196149.000000,-2.323647,-1.662722,1.198845,-1.435531,1.718880,1.239605,-0.577588,0.314671,-0.001117,0.759575,-0.289674,-0.233254,0.688906,-0.077698,0.375715,39.646343,-23.678787,-4.166078,0.482877,2.001449,-0.202470,0.000000,0.000000,0.000000,0.000000,0.000000,0.000000
12196150.000000,-2.323335,-1.662728,1.199593,-1.435819,1.718651,1.240293,-0.577671,0.311398,-0.003660,0.752761,-0.290032,-0.232102,0.693355,-0.082776,0.526471,39.793133,-23.603409,-4.118471,0.518583,1.981307,-0.175919,0.000000,0.000000,0.000000,0.000000,0.000000,0.000000
12196151.000000,-2.323016,-1.662730,1.200355,-1.436115,1.718429,1.240979,-0.577754,0.311341,-0.003815,0.751328,-0.291748,-0.229622,0.689471,-0.081596,0.601850,39.868511,-23.651016,-3.991518,0.512174,2.007858,-0.155778,0.000000,0.000000,0.000000,0.000000,0.000000,0.000000
12196152.000000,-2.322708,-1.662738,1.201103,-1.436409,1.718202,1.241678,-0.577826,0.313084,-0.004479,0.750849,-0.294368,-0.229116,0.682820,-0.082425,0.724836,39.963726,-23.603409,-3.892336,0.476469,2.007858,-0.215287,0.000000,0.000000,0.000000,0.000000,0.000000,0.000000
12196153.000000,-2.322398,-1.662747,1.201853,-1.436707,1.717970,1.242376,-0.577912,0.307519,-0.005087,0.750146,-0.292665,-0.233004,0.688142,-0.087485,0.847822,40.062908,-23.432816,-3.745546,0.494779,1.858627,-0.163102,0.000000,0.000000,0.000000,0.000000,0.000000,0.000000
12196154.000000,-2.322088,-1.662753,1.202606,-1.436997,1.717743,1.243079,-0.577988,0.309071,-0.004341,0.743286,-0.293375,-0.231009,0.687229,-0.083836,0.895429,40.110516,-23.234451,-3.769350,0.500272,1.793624,-0.182328,0.000000,0.000000,0.000000,0.000000,0.000000,0.000000
12196155.000000,-2.321786,-1.662760,1.203352,-1.437297,1.717517,1.243780,-0.578069,0.307194,-0.007148,0.743146,-0.295120,-0.229089,0.708315,-0.082954,1.022382,40.162090,-23.111465,-3.646364,0.500272,1.806442,-0.142960,0.000000,0.000000,0.000000,0.000000,0.000000,0.000000
12196156.000000,-2.321475,-1.662761,1.204101,-1.437593,1.717303,1.244465,-0.578143,0.308491,-0.004937,0.744642,-0.291347,-0.227372,0.697269,-0.078702,1.069990,40.162090,-22.940872,-3.570986,0.482877,1.916305,-0.202470,0.000000,0.000000,0.000000,0.000000,0.000000,0.000000
12196157.000000,-2.321169,-1.662761,1.204851,-1.437885,1.717075,1.245183,-0.578227,0.308248,-0.003421,0.757534,-0.294845,-0.226593,0.705139,-0.079002,1.093793,40.162090,-22.770279,-3.523378,0.530485,1.838485,-0.175919,0.000000,0.000000,0.000000,0.000000,0.000000,0.000000
12196158.000000,-2.320865,-1.662761,1.205594,-1.438180,1.716852,1.245894,-0.578307,0.304506,-0.002377,0.757302,-0.294698,-0.223539,0.705194,-0.078812,1.169172,40.162090,-22.718704,-3.448000,0.547880,1.670028,-0.155778,0.000000,0.000000,0.000000,0.000000,0.000000,0.000000
12196159.000000,-2.320561,-1.662755,1.206348,-1.438470,1.716632,1.246604,-0.578379,0.310051,0.000663,0.757044,-0.289812,-0.219297,0.703212,-0.076113,1.121564,40.062908,-22.718704,-3.424196,0.542386,1.649886,-0.202470,0.000000,0.000000,0.000000,0.000000,0.000000,0.000000
12196160.000000,-2.320250,-1.662744,1.207085,-1.438778,1.716421,1.247306,-0.578465,0.312621,0.003821,0.753544,-0.295319,-0.213549,0.696222,-0.077798,1.069990,39.916119,-22.718704,-3.178224,0.518583,1.682845,-0.149369,0.000000,0.000000,0.000000,0.000000,0.000000,0.000000
12196161.000000,-2.319941,-1.662739,1.207832,-1.439077,1.716202,1.247997,-0.578544,0.311626,0.004270,0.749449,-0.295500,-0.218787,0.695329,-0.081840,1.069990,39.840740,-22.694901,-3.079042,0.578092,1.721298,-0.136552,0.000000,0.000000,0.000000,0.000000,0.000000,0.000000
12196162.000000,-2.319632,-1.662732,1.208586,-1.439371,1.715993,1.248697,-0.578613,0.310733,0.005043,0.744832,-0.292402,-0.218601,0.699036,-0.077197,1.022382,39.745525,-22.718704,-2.979860,0.584501,1.735030,-0.215287,0.000000,0.000000,0.000000,0.000000,0.000000,0.000000
12196163.000000,-2.319326,-1.662722,1.209333,-1.439666,1.715781,1.249383,-0.578696,0.310496,0.006773,0.746896,-0.290323,-0.217626,0.692928,-0.078989,1.046186,39.598736,-22.817886,-2.880678,0.518583,1.773483,-0.155778,0.000000,0.000000,0.000000,0.000000,0.000000,0.000000
12196164.000000,-2.319011,-1.662706,1.210094,-1.439959,1.715562,1.250083,-0.578766,0.310626,0.009695,0.749473,-0.287495,-0.219286,0.693754,-0.076813,0.947004,39.376568,-22.964676,-2.805300,0.512174,1.806442,-0.188737,0.000000,0.000000,0.000000,0.000000,0.000000,0.000000
12196165.000000,-2.318711,-1.662694,1.210835,-1.440243,1.715349,1.250781,-0.578842,0.309126,0.010441,0.748785,-0.288539,-0.214102,0.690875,-0.075389,0.923200,39.205975,-23.016251,-2.757692,0.500272,1.806442,-0.215287,0.000000,0.000000,0.000000,0.000000,0.000000,0.000000
12196166.000000,-2.318405,-1.662682,1.211580,-1.440537,1.715137,1.251471,-0.578927,0.307111,0.010385,0.748331,-0.285633,-0.216698,0.692577,-0.077972,0.895429,39.059185,-23.087662,-2.733888,0.500272,1.825668,-0.149369,0.000000,0.000000,0.000000,0.000000,0.000000,0.000000
12196167.000000,-2.318101,-1.662666,1.212336,-1.440833,1.714920,1.252155,-0.579003,0.305101,0.011463,0.745876,-0.285469,-0.212908,0.680910,-0.076897,0.923200,38.864788,-23.210648,-2.634706,0.578092,1.897079,-0.155778,0.000000,0.000000,0.000000,0.000000,0.000000,0.000000
12196168.000000,-2.317793,-1.662659,1.213075,-1.441115,1.714708,1.252841,-0.579078,0.305238,0.009400,0.744760,-0.285451,-0.216474,0.680841,-0.075822,0.871625,38.789410,-23.210648,-2.658510,0.596403,1.909896,-0.169511,0.000000,0.000000,0.000000,0.000000,0.000000,0.000000
12196169.000000,-2.317490,-1.662644,1.213819,-1.441414,1.714498,1.253528,-0.579149,0.305114,0.011367,0.748051,-0.285625,-0.214997,0.685376,-0.073751,0.847822,38.571209,-23.186844,-2.535524,0.620206,1.923629,-0.221696,0.000000,0.000000,0.000000,0.000000,0.000000,0.000000
12196170.000000,-2.317197,-1.662631,1.214557,-1.441697,1.714285,1.254228,-0.579230,0.300557,0.011008,0.747045,-0.290119,-0.214070,0.685340,-0.076719,0.871625,38.424419,-23.210648,-2.559328,0.589994,1.897079,-0.155778,0.000000,0.000000,0.000000,0.000000,0.000000,0.000000
12196171.000000,-2.316905,-1.662622,1.215290,-1.441977,1.714092,1.254919,-0.579303,0.297289,0.008543,0.741659,-0.286883,-0.209123,0.692294,-0.075565,0.994611,38.372845,-23.087662,-2.682314,0.506681,1.819259,-0.175919,0.000000,0.000000,0.000000,0.000000,0.000000,0.000000
12196172.000000,-2.316614,-1.662612,1.216029,-1.442265,1.713885,1.255611,-0.579373,0.296387,0.008570,0.735262,-0.286498,-0.209256,0.687644,-0.074298,1.093793,38.249859,-22.964676,-2.706117,0.518583,1.812850,-0.208878,0.000000,0.000000,0.000000,0.000000,0.000000,0.000000
12196173.000000,-2.316318,-1.662606,1.216756,-1.442548,1.713687,1.256295,-0.579453,0.295319,0.009443,0.727908,-0.280416,-0.202629,0.682722,-0.075930,1.145368,38.226055,-22.817886,-2.733888,0.476469,1.903487,-0.169511,0.000000,0.000000,0.000000,0.000000,0.000000,0.000000
12196174.000000,-2.316023,-1.662596,1.217489,-1.442836,1.713494,1.256975,-0.579526,0.292646,0.010286,0.726668,-0.283138,-0.203278,0.678223,-0.075754,1.216779,38.202251,-22.623489,-2.706117,0.452665,1.890670,-0.169511,0.000000,0.000000,0.000000,0.000000,0.000000,0.000000
12196175.000000,-2.315729,-1.662586,1.218230,-1.443113,1.713286,1.257676,-0.579594,0.294084,0.011571,0.741548,-0.284242,-0.204739,0.681340,-0.069664,1.216779,38.154644,-22.571915,-2.733888,0.506681,1.812850,-0.202470,0.000000,0.000000,0.000000,0.000000,0.000000,0.000000
12196176.000000,-2.315440,-1.662577,1.218961,-1.443390,1.713085,1.258378,-0.579673,0.294066,0.008322,0.742461,-0.278174,-0.204802,0.687814,-0.078079,1.292158,38.154644,-22.548111,-2.781496,0.494779,1.630660,-0.142960,0.000000,0.000000,0.000000,0.000000,0.000000,0.000000
12196177.000000,-2.315153,-1.662569,1.219701,-1.443669,1.712884,1.259085,-0.579739,0.298793,0.008009,0.734136,-0.280181,-0.206579,0.688393,-0.076298,1.367536,38.202251,-22.571915,-2.805300,0.524076,1.539108,-0.169511,0.000000,0.000000,0.000000,0.000000,0.000000,0.000000
12196178.000000,-2.314850,-1.662560,1.220439,-1.443944,1.712685,1.259777,-0.579808,0.298305,0.005385,0.736604,-0.276335,-0.206519,0.692344,-0.075204,1.315961,38.226055,-22.694901,-2.805300,0.566190,1.630660,-0.188737,0.000000,0.000000,0.000000,0.000000,0.000000,0.000000
12196179.000000,-2.314553,-1.662556,1.221181,-1.444216,1.712494,1.260468,-0.579880,0.296383,0.002835,0.736627,-0.271491,-0.201957,0.688226,-0.076048,1.292158,38.277630,-22.794083,-2.757692,0.559781,1.662704,-0.155778,0.000000,0.000000,0.000000,0.000000,0.000000,0.000000
12196180.000000,-2.314267,-1.662558,1.221921,-1.444483,1.712299,1.261168,-0.579946,0.293335,-0.000556,0.736423,-0.270996,-0.204154,0.689150,-0.070783,1.367536,38.396648,-22.893265,-2.833071,0.584501,1.670028,-0.163102,0.000000,0.000000,0.000000,0.000000,0.000000,0.000000
12196181.000000,-2.313975,-1.662553,1.222645,-1.444749,1.712105,1.261846,-0.580013,0.289212,0.001769,0.728749,-0.266463,-0.203266,0.683491,-0.065940,1.343732,38.448223,-22.917068,-2.833071,0.542386,1.779891,-0.196061,0.000000,0.000000,0.000000,0.000000,0.000000,0.000000
12196182.000000,-2.313691,-1.662550,1.223390,-1.445007,1.711919,1.262538,-0.580081,0.286407,0.002576,0.732119,-0.263957,-0.197403,0.684161,-0.068196,1.466718,38.543438,-23.163040,-2.904482,0.476469,1.884261,-0.202470,0.000000,0.000000,0.000000,0.000000,0.000000,0.000000
12196183.000000,-2.313400,-1.662555,1.224118,-1.445268,1.711723,1.263236,-0.580153,0.288217,0.001399,0.732083,-0.265470,-0.195271,0.684167,-0.070685,1.442914,38.717999,-23.210648,-2.928285,0.506681,1.884261,-0.182328,0.000000,0.000000,0.000000,0.000000,0.000000,0.000000
12196184.000000,-2.313111,-1.662564,1.224857,-1.445525,1.711536,1.263939,-0.580226,0.287695,-0.003457,0.735007,-0.259917,-0.194426,0.690762,-0.067589,1.466718,38.936199,-23.258255,-3.027467,0.518583,1.819259,-0.169511,0.000000,0.000000,0.000000,0.000000,0.000000,0.000000
12196185.000000,-2.312818,-1.662561,1.225590,-1.445782,1.711347,1.264642,-0.580293,0.287761,-0.002883,0.730810,-0.257025,-0.189798,0.696959,-0.064120,1.367536,38.983807,-23.135269,-3.079042,0.542386,1.806442,-0.188737,0.000000,0.000000,0.000000,0.000000,0.000000,0.000000
12196186.000000,-2.312525,-1.662563,1.226327,-1.446032,1.711155,1.265338,-0.580361,0.286837,-0.000785,0.733950,-0.257423,-0.186078,0.707117,-0.066982,1.292158,39.082989,-23.258255,-3.154421,0.559781,1.819259,-0.182328,0.000000,0.000000,0.000000,0.000000,0.000000,0.000000
12196187.000000,-2.312236,-1.662569,1.227058,-1.446283,1.710974,1.266046,-0.580430,0.284437,-0.001730,0.731781,-0.253162,-0.185620,0.707119,-0.069571,1.268354,39.158367,-23.163040,-3.277406,0.524076,1.767074,-0.169511,0.000000,0.000000,0.000000,0.000000,0.000000,0.000000
12196188.000000,-2.311951,-1.662575,1.227775,-1.446527,1.710783,1.266760,-0.580493,0.283129,-0.001850,0.728836,-0.250501,-0.188732,0.704587,-0.064813,1.244550,39.205975,-23.016251,-3.400392,0.506681,1.649886,-0.208878,0.000000,0.000000,0.000000,0.000000,0.000000,0.000000
12196189.000000,-2.311660,-1.662579,1.228508,-1.446768,1.710595,1.267452,-0.580566,0.283246,-0.002034,0.732235,-0.244470,-0.181189,0.707814,-0.063777,1.268354,39.253582,-22.964676,-3.570986,0.500272,1.637069,-0.182328,0.000000,0.000000,0.000000,0.000000,0.000000,0.000000
12196190.000000,-2.311371,-1.662576,1.229243,-1.447008,1.710412,1.268140,-0.580636,0.288754,0.000549,0.732722,-0.242493,-0.181858,0.697523,-0.067353,1.268354,39.182171,-22.865494,-3.745546,0.458158,1.682845,-0.169511,0.000000,0.000000,0.000000,0.000000,0.000000,0.000000
12196191.000000,-2.311080,-1.662577,1.229960,-1.447249,1.710227,1.268827,-0.580699,0.283692,0.000542,0.725433,-0.240152,-0.178808,0.689724,-0.067956,1.145368,39.182171,-22.694901,-3.844728,0.440763,1.786300,-0.202470,0.000000,0.000000,0.000000,0.000000,0.000000,0.000000
12196192.000000,-2.310791,-1.662583,1.230678,-1.447480,1.710043,1.269520,-0.580774,0.286039,-0.001177,0.723236,-0.233234,-0.182851,0.694552,-0.067630,1.093793,39.253582,-22.425125,-4.019289,0.470060,1.721298,-0.136552,0.000000,0.000000,0.000000,0.000000,0.000000,0.000000
12196193.000000,-2.310498,-1.662576,1.231410,-1.447718,1.709862,1.270224,-0.580839,0.289951,0.000984,0.721870,-0.232465,-0.184360,0.697607,-0.068734,0.923200,39.182171,-22.377518,-4.019289,0.464567,1.643478,-0.155778,0.000000,0.000000,0.000000,0.000000,0.000000,0.000000
12196194.000000,-2.310203,-1.662570,1.232140,-1.447950,1.709686,1.270911,-0.580900,0.292471,0.002494,0.725745,-0.233627,-0.184147,0.698465,-0.068273,0.772443,39.106792,-22.425125,-4.066896,0.416959,1.637069,-0.208878,0.000000,0.000000,0.000000,0.000000,0.000000,0.000000
12196195.000000,-2.309907,-1.662563,1.232872,-1.448182,1.709506,1.271606,-0.580966,0.298477,0.003945,0.721082,-0.228252,-0.183834,0.688721,-0.070997,0.649457,39.011578,-22.448929,-4.090700,0.362943,1.630660,-0.188737,0.000000,0.000000,0.000000,0.000000,0.000000,0.000000
12196196.000000,-2.309602,-1.662559,1.233584,-1.448409,1.709318,1.272309,-0.581036,0.300750,0.003878,0.721168,-0.231241,-0.181604,0.691664,-0.073208,0.427289,38.960003,-22.325943,-4.090700,0.410551,1.617843,-0.155778,0.000000,0.000000,0.000000,0.000000,0.000000,0.000000
12196197.000000,-2.309307,-1.662557,1.234318,-1.448635,1.709133,1.272988,-0.581101,0.297873,0.003174,0.724392,-0.228827,-0.181008,0.682089,-0.069458,0.304304,38.936199,-22.377518,-4.166078,0.458158,1.670028,-0.142960,0.000000,0.000000,0.000000,0.000000,0.000000,0.000000
12196198.000000,-2.309011,-1.662549,1.235058,-1.448855,1.708956,1.273679,-0.581160,0.296845,0.005016,0.728773,-0.225512,-0.178574,0.682319,-0.068365,0.105939,38.813213,-22.500504,-4.289064,0.452665,1.735030,-0.208878,0.000000,0.000000,0.000000,0.000000,0.000000,0.000000
12196199.000000,-2.308710,-1.662549,1.235786,-1.449069,1.708783,1.274367,-0.581232,0.297774,0.003362,0.731578,-0.223989,-0.175449,0.687549,-0.072123,-0.068621,38.813213,-22.595718,-4.388246,0.410551,1.714889,-0.155778,0.000000,0.000000,0.000000,0.000000,0.000000,0.000000
12196200.000000,-2.308413,-1.662549,1.236524,-1.449284,1.708609,1.275063,-0.581296,0.297191,0.002254,0.732954,-0.223560,-0.174770,0.685981,-0.071735,-0.167803,38.813213,-22.770279,-4.562807,0.410551,1.708480,-0.188737,0.000000,0.000000,0.000000,0.000000,0.000000,0.000000
12196201.000000,-2.308116,-1.662554,1.237250,-1.449492,1.708430,1.275756,-0.581358,0.297588,-0.000250,0.731433,-0.217434,-0.172323,0.688895,-0.071056,-0.290789,38.888592,-22.865494,-4.709596,0.398649,1.727706,-0.229020,0.000000,0.000000,0.000000,0.000000,0.000000,0.000000
12196202.000000,-2.307809,-1.662552,1.237992,-1.449706,1.708250,1.276428,-0.581437,0.296925,0.000397,0.734586,-0.213025,-0.176312,0.683048,-0.070580,-0.540728,38.864788,-23.063858,-4.757204,0.386747,1.825668,-0.149369,0.000000,0.000000,0.000000,0.000000,0.000000,0.000000
12196203.000000,-2.307511,-1.662559,1.238735,-1.449913,1.708075,1.277114,-0.581501,0.298442,-0.001400,0.736462,-0.210957,-0.174375,0.683298,-0.066388,-0.735125,38.936199,-23.186844,-4.884157,0.356534,1.897079,-0.163102,0.000000,0.000000,0.000000,0.000000,0.000000,0.000000
12196204.000000,-2.307207,-1.662565,1.239460,-1.450121,1.707899,1.277795,-0.581567,0.297802,-0.002692,0.732812,-0.212179,-0.174655,0.695131,-0.067454,-0.985064,39.011578,-23.234451,-5.030946,0.369352,1.844894,-0.188737,0.000000,0.000000,0.000000,0.000000,0.000000,0.000000
12196205.000000,-2.306914,-1.662569,1.240190,-1.450330,1.707726,1.278490,-0.581634,0.291870,-0.002905,0.729122,-0.207700,-0.174203,0.695662,-0.070106,-1.008868,39.059185,-23.186844,-5.130128,0.362943,1.735030,-0.169511,0.000000,0.000000,0.000000,0.000000,0.000000,0.000000
12196206.000000,-2.306614,-1.662569,1.240913,-1.450529,1.707562,1.279177,-0.581701,0.294150,-0.001935,0.730782,-0.207173,-0.166705,0.687953,-0.071656,-1.159625,39.059185,-23.210648,-5.253114,0.320829,1.708480,-0.163102,0.000000,0.000000,0.000000,0.000000,0.000000,0.000000
12196207.000000,-2.306315,-1.662572,1.241638,-1.450727,1.707399,1.279849,-0.581767,0.293529,-0.002402,0.733024,-0.206293,-0.163153,0.683698,-0.067284,-1.254840,39.106792,-23.135269,-5.399904,0.297025,1.773483,-0.175919,0.000000,0.000000,0.000000,0.000000,0.000000,0.000000
12196208.000000,-2.306022,-1.662578,1.242364,-1.450930,1.707220,1.280513,-0.581831,0.296773,-0.003363,0.729563,-0.205818,-0.171960,0.677081,-0.069928,-1.282611,39.182171,-22.988480,-5.526857,0.344633,1.884261,-0.169511,0.000000,0.000000,0.000000,0.000000,0.000000,0.000000
12196209.000000,-2.305732,-1.662581,1.243072,-1.451132,1.707044,1.281193,-0.581897,0.294319,-0.003355,0.723166,-0.206927,-0.170752,0.675922,-0.066198,-1.330218,39.229778,-22.817886,-5.598268,0.344633,1.942855,-0.175919,0.000000,0.000000,0.000000,0.000000,0.000000,0.000000
12196210.000000,-2.305436,-1.662579,1.243804,-1.451336,1.706873,1.281873,-0.581965,0.295834,-0.001679,0.722039,-0.205474,-0.170187,0.683553,-0.064994,-1.453204,39.205975,-22.817886,-5.626039,0.320829,1.903487,-0.136552,0.000000,0.000000,0.000000,0.000000,0.000000,0.000000
12196211.000000,-2.305145,-1.662582,1.244543,-1.451537,1.706710,1.282571,-0.582024,0.293938,-0.001119,0.724956,-0.206897,-0.168648,0.687164,-0.065252,-1.504779,39.205975,-22.940872,-5.673646,0.267728,1.760665,-0.196061,0.000000,0.000000,0.000000,0.000000,0.000000,0.000000
12196212.000000,-2.304850,-1.662581,1.245267,-1.451739,1.706549,1.283252,-0.582094,0.293546,-0.000189,0.727436,-0.209213,-0.168429,0.687729,-0.065324,-1.580157,39.182171,-22.964676,-5.673646,0.225614,1.702071,-0.136552,0.000000,0.000000,0.000000,0.000000,0.000000,0.000000
12196213.000000,-2.304550,-1.662588,1.245997,-1.451951,1.706384,1.283938,-0.582157,0.296174,-0.001796,0.724168,-0.209026,-0.165991,0.684408,-0.063062,-1.750750,39.253582,-23.040054,-5.598268,0.237516,1.727706,-0.136552,0.000000,0.000000,0.000000,0.000000,0.000000,0.000000
12196214.000000,-2.304261,-1.662599,1.246728,-1.452154,1.706215,1.284626,-0.582215,0.295618,-0.004631,0.726666,-0.208791,-0.168115,0.679551,-0.058803,-1.826129,39.400372,-23.210648,-5.526857,0.285123,1.832076,-0.202470,0.000000,0.000000,0.000000,0.000000,0.000000,0.000000
12196215.000000,-2.303969,-1.662608,1.247467,-1.452353,1.706052,1.285295,-0.582287,0.290904,-0.005964,0.730588,-0.206813,-0.168203,0.675823,-0.060789,-1.925311,39.523357,-23.381241,-5.526857,0.261320,1.936446,-0.130143,0.000000,0.000000,0.000000,0.000000,0.000000,0.000000
12196216.000000,-2.303688,-1.662620,1.248212,-1.452550,1.705873,1.285979,-0.582340,0.290814,-0.010558,0.735891,-0.203048,-0.174009,0.675589,-0.057487,-1.949114,39.670147,-23.579605,-5.626039,0.279630,1.955673,-0.188737,0.000000,0.000000,0.000000,0.000000,0.000000,0.000000
12196217.000000,-2.303404,-1.662635,1.248951,-1.452747,1.705698,1.286661,-0.582400,0.289372,-0.011291,0.741537,-0.199113,-0.169757,0.678796,-0.056909,-1.925311,39.840740,-23.849380,-5.649843,0.291532,1.909896,-0.196061,0.000000,0.000000,0.000000,0.000000,0.000000,0.000000
12196218.000000,-2.303122,-1.662647,1.249686,-1.452943,1.705523,1.287348,-0.582464,0.285622,-0.010601,0.743606,-0.198822,-0.172113,0.680668,-0.058636,-1.901507,39.963726,-24.043777,-5.673646,0.332731,1.871444,-0.149369,0.000000,0.000000,0.000000,0.000000,0.000000,0.000000
12196219.000000,-2.302837,-1.662669,1.250415,-1.453143,1.705345,1.288016,-0.582522,0.286908,-0.016000,0.739413,-0.206799,-0.176960,0.677997,-0.061444,-1.925311,40.209698,-24.166763,-5.598268,0.393156,1.962081,-0.182328,0.000000,0.000000,0.000000,0.000000,0.000000,0.000000
12196220.000000,-2.302552,-1.662691,1.251153,-1.453352,1.705176,1.288678,-0.582586,0.284758,-0.020074,0.741438,-0.210710,-0.176493,0.675861,-0.061214,-1.972918,40.455669,-24.313553,-5.499086,0.416959,2.033492,-0.155778,0.000000,0.000000,0.000000,0.000000,0.000000,0.000000
12196221.000000,-2.302281,-1.662716,1.251892,-1.453564,1.705008,1.289352,-0.582638,0.281299,-0.019034,0.738826,-0.209553,-0.172513,0.675079,-0.057550,-1.925311,40.673870,-24.341324,-5.427675,0.452665,2.060043,-0.221696,0.000000,0.000000,0.000000,0.000000,0.000000,0.000000
12196222.000000,-2.302006,-1.662733,1.252615,-1.453759,1.704840,1.290022,-0.582706,0.280993,-0.018041,0.733818,-0.206234,-0.170537,0.674870,-0.059470,-1.826129,40.749249,-24.341324,-5.475282,0.410551,2.001449,-0.163102,0.000000,0.000000,0.000000,0.000000,0.000000,0.000000
12196223.000000,-2.301730,-1.662752,1.253349,-1.453963,1.704678,1.290706,-0.582764,0.277665,-0.018530,0.735807,-0.202132,-0.171884,0.679311,-0.058397,-1.726946,40.872234,-24.388931,-5.451478,0.315336,1.923629,-0.169511,0.000000,0.000000,0.000000,0.000000,0.000000,0.000000
12196224.000000,-2.301470,-1.662772,1.254068,-1.454164,1.704504,1.291390,-0.582824,0.269461,-0.018967,0.732485,-0.200825,-0.167156,0.672471,-0.057466,-1.504779,40.991253,-24.265945,-5.499086,0.327238,1.851302,-0.182328,0.000000,0.000000,0.000000,0.000000,0.000000,0.000000
12196225.000000,-2.301198,-1.662786,1.254797,-1.454370,1.704336,1.292061,-0.582885,0.266529,-0.017683,0.732704,-0.201587,-0.169282,0.673950,-0.058200,-1.429400,41.042828,-24.119156,-5.475282,0.344633,1.858627,-0.155778,0.000000,0.000000,0.000000,0.000000,0.000000,0.000000
12196226.000000,-2.300927,-1.662800,1.255530,-1.454580,1.704168,1.292727,-0.582938,0.274433,-0.016355,0.734054,-0.205155,-0.171149,0.668050,-0.057325,-1.429400,41.066631,-24.019974,-5.427675,0.374845,1.916305,-0.169511,0.000000,0.000000,0.000000,0.000000,0.000000,0.000000
12196227.000000,-2.300664,-1.662811,1.256248,-1.454783,1.703998,1.293401,-0.582994,0.269647,-0.014420,0.728433,-0.204874,-0.167955,0.669080,-0.056539,-1.330218,41.042828,-23.896988,-5.399904,0.434354,1.974899,-0.182328,0.000000,0.000000,0.000000,0.000000,0.000000,0.000000
12196228.000000,-2.300402,-1.662820,1.256973,-1.455000,1.703837,1.294082,-0.583050,0.266034,-0.016214,0.725824,-0.208602,-0.165011,0.675534,-0.057067,-1.207232,41.019024,-23.774002,-5.328493,0.446256,1.884261,-0.163102,0.000000,0.000000,0.000000,0.000000,0.000000,0.000000
12196229.000000,-2.300133,-1.662819,1.257703,-1.455216,1.703681,1.294778,-0.583102,0.265691,-0.010973,0.720680,-0.211596,-0.160371,0.675354,-0.055640,-1.231036,40.844463,-23.726395,-5.253114,0.393156,1.747848,-0.196061,0.000000,0.000000,0.000000,0.000000,0.000000,0.000000
12196230.000000,-2.299869,-1.662824,1.258424,-1.455428,1.703520,1.295453,-0.583163,0.261705,-0.008794,0.720961,-0.211134,-0.160970,0.681238,-0.052131,-1.207232,40.725445,-23.702591,-5.153932,0.327238,1.741439,-0.169511,0.000000,0.000000,0.000000,0.000000,0.000000,0.000000
12196231.000000,-2.299598,-1.662825,1.259148,-1.455648,1.703357,1.296138,-0.583221,0.263213,-0.004119,0.719641,-0.215034,-0.159220,0.679474,-0.053727,-1.231036,40.602459,-23.627213,-4.983339,0.308927,1.773483,-0.155778,0.000000,0.000000,0.000000,0.000000,0.000000,0.000000
12196232.000000,-2.299339,-1.662830,1.259865,-1.455871,1.703184,1.296830,-0.583274,0.263178,-0.002389,0.720123,-0.220902,-0.164192,0.682157,-0.048080,-1.207232,40.550884,-23.603409,-4.832582,0.386747,1.832076,-0.196061,0.000000,0.000000,0.000000,0.000000,0.000000,0.000000
12196233.000000,-2.299074,-1.662832,1.260595,-1.456095,1.703019,1.297504,-0.583334,0.259730,-0.002602,0.719944,-0.222544,-0.163708,0.676011,-0.051000,-1.254840,40.427898,-23.651016,-4.661989,0.428861,1.865035,-0.175919,0.000000,0.000000,0.000000,0.000000,0.000000,0.000000
12196234.000000,-2.298814,-1.662827,1.261329,-1.456315,1.702858,1.298199,-0.583389,0.263306,-0.000524,0.725321,-0.221499,-0.161070,0.681056,-0.047933,-1.231036,40.209698,-23.726395,-4.586610,0.422452,1.838485,-0.169511,0.000000,0.000000,0.000000,0.000000,0.000000,0.000000
12196235.000000,-2.298552,-1.662831,1.262057,-1.456540,1.702693,1.298885,-0.583440,0.263114,-0.000059,0.730786,-0.226288,-0.164837,0.683692,-0.048890,-1.207232,40.162090,-23.873184,-4.412050,0.446256,1.767074,-0.196061,0.000000,0.000000,0.000000,0.000000,0.000000,0.000000
12196236.000000,-2.298285,-1.662836,1.262786,-1.456763,1.702535,1.299587,-0.583492,0.263985,-0.003306,0.728545,-0.223241,-0.162621,0.685360,-0.050866,-1.231036,40.134319,-23.996170,-4.364442,0.458158,1.689254,-0.196061,0.000000,0.000000,0.000000,0.000000,0.000000,0.000000
12196237.000000,-2.298030,-1.662840,1.263507,-1.456988,1.702374,1.300263,-0.583549,0.262793,-0.004421,0.725077,-0.228123,-0.163710,0.685903,-0.047869,-1.183428,40.062908,-24.095352,-4.241457,0.464567,1.767074,-0.188737,0.000000,0.000000,0.000000,0.000000,0.000000,0.000000
12196238.000000,-2.297767,-1.662840,1.264230,-1.457214,1.702212,1.300922,-0.583608,0.260402,-0.004058,0.726814,-0.226916,-0.164742,0.681860,-0.051687,-1.207232,39.939922,-24.190567,-4.118471,0.434354,1.974899,-0.142960,0.000000,0.000000,0.000000,0.000000,0.000000,0.000000
12196239.000000,-2.297515,-1.662847,1.264960,-1.457436,1.702048,1.301599,-0.583656,0.259731,-0.002468,0.729381,-0.227234,-0.166560,0.680881,-0.051060,-1.131854,39.892315,-24.265945,-4.066896,0.428861,2.098495,-0.188737,0.000000,0.000000,0.000000,0.000000,0.000000,0.000000
12196240.000000,-2.297269,-1.662847,1.265677,-1.457656,1.701886,1.302277,-0.583715,0.254512,-0.003036,0.725036,-0.225100,-0.163247,0.674899,-0.048612,-0.985064,39.793133,-24.289749,-3.991518,0.422452,2.033492,-0.163102,0.000000,0.000000,0.000000,0.000000,0.000000,0.000000
12196241.000000,-2.297014,-1.662843,1.266397,-1.457876,1.701724,1.302970,-0.583771,0.252352,-0.002517,0.723739,-0.221676,-0.158641,0.680063,-0.051259,-0.909686,39.646343,-24.242142,-3.991518,0.464567,1.949264,-0.142960,0.000000,0.000000,0.000000,0.000000,0.000000,0.000000
12196242.000000,-2.296762,-1.662843,1.267112,-1.458095,1.701581,1.303661,-0.583819,0.248492,-0.000833,0.723235,-0.220351,-0.154925,0.680169,-0.045095,-0.862078,39.574932,-24.242142,-3.943910,0.398649,1.930038,-0.215287,0.000000,0.000000,0.000000,0.000000,0.000000,0.000000
12196243.000000,-2.296511,-1.662838,1.267832,-1.458329,1.701422,1.304343,-0.583882,0.248410,0.001703,0.725928,-0.228168,-0.157011,0.679800,-0.050052,-0.834307,39.451946,-24.218338,-3.797121,0.446256,1.942855,-0.163102,0.000000,0.000000,0.000000,0.000000,0.000000,0.000000
12196244.000000,-2.296259,-1.662839,1.268540,-1.458560,1.701268,1.305024,-0.583934,0.252864,0.000671,0.719932,-0.229196,-0.158175,0.679131,-0.050647,-0.786700,39.451946,-23.996170,-3.697939,0.488370,1.942855,-0.188737,0.000000,0.000000,0.000000,0.000000,0.000000,0.000000
12196245.000000,-2.296014,-1.662832,1.269235,-1.458787,1.701110,1.305713,-0.583989,0.248616,0.001862,0.715685,-0.228924,-0.156601,0.684281,-0.051504,-0.762896,39.376568,-23.774002,-3.523378,0.506681,1.955673,-0.202470,0.000000,0.000000,0.000000,0.000000,0.000000,0.000000
12196246.000000,-2.295773,-1.662828,1.269961,-1.459013,1.700962,1.306389,-0.584049,0.244708,0.002094,0.717177,-0.226855,-0.153170,0.688102,-0.054737,-0.687518,39.328960,-23.801773,-3.424196,0.428861,1.942855,-0.142960,0.000000,0.000000,0.000000,0.000000,0.000000,0.000000
12196247.000000,-2.295536,-1.662815,1.270682,-1.459237,1.700811,1.307081,-0.584100,0.242948,0.004634,0.715324,-0.224924,-0.152286,0.683683,-0.053080,-0.564532,39.182171,-23.801773,-3.475771,0.393156,1.851302,-0.196061,0.000000,0.000000,0.000000,0.000000,0.000000,0.000000
12196248.000000,-2.295294,-1.662809,1.271385,-1.459458,1.700662,1.307757,-0.584155,0.243114,0.004705,0.711339,-0.225605,-0.148563,0.684325,-0.054486,-0.465350,39.106792,-23.678787,-3.448000,0.381254,1.812850,-0.182328,0.000000,0.000000,0.000000,0.000000,0.000000,0.000000
12196249.000000,-2.295048,-1.662802,1.272099,-1.459689,1.700508,1.308432,-0.584210,0.239704,0.008391,0.707955,-0.224236,-0.148741,0.677770,-0.055669,-0.465350,39.011578,-23.678787,-3.348818,0.452665,1.838485,-0.163102,0.000000,0.000000,0.000000,0.000000,0.000000,0.000000
12196250.000000,-2.294811,-1.662800,1.272809,-1.459907,1.700358,1.309106,-0.584263,0.241652,0.005773,0.713142,-0.226926,-0.146270,0.673730,-0.054791,-0.413775,39.011578,-23.726395,-3.325014,0.494779,1.974899,-0.188737,0.000000,0.000000,0.000000,0.000000,0.000000,0.000000
12196251.000000,-2.294574,-1.662794,1.273534,-1.460133,1.700217,1.309773,-0.584319,0.235258,0.005746,0.717721,-0.224672,-0.147447,0.670242,-0.055819,-0.342364,38.936199,-23.920792,-3.277406,0.470060,2.001449,-0.175919,0.000000,0.000000,0.000000,0.000000,0.000000,0.000000
12196252.000000,-2.294344,-1.662796,1.274249,-1.460358,1.700074,1.310459,-0.584371,0.231497,0.003374,0.714247,-0.222227,-0.145829,0.673515,-0.055732,-0.266986,38.960003,-23.996170,-3.249635,0.494779,1.955673,-0.182328,0.000000,0.000000,0.000000,0.000000,0.000000,0.000000
12196253.000000,-2.294116,-1.662797,1.274960,-1.460569,1.699930,1.311143,-0.584423,0.230708,0.001768,0.713151,-0.216936,-0.143023,0.678652,-0.055558,-0.144000,38.983807,-24.142960,-3.249635,0.476469,1.865035,-0.188737,0.000000,0.000000,0.000000,0.000000,0.000000,0.000000
12196254.000000,-2.293882,-1.662802,1.275681,-1.460790,1.699790,1.311822,-0.584483,0.231162,-0.001085,0.717200,-0.216756,-0.139953,0.673135,-0.057028,-0.044818,39.082989,-24.341324,-3.202028,0.428861,1.890670,-0.155778,0.000000,0.000000,0.000000,0.000000,0.000000,0.000000
12196255.000000,-2.293652,-1.662806,1.276389,-1.461000,1.699641,1.312493,-0.584528,0.232207,-0.002444,0.703518,-0.213315,-0.143349,0.671993,-0.050126,0.030561,39.158367,-24.365128,-3.178224,0.452665,1.955673,-0.208878,0.000000,0.000000,0.000000,0.000000,0.000000,0.000000
12196256.000000,-2.293424,-1.662813,1.277099,-1.461212,1.699496,1.313162,-0.584589,0.227776,-0.003825,0.705180,-0.213789,-0.135002,0.672866,-0.054071,0.153547,39.253582,-24.365128,-3.154421,0.476469,1.995040,-0.149369,0.000000,0.000000,0.000000,0.000000,0.000000,0.000000
12196257.000000,-2.293194,-1.662823,1.277816,-1.461422,1.699351,1.313837,-0.584640,0.227377,-0.005960,0.711824,-0.205853,-0.137400,0.672317,-0.054639,0.177350,39.400372,-24.341324,-3.202028,0.518583,2.027084,-0.149369,0.000000,0.000000,0.000000,0.000000,0.000000,0.000000
12196259.000000,-2.292748,-1.662832,1.279227,-1.461827,1.699079,1.315184,-0.584741,0.225178,-0.004170,0.715209,-0.203616,-0.140098,0.676527,-0.052630,0.451093,39.499554,-24.218338,-3.325014,0.470060,1.923629,-0.149369,0.000000,0.000000,0.000000,0.000000,0.000000,0.000000
12196260.000000,-2.292528,-1.662843,1.279942,-1.462030,1.698945,1.315875,-0.584784,0.224395,-0.006204,0.712882,-0.202156,-0.138923,0.675978,-0.051795,0.526471,39.646343,-24.166763,-3.376589,0.452665,1.806442,-0.196061,0.000000,0.000000,0.000000,0.000000,0.000000,0.000000
12196261.000000,-2.292307,-1.662847,1.280637,-1.462231,1.698812,1.316555,-0.584834,0.221528,-0.005242,0.709824,-0.200891,-0.134865,0.673445,-0.047868,0.673261,39.693951,-24.071548,-3.301210,0.464567,1.773483,-0.208878,0.000000,0.000000,0.000000,0.000000,0.000000,0.000000
12196262.000000,-2.292080,-1.662849,1.281338,-1.462434,1.698673,1.317228,-0.584890,0.226402,-0.004139,0.709003,-0.200109,-0.135402,0.668567,-0.052602,0.724836,39.721722,-23.873184,-3.325014,0.458158,1.800033,-0.142960,0.000000,0.000000,0.000000,0.000000,0.000000,0.000000
12196263.000000,-2.291860,-1.662856,1.282035,-1.462631,1.698533,1.317911,-0.584937,0.225592,-0.011328,0.703766,-0.197919,-0.134802,0.675140,-0.052574,0.772443,39.816936,-23.750198,-3.301210,0.458158,1.825668,-0.163102,0.000000,0.000000,0.000000,0.000000,0.000000,0.000000
12196264.000000,-2.291641,-1.662849,1.282736,-1.462827,1.698394,1.318595,-0.584988,0.223768,-0.005201,0.706547,-0.195078,-0.135968,0.683880,-0.048646,0.871625,39.693951,-23.555801,-3.325014,0.464567,1.754256,-0.163102,0.000000,0.000000,0.000000,0.000000,0.000000,0.000000
12196265.000000,-2.291420,-1.662846,1.283441,-1.463016,1.698256,1.319291,-0.585035,0.223977,-0.002748,0.701736,-0.190752,-0.136737,0.685644,-0.050129,0.947004,39.646343,-23.409012,-3.448000,0.476469,1.656295,-0.175919,0.000000,0.000000,0.000000,0.000000,0.000000,0.000000
12196266.000000,-2.291196,-1.662834,1.284132,-1.463209,1.698122,1.319969,-0.585082,0.222876,0.001306,0.705724,-0.194185,-0.136050,0.689130,-0.046519,0.895429,39.499554,-23.309830,-3.424196,0.446256,1.637069,-0.188737,0.000000,0.000000,0.000000,0.000000,0.000000,0.000000
12196267.000000,-2.290981,-1.662825,1.284840,-1.463404,1.697990,1.320651,-0.585136,0.219583,0.003526,0.705167,-0.190824,-0.136338,0.685416,-0.045099,0.947004,39.376568,-23.309830,-3.499574,0.440763,1.670028,-0.169511,0.000000,0.000000,0.000000,0.000000,0.000000,0.000000
12196268.000000,-2.290756,-1.662821,1.285524,-1.463598,1.697850,1.321346,-0.585181,0.223384,0.003298,0.701297,-0.197621,-0.136744,0.684364,-0.046642,0.871625,39.328960,-23.186844,-3.424196,0.470060,1.670028,-0.202470,0.000000,0.000000,0.000000,0.000000,0.000000,0.000000
12196269.000000,-2.290532,-1.662814,1.286226,-1.463792,1.697719,1.322018,-0.585236,0.223271,0.004394,0.699653,-0.197193,-0.132505,0.677530,-0.050266,0.847822,39.229778,-23.111465,-3.348818,0.464567,1.702071,-0.175919,0.000000,0.000000,0.000000,0.000000,0.000000,0.000000
12196270.000000,-2.290306,-1.662802,1.286938,-1.463986,1.697590,1.322702,-0.585287,0.225891,0.006269,0.701354,-0.195312,-0.132260,0.674105,-0.052532,0.772443,39.082989,-23.210648,-3.325014,0.422452,1.773483,-0.155778,0.000000,0.000000,0.000000,0.000000,0.000000,0.000000
12196271.000000,-2.290082,-1.662790,1.287638,-1.464172,1.697458,1.323392,-0.585330,0.227632,0.008657,0.705921,-0.195355,-0.131852,0.678085,-0.051549,0.697065,38.888592,-23.286026,-3.376589,0.374845,1.727706,-0.202470,0.000000,0.000000,0.000000,0.000000,0.000000,0.000000
12196272.000000,-2.289853,-1.662784,1.288351,-1.464361,1.697322,1.324095,-0.585385,0.225809,0.006925,0.711266,-0.194913,-0.134051,0.685850,-0.055317,0.625654,38.837017,-23.432816,-3.448000,0.386747,1.649886,-0.136552,0.000000,0.000000,0.000000,0.000000,0.000000,0.000000
12196273.000000,-2.289629,-1.662774,1.289045,-1.464541,1.697181,1.324782,-0.585432,0.223753,0.008011,0.714398,-0.192457,-0.135999,0.683868,-0.054940,0.574079,38.690228,-23.456619,-3.499574,0.416959,1.662704,-0.149369,0.000000,0.000000,0.000000,0.000000,0.000000,0.000000
12196274.000000,-2.289408,-1.662763,1.289758,-1.464721,1.697050,1.325446,-0.585475,0.224723,0.008095,0.713996,-0.190018,-0.136098,0.677326,-0.048814,0.526471,38.571209,-23.651016,-3.570986,0.405057,1.812850,-0.196061,0.000000,0.000000,0.000000,0.000000,0.000000,0.000000
12196275.000000,-2.289189,-1.662753,1.290471,-1.464907,1.696913,1.326122,-0.585522,0.226183,0.007695,0.709515,-0.190661,-0.137658,0.674440,-0.050608,0.474897,38.472027,-23.801773,-3.670168,0.434354,1.884261,-0.202470,0.000000,0.000000,0.000000,0.000000,0.000000,0.000000
12196276.000000,-2.288968,-1.662753,1.291172,-1.465087,1.696783,1.326788,-0.585574,0.222233,0.003999,0.707842,-0.190654,-0.136224,0.673138,-0.048851,0.502668,38.519634,-23.873184,-3.670168,0.422452,1.851302,-0.163102,0.000000,0.000000,0.000000,0.000000,0.000000,0.000000
12196277.000000,-2.288744,-1.662741,1.291875,-1.465263,1.696654,1.327462,-0.585621,0.219990,0.004881,0.705386,-0.185476,-0.132238,0.673365,-0.051225,0.502668,38.424419,-23.873184,-3.745546,0.416959,1.773483,-0.149369,0.000000,0.000000,0.000000,0.000000,0.000000,0.000000
