chaoyuefei/paper-gmrm-data/robot_logs/s2_dq_gmrm_xz_min_0.50_log_20260314_174015.csv
# time_ms,q_0,q_1,q_2,q_3,q_4,q_5,q_6,dq_0,dq_1,dq_2,dq_3,dq_4,dq_5,dq_6,tau_J_0,tau_J_1,tau_J_2,tau_J_3,tau_J_4,tau_J_5,tau_J_6,O_dP_EE_c_0,O_dP_EE_c_1,O_dP_EE_c_2,O_dP_EE_c_3,O_dP_EE_c_4,O_dP_EE_c_5
12678095.000000,-2.415663,-1.662620,1.042883,-1.356092,1.795450,1.081419,-0.548603,-0.000282,-0.000615,-0.000218,-0.000533,0.000492,-0.001709,-0.000684,0.054365,41.606182,-21.052444,-5.721254,0.840848,1.324874,0.048385,0.000000,0.000000,0.000000,0.000000,0.000000,0.000000
12678096.000000,-2.415659,-1.662615,1.042884,-1.356093,1.795450,1.081421,-0.548602,0.000926,0.001353,-0.000145,-0.000912,0.000090,-0.000803,-0.000693,0.006757,41.530804,-21.052444,-5.697450,0.847257,1.312057,0.054794,0.000000,0.000000,0.000000,0.000000,0.000000,0.000000
12678097.000000,-2.415663,-1.662616,1.042886,-1.356092,1.795448,1.081421,-0.548596,-0.000497,0.000345,0.000460,-0.000051,-0.000381,-0.000639,0.001233,0.054365,41.554607,-21.076248,-5.721254,0.859159,1.312057,0.009017,0.000000,0.000000,0.000000,0.000000,0.000000,0.000000
12678098.000000,-2.415661,-1.662618,1.042882,-1.356093,1.795450,1.081420,-0.548600,0.000226,-0.000327,-0.000900,-0.000591,0.000424,-0.000742,-0.000636,0.030561,41.578411,-21.024673,-5.697450,0.840848,1.318465,0.048385,0.000000,0.000000,0.000000,0.000000,0.000000,0.000000
12678099.000000,-2.415658,-1.662618,1.042886,-1.356091,1.795448,1.081418,-0.548598,0.003232,-0.001152,0.000607,0.002212,0.000486,0.002390,-0.007264,0.328107,41.483196,-21.076248,-5.673646,0.835355,1.364242,-0.023942,0.000000,0.000000,0.000000,0.000000,0.000000,0.000000
12678100.000000,-2.415653,-1.662621,1.042889,-1.356089,1.795449,1.081416,-0.548618,0.010256,-0.005324,0.002304,0.003296,-0.000359,0.004759,-0.015726,1.367536,41.261028,-21.024673,-5.499086,0.727323,1.539108,-0.011124,0.000000,0.000000,0.000000,0.000000,0.000000,0.000000
12678101.000000,-2.415622,-1.662622,1.042896,-1.356083,1.795445,1.081413,-0.548647,0.017843,-0.004067,0.006328,0.004117,-0.001339,0.000679,-0.025190,2.926679,40.844463,-20.953262,-5.304689,0.620206,1.760665,-0.031266,0.000000,0.000000,0.000000,0.000000,0.000000,0.000000
12678102.000000,-2.415580,-1.662623,1.042912,-1.356093,1.795427,1.081431,-0.548685,0.023488,-0.002164,0.012618,-0.002943,-0.005996,0.007101,-0.032187,4.858747,40.356487,-20.877884,-4.884157,0.613798,1.865035,-0.077042,0.000000,0.000000,0.000000,0.000000,0.000000,0.000000
12678103.000000,-2.415517,-1.662619,1.042934,-1.356106,1.795403,1.081476,-0.548749,0.032308,0.004171,0.014291,-0.009683,-0.009152,0.017921,-0.043582,6.739240,39.769329,-20.806473,-4.511232,0.601896,1.806442,-0.056901,0.000000,0.000000,0.000000,0.000000,0.000000,0.000000
12678104.000000,-2.415426,-1.662622,1.042961,-1.356130,1.795360,1.081552,-0.548824,0.043680,0.001767,0.021324,-0.020551,-0.019599,0.036237,-0.055122,8.322186,39.328960,-20.707291,-4.142274,0.685209,1.584884,-0.089860,0.000000,0.000000,0.000000,0.000000,0.000000,0.000000
12678105.000000,-2.415327,-1.662618,1.043001,-1.356173,1.795308,1.081649,-0.548925,0.058928,0.003997,0.027977,-0.030382,-0.029858,0.058032,-0.070537,9.782147,38.837017,-20.659683,-3.697939,0.709928,1.383468,-0.070634,0.000000,0.000000,0.000000,0.000000,0.000000,0.000000
12678106.000000,-2.415207,-1.662618,1.043047,-1.356225,1.795244,1.081758,-0.549048,0.073325,0.006415,0.035269,-0.040287,-0.041940,0.078322,-0.091553,10.972333,38.448223,-20.584305,-3.348818,0.727323,1.312057,-0.070634,0.000000,0.000000,0.000000,0.000000,0.000000,0.000000
12678107.000000,-2.415069,-1.662613,1.043103,-1.356290,1.795163,1.081884,-0.549188,0.091789,0.005791,0.044514,-0.048951,-0.048970,0.094809,-0.109079,11.964154,38.031658,-20.536697,-3.003664,0.703519,1.324874,-0.097184,0.000000,0.000000,0.000000,0.000000,0.000000,0.000000
12678108.000000,-2.414936,-1.662604,1.043163,-1.356356,1.795076,1.082027,-0.549359,0.107129,0.007918,0.049099,-0.056394,-0.060001,0.108638,-0.131383,13.003583,37.638897,-20.389908,-2.805300,0.566190,1.448470,-0.056901,0.000000,0.000000,0.000000,0.000000,0.000000,0.000000
12678109.000000,-2.414786,-1.662595,1.043250,-1.356444,1.794962,1.082204,-0.549551,0.116911,0.005901,0.063578,-0.068805,-0.075327,0.124199,-0.154179,13.943830,37.273907,-20.437515,-2.535524,0.482877,1.565658,-0.089860,0.000000,0.000000,0.000000,0.000000,0.000000,0.000000
12678110.000000,-2.414613,-1.662574,1.043352,-1.356536,1.794831,1.082407,-0.549769,0.135778,0.013064,0.076511,-0.076946,-0.090824,0.147698,-0.175267,14.534955,36.805767,-20.584305,-2.460146,0.374845,1.630660,-0.097184,0.000000,0.000000,0.000000,0.000000,0.000000,0.000000
12678111.000000,-2.414427,-1.662560,1.043464,-1.356652,1.794678,1.082643,-0.550018,0.151515,0.011638,0.088538,-0.088602,-0.105529,0.179236,-0.200961,15.153852,36.488384,-20.707291,-2.313356,0.344633,1.572067,-0.122819,0.000000,0.000000,0.000000,0.000000,0.000000,0.000000
12678112.000000,-2.414224,-1.662538,1.043593,-1.356784,1.794496,1.082910,-0.550291,0.166252,0.013055,0.101263,-0.100945,-0.131849,0.207183,-0.225415,15.625958,36.071819,-20.877884,-2.138796,0.362943,1.500655,-0.089860,0.000000,0.000000,0.000000,0.000000,0.000000,0.000000
12678113.000000,-2.413998,-1.662513,1.043734,-1.356934,1.794281,1.083202,-0.550578,0.184718,0.017220,0.116707,-0.119675,-0.162559,0.238298,-0.240255,15.899701,35.655254,-21.024673,-2.039613,0.458158,1.435653,-0.070634,0.000000,0.000000,0.000000,0.000000,0.000000,0.000000
12678114.000000,-2.413759,-1.662493,1.043888,-1.357103,1.794038,1.083518,-0.550871,0.201255,0.018541,0.128219,-0.137699,-0.187399,0.258827,-0.255602,16.145674,35.314068,-21.175430,-1.916628,0.571683,1.422836,-0.097184,0.000000,0.000000,0.000000,0.000000,0.000000,0.000000
12678115.000000,-2.413510,-1.662475,1.044052,-1.357277,1.793786,1.083857,-0.551168,0.217423,0.017424,0.141156,-0.147878,-0.207712,0.282968,-0.268460,16.391645,35.068096,-21.246841,-1.992006,0.620206,1.422836,-0.064225,0.000000,0.000000,0.000000,0.000000,0.000000,0.000000
12678116.000000,-2.413237,-1.662462,1.044222,-1.357472,1.793525,1.084207,-0.551462,0.232989,0.020714,0.149447,-0.162732,-0.225051,0.305731,-0.270112,16.467024,34.921307,-21.246841,-1.964235,0.589994,1.442062,-0.116410,0.000000,0.000000,0.000000,0.000000,0.000000,0.000000
12678117.000000,-2.412952,-1.662447,1.044410,-1.357674,1.793245,1.084584,-0.551760,0.254390,0.017370,0.159637,-0.177868,-0.241368,0.328018,-0.277928,16.617781,34.774517,-21.294449,-1.992006,0.530485,1.552840,-0.116410,0.000000,0.000000,0.000000,0.000000,0.000000,0.000000
12678118.000000,-2.412651,-1.662437,1.044602,-1.357907,1.792947,1.084982,-0.552061,0.271154,0.016073,0.169415,-0.194426,-0.256357,0.356130,-0.285153,16.665388,34.726910,-21.270645,-1.940431,0.405057,1.702071,-0.083451,0.000000,0.000000,0.000000,0.000000,0.000000,0.000000
12678119.000000,-2.412322,-1.662434,1.044798,-1.358154,1.792639,1.085396,-0.552356,0.288411,0.013067,0.177551,-0.211227,-0.275000,0.379134,-0.287054,16.590010,34.774517,-21.147659,-1.841249,0.339139,1.741439,-0.130143,0.000000,0.000000,0.000000,0.000000,0.000000,0.000000
12678120.000000,-2.411984,-1.662427,1.045012,-1.358421,1.792308,1.085850,-0.552665,0.308058,0.013510,0.189001,-0.228289,-0.289316,0.397205,-0.289297,16.590010,34.726910,-21.123856,-1.670656,0.297025,1.735030,-0.064225,0.000000,0.000000,0.000000,0.000000,0.000000,0.000000
12678121.000000,-2.411634,-1.662425,1.045233,-1.358711,1.791961,1.086326,-0.552951,0.319882,0.009103,0.202562,-0.245909,-0.313386,0.419861,-0.290403,16.518599,34.750713,-21.024673,-1.519899,0.344633,1.630660,-0.064225,0.000000,0.000000,0.000000,0.000000,0.000000,0.000000
12678122.000000,-2.411264,-1.662422,1.045471,-1.359005,1.791589,1.086835,-0.553230,0.333567,0.007115,0.213889,-0.258392,-0.330230,0.450846,-0.287561,16.490828,34.726910,-20.977066,-1.420717,0.369352,1.494247,-0.130143,0.000000,0.000000,0.000000,0.000000,0.000000,0.000000
12678123.000000,-2.410896,-1.662423,1.045717,-1.359312,1.791197,1.087360,-0.553512,0.340107,0.003997,0.221959,-0.273341,-0.349863,0.471905,-0.287090,16.641584,34.774517,-20.905655,-1.349306,0.458158,1.435653,-0.122819,0.000000,0.000000,0.000000,0.000000,0.000000,0.000000
12678124.000000,-2.410510,-1.662421,1.045968,-1.359633,1.790799,1.087896,-0.553798,0.354972,0.003497,0.230969,-0.289706,-0.368618,0.494970,-0.285788,16.764570,34.750713,-20.830276,-1.396913,0.530485,1.422836,-0.089860,0.000000,0.000000,0.000000,0.000000,0.000000,0.000000
12678125.000000,-2.410115,-1.662426,1.046227,-1.359965,1.790382,1.088457,-0.554065,0.376000,0.000775,0.235645,-0.301995,-0.383303,0.508299,-0.280529,16.986738,34.826092,-20.683487,-1.396913,0.530485,1.487838,-0.089860,0.000000,0.000000,0.000000,0.000000,0.000000,0.000000
12678126.000000,-2.409711,-1.662425,1.046491,-1.360313,1.789961,1.089017,-0.554335,0.382282,0.000671,0.243637,-0.316661,-0.394652,0.526225,-0.277906,17.161299,34.826092,-20.560501,-1.448488,0.506681,1.539108,-0.097184,0.000000,0.000000,0.000000,0.000000,0.000000,0.000000
12678127.000000,-2.409290,-1.662423,1.046770,-1.360679,1.789522,1.089611,-0.554607,0.388667,0.001213,0.257000,-0.332353,-0.411707,0.544878,-0.274223,17.359663,34.798321,-20.485123,-1.297731,0.458158,1.552840,-0.103593,0.000000,0.000000,0.000000,0.000000,0.000000,0.000000
12678128.000000,-2.408859,-1.662416,1.047064,-1.361061,1.789061,1.090228,-0.554875,0.399477,0.005735,0.267771,-0.350006,-0.419351,0.562142,-0.270862,17.530256,34.726910,-20.437515,-1.150941,0.398649,1.487838,-0.089860,0.000000,0.000000,0.000000,0.000000,0.000000,0.000000
12678129.000000,-2.408412,-1.662417,1.047362,-1.361463,1.788598,1.090865,-0.555138,0.410331,0.003596,0.275730,-0.366775,-0.431771,0.585748,-0.267231,17.728621,34.750713,-20.389908,-0.952577,0.369352,1.383468,-0.136552,0.000000,0.000000,0.000000,0.000000,0.000000,0.000000
12678130.000000,-2.407947,-1.662410,1.047674,-1.361877,1.788101,1.091516,-0.555399,0.423853,0.007489,0.288271,-0.386865,-0.449936,0.599954,-0.268666,18.002363,34.679302,-20.389908,-0.730409,0.362943,1.312057,-0.136552,0.000000,0.000000,0.000000,0.000000,0.000000,0.000000
12678131.000000,-2.407472,-1.662405,1.047987,-1.362303,1.787598,1.092178,-0.555667,0.442838,0.006649,0.297662,-0.398296,-0.477593,0.615353,-0.264550,18.200727,34.627728,-20.362137,-0.583620,0.410551,1.285506,-0.097184,0.000000,0.000000,0.000000,0.000000,0.000000,0.000000
12678132.000000,-2.406985,-1.662400,1.048313,-1.362741,1.787075,1.092868,-0.555920,0.453087,0.005883,0.305321,-0.415577,-0.491961,0.639884,-0.263820,18.498274,34.580120,-20.362137,-0.385256,0.458158,1.272689,-0.130143,0.000000,0.000000,0.000000,0.000000,0.000000,0.000000
12678133.000000,-2.406489,-1.662394,1.048653,-1.363196,1.786532,1.093582,-0.556174,0.474231,0.005939,0.315368,-0.423549,-0.501749,0.657568,-0.257728,18.744246,34.504742,-20.290726,-0.262270,0.482877,1.285506,-0.142960,0.000000,0.000000,0.000000,0.000000,0.000000,0.000000
12678134.000000,-2.405983,-1.662385,1.049006,-1.363658,1.785986,1.094294,-0.556429,0.484171,0.006376,0.326019,-0.436747,-0.520707,0.678049,-0.256251,19.093367,34.409527,-20.338333,-0.286073,0.559781,1.370651,-0.110001,0.000000,0.000000,0.000000,0.000000,0.000000,0.000000
12678135.000000,-2.405460,-1.662378,1.049374,-1.364133,1.785421,1.095037,-0.556676,0.495049,0.004950,0.338628,-0.445770,-0.533754,0.693659,-0.252533,19.438520,34.385723,-20.362137,-0.186891,0.518583,1.422836,-0.136552,0.000000,0.000000,0.000000,0.000000,0.000000,0.000000
12678136.000000,-2.404935,-1.662370,1.049746,-1.364629,1.784844,1.095799,-0.556926,0.506442,0.007781,0.350366,-0.457566,-0.542524,0.719541,-0.253116,19.811445,34.334148,-20.437515,-0.111513,0.524076,1.435653,-0.103593,0.000000,0.000000,0.000000,0.000000,0.000000,0.000000
12678137.000000,-2.404377,-1.662356,1.050138,-1.365139,1.784254,1.096589,-0.557173,0.524525,0.008408,0.365297,-0.478221,-0.557103,0.743717,-0.250215,20.005842,34.211163,-20.512894,0.035277,0.506681,1.396285,-0.116410,0.000000,0.000000,0.000000,0.000000,0.000000,0.000000
12678138.000000,-2.403806,-1.662347,1.050549,-1.365666,1.783649,1.097401,-0.557417,0.545852,0.009951,0.377359,-0.490521,-0.565649,0.760631,-0.245081,20.231977,34.163555,-20.659683,0.158263,0.470060,1.357833,-0.155778,0.000000,0.000000,0.000000,0.000000,0.000000,0.000000
12678139.000000,-2.403230,-1.662335,1.050965,-1.366206,1.783033,1.098236,-0.557666,0.554868,0.012006,0.392580,-0.506280,-0.582321,0.786843,-0.246159,20.454145,34.088177,-20.782669,0.257445,0.416959,1.247054,-0.130143,0.000000,0.000000,0.000000,0.000000,0.000000,0.000000
12678140.000000,-2.402645,-1.662320,1.051405,-1.366745,1.782408,1.099097,-0.557906,0.559646,0.010826,0.403556,-0.518450,-0.590310,0.812456,-0.246368,20.850874,33.992962,-21.052444,0.285216,0.356534,1.169235,-0.149369,0.000000,0.000000,0.000000,0.000000,0.000000,0.000000
12678141.000000,-2.402048,-1.662306,1.051850,-1.367302,1.781745,1.099966,-0.558149,0.574579,0.013144,0.417839,-0.529213,-0.603463,0.829660,-0.248393,21.120649,33.893780,-21.175430,0.257445,0.362943,1.201278,-0.089860,0.000000,0.000000,0.000000,0.000000,0.000000,0.000000
12678142.000000,-2.401431,-1.662294,1.052302,-1.367867,1.781088,1.100846,-0.558382,0.580563,0.013597,0.426506,-0.537524,-0.622430,0.845124,-0.241519,21.441999,33.846172,-21.322220,0.134459,0.351041,1.272689,-0.142960,0.000000,0.000000,0.000000,0.000000,0.000000,0.000000
12678143.000000,-2.400792,-1.662278,1.052774,-1.368439,1.780398,1.101755,-0.558626,0.594795,0.015184,0.436192,-0.552788,-0.641177,0.861156,-0.244513,21.668135,33.746990,-21.516617,0.035277,0.393156,1.312057,-0.136552,0.000000,0.000000,0.000000,0.000000,0.000000,0.000000
12678144.000000,-2.400149,-1.662261,1.053239,-1.369029,1.779704,1.102678,-0.558863,0.609400,0.016392,0.446308,-0.557193,-0.658174,0.887771,-0.242813,21.862532,33.647808,-21.663406,0.035277,0.464567,1.318465,-0.110001,0.000000,0.000000,0.000000,0.000000,0.000000,0.000000
12678145.000000,-2.399473,-1.662250,1.053729,-1.369633,1.778993,1.103623,-0.559092,0.625759,0.015931,0.456767,-0.571142,-0.668238,0.902147,-0.237933,21.989485,33.600201,-21.810196,0.134459,0.608304,1.312057,-0.130143,0.000000,0.000000,0.000000,0.000000,0.000000,0.000000
12678146.000000,-2.398785,-1.662238,1.054228,-1.370258,1.778273,1.104602,-0.559318,0.645097,0.015120,0.468061,-0.587704,-0.679984,0.923082,-0.231539,22.060896,33.576397,-21.960953,0.356627,0.745634,1.259872,-0.175919,0.000000,0.000000,0.000000,0.000000,0.000000,0.000000
12678147.000000,-2.398072,-1.662228,1.054721,-1.370889,1.777578,1.105590,-0.559561,0.665420,0.011004,0.474947,-0.602659,-0.679117,0.937978,-0.232536,22.187849,33.576397,-22.056168,0.554991,0.864652,1.240646,-0.116410,0.000000,0.000000,0.000000,0.000000,0.000000,0.000000
12678148.000000,-2.397348,-1.662218,1.055232,-1.371511,1.776877,1.106604,-0.559793,0.676293,0.011079,0.481797,-0.607039,-0.678379,0.955967,-0.236297,22.358442,33.576397,-22.131546,0.630369,0.925077,1.227828,-0.149369,0.000000,0.000000,0.000000,0.000000,0.000000,0.000000
12678149.000000,-2.396628,-1.662220,1.055753,-1.372159,1.776181,1.107631,-0.560022,0.676517,0.006772,0.505999,-0.620839,-0.694383,0.983149,-0.234860,22.160078,33.770794,-22.155350,0.531187,0.996488,1.292831,-0.175919,0.000000,0.000000,0.000000,0.000000,0.000000,0.000000
12678150.000000,-2.395890,-1.662213,1.056289,-1.372817,1.775498,1.108676,-0.560253,0.677690,0.007638,0.514312,-0.639105,-0.686143,1.000056,-0.230134,20.922285,33.941387,-21.885574,0.086851,0.906766,1.435653,-0.136552,0.000000,0.000000,0.000000,0.000000,0.000000,0.000000
12678151.000000,-2.395174,-1.662205,1.056859,-1.373503,1.774797,1.109745,-0.560469,0.695657,0.006979,0.527835,-0.653820,-0.691216,1.012655,-0.228104,18.867231,34.040569,-21.516617,-0.706606,0.876554,1.611434,-0.169511,0.000000,0.000000,0.000000,0.000000,0.000000,0.000000
12678152.000000,-2.394443,-1.662204,1.057434,-1.374200,1.774115,1.110823,-0.560696,0.702129,0.005217,0.547599,-0.662237,-0.683981,1.026604,-0.230091,16.098066,34.064373,-20.830276,-1.670656,0.763029,1.670028,-0.142960,0.000000,0.000000,0.000000,0.000000,0.000000,0.000000
12678153.000000,-2.393701,-1.662203,1.058042,-1.374914,1.773430,1.111934,-0.560922,0.719518,0.001446,0.563372,-0.678902,-0.684918,1.045643,-0.230663,13.074994,33.917583,-20.068558,-2.384767,0.584501,1.682845,-0.103593,0.000000,0.000000,0.000000,0.000000,0.000000,0.000000
12678154.000000,-2.392989,-1.662203,1.058675,-1.375648,1.772759,1.113067,-0.561132,0.727820,0.001156,0.578186,-0.693746,-0.676242,1.083473,-0.228151,10.428815,33.647808,-19.211624,-2.805300,0.369352,1.702071,-0.169511,0.000000,0.000000,0.000000,0.000000,0.000000,0.000000
12678155.000000,-2.392263,-1.662210,1.059315,-1.376362,1.772102,1.114212,-0.561351,0.728268,0.001862,0.597422,-0.702808,-0.670454,1.104048,-0.223577,7.925458,33.453411,-18.426102,-3.249635,0.166105,1.591293,-0.142960,0.000000,0.000000,0.000000,0.000000,0.000000,0.000000
12678156.000000,-2.391533,-1.662221,1.059981,-1.377085,1.771454,1.115387,-0.561565,0.739724,-0.000072,0.610100,-0.706312,-0.656442,1.117825,-0.219669,5.723615,33.354229,-17.688187,-3.523378,-0.007845,1.487838,-0.136552,0.000000,0.000000,0.000000,0.000000,0.000000,0.000000
12678157.000000,-2.390826,-1.662238,1.060639,-1.377803,1.770798,1.116560,-0.561783,0.731774,-0.006612,0.618807,-0.705821,-0.655081,1.136793,-0.223774,3.942304,33.330425,-17.001846,-3.797121,0.015958,1.442062,-0.130143,0.000000,0.000000,0.000000,0.000000,0.000000,0.000000
12678158.000000,-2.390103,-1.662262,1.061306,-1.378505,1.770153,1.117772,-0.562007,0.727369,-0.010379,0.626774,-0.701644,-0.651611,1.153682,-0.226067,2.260175,33.405804,-16.287735,-3.943910,0.123990,1.396285,-0.097184,0.000000,0.000000,0.000000,0.000000,0.000000,0.000000
12678159.000000,-2.389398,-1.662287,1.061981,-1.379210,1.769502,1.119001,-0.562215,0.716391,-0.018041,0.635835,-0.696820,-0.649258,1.174808,-0.223268,0.970807,33.429607,-15.676773,-3.967714,0.255826,1.435653,-0.175919,0.000000,0.000000,0.000000,0.000000,0.000000,0.000000
12678160.000000,-2.388673,-1.662321,1.062654,-1.379902,1.768860,1.120227,-0.562441,0.714775,-0.021522,0.652281,-0.697938,-0.651594,1.186828,-0.225984,-0.243182,33.501019,-15.208633,-3.920107,0.500272,1.435653,-0.116410,0.000000,0.000000,0.000000,0.000000,0.000000,0.000000
12678161.000000,-2.387945,-1.662358,1.063344,-1.380607,1.768228,1.121483,-0.562652,0.710567,-0.029560,0.660934,-0.697637,-0.643409,1.199194,-0.222363,-1.282611,33.552593,-14.792068,-3.646364,0.542386,1.259872,-0.142960,0.000000,0.000000,0.000000,0.000000,0.000000,0.000000
12678162.000000,-2.387228,-1.662398,1.064026,-1.381316,1.767607,1.122730,-0.562867,0.712856,-0.031929,0.666946,-0.702644,-0.635977,1.213574,-0.224558,-2.199053,33.576397,-14.446915,-3.301210,0.632108,1.025497,-0.136552,0.000000,0.000000,0.000000,0.000000,0.000000,0.000000
12678163.000000,-2.386505,-1.662434,1.064720,-1.382013,1.766983,1.123962,-0.563080,0.709201,-0.034053,0.675935,-0.702746,-0.630754,1.214651,-0.219151,-2.940936,33.477215,-14.030350,-2.904482,0.613798,1.045638,-0.163102,0.000000,0.000000,0.000000,0.000000,0.000000,0.000000
12678164.000000,-2.385795,-1.662466,1.065413,-1.382709,1.766387,1.125184,-0.563292,0.702987,-0.031679,0.676194,-0.698199,-0.617059,1.210762,-0.214240,-3.559832,33.330425,-13.613785,-2.535524,0.452665,1.201278,-0.163102,0.000000,0.000000,0.000000,0.000000,0.000000,0.000000
12678165.000000,-2.385081,-1.662494,1.066105,-1.383393,1.765784,1.126389,-0.563512,0.698645,-0.031600,0.683599,-0.688547,-0.611171,1.206002,-0.214087,-4.004168,33.112225,-13.244827,-2.412538,0.381254,1.292831,-0.122819,0.000000,0.000000,0.000000,0.000000,0.000000,0.000000
12678166.000000,-2.384376,-1.662514,1.066802,-1.384051,1.765195,1.127617,-0.563719,0.698583,-0.028789,0.679005,-0.677884,-0.598729,1.202806,-0.207549,-4.250140,32.767071,-12.780655,-2.436342,0.249418,1.312057,-0.163102,0.000000,0.000000,0.000000,0.000000,0.000000,0.000000
12678167.000000,-2.383687,-1.662519,1.067503,-1.384699,1.764606,1.128816,-0.563923,0.694099,-0.020114,0.700673,-0.667090,-0.602907,1.226930,-0.203774,-4.424700,32.255291,-12.435501,-2.682314,0.154203,1.370651,-0.142960,0.000000,0.000000,0.000000,0.000000,0.000000,0.000000
12678168.000000,-2.382980,-1.662520,1.068213,-1.385336,1.764023,1.130018,-0.564129,0.695844,-0.013577,0.701086,-0.658484,-0.594887,1.213453,-0.209264,-4.698443,31.715740,-12.042740,-2.904482,0.171598,1.474105,-0.163102,0.000000,0.000000,0.000000,0.000000,0.000000,0.000000
12678169.000000,-2.382299,-1.662503,1.068932,-1.385982,1.763431,1.131239,-0.564337,0.701763,-0.001458,0.703865,-0.650024,-0.588770,1.210024,-0.209426,-4.797625,30.981792,-11.772964,-2.979860,0.225614,1.402694,-0.149369,0.000000,0.000000,0.000000,0.000000,0.000000,0.000000
12678170.000000,-2.381600,-1.662492,1.069639,-1.386637,1.762855,1.132462,-0.564549,0.695281,0.002968,0.703636,-0.648044,-0.578068,1.210649,-0.206753,-5.019793,30.418438,-11.380203,-3.003664,0.339139,1.110641,-0.130143,0.000000,0.000000,0.000000,0.000000,0.000000,0.000000
12678171.000000,-2.380901,-1.662473,1.070366,-1.387267,1.762269,1.133690,-0.564753,0.688168,0.007292,0.706528,-0.639686,-0.577038,1.208756,-0.209827,-5.142779,29.807476,-11.185806,-3.055238,0.410551,0.908309,-0.182328,0.000000,0.000000,0.000000,0.000000,0.000000,0.000000
12678172.000000,-2.380226,-1.662442,1.071107,-1.387909,1.761705,1.134910,-0.564964,0.686257,0.015140,0.712501,-0.641239,-0.570364,1.229601,-0.212274,-5.118975,29.121136,-10.963638,-3.027467,0.303434,0.850631,-0.122819,0.000000,0.000000,0.000000,0.000000,0.000000,0.000000
12678173.000000,-2.379541,-1.662419,1.071840,-1.388517,1.761146,1.136100,-0.565160,0.678518,0.016163,0.719419,-0.632230,-0.565022,1.221725,-0.208430,-5.095171,28.633160,-10.741470,-3.202028,0.189908,0.850631,-0.182328,0.000000,0.000000,0.000000,0.000000,0.000000,0.000000
12678174.000000,-2.378866,-1.662393,1.072576,-1.389133,1.760580,1.137316,-0.565359,0.675609,0.019802,0.723793,-0.621599,-0.562383,1.209892,-0.204824,-4.968218,28.165020,-10.277298,-3.376589,0.141385,0.843307,-0.149369,0.000000,0.000000,0.000000,0.000000,0.000000,0.000000
12678175.000000,-2.378199,-1.662369,1.073311,-1.389751,1.760035,1.138503,-0.565558,0.671123,0.020295,0.725440,-0.616464,-0.559243,1.200318,-0.199939,-4.869036,27.800030,-9.932144,-3.570986,0.022367,0.934859,-0.155778,0.000000,0.000000,0.000000,0.000000,0.000000,0.000000
12678176.000000,-2.377512,-1.662348,1.074071,-1.390364,1.759483,1.139712,-0.565754,0.663881,0.019872,0.735170,-0.617041,-0.555830,1.197187,-0.197603,-4.995989,27.482647,-9.686172,-3.598757,-0.013339,1.039230,-0.169511,0.000000,0.000000,0.000000,0.000000,0.000000,0.000000
12678177.000000,-2.376827,-1.662328,1.074837,-1.390983,1.758928,1.140950,-0.565949,0.672509,0.018190,0.742952,-0.614674,-0.559076,1.205183,-0.200832,-5.194354,27.236675,-9.440201,-3.598757,-0.001437,0.895492,-0.149369,0.000000,0.000000,0.000000,0.000000,0.000000,0.000000
12678178.000000,-2.376123,-1.662310,1.075594,-1.391606,1.758375,1.142175,-0.566139,0.678237,0.019073,0.749035,-0.614204,-0.558933,1.212649,-0.196499,-5.539507,27.042278,-9.099014,-3.448000,0.064481,0.694076,-0.175919,0.000000,0.000000,0.000000,0.000000,0.000000,0.000000
12678179.000000,-2.375422,-1.662299,1.076384,-1.392209,1.757825,1.143418,-0.566333,0.678271,0.017448,0.754486,-0.609103,-0.553362,1.219299,-0.198285,-5.860857,26.966900,-9.023636,-3.448000,0.159696,0.479842,-0.155778,0.000000,0.000000,0.000000,0.000000,0.000000,0.000000
12678180.000000,-2.374733,-1.662291,1.077174,-1.392804,1.757280,1.144637,-0.566516,0.683057,0.015463,0.767542,-0.604960,-0.563038,1.222046,-0.195544,-6.106829,26.943096,-8.952225,-3.598757,0.171598,0.421249,-0.175919,0.000000,0.000000,0.000000,0.000000,0.000000,0.000000
12678181.000000,-2.374054,-1.662288,1.077981,-1.393376,1.756739,1.145851,-0.566705,0.676372,0.012555,0.773767,-0.593701,-0.553107,1.221294,-0.193198,-6.134600,26.990704,-8.900650,-3.820925,0.154203,0.544845,-0.188737,0.000000,0.000000,0.000000,0.000000,0.000000,0.000000
12678182.000000,-2.373374,-1.662289,1.078800,-1.393943,1.756188,1.147074,-0.566897,0.676059,0.007118,0.781101,-0.586450,-0.549546,1.215331,-0.190898,-6.257586,27.066082,-8.853043,-4.265260,0.123990,0.706893,-0.142960,0.000000,0.000000,0.000000,0.000000,0.000000,0.000000
12678183.000000,-2.372684,-1.662289,1.079621,-1.394517,1.755659,1.148273,-0.567082,0.672492,0.004015,0.791985,-0.576578,-0.547436,1.209954,-0.188209,-6.404376,27.113689,-8.900650,-4.586610,0.081876,0.915633,-0.196061,0.000000,0.000000,0.000000,0.000000,0.000000,0.000000
12678184.000000,-2.371987,-1.662287,1.080461,-1.395078,1.755127,1.149483,-0.567276,0.676951,0.002407,0.804350,-0.572447,-0.540231,1.200061,-0.190607,-6.701922,27.137493,-8.952225,-4.856386,0.046171,1.104232,-0.175919,0.000000,0.000000,0.000000,0.000000,0.000000,0.000000
12678185.000000,-2.371299,-1.662284,1.081297,-1.395649,1.754595,1.150690,-0.567465,0.678458,0.002377,0.827737,-0.566007,-0.535835,1.228443,-0.193260,-6.951861,27.113689,-8.924454,-4.931764,0.004056,1.104232,-0.136552,0.000000,0.000000,0.000000,0.000000,0.000000,0.000000
12678186.000000,-2.370589,-1.662275,1.082164,-1.396216,1.754081,1.151929,-0.567646,0.684441,0.004623,0.841011,-0.564985,-0.533086,1.224761,-0.190358,-7.471575,26.990704,-9.047440,-4.884157,-0.025240,0.934859,-0.182328,0.000000,0.000000,0.000000,0.000000,0.000000,0.000000
12678187.000000,-2.369885,-1.662271,1.083033,-1.396787,1.753550,1.153165,-0.567831,0.702633,0.003760,0.842883,-0.571691,-0.527471,1.229861,-0.191512,-7.963519,26.966900,-8.999832,-4.784975,0.010465,0.771896,-0.142960,0.000000,0.000000,0.000000,0.000000,0.000000,0.000000
12678188.000000,-2.369170,-1.662262,1.083889,-1.397348,1.753038,1.154369,-0.568010,0.703500,0.005475,0.848415,-0.565028,-0.519559,1.224373,-0.189741,-8.511004,26.843914,-8.805435,-4.733400,0.046171,0.752670,-0.196061,0.000000,0.000000,0.000000,0.000000,0.000000,0.000000
12678189.000000,-2.368457,-1.662253,1.084762,-1.397902,1.752519,1.155566,-0.568193,0.701672,0.005945,0.850886,-0.563014,-0.521558,1.212727,-0.186426,-8.979144,26.748699,-8.583267,-4.709596,0.052579,0.869857,-0.196061,0.000000,0.000000,0.000000,0.000000,0.000000,0.000000
12678190.000000,-2.367756,-1.662243,1.085664,-1.398455,1.752002,1.156777,-0.568379,0.699714,0.006335,0.862509,-0.563152,-0.519160,1.203973,-0.189559,-9.375873,26.649517,-8.460281,-4.733400,0.076383,0.928451,-0.163102,0.000000,0.000000,0.000000,0.000000,0.000000,0.000000
12678191.000000,-2.367039,-1.662231,1.086564,-1.398991,1.751502,1.157973,-0.568555,0.706824,0.006581,0.873174,-0.554019,-0.515105,1.204408,-0.187033,-9.919391,26.550335,-8.436478,-4.884157,0.040677,0.922042,-0.196061,0.000000,0.000000,0.000000,0.000000,0.000000,0.000000
12678192.000000,-2.366325,-1.662221,1.087474,-1.399545,1.750998,1.159186,-0.568735,0.719368,0.008618,0.882545,-0.554227,-0.506025,1.203269,-0.188242,-10.316119,26.502728,-8.261917,-4.907960,-0.007845,0.895492,-0.149369,0.000000,0.000000,0.000000,0.000000,0.000000,0.000000
12678193.000000,-2.365616,-1.662224,1.088400,-1.400097,1.750506,1.160372,-0.568909,0.715578,0.006316,0.904669,-0.552410,-0.503281,1.206748,-0.189295,-10.835834,26.625713,-8.361099,-4.931764,0.015958,0.928451,-0.163102,0.000000,0.000000,0.000000,0.000000,0.000000,0.000000
12678194.000000,-2.364901,-1.662218,1.089354,-1.400638,1.750014,1.161575,-0.569083,0.712355,0.006166,0.916182,-0.549330,-0.496298,1.208740,-0.183504,-11.256366,26.697124,-8.531693,-4.832582,-0.079257,0.974227,-0.196061,0.000000,0.000000,0.000000,0.000000,0.000000,0.000000
12678195.000000,-2.364195,-1.662224,1.090326,-1.401191,1.749517,1.162779,-0.569265,0.710939,0.003913,0.930991,-0.549705,-0.494941,1.212041,-0.181967,-11.653094,26.867718,-8.753860,-4.733400,-0.072848,0.987045,-0.149369,0.000000,0.000000,0.000000,0.000000,0.000000,0.000000
12678196.000000,-2.363479,-1.662228,1.091272,-1.401735,1.749028,1.163970,-0.569439,0.706529,0.002395,0.933450,-0.547746,-0.498127,1.211618,-0.178547,-12.073627,27.042278,-8.730057,-4.709596,-0.091158,0.960494,-0.182328,0.000000,0.000000,0.000000,0.000000,0.000000,0.000000
12678197.000000,-2.362772,-1.662237,1.092250,-1.402258,1.748535,1.165173,-0.569619,0.701880,-0.002143,0.938118,-0.537512,-0.494819,1.210355,-0.177470,-12.271991,27.236675,-8.777664,-4.808778,-0.097567,0.882674,-0.155778,0.000000,0.000000,0.000000,0.000000,0.000000,0.000000
12678198.000000,-2.362073,-1.662243,1.093220,-1.402789,1.748054,1.166342,-0.569791,0.699154,-0.003143,0.956059,-0.530351,-0.498432,1.202936,-0.175423,-12.593341,27.335857,-8.777664,-4.983339,-0.031649,1.052047,-0.175919,0.000000,0.000000,0.000000,0.000000,0.000000,0.000000
12678199.000000,-2.361373,-1.662246,1.094197,-1.403309,1.747565,1.167517,-0.569963,0.694715,-0.002198,0.958725,-0.529878,-0.496268,1.195951,-0.168797,-12.791705,27.359661,-8.583267,-5.130128,-0.043551,1.259872,-0.188737,0.000000,0.000000,0.000000,0.000000,0.000000,0.000000
12678200.000000,-2.360669,-1.662257,1.095189,-1.403833,1.747069,1.168711,-0.570126,0.695375,-0.010330,0.965373,-0.524189,-0.488111,1.192185,-0.163185,-13.188434,27.482647,-8.361099,-5.253114,0.040677,1.324874,-0.221696,0.000000,0.000000,0.000000,0.000000,0.000000,0.000000
12678201.000000,-2.359974,-1.662268,1.096161,-1.404366,1.746587,1.169892,-0.570299,0.693328,-0.009942,0.965350,-0.520802,-0.490643,1.191323,-0.165953,-13.362994,27.601665,-8.019913,-5.328493,0.100187,1.207687,-0.196061,0.000000,0.000000,0.000000,0.000000,0.000000,0.000000
12678202.000000,-2.359271,-1.662272,1.097172,-1.404891,1.746107,1.171091,-0.570471,0.690186,-0.006832,0.972715,-0.528056,-0.483377,1.187234,-0.169193,-13.608966,27.601665,-7.797745,-5.276918,0.064481,1.077682,-0.169511,0.000000,0.000000,0.000000,0.000000,0.000000,0.000000
12678203.000000,-2.358582,-1.662280,1.098173,-1.405410,1.745636,1.172273,-0.570628,0.689384,-0.006471,1.005456,-0.519584,-0.478586,1.206044,-0.163161,-13.906512,27.677044,-7.527969,-5.352296,0.027860,0.895492,-0.208878,0.000000,0.000000,0.000000,0.000000,0.000000,0.000000
12678204.000000,-2.357899,-1.662280,1.099194,-1.405916,1.745172,1.173473,-0.570794,0.685067,-0.003872,1.008281,-0.513734,-0.474404,1.194931,-0.166377,-13.981891,27.653240,-7.305801,-5.475282,-0.037142,0.771896,-0.202470,0.000000,0.000000,0.000000,0.000000,0.000000,0.000000
12678205.000000,-2.357228,-1.662287,1.100226,-1.406420,1.744711,1.174679,-0.570962,0.683636,-0.004338,1.008192,-0.509710,-0.465238,1.186703,-0.168407,-13.906512,27.724651,-7.036026,-5.697450,-0.121371,0.641891,-0.169511,0.000000,0.000000,0.000000,0.000000,0.000000,0.000000
12678206.000000,-2.356569,-1.662289,1.101257,-1.406921,1.744262,1.175853,-0.571126,0.672013,-0.003513,1.021244,-0.504697,-0.460410,1.180224,-0.169220,-13.807330,27.748455,-6.865433,-5.994997,-0.168978,0.662032,-0.163102,0.000000,0.000000,0.000000,0.000000,0.000000,0.000000
12678207.000000,-2.355911,-1.662285,1.102320,-1.407408,1.743808,1.177035,-0.571286,0.660926,-0.000163,1.029754,-0.500468,-0.451541,1.167240,-0.164681,-13.608966,27.653240,-6.865433,-6.340150,-0.228488,0.746261,-0.163102,0.000000,0.000000,0.000000,0.000000,0.000000,0.000000
12678208.000000,-2.355261,-1.662279,1.103392,-1.407885,1.743356,1.178230,-0.571437,0.657244,-0.000995,1.038203,-0.489397,-0.448598,1.168199,-0.160436,-13.585162,27.554058,-6.742447,-6.736879,-0.192782,0.843307,-0.202470,0.000000,0.000000,0.000000,0.000000,0.000000,0.000000
12678209.000000,-2.354593,-1.662271,1.104466,-1.408359,1.742916,1.179421,-0.571603,0.657651,0.002479,1.049503,-0.482311,-0.450049,1.171441,-0.159883,-13.684344,27.407269,-6.766251,-7.058229,-0.192782,0.733443,-0.149369,0.000000,0.000000,0.000000,0.000000,0.000000,0.000000
12678210.000000,-2.353933,-1.662262,1.105561,-1.408840,1.742462,1.180642,-0.571759,0.653715,0.004868,1.054583,-0.479041,-0.446897,1.174887,-0.160224,-13.731952,27.260479,-6.841629,-7.232790,-0.133273,0.557662,-0.182328,0.000000,0.000000,0.000000,0.000000,0.000000,0.000000
12678211.000000,-2.353279,-1.662250,1.106649,-1.409320,1.742030,1.181832,-0.571917,0.656384,0.007072,1.065514,-0.474807,-0.438067,1.175584,-0.157554,-13.858905,27.089886,-6.865433,-7.355775,-0.150668,0.466109,-0.182328,0.000000,0.000000,0.000000,0.000000,0.000000,0.000000
12678212.000000,-2.352620,-1.662238,1.107763,-1.409799,1.741588,1.183038,-0.572083,0.650850,0.008025,1.082541,-0.478145,-0.444458,1.178628,-0.158063,-13.930316,26.943096,-6.865433,-7.304201,-0.204684,0.459701,-0.142960,0.000000,0.000000,0.000000,0.000000,0.000000,0.000000
12678213.000000,-2.351978,-1.662225,1.108876,-1.410266,1.741142,1.184233,-0.572237,0.650495,0.009248,1.084209,-0.470335,-0.446681,1.175517,-0.155579,-13.930316,26.772503,-6.667068,-7.403383,-0.211093,0.564071,-0.163102,0.000000,0.000000,0.000000,0.000000,0.000000,0.000000
12678214.000000,-2.351328,-1.662216,1.109977,-1.410732,1.740720,1.185421,-0.572393,0.651604,0.008973,1.087218,-0.464477,-0.437696,1.180988,-0.153730,-13.981891,26.649517,-6.397293,-7.577943,-0.252291,0.629073,-0.175919,0.000000,0.000000,0.000000,0.000000,0.000000,0.000000
12678215.000000,-2.350689,-1.662200,1.111108,-1.411181,1.740288,1.186617,-0.572544,0.642647,0.011127,1.098308,-0.461601,-0.438018,1.176791,-0.152492,-13.882709,26.427349,-6.202896,-7.748537,-0.318209,0.700484,-0.182328,0.000000,0.000000,0.000000,0.000000,0.000000,0.000000
12678216.000000,-2.350056,-1.662183,1.112243,-1.411633,1.739856,1.187798,-0.572693,0.641621,0.012483,1.111158,-0.456926,-0.441199,1.181089,-0.152915,-13.858905,26.209148,-6.202896,-7.998476,-0.396029,0.785628,-0.188737,0.000000,0.000000,0.000000,0.000000,0.000000,0.000000
12678217.000000,-2.349412,-1.662170,1.113414,-1.412080,1.739443,1.189003,-0.572846,0.636153,0.012284,1.129481,-0.455831,-0.432407,1.180414,-0.152783,-13.882709,26.038555,-6.325882,-8.196840,-0.473849,0.727035,-0.175919,0.000000,0.000000,0.000000,0.000000,0.000000,0.000000
12678218.000000,-2.348783,-1.662160,1.114616,-1.412544,1.739005,1.190217,-0.572990,0.649974,0.013223,1.149148,-0.457327,-0.430373,1.184898,-0.146690,-13.882709,25.963177,-6.595657,-8.145266,-0.414340,0.622665,-0.202470,0.000000,0.000000,0.000000,0.000000,0.000000,0.000000
12678219.000000,-2.348148,-1.662154,1.115813,-1.413002,1.738581,1.191394,-0.573147,0.645278,0.010744,1.166194,-0.458587,-0.424993,1.179085,-0.146145,-13.954120,25.891766,-6.988419,-8.145266,-0.336520,0.654708,-0.122819,0.000000,0.000000,0.000000,0.000000,0.000000,0.000000
12678220.000000,-2.347510,-1.662151,1.117035,-1.413460,1.738163,1.192569,-0.573294,0.636308,0.007356,1.176716,-0.460641,-0.418520,1.173239,-0.147947,-13.981891,25.891766,-7.404984,-8.022280,-0.294406,0.804855,-0.130143,0.000000,0.000000,0.000000,0.000000,0.000000,0.000000
12678221.000000,-2.346889,-1.662146,1.118279,-1.413918,1.737744,1.193752,-0.573430,0.629981,0.005049,1.212453,-0.457934,-0.417685,1.190510,-0.141790,-13.981891,25.891766,-7.773941,-8.022280,-0.294406,0.901900,-0.188737,0.000000,0.000000,0.000000,0.000000,0.000000,0.000000
12678222.000000,-2.346255,-1.662151,1.119507,-1.414367,1.737335,1.194924,-0.573580,0.627698,0.001248,1.219716,-0.456329,-0.412081,1.190096,-0.146750,-14.029498,25.986980,-7.944534,-7.998476,-0.287997,0.889083,-0.130143,0.000000,0.000000,0.000000,0.000000,0.000000,0.000000
12678223.000000,-2.345630,-1.662152,1.120747,-1.414820,1.736931,1.196119,-0.573710,0.637895,0.000357,1.220084,-0.453907,-0.406661,1.181760,-0.139521,-14.081073,26.010784,-7.944534,-8.069887,-0.294406,0.785628,-0.221696,0.000000,0.000000,0.000000,0.000000,0.000000,0.000000
12678224.000000,-2.345016,-1.662162,1.121990,-1.415281,1.736521,1.197264,-0.573856,0.627461,-0.003135,1.227320,-0.456091,-0.403096,1.176964,-0.140727,-14.104877,26.157574,-7.992142,-8.022280,-0.312716,0.954086,-0.163102,0.000000,0.000000,0.000000,0.000000,0.000000,0.000000
12678225.000000,-2.344389,-1.662170,1.123241,-1.415742,1.736110,1.198430,-0.574000,0.622650,-0.006684,1.224366,-0.458336,-0.402882,1.172024,-0.140315,-14.152484,26.355938,-7.869156,-7.899293,-0.276095,1.123458,-0.116410,0.000000,0.000000,0.000000,0.000000,0.000000,0.000000
12678226.000000,-2.343777,-1.662191,1.124489,-1.416214,1.735712,1.199621,-0.574130,0.621384,-0.009252,1.222067,-0.467008,-0.401372,1.178293,-0.136103,-14.104877,26.966900,-7.920731,-7.724733,-0.270602,1.058456,-0.229020,0.000000,0.000000,0.000000,0.000000,0.000000,0.000000
12678227.000000,-2.343167,-1.662215,1.125715,-1.416687,1.735315,1.200813,-0.574282,0.619698,-0.012174,1.221310,-0.467797,-0.403502,1.191417,-0.141915,-13.783526,27.923016,-8.436478,-7.601747,-0.300814,0.869857,-0.149369,0.000000,0.000000,0.000000,0.000000,0.000000,0.000000
12678228.000000,-2.342557,-1.662238,1.126947,-1.417150,1.734917,1.202010,-0.574418,0.607712,-0.015311,1.213372,-0.471134,-0.400097,1.194343,-0.143724,-13.335223,29.097332,-9.317215,-7.554140,-0.312716,0.804855,-0.163102,0.000000,0.000000,0.000000,0.000000,0.000000,0.000000
12678229.000000,-2.341961,-1.662255,1.128156,-1.417606,1.734540,1.203189,-0.574560,0.603055,-0.017027,1.214327,-0.464232,-0.391799,1.195558,-0.140717,-12.767901,30.319256,-10.301102,-7.601747,-0.330111,0.836898,-0.188737,0.000000,0.000000,0.000000,0.000000,0.000000,0.000000
12678230.000000,-2.341361,-1.662274,1.129385,-1.418063,1.734139,1.204386,-0.574707,0.596194,-0.020338,1.224843,-0.464015,-0.393309,1.195375,-0.140776,-12.097430,31.668133,-11.503189,-7.625551,-0.187289,0.889083,-0.136552,0.000000,0.000000,0.000000,0.000000,0.000000,0.000000
12678231.000000,-2.340767,-1.662280,1.130603,-1.418515,1.733736,1.205577,-0.574843,0.597813,-0.019613,1.217193,-0.458946,-0.394621,1.188358,-0.142428,-11.605487,32.790874,-12.510880,-7.724733,-0.019747,1.136276,-0.163102,0.000000,0.000000,0.000000,0.000000,0.000000,0.000000
12678232.000000,-2.340165,-1.662274,1.131815,-1.418974,1.733349,1.206749,-0.574980,0.593987,-0.013488,1.219195,-0.457782,-0.390010,1.183964,-0.140742,-11.184955,33.675579,-13.566177,-7.800111,0.123990,1.383468,-0.155778,0.000000,0.000000,0.000000,0.000000,0.000000,0.000000
12678233.000000,-2.339558,-1.662266,1.133059,-1.419418,1.732974,1.207931,-0.575111,0.590548,-0.009320,1.224016,-0.454767,-0.384845,1.174321,-0.136203,-10.887408,34.433331,-14.744461,-7.899293,0.117582,1.611434,-0.221696,0.000000,0.000000,0.000000,0.000000,0.000000,0.000000
12678234.000000,-2.338960,-1.662258,1.134276,-1.419876,1.732587,1.209109,-0.575255,0.590880,-0.003759,1.224967,-0.450148,-0.391308,1.173876,-0.142177,-10.712848,35.068096,-15.601395,-7.923097,0.171598,1.624252,-0.169511,0.000000,0.000000,0.000000,0.000000,0.000000,0.000000
12678235.000000,-2.338340,-1.662250,1.135503,-1.420336,1.732210,1.210312,-0.575395,0.597187,-0.001187,1.223736,-0.455604,-0.383984,1.171903,-0.143387,-10.764422,35.607647,-16.216324,-7.800111,0.207303,1.532699,-0.188737,0.000000,0.000000,0.000000,0.000000,0.000000,0.000000
12678236.000000,-2.337750,-1.662248,1.136749,-1.420790,1.731833,1.211495,-0.575533,0.603052,-0.002422,1.224372,-0.452640,-0.386288,1.165294,-0.145595,-10.689044,36.123394,-16.803482,-7.776308,0.207303,1.559249,-0.182328,0.000000,0.000000,0.000000,0.000000,0.000000,0.000000
12678237.000000,-2.337161,-1.662247,1.137985,-1.421246,1.731472,1.212651,-0.575673,0.597516,-0.001895,1.234926,-0.453391,-0.380348,1.153126,-0.143053,-10.490680,36.563763,-17.343033,-7.800111,0.112089,1.676437,-0.163102,0.000000,0.000000,0.000000,0.000000,0.000000,0.000000
12678238.000000,-2.336570,-1.662249,1.139243,-1.421679,1.731111,1.213828,-0.575817,0.588522,-0.001426,1.237099,-0.446479,-0.371552,1.146820,-0.142845,-10.268512,36.980328,-17.886551,-7.970705,0.027860,1.643478,-0.116410,0.000000,0.000000,0.000000,0.000000,0.000000,0.000000
12678239.000000,-2.336007,-1.662266,1.140497,-1.422105,1.730760,1.215006,-0.575948,0.580945,-0.007318,1.266338,-0.436719,-0.364942,1.171982,-0.138350,-9.947162,37.515911,-18.426102,-8.319826,-0.079257,1.572067,-0.163102,0.000000,0.000000,0.000000,0.000000,0.000000,0.000000
12678240.000000,-2.335459,-1.662294,1.141785,-1.422507,1.730393,1.216158,-0.576083,0.564959,-0.013758,1.267405,-0.424550,-0.363966,1.161330,-0.137540,-9.399676,38.130840,-19.136246,-8.764162,-0.079257,1.565658,-0.155778,0.000000,0.000000,0.000000,0.000000,0.000000,0.000000
12678241.000000,-2.334904,-1.662321,1.143094,-1.422902,1.730031,1.217297,-0.576209,0.570705,-0.018461,1.278639,-0.413740,-0.361059,1.146821,-0.135574,-8.931537,38.618816,-19.921768,-9.331484,-0.103060,1.812850,-0.175919,0.000000,0.000000,0.000000,0.000000,0.000000,0.000000
12678242.000000,-2.334365,-1.662356,1.144379,-1.423295,1.729677,1.218430,-0.576345,0.563459,-0.023891,1.279287,-0.401699,-0.356732,1.138008,-0.137215,-8.534808,39.182171,-20.584305,-9.803591,-0.085665,1.962081,-0.142960,0.000000,0.000000,0.000000,0.000000,0.000000,0.000000
12678243.000000,-2.333825,-1.662408,1.145680,-1.423682,1.729302,1.219594,-0.576470,0.549941,-0.031900,1.279453,-0.398071,-0.361428,1.142790,-0.129451,-8.138080,39.916119,-21.147659,-10.196352,0.022367,1.890670,-0.188737,0.000000,0.000000,0.000000,0.000000,0.000000,0.000000
12678244.000000,-2.333297,-1.662458,1.146980,-1.424075,1.728923,1.220760,-0.576608,0.533922,-0.037960,1.276677,-0.393606,-0.364399,1.150015,-0.133458,-7.741351,40.527081,-21.540421,-10.394716,0.123990,1.767074,-0.116410,0.000000,0.000000,0.000000,0.000000,0.000000,0.000000
12678245.000000,-2.332761,-1.662506,1.148257,-1.424477,1.728571,1.221905,-0.576735,0.535841,-0.041228,1.279801,-0.396477,-0.362342,1.147033,-0.132077,-7.519183,41.090435,-21.885574,-10.446291,0.117582,1.708480,-0.136552,0.000000,0.000000,0.000000,0.000000,0.000000,0.000000
12678246.000000,-2.332233,-1.662556,1.149528,-1.424865,1.728218,1.223048,-0.576853,0.528447,-0.045874,1.273517,-0.391999,-0.359925,1.142073,-0.126732,-7.221636,41.606182,-21.810196,-10.493898,0.112089,1.773483,-0.182328,0.000000,0.000000,0.000000,0.000000,0.000000,0.000000
12678247.000000,-2.331721,-1.662608,1.150792,-1.425267,1.727860,1.224186,-0.576983,0.522047,-0.050531,1.269471,-0.393518,-0.359541,1.142867,-0.129001,-6.852679,42.169537,-21.837967,-10.418520,0.117582,1.793624,-0.163102,0.000000,0.000000,0.000000,0.000000,0.000000,0.000000
12678248.000000,-2.331210,-1.662661,1.152055,-1.425661,1.727503,1.225343,-0.577105,0.515724,-0.053409,1.261898,-0.393362,-0.353525,1.149974,-0.129580,-6.503558,42.705120,-21.540421,-10.271730,0.100187,1.793624,-0.196061,0.000000,0.000000,0.000000,0.000000,0.000000,0.000000
12678249.000000,-2.330710,-1.662702,1.153355,-1.426065,1.727156,1.226492,-0.577235,0.507994,-0.051822,1.266455,-0.396636,-0.347768,1.154446,-0.132186,-6.106829,43.074078,-21.762589,-10.097170,0.040677,1.942855,-0.149369,0.000000,0.000000,0.000000,0.000000,0.000000,0.000000
12678250.000000,-2.330203,-1.662734,1.154631,-1.426468,1.726819,1.227630,-0.577358,0.504717,-0.043694,1.274028,-0.396110,-0.346267,1.152385,-0.128850,-5.813250,43.268475,-21.933182,-9.926577,-0.079257,1.981307,-0.130143,0.000000,0.000000,0.000000,0.000000,0.000000,0.000000
12678251.000000,-2.329712,-1.662771,1.155916,-1.426868,1.726464,1.228799,-0.577471,0.497179,-0.041321,1.268328,-0.398293,-0.346753,1.153789,-0.127884,-5.440325,43.466839,-22.107742,-9.752016,-0.013339,1.851302,-0.169511,0.000000,0.000000,0.000000,0.000000,0.000000,0.000000
12678253.000000,-2.328743,-1.662824,1.158511,-1.427690,1.725778,1.231093,-0.577702,0.483844,-0.034810,1.277325,-0.404185,-0.340101,1.155443,-0.120140,-4.773821,43.514446,-22.893265,-9.256105,0.154203,1.897079,-0.202470,0.000000,0.000000,0.000000,0.000000,0.000000,0.000000
12678254.000000,-2.328279,-1.662843,1.159828,-1.428107,1.725432,1.232247,-0.577824,0.484290,-0.028640,1.286137,-0.405296,-0.335863,1.146069,-0.120595,-4.377093,43.391460,-23.432816,-9.010134,0.195402,1.974899,-0.149369,0.000000,0.000000,0.000000,0.000000,0.000000,0.000000
12678255.000000,-2.327804,-1.662867,1.161113,-1.428533,1.725088,1.233380,-0.577939,0.480640,-0.028856,1.287473,-0.412002,-0.334829,1.140975,-0.117583,-3.980364,43.320049,-23.726395,-8.740358,0.279630,2.020675,-0.182328,0.000000,0.000000,0.000000,0.000000,0.000000,0.000000
12678256.000000,-2.327332,-1.662897,1.162406,-1.428955,1.724745,1.234543,-0.578056,0.474412,-0.028390,1.280517,-0.410830,-0.338970,1.143173,-0.117051,-3.583636,43.343853,-23.920792,-8.518190,0.381254,1.955673,-0.175919,0.000000,0.000000,0.000000,0.000000,0.000000,0.000000
12678257.000000,-2.326865,-1.662915,1.163702,-1.429401,1.724414,1.235698,-0.578172,0.469887,-0.024694,1.279926,-0.420435,-0.336310,1.164760,-0.116424,-3.309893,43.220867,-24.043777,-8.069887,0.320829,1.995040,-0.169511,0.000000,0.000000,0.000000,0.000000,0.000000,0.000000
12678258.000000,-2.326400,-1.662938,1.164976,-1.429852,1.724077,1.236831,-0.578290,0.465469,-0.022525,1.277445,-0.430157,-0.332206,1.156824,-0.115917,-2.917132,43.121685,-24.119156,-7.625551,0.327238,2.085677,-0.169511,0.000000,0.000000,0.000000,0.000000,0.000000,0.000000
12678259.000000,-2.325938,-1.662962,1.166280,-1.430311,1.723748,1.237996,-0.578407,0.463518,-0.022475,1.281919,-0.440910,-0.326852,1.152590,-0.115528,-2.520403,43.074078,-24.412735,-7.058229,0.291532,1.968490,-0.163102,0.000000,0.000000,0.000000,0.000000,0.000000,0.000000
12678260.000000,-2.325485,-1.662988,1.167557,-1.430767,1.723428,1.239148,-0.578517,0.458696,-0.023527,1.282268,-0.442682,-0.319983,1.156844,-0.114007,-2.147479,43.074078,-24.583328,-6.590089,0.279630,1.844894,-0.215287,0.000000,0.000000,0.000000,0.000000,0.000000,0.000000
12678261.000000,-2.325036,-1.663014,1.168869,-1.431225,1.723089,1.240297,-0.578632,0.454069,-0.027310,1.286972,-0.449438,-0.326307,1.151695,-0.115000,-1.778521,43.074078,-25.003860,-6.169557,0.320829,1.903487,-0.188737,0.000000,0.000000,0.000000,0.000000,0.000000,0.000000
12678262.000000,-2.324599,-1.663043,1.170187,-1.431680,1.722752,1.241437,-0.578747,0.448286,-0.027417,1.289724,-0.445196,-0.325484,1.144513,-0.116329,-1.381793,43.097881,-25.491837,-5.872011,0.339139,2.072860,-0.149369,0.000000,0.000000,0.000000,0.000000,0.000000,0.000000
12678263.000000,-2.324152,-1.663069,1.171492,-1.432141,1.722416,1.242560,-0.578858,0.451346,-0.024313,1.296274,-0.449087,-0.327680,1.140806,-0.113018,-1.108050,43.121685,-26.059158,-5.649843,0.428861,2.202865,-0.202470,0.000000,0.000000,0.000000,0.000000,0.000000,0.000000
12678264.000000,-2.323729,-1.663096,1.172787,-1.432585,1.722080,1.243701,-0.578976,0.432561,-0.024847,1.290904,-0.447029,-0.328278,1.138554,-0.116043,-0.612139,43.145489,-26.229752,-5.574464,0.518583,2.274276,-0.155778,0.000000,0.000000,0.000000,0.000000,0.000000,0.000000
12678265.000000,-2.323308,-1.663119,1.174068,-1.433043,1.721743,1.244821,-0.579087,0.425137,-0.027469,1.289243,-0.445422,-0.336043,1.137148,-0.113236,-0.215411,43.121685,-26.424149,-5.475282,0.589994,2.404281,-0.208878,0.000000,0.000000,0.000000,0.000000,0.000000,0.000000
12678266.000000,-2.322886,-1.663143,1.175367,-1.433497,1.721416,1.245958,-0.579205,0.418114,-0.026771,1.287498,-0.447091,-0.331621,1.134931,-0.113023,0.205121,43.121685,-26.622513,-5.304689,0.596403,2.443649,-0.188737,0.000000,0.000000,0.000000,0.000000,0.000000,0.000000
12678267.000000,-2.322476,-1.663166,1.176657,-1.433965,1.721092,1.247097,-0.579314,0.416706,-0.026356,1.278861,-0.452849,-0.322405,1.128299,-0.112126,0.673261,43.121685,-26.646317,-5.078554,0.571683,2.462875,-0.215287,0.000000,0.000000,0.000000,0.000000,0.000000,0.000000
12678268.000000,-2.322049,-1.663185,1.177912,-1.434436,1.720773,1.248237,-0.579429,0.418970,-0.025119,1.272809,-0.456340,-0.326578,1.126043,-0.114044,0.824018,43.074078,-26.376541,-4.757204,0.566190,2.300826,-0.175919,0.000000,0.000000,0.000000,0.000000,0.000000,0.000000
12678269.000000,-2.321623,-1.663205,1.179178,-1.434907,1.720448,1.249393,-0.579546,0.422281,-0.028382,1.260911,-0.457807,-0.323767,1.127969,-0.110034,1.022382,43.074078,-26.130569,-4.340639,0.547880,2.079269,-0.149369,0.000000,0.000000,0.000000,0.000000,0.000000,0.000000
12678270.000000,-2.321212,-1.663218,1.180458,-1.435384,1.720130,1.250526,-0.579652,0.420106,-0.024759,1.295007,-0.463737,-0.331288,1.143645,-0.109192,1.292158,42.951092,-26.352737,-3.943910,0.524076,1.974899,-0.202470,0.000000,0.000000,0.000000,0.000000,0.000000,0.000000
12678271.000000,-2.320794,-1.663236,1.181714,-1.435841,1.719827,1.251674,-0.579766,0.412715,-0.021303,1.276332,-0.468753,-0.321472,1.135848,-0.112279,1.442914,42.927288,-26.059158,-3.697939,0.458158,1.942855,-0.142960,0.000000,0.000000,0.000000,0.000000,0.000000,0.000000
12678272.000000,-2.320391,-1.663254,1.182984,-1.436300,1.719514,1.252835,-0.579867,0.421905,-0.021923,1.265303,-0.467144,-0.316790,1.132357,-0.107233,1.613508,42.903484,-25.959976,-3.523378,0.470060,1.825668,-0.182328,0.000000,0.000000,0.000000,0.000000,0.000000,0.000000
12678273.000000,-2.319987,-1.663273,1.184232,-1.436746,1.719193,1.253956,-0.579964,0.413902,-0.020391,1.262957,-0.458163,-0.317314,1.128453,-0.103105,1.934858,42.927288,-25.860794,-3.547182,0.584501,1.916305,-0.235429,0.000000,0.000000,0.000000,0.000000,0.000000,0.000000
12678274.000000,-2.319580,-1.663291,1.185494,-1.437187,1.718875,1.255087,-0.580075,0.409929,-0.018544,1.254279,-0.452328,-0.317359,1.120795,-0.103864,2.160993,42.927288,-25.860794,-3.570986,0.703519,2.060043,-0.175919,0.000000,0.000000,0.000000,0.000000,0.000000,0.000000
12678275.000000,-2.319170,-1.663310,1.186747,-1.437635,1.718571,1.256218,-0.580172,0.409555,-0.017164,1.252745,-0.446222,-0.313565,1.117085,-0.104533,2.184797,42.927288,-25.737808,-3.523378,0.721830,2.228500,-0.221696,0.000000,0.000000,0.000000,0.000000,0.000000,0.000000
12678276.000000,-2.318757,-1.663320,1.187979,-1.438074,1.718260,1.257360,-0.580280,0.410882,-0.013620,1.246227,-0.442346,-0.313991,1.124802,-0.107870,2.208601,42.828106,-25.666397,-3.475771,0.823453,2.125045,-0.188737,0.000000,0.000000,0.000000,0.000000,0.000000,0.000000
12678277.000000,-2.318340,-1.663338,1.189221,-1.438521,1.717946,1.258540,-0.580376,0.409943,-0.014223,1.243173,-0.445596,-0.310640,1.136260,-0.102610,2.208601,42.851910,-25.591019,-3.301210,0.859159,1.800033,-0.241837,0.000000,0.000000,0.000000,0.000000,0.000000,0.000000
12678278.000000,-2.317920,-1.663351,1.190429,-1.438972,1.717659,1.259693,-0.580478,0.411695,-0.015924,1.232502,-0.444645,-0.304124,1.148562,-0.101607,2.061811,42.804302,-25.345047,-3.102846,0.751127,1.643478,-0.235429,0.000000,0.000000,0.000000,0.000000,0.000000,0.000000
12678279.000000,-2.317504,-1.663355,1.191669,-1.439416,1.717369,1.260850,-0.580589,0.410675,-0.011259,1.232829,-0.445537,-0.301181,1.153165,-0.103344,1.962629,42.633709,-25.321243,-2.856874,0.685209,1.597701,-0.142960,0.000000,0.000000,0.000000,0.000000,0.000000,0.000000
12678280.000000,-2.317106,-1.663369,1.192913,-1.439841,1.717082,1.262011,-0.580679,0.407094,-0.015144,1.231168,-0.436902,-0.293382,1.161331,-0.098592,2.010236,42.633709,-25.345047,-2.856874,0.596403,1.591293,-0.208878,0.000000,0.000000,0.000000,0.000000,0.000000,0.000000
12678281.000000,-2.316702,-1.663375,1.194142,-1.440262,1.716793,1.263148,-0.580782,0.408044,-0.012493,1.234811,-0.434413,-0.290391,1.153798,-0.098601,2.061811,42.534527,-25.468033,-2.928285,0.571683,1.689254,-0.175919,0.000000,0.000000,0.000000,0.000000,0.000000,0.000000
12678282.000000,-2.316299,-1.663387,1.195381,-1.440668,1.716503,1.264290,-0.580887,0.406392,-0.012363,1.228475,-0.425852,-0.285277,1.142519,-0.099455,2.184797,42.510723,-25.614822,-3.079042,0.620206,1.871444,-0.136552,0.000000,0.000000,0.000000,0.000000,0.000000,0.000000
12678283.000000,-2.315905,-1.663397,1.196620,-1.441067,1.716235,1.265409,-0.580978,0.403362,-0.009578,1.235473,-0.416233,-0.282181,1.130651,-0.096037,2.283979,42.510723,-25.983780,-3.348818,0.589994,2.131454,-0.188737,0.000000,0.000000,0.000000,0.000000,0.000000,0.000000
12678284.000000,-2.315501,-1.663400,1.197877,-1.441469,1.715955,1.266554,-0.581070,0.402980,-0.005067,1.238119,-0.411824,-0.280460,1.127217,-0.094539,2.260175,42.411541,-26.424149,-3.424196,0.661405,2.255050,-0.235429,0.000000,0.000000,0.000000,0.000000,0.000000,0.000000
12678285.000000,-2.315106,-1.663409,1.199112,-1.441867,1.715668,1.267719,-0.581163,0.402149,-0.006083,1.236071,-0.410290,-0.283283,1.126019,-0.099517,2.307783,42.363934,-26.475723,-3.547182,0.727323,2.209274,-0.229020,0.000000,0.000000,0.000000,0.000000,0.000000,0.000000
12678286.000000,-2.314691,-1.663421,1.200328,-1.442284,1.715387,1.268857,-0.581268,0.406000,-0.011132,1.230862,-0.411664,-0.283867,1.128995,-0.100693,2.160993,42.363934,-26.598709,-3.424196,0.751127,2.177230,-0.163102,0.000000,0.000000,0.000000,0.000000,0.000000,0.000000
12678287.000000,-2.314275,-1.663430,1.201556,-1.442692,1.715112,1.270000,-0.581358,0.408353,-0.011159,1.225776,-0.413700,-0.282693,1.125722,-0.096629,1.986432,42.340130,-26.622513,-3.249635,0.745634,2.196456,-0.229020,0.000000,0.000000,0.000000,0.000000,0.000000,0.000000
12678288.000000,-2.313875,-1.663435,1.202753,-1.443098,1.714847,1.271123,-0.581458,0.408752,-0.006791,1.241163,-0.408563,-0.270320,1.148533,-0.097919,1.887250,42.264751,-26.424149,-3.178224,0.667814,2.202865,-0.196061,0.000000,0.000000,0.000000,0.000000,0.000000,0.000000
12678289.000000,-2.313479,-1.663446,1.203969,-1.443494,1.714584,1.272272,-0.581563,0.404712,-0.005364,1.234602,-0.415324,-0.266690,1.146802,-0.098645,1.986432,42.264751,-26.229752,-3.102846,0.608304,2.131454,-0.142960,0.000000,0.000000,0.000000,0.000000,0.000000,0.000000
12678290.000000,-2.313077,-1.663452,1.205173,-1.443885,1.714319,1.273422,-0.581651,0.410921,-0.005726,1.218600,-0.404315,-0.263205,1.144246,-0.094507,2.034040,42.193340,-25.860794,-3.154421,0.535978,2.053634,-0.221696,0.000000,0.000000,0.000000,0.000000,0.000000,0.000000
12678291.000000,-2.312697,-1.663453,1.206384,-1.444276,1.714067,1.274553,-0.581746,0.398052,-0.004983,1.221038,-0.401358,-0.262328,1.142949,-0.095325,2.208601,42.070354,-25.860794,-3.102846,0.494779,1.995040,-0.202470,0.000000,0.000000,0.000000,0.000000,0.000000,0.000000
12678292.000000,-2.312309,-1.663454,1.207589,-1.444655,1.713815,1.275682,-0.581837,0.389926,-0.004425,1.210955,-0.394647,-0.261097,1.134568,-0.094372,2.283979,41.947369,-25.642593,-3.126650,0.440763,2.060043,-0.235429,0.000000,0.000000,0.000000,0.000000,0.000000,0.000000
12678293.000000,-2.311930,-1.663452,1.208802,-1.445029,1.713558,1.276840,-0.581944,0.382863,-0.003054,1.210983,-0.386067,-0.260192,1.141051,-0.093456,2.454572,41.776775,-25.567215,-3.154421,0.512174,1.974899,-0.136552,0.000000,0.000000,0.000000,0.000000,0.000000,0.000000
12678294.000000,-2.311546,-1.663450,1.209995,-1.445402,1.713294,1.277969,-0.582037,0.380383,-0.000089,1.205440,-0.380388,-0.265007,1.145397,-0.087930,2.605329,41.653790,-25.491837,-3.178224,0.613798,1.897079,-0.163102,0.000000,0.000000,0.000000,0.000000,0.000000,0.000000
12678295.000000,-2.311157,-1.663447,1.211202,-1.445772,1.713029,1.279115,-0.582126,0.387415,0.000239,1.198757,-0.376731,-0.266655,1.135483,-0.088012,2.605329,41.483196,-25.491837,-3.178224,0.691617,1.851302,-0.188737,0.000000,0.000000,0.000000,0.000000,0.000000,0.000000
12678296.000000,-2.310786,-1.663448,1.212394,-1.446144,1.712777,1.280235,-0.582218,0.381546,0.001707,1.200443,-0.373319,-0.262125,1.124082,-0.089419,2.728315,41.384014,-25.567215,-3.178224,0.721830,1.865035,-0.215287,0.000000,0.000000,0.000000,0.000000,0.000000,0.000000
12678297.000000,-2.310402,-1.663444,1.213573,-1.446500,1.712530,1.281379,-0.582308,0.379052,0.003435,1.188248,-0.365807,-0.251006,1.121571,-0.091082,2.728315,41.261028,-25.249832,-3.277406,0.673307,1.838485,-0.208878,0.000000,0.000000,0.000000,0.000000,0.000000,0.000000
12678298.000000,-2.310028,-1.663442,1.214769,-1.446862,1.712280,1.282531,-0.582395,0.376295,0.003526,1.186855,-0.365182,-0.249985,1.117065,-0.088299,2.803693,41.189617,-25.174454,-3.301210,0.698026,1.773483,-0.208878,0.000000,0.000000,0.000000,0.000000,0.000000,0.000000
12678299.000000,-2.309644,-1.663436,1.215920,-1.447221,1.712046,1.283649,-0.582479,0.376750,0.004345,1.173868,-0.363556,-0.243639,1.114646,-0.083728,2.779890,41.090435,-24.757889,-3.376589,0.566190,1.930038,-0.235429,0.000000,0.000000,0.000000,0.000000,0.000000,0.000000
12678300.000000,-2.309266,-1.663428,1.217095,-1.447578,1.711807,1.284779,-0.582575,0.376303,0.005529,1.169353,-0.359901,-0.235656,1.111207,-0.088722,2.779890,40.967449,-24.511917,-3.301210,0.476469,2.066451,-0.175919,0.000000,0.000000,0.000000,0.000000,0.000000,0.000000
12678301.000000,-2.308889,-1.663420,1.218254,-1.447924,1.711572,1.285916,-0.582665,0.379954,0.005730,1.164116,-0.355726,-0.234554,1.119733,-0.090794,2.704511,40.872234,-24.341324,-3.376589,0.405057,2.001449,-0.155778,0.000000,0.000000,0.000000,0.000000,0.000000,0.000000
12678302.000000,-2.308508,-1.663408,1.219439,-1.448271,1.711341,1.287082,-0.582746,0.378154,0.006559,1.169543,-0.350015,-0.233127,1.125110,-0.084105,2.680707,40.749249,-24.313553,-3.325014,0.410551,1.800033,-0.229020,0.000000,0.000000,0.000000,0.000000,0.000000,0.000000
12678303.000000,-2.308134,-1.663399,1.220644,-1.448622,1.711109,1.288237,-0.582839,0.378296,0.010360,1.176483,-0.349959,-0.231737,1.130020,-0.089565,2.652936,40.626263,-24.583328,-3.225832,0.422452,1.682845,-0.155778,0.000000,0.000000,0.000000,0.000000,0.000000,0.000000
12678304.000000,-2.307753,-1.663384,1.221831,-1.448952,1.710873,1.289365,-0.582917,0.376832,0.011088,1.182429,-0.340720,-0.231684,1.134188,-0.083486,2.529951,40.455669,-24.904678,-3.376589,0.446256,1.682845,-0.221696,0.000000,0.000000,0.000000,0.000000,0.000000,0.000000
12678305.000000,-2.307385,-1.663376,1.223034,-1.449280,1.710627,1.290494,-0.583003,0.371381,0.009855,1.182265,-0.339696,-0.233927,1.131373,-0.082634,2.553754,40.356487,-25.321243,-3.424196,0.547880,1.779891,-0.196061,0.000000,0.000000,0.000000,0.000000,0.000000,0.000000
12678306.000000,-2.307019,-1.663383,1.224228,-1.449594,1.710382,1.291610,-0.583090,0.367737,0.004357,1.203229,-0.327652,-0.230470,1.149353,-0.087654,2.581525,40.455669,-25.491837,-3.670168,0.637601,1.858627,-0.149369,0.000000,0.000000,0.000000,0.000000,0.000000,0.000000
12678307.000000,-2.306654,-1.663377,1.225404,-1.449907,1.710155,1.292728,-0.583163,0.363132,0.004191,1.199603,-0.321974,-0.228482,1.139670,-0.081438,2.680707,40.404095,-25.614822,-3.797121,0.625699,1.988631,-0.229020,0.000000,0.000000,0.000000,0.000000,0.000000,0.000000
12678308.000000,-2.306284,-1.663375,1.226598,-1.450222,1.709933,1.293846,-0.583246,0.367930,0.003411,1.189782,-0.316848,-0.220021,1.132415,-0.080596,2.605329,40.380291,-25.761612,-3.967714,0.559781,2.112228,-0.215287,0.000000,0.000000,0.000000,0.000000,0.000000,0.000000
12678309.000000,-2.305918,-1.663378,1.227757,-1.450549,1.709715,1.294960,-0.583327,0.366970,0.001206,1.179806,-0.318322,-0.222456,1.124842,-0.079468,2.553754,40.427898,-25.567215,-3.892336,0.452665,2.066451,-0.215287,0.000000,0.000000,0.000000,0.000000,0.000000,0.000000
12678310.000000,-2.305543,-1.663384,1.228920,-1.450869,1.709481,1.296094,-0.583406,0.367238,-0.002039,1.171346,-0.321490,-0.222788,1.118663,-0.079429,2.454572,40.550884,-25.249832,-3.745546,0.428861,1.974899,-0.208878,0.000000,0.000000,0.000000,0.000000,0.000000,0.000000
12678311.000000,-2.305164,-1.663380,1.230087,-1.451188,1.709256,1.297231,-0.583481,0.370790,-0.000220,1.167466,-0.321359,-0.218193,1.110351,-0.073025,2.232404,40.503277,-24.928482,-3.670168,0.398649,1.897079,-0.229020,0.000000,0.000000,0.000000,0.000000,0.000000,0.000000
12678312.000000,-2.304787,-1.663383,1.231237,-1.451514,1.709033,1.298357,-0.583565,0.370247,-0.001241,1.158546,-0.320429,-0.221471,1.113754,-0.071455,2.109418,40.550884,-24.634903,-3.499574,0.422452,1.800033,-0.169511,0.000000,0.000000,0.000000,0.000000,0.000000,0.000000
12678313.000000,-2.304404,-1.663373,1.232408,-1.451822,1.708808,1.299498,-0.583643,0.370176,0.002620,1.154751,-0.317520,-0.223719,1.113789,-0.077101,1.835676,40.404095,-24.511917,-3.547182,0.458158,1.689254,-0.155778,0.000000,0.000000,0.000000,0.000000,0.000000,0.000000
12678314.000000,-2.304035,-1.663374,1.233542,-1.452137,1.708595,1.300632,-0.583715,0.371812,0.000551,1.147609,-0.314721,-0.219557,1.123646,-0.075024,1.641279,40.455669,-24.095352,-3.475771,0.452665,1.513473,-0.202470,0.000000,0.000000,0.000000,0.000000,0.000000,0.000000
12678315.000000,-2.303668,-1.663370,1.234712,-1.452428,1.708366,1.301770,-0.583794,0.368354,0.001582,1.150995,-0.307686,-0.228627,1.123647,-0.076144,1.565900,40.404095,-24.071548,-3.622560,0.524076,1.513473,-0.175919,0.000000,0.000000,0.000000,0.000000,0.000000,0.000000
12678316.000000,-2.303306,-1.663371,1.235879,-1.452728,1.708139,1.302896,-0.583871,0.366850,-0.000146,1.154136,-0.305433,-0.227327,1.117284,-0.070773,1.514325,40.455669,-23.972366,-3.670168,0.518583,1.676437,-0.208878,0.000000,0.000000,0.000000,0.000000,0.000000,0.000000
12678317.000000,-2.302936,-1.663365,1.237027,-1.453023,1.707928,1.304002,-0.583952,0.363318,0.001671,1.157143,-0.300834,-0.220388,1.112685,-0.073203,1.415143,40.380291,-23.873184,-3.697939,0.470060,1.877853,-0.175919,0.000000,0.000000,0.000000,0.000000,0.000000,0.000000
12678318.000000,-2.302561,-1.663363,1.238192,-1.453312,1.707707,1.305132,-0.584027,0.364487,0.001674,1.156726,-0.300296,-0.221765,1.116722,-0.072764,1.192975,40.356487,-23.920792,-3.745546,0.482877,1.968490,-0.196061,0.000000,0.000000,0.000000,0.000000,0.000000,0.000000
12678319.000000,-2.302193,-1.663356,1.239335,-1.453612,1.707500,1.306273,-0.584103,0.362610,0.002882,1.153379,-0.298364,-0.220342,1.129404,-0.073208,1.022382,40.281109,-23.873184,-3.697939,0.452665,1.851302,-0.202470,0.000000,0.000000,0.000000,0.000000,0.000000,0.000000
12678320.000000,-2.301808,-1.663345,1.240492,-1.453905,1.707285,1.307409,-0.584180,0.367373,0.004707,1.148984,-0.295188,-0.222441,1.131972,-0.069494,0.724836,40.162090,-23.873184,-3.598757,0.464567,1.800033,-0.196061,0.000000,0.000000,0.000000,0.000000,0.000000,0.000000
12678321.000000,-2.301426,-1.663334,1.241635,-1.454204,1.707065,1.308544,-0.584253,0.377106,0.008663,1.144794,-0.297727,-0.218975,1.133802,-0.065800,0.375715,40.062908,-23.603409,-3.424196,0.482877,1.851302,-0.208878,0.000000,0.000000,0.000000,0.000000,0.000000,0.000000
12678322.000000,-2.301041,-1.663321,1.242767,-1.454498,1.706858,1.309657,-0.584333,0.375539,0.012558,1.140875,-0.297530,-0.215072,1.123459,-0.065349,0.054365,39.916119,-23.504227,-3.325014,0.452665,1.865035,-0.169511,0.000000,0.000000,0.000000,0.000000,0.000000,0.000000
12678323.000000,-2.300660,-1.663311,1.243909,-1.454773,1.706640,1.310799,-0.584406,0.376050,0.011150,1.138406,-0.289469,-0.215385,1.115838,-0.062046,-0.191607,39.816936,-23.286026,-3.424196,0.512174,1.786300,-0.196061,0.000000,0.000000,0.000000,0.000000,0.000000,0.000000
12678324.000000,-2.300289,-1.663299,1.245047,-1.455052,1.706434,1.311929,-0.584482,0.375220,0.013233,1.160170,-0.285997,-0.212820,1.130340,-0.061694,-0.389971,39.721722,-23.286026,-3.547182,0.500272,1.800033,-0.175919,0.000000,0.000000,0.000000,0.000000,0.000000,0.000000
12678325.000000,-2.299916,-1.663284,1.246206,-1.455330,1.706238,1.313046,-0.584550,0.371669,0.014808,1.160535,-0.286758,-0.208780,1.124875,-0.063405,-0.540728,39.622540,-23.432816,-3.622560,0.434354,1.812850,-0.208878,0.000000,0.000000,0.000000,0.000000,0.000000,0.000000
12678326.000000,-2.299545,-1.663269,1.247388,-1.455604,1.706035,1.314168,-0.584627,0.374347,0.015552,1.161473,-0.279583,-0.206339,1.121696,-0.063256,-0.612139,39.547161,-23.801773,-3.697939,0.386747,1.884261,-0.169511,0.000000,0.000000,0.000000,0.000000,0.000000,0.000000
12678327.000000,-2.299184,-1.663262,1.248546,-1.455882,1.705827,1.315274,-0.584695,0.368293,0.013816,1.160998,-0.280826,-0.210668,1.117101,-0.060301,-0.711321,39.574932,-24.095352,-3.745546,0.362943,1.936446,-0.202470,0.000000,0.000000,0.000000,0.000000,0.000000,0.000000
12678328.000000,-2.298818,-1.663256,1.249723,-1.456149,1.705615,1.316403,-0.584765,0.366360,0.012099,1.166058,-0.277934,-0.211529,1.110515,-0.065386,-0.786700,39.622540,-24.412735,-3.844728,0.405057,1.903487,-0.188737,0.000000,0.000000,0.000000,0.000000,0.000000,0.000000
12678329.000000,-2.298454,-1.663243,1.250897,-1.456418,1.705405,1.317518,-0.584839,0.366296,0.010730,1.162131,-0.274267,-0.207059,1.102333,-0.069804,-0.885882,39.547161,-24.706314,-3.868532,0.440763,2.001449,-0.136552,0.000000,0.000000,0.000000,0.000000,0.000000,0.000000
12678330.000000,-2.298089,-1.663232,1.252056,-1.456684,1.705207,1.318619,-0.584898,0.365952,0.008386,1.161540,-0.271096,-0.206542,1.105918,-0.063857,-0.961260,39.523357,-24.928482,-3.920107,0.422452,2.079269,-0.208878,0.000000,0.000000,0.000000,0.000000,0.000000,0.000000
12678331.000000,-2.297729,-1.663225,1.253195,-1.456943,1.705011,1.319740,-0.584972,0.369074,0.009161,1.148618,-0.267483,-0.202176,1.105412,-0.072328,-0.985064,39.523357,-24.706314,-4.019289,0.434354,2.053634,-0.175919,0.000000,0.000000,0.000000,0.000000,0.000000,0.000000
12678332.000000,-2.297382,-1.663216,1.254323,-1.457198,1.704813,1.320843,-0.585037,0.363371,0.009960,1.142495,-0.258295,-0.204112,1.109210,-0.067871,-0.985064,39.523357,-24.488113,-4.118471,0.452665,2.007858,-0.202470,0.000000,0.000000,0.000000,0.000000,0.000000,0.000000
12678333.000000,-2.297029,-1.663209,1.255471,-1.457461,1.704615,1.321949,-0.585103,0.357193,0.009855,1.140112,-0.258833,-0.203003,1.099614,-0.064366,-0.961260,39.547161,-24.218338,-4.043092,0.410551,2.027084,-0.221696,0.000000,0.000000,0.000000,0.000000,0.000000,0.000000
12678334.000000,-2.296686,-1.663198,1.256609,-1.457715,1.704422,1.323060,-0.585178,0.353652,0.011570,1.132221,-0.257216,-0.192805,1.093441,-0.066012,-0.909686,39.499554,-23.801773,-4.043092,0.362943,2.137862,-0.149369,0.000000,0.000000,0.000000,0.000000,0.000000,0.000000
12678335.000000,-2.296338,-1.663186,1.257729,-1.457975,1.704230,1.324171,-0.585240,0.350679,0.012876,1.129483,-0.258135,-0.192489,1.091408,-0.060392,-0.862078,39.451946,-23.480423,-3.943910,0.374845,2.066451,-0.221696,0.000000,0.000000,0.000000,0.000000,0.000000,0.000000
12678336.000000,-2.296003,-1.663173,1.258864,-1.458225,1.704042,1.325309,-0.585312,0.346316,0.013861,1.120556,-0.257099,-0.185216,1.101548,-0.061787,-0.711321,39.400372,-23.234451,-3.920107,0.339139,1.865035,-0.163102,0.000000,0.000000,0.000000,0.000000,0.000000,0.000000
12678337.000000,-2.295679,-1.663158,1.259989,-1.458482,1.703862,1.326425,-0.585375,0.341358,0.015064,1.117710,-0.255671,-0.185630,1.093407,-0.060400,-0.564532,39.328960,-23.063858,-3.892336,0.320829,1.721298,-0.163102,0.000000,0.000000,0.000000,0.000000,0.000000,0.000000
12678338.000000,-2.295352,-1.663143,1.261138,-1.458729,1.703679,1.327543,-0.585432,0.334646,0.016035,1.129928,-0.251406,-0.185899,1.097610,-0.057853,-0.389971,39.253582,-23.087662,-3.892336,0.303434,1.695663,-0.208878,0.000000,0.000000,0.000000,0.000000,0.000000,0.000000
12678339.000000,-2.295031,-1.663125,1.262284,-1.458969,1.703493,1.328669,-0.585495,0.332992,0.017772,1.131046,-0.249081,-0.185143,1.100026,-0.057694,-0.243182,39.130596,-23.063858,-3.991518,0.267728,1.689254,-0.208878,0.000000,0.000000,0.000000,0.000000,0.000000,0.000000
12678340.000000,-2.294717,-1.663114,1.263413,-1.459217,1.703294,1.329782,-0.585562,0.323559,0.016642,1.132108,-0.246781,-0.190196,1.109072,-0.058232,0.030561,39.106792,-23.040054,-3.991518,0.374845,1.637069,-0.196061,0.000000,0.000000,0.000000,0.000000,0.000000,0.000000
12678341.000000,-2.294401,-1.663098,1.264546,-1.459449,1.703104,1.330905,-0.585626,0.320485,0.017512,1.125647,-0.241510,-0.190409,1.110599,-0.062861,0.153547,39.011578,-22.988480,-4.142274,0.398649,1.643478,-0.188737,0.000000,0.000000,0.000000,0.000000,0.000000,0.000000
12678342.000000,-2.294093,-1.663083,1.265663,-1.459690,1.702919,1.332013,-0.585684,0.318163,0.017705,1.120956,-0.237934,-0.189271,1.128786,-0.060993,0.276533,38.936199,-22.940872,-4.142274,0.381254,1.735030,-0.202470,0.000000,0.000000,0.000000,0.000000,0.000000,0.000000
12678343.000000,-2.293781,-1.663066,1.266806,-1.459931,1.702731,1.333114,-0.585750,0.312590,0.015171,1.125079,-0.242231,-0.190175,1.122265,-0.065990,0.403486,38.837017,-22.964676,-4.118471,0.416959,1.800033,-0.163102,0.000000,0.000000,0.000000,0.000000,0.000000,0.000000
12678344.000000,-2.293468,-1.663048,1.267919,-1.460172,1.702548,1.334242,-0.585808,0.306987,0.013684,1.115832,-0.242783,-0.188935,1.117384,-0.064134,0.474897,38.717999,-22.571915,-4.066896,0.416959,1.676437,-0.169511,0.000000,0.000000,0.000000,0.000000,0.000000,0.000000
12678345.000000,-2.293164,-1.663026,1.269035,-1.460418,1.702372,1.335354,-0.585866,0.307860,0.013145,1.113649,-0.241628,-0.186369,1.114043,-0.061288,0.601850,38.571209,-22.524307,-3.920107,0.356534,1.597701,-0.196061,0.000000,0.000000,0.000000,0.000000,0.000000,0.000000
12678346.000000,-2.292857,-1.663006,1.270165,-1.460656,1.702194,1.336468,-0.585927,0.305524,0.015794,1.113902,-0.241204,-0.184516,1.104856,-0.056178,0.673261,38.424419,-22.472733,-3.769350,0.291532,1.637069,-0.175919,0.000000,0.000000,0.000000,0.000000,0.000000,0.000000
12678347.000000,-2.292562,-1.662990,1.271307,-1.460899,1.702012,1.337611,-0.585981,0.304471,0.018770,1.116919,-0.240238,-0.183199,1.110159,-0.054849,0.748639,38.372845,-22.524307,-3.622560,0.225614,1.526290,-0.215287,0.000000,0.000000,0.000000,0.000000,0.000000,0.000000
12678348.000000,-2.292272,-1.662967,1.272444,-1.461135,1.701830,1.338734,-0.586046,0.298882,0.020106,1.129576,-0.238614,-0.182282,1.113575,-0.058346,0.994611,38.226055,-22.742508,-3.523378,0.285123,1.422836,-0.142960,0.000000,0.000000,0.000000,0.000000,0.000000,0.000000
12678349.000000,-2.291977,-1.662947,1.273600,-1.461364,1.701648,1.339858,-0.586101,0.297083,0.017839,1.129752,-0.236902,-0.180347,1.114482,-0.061082,1.169172,38.079266,-23.087662,-3.448000,0.332731,1.429244,-0.169511,0.000000,0.000000,0.000000,0.000000,0.000000,0.000000
12678350.000000,-2.291694,-1.662928,1.274741,-1.461603,1.701476,1.340961,-0.586155,0.295885,0.018090,1.134945,-0.239515,-0.183220,1.108446,-0.059097,1.343732,37.984051,-23.409012,-3.325014,0.351041,1.552840,-0.202470,0.000000,0.000000,0.000000,0.000000,0.000000,0.000000
12678351.000000,-2.291411,-1.662913,1.275893,-1.461832,1.701293,1.342057,-0.586217,0.290450,0.016677,1.143735,-0.236742,-0.183378,1.105441,-0.055343,1.542096,37.956280,-23.726395,-3.277406,0.446256,1.793624,-0.163102,0.000000,0.000000,0.000000,0.000000,0.000000,0.000000
12678352.000000,-2.291140,-1.662894,1.277051,-1.462058,1.701116,1.343170,-0.586269,0.283137,0.017332,1.142654,-0.230529,-0.179841,1.105785,-0.054668,1.740461,37.861065,-23.972366,-3.277406,0.458158,1.962081,-0.208878,0.000000,0.000000,0.000000,0.000000,0.000000,0.000000
12678353.000000,-2.290860,-1.662883,1.278187,-1.462295,1.700941,1.344269,-0.586330,0.282983,0.015554,1.141147,-0.233966,-0.180125,1.104900,-0.056222,1.863447,37.861065,-24.043777,-3.079042,0.416959,2.053634,-0.182328,0.000000,0.000000,0.000000,0.000000,0.000000,0.000000
12678354.000000,-2.290577,-1.662863,1.279329,-1.462539,1.700764,1.345388,-0.586386,0.285241,0.017242,1.138049,-0.238381,-0.176682,1.105252,-0.056388,1.962629,37.738079,-23.996170,-2.781496,0.405057,2.039901,-0.188737,0.000000,0.000000,0.000000,0.000000,0.000000,0.000000
12678355.000000,-2.290292,-1.662847,1.280450,-1.462778,1.700592,1.346492,-0.586444,0.286050,0.016881,1.124607,-0.239645,-0.177685,1.101183,-0.057464,1.887250,37.686504,-23.896988,-2.535524,0.381254,1.955673,-0.163102,0.000000,0.000000,0.000000,0.000000,0.000000,0.000000
12678356.000000,-2.290012,-1.662832,1.281593,-1.463017,1.700427,1.347606,-0.586496,0.281327,0.015822,1.126980,-0.240870,-0.175247,1.096951,-0.055573,1.962629,37.662701,-23.774002,-2.237978,0.362943,1.890670,-0.202470,0.000000,0.000000,0.000000,0.000000,0.000000,0.000000
12678357.000000,-2.289732,-1.662816,1.282722,-1.463266,1.700253,1.348718,-0.586552,0.286871,0.015418,1.122734,-0.243621,-0.175654,1.094794,-0.054925,1.911054,37.638897,-23.409012,-1.916628,0.422452,1.877853,-0.208878,0.000000,0.000000,0.000000,0.000000,0.000000,0.000000
12678358.000000,-2.289455,-1.662804,1.283832,-1.463506,1.700087,1.349820,-0.586607,0.281999,0.013847,1.119541,-0.240055,-0.175980,1.100531,-0.052153,1.887250,37.662701,-23.111465,-1.817445,0.470060,1.844894,-0.175919,0.000000,0.000000,0.000000,0.000000,0.000000,0.000000
12678359.000000,-2.289193,-1.662782,1.284964,-1.463738,1.699922,1.350932,-0.586655,0.274651,0.016410,1.115292,-0.237271,-0.173915,1.096241,-0.051803,2.133222,37.539715,-22.964676,-1.742067,0.464567,1.832076,-0.215287,0.000000,0.000000,0.000000,0.000000,0.000000,0.000000
12678360.000000,-2.288930,-1.662768,1.286089,-1.463958,1.699754,1.352052,-0.586714,0.269744,0.016198,1.116988,-0.231594,-0.172048,1.122776,-0.056135,2.260175,37.492107,-22.917068,-1.817445,0.440763,1.786300,-0.155778,0.000000,0.000000,0.000000,0.000000,0.000000,0.000000
12678361.000000,-2.288662,-1.662756,1.287228,-1.464179,1.699593,1.353167,-0.586765,0.268515,0.015443,1.124248,-0.230728,-0.170290,1.125285,-0.054320,2.307783,37.468304,-22.893265,-1.916628,0.405057,1.624252,-0.196061,0.000000,0.000000,0.000000,0.000000,0.000000,0.000000
12678362.000000,-2.288392,-1.662741,1.288365,-1.464406,1.699428,1.354278,-0.586815,0.277255,0.015156,1.118051,-0.229670,-0.171037,1.119469,-0.054725,2.359357,37.444500,-22.865494,-1.916628,0.440763,1.617843,-0.202470,0.000000,0.000000,0.000000,0.000000,0.000000,0.000000
12678363.000000,-2.288128,-1.662731,1.289497,-1.464631,1.699270,1.355376,-0.586871,0.270662,0.013825,1.119284,-0.228365,-0.166780,1.114942,-0.051789,2.359357,37.468304,-22.988480,-1.916628,0.464567,1.682845,-0.169511,0.000000,0.000000,0.000000,0.000000,0.000000,0.000000
12678364.000000,-2.287864,-1.662724,1.290635,-1.464854,1.699119,1.356485,-0.586916,0.266396,0.011640,1.123169,-0.226470,-0.161486,1.111470,-0.047242,2.307783,37.539715,-23.040054,-1.841249,0.428861,1.721298,-0.202470,0.000000,0.000000,0.000000,0.000000,0.000000,0.000000
12678365.000000,-2.287600,-1.662717,1.291765,-1.465076,1.698962,1.357611,-0.586973,0.269577,0.010708,1.116686,-0.226160,-0.159889,1.103470,-0.046679,2.283979,37.591290,-22.964676,-1.841249,0.458158,1.682845,-0.155778,0.000000,0.000000,0.000000,0.000000,0.000000,0.000000
12678366.000000,-2.287335,-1.662711,1.292877,-1.465296,1.698814,1.358724,-0.587016,0.268808,0.010141,1.115248,-0.220925,-0.157959,1.100947,-0.046769,2.260175,37.638897,-22.865494,-1.793642,0.470060,1.532699,-0.215287,0.000000,0.000000,0.000000,0.000000,0.000000,0.000000
12678367.000000,-2.287065,-1.662693,1.293995,-1.465501,1.698666,1.359836,-0.587066,0.263445,0.013736,1.113616,-0.215397,-0.157349,1.090242,-0.049797,2.133222,37.515911,-22.694901,-1.817445,0.386747,1.572067,-0.196061,0.000000,0.000000,0.000000,0.000000,0.000000,0.000000
12678368.000000,-2.286801,-1.662679,1.295089,-1.465708,1.698514,1.360929,-0.587116,0.265657,0.013972,1.107086,-0.212093,-0.155182,1.088213,-0.047834,2.034040,37.492107,-22.448929,-1.793642,0.386747,1.643478,-0.175919,0.000000,0.000000,0.000000,0.000000,0.000000,0.000000
12678369.000000,-2.286531,-1.662663,1.296205,-1.465911,1.698351,1.362043,-0.587158,0.264563,0.014613,1.106091,-0.208815,-0.156627,1.096721,-0.047940,1.863447,37.444500,-22.230728,-1.817445,0.452665,1.708480,-0.229020,0.000000,0.000000,0.000000,0.000000,0.000000,0.000000
12678370.000000,-2.286268,-1.662657,1.297338,-1.466115,1.698199,1.363158,-0.587206,0.263794,0.013533,1.107990,-0.204338,-0.155063,1.094353,-0.047043,1.712690,37.468304,-22.254532,-1.793642,0.458158,1.767074,-0.202470,0.000000,0.000000,0.000000,0.000000,0.000000,0.000000
12678371.000000,-2.286012,-1.662635,1.298457,-1.466311,1.698051,1.364265,-0.587253,0.263632,0.016725,1.109983,-0.199733,-0.149997,1.100661,-0.049198,1.688886,37.321514,-22.448929,-1.817445,0.476469,1.727706,-0.202470,0.000000,0.000000,0.000000,0.000000,0.000000,0.000000
12678372.000000,-2.285749,-1.662620,1.299610,-1.466499,1.697912,1.365383,-0.587302,0.256808,0.017135,1.116115,-0.195844,-0.142198,1.097745,-0.047831,1.641279,37.246136,-22.841690,-1.869020,0.398649,1.670028,-0.163102,0.000000,0.000000,0.000000,0.000000,0.000000,0.000000
12678373.000000,-2.285485,-1.662604,1.300751,-1.466693,1.697764,1.366486,-0.587343,0.258907,0.016841,1.127567,-0.196471,-0.139681,1.125639,-0.048046,1.514325,37.198528,-23.286026,-1.892824,0.393156,1.584884,-0.215287,0.000000,0.000000,0.000000,0.000000,0.000000,0.000000
12678374.000000,-2.285225,-1.662595,1.301901,-1.466889,1.697618,1.367585,-0.587389,0.261256,0.014332,1.133241,-0.198426,-0.139006,1.118161,-0.050751,1.415143,37.246136,-23.651016,-1.817445,0.422452,1.676437,-0.202470,0.000000,0.000000,0.000000,0.000000,0.000000,0.000000
12678375.000000,-2.284967,-1.662588,1.303049,-1.467068,1.697473,1.368673,-0.587440,0.264924,0.012492,1.130196,-0.192893,-0.145972,1.104750,-0.048993,1.343732,37.297710,-23.896988,-1.940431,0.416959,1.851302,-0.163102,0.000000,0.000000,0.000000,0.000000,0.000000,0.000000
12678376.000000,-2.284706,-1.662582,1.304181,-1.467242,1.697323,1.369751,-0.587480,0.263736,0.011381,1.128614,-0.184029,-0.151524,1.093384,-0.044951,1.216779,37.345318,-24.095352,-2.015810,0.405057,1.974899,-0.202470,0.000000,0.000000,0.000000,0.000000,0.000000,0.000000
12678377.000000,-2.284451,-1.662579,1.305313,-1.467406,1.697170,1.370848,-0.587529,0.258048,0.009361,1.126272,-0.180436,-0.147704,1.083818,-0.043985,1.121564,37.444500,-24.095352,-2.237978,0.434354,1.930038,-0.182328,0.000000,0.000000,0.000000,0.000000,0.000000,0.000000
12678378.000000,-2.284195,-1.662574,1.306423,-1.467574,1.697024,1.371956,-0.587569,0.257764,0.008723,1.122159,-0.176317,-0.147632,1.087692,-0.045714,1.022382,37.515911,-23.972366,-2.384767,0.410551,1.884261,-0.215287,0.000000,0.000000,0.000000,0.000000,0.000000,0.000000
12678379.000000,-2.283933,-1.662573,1.307536,-1.467743,1.696879,1.373044,-0.587621,0.255598,0.006595,1.112781,-0.173868,-0.149405,1.091077,-0.050171,0.871625,37.662701,-23.627213,-2.384767,0.434354,1.812850,-0.169511,0.000000,0.000000,0.000000,0.000000,0.000000,0.000000
12678380.000000,-2.283672,-1.662575,1.308660,-1.467908,1.696732,1.374134,-0.587661,0.253721,0.005074,1.111842,-0.173777,-0.150447,1.087732,-0.045528,0.724836,37.809490,-23.309830,-2.436342,0.464567,1.858627,-0.208878,0.000000,0.000000,0.000000,0.000000,0.000000,0.000000
12678381.000000,-2.283417,-1.662575,1.309766,-1.468075,1.696594,1.375212,-0.587701,0.254480,0.002101,1.109861,-0.171945,-0.145091,1.083183,-0.047200,0.601850,37.908672,-23.087662,-2.412538,0.446256,1.884261,-0.241837,0.000000,0.000000,0.000000,0.000000,0.000000,0.000000
12678382.000000,-2.283163,-1.662573,1.310888,-1.468230,1.696459,1.376326,-0.587751,0.250924,-0.000140,1.108844,-0.167237,-0.139037,1.095996,-0.048508,0.502668,38.007854,-22.917068,-2.535524,0.374845,1.714889,-0.155778,0.000000,0.000000,0.000000,0.000000,0.000000,0.000000
12678383.000000,-2.282921,-1.662575,1.312007,-1.468383,1.696324,1.377466,-0.587787,0.246262,-0.001736,1.106514,-0.159477,-0.135942,1.106382,-0.043723,0.502668,38.103069,-22.671097,-2.706117,0.332731,1.409103,-0.208878,0.000000,0.000000,0.000000,0.000000,0.000000,0.000000
12678384.000000,-2.282677,-1.662572,1.313130,-1.468527,1.696183,1.378563,-0.587834,0.244589,-0.001926,1.111700,-0.153447,-0.139298,1.105370,-0.043971,0.451093,38.154644,-22.817886,-2.904482,0.315336,1.299239,-0.169511,0.000000,0.000000,0.000000,0.000000,0.000000,0.000000
12678385.000000,-2.282431,-1.662570,1.314255,-1.468660,1.696038,1.379663,-0.587867,0.245807,-0.001512,1.114277,-0.147921,-0.137883,1.090009,-0.039885,0.427289,38.178448,-22.770279,-3.154421,0.332731,1.383468,-0.229020,0.000000,0.000000,0.000000,0.000000,0.000000,0.000000
12678386.000000,-2.282192,-1.662569,1.315366,-1.468797,1.695894,1.380737,-0.587915,0.240505,0.000785,1.116856,-0.143438,-0.142449,1.077400,-0.042387,0.427289,38.249859,-22.794083,-3.277406,0.386747,1.605026,-0.149369,0.000000,0.000000,0.000000,0.000000,0.000000,0.000000
12678387.000000,-2.281946,-1.662566,1.316476,-1.468927,1.695749,1.381842,-0.587954,0.237907,0.001533,1.113135,-0.139258,-0.142810,1.080999,-0.041299,0.304304,38.226055,-22.742508,-3.448000,0.476469,1.741439,-0.142960,0.000000,0.000000,0.000000,0.000000,0.000000,0.000000
12678388.000000,-2.281701,-1.662562,1.317603,-1.469055,1.695617,1.382962,-0.587987,0.241275,0.002476,1.112763,-0.131998,-0.139030,1.084109,-0.038340,0.153547,38.178448,-22.794083,-3.646364,0.458158,1.754256,-0.196061,0.000000,0.000000,0.000000,0.000000,0.000000,0.000000
12678389.000000,-2.281450,-1.662555,1.318708,-1.469189,1.695494,1.384078,-0.588029,0.245674,0.004225,1.114267,-0.131445,-0.134235,1.093160,-0.039771,-0.092425,38.079266,-22.770279,-3.646364,0.381254,1.695663,-0.155778,0.000000,0.000000,0.000000,0.000000,0.000000,0.000000
12678390.000000,-2.281194,-1.662550,1.319820,-1.469313,1.695377,1.385194,-0.588062,0.246501,0.004678,1.108322,-0.130222,-0.129345,1.091597,-0.037131,-0.413775,38.007854,-22.694901,-3.670168,0.267728,1.649886,-0.208878,0.000000,0.000000,0.000000,0.000000,0.000000,0.000000
12678391.000000,-2.280949,-1.662543,1.320907,-1.469445,1.695247,1.386311,-0.588107,0.245612,0.005582,1.122971,-0.128452,-0.125835,1.113732,-0.039603,-0.635943,37.908672,-22.500504,-3.570986,0.267728,1.624252,-0.149369,0.000000,0.000000,0.000000,0.000000,0.000000,0.000000
12678392.000000,-2.280699,-1.662542,1.322016,-1.469569,1.695124,1.387399,-0.588135,0.245979,0.003272,1.116991,-0.129009,-0.127608,1.108500,-0.036634,-0.834307,37.932476,-22.377518,-3.499574,0.267728,1.741439,-0.215287,0.000000,0.000000,0.000000,0.000000,0.000000,0.000000
12678393.000000,-2.280449,-1.662534,1.323145,-1.469685,1.695001,1.388495,-0.588172,0.253248,0.004582,1.117116,-0.127623,-0.122681,1.109936,-0.032058,-1.060443,37.833294,-22.472733,-3.523378,0.231107,1.851302,-0.215287,0.000000,0.000000,0.000000,0.000000,0.000000,0.000000
12678394.000000,-2.280211,-1.662527,1.324257,-1.469799,1.694872,1.389595,-0.588215,0.247411,0.005342,1.116400,-0.124783,-0.126281,1.114292,-0.036282,-1.159625,37.738079,-22.647293,-3.622560,0.255826,1.773483,-0.142960,0.000000,0.000000,0.000000,0.000000,0.000000,0.000000
12678395.000000,-2.279973,-1.662527,1.325403,-1.469907,1.694741,1.390703,-0.588243,0.244176,0.003607,1.121777,-0.118623,-0.133572,1.105359,-0.034540,-1.207232,37.738079,-23.063858,-3.769350,0.285123,1.689254,-0.196061,0.000000,0.000000,0.000000,0.000000,0.000000,0.000000
12678396.000000,-2.279743,-1.662527,1.326551,-1.470016,1.694613,1.391816,-0.588280,0.238712,0.002439,1.129418,-0.112674,-0.133937,1.094346,-0.036322,-1.207232,37.738079,-23.432816,-3.844728,0.303434,1.643478,-0.169511,0.000000,0.000000,0.000000,0.000000,0.000000,0.000000
12678397.000000,-2.279515,-1.662525,1.327684,-1.470118,1.694489,1.392887,-0.588312,0.234740,0.001651,1.133261,-0.107772,-0.129272,1.083516,-0.031524,-1.207232,37.738079,-23.920792,-3.943910,0.320829,1.800033,-0.175919,0.000000,0.000000,0.000000,0.000000,0.000000,0.000000
12678398.000000,-2.279287,-1.662537,1.328829,-1.470226,1.694359,1.393976,-0.588347,0.232476,-0.002870,1.131320,-0.110220,-0.131800,1.077867,-0.033334,-1.254840,37.908672,-24.265945,-3.920107,0.381254,1.968490,-0.169511,0.000000,0.000000,0.000000,0.000000,0.000000,0.000000
12678399.000000,-2.279056,-1.662542,1.329959,-1.470326,1.694238,1.395050,-0.588379,0.232731,-0.003663,1.135454,-0.107342,-0.126920,1.079356,-0.034946,-1.354022,37.984051,-24.488113,-3.943910,0.381254,2.039901,-0.155778,0.000000,0.000000,0.000000,0.000000,0.000000,0.000000
12678400.000000,-2.278820,-1.662550,1.331088,-1.470424,1.694119,1.396140,-0.588406,0.231645,-0.005215,1.128733,-0.105434,-0.121735,1.076933,-0.029261,-1.453204,38.103069,-24.464310,-3.967714,0.339139,2.085677,-0.202470,0.000000,0.000000,0.000000,0.000000,0.000000,0.000000
12678401.000000,-2.278589,-1.662554,1.332227,-1.470521,1.694005,1.397250,-0.588440,0.230729,-0.004675,1.121717,-0.104043,-0.120714,1.084875,-0.033242,-1.627764,38.154644,-24.488113,-3.991518,0.243009,1.968490,-0.169511,0.000000,0.000000,0.000000,0.000000,0.000000,0.000000
12678402.000000,-2.278359,-1.662557,1.333335,-1.470631,1.693893,1.398343,-0.588466,0.229815,-0.004224,1.119777,-0.103147,-0.121769,1.091714,-0.028636,-1.802325,38.202251,-24.313553,-3.868532,0.189908,1.838485,-0.196061,0.000000,0.000000,0.000000,0.000000,0.000000,0.000000
12678403.000000,-2.278131,-1.662567,1.334441,-1.470734,1.693765,1.399431,-0.588499,0.226193,-0.006245,1.109096,-0.104039,-0.126336,1.078852,-0.027796,-1.925311,38.349041,-23.948563,-3.797121,0.243009,1.838485,-0.155778,0.000000,0.000000,0.000000,0.000000,0.000000,0.000000
12678404.000000,-2.277909,-1.662576,1.335536,-1.470834,1.693635,1.400496,-0.588521,0.222541,-0.006480,1.104071,-0.100936,-0.130328,1.068976,-0.023123,-2.072100,38.448223,-23.579605,-3.745546,0.327238,1.936446,-0.221696,0.000000,0.000000,0.000000,0.000000,0.000000,0.000000
12678405.000000,-2.277694,-1.662584,1.336658,-1.470922,1.693509,1.401574,-0.588554,0.218361,-0.006545,1.102426,-0.096342,-0.126643,1.060633,-0.028297,-2.099871,38.543438,-23.456619,-3.797121,0.351041,2.072860,-0.182328,0.000000,0.000000,0.000000,0.000000,0.000000,0.000000
12678406.000000,-2.277489,-1.662591,1.337769,-1.471007,1.693390,1.402687,-0.588581,0.214268,-0.006125,1.099280,-0.090700,-0.122271,1.069490,-0.025449,-2.000689,38.618816,-23.210648,-3.943910,0.332731,1.949264,-0.196061,0.000000,0.000000,0.000000,0.000000,0.000000,0.000000
12678407.000000,-2.277281,-1.662595,1.338877,-1.471087,1.693271,1.403801,-0.588611,0.208940,-0.005195,1.104117,-0.086733,-0.120681,1.084873,-0.024135,-1.925311,38.666424,-23.135269,-4.090700,0.351041,1.695663,-0.188737,0.000000,0.000000,0.000000,0.000000,0.000000,0.000000
12678408.000000,-2.277070,-1.662597,1.340011,-1.471168,1.693158,1.404907,-0.588641,0.209828,-0.004019,1.107258,-0.082128,-0.112544,1.082321,-0.023399,-1.925311,38.690228,-23.286026,-4.189882,0.320829,1.584884,-0.175919,0.000000,0.000000,0.000000,0.000000,0.000000,0.000000
12678409.000000,-2.276863,-1.662605,1.341121,-1.471255,1.693047,1.405977,-0.588665,0.208492,-0.004442,1.131596,-0.083849,-0.110318,1.096751,-0.025333,-1.949114,38.765606,-23.357437,-4.189882,0.255826,1.702071,-0.215287,0.000000,0.000000,0.000000,0.000000,0.000000,0.000000
12678410.000000,-2.276658,-1.662616,1.342238,-1.471336,1.692930,1.407072,-0.588702,0.207647,-0.005838,1.121610,-0.087350,-0.107910,1.093957,-0.031161,-1.949114,38.888592,-23.333633,-4.213686,0.291532,1.721298,-0.142960,0.000000,0.000000,0.000000,0.000000,0.000000,0.000000
12678411.000000,-2.276445,-1.662624,1.343358,-1.471422,1.692818,1.408170,-0.588726,0.210855,-0.006118,1.117540,-0.088310,-0.109307,1.095909,-0.026255,-2.072100,38.983807,-23.333633,-4.189882,0.297025,1.767074,-0.188737,0.000000,0.000000,0.000000,0.000000,0.000000,0.000000
12678412.000000,-2.276244,-1.662630,1.344462,-1.471497,1.692710,1.409255,-0.588753,0.209073,-0.005285,1.119279,-0.082919,-0.105051,1.100697,-0.025134,-2.123675,39.035381,-23.357437,-4.289064,0.279630,1.754256,-0.169511,0.000000,0.000000,0.000000,0.000000,0.000000,0.000000
12678413.000000,-2.276040,-1.662633,1.345579,-1.471567,1.692604,1.410354,-0.588783,0.202961,-0.003523,1.113633,-0.078690,-0.104636,1.099375,-0.024353,-2.199053,39.035381,-23.409012,-4.412050,0.213712,1.702071,-0.149369,0.000000,0.000000,0.000000,0.000000,0.000000,0.000000
12678414.000000,-2.275831,-1.662634,1.346682,-1.471640,1.692494,1.411460,-0.588803,0.205621,-0.001792,1.104323,-0.075111,-0.101614,1.090781,-0.025653,-2.345843,39.011578,-23.210648,-4.412050,0.195402,1.643478,-0.202470,0.000000,0.000000,0.000000,0.000000,0.000000,0.000000
12678415.000000,-2.275630,-1.662639,1.347765,-1.471713,1.692372,1.412547,-0.588832,0.204303,-0.001751,1.104035,-0.075531,-0.104102,1.087625,-0.025812,-2.397418,39.035381,-22.893265,-4.412050,0.303434,1.605026,-0.155778,0.000000,0.000000,0.000000,0.000000,0.000000,0.000000
12678416.000000,-2.275426,-1.662641,1.348878,-1.471784,1.692252,1.413632,-0.588860,0.202709,-0.000611,1.098423,-0.073154,-0.107928,1.079994,-0.028502,-2.445025,39.011578,-22.940872,-4.388246,0.356534,1.754256,-0.155778,0.000000,0.000000,0.000000,0.000000,0.000000,0.000000
12678417.000000,-2.275231,-1.662638,1.349981,-1.471853,1.692147,1.414705,-0.588879,0.197155,0.000799,1.100657,-0.071066,-0.107899,1.075265,-0.029125,-2.520403,38.960003,-23.040054,-4.364442,0.327238,1.851302,-0.208878,0.000000,0.000000,0.000000,0.000000,0.000000,0.000000
12678418.000000,-2.275032,-1.662634,1.351116,-1.471917,1.692037,1.415821,-0.588906,0.193978,0.002760,1.116710,-0.071545,-0.104473,1.081188,-0.027656,-2.591815,38.864788,-23.381241,-4.388246,0.332731,1.670028,-0.182328,0.000000,0.000000,0.000000,0.000000,0.000000,0.000000
12678419.000000,-2.274847,-1.662635,1.352263,-1.471980,1.691933,1.416945,-0.588937,0.191037,0.002490,1.121414,-0.068232,-0.104374,1.091028,-0.026737,-2.544207,38.837017,-23.849380,-4.439821,0.279630,1.461288,-0.149369,0.000000,0.000000,0.000000,0.000000,0.000000,0.000000
12678420.000000,-2.274661,-1.662631,1.353395,-1.472044,1.691828,1.418028,-0.588955,0.189506,0.002774,1.125204,-0.064010,-0.104695,1.098430,-0.027067,-2.520403,38.789410,-24.341324,-4.439821,0.231107,1.513473,-0.208878,0.000000,0.000000,0.000000,0.000000,0.000000,0.000000
12678421.000000,-2.274476,-1.662630,1.354541,-1.472106,1.691719,1.419100,-0.588979,0.186382,0.001849,1.128811,-0.063752,-0.101557,1.084555,-0.025869,-2.492632,38.789410,-24.734085,-4.439821,0.219205,1.773483,-0.188737,0.000000,0.000000,0.000000,0.000000,0.000000,0.000000
12678422.000000,-2.274299,-1.662641,1.355663,-1.472163,1.691607,1.420154,-0.589003,0.186637,-0.001644,1.125540,-0.061840,-0.105691,1.075768,-0.025566,-2.468829,38.912395,-25.027664,-4.511232,0.267728,2.066451,-0.149369,0.000000,0.000000,0.000000,0.000000,0.000000,0.000000
12678423.000000,-2.274117,-1.662645,1.356778,-1.472221,1.691495,1.421231,-0.589021,0.187730,-0.002210,1.115112,-0.058996,-0.109279,1.065092,-0.022332,-2.445025,38.960003,-24.976089,-4.511232,0.320829,2.242233,-0.188737,0.000000,0.000000,0.000000,0.000000,0.000000,0.000000
12678424.000000,-2.273937,-1.662649,1.357903,-1.472279,1.691385,1.422327,-0.589045,0.190703,-0.002030,1.114896,-0.056838,-0.109149,1.063106,-0.022774,-2.468829,38.983807,-25.003860,-4.511232,0.303434,2.261459,-0.155778,0.000000,0.000000,0.000000,0.000000,0.000000,0.000000
12678425.000000,-2.273755,-1.662645,1.359011,-1.472345,1.691285,1.423427,-0.589057,0.188133,0.000317,1.111588,-0.058799,-0.106405,1.072187,-0.019275,-2.520403,38.912395,-24.976089,-4.364442,0.207303,2.125045,-0.221696,0.000000,0.000000,0.000000,0.000000,0.000000,0.000000
12678426.000000,-2.273575,-1.662640,1.360133,-1.472410,1.691170,1.424539,-0.589082,0.181172,0.002531,1.105363,-0.060636,-0.108596,1.076766,-0.020871,-2.619586,38.813213,-24.857071,-4.189882,0.219205,1.930038,-0.175919,0.000000,0.000000,0.000000,0.000000,0.000000,0.000000
12678427.000000,-2.273402,-1.662657,1.361244,-1.472474,1.691050,1.425637,-0.589099,0.178840,-0.002952,1.125178,-0.064027,-0.108091,1.098738,-0.019581,-2.667193,39.011578,-24.511917,-4.043092,0.297025,1.877853,-0.196061,0.000000,0.000000,0.000000,0.000000,0.000000,0.000000
12678428.000000,-2.273228,-1.662656,1.362331,-1.472540,1.690934,1.426700,-0.589115,0.178195,-0.004495,1.113540,-0.067427,-0.111966,1.086784,-0.019517,-2.690997,38.983807,-24.190567,-3.844728,0.369352,2.001449,-0.196061,0.000000,0.000000,0.000000,0.000000,0.000000,0.000000
12678429.000000,-2.273065,-1.662657,1.363450,-1.472594,1.690826,1.427780,-0.589138,0.175792,-0.002705,1.112604,-0.062312,-0.106590,1.084256,-0.021076,-2.619586,38.960003,-24.095352,-3.844728,0.356534,2.092086,-0.149369,0.000000,0.000000,0.000000,0.000000,0.000000,0.000000
12678430.000000,-2.272916,-1.662661,1.364549,-1.472641,1.690725,1.428869,-0.589149,0.170599,-0.002559,1.110110,-0.059641,-0.106182,1.091373,-0.022442,-2.397418,38.983807,-23.996170,-3.943910,0.303434,1.974899,-0.221696,0.000000,0.000000,0.000000,0.000000,0.000000,0.000000
12678431.000000,-2.272767,-1.662669,1.365669,-1.472686,1.690622,1.429969,-0.589171,0.162465,-0.005670,1.110497,-0.054390,-0.101274,1.090265,-0.023898,-2.222857,39.011578,-24.043777,-4.066896,0.249418,1.838485,-0.163102,0.000000,0.000000,0.000000,0.000000,0.000000,0.000000
12678432.000000,-2.272621,-1.662671,1.366800,-1.472728,1.690520,1.431075,-0.589182,0.159440,-0.003506,1.116123,-0.047420,-0.103141,1.088923,-0.021309,-2.048296,38.983807,-24.142960,-4.189882,0.213712,1.754256,-0.196061,0.000000,0.000000,0.000000,0.000000,0.000000,0.000000
12678433.000000,-2.272474,-1.662673,1.367907,-1.472778,1.690414,1.432151,-0.589203,0.153754,-0.004729,1.113996,-0.049151,-0.101101,1.081314,-0.021661,-1.873736,38.936199,-24.190567,-4.166078,0.213712,1.825668,-0.169511,0.000000,0.000000,0.000000,0.000000,0.000000,0.000000
12678434.000000,-2.272324,-1.662677,1.369021,-1.472827,1.690307,1.433239,-0.589219,0.149484,-0.006135,1.108495,-0.048314,-0.105378,1.076953,-0.019976,-1.826129,38.912395,-24.265945,-4.090700,0.255826,1.930038,-0.196061,0.000000,0.000000,0.000000,0.000000,0.000000,0.000000
12678435.000000,-2.272173,-1.662683,1.370112,-1.472876,1.690198,1.434324,-0.589238,0.147513,-0.008648,1.102842,-0.047829,-0.110039,1.081849,-0.020946,-1.826129,38.936199,-24.190567,-3.991518,0.327238,1.909896,-0.163102,0.000000,0.000000,0.000000,0.000000,0.000000,0.000000
12678436.000000,-2.272025,-1.662685,1.371218,-1.472918,1.690089,1.435430,-0.589251,0.145565,-0.008443,1.099886,-0.045608,-0.111095,1.086710,-0.019675,-1.849932,38.888592,-24.142960,-3.967714,0.339139,1.851302,-0.182328,0.000000,0.000000,0.000000,0.000000,0.000000,0.000000
12678437.000000,-2.271884,-1.662684,1.372321,-1.472960,1.689980,1.436546,-0.589269,0.140765,-0.004120,1.098592,-0.044085,-0.106508,1.094649,-0.020710,-1.849932,38.789410,-23.996170,-3.943910,0.332731,1.682845,-0.155778,0.000000,0.000000,0.000000,0.000000,0.000000,0.000000
12678438.000000,-2.271747,-1.662684,1.373399,-1.473003,1.689884,1.437638,-0.589281,0.141094,-0.004253,1.090201,-0.043528,-0.101179,1.101087,-0.019391,-1.750750,38.690228,-23.774002,-3.892336,0.273221,1.624252,-0.175919,0.000000,0.000000,0.000000,0.000000,0.000000,0.000000
12678439.000000,-2.271605,-1.662685,1.374493,-1.473041,1.689776,1.438725,-0.589291,0.141652,-0.001889,1.085932,-0.042374,-0.104856,1.091418,-0.017858,-1.778521,38.618816,-23.603409,-3.868532,0.297025,1.741439,-0.215287,0.000000,0.000000,0.000000,0.000000,0.000000,0.000000
12678440.000000,-2.271470,-1.662690,1.375577,-1.473080,1.689667,1.439795,-0.589312,0.139635,-0.001246,1.085983,-0.038881,-0.108607,1.083178,-0.020441,-1.726946,38.595013,-23.480423,-3.820925,0.356534,1.851302,-0.155778,0.000000,0.000000,0.000000,0.000000,0.000000,0.000000
12678441.000000,-2.271347,-1.662691,1.376689,-1.473124,1.689573,1.440880,-0.589324,0.134908,-0.000032,1.089250,-0.038801,-0.103589,1.070980,-0.019226,-1.552386,38.543438,-23.627213,-3.670168,0.327238,1.981307,-0.175919,0.000000,0.000000,0.000000,0.000000,0.000000,0.000000
12678442.000000,-2.271223,-1.662687,1.377821,-1.473156,1.689481,1.441990,-0.589335,0.135629,0.001900,1.098743,-0.038080,-0.098577,1.069461,-0.017906,-1.429400,38.448223,-23.972366,-3.670168,0.255826,1.930038,-0.208878,0.000000,0.000000,0.000000,0.000000,0.000000,0.000000
12678443.000000,-2.271104,-1.662689,1.378946,-1.473193,1.689391,1.443091,-0.589352,0.130362,0.001594,1.108560,-0.036784,-0.096402,1.075532,-0.020235,-1.282611,38.424419,-24.464310,-3.570986,0.219205,1.806442,-0.155778,0.000000,0.000000,0.000000,0.000000,0.000000,0.000000
12678444.000000,-2.270987,-1.662692,1.380069,-1.473226,1.689294,1.444195,-0.589361,0.125562,0.000334,1.107321,-0.034546,-0.096353,1.078504,-0.018466,-1.084246,38.448223,-24.857071,-3.523378,0.231107,1.747848,-0.196061,0.000000,0.000000,0.000000,0.000000,0.000000,0.000000
12678445.000000,-2.270867,-1.662696,1.381180,-1.473251,1.689194,1.445286,-0.589377,0.123874,-0.001020,1.130889,-0.034411,-0.097662,1.094987,-0.019396,-0.985064,38.495831,-25.126846,-3.547182,0.273221,1.838485,-0.175919,0.000000,0.000000,0.000000,0.000000,0.000000,0.000000
12678446.000000,-2.270753,-1.662706,1.382298,-1.473282,1.689092,1.446350,-0.589387,0.118911,-0.004210,1.129710,-0.036825,-0.100007,1.084438,-0.014287,-0.862078,38.642620,-25.249832,-3.475771,0.356534,1.974899,-0.182328,0.000000,0.000000,0.000000,0.000000,0.000000,0.000000
12678447.000000,-2.270635,-1.662709,1.383414,-1.473309,1.688995,1.447428,-0.589404,0.123210,-0.003993,1.116912,-0.034899,-0.094209,1.080670,-0.016629,-0.834307,38.690228,-25.222061,-3.424196,0.381254,2.104903,-0.149369,0.000000,0.000000,0.000000,0.000000,0.000000,0.000000
12678448.000000,-2.270522,-1.662715,1.384515,-1.473337,1.688901,1.448505,-0.589413,0.120689,-0.004480,1.111026,-0.033976,-0.098083,1.082451,-0.016572,-0.810504,38.765606,-25.222061,-3.348818,0.362943,2.039901,-0.163102,0.000000,0.000000,0.000000,0.000000,0.000000,0.000000
12678449.000000,-2.270406,-1.662722,1.385606,-1.473363,1.688804,1.449606,-0.589416,0.118611,-0.005347,1.103704,-0.033044,-0.091682,1.076945,-0.014773,-0.834307,38.864788,-24.880875,-3.277406,0.344633,1.844894,-0.229020,0.000000,0.000000,0.000000,0.000000,0.000000,0.000000
12678450.000000,-2.270293,-1.662729,1.386719,-1.473397,1.688700,1.450694,-0.589430,0.118251,-0.005266,1.102313,-0.034708,-0.092607,1.068386,-0.017455,-0.862078,38.936199,-24.757889,-3.102846,0.356534,1.786300,-0.188737,0.000000,0.000000,0.000000,0.000000,0.000000,0.000000
12678451.000000,-2.270184,-1.662739,1.387799,-1.473428,1.688606,1.451765,-0.589437,0.113499,-0.005854,1.093285,-0.033263,-0.091441,1.063795,-0.012109,-0.862078,39.035381,-24.436539,-2.904482,0.315336,1.806442,-0.215287,0.000000,0.000000,0.000000,0.000000,0.000000,0.000000
12678452.000000,-2.270076,-1.662742,1.388895,-1.473458,1.688504,1.452843,-0.589453,0.111369,-0.003920,1.089851,-0.033409,-0.093753,1.063680,-0.011368,-0.810504,39.035381,-24.190567,-2.781496,0.362943,1.909896,-0.155778,0.000000,0.000000,0.000000,0.000000,0.000000,0.000000
12678453.000000,-2.269980,-1.662746,1.389976,-1.473472,1.688406,1.453925,-0.589457,0.103097,-0.006321,1.084727,-0.029277,-0.098409,1.067024,-0.011261,-0.711321,39.059185,-24.019974,-2.833071,0.374845,1.890670,-0.208878,0.000000,0.000000,0.000000,0.000000,0.000000,0.000000
12678454.000000,-2.269886,-1.662752,1.391079,-1.473480,1.688314,1.455034,-0.589474,0.098792,-0.004485,1.086779,-0.021727,-0.091105,1.082220,-0.014668,-0.588336,39.059185,-23.948563,-2.956056,0.339139,1.670028,-0.169511,0.000000,0.000000,0.000000,0.000000,0.000000,0.000000
12678455.000000,-2.269795,-1.662747,1.392203,-1.473485,1.688223,1.456150,-0.589480,0.096660,-0.000317,1.094770,-0.016681,-0.090489,1.089832,-0.013941,-0.465350,38.936199,-24.166763,-3.079042,0.297025,1.500655,-0.215287,0.000000,0.000000,0.000000,0.000000,0.000000,0.000000
12678456.000000,-2.269706,-1.662749,1.393292,-1.473491,1.688127,1.457239,-0.589495,0.094933,0.000750,1.094270,-0.014025,-0.091477,1.096541,-0.017171,-0.342364,38.888592,-24.119156,-3.154421,0.297025,1.454879,-0.163102,0.000000,0.000000,0.000000,0.000000,0.000000,0.000000
12678457.000000,-2.269617,-1.662752,1.394397,-1.473497,1.688029,1.458333,-0.589505,0.090626,0.000942,1.090003,-0.013983,-0.094232,1.093903,-0.012780,-0.266986,38.864788,-24.142960,-3.154421,0.351041,1.507064,-0.163102,0.000000,0.000000,0.000000,0.000000,0.000000,0.000000
12678458.000000,-2.269523,-1.662762,1.395481,-1.473501,1.687925,1.459392,-0.589510,0.094958,-0.001685,1.093591,-0.010126,-0.102115,1.096470,-0.012518,-0.314593,38.960003,-24.119156,-3.178224,0.434354,1.747848,-0.208878,0.000000,0.000000,0.000000,0.000000,0.000000,0.000000
12678459.000000,-2.269436,-1.662767,1.396573,-1.473506,1.687837,1.460479,-0.589523,0.094652,-0.001188,1.089085,-0.007772,-0.098114,1.083770,-0.016416,-0.243182,38.960003,-24.043777,-3.178224,0.393156,1.930038,-0.149369,0.000000,0.000000,0.000000,0.000000,0.000000,0.000000
12678460.000000,-2.269340,-1.662771,1.397665,-1.473507,1.687745,1.461594,-0.589530,0.094510,-0.000840,1.083829,-0.005947,-0.095860,1.083397,-0.010736,-0.314593,38.960003,-23.896988,-3.178224,0.362943,1.884261,-0.188737,0.000000,0.000000,0.000000,0.000000,0.000000,0.000000
12678461.000000,-2.269247,-1.662766,1.398741,-1.473500,1.687661,1.462705,-0.589536,0.091931,-0.000976,1.082303,-0.003425,-0.091633,1.087114,-0.007823,-0.389971,38.837017,-23.825577,-3.225832,0.261320,1.741439,-0.196061,0.000000,0.000000,0.000000,0.000000,0.000000,0.000000
