chaoyuefei/paper-gmrm-data/robot_logs/s2_dq_mrm_max_0.50_log_20260314_174840.csv
# time_ms,q_0,q_1,q_2,q_3,q_4,q_5,q_6,dq_0,dq_1,dq_2,dq_3,dq_4,dq_5,dq_6,tau_J_0,tau_J_1,tau_J_2,tau_J_3,tau_J_4,tau_J_5,tau_J_6,O_dP_EE_c_0,O_dP_EE_c_1,O_dP_EE_c_2,O_dP_EE_c_3,O_dP_EE_c_4,O_dP_EE_c_5
13182749.000000,2.312752,-0.964732,-1.819525,-1.386098,-0.927552,1.665504,0.447526,-0.000694,0.000583,-0.000696,0.000083,-0.000025,-0.000219,-0.000927,0.030561,35.508465,19.715378,12.147398,1.008390,1.389877,-0.103593,0.000000,0.000000,0.000000,0.000000,0.000000,0.000000
13182750.000000,2.312755,-0.964734,-1.819523,-1.386094,-0.927553,1.665506,0.447530,0.000651,-0.000261,0.000092,0.000612,0.000661,0.000329,0.001586,-0.017047,35.536236,19.691574,12.123594,0.990079,1.377059,-0.163102,0.000000,0.000000,0.000000,0.000000,0.000000,0.000000
13182751.000000,2.312755,-0.964736,-1.819523,-1.386099,-0.927552,1.665505,0.447524,0.000434,-0.000731,0.000062,-0.000705,0.000000,-0.000018,-0.001655,-0.017047,35.560040,19.691574,12.171202,1.001981,1.383468,-0.089860,0.000000,0.000000,0.000000,0.000000,0.000000,0.000000
13182752.000000,2.312754,-0.964737,-1.819525,-1.386098,-0.927552,1.665504,0.447528,-0.000267,0.000070,-0.000516,0.000087,0.000000,-0.000250,0.000117,0.006757,35.536236,19.715378,12.147398,1.001981,1.389877,-0.122819,0.000000,0.000000,0.000000,0.000000,0.000000,0.000000
13182753.000000,2.312743,-0.964741,-1.819520,-1.386099,-0.927551,1.665505,0.447530,-0.015216,-0.009946,-0.010370,-0.001149,-0.001303,0.001020,-0.000397,-0.389971,35.044292,19.104416,12.198973,0.913175,1.357833,-0.110001,0.000000,0.000000,0.000000,0.000000,0.000000,0.000000
13182754.000000,2.312736,-0.964716,-1.819539,-1.386099,-0.927540,1.665503,0.447547,-0.032215,-0.010872,-0.029281,-0.002436,-0.001973,-0.002025,0.004020,-2.345843,32.866253,17.335007,12.270384,0.554288,1.305648,-0.103593,0.000000,0.000000,0.000000,0.000000,0.000000,0.000000
13182755.000000,2.312728,-0.964654,-1.819608,-1.386099,-0.927522,1.665488,0.447575,-0.030781,0.008681,-0.055878,-0.003387,0.008635,-0.003907,0.011474,-5.813250,28.851360,14.538071,12.345762,-0.007845,1.364242,-0.077042,0.000000,0.000000,0.000000,0.000000,0.000000,0.000000
13182756.000000,2.312685,-0.964636,-1.819723,-1.386082,-0.927536,1.665466,0.447616,-0.027494,0.015214,-0.073575,0.001825,0.001706,-0.007947,0.017697,-9.697223,24.642071,11.249191,12.171202,-0.330111,1.500655,-0.064225,0.000000,0.000000,0.000000,0.000000,0.000000,0.000000
13182757.000000,2.312609,-0.964682,-1.819862,-1.386070,-0.927598,1.665470,0.447667,-0.035571,0.006275,-0.083547,0.000078,-0.018598,0.003601,0.031827,-13.362994,20.996136,7.666733,11.949034,-0.246798,1.507064,-0.050492,0.000000,0.000000,0.000000,0.000000,0.000000,0.000000
13182758.000000,2.312511,-0.964778,-1.820028,-1.386076,-0.927684,1.665517,0.447733,-0.042738,-0.016768,-0.100283,-0.001938,-0.047224,0.017570,0.040798,-16.802629,18.203167,4.473068,11.877623,-0.031649,1.240646,0.001693,0.000000,0.000000,0.000000,0.000000,0.000000,0.000000
13182759.000000,2.312393,-0.964905,-1.820191,-1.386088,-0.927784,1.665617,0.447824,-0.058254,-0.048334,-0.109418,-0.005962,-0.066877,0.049413,0.060087,-19.698748,16.048931,1.553146,11.778440,0.171598,0.622665,-0.023942,0.000000,0.000000,0.000000,0.000000,0.000000,0.000000
13182760.000000,2.312265,-0.965058,-1.820354,-1.386105,-0.927889,1.665759,0.447929,-0.075681,-0.078929,-0.112012,-0.007788,-0.080340,0.087191,0.075841,-22.198137,14.533428,-0.997818,11.627684,0.243009,-0.157365,0.041976,0.000000,0.000000,0.000000,0.000000,0.000000,0.000000
13182761.000000,2.312141,-0.965217,-1.820498,-1.386129,-0.927991,1.665913,0.448070,-0.086052,-0.101190,-0.119196,-0.009816,-0.083677,0.114155,0.095517,-24.602312,13.478130,-3.306778,11.504698,0.123990,-0.691117,0.028243,0.000000,0.000000,0.000000,0.000000,0.000000,0.000000
13182762.000000,2.312012,-0.965396,-1.820630,-1.386144,-0.928109,1.666062,0.448234,-0.102081,-0.124334,-0.119186,-0.012051,-0.093063,0.128828,0.120952,-26.704973,12.795757,-5.318192,11.135740,-0.079257,-0.827531,-0.023942,0.000000,0.000000,0.000000,0.000000,0.000000,0.000000
13182763.000000,2.311880,-0.965557,-1.820766,-1.386176,-0.928236,1.666207,0.448412,-0.102924,-0.131147,-0.120999,-0.023497,-0.103535,0.140419,0.139259,-28.264116,12.034039,-6.643265,10.639830,-0.330111,-0.573930,0.054794,0.000000,0.000000,0.000000,0.000000,0.000000,0.000000
13182764.000000,2.311728,-0.965699,-1.820888,-1.386243,-0.928363,1.666384,0.448635,-0.109519,-0.134206,-0.117130,-0.043975,-0.105209,0.152405,0.168467,-28.462481,11.375469,-7.357376,10.120115,-0.634982,-0.242509,-0.011124,0.000000,0.000000,0.000000,0.000000,0.000000,0.000000
13182765.000000,2.311563,-0.965822,-1.820996,-1.386373,-0.928515,1.666631,0.448872,-0.120532,-0.126689,-0.108890,-0.078697,-0.117117,0.187170,0.187330,-27.200884,10.764507,-7.452591,9.699583,-0.784213,-0.215958,0.001693,0.000000,0.000000,0.000000,0.000000,0.000000,0.000000
13182766.000000,2.311399,-0.965914,-1.821113,-1.386569,-0.928691,1.666927,0.449124,-0.133513,-0.114368,-0.114628,-0.118564,-0.137112,0.221702,0.203893,-24.923662,10.026592,-6.766251,9.330626,-0.772311,-0.372514,0.028243,0.000000,0.000000,0.000000,0.000000,0.000000,0.000000
13182767.000000,2.311231,-0.965992,-1.821226,-1.386789,-0.928897,1.667245,0.449388,-0.149948,-0.102766,-0.120519,-0.152123,-0.156669,0.248900,0.223566,-21.975969,9.197430,-5.710953,8.711729,-0.616671,-0.469559,0.034652,0.000000,0.000000,0.000000,0.000000,0.000000,0.000000
13182768.000000,2.311049,-0.966061,-1.821339,-1.387045,-0.929119,1.667559,0.449662,-0.167048,-0.091793,-0.122376,-0.182637,-0.176551,0.267739,0.239816,-18.583941,8.411907,-4.485062,7.922240,-0.426241,-0.248917,-0.004716,0.000000,0.000000,0.000000,0.000000,0.000000,0.000000
13182769.000000,2.310876,-0.966122,-1.821448,-1.387335,-0.929353,1.667880,0.449945,-0.182231,-0.082209,-0.126253,-0.215723,-0.195177,0.279860,0.248455,-15.366473,7.701763,-3.354386,7.104979,-0.246798,0.154830,0.015426,0.000000,0.000000,0.000000,0.000000,0.000000,0.000000
13182770.000000,2.310711,-0.966190,-1.821559,-1.387639,-0.929595,1.668236,0.450226,-0.183571,-0.081103,-0.123570,-0.239207,-0.208780,0.300903,0.261085,-12.470355,7.138409,-2.398270,6.363097,-0.174471,0.401107,0.034652,0.000000,0.000000,0.000000,0.000000,0.000000,0.000000
13182771.000000,2.310537,-0.966261,-1.821683,-1.387957,-0.929839,1.668617,0.450528,-0.188215,-0.083767,-0.126304,-0.257247,-0.222050,0.327607,0.267903,-9.673419,6.626629,-1.513565,5.522032,-0.294406,0.486251,-0.017533,0.000000,0.000000,0.000000,0.000000,0.000000,0.000000
13182772.000000,2.310360,-0.966347,-1.821819,-1.388270,-0.930094,1.669029,0.450813,-0.188453,-0.085911,-0.137624,-0.271914,-0.233327,0.353109,0.270880,-7.150225,6.380657,-0.803421,4.684935,-0.521456,0.532027,0.001693,0.000000,0.000000,0.000000,0.000000,0.000000,0.000000
13182773.000000,2.310189,-0.966457,-1.821978,-1.388599,-0.930385,1.669447,0.451108,-0.185514,-0.093667,-0.148506,-0.283578,-0.248156,0.371438,0.277076,-5.043597,6.428265,-0.164688,3.867674,-0.580966,0.609847,0.021835,0.000000,0.000000,0.000000,0.000000,0.000000,0.000000
13182774.000000,2.310021,-0.966594,-1.822145,-1.388924,-0.930695,1.669888,0.451412,-0.180745,-0.111635,-0.156177,-0.289760,-0.268568,0.394627,0.285772,-3.238482,6.773418,0.303451,3.078184,-0.533358,0.687667,-0.037675,0.000000,0.000000,0.000000,0.000000,0.000000,0.000000
13182775.000000,2.309855,-0.966751,-1.822329,-1.389234,-0.931018,1.670352,0.451698,-0.176394,-0.126427,-0.167870,-0.294261,-0.291636,0.414365,0.282251,-1.679339,7.237591,0.720016,2.137938,-0.515963,0.700484,0.034652,0.000000,0.000000,0.000000,0.000000,0.000000,0.000000
13182776.000000,2.309694,-0.966915,-1.822524,-1.389559,-0.931379,1.670846,0.451992,-0.167781,-0.137570,-0.180500,-0.297728,-0.311693,0.436641,0.283580,-0.389971,7.606548,0.965988,1.372252,-0.426241,0.499068,-0.004716,0.000000,0.000000,0.000000,0.000000,0.000000,0.000000
13182777.000000,2.309556,-0.967083,-1.822741,-1.389889,-0.931749,1.671382,0.452278,-0.155555,-0.149770,-0.190527,-0.308247,-0.330198,0.463947,0.291677,0.427289,7.900127,1.211960,0.777159,-0.360323,0.206100,-0.017533,0.000000,0.000000,0.000000,0.000000,0.000000,0.000000
13182778.000000,2.309426,-0.967254,-1.822961,-1.390223,-0.932129,1.671925,0.452566,-0.146258,-0.155192,-0.199713,-0.312939,-0.346637,0.492289,0.292649,1.022382,8.046917,1.211960,0.186034,-0.324618,-0.014542,0.028243,0.000000,0.000000,0.000000,0.000000,0.000000,0.000000
13182779.000000,2.309297,-0.967418,-1.823190,-1.390553,-0.932531,1.672484,0.452866,-0.137669,-0.161664,-0.207229,-0.318753,-0.367187,0.514792,0.291697,1.490522,8.023113,1.211960,-0.409059,-0.342013,-0.041093,-0.004716,0.000000,0.000000,0.000000,0.000000,0.000000,0.000000
13182780.000000,2.309186,-0.967588,-1.823420,-1.390889,-0.932953,1.673046,0.453153,-0.131199,-0.162413,-0.212087,-0.323125,-0.383565,0.520528,0.288673,1.613508,7.800945,1.037399,-0.877199,-0.342013,0.115462,0.021835,0.000000,0.000000,0.000000,0.000000,0.000000,0.000000
13182781.000000,2.309087,-0.967749,-1.823665,-1.391239,-0.933386,1.673621,0.453443,-0.120048,-0.158022,-0.221253,-0.331221,-0.399635,0.540381,0.287264,1.514325,7.336773,0.890610,-1.226320,-0.353915,0.264693,0.009017,0.000000,0.000000,0.000000,0.000000,0.000000,0.000000
13182782.000000,2.308988,-0.967903,-1.823923,-1.391601,-0.933833,1.674234,0.453729,-0.109603,-0.152808,-0.228796,-0.345548,-0.415919,0.557283,0.285851,1.415143,6.749615,0.767624,-1.396913,-0.396029,0.329696,0.028243,0.000000,0.000000,0.000000,0.000000,0.000000,0.000000
13182783.000000,2.308894,-0.968058,-1.824184,-1.391975,-0.934297,1.674892,0.454019,-0.106435,-0.153197,-0.235338,-0.353435,-0.421502,0.600184,0.288524,1.315961,6.186260,0.521652,-1.496095,-0.342013,0.141097,0.009017,0.000000,0.000000,0.000000,0.000000,0.000000,0.000000
13182784.000000,2.308804,-0.968220,-1.824476,-1.392373,-0.934752,1.675564,0.454298,-0.095649,-0.153145,-0.252221,-0.365217,-0.447303,0.621587,0.284823,1.145368,5.622906,0.620834,-1.420717,-0.287997,-0.047501,0.054794,0.000000,0.000000,0.000000,0.000000,0.000000,0.000000
13182785.000000,2.308721,-0.968398,-1.824762,-1.392766,-0.935230,1.676245,0.454578,-0.089888,-0.158645,-0.258858,-0.375070,-0.451712,0.638025,0.285648,0.871625,5.230145,0.521652,-1.448488,-0.187289,-0.027360,0.028243,0.000000,0.000000,0.000000,0.000000,0.000000,0.000000
13182786.000000,2.308637,-0.968592,-1.825040,-1.393188,-0.935716,1.676935,0.454861,-0.088119,-0.166693,-0.270192,-0.386036,-0.449517,0.654937,0.283931,0.697065,5.011944,0.275680,-1.420717,0.027860,0.037643,0.041976,0.000000,0.000000,0.000000,0.000000,0.000000,0.000000
13182787.000000,2.308570,-0.968792,-1.825359,-1.393609,-0.936179,1.677665,0.455150,-0.076593,-0.176836,-0.277923,-0.395477,-0.454785,0.672857,0.280190,0.375715,4.984173,0.497848,-1.472292,0.046171,0.076095,0.015426,0.000000,0.000000,0.000000,0.000000,0.000000,0.000000
13182788.000000,2.308501,-0.969018,-1.825663,-1.394039,-0.936649,1.678419,0.455433,-0.073958,-0.190691,-0.279488,-0.409502,-0.453565,0.697988,0.281435,0.304304,5.400738,0.743820,-1.619081,0.076383,0.069686,0.001693,0.000000,0.000000,0.000000,0.000000,0.000000,0.000000
13182789.000000,2.308425,-0.969252,-1.825946,-1.394485,-0.937114,1.679192,0.455708,-0.072150,-0.207140,-0.276730,-0.418579,-0.455436,0.722907,0.280089,0.550275,6.162457,1.112778,-1.793642,0.154203,0.031234,0.034652,0.000000,0.000000,0.000000,0.000000,0.000000,0.000000
13182790.000000,2.308348,-0.969506,-1.826253,-1.394952,-0.937549,1.679997,0.455992,-0.071577,-0.219075,-0.283518,-0.436866,-0.447155,0.746934,0.288193,0.994611,7.336773,2.045089,-1.793642,-0.025240,0.037643,0.015426,0.000000,0.000000,0.000000,0.000000,0.000000,0.000000
13182791.000000,2.308258,-0.969759,-1.826531,-1.395436,-0.937998,1.680816,0.456270,-0.078426,-0.231125,-0.281322,-0.450586,-0.442646,0.769987,0.288078,1.788068,8.582500,2.854416,-1.793642,-0.031649,-0.027360,-0.011124,0.000000,0.000000,0.000000,0.000000,0.000000,0.000000
13182792.000000,2.308167,-0.970002,-1.826810,-1.395936,-0.938442,1.681657,0.456540,-0.083897,-0.236903,-0.283029,-0.464392,-0.447307,0.784538,0.279465,2.652936,9.613995,3.838302,-1.769838,0.027860,-0.014542,0.061202,0.000000,0.000000,0.000000,0.000000,0.000000,0.000000
13182793.000000,2.308076,-0.970244,-1.827099,-1.396457,-0.938875,1.682516,0.456808,-0.090222,-0.239732,-0.286497,-0.482044,-0.444938,0.799269,0.276924,3.497968,10.347942,4.842026,-1.571474,-0.060946,0.017501,0.034652,0.000000,0.000000,0.000000,0.000000,0.000000,0.000000
13182794.000000,2.307967,-0.970501,-1.827380,-1.397001,-0.939313,1.683357,0.457076,-0.097979,-0.246970,-0.285885,-0.501311,-0.438631,0.814315,0.278207,4.509626,11.006512,5.556137,-1.297731,-0.031649,0.069686,0.028243,0.000000,0.000000,0.000000,0.000000,0.000000,0.000000
13182795.000000,2.307867,-0.970739,-1.827676,-1.397548,-0.939748,1.684195,0.457344,-0.097967,-0.243532,-0.290649,-0.517651,-0.439110,0.807104,0.282553,5.303083,11.276287,6.190903,-1.127138,0.010465,0.193282,0.028243,0.000000,0.000000,0.000000,0.000000,0.000000,0.000000
13182796.000000,2.307763,-0.971000,-1.827989,-1.398129,-0.940194,1.685025,0.457607,-0.100023,-0.251011,-0.299744,-0.534615,-0.438540,0.825174,0.280906,6.044965,11.546062,6.758224,-0.877199,0.064481,0.245467,0.074935,0.000000,0.000000,0.000000,0.000000,0.000000,0.000000
13182797.000000,2.307659,-0.971276,-1.828302,-1.398704,-0.940632,1.685849,0.457888,-0.102777,-0.257660,-0.303473,-0.545543,-0.439127,0.824912,0.278768,6.687665,11.815838,7.174789,-0.952577,0.129484,0.291244,0.021835,0.000000,0.000000,0.000000,0.000000,0.000000,0.000000
13182798.000000,2.307539,-0.971569,-1.828619,-1.399270,-0.941083,1.686658,0.458153,-0.110507,-0.267850,-0.306181,-0.550111,-0.447900,0.808164,0.275588,7.433515,12.157024,7.468369,-1.226320,0.159696,0.388290,0.009017,0.000000,0.000000,0.000000,0.000000,0.000000,0.000000
13182799.000000,2.307422,-0.971887,-1.828947,-1.399863,-0.941539,1.687467,0.458418,-0.109751,-0.284868,-0.314875,-0.556921,-0.448361,0.810515,0.275275,8.024640,12.621197,7.813522,-1.448488,0.159696,0.362655,0.054794,0.000000,0.000000,0.000000,0.000000,0.000000,0.000000
13182800.000000,2.307300,-0.972228,-1.829275,-1.400459,-0.941982,1.688276,0.458697,-0.110022,-0.304308,-0.316344,-0.573354,-0.454961,0.810963,0.274802,8.643537,13.236126,7.960312,-1.769838,0.189908,0.304061,-0.004716,0.000000,0.000000,0.000000,0.000000,0.000000,0.000000
13182801.000000,2.307174,-0.972590,-1.829619,-1.401059,-0.942441,1.689081,0.458964,-0.115258,-0.320049,-0.323461,-0.585198,-0.455094,0.804105,0.272087,9.290204,13.946270,8.182480,-2.015810,0.123990,0.245467,-0.004716,0.000000,0.000000,0.000000,0.000000,0.000000,0.000000
13182802.000000,2.307043,-0.972973,-1.829961,-1.401668,-0.942900,1.689874,0.459227,-0.120507,-0.339412,-0.328314,-0.585635,-0.465702,0.796629,0.267484,9.881330,14.704021,8.353073,-2.313356,0.123990,0.219833,0.034652,0.000000,0.000000,0.000000,0.000000,0.000000,0.000000
13182803.000000,2.306900,-0.973378,-1.830302,-1.402280,-0.943361,1.690667,0.459490,-0.134155,-0.358417,-0.328935,-0.592843,-0.467307,0.799837,0.267185,10.428815,15.537151,8.452255,-2.412538,0.135892,0.174056,0.021835,0.000000,0.000000,0.000000,0.000000,0.000000,0.000000
13182804.000000,2.306757,-0.973793,-1.830644,-1.402910,-0.943826,1.691454,0.459761,-0.140790,-0.373693,-0.339338,-0.597983,-0.461258,0.798065,0.270483,10.674787,16.441692,8.547470,-2.039613,0.093778,0.167648,0.041976,0.000000,0.000000,0.000000,0.000000,0.000000,0.000000
13182805.000000,2.306593,-0.974207,-1.830979,-1.403534,-0.944285,1.692251,0.460043,-0.149488,-0.386941,-0.336545,-0.601839,-0.459128,0.793817,0.274442,10.773969,17.298626,8.547470,-1.273927,0.088285,0.212508,-0.011124,0.000000,0.000000,0.000000,0.000000,0.000000,0.000000
13182806.000000,2.306426,-0.974615,-1.831331,-1.404140,-0.944746,1.693056,0.460314,-0.156296,-0.391637,-0.335992,-0.600141,-0.462391,0.796894,0.274370,10.527997,17.961163,8.622849,-0.210695,-0.019747,0.239059,0.048385,0.000000,0.000000,0.000000,0.000000,0.000000,0.000000
13182807.000000,2.306253,-0.975036,-1.831690,-1.404755,-0.945220,1.693843,0.460592,-0.158126,-0.404818,-0.339958,-0.601257,-0.460430,0.790214,0.267934,10.079694,18.572124,8.845016,1.197691,-0.019747,0.381881,0.015426,0.000000,0.000000,0.000000,0.000000,0.000000,0.000000
13182808.000000,2.306073,-0.975447,-1.832038,-1.405352,-0.945694,1.694639,0.460861,-0.162866,-0.405616,-0.340806,-0.603231,-0.467242,0.786868,0.269918,9.512372,19.083904,8.868820,2.681456,0.088285,0.570480,0.061202,0.000000,0.000000,0.000000,0.000000,0.000000,0.000000
13182809.000000,2.305893,-0.975865,-1.832407,-1.405956,-0.946161,1.695409,0.461142,-0.165576,-0.408046,-0.347541,-0.603850,-0.459263,0.779118,0.273014,8.941083,19.405254,9.114792,4.165221,-0.001437,0.836898,0.048385,0.000000,0.000000,0.000000,0.000000,0.000000,0.000000
13182810.000000,2.305707,-0.976274,-1.832766,-1.406567,-0.946621,1.696205,0.461424,-0.169017,-0.408669,-0.353088,-0.611697,-0.455815,0.777717,0.276453,8.421369,19.623455,9.237778,5.621214,-0.049044,0.993453,0.021835,0.000000,0.000000,0.000000,0.000000,0.000000,0.000000
13182811.000000,2.305547,-0.976698,-1.833139,-1.407160,-0.947097,1.697008,0.461691,-0.164540,-0.409405,-0.357402,-0.607051,-0.466319,0.779594,0.271959,7.703290,19.722637,9.408371,6.759825,-0.007845,1.064864,0.061202,0.000000,0.000000,0.000000,0.000000,0.000000,0.000000
13182812.000000,2.305385,-0.977127,-1.833517,-1.407763,-0.947575,1.697792,0.461962,-0.159253,-0.411683,-0.363767,-0.606365,-0.466737,0.782629,0.271230,7.036787,19.845623,9.678146,7.672301,-0.025240,1.104232,0.021835,0.000000,0.000000,0.000000,0.000000,0.000000,0.000000
13182813.000000,2.305220,-0.977567,-1.833896,-1.408357,-0.948047,1.698569,0.462234,-0.156080,-0.420050,-0.366545,-0.607342,-0.463435,0.772895,0.276644,6.540876,19.964642,9.872543,8.291197,-0.013339,1.272689,0.034652,0.000000,0.000000,0.000000,0.000000,0.000000,0.000000
13182814.000000,2.305067,-0.978020,-1.834284,-1.408939,-0.948537,1.699336,0.462503,-0.153657,-0.432088,-0.372391,-0.597176,-0.466919,0.777093,0.277918,6.044965,20.087627,10.094711,8.537169,0.058073,1.448470,0.048385,0.000000,0.000000,0.000000,0.000000,0.000000,0.000000
13182815.000000,2.304926,-0.978477,-1.834680,-1.409535,-0.949019,1.700096,0.462776,-0.146955,-0.436513,-0.380415,-0.591701,-0.469217,0.766821,0.279136,5.501447,20.111431,10.439865,8.687925,0.100187,1.461288,0.041976,0.000000,0.000000,0.000000,0.000000,0.000000,0.000000
13182816.000000,2.304799,-0.978938,-1.835076,-1.410112,-0.949512,1.700881,0.463049,-0.142019,-0.445237,-0.380239,-0.586519,-0.476623,0.768157,0.277774,4.834943,20.063824,10.610458,8.612547,0.171598,1.337692,-0.017533,0.000000,0.000000,0.000000,0.000000,0.000000,0.000000
13182817.000000,2.304663,-0.979417,-1.835473,-1.410681,-0.950005,1.701648,0.463315,-0.137931,-0.453206,-0.388861,-0.578114,-0.474564,0.776680,0.276904,4.410444,20.087627,10.904037,8.342772,0.166105,1.292831,0.028243,0.000000,0.000000,0.000000,0.000000,0.000000,0.000000
13182818.000000,2.304534,-0.979906,-1.835876,-1.411245,-0.950487,1.702421,0.463583,-0.133675,-0.465000,-0.392679,-0.571884,-0.473484,0.767665,0.272381,3.942304,20.210613,11.150009,8.092833,0.171598,1.220504,0.067611,0.000000,0.000000,0.000000,0.000000,0.000000,0.000000
13182819.000000,2.304419,-0.980400,-1.836278,-1.411816,-0.950986,1.703188,0.463859,-0.126388,-0.467864,-0.392276,-0.564313,-0.480954,0.767037,0.273113,3.446393,20.381207,11.395981,7.846861,0.171598,1.272689,-0.017533,0.000000,0.000000,0.000000,0.000000,0.000000,0.000000
13182820.000000,2.304313,-0.980892,-1.836680,-1.412390,-0.951491,1.703949,0.464119,-0.119054,-0.474220,-0.389289,-0.564927,-0.494889,0.767197,0.262651,3.002058,20.702557,11.812546,7.771483,0.308927,1.285506,0.061202,0.000000,0.000000,0.000000,0.000000,0.000000,0.000000
13182821.000000,2.304211,-0.981389,-1.837083,-1.412931,-0.951997,1.704717,0.464380,-0.115608,-0.482601,-0.388635,-0.553409,-0.497010,0.760501,0.259604,2.652936,21.337322,12.498886,7.525511,0.410551,1.324874,0.034652,0.000000,0.000000,0.000000,0.000000,0.000000,0.000000
13182822.000000,2.304107,-0.981891,-1.837480,-1.413495,-0.952503,1.705491,0.464642,-0.110659,-0.483927,-0.392769,-0.555020,-0.494165,0.767400,0.259561,2.529951,22.218060,13.312180,7.600890,0.422452,1.240646,0.034652,0.000000,0.000000,0.000000,0.000000,0.000000,0.000000
13182823.000000,2.304013,-0.982381,-1.837856,-1.414054,-0.952997,1.706274,0.464909,-0.105093,-0.487260,-0.384075,-0.556804,-0.489651,0.764913,0.256445,2.359357,23.221783,14.022324,7.823058,0.458158,1.207687,0.028243,0.000000,0.000000,0.000000,0.000000,0.000000,0.000000
13182824.000000,2.303932,-0.982873,-1.838246,-1.414605,-0.953494,1.707054,0.465175,-0.099491,-0.490767,-0.383095,-0.554646,-0.486300,0.763147,0.259724,2.133222,24.201702,14.879257,8.168211,0.381254,1.299239,-0.011124,0.000000,0.000000,0.000000,0.000000,0.000000,0.000000
13182825.000000,2.303853,-0.983367,-1.838627,-1.415153,-0.953991,1.707814,0.465434,-0.094473,-0.498174,-0.384276,-0.546667,-0.485849,0.761654,0.258019,1.887250,25.253033,15.617172,8.342772,0.344633,1.409103,0.048385,0.000000,0.000000,0.000000,0.000000,0.000000,0.000000
13182826.000000,2.303789,-0.983867,-1.839017,-1.415701,-0.954489,1.708574,0.465702,-0.084354,-0.500428,-0.384290,-0.549566,-0.493193,0.750156,0.262901,1.514325,26.185345,16.355087,8.711729,0.386747,1.630660,0.015426,0.000000,0.000000,0.000000,0.000000,0.000000,0.000000
13182827.000000,2.303725,-0.984366,-1.839410,-1.416253,-0.954992,1.709332,0.465960,-0.080100,-0.499902,-0.386909,-0.547544,-0.490130,0.751196,0.261919,1.244550,27.042278,17.041428,9.033079,0.362943,1.786300,0.048385,0.000000,0.000000,0.000000,0.000000,0.000000,0.000000
13182828.000000,2.303665,-0.984875,-1.839788,-1.416825,-0.955488,1.710101,0.466229,-0.075849,-0.502059,-0.386611,-0.554154,-0.490048,0.756052,0.263869,0.970807,27.994427,17.481796,9.477415,0.369352,1.825668,0.015426,0.000000,0.000000,0.000000,0.000000,0.000000,0.000000
13182829.000000,2.303612,-0.985397,-1.840185,-1.417389,-0.956002,1.710889,0.466484,-0.069085,-0.509280,-0.391132,-0.561315,-0.492514,0.760064,0.263111,0.697065,28.926739,17.997543,9.874144,0.434354,1.714889,0.041976,0.000000,0.000000,0.000000,0.000000,0.000000,0.000000
13182830.000000,2.303564,-0.985937,-1.840585,-1.417948,-0.956516,1.711671,0.466745,-0.062387,-0.515566,-0.390963,-0.559232,-0.493863,0.764781,0.258983,0.328107,30.025677,18.465683,10.020933,0.488370,1.572067,0.021835,0.000000,0.000000,0.000000,0.000000,0.000000,0.000000
13182831.000000,2.303519,-0.986484,-1.840983,-1.418509,-0.957028,1.712438,0.467001,-0.057843,-0.529345,-0.391808,-0.570941,-0.505923,0.764561,0.259675,-0.017047,31.128582,18.830673,10.143919,0.589994,1.572067,0.041976,0.000000,0.000000,0.000000,0.000000,0.000000,0.000000
13182832.000000,2.303485,-0.987055,-1.841386,-1.419069,-0.957544,1.713199,0.467272,-0.049048,-0.543178,-0.390747,-0.569373,-0.501426,0.776521,0.266127,-0.441546,32.302898,19.104416,10.195494,0.620206,1.682845,0.021835,0.000000,0.000000,0.000000,0.000000,0.000000,0.000000
13182833.000000,2.303459,-0.987631,-1.841784,-1.419626,-0.958037,1.713960,0.467540,-0.038731,-0.554617,-0.393562,-0.562956,-0.506735,0.770997,0.266476,-0.885882,33.354229,19.346420,10.143919,0.554288,1.676437,-0.004716,0.000000,0.000000,0.000000,0.000000,0.000000,0.000000
13182834.000000,2.303435,-0.988214,-1.842194,-1.420177,-0.958547,1.714735,0.467798,-0.031298,-0.563272,-0.393721,-0.557722,-0.505218,0.766062,0.262678,-1.330218,34.262737,19.520981,10.048704,0.512174,1.552840,0.081344,0.000000,0.000000,0.000000,0.000000,0.000000,0.000000
13182835.000000,2.303420,-0.988805,-1.842591,-1.420733,-0.959048,1.715498,0.468066,-0.028744,-0.570494,-0.398651,-0.559219,-0.494422,0.764674,0.265440,-1.802325,35.068096,19.667770,9.949522,0.452665,1.513473,0.021835,0.000000,0.000000,0.000000,0.000000,0.000000,0.000000
13182836.000000,2.303396,-0.989394,-1.842999,-1.421297,-0.959536,1.716264,0.468331,-0.026830,-0.573036,-0.403242,-0.555378,-0.497691,0.762931,0.264875,-2.123675,35.730633,19.885971,9.973326,0.308927,1.578475,0.034652,0.000000,0.000000,0.000000,0.000000,0.000000,0.000000
13182837.000000,2.303375,-0.989984,-1.843404,-1.421850,-0.960046,1.717042,0.468594,-0.027045,-0.577122,-0.399447,-0.552725,-0.497626,0.762848,0.265346,-2.369647,36.242413,19.961349,9.897947,0.362943,1.532699,0.021835,0.000000,0.000000,0.000000,0.000000,0.000000,0.000000
13182838.000000,2.303360,-0.990558,-1.843820,-1.422418,-0.960558,1.717803,0.468857,-0.025666,-0.586203,-0.405418,-0.554617,-0.511366,0.762856,0.263014,-2.667193,36.563763,20.231125,10.020933,0.494779,1.461288,0.021835,0.000000,0.000000,0.000000,0.000000,0.000000,0.000000
13182839.000000,2.303338,-0.991140,-1.844231,-1.422976,-0.961059,1.718566,0.469106,-0.024097,-0.577039,-0.408046,-0.555177,-0.509025,0.760915,0.257142,-2.841753,36.805767,20.477097,10.195494,0.584501,1.396285,0.061202,0.000000,0.000000,0.000000,0.000000,0.000000,0.000000
13182840.000000,2.303292,-0.991731,-1.844635,-1.423547,-0.961558,1.719304,0.469356,-0.031595,-0.575957,-0.415013,-0.555078,-0.501319,0.757810,0.258834,-2.619586,37.150921,20.552475,10.393858,0.661405,1.422836,0.067611,0.000000,0.000000,0.000000,0.000000,0.000000,0.000000
13182841.000000,2.303261,-0.992297,-1.845039,-1.424126,-0.962050,1.720035,0.469619,-0.031941,-0.575152,-0.417686,-0.565097,-0.500933,0.751573,0.259447,-2.591815,37.198528,20.723068,10.739012,0.601896,1.552840,0.041976,0.000000,0.000000,0.000000,0.000000,0.000000,0.000000
13182842.000000,2.303231,-0.992882,-1.845445,-1.424693,-0.962547,1.720781,0.469877,-0.028248,-0.570478,-0.408147,-0.565435,-0.499697,0.745639,0.261530,-2.568011,37.345318,20.723068,11.060362,0.530485,1.591293,0.015426,0.000000,0.000000,0.000000,0.000000,0.000000,0.000000
13182843.000000,2.303191,-0.993477,-1.845843,-1.425258,-0.963046,1.721516,0.470134,-0.031809,-0.575598,-0.404286,-0.562680,-0.499360,0.740902,0.260210,-2.421221,37.539715,20.770676,11.183348,0.452665,1.649886,0.054794,0.000000,0.000000,0.000000,0.000000,0.000000,0.000000
13182844.000000,2.303149,-0.994069,-1.846250,-1.425820,-0.963539,1.722240,0.470397,-0.035326,-0.584193,-0.405758,-0.563782,-0.496920,0.731968,0.265479,-2.222857,37.809490,20.869858,11.381712,0.320829,1.819259,0.028243,0.000000,0.000000,0.000000,0.000000,0.000000,0.000000
13182845.000000,2.303101,-0.994672,-1.846658,-1.426387,-0.964037,1.722968,0.470662,-0.039403,-0.582602,-0.405863,-0.562212,-0.492528,0.725519,0.269410,-1.949114,38.178448,20.917465,11.603880,0.261320,1.930038,0.001693,0.000000,0.000000,0.000000,0.000000,0.000000,0.000000
13182846.000000,2.303054,-0.995281,-1.847072,-1.426958,-0.964549,1.723725,0.470924,-0.040562,-0.589963,-0.407448,-0.562555,-0.502020,0.732191,0.266484,-1.726946,38.618816,21.040451,11.778440,0.273221,1.825668,0.041976,0.000000,0.000000,0.000000,0.000000,0.000000,0.000000
13182847.000000,2.303003,-0.995907,-1.847486,-1.427512,-0.965068,1.724473,0.471183,-0.046188,-0.601107,-0.410500,-0.559330,-0.505456,0.727234,0.261453,-1.453204,39.182171,21.139633,11.925230,0.315336,1.721298,0.034652,0.000000,0.000000,0.000000,0.000000,0.000000,0.000000
13182848.000000,2.302944,-0.996525,-1.847889,-1.428072,-0.965599,1.725210,0.471442,-0.049041,-0.603886,-0.408213,-0.555380,-0.514115,0.730630,0.260681,-1.084246,39.646343,21.139633,12.072020,0.405057,1.702071,0.061202,0.000000,0.000000,0.000000,0.000000,0.000000,0.000000
13182849.000000,2.302875,-0.997140,-1.848308,-1.428636,-0.966124,1.725952,0.471708,-0.056076,-0.604088,-0.409552,-0.564404,-0.514908,0.734020,0.263963,-0.635943,40.039104,21.286423,12.393370,0.464567,1.714889,0.001693,0.000000,0.000000,0.000000,0.000000,0.000000,0.000000
13182850.000000,2.302817,-0.997765,-1.848729,-1.429201,-0.966648,1.726704,0.471963,-0.057125,-0.607641,-0.415976,-0.559723,-0.518480,0.750027,0.262366,-0.342364,40.356487,21.361801,12.643309,0.524076,1.670028,0.041976,0.000000,0.000000,0.000000,0.000000,0.000000,0.000000
13182851.000000,2.302754,-0.998379,-1.849146,-1.429762,-0.967178,1.727437,0.472231,-0.058908,-0.612174,-0.410866,-0.558314,-0.531910,0.746265,0.262194,-0.017047,40.697674,21.484787,12.889280,0.542386,1.649886,0.048385,0.000000,0.000000,0.000000,0.000000,0.000000,0.000000
13182852.000000,2.302674,-0.999001,-1.849568,-1.430315,-0.967703,1.728171,0.472502,-0.068386,-0.613204,-0.410392,-0.555096,-0.528598,0.734654,0.263653,0.502668,41.066631,21.631577,13.012266,0.500272,1.727706,0.021835,0.000000,0.000000,0.000000,0.000000,0.000000,0.000000
13182853.000000,2.302604,-0.999627,-1.849980,-1.430882,-0.968230,1.728889,0.472772,-0.071905,-0.611984,-0.424012,-0.555135,-0.521847,0.724355,0.262984,0.871625,41.360210,21.702988,13.262205,0.339139,1.890670,0.034652,0.000000,0.000000,0.000000,0.000000,0.000000,0.000000
13182854.000000,2.302531,-1.000233,-1.850406,-1.431445,-0.968754,1.729620,0.473042,-0.070087,-0.611475,-0.424382,-0.553414,-0.522133,0.725953,0.263725,1.216779,41.507000,21.825974,13.385191,0.291532,1.923629,0.028243,0.000000,0.000000,0.000000,0.000000,0.000000,0.000000
13182855.000000,2.302451,-1.000840,-1.850839,-1.431998,-0.969291,1.730371,0.473313,-0.071506,-0.610586,-0.424166,-0.551055,-0.527505,0.732197,0.266257,1.665082,41.554607,22.095749,13.484373,0.279630,1.825668,0.041976,0.000000,0.000000,0.000000,0.000000,0.000000,0.000000
13182856.000000,2.302368,-1.001428,-1.851258,-1.432549,-0.969823,1.731097,0.473588,-0.076231,-0.611117,-0.421598,-0.546176,-0.526976,0.736176,0.270616,2.133222,41.431622,22.242538,13.484373,0.261320,1.858627,0.021835,0.000000,0.000000,0.000000,0.000000,0.000000,0.000000
13182857.000000,2.302292,-1.002035,-1.851687,-1.433081,-0.970364,1.731817,0.473853,-0.075968,-0.607388,-0.423247,-0.542438,-0.533074,0.726627,0.267385,2.454572,41.384014,22.440903,13.408995,0.422452,1.936446,0.067611,0.000000,0.000000,0.000000,0.000000,0.000000,0.000000
13182858.000000,2.302217,-1.002638,-1.852133,-1.433624,-0.970904,1.732531,0.474124,-0.078444,-0.602015,-0.435352,-0.539480,-0.531619,0.716996,0.267403,2.728315,41.237225,22.758286,13.309813,0.464567,2.014266,0.021835,0.000000,0.000000,0.000000,0.000000,0.000000,0.000000
13182859.000000,2.302148,-1.003213,-1.852564,-1.434150,-0.971435,1.733265,0.474396,-0.078052,-0.595815,-0.434999,-0.533288,-0.528282,0.718170,0.270846,2.902875,40.943645,23.028061,13.036070,0.530485,2.001449,0.034652,0.000000,0.000000,0.000000,0.000000,0.000000,0.000000
13182860.000000,2.302077,-1.003803,-1.853005,-1.434654,-0.971981,1.734008,0.474666,-0.078834,-0.587286,-0.434709,-0.520309,-0.529777,0.723797,0.268920,3.101240,40.749249,23.325607,12.643309,0.596403,1.968490,0.041976,0.000000,0.000000,0.000000,0.000000,0.000000,0.000000
13182861.000000,2.302012,-1.004401,-1.853447,-1.435163,-0.972509,1.734730,0.474943,-0.073931,-0.589142,-0.436419,-0.512758,-0.520937,0.726660,0.272665,3.200422,40.602459,23.666794,12.246580,0.512174,1.974899,0.028243,0.000000,0.000000,0.000000,0.000000,0.000000,0.000000
13182862.000000,2.301955,-1.004981,-1.853896,-1.435649,-0.973047,1.735457,0.475214,-0.068199,-0.589842,-0.439727,-0.503408,-0.524034,0.718825,0.277049,3.200422,40.427898,23.960373,11.750669,0.542386,2.060043,0.054794,0.000000,0.000000,0.000000,0.000000,0.000000,0.000000
13182863.000000,2.301892,-1.005562,-1.854350,-1.436125,-0.973592,1.736179,0.475488,-0.067228,-0.587145,-0.438456,-0.489246,-0.524184,0.732491,0.280200,3.299604,40.185894,24.380905,11.207151,0.566190,2.085677,0.015426,0.000000,0.000000,0.000000,0.000000,0.000000,0.000000
13182864.000000,2.301836,-1.006136,-1.854797,-1.436610,-0.974115,1.736910,0.475761,-0.067417,-0.580727,-0.441535,-0.484964,-0.526481,0.730684,0.275353,3.323408,39.963726,24.698288,10.786619,0.482877,2.027084,0.041976,0.000000,0.000000,0.000000,0.000000,0.000000,0.000000
13182865.000000,2.301778,-1.006719,-1.855247,-1.437075,-0.974666,1.737649,0.476031,-0.068044,-0.582555,-0.441703,-0.480064,-0.529023,0.727314,0.273637,3.371015,39.769329,24.968063,10.417662,0.542386,2.007858,0.015426,0.000000,0.000000,0.000000,0.000000,0.000000,0.000000
13182866.000000,2.301724,-1.007295,-1.855698,-1.437541,-0.975220,1.738358,0.476298,-0.064561,-0.581082,-0.450300,-0.471183,-0.535925,0.726379,0.270203,3.371015,39.428143,25.214035,10.143919,0.613798,2.092086,0.028243,0.000000,0.000000,0.000000,0.000000,0.000000,0.000000
13182867.000000,2.301675,-1.007862,-1.856154,-1.438002,-0.975765,1.739069,0.476557,-0.060660,-0.574050,-0.447236,-0.480349,-0.538084,0.716103,0.263196,3.323408,39.229778,25.531418,9.973326,0.601896,2.131454,0.054794,0.000000,0.000000,0.000000,0.000000,0.000000,0.000000
13182868.000000,2.301624,-1.008440,-1.856604,-1.438451,-0.976324,1.739795,0.476818,-0.055741,-0.571256,-0.442895,-0.469439,-0.534427,0.713024,0.263987,3.323408,39.059185,25.630600,9.727354,0.739225,2.092086,0.041976,0.000000,0.000000,0.000000,0.000000,0.000000,0.000000
13182869.000000,2.301585,-1.009017,-1.857061,-1.438909,-0.976870,1.740507,0.477087,-0.048228,-0.575741,-0.447219,-0.460626,-0.547051,0.709513,0.263697,3.172651,38.983807,25.876572,9.628172,0.715421,2.072860,0.041976,0.000000,0.000000,0.000000,0.000000,0.000000,0.000000
13182870.000000,2.301547,-1.009594,-1.857513,-1.439355,-0.977424,1.741225,0.477355,-0.047185,-0.576440,-0.442735,-0.457072,-0.546630,0.709691,0.270725,3.049665,38.936199,25.975754,9.651976,0.721830,2.079269,-0.011124,0.000000,0.000000,0.000000,0.000000,0.000000,0.000000
13182871.000000,2.301511,-1.010180,-1.857954,-1.439802,-0.977982,1.741923,0.477610,-0.044070,-0.575402,-0.451986,-0.451632,-0.545621,0.710121,0.266080,2.950483,38.983807,26.074936,9.600401,0.721830,2.131454,0.067611,0.000000,0.000000,0.000000,0.000000,0.000000,0.000000
13182872.000000,2.301489,-1.010769,-1.858399,-1.440260,-0.978520,1.742640,0.477881,-0.034705,-0.581875,-0.446935,-0.454659,-0.544991,0.710457,0.268561,2.704511,39.082989,26.146347,9.822569,0.691617,2.157089,-0.004716,0.000000,0.000000,0.000000,0.000000,0.000000,0.000000
13182873.000000,2.301457,-1.011356,-1.858850,-1.440705,-0.979075,1.743354,0.478136,-0.035103,-0.584809,-0.449319,-0.452001,-0.550579,0.705415,0.265909,2.605329,39.158367,26.221725,9.997129,0.727323,2.209274,0.041976,0.000000,0.000000,0.000000,0.000000,0.000000,0.000000
13182874.000000,2.301427,-1.011938,-1.859285,-1.441163,-0.979627,1.744055,0.478401,-0.035314,-0.592154,-0.444614,-0.454829,-0.544668,0.699820,0.259269,2.506147,39.305157,26.245529,10.318480,0.733732,2.196456,0.048385,0.000000,0.000000,0.000000,0.000000,0.000000,0.000000
13182875.000000,2.301409,-1.012543,-1.859717,-1.441619,-0.980162,1.744771,0.478663,-0.032305,-0.595073,-0.441255,-0.454378,-0.542332,0.698655,0.261713,2.283979,39.598736,26.170151,10.639830,0.673307,2.163497,0.015426,0.000000,0.000000,0.000000,0.000000,0.000000,0.000000
13182876.000000,2.301395,-1.013133,-1.860147,-1.442076,-0.980713,1.745476,0.478920,-0.026880,-0.592922,-0.443057,-0.459466,-0.536312,0.699630,0.257203,2.061811,39.745525,26.047165,10.913572,0.644010,2.131454,0.028243,0.000000,0.000000,0.000000,0.000000,0.000000,0.000000
13182877.000000,2.301389,-1.013718,-1.860570,-1.442531,-0.981254,1.746176,0.479179,-0.020915,-0.592471,-0.435626,-0.456628,-0.539609,0.695566,0.259246,1.764264,39.916119,25.876572,11.060362,0.655912,2.215682,0.001693,0.000000,0.000000,0.000000,0.000000,0.000000,0.000000
13182878.000000,2.301382,-1.014319,-1.860992,-1.442986,-0.981805,1.746883,0.479435,-0.013912,-0.591952,-0.426538,-0.461499,-0.540545,0.700588,0.253908,1.490522,40.110516,25.729782,11.234922,0.637601,2.215682,0.048385,0.000000,0.000000,0.000000,0.000000,0.000000,0.000000
13182879.000000,2.301379,-1.014906,-1.861401,-1.443451,-0.982352,1.747586,0.479702,-0.009031,-0.591718,-0.418906,-0.458820,-0.537553,0.701310,0.256676,1.216779,40.015301,25.507614,11.429319,0.644010,2.177230,0.034652,0.000000,0.000000,0.000000,0.000000,0.000000,0.000000
13182880.000000,2.301379,-1.015480,-1.861810,-1.443918,-0.982897,1.748300,0.479969,-0.002469,-0.593000,-0.412985,-0.471269,-0.539108,0.704974,0.267205,0.970807,39.840740,25.237839,11.655455,0.632108,2.131454,0.009017,0.000000,0.000000,0.000000,0.000000,0.000000,0.000000
13182881.000000,2.301387,-1.016051,-1.862226,-1.444398,-0.983446,1.749007,0.480223,0.000036,-0.580453,-0.409463,-0.468851,-0.535086,0.708329,0.260066,0.673261,39.523357,25.015671,11.949034,0.632108,2.125045,0.041976,0.000000,0.000000,0.000000,0.000000,0.000000,0.000000
13182882.000000,2.301394,-1.016631,-1.862619,-1.444878,-0.983989,1.749710,0.480484,0.004237,-0.580767,-0.401017,-0.470848,-0.543142,0.706045,0.257213,0.427289,39.400372,24.698288,12.147398,0.644010,2.112228,0.015426,0.000000,0.000000,0.000000,0.000000,0.000000,0.000000
13182883.000000,2.301407,-1.017215,-1.863019,-1.445350,-0.984536,1.750417,0.480742,0.008629,-0.580532,-0.395688,-0.473565,-0.542607,0.703009,0.258393,0.129743,39.253582,24.452316,12.369566,0.613798,2.118636,0.028243,0.000000,0.000000,0.000000,0.000000,0.000000,0.000000
13182884.000000,2.301418,-1.017803,-1.863407,-1.445825,-0.985089,1.751115,0.481005,0.010083,-0.582946,-0.400957,-0.470081,-0.548933,0.697120,0.255422,-0.092425,39.229778,24.206345,12.544127,0.625699,2.125045,0.015426,0.000000,0.000000,0.000000,0.000000,0.000000,0.000000
13182885.000000,2.301428,-1.018378,-1.863799,-1.446294,-0.985631,1.751819,0.481258,0.007916,-0.577575,-0.394168,-0.471285,-0.542546,0.700937,0.256130,-0.314593,39.158367,23.988144,12.567930,0.596403,2.118636,0.054794,0.000000,0.000000,0.000000,0.000000,0.000000,0.000000
13182886.000000,2.301443,-1.018961,-1.864181,-1.446763,-0.986175,1.752534,0.481507,0.010914,-0.577426,-0.383719,-0.471912,-0.541813,0.697193,0.253794,-0.588336,39.035381,23.718369,12.714720,0.578092,2.072860,0.048385,0.000000,0.000000,0.000000,0.000000,0.000000,0.000000
13182887.000000,2.301459,-1.019529,-1.864561,-1.447236,-0.986719,1.753240,0.481759,0.011897,-0.587033,-0.382670,-0.474075,-0.552245,0.703243,0.255989,-0.810504,38.912395,23.567612,12.813902,0.530485,2.020675,0.048385,0.000000,0.000000,0.000000,0.000000,0.000000,0.000000
13182888.000000,2.301472,-1.020102,-1.864939,-1.447701,-0.987275,1.753943,0.482015,0.011027,-0.583074,-0.378529,-0.469855,-0.551681,0.695403,0.254540,-0.961260,38.813213,23.325607,12.889280,0.554288,2.020675,0.021835,0.000000,0.000000,0.000000,0.000000,0.000000,0.000000
13182889.000000,2.301495,-1.020687,-1.865321,-1.448184,-0.987843,1.754637,0.482274,0.012224,-0.577250,-0.385636,-0.471666,-0.549747,0.696148,0.251416,-1.183428,38.741802,23.127243,13.063841,0.554288,2.144271,0.034652,0.000000,0.000000,0.000000,0.000000,0.000000,0.000000
13182890.000000,2.301510,-1.021264,-1.865699,-1.448661,-0.988398,1.755344,0.482528,0.008464,-0.578822,-0.385659,-0.468986,-0.548231,0.695939,0.248215,-1.207232,38.765606,23.055832,13.186827,0.535978,2.157089,0.081344,0.000000,0.000000,0.000000,0.000000,0.000000,0.000000
13182891.000000,2.301530,-1.021832,-1.866070,-1.449136,-0.988968,1.756067,0.482785,0.011402,-0.573090,-0.379030,-0.471411,-0.554120,0.698686,0.250232,-1.306414,38.571209,22.881271,13.357420,0.596403,2.092086,0.015426,0.000000,0.000000,0.000000,0.000000,0.000000,0.000000
13182892.000000,2.301544,-1.022409,-1.866446,-1.449616,-0.989524,1.756772,0.483040,0.011763,-0.578299,-0.381460,-0.470181,-0.549388,0.709813,0.251807,-1.330218,38.472027,22.833664,13.607359,0.518583,2.033492,0.054794,0.000000,0.000000,0.000000,0.000000,0.000000,0.000000
13182893.000000,2.301560,-1.022966,-1.866822,-1.450084,-0.990079,1.757478,0.483303,0.010016,-0.569280,-0.375910,-0.468294,-0.552911,0.703472,0.258615,-1.405596,38.202251,22.663071,13.754148,0.512174,2.066451,0.015426,0.000000,0.000000,0.000000,0.000000,0.000000,0.000000
13182894.000000,2.301574,-1.023540,-1.867197,-1.450553,-0.990648,1.758172,0.483555,0.010905,-0.571702,-0.370205,-0.466783,-0.551407,0.705708,0.259693,-1.429400,38.055462,22.540085,13.904905,0.542386,2.085677,0.021835,0.000000,0.000000,0.000000,0.000000,0.000000,0.000000
13182895.000000,2.301588,-1.024109,-1.867554,-1.451015,-0.991204,1.758865,0.483798,0.011669,-0.566685,-0.366985,-0.463985,-0.559372,0.693101,0.253862,-1.453204,38.007854,22.317917,14.000120,0.547880,2.112228,0.081344,0.000000,0.000000,0.000000,0.000000,0.000000,0.000000
13182896.000000,2.301606,-1.024685,-1.867916,-1.451473,-0.991776,1.759565,0.484045,0.013737,-0.568602,-0.360247,-0.458991,-0.560363,0.693837,0.254905,-1.528582,37.956280,22.095749,14.075499,0.542386,2.125045,0.054794,0.000000,0.000000,0.000000,0.000000,0.000000,0.000000
13182897.000000,2.301618,-1.025275,-1.868281,-1.451922,-0.992345,1.760253,0.484304,0.012190,-0.577670,-0.365096,-0.449151,-0.561045,0.691135,0.258503,-1.480975,38.079266,21.948959,14.075499,0.524076,2.092086,0.001693,0.000000,0.000000,0.000000,0.000000,0.000000,0.000000
13182898.000000,2.301621,-1.025854,-1.868649,-1.452372,-0.992911,1.760959,0.484556,0.008285,-0.578658,-0.362000,-0.447263,-0.561865,0.694602,0.259174,-1.306414,38.249859,21.825974,14.099302,0.518583,1.995040,0.021835,0.000000,0.000000,0.000000,0.000000,0.000000,0.000000
13182899.000000,2.301633,-1.026434,-1.869012,-1.452814,-0.993483,1.761661,0.484807,0.008643,-0.578217,-0.359922,-0.443264,-0.558740,0.710701,0.253882,-1.254840,38.301434,21.726791,14.027891,0.566190,1.955673,0.074935,0.000000,0.000000,0.000000,0.000000,0.000000,0.000000
13182900.000000,2.301642,-1.027008,-1.869368,-1.453258,-0.994044,1.762352,0.485065,0.011455,-0.574569,-0.358349,-0.440397,-0.558910,0.702545,0.252162,-1.159625,38.301434,21.607773,13.976316,0.518583,1.942855,0.021835,0.000000,0.000000,0.000000,0.000000,0.000000,0.000000
13182901.000000,2.301651,-1.027578,-1.869732,-1.453694,-0.994616,1.763048,0.485305,0.010175,-0.575888,-0.356549,-0.438715,-0.552376,0.700110,0.252823,-1.060443,38.178448,21.508591,14.027891,0.554288,1.949264,0.081344,0.000000,0.000000,0.000000,0.000000,0.000000,0.000000
13182902.000000,2.301657,-1.028150,-1.870097,-1.454124,-0.995195,1.763720,0.485560,0.007899,-0.567057,-0.364348,-0.431903,-0.558399,0.688946,0.255730,-0.909686,38.031658,21.433212,14.027891,0.512174,1.988631,0.081344,0.000000,0.000000,0.000000,0.000000,0.000000,0.000000
13182903.000000,2.301664,-1.028717,-1.870452,-1.454554,-0.995761,1.764410,0.485818,0.010812,-0.567570,-0.355919,-0.431837,-0.558519,0.689174,0.254352,-0.786700,37.785686,21.238815,14.075499,0.464567,2.007858,0.054794,0.000000,0.000000,0.000000,0.000000,0.000000,0.000000
13182904.000000,2.301673,-1.029287,-1.870815,-1.454971,-0.996339,1.765105,0.486065,0.013405,-0.564301,-0.361839,-0.427625,-0.564309,0.687219,0.250906,-0.687518,37.539715,21.139633,14.075499,0.476469,2.001449,0.087753,0.000000,0.000000,0.000000,0.000000,0.000000,0.000000
13182905.000000,2.301678,-1.029843,-1.871167,-1.455394,-0.996910,1.765794,0.486321,0.011397,-0.574194,-0.358344,-0.422799,-0.563056,0.686264,0.251221,-0.564532,37.246136,20.969040,14.174681,0.434354,1.962081,0.028243,0.000000,0.000000,0.000000,0.000000,0.000000,0.000000
13182906.000000,2.301685,-1.030414,-1.871529,-1.455799,-0.997487,1.766473,0.486562,0.009684,-0.568264,-0.356100,-0.413719,-0.569503,0.680469,0.247611,-0.441546,37.027935,20.846054,14.150877,0.476469,2.020675,0.081344,0.000000,0.000000,0.000000,0.000000,0.000000,0.000000
13182907.000000,2.301693,-1.030981,-1.871902,-1.456200,-0.998063,1.767149,0.486821,0.009788,-0.564955,-0.366494,-0.411883,-0.568131,0.681591,0.253677,-0.366168,36.734356,20.869858,14.075499,0.488370,2.104903,0.034652,0.000000,0.000000,0.000000,0.000000,0.000000,0.000000
13182908.000000,2.301707,-1.031547,-1.872251,-1.456602,-0.998630,1.767845,0.487073,0.010984,-0.568193,-0.359057,-0.406175,-0.577214,0.683899,0.250452,-0.342364,36.535992,20.746872,13.928709,0.506681,2.039901,0.061202,0.000000,0.000000,0.000000,0.000000,0.000000,0.000000
13182909.000000,2.301719,-1.032114,-1.872609,-1.456993,-0.999208,1.768541,0.487326,0.010830,-0.562652,-0.356200,-0.405970,-0.573323,0.680622,0.249031,-0.290789,36.317791,20.623886,13.805723,0.500272,1.955673,0.067611,0.000000,0.000000,0.000000,0.000000,0.000000,0.000000
13182910.000000,2.301729,-1.032681,-1.872969,-1.457388,-0.999777,1.769232,0.487580,0.013740,-0.559971,-0.356483,-0.398446,-0.573713,0.687202,0.247219,-0.215411,36.000408,20.552475,13.678770,0.434354,1.884261,0.041976,0.000000,0.000000,0.000000,0.000000,0.000000,0.000000
13182911.000000,2.301743,-1.033244,-1.873326,-1.457770,-1.000351,1.769916,0.487826,0.016201,-0.564142,-0.355908,-0.396546,-0.571083,0.678803,0.253178,-0.144000,35.802044,20.330307,13.531981,0.422452,1.884261,0.074935,0.000000,0.000000,0.000000,0.000000,0.000000,0.000000
13182912.000000,2.301759,-1.033823,-1.873687,-1.458153,-1.000926,1.770594,0.488082,0.015668,-0.564325,-0.362683,-0.394655,-0.569603,0.669885,0.257201,-0.144000,35.778240,20.207321,13.357420,0.452665,1.890670,0.048385,0.000000,0.000000,0.000000,0.000000,0.000000,0.000000
13182913.000000,2.301772,-1.034390,-1.874041,-1.458529,-1.001502,1.771268,0.488329,0.016938,-0.566982,-0.362851,-0.386223,-0.572449,0.670345,0.252753,-0.068621,35.706829,20.036728,13.163023,0.434354,1.916305,0.074935,0.000000,0.000000,0.000000,0.000000,0.000000,0.000000
13182914.000000,2.301787,-1.034963,-1.874400,-1.458894,-1.002080,1.771964,0.488579,0.018408,-0.569785,-0.361458,-0.376570,-0.571556,0.671933,0.247165,-0.017047,35.560040,19.862167,12.940855,0.458158,1.916305,0.048385,0.000000,0.000000,0.000000,0.000000,0.000000,0.000000
13182915.000000,2.301809,-1.035531,-1.874755,-1.459253,-1.002668,1.772649,0.488822,0.018404,-0.568166,-0.361475,-0.371512,-0.572921,0.675865,0.245616,-0.044818,35.385479,19.667770,12.714720,0.398649,1.865035,0.067611,0.000000,0.000000,0.000000,0.000000,0.000000,0.000000
13182916.000000,2.301821,-1.036097,-1.875118,-1.459615,-1.003246,1.773351,0.489068,0.014995,-0.565722,-0.360004,-0.372837,-0.572293,0.679772,0.254314,0.054365,35.266460,19.568588,12.492552,0.422452,1.721298,0.048385,0.000000,0.000000,0.000000,0.000000,0.000000,0.000000
13182917.000000,2.301840,-1.036676,-1.875480,-1.459962,-1.003833,1.774050,0.489315,0.015175,-0.565885,-0.358649,-0.363387,-0.573555,0.704855,0.253577,0.054365,35.143475,19.469406,12.270384,0.405057,1.662704,0.087753,0.000000,0.000000,0.000000,0.000000,0.000000,0.000000
13182918.000000,2.301860,-1.037241,-1.875835,-1.460311,-1.004402,1.774733,0.489567,0.017882,-0.566151,-0.352901,-0.359079,-0.575893,0.695724,0.246187,0.078168,34.996685,19.322617,12.024412,0.339139,1.708480,0.100570,0.000000,0.000000,0.000000,0.000000,0.000000,0.000000
13182919.000000,2.301876,-1.037806,-1.876192,-1.460655,-1.004993,1.775419,0.489824,0.015103,-0.562823,-0.350795,-0.352119,-0.582943,0.686851,0.248273,0.153547,34.826092,19.152023,11.877623,0.339139,1.793624,0.041976,0.000000,0.000000,0.000000,0.000000,0.000000,0.000000
13182920.000000,2.301900,-1.038387,-1.876548,-1.460999,-1.005582,1.776094,0.490067,0.019437,-0.563125,-0.355394,-0.351656,-0.578711,0.679862,0.245185,0.105939,34.774517,19.005234,11.703062,0.351041,1.806442,0.100570,0.000000,0.000000,0.000000,0.000000,0.000000,0.000000
13182921.000000,2.301919,-1.038950,-1.876911,-1.461335,-1.006162,1.776791,0.490328,0.016586,-0.565855,-0.353778,-0.347616,-0.580631,0.685135,0.247268,0.177350,34.703106,18.981430,11.480894,0.362943,1.760665,0.048385,0.000000,0.000000,0.000000,0.000000,0.000000,0.000000
13182922.000000,2.301930,-1.039515,-1.877278,-1.461663,-1.006749,1.777482,0.490582,0.013279,-0.564876,-0.358299,-0.343481,-0.580496,0.685653,0.251413,0.304304,34.532513,18.953659,11.334105,0.369352,1.702071,0.054794,0.000000,0.000000,0.000000,0.000000,0.000000,0.000000
13182923.000000,2.301953,-1.040071,-1.877640,-1.461992,-1.007343,1.778164,0.490831,0.016757,-0.569286,-0.359027,-0.335641,-0.590579,0.681626,0.252065,0.328107,34.310345,18.929855,11.159544,0.362943,1.617843,0.107894,0.000000,0.000000,0.000000,0.000000,0.000000,0.000000
13182924.000000,2.301981,-1.040636,-1.878016,-1.462303,-1.007929,1.778843,0.491079,0.017994,-0.566289,-0.367432,-0.325727,-0.589125,0.679198,0.250817,0.252729,34.064373,18.981430,10.913572,0.374845,1.605026,0.100570,0.000000,0.000000,0.000000,0.000000,0.000000,0.000000
13182925.000000,2.302002,-1.041209,-1.878386,-1.462614,-1.008525,1.779516,0.491336,0.019073,-0.565591,-0.369653,-0.319525,-0.596055,0.677997,0.246534,0.304304,33.869976,18.953659,10.592222,0.381254,1.637069,0.054794,0.000000,0.000000,0.000000,0.000000,0.000000,0.000000
13182926.000000,2.302029,-1.041771,-1.878743,-1.462915,-1.009113,1.780187,0.491587,0.021389,-0.559917,-0.368920,-0.311912,-0.592282,0.669155,0.244173,0.304304,33.699383,18.882248,10.270872,0.356534,1.741439,0.107894,0.000000,0.000000,0.000000,0.000000,0.000000,0.000000
13182927.000000,2.302055,-1.042342,-1.879117,-1.463218,-1.009710,1.780858,0.491842,0.023144,-0.562667,-0.370327,-0.307508,-0.598592,0.666822,0.249311,0.304304,33.477215,18.906052,10.120115,0.332731,1.747848,0.107894,0.000000,0.000000,0.000000,0.000000,0.000000,0.000000
13182928.000000,2.302083,-1.042929,-1.879486,-1.463506,-1.010311,1.781530,0.492109,0.021097,-0.567874,-0.371499,-0.301804,-0.594317,0.671169,0.255754,0.304304,33.477215,18.906052,9.774961,0.315336,1.714889,0.021835,0.000000,0.000000,0.000000,0.000000,0.000000,0.000000
13182929.000000,2.302112,-1.043493,-1.879860,-1.463796,-1.010899,1.782204,0.492357,0.022872,-0.565240,-0.368531,-0.296059,-0.596659,0.664504,0.256789,0.304304,33.354229,18.906052,9.600401,0.320829,1.649886,0.114303,0.000000,0.000000,0.000000,0.000000,0.000000,0.000000
13182930.000000,2.302144,-1.044080,-1.880240,-1.464080,-1.011503,1.782876,0.492613,0.025628,-0.566509,-0.368734,-0.293469,-0.594301,0.680966,0.260031,0.252729,33.405804,18.981430,9.378233,0.369352,1.572067,0.081344,0.000000,0.000000,0.000000,0.000000,0.000000,0.000000
13182931.000000,2.302178,-1.044654,-1.880618,-1.464366,-1.012105,1.783540,0.492868,0.030542,-0.571065,-0.373003,-0.289040,-0.605097,0.672008,0.261580,0.205121,33.330425,19.104416,9.179869,0.482877,1.526290,0.067611,0.000000,0.000000,0.000000,0.000000,0.000000,0.000000
13182932.000000,2.302210,-1.045243,-1.881005,-1.464643,-1.012707,1.784213,0.493125,0.029569,-0.580452,-0.378846,-0.287556,-0.598481,0.668371,0.263774,0.205121,33.382000,19.251205,9.056883,0.452665,1.526290,0.067611,0.000000,0.000000,0.000000,0.000000,0.000000,0.000000
13182933.000000,2.302246,-1.045836,-1.881388,-1.464919,-1.013309,1.784870,0.493378,0.029697,-0.578074,-0.386110,-0.285379,-0.600883,0.667413,0.258963,0.177350,33.429607,19.275009,8.933897,0.488370,1.494247,0.061202,0.000000,0.000000,0.000000,0.000000,0.000000,0.000000
13182934.000000,2.302284,-1.046431,-1.881770,-1.465201,-1.013912,1.785530,0.493622,0.030255,-0.582797,-0.383677,-0.288456,-0.599019,0.662459,0.253429,0.129743,33.501019,19.322617,8.933897,0.434354,1.532699,0.114303,0.000000,0.000000,0.000000,0.000000,0.000000,0.000000
13182935.000000,2.302319,-1.047038,-1.882158,-1.465482,-1.014510,1.786186,0.493875,0.029525,-0.588740,-0.384815,-0.287980,-0.599634,0.659686,0.258467,0.129743,33.723186,19.346420,9.009275,0.339139,1.591293,0.054794,0.000000,0.000000,0.000000,0.000000,0.000000,0.000000
13182936.000000,2.302347,-1.047639,-1.882534,-1.465762,-1.015115,1.786839,0.494125,0.026648,-0.593135,-0.380871,-0.288966,-0.611541,0.658606,0.252597,0.228925,33.917583,19.298813,9.033079,0.339139,1.617843,0.067611,0.000000,0.000000,0.000000,0.000000,0.000000,0.000000
13182937.000000,2.302386,-1.048243,-1.882930,-1.466043,-1.015716,1.787491,0.494373,0.034533,-0.591676,-0.384452,-0.285946,-0.608008,0.656695,0.250495,0.205121,34.040569,19.421799,9.156065,0.303434,1.656295,0.081344,0.000000,0.000000,0.000000,0.000000,0.000000,0.000000
13182938.000000,2.302422,-1.048856,-1.883312,-1.466322,-1.016331,1.788140,0.494629,0.036288,-0.596564,-0.390251,-0.282255,-0.607427,0.653805,0.248993,0.205121,34.163555,19.445602,9.255247,0.344633,1.643478,0.081344,0.000000,0.000000,0.000000,0.000000,0.000000,0.000000
13182939.000000,2.302454,-1.049453,-1.883698,-1.466603,-1.016934,1.788797,0.494881,0.035794,-0.600685,-0.387619,-0.285559,-0.609876,0.655827,0.247193,0.276533,34.139751,19.497177,9.330626,0.434354,1.611434,0.107894,0.000000,0.000000,0.000000,0.000000,0.000000,0.000000
13182940.000000,2.302487,-1.050077,-1.884092,-1.466884,-1.017532,1.789458,0.495129,0.035316,-0.603285,-0.382251,-0.283140,-0.601609,0.652982,0.248117,0.351911,34.433331,19.592392,9.477415,0.410551,1.584884,0.074935,0.000000,0.000000,0.000000,0.000000,0.000000,0.000000
13182941.000000,2.302524,-1.050709,-1.884471,-1.467159,-1.018134,1.790117,0.495379,0.035864,-0.618186,-0.385674,-0.278183,-0.604881,0.652309,0.246407,0.403486,34.726910,19.544785,9.528990,0.488370,1.513473,0.087753,0.000000,0.000000,0.000000,0.000000,0.000000,0.000000
13182942.000000,2.302558,-1.051338,-1.884864,-1.467438,-1.018724,1.790767,0.495624,0.035179,-0.624648,-0.383465,-0.282004,-0.601448,0.647758,0.246701,0.502668,35.068096,19.592392,9.600401,0.422452,1.500655,0.074935,0.000000,0.000000,0.000000,0.000000,0.000000,0.000000
13182943.000000,2.302596,-1.051977,-1.885253,-1.467713,-1.019316,1.791412,0.495869,0.036253,-0.630687,-0.389236,-0.276440,-0.598359,0.643749,0.245648,0.550275,35.508465,19.616196,9.576597,0.362943,1.559249,0.094161,0.000000,0.000000,0.000000,0.000000,0.000000,0.000000
13182944.000000,2.302631,-1.052598,-1.885635,-1.467987,-1.019913,1.792057,0.496117,0.039066,-0.627169,-0.383836,-0.275485,-0.591754,0.636245,0.246642,0.649457,35.730633,19.568588,9.552794,0.285123,1.611434,0.067611,0.000000,0.000000,0.000000,0.000000,0.000000,0.000000
13182945.000000,2.302677,-1.053231,-1.886029,-1.468260,-1.020499,1.792708,0.496356,0.042678,-0.624026,-0.380141,-0.278392,-0.587494,0.636661,0.246382,0.550275,35.829815,19.568588,9.528990,0.207303,1.624252,0.067611,0.000000,0.000000,0.000000,0.000000,0.000000,0.000000
13182946.000000,2.302717,-1.053868,-1.886421,-1.468534,-1.021113,1.793344,0.496599,0.041464,-0.626735,-0.382613,-0.272906,-0.591992,0.632645,0.242408,0.601850,35.948833,19.568588,9.477415,0.213712,1.649886,0.114303,0.000000,0.000000,0.000000,0.000000,0.000000,0.000000
13182947.000000,2.302761,-1.054492,-1.886819,-1.468794,-1.021713,1.793998,0.496848,0.041871,-0.632329,-0.385372,-0.270801,-0.595827,0.637765,0.248397,0.601850,35.948833,19.616196,9.354429,0.231107,1.649886,0.061202,0.000000,0.000000,0.000000,0.000000,0.000000,0.000000
13182948.000000,2.302801,-1.055112,-1.887223,-1.469073,-1.022326,1.794645,0.497094,0.041296,-0.622820,-0.387446,-0.275646,-0.598054,0.651154,0.246168,0.625654,35.802044,19.667770,9.354429,0.273221,1.584884,0.100570,0.000000,0.000000,0.000000,0.000000,0.000000,0.000000
13182949.000000,2.302842,-1.055726,-1.887625,-1.469354,-1.022923,1.795310,0.497349,0.040491,-0.615879,-0.393372,-0.276495,-0.592341,0.652768,0.247578,0.673261,35.607647,19.766953,9.378233,0.339139,1.461288,0.054794,0.000000,0.000000,0.000000,0.000000,0.000000,0.000000
13182950.000000,2.302885,-1.056355,-1.888028,-1.469622,-1.023537,1.795958,0.497587,0.042763,-0.616072,-0.389659,-0.273139,-0.595210,0.648509,0.246567,0.724836,35.484661,19.715378,9.354429,0.362943,1.467696,0.067611,0.000000,0.000000,0.000000,0.000000,0.000000,0.000000
13182951.000000,2.302931,-1.056974,-1.888429,-1.469896,-1.024145,1.796595,0.497834,0.041819,-0.613682,-0.391174,-0.275443,-0.591911,0.648825,0.244915,0.748639,35.238689,19.790756,9.306822,0.374845,1.532699,0.087753,0.000000,0.000000,0.000000,0.000000,0.000000,0.000000
13182952.000000,2.302977,-1.057589,-1.888828,-1.470168,-1.024753,1.797225,0.498087,0.044900,-0.615050,-0.391481,-0.275507,-0.595460,0.641063,0.246365,0.772443,35.091900,19.715378,9.231443,0.405057,1.649886,0.054794,0.000000,0.000000,0.000000,0.000000,0.000000,0.000000
13182953.000000,2.303028,-1.058205,-1.889238,-1.470434,-1.025347,1.797856,0.498336,0.045077,-0.606121,-0.392821,-0.272360,-0.593763,0.640252,0.241841,0.724836,34.849895,19.814560,9.207640,0.339139,1.695663,0.028243,0.000000,0.000000,0.000000,0.000000,0.000000,0.000000
13182954.000000,2.303074,-1.058820,-1.889649,-1.470707,-1.025959,1.798489,0.498575,0.047446,-0.619346,-0.395043,-0.272045,-0.604964,0.641980,0.240140,0.748639,34.627728,19.961349,9.156065,0.303434,1.649886,0.081344,0.000000,0.000000,0.000000,0.000000,0.000000,0.000000
13182955.000000,2.303121,-1.059438,-1.890059,-1.470969,-1.026566,1.799123,0.498815,0.051599,-0.618933,-0.391995,-0.268588,-0.604930,0.637267,0.245847,0.796247,34.334148,20.108139,9.084654,0.320829,1.617843,0.094161,0.000000,0.000000,0.000000,0.000000,0.000000,0.000000
13182956.000000,2.303165,-1.060069,-1.890477,-1.471239,-1.027183,1.799746,0.499070,0.047395,-0.624846,-0.406458,-0.266589,-0.602485,0.638439,0.252311,0.871625,34.286541,20.306503,9.179869,0.291532,1.617843,0.048385,0.000000,0.000000,0.000000,0.000000,0.000000,0.000000
13182957.000000,2.303208,-1.060685,-1.890892,-1.471501,-1.027790,1.800368,0.499316,0.047032,-0.621394,-0.411185,-0.267431,-0.599390,0.631380,0.249137,0.970807,34.187359,20.477097,9.108458,0.327238,1.682845,0.081344,0.000000,0.000000,0.000000,0.000000,0.000000,0.000000
13182958.000000,2.303248,-1.061324,-1.891308,-1.471767,-1.028411,1.800989,0.499567,0.046663,-0.618763,-0.409424,-0.269023,-0.604822,0.628966,0.249766,1.093793,34.262737,20.576279,9.207640,0.344633,1.806442,0.041976,0.000000,0.000000,0.000000,0.000000,0.000000,0.000000
13182959.000000,2.303295,-1.061964,-1.891718,-1.472026,-1.029028,1.801616,0.499808,0.047678,-0.634590,-0.408975,-0.264000,-0.604203,0.628677,0.246040,1.169172,34.334148,20.671494,9.207640,0.327238,1.779891,0.100570,0.000000,0.000000,0.000000,0.000000,0.000000,0.000000
13182960.000000,2.303333,-1.062603,-1.892136,-1.472290,-1.029650,1.802243,0.500059,0.045304,-0.639956,-0.410758,-0.265536,-0.604597,0.631719,0.248913,1.367536,34.504742,20.746872,9.279051,0.356534,1.747848,0.028243,0.000000,0.000000,0.000000,0.000000,0.000000,0.000000
13182961.000000,2.303377,-1.063234,-1.892569,-1.472562,-1.030268,1.802856,0.500303,0.042992,-0.635646,-0.413514,-0.264732,-0.602867,0.624868,0.246817,1.466718,34.480938,20.969040,9.406004,0.351041,1.747848,0.054794,0.000000,0.000000,0.000000,0.000000,0.000000,0.000000
13182962.000000,2.303421,-1.063855,-1.892993,-1.472820,-1.030893,1.803476,0.500541,0.044145,-0.629558,-0.415886,-0.260898,-0.608866,0.628455,0.239382,1.565900,34.433331,21.092026,9.406004,0.381254,1.747848,0.120712,0.000000,0.000000,0.000000,0.000000,0.000000,0.000000
13182963.000000,2.303471,-1.064497,-1.893412,-1.473075,-1.031522,1.804106,0.500791,0.046930,-0.629600,-0.412385,-0.258492,-0.608503,0.626639,0.239238,1.589704,34.480938,21.163437,9.406004,0.416959,1.741439,0.041976,0.000000,0.000000,0.000000,0.000000,0.000000,0.000000
13182964.000000,2.303517,-1.065138,-1.893828,-1.473334,-1.032160,1.804719,0.501021,0.048023,-0.635631,-0.413296,-0.253008,-0.612028,0.625086,0.233008,1.665082,34.603924,21.215012,9.406004,0.422452,1.760665,0.107894,0.000000,0.000000,0.000000,0.000000,0.000000,0.000000
13182965.000000,2.303565,-1.065754,-1.894250,-1.473598,-1.032768,1.805329,0.501267,0.044815,-0.632696,-0.414132,-0.257893,-0.611464,0.615421,0.240705,1.740461,34.457134,21.262619,9.501219,0.356534,1.825668,0.041976,0.000000,0.000000,0.000000,0.000000,0.000000,0.000000
13182966.000000,2.303610,-1.066391,-1.894675,-1.473859,-1.033404,1.805942,0.501501,0.049375,-0.627959,-0.410299,-0.260723,-0.617411,0.631729,0.240729,1.835676,34.480938,21.262619,9.576597,0.356534,1.838485,0.067611,0.000000,0.000000,0.000000,0.000000,0.000000,0.000000
13182967.000000,2.303658,-1.067011,-1.895087,-1.474129,-1.034028,1.806560,0.501733,0.049335,-0.623537,-0.408607,-0.262889,-0.623586,0.624767,0.236258,1.934858,34.286541,21.286423,9.651976,0.356534,1.832076,0.094161,0.000000,0.000000,0.000000,0.000000,0.000000,0.000000
13182968.000000,2.303710,-1.067641,-1.895507,-1.474383,-1.034674,1.807179,0.501967,0.053206,-0.623164,-0.405931,-0.259672,-0.624953,0.622944,0.233318,1.986432,34.064373,21.286423,9.651976,0.410551,1.851302,0.100570,0.000000,0.000000,0.000000,0.000000,0.000000,0.000000
13182969.000000,2.303759,-1.068276,-1.895922,-1.474639,-1.035308,1.807783,0.502213,0.052509,-0.624270,-0.415506,-0.257875,-0.629100,0.620755,0.234022,2.061811,33.917583,21.310226,9.699583,0.434354,1.909896,0.028243,0.000000,0.000000,0.000000,0.000000,0.000000,0.000000
13182970.000000,2.303813,-1.068899,-1.896337,-1.474892,-1.035943,1.808399,0.502443,0.053501,-0.622128,-0.410439,-0.261458,-0.628040,0.625847,0.231031,2.061811,33.746990,21.262619,9.727354,0.452665,1.903487,0.054794,0.000000,0.000000,0.000000,0.000000,0.000000,0.000000
13182971.000000,2.303868,-1.069542,-1.896745,-1.475139,-1.036584,1.809024,0.502672,0.054422,-0.621802,-0.401879,-0.257090,-0.636145,0.622547,0.228269,2.061811,33.822369,21.163437,9.651976,0.494779,1.832076,0.100570,0.000000,0.000000,0.000000,0.000000,0.000000,0.000000
13182972.000000,2.303931,-1.070189,-1.897154,-1.475381,-1.037220,1.809643,0.502913,0.057274,-0.642508,-0.401471,-0.253979,-0.646196,0.626829,0.227923,1.962629,33.969158,21.139633,9.600401,0.464567,1.708480,0.048385,0.000000,0.000000,0.000000,0.000000,0.000000,0.000000
13182973.000000,2.303993,-1.070835,-1.897557,-1.475623,-1.037839,1.810256,0.503137,0.062028,-0.646594,-0.401339,-0.249678,-0.646931,0.623073,0.226208,1.887250,34.016766,21.016647,9.576597,0.405057,1.721298,0.087753,0.000000,0.000000,0.000000,0.000000,0.000000,0.000000
13182974.000000,2.304059,-1.071490,-1.897958,-1.475870,-1.038471,1.810858,0.503370,0.063167,-0.648291,-0.402196,-0.244267,-0.639143,0.621161,0.227578,1.764264,34.163555,20.822250,9.600401,0.386747,1.767074,0.054794,0.000000,0.000000,0.000000,0.000000,0.000000,0.000000
13182975.000000,2.304128,-1.072139,-1.898354,-1.476109,-1.039093,1.811476,0.503594,0.066718,-0.646962,-0.398175,-0.240550,-0.638339,0.619769,0.226583,1.665082,34.334148,20.770676,9.628172,0.344633,1.800033,0.074935,0.000000,0.000000,0.000000,0.000000,0.000000,0.000000
13182976.000000,2.304200,-1.072796,-1.898752,-1.476335,-1.039722,1.812104,0.503823,0.066196,-0.643277,-0.392319,-0.239333,-0.632789,0.629676,0.227402,1.542096,34.457134,20.647690,9.600401,0.332731,1.806442,0.048385,0.000000,0.000000,0.000000,0.000000,0.000000,0.000000
13182977.000000,2.304278,-1.073455,-1.899145,-1.476573,-1.040346,1.812720,0.504058,0.066881,-0.647615,-0.389177,-0.236277,-0.633538,0.628138,0.226488,1.367536,34.532513,20.524704,9.628172,0.285123,1.800033,0.048385,0.000000,0.000000,0.000000,0.000000,0.000000,0.000000
13182978.000000,2.304357,-1.074102,-1.899547,-1.476808,-1.040964,1.813356,0.504282,0.070569,-0.648575,-0.389870,-0.236004,-0.628894,0.632761,0.229374,1.216779,34.556316,20.401718,9.727354,0.249418,1.721298,0.094161,0.000000,0.000000,0.000000,0.000000,0.000000,0.000000
13182979.000000,2.304434,-1.074759,-1.899940,-1.477042,-1.041592,1.813978,0.504521,0.072342,-0.653705,-0.382516,-0.233050,-0.625312,0.635911,0.230915,1.093793,34.627728,20.231125,9.850340,0.243009,1.682845,0.034652,0.000000,0.000000,0.000000,0.000000,0.000000,0.000000
13182980.000000,2.304514,-1.075399,-1.900331,-1.477280,-1.042212,1.814603,0.504744,0.073522,-0.649266,-0.384618,-0.237278,-0.626071,0.631227,0.228109,0.970807,34.580120,20.084335,9.997129,0.279630,1.708480,0.074935,0.000000,0.000000,0.000000,0.000000,0.000000,0.000000
13182981.000000,2.304599,-1.076047,-1.900729,-1.477514,-1.042842,1.815227,0.504971,0.078053,-0.643470,-0.385472,-0.233839,-0.631062,0.622100,0.229123,0.824018,34.433331,19.961349,10.120115,0.308927,1.747848,0.041976,0.000000,0.000000,0.000000,0.000000,0.000000,0.000000
13182982.000000,2.304684,-1.076722,-1.901112,-1.477746,-1.043476,1.815846,0.505198,0.077378,-0.650979,-0.380649,-0.232436,-0.628421,0.622628,0.225138,0.724836,34.651531,19.691574,10.195494,0.303434,1.741439,0.081344,0.000000,0.000000,0.000000,0.000000,0.000000,0.000000
13182983.000000,2.304772,-1.077381,-1.901509,-1.477976,-1.044100,1.816469,0.505429,0.081280,-0.657720,-0.382958,-0.236229,-0.635620,0.611929,0.230460,0.601850,34.774517,19.643967,10.370054,0.279630,1.727706,0.074935,0.000000,0.000000,0.000000,0.000000,0.000000,0.000000
13182984.000000,2.304864,-1.078044,-1.901904,-1.478208,-1.044727,1.817096,0.505656,0.085859,-0.658062,-0.382443,-0.237952,-0.624066,0.627371,0.229961,0.403486,34.897503,19.544785,10.441465,0.219205,1.656295,0.067611,0.000000,0.000000,0.000000,0.000000,0.000000,0.000000
13182985.000000,2.304952,-1.078698,-1.902293,-1.478441,-1.045345,1.817703,0.505887,0.089950,-0.652546,-0.385899,-0.236375,-0.635485,0.617850,0.229327,0.304304,35.020489,19.445602,10.540648,0.135892,1.617843,0.054794,0.000000,0.000000,0.000000,0.000000,0.000000,0.000000
13182986.000000,2.305049,-1.079362,-1.902692,-1.478665,-1.045985,1.818315,0.506111,0.091042,-0.650747,-0.388650,-0.234531,-0.638144,0.616227,0.224111,0.129743,35.091900,19.421799,10.592222,0.166105,1.656295,0.048385,0.000000,0.000000,0.000000,0.000000,0.000000,0.000000
13182987.000000,2.305143,-1.080023,-1.903072,-1.478891,-1.046633,1.818914,0.506333,0.091584,-0.652417,-0.393401,-0.233071,-0.638990,0.612124,0.222575,0.006757,35.044292,19.298813,10.663633,0.178007,1.682845,0.100570,0.000000,0.000000,0.000000,0.000000,0.000000,0.000000
13182988.000000,2.305233,-1.080683,-1.903468,-1.479112,-1.047265,1.819518,0.506575,0.088946,-0.656266,-0.393067,-0.230290,-0.629915,0.612099,0.225799,-0.017047,35.068096,19.322617,10.639830,0.178007,1.735030,0.041976,0.000000,0.000000,0.000000,0.000000,0.000000,0.000000
13182989.000000,2.305331,-1.081337,-1.903862,-1.479335,-1.047910,1.820124,0.506804,0.090660,-0.655341,-0.394264,-0.228682,-0.637481,0.604336,0.228289,-0.167803,34.873699,19.275009,10.762815,0.213712,1.760665,0.067611,0.000000,0.000000,0.000000,0.000000,0.000000,0.000000
13182990.000000,2.305427,-1.081989,-1.904260,-1.479551,-1.048553,1.820722,0.507036,0.093361,-0.664514,-0.397835,-0.218934,-0.633695,0.603808,0.231338,-0.243182,34.774517,19.322617,10.814390,0.219205,1.773483,0.087753,0.000000,0.000000,0.000000,0.000000,0.000000,0.000000
13182991.000000,2.305521,-1.082642,-1.904663,-1.479760,-1.049197,1.821342,0.507269,0.093767,-0.654316,-0.400776,-0.217914,-0.630856,0.605811,0.226895,-0.243182,34.580120,19.421799,10.838194,0.231107,1.676437,0.048385,0.000000,0.000000,0.000000,0.000000,0.000000,0.000000
13182992.000000,2.305619,-1.083299,-1.905063,-1.479973,-1.049840,1.821937,0.507494,0.092594,-0.655090,-0.406313,-0.214329,-0.624303,0.604529,0.230136,-0.314593,34.334148,19.445602,10.885801,0.267728,1.682845,0.081344,0.000000,0.000000,0.000000,0.000000,0.000000,0.000000
13182993.000000,2.305721,-1.083947,-1.905459,-1.480185,-1.050482,1.822530,0.507733,0.095180,-0.656480,-0.406212,-0.211977,-0.628710,0.595431,0.231034,-0.413775,34.088177,19.497177,10.937376,0.273221,1.786300,0.028243,0.000000,0.000000,0.000000,0.000000,0.000000,0.000000
13182994.000000,2.305817,-1.084593,-1.905865,-1.480381,-1.051136,1.823133,0.507955,0.095898,-0.650811,-0.406472,-0.207620,-0.629518,0.601881,0.227704,-0.441546,33.746990,19.592392,10.885801,0.356534,1.793624,0.087753,0.000000,0.000000,0.000000,0.000000,0.000000,0.000000
13182995.000000,2.305912,-1.085248,-1.906265,-1.480585,-1.051787,1.823723,0.508181,0.095846,-0.650659,-0.404888,-0.209345,-0.630992,0.596800,0.226085,-0.441546,33.501019,19.715378,10.913572,0.332731,1.812850,0.114303,0.000000,0.000000,0.000000,0.000000,0.000000,0.000000
13182996.000000,2.306009,-1.085909,-1.906668,-1.480785,-1.052424,1.824315,0.508408,0.095896,-0.650309,-0.406014,-0.207246,-0.638283,0.596850,0.227590,-0.441546,33.528790,19.814560,10.913572,0.339139,1.819259,0.087753,0.000000,0.000000,0.000000,0.000000,0.000000,0.000000
13182997.000000,2.306099,-1.086583,-1.907080,-1.480982,-1.053072,1.824892,0.508638,0.093801,-0.653438,-0.403610,-0.205533,-0.634774,0.586821,0.230185,-0.342364,33.624004,19.913742,10.913572,0.267728,1.884261,0.009017,0.000000,0.000000,0.000000,0.000000,0.000000,0.000000
13182998.000000,2.306197,-1.087247,-1.907477,-1.481175,-1.053708,1.825477,0.508869,0.094441,-0.658591,-0.405418,-0.201246,-0.639676,0.585142,0.232870,-0.342364,33.699383,19.885971,10.913572,0.231107,1.909896,0.034652,0.000000,0.000000,0.000000,0.000000,0.000000,0.000000
13182999.000000,2.306291,-1.087927,-1.907886,-1.481359,-1.054360,1.826078,0.509091,0.096115,-0.666290,-0.402269,-0.196842,-0.640599,0.586763,0.229482,-0.266986,33.917583,19.985153,10.861998,0.231107,1.865035,0.081344,0.000000,0.000000,0.000000,0.000000,0.000000,0.000000
13183000.000000,2.306384,-1.088617,-1.908287,-1.481541,-1.055016,1.826658,0.509329,0.098903,-0.674043,-0.401008,-0.191467,-0.646317,0.587111,0.230105,-0.191607,34.115948,20.060532,10.739012,0.267728,1.851302,0.034652,0.000000,0.000000,0.000000,0.000000,0.000000,0.000000
13183001.000000,2.306482,-1.089298,-1.908696,-1.481728,-1.055662,1.827246,0.509562,0.098177,-0.674201,-0.403868,-0.192970,-0.644871,0.583521,0.228543,-0.167803,34.357952,20.060532,10.739012,0.273221,1.890670,0.048385,0.000000,0.000000,0.000000,0.000000,0.000000,0.000000
13183002.000000,2.306573,-1.089979,-1.909105,-1.481908,-1.056320,1.827838,0.509786,0.096488,-0.671271,-0.403047,-0.188244,-0.648926,0.585408,0.227748,-0.092425,34.409527,20.060532,10.715208,0.320829,1.851302,0.054794,0.000000,0.000000,0.000000,0.000000,0.000000,0.000000
13183003.000000,2.306665,-1.090663,-1.909504,-1.482083,-1.056960,1.828432,0.510019,0.090836,-0.674269,-0.399053,-0.182862,-0.657325,0.587918,0.227429,0.006757,34.627728,20.036728,10.616026,0.327238,1.773483,0.048385,0.000000,0.000000,0.000000,0.000000,0.000000,0.000000
13183004.000000,2.306758,-1.091353,-1.909913,-1.482265,-1.057605,1.829027,0.510248,0.091315,-0.679460,-0.400266,-0.184643,-0.656548,0.589768,0.226175,0.078168,34.849895,20.108139,10.616026,0.303434,1.662704,0.061202,0.000000,0.000000,0.000000,0.000000,0.000000,0.000000
13183005.000000,2.306846,-1.092039,-1.910305,-1.482444,-1.058255,1.829606,0.510478,0.090172,-0.682899,-0.404404,-0.181768,-0.652984,0.581854,0.227348,0.205121,34.921307,19.985153,10.592222,0.320829,1.702071,0.034652,0.000000,0.000000,0.000000,0.000000,0.000000,0.000000
13183006.000000,2.306941,-1.092713,-1.910704,-1.482618,-1.058891,1.830180,0.510703,0.091159,-0.681957,-0.401296,-0.178812,-0.652354,0.568992,0.225775,0.252729,34.945110,19.885971,10.516844,0.255826,1.793624,0.067611,0.000000,0.000000,0.000000,0.000000,0.000000,0.000000
13183007.000000,2.307031,-1.093392,-1.911109,-1.482785,-1.059536,1.830767,0.510930,0.091476,-0.677824,-0.397323,-0.176611,-0.642811,0.570436,0.227338,0.328107,34.873699,19.862167,10.441465,0.237516,1.858627,0.034652,0.000000,0.000000,0.000000,0.000000,0.000000,0.000000
13183008.000000,2.307127,-1.094062,-1.911503,-1.482945,-1.060182,1.831349,0.511153,0.092207,-0.685272,-0.397382,-0.172990,-0.641041,0.570268,0.224692,0.375715,34.703106,19.814560,10.294676,0.207303,1.832076,0.048385,0.000000,0.000000,0.000000,0.000000,0.000000,0.000000
13183009.000000,2.307221,-1.094745,-1.911899,-1.483101,-1.060813,1.831939,0.511384,0.088777,-0.680868,-0.395650,-0.166995,-0.634931,0.572544,0.230549,0.451093,34.580120,19.715378,10.120115,0.171598,1.825668,0.028243,0.000000,0.000000,0.000000,0.000000,0.000000,0.000000
13183010.000000,2.307316,-1.095440,-1.912301,-1.483258,-1.061462,1.832515,0.511609,0.090488,-0.684144,-0.403325,-0.161222,-0.634708,0.570742,0.223271,0.474897,34.603924,19.643967,10.020933,0.159696,1.825668,0.067611,0.000000,0.000000,0.000000,0.000000,0.000000,0.000000
13183011.000000,2.307415,-1.096122,-1.912692,-1.483406,-1.062092,1.833111,0.511840,0.095809,-0.686254,-0.397000,-0.154657,-0.631436,0.575477,0.223557,0.474897,34.627728,19.520981,9.822569,0.141385,1.793624,0.087753,0.000000,0.000000,0.000000,0.000000,0.000000,0.000000
13183012.000000,2.307507,-1.096823,-1.913092,-1.483544,-1.062742,1.833716,0.512070,0.094075,-0.693450,-0.396982,-0.146266,-0.634577,0.572176,0.226003,0.574079,34.798321,19.497177,9.600401,0.159696,1.682845,0.041976,0.000000,0.000000,0.000000,0.000000,0.000000,0.000000
13183013.000000,2.307615,-1.097532,-1.913489,-1.483681,-1.063392,1.834312,0.512298,0.097433,-0.695006,-0.397574,-0.144084,-0.638150,0.578688,0.220972,0.474897,35.044292,19.445602,9.429808,0.207303,1.578475,0.041976,0.000000,0.000000,0.000000,0.000000,0.000000,0.000000
13183014.000000,2.307718,-1.098229,-1.913892,-1.483815,-1.064032,1.834902,0.512526,0.098525,-0.693834,-0.397929,-0.139468,-0.638953,0.576520,0.226450,0.427289,35.191082,19.397995,9.255247,0.213712,1.617843,0.021835,0.000000,0.000000,0.000000,0.000000,0.000000,0.000000
13183015.000000,2.307819,-1.098949,-1.914305,-1.483945,-1.064665,1.835487,0.512752,0.098663,-0.695031,-0.397881,-0.136234,-0.635700,0.593585,0.224326,0.403486,35.484661,19.469406,9.084654,0.166105,1.617843,0.081344,0.000000,0.000000,0.000000,0.000000,0.000000,0.000000
13183016.000000,2.307922,-1.099668,-1.914705,-1.484069,-1.065310,1.836081,0.512988,0.102203,-0.705399,-0.398726,-0.131004,-0.640646,0.587098,0.227081,0.375715,35.877422,19.469406,8.933897,0.141385,1.597701,0.028243,0.000000,0.000000,0.000000,0.000000,0.000000,0.000000
13183017.000000,2.308032,-1.100378,-1.915116,-1.484196,-1.065958,1.836681,0.513212,0.107981,-0.709879,-0.401056,-0.130292,-0.644242,0.588172,0.225845,0.328107,36.000408,19.568588,8.910093,0.117582,1.532699,0.061202,0.000000,0.000000,0.000000,0.000000,0.000000,0.000000
13183018.000000,2.308135,-1.101091,-1.915527,-1.484325,-1.066618,1.837262,0.513436,0.108508,-0.712996,-0.411287,-0.127552,-0.642785,0.586709,0.225225,0.328107,36.123394,19.715378,8.957701,0.105680,1.539108,0.074935,0.000000,0.000000,0.000000,0.000000,0.000000,0.000000
13183019.000000,2.308239,-1.101787,-1.915937,-1.484447,-1.067266,1.837841,0.513665,0.109956,-0.709276,-0.410506,-0.130505,-0.646984,0.578783,0.227796,0.304304,36.095623,19.790756,8.985472,0.105680,1.578475,0.021835,0.000000,0.000000,0.000000,0.000000,0.000000,0.000000
13183020.000000,2.308344,-1.102496,-1.916352,-1.484572,-1.067927,1.838427,0.513890,0.105910,-0.700083,-0.407788,-0.129841,-0.644975,0.579620,0.224967,0.328107,36.123394,19.937546,9.009275,0.135892,1.597701,0.067611,0.000000,0.000000,0.000000,0.000000,0.000000,0.000000
13183021.000000,2.308449,-1.103208,-1.916765,-1.484703,-1.068599,1.839000,0.514123,0.106342,-0.698886,-0.408791,-0.134639,-0.666524,0.580974,0.226981,0.351911,36.317791,20.060532,9.132261,0.213712,1.591293,0.015426,0.000000,0.000000,0.000000,0.000000,0.000000,0.000000
13183022.000000,2.308549,-1.103929,-1.917189,-1.484828,-1.069250,1.839574,0.514341,0.105132,-0.704172,-0.410659,-0.134063,-0.660159,0.572643,0.224119,0.427289,36.512188,20.278732,9.207640,0.231107,1.682845,0.087753,0.000000,0.000000,0.000000,0.000000,0.000000,0.000000
13183023.000000,2.308651,-1.104646,-1.917605,-1.484950,-1.069911,1.840137,0.514567,0.105507,-0.704952,-0.416948,-0.130101,-0.662530,0.569123,0.221150,0.474897,36.587566,20.377914,9.279051,0.207303,1.735030,0.054794,0.000000,0.000000,0.000000,0.000000,0.000000,0.000000
13183024.000000,2.308757,-1.105348,-1.918031,-1.485073,-1.070568,1.840720,0.514792,0.105776,-0.708141,-0.419436,-0.130074,-0.660873,0.569429,0.223825,0.526471,36.635174,20.552475,9.330626,0.189908,1.702071,0.021835,0.000000,0.000000,0.000000,0.000000,0.000000,0.000000
13183025.000000,2.308873,-1.106059,-1.918467,-1.485193,-1.071239,1.841299,0.515011,0.109826,-0.710649,-0.419340,-0.129738,-0.659453,0.566469,0.223982,0.427289,36.635174,20.794479,9.378233,0.189908,1.624252,0.034652,0.000000,0.000000,0.000000,0.000000,0.000000,0.000000
13183026.000000,2.308980,-1.106778,-1.918897,-1.485302,-1.071900,1.841862,0.515232,0.109958,-0.731147,-0.422188,-0.122661,-0.654102,0.563692,0.219430,0.451093,36.833538,21.016647,9.279051,0.166105,1.689254,0.034652,0.000000,0.000000,0.000000,0.000000,0.000000,0.000000
13183027.000000,2.309095,-1.107496,-1.919329,-1.485416,-1.072566,1.842414,0.515445,0.111532,-0.721864,-0.418760,-0.119096,-0.660916,0.552935,0.221151,0.403486,36.904949,21.163437,9.231443,0.195402,1.825668,0.100570,0.000000,0.000000,0.000000,0.000000,0.000000,0.000000
13183028.000000,2.309202,-1.108213,-1.919770,-1.485528,-1.073235,1.842967,0.515666,0.110436,-0.712680,-0.430471,-0.116380,-0.655059,0.549775,0.220437,0.427289,36.881145,21.409409,9.179869,0.231107,1.884261,0.034652,0.000000,0.000000,0.000000,0.000000,0.000000,0.000000
13183029.000000,2.309315,-1.108931,-1.920195,-1.485643,-1.073900,1.843542,0.515873,0.107518,-0.711344,-0.427355,-0.115577,-0.656519,0.557635,0.215543,0.403486,36.952557,21.508591,9.179869,0.249418,1.786300,0.081344,0.000000,0.000000,0.000000,0.000000,0.000000,0.000000
13183030.000000,2.309426,-1.109656,-1.920633,-1.485750,-1.074563,1.844118,0.516086,0.112609,-0.712425,-0.428621,-0.111488,-0.660794,0.561672,0.214158,0.375715,36.980328,21.631577,9.156065,0.231107,1.721298,0.067611,0.000000,0.000000,0.000000,0.000000,0.000000,0.000000
13183031.000000,2.309536,-1.110377,-1.921067,-1.485857,-1.075246,1.844669,0.516302,0.110311,-0.711804,-0.428683,-0.108050,-0.661866,0.555858,0.211820,0.451093,36.904949,21.825974,9.132261,0.267728,1.767074,0.074935,0.000000,0.000000,0.000000,0.000000,0.000000,0.000000
13183032.000000,2.309651,-1.111084,-1.921503,-1.485963,-1.075913,1.845225,0.516516,0.110635,-0.715774,-0.427732,-0.109343,-0.668025,0.554530,0.214741,0.451093,36.781963,21.972763,9.156065,0.327238,1.832076,0.067611,0.000000,0.000000,0.000000,0.000000,0.000000,0.000000
13183033.000000,2.309763,-1.111805,-1.921941,-1.486065,-1.076584,1.845782,0.516737,0.110184,-0.717634,-0.429815,-0.109163,-0.660408,0.563216,0.218619,0.474897,36.734356,22.095749,9.108458,0.356534,1.844894,0.041976,0.000000,0.000000,0.000000,0.000000,0.000000,0.000000
13183034.000000,2.309873,-1.112512,-1.922381,-1.486165,-1.077244,1.846338,0.516949,0.109181,-0.715138,-0.432860,-0.105774,-0.664590,0.562655,0.214266,0.526471,36.635174,22.294113,9.056883,0.351041,1.877853,0.081344,0.000000,0.000000,0.000000,0.000000,0.000000,0.000000
13183035.000000,2.309981,-1.113232,-1.922818,-1.486269,-1.077905,1.846901,0.517161,0.110452,-0.715568,-0.427985,-0.104628,-0.661223,0.557311,0.213536,0.625654,36.611370,22.365524,9.056883,0.291532,1.909896,0.061202,0.000000,0.000000,0.000000,0.000000,0.000000,0.000000
13183036.000000,2.310091,-1.113962,-1.923240,-1.486377,-1.078571,1.847452,0.517373,0.109346,-0.708270,-0.429270,-0.105736,-0.661714,0.555449,0.216041,0.697065,36.682781,22.317917,9.156065,0.201810,1.903487,0.074935,0.000000,0.000000,0.000000,0.000000,0.000000,0.000000
13183037.000000,2.310199,-1.114695,-1.923680,-1.486480,-1.079217,1.848016,0.517597,0.110858,-0.713605,-0.431451,-0.108575,-0.655066,0.553385,0.216168,0.796247,36.952557,22.440903,9.231443,0.159696,1.871444,-0.004716,0.000000,0.000000,0.000000,0.000000,0.000000,0.000000
13183038.000000,2.310304,-1.115442,-1.924116,-1.486575,-1.079891,1.848569,0.517797,0.111352,-0.718716,-0.433581,-0.105042,-0.659756,0.546574,0.210789,0.947004,37.222332,22.440903,9.179869,0.159696,1.884261,0.074935,0.000000,0.000000,0.000000,0.000000,0.000000,0.000000
13183039.000000,2.310412,-1.116169,-1.924542,-1.486672,-1.080555,1.849113,0.518017,0.108490,-0.737272,-0.428708,-0.100671,-0.673041,0.543842,0.210707,1.069990,37.321514,22.464706,9.179869,0.231107,1.962081,0.048385,0.000000,0.000000,0.000000,0.000000,0.000000,0.000000
13183040.000000,2.310519,-1.116908,-1.924974,-1.486771,-1.081235,1.849670,0.518225,0.107174,-0.735318,-0.428171,-0.099158,-0.670768,0.545429,0.208938,1.192975,37.515911,22.512314,9.255247,0.267728,1.909896,0.067611,0.000000,0.000000,0.000000,0.000000,0.000000,0.000000
13183041.000000,2.310624,-1.117648,-1.925400,-1.486866,-1.081911,1.850221,0.518437,0.106158,-0.737476,-0.435981,-0.096661,-0.673626,0.552266,0.209382,1.315961,37.714275,22.440903,9.279051,0.327238,1.858627,0.048385,0.000000,0.000000,0.000000,0.000000,0.000000,0.000000
13183042.000000,2.310724,-1.118370,-1.925828,-1.486966,-1.082578,1.850785,0.518655,0.106975,-0.735954,-0.433966,-0.099189,-0.673659,0.557099,0.209268,1.490522,37.761883,22.464706,9.354429,0.297025,1.806442,0.041976,0.000000,0.000000,0.000000,0.000000,0.000000,0.000000
13183043.000000,2.310829,-1.119095,-1.926244,-1.487066,-1.083248,1.851347,0.518868,0.102957,-0.729849,-0.425461,-0.102183,-0.672854,0.559319,0.206788,1.589704,37.686504,22.317917,9.477415,0.261320,1.793624,0.100570,0.000000,0.000000,0.000000,0.000000,0.000000,0.000000
13183044.000000,2.310939,-1.119818,-1.926653,-1.487166,-1.083916,1.851899,0.519093,0.105050,-0.733670,-0.420813,-0.099686,-0.668644,0.555362,0.212704,1.613508,37.539715,22.095749,9.552794,0.225614,1.819259,0.028243,0.000000,0.000000,0.000000,0.000000,0.000000,0.000000
13183045.000000,2.311044,-1.120531,-1.927069,-1.487255,-1.084573,1.852449,0.519299,0.104134,-0.724755,-0.415321,-0.099435,-0.674380,0.553816,0.209063,1.740461,37.369122,21.925156,9.552794,0.178007,1.897079,0.087753,0.000000,0.000000,0.000000,0.000000,0.000000,0.000000
13183046.000000,2.311153,-1.121244,-1.927493,-1.487340,-1.085243,1.852996,0.519513,0.103774,-0.710897,-0.414904,-0.095781,-0.664617,0.553943,0.209628,1.863447,37.027935,21.849777,9.528990,0.171598,1.981307,0.067611,0.000000,0.000000,0.000000,0.000000,0.000000,0.000000
13183047.000000,2.311264,-1.121967,-1.927901,-1.487428,-1.085902,1.853553,0.519728,0.105087,-0.712324,-0.408651,-0.090996,-0.670548,0.552842,0.209306,1.887250,36.980328,21.702988,9.552794,0.117582,1.974899,0.061202,0.000000,0.000000,0.000000,0.000000,0.000000,0.000000
13183048.000000,2.311371,-1.122693,-1.928314,-1.487507,-1.086563,1.854122,0.519938,0.102402,-0.714501,-0.406642,-0.085747,-0.662685,0.553380,0.208056,1.934858,36.881145,21.556198,9.501219,0.100187,1.916305,0.081344,0.000000,0.000000,0.000000,0.000000,0.000000,0.000000
13183049.000000,2.311478,-1.123428,-1.928726,-1.487586,-1.087240,1.854675,0.520154,0.102756,-0.716439,-0.408771,-0.085562,-0.660568,0.552989,0.208078,2.034040,36.928753,21.532394,9.477415,0.064481,1.877853,0.067611,0.000000,0.000000,0.000000,0.000000,0.000000,0.000000
13183050.000000,2.311593,-1.124155,-1.929134,-1.487655,-1.087911,1.855238,0.520357,0.106351,-0.718230,-0.404569,-0.080371,-0.663871,0.552531,0.210832,1.986432,37.004131,21.409409,9.378233,0.147794,1.819259,0.087753,0.000000,0.000000,0.000000,0.000000,0.000000,0.000000
13183051.000000,2.311705,-1.124881,-1.929555,-1.487728,-1.088600,1.855804,0.520569,0.108513,-0.719430,-0.403283,-0.078803,-0.664316,0.559742,0.210805,1.962629,37.004131,21.508591,9.354429,0.225614,1.735030,0.067611,0.000000,0.000000,0.000000,0.000000,0.000000,0.000000
13183052.000000,2.311815,-1.125605,-1.929971,-1.487797,-1.089266,1.856351,0.520775,0.107872,-0.723464,-0.407264,-0.074533,-0.679138,0.559587,0.209646,2.010236,37.075542,21.556198,9.330626,0.261320,1.760665,0.074935,0.000000,0.000000,0.000000,0.000000,0.000000,0.000000
13183053.000000,2.311932,-1.126345,-1.930385,-1.487859,-1.089956,1.856904,0.520980,0.111674,-0.725629,-0.408083,-0.069592,-0.681604,0.561247,0.213595,2.010236,37.246136,21.556198,9.231443,0.351041,1.741439,0.087753,0.000000,0.000000,0.000000,0.000000,0.000000,0.000000
13183054.000000,2.312051,-1.127090,-1.930810,-1.487934,-1.090634,1.857447,0.521192,0.112951,-0.726882,-0.418841,-0.070371,-0.679117,0.561872,0.212560,1.962629,37.420696,21.778366,9.330626,0.320829,1.754256,0.067611,0.000000,0.000000,0.000000,0.000000,0.000000,0.000000
13183055.000000,2.312170,-1.127806,-1.931225,-1.488000,-1.091298,1.857997,0.521406,0.116051,-0.721236,-0.414591,-0.069611,-0.672384,0.556370,0.212671,1.934858,37.321514,21.802170,9.378233,0.261320,1.773483,0.034652,0.000000,0.000000,0.000000,0.000000,0.000000,0.000000
13183056.000000,2.312291,-1.128533,-1.931638,-1.488064,-1.091967,1.858544,0.521605,0.116429,-0.715582,-0.409321,-0.067940,-0.674191,0.552011,0.207763,1.863447,37.198528,21.754562,9.378233,0.178007,1.819259,0.114303,0.000000,0.000000,0.000000,0.000000,0.000000,0.000000
13183057.000000,2.312416,-1.129254,-1.932058,-1.488132,-1.092649,1.859076,0.521822,0.120546,-0.728531,-0.413943,-0.070136,-0.668641,0.546293,0.210041,1.788068,37.150921,21.901352,9.528990,0.117582,1.936446,0.048385,0.000000,0.000000,0.000000,0.000000,0.000000,0.000000
13183058.000000,2.312540,-1.129991,-1.932474,-1.488193,-1.093322,1.859612,0.522031,0.119915,-0.730463,-0.412877,-0.065930,-0.665722,0.537747,0.205187,1.712690,37.222332,21.901352,9.576597,0.105680,2.027084,0.034652,0.000000,0.000000,0.000000,0.000000,0.000000,0.000000
13183059.000000,2.312658,-1.130724,-1.932898,-1.488255,-1.094008,1.860153,0.522233,0.120344,-0.727231,-0.423813,-0.066540,-0.661905,0.536380,0.203039,1.740461,37.246136,22.024338,9.651976,0.201810,2.014266,0.100570,0.000000,0.000000,0.000000,0.000000,0.000000,0.000000
13183060.000000,2.312787,-1.131451,-1.933324,-1.488323,-1.094685,1.860699,0.522452,0.118790,-0.732810,-0.427443,-0.066124,-0.667227,0.540847,0.206007,1.688886,37.321514,22.294113,9.822569,0.243009,1.974899,0.054794,0.000000,0.000000,0.000000,0.000000,0.000000,0.000000
13183061.000000,2.312913,-1.132167,-1.933741,-1.488384,-1.095376,1.861258,0.522649,0.121162,-0.726052,-0.426445,-0.066954,-0.670545,0.542521,0.204718,1.641279,37.150921,22.294113,9.921751,0.393156,1.844894,0.100570,0.000000,0.000000,0.000000,0.000000,0.000000,0.000000
13183062.000000,2.313048,-1.132896,-1.934168,-1.488442,-1.096057,1.861792,0.522862,0.125441,-0.726131,-0.427491,-0.066418,-0.668021,0.533777,0.206833,1.490522,37.099346,22.488510,9.973326,0.416959,1.832076,0.054794,0.000000,0.000000,0.000000,0.000000,0.000000,0.000000
13183063.000000,2.313182,-1.133619,-1.934589,-1.488493,-1.096716,1.862325,0.523064,0.130091,-0.723263,-0.424484,-0.060699,-0.664672,0.534567,0.208679,1.415143,37.051739,22.540085,9.921751,0.393156,1.858627,0.067611,0.000000,0.000000,0.000000,0.000000,0.000000,0.000000
13183064.000000,2.313318,-1.134351,-1.935007,-1.488540,-1.097389,1.862839,0.523263,0.132146,-0.717291,-0.421206,-0.056329,-0.659491,0.532355,0.208089,1.268354,37.027935,22.512314,9.850340,0.327238,2.001449,0.074935,0.000000,0.000000,0.000000,0.000000,0.000000,0.000000
13183065.000000,2.313459,-1.135079,-1.935427,-1.488582,-1.098047,1.863357,0.523464,0.133864,-0.717254,-0.421527,-0.053132,-0.665585,0.528198,0.208296,1.069990,37.027935,22.611496,9.774961,0.237516,2.092086,0.067611,0.000000,0.000000,0.000000,0.000000,0.000000,0.000000
13183066.000000,2.313597,-1.135820,-1.935838,-1.488626,-1.098709,1.863889,0.523664,0.139097,-0.720958,-0.416977,-0.051998,-0.654990,0.527689,0.204109,0.994611,37.075542,22.540085,9.751158,0.112089,2.112228,0.048385,0.000000,0.000000,0.000000,0.000000,0.000000,0.000000
13183067.000000,2.313741,-1.136552,-1.936242,-1.488668,-1.099392,1.864481,0.523887,0.141232,-0.721938,-0.415021,-0.046769,-0.665944,0.548035,0.207266,0.871625,36.881145,22.488510,9.675779,0.112089,1.461288,-0.155778,0.000000,0.000000,0.000000,0.000000,0.000000,0.000000
13183068.000000,2.313888,-1.137269,-1.936671,-1.488722,-1.100193,1.865638,0.524033,0.143569,-0.721892,-0.420028,-0.051661,-0.705173,0.755792,0.188448,0.724836,36.658978,22.710678,9.850340,1.337064,-3.994340,0.338607,0.000000,0.000000,0.000000,0.000000,0.000000,0.000000
13183069.000000,2.313997,-1.138013,-1.937127,-1.488797,-1.100936,1.866390,0.524309,0.132956,-0.727265,-0.431408,-0.056934,-0.714256,0.778796,0.218090,1.093793,36.710552,23.274033,10.370054,1.772855,-5.113114,-0.307755,0.000000,0.000000,0.000000,0.000000,0.000000,0.000000
13183070.000000,2.314083,-1.138797,-1.937407,-1.488767,-1.101712,1.867018,0.524508,0.117542,-0.752022,-0.379821,-0.027266,-0.754893,0.728614,0.212727,1.811872,37.468304,21.433212,9.354429,2.443021,-4.482316,-0.274796,0.000000,0.000000,0.000000,0.000000,0.000000,0.000000
13183071.000000,2.314268,-1.139644,-1.937697,-1.488663,-1.102519,1.867996,0.524680,0.140961,-0.785678,-0.348206,0.021383,-0.768115,0.809561,0.195325,1.069990,38.936199,19.766953,7.378722,3.058256,-6.504716,0.015426,0.000000,0.000000,0.000000,0.000000,0.000000,0.000000
13183072.000000,2.314496,-1.140483,-1.938028,-1.488579,-1.103257,1.868735,0.524857,0.174529,-0.803177,-0.345061,0.042933,-0.760882,0.784335,0.188924,-0.266986,40.185894,18.929855,5.894957,2.855009,-5.997514,0.279098,0.000000,0.000000,0.000000,0.000000,0.000000,0.000000
13183073.000000,2.314590,-1.141270,-1.938184,-1.488491,-1.104042,1.869513,0.525126,0.145887,-0.797394,-0.279146,0.065233,-0.761764,0.767684,0.210399,0.451093,40.673870,15.692551,4.633360,3.117765,-5.438127,-0.294938,0.000000,0.000000,0.000000,0.000000,0.000000,0.000000
13183074.000000,2.314671,-1.142040,-1.938313,-1.488399,-1.104824,1.870300,0.525253,0.123541,-0.779592,-0.220942,0.076702,-0.759253,0.762658,0.179447,1.315961,40.626263,12.375900,3.570128,3.087553,-4.970292,0.365157,0.000000,0.000000,0.000000,0.000000,0.000000,0.000000
13183075.000000,2.314868,-1.142832,-1.938429,-1.488297,-1.105538,1.871079,0.525418,0.147137,-0.793244,-0.182542,0.086802,-0.746847,0.754090,0.172023,0.550275,40.991253,9.455978,2.582274,2.443021,-4.690141,0.654464,0.000000,0.000000,0.000000,0.000000,0.000000,0.000000
13183076.000000,2.315001,-1.143599,-1.938445,-1.488123,-1.106313,1.871784,0.525678,0.143876,-0.773896,-0.126753,0.116993,-0.748602,0.722815,0.200617,0.673261,40.844463,5.480759,0.777159,2.543729,-3.883561,0.001693,0.000000,0.000000,0.000000,0.000000,0.000000,0.000000
13183077.000000,2.315067,-1.144296,-1.938418,-1.487960,-1.107063,1.872304,0.525810,0.117885,-0.739930,-0.079035,0.132402,-0.742298,0.644663,0.184154,1.712690,39.670147,1.453964,-0.655031,2.365201,-1.874894,0.470443,0.000000,0.000000,0.000000,0.000000,0.000000,0.000000
13183078.000000,2.315158,-1.144917,-1.938374,-1.487840,-1.107688,1.872860,0.526014,0.109002,-0.696689,-0.034691,0.125473,-0.698666,0.605637,0.192357,2.383161,37.591290,-2.176102,-1.174745,1.342557,-0.619706,0.305648,0.000000,0.000000,0.000000,0.000000,0.000000,0.000000
13183079.000000,2.315231,-1.145479,-1.938295,-1.487692,-1.108378,1.873469,0.526208,0.094799,-0.644156,0.006140,0.133049,-0.684016,0.599457,0.196118,3.271833,34.703106,-5.734756,-1.892824,0.996488,-0.475968,0.186630,0.000000,0.000000,0.000000,0.000000,0.000000,0.000000
13183080.000000,2.315271,-1.146003,-1.938183,-1.487535,-1.109045,1.874066,0.526357,0.074126,-0.599715,0.042661,0.142881,-0.678884,0.593716,0.182540,4.462018,31.493572,-9.170425,-2.511720,0.667814,-0.749711,0.476852,0.000000,0.000000,0.000000,0.000000,0.000000,0.000000
13183081.000000,2.315290,-1.146479,-1.938034,-1.487403,-1.109699,1.874608,0.526549,0.051425,-0.555279,0.076510,0.138649,-0.672306,0.572780,0.191821,5.874372,28.093609,-12.606094,-2.583132,0.530485,-0.938309,0.384383,0.000000,0.000000,0.000000,0.000000,0.000000,0.000000
13183082.000000,2.315276,-1.146925,-1.937854,-1.487286,-1.110293,1.875108,0.526725,0.029402,-0.518343,0.108494,0.128749,-0.640951,0.562508,0.185632,7.580305,24.594463,-15.946548,-2.313356,-0.007845,-0.996903,0.410934,0.000000,0.000000,0.000000,0.000000,0.000000,0.000000
13183083.000000,2.315268,-1.147343,-1.937653,-1.487165,-1.110856,1.875520,0.526904,0.012249,-0.482868,0.140573,0.121730,-0.610737,0.512083,0.182472,9.040265,21.337322,-19.064835,-1.992006,-0.527865,-0.469559,0.398116,0.000000,0.000000,0.000000,0.000000,0.000000,0.000000
13183084.000000,2.315262,-1.147730,-1.937447,-1.487036,-1.111377,1.875943,0.527093,0.008355,-0.444601,0.160334,0.121804,-0.583870,0.482428,0.188667,10.278058,17.933392,-21.837967,-1.841249,-1.298739,-0.274552,0.272689,0.000000,0.000000,0.000000,0.000000,0.000000,0.000000
13183085.000000,2.315249,-1.148087,-1.937259,-1.486884,-1.111856,1.876469,0.527259,0.002148,-0.411990,0.165489,0.130226,-0.542738,0.499450,0.183600,11.515851,14.458050,-24.019974,-2.039613,-2.284762,-1.139725,0.390792,0.000000,0.000000,0.000000,0.000000,0.000000,0.000000
13183086.000000,2.315249,-1.148380,-1.937084,-1.486739,-1.112304,1.876949,0.527430,0.002070,-0.375619,0.164690,0.136467,-0.515381,0.493541,0.181627,12.408490,10.712933,-25.789383,-2.138796,-3.216769,-1.607560,0.483260,0.000000,0.000000,0.000000,0.000000,0.000000,0.000000
13183087.000000,2.315243,-1.148641,-1.936939,-1.486616,-1.112746,1.877400,0.527628,0.001722,-0.333639,0.155555,0.132371,-0.486892,0.485763,0.185698,13.273358,6.872601,-27.039078,-1.964235,-3.969332,-1.737565,0.305648,0.000000,0.000000,0.000000,0.000000,0.000000,0.000000
13183088.000000,2.315242,-1.148865,-1.936795,-1.486480,-1.113172,1.877858,0.527807,0.000613,-0.296180,0.145269,0.134357,-0.476183,0.479602,0.183921,14.015241,2.980694,-28.241165,-1.992006,-4.525057,-1.848344,0.357833,0.000000,0.000000,0.000000,0.000000,0.000000,0.000000
13183089.000000,2.315253,-1.149056,-1.936675,-1.486376,-1.113620,1.878368,0.527984,0.005361,-0.255842,0.134266,0.126594,-0.469562,0.485114,0.179635,14.487348,-0.938984,-29.102066,-1.619081,-4.836337,-2.252091,0.377975,0.000000,0.000000,0.000000,0.000000,0.000000,0.000000
13183090.000000,2.315276,-1.149190,-1.936567,-1.486284,-1.114096,1.878848,0.528190,0.012813,-0.212752,0.122850,0.112160,-0.467815,0.489729,0.190222,14.761090,-5.271259,-29.764603,-1.127138,-4.758517,-2.271317,0.153671,0.000000,0.000000,0.000000,0.000000,0.000000,0.000000
13183091.000000,2.315304,-1.149266,-1.936493,-1.486205,-1.114553,1.879329,0.528369,0.019245,-0.165000,0.104511,0.101075,-0.468418,0.486117,0.185781,14.931684,-9.797932,-30.058182,-0.583620,-4.728304,-2.095536,0.246139,0.000000,0.000000,0.000000,0.000000,0.000000,0.000000
13183092.000000,2.315352,-1.149332,-1.936452,-1.486124,-1.115086,1.879819,0.528584,0.029932,-0.127934,0.081756,0.096802,-0.490156,0.485952,0.197459,14.832501,-14.130207,-29.986771,-0.186891,-4.190890,-1.946305,0.048385,0.000000,0.000000,0.000000,0.000000,0.000000,0.000000
13183093.000000,2.315423,-1.149367,-1.936449,-1.486018,-1.115667,1.880352,0.528775,0.043627,-0.100094,0.051288,0.100232,-0.518823,0.498672,0.197294,14.439740,-18.291889,-29.566238,-0.210695,-3.408114,-2.122086,0.087753,0.000000,0.000000,0.000000,0.000000,0.000000,0.000000
13183094.000000,2.315521,-1.149381,-1.936484,-1.485884,-1.116264,1.880902,0.528961,0.063223,-0.070999,0.020431,0.110709,-0.551323,0.504912,0.195831,13.745465,-22.330585,-28.856094,-0.730409,-2.762667,-2.394913,0.186630,0.000000,0.000000,0.000000,0.000000,0.000000,0.000000
13183095.000000,2.315628,-1.149411,-1.936548,-1.485743,-1.116888,1.881425,0.529178,0.080417,-0.058179,-0.007788,0.119950,-0.576858,0.507741,0.202269,13.027387,-25.829731,-27.995193,-1.373109,-2.290255,-2.349137,0.061202,0.000000,0.000000,0.000000,0.000000,0.000000,0.000000
13183096.000000,2.315750,-1.149441,-1.936615,-1.485590,-1.117492,1.881935,0.529356,0.094734,-0.052244,-0.028074,0.133647,-0.594164,0.504046,0.191808,12.186322,-28.868671,-27.360428,-2.091188,-2.278353,-2.134904,0.246139,0.000000,0.000000,0.000000,0.000000,0.000000,0.000000
13183097.000000,2.315873,-1.149492,-1.936680,-1.485416,-1.118111,1.882451,0.529566,0.101836,-0.054458,-0.040753,0.148815,-0.599956,0.508092,0.199125,11.468244,-31.264912,-26.991470,-3.055238,-2.488009,-1.959122,0.160079,0.000000,0.000000,0.000000,0.000000,0.000000,0.000000
13183098.000000,2.316007,-1.149584,-1.936756,-1.485227,-1.118743,1.882951,0.529768,0.111243,-0.069833,-0.050711,0.163510,-0.608200,0.500875,0.200372,10.726361,-32.978779,-26.697891,-4.090700,-2.893588,-1.744889,0.173812,0.000000,0.000000,0.000000,0.000000,0.000000,0.000000
13183099.000000,2.316146,-1.149698,-1.936838,-1.485036,-1.119379,1.883423,0.529976,0.120285,-0.086609,-0.058770,0.172697,-0.610077,0.490933,0.202036,10.032086,-34.204670,-26.523331,-5.078554,-3.204867,-1.288956,0.127120,0.000000,0.000000,0.000000,0.000000,0.000000,0.000000
13183100.000000,2.316287,-1.149844,-1.936941,-1.484829,-1.120032,1.883898,0.530174,0.127359,-0.110079,-0.072363,0.187651,-0.614592,0.488178,0.198749,9.460797,-34.962421,-26.277359,-6.018800,-3.533541,-0.976762,0.127120,0.000000,0.000000,0.000000,0.000000,0.000000,0.000000
13183101.000000,2.316429,-1.150021,-1.937057,-1.484611,-1.120678,1.884407,0.530371,0.129883,-0.136920,-0.085547,0.197120,-0.622909,0.490750,0.194939,9.016461,-35.208393,-26.082962,-6.911439,-3.784396,-1.093949,0.160079,0.000000,0.000000,0.000000,0.000000,0.000000,0.000000
13183102.000000,2.316577,-1.150239,-1.937185,-1.484378,-1.121352,1.884953,0.530561,0.132693,-0.169333,-0.099959,0.208131,-0.633687,0.507194,0.192943,8.520551,-35.085407,-25.959976,-7.823915,-3.916232,-1.523331,0.173812,0.000000,0.000000,0.000000,0.000000,0.000000,0.000000
13183103.000000,2.316731,-1.150497,-1.937320,-1.484137,-1.122016,1.885487,0.530736,0.135795,-0.202326,-0.109194,0.217335,-0.639794,0.518747,0.185127,8.024640,-34.617268,-25.884598,-8.664980,-4.089266,-1.959122,0.351424,0.000000,0.000000,0.000000,0.000000,0.000000,0.000000
13183104.000000,2.316871,-1.150792,-1.937441,-1.483914,-1.122682,1.885998,0.530952,0.134243,-0.232958,-0.107525,0.222340,-0.644485,0.518519,0.198041,7.830244,-33.788105,-26.229752,-9.184694,-4.136874,-2.082719,0.173812,0.000000,0.000000,0.000000,0.000000,0.000000,0.000000
13183105.000000,2.317009,-1.151136,-1.937555,-1.483698,-1.123344,1.886506,0.531123,0.133061,-0.275119,-0.107608,0.220967,-0.648422,0.512629,0.189425,7.679487,-32.562214,-26.844681,-9.406862,-4.250399,-2.030534,0.338607,0.000000,0.000000,0.000000,0.000000,0.000000,0.000000
13183106.000000,2.317156,-1.151515,-1.937656,-1.483468,-1.124008,1.886982,0.531295,0.133155,-0.317702,-0.103237,0.223745,-0.662939,0.496515,0.184028,7.504926,-31.241108,-27.677811,-9.752016,-4.244906,-1.776932,0.483260,0.000000,0.000000,0.000000,0.000000,0.000000,0.000000
13183107.000000,2.317312,-1.151936,-1.937755,-1.483234,-1.124662,1.887427,0.531473,0.143940,-0.352527,-0.100375,0.222782,-0.660373,0.475845,0.183866,7.282758,-29.674030,-28.657730,-10.073366,-4.429842,-1.165360,0.536361,0.000000,0.000000,0.000000,0.000000,0.000000,0.000000
13183108.000000,2.317459,-1.152397,-1.937837,-1.483025,-1.125296,1.887817,0.531613,0.140269,-0.390983,-0.093439,0.216390,-0.644770,0.442511,0.167809,7.159772,-28.035542,-29.863785,-10.025759,-4.716403,-0.229691,0.892501,0.000000,0.000000,0.000000,0.000000,0.000000,0.000000
13183109.000000,2.317592,-1.152870,-1.937900,-1.482830,-1.125959,1.888181,0.531784,0.135129,-0.420766,-0.081717,0.207362,-0.650148,0.410936,0.165282,7.282758,-26.591450,-31.311844,-9.728212,-4.716403,0.792037,0.872360,0.000000,0.000000,0.000000,0.000000,0.000000,0.000000
13183110.000000,2.317709,-1.153375,-1.937984,-1.482647,-1.126644,1.888597,0.531941,0.127040,-0.449792,-0.082238,0.199096,-0.655933,0.400395,0.161004,7.631879,-25.194965,-32.438553,-9.331484,-4.507662,1.123458,0.918136,0.000000,0.000000,0.000000,0.000000,0.000000,0.000000
13183111.000000,2.317831,-1.153889,-1.938071,-1.482470,-1.127374,1.889036,0.532077,0.125066,-0.474627,-0.083776,0.189886,-0.675907,0.411797,0.151334,7.901655,-24.119831,-33.370865,-8.910952,-4.005038,0.922042,1.123214,0.000000,0.000000,0.000000,0.000000,0.000000,0.000000
13183112.000000,2.317937,-1.154409,-1.938159,-1.482319,-1.128154,1.889453,0.532218,0.117795,-0.488949,-0.081154,0.176811,-0.712587,0.412595,0.148386,8.397565,-23.211323,-34.303177,-8.319826,-2.977816,0.836898,1.228500,0.000000,0.000000,0.000000,0.000000,0.000000,0.000000
13183113.000000,2.318025,-1.154935,-1.938248,-1.482170,-1.128943,1.889840,0.532349,0.107467,-0.496564,-0.084644,0.166549,-0.735983,0.405565,0.146147,9.139447,-22.600361,-35.116470,-7.800111,-2.218844,0.960494,1.340194,0.000000,0.000000,0.000000,0.000000,0.000000,0.000000
13183114.000000,2.318101,-1.155467,-1.938307,-1.482026,-1.129730,1.890241,0.532493,0.093547,-0.506524,-0.075383,0.157630,-0.756920,0.405524,0.144986,10.008283,-22.136189,-36.318558,-7.355775,-1.627413,0.941268,1.307235,0.000000,0.000000,0.000000,0.000000,0.000000,0.000000
13183115.000000,2.318181,-1.156005,-1.938350,-1.481889,-1.130513,1.890648,0.532626,0.087801,-0.515432,-0.064731,0.152339,-0.761512,0.409054,0.140165,10.726361,-21.890217,-37.691238,-6.959047,-1.339938,0.922042,1.366744,0.000000,0.000000,0.000000,0.000000,0.000000,0.000000
13183116.000000,2.318264,-1.156533,-1.938392,-1.481745,-1.131279,1.891057,0.532764,0.082864,-0.513795,-0.056108,0.147365,-0.754003,0.407371,0.137822,11.345258,-21.937824,-38.992508,-6.812257,-1.501986,0.895492,1.379562,0.000000,0.000000,0.000000,0.000000,0.000000,0.000000
