chaoyuefei/paper-gmrm-data/robot_logs/s2_dq_gmrm_xz_min_0.50_log_20260314_174035.csv
# time_ms,q_0,q_1,q_2,q_3,q_4,q_5,q_6,dq_0,dq_1,dq_2,dq_3,dq_4,dq_5,dq_6,tau_J_0,tau_J_1,tau_J_2,tau_J_3,tau_J_4,tau_J_5,tau_J_6,O_dP_EE_c_0,O_dP_EE_c_1,O_dP_EE_c_2,O_dP_EE_c_3,O_dP_EE_c_4,O_dP_EE_c_5
12697940.000000,-2.415661,-1.662618,1.042888,-1.356084,1.795447,1.081415,-0.548598,0.000330,-0.000127,0.001137,0.000618,0.000184,0.000146,0.001333,0.030561,41.578411,-21.100052,-5.749025,0.840848,1.318465,-0.011124,0.000000,0.000000,0.000000,0.000000,0.000000,0.000000
12697941.000000,-2.415664,-1.662616,1.042882,-1.356085,1.795448,1.081415,-0.548607,-0.000894,0.000472,-0.001008,-0.000238,-0.000115,0.000097,-0.000807,0.078168,41.554607,-21.024673,-5.721254,0.847257,1.318465,0.034652,0.000000,0.000000,0.000000,0.000000,0.000000,0.000000
12697942.000000,-2.415665,-1.662613,1.042881,-1.356085,1.795450,1.081415,-0.548603,-0.000039,0.001429,-0.001230,0.000491,0.000161,-0.000173,-0.000063,0.054365,41.507000,-21.000870,-5.749025,0.840848,1.324874,0.021835,0.000000,0.000000,0.000000,0.000000,0.000000,0.000000
12697943.000000,-2.415662,-1.662618,1.042884,-1.356088,1.795448,1.081414,-0.548602,0.000531,-0.000718,0.000385,-0.000322,-0.000571,-0.000352,-0.000042,0.030561,41.578411,-21.052444,-5.721254,0.859159,1.331283,0.021835,0.000000,0.000000,0.000000,0.000000,0.000000,0.000000
12697944.000000,-2.415655,-1.662618,1.042882,-1.356089,1.795449,1.081414,-0.548609,0.009995,-0.001483,-0.000394,0.004333,0.000942,-0.001218,-0.009703,0.276533,41.483196,-21.024673,-5.649843,0.823453,1.357833,0.028243,0.000000,0.000000,0.000000,0.000000,0.000000,0.000000
12697945.000000,-2.415651,-1.662623,1.042882,-1.356085,1.795448,1.081409,-0.548617,0.017044,-0.003543,-0.002491,0.006174,0.003747,0.002346,-0.009480,1.367536,41.312603,-20.929459,-5.499086,0.739225,1.526290,-0.037675,0.000000,0.000000,0.000000,0.000000,0.000000,0.000000
12697946.000000,-2.415620,-1.662625,1.042899,-1.356081,1.795444,1.081408,-0.548649,0.021675,-0.003030,0.004852,0.005487,0.002006,-0.001165,-0.017249,2.950483,40.896038,-20.953262,-5.253114,0.625699,1.754256,-0.023942,0.000000,0.000000,0.000000,0.000000,0.000000,0.000000
12697947.000000,-2.415577,-1.662622,1.042915,-1.356087,1.795427,1.081425,-0.548686,0.027196,-0.000491,0.005790,-0.001256,-0.002188,0.005272,-0.019734,4.834943,40.380291,-20.905655,-4.856386,0.584501,1.871444,-0.097184,0.000000,0.000000,0.000000,0.000000,0.000000,0.000000
12697948.000000,-2.415516,-1.662618,1.042938,-1.356101,1.795396,1.081471,-0.548749,0.031467,0.002023,0.008827,-0.008302,-0.013078,0.021617,-0.034936,6.763044,39.793133,-20.830276,-4.487428,0.632108,1.812850,-0.064225,0.000000,0.000000,0.000000,0.000000,0.000000,0.000000
12697949.000000,-2.415422,-1.662618,1.042964,-1.356129,1.795353,1.081550,-0.548826,0.046852,0.001664,0.013443,-0.020956,-0.025848,0.039217,-0.050618,8.298383,39.281353,-20.731094,-4.066896,0.679716,1.584884,-0.044083,0.000000,0.000000,0.000000,0.000000,0.000000,0.000000
12697950.000000,-2.415324,-1.662620,1.043005,-1.356169,1.795302,1.081646,-0.548918,0.055999,0.002579,0.022443,-0.029403,-0.039393,0.056131,-0.064147,9.782147,38.837017,-20.707291,-3.670168,0.709928,1.377059,-0.097184,0.000000,0.000000,0.000000,0.000000,0.000000,0.000000
12697951.000000,-2.415210,-1.662619,1.043050,-1.356217,1.795236,1.081751,-0.549045,0.069749,0.002075,0.030662,-0.039302,-0.050230,0.071982,-0.083728,11.047711,38.448223,-20.631912,-3.376589,0.757535,1.312057,-0.031266,0.000000,0.000000,0.000000,0.000000,0.000000,0.000000
12697952.000000,-2.415073,-1.662613,1.043103,-1.356277,1.795159,1.081882,-0.549178,0.091662,0.005634,0.039968,-0.047158,-0.063249,0.090648,-0.098742,12.011762,38.031658,-20.536697,-3.079042,0.691617,1.318465,-0.077042,0.000000,0.000000,0.000000,0.000000,0.000000,0.000000
12697953.000000,-2.414939,-1.662606,1.043168,-1.356347,1.795073,1.082022,-0.549344,0.101587,0.004507,0.049943,-0.054845,-0.075522,0.109681,-0.120150,13.074994,37.638897,-20.461319,-2.833071,0.554288,1.454879,-0.097184,0.000000,0.000000,0.000000,0.000000,0.000000,0.000000
12697954.000000,-2.414778,-1.662592,1.043250,-1.356432,1.794959,1.082199,-0.549540,0.121236,0.007645,0.061325,-0.067321,-0.088138,0.130805,-0.147478,13.868451,37.222332,-20.437515,-2.583132,0.500272,1.572067,-0.044083,0.000000,0.000000,0.000000,0.000000,0.000000,0.000000
12697955.000000,-2.414611,-1.662574,1.043352,-1.356529,1.794834,1.082402,-0.549753,0.136951,0.013066,0.074726,-0.076736,-0.098329,0.153947,-0.168052,14.586530,36.805767,-20.584305,-2.460146,0.344633,1.605026,-0.136552,0.000000,0.000000,0.000000,0.000000,0.000000,0.000000
12697956.000000,-2.414423,-1.662553,1.043469,-1.356643,1.794678,1.082642,-0.550010,0.154479,0.017123,0.087770,-0.087957,-0.116000,0.184518,-0.198015,15.153852,36.389202,-20.754898,-2.313356,0.315336,1.559249,-0.103593,0.000000,0.000000,0.000000,0.000000,0.000000,0.000000
12697957.000000,-2.414225,-1.662538,1.043594,-1.356771,1.794495,1.082905,-0.550287,0.169446,0.014663,0.099771,-0.099106,-0.136626,0.210992,-0.221756,15.625958,36.071819,-20.877884,-2.190370,0.362943,1.507064,-0.037675,0.000000,0.000000,0.000000,0.000000,0.000000,0.000000
12697958.000000,-2.413995,-1.662519,1.043740,-1.356923,1.794277,1.083197,-0.550562,0.188818,0.017856,0.115479,-0.116743,-0.162278,0.242115,-0.233137,15.871930,35.683025,-21.076248,-2.063417,0.434354,1.435653,-0.122819,0.000000,0.000000,0.000000,0.000000,0.000000,0.000000
12697959.000000,-2.413755,-1.662496,1.043891,-1.357090,1.794037,1.083513,-0.550866,0.205138,0.019774,0.127199,-0.132932,-0.182942,0.266343,-0.257604,16.121870,35.314068,-21.175430,-1.964235,0.554288,1.429244,-0.056901,0.000000,0.000000,0.000000,0.000000,0.000000,0.000000
12697960.000000,-2.413507,-1.662480,1.044051,-1.357267,1.793788,1.083851,-0.551158,0.220207,0.018366,0.139756,-0.145386,-0.203986,0.285040,-0.266636,16.367842,35.068096,-21.223038,-1.992006,0.596403,1.429244,-0.103593,0.000000,0.000000,0.000000,0.000000,0.000000,0.000000
12697961.000000,-2.413236,-1.662459,1.044228,-1.357461,1.793530,1.084201,-0.551457,0.236741,0.017477,0.152098,-0.162089,-0.222542,0.302371,-0.274611,16.490828,34.826092,-21.294449,-1.992006,0.571683,1.454879,-0.110001,0.000000,0.000000,0.000000,0.000000,0.000000,0.000000
12697962.000000,-2.412954,-1.662452,1.044405,-1.357662,1.793250,1.084583,-0.551754,0.255302,0.011980,0.159666,-0.174188,-0.240727,0.321977,-0.281828,16.617781,34.798321,-21.246841,-2.015810,0.530485,1.546432,-0.097184,0.000000,0.000000,0.000000,0.000000,0.000000,0.000000
12697963.000000,-2.412652,-1.662442,1.044600,-1.357894,1.792954,1.084974,-0.552051,0.271622,0.012056,0.171997,-0.193984,-0.255095,0.340590,-0.285725,16.740767,34.750713,-21.223038,-1.964235,0.381254,1.682845,-0.116410,0.000000,0.000000,0.000000,0.000000,0.000000,0.000000
12697964.000000,-2.412319,-1.662436,1.044802,-1.358142,1.792646,1.085392,-0.552355,0.289738,0.008680,0.180771,-0.210924,-0.274327,0.364470,-0.290755,16.590010,34.726910,-21.123856,-1.841249,0.320829,1.754256,-0.089860,0.000000,0.000000,0.000000,0.000000,0.000000,0.000000
12697965.000000,-2.411979,-1.662432,1.045016,-1.358409,1.792316,1.085847,-0.552654,0.309077,0.008554,0.192205,-0.224084,-0.285263,0.393488,-0.288862,16.566206,34.750713,-21.123856,-1.694460,0.303434,1.721298,-0.089860,0.000000,0.000000,0.000000,0.000000,0.000000,0.000000
12697966.000000,-2.411631,-1.662431,1.045238,-1.358701,1.791971,1.086329,-0.552942,0.318971,0.006023,0.200279,-0.244184,-0.316054,0.418583,-0.280880,16.518599,34.750713,-21.024673,-1.496095,0.308927,1.591293,-0.116410,0.000000,0.000000,0.000000,0.000000,0.000000,0.000000
12697967.000000,-2.411263,-1.662430,1.045474,-1.358998,1.791599,1.086834,-0.553234,0.333619,0.003699,0.210835,-0.257921,-0.333478,0.444700,-0.283652,16.518599,34.774517,-20.929459,-1.373109,0.351041,1.467696,-0.056901,0.000000,0.000000,0.000000,0.000000,0.000000,0.000000
12697968.000000,-2.410893,-1.662427,1.045714,-1.359300,1.791213,1.087350,-0.553513,0.344393,0.003202,0.221800,-0.271289,-0.347206,0.474228,-0.281481,16.617781,34.750713,-20.830276,-1.349306,0.428861,1.429244,-0.103593,0.000000,0.000000,0.000000,0.000000,0.000000,0.000000
12697969.000000,-2.410511,-1.662426,1.045966,-1.359620,1.790817,1.087891,-0.553790,0.356809,0.004788,0.229736,-0.291786,-0.362045,0.496930,-0.280710,16.816145,34.774517,-20.754898,-1.349306,0.494779,1.435653,-0.130143,0.000000,0.000000,0.000000,0.000000,0.000000,0.000000
12697970.000000,-2.410115,-1.662427,1.046222,-1.359960,1.790396,1.088453,-0.554064,0.369685,0.002993,0.235862,-0.303895,-0.380039,0.516453,-0.278487,16.911360,34.798321,-20.631912,-1.321535,0.506681,1.481429,-0.083451,0.000000,0.000000,0.000000,0.000000,0.000000,0.000000
12697971.000000,-2.409709,-1.662423,1.046491,-1.360303,1.789963,1.089016,-0.554327,0.378984,0.003377,0.245266,-0.314652,-0.393279,0.531292,-0.270738,17.137495,34.750713,-20.536697,-1.472292,0.494779,1.539108,-0.169511,0.000000,0.000000,0.000000,0.000000,0.000000,0.000000
12697972.000000,-2.409286,-1.662423,1.046777,-1.360671,1.789530,1.089609,-0.554596,0.387344,0.002452,0.262636,-0.327543,-0.411147,0.549715,-0.273403,17.335859,34.750713,-20.536697,-1.321535,0.446256,1.565658,-0.142960,0.000000,0.000000,0.000000,0.000000,0.000000,0.000000
12697973.000000,-2.408851,-1.662425,1.047064,-1.361049,1.789070,1.090224,-0.554876,0.401431,0.001229,0.271544,-0.342167,-0.419758,0.570352,-0.274052,17.482649,34.774517,-20.485123,-1.198549,0.416959,1.519881,-0.056901,0.000000,0.000000,0.000000,0.000000,0.000000,0.000000
12697974.000000,-2.408413,-1.662425,1.047363,-1.361451,1.788606,1.090862,-0.555141,0.409430,0.000376,0.276287,-0.358415,-0.432095,0.594284,-0.268242,17.827803,34.798321,-20.413712,-1.000185,0.386747,1.409103,-0.130143,0.000000,0.000000,0.000000,0.000000,0.000000,0.000000
12697975.000000,-2.407952,-1.662415,1.047671,-1.361862,1.788115,1.091511,-0.555403,0.436565,0.003119,0.286038,-0.376467,-0.450602,0.607503,-0.268011,18.002363,34.679302,-20.413712,-0.805788,0.356534,1.331283,-0.110001,0.000000,0.000000,0.000000,0.000000,0.000000,0.000000
12697976.000000,-2.407473,-1.662411,1.047992,-1.362292,1.787598,1.092178,-0.555663,0.449048,0.002793,0.294928,-0.386298,-0.468598,0.629315,-0.265717,18.224531,34.651531,-20.461319,-0.607423,0.422452,1.272689,-0.130143,0.000000,0.000000,0.000000,0.000000,0.000000,0.000000
12697977.000000,-2.406978,-1.662407,1.048320,-1.362730,1.787082,1.092869,-0.555925,0.461393,0.003023,0.310140,-0.406879,-0.489422,0.651174,-0.265839,18.446699,34.603924,-20.413712,-0.385256,0.452665,1.259872,-0.116410,0.000000,0.000000,0.000000,0.000000,0.000000,0.000000
12697978.000000,-2.406488,-1.662396,1.048656,-1.363184,1.786541,1.093583,-0.556181,0.469067,0.004928,0.318786,-0.419959,-0.503854,0.669375,-0.261375,18.768049,34.480938,-20.338333,-0.262270,0.482877,1.279098,-0.089860,0.000000,0.000000,0.000000,0.000000,0.000000,0.000000
12697979.000000,-2.405976,-1.662393,1.049015,-1.363655,1.785993,1.094297,-0.556428,0.481441,0.003312,0.329645,-0.438376,-0.522295,0.687611,-0.254426,19.041792,34.480938,-20.413712,-0.186891,0.547880,1.370651,-0.149369,0.000000,0.000000,0.000000,0.000000,0.000000,0.000000
12697980.000000,-2.405455,-1.662381,1.049371,-1.364125,1.785427,1.095037,-0.556672,0.492153,0.004456,0.339893,-0.445142,-0.537082,0.695665,-0.251798,19.414717,34.385723,-20.338333,-0.163088,0.512174,1.429244,-0.155778,0.000000,0.000000,0.000000,0.000000,0.000000,0.000000
12697981.000000,-2.404928,-1.662370,1.049750,-1.364620,1.784848,1.095797,-0.556930,0.502163,0.005306,0.350290,-0.455219,-0.544425,0.714134,-0.257167,19.736067,34.286541,-20.413712,-0.135317,0.535978,1.461288,-0.089860,0.000000,0.000000,0.000000,0.000000,0.000000,0.000000
12697982.000000,-2.404369,-1.662367,1.050141,-1.365127,1.784258,1.096586,-0.557170,0.517693,0.003548,0.368284,-0.473164,-0.553959,0.744754,-0.250548,19.934431,34.286541,-20.437515,0.011473,0.518583,1.422836,-0.175919,0.000000,0.000000,0.000000,0.000000,0.000000,0.000000
12697983.000000,-2.403813,-1.662355,1.050552,-1.365654,1.783658,1.097399,-0.557423,0.528243,0.004694,0.385133,-0.486278,-0.563309,0.759766,-0.251584,20.231977,34.187359,-20.659683,0.134459,0.458158,1.350509,-0.116410,0.000000,0.000000,0.000000,0.000000,0.000000,0.000000
12697984.000000,-2.403235,-1.662343,1.050975,-1.366192,1.783027,1.098237,-0.557675,0.539078,0.008039,0.393217,-0.501425,-0.582152,0.782446,-0.250471,20.501753,34.115948,-20.830276,0.233641,0.434354,1.227828,-0.077042,0.000000,0.000000,0.000000,0.000000,0.000000,0.000000
12697985.000000,-2.402645,-1.662330,1.051406,-1.366731,1.782407,1.099097,-0.557907,0.549691,0.010455,0.407964,-0.514579,-0.595463,0.809842,-0.241622,20.874678,34.040569,-20.977066,0.257445,0.381254,1.136276,-0.149369,0.000000,0.000000,0.000000,0.000000,0.000000,0.000000
12697986.000000,-2.402047,-1.662314,1.051850,-1.367289,1.781749,1.099951,-0.558149,0.568586,0.012946,0.422407,-0.522416,-0.610693,0.839490,-0.243725,21.144453,33.941387,-21.175430,0.257445,0.362943,1.207687,-0.122819,0.000000,0.000000,0.000000,0.000000,0.000000,0.000000
12697989.000000,-2.400151,-1.662273,1.053246,-1.369014,1.779695,1.102682,-0.558867,0.606536,0.010876,0.440544,-0.559468,-0.667503,0.901540,-0.237455,21.862532,33.723186,-21.639603,0.035277,0.434354,1.279098,-0.097184,0.000000,0.000000,0.000000,0.000000,0.000000,0.000000
12697990.000000,-2.399469,-1.662260,1.053741,-1.369619,1.778990,1.103622,-0.559090,0.628522,0.012011,0.459153,-0.572850,-0.675728,0.910179,-0.240227,21.937910,33.675579,-21.810196,0.134459,0.571683,1.318465,-0.155778,0.000000,0.000000,0.000000,0.000000,0.000000,0.000000
12697991.000000,-2.398784,-1.662245,1.054229,-1.370245,1.778272,1.104598,-0.559325,0.646282,0.013578,0.470102,-0.586388,-0.690642,0.928200,-0.241964,22.013288,33.600201,-21.885574,0.285216,0.620206,1.324874,-0.142960,0.000000,0.000000,0.000000,0.000000,0.000000,0.000000
12697992.000000,-2.398069,-1.662237,1.054731,-1.370877,1.777560,1.105588,-0.559563,0.666701,0.012489,0.477166,-0.603237,-0.696173,0.950174,-0.239276,22.013288,33.624004,-22.008560,0.432005,0.715421,1.299239,-0.103593,0.000000,0.000000,0.000000,0.000000,0.000000,0.000000
12697993.000000,-2.397357,-1.662231,1.055237,-1.371504,1.776833,1.106601,-0.559790,0.692565,0.011174,0.487037,-0.610789,-0.697665,0.970474,-0.234015,22.088667,33.675579,-22.056168,0.507384,0.763029,1.292831,-0.149369,0.000000,0.000000,0.000000,0.000000,0.000000,0.000000
12697994.000000,-2.396631,-1.662226,1.055767,-1.372152,1.776105,1.107626,-0.560025,0.693983,0.009334,0.501444,-0.621262,-0.705512,1.001819,-0.231143,22.037092,33.770794,-22.155350,0.455809,0.852750,1.318465,-0.163102,0.000000,0.000000,0.000000,0.000000,0.000000,0.000000
12697995.000000,-2.395888,-1.662220,1.056301,-1.372806,1.775399,1.108674,-0.560257,0.695326,0.010011,0.517560,-0.637076,-0.708362,1.016837,-0.230700,21.144453,33.917583,-21.960953,0.110655,0.859159,1.416427,-0.142960,0.000000,0.000000,0.000000,0.000000,0.000000,0.000000
12697996.000000,-2.395164,-1.662216,1.056851,-1.373484,1.774676,1.109747,-0.560483,0.700157,0.007234,0.530793,-0.649617,-0.712213,1.030627,-0.230467,19.363142,34.088177,-21.615799,-0.631227,0.936979,1.546432,-0.116410,0.000000,0.000000,0.000000,0.000000,0.000000,0.000000
12697997.000000,-2.394434,-1.662205,1.057442,-1.374177,1.773980,1.110830,-0.560704,0.709602,0.007687,0.544743,-0.658807,-0.717666,1.037228,-0.226323,16.939131,34.016766,-21.199234,-1.547670,0.913175,1.565658,-0.182328,0.000000,0.000000,0.000000,0.000000,0.000000,0.000000
12697998.000000,-2.393688,-1.662205,1.058033,-1.374882,1.773273,1.111943,-0.560928,0.721632,0.002470,0.565860,-0.672958,-0.714717,1.054772,-0.228074,14.043012,33.893780,-20.338333,-2.360964,0.835355,1.624252,-0.136552,0.000000,0.000000,0.000000,0.000000,0.000000,0.000000
12697999.000000,-2.392967,-1.662208,1.058648,-1.375621,1.772595,1.113047,-0.561147,0.728960,-0.002696,0.578350,-0.689686,-0.695750,1.066549,-0.221037,11.345258,33.675579,-19.505203,-2.733888,0.571683,1.741439,-0.182328,0.000000,0.000000,0.000000,0.000000,0.000000,0.000000
12698000.000000,-2.392235,-1.662214,1.059298,-1.376340,1.771933,1.114196,-0.561371,0.734615,-0.004707,0.605870,-0.702375,-0.677706,1.100214,-0.218651,8.794293,33.501019,-18.767288,-3.154421,0.285123,1.714889,-0.155778,0.000000,0.000000,0.000000,0.000000,0.000000,0.000000
12698001.000000,-2.391502,-1.662225,1.059946,-1.377075,1.771274,1.115379,-0.561589,0.738153,-0.007632,0.621148,-0.708135,-0.670096,1.122409,-0.217122,6.394086,33.382000,-17.934158,-3.325014,0.052579,1.584884,-0.122819,0.000000,0.000000,0.000000,0.000000,0.000000,0.000000
12698002.000000,-2.390782,-1.662244,1.060618,-1.377802,1.770611,1.116562,-0.561808,0.728202,-0.009499,0.624282,-0.708218,-0.662391,1.144968,-0.217791,4.509626,33.382000,-17.224014,-3.523378,-0.025240,1.461288,-0.149369,0.000000,0.000000,0.000000,0.000000,0.000000,0.000000
12698003.000000,-2.390051,-1.662265,1.061285,-1.378511,1.769971,1.117780,-0.562033,0.727314,-0.011296,0.642023,-0.703128,-0.658116,1.161847,-0.217798,2.803693,33.405804,-16.438492,-3.646364,-0.025240,1.364242,-0.083451,0.000000,0.000000,0.000000,0.000000,0.000000,0.000000
12698004.000000,-2.389338,-1.662297,1.061959,-1.379229,1.769313,1.118988,-0.562248,0.720674,-0.017933,0.651127,-0.700110,-0.650731,1.187597,-0.216931,1.391340,33.528790,-15.871170,-3.646364,0.147794,1.389877,-0.155778,0.000000,0.000000,0.000000,0.000000,0.000000,0.000000
12698005.000000,-2.388609,-1.662329,1.062642,-1.379940,1.768664,1.120227,-0.562471,0.718450,-0.024514,0.657645,-0.695848,-0.652963,1.196083,-0.218739,0.153547,33.600201,-15.355423,-3.646364,0.393156,1.416427,-0.169511,0.000000,0.000000,0.000000,0.000000,0.000000,0.000000
12698006.000000,-2.387895,-1.662367,1.063320,-1.380639,1.768012,1.121490,-0.562691,0.718976,-0.028765,0.661222,-0.695534,-0.652611,1.215085,-0.217436,-0.834307,33.647808,-14.867447,-3.499574,0.578092,1.247054,-0.130143,0.000000,0.000000,0.000000,0.000000,0.000000,0.000000
12698007.000000,-2.387165,-1.662399,1.064010,-1.381346,1.767368,1.122736,-0.562900,0.717208,-0.029087,0.658833,-0.695576,-0.653651,1.225342,-0.217001,-1.802325,33.576397,-14.446915,-3.277406,0.703519,1.039230,-0.182328,0.000000,0.000000,0.000000,0.000000,0.000000,0.000000
12698008.000000,-2.386433,-1.662438,1.064712,-1.382037,1.766753,1.123974,-0.563122,0.715401,-0.029385,0.676743,-0.696649,-0.643859,1.234725,-0.217925,-2.591815,33.501019,-14.054153,-3.055238,0.673307,1.045638,-0.188737,0.000000,0.000000,0.000000,0.000000,0.000000,0.000000
12698009.000000,-2.385716,-1.662470,1.065402,-1.382739,1.766136,1.125201,-0.563344,0.721318,-0.031495,0.681459,-0.692922,-0.632924,1.222916,-0.222468,-3.286089,33.354229,-13.712967,-2.706117,0.571683,1.169235,-0.122819,0.000000,0.000000,0.000000,0.000000,0.000000,0.000000
12698010.000000,-2.384998,-1.662504,1.066098,-1.383430,1.765540,1.126411,-0.563553,0.712429,-0.029546,0.676936,-0.685946,-0.619425,1.224603,-0.216126,-3.782000,33.183636,-13.221024,-2.535524,0.398649,1.247054,-0.175919,0.000000,0.000000,0.000000,0.000000,0.000000,0.000000
12698011.000000,-2.384297,-1.662524,1.066789,-1.384101,1.764945,1.127633,-0.563769,0.720300,-0.027375,0.676864,-0.682105,-0.609335,1.217066,-0.216210,-4.055743,32.842449,-12.804459,-2.436342,0.225614,1.305648,-0.116410,0.000000,0.000000,0.000000,0.000000,0.000000,0.000000
12698012.000000,-2.383587,-1.662531,1.067494,-1.384757,1.764347,1.128833,-0.563973,0.716103,-0.019632,0.687533,-0.671326,-0.600832,1.217895,-0.212675,-4.349322,32.350506,-12.387894,-2.634706,0.135892,1.377059,-0.142960,0.000000,0.000000,0.000000,0.000000,0.000000,0.000000
12698013.000000,-2.382881,-1.662529,1.068199,-1.385403,1.763762,1.130038,-0.564183,0.710394,-0.012111,0.696049,-0.666503,-0.596856,1.211759,-0.210275,-4.523882,31.763348,-12.042740,-2.781496,0.100187,1.494247,-0.169511,0.000000,0.000000,0.000000,0.000000,0.000000,0.000000
12698014.000000,-2.382182,-1.662516,1.068920,-1.386047,1.763166,1.131265,-0.564395,0.707403,-0.001653,0.705836,-0.656458,-0.590906,1.219063,-0.210801,-4.797625,31.080975,-11.848343,-2.979860,0.159696,1.377059,-0.136552,0.000000,0.000000,0.000000,0.000000,0.000000,0.000000
12698015.000000,-2.381475,-1.662500,1.069633,-1.386701,1.762584,1.132494,-0.564604,0.704093,0.004523,0.697619,-0.652156,-0.594101,1.223602,-0.207905,-5.043597,30.442242,-11.380203,-3.027467,0.267728,1.058456,-0.175919,0.000000,0.000000,0.000000,0.000000,0.000000,0.000000
12698016.000000,-2.380773,-1.662483,1.070368,-1.387343,1.761991,1.133721,-0.564816,0.696886,0.010789,0.708869,-0.646810,-0.595656,1.224695,-0.208976,-5.194354,29.855083,-11.209610,-3.027467,0.356534,0.882674,-0.142960,0.000000,0.000000,0.000000,0.000000,0.000000,0.000000
12698017.000000,-2.380090,-1.662457,1.071099,-1.387992,1.761410,1.134914,-0.565022,0.691211,0.016053,0.712845,-0.646001,-0.590848,1.218385,-0.203508,-5.194354,29.244122,-11.011246,-2.979860,0.327238,0.922042,-0.149369,0.000000,0.000000,0.000000,0.000000,0.000000,0.000000
12698018.000000,-2.379401,-1.662428,1.071839,-1.388610,1.760836,1.136120,-0.565223,0.688369,0.019403,0.710416,-0.650786,-0.582110,1.220868,-0.198640,-5.142779,28.656963,-10.717667,-3.102846,0.255826,0.941268,-0.175919,0.000000,0.000000,0.000000,0.000000,0.000000,0.000000
12698019.000000,-2.378733,-1.662403,1.072571,-1.389226,1.760269,1.137347,-0.565431,0.682352,0.021478,0.717360,-0.633700,-0.574192,1.219218,-0.198464,-4.995989,28.216595,-10.348709,-3.348818,0.159696,0.889083,-0.116410,0.000000,0.000000,0.000000,0.000000,0.000000,0.000000
12698020.000000,-2.378051,-1.662378,1.073314,-1.389847,1.759706,1.138542,-0.565629,0.675735,0.022744,0.713826,-0.624693,-0.568648,1.215656,-0.198830,-4.896807,27.800030,-9.983719,-3.570986,0.046171,0.895492,-0.149369,0.000000,0.000000,0.000000,0.000000,0.000000,0.000000
12698021.000000,-2.377361,-1.662355,1.074087,-1.390467,1.759160,1.139753,-0.565823,0.674813,0.021597,0.740058,-0.622991,-0.557087,1.208338,-0.203047,-4.968218,27.482647,-9.860733,-3.598757,-0.013339,0.980636,-0.188737,0.000000,0.000000,0.000000,0.000000,0.000000,0.000000
12698022.000000,-2.376674,-1.662330,1.074837,-1.391093,1.758597,1.140965,-0.566026,0.676650,0.021173,0.739161,-0.624773,-0.552099,1.216950,-0.201349,-5.118975,27.161297,-9.539383,-3.570986,-0.060946,0.889083,-0.136552,0.000000,0.000000,0.000000,0.000000,0.000000,0.000000
12698023.000000,-2.375967,-1.662316,1.075607,-1.391709,1.758042,1.142206,-0.566220,0.684062,0.019627,0.739278,-0.619904,-0.550920,1.220151,-0.196900,-5.464129,27.042278,-9.222000,-3.448000,0.040677,0.720626,-0.163102,0.000000,0.000000,0.000000,0.000000,0.000000,0.000000
12698024.000000,-2.375269,-1.662303,1.076381,-1.392327,1.757472,1.143452,-0.566407,0.690484,0.015261,0.746939,-0.613542,-0.561791,1.226963,-0.193854,-5.813250,26.943096,-9.047440,-3.400392,0.171598,0.511886,-0.188737,0.000000,0.000000,0.000000,0.000000,0.000000,0.000000
12698025.000000,-2.374574,-1.662296,1.077190,-1.392926,1.756920,1.144672,-0.566604,0.693171,0.011180,0.763013,-0.602116,-0.556604,1.222571,-0.192913,-5.960040,26.895489,-9.099014,-3.598757,0.141385,0.473434,-0.163102,0.000000,0.000000,0.000000,0.000000,0.000000,0.000000
12698026.000000,-2.373885,-1.662292,1.077985,-1.393503,1.756365,1.145892,-0.566793,0.690736,0.006816,0.770308,-0.596316,-0.560763,1.224328,-0.191774,-6.035418,26.919292,-9.047440,-3.868532,0.189908,0.557662,-0.169511,0.000000,0.000000,0.000000,0.000000,0.000000,0.000000
12698027.000000,-2.373199,-1.662296,1.078795,-1.394078,1.755817,1.147124,-0.566987,0.684243,0.001050,0.777742,-0.583702,-0.553926,1.222730,-0.190659,-6.158404,27.066082,-8.876846,-4.241457,0.129484,0.668441,-0.169511,0.000000,0.000000,0.000000,0.000000,0.000000,0.000000
12698028.000000,-2.372509,-1.662297,1.079624,-1.394659,1.755278,1.148320,-0.567181,0.678705,-0.001016,0.782073,-0.582490,-0.553336,1.217915,-0.190310,-6.332964,27.137493,-8.853043,-4.562807,0.159696,0.889083,-0.155778,0.000000,0.000000,0.000000,0.000000,0.000000,0.000000
12698029.000000,-2.371821,-1.662295,1.080454,-1.395227,1.754736,1.149525,-0.567370,0.681254,-0.001268,0.795575,-0.577556,-0.545478,1.205173,-0.188768,-6.578936,27.161297,-8.876846,-4.784975,0.123990,1.149093,-0.182328,0.000000,0.000000,0.000000,0.000000,0.000000,0.000000
12698030.000000,-2.371116,-1.662296,1.081310,-1.395808,1.754213,1.150735,-0.567564,0.687373,-0.001521,0.806561,-0.573746,-0.535126,1.215410,-0.185455,-6.900286,27.189068,-8.999832,-4.808778,-0.031649,1.123458,-0.136552,0.000000,0.000000,0.000000,0.000000,0.000000,0.000000
12698031.000000,-2.370406,-1.662286,1.082182,-1.396379,1.753681,1.151982,-0.567747,0.693449,0.001287,0.832417,-0.569960,-0.533148,1.217423,-0.184716,-7.320818,27.089886,-9.122818,-4.784975,-0.055453,0.889083,-0.175919,0.000000,0.000000,0.000000,0.000000,0.000000,0.000000
12698032.000000,-2.369693,-1.662280,1.083025,-1.396948,1.753148,1.153224,-0.567933,0.700624,0.002607,0.838135,-0.567331,-0.531142,1.224759,-0.185245,-7.840533,27.014507,-8.952225,-4.757204,-0.031649,0.700484,-0.188737,0.000000,0.000000,0.000000,0.000000,0.000000,0.000000
12698033.000000,-2.368977,-1.662268,1.083902,-1.397516,1.752631,1.154420,-0.568126,0.702634,0.005718,0.839760,-0.567684,-0.530276,1.217111,-0.187631,-8.388019,26.843914,-8.853043,-4.733400,-0.043551,0.771896,-0.136552,0.000000,0.000000,0.000000,0.000000,0.000000,0.000000
12698034.000000,-2.368264,-1.662261,1.084779,-1.398069,1.752099,1.155616,-0.568306,0.705095,0.005474,0.855952,-0.561286,-0.529098,1.213038,-0.186485,-8.832355,26.772503,-8.654678,-4.733400,0.052579,0.947677,-0.169511,0.000000,0.000000,0.000000,0.000000,0.000000,0.000000
12698035.000000,-2.367556,-1.662248,1.085664,-1.398625,1.751580,1.156818,-0.568491,0.706977,0.007077,0.860267,-0.555871,-0.524888,1.213239,-0.182994,-9.276690,26.625713,-8.531693,-4.832582,0.088285,0.941268,-0.149369,0.000000,0.000000,0.000000,0.000000,0.000000,0.000000
12698036.000000,-2.366836,-1.662241,1.086567,-1.399174,1.751070,1.158033,-0.568675,0.705078,0.005920,0.882114,-0.566264,-0.519854,1.225571,-0.178984,-9.796405,26.574139,-8.412674,-4.907960,0.052579,0.882674,-0.163102,0.000000,0.000000,0.000000,0.000000,0.000000,0.000000
12698037.000000,-2.366127,-1.662231,1.087468,-1.399721,1.750567,1.159250,-0.568845,0.709490,0.008662,0.886874,-0.556959,-0.512183,1.220809,-0.180069,-10.216937,26.502728,-8.238113,-5.030946,0.040677,0.889083,-0.196061,0.000000,0.000000,0.000000,0.000000,0.000000,0.000000
12698038.000000,-2.365406,-1.662231,1.088407,-1.400282,1.750059,1.160438,-0.569029,0.711154,0.006369,0.896896,-0.555464,-0.509227,1.220145,-0.178902,-10.712848,26.625713,-8.361099,-4.931764,-0.025240,0.895492,-0.149369,0.000000,0.000000,0.000000,0.000000,0.000000,0.000000
12698039.000000,-2.364675,-1.662227,1.089364,-1.400835,1.749563,1.161652,-0.569204,0.714109,0.006153,0.921546,-0.558753,-0.498612,1.214312,-0.182643,-11.208758,26.697124,-8.531693,-4.784975,-0.072848,0.901900,-0.208878,0.000000,0.000000,0.000000,0.000000,0.000000,0.000000
12698040.000000,-2.363961,-1.662234,1.090317,-1.401392,1.749060,1.162855,-0.569385,0.713259,0.000065,0.931491,-0.554110,-0.499405,1.219799,-0.180073,-11.653094,26.895489,-8.654678,-4.610414,-0.103060,0.934859,-0.188737,0.000000,0.000000,0.000000,0.000000,0.000000,0.000000
12698041.000000,-2.363240,-1.662235,1.091278,-1.401942,1.748564,1.164047,-0.569573,0.712880,0.000880,0.939460,-0.551209,-0.492217,1.217584,-0.184563,-12.026019,27.014507,-8.706253,-4.586610,-0.121371,0.934859,-0.122819,0.000000,0.000000,0.000000,0.000000,0.000000,0.000000
12698042.000000,-2.362534,-1.662245,1.092248,-1.402470,1.748072,1.165247,-0.569740,0.725109,-0.003450,0.945782,-0.547949,-0.490166,1.218532,-0.177866,-12.347369,27.212872,-8.805435,-4.733400,-0.091158,0.928451,-0.196061,0.000000,0.000000,0.000000,0.000000,0.000000,0.000000
12698043.000000,-2.361825,-1.662247,1.093224,-1.403000,1.747563,1.166422,-0.569919,0.718214,-0.002961,0.952023,-0.537447,-0.493128,1.210900,-0.176227,-12.621112,27.260479,-8.706253,-4.931764,-0.025240,1.090499,-0.175919,0.000000,0.000000,0.000000,0.000000,0.000000,0.000000
12698044.000000,-2.361110,-1.662251,1.094192,-1.403528,1.747076,1.167596,-0.570096,0.713123,-0.003398,0.956038,-0.532376,-0.487748,1.206740,-0.175414,-12.890887,27.335857,-8.559464,-5.054750,-0.025240,1.285506,-0.155778,0.000000,0.000000,0.000000,0.000000,0.000000,0.000000
12698045.000000,-2.360398,-1.662265,1.095174,-1.404062,1.746574,1.168794,-0.570260,0.719580,-0.006001,0.962609,-0.533148,-0.495759,1.202693,-0.172114,-13.164630,27.506451,-8.289688,-5.130128,0.069974,1.312057,-0.202470,0.000000,0.000000,0.000000,0.000000,0.000000,0.000000
12698046.000000,-2.359700,-1.662273,1.096169,-1.404600,1.746079,1.169975,-0.570436,0.712759,-0.005481,0.961516,-0.532015,-0.497429,1.207591,-0.172743,-13.410602,27.577862,-8.019913,-5.153932,0.154203,1.194869,-0.163102,0.000000,0.000000,0.000000,0.000000,0.000000,0.000000
12698047.000000,-2.358985,-1.662280,1.097166,-1.405121,1.745602,1.171172,-0.570598,0.708813,-0.004717,0.971364,-0.525946,-0.484294,1.204907,-0.170693,-13.807330,27.629436,-7.797745,-5.253114,0.105680,1.084090,-0.196061,0.000000,0.000000,0.000000,0.000000,0.000000,0.000000
12698048.000000,-2.358296,-1.662285,1.098183,-1.405652,1.745126,1.172352,-0.570765,0.708434,-0.003594,0.980293,-0.526287,-0.482266,1.182966,-0.165439,-14.029498,27.653240,-7.575577,-5.229311,0.010465,0.915633,-0.202470,0.000000,0.000000,0.000000,0.000000,0.000000,0.000000
12698049.000000,-2.357609,-1.662286,1.099193,-1.406165,1.744663,1.173561,-0.570940,0.696701,-0.005462,0.987548,-0.523114,-0.477466,1.185194,-0.169001,-14.081073,27.653240,-7.381180,-5.376100,-0.067355,0.746261,-0.136552,0.000000,0.000000,0.000000,0.000000,0.000000,0.000000
12698050.000000,-2.356938,-1.662295,1.100224,-1.406672,1.744198,1.174761,-0.571099,0.691592,-0.006071,0.997636,-0.518292,-0.478280,1.188134,-0.167115,-14.081073,27.748455,-7.135208,-5.649843,-0.145175,0.641891,-0.188737,0.000000,0.000000,0.000000,0.000000,0.000000,0.000000
12698051.000000,-2.356268,-1.662298,1.101270,-1.407175,1.743739,1.175932,-0.571266,0.684733,-0.004848,1.002658,-0.510428,-0.468223,1.179945,-0.164189,-13.954120,27.776226,-6.889236,-5.994997,-0.258700,0.720626,-0.149369,0.000000,0.000000,0.000000,0.000000,0.000000,0.000000
12698052.000000,-2.355599,-1.662293,1.102333,-1.407662,1.743283,1.177111,-0.571428,0.675489,-0.001026,1.026279,-0.502892,-0.466754,1.173559,-0.161401,-13.858905,27.677044,-6.813858,-6.415529,-0.216586,0.836898,-0.130143,0.000000,0.000000,0.000000,0.000000,0.000000,0.000000
12698053.000000,-2.354940,-1.662287,1.103398,-1.408147,1.742830,1.178292,-0.571582,0.668529,0.002108,1.036057,-0.494683,-0.461750,1.172943,-0.160376,-13.783526,27.554058,-6.841629,-6.784486,-0.246798,0.857040,-0.208878,0.000000,0.000000,0.000000,0.000000,0.000000,0.000000
12698054.000000,-2.354277,-1.662275,1.104463,-1.408621,1.742378,1.179500,-0.571749,0.662818,0.005889,1.052163,-0.494210,-0.456040,1.173440,-0.164634,-13.759723,27.359661,-6.813858,-7.105836,-0.228488,0.700484,-0.163102,0.000000,0.000000,0.000000,0.000000,0.000000,0.000000
12698055.000000,-2.353616,-1.662267,1.105549,-1.409110,1.741925,1.180723,-0.571906,0.663882,0.006755,1.060471,-0.491241,-0.453421,1.177377,-0.160232,-13.882709,27.236675,-6.813858,-7.256593,-0.145175,0.544845,-0.188737,0.000000,0.000000,0.000000,0.000000,0.000000,0.000000
12698056.000000,-2.352951,-1.662253,1.106661,-1.409591,1.741469,1.181913,-0.572065,0.663399,0.009015,1.070533,-0.486883,-0.452590,1.179516,-0.156265,-13.954120,27.042278,-6.913040,-7.355775,-0.168978,0.492660,-0.221696,0.000000,0.000000,0.000000,0.000000,0.000000,0.000000
12698057.000000,-2.352283,-1.662237,1.107757,-1.410068,1.741025,1.183118,-0.572229,0.659199,0.010623,1.084813,-0.482204,-0.451859,1.180604,-0.156842,-14.053302,26.843914,-6.865433,-7.379579,-0.192782,0.479842,-0.149369,0.000000,0.000000,0.000000,0.000000,0.000000,0.000000
12698058.000000,-2.351639,-1.662228,1.108866,-1.410544,1.740581,1.184300,-0.572383,0.655768,0.009939,1.088484,-0.479575,-0.447028,1.183205,-0.153885,-13.981891,26.720928,-6.667068,-7.454957,-0.180880,0.557662,-0.182328,0.000000,0.000000,0.000000,0.000000,0.000000,0.000000
12698059.000000,-2.350982,-1.662217,1.109979,-1.411013,1.740149,1.185501,-0.572534,0.650309,0.009487,1.089566,-0.473957,-0.444468,1.182001,-0.147082,-14.005694,26.597942,-6.325882,-7.577943,-0.294406,0.622665,-0.215287,0.000000,0.000000,0.000000,0.000000,0.000000,0.000000
12698060.000000,-2.350349,-1.662202,1.111098,-1.411460,1.739705,1.186700,-0.572690,0.661124,0.010861,1.104164,-0.468925,-0.441725,1.182106,-0.150048,-13.906512,26.403545,-6.179092,-7.875490,-0.312716,0.733443,-0.163102,0.000000,0.000000,0.000000,0.000000,0.000000,0.000000
12698061.000000,-2.349701,-1.662187,1.112250,-1.411910,1.739274,1.187887,-0.572844,0.656726,0.012336,1.112881,-0.462105,-0.441505,1.187348,-0.149121,-13.906512,26.185345,-6.179092,-8.145266,-0.407931,0.817672,-0.182328,0.000000,0.000000,0.000000,0.000000,0.000000,0.000000
12698062.000000,-2.349060,-1.662176,1.113396,-1.412369,1.738850,1.189100,-0.572998,0.647777,0.011095,1.127950,-0.458448,-0.436598,1.192250,-0.154233,-13.831134,26.062359,-6.151321,-8.244448,-0.509554,0.713302,-0.182328,0.000000,0.000000,0.000000,0.000000,0.000000,0.000000
12698063.000000,-2.348410,-1.662168,1.114596,-1.412827,1.738407,1.190316,-0.573145,0.653071,0.012496,1.146900,-0.457562,-0.436601,1.194914,-0.153413,-13.882709,25.986980,-6.496475,-8.268251,-0.360323,0.616256,-0.182328,0.000000,0.000000,0.000000,0.000000,0.000000,0.000000
12698064.000000,-2.347783,-1.662162,1.115807,-1.413298,1.737989,1.191494,-0.573294,0.644497,0.010276,1.153984,-0.459411,-0.443231,1.189210,-0.151713,-13.807330,25.915569,-6.790054,-8.169069,-0.348422,0.648299,-0.202470,0.000000,0.000000,0.000000,0.000000,0.000000,0.000000
12698065.000000,-2.347139,-1.662159,1.117031,-1.413765,1.737563,1.192681,-0.573450,0.643458,0.010345,1.174364,-0.465139,-0.435761,1.188562,-0.149986,-13.930316,25.915569,-7.428787,-7.998476,-0.360323,0.733443,-0.116410,0.000000,0.000000,0.000000,0.000000,0.000000,0.000000
12698066.000000,-2.346516,-1.662158,1.118263,-1.414226,1.737138,1.193847,-0.573588,0.636449,0.006768,1.185156,-0.461426,-0.433416,1.180790,-0.142948,-13.906512,25.939373,-7.722366,-7.970705,-0.282504,0.817672,-0.175919,0.000000,0.000000,0.000000,0.000000,0.000000,0.000000
12698067.000000,-2.345886,-1.662158,1.119479,-1.414676,1.736729,1.195041,-0.573735,0.627301,0.003720,1.221715,-0.457368,-0.430598,1.185791,-0.145536,-13.906512,25.986980,-7.797745,-8.046083,-0.360323,0.785628,-0.155778,0.000000,0.000000,0.000000,0.000000,0.000000,0.000000
12698068.000000,-2.345266,-1.662161,1.120731,-1.415129,1.736302,1.196229,-0.573877,0.625921,0.001515,1.226871,-0.451442,-0.429717,1.181660,-0.142591,-13.954120,26.038555,-7.944534,-8.121462,-0.294406,0.798446,-0.142960,0.000000,0.000000,0.000000,0.000000,0.000000,0.000000
12698069.000000,-2.344640,-1.662163,1.121987,-1.415600,1.735895,1.197377,-0.574015,0.627163,-0.000480,1.228664,-0.453883,-0.420996,1.170611,-0.137047,-13.954120,26.109966,-7.896927,-8.046083,-0.312716,1.025497,-0.208878,0.000000,0.000000,0.000000,0.000000,0.000000,0.000000
12698070.000000,-2.344009,-1.662178,1.123228,-1.416063,1.735490,1.198548,-0.574164,0.626854,-0.005938,1.227519,-0.456265,-0.417860,1.164530,-0.141754,-14.053302,26.355938,-7.821548,-7.923097,-0.360323,1.142684,-0.175919,0.000000,0.000000,0.000000,0.000000,0.000000,0.000000
12698071.000000,-2.343386,-1.662193,1.124478,-1.416544,1.735059,1.199724,-0.574309,0.627793,-0.007260,1.219141,-0.463359,-0.421908,1.198295,-0.143553,-14.053302,26.772503,-7.845352,-7.677125,-0.216586,1.006271,-0.188737,0.000000,0.000000,0.000000,0.000000,0.000000,0.000000
12698072.000000,-2.342770,-1.662217,1.125709,-1.417016,1.734656,1.200931,-0.574453,0.620596,-0.011518,1.222604,-0.476826,-0.414935,1.208564,-0.140322,-13.759723,27.629436,-8.313492,-7.502565,-0.222994,0.817672,-0.196061,0.000000,0.000000,0.000000,0.000000,0.000000,0.000000
12698073.000000,-2.342160,-1.662235,1.126949,-1.417489,1.734263,1.202129,-0.574602,0.620082,-0.013080,1.217482,-0.475057,-0.406878,1.203880,-0.138541,-13.485980,28.728374,-9.146622,-7.403383,-0.312716,0.785628,-0.188737,0.000000,0.000000,0.000000,0.000000,0.000000,0.000000
12698074.000000,-2.341559,-1.662261,1.128183,-1.417954,1.733861,1.203310,-0.574750,0.609894,-0.018044,1.214912,-0.473282,-0.401610,1.206809,-0.137807,-12.843280,30.049480,-10.130508,-7.454957,-0.264193,0.811263,-0.155778,0.000000,0.000000,0.000000,0.000000,0.000000,0.000000
12698075.000000,-2.340963,-1.662273,1.129400,-1.418410,1.733474,1.204513,-0.574894,0.594382,-0.019140,1.226893,-0.469496,-0.398705,1.208277,-0.140740,-12.097430,31.322979,-11.281021,-7.526369,-0.187289,0.843307,-0.136552,0.000000,0.000000,0.000000,0.000000,0.000000,0.000000
12698076.000000,-2.340360,-1.662284,1.130623,-1.418867,1.733076,1.205700,-0.575027,0.594800,-0.017457,1.224398,-0.462966,-0.398428,1.199620,-0.136102,-11.629291,32.548870,-12.387894,-7.724733,-0.037142,1.142684,-0.196061,0.000000,0.000000,0.000000,0.000000,0.000000,0.000000
12698077.000000,-2.339751,-1.662281,1.131863,-1.419321,1.732696,1.206860,-0.575170,0.589396,-0.010004,1.227402,-0.460359,-0.394664,1.194070,-0.135254,-11.208758,33.501019,-13.566177,-7.875490,0.015958,1.500655,-0.188737,0.000000,0.000000,0.000000,0.000000,0.000000,0.000000
12698078.000000,-2.339151,-1.662269,1.133086,-1.419782,1.732310,1.208050,-0.575318,0.607930,-0.006123,1.231867,-0.458775,-0.391842,1.185795,-0.140666,-10.935016,34.238934,-14.621475,-7.875490,0.069974,1.662704,-0.149369,0.000000,0.000000,0.000000,0.000000,0.000000,0.000000
12698079.000000,-2.338532,-1.662265,1.134317,-1.420245,1.731920,1.209240,-0.575451,0.607524,-0.002930,1.224790,-0.459586,-0.391452,1.191895,-0.140365,-10.859637,34.945110,-15.478409,-7.875490,0.171598,1.572067,-0.215287,0.000000,0.000000,0.000000,0.000000,0.000000,0.000000
12698080.000000,-2.337913,-1.662261,1.135537,-1.420707,1.731533,1.210438,-0.575596,0.607458,-0.001659,1.222202,-0.459635,-0.389835,1.194575,-0.139092,-10.835834,35.536236,-16.192520,-7.800111,0.243009,1.513473,-0.196061,0.000000,0.000000,0.000000,0.000000,0.000000,0.000000
12698081.000000,-2.337300,-1.662252,1.136777,-1.421171,1.731164,1.211623,-0.575738,0.614715,-0.000688,1.219450,-0.462839,-0.381938,1.187107,-0.139010,-10.788226,35.976604,-16.755875,-7.724733,0.154203,1.559249,-0.149369,0.000000,0.000000,0.000000,0.000000,0.000000,0.000000
12698082.000000,-2.336702,-1.662251,1.138031,-1.421633,1.730806,1.212786,-0.575874,0.612472,-0.001699,1.217658,-0.457499,-0.385390,1.182965,-0.134975,-10.665240,36.464581,-17.271622,-7.700929,0.081876,1.624252,-0.196061,0.000000,0.000000,0.000000,0.000000,0.000000,0.000000
12698083.000000,-2.336116,-1.662260,1.139265,-1.422076,1.730432,1.213965,-0.576016,0.599953,-0.004123,1.219955,-0.452817,-0.386127,1.171852,-0.136002,-10.439105,37.004131,-17.664383,-7.847719,0.022367,1.539108,-0.149369,0.000000,0.000000,0.000000,0.000000,0.000000,0.000000
12698084.000000,-2.335550,-1.662267,1.140534,-1.422492,1.730064,1.215112,-0.576152,0.589243,-0.006215,1.227533,-0.434615,-0.375409,1.137148,-0.135075,-10.018573,37.420696,-18.203934,-8.319826,-0.079257,1.597701,-0.142960,0.000000,0.000000,0.000000,0.000000,0.000000,0.000000
12698085.000000,-2.334983,-1.662289,1.141814,-1.422901,1.729706,1.216269,-0.576280,0.576827,-0.010868,1.265689,-0.432995,-0.369283,1.128373,-0.132106,-9.598041,37.956280,-18.989456,-8.787966,-0.150668,1.670028,-0.196061,0.000000,0.000000,0.000000,0.000000,0.000000,0.000000
12698086.000000,-2.334438,-1.662317,1.143113,-1.423298,1.729335,1.217420,-0.576421,0.568811,-0.015140,1.274006,-0.420220,-0.371086,1.130087,-0.134122,-9.153705,38.519634,-19.699600,-9.355288,-0.187289,1.877853,-0.142960,0.000000,0.000000,0.000000,0.000000,0.000000,0.000000
12698087.000000,-2.333884,-1.662355,1.144424,-1.423697,1.728954,1.218565,-0.576548,0.557468,-0.022483,1.279800,-0.412110,-0.372321,1.130600,-0.130899,-8.756976,39.130596,-20.485123,-9.875002,-0.091158,1.909896,-0.202470,0.000000,0.000000,0.000000,0.000000,0.000000,0.000000
12698088.000000,-2.333336,-1.662402,1.145705,-1.424089,1.728579,1.219737,-0.576684,0.551641,-0.029618,1.277706,-0.407232,-0.374008,1.138162,-0.132918,-8.312640,39.816936,-20.953262,-10.220156,0.040677,1.800033,-0.155778,0.000000,0.000000,0.000000,0.000000,0.000000,0.000000
12698089.000000,-2.332794,-1.662448,1.147001,-1.424489,1.728210,1.220881,-0.576813,0.549396,-0.035132,1.274730,-0.401947,-0.377022,1.164710,-0.127239,-8.090472,40.380291,-21.393631,-10.446291,0.123990,1.773483,-0.169511,0.000000,0.000000,0.000000,0.000000,0.000000,0.000000
12698090.000000,-2.332258,-1.662497,1.148304,-1.424887,1.727847,1.222041,-0.576942,0.541060,-0.039783,1.276696,-0.405366,-0.377110,1.167536,-0.128316,-7.792925,40.967449,-21.762589,-10.541506,0.123990,1.714889,-0.169511,0.000000,0.000000,0.000000,0.000000,0.000000,0.000000
12698091.000000,-2.331732,-1.662550,1.149565,-1.425279,1.727478,1.223200,-0.577073,0.546768,-0.043414,1.271039,-0.400602,-0.372007,1.158393,-0.129801,-7.420001,41.554607,-21.738785,-10.640688,0.117582,1.702071,-0.155778,0.000000,0.000000,0.000000,0.000000,0.000000,0.000000
12698092.000000,-2.331209,-1.662605,1.150839,-1.425681,1.727115,1.224339,-0.577197,0.541276,-0.043501,1.261731,-0.398683,-0.364809,1.160065,-0.129206,-7.098650,42.169537,-21.663406,-10.517702,0.141385,1.741439,-0.175919,0.000000,0.000000,0.000000,0.000000,0.000000,0.000000
12698093.000000,-2.330690,-1.662652,1.152097,-1.426078,1.726766,1.225487,-0.577322,0.530640,-0.043809,1.259864,-0.399319,-0.358778,1.147292,-0.129963,-6.701922,42.657513,-21.516617,-10.418520,0.022367,1.858627,-0.155778,0.000000,0.000000,0.000000,0.000000,0.000000,0.000000
12698094.000000,-2.330179,-1.662691,1.153395,-1.426479,1.726415,1.226639,-0.577439,0.521722,-0.040901,1.269308,-0.397000,-0.351803,1.155373,-0.129401,-6.404376,42.998699,-21.762589,-10.271730,-0.037142,1.995040,-0.182328,0.000000,0.000000,0.000000,0.000000,0.000000,0.000000
12698095.000000,-2.329677,-1.662727,1.154682,-1.426893,1.726077,1.227789,-0.577560,0.516600,-0.039465,1.272598,-0.404048,-0.346352,1.161165,-0.124596,-6.059222,43.220867,-21.810196,-10.025759,-0.114962,1.955673,-0.202470,0.000000,0.000000,0.000000,0.000000,0.000000,0.000000
12698096.000000,-2.329186,-1.662769,1.155964,-1.427298,1.725734,1.228959,-0.577685,0.512075,-0.039805,1.276228,-0.402442,-0.346069,1.166494,-0.123938,-5.638690,43.490643,-22.107742,-9.775820,-0.109469,1.858627,-0.142960,0.000000,0.000000,0.000000,0.000000,0.000000,0.000000
12698097.000000,-2.328691,-1.662795,1.157271,-1.427720,1.725372,1.230102,-0.577806,0.506692,-0.035153,1.279601,-0.408559,-0.354039,1.168452,-0.125120,-5.265765,43.538250,-22.472733,-9.430666,0.022367,1.858627,-0.155778,0.000000,0.000000,0.000000,0.000000,0.000000,0.000000
12698098.000000,-2.328198,-1.662820,1.158569,-1.428125,1.725025,1.231251,-0.577923,0.501395,-0.033781,1.307229,-0.408910,-0.352992,1.173470,-0.125756,-4.995989,43.514446,-22.964676,-9.283876,0.088285,1.936446,-0.182328,0.000000,0.000000,0.000000,0.000000,0.000000,0.000000
12698099.000000,-2.327717,-1.662837,1.159884,-1.428549,1.724671,1.232410,-0.578046,0.499121,-0.029949,1.305062,-0.414920,-0.354915,1.162464,-0.123545,-4.523882,43.343853,-23.480423,-9.033937,0.249418,1.968490,-0.155778,0.000000,0.000000,0.000000,0.000000,0.000000,0.000000
12698100.000000,-2.327245,-1.662870,1.161184,-1.428973,1.724324,1.233544,-0.578163,0.491315,-0.030332,1.302085,-0.418221,-0.360689,1.150574,-0.119624,-4.079546,43.415264,-23.678787,-8.839540,0.320829,2.014266,-0.182328,0.000000,0.000000,0.000000,0.000000,0.000000,0.000000
12698101.000000,-2.326773,-1.662890,1.162476,-1.429407,1.723973,1.234708,-0.578282,0.481747,-0.025982,1.297167,-0.423782,-0.357520,1.147663,-0.118671,-3.706622,43.292278,-24.043777,-8.518190,0.386747,1.942855,-0.163102,0.000000,0.000000,0.000000,0.000000,0.000000,0.000000
12698102.000000,-2.326306,-1.662910,1.163759,-1.429854,1.723641,1.235835,-0.578399,0.478720,-0.023821,1.287504,-0.429801,-0.350097,1.145662,-0.115619,-3.385272,43.197063,-24.019974,-8.069887,0.332731,2.053634,-0.208878,0.000000,0.000000,0.000000,0.000000,0.000000,0.000000
12698105.000000,-2.324920,-1.662991,1.167636,-1.431232,1.722629,1.239313,-0.578749,0.467773,-0.024960,1.295585,-0.450734,-0.342449,1.147473,-0.113933,-2.421221,43.173260,-24.464310,-6.613893,0.267728,1.838485,-0.202470,0.000000,0.000000,0.000000,0.000000,0.000000,0.000000
12698106.000000,-2.324463,-1.663014,1.168943,-1.431688,1.722297,1.240458,-0.578870,0.461607,-0.023960,1.294853,-0.452597,-0.338272,1.142338,-0.115716,-2.072100,43.121685,-24.976089,-6.193361,0.303434,1.923629,-0.149369,0.000000,0.000000,0.000000,0.000000,0.000000,0.000000
12698107.000000,-2.324013,-1.663039,1.170255,-1.432152,1.721961,1.241579,-0.578981,0.455532,-0.024569,1.292878,-0.449496,-0.337907,1.154170,-0.117314,-1.802325,43.121685,-25.420425,-5.919618,0.303434,2.118636,-0.208878,0.000000,0.000000,0.000000,0.000000,0.000000,0.000000
12698108.000000,-2.323586,-1.663070,1.171572,-1.432608,1.721610,1.242720,-0.579102,0.446353,-0.026637,1.297800,-0.458119,-0.344499,1.156101,-0.121576,-1.254840,43.197063,-25.884598,-5.772829,0.464567,2.177230,-0.196061,0.000000,0.000000,0.000000,0.000000,0.000000,0.000000
12698109.000000,-2.323163,-1.663098,1.172858,-1.433058,1.721267,1.243865,-0.579221,0.442680,-0.026228,1.298772,-0.454044,-0.341948,1.148988,-0.120399,-0.663714,43.197063,-26.106766,-5.673646,0.571683,2.222091,-0.169511,0.000000,0.000000,0.000000,0.000000,0.000000,0.000000
12698110.000000,-2.322728,-1.663120,1.174156,-1.433519,1.720942,1.244981,-0.579330,0.442962,-0.026919,1.292446,-0.455373,-0.335541,1.142968,-0.120717,-0.167803,43.097881,-26.305130,-5.526857,0.547880,2.410690,-0.229020,0.000000,0.000000,0.000000,0.000000,0.000000,0.000000
12698111.000000,-2.322300,-1.663137,1.175445,-1.433977,1.720611,1.246113,-0.579458,0.431436,-0.023660,1.289396,-0.454595,-0.335379,1.136756,-0.122163,0.403486,42.974895,-26.523331,-5.352296,0.530485,2.508651,-0.142960,0.000000,0.000000,0.000000,0.000000,0.000000,0.000000
12698112.000000,-2.321880,-1.663162,1.176723,-1.434446,1.720280,1.247269,-0.579567,0.427184,-0.023975,1.276473,-0.458507,-0.334435,1.144684,-0.118216,0.824018,42.951092,-26.352737,-5.106325,0.494779,2.385055,-0.182328,0.000000,0.000000,0.000000,0.000000,0.000000,0.000000
12698113.000000,-2.321450,-1.663183,1.178009,-1.434924,1.719953,1.248413,-0.579680,0.422192,-0.020869,1.271784,-0.462408,-0.331681,1.150658,-0.116172,1.145368,42.927288,-26.229752,-4.685792,0.506681,2.150680,-0.196061,0.000000,0.000000,0.000000,0.000000,0.000000,0.000000
12698114.000000,-2.321023,-1.663197,1.179270,-1.435401,1.719631,1.249558,-0.579793,0.428977,-0.016793,1.268423,-0.468075,-0.326743,1.147826,-0.117185,1.315961,42.828106,-26.082962,-4.265260,0.446256,2.047225,-0.149369,0.000000,0.000000,0.000000,0.000000,0.000000,0.000000
12698115.000000,-2.320607,-1.663210,1.180559,-1.435873,1.719307,1.250687,-0.579894,0.424900,-0.017075,1.265472,-0.466241,-0.323283,1.140964,-0.112915,1.565900,42.728924,-26.205948,-3.920107,0.393156,1.995040,-0.229020,0.000000,0.000000,0.000000,0.000000,0.000000,0.000000
12698116.000000,-2.320183,-1.663229,1.181802,-1.436334,1.718982,1.251841,-0.580013,0.423241,-0.016379,1.256664,-0.462546,-0.325365,1.145177,-0.116187,1.712690,42.728924,-25.912369,-3.721742,0.452665,1.877853,-0.149369,0.000000,0.000000,0.000000,0.000000,0.000000,0.000000
12698117.000000,-2.319776,-1.663252,1.183081,-1.436786,1.718653,1.252999,-0.580115,0.421245,-0.019989,1.258165,-0.455967,-0.324428,1.139616,-0.113536,2.010236,42.780499,-25.959976,-3.697939,0.596403,1.806442,-0.196061,0.000000,0.000000,0.000000,0.000000,0.000000,0.000000
12698118.000000,-2.319363,-1.663265,1.184348,-1.437246,1.718341,1.254116,-0.580223,0.416157,-0.016979,1.258714,-0.454530,-0.328548,1.132243,-0.108234,2.232404,42.728924,-25.836990,-3.670168,0.613798,1.995040,-0.202470,0.000000,0.000000,0.000000,0.000000,0.000000,0.000000
12698119.000000,-2.318945,-1.663285,1.185604,-1.437689,1.718016,1.255247,-0.580330,0.412470,-0.017385,1.258700,-0.452594,-0.328340,1.124712,-0.104705,2.307783,42.780499,-25.959976,-3.697939,0.655912,2.163497,-0.202470,0.000000,0.000000,0.000000,0.000000,0.000000,0.000000
12698120.000000,-2.318535,-1.663308,1.186856,-1.438147,1.717695,1.256378,-0.580434,0.412043,-0.018446,1.254935,-0.450194,-0.323066,1.113971,-0.101639,2.406965,42.875713,-25.860794,-3.598757,0.715421,2.190048,-0.215287,0.000000,0.000000,0.000000,0.000000,0.000000,0.000000
12698121.000000,-2.318113,-1.663323,1.188084,-1.438599,1.717386,1.257543,-0.580542,0.413127,-0.016135,1.242917,-0.461029,-0.318584,1.126249,-0.105239,2.406965,42.851910,-25.714005,-3.424196,0.745634,2.014266,-0.196061,0.000000,0.000000,0.000000,0.000000,0.000000,0.000000
12698122.000000,-2.317692,-1.663335,1.189333,-1.439061,1.717075,1.258718,-0.580643,0.418033,-0.014121,1.242158,-0.460878,-0.318856,1.146459,-0.102053,2.260175,42.804302,-25.666397,-3.178224,0.757535,1.800033,-0.208878,0.000000,0.000000,0.000000,0.000000,0.000000,0.000000
12698123.000000,-2.317273,-1.663344,1.190573,-1.439521,1.716771,1.259868,-0.580747,0.416927,-0.011976,1.234813,-0.462768,-0.310884,1.146346,-0.099868,2.160993,42.728924,-25.491837,-2.956056,0.661405,1.695663,-0.208878,0.000000,0.000000,0.000000,0.000000,0.000000,0.000000
12698124.000000,-2.316855,-1.663352,1.191803,-1.439958,1.716475,1.261032,-0.580854,0.417456,-0.010674,1.235226,-0.455554,-0.308568,1.148774,-0.099471,2.133222,42.657513,-25.468033,-2.856874,0.655912,1.591293,-0.169511,0.000000,0.000000,0.000000,0.000000,0.000000,0.000000
12698125.000000,-2.316447,-1.663365,1.193041,-1.440393,1.716186,1.262180,-0.580951,0.412712,-0.011627,1.229372,-0.449266,-0.304807,1.179992,-0.101385,2.184797,42.657513,-25.420425,-2.880678,0.613798,1.591293,-0.202470,0.000000,0.000000,0.000000,0.000000,0.000000,0.000000
12698126.000000,-2.316039,-1.663374,1.194285,-1.440823,1.715898,1.263328,-0.581050,0.410274,-0.010966,1.231690,-0.441869,-0.304916,1.176412,-0.103910,2.283979,42.609905,-25.444229,-2.928285,0.632108,1.721298,-0.215287,0.000000,0.000000,0.000000,0.000000,0.000000,0.000000
12698127.000000,-2.315640,-1.663386,1.195527,-1.441239,1.715600,1.264477,-0.581154,0.413790,-0.013463,1.236703,-0.433680,-0.303730,1.169789,-0.103489,2.359357,42.558331,-25.761612,-3.102846,0.613798,1.949264,-0.163102,0.000000,0.000000,0.000000,0.000000,0.000000,0.000000
12698128.000000,-2.315235,-1.663392,1.196781,-1.441650,1.715310,1.265603,-0.581245,0.411391,-0.008665,1.235864,-0.421570,-0.298320,1.157295,-0.098103,2.454572,42.486919,-26.059158,-3.277406,0.596403,2.183639,-0.235429,0.000000,0.000000,0.000000,0.000000,0.000000,0.000000
12698129.000000,-2.314819,-1.663404,1.198020,-1.442066,1.715019,1.266757,-0.581353,0.410146,-0.009991,1.232621,-0.418831,-0.296488,1.152487,-0.098789,2.430768,42.486919,-26.376541,-3.348818,0.644010,2.235824,-0.196061,0.000000,0.000000,0.000000,0.000000,0.000000,0.000000
12698130.000000,-2.314405,-1.663416,1.199250,-1.442483,1.714731,1.267927,-0.581452,0.408982,-0.011416,1.229393,-0.414226,-0.293876,1.150740,-0.096656,2.283979,42.510723,-26.376541,-3.376589,0.679716,2.118636,-0.221696,0.000000,0.000000,0.000000,0.000000,0.000000,0.000000
12698131.000000,-2.313991,-1.663425,1.200499,-1.442914,1.714442,1.269061,-0.581554,0.408267,-0.010588,1.229081,-0.416364,-0.293256,1.141541,-0.100839,2.160993,42.463116,-26.646317,-3.178224,0.733732,2.118636,-0.215287,0.000000,0.000000,0.000000,0.000000,0.000000,0.000000
12698132.000000,-2.313575,-1.663430,1.201709,-1.443320,1.714164,1.270196,-0.581659,0.408176,-0.009402,1.224256,-0.409867,-0.284168,1.130340,-0.105311,2.085615,42.387737,-26.574905,-3.154421,0.685209,2.202865,-0.175919,0.000000,0.000000,0.000000,0.000000,0.000000,0.000000
12698133.000000,-2.313167,-1.663437,1.202925,-1.443737,1.713896,1.271333,-0.581756,0.410435,-0.009241,1.210794,-0.409454,-0.280815,1.128683,-0.105835,2.061811,42.340130,-26.352737,-3.055238,0.613798,2.163497,-0.208878,0.000000,0.000000,0.000000,0.000000,0.000000,0.000000
12698134.000000,-2.312763,-1.663448,1.204124,-1.444135,1.713635,1.272483,-0.581860,0.402907,-0.011011,1.208297,-0.402300,-0.269929,1.134458,-0.104165,2.133222,42.363934,-26.106766,-3.003664,0.547880,2.085677,-0.175919,0.000000,0.000000,0.000000,0.000000,0.000000,0.000000
12698135.000000,-2.312370,-1.663451,1.205336,-1.444530,1.713366,1.273629,-0.581956,0.397325,-0.005507,1.204748,-0.397094,-0.267784,1.134730,-0.099875,2.208601,42.240948,-25.884598,-3.079042,0.530485,2.072860,-0.221696,0.000000,0.000000,0.000000,0.000000,0.000000,0.000000
12698136.000000,-2.311974,-1.663449,1.206571,-1.444927,1.713102,1.274752,-0.582056,0.396536,-0.006960,1.207557,-0.396211,-0.265278,1.137666,-0.098238,2.307783,42.070354,-25.936172,-3.027467,0.476469,2.125045,-0.221696,0.000000,0.000000,0.000000,0.000000,0.000000,0.000000
12698137.000000,-2.311581,-1.663449,1.207758,-1.445314,1.712836,1.275894,-0.582156,0.391513,-0.002334,1.201193,-0.393436,-0.260913,1.134366,-0.098901,2.482343,41.923565,-25.666397,-3.079042,0.482877,2.112228,-0.175919,0.000000,0.000000,0.000000,0.000000,0.000000,0.000000
12698138.000000,-2.311193,-1.663452,1.208979,-1.445697,1.712561,1.277037,-0.582248,0.389722,-0.000082,1.208874,-0.387462,-0.266318,1.146209,-0.096637,2.581525,41.824383,-25.714005,-3.126650,0.608304,1.942855,-0.202470,0.000000,0.000000,0.000000,0.000000,0.000000,0.000000
12698139.000000,-2.310810,-1.663447,1.210199,-1.446073,1.712306,1.278189,-0.582346,0.386502,0.000064,1.203009,-0.394625,-0.267314,1.146600,-0.096633,2.704511,41.653790,-25.714005,-3.154421,0.649503,1.825668,-0.182328,0.000000,0.000000,0.000000,0.000000,0.000000,0.000000
12698140.000000,-2.310423,-1.663442,1.211399,-1.446451,1.712044,1.279338,-0.582442,0.387650,0.000047,1.205559,-0.389162,-0.270925,1.148645,-0.096970,2.728315,41.483196,-25.761612,-3.202028,0.649503,1.832076,-0.155778,0.000000,0.000000,0.000000,0.000000,0.000000,0.000000
12698141.000000,-2.310033,-1.663443,1.212602,-1.446828,1.711787,1.280459,-0.582528,0.387867,-0.002134,1.200134,-0.385601,-0.268203,1.142821,-0.094244,2.779890,41.407818,-25.714005,-3.225832,0.625699,1.865035,-0.202470,0.000000,0.000000,0.000000,0.000000,0.000000,0.000000
12698142.000000,-2.309642,-1.663441,1.213779,-1.447193,1.711542,1.281604,-0.582626,0.385374,-0.000076,1.197913,-0.380821,-0.260842,1.148573,-0.099520,2.803693,41.312603,-25.491837,-3.348818,0.584501,1.838485,-0.169511,0.000000,0.000000,0.000000,0.000000,0.000000,0.000000
12698143.000000,-2.309259,-1.663441,1.214963,-1.447566,1.711289,1.282746,-0.582715,0.384012,-0.002008,1.187832,-0.377744,-0.256446,1.143074,-0.096834,2.803693,41.237225,-25.249832,-3.301210,0.584501,1.890670,-0.202470,0.000000,0.000000,0.000000,0.000000,0.000000,0.000000
12698144.000000,-2.308874,-1.663433,1.216141,-1.447931,1.711060,1.283858,-0.582805,0.385340,-0.001390,1.181953,-0.373546,-0.248663,1.132207,-0.095887,2.803693,41.066631,-24.857071,-3.348818,0.446256,2.079269,-0.208878,0.000000,0.000000,0.000000,0.000000,0.000000,0.000000
12698145.000000,-2.308490,-1.663419,1.217308,-1.448286,1.710812,1.284998,-0.582892,0.394844,0.002784,1.178588,-0.365193,-0.252284,1.122655,-0.095031,2.779890,40.872234,-24.658707,-3.348818,0.422452,2.098495,-0.221696,0.000000,0.000000,0.000000,0.000000,0.000000,0.000000
12698146.000000,-2.308100,-1.663417,1.218486,-1.448644,1.710566,1.286139,-0.582983,0.392426,0.001878,1.171341,-0.361717,-0.246358,1.126599,-0.096148,2.704511,40.844463,-24.464310,-3.325014,0.422452,1.988631,-0.182328,0.000000,0.000000,0.000000,0.000000,0.000000,0.000000
12698147.000000,-2.307709,-1.663406,1.219654,-1.448989,1.710324,1.287304,-0.583071,0.391415,0.003565,1.167296,-0.355365,-0.247157,1.135473,-0.094816,2.581525,40.725445,-24.412735,-3.348818,0.446256,1.760665,-0.202470,0.000000,0.000000,0.000000,0.000000,0.000000,0.000000
12698148.000000,-2.307331,-1.663395,1.220859,-1.449334,1.710079,1.288457,-0.583154,0.389319,0.008161,1.175229,-0.353434,-0.243564,1.138463,-0.089420,2.529951,40.602459,-24.658707,-3.400392,0.494779,1.676437,-0.215287,0.000000,0.000000,0.000000,0.000000,0.000000,0.000000
12698149.000000,-2.306951,-1.663385,1.222071,-1.449667,1.709845,1.289586,-0.583245,0.386368,0.008324,1.183385,-0.346587,-0.247457,1.135820,-0.092335,2.553754,40.479473,-25.027664,-3.547182,0.506681,1.708480,-0.163102,0.000000,0.000000,0.000000,0.000000,0.000000,0.000000
12698150.000000,-2.306575,-1.663384,1.223258,-1.450000,1.709597,1.290714,-0.583325,0.385506,0.004998,1.184014,-0.344716,-0.248138,1.130016,-0.091694,2.629133,40.503277,-25.345047,-3.570986,0.542386,1.819259,-0.188737,0.000000,0.000000,0.000000,0.000000,0.000000,0.000000
12698151.000000,-2.306202,-1.663383,1.224451,-1.450321,1.709353,1.291839,-0.583409,0.380076,0.003336,1.180288,-0.336965,-0.247007,1.129970,-0.088293,2.652936,40.503277,-25.491837,-3.820925,0.535978,1.851302,-0.169511,0.000000,0.000000,0.000000,0.000000,0.000000,0.000000
12698152.000000,-2.305834,-1.663385,1.225629,-1.450643,1.709121,1.292961,-0.583492,0.374474,0.001670,1.175633,-0.330231,-0.241042,1.130339,-0.085482,2.704511,40.527081,-25.567215,-3.892336,0.518583,1.923629,-0.155778,0.000000,0.000000,0.000000,0.000000,0.000000,0.000000
12698153.000000,-2.305457,-1.663380,1.226825,-1.450965,1.708892,1.294085,-0.583568,0.377825,0.002786,1.178087,-0.329510,-0.229305,1.126616,-0.080855,2.704511,40.455669,-25.690201,-4.043092,0.434354,2.047225,-0.208878,0.000000,0.000000,0.000000,0.000000,0.000000,0.000000
12698154.000000,-2.305075,-1.663383,1.227993,-1.451289,1.708668,1.295199,-0.583652,0.378728,0.000745,1.163594,-0.328973,-0.227067,1.129570,-0.080315,2.529951,40.503277,-25.368851,-4.066896,0.386747,2.047225,-0.182328,0.000000,0.000000,0.000000,0.000000,0.000000,0.000000
12698155.000000,-2.304689,-1.663385,1.229150,-1.451615,1.708432,1.296333,-0.583734,0.379155,0.002990,1.158736,-0.328938,-0.232780,1.135710,-0.083785,2.359357,40.527081,-25.126846,-3.943910,0.405057,1.974899,-0.182328,0.000000,0.000000,0.000000,0.000000,0.000000,0.000000
12698156.000000,-2.304308,-1.663386,1.230309,-1.451944,1.708189,1.297458,-0.583811,0.381469,0.001042,1.155273,-0.324359,-0.232906,1.140317,-0.084893,2.109418,40.578655,-24.734085,-3.820925,0.458158,1.844894,-0.221696,0.000000,0.000000,0.000000,0.000000,0.000000,0.000000
12698157.000000,-2.303923,-1.663384,1.231461,-1.452268,1.707960,1.298599,-0.583897,0.381434,0.001535,1.154235,-0.327598,-0.232126,1.133708,-0.084068,1.863447,40.550884,-24.535721,-3.622560,0.482877,1.721298,-0.182328,0.000000,0.000000,0.000000,0.000000,0.000000,0.000000
12698158.000000,-2.303541,-1.663378,1.232636,-1.452589,1.707733,1.299737,-0.583977,0.384240,0.002837,1.154639,-0.325944,-0.230336,1.127342,-0.081301,1.665082,40.479473,-24.436539,-3.523378,0.470060,1.643478,-0.196061,0.000000,0.000000,0.000000,0.000000,0.000000,0.000000
12698159.000000,-2.303162,-1.663377,1.233796,-1.452900,1.707508,1.300875,-0.584061,0.383797,0.002556,1.146257,-0.322381,-0.225085,1.129454,-0.080556,1.565900,40.455669,-24.119156,-3.523378,0.482877,1.494247,-0.169511,0.000000,0.000000,0.000000,0.000000,0.000000,0.000000
12698160.000000,-2.302786,-1.663378,1.234960,-1.453199,1.707287,1.302013,-0.584145,0.380057,0.000671,1.158086,-0.315824,-0.225442,1.120805,-0.078526,1.490522,40.503277,-24.166763,-3.570986,0.482877,1.552840,-0.175919,0.000000,0.000000,0.000000,0.000000,0.000000,0.000000
12698161.000000,-2.302418,-1.663379,1.236116,-1.453503,1.707056,1.303130,-0.584222,0.377353,0.003129,1.149702,-0.312557,-0.224968,1.119753,-0.076698,1.415143,40.527081,-23.948563,-3.670168,0.482877,1.800033,-0.202470,0.000000,0.000000,0.000000,0.000000,0.000000,0.000000
12698162.000000,-2.302039,-1.663371,1.237304,-1.453813,1.706836,1.304243,-0.584304,0.375271,0.004067,1.156756,-0.310458,-0.224309,1.119972,-0.078088,1.315961,40.455669,-24.119156,-3.646364,0.446256,1.981307,-0.155778,0.000000,0.000000,0.000000,0.000000,0.000000,0.000000
12698163.000000,-2.301664,-1.663372,1.238458,-1.454108,1.706618,1.305383,-0.584379,0.375997,0.002387,1.158303,-0.307838,-0.224138,1.121922,-0.075536,1.169172,40.479473,-24.166763,-3.670168,0.422452,1.995040,-0.202470,0.000000,0.000000,0.000000,0.000000,0.000000,0.000000
12698164.000000,-2.301278,-1.663363,1.239608,-1.454413,1.706399,1.306523,-0.584456,0.377062,0.004643,1.144533,-0.303764,-0.220352,1.131223,-0.075183,0.947004,40.356487,-23.996170,-3.622560,0.428861,1.832076,-0.208878,0.000000,0.000000,0.000000,0.000000,0.000000,0.000000
12698165.000000,-2.300886,-1.663352,1.240752,-1.454716,1.706181,1.307660,-0.584543,0.377272,0.009247,1.146454,-0.303069,-0.223622,1.132406,-0.072616,0.625654,40.233501,-23.948563,-3.499574,0.470060,1.806442,-0.155778,0.000000,0.000000,0.000000,0.000000,0.000000,0.000000
12698166.000000,-2.300502,-1.663341,1.241902,-1.455023,1.705961,1.308790,-0.584609,0.379934,0.009959,1.146483,-0.305288,-0.224046,1.136589,-0.070485,0.328107,40.086712,-23.774002,-3.376589,0.458158,1.916305,-0.229020,0.000000,0.000000,0.000000,0.000000,0.000000,0.000000
12698167.000000,-2.300111,-1.663328,1.243053,-1.455327,1.705733,1.309907,-0.584694,0.381205,0.012960,1.145804,-0.304459,-0.229739,1.141208,-0.074560,0.030561,39.963726,-23.579605,-3.348818,0.494779,1.903487,-0.149369,0.000000,0.000000,0.000000,0.000000,0.000000,0.000000
12698168.000000,-2.299723,-1.663318,1.244181,-1.455619,1.705511,1.311052,-0.584764,0.381357,0.014417,1.137486,-0.300317,-0.219764,1.147290,-0.073635,-0.215411,39.868511,-23.333633,-3.348818,0.506681,1.793624,-0.175919,0.000000,0.000000,0.000000,0.000000,0.000000,0.000000
12698169.000000,-2.299346,-1.663307,1.245341,-1.455910,1.705300,1.312165,-0.584831,0.380025,0.015216,1.136347,-0.297373,-0.213859,1.138905,-0.071950,-0.389971,39.793133,-23.381241,-3.448000,0.440763,1.786300,-0.229020,0.000000,0.000000,0.000000,0.000000,0.000000,0.000000
12698170.000000,-2.298969,-1.663288,1.246505,-1.456199,1.705093,1.313290,-0.584914,0.377678,0.018572,1.151730,-0.294502,-0.210639,1.132665,-0.070981,-0.540728,39.598736,-23.726395,-3.475771,0.386747,1.819259,-0.155778,0.000000,0.000000,0.000000,0.000000,0.000000,0.000000
12698171.000000,-2.298597,-1.663275,1.247667,-1.456477,1.704888,1.314413,-0.584981,0.375266,0.017376,1.148384,-0.286916,-0.208924,1.116202,-0.069783,-0.635943,39.547161,-23.849380,-3.622560,0.356534,1.884261,-0.215287,0.000000,0.000000,0.000000,0.000000,0.000000,0.000000
12698172.000000,-2.298223,-1.663270,1.248850,-1.456766,1.704667,1.315528,-0.585054,0.373504,0.014297,1.156718,-0.286780,-0.215255,1.111285,-0.071518,-0.711321,39.598736,-24.142960,-3.670168,0.393156,1.884261,-0.202470,0.000000,0.000000,0.000000,0.000000,0.000000,0.000000
12698173.000000,-2.297843,-1.663259,1.250021,-1.457042,1.704452,1.316650,-0.585125,0.374088,0.014028,1.161361,-0.282203,-0.210710,1.103190,-0.072067,-0.862078,39.574932,-24.535721,-3.769350,0.446256,1.949264,-0.215287,0.000000,0.000000,0.000000,0.000000,0.000000,0.000000
12698174.000000,-2.297481,-1.663247,1.251186,-1.457313,1.704246,1.317742,-0.585207,0.371563,0.014005,1.159062,-0.278264,-0.208887,1.106633,-0.070440,-0.885882,39.547161,-24.706314,-3.868532,0.434354,2.092086,-0.155778,0.000000,0.000000,0.000000,0.000000,0.000000,0.000000
12698175.000000,-2.297115,-1.663236,1.252351,-1.457581,1.704048,1.318864,-0.585275,0.365911,0.013887,1.152733,-0.278122,-0.208015,1.108769,-0.065237,-0.909686,39.523357,-24.757889,-3.943910,0.416959,2.104903,-0.196061,0.000000,0.000000,0.000000,0.000000,0.000000,0.000000
12698176.000000,-2.296758,-1.663232,1.253486,-1.457842,1.703853,1.319998,-0.585341,0.361849,0.012245,1.146594,-0.272074,-0.206776,1.113749,-0.066626,-0.885882,39.574932,-24.634903,-4.066896,0.386747,2.001449,-0.229020,0.000000,0.000000,0.000000,0.000000,0.000000,0.000000
12698177.000000,-2.296401,-1.663222,1.254630,-1.458111,1.703649,1.321110,-0.585420,0.360639,0.013534,1.142811,-0.270878,-0.202806,1.120576,-0.066732,-0.810504,39.523357,-24.365128,-4.043092,0.393156,1.949264,-0.155778,0.000000,0.000000,0.000000,0.000000,0.000000,0.000000
12698178.000000,-2.296043,-1.663212,1.255760,-1.458381,1.703454,1.322216,-0.585484,0.355221,0.013806,1.134644,-0.273258,-0.201683,1.119418,-0.066852,-0.786700,39.499554,-24.095352,-4.019289,0.332731,2.014266,-0.196061,0.000000,0.000000,0.000000,0.000000,0.000000,0.000000
12698179.000000,-2.295697,-1.663202,1.256893,-1.458649,1.703252,1.323329,-0.585553,0.354134,0.013409,1.127477,-0.268493,-0.197401,1.118447,-0.069469,-0.762896,39.499554,-23.651016,-3.991518,0.308927,2.125045,-0.182328,0.000000,0.000000,0.000000,0.000000,0.000000,0.000000
12698180.000000,-2.295346,-1.663189,1.258042,-1.458915,1.703052,1.324436,-0.585626,0.351706,0.014268,1.128137,-0.266103,-0.195677,1.118617,-0.071826,-0.711321,39.451946,-23.409012,-3.920107,0.315336,2.039901,-0.155778,0.000000,0.000000,0.000000,0.000000,0.000000,0.000000
12698181.000000,-2.295004,-1.663175,1.259159,-1.459173,1.702858,1.325577,-0.585685,0.347626,0.015608,1.120579,-0.264729,-0.192786,1.115114,-0.070562,-0.663714,39.376568,-23.135269,-3.943910,0.279630,1.819259,-0.208878,0.000000,0.000000,0.000000,0.000000,0.000000,0.000000
12698182.000000,-2.294673,-1.663153,1.260301,-1.459436,1.702659,1.326694,-0.585757,0.339348,0.018630,1.118363,-0.264380,-0.193697,1.094374,-0.068733,-0.413775,39.205975,-22.988480,-3.920107,0.327238,1.670028,-0.163102,0.000000,0.000000,0.000000,0.000000,0.000000,0.000000
12698183.000000,-2.294344,-1.663135,1.261442,-1.459682,1.702473,1.327815,-0.585820,0.331271,0.019498,1.127956,-0.258720,-0.191691,1.097950,-0.069152,-0.266986,39.082989,-23.087662,-4.019289,0.303434,1.676437,-0.196061,0.000000,0.000000,0.000000,0.000000,0.000000,0.000000
12698184.000000,-2.294023,-1.663122,1.262586,-1.459934,1.702275,1.328938,-0.585880,0.329423,0.018289,1.129168,-0.258580,-0.196568,1.099729,-0.069548,-0.068621,39.035381,-23.040054,-4.090700,0.332731,1.689254,-0.229020,0.000000,0.000000,0.000000,0.000000,0.000000,0.000000
12698185.000000,-2.293702,-1.663109,1.263736,-1.460192,1.702079,1.330047,-0.585951,0.327369,0.017510,1.128902,-0.254361,-0.199478,1.102830,-0.073774,0.153547,38.983807,-23.111465,-4.066896,0.369352,1.702071,-0.155778,0.000000,0.000000,0.000000,0.000000,0.000000,0.000000
12698186.000000,-2.293377,-1.663095,1.264856,-1.460432,1.701883,1.331169,-0.586011,0.326104,0.016429,1.129454,-0.244964,-0.196791,1.109325,-0.068560,0.252729,38.960003,-23.040054,-4.166078,0.374845,1.721298,-0.175919,0.000000,0.000000,0.000000,0.000000,0.000000,0.000000
12698187.000000,-2.293068,-1.663076,1.266001,-1.460684,1.701695,1.332269,-0.586074,0.321522,0.021101,1.132753,-0.245498,-0.194064,1.110240,-0.065533,0.502668,38.837017,-23.111465,-4.066896,0.362943,1.747848,-0.175919,0.000000,0.000000,0.000000,0.000000,0.000000,0.000000
12698188.000000,-2.292746,-1.663056,1.267115,-1.460925,1.701514,1.333390,-0.586140,0.319239,0.018803,1.145235,-0.243785,-0.191354,1.115808,-0.069398,0.550275,38.690228,-22.964676,-4.066896,0.327238,1.760665,-0.136552,0.000000,0.000000,0.000000,0.000000,0.000000,0.000000
12698189.000000,-2.292437,-1.663039,1.268242,-1.461172,1.701332,1.334527,-0.586198,0.322961,0.018352,1.134327,-0.242356,-0.190455,1.125988,-0.069058,0.649457,38.618816,-22.794083,-3.943910,0.320829,1.624252,-0.182328,0.000000,0.000000,0.000000,0.000000,0.000000,0.000000
12698190.000000,-2.292123,-1.663018,1.269369,-1.461414,1.701142,1.335639,-0.586265,0.321766,0.019330,1.128541,-0.243123,-0.190637,1.132750,-0.066499,0.772443,38.495831,-22.571915,-3.868532,0.332731,1.591293,-0.163102,0.000000,0.000000,0.000000,0.000000,0.000000,0.000000
12698191.000000,-2.291809,-1.663003,1.270493,-1.461663,1.700960,1.336754,-0.586321,0.320588,0.015573,1.124000,-0.248863,-0.188230,1.120236,-0.067238,0.796247,38.424419,-22.595718,-3.697939,0.279630,1.617843,-0.202470,0.000000,0.000000,0.000000,0.000000,0.000000,0.000000
12698192.000000,-2.291511,-1.662980,1.271635,-1.461911,1.700772,1.337866,-0.586387,0.315222,0.020995,1.123001,-0.246288,-0.183874,1.120383,-0.064940,0.994611,38.277630,-22.647293,-3.523378,0.285123,1.572067,-0.196061,0.000000,0.000000,0.000000,0.000000,0.000000,0.000000
12698193.000000,-2.291211,-1.662960,1.272795,-1.462153,1.700590,1.338994,-0.586450,0.305758,0.021699,1.130121,-0.246962,-0.182071,1.111800,-0.063869,1.121564,38.130840,-22.893265,-3.448000,0.327238,1.507064,-0.169511,0.000000,0.000000,0.000000,0.000000,0.000000,0.000000
12698194.000000,-2.290926,-1.662946,1.273936,-1.462397,1.700408,1.340132,-0.586510,0.301103,0.023198,1.130469,-0.248273,-0.185421,1.117621,-0.061489,1.315961,38.079266,-23.186844,-3.277406,0.369352,1.467696,-0.182328,0.000000,0.000000,0.000000,0.000000,0.000000,0.000000
12698195.000000,-2.290637,-1.662924,1.275096,-1.462640,1.700230,1.341234,-0.586573,0.296684,0.019698,1.132268,-0.246714,-0.181638,1.111568,-0.065262,1.565900,37.956280,-23.555801,-3.202028,0.374845,1.597701,-0.169511,0.000000,0.000000,0.000000,0.000000,0.000000,0.000000
12698196.000000,-2.290345,-1.662916,1.276247,-1.462874,1.700056,1.342336,-0.586629,0.295505,0.012386,1.142551,-0.242040,-0.179756,1.108920,-0.061835,1.740461,38.031658,-23.920792,-3.154421,0.405057,1.844894,-0.196061,0.000000,0.000000,0.000000,0.000000,0.000000,0.000000
12698197.000000,-2.290063,-1.662900,1.277392,-1.463113,1.699878,1.343455,-0.586687,0.293491,0.013304,1.140255,-0.239750,-0.181049,1.105935,-0.060460,1.934858,37.984051,-23.996170,-3.055238,0.393156,1.981307,-0.196061,0.000000,0.000000,0.000000,0.000000,0.000000,0.000000
12698198.000000,-2.289774,-1.662884,1.278540,-1.463361,1.699697,1.344561,-0.586748,0.290816,0.014647,1.136135,-0.241894,-0.187960,1.110539,-0.060481,2.034040,37.908672,-23.972366,-2.928285,0.428861,2.014266,-0.169511,0.000000,0.000000,0.000000,0.000000,0.000000,0.000000
12698199.000000,-2.289489,-1.662865,1.279671,-1.463608,1.699524,1.345688,-0.586801,0.292728,0.016760,1.131838,-0.242076,-0.181903,1.116698,-0.057969,2.034040,37.785686,-23.920792,-2.733888,0.386747,1.955673,-0.208878,0.000000,0.000000,0.000000,0.000000,0.000000,0.000000
12698200.000000,-2.289204,-1.662843,1.280816,-1.463862,1.699361,1.346789,-0.586859,0.290717,0.018775,1.134126,-0.244402,-0.176141,1.102849,-0.057848,2.085615,37.638897,-23.849380,-2.412538,0.315336,1.916305,-0.202470,0.000000,0.000000,0.000000,0.000000,0.000000,0.000000
12698201.000000,-2.288913,-1.662827,1.281934,-1.464111,1.699188,1.347903,-0.586917,0.290312,0.017092,1.124680,-0.251687,-0.177154,1.111777,-0.057511,2.061811,37.615093,-23.627213,-2.138796,0.381254,1.877853,-0.202470,0.000000,0.000000,0.000000,0.000000,0.000000,0.000000
12698202.000000,-2.288622,-1.662814,1.283052,-1.464367,1.699016,1.349017,-0.586981,0.292679,0.016111,1.119633,-0.253153,-0.178190,1.113384,-0.059520,1.962629,37.591290,-23.163040,-1.892824,0.458158,1.825668,-0.142960,0.000000,0.000000,0.000000,0.000000,0.000000,0.000000
12698203.000000,-2.288342,-1.662801,1.284194,-1.464614,1.698854,1.350112,-0.587027,0.284823,0.014917,1.119888,-0.250608,-0.175541,1.106973,-0.055814,2.061811,37.591290,-23.040054,-1.793642,0.446256,1.851302,-0.215287,0.000000,0.000000,0.000000,0.000000,0.000000,0.000000
12698205.000000,-2.287796,-1.662768,1.286454,-1.465087,1.698525,1.352333,-0.587143,0.278428,0.016188,1.116138,-0.240038,-0.170283,1.103683,-0.058280,2.208601,37.444500,-22.893265,-1.817445,0.369352,1.741439,-0.155778,0.000000,0.000000,0.000000,0.000000,0.000000,0.000000
12698206.000000,-2.287526,-1.662756,1.287578,-1.465317,1.698358,1.353466,-0.587191,0.274662,0.014848,1.138501,-0.234459,-0.171102,1.117995,-0.055479,2.331586,37.444500,-22.865494,-1.841249,0.386747,1.572067,-0.215287,0.000000,0.000000,0.000000,0.000000,0.000000,0.000000
12698207.000000,-2.287253,-1.662745,1.288727,-1.465549,1.698192,1.354581,-0.587249,0.277448,0.013977,1.140483,-0.233399,-0.166632,1.119238,-0.057546,2.406965,37.444500,-23.040054,-1.793642,0.405057,1.617843,-0.169511,0.000000,0.000000,0.000000,0.000000,0.000000,0.000000
12698208.000000,-2.286987,-1.662733,1.289873,-1.465784,1.698031,1.355674,-0.587298,0.274125,0.013560,1.132092,-0.233027,-0.161592,1.115971,-0.057033,2.430768,37.444500,-23.111465,-1.718263,0.381254,1.754256,-0.169511,0.000000,0.000000,0.000000,0.000000,0.000000,0.000000
12698209.000000,-2.286711,-1.662726,1.290997,-1.466009,1.697862,1.356785,-0.587347,0.275399,0.014588,1.128784,-0.231177,-0.162391,1.114093,-0.055519,2.430768,37.515911,-23.135269,-1.718263,0.470060,1.773483,-0.196061,0.000000,0.000000,0.000000,0.000000,0.000000,0.000000
12698210.000000,-2.286441,-1.662717,1.292124,-1.466237,1.697699,1.357902,-0.587405,0.272409,0.012872,1.131184,-0.227768,-0.165086,1.128310,-0.057593,2.454572,37.567486,-23.063858,-1.642885,0.506681,1.649886,-0.149369,0.000000,0.000000,0.000000,0.000000,0.000000,0.000000
12698211.000000,-2.286175,-1.662704,1.293251,-1.466454,1.697547,1.359022,-0.587453,0.268991,0.016656,1.122563,-0.223302,-0.162846,1.128198,-0.054504,2.506147,37.539715,-22.940872,-1.670656,0.422452,1.552840,-0.221696,0.000000,0.000000,0.000000,0.000000,0.000000,0.000000
12698212.000000,-2.285901,-1.662691,1.294358,-1.466671,1.697388,1.360133,-0.587510,0.277762,0.016809,1.114777,-0.219765,-0.158613,1.120482,-0.056381,2.430768,37.492107,-22.742508,-1.718263,0.386747,1.617843,-0.188737,0.000000,0.000000,0.000000,0.000000,0.000000,0.000000
12698213.000000,-2.285624,-1.662680,1.295472,-1.466894,1.697219,1.361226,-0.587563,0.277012,0.016274,1.110047,-0.216533,-0.162732,1.108062,-0.057505,2.331586,37.468304,-22.500504,-1.642885,0.416959,1.656295,-0.155778,0.000000,0.000000,0.000000,0.000000,0.000000,0.000000
12698214.000000,-2.285348,-1.662673,1.296578,-1.467105,1.697055,1.362332,-0.587608,0.276313,0.013579,1.103492,-0.215515,-0.165640,1.100431,-0.054418,2.208601,37.539715,-22.377518,-1.642885,0.446256,1.754256,-0.221696,0.000000,0.000000,0.000000,0.000000,0.000000,0.000000
12698215.000000,-2.285074,-1.662654,1.297715,-1.467314,1.696897,1.363447,-0.587662,0.275976,0.016348,1.106995,-0.214738,-0.165851,1.097682,-0.055517,2.085615,37.420696,-22.472733,-1.642885,0.434354,1.800033,-0.208878,0.000000,0.000000,0.000000,0.000000,0.000000,0.000000
12698216.000000,-2.284796,-1.662632,1.298860,-1.467525,1.696746,1.364568,-0.587719,0.276489,0.018686,1.114643,-0.213244,-0.168336,1.112316,-0.052470,1.887250,37.273907,-22.671097,-1.694460,0.369352,1.689254,-0.169511,0.000000,0.000000,0.000000,0.000000,0.000000,0.000000
12698217.000000,-2.284529,-1.662618,1.300000,-1.467726,1.696592,1.365694,-0.587770,0.271708,0.018050,1.121724,-0.208523,-0.163734,1.113463,-0.053884,1.788068,37.222332,-23.111465,-1.769838,0.356534,1.584884,-0.155778,0.000000,0.000000,0.000000,0.000000,0.000000,0.000000
12698218.000000,-2.284266,-1.662599,1.301160,-1.467923,1.696436,1.366789,-0.587812,0.270066,0.018621,1.127953,-0.204559,-0.161411,1.092594,-0.052384,1.740461,37.127117,-23.528030,-1.841249,0.374845,1.597701,-0.208878,0.000000,0.000000,0.000000,0.000000,0.000000,0.000000
12698219.000000,-2.283994,-1.662593,1.302292,-1.468112,1.696285,1.367881,-0.587864,0.269040,0.014452,1.152665,-0.201101,-0.163790,1.092380,-0.050010,1.613508,37.222332,-23.726395,-1.964235,0.381254,1.760665,-0.175919,0.000000,0.000000,0.000000,0.000000,0.000000,0.000000
12698220.000000,-2.283726,-1.662593,1.303433,-1.468308,1.696121,1.368974,-0.587915,0.268229,0.010282,1.145337,-0.199315,-0.163599,1.097946,-0.047811,1.442914,37.369122,-23.948563,-2.063417,0.452665,1.930038,-0.149369,0.000000,0.000000,0.000000,0.000000,0.000000,0.000000
12698221.000000,-2.283453,-1.662587,1.304576,-1.468494,1.695959,1.370058,-0.587953,0.269413,0.009802,1.134176,-0.193579,-0.161980,1.096263,-0.042813,1.292158,37.420696,-24.019974,-2.214174,0.494779,1.981307,-0.208878,0.000000,0.000000,0.000000,0.000000,0.000000,0.000000
12698222.000000,-2.283183,-1.662575,1.305698,-1.468675,1.695811,1.371162,-0.588004,0.267574,0.011294,1.132279,-0.186945,-0.157922,1.098962,-0.047689,1.145368,37.392925,-24.019974,-2.337160,0.464567,1.871444,-0.169511,0.000000,0.000000,0.000000,0.000000,0.000000,0.000000
12698223.000000,-2.282918,-1.662573,1.306815,-1.468858,1.695666,1.372247,-0.588048,0.267154,0.012491,1.122236,-0.184492,-0.154460,1.095583,-0.043656,0.970807,37.492107,-23.726395,-2.337160,0.428861,1.825668,-0.208878,0.000000,0.000000,0.000000,0.000000,0.000000,0.000000
12698224.000000,-2.282653,-1.662574,1.307947,-1.469036,1.695515,1.373349,-0.588092,0.268552,0.008239,1.116541,-0.187302,-0.154293,1.093754,-0.046658,0.824018,37.686504,-23.555801,-2.360964,0.446256,1.735030,-0.215287,0.000000,0.000000,0.000000,0.000000,0.000000,0.000000
12698225.000000,-2.282387,-1.662576,1.309045,-1.469212,1.695373,1.374450,-0.588142,0.266711,0.005917,1.105949,-0.183568,-0.147453,1.091748,-0.051330,0.673261,37.861065,-23.111465,-2.412538,0.410551,1.800033,-0.155778,0.000000,0.000000,0.000000,0.000000,0.000000,0.000000
12698226.000000,-2.282120,-1.662579,1.310173,-1.469385,1.695233,1.375528,-0.588180,0.264517,0.004850,1.111660,-0.181269,-0.142236,1.085534,-0.050611,0.574079,38.007854,-22.964676,-2.436342,0.369352,1.865035,-0.202470,0.000000,0.000000,0.000000,0.000000,0.000000,0.000000
12698227.000000,-2.281858,-1.662579,1.311277,-1.469547,1.695101,1.376655,-0.588222,0.263080,0.002727,1.104750,-0.174837,-0.137344,1.095067,-0.047748,0.474897,38.079266,-22.770279,-2.535524,0.297025,1.649886,-0.188737,0.000000,0.000000,0.000000,0.000000,0.000000,0.000000
12698228.000000,-2.281602,-1.662575,1.312404,-1.469698,1.694958,1.377791,-0.588267,0.261643,0.005313,1.101844,-0.164254,-0.140642,1.111547,-0.046443,0.403486,38.103069,-22.718704,-2.733888,0.291532,1.383468,-0.155778,0.000000,0.000000,0.000000,0.000000,0.000000,0.000000
12698229.000000,-2.281340,-1.662571,1.313539,-1.469850,1.694812,1.378890,-0.588304,0.258935,0.007526,1.110318,-0.157026,-0.144808,1.113017,-0.046897,0.228925,38.103069,-22.742508,-2.928285,0.320829,1.305648,-0.208878,0.000000,0.000000,0.000000,0.000000,0.000000,0.000000
12698230.000000,-2.281091,-1.662570,1.314651,-1.469995,1.694670,1.379991,-0.588347,0.255079,0.008491,1.109262,-0.152193,-0.141956,1.113634,-0.045659,0.153547,38.130840,-22.742508,-3.102846,0.327238,1.429244,-0.182328,0.000000,0.000000,0.000000,0.000000,0.000000,0.000000
12698231.000000,-2.280842,-1.662572,1.315782,-1.470143,1.694521,1.381065,-0.588384,0.253281,0.005521,1.105533,-0.149523,-0.139033,1.110682,-0.042821,0.177350,38.178448,-22.817886,-3.178224,0.446256,1.637069,-0.202470,0.000000,0.000000,0.000000,0.000000,0.000000,0.000000
12698232.000000,-2.280585,-1.662571,1.316880,-1.470272,1.694381,1.382170,-0.588429,0.251337,0.004411,1.108079,-0.142336,-0.142211,1.102457,-0.042882,0.078168,38.178448,-22.742508,-3.400392,0.464567,1.773483,-0.169511,0.000000,0.000000,0.000000,0.000000,0.000000,0.000000
12698233.000000,-2.280337,-1.662566,1.318001,-1.470407,1.694251,1.383286,-0.588465,0.249540,0.005251,1.109914,-0.136784,-0.142211,1.096431,-0.040529,0.006757,38.103069,-22.817886,-3.499574,0.416959,1.786300,-0.196061,0.000000,0.000000,0.000000,0.000000,0.000000,0.000000
12698234.000000,-2.280076,-1.662563,1.319129,-1.470540,1.694128,1.384401,-0.588502,0.254434,0.005025,1.110948,-0.136749,-0.139506,1.100580,-0.040218,-0.215411,38.055462,-22.817886,-3.547182,0.308927,1.727706,-0.182328,0.000000,0.000000,0.000000,0.000000,0.000000,0.000000
12698235.000000,-2.279818,-1.662559,1.320228,-1.470676,1.694003,1.385516,-0.588539,0.257122,0.004772,1.106558,-0.134118,-0.134528,1.095656,-0.039342,-0.389971,38.007854,-22.694901,-3.570986,0.219205,1.682845,-0.188737,0.000000,0.000000,0.000000,0.000000,0.000000,0.000000
12698236.000000,-2.279563,-1.662554,1.321332,-1.470817,1.693874,1.386611,-0.588574,0.256796,0.005176,1.097864,-0.135119,-0.129123,1.098844,-0.037921,-0.612139,37.932476,-22.524307,-3.448000,0.207303,1.714889,-0.215287,0.000000,0.000000,0.000000,0.000000,0.000000,0.000000
12698237.000000,-2.279311,-1.662547,1.322454,-1.470941,1.693739,1.387715,-0.588617,0.258726,0.005294,1.122317,-0.131599,-0.127153,1.091260,-0.035885,-0.810504,37.861065,-22.448929,-3.499574,0.249418,1.779891,-0.142960,0.000000,0.000000,0.000000,0.000000,0.000000,0.000000
12698238.000000,-2.279058,-1.662542,1.323565,-1.471067,1.693605,1.388827,-0.588648,0.259719,0.004866,1.119881,-0.129928,-0.128922,1.096803,-0.033964,-0.961260,37.809490,-22.524307,-3.523378,0.261320,1.806442,-0.202470,0.000000,0.000000,0.000000,0.000000,0.000000,0.000000
12698239.000000,-2.278808,-1.662535,1.324709,-1.471190,1.693472,1.389931,-0.588685,0.254172,0.005569,1.128670,-0.127719,-0.135171,1.099948,-0.034673,-1.060443,37.714275,-22.917068,-3.570986,0.279630,1.721298,-0.208878,0.000000,0.000000,0.000000,0.000000,0.000000,0.000000
12698240.000000,-2.278562,-1.662528,1.325837,-1.471299,1.693344,1.391038,-0.588729,0.251842,0.006106,1.128199,-0.122796,-0.134873,1.107639,-0.032719,-1.159625,37.615093,-23.234451,-3.769350,0.291532,1.682845,-0.155778,0.000000,0.000000,0.000000,0.000000,0.000000,0.000000
12698241.000000,-2.278324,-1.662525,1.326992,-1.471410,1.693217,1.392136,-0.588761,0.251372,0.004682,1.133704,-0.120179,-0.134652,1.133027,-0.032631,-1.231036,37.591290,-23.702591,-3.920107,0.315336,1.637069,-0.188737,0.000000,0.000000,0.000000,0.000000,0.000000,0.000000
12698242.000000,-2.278084,-1.662529,1.328138,-1.471522,1.693093,1.393215,-0.588797,0.245902,0.000935,1.135491,-0.119078,-0.129882,1.121760,-0.028900,-1.306414,37.686504,-24.019974,-4.019289,0.332731,1.819259,-0.196061,0.000000,0.000000,0.000000,0.000000,0.000000,0.000000
12698243.000000,-2.277851,-1.662532,1.329264,-1.471636,1.692969,1.394294,-0.588834,0.239049,-0.001666,1.131805,-0.117151,-0.125830,1.102083,-0.031885,-1.381793,37.785686,-24.242142,-4.066896,0.339139,2.047225,-0.175919,0.000000,0.000000,0.000000,0.000000,0.000000,0.000000
12698244.000000,-2.277615,-1.662538,1.330399,-1.471747,1.692850,1.395367,-0.588869,0.240913,-0.003407,1.127591,-0.116578,-0.120644,1.088385,-0.032401,-1.480975,37.884869,-24.313553,-4.066896,0.285123,2.118636,-0.196061,0.000000,0.000000,0.000000,0.000000,0.000000,0.000000
12698245.000000,-2.277374,-1.662545,1.331528,-1.471851,1.692734,1.396472,-0.588907,0.242062,-0.004574,1.134662,-0.112449,-0.116987,1.086429,-0.034485,-1.580157,37.984051,-24.464310,-4.090700,0.237516,2.066451,-0.169511,0.000000,0.000000,0.000000,0.000000,0.000000,0.000000
12698246.000000,-2.277133,-1.662551,1.332645,-1.471959,1.692621,1.397592,-0.588935,0.240351,-0.005264,1.121843,-0.113821,-0.113792,1.093319,-0.033282,-1.703143,38.079266,-24.265945,-4.043092,0.178007,1.865035,-0.221696,0.000000,0.000000,0.000000,0.000000,0.000000,0.000000
12698247.000000,-2.276900,-1.662558,1.333768,-1.472067,1.692502,1.398684,-0.588977,0.237870,-0.005819,1.114911,-0.113697,-0.113561,1.096976,-0.037142,-1.778521,38.178448,-24.019974,-4.043092,0.166105,1.773483,-0.149369,0.000000,0.000000,0.000000,0.000000,0.000000,0.000000
12698248.000000,-2.276662,-1.662567,1.334874,-1.472176,1.692373,1.399762,-0.589008,0.243672,-0.006192,1.112808,-0.115316,-0.115796,1.085414,-0.036422,-1.949114,38.277630,-23.774002,-3.967714,0.219205,1.871444,-0.169511,0.000000,0.000000,0.000000,0.000000,0.000000,0.000000
12698249.000000,-2.276432,-1.662577,1.335979,-1.472278,1.692241,1.400832,-0.589036,0.239701,-0.006907,1.103836,-0.109499,-0.123343,1.089872,-0.034716,-2.000689,38.396648,-23.409012,-4.043092,0.315336,1.955673,-0.221696,0.000000,0.000000,0.000000,0.000000,0.000000,0.000000
12698250.000000,-2.276211,-1.662589,1.337080,-1.472379,1.692118,1.401932,-0.589077,0.230998,-0.008684,1.100830,-0.106136,-0.122514,1.096488,-0.038045,-1.949114,38.571209,-23.186844,-4.090700,0.369352,1.962081,-0.155778,0.000000,0.000000,0.000000,0.000000,0.000000,0.000000
12698251.000000,-2.275995,-1.662594,1.338192,-1.472472,1.692002,1.403049,-0.589100,0.225892,-0.013930,1.099074,-0.102661,-0.117462,1.102917,-0.030725,-1.925311,38.642620,-22.988480,-4.189882,0.315336,1.800033,-0.221696,0.000000,0.000000,0.000000,0.000000,0.000000,0.000000
12698252.000000,-2.275773,-1.662598,1.339330,-1.472567,1.691890,1.404149,-0.589132,0.221850,-0.010381,1.105599,-0.100698,-0.117602,1.103110,-0.033422,-1.901507,38.666424,-23.163040,-4.265260,0.243009,1.670028,-0.196061,0.000000,0.000000,0.000000,0.000000,0.000000,0.000000
12698253.000000,-2.275555,-1.662601,1.340453,-1.472658,1.691776,1.405255,-0.589165,0.218788,-0.007323,1.112926,-0.096032,-0.114459,1.097385,-0.035992,-1.849932,38.666424,-23.309830,-4.340639,0.183500,1.584884,-0.155778,0.000000,0.000000,0.000000,0.000000,0.000000,0.000000
12698254.000000,-2.275335,-1.662612,1.341574,-1.472753,1.691659,1.406335,-0.589191,0.218933,-0.011832,1.112236,-0.097523,-0.109527,1.092774,-0.030327,-1.901507,38.813213,-23.286026,-4.340639,0.183500,1.656295,-0.188737,0.000000,0.000000,0.000000,0.000000,0.000000,0.000000
12698255.000000,-2.275115,-1.662620,1.342680,-1.472844,1.691536,1.407424,-0.589221,0.219510,-0.013297,1.131514,-0.095306,-0.113119,1.089830,-0.033645,-2.000689,38.888592,-23.357437,-4.340639,0.249418,1.735030,-0.149369,0.000000,0.000000,0.000000,0.000000,0.000000,0.000000
12698256.000000,-2.274897,-1.662627,1.343800,-1.472931,1.691420,1.408518,-0.589251,0.220256,-0.011726,1.125441,-0.091899,-0.113183,1.093609,-0.029634,-2.123675,38.983807,-23.381241,-4.412050,0.255826,1.851302,-0.155778,0.000000,0.000000,0.000000,0.000000,0.000000,0.000000
12698257.000000,-2.274682,-1.662628,1.344930,-1.473021,1.691299,1.409610,-0.589273,0.215965,-0.007735,1.122312,-0.090600,-0.118000,1.093086,-0.025335,-2.199053,38.960003,-23.480423,-4.439821,0.255826,1.767074,-0.196061,0.000000,0.000000,0.000000,0.000000,0.000000,0.000000
12698258.000000,-2.274465,-1.662636,1.346017,-1.473108,1.691174,1.410720,-0.589299,0.215276,-0.007277,1.115354,-0.089716,-0.121879,1.096574,-0.023345,-2.345843,39.035381,-23.309830,-4.463624,0.267728,1.630660,-0.208878,0.000000,0.000000,0.000000,0.000000,0.000000,0.000000
12698259.000000,-2.274256,-1.662638,1.347122,-1.473193,1.691048,1.411807,-0.589329,0.212762,-0.004561,1.108630,-0.086209,-0.124713,1.119791,-0.023814,-2.421221,39.011578,-23.186844,-4.463624,0.285123,1.578475,-0.169511,0.000000,0.000000,0.000000,0.000000,0.000000,0.000000
12698260.000000,-2.274036,-1.662636,1.348241,-1.473274,1.690927,1.412892,-0.589351,0.216169,-0.001478,1.107711,-0.086302,-0.127419,1.115562,-0.020544,-2.591815,38.936199,-23.111465,-4.463624,0.308927,1.643478,-0.221696,0.000000,0.000000,0.000000,0.000000,0.000000,0.000000
12698261.000000,-2.273831,-1.662642,1.349352,-1.473360,1.690811,1.413976,-0.589374,0.212395,-0.005501,1.111802,-0.085876,-0.127324,1.104574,-0.025463,-2.619586,38.983807,-23.234451,-4.364442,0.279630,1.812850,-0.208878,0.000000,0.000000,0.000000,0.000000,0.000000,0.000000
12698262.000000,-2.273619,-1.662642,1.350469,-1.473442,1.690689,1.415058,-0.589405,0.211702,-0.003494,1.102930,-0.084836,-0.124660,1.092473,-0.029898,-2.718768,38.960003,-23.309830,-4.289064,0.303434,1.819259,-0.169511,0.000000,0.000000,0.000000,0.000000,0.000000,0.000000
12698263.000000,-2.273416,-1.662642,1.351599,-1.473515,1.690572,1.416177,-0.589425,0.209614,-0.002060,1.111182,-0.078666,-0.120989,1.093866,-0.030082,-2.766375,38.936199,-23.750198,-4.312868,0.279630,1.643478,-0.208878,0.000000,0.000000,0.000000,0.000000,0.000000,0.000000
12698264.000000,-2.273215,-1.662636,1.352750,-1.473593,1.690465,1.417282,-0.589448,0.204797,0.000731,1.120410,-0.075662,-0.115317,1.096250,-0.031485,-2.790179,38.837017,-24.242142,-4.265260,0.189908,1.611434,-0.221696,0.000000,0.000000,0.000000,0.000000,0.000000,0.000000
12698265.000000,-2.273015,-1.662635,1.353894,-1.473661,1.690349,1.418363,-0.589481,0.204266,0.001439,1.122929,-0.074311,-0.115210,1.088819,-0.031266,-2.841753,38.789410,-24.583328,-4.312868,0.195402,1.656295,-0.142960,0.000000,0.000000,0.000000,0.000000,0.000000,0.000000
12698266.000000,-2.272830,-1.662637,1.355019,-1.473728,1.690227,1.419443,-0.589500,0.198828,-0.000276,1.122366,-0.073464,-0.118111,1.081070,-0.030929,-2.766375,38.837017,-24.857071,-4.364442,0.279630,1.838485,-0.188737,0.000000,0.000000,0.000000,0.000000,0.000000,0.000000
12698267.000000,-2.272646,-1.662648,1.356156,-1.473798,1.690103,1.420499,-0.589523,0.194668,-0.003152,1.124661,-0.070731,-0.123872,1.075228,-0.027642,-2.690997,38.960003,-25.027664,-4.364442,0.344633,2.112228,-0.196061,0.000000,0.000000,0.000000,0.000000,0.000000,0.000000
12698268.000000,-2.272452,-1.662656,1.357258,-1.473865,1.689981,1.421578,-0.589552,0.193211,-0.003933,1.118384,-0.071286,-0.122134,1.082532,-0.027181,-2.690997,39.035381,-24.976089,-4.388246,0.374845,2.274276,-0.149369,0.000000,0.000000,0.000000,0.000000,0.000000,0.000000
12698269.000000,-2.272264,-1.662656,1.358385,-1.473932,1.689867,1.422676,-0.589566,0.188621,-0.002673,1.119079,-0.069248,-0.121996,1.088773,-0.022747,-2.690997,39.035381,-25.027664,-4.388246,0.320829,2.235824,-0.208878,0.000000,0.000000,0.000000,0.000000,0.000000,0.000000
12698270.000000,-2.272074,-1.662657,1.359503,-1.474004,1.689760,1.423773,-0.589592,0.186241,-0.001264,1.117333,-0.070685,-0.117069,1.089845,-0.022786,-2.718768,39.011578,-24.829300,-4.265260,0.261320,2.060043,-0.182328,0.000000,0.000000,0.000000,0.000000,0.000000,0.000000
12698271.000000,-2.271885,-1.662660,1.360607,-1.474079,1.689650,1.424881,-0.589614,0.186128,-0.000222,1.113457,-0.073187,-0.111559,1.086424,-0.021011,-2.817950,38.983807,-24.634903,-4.066896,0.255826,1.884261,-0.202470,0.000000,0.000000,0.000000,0.000000,0.000000,0.000000
12698272.000000,-2.271704,-1.662664,1.361714,-1.474152,1.689544,1.425956,-0.589633,0.184042,-0.003380,1.101411,-0.074113,-0.111455,1.083710,-0.016557,-2.841753,38.983807,-24.265945,-3.892336,0.243009,1.909896,-0.182328,0.000000,0.000000,0.000000,0.000000,0.000000,0.000000
12698273.000000,-2.271531,-1.662671,1.362816,-1.474224,1.689433,1.427035,-0.589658,0.178958,-0.003744,1.125149,-0.076800,-0.108807,1.082080,-0.018115,-2.742571,39.035381,-24.119156,-3.745546,0.285123,2.027084,-0.155778,0.000000,0.000000,0.000000,0.000000,0.000000,0.000000
12698274.000000,-2.271362,-1.662673,1.363924,-1.474281,1.689324,1.428130,-0.589673,0.173607,-0.001502,1.115509,-0.071346,-0.110859,1.081069,-0.016447,-2.667193,38.983807,-23.972366,-3.797121,0.315336,2.027084,-0.202470,0.000000,0.000000,0.000000,0.000000,0.000000,0.000000
12698275.000000,-2.271206,-1.662677,1.365044,-1.474327,1.689223,1.429226,-0.589698,0.165759,-0.001161,1.111357,-0.061658,-0.108446,1.090531,-0.018799,-2.421221,38.983807,-23.896988,-3.967714,0.243009,1.897079,-0.155778,0.000000,0.000000,0.000000,0.000000,0.000000,0.000000
12698276.000000,-2.271051,-1.662675,1.366162,-1.474371,1.689128,1.430328,-0.589715,0.160636,0.000777,1.112719,-0.057265,-0.103224,1.096307,-0.017946,-2.199053,38.912395,-24.071548,-4.166078,0.195402,1.838485,-0.175919,0.000000,0.000000,0.000000,0.000000,0.000000,0.000000
12698277.000000,-2.270904,-1.662681,1.367281,-1.474423,1.689026,1.431413,-0.589731,0.158507,-0.002861,1.108814,-0.057953,-0.106564,1.120075,-0.017141,-1.901507,38.912395,-24.142960,-4.213686,0.213712,1.773483,-0.202470,0.000000,0.000000,0.000000,0.000000,0.000000,0.000000
12698278.000000,-2.270748,-1.662683,1.368404,-1.474478,1.688922,1.432504,-0.589753,0.157702,-0.001692,1.111328,-0.056735,-0.104869,1.120064,-0.018644,-1.778521,38.888592,-24.218338,-4.189882,0.243009,1.825668,-0.175919,0.000000,0.000000,0.000000,0.000000,0.000000,0.000000
12698279.000000,-2.270583,-1.662687,1.369508,-1.474531,1.688811,1.433597,-0.589766,0.165402,-0.000827,1.108713,-0.056514,-0.104434,1.104298,-0.017649,-1.802325,38.864788,-24.289749,-4.142274,0.303434,1.903487,-0.202470,0.000000,0.000000,0.000000,0.000000,0.000000,0.000000
12698280.000000,-2.270435,-1.662689,1.370609,-1.474584,1.688704,1.434681,-0.589785,0.160281,-0.002623,1.103682,-0.057314,-0.107091,1.097025,-0.018173,-1.703143,38.813213,-24.166763,-4.043092,0.320829,1.916305,-0.196061,0.000000,0.000000,0.000000,0.000000,0.000000,0.000000
12698281.000000,-2.270281,-1.662690,1.371704,-1.474640,1.688602,1.435795,-0.589807,0.158554,-0.004188,1.104051,-0.058249,-0.107462,1.095526,-0.019224,-1.703143,38.765606,-24.119156,-3.920107,0.291532,1.819259,-0.169511,0.000000,0.000000,0.000000,0.000000,0.000000,0.000000
12698282.000000,-2.270133,-1.662691,1.372800,-1.474686,1.688498,1.436917,-0.589819,0.155793,-0.001036,1.097913,-0.055287,-0.103459,1.099089,-0.018049,-1.651568,38.666424,-23.920792,-3.943910,0.279630,1.649886,-0.196061,0.000000,0.000000,0.000000,0.000000,0.000000,0.000000
12698283.000000,-2.269990,-1.662687,1.373905,-1.474735,1.688402,1.438006,-0.589842,0.149327,0.001764,1.094993,-0.051869,-0.103464,1.092978,-0.019732,-1.552386,38.543438,-23.825577,-3.892336,0.225614,1.656295,-0.155778,0.000000,0.000000,0.000000,0.000000,0.000000,0.000000
12698284.000000,-2.269849,-1.662687,1.374991,-1.474778,1.688300,1.439089,-0.589854,0.151334,0.001972,1.090306,-0.048049,-0.101791,1.089795,-0.018210,-1.504779,38.495831,-23.702591,-3.892336,0.231107,1.793624,-0.188737,0.000000,0.000000,0.000000,0.000000,0.000000,0.000000
12698285.000000,-2.269711,-1.662694,1.376094,-1.474825,1.688197,1.440165,-0.589864,0.149684,-0.003228,1.088263,-0.047522,-0.101032,1.092900,-0.016863,-1.429400,38.543438,-23.651016,-3.797121,0.255826,1.877853,-0.229020,0.000000,0.000000,0.000000,0.000000,0.000000,0.000000
12698286.000000,-2.269581,-1.662697,1.377197,-1.474868,1.688099,1.441259,-0.589881,0.143487,-0.002596,1.095149,-0.045385,-0.099481,1.102420,-0.013541,-1.282611,38.543438,-23.825577,-3.769350,0.261320,1.962081,-0.208878,0.000000,0.000000,0.000000,0.000000,0.000000,0.000000
12698287.000000,-2.269447,-1.662696,1.378334,-1.474910,1.688000,1.442367,-0.589902,0.139313,-0.000394,1.102440,-0.044855,-0.101537,1.103283,-0.016150,-1.254840,38.472027,-24.289749,-3.697939,0.225614,1.916305,-0.175919,0.000000,0.000000,0.000000,0.000000,0.000000,0.000000
12698288.000000,-2.269326,-1.662693,1.379475,-1.474951,1.687904,1.443462,-0.589919,0.134457,0.000601,1.106996,-0.044618,-0.098987,1.103870,-0.017141,-1.032672,38.424419,-24.757889,-3.622560,0.201810,1.806442,-0.163102,0.000000,0.000000,0.000000,0.000000,0.000000,0.000000
12698289.000000,-2.269196,-1.662695,1.380585,-1.474986,1.687803,1.444558,-0.589930,0.131766,-0.000900,1.111820,-0.042498,-0.094808,1.089825,-0.015987,-0.985064,38.472027,-25.027664,-3.622560,0.243009,1.812850,-0.202470,0.000000,0.000000,0.000000,0.000000,0.000000,0.000000
12698290.000000,-2.269072,-1.662699,1.381711,-1.475027,1.687699,1.445628,-0.589947,0.129164,-0.002411,1.109118,-0.039674,-0.095976,1.066025,-0.018762,-0.909686,38.543438,-25.249832,-3.547182,0.285123,1.909896,-0.149369,0.000000,0.000000,0.000000,0.000000,0.000000,0.000000
12698291.000000,-2.268945,-1.662713,1.382814,-1.475063,1.687596,1.446707,-0.589957,0.128055,-0.005796,1.105532,-0.039877,-0.096112,1.069672,-0.011744,-0.885882,38.717999,-25.297440,-3.499574,0.308927,2.027084,-0.208878,0.000000,0.000000,0.000000,0.000000,0.000000,0.000000
12698292.000000,-2.268821,-1.662719,1.383931,-1.475097,1.687488,1.447796,-0.589969,0.127186,-0.005614,1.108367,-0.040177,-0.101680,1.069809,-0.013605,-0.885882,38.789410,-25.297440,-3.448000,0.344633,2.092086,-0.208878,0.000000,0.000000,0.000000,0.000000,0.000000,0.000000
12698293.000000,-2.268703,-1.662725,1.385034,-1.475133,1.687384,1.448881,-0.589985,0.123009,-0.005565,1.097142,-0.037706,-0.098621,1.077865,-0.011254,-0.862078,38.864788,-25.051468,-3.376589,0.315336,1.974899,-0.182328,0.000000,0.000000,0.000000,0.000000,0.000000,0.000000
12698294.000000,-2.268576,-1.662734,1.386126,-1.475166,1.687282,1.449975,-0.589993,0.125001,-0.005982,1.094246,-0.035927,-0.097183,1.081187,-0.012006,-0.909686,38.960003,-24.904678,-3.301210,0.303434,1.844894,-0.208878,0.000000,0.000000,0.000000,0.000000,0.000000,0.000000
12698295.000000,-2.268460,-1.662740,1.387226,-1.475207,1.687180,1.451048,-0.590009,0.123929,-0.005228,1.093520,-0.033796,-0.096504,1.087269,-0.014541,-0.862078,39.011578,-24.634903,-3.126650,0.308927,1.779891,-0.188737,0.000000,0.000000,0.000000,0.000000,0.000000,0.000000
12698296.000000,-2.268342,-1.662753,1.388317,-1.475244,1.687080,1.452134,-0.590020,0.121795,-0.006944,1.086154,-0.034092,-0.096577,1.089141,-0.011119,-0.885882,39.158367,-24.242142,-3.003664,0.327238,1.760665,-0.182328,0.000000,0.000000,0.000000,0.000000,0.000000,0.000000
12698297.000000,-2.268233,-1.662755,1.389406,-1.475277,1.686975,1.453214,-0.590031,0.120620,-0.003998,1.086162,-0.034140,-0.092922,1.076962,-0.012234,-0.810504,39.130596,-24.119156,-2.880678,0.374845,1.825668,-0.202470,0.000000,0.000000,0.000000,0.000000,0.000000,0.000000
12698298.000000,-2.268126,-1.662756,1.390502,-1.475299,1.686879,1.454294,-0.590045,0.113682,-0.002123,1.085997,-0.030243,-0.090455,1.074398,-0.010197,-0.711321,39.106792,-23.920792,-2.928285,0.303434,1.806442,-0.175919,0.000000,0.000000,0.000000,0.000000,0.000000,0.000000
12698299.000000,-2.268026,-1.662758,1.391603,-1.475317,1.686779,1.455414,-0.590052,0.109882,-0.000312,1.091977,-0.026221,-0.092316,1.082337,-0.006846,-0.564532,39.059185,-24.019974,-3.027467,0.320829,1.578475,-0.196061,0.000000,0.000000,0.000000,0.000000,0.000000,0.000000
12698300.000000,-2.267927,-1.662756,1.392711,-1.475329,1.686688,1.456526,-0.590067,0.105391,-0.000779,1.094139,-0.018814,-0.090755,1.087726,-0.010344,-0.441546,38.936199,-24.043777,-3.202028,0.273221,1.494247,-0.182328,0.000000,0.000000,0.000000,0.000000,0.000000,0.000000
12698301.000000,-2.267828,-1.662759,1.393829,-1.475345,1.686596,1.457614,-0.590078,0.105574,-0.002867,1.097979,-0.017027,-0.091030,1.094583,-0.007969,-0.342364,38.888592,-24.190567,-3.225832,0.261320,1.454879,-0.175919,0.000000,0.000000,0.000000,0.000000,0.000000,0.000000
12698302.000000,-2.267730,-1.662761,1.394924,-1.475356,1.686493,1.458702,-0.590084,0.103197,-0.001838,1.095738,-0.018010,-0.093690,1.089757,-0.004482,-0.266986,38.864788,-24.265945,-3.277406,0.303434,1.611434,-0.215287,0.000000,0.000000,0.000000,0.000000,0.000000,0.000000
12698303.000000,-2.267625,-1.662765,1.396014,-1.475370,1.686388,1.459769,-0.590100,0.100376,-0.004109,1.086730,-0.014428,-0.096550,1.088846,-0.005662,-0.290789,38.837017,-24.119156,-3.249635,0.381254,1.832076,-0.155778,0.000000,0.000000,0.000000,0.000000,0.000000,0.000000
12698304.000000,-2.267524,-1.662771,1.397090,-1.475384,1.686290,1.460865,-0.590109,0.098818,-0.003925,1.086699,-0.013175,-0.100179,1.103978,-0.002907,-0.342364,38.864788,-23.996170,-3.154421,0.369352,1.909896,-0.188737,0.000000,0.000000,0.000000,0.000000,0.000000,0.000000
12698305.000000,-2.267420,-1.662771,1.398181,-1.475386,1.686194,1.461980,-0.590116,0.098647,-0.001812,1.084597,-0.011284,-0.092586,1.105862,-0.001931,-0.441546,38.813213,-23.948563,-3.225832,0.332731,1.832076,-0.196061,0.000000,0.000000,0.000000,0.000000,0.000000,0.000000
12698306.000000,-2.267318,-1.662767,1.399277,-1.475397,1.686110,1.463081,-0.590131,0.096764,0.000717,1.083119,-0.012130,-0.088518,1.108446,-0.007158,-0.489153,38.717999,-23.896988,-3.202028,0.207303,1.747848,-0.169511,0.000000,0.000000,0.000000,0.000000,0.000000,0.000000
12698307.000000,-2.267214,-1.662765,1.400346,-1.475400,1.686017,1.464192,-0.590132,0.097758,0.001458,1.081168,-0.011829,-0.090292,1.102266,-0.003108,-0.635943,38.666424,-23.678787,-3.225832,0.207303,1.637069,-0.229020,0.000000,0.000000,0.000000,0.000000,0.000000,0.000000
12698308.000000,-2.267116,-1.662761,1.401446,-1.475402,1.685918,1.465276,-0.590145,0.097068,0.003030,1.081751,-0.008362,-0.090304,1.099136,-0.008713,-0.735125,38.571209,-23.750198,-3.249635,0.303434,1.702071,-0.188737,0.000000,0.000000,0.000000,0.000000,0.000000,0.000000
12698309.000000,-2.267016,-1.662757,1.402534,-1.475407,1.685826,1.466362,-0.590151,0.096333,0.002542,1.084795,-0.006906,-0.091770,1.092046,-0.006507,-0.834307,38.543438,-23.849380,-3.225832,0.315336,1.877853,-0.188737,0.000000,0.000000,0.000000,0.000000,0.000000,0.000000
12698310.000000,-2.266924,-1.662755,1.403656,-1.475408,1.685736,1.467458,-0.590158,0.094474,0.002156,1.096515,-0.005742,-0.092095,1.090212,-0.009042,-0.862078,38.519634,-24.242142,-3.202028,0.308927,1.942855,-0.202470,0.000000,0.000000,0.000000,0.000000,0.000000,0.000000
