chaoyuefei/paper-gmrm-data/robot_logs/s2_dq_mrm_min_0.30_log_20260314_172514.csv
# time_ms,q_0,q_1,q_2,q_3,q_4,q_5,q_6,dq_0,dq_1,dq_2,dq_3,dq_4,dq_5,dq_6,tau_J_0,tau_J_1,tau_J_2,tau_J_3,tau_J_4,tau_J_5,tau_J_6,O_dP_EE_c_0,O_dP_EE_c_1,O_dP_EE_c_2,O_dP_EE_c_3,O_dP_EE_c_4,O_dP_EE_c_5
11776500.000000,-2.418269,-1.662609,1.039418,-1.352483,1.798437,1.078668,-0.546413,-0.000757,-0.000480,-0.000443,-0.000101,0.000161,0.000062,-0.000875,-0.017047,41.629986,-20.905655,-5.820436,0.882963,1.350509,0.041976,0.000000,0.000000,0.000000,0.000000,0.000000,0.000000
11776501.000000,-2.418263,-1.662609,1.039419,-1.352486,1.798438,1.078666,-0.546408,0.001259,-0.000320,-0.000295,-0.001181,0.000344,0.000042,0.001383,-0.092425,41.629986,-20.905655,-5.772829,0.876554,1.350509,-0.011124,0.000000,0.000000,0.000000,0.000000,0.000000,0.000000
11776502.000000,-2.418265,-1.662605,1.039417,-1.352483,1.798438,1.078665,-0.546413,0.000282,0.000993,-0.000846,0.000326,0.000433,-0.000244,-0.000773,-0.068621,41.578411,-20.877884,-5.820436,0.871061,1.357833,0.034652,0.000000,0.000000,0.000000,0.000000,0.000000,0.000000
11776503.000000,-2.418263,-1.662609,1.039421,-1.352483,1.798437,1.078664,-0.546416,0.000745,0.000013,0.000642,0.000218,-0.000152,-0.000162,-0.001736,-0.092425,41.606182,-20.929459,-5.820436,0.882963,1.357833,0.067611,0.000000,0.000000,0.000000,0.000000,0.000000,0.000000
11776504.000000,-2.418262,-1.662612,1.039419,-1.352482,1.798436,1.078667,-0.546411,0.008752,-0.002491,-0.000129,0.002188,-0.010020,-0.001295,-0.001942,0.228925,41.578411,-20.905655,-5.772829,0.864652,1.389877,-0.037675,0.000000,0.000000,0.000000,0.000000,0.000000,0.000000
11776505.000000,-2.418253,-1.662617,1.039420,-1.352480,1.798436,1.078663,-0.546433,0.015849,-0.003722,-0.001292,0.004731,-0.009330,-0.002656,-0.007654,1.268354,41.384014,-20.854080,-5.626039,0.769437,1.565658,-0.004716,0.000000,0.000000,0.000000,0.000000,0.000000,0.000000
11776506.000000,-2.418221,-1.662612,1.039429,-1.352477,1.798437,1.078662,-0.546459,0.026347,-0.001710,0.004356,0.004314,-0.006985,-0.004830,-0.017963,2.779890,40.919842,-20.806473,-5.376100,0.613798,1.786300,-0.056901,0.000000,0.000000,0.000000,0.000000,0.000000,0.000000
11776507.000000,-2.418173,-1.662611,1.039448,-1.352481,1.798421,1.078682,-0.546503,0.030271,0.000294,0.009604,-0.000965,-0.010369,0.003507,-0.028588,4.660383,40.404095,-20.806473,-5.030946,0.589994,1.877853,-0.037675,0.000000,0.000000,0.000000,0.000000,0.000000,0.000000
11776508.000000,-2.418108,-1.662610,1.039466,-1.352492,1.798392,1.078731,-0.546563,0.043587,0.001009,0.011319,-0.007649,-0.014709,0.020013,-0.035819,6.540876,39.892315,-20.707291,-4.685792,0.620206,1.819259,-0.031266,0.000000,0.000000,0.000000,0.000000,0.000000,0.000000
11776509.000000,-2.418018,-1.662613,1.039497,-1.352521,1.798357,1.078814,-0.546634,0.057812,0.003085,0.017134,-0.015342,-0.022492,0.043503,-0.053496,8.100019,39.428143,-20.659683,-4.213686,0.637601,1.572067,-0.056901,0.000000,0.000000,0.000000,0.000000,0.000000,0.000000
11776510.000000,-2.417919,-1.662609,1.039536,-1.352567,1.798305,1.078914,-0.546727,0.067177,0.002083,0.024992,-0.027368,-0.029636,0.062580,-0.067991,9.587750,38.936199,-20.631912,-3.721742,0.685209,1.389877,-0.070634,0.000000,0.000000,0.000000,0.000000,0.000000,0.000000
11776511.000000,-2.417802,-1.662603,1.039581,-1.352616,1.798240,1.079028,-0.546841,0.084078,0.003100,0.030380,-0.035665,-0.039940,0.076954,-0.083564,10.797772,38.495831,-20.584305,-3.376589,0.721830,1.318465,-0.083451,0.000000,0.000000,0.000000,0.000000,0.000000,0.000000
11776512.000000,-2.417675,-1.662601,1.039642,-1.352681,1.798162,1.079164,-0.546978,0.095152,0.002051,0.041227,-0.045298,-0.049129,0.095020,-0.101518,11.912580,38.130840,-20.560501,-3.027467,0.673307,1.305648,-0.056901,0.000000,0.000000,0.000000,0.000000,0.000000,0.000000
11776513.000000,-2.417531,-1.662594,1.039704,-1.352746,1.798070,1.079305,-0.547131,0.113043,0.004470,0.047846,-0.053599,-0.064336,0.108289,-0.121855,12.876630,37.761883,-20.485123,-2.904482,0.559781,1.442062,-0.083451,0.000000,0.000000,0.000000,0.000000,0.000000,0.000000
11776514.000000,-2.417379,-1.662582,1.039788,-1.352832,1.797955,1.079479,-0.547304,0.124322,0.006493,0.059429,-0.064422,-0.082784,0.129001,-0.134538,13.745465,37.392925,-20.536697,-2.733888,0.476469,1.559249,-0.064225,0.000000,0.000000,0.000000,0.000000,0.000000,0.000000
11776515.000000,-2.417208,-1.662566,1.039889,-1.352933,1.797822,1.079689,-0.547478,0.138531,0.008527,0.069590,-0.078711,-0.101742,0.150970,-0.148605,14.487348,37.004131,-20.659683,-2.583132,0.381254,1.637069,-0.044083,0.000000,0.000000,0.000000,0.000000,0.000000,0.000000
11776516.000000,-2.417016,-1.662548,1.040001,-1.353049,1.797659,1.079928,-0.547659,0.157150,0.009594,0.083285,-0.091152,-0.120733,0.180840,-0.156785,14.983258,36.635174,-20.782669,-2.483949,0.410551,1.611434,-0.083451,0.000000,0.000000,0.000000,0.000000,0.000000,0.000000
11776517.000000,-2.416821,-1.662533,1.040129,-1.353191,1.797475,1.080202,-0.547846,0.169142,0.009363,0.096561,-0.109445,-0.144705,0.209474,-0.162409,15.502973,36.317791,-20.929459,-2.261781,0.434354,1.519881,-0.077042,0.000000,0.000000,0.000000,0.000000,0.000000,0.000000
11776518.000000,-2.416591,-1.662512,1.040276,-1.353340,1.797272,1.080488,-0.548031,0.188865,0.011021,0.116462,-0.124006,-0.168993,0.237663,-0.169240,15.725141,35.925030,-21.123856,-2.162599,0.482877,1.461288,-0.064225,0.000000,0.000000,0.000000,0.000000,0.000000,0.000000
11776519.000000,-2.416356,-1.662487,1.040428,-1.353507,1.797044,1.080803,-0.548215,0.204302,0.015839,0.129217,-0.134351,-0.188819,0.262649,-0.172621,15.971112,35.508465,-21.199234,-2.091188,0.584501,1.474105,-0.103593,0.000000,0.000000,0.000000,0.000000,0.000000,0.000000
11776520.000000,-2.416108,-1.662475,1.040599,-1.353690,1.796802,1.081144,-0.548408,0.217285,0.014168,0.143892,-0.151441,-0.209414,0.286726,-0.182281,16.268660,35.314068,-21.369827,-2.039613,0.566190,1.461288,-0.083451,0.000000,0.000000,0.000000,0.000000,0.000000,0.000000
11776521.000000,-2.415837,-1.662468,1.040777,-1.353893,1.796535,1.081503,-0.548599,0.237916,0.010504,0.153515,-0.166064,-0.224917,0.309550,-0.183064,16.391645,35.238689,-21.469009,-2.039613,0.535978,1.461288,-0.089860,0.000000,0.000000,0.000000,0.000000,0.000000,0.000000
11776522.000000,-2.415559,-1.662453,1.040961,-1.354115,1.796260,1.081871,-0.548791,0.250589,0.013050,0.165154,-0.182688,-0.236546,0.327019,-0.184455,16.617781,35.091900,-21.492813,-1.964235,0.506681,1.552840,-0.089860,0.000000,0.000000,0.000000,0.000000,0.000000,0.000000
11776523.000000,-2.415255,-1.662449,1.041156,-1.354344,1.795972,1.082260,-0.548985,0.266612,0.007916,0.176732,-0.194945,-0.247581,0.344159,-0.185108,16.689192,35.119671,-21.492813,-1.892824,0.386747,1.689254,-0.097184,0.000000,0.000000,0.000000,0.000000,0.000000,0.000000
11776524.000000,-2.414936,-1.662450,1.041355,-1.354601,1.795668,1.082671,-0.549176,0.283333,0.004063,0.182835,-0.214859,-0.261434,0.365871,-0.185191,16.665388,35.167278,-21.369827,-1.742067,0.351041,1.735030,-0.116410,0.000000,0.000000,0.000000,0.000000,0.000000,0.000000
11776525.000000,-2.414605,-1.662449,1.041563,-1.354870,1.795327,1.083120,-0.549370,0.295764,0.002076,0.190353,-0.231892,-0.282312,0.394485,-0.184349,16.740767,35.191082,-21.246841,-1.642885,0.369352,1.676437,-0.037675,0.000000,0.000000,0.000000,0.000000,0.000000,0.000000
11776526.000000,-2.414252,-1.662445,1.041781,-1.355159,1.794976,1.083586,-0.549553,0.322659,0.002441,0.197896,-0.245922,-0.302805,0.417216,-0.181211,16.740767,35.143475,-21.175430,-1.496095,0.381254,1.597701,-0.130143,0.000000,0.000000,0.000000,0.000000,0.000000,0.000000
11776527.000000,-2.413888,-1.662448,1.042020,-1.355462,1.794619,1.084069,-0.549741,0.337402,0.000471,0.210868,-0.263128,-0.324844,0.436768,-0.186671,16.716963,35.191082,-21.147659,-1.448488,0.422452,1.559249,-0.136552,0.000000,0.000000,0.000000,0.000000,0.000000,0.000000
11776528.000000,-2.413517,-1.662455,1.042264,-1.355773,1.794225,1.084583,-0.549941,0.344650,-0.001481,0.219071,-0.277276,-0.351237,0.460978,-0.190337,16.863752,35.266460,-21.052444,-1.373109,0.458158,1.532699,-0.050492,0.000000,0.000000,0.000000,0.000000,0.000000,0.000000
11776529.000000,-2.413144,-1.662459,1.042511,-1.356097,1.793821,1.085114,-0.550127,0.355447,-0.002125,0.224717,-0.289672,-0.371828,0.479748,-0.182747,17.062117,35.314068,-20.929459,-1.321535,0.518583,1.474105,-0.103593,0.000000,0.000000,0.000000,0.000000,0.000000,0.000000
11776530.000000,-2.412751,-1.662460,1.042772,-1.356427,1.793403,1.085670,-0.550314,0.367582,-0.001435,0.235830,-0.306062,-0.385163,0.505002,-0.184856,17.308088,35.314068,-20.854080,-1.321535,0.518583,1.467696,-0.089860,0.000000,0.000000,0.000000,0.000000,0.000000,0.000000
11776531.000000,-2.412349,-1.662457,1.043046,-1.356773,1.792966,1.086233,-0.550489,0.382389,-0.000970,0.250203,-0.320145,-0.402756,0.526784,-0.180345,17.506453,35.314068,-20.877884,-1.321535,0.440763,1.552840,-0.103593,0.000000,0.000000,0.000000,0.000000,0.000000,0.000000
11776532.000000,-2.411932,-1.662455,1.043332,-1.357147,1.792518,1.086824,-0.550667,0.390540,-0.000100,0.260818,-0.332677,-0.419066,0.553273,-0.177911,17.728621,35.290264,-20.905655,-1.226320,0.428861,1.630660,-0.097184,0.000000,0.000000,0.000000,0.000000,0.000000,0.000000
11776533.000000,-2.411507,-1.662457,1.043621,-1.357516,1.792056,1.087451,-0.550843,0.402529,-0.000074,0.271162,-0.344994,-0.436453,0.577226,-0.181405,18.026167,35.290264,-20.782669,-1.174745,0.422452,1.584884,-0.077042,0.000000,0.000000,0.000000,0.000000,0.000000,0.000000
11776534.000000,-2.411065,-1.662456,1.043916,-1.357910,1.791577,1.088094,-0.551006,0.417179,-0.000055,0.279923,-0.360653,-0.451493,0.605929,-0.171115,18.224531,35.290264,-20.683487,-1.051759,0.446256,1.513473,-0.136552,0.000000,0.000000,0.000000,0.000000,0.000000,0.000000
11776535.000000,-2.410598,-1.662445,1.044238,-1.358322,1.791083,1.088769,-0.551176,0.430342,0.003393,0.293875,-0.374482,-0.461645,0.626997,-0.173260,18.347517,35.143475,-20.782669,-0.877199,0.464567,1.396285,-0.130143,0.000000,0.000000,0.000000,0.000000,0.000000,0.000000
11776536.000000,-2.410123,-1.662441,1.044564,-1.358747,1.790564,1.089453,-0.551349,0.442268,0.003465,0.301208,-0.392226,-0.477369,0.659563,-0.174116,18.545881,35.091900,-20.731094,-0.655031,0.554288,1.259872,-0.083451,0.000000,0.000000,0.000000,0.000000,0.000000,0.000000
11776537.000000,-2.409638,-1.662428,1.044890,-1.359184,1.790050,1.090153,-0.551509,0.450569,0.005092,0.311530,-0.402874,-0.489248,0.675168,-0.171476,18.446699,34.972881,-20.631912,-0.508241,0.661405,1.220504,-0.122819,0.000000,0.000000,0.000000,0.000000,0.000000,0.000000
11776538.000000,-2.409146,-1.662418,1.045233,-1.359634,1.789524,1.090872,-0.551672,0.454350,0.005713,0.322452,-0.419697,-0.508809,0.687870,-0.167308,17.756392,34.873699,-20.266922,-0.555849,0.757535,1.266280,-0.097184,0.000000,0.000000,0.000000,0.000000,0.000000,0.000000
11776539.000000,-2.408667,-1.662407,1.045601,-1.360099,1.788993,1.091586,-0.551832,0.460587,0.002011,0.337920,-0.432442,-0.516093,0.700452,-0.162098,16.617781,34.679302,-19.897964,-0.853395,0.823453,1.383468,-0.116410,0.000000,0.000000,0.000000,0.000000,0.000000,0.000000
11776540.000000,-2.408193,-1.662392,1.045996,-1.360583,1.788474,1.092334,-0.551997,0.461982,0.005847,0.358410,-0.444110,-0.520928,0.715461,-0.164743,14.884076,34.334148,-19.382217,-1.273927,0.847257,1.467696,-0.097184,0.000000,0.000000,0.000000,0.000000,0.000000,0.000000
11776541.000000,-2.407725,-1.662379,1.046412,-1.361066,1.787962,1.093105,-0.552151,0.463588,0.009945,0.373757,-0.452697,-0.517228,0.730561,-0.158192,13.003583,33.917583,-18.695877,-1.718263,0.661405,1.481429,-0.175919,0.000000,0.000000,0.000000,0.000000,0.000000,0.000000
11776542.000000,-2.407257,-1.662368,1.046854,-1.361566,1.787458,1.093875,-0.552317,0.469382,0.009177,0.393902,-0.460993,-0.502848,0.739710,-0.157568,11.071515,33.501019,-18.057144,-2.039613,0.512174,1.416427,-0.149369,0.000000,0.000000,0.000000,0.000000,0.000000,0.000000
11776543.000000,-2.406801,-1.662366,1.047318,-1.362059,1.786958,1.094671,-0.552482,0.467240,0.008094,0.414392,-0.464249,-0.502819,0.751631,-0.157627,9.389386,33.235210,-17.418411,-2.412538,0.291532,1.285506,-0.103593,0.000000,0.000000,0.000000,0.000000,0.000000,0.000000
11776544.000000,-2.406345,-1.662366,1.047793,-1.362562,1.786458,1.095464,-0.552640,0.468960,0.008112,0.430147,-0.473727,-0.495975,0.764961,-0.154226,7.877851,32.937664,-16.878860,-2.634706,0.166105,1.071273,-0.136552,0.000000,0.000000,0.000000,0.000000,0.000000,0.000000
11776545.000000,-2.405892,-1.662363,1.048282,-1.363058,1.785973,1.096249,-0.552805,0.465662,0.006107,0.445987,-0.473974,-0.498930,0.762801,-0.159942,6.394086,32.596478,-16.240128,-2.856874,0.117582,0.908309,-0.064225,0.000000,0.000000,0.000000,0.000000,0.000000,0.000000
11776546.000000,-2.405448,-1.662367,1.048783,-1.363546,1.785476,1.097029,-0.552945,0.455937,0.006014,0.461559,-0.473678,-0.492708,0.766544,-0.153727,5.303083,32.326702,-15.625198,-3.102846,0.123990,0.857040,-0.163102,0.000000,0.000000,0.000000,0.000000,0.000000,0.000000
11776547.000000,-2.405012,-1.662374,1.049277,-1.364020,1.784986,1.097802,-0.553104,0.449626,0.001529,0.469675,-0.470539,-0.492947,0.770423,-0.154113,4.410444,32.108501,-14.990433,-3.424196,0.255826,0.792037,-0.136552,0.000000,0.000000,0.000000,0.000000,0.000000,0.000000
11776548.000000,-2.404567,-1.662382,1.049775,-1.364483,1.784501,1.098565,-0.553264,0.442247,-0.002095,0.473718,-0.475024,-0.494592,0.762403,-0.160346,3.644758,31.910137,-14.300125,-3.797121,0.320829,0.850631,-0.077042,0.000000,0.000000,0.000000,0.000000,0.000000,0.000000
11776549.000000,-2.404116,-1.662385,1.050274,-1.364963,1.784020,1.099312,-0.553409,0.443606,-0.003664,0.489910,-0.477430,-0.488473,0.756699,-0.154668,2.926679,31.668133,-13.736771,-3.920107,0.339139,0.954086,-0.155778,0.000000,0.000000,0.000000,0.000000,0.000000,0.000000
11776550.000000,-2.403658,-1.662400,1.050772,-1.365447,1.783552,1.100068,-0.553566,0.445643,-0.008857,0.491740,-0.473859,-0.484183,0.758900,-0.154866,2.133222,31.592754,-13.121841,-3.844728,0.351041,1.025497,-0.130143,0.000000,0.000000,0.000000,0.000000,0.000000,0.000000
11776551.000000,-2.403190,-1.662402,1.051286,-1.365934,1.783080,1.100837,-0.553716,0.445436,-0.005153,0.493886,-0.479520,-0.478085,0.759410,-0.152962,1.415143,31.346783,-12.681473,-3.547182,0.297025,0.999862,-0.155778,0.000000,0.000000,0.000000,0.000000,0.000000,0.000000
11776552.000000,-2.402706,-1.662402,1.051795,-1.366426,1.782615,1.101596,-0.553872,0.458436,-0.002589,0.500975,-0.483495,-0.473502,0.762793,-0.153214,0.601850,31.104778,-12.336319,-3.178224,0.231107,0.895492,-0.130143,0.000000,0.000000,0.000000,0.000000,0.000000,0.000000
11776553.000000,-2.402237,-1.662398,1.052319,-1.366925,1.782163,1.102357,-0.554027,0.458449,0.003643,0.504898,-0.487133,-0.469526,0.761562,-0.152941,-0.017047,30.811199,-12.141922,-2.805300,0.147794,0.830489,-0.122819,0.000000,0.000000,0.000000,0.000000,0.000000,0.000000
11776554.000000,-2.401760,-1.662385,1.052854,-1.367395,1.781705,1.103120,-0.554169,0.462183,0.006341,0.516627,-0.481182,-0.466797,0.768233,-0.150737,-0.540728,30.466045,-12.018936,-2.634706,0.069974,0.857040,-0.163102,0.000000,0.000000,0.000000,0.000000,0.000000,0.000000
11776555.000000,-2.401297,-1.662368,1.053380,-1.367862,1.781254,1.103864,-0.554332,0.460591,0.009176,0.517645,-0.473795,-0.449670,0.764295,-0.153498,-0.885882,30.077251,-11.872147,-2.682314,0.081876,0.863448,-0.089860,0.000000,0.000000,0.000000,0.000000,0.000000,0.000000
11776556.000000,-2.400834,-1.662348,1.053910,-1.368322,1.780791,1.104613,-0.554478,0.458965,0.011086,0.518961,-0.472402,-0.454684,0.761916,-0.155081,-1.060443,29.684490,-11.673782,-2.757692,0.076383,0.960494,-0.155778,0.000000,0.000000,0.000000,0.000000,0.000000,0.000000
11776557.000000,-2.400368,-1.662326,1.054449,-1.368775,1.780324,1.105345,-0.554639,0.462700,0.016066,0.528758,-0.462142,-0.455166,0.758952,-0.154968,-1.254840,29.267925,-11.550797,-2.956056,0.135892,1.136276,-0.122819,0.000000,0.000000,0.000000,0.000000,0.000000,0.000000
11776558.000000,-2.399903,-1.662303,1.055011,-1.369233,1.779874,1.106083,-0.554789,0.464122,0.019653,0.537883,-0.457258,-0.460586,0.745008,-0.152508,-1.480975,28.851360,-11.526993,-3.079042,0.183500,1.234237,-0.163102,0.000000,0.000000,0.000000,0.000000,0.000000,0.000000
11776559.000000,-2.399429,-1.662282,1.055572,-1.369676,1.779413,1.106853,-0.554955,0.459871,0.021038,0.545177,-0.449845,-0.463529,0.751914,-0.154213,-1.703143,28.486370,-11.380203,-3.225832,0.207303,1.149093,-0.110001,0.000000,0.000000,0.000000,0.000000,0.000000,0.000000
11776560.000000,-2.398947,-1.662261,1.056139,-1.370134,1.778966,1.107620,-0.555117,0.462867,0.021092,0.555934,-0.446801,-0.451469,0.764127,-0.154416,-2.171282,28.165020,-11.308792,-3.225832,0.207303,0.987045,-0.077042,0.000000,0.000000,0.000000,0.000000,0.000000,0.000000
11776561.000000,-2.398462,-1.662246,1.056715,-1.370569,1.778517,1.108391,-0.555268,0.464145,0.024438,0.560568,-0.444378,-0.455695,0.759571,-0.151939,-2.544207,27.970623,-11.158035,-3.277406,0.207303,0.869857,-0.116410,0.000000,0.000000,0.000000,0.000000,0.000000,0.000000
11776562.000000,-2.397976,-1.662230,1.057283,-1.371010,1.778065,1.109142,-0.555417,0.477069,0.022480,0.563681,-0.442253,-0.452037,0.762872,-0.149633,-2.917132,27.847637,-10.939835,-3.348818,0.166105,0.876266,-0.163102,0.000000,0.000000,0.000000,0.000000,0.000000,0.000000
11776563.000000,-2.397488,-1.662216,1.057866,-1.371448,1.777630,1.109897,-0.555574,0.483353,0.017106,0.570874,-0.440551,-0.445200,0.755010,-0.155171,-3.262286,27.776226,-10.646255,-3.424196,0.147794,0.908309,-0.130143,0.000000,0.000000,0.000000,0.000000,0.000000,0.000000
11776564.000000,-2.396996,-1.662212,1.058456,-1.371876,1.777191,1.110659,-0.555727,0.484862,0.013797,0.572421,-0.435447,-0.443542,0.754942,-0.154742,-3.631243,27.823833,-10.324905,-3.523378,0.088285,0.922042,-0.110001,0.000000,0.000000,0.000000,0.000000,0.000000,0.000000
11776565.000000,-2.396503,-1.662204,1.059038,-1.372289,1.776759,1.111402,-0.555877,0.494216,0.013329,0.578526,-0.427688,-0.445011,0.754687,-0.151769,-4.004168,27.800030,-9.932144,-3.745546,0.076383,0.934859,-0.155778,0.000000,0.000000,0.000000,0.000000,0.000000,0.000000
11776566.000000,-2.395999,-1.662203,1.059652,-1.372704,1.776327,1.112152,-0.556030,0.497392,0.010993,0.584964,-0.432288,-0.435275,0.748059,-0.148547,-4.424700,27.871441,-9.785355,-3.868532,0.081876,0.954086,-0.110001,0.000000,0.000000,0.000000,0.000000,0.000000,0.000000
11776567.000000,-2.395506,-1.662200,1.060262,-1.373115,1.775893,1.112902,-0.556175,0.490628,0.009959,0.602073,-0.426985,-0.436859,0.749849,-0.147601,-4.698443,27.923016,-9.614761,-4.066896,0.040677,0.954086,-0.142960,0.000000,0.000000,0.000000,0.000000,0.000000,0.000000
11776568.000000,-2.395002,-1.662201,1.060892,-1.373522,1.775461,1.113652,-0.556327,0.495924,0.008822,0.610659,-0.416191,-0.435800,0.752448,-0.148682,-5.142779,27.994427,-9.515579,-4.289064,0.058073,0.934859,-0.136552,0.000000,0.000000,0.000000,0.000000,0.000000,0.000000
11776569.000000,-2.394501,-1.662206,1.061542,-1.373923,1.775037,1.114411,-0.556476,0.494054,0.003869,0.621836,-0.414595,-0.427867,0.753360,-0.150054,-5.440325,28.117413,-9.515579,-4.388246,0.046171,0.928451,-0.116410,0.000000,0.000000,0.000000,0.000000,0.000000,0.000000
11776570.000000,-2.394001,-1.662204,1.062193,-1.374324,1.774607,1.115161,-0.556611,0.498881,0.002671,0.632873,-0.408590,-0.431805,0.753858,-0.147595,-5.761675,28.141216,-9.638565,-4.511232,-0.001437,0.934859,-0.175919,0.000000,0.000000,0.000000,0.000000,0.000000,0.000000
11776571.000000,-2.393490,-1.662205,1.062872,-1.374723,1.774190,1.115913,-0.556762,0.499582,0.001710,0.642220,-0.408424,-0.429260,0.748068,-0.146664,-6.134600,28.165020,-9.832962,-4.634218,-0.055453,0.934859,-0.103593,0.000000,0.000000,0.000000,0.000000,0.000000,0.000000
11776572.000000,-2.392980,-1.662204,1.063559,-1.375114,1.773775,1.116669,-0.556904,0.501111,0.001505,0.651707,-0.405376,-0.426996,0.753702,-0.146107,-6.455950,28.165020,-9.983719,-4.733400,-0.097567,0.843307,-0.142960,0.000000,0.000000,0.000000,0.000000,0.000000,0.000000
11776573.000000,-2.392466,-1.662208,1.064251,-1.375504,1.773347,1.117430,-0.557053,0.506691,0.000070,0.663068,-0.399501,-0.420305,0.755219,-0.147845,-6.876482,28.216595,-10.201920,-4.808778,-0.055453,0.811263,-0.130143,0.000000,0.000000,0.000000,0.000000,0.000000,0.000000
11776574.000000,-2.391954,-1.662211,1.064950,-1.375890,1.772920,1.118164,-0.557198,0.502020,-0.000862,0.670611,-0.393441,-0.423746,0.740529,-0.149353,-7.197833,28.264202,-10.301102,-4.856386,-0.019747,1.045638,-0.110001,0.000000,0.000000,0.000000,0.000000,0.000000,0.000000
11776575.000000,-2.391439,-1.662221,1.065650,-1.376278,1.772497,1.118896,-0.557337,0.506003,-0.003854,0.683026,-0.391100,-0.426148,0.739219,-0.147283,-7.570757,28.410992,-10.372513,-4.931764,0.015958,1.194869,-0.169511,0.000000,0.000000,0.000000,0.000000,0.000000,0.000000
11776576.000000,-2.390919,-1.662225,1.066366,-1.376676,1.772072,1.119641,-0.557489,0.511566,-0.003568,0.692328,-0.394640,-0.423509,0.737622,-0.150628,-7.915911,28.458599,-10.324905,-4.931764,0.081876,1.227828,-0.110001,0.000000,0.000000,0.000000,0.000000,0.000000,0.000000
11776577.000000,-2.390399,-1.662242,1.067096,-1.377068,1.771644,1.120402,-0.557627,0.507262,-0.013805,0.701227,-0.395036,-0.426543,0.739936,-0.148501,-8.237262,28.680767,-10.324905,-4.884157,0.147794,1.169235,-0.163102,0.000000,0.000000,0.000000,0.000000,0.000000,0.000000
11776578.000000,-2.389897,-1.662255,1.067826,-1.377472,1.771236,1.121131,-0.557772,0.508363,-0.013655,0.710372,-0.395048,-0.416323,0.743662,-0.144551,-8.411822,28.851360,-10.277298,-4.784975,0.088285,1.182052,-0.155778,0.000000,0.000000,0.000000,0.000000,0.000000,0.000000
11776579.000000,-2.389384,-1.662266,1.068576,-1.377879,1.770812,1.121873,-0.557913,0.500770,-0.012326,0.719861,-0.401526,-0.414288,0.736402,-0.141790,-8.633990,28.974346,-10.277298,-4.586610,0.100187,1.155502,-0.149369,0.000000,0.000000,0.000000,0.000000,0.000000,0.000000
11776580.000000,-2.388872,-1.662276,1.069315,-1.378285,1.770396,1.122608,-0.558056,0.502224,-0.010797,0.740696,-0.401487,-0.412409,0.738721,-0.139221,-8.733172,29.073528,-10.055130,-4.463624,0.100187,1.096908,-0.142960,0.000000,0.000000,0.000000,0.000000,0.000000,0.000000
11776581.000000,-2.388376,-1.662291,1.070072,-1.378684,1.769992,1.123348,-0.558200,0.501739,-0.014545,0.746993,-0.399758,-0.415438,0.731269,-0.137569,-8.756976,29.244122,-9.884537,-4.388246,0.076383,1.025497,-0.142960,0.000000,0.000000,0.000000,0.000000,0.000000,0.000000
11776582.000000,-2.387883,-1.662299,1.070843,-1.379074,1.769578,1.124086,-0.558343,0.496020,-0.011777,0.753441,-0.396176,-0.411882,0.729704,-0.135830,-8.681598,29.315533,-9.662369,-4.412050,0.052579,1.090499,-0.149369,0.000000,0.000000,0.000000,0.000000,0.000000,0.000000
11776583.000000,-2.387397,-1.662303,1.071617,-1.379461,1.769167,1.124816,-0.558488,0.491728,-0.010774,0.758239,-0.388497,-0.414867,0.730121,-0.136129,-8.558612,29.291729,-9.539383,-4.487428,0.022367,1.129867,-0.110001,0.000000,0.000000,0.000000,0.000000,0.000000,0.000000
11776584.000000,-2.386911,-1.662310,1.072403,-1.379849,1.768764,1.125565,-0.558621,0.487160,-0.008884,0.762107,-0.396438,-0.417952,0.728401,-0.137414,-8.483233,29.343304,-9.245804,-4.586610,0.022367,1.052047,-0.169511,0.000000,0.000000,0.000000,0.000000,0.000000,0.000000
11776585.000000,-2.386415,-1.662318,1.073186,-1.380234,1.768345,1.126302,-0.558768,0.488360,-0.006851,0.778874,-0.389801,-0.411099,0.749538,-0.142458,-8.483233,29.367107,-8.876846,-4.661989,0.052579,1.039230,-0.122819,0.000000,0.000000,0.000000,0.000000,0.000000,0.000000
11776586.000000,-2.385935,-1.662312,1.073990,-1.380630,1.767940,1.127054,-0.558906,0.486931,-0.000855,0.788129,-0.386717,-0.402414,0.747290,-0.143807,-8.411822,29.196514,-8.805435,-4.661989,0.064481,1.025497,-0.142960,0.000000,0.000000,0.000000,0.000000,0.000000,0.000000
11776587.000000,-2.385447,-1.662303,1.074807,-1.381015,1.767537,1.127824,-0.559037,0.483019,0.002748,0.793875,-0.384728,-0.402776,0.747845,-0.143852,-8.388019,29.045757,-8.730057,-4.661989,0.064481,0.922042,-0.188737,0.000000,0.000000,0.000000,0.000000,0.000000,0.000000
11776588.000000,-2.384963,-1.662299,1.075625,-1.381414,1.767132,1.128585,-0.559184,0.488176,0.006797,0.798731,-0.389115,-0.403499,0.754850,-0.143689,-8.288836,29.097332,-8.900650,-4.634218,0.058073,0.771896,-0.110001,0.000000,0.000000,0.000000,0.000000,0.000000,0.000000
11776589.000000,-2.384490,-1.662295,1.076436,-1.381796,1.766746,1.129352,-0.559319,0.484011,0.009543,0.791381,-0.385949,-0.402236,0.748246,-0.144188,-8.015094,29.438519,-9.222000,-4.784975,0.010465,0.765487,-0.149369,0.000000,0.000000,0.000000,0.000000,0.000000,0.000000
11776590.000000,-2.384010,-1.662290,1.077255,-1.382184,1.766361,1.130113,-0.559459,0.482024,0.009749,0.793234,-0.387045,-0.402957,0.748075,-0.146320,-7.542986,30.025677,-9.983719,-4.784975,0.004056,0.928451,-0.136552,0.000000,0.000000,0.000000,0.000000,0.000000,0.000000
11776591.000000,-2.383540,-1.662282,1.078045,-1.382567,1.765980,1.130854,-0.559602,0.478543,0.010413,0.790183,-0.382161,-0.390009,0.743691,-0.143774,-6.999468,30.759624,-10.888260,-4.856386,-0.001437,1.117049,-0.103593,0.000000,0.000000,0.000000,0.000000,0.000000,0.000000
11776592.000000,-2.383063,-1.662270,1.078834,-1.382949,1.765592,1.131626,-0.559735,0.471640,0.006921,0.792954,-0.387115,-0.390557,0.747683,-0.138888,-6.404376,31.568951,-11.848343,-4.884157,0.046171,1.201278,-0.155778,0.000000,0.000000,0.000000,0.000000,0.000000,0.000000
11776593.000000,-2.382569,-1.662253,1.079624,-1.383330,1.765215,1.132393,-0.559879,0.483749,0.008983,0.796835,-0.383796,-0.385949,0.754793,-0.143431,-6.011614,32.350506,-12.998856,-4.931764,0.105680,1.214095,-0.110001,0.000000,0.000000,0.000000,0.000000,0.000000,0.000000
11776594.000000,-2.382085,-1.662228,1.080417,-1.383719,1.764833,1.133159,-0.560017,0.484693,0.013769,0.798186,-0.387367,-0.388405,0.753572,-0.144074,-5.714068,33.013042,-14.105728,-4.856386,0.189908,1.253463,-0.116410,0.000000,0.000000,0.000000,0.000000,0.000000,0.000000
11776595.000000,-2.381592,-1.662192,1.081217,-1.384103,1.764443,1.133932,-0.560149,0.484029,0.018892,0.793968,-0.387350,-0.385799,0.755873,-0.144415,-5.464129,33.477215,-15.061844,-4.757204,0.308927,1.357833,-0.149369,0.000000,0.000000,0.000000,0.000000,0.000000,0.000000
11776596.000000,-2.381097,-1.662167,1.082006,-1.384493,1.764057,1.134690,-0.560285,0.490375,0.021300,0.797683,-0.389649,-0.381771,0.754203,-0.141782,-5.293536,33.992962,-15.871170,-4.634218,0.440763,1.429244,-0.136552,0.000000,0.000000,0.000000,0.000000,0.000000,0.000000
11776597.000000,-2.380614,-1.662136,1.082810,-1.384879,1.763672,1.135436,-0.560419,0.486918,0.022487,0.795870,-0.387406,-0.382417,0.739016,-0.140123,-5.118975,34.385723,-16.533707,-4.586610,0.458158,1.559249,-0.116410,0.000000,0.000000,0.000000,0.000000,0.000000,0.000000
11776598.000000,-2.380135,-1.662103,1.083614,-1.385260,1.763293,1.136163,-0.560545,0.485017,0.027648,0.799554,-0.384526,-0.380229,0.736762,-0.140024,-4.797625,34.703106,-17.196243,-4.586610,0.386747,1.754256,-0.182328,0.000000,0.000000,0.000000,0.000000,0.000000,0.000000
11776599.000000,-2.379655,-1.662078,1.084433,-1.385639,1.762925,1.136912,-0.560682,0.486780,0.027207,0.805166,-0.379409,-0.370207,0.736134,-0.139331,-4.599261,35.068096,-17.711990,-4.709596,0.303434,1.806442,-0.149369,0.000000,0.000000,0.000000,0.000000,0.000000,0.000000
11776600.000000,-2.379188,-1.662061,1.085255,-1.386006,1.762553,1.137674,-0.560813,0.474599,0.023007,0.807205,-0.372903,-0.376153,0.741018,-0.137228,-4.250140,35.460857,-18.080948,-4.832582,0.213712,1.702071,-0.155778,0.000000,0.000000,0.000000,0.000000,0.000000,0.000000
11776601.000000,-2.378723,-1.662047,1.086073,-1.386383,1.762169,1.138403,-0.560944,0.471705,0.019285,0.810558,-0.370487,-0.378446,0.739444,-0.136167,-4.004168,35.877422,-18.398331,-4.955568,0.189908,1.735030,-0.142960,0.000000,0.000000,0.000000,0.000000,0.000000,0.000000
11776602.000000,-2.378249,-1.662041,1.086913,-1.386744,1.761783,1.139137,-0.561073,0.470853,0.016422,0.811476,-0.369849,-0.379774,0.725736,-0.134817,-3.829607,36.293987,-18.818863,-5.106325,0.178007,1.806442,-0.149369,0.000000,0.000000,0.000000,0.000000,0.000000,0.000000
11776603.000000,-2.377773,-1.662044,1.087752,-1.387107,1.761394,1.139875,-0.561202,0.470915,0.009491,0.829592,-0.368356,-0.388158,0.740604,-0.132835,-3.682818,36.781963,-19.064835,-5.276918,0.219205,1.767074,-0.182328,0.000000,0.000000,0.000000,0.000000,0.000000,0.000000
11776604.000000,-2.377306,-1.662052,1.088585,-1.387459,1.760994,1.140625,-0.561342,0.473012,0.004364,0.828185,-0.361858,-0.384464,0.747137,-0.135817,-3.631243,37.273907,-19.382217,-5.526857,0.362943,1.584884,-0.097184,0.000000,0.000000,0.000000,0.000000,0.000000,0.000000
11776605.000000,-2.376831,-1.662071,1.089441,-1.387805,1.760603,1.141387,-0.561460,0.473020,-0.003992,0.829285,-0.359980,-0.385145,0.749517,-0.127360,-3.583636,37.833294,-19.699600,-5.820436,0.398649,1.435653,-0.169511,0.000000,0.000000,0.000000,0.000000,0.000000,0.000000
11776606.000000,-2.376345,-1.662094,1.090278,-1.388152,1.760214,1.142112,-0.561589,0.483651,-0.012747,0.827762,-0.352922,-0.386574,0.744116,-0.128284,-3.730425,38.372845,-19.969376,-6.070375,0.440763,1.487838,-0.169511,0.000000,0.000000,0.000000,0.000000,0.000000,0.000000
11776607.000000,-2.375868,-1.662124,1.091131,-1.388497,1.759827,1.142826,-0.561724,0.479787,-0.019775,0.831472,-0.351899,-0.386165,0.729869,-0.131207,-3.881182,38.936199,-20.215347,-6.292543,0.440763,1.656295,-0.116410,0.000000,0.000000,0.000000,0.000000,0.000000,0.000000
11776608.000000,-2.375386,-1.662162,1.091974,-1.388843,1.759444,1.143555,-0.561850,0.478449,-0.023011,0.825403,-0.350277,-0.383616,0.727962,-0.128992,-4.027972,39.547161,-20.314529,-6.415529,0.398649,1.779891,-0.175919,0.000000,0.000000,0.000000,0.000000,0.000000,0.000000
11776609.000000,-2.374905,-1.662202,1.092817,-1.389191,1.759069,1.144269,-0.561988,0.483499,-0.027196,0.826810,-0.345844,-0.376239,0.724960,-0.127329,-4.250140,40.110516,-20.512894,-6.514711,0.393156,1.930038,-0.130143,0.000000,0.000000,0.000000,0.000000,0.000000,0.000000
11776610.000000,-2.374416,-1.662237,1.093658,-1.389540,1.758689,1.144991,-0.562113,0.484983,-0.034247,0.824831,-0.346563,-0.381604,0.718316,-0.126269,-4.448504,40.578655,-20.631912,-6.590089,0.327238,2.047225,-0.188737,0.000000,0.000000,0.000000,0.000000,0.000000,0.000000
11776611.000000,-2.373925,-1.662275,1.094490,-1.389883,1.758307,1.145719,-0.562247,0.492065,-0.036177,0.829549,-0.344560,-0.376266,0.726391,-0.128003,-4.698443,41.019024,-20.683487,-6.760683,0.303434,1.988631,-0.175919,0.000000,0.000000,0.000000,0.000000,0.000000,0.000000
11776612.000000,-2.373435,-1.662309,1.095329,-1.390236,1.757932,1.146464,-0.562381,0.491852,-0.035916,0.828880,-0.346651,-0.375763,0.723922,-0.134057,-4.995989,41.384014,-20.806473,-6.784486,0.362943,1.877853,-0.149369,0.000000,0.000000,0.000000,0.000000,0.000000,0.000000
11776615.000000,-2.371979,-1.662415,1.097841,-1.391230,1.756810,1.148675,-0.562760,0.484924,-0.030383,0.831944,-0.330465,-0.379070,0.726032,-0.127658,-5.638690,42.411541,-20.731094,-7.454957,0.434354,1.865035,-0.175919,0.000000,0.000000,0.000000,0.000000,0.000000,0.000000
11776616.000000,-2.371508,-1.662450,1.098670,-1.391548,1.756451,1.149401,-0.562894,0.477523,-0.034148,0.845758,-0.323536,-0.378136,0.728570,-0.125843,-5.614886,42.728924,-20.731094,-7.748537,0.362943,1.871444,-0.122819,0.000000,0.000000,0.000000,0.000000,0.000000,0.000000
11776617.000000,-2.371031,-1.662476,1.099504,-1.391871,1.756083,1.150135,-0.563020,0.477377,-0.031495,0.837425,-0.319106,-0.371999,0.724066,-0.125631,-5.761675,42.927288,-20.560501,-8.022280,0.356534,1.793624,-0.169511,0.000000,0.000000,0.000000,0.000000,0.000000,0.000000
11776618.000000,-2.370557,-1.662502,1.100346,-1.392185,1.755727,1.150875,-0.563152,0.477690,-0.030973,0.836213,-0.314023,-0.367362,0.723237,-0.128859,-5.837054,43.050274,-20.584305,-8.244448,0.297025,1.760665,-0.130143,0.000000,0.000000,0.000000,0.000000,0.000000,0.000000
11776619.000000,-2.370092,-1.662524,1.101181,-1.392497,1.755378,1.151604,-0.563278,0.473933,-0.029156,0.836337,-0.312051,-0.359872,0.723067,-0.124917,-5.837054,43.097881,-20.659683,-8.490419,0.255826,1.727706,-0.122819,0.000000,0.000000,0.000000,0.000000,0.000000,0.000000
11776620.000000,-2.369604,-1.662548,1.102012,-1.392816,1.755022,1.152338,-0.563394,0.476311,-0.028247,0.828390,-0.317542,-0.356993,0.718507,-0.124690,-6.059222,43.145489,-20.608109,-8.641176,0.291532,1.760665,-0.175919,0.000000,0.000000,0.000000,0.000000,0.000000,0.000000
11776621.000000,-2.369133,-1.662568,1.102850,-1.393119,1.754662,1.153059,-0.563530,0.465900,-0.026038,0.826000,-0.314310,-0.358916,0.741464,-0.124730,-6.059222,43.121685,-20.512894,-8.787966,0.297025,1.793624,-0.097184,0.000000,0.000000,0.000000,0.000000,0.000000,0.000000
11776622.000000,-2.368668,-1.662586,1.103683,-1.393424,1.754316,1.153790,-0.563648,0.466252,-0.019877,0.823498,-0.311634,-0.350478,0.730281,-0.123959,-6.083025,43.026470,-20.631912,-9.061708,0.255826,1.819259,-0.163102,0.000000,0.000000,0.000000,0.000000,0.000000,0.000000
11776623.000000,-2.368205,-1.662611,1.104531,-1.393726,1.753972,1.154525,-0.563767,0.459866,-0.018477,0.824262,-0.304920,-0.346752,0.725065,-0.120607,-5.983843,43.050274,-20.782669,-9.307680,0.201810,1.865035,-0.182328,0.000000,0.000000,0.000000,0.000000,0.000000,0.000000
11776624.000000,-2.367747,-1.662626,1.105357,-1.394018,1.753625,1.155246,-0.563901,0.457439,-0.018415,0.820029,-0.302162,-0.347612,0.725422,-0.122029,-5.960040,42.974895,-20.830276,-9.704409,0.088285,1.819259,-0.089860,0.000000,0.000000,0.000000,0.000000,0.000000,0.000000
11776625.000000,-2.367294,-1.662646,1.106205,-1.394324,1.753275,1.155993,-0.564011,0.453257,-0.017137,0.819954,-0.302405,-0.347133,0.729498,-0.116941,-5.860857,42.974895,-21.024673,-9.898806,0.088285,1.760665,-0.163102,0.000000,0.000000,0.000000,0.000000,0.000000,0.000000
11776626.000000,-2.366841,-1.662661,1.107049,-1.394624,1.752930,1.156730,-0.564135,0.453339,-0.014951,0.822124,-0.300643,-0.346743,0.730574,-0.116741,-5.737872,42.927288,-21.199234,-10.025759,0.105680,1.779891,-0.142960,0.000000,0.000000,0.000000,0.000000,0.000000,0.000000
11776627.000000,-2.366393,-1.662681,1.107885,-1.394920,1.752590,1.157438,-0.564262,0.448096,-0.014502,0.823558,-0.299836,-0.341780,0.722173,-0.117654,-5.638690,42.927288,-21.346024,-10.220156,0.064481,1.916305,-0.116410,0.000000,0.000000,0.000000,0.000000,0.000000,0.000000
11776628.000000,-2.365957,-1.662695,1.108728,-1.395213,1.752241,1.158171,-0.564387,0.440429,-0.015350,0.823440,-0.297790,-0.342584,0.720132,-0.122361,-5.416522,42.851910,-21.516617,-10.370913,0.069974,1.909896,-0.083451,0.000000,0.000000,0.000000,0.000000,0.000000,0.000000
11776629.000000,-2.365542,-1.662715,1.109559,-1.395504,1.751897,1.158907,-0.564501,0.438581,-0.015438,0.823441,-0.295862,-0.343408,0.724228,-0.121113,-4.995989,42.875713,-21.615799,-10.541506,0.076383,1.800033,-0.169511,0.000000,0.000000,0.000000,0.000000,0.000000,0.000000
11776630.000000,-2.365112,-1.662726,1.110397,-1.395803,1.751568,1.159644,-0.564627,0.430371,-0.015652,0.822839,-0.296142,-0.341567,0.722792,-0.124708,-4.698443,42.780499,-21.687210,-10.640688,0.022367,1.793624,-0.130143,0.000000,0.000000,0.000000,0.000000,0.000000,0.000000
11776631.000000,-2.364695,-1.662739,1.111243,-1.396097,1.751227,1.160370,-0.564751,0.424189,-0.013935,0.825282,-0.294838,-0.339992,0.723027,-0.122283,-4.277911,42.728924,-21.762589,-10.668459,-0.007845,1.877853,-0.116410,0.000000,0.000000,0.000000,0.000000,0.000000,0.000000
11776632.000000,-2.364288,-1.662752,1.112068,-1.396393,1.750892,1.161090,-0.564872,0.415964,-0.013881,0.822820,-0.296552,-0.336752,0.720886,-0.118620,-3.928790,42.728924,-21.762589,-10.668459,0.010465,1.909896,-0.149369,0.000000,0.000000,0.000000,0.000000,0.000000,0.000000
11776633.000000,-2.363877,-1.662766,1.112911,-1.396697,1.750555,1.161833,-0.564995,0.415030,-0.013176,0.820443,-0.302822,-0.340446,0.721066,-0.118077,-3.559832,42.705120,-21.810196,-10.541506,0.064481,1.851302,-0.130143,0.000000,0.000000,0.000000,0.000000,0.000000,0.000000
11776634.000000,-2.363464,-1.662778,1.113747,-1.397005,1.750222,1.162556,-0.565108,0.414309,-0.012583,0.843060,-0.301522,-0.345036,0.717776,-0.119593,-3.286089,42.681316,-21.960953,-10.446291,0.027860,1.786300,-0.175919,0.000000,0.000000,0.000000,0.000000,0.000000,0.000000
11776635.000000,-2.363061,-1.662789,1.114600,-1.397331,1.749889,1.163300,-0.565226,0.406866,-0.012076,0.847943,-0.310816,-0.336176,0.724803,-0.123774,-2.988543,42.657513,-22.202957,-10.172548,0.027860,1.727706,-0.149369,0.000000,0.000000,0.000000,0.000000,0.000000,0.000000
11776636.000000,-2.362667,-1.662813,1.115461,-1.397649,1.749550,1.164043,-0.565348,0.398019,-0.012084,0.854735,-0.315689,-0.338377,0.728003,-0.118701,-2.619586,42.780499,-22.500504,-9.974184,0.040677,1.708480,-0.089860,0.000000,0.000000,0.000000,0.000000,0.000000,0.000000
11776637.000000,-2.362265,-1.662832,1.116305,-1.397977,1.749214,1.164765,-0.565454,0.404824,-0.013757,0.851935,-0.317091,-0.341586,0.728866,-0.113573,-2.369647,42.851910,-22.718704,-9.704409,0.093778,1.747848,-0.175919,0.000000,0.000000,0.000000,0.000000,0.000000,0.000000
11776638.000000,-2.361876,-1.662855,1.117161,-1.398307,1.748875,1.165481,-0.565578,0.402672,-0.019249,0.854372,-0.318914,-0.342355,0.725753,-0.121225,-2.072100,42.974895,-23.040054,-9.553652,0.112089,1.968490,-0.097184,0.000000,0.000000,0.000000,0.000000,0.000000,0.000000
11776639.000000,-2.361483,-1.662876,1.118022,-1.398635,1.748531,1.166208,-0.565692,0.397373,-0.022002,0.851376,-0.322645,-0.342613,0.733609,-0.117863,-1.778521,43.050274,-23.381241,-9.430666,0.129484,2.104903,-0.130143,0.000000,0.000000,0.000000,0.000000,0.000000,0.000000
11776640.000000,-2.361098,-1.662899,1.118872,-1.398976,1.748198,1.166942,-0.565800,0.395319,-0.024523,0.855562,-0.326204,-0.336801,0.732043,-0.115008,-1.528582,43.145489,-23.726395,-9.256105,0.201810,2.066451,-0.175919,0.000000,0.000000,0.000000,0.000000,0.000000,0.000000
11776641.000000,-2.360707,-1.662927,1.119732,-1.399319,1.747859,1.167679,-0.565916,0.391433,-0.028310,0.856878,-0.331776,-0.340542,0.734755,-0.116340,-1.330218,43.320049,-24.043777,-8.986330,0.255826,2.001449,-0.130143,0.000000,0.000000,0.000000,0.000000,0.000000,0.000000
11776642.000000,-2.360320,-1.662956,1.120576,-1.399673,1.747514,1.168396,-0.566023,0.392296,-0.027184,0.858773,-0.337208,-0.340288,0.730041,-0.113055,-1.159625,43.466839,-24.218338,-8.641176,0.237516,2.014266,-0.188737,0.000000,0.000000,0.000000,0.000000,0.000000,0.000000
11776643.000000,-2.359934,-1.662985,1.121435,-1.400037,1.747162,1.169108,-0.566141,0.388231,-0.029436,0.858170,-0.341848,-0.346324,0.722788,-0.115108,-1.008868,43.613628,-24.436539,-8.268251,0.381254,2.104903,-0.136552,0.000000,0.000000,0.000000,0.000000,0.000000,0.000000
11776644.000000,-2.359554,-1.663014,1.122290,-1.400391,1.746828,1.169817,-0.566245,0.383341,-0.031075,0.854570,-0.345905,-0.338143,0.712297,-0.112628,-0.762896,43.760418,-24.535721,-7.998476,0.362943,2.118636,-0.188737,0.000000,0.000000,0.000000,0.000000,0.000000,0.000000
11776645.000000,-2.359178,-1.663047,1.123124,-1.400752,1.746496,1.170532,-0.566360,0.385039,-0.032825,0.847788,-0.353438,-0.329479,0.711822,-0.113614,-0.564532,43.931011,-24.535721,-7.776308,0.332731,2.047225,-0.175919,0.000000,0.000000,0.000000,0.000000,0.000000,0.000000
11776646.000000,-2.358804,-1.663080,1.123974,-1.401103,1.746153,1.171256,-0.566469,0.379566,-0.033354,0.848825,-0.350340,-0.333125,0.719308,-0.113780,-0.314593,44.077801,-24.583328,-7.700929,0.344633,1.962081,-0.169511,0.000000,0.000000,0.000000,0.000000,0.000000,0.000000
11776647.000000,-2.358445,-1.663110,1.124819,-1.401462,1.745817,1.171957,-0.566581,0.378087,-0.033240,0.849368,-0.353204,-0.335060,0.718593,-0.112916,0.078168,44.200787,-24.706314,-7.554140,0.332731,1.968490,-0.182328,0.000000,0.000000,0.000000,0.000000,0.000000,0.000000
11776648.000000,-2.358073,-1.663136,1.125652,-1.401837,1.745480,1.172656,-0.566696,0.372511,-0.031446,0.840883,-0.357627,-0.332122,0.718124,-0.118581,0.252729,44.248394,-24.436539,-7.304201,0.416959,2.098495,-0.142960,0.000000,0.000000,0.000000,0.000000,0.000000,0.000000
11776649.000000,-2.357692,-1.663169,1.126492,-1.402211,1.745140,1.173374,-0.566806,0.368225,-0.032711,0.831552,-0.362655,-0.335553,0.717010,-0.120536,0.351911,44.395184,-24.313553,-6.982851,0.458158,2.150680,-0.175919,0.000000,0.000000,0.000000,0.000000,0.000000,0.000000
11776650.000000,-2.357324,-1.663196,1.127331,-1.402589,1.744803,1.174099,-0.566924,0.368695,-0.031800,0.832541,-0.364846,-0.339358,0.724636,-0.119540,0.502668,44.470562,-24.341324,-6.812257,0.500272,1.968490,-0.149369,0.000000,0.000000,0.000000,0.000000,0.000000,0.000000
11776651.000000,-2.356941,-1.663217,1.128180,-1.402973,1.744466,1.174827,-0.567035,0.373485,-0.025721,0.830742,-0.378103,-0.335571,0.723462,-0.122444,0.526471,44.442791,-24.488113,-6.490907,0.524076,1.786300,-0.155778,0.000000,0.000000,0.000000,0.000000,0.000000,0.000000
11776652.000000,-2.356560,-1.663239,1.129005,-1.403364,1.744140,1.175539,-0.567149,0.372868,-0.025114,0.844869,-0.382760,-0.334874,0.720257,-0.119952,0.502668,44.442791,-24.388931,-6.217165,0.464567,1.812850,-0.155778,0.000000,0.000000,0.000000,0.000000,0.000000,0.000000
11776653.000000,-2.356189,-1.663262,1.129840,-1.403767,1.743809,1.176262,-0.567262,0.374740,-0.024246,0.837989,-0.388003,-0.328626,0.718846,-0.118738,0.502668,44.418987,-24.388931,-5.848207,0.470060,1.825668,-0.142960,0.000000,0.000000,0.000000,0.000000,0.000000,0.000000
11776654.000000,-2.355806,-1.663285,1.130683,-1.404161,1.743468,1.176981,-0.567371,0.375315,-0.024270,0.836885,-0.393254,-0.336777,0.716258,-0.115862,0.427289,44.418987,-24.436539,-5.574464,0.589994,1.871444,-0.182328,0.000000,0.000000,0.000000,0.000000,0.000000,0.000000
11776655.000000,-2.355434,-1.663303,1.131503,-1.404553,1.743150,1.177684,-0.567483,0.374763,-0.025832,0.831549,-0.389660,-0.325635,0.711156,-0.110465,0.474897,44.347576,-24.436539,-5.451478,0.535978,2.033492,-0.175919,0.000000,0.000000,0.000000,0.000000,0.000000,0.000000
11776656.000000,-2.355055,-1.663317,1.132344,-1.404951,1.742829,1.178395,-0.567590,0.372011,-0.019732,0.832919,-0.393352,-0.325398,0.702531,-0.106180,0.427289,44.224590,-24.559525,-5.229311,0.554288,2.163497,-0.182328,0.000000,0.000000,0.000000,0.000000,0.000000,0.000000
11776657.000000,-2.354678,-1.663328,1.133187,-1.405337,1.742497,1.179125,-0.567696,0.373870,-0.018544,0.829215,-0.393896,-0.325599,0.704592,-0.108006,0.427289,44.101604,-24.734085,-5.106325,0.601896,2.112228,-0.182328,0.000000,0.000000,0.000000,0.000000,0.000000,0.000000
11776658.000000,-2.354308,-1.663341,1.134012,-1.405733,1.742170,1.179847,-0.567805,0.373279,-0.015067,0.828297,-0.392084,-0.322688,0.717903,-0.109294,0.502668,44.002422,-24.857071,-4.931764,0.637601,1.988631,-0.182328,0.000000,0.000000,0.000000,0.000000,0.000000,0.000000
11776659.000000,-2.353923,-1.663353,1.134839,-1.406128,1.741847,1.180569,-0.567913,0.376021,-0.012702,0.821706,-0.391502,-0.317641,0.720495,-0.109773,0.403486,43.907207,-24.880875,-4.757204,0.655912,2.014266,-0.196061,0.000000,0.000000,0.000000,0.000000,0.000000,0.000000
11776660.000000,-2.353548,-1.663361,1.135659,-1.406518,1.741510,1.181281,-0.568028,0.380076,-0.010761,0.818219,-0.389359,-0.326061,0.718603,-0.111858,0.502668,43.808025,-24.928482,-4.634218,0.703519,2.039901,-0.155778,0.000000,0.000000,0.000000,0.000000,0.000000,0.000000
11776661.000000,-2.353172,-1.663370,1.136479,-1.406918,1.741186,1.182003,-0.568128,0.378074,-0.009444,0.814226,-0.388166,-0.324868,0.715766,-0.109916,0.451093,43.708843,-24.928482,-4.511232,0.703519,1.968490,-0.215287,0.000000,0.000000,0.000000,0.000000,0.000000,0.000000
11776662.000000,-2.352802,-1.663375,1.137294,-1.407297,1.740862,1.182738,-0.568246,0.371450,-0.007802,0.810655,-0.383569,-0.323549,0.718475,-0.108998,0.526471,43.585857,-24.757889,-4.562807,0.715421,1.903487,-0.136552,0.000000,0.000000,0.000000,0.000000,0.000000,0.000000
11776663.000000,-2.352435,-1.663376,1.138097,-1.407686,1.740560,1.183445,-0.568353,0.368967,-0.005520,0.806099,-0.380536,-0.311053,0.715881,-0.110447,0.574079,43.415264,-24.611099,-4.562807,0.625699,1.974899,-0.136552,0.000000,0.000000,0.000000,0.000000,0.000000,0.000000
11776664.000000,-2.352061,-1.663375,1.138910,-1.408059,1.740238,1.184162,-0.568453,0.369337,-0.004028,0.802339,-0.375663,-0.313747,0.711548,-0.109143,0.625654,43.244671,-24.511917,-4.586610,0.608304,2.066451,-0.188737,0.000000,0.000000,0.000000,0.000000,0.000000,0.000000
11776665.000000,-2.351690,-1.663370,1.139716,-1.408444,1.739918,1.184877,-0.568564,0.368770,-0.001835,0.803039,-0.373348,-0.315711,0.722057,-0.110727,0.673261,43.026470,-24.511917,-4.562807,0.584501,2.104903,-0.169511,0.000000,0.000000,0.000000,0.000000,0.000000,0.000000
11776666.000000,-2.351318,-1.663367,1.140524,-1.408830,1.739606,1.185618,-0.568670,0.371674,-0.001436,0.800694,-0.373053,-0.309262,0.723838,-0.110703,0.649457,42.851910,-24.388931,-4.463624,0.589994,2.047225,-0.169511,0.000000,0.000000,0.000000,0.000000,0.000000,0.000000
11776667.000000,-2.350935,-1.663360,1.141333,-1.409215,1.739298,1.186361,-0.568776,0.373411,0.000432,0.798268,-0.378058,-0.312493,0.725460,-0.112269,0.526471,42.609905,-24.365128,-4.289064,0.608304,1.968490,-0.142960,0.000000,0.000000,0.000000,0.000000,0.000000,0.000000
11776668.000000,-2.350561,-1.663347,1.142144,-1.409595,1.738983,1.187081,-0.568874,0.376045,0.006060,0.801237,-0.376229,-0.317580,0.724433,-0.105334,0.474897,42.316326,-24.511917,-4.166078,0.661405,1.949264,-0.202470,0.000000,0.000000,0.000000,0.000000,0.000000,0.000000
11776669.000000,-2.350182,-1.663338,1.142959,-1.409972,1.738672,1.187819,-0.568980,0.373481,0.005823,0.797936,-0.386981,-0.313885,0.724920,-0.103990,0.403486,42.070354,-24.658707,-3.991518,0.685209,1.974899,-0.169511,0.000000,0.000000,0.000000,0.000000,0.000000,0.000000
11776670.000000,-2.349809,-1.663328,1.143775,-1.410346,1.738374,1.188532,-0.569083,0.372256,0.005106,0.812714,-0.384796,-0.309227,0.736532,-0.101212,0.427289,41.848186,-24.757889,-3.943910,0.661405,2.007858,-0.175919,0.000000,0.000000,0.000000,0.000000,0.000000,0.000000
11776671.000000,-2.349448,-1.663327,1.144573,-1.410717,1.738087,1.189251,-0.569185,0.367748,0.001005,0.806032,-0.378937,-0.297856,0.731032,-0.098550,0.550275,41.776775,-24.857071,-3.943910,0.644010,2.027084,-0.202470,0.000000,0.000000,0.000000,0.000000,0.000000,0.000000
11776672.000000,-2.349086,-1.663330,1.145387,-1.411082,1.737786,1.189956,-0.569293,0.362909,-0.000837,0.805081,-0.371441,-0.293421,0.720577,-0.104133,0.697065,41.800579,-25.003860,-3.967714,0.649503,2.222091,-0.155778,0.000000,0.000000,0.000000,0.000000,0.000000,0.000000
11776673.000000,-2.348733,-1.663332,1.146176,-1.411448,1.737496,1.190647,-0.569392,0.358578,-0.001828,0.798893,-0.369981,-0.293881,0.707362,-0.104513,0.923200,41.824383,-25.027664,-3.920107,0.601896,2.345687,-0.196061,0.000000,0.000000,0.000000,0.000000,0.000000,0.000000
11776674.000000,-2.348371,-1.663330,1.146967,-1.411820,1.737201,1.191363,-0.569497,0.355094,-0.001753,0.792571,-0.365843,-0.292153,0.704812,-0.107793,1.022382,41.824383,-24.880875,-3.892336,0.649503,2.339278,-0.169511,0.000000,0.000000,0.000000,0.000000,0.000000,0.000000
11776675.000000,-2.348019,-1.663334,1.147759,-1.412194,1.736912,1.192077,-0.569605,0.356303,-0.003333,0.787201,-0.366195,-0.289458,0.710902,-0.105292,1.244550,41.899761,-24.805496,-3.721742,0.679716,2.169906,-0.142960,0.000000,0.000000,0.000000,0.000000,0.000000,0.000000
11776676.000000,-2.347665,-1.663336,1.148539,-1.412562,1.736630,1.192807,-0.569702,0.351752,-0.003079,0.785877,-0.365019,-0.281971,0.716598,-0.099626,1.367536,41.923565,-24.682510,-3.697939,0.637601,2.053634,-0.215287,0.000000,0.000000,0.000000,0.000000,0.000000,0.000000
11776677.000000,-2.347308,-1.663341,1.149320,-1.412930,1.736334,1.193530,-0.569808,0.352688,-0.003392,0.781896,-0.365484,-0.282223,0.712545,-0.099885,1.466718,41.971172,-24.488113,-3.523378,0.655912,1.981307,-0.175919,0.000000,0.000000,0.000000,0.000000,0.000000,0.000000
11776678.000000,-2.346956,-1.663342,1.150087,-1.413289,1.736041,1.194236,-0.569911,0.353593,-0.002431,0.777836,-0.364959,-0.282796,0.710130,-0.098808,1.613508,41.971172,-24.166763,-3.499574,0.691617,1.949264,-0.163102,0.000000,0.000000,0.000000,0.000000,0.000000,0.000000
11776679.000000,-2.346617,-1.663346,1.150867,-1.413655,1.735758,1.194962,-0.570008,0.349856,-0.002954,0.777240,-0.359256,-0.282417,0.708489,-0.101377,1.788068,42.022747,-23.948563,-3.448000,0.698026,1.890670,-0.169511,0.000000,0.000000,0.000000,0.000000,0.000000,0.000000
11776680.000000,-2.346277,-1.663342,1.151643,-1.414004,1.735478,1.195687,-0.570097,0.344263,-0.001415,0.774152,-0.355858,-0.284180,0.711326,-0.098334,2.034040,41.994976,-23.627213,-3.499574,0.644010,1.865035,-0.202470,0.000000,0.000000,0.000000,0.000000,0.000000,0.000000
11776681.000000,-2.345934,-1.663331,1.152407,-1.414359,1.735192,1.196405,-0.570197,0.346041,0.002419,0.771918,-0.352810,-0.292993,0.712824,-0.098197,2.184797,41.848186,-23.409012,-3.547182,0.608304,1.858627,-0.188737,0.000000,0.000000,0.000000,0.000000,0.000000,0.000000
11776682.000000,-2.345594,-1.663324,1.153178,-1.414714,1.734900,1.197136,-0.570293,0.340662,0.003787,0.772934,-0.351696,-0.295567,0.719442,-0.096969,2.359357,41.752972,-23.234451,-3.448000,0.613798,1.800033,-0.196061,0.000000,0.000000,0.000000,0.000000,0.000000,0.000000
11776683.000000,-2.345242,-1.663312,1.153944,-1.415071,1.734612,1.197870,-0.570387,0.339279,0.006568,0.770722,-0.352661,-0.292254,0.723115,-0.100095,2.383161,41.578411,-23.163040,-3.400392,0.632108,1.682845,-0.215287,0.000000,0.000000,0.000000,0.000000,0.000000,0.000000
11776684.000000,-2.344896,-1.663297,1.154706,-1.415438,1.734327,1.198609,-0.570494,0.343774,0.011379,0.766379,-0.355950,-0.287996,0.723129,-0.101494,2.359357,41.407818,-22.988480,-3.225832,0.703519,1.630660,-0.142960,0.000000,0.000000,0.000000,0.000000,0.000000,0.000000
11776685.000000,-2.344543,-1.663280,1.155481,-1.415794,1.734042,1.199341,-0.570584,0.346730,0.013477,0.762728,-0.359236,-0.285418,0.717495,-0.097285,2.331586,41.165813,-22.940872,-3.154421,0.709928,1.611434,-0.202470,0.000000,0.000000,0.000000,0.000000,0.000000,0.000000
11776686.000000,-2.344197,-1.663262,1.156245,-1.416156,1.733755,1.200063,-0.570682,0.345953,0.014355,0.762093,-0.355466,-0.285323,0.720473,-0.097951,2.307783,40.943645,-22.964676,-3.055238,0.739225,1.643478,-0.163102,0.000000,0.000000,0.000000,0.000000,0.000000,0.000000
11776687.000000,-2.343845,-1.663239,1.157014,-1.416499,1.733480,1.200796,-0.570775,0.344422,0.018605,0.760541,-0.360348,-0.282226,0.723244,-0.096452,2.307783,40.697674,-22.893265,-3.102846,0.698026,1.624252,-0.175919,0.000000,0.000000,0.000000,0.000000,0.000000,0.000000
11776688.000000,-2.343495,-1.663222,1.157785,-1.416848,1.733212,1.201516,-0.570869,0.338782,0.020355,0.773003,-0.356163,-0.279461,0.736743,-0.095260,2.232404,40.503277,-22.865494,-3.178224,0.655912,1.624252,-0.188737,0.000000,0.000000,0.000000,0.000000,0.000000,0.000000
11776689.000000,-2.343150,-1.663201,1.158555,-1.417195,1.732941,1.202231,-0.570973,0.342430,0.022456,0.770614,-0.350476,-0.275317,0.732166,-0.096674,2.232404,40.281109,-22.964676,-3.225832,0.637601,1.747848,-0.142960,0.000000,0.000000,0.000000,0.000000,0.000000,0.000000
11776690.000000,-2.342795,-1.663179,1.159324,-1.417542,1.732670,1.202939,-0.571058,0.345535,0.023320,0.767031,-0.350986,-0.274957,0.716922,-0.093091,2.160993,40.086712,-23.040054,-3.225832,0.589994,1.930038,-0.221696,0.000000,0.000000,0.000000,0.000000,0.000000,0.000000
11776691.000000,-2.342442,-1.663159,1.160073,-1.417891,1.732391,1.203656,-0.571157,0.349530,0.022904,0.761540,-0.345433,-0.277221,0.718017,-0.094484,2.061811,39.939922,-22.964676,-3.178224,0.608304,1.949264,-0.188737,0.000000,0.000000,0.000000,0.000000,0.000000,0.000000
11776692.000000,-2.342082,-1.663138,1.160839,-1.418238,1.732125,1.204386,-0.571253,0.352395,0.023126,0.759416,-0.345007,-0.272813,0.721157,-0.095647,1.962629,39.769329,-22.964676,-3.126650,0.613798,1.858627,-0.155778,0.000000,0.000000,0.000000,0.000000,0.000000,0.000000
11776693.000000,-2.341725,-1.663114,1.161613,-1.418569,1.731859,1.205129,-0.571340,0.349899,0.023329,0.758314,-0.340729,-0.269174,0.729863,-0.093437,1.811872,39.598736,-22.988480,-3.225832,0.632108,1.727706,-0.202470,0.000000,0.000000,0.000000,0.000000,0.000000,0.000000
11776694.000000,-2.341374,-1.663087,1.162368,-1.418909,1.731593,1.205843,-0.571437,0.351635,0.025267,0.756757,-0.340505,-0.267971,0.731728,-0.094700,1.740461,39.352764,-22.964676,-3.178224,0.625699,1.714889,-0.175919,0.000000,0.000000,0.000000,0.000000,0.000000,0.000000
11776695.000000,-2.341020,-1.663066,1.163127,-1.419227,1.731332,1.206560,-0.571531,0.346208,0.023794,0.755330,-0.331691,-0.269540,0.725778,-0.094145,1.712690,39.229778,-22.841690,-3.400392,0.589994,1.741439,-0.188737,0.000000,0.000000,0.000000,0.000000,0.000000,0.000000
11776696.000000,-2.340663,-1.663051,1.163865,-1.419556,1.731068,1.207272,-0.571630,0.356251,0.021097,0.754822,-0.326622,-0.273014,0.727271,-0.094899,1.641279,39.182171,-22.548111,-3.448000,0.613798,1.779891,-0.163102,0.000000,0.000000,0.000000,0.000000,0.000000,0.000000
11776697.000000,-2.340307,-1.663031,1.164617,-1.419880,1.730819,1.207975,-0.571720,0.356206,0.020413,0.757323,-0.324015,-0.259384,0.716116,-0.097059,1.542096,39.082989,-22.353714,-3.570986,0.584501,1.884261,-0.208878,0.000000,0.000000,0.000000,0.000000,0.000000,0.000000
11776698.000000,-2.339942,-1.663008,1.165381,-1.420196,1.730564,1.208686,-0.571817,0.358849,0.021189,0.758384,-0.318282,-0.261892,0.709660,-0.097915,1.343732,38.936199,-22.278336,-3.721742,0.535978,1.942855,-0.169511,0.000000,0.000000,0.000000,0.000000,0.000000,0.000000
11776699.000000,-2.339584,-1.662986,1.166132,-1.420507,1.730306,1.209396,-0.571915,0.359723,0.021181,0.761069,-0.316133,-0.263998,0.716667,-0.093466,1.216779,38.813213,-22.254532,-3.892336,0.464567,1.819259,-0.142960,0.000000,0.000000,0.000000,0.000000,0.000000,0.000000
11776700.000000,-2.339220,-1.662970,1.166893,-1.420819,1.730043,1.210132,-0.572003,0.360601,0.018831,0.758048,-0.317908,-0.260158,0.718763,-0.092115,1.022382,38.789410,-22.230728,-4.019289,0.452665,1.605026,-0.182328,0.000000,0.000000,0.000000,0.000000,0.000000,0.000000
11776701.000000,-2.338853,-1.662949,1.167636,-1.421141,1.729783,1.210843,-0.572098,0.358005,0.021452,0.767005,-0.318747,-0.260816,0.721608,-0.092783,0.871625,38.717999,-22.155350,-3.967714,0.476469,1.507064,-0.175919,0.000000,0.000000,0.000000,0.000000,0.000000,0.000000
11776702.000000,-2.338486,-1.662939,1.168400,-1.421449,1.729534,1.211530,-0.572190,0.360155,0.017519,0.762066,-0.318007,-0.250144,0.709257,-0.092864,0.574079,38.765606,-22.202957,-4.090700,0.452665,1.682845,-0.182328,0.000000,0.000000,0.000000,0.000000,0.000000,0.000000
11776703.000000,-2.338123,-1.662927,1.169167,-1.421755,1.729269,1.212238,-0.572284,0.362298,0.018105,0.760156,-0.315091,-0.251605,0.702248,-0.094213,0.474897,38.813213,-22.325943,-4.189882,0.440763,1.806442,-0.155778,0.000000,0.000000,0.000000,0.000000,0.000000,0.000000
11776704.000000,-2.337767,-1.662915,1.169919,-1.422049,1.729003,1.212944,-0.572371,0.360978,0.015995,0.760625,-0.307241,-0.255100,0.704153,-0.087780,0.403486,38.837017,-22.401321,-4.364442,0.452665,1.754256,-0.196061,0.000000,0.000000,0.000000,0.000000,0.000000,0.000000
11776705.000000,-2.337406,-1.662912,1.170671,-1.422343,1.728747,1.213661,-0.572461,0.357659,0.011708,0.754826,-0.307697,-0.253983,0.707556,-0.085537,0.351911,38.983807,-22.425125,-4.511232,0.464567,1.714889,-0.175919,0.000000,0.000000,0.000000,0.000000,0.000000,0.000000
11776706.000000,-2.337038,-1.662898,1.171435,-1.422638,1.728495,1.214340,-0.572549,0.356375,0.012795,0.754522,-0.301279,-0.253888,0.714263,-0.083147,0.205121,38.960003,-22.524307,-4.610414,0.452665,1.884261,-0.169511,0.000000,0.000000,0.000000,0.000000,0.000000,0.000000
11776707.000000,-2.336681,-1.662892,1.172182,-1.422919,1.728245,1.215033,-0.572632,0.358028,0.010470,0.751500,-0.293695,-0.253709,0.706174,-0.084557,0.078168,39.059185,-22.571915,-4.808778,0.470060,2.027084,-0.202470,0.000000,0.000000,0.000000,0.000000,0.000000,0.000000
11776708.000000,-2.336318,-1.662893,1.172925,-1.423211,1.727984,1.215755,-0.572724,0.356884,0.007299,0.745744,-0.292956,-0.259832,0.710138,-0.088042,0.006757,39.229778,-22.353714,-4.832582,0.524076,1.884261,-0.175919,0.000000,0.000000,0.000000,0.000000,0.000000,0.000000
11776709.000000,-2.335954,-1.662892,1.173666,-1.423492,1.727723,1.216460,-0.572812,0.358587,0.006289,0.743091,-0.286317,-0.256960,0.707582,-0.088385,-0.068621,39.352764,-22.278336,-4.955568,0.518583,1.767074,-0.202470,0.000000,0.000000,0.000000,0.000000,0.000000,0.000000
11776710.000000,-2.335591,-1.662890,1.174429,-1.423779,1.727474,1.217168,-0.572902,0.358702,0.004924,0.747641,-0.286898,-0.253481,0.703700,-0.085983,-0.167803,39.499554,-22.377518,-4.983339,0.482877,1.786300,-0.182328,0.000000,0.000000,0.000000,0.000000,0.000000,0.000000
11776711.000000,-2.335237,-1.662890,1.175179,-1.424047,1.727234,1.217881,-0.572985,0.351239,0.003992,0.745933,-0.279689,-0.245267,0.702958,-0.086776,-0.191607,39.646343,-22.254532,-5.205507,0.393156,1.760665,-0.215287,0.000000,0.000000,0.000000,0.000000,0.000000,0.000000
11776712.000000,-2.334891,-1.662896,1.175911,-1.424324,1.726985,1.218596,-0.573078,0.350857,0.001697,0.743870,-0.273273,-0.247455,0.710754,-0.089988,-0.167803,39.868511,-22.056168,-5.304689,0.410551,1.656295,-0.182328,0.000000,0.000000,0.000000,0.000000,0.000000,0.000000
11776713.000000,-2.334541,-1.662895,1.176652,-1.424582,1.726740,1.219316,-0.573164,0.348552,-0.000586,0.734928,-0.271949,-0.251127,0.713348,-0.091747,-0.092425,39.987530,-21.861771,-5.550661,0.351041,1.572067,-0.163102,0.000000,0.000000,0.000000,0.000000,0.000000,0.000000
11776714.000000,-2.334191,-1.662895,1.177390,-1.424850,1.726498,1.220021,-0.573246,0.357291,-0.001353,0.734609,-0.269997,-0.246646,0.709243,-0.090677,-0.116229,40.062908,-21.738785,-5.721254,0.308927,1.578475,-0.202470,0.000000,0.000000,0.000000,0.000000,0.000000,0.000000
11776715.000000,-2.333832,-1.662897,1.178136,-1.425112,1.726255,1.220726,-0.573338,0.357752,-0.003179,0.733541,-0.264671,-0.248247,0.709024,-0.093425,-0.215411,40.185894,-21.568192,-5.919618,0.320829,1.643478,-0.142960,0.000000,0.000000,0.000000,0.000000,0.000000,0.000000
11776716.000000,-2.333478,-1.662896,1.178883,-1.425369,1.726013,1.221443,-0.573419,0.351714,-0.003339,0.732634,-0.264592,-0.246361,0.703752,-0.087063,-0.342364,40.257305,-21.417435,-6.094179,0.362943,1.584884,-0.188737,0.000000,0.000000,0.000000,0.000000,0.000000,0.000000
11776717.000000,-2.333125,-1.662893,1.179617,-1.425636,1.725776,1.222165,-0.573505,0.350687,-0.002445,0.732723,-0.266881,-0.245842,0.711422,-0.085358,-0.441546,40.281109,-21.270645,-6.141786,0.405057,1.474105,-0.163102,0.000000,0.000000,0.000000,0.000000,0.000000,0.000000
11776718.000000,-2.332765,-1.662887,1.180371,-1.425896,1.725534,1.222878,-0.573585,0.350172,0.002879,0.733179,-0.270475,-0.244895,0.710644,-0.086491,-0.588336,40.233501,-21.346024,-6.193361,0.362943,1.494247,-0.188737,0.000000,0.000000,0.000000,0.000000,0.000000,0.000000
11776719.000000,-2.332408,-1.662876,1.181113,-1.426162,1.725298,1.223592,-0.573665,0.352390,0.004691,0.750382,-0.270558,-0.239429,0.712031,-0.083172,-0.687518,40.134319,-21.369827,-6.141786,0.273221,1.507064,-0.202470,0.000000,0.000000,0.000000,0.000000,0.000000,0.000000
11776720.000000,-2.332059,-1.662868,1.181860,-1.426428,1.725063,1.224316,-0.573754,0.352468,0.005137,0.748565,-0.268874,-0.237176,0.718596,-0.083733,-0.711321,40.062908,-21.369827,-6.141786,0.273221,1.507064,-0.136552,0.000000,0.000000,0.000000,0.000000,0.000000,0.000000
11776721.000000,-2.331715,-1.662855,1.182623,-1.426689,1.724825,1.225035,-0.573827,0.347576,0.007112,0.752607,-0.267766,-0.236202,0.716236,-0.083522,-0.711321,39.916119,-21.492813,-6.141786,0.303434,1.552840,-0.208878,0.000000,0.000000,0.000000,0.000000,0.000000,0.000000
11776722.000000,-2.331366,-1.662842,1.183369,-1.426949,1.724597,1.225740,-0.573919,0.347691,0.008923,0.755167,-0.265433,-0.241690,0.713112,-0.083830,-0.810504,39.745525,-21.568192,-6.169557,0.267728,1.662704,-0.142960,0.000000,0.000000,0.000000,0.000000,0.000000,0.000000
11776723.000000,-2.331020,-1.662829,1.184133,-1.427213,1.724360,1.226454,-0.574002,0.343209,0.009525,0.758143,-0.272648,-0.244757,0.710432,-0.086305,-0.810504,39.598736,-21.762589,-6.117982,0.291532,1.735030,-0.142960,0.000000,0.000000,0.000000,0.000000,0.000000,0.000000
11776724.000000,-2.330666,-1.662817,1.184901,-1.427476,1.724120,1.227162,-0.574079,0.343503,0.011940,0.759310,-0.267763,-0.243223,0.711119,-0.080993,-0.862078,39.499554,-21.984756,-6.094179,0.315336,1.786300,-0.208878,0.000000,0.000000,0.000000,0.000000,0.000000,0.000000
11776725.000000,-2.330316,-1.662800,1.185654,-1.427743,1.723888,1.227877,-0.574172,0.345125,0.014784,0.754703,-0.265003,-0.233966,0.710595,-0.086635,-0.933489,39.352764,-22.155350,-6.018800,0.308927,1.747848,-0.149369,0.000000,0.000000,0.000000,0.000000,0.000000,0.000000
11776726.000000,-2.329984,-1.662797,1.186420,-1.428010,1.723657,1.228586,-0.574251,0.342119,0.012391,0.753454,-0.266224,-0.237800,0.711282,-0.081370,-0.909686,39.400372,-22.325943,-5.947389,0.308927,1.754256,-0.215287,0.000000,0.000000,0.000000,0.000000,0.000000,0.000000
11776727.000000,-2.329641,-1.662787,1.187176,-1.428285,1.723426,1.229281,-0.574335,0.345252,0.012631,0.753018,-0.265071,-0.235930,0.712400,-0.080327,-0.862078,39.376568,-22.472733,-5.820436,0.320829,1.773483,-0.202470,0.000000,0.000000,0.000000,0.000000,0.000000,0.000000
11776728.000000,-2.329306,-1.662779,1.187943,-1.428548,1.723196,1.229966,-0.574420,0.343655,0.009725,0.754419,-0.267014,-0.236787,0.695089,-0.078942,-0.834307,39.352764,-22.571915,-5.848207,0.255826,1.897079,-0.208878,0.000000,0.000000,0.000000,0.000000,0.000000,0.000000
11776729.000000,-2.328969,-1.662772,1.188703,-1.428820,1.722952,1.230668,-0.574509,0.337817,0.009532,0.754254,-0.265794,-0.237054,0.691036,-0.084988,-0.735125,39.376568,-22.595718,-5.848207,0.273221,1.930038,-0.149369,0.000000,0.000000,0.000000,0.000000,0.000000,0.000000
11776730.000000,-2.328640,-1.662764,1.189447,-1.429098,1.722720,1.231359,-0.574594,0.330526,0.006473,0.748731,-0.268660,-0.234661,0.694079,-0.087069,-0.663714,39.400372,-22.500504,-5.796632,0.261320,1.916305,-0.149369,0.000000,0.000000,0.000000,0.000000,0.000000,0.000000
11776731.000000,-2.328309,-1.662756,1.190200,-1.429373,1.722481,1.232068,-0.574670,0.329946,0.007963,0.746272,-0.272840,-0.233488,0.696369,-0.086604,-0.564532,39.400372,-22.401321,-5.697450,0.273221,1.851302,-0.208878,0.000000,0.000000,0.000000,0.000000,0.000000,0.000000
11776732.000000,-2.327980,-1.662750,1.190954,-1.429660,1.722239,1.232755,-0.574762,0.330572,0.005300,0.751228,-0.277072,-0.236151,0.693416,-0.086865,-0.465350,39.428143,-22.401321,-5.550661,0.320829,1.838485,-0.122819,0.000000,0.000000,0.000000,0.000000,0.000000,0.000000
11776733.000000,-2.327651,-1.662737,1.191715,-1.429959,1.722007,1.233447,-0.574834,0.329079,0.005221,0.751545,-0.282820,-0.238522,0.693603,-0.080258,-0.366168,39.376568,-22.377518,-5.276918,0.297025,1.865035,-0.208878,0.000000,0.000000,0.000000,0.000000,0.000000,0.000000
11776734.000000,-2.327319,-1.662731,1.192483,-1.430243,1.721759,1.234158,-0.574921,0.325763,0.003284,0.756940,-0.284235,-0.238034,0.703410,-0.081155,-0.290789,39.400372,-22.448929,-5.106325,0.356534,1.773483,-0.155778,0.000000,0.000000,0.000000,0.000000,0.000000,0.000000
11776735.000000,-2.326993,-1.662724,1.193237,-1.430540,1.721519,1.234852,-0.575002,0.323070,0.002460,0.758389,-0.288592,-0.240994,0.695689,-0.079636,-0.266986,39.400372,-22.524307,-4.907960,0.410551,1.689254,-0.163102,0.000000,0.000000,0.000000,0.000000,0.000000,0.000000
11776736.000000,-2.326669,-1.662714,1.194006,-1.430834,1.721283,1.235549,-0.575076,0.321668,0.002957,0.758893,-0.295077,-0.237111,0.688496,-0.077277,-0.167803,39.352764,-22.671097,-4.661989,0.393156,1.727706,-0.196061,0.000000,0.000000,0.000000,0.000000,0.000000,0.000000
11776737.000000,-2.326344,-1.662706,1.194771,-1.431129,1.721052,1.236221,-0.575165,0.317948,0.002123,0.776948,-0.293230,-0.235974,0.681282,-0.078612,-0.068621,39.352764,-22.893265,-4.487428,0.381254,1.865035,-0.149369,0.000000,0.000000,0.000000,0.000000,0.000000,0.000000
11776738.000000,-2.326032,-1.662701,1.195537,-1.431429,1.720820,1.236923,-0.575240,0.315679,0.001530,0.769981,-0.291669,-0.235595,0.681773,-0.075358,0.129743,39.352764,-23.016251,-4.312868,0.416959,1.865035,-0.215287,0.000000,0.000000,0.000000,0.000000,0.000000,0.000000
11776739.000000,-2.325711,-1.662700,1.196313,-1.431724,1.720582,1.237618,-0.575325,0.316470,0.002504,0.767640,-0.293976,-0.238629,0.693833,-0.076522,0.228925,39.428143,-23.258255,-4.142274,0.410551,1.916305,-0.188737,0.000000,0.000000,0.000000,0.000000,0.000000,0.000000
11776740.000000,-2.325398,-1.662697,1.197071,-1.432025,1.720337,1.238299,-0.575409,0.321991,0.004050,0.766296,-0.295004,-0.232705,0.693075,-0.077070,0.304304,39.475750,-23.381241,-3.967714,0.458158,2.001449,-0.163102,0.000000,0.000000,0.000000,0.000000,0.000000,0.000000
11776741.000000,-2.325082,-1.662696,1.197850,-1.432328,1.720107,1.238986,-0.575484,0.319182,0.005249,0.763799,-0.295541,-0.231689,0.694862,-0.075396,0.375715,39.523357,-23.627213,-3.844728,0.464567,2.092086,-0.196061,0.000000,0.000000,0.000000,0.000000,0.000000,0.000000
11776742.000000,-2.324767,-1.662700,1.198614,-1.432628,1.719869,1.239692,-0.575566,0.315686,0.001824,0.758687,-0.293301,-0.233747,0.697217,-0.075987,0.502668,39.622540,-23.678787,-3.697939,0.506681,1.968490,-0.182328,0.000000,0.000000,0.000000,0.000000,0.000000,0.000000
11776743.000000,-2.324451,-1.662707,1.199368,-1.432929,1.719631,1.240394,-0.575641,0.315578,-0.001177,0.757032,-0.296272,-0.236057,0.698171,-0.074803,0.526471,39.745525,-23.702591,-3.598757,0.596403,1.838485,-0.208878,0.000000,0.000000,0.000000,0.000000,0.000000,0.000000
11776744.000000,-2.324134,-1.662712,1.200126,-1.433225,1.719398,1.241079,-0.575727,0.310844,-0.001535,0.750945,-0.294945,-0.238050,0.686589,-0.077068,0.574079,39.793133,-23.678787,-3.547182,0.566190,1.877853,-0.155778,0.000000,0.000000,0.000000,0.000000,0.000000,0.000000
11776745.000000,-2.323824,-1.662716,1.200872,-1.433524,1.719165,1.241757,-0.575801,0.311611,-0.001865,0.750372,-0.293739,-0.234708,0.685860,-0.073903,0.601850,39.840740,-23.627213,-3.499574,0.547880,1.988631,-0.221696,0.000000,0.000000,0.000000,0.000000,0.000000,0.000000
11776746.000000,-2.323518,-1.662733,1.201622,-1.433822,1.718936,1.242449,-0.575882,0.313077,-0.005679,0.746550,-0.294091,-0.229426,0.683797,-0.076328,0.724836,40.039104,-23.432816,-3.547182,0.584501,2.001449,-0.169511,0.000000,0.000000,0.000000,0.000000,0.000000,0.000000
11776747.000000,-2.323214,-1.662742,1.202378,-1.434118,1.718711,1.243159,-0.575955,0.306031,-0.009020,0.747133,-0.292711,-0.228892,0.685764,-0.075011,0.923200,40.134319,-23.258255,-3.547182,0.547880,1.923629,-0.196061,0.000000,0.000000,0.000000,0.000000,0.000000,0.000000
11776748.000000,-2.322907,-1.662747,1.203124,-1.434411,1.718495,1.243858,-0.576033,0.307770,-0.007368,0.749592,-0.290971,-0.221329,0.696002,-0.075564,0.970807,40.185894,-23.111465,-3.547182,0.512174,1.871444,-0.182328,0.000000,0.000000,0.000000,0.000000,0.000000,0.000000
11776749.000000,-2.322603,-1.662749,1.203878,-1.434706,1.718276,1.244561,-0.576109,0.306003,-0.005580,0.751357,-0.294059,-0.221121,0.690749,-0.070628,1.121564,40.209698,-23.040054,-3.523378,0.446256,1.858627,-0.188737,0.000000,0.000000,0.000000,0.000000,0.000000,0.000000
11776750.000000,-2.322298,-1.662745,1.204615,-1.435006,1.718045,1.245271,-0.576179,0.305437,-0.002690,0.748450,-0.292390,-0.220426,0.696613,-0.070751,1.145368,40.162090,-22.865494,-3.400392,0.464567,1.741439,-0.215287,0.000000,0.000000,0.000000,0.000000,0.000000,0.000000
11776751.000000,-2.321989,-1.662742,1.205358,-1.435302,1.717824,1.245987,-0.576262,0.304025,-0.000650,0.740517,-0.293456,-0.224169,0.696645,-0.074422,1.121564,40.110516,-22.694901,-3.301210,0.500272,1.617843,-0.149369,0.000000,0.000000,0.000000,0.000000,0.000000,0.000000
11776752.000000,-2.321682,-1.662739,1.206113,-1.435598,1.717602,1.246699,-0.576329,0.302713,0.000634,0.737864,-0.295342,-0.225806,0.696442,-0.072305,1.145368,40.062908,-22.694901,-3.154421,0.524076,1.630660,-0.208878,0.000000,0.000000,0.000000,0.000000,0.000000,0.000000
11776753.000000,-2.321367,-1.662727,1.206856,-1.435884,1.717384,1.247386,-0.576409,0.309003,0.004934,0.740116,-0.288881,-0.225546,0.694673,-0.074942,1.069990,39.868511,-22.718704,-3.178224,0.535978,1.702071,-0.169511,0.000000,0.000000,0.000000,0.000000,0.000000,0.000000
11776754.000000,-2.321061,-1.662717,1.207601,-1.436170,1.717170,1.248089,-0.576477,0.305039,0.006140,0.737011,-0.294720,-0.222210,0.693688,-0.073227,1.069990,39.745525,-22.623489,-3.102846,0.571683,1.714889,-0.215287,0.000000,0.000000,0.000000,0.000000,0.000000,0.000000
11776755.000000,-2.320755,-1.662706,1.208353,-1.436457,1.716949,1.248777,-0.576548,0.304992,0.007507,0.749698,-0.290323,-0.220157,0.708711,-0.068934,1.046186,39.598736,-22.623489,-3.079042,0.578092,1.747848,-0.221696,0.000000,0.000000,0.000000,0.000000,0.000000,0.000000
11776756.000000,-2.320448,-1.662696,1.209096,-1.436743,1.716736,1.249475,-0.576627,0.304496,0.008424,0.749051,-0.287777,-0.211305,0.705893,-0.072781,0.871625,39.451946,-22.671097,-3.027467,0.566190,1.773483,-0.163102,0.000000,0.000000,0.000000,0.000000,0.000000,0.000000
11776757.000000,-2.320143,-1.662685,1.209851,-1.437027,1.716525,1.250176,-0.576691,0.303122,0.009038,0.746024,-0.291481,-0.209175,0.699254,-0.070896,0.871625,39.305157,-22.770279,-3.003664,0.535978,1.786300,-0.229020,0.000000,0.000000,0.000000,0.000000,0.000000,0.000000
11776758.000000,-2.319831,-1.662673,1.210595,-1.437318,1.716312,1.250862,-0.576771,0.305156,0.009451,0.747153,-0.288818,-0.208977,0.689242,-0.074397,0.772443,39.158367,-22.865494,-2.928285,0.535978,1.806442,-0.163102,0.000000,0.000000,0.000000,0.000000,0.000000,0.000000
11776759.000000,-2.319518,-1.662664,1.211350,-1.437605,1.716106,1.251565,-0.576839,0.305659,0.009171,0.751219,-0.287338,-0.209278,0.685785,-0.069543,0.697065,39.035381,-23.016251,-2.856874,0.547880,1.806442,-0.169511,0.000000,0.000000,0.000000,0.000000,0.000000,0.000000
11776760.000000,-2.319215,-1.662655,1.212095,-1.437885,1.715902,1.252251,-0.576906,0.300273,0.008986,0.749186,-0.287971,-0.214742,0.685501,-0.064974,0.748639,38.912395,-23.063858,-2.833071,0.530485,1.793624,-0.202470,0.000000,0.000000,0.000000,0.000000,0.000000,0.000000
11776761.000000,-2.318910,-1.662649,1.212836,-1.438169,1.715694,1.252950,-0.576981,0.304370,0.010919,0.748330,-0.284929,-0.211847,0.684827,-0.064041,0.697065,38.837017,-23.135269,-2.805300,0.494779,1.779891,-0.169511,0.000000,0.000000,0.000000,0.000000,0.000000,0.000000
11776762.000000,-2.318612,-1.662639,1.213578,-1.438439,1.715482,1.253638,-0.577054,0.302248,0.010324,0.740949,-0.280632,-0.210245,0.684382,-0.062351,0.724836,38.717999,-23.111465,-2.880678,0.470060,1.858627,-0.163102,0.000000,0.000000,0.000000,0.000000,0.000000,0.000000
11776763.000000,-2.318310,-1.662632,1.214310,-1.438709,1.715272,1.254314,-0.577123,0.308402,0.008285,0.736579,-0.279696,-0.212046,0.676724,-0.059942,0.796247,38.666424,-23.063858,-3.003664,0.476469,1.916305,-0.182328,0.000000,0.000000,0.000000,0.000000,0.000000,0.000000
11776764.000000,-2.318013,-1.662625,1.215049,-1.438984,1.715062,1.255013,-0.577191,0.305797,0.007898,0.731978,-0.277941,-0.212015,0.682663,-0.063178,0.847822,38.571209,-22.964676,-3.055238,0.500272,1.903487,-0.188737,0.000000,0.000000,0.000000,0.000000,0.000000,0.000000
11776765.000000,-2.317712,-1.662617,1.215786,-1.439254,1.714856,1.255707,-0.577265,0.302314,0.010298,0.730138,-0.274938,-0.210529,0.683602,-0.067189,0.871625,38.495831,-22.794083,-3.055238,0.500272,1.858627,-0.163102,0.000000,0.000000,0.000000,0.000000,0.000000,0.000000
11776766.000000,-2.317414,-1.662605,1.216513,-1.439529,1.714648,1.256393,-0.577330,0.300620,0.012584,0.728117,-0.277049,-0.215511,0.683661,-0.066893,0.824018,38.396648,-22.671097,-2.956056,0.542386,1.838485,-0.221696,0.000000,0.000000,0.000000,0.000000,0.000000,0.000000
11776767.000000,-2.317120,-1.662595,1.217250,-1.439794,1.714436,1.257092,-0.577401,0.295027,0.011131,0.725277,-0.278153,-0.213932,0.683663,-0.069877,0.824018,38.301434,-22.571915,-2.956056,0.554288,1.773483,-0.202470,0.000000,0.000000,0.000000,0.000000,0.000000,0.000000
11776768.000000,-2.316824,-1.662585,1.217982,-1.440064,1.714231,1.257782,-0.577474,0.293552,0.011343,0.739971,-0.276227,-0.207431,0.689740,-0.073059,0.824018,38.277630,-22.524307,-2.880678,0.524076,1.714889,-0.149369,0.000000,0.000000,0.000000,0.000000,0.000000,0.000000
11776769.000000,-2.316530,-1.662582,1.218715,-1.440329,1.714030,1.258488,-0.577537,0.292360,0.006986,0.738180,-0.275521,-0.201586,0.695486,-0.071058,0.871625,38.325237,-22.425125,-2.904482,0.500272,1.617843,-0.215287,0.000000,0.000000,0.000000,0.000000,0.000000,0.000000
11776770.000000,-2.316233,-1.662568,1.219461,-1.440594,1.713835,1.259194,-0.577611,0.290325,0.009220,0.741085,-0.271936,-0.196609,0.697782,-0.069414,0.895429,38.277630,-22.472733,-2.928285,0.464567,1.572067,-0.163102,0.000000,0.000000,0.000000,0.000000,0.000000,0.000000
11776771.000000,-2.315942,-1.662564,1.220195,-1.440852,1.713637,1.259875,-0.577680,0.290264,0.007531,0.743919,-0.267447,-0.202428,0.695042,-0.070347,0.970807,38.372845,-22.571915,-3.003664,0.440763,1.662704,-0.182328,0.000000,0.000000,0.000000,0.000000,0.000000,0.000000
11776772.000000,-2.315657,-1.662557,1.220932,-1.441113,1.713439,1.260567,-0.577751,0.288007,0.008834,0.738624,-0.270619,-0.205128,0.687988,-0.066668,1.046186,38.372845,-22.571915,-3.027467,0.476469,1.708480,-0.188737,0.000000,0.000000,0.000000,0.000000,0.000000,0.000000
11776773.000000,-2.315361,-1.662558,1.221678,-1.441376,1.713231,1.261254,-0.577823,0.290160,0.003778,0.747812,-0.269618,-0.208986,0.686039,-0.064444,0.994611,38.495831,-22.718704,-3.003664,0.524076,1.727706,-0.182328,0.000000,0.000000,0.000000,0.000000,0.000000,0.000000
11776774.000000,-2.315072,-1.662555,1.222406,-1.441635,1.713027,1.261949,-0.577891,0.289567,0.001330,0.743740,-0.263656,-0.210362,0.683434,-0.061049,0.994611,38.571209,-22.770279,-3.055238,0.571683,1.767074,-0.221696,0.000000,0.000000,0.000000,0.000000,0.000000,0.000000
11776775.000000,-2.314777,-1.662558,1.223151,-1.441882,1.712829,1.262651,-0.577964,0.288811,0.000911,0.740699,-0.258055,-0.204682,0.685948,-0.066201,0.994611,38.717999,-22.988480,-3.178224,0.584501,1.800033,-0.182328,0.000000,0.000000,0.000000,0.000000,0.000000,0.000000
11776776.000000,-2.314478,-1.662558,1.223884,-1.442146,1.712634,1.263345,-0.578030,0.291361,0.002120,0.740298,-0.259386,-0.204729,0.689938,-0.063136,0.895429,38.813213,-23.111465,-3.178224,0.571683,1.786300,-0.196061,0.000000,0.000000,0.000000,0.000000,0.000000,0.000000
11776777.000000,-2.314183,-1.662560,1.224630,-1.442406,1.712439,1.264054,-0.578096,0.288569,-0.000768,0.739334,-0.259885,-0.200706,0.691985,-0.065781,0.847822,38.936199,-23.258255,-3.225832,0.578092,1.767074,-0.208878,0.000000,0.000000,0.000000,0.000000,0.000000,0.000000
11776778.000000,-2.313889,-1.662568,1.225361,-1.442656,1.712252,1.264762,-0.578163,0.286946,-0.004538,0.736988,-0.256787,-0.196751,0.693350,-0.062554,0.796247,39.130596,-23.135269,-3.277406,0.535978,1.779891,-0.235429,0.000000,0.000000,0.000000,0.000000,0.000000,0.000000
11776779.000000,-2.313597,-1.662563,1.226091,-1.442908,1.712066,1.265453,-0.578235,0.287069,-0.002634,0.737752,-0.253553,-0.192355,0.688267,-0.067052,0.847822,39.130596,-23.135269,-3.348818,0.482877,1.825668,-0.202470,0.000000,0.000000,0.000000,0.000000,0.000000,0.000000
11776780.000000,-2.313305,-1.662567,1.226827,-1.443153,1.711871,1.266157,-0.578309,0.287683,-0.003226,0.736908,-0.250948,-0.191325,0.689027,-0.070375,0.824018,39.205975,-23.111465,-3.448000,0.482877,1.832076,-0.169511,0.000000,0.000000,0.000000,0.000000,0.000000,0.000000
11776781.000000,-2.313024,-1.662570,1.227546,-1.443394,1.711685,1.266851,-0.578371,0.291192,-0.003044,0.732220,-0.245481,-0.190703,0.684834,-0.069070,0.895429,39.253582,-22.988480,-3.570986,0.446256,1.760665,-0.229020,0.000000,0.000000,0.000000,0.000000,0.000000,0.000000
11776782.000000,-2.312728,-1.662572,1.228273,-1.443639,1.711494,1.267557,-0.578446,0.290012,-0.001865,0.726554,-0.241973,-0.192420,0.691352,-0.072810,0.796247,39.253582,-22.917068,-3.670168,0.506681,1.689254,-0.163102,0.000000,0.000000,0.000000,0.000000,0.000000,0.000000
11776783.000000,-2.312440,-1.662575,1.229012,-1.443876,1.711312,1.268250,-0.578515,0.285839,-0.001769,0.726360,-0.239390,-0.189273,0.688844,-0.068082,0.824018,39.281353,-22.865494,-3.769350,0.470060,1.689254,-0.175919,0.000000,0.000000,0.000000,0.000000,0.000000,0.000000
11776784.000000,-2.312154,-1.662573,1.229737,-1.444113,1.711135,1.268934,-0.578577,0.284866,0.000120,0.725681,-0.237840,-0.191479,0.685035,-0.063170,0.772443,39.229778,-22.770279,-3.820925,0.434354,1.727706,-0.229020,0.000000,0.000000,0.000000,0.000000,0.000000,0.000000
11776785.000000,-2.311866,-1.662576,1.230464,-1.444337,1.710947,1.269631,-0.578652,0.282954,-0.001057,0.720322,-0.238370,-0.191860,0.688004,-0.068782,0.748639,39.281353,-22.548111,-3.967714,0.470060,1.689254,-0.163102,0.000000,0.000000,0.000000,0.000000,0.000000,0.000000
11776786.000000,-2.311569,-1.662577,1.231185,-1.444567,1.710759,1.270319,-0.578711,0.285032,-0.001209,0.718631,-0.233865,-0.191675,0.691546,-0.063781,0.697065,39.305157,-22.472733,-4.066896,0.452665,1.656295,-0.208878,0.000000,0.000000,0.000000,0.000000,0.000000,0.000000
11776787.000000,-2.311277,-1.662575,1.231914,-1.444794,1.710579,1.271016,-0.578778,0.288554,-0.000210,0.717557,-0.229600,-0.183880,0.693910,-0.062286,0.601850,39.281353,-22.425125,-4.189882,0.410551,1.637069,-0.202470,0.000000,0.000000,0.000000,0.000000,0.000000,0.000000
11776788.000000,-2.310984,-1.662577,1.232650,-1.445021,1.710392,1.271710,-0.578847,0.285586,-0.000111,0.718290,-0.229617,-0.179655,0.689707,-0.066374,0.451093,39.281353,-22.448929,-4.189882,0.416959,1.643478,-0.182328,0.000000,0.000000,0.000000,0.000000,0.000000,0.000000
11776789.000000,-2.310693,-1.662578,1.233367,-1.445247,1.710209,1.272397,-0.578915,0.288097,-0.000052,0.721911,-0.229479,-0.181631,0.690040,-0.063171,0.375715,39.281353,-22.353714,-4.289064,0.440763,1.695663,-0.202470,0.000000,0.000000,0.000000,0.000000,0.000000,0.000000
11776790.000000,-2.310395,-1.662573,1.234104,-1.445475,1.710028,1.273086,-0.578983,0.289824,0.001745,0.723548,-0.230419,-0.178637,0.689865,-0.062762,0.153547,39.205975,-22.401321,-4.312868,0.470060,1.735030,-0.169511,0.000000,0.000000,0.000000,0.000000,0.000000,0.000000
11776791.000000,-2.310096,-1.662575,1.234841,-1.445688,1.709851,1.273772,-0.579051,0.291012,0.000619,0.736535,-0.226182,-0.176183,0.702666,-0.060378,0.006757,39.229778,-22.524307,-4.463624,0.458158,1.727706,-0.188737,0.000000,0.000000,0.000000,0.000000,0.000000,0.000000
11776792.000000,-2.309797,-1.662566,1.235567,-1.445904,1.709682,1.274478,-0.579116,0.291418,0.003299,0.731941,-0.223965,-0.170034,0.705973,-0.058746,-0.191607,39.106792,-22.548111,-4.562807,0.356534,1.630660,-0.208878,0.000000,0.000000,0.000000,0.000000,0.000000,0.000000
11776793.000000,-2.309497,-1.662566,1.236310,-1.446121,1.709497,1.275174,-0.579186,0.289907,0.002206,0.732386,-0.223032,-0.169305,0.698952,-0.064703,-0.342364,39.106792,-22.770279,-4.661989,0.356534,1.617843,-0.163102,0.000000,0.000000,0.000000,0.000000,0.000000,0.000000
11776794.000000,-2.309205,-1.662568,1.237042,-1.446340,1.709315,1.275859,-0.579247,0.296695,0.000919,0.731397,-0.219312,-0.169411,0.697491,-0.060735,-0.489153,39.130596,-22.893265,-4.733400,0.374845,1.649886,-0.208878,0.000000,0.000000,0.000000,0.000000,0.000000,0.000000
11776795.000000,-2.308907,-1.662570,1.237781,-1.446550,1.709138,1.276536,-0.579312,0.294899,-0.000033,0.727580,-0.212298,-0.173883,0.681771,-0.060898,-0.663714,39.158367,-23.063858,-4.856386,0.369352,1.800033,-0.169511,0.000000,0.000000,0.000000,0.000000,0.000000,0.000000
11776796.000000,-2.308609,-1.662568,1.238520,-1.446760,1.708962,1.277218,-0.579371,0.289927,0.000631,0.729803,-0.209623,-0.177242,0.676951,-0.062665,-0.786700,39.130596,-23.163040,-5.007143,0.381254,1.936446,-0.215287,0.000000,0.000000,0.000000,0.000000,0.000000,0.000000
11776797.000000,-2.308316,-1.662571,1.239248,-1.446972,1.708789,1.277892,-0.579441,0.290916,-0.000784,0.729683,-0.207476,-0.174334,0.673906,-0.068142,-0.862078,39.182171,-23.186844,-5.153932,0.374845,1.936446,-0.155778,0.000000,0.000000,0.000000,0.000000,0.000000,0.000000
11776798.000000,-2.308014,-1.662573,1.239989,-1.447178,1.708616,1.278591,-0.579498,0.290222,-0.000521,0.733182,-0.206890,-0.171563,0.679423,-0.067880,-1.032672,39.182171,-23.286026,-5.276918,0.351041,1.806442,-0.208878,0.000000,0.000000,0.000000,0.000000,0.000000,0.000000
11776799.000000,-2.307711,-1.662567,1.240711,-1.447385,1.708443,1.279266,-0.579561,0.293991,0.001417,0.734039,-0.201899,-0.174786,0.681314,-0.065204,-1.207232,39.106792,-23.258255,-5.328493,0.285123,1.754256,-0.202470,0.000000,0.000000,0.000000,0.000000,0.000000,0.000000
11776800.000000,-2.307418,-1.662570,1.241442,-1.447598,1.708266,1.279946,-0.579628,0.291615,-0.000261,0.730354,-0.205232,-0.178755,0.680253,-0.064569,-1.330218,39.158367,-23.286026,-5.328493,0.303434,1.779891,-0.163102,0.000000,0.000000,0.000000,0.000000,0.000000,0.000000
11776801.000000,-2.307123,-1.662577,1.242167,-1.447804,1.708083,1.280624,-0.579682,0.291667,-0.001844,0.725050,-0.205209,-0.177611,0.676948,-0.060976,-1.480975,39.229778,-23.111465,-5.304689,0.362943,1.844894,-0.202470,0.000000,0.000000,0.000000,0.000000,0.000000,0.000000
11776802.000000,-2.306837,-1.662583,1.242880,-1.448013,1.707906,1.281287,-0.579750,0.291110,-0.002992,0.723220,-0.207535,-0.180069,0.669996,-0.061819,-1.504779,39.305157,-22.964676,-5.276918,0.386747,1.930038,-0.149369,0.000000,0.000000,0.000000,0.000000,0.000000,0.000000
11776803.000000,-2.306541,-1.662585,1.243610,-1.448208,1.707737,1.281976,-0.579804,0.289209,-0.002551,0.721099,-0.203219,-0.175183,0.673261,-0.058880,-1.580157,39.328960,-22.865494,-5.399904,0.351041,1.884261,-0.188737,0.000000,0.000000,0.000000,0.000000,0.000000,0.000000
11776804.000000,-2.306254,-1.662589,1.244336,-1.448410,1.707571,1.282659,-0.579860,0.284618,-0.002257,0.734142,-0.201803,-0.172020,0.673558,-0.057474,-1.528582,39.352764,-22.940872,-5.451478,0.291532,1.793624,-0.208878,0.000000,0.000000,0.000000,0.000000,0.000000,0.000000
11776805.000000,-2.305968,-1.662595,1.245072,-1.448614,1.707405,1.283353,-0.579923,0.282733,-0.003268,0.731344,-0.201215,-0.170932,0.677763,-0.063991,-1.552386,39.428143,-23.016251,-5.475282,0.291532,1.735030,-0.155778,0.000000,0.000000,0.000000,0.000000,0.000000,0.000000
11776806.000000,-2.305681,-1.662607,1.245801,-1.448812,1.707235,1.284037,-0.579974,0.284391,-0.008774,0.727539,-0.201434,-0.174544,0.671948,-0.055183,-1.580157,39.574932,-23.016251,-5.475282,0.285123,1.779891,-0.215287,0.000000,0.000000,0.000000,0.000000,0.000000,0.000000
11776807.000000,-2.305401,-1.662611,1.246528,-1.449016,1.707054,1.284710,-0.580033,0.285455,-0.007226,0.736525,-0.202965,-0.174993,0.673897,-0.056047,-1.528582,39.622540,-23.111465,-5.399904,0.344633,1.903487,-0.202470,0.000000,0.000000,0.000000,0.000000,0.000000,0.000000
11776808.000000,-2.305117,-1.662617,1.247277,-1.449224,1.706882,1.285388,-0.580098,0.285630,-0.009836,0.739668,-0.207886,-0.178207,0.676335,-0.057651,-1.552386,39.693951,-23.381241,-5.376100,0.356534,1.974899,-0.163102,0.000000,0.000000,0.000000,0.000000,0.000000,0.000000
11776809.000000,-2.304834,-1.662631,1.248017,-1.449423,1.706715,1.286072,-0.580163,0.282030,-0.010402,0.734496,-0.205660,-0.175512,0.679348,-0.062963,-1.504779,39.840740,-23.555801,-5.399904,0.339139,1.936446,-0.136552,0.000000,0.000000,0.000000,0.000000,0.000000,0.000000
11776810.000000,-2.304555,-1.662639,1.248750,-1.449619,1.706547,1.286769,-0.580221,0.280451,-0.008449,0.731010,-0.202708,-0.173431,0.689130,-0.060764,-1.504779,39.892315,-23.750198,-5.451478,0.344633,1.812850,-0.149369,0.000000,0.000000,0.000000,0.000000,0.000000,0.000000
11776811.000000,-2.304274,-1.662650,1.249496,-1.449814,1.706378,1.287459,-0.580275,0.280114,-0.008740,0.731899,-0.198110,-0.171948,0.687111,-0.062120,-1.552386,40.015301,-24.019974,-5.499086,0.351041,1.767074,-0.208878,0.000000,0.000000,0.000000,0.000000,0.000000,0.000000
11776812.000000,-2.304006,-1.662667,1.250231,-1.450019,1.706212,1.288116,-0.580340,0.274970,-0.013597,0.733396,-0.198998,-0.169948,0.684829,-0.062755,-1.504779,40.209698,-24.166763,-5.499086,0.339139,1.903487,-0.155778,0.000000,0.000000,0.000000,0.000000,0.000000,0.000000
11776813.000000,-2.303726,-1.662688,1.250965,-1.450226,1.706043,1.288778,-0.580393,0.279805,-0.014553,0.729214,-0.200627,-0.169325,0.677738,-0.059097,-1.552386,40.427898,-24.242142,-5.451478,0.351041,2.047225,-0.202470,0.000000,0.000000,0.000000,0.000000,0.000000,0.000000
11776814.000000,-2.303452,-1.662703,1.251702,-1.450430,1.705861,1.289454,-0.580455,0.277821,-0.015473,0.728865,-0.201755,-0.169592,0.671487,-0.059947,-1.504779,40.527081,-24.265945,-5.399904,0.386747,2.112228,-0.163102,0.000000,0.000000,0.000000,0.000000,0.000000,0.000000
11776815.000000,-2.303182,-1.662714,1.252425,-1.450626,1.705688,1.290126,-0.580514,0.276724,-0.014525,0.728208,-0.199360,-0.176423,0.667258,-0.058502,-1.405596,40.550884,-24.265945,-5.475282,0.351041,2.047225,-0.175919,0.000000,0.000000,0.000000,0.000000,0.000000,0.000000
11776816.000000,-2.302914,-1.662729,1.253163,-1.450829,1.705514,1.290812,-0.580566,0.275348,-0.014662,0.731569,-0.202997,-0.173916,0.667556,-0.056791,-1.354022,40.602459,-24.341324,-5.475282,0.351041,1.955673,-0.208878,0.000000,0.000000,0.000000,0.000000,0.000000,0.000000
11776817.000000,-2.302653,-1.662739,1.253883,-1.451036,1.705343,1.291488,-0.580632,0.275335,-0.013668,0.728616,-0.202073,-0.173479,0.670330,-0.058723,-1.254840,40.602459,-24.265945,-5.499086,0.356534,1.838485,-0.155778,0.000000,0.000000,0.000000,0.000000,0.000000,0.000000
11776818.000000,-2.302390,-1.662756,1.254607,-1.451242,1.705168,1.292170,-0.580685,0.270312,-0.015427,0.725206,-0.201810,-0.174009,0.667867,-0.061375,-1.183428,40.697674,-24.119156,-5.499086,0.416959,1.832076,-0.196061,0.000000,0.000000,0.000000,0.000000,0.000000,0.000000
11776819.000000,-2.302127,-1.662769,1.255338,-1.451450,1.704995,1.292836,-0.580743,0.267474,-0.015543,0.722620,-0.203986,-0.173188,0.667870,-0.060019,-1.108050,40.749249,-23.972366,-5.399904,0.458158,1.909896,-0.202470,0.000000,0.000000,0.000000,0.000000,0.000000,0.000000
11776820.000000,-2.301868,-1.662777,1.256065,-1.451655,1.704833,1.293499,-0.580803,0.264861,-0.013897,0.724855,-0.202695,-0.167746,0.667666,-0.060108,-1.008868,40.725445,-23.948563,-5.399904,0.381254,1.995040,-0.175919,0.000000,0.000000,0.000000,0.000000,0.000000,0.000000
11776821.000000,-2.301608,-1.662785,1.256790,-1.451863,1.704667,1.294190,-0.580859,0.261511,-0.012167,0.720423,-0.205860,-0.166612,0.677575,-0.058659,-0.862078,40.673870,-23.750198,-5.328493,0.356534,1.903487,-0.188737,0.000000,0.000000,0.000000,0.000000,0.000000,0.000000
11776822.000000,-2.301343,-1.662793,1.257521,-1.452072,1.704495,1.294882,-0.580918,0.261332,-0.010399,0.730167,-0.203005,-0.168063,0.694064,-0.059508,-0.810504,40.602459,-23.702591,-5.253114,0.362943,1.747848,-0.149369,0.000000,0.000000,0.000000,0.000000,0.000000,0.000000
11776823.000000,-2.301084,-1.662796,1.258241,-1.452281,1.704336,1.295573,-0.580967,0.259052,-0.008641,0.726214,-0.201845,-0.166398,0.692166,-0.060967,-0.786700,40.503277,-23.678787,-5.130128,0.327238,1.695663,-0.215287,0.000000,0.000000,0.000000,0.000000,0.000000,0.000000
11776824.000000,-2.300823,-1.662803,1.258965,-1.452494,1.704174,1.296254,-0.581030,0.258593,-0.008668,0.719043,-0.204722,-0.161831,0.686424,-0.061902,-0.786700,40.455669,-23.603409,-4.983339,0.344633,1.760665,-0.163102,0.000000,0.000000,0.000000,0.000000,0.000000,0.000000
11776825.000000,-2.300560,-1.662810,1.259679,-1.452714,1.704008,1.296934,-0.581087,0.265166,-0.009289,0.724670,-0.205056,-0.165621,0.683269,-0.065130,-0.834307,40.427898,-23.579605,-4.757204,0.410551,1.819259,-0.163102,0.000000,0.000000,0.000000,0.000000,0.000000,0.000000
11776826.000000,-2.300301,-1.662817,1.260404,-1.452934,1.703844,1.297623,-0.581140,0.265072,-0.009123,0.721628,-0.208286,-0.162601,0.682719,-0.062455,-0.834307,40.380291,-23.555801,-4.535036,0.464567,1.786300,-0.175919,0.000000,0.000000,0.000000,0.000000,0.000000,0.000000
11776827.000000,-2.300038,-1.662821,1.261138,-1.453140,1.703687,1.298319,-0.581194,0.261649,-0.005422,0.723871,-0.206583,-0.157544,0.686995,-0.060084,-0.862078,40.308880,-23.678787,-4.487428,0.458158,1.786300,-0.202470,0.000000,0.000000,0.000000,0.000000,0.000000,0.000000
11776828.000000,-2.299783,-1.662824,1.261862,-1.453358,1.703526,1.298999,-0.581252,0.259081,-0.005088,0.724249,-0.210530,-0.158058,0.690111,-0.059491,-0.862078,40.209698,-23.774002,-4.340639,0.416959,1.779891,-0.196061,0.000000,0.000000,0.000000,0.000000,0.000000,0.000000
11776829.000000,-2.299526,-1.662830,1.262591,-1.453570,1.703362,1.299693,-0.581311,0.255527,-0.006793,0.719402,-0.211203,-0.159382,0.683309,-0.063981,-0.810504,40.185894,-23.873184,-4.312868,0.393156,1.735030,-0.182328,0.000000,0.000000,0.000000,0.000000,0.000000,0.000000
11776830.000000,-2.299272,-1.662839,1.263313,-1.453793,1.703186,1.300370,-0.581364,0.259460,-0.008575,0.720014,-0.217664,-0.160122,0.685757,-0.060459,-0.834307,40.185894,-23.948563,-4.166078,0.470060,1.773483,-0.221696,0.000000,0.000000,0.000000,0.000000,0.000000,0.000000
11776831.000000,-2.299021,-1.662839,1.264041,-1.454009,1.703025,1.301038,-0.581422,0.257116,-0.004319,0.715873,-0.215056,-0.156339,0.677499,-0.060781,-0.810504,40.086712,-24.119156,-4.066896,0.470060,1.942855,-0.182328,0.000000,0.000000,0.000000,0.000000,0.000000,0.000000
11776832.000000,-2.298764,-1.662839,1.264768,-1.454227,1.702860,1.301723,-0.581476,0.256069,-0.004304,0.717344,-0.219620,-0.158222,0.675393,-0.058621,-0.786700,39.987530,-24.190567,-3.967714,0.464567,2.033492,-0.208878,0.000000,0.000000,0.000000,0.000000,0.000000,0.000000
11776833.000000,-2.298513,-1.662844,1.265492,-1.454445,1.702699,1.302405,-0.581535,0.254407,-0.002529,0.719521,-0.217696,-0.164529,0.671323,-0.058606,-0.762896,39.939922,-24.313553,-3.943910,0.470060,1.949264,-0.196061,0.000000,0.000000,0.000000,0.000000,0.000000,0.000000
11776834.000000,-2.298262,-1.662842,1.266215,-1.454657,1.702541,1.303100,-0.581589,0.249143,0.000054,0.719887,-0.215620,-0.159323,0.679219,-0.058034,-0.711321,39.840740,-24.313553,-3.967714,0.458158,1.884261,-0.196061,0.000000,0.000000,0.000000,0.000000,0.000000,0.000000
11776835.000000,-2.297999,-1.662841,1.266928,-1.454879,1.702384,1.303778,-0.581643,0.251778,-0.001343,0.715476,-0.217697,-0.161027,0.678255,-0.052162,-0.786700,39.745525,-24.313553,-3.844728,0.422452,1.903487,-0.215287,0.000000,0.000000,0.000000,0.000000,0.000000,0.000000
11776836.000000,-2.297748,-1.662838,1.267641,-1.455109,1.702221,1.304462,-0.581702,0.252320,0.000277,0.710210,-0.218398,-0.162638,0.680677,-0.055121,-0.810504,39.670147,-24.218338,-3.745546,0.422452,1.988631,-0.169511,0.000000,0.000000,0.000000,0.000000,0.000000,0.000000
11776837.000000,-2.297496,-1.662835,1.268355,-1.455336,1.702055,1.305147,-0.581751,0.248402,0.000856,0.706561,-0.219677,-0.164494,0.679649,-0.053965,-0.810504,39.622540,-24.019974,-3.622560,0.452665,2.014266,-0.208878,0.000000,0.000000,0.000000,0.000000,0.000000,0.000000
11776838.000000,-2.297252,-1.662827,1.269060,-1.455559,1.701892,1.305825,-0.581808,0.251769,0.003115,0.704017,-0.218922,-0.165153,0.680073,-0.056093,-0.786700,39.499554,-23.896988,-3.547182,0.482877,2.007858,-0.169511,0.000000,0.000000,0.000000,0.000000,0.000000,0.000000
11776839.000000,-2.297003,-1.662820,1.269779,-1.455780,1.701740,1.306517,-0.581861,0.250576,0.004148,0.704148,-0.223738,-0.159997,0.681025,-0.056116,-0.735125,39.400372,-23.801773,-3.475771,0.476469,1.949264,-0.169511,0.000000,0.000000,0.000000,0.000000,0.000000,0.000000
11776840.000000,-2.296753,-1.662814,1.270487,-1.456001,1.701590,1.307196,-0.581913,0.247372,0.003692,0.715176,-0.220836,-0.156318,0.675944,-0.051149,-0.711321,39.352764,-23.774002,-3.475771,0.446256,1.838485,-0.175919,0.000000,0.000000,0.000000,0.000000,0.000000,0.000000
11776841.000000,-2.296512,-1.662803,1.271201,-1.456228,1.701438,1.307878,-0.581962,0.247000,0.005198,0.713903,-0.220898,-0.149223,0.683098,-0.051325,-0.635943,39.229778,-23.702591,-3.376589,0.464567,1.806442,-0.208878,0.000000,0.000000,0.000000,0.000000,0.000000,0.000000
11776842.000000,-2.296267,-1.662797,1.271916,-1.456446,1.701283,1.308560,-0.582015,0.243782,0.005031,0.712885,-0.219987,-0.149286,0.676192,-0.053034,-0.588336,39.158367,-23.627213,-3.325014,0.488370,1.825668,-0.202470,0.000000,0.000000,0.000000,0.000000,0.000000,0.000000
11776843.000000,-2.296028,-1.662793,1.272633,-1.456671,1.701132,1.309224,-0.582067,0.240415,0.004481,0.721186,-0.220223,-0.148039,0.668188,-0.049098,-0.512957,39.106792,-23.801773,-3.225832,0.476469,1.949264,-0.208878,0.000000,0.000000,0.000000,0.000000,0.000000,0.000000
11776844.000000,-2.295794,-1.662793,1.273351,-1.456891,1.700980,1.309897,-0.582116,0.238625,0.002928,0.716672,-0.218070,-0.146614,0.669511,-0.050808,-0.465350,39.106792,-23.825577,-3.225832,0.458158,1.981307,-0.215287,0.000000,0.000000,0.000000,0.000000,0.000000,0.000000
11776845.000000,-2.295561,-1.662793,1.274079,-1.457109,1.700828,1.310586,-0.582175,0.235723,0.001908,0.715028,-0.214089,-0.145554,0.673452,-0.054499,-0.314593,39.106792,-24.019974,-3.202028,0.446256,1.955673,-0.155778,0.000000,0.000000,0.000000,0.000000,0.000000,0.000000
11776846.000000,-2.295325,-1.662798,1.274785,-1.457314,1.700680,1.311264,-0.582219,0.235525,-0.000524,0.715439,-0.208387,-0.146259,0.682167,-0.047347,-0.243182,39.182171,-24.043777,-3.277406,0.458158,1.909896,-0.229020,0.000000,0.000000,0.000000,0.000000,0.000000,0.000000
11776847.000000,-2.295089,-1.662803,1.275509,-1.457525,1.700532,1.311939,-0.582268,0.231930,-0.002045,0.712834,-0.209779,-0.141749,0.673404,-0.045023,-0.191607,39.253582,-24.265945,-3.277406,0.482877,1.962081,-0.229020,0.000000,0.000000,0.000000,0.000000,0.000000,0.000000
11776848.000000,-2.294860,-1.662806,1.276218,-1.457736,1.700382,1.312606,-0.582325,0.236963,-0.003145,0.712125,-0.207600,-0.138641,0.674403,-0.045902,-0.092425,39.328960,-24.365128,-3.277406,0.512174,1.974899,-0.155778,0.000000,0.000000,0.000000,0.000000,0.000000,0.000000
11776849.000000,-2.294627,-1.662811,1.276935,-1.457943,1.700236,1.313283,-0.582369,0.233321,-0.003781,0.709788,-0.205276,-0.136501,0.672255,-0.050514,-0.044818,39.400372,-24.388931,-3.301210,0.547880,1.942855,-0.215287,0.000000,0.000000,0.000000,0.000000,0.000000,0.000000
11776850.000000,-2.294397,-1.662820,1.277648,-1.458148,1.700093,1.313968,-0.582424,0.230721,-0.004851,0.709083,-0.202336,-0.133127,0.675688,-0.054011,0.006757,39.499554,-24.341324,-3.249635,0.547880,1.909896,-0.163102,0.000000,0.000000,0.000000,0.000000,0.000000,0.000000
11776851.000000,-2.294177,-1.662825,1.278352,-1.458354,1.699957,1.314629,-0.582474,0.226985,-0.005005,0.706780,-0.207265,-0.133902,0.662173,-0.049079,0.105939,39.574932,-24.289749,-3.277406,0.506681,1.916305,-0.182328,0.000000,0.000000,0.000000,0.000000,0.000000,0.000000
11776852.000000,-2.293945,-1.662832,1.279059,-1.458556,1.699814,1.315310,-0.582520,0.229077,-0.005570,0.700187,-0.204518,-0.135803,0.661178,-0.049931,0.153547,39.670147,-24.242142,-3.325014,0.482877,1.890670,-0.208878,0.000000,0.000000,0.000000,0.000000,0.000000,0.000000
11776853.000000,-2.293723,-1.662839,1.279762,-1.458760,1.699671,1.315984,-0.582573,0.225938,-0.006038,0.698514,-0.203087,-0.132732,0.662570,-0.053295,0.276533,39.769329,-24.142960,-3.348818,0.440763,1.851302,-0.163102,0.000000,0.000000,0.000000,0.000000,0.000000,0.000000
11776854.000000,-2.293500,-1.662838,1.280467,-1.458958,1.699529,1.316660,-0.582619,0.223152,-0.003472,0.694476,-0.198778,-0.130918,0.665703,-0.052072,0.375715,39.745525,-24.043777,-3.376589,0.440763,1.890670,-0.215287,0.000000,0.000000,0.000000,0.000000,0.000000,0.000000
11776855.000000,-2.293283,-1.662839,1.281171,-1.459153,1.699385,1.317341,-0.582668,0.220518,-0.002874,0.694735,-0.202040,-0.136858,0.668911,-0.048809,0.526471,39.769329,-23.801773,-3.400392,0.500272,1.890670,-0.208878,0.000000,0.000000,0.000000,0.000000,0.000000,0.000000
11776856.000000,-2.293058,-1.662838,1.281870,-1.459345,1.699252,1.318018,-0.582717,0.222186,-0.001361,0.696060,-0.194809,-0.142746,0.673027,-0.047197,0.550275,39.745525,-23.726395,-3.547182,0.458158,1.858627,-0.175919,0.000000,0.000000,0.000000,0.000000,0.000000,0.000000
11776857.000000,-2.292834,-1.662833,1.282571,-1.459538,1.699116,1.318716,-0.582769,0.223347,0.001411,0.696740,-0.198368,-0.143681,0.686266,-0.045184,0.574079,39.646343,-23.555801,-3.570986,0.458158,1.741439,-0.163102,0.000000,0.000000,0.000000,0.000000,0.000000,0.000000
11776858.000000,-2.292612,-1.662825,1.283280,-1.459731,1.698978,1.319400,-0.582812,0.221504,0.003260,0.711380,-0.195627,-0.140902,0.698953,-0.041237,0.574079,39.547161,-23.456619,-3.598757,0.488370,1.637069,-0.215287,0.000000,0.000000,0.000000,0.000000,0.000000,0.000000
11776859.000000,-2.292389,-1.662822,1.283969,-1.459926,1.698846,1.320082,-0.582860,0.223438,0.002729,0.706841,-0.194015,-0.141411,0.694276,-0.040457,0.574079,39.523357,-23.333633,-3.598757,0.470060,1.630660,-0.215287,0.000000,0.000000,0.000000,0.000000,0.000000,0.000000
11776860.000000,-2.292163,-1.662817,1.284674,-1.460123,1.698712,1.320766,-0.582908,0.222421,0.003489,0.702474,-0.193979,-0.135848,0.683327,-0.041089,0.574079,39.451946,-23.309830,-3.547182,0.434354,1.689254,-0.182328,0.000000,0.000000,0.000000,0.000000,0.000000,0.000000
11776861.000000,-2.291935,-1.662810,1.285365,-1.460313,1.698574,1.321447,-0.582955,0.225097,0.004646,0.698466,-0.188731,-0.138450,0.681876,-0.040135,0.550275,39.352764,-23.234451,-3.570986,0.434354,1.714889,-0.188737,0.000000,0.000000,0.000000,0.000000,0.000000,0.000000
11776862.000000,-2.291710,-1.662805,1.286062,-1.460501,1.698437,1.322135,-0.583001,0.228214,0.004767,0.693241,-0.188961,-0.134623,0.681426,-0.044895,0.451093,39.281353,-23.087662,-3.570986,0.422452,1.695663,-0.169511,0.000000,0.000000,0.000000,0.000000,0.000000,0.000000
11776863.000000,-2.291482,-1.662792,1.286775,-1.460681,1.698301,1.322830,-0.583043,0.224208,0.006704,0.692982,-0.187625,-0.137204,0.680518,-0.041558,0.427289,39.130596,-23.210648,-3.622560,0.422452,1.721298,-0.208878,0.000000,0.000000,0.000000,0.000000,0.000000,0.000000
11776864.000000,-2.291259,-1.662783,1.287470,-1.460867,1.698172,1.323509,-0.583091,0.223385,0.007254,0.696068,-0.190170,-0.133207,0.684561,-0.041883,0.351911,39.011578,-23.210648,-3.646364,0.398649,1.754256,-0.175919,0.000000,0.000000,0.000000,0.000000,0.000000,0.000000
11776865.000000,-2.291034,-1.662778,1.288183,-1.461044,1.698036,1.324201,-0.583132,0.221517,0.006599,0.697260,-0.189367,-0.132026,0.682227,-0.039829,0.276533,38.936199,-23.357437,-3.670168,0.416959,1.747848,-0.202470,0.000000,0.000000,0.000000,0.000000,0.000000,0.000000
11776866.000000,-2.290816,-1.662772,1.288878,-1.461220,1.697900,1.324876,-0.583180,0.227981,0.005513,0.698255,-0.185017,-0.138457,0.686673,-0.044390,0.252729,38.888592,-23.456619,-3.721742,0.464567,1.747848,-0.188737,0.000000,0.000000,0.000000,0.000000,0.000000,0.000000
11776867.000000,-2.290595,-1.662765,1.289590,-1.461398,1.697771,1.325553,-0.583228,0.226982,0.005995,0.699583,-0.183301,-0.133755,0.682984,-0.043722,0.276533,38.789410,-23.603409,-3.697939,0.434354,1.793624,-0.155778,0.000000,0.000000,0.000000,0.000000,0.000000,0.000000
