chaoyuefei/paper-gmrm-data/robot_logs/s2_dq_mrm_min_0.50_log_20260314_174637.csv
# time_ms,q_0,q_1,q_2,q_3,q_4,q_5,q_6,dq_0,dq_1,dq_2,dq_3,dq_4,dq_5,dq_6,tau_J_0,tau_J_1,tau_J_2,tau_J_3,tau_J_4,tau_J_5,tau_J_6,O_dP_EE_c_0,O_dP_EE_c_1,O_dP_EE_c_2,O_dP_EE_c_3,O_dP_EE_c_4,O_dP_EE_c_5
13060069.000000,-2.417853,-1.662614,1.040156,-1.352896,1.798094,1.079510,-0.546498,-0.000052,0.000187,-0.000063,-0.000049,0.000192,0.000156,0.000328,0.030561,41.606182,-21.024673,-5.721254,0.817045,1.312057,0.028243,0.000000,0.000000,0.000000,0.000000,0.000000,0.000000
13060070.000000,-2.417851,-1.662615,1.040158,-1.352894,1.798093,1.079512,-0.546496,-0.000035,-0.000432,0.000608,0.000617,-0.000313,0.000104,0.000931,0.030561,41.629986,-21.052444,-5.749025,0.828947,1.312057,0.009017,0.000000,0.000000,0.000000,0.000000,0.000000,0.000000
13060071.000000,-2.417853,-1.662617,1.040161,-1.352896,1.798093,1.079510,-0.546501,-0.000023,-0.000845,0.001519,-0.000238,-0.000005,0.000307,-0.001075,0.030561,41.653790,-21.100052,-5.721254,0.823453,1.305648,0.054794,0.000000,0.000000,0.000000,0.000000,0.000000,0.000000
13060072.000000,-2.417853,-1.662612,1.040158,-1.352897,1.798094,1.079512,-0.546496,-0.000572,0.001200,-0.000101,-0.000716,0.000234,-0.000033,0.000979,0.054365,41.578411,-21.052444,-5.697450,0.817045,1.312057,0.009017,0.000000,0.000000,0.000000,0.000000,0.000000,0.000000
13060073.000000,-2.417846,-1.662613,1.040157,-1.352893,1.798093,1.079510,-0.546503,0.006404,-0.001251,0.005705,0.002551,0.000800,-0.001955,-0.000568,0.304304,41.530804,-21.000870,-5.697450,0.799650,1.364242,0.041976,0.000000,0.000000,0.000000,0.000000,0.000000,0.000000
13060074.000000,-2.417839,-1.662616,1.040156,-1.352891,1.798098,1.079505,-0.546510,0.018715,-0.005376,0.006750,0.001132,0.000166,0.001606,-0.006414,1.343732,41.312603,-20.953262,-5.526857,0.685209,1.539108,-0.050492,0.000000,0.000000,0.000000,0.000000,0.000000,0.000000
13060075.000000,-2.417808,-1.662619,1.040166,-1.352890,1.798089,1.079503,-0.546543,0.026124,-0.002190,0.008154,0.000456,-0.006809,0.002891,-0.010466,2.926679,40.943645,-20.929459,-5.229311,0.601896,1.767074,-0.031266,0.000000,0.000000,0.000000,0.000000,0.000000,0.000000
13060076.000000,-2.417761,-1.662621,1.040185,-1.352896,1.798075,1.079521,-0.546579,0.031302,-0.000648,0.009175,-0.004975,-0.008759,0.008317,-0.019939,4.783369,40.455669,-20.905655,-4.832582,0.559781,1.884261,-0.089860,0.000000,0.000000,0.000000,0.000000,0.000000,0.000000
13060077.000000,-2.417696,-1.662618,1.040206,-1.352908,1.798048,1.079573,-0.546638,0.036446,0.004127,0.015634,-0.011042,-0.016904,0.024850,-0.030637,6.640058,39.916119,-20.830276,-4.463624,0.571683,1.793624,-0.056901,0.000000,0.000000,0.000000,0.000000,0.000000,0.000000
13060078.000000,-2.417607,-1.662619,1.040233,-1.352931,1.798008,1.079654,-0.546705,0.050662,0.002968,0.020664,-0.015963,-0.024399,0.046283,-0.045489,8.223004,39.428143,-20.754898,-4.066896,0.625699,1.565658,-0.083451,0.000000,0.000000,0.000000,0.000000,0.000000,0.000000
13060079.000000,-2.417509,-1.662615,1.040274,-1.352970,1.797954,1.079753,-0.546799,0.066132,0.005131,0.025717,-0.025844,-0.033972,0.064269,-0.062335,9.710736,38.936199,-20.731094,-3.670168,0.667814,1.383468,-0.050492,0.000000,0.000000,0.000000,0.000000,0.000000,0.000000
13060080.000000,-2.417395,-1.662616,1.040320,-1.353018,1.797886,1.079863,-0.546907,0.077691,0.004885,0.031173,-0.033762,-0.045018,0.077864,-0.077936,11.019940,38.519634,-20.631912,-3.376589,0.691617,1.324874,-0.097184,0.000000,0.000000,0.000000,0.000000,0.000000,0.000000
13060081.000000,-2.417263,-1.662614,1.040380,-1.353074,1.797802,1.079992,-0.547051,0.095560,0.002926,0.040565,-0.041724,-0.056437,0.099434,-0.102171,12.063336,38.178448,-20.608109,-3.126650,0.679716,1.337692,-0.064225,0.000000,0.000000,0.000000,0.000000,0.000000,0.000000
13060082.000000,-2.417125,-1.662603,1.040446,-1.353140,1.797711,1.080140,-0.547215,0.110202,0.006434,0.052256,-0.049242,-0.070949,0.116789,-0.123582,13.102765,37.761883,-20.512894,-2.956056,0.559781,1.454879,-0.070634,0.000000,0.000000,0.000000,0.000000,0.000000,0.000000
13060083.000000,-2.416969,-1.662592,1.040531,-1.353223,1.797595,1.080315,-0.547406,0.126707,0.011640,0.064231,-0.062135,-0.083567,0.139704,-0.143578,13.943830,37.369122,-20.536697,-2.757692,0.476469,1.578475,-0.083451,0.000000,0.000000,0.000000,0.000000,0.000000,0.000000
13060084.000000,-2.416802,-1.662575,1.040633,-1.353322,1.797463,1.080520,-0.547627,0.140717,0.012311,0.076120,-0.074394,-0.101742,0.159754,-0.172469,14.685712,36.980328,-20.683487,-2.583132,0.369352,1.617843,-0.077042,0.000000,0.000000,0.000000,0.000000,0.000000,0.000000
13060085.000000,-2.416614,-1.662556,1.040750,-1.353430,1.797315,1.080761,-0.547872,0.157569,0.012399,0.089193,-0.085126,-0.112056,0.189919,-0.193771,15.229230,36.611370,-20.877884,-2.483949,0.297025,1.605026,-0.122819,0.000000,0.000000,0.000000,0.000000,0.000000,0.000000
13060086.000000,-2.416418,-1.662537,1.040878,-1.353560,1.797129,1.081037,-0.548148,0.163652,0.015662,0.100287,-0.100013,-0.133497,0.216606,-0.220328,15.725141,36.242413,-21.000870,-2.360964,0.351041,1.507064,-0.083451,0.000000,0.000000,0.000000,0.000000,0.000000,0.000000
13060087.000000,-2.416191,-1.662520,1.041019,-1.353709,1.796929,1.081339,-0.548436,0.187204,0.014337,0.117081,-0.119956,-0.154108,0.241471,-0.240995,15.998883,35.901226,-21.175430,-2.237978,0.398649,1.389877,-0.083451,0.000000,0.000000,0.000000,0.000000,0.000000,0.000000
13060088.000000,-2.415955,-1.662495,1.041177,-1.353882,1.796695,1.081642,-0.548736,0.204047,0.018344,0.132628,-0.136048,-0.179360,0.260328,-0.255312,16.320234,35.484661,-21.346024,-2.114992,0.458158,1.402694,-0.097184,0.000000,0.000000,0.000000,0.000000,0.000000,0.000000
13060089.000000,-2.415704,-1.662481,1.041343,-1.354060,1.796440,1.081972,-0.549045,0.220043,0.016615,0.141516,-0.148223,-0.202654,0.282398,-0.267618,16.518599,35.266460,-21.417435,-2.114992,0.518583,1.448470,-0.083451,0.000000,0.000000,0.000000,0.000000,0.000000,0.000000
13060090.000000,-2.415436,-1.662462,1.041512,-1.354251,1.796180,1.082328,-0.549345,0.234305,0.016292,0.150104,-0.161060,-0.221741,0.304527,-0.279795,16.716963,35.020489,-21.393631,-2.114992,0.500272,1.487838,-0.116410,0.000000,0.000000,0.000000,0.000000,0.000000,0.000000
13060091.000000,-2.415153,-1.662449,1.041699,-1.354458,1.795906,1.082699,-0.549661,0.248686,0.016622,0.161131,-0.176281,-0.239550,0.320742,-0.285951,16.788374,34.897503,-21.417435,-2.138796,0.458158,1.539108,-0.083451,0.000000,0.000000,0.000000,0.000000,0.000000,0.000000
13060092.000000,-2.414855,-1.662443,1.041894,-1.354692,1.795617,1.083093,-0.549966,0.260345,0.011052,0.176682,-0.192436,-0.266598,0.344733,-0.293270,16.911360,34.897503,-21.369827,-2.114992,0.381254,1.624252,-0.116410,0.000000,0.000000,0.000000,0.000000,0.000000,0.000000
13060093.000000,-2.414538,-1.662438,1.042099,-1.354945,1.795300,1.083505,-0.550284,0.276157,0.009805,0.186771,-0.213554,-0.278695,0.364118,-0.301537,16.986738,34.921307,-21.322220,-1.964235,0.320829,1.708480,-0.083451,0.000000,0.000000,0.000000,0.000000,0.000000,0.000000
13060094.000000,-2.414198,-1.662431,1.042314,-1.355215,1.794966,1.083946,-0.550590,0.295287,0.011049,0.193319,-0.232483,-0.289457,0.386714,-0.301869,16.887556,34.873699,-21.246841,-1.793642,0.320829,1.708480,-0.077042,0.000000,0.000000,0.000000,0.000000,0.000000,0.000000
13060095.000000,-2.413848,-1.662432,1.042540,-1.355509,1.794626,1.084421,-0.550889,0.311430,0.006136,0.200080,-0.254219,-0.306483,0.416307,-0.301555,16.911360,34.945110,-21.223038,-1.571474,0.303434,1.605026,-0.089860,0.000000,0.000000,0.000000,0.000000,0.000000,0.000000
13060096.000000,-2.413486,-1.662433,1.042771,-1.355810,1.794253,1.084911,-0.551182,0.330422,0.006373,0.209816,-0.268737,-0.330001,0.442641,-0.298942,16.887556,34.996685,-21.100052,-1.420717,0.339139,1.519881,-0.103593,0.000000,0.000000,0.000000,0.000000,0.000000,0.000000
13060097.000000,-2.413114,-1.662435,1.043017,-1.356121,1.793856,1.085421,-0.551467,0.346662,0.003646,0.215900,-0.284151,-0.344892,0.463545,-0.289590,16.962934,35.044292,-21.076248,-1.349306,0.410551,1.481429,-0.122819,0.000000,0.000000,0.000000,0.000000,0.000000,0.000000
13060098.000000,-2.412733,-1.662434,1.043265,-1.356438,1.793456,1.085954,-0.551753,0.354714,0.002814,0.226461,-0.294368,-0.360615,0.484077,-0.284901,17.185102,35.044292,-21.000870,-1.349306,0.488370,1.474105,-0.083451,0.000000,0.000000,0.000000,0.000000,0.000000,0.000000
13060099.000000,-2.412341,-1.662433,1.043523,-1.356766,1.793032,1.086502,-0.552026,0.369765,0.002720,0.232070,-0.302871,-0.382402,0.496971,-0.276792,17.335859,35.020489,-20.854080,-1.420717,0.482877,1.532699,-0.130143,0.000000,0.000000,0.000000,0.000000,0.000000,0.000000
13060100.000000,-2.411939,-1.662438,1.043790,-1.357115,1.792601,1.087081,-0.552305,0.377718,0.000358,0.247029,-0.323565,-0.395380,0.515811,-0.279543,17.629438,35.091900,-20.754898,-1.373109,0.476469,1.584884,-0.103593,0.000000,0.000000,0.000000,0.000000,0.000000,0.000000
13060101.000000,-2.411517,-1.662438,1.044075,-1.357477,1.792152,1.087668,-0.552577,0.390737,0.000400,0.260154,-0.334955,-0.410726,0.536519,-0.273702,17.803999,35.091900,-20.683487,-1.321535,0.512174,1.624252,-0.142960,0.000000,0.000000,0.000000,0.000000,0.000000,0.000000
13060102.000000,-2.411086,-1.662434,1.044370,-1.357858,1.791681,1.088296,-0.552846,0.403211,0.001502,0.270942,-0.348899,-0.424486,0.558978,-0.267039,17.978559,35.044292,-20.659683,-1.174745,0.488370,1.572067,-0.136552,0.000000,0.000000,0.000000,0.000000,0.000000,0.000000
13060103.000000,-2.410641,-1.662430,1.044672,-1.358248,1.791206,1.088946,-0.553112,0.418824,0.001649,0.279318,-0.362088,-0.440469,0.598873,-0.263532,18.200727,35.020489,-20.631912,-1.027956,0.458158,1.435653,-0.070634,0.000000,0.000000,0.000000,0.000000,0.000000,0.000000
13060104.000000,-2.410181,-1.662429,1.044981,-1.358657,1.790704,1.089613,-0.553367,0.432267,0.002281,0.283717,-0.380646,-0.458139,0.614245,-0.256141,18.299910,34.972881,-20.560501,-0.877199,0.494779,1.285506,-0.136552,0.000000,0.000000,0.000000,0.000000,0.000000,0.000000
13060105.000000,-2.409701,-1.662425,1.045310,-1.359077,1.790200,1.090292,-0.553623,0.444468,0.002778,0.303240,-0.400126,-0.481932,0.635199,-0.254284,18.422895,34.921307,-20.512894,-0.678835,0.494779,1.234237,-0.116410,0.000000,0.000000,0.000000,0.000000,0.000000,0.000000
13060106.000000,-2.409208,-1.662417,1.045636,-1.359518,1.789674,1.090979,-0.553878,0.458996,0.004767,0.311222,-0.417541,-0.494277,0.653532,-0.253570,18.597456,34.798321,-20.389908,-0.456667,0.518583,1.272689,-0.070634,0.000000,0.000000,0.000000,0.000000,0.000000,0.000000
13060107.000000,-2.408716,-1.662412,1.045982,-1.359964,1.789133,1.091679,-0.554117,0.470555,0.004321,0.318955,-0.422203,-0.502133,0.670414,-0.248746,18.867231,34.750713,-20.362137,-0.432863,0.506681,1.331283,-0.142960,0.000000,0.000000,0.000000,0.000000,0.000000,0.000000
13060108.000000,-2.408213,-1.662400,1.046331,-1.360422,1.788594,1.092414,-0.554363,0.475549,0.005779,0.325568,-0.437174,-0.512813,0.686344,-0.249390,19.240156,34.627728,-20.338333,-0.357485,0.488370,1.324874,-0.103593,0.000000,0.000000,0.000000,0.000000,0.000000,0.000000
13060109.000000,-2.407694,-1.662392,1.046695,-1.360893,1.788019,1.093154,-0.554607,0.498868,0.005539,0.337553,-0.444356,-0.526417,0.702067,-0.245346,19.513899,34.556316,-20.314529,-0.309877,0.524076,1.350509,-0.163102,0.000000,0.000000,0.000000,0.000000,0.000000,0.000000
13060110.000000,-2.407147,-1.662379,1.047078,-1.361390,1.787449,1.093915,-0.554859,0.512103,0.007139,0.352053,-0.458828,-0.551416,0.715847,-0.253337,19.736067,34.409527,-20.389908,-0.163088,0.524076,1.389877,-0.077042,0.000000,0.000000,0.000000,0.000000,0.000000,0.000000
13060111.000000,-2.406589,-1.662370,1.047463,-1.361890,1.786852,1.094696,-0.555096,0.521001,0.008992,0.359289,-0.473955,-0.564460,0.739152,-0.247894,19.958235,34.357952,-20.461319,-0.087709,0.506681,1.402694,-0.169511,0.000000,0.000000,0.000000,0.000000,0.000000,0.000000
13060112.000000,-2.406037,-1.662355,1.047868,-1.362409,1.786239,1.095517,-0.555342,0.531854,0.012309,0.368311,-0.481603,-0.576035,0.764936,-0.247775,20.303389,34.238934,-20.584305,0.011473,0.566190,1.312057,-0.163102,0.000000,0.000000,0.000000,0.000000,0.000000,0.000000
13060113.000000,-2.405450,-1.662342,1.048275,-1.362939,1.785627,1.096356,-0.555585,0.543367,0.013594,0.380192,-0.499181,-0.591374,0.784224,-0.242837,20.454145,34.163555,-20.731094,0.158263,0.524076,1.220504,-0.155778,0.000000,0.000000,0.000000,0.000000,0.000000,0.000000
13060114.000000,-2.404854,-1.662328,1.048707,-1.363486,1.785000,1.097195,-0.555827,0.556875,0.015162,0.392766,-0.514154,-0.598167,0.799933,-0.238664,20.723921,34.064373,-20.905655,0.233641,0.488370,1.220504,-0.142960,0.000000,0.000000,0.000000,0.000000,0.000000,0.000000
13060115.000000,-2.404250,-1.662312,1.049157,-1.364048,1.784351,1.098072,-0.556073,0.571552,0.016226,0.405991,-0.526640,-0.611882,0.814609,-0.244349,20.922285,33.969158,-21.123856,0.257445,0.434354,1.227828,-0.083451,0.000000,0.000000,0.000000,0.000000,0.000000,0.000000
13060116.000000,-2.403622,-1.662298,1.049602,-1.364617,1.783697,1.098947,-0.556302,0.591299,0.016523,0.417332,-0.540420,-0.624737,0.854683,-0.237019,21.096846,33.893780,-21.246841,0.309019,0.446256,1.240646,-0.155778,0.000000,0.000000,0.000000,0.000000,0.000000,0.000000
13060117.000000,-2.402992,-1.662279,1.050062,-1.365206,1.783016,1.099846,-0.556543,0.600202,0.014758,0.430062,-0.555247,-0.641160,0.867059,-0.236384,21.295210,33.770794,-21.294449,0.332823,0.422452,1.364242,-0.103593,0.000000,0.000000,0.000000,0.000000,0.000000,0.000000
13060118.000000,-2.402332,-1.662265,1.050544,-1.365799,1.782334,1.100774,-0.556775,0.620795,0.015201,0.453588,-0.575083,-0.652344,0.877867,-0.240984,21.418196,33.699383,-21.417435,0.432005,0.446256,1.448470,-0.097184,0.000000,0.000000,0.000000,0.000000,0.000000,0.000000
13060119.000000,-2.401658,-1.662248,1.051028,-1.366415,1.781624,1.101718,-0.557007,0.638960,0.016236,0.463311,-0.585117,-0.666972,0.900899,-0.234990,21.691938,33.600201,-21.540421,0.578795,0.518583,1.396285,-0.142960,0.000000,0.000000,0.000000,0.000000,0.000000,0.000000
13060120.000000,-2.400970,-1.662232,1.051525,-1.367049,1.780906,1.102705,-0.557248,0.655369,0.017003,0.468339,-0.596318,-0.684168,0.929886,-0.234806,21.862532,33.501019,-21.714981,0.777159,0.644010,1.227828,-0.097184,0.000000,0.000000,0.000000,0.000000,0.000000,0.000000
13060121.000000,-2.400255,-1.662221,1.052025,-1.367673,1.780201,1.103705,-0.557476,0.669986,0.012753,0.475141,-0.609880,-0.686058,0.950308,-0.230213,21.989485,33.477215,-21.837967,0.900145,0.733732,1.142684,-0.163102,0.000000,0.000000,0.000000,0.000000,0.000000,0.000000
13060122.000000,-2.399540,-1.662209,1.052543,-1.368320,1.779484,1.104702,-0.557709,0.687908,0.009704,0.485782,-0.618118,-0.691893,0.961164,-0.229161,22.187849,33.453411,-21.960953,1.023131,0.847257,1.155502,-0.155778,0.000000,0.000000,0.000000,0.000000,0.000000,0.000000
13060123.000000,-2.398811,-1.662201,1.053071,-1.368976,1.778778,1.105728,-0.557940,0.692573,0.011514,0.507506,-0.637387,-0.689415,0.972923,-0.231171,22.060896,33.528790,-22.032364,0.876341,0.972684,1.272689,-0.089860,0.000000,0.000000,0.000000,0.000000,0.000000,0.000000
13060124.000000,-2.398069,-1.662196,1.053599,-1.369644,1.778071,1.106755,-0.558156,0.692843,0.008261,0.513274,-0.654348,-0.693305,0.990673,-0.225489,20.950056,33.675579,-21.810196,0.531187,0.918668,1.474105,-0.202470,0.000000,0.000000,0.000000,0.000000,0.000000,0.000000
13060125.000000,-2.397352,-1.662190,1.054164,-1.370346,1.777363,1.107829,-0.558392,0.695760,0.005728,0.531214,-0.666826,-0.697736,1.011373,-0.229185,19.263960,33.846172,-21.615799,-0.111513,0.894864,1.597701,-0.116410,0.000000,0.000000,0.000000,0.000000,0.000000,0.000000
13060126.000000,-2.396621,-1.662179,1.054729,-1.371033,1.776661,1.108931,-0.558610,0.703435,0.004232,0.541898,-0.672519,-0.695443,1.035866,-0.226941,16.764570,33.869976,-21.076248,-1.273927,0.828947,1.617843,-0.155778,0.000000,0.000000,0.000000,0.000000,0.000000,0.000000
13060127.000000,-2.395903,-1.662175,1.055344,-1.371763,1.775966,1.110034,-0.558832,0.720214,0.003145,0.564519,-0.682044,-0.697595,1.063080,-0.220967,13.967633,33.746990,-20.512894,-2.138796,0.637601,1.670028,-0.175919,0.000000,0.000000,0.000000,0.000000,0.000000,0.000000
13060128.000000,-2.395176,-1.662170,1.055972,-1.372492,1.775284,1.111152,-0.559046,0.727743,0.000820,0.575467,-0.686873,-0.690465,1.078155,-0.222324,11.269879,33.405804,-19.675797,-2.856874,0.542386,1.786300,-0.182328,0.000000,0.000000,0.000000,0.000000,0.000000,0.000000
13060129.000000,-2.394440,-1.662178,1.056613,-1.373203,1.774610,1.112288,-0.559275,0.736194,-0.000552,0.588642,-0.691468,-0.686824,1.097714,-0.226527,8.619733,33.159832,-18.866470,-3.448000,0.362943,1.741439,-0.097184,0.000000,0.000000,0.000000,0.000000,0.000000,0.000000
13060130.000000,-2.393719,-1.662189,1.057272,-1.373921,1.773951,1.113457,-0.559492,0.735864,-0.004230,0.597394,-0.695184,-0.673993,1.119801,-0.220639,6.366315,33.013042,-18.057144,-3.769350,0.183500,1.630660,-0.122819,0.000000,0.000000,0.000000,0.000000,0.000000,0.000000
13060131.000000,-2.392985,-1.662207,1.057927,-1.374603,1.773294,1.114649,-0.559712,0.735865,-0.009708,0.614630,-0.692381,-0.668764,1.138542,-0.222938,4.311262,32.989239,-17.271622,-4.241457,0.088285,1.565658,-0.097184,0.000000,0.000000,0.000000,0.000000,0.000000,0.000000
13060132.000000,-2.392257,-1.662233,1.058590,-1.375293,1.772657,1.115839,-0.559933,0.736310,-0.013975,0.622331,-0.687090,-0.652505,1.148089,-0.221349,2.605329,33.112225,-16.462296,-4.463624,-0.060946,1.507064,-0.110001,0.000000,0.000000,0.000000,0.000000,0.000000,0.000000
13060133.000000,-2.391537,-1.662262,1.059257,-1.375967,1.772002,1.117073,-0.560140,0.735333,-0.019882,0.627326,-0.677866,-0.652932,1.163288,-0.218752,1.121564,33.235210,-15.748184,-4.733400,-0.013339,1.409103,-0.175919,0.000000,0.000000,0.000000,0.000000,0.000000,0.000000
13060134.000000,-2.390818,-1.662293,1.059913,-1.376636,1.771359,1.118285,-0.560361,0.725110,-0.023293,0.635926,-0.675807,-0.652912,1.197578,-0.218738,-0.092425,33.330425,-14.915054,-4.808778,0.171598,1.442062,-0.103593,0.000000,0.000000,0.000000,0.000000,0.000000,0.000000
13060135.000000,-2.390099,-1.662327,1.060591,-1.377325,1.770716,1.119541,-0.560571,0.713554,-0.028138,0.641969,-0.675788,-0.648857,1.208835,-0.213986,-1.207232,33.405804,-14.300125,-4.562807,0.297025,1.292831,-0.142960,0.000000,0.000000,0.000000,0.000000,0.000000,0.000000
13060136.000000,-2.389374,-1.662362,1.061275,-1.378001,1.770085,1.120814,-0.560776,0.709193,-0.030144,0.665462,-0.692432,-0.644322,1.216720,-0.211322,-2.072100,33.405804,-13.712967,-4.289064,0.488370,1.031905,-0.175919,0.000000,0.000000,0.000000,0.000000,0.000000,0.000000
13060137.000000,-2.388653,-1.662397,1.061954,-1.378700,1.769450,1.122062,-0.560993,0.707942,-0.029526,0.665563,-0.693641,-0.638986,1.224765,-0.212265,-2.790179,33.306622,-13.244827,-3.697939,0.644010,0.843307,-0.116410,0.000000,0.000000,0.000000,0.000000,0.000000,0.000000
13060138.000000,-2.387938,-1.662428,1.062646,-1.379394,1.768837,1.123299,-0.561197,0.711423,-0.031428,0.671248,-0.688611,-0.627934,1.221840,-0.208762,-3.385272,33.159832,-12.804459,-3.154421,0.596403,0.811263,-0.175919,0.000000,0.000000,0.000000,0.000000,0.000000,0.000000
13060139.000000,-2.387229,-1.662460,1.063342,-1.380070,1.768231,1.124537,-0.561401,0.710431,-0.029760,0.680728,-0.685579,-0.622294,1.218441,-0.209517,-3.805804,33.013042,-12.510880,-2.833071,0.482877,0.869857,-0.149369,0.000000,0.000000,0.000000,0.000000,0.000000,0.000000
13060140.000000,-2.386533,-1.662484,1.064043,-1.380746,1.767629,1.125748,-0.561600,0.700780,-0.025914,0.686642,-0.681236,-0.613659,1.211151,-0.207965,-4.055743,32.743267,-12.241104,-2.559328,0.393156,0.954086,-0.169511,0.000000,0.000000,0.000000,0.000000,0.000000,0.000000
13060141.000000,-2.385825,-1.662497,1.064753,-1.381412,1.767042,1.126957,-0.561806,0.697268,-0.020600,0.685753,-0.676158,-0.615991,1.202016,-0.208356,-4.325518,32.350506,-12.018936,-2.535524,0.213712,1.214095,-0.163102,0.000000,0.000000,0.000000,0.000000,0.000000,0.000000
13060142.000000,-2.385118,-1.662507,1.065461,-1.382062,1.766451,1.128141,-0.562015,0.694401,-0.016388,0.687520,-0.671852,-0.608056,1.195005,-0.209207,-4.547686,31.937908,-11.919754,-2.559328,0.178007,1.429244,-0.130143,0.000000,0.000000,0.000000,0.000000,0.000000,0.000000
13060143.000000,-2.384434,-1.662504,1.066179,-1.382711,1.765846,1.129356,-0.562219,0.692475,-0.007151,0.689403,-0.656602,-0.603808,1.196430,-0.211838,-4.599261,31.374554,-11.673782,-2.658510,0.213712,1.487838,-0.175919,0.000000,0.000000,0.000000,0.000000,0.000000,0.000000
13060144.000000,-2.383734,-1.662490,1.066903,-1.383353,1.765262,1.130580,-0.562424,0.694043,0.000581,0.702436,-0.650376,-0.597356,1.193848,-0.211400,-4.821429,30.759624,-11.649979,-2.733888,0.273221,1.383468,-0.163102,0.000000,0.000000,0.000000,0.000000,0.000000,0.000000
13060145.000000,-2.383040,-1.662472,1.067645,-1.384001,1.764671,1.131800,-0.562630,0.708122,0.006388,0.713417,-0.644743,-0.595892,1.201471,-0.209919,-5.019793,30.124859,-11.578568,-2.733888,0.344633,1.142684,-0.163102,0.000000,0.000000,0.000000,0.000000,0.000000,0.000000
13060146.000000,-2.382345,-1.662458,1.068396,-1.384632,1.764090,1.133023,-0.562830,0.697203,0.010660,0.718019,-0.642067,-0.588442,1.191553,-0.205998,-5.194354,29.609112,-11.526993,-2.956056,0.351041,0.960494,-0.122819,0.000000,0.000000,0.000000,0.000000,0.000000,0.000000
13060147.000000,-2.381649,-1.662436,1.069138,-1.385254,1.763512,1.134232,-0.563027,0.690927,0.014479,0.722826,-0.636541,-0.584074,1.192965,-0.204150,-5.341143,29.073528,-11.380203,-3.055238,0.381254,0.857040,-0.175919,0.000000,0.000000,0.000000,0.000000,0.000000,0.000000
13060148.000000,-2.380962,-1.662412,1.069885,-1.385870,1.762953,1.135435,-0.563235,0.686847,0.015555,0.721584,-0.624967,-0.570792,1.184337,-0.202463,-5.464129,28.605389,-11.086624,-3.301210,0.297025,0.869857,-0.122819,0.000000,0.000000,0.000000,0.000000,0.000000,0.000000
13060149.000000,-2.380279,-1.662394,1.070627,-1.386480,1.762402,1.136633,-0.563429,0.679850,0.016695,0.731689,-0.616965,-0.565138,1.173031,-0.202229,-5.487933,28.264202,-10.717667,-3.448000,0.159696,1.031905,-0.163102,0.000000,0.000000,0.000000,0.000000,0.000000,0.000000
13060150.000000,-2.379593,-1.662370,1.071387,-1.387093,1.761849,1.137816,-0.563626,0.681635,0.019076,0.735293,-0.615211,-0.560769,1.168417,-0.201989,-5.464129,27.871441,-10.348709,-3.547182,0.015958,1.136276,-0.188737,0.000000,0.000000,0.000000,0.000000,0.000000,0.000000
13060151.000000,-2.378914,-1.662346,1.072164,-1.387697,1.761290,1.139026,-0.563828,0.683761,0.020323,0.746412,-0.607313,-0.558874,1.169689,-0.207597,-5.563311,27.506451,-10.055130,-3.646364,-0.085665,1.162826,-0.130143,0.000000,0.000000,0.000000,0.000000,0.000000,0.000000
13060152.000000,-2.378228,-1.662328,1.072926,-1.388292,1.760734,1.140254,-0.564016,0.679093,0.018047,0.753015,-0.602009,-0.562282,1.195719,-0.206014,-5.638690,27.284283,-9.662369,-3.721742,-0.067355,1.031905,-0.169511,0.000000,0.000000,0.000000,0.000000,0.000000,0.000000
13060153.000000,-2.377539,-1.662316,1.073707,-1.388892,1.760177,1.141486,-0.564215,0.680569,0.014941,0.762653,-0.597449,-0.560500,1.203702,-0.203043,-5.860857,27.137493,-9.368790,-3.769350,-0.001437,0.739852,-0.130143,0.000000,0.000000,0.000000,0.000000,0.000000,0.000000
13060154.000000,-2.376837,-1.662302,1.074505,-1.389490,1.759623,1.142719,-0.564408,0.687549,0.015604,0.784956,-0.615620,-0.556617,1.198920,-0.202897,-6.158404,27.014507,-9.146622,-3.721742,0.093778,0.583297,-0.163102,0.000000,0.000000,0.000000,0.000000,0.000000,0.000000
13060155.000000,-2.376132,-1.662291,1.075293,-1.390081,1.759071,1.143928,-0.564607,0.688061,0.012042,0.791282,-0.605054,-0.558281,1.200635,-0.204637,-6.479754,26.943096,-8.900650,-3.769350,0.201810,0.564071,-0.142960,0.000000,0.000000,0.000000,0.000000,0.000000,0.000000
13060156.000000,-2.375442,-1.662284,1.076107,-1.390686,1.758518,1.145154,-0.564802,0.690486,0.011051,0.791234,-0.602470,-0.555427,1.189629,-0.200357,-6.725726,26.943096,-8.753860,-3.721742,0.201810,0.570480,-0.149369,0.000000,0.000000,0.000000,0.000000,0.000000,0.000000
13060157.000000,-2.374747,-1.662283,1.076922,-1.391262,1.757986,1.146390,-0.564993,0.688124,0.005933,0.805970,-0.596066,-0.547930,1.186967,-0.196449,-6.900286,27.014507,-8.706253,-3.892336,0.189908,0.603439,-0.175919,0.000000,0.000000,0.000000,0.000000,0.000000,0.000000
13060158.000000,-2.374073,-1.662285,1.077754,-1.391829,1.757446,1.147596,-0.565182,0.668039,0.006090,0.809256,-0.587442,-0.543975,1.186812,-0.190748,-6.924090,27.066082,-8.559464,-4.189882,0.117582,0.720626,-0.142960,0.000000,0.000000,0.000000,0.000000,0.000000,0.000000
13060159.000000,-2.373375,-1.662285,1.078605,-1.392398,1.756919,1.148819,-0.565363,0.675120,0.006388,0.844372,-0.579064,-0.548111,1.187780,-0.184655,-7.174029,27.113689,-8.583267,-4.364442,0.022367,0.876266,-0.169511,0.000000,0.000000,0.000000,0.000000,0.000000,0.000000
13060160.000000,-2.372670,-1.662284,1.079453,-1.392961,1.756384,1.150015,-0.565555,0.681680,0.004253,0.848452,-0.573269,-0.547700,1.181952,-0.182049,-7.495379,27.137493,-8.630875,-4.511232,-0.001437,1.025497,-0.142960,0.000000,0.000000,0.000000,0.000000,0.000000,0.000000
13060161.000000,-2.371972,-1.662284,1.080322,-1.393526,1.755850,1.151240,-0.565735,0.686102,0.002692,0.854433,-0.568748,-0.541961,1.182728,-0.177537,-7.915911,27.161297,-8.706253,-4.610414,-0.019747,1.058456,-0.182328,0.000000,0.000000,0.000000,0.000000,0.000000,0.000000
13060162.000000,-2.371263,-1.662288,1.081184,-1.394089,1.755326,1.152469,-0.565917,0.693003,0.000898,0.853962,-0.566909,-0.537549,1.181957,-0.181289,-8.312640,27.212872,-8.682449,-4.562807,0.064481,0.987045,-0.163102,0.000000,0.000000,0.000000,0.000000,0.000000,0.000000
13060163.000000,-2.370555,-1.662284,1.082072,-1.394665,1.754792,1.153680,-0.566099,0.711536,0.002038,0.863600,-0.571147,-0.532378,1.185847,-0.183001,-8.856158,27.161297,-8.682449,-4.511232,0.129484,0.915633,-0.155778,0.000000,0.000000,0.000000,0.000000,0.000000,0.000000
13060165.000000,-2.369117,-1.662265,1.083856,-1.395790,1.753757,1.156108,-0.566450,0.710749,0.006628,0.873370,-0.563760,-0.517143,1.211236,-0.176769,-9.871783,26.895489,-8.460281,-4.463624,0.088285,0.771896,-0.169511,0.000000,0.000000,0.000000,0.000000,0.000000,0.000000
13060166.000000,-2.368417,-1.662254,1.084762,-1.396345,1.753246,1.157319,-0.566626,0.709108,0.010492,0.878523,-0.556339,-0.512307,1.200137,-0.174171,-10.268512,26.772503,-8.289688,-4.487428,0.027860,0.778304,-0.182328,0.000000,0.000000,0.000000,0.000000,0.000000,0.000000
13060167.000000,-2.367718,-1.662250,1.085661,-1.396881,1.752746,1.158529,-0.566805,0.702903,0.008533,0.899667,-0.552030,-0.509839,1.197620,-0.175091,-10.490680,26.720928,-7.992142,-4.634218,-0.019747,0.863448,-0.130143,0.000000,0.000000,0.000000,0.000000,0.000000,0.000000
13060168.000000,-2.367002,-1.662237,1.086600,-1.397408,1.752240,1.159710,-0.566975,0.704349,0.011858,0.910500,-0.540226,-0.505128,1.186057,-0.175642,-10.911212,26.597942,-7.992142,-4.907960,-0.055453,0.960494,-0.188737,0.000000,0.000000,0.000000,0.000000,0.000000,0.000000
13060169.000000,-2.366302,-1.662228,1.087545,-1.397958,1.751739,1.160909,-0.567154,0.705011,0.009459,0.917266,-0.541499,-0.496271,1.185737,-0.178763,-11.184955,26.550335,-7.920731,-4.884157,-0.072848,1.031905,-0.169511,0.000000,0.000000,0.000000,0.000000,0.000000,0.000000
13060170.000000,-2.365596,-1.662223,1.088495,-1.398482,1.751237,1.162101,-0.567338,0.704294,0.008658,0.927609,-0.539369,-0.500938,1.204679,-0.180842,-11.430926,26.597942,-8.019913,-5.007143,-0.049044,0.993453,-0.110001,0.000000,0.000000,0.000000,0.000000,0.000000,0.000000
13060171.000000,-2.364892,-1.662217,1.089470,-1.399013,1.750741,1.163320,-0.567506,0.706016,0.005075,0.936196,-0.533450,-0.492884,1.205761,-0.174777,-11.728473,26.649517,-8.166702,-5.130128,-0.049044,0.836898,-0.188737,0.000000,0.000000,0.000000,0.000000,0.000000,0.000000
13060172.000000,-2.364185,-1.662213,1.090465,-1.399534,1.750254,1.164532,-0.567680,0.701474,0.005260,0.967624,-0.538537,-0.491750,1.201623,-0.170802,-11.926837,26.720928,-8.361099,-5.276918,-0.060946,0.746261,-0.136552,0.000000,0.000000,0.000000,0.000000,0.000000,0.000000
13060173.000000,-2.363474,-1.662211,1.091455,-1.400047,1.749760,1.165706,-0.567847,0.703922,0.005433,0.977364,-0.530499,-0.491216,1.196945,-0.172512,-12.248187,26.796307,-8.531693,-5.526857,-0.067355,0.895492,-0.169511,0.000000,0.000000,0.000000,0.000000,0.000000,0.000000
13060174.000000,-2.362772,-1.662209,1.092459,-1.400561,1.749275,1.166890,-0.568020,0.706298,0.003183,0.975848,-0.523613,-0.490400,1.190257,-0.170857,-12.545733,26.843914,-8.607071,-5.673646,-0.091158,1.084090,-0.196061,0.000000,0.000000,0.000000,0.000000,0.000000,0.000000
13060175.000000,-2.362075,-1.662214,1.093443,-1.401064,1.748790,1.168089,-0.568195,0.700935,-0.000250,0.981500,-0.518071,-0.489829,1.182254,-0.173528,-12.744098,26.966900,-8.412674,-5.848207,-0.121371,1.162826,-0.122819,0.000000,0.000000,0.000000,0.000000,0.000000,0.000000
13060176.000000,-2.361385,-1.662220,1.094447,-1.401569,1.748306,1.169268,-0.568360,0.696712,0.001053,0.986060,-0.514429,-0.480547,1.177328,-0.170205,-12.990069,27.066082,-8.238113,-5.994997,-0.109469,1.188461,-0.175919,0.000000,0.000000,0.000000,0.000000,0.000000,0.000000
13060177.000000,-2.360683,-1.662220,1.095471,-1.402071,1.747845,1.170462,-0.568529,0.697172,0.001250,0.991631,-0.508439,-0.490417,1.174085,-0.172115,-13.263812,27.066082,-8.067520,-6.169557,-0.228488,1.149093,-0.202470,0.000000,0.000000,0.000000,0.000000,0.000000,0.000000
13060178.000000,-2.359988,-1.662221,1.096483,-1.402572,1.747365,1.171644,-0.568696,0.692012,0.000687,1.005052,-0.509663,-0.485987,1.171316,-0.172111,-13.462176,27.089886,-7.797745,-6.240968,-0.228488,1.045638,-0.188737,0.000000,0.000000,0.000000,0.000000,0.000000,0.000000
13060179.000000,-2.359303,-1.662234,1.097513,-1.403067,1.746885,1.172842,-0.568861,0.689743,-0.002667,1.001258,-0.501847,-0.475963,1.180499,-0.171802,-13.708148,27.236675,-7.504166,-6.363954,-0.145175,0.901900,-0.182328,0.000000,0.000000,0.000000,0.000000,0.000000,0.000000
13060180.000000,-2.358618,-1.662243,1.098532,-1.403567,1.746416,1.174048,-0.569022,0.684640,-0.003867,1.001816,-0.502241,-0.474776,1.186033,-0.170721,-13.882709,27.335857,-7.036026,-6.391725,-0.157076,0.759078,-0.202470,0.000000,0.000000,0.000000,0.000000,0.000000,0.000000
13060181.000000,-2.357948,-1.662251,1.099597,-1.404068,1.745942,1.175220,-0.569197,0.690134,-0.004632,1.021303,-0.501466,-0.471973,1.185813,-0.173102,-13.981891,27.431072,-6.964615,-6.463136,-0.091158,0.739852,-0.122819,0.000000,0.000000,0.000000,0.000000,0.000000,0.000000
13060182.000000,-2.357278,-1.662254,1.100666,-1.404552,1.745486,1.176415,-0.569356,0.676934,-0.006128,1.026520,-0.492792,-0.465442,1.188348,-0.171370,-13.981891,27.431072,-6.813858,-6.736879,-0.145175,0.713302,-0.142960,0.000000,0.000000,0.000000,0.000000,0.000000,0.000000
13060183.000000,-2.356621,-1.662260,1.101729,-1.405025,1.745040,1.177602,-0.569518,0.668162,-0.006016,1.037313,-0.483508,-0.458481,1.217753,-0.165268,-13.783526,27.506451,-6.667068,-7.006654,-0.246798,0.597030,-0.169511,0.000000,0.000000,0.000000,0.000000,0.000000,0.000000
13060184.000000,-2.355973,-1.662260,1.102829,-1.405497,1.744582,1.178800,-0.569688,0.658342,-0.004135,1.052283,-0.476336,-0.452528,1.214091,-0.168485,-13.632770,27.506451,-6.742447,-7.256593,-0.234896,0.583297,-0.116410,0.000000,0.000000,0.000000,0.000000,0.000000,0.000000
13060185.000000,-2.355322,-1.662264,1.103921,-1.405970,1.744142,1.180004,-0.569842,0.654630,-0.003408,1.084692,-0.477024,-0.449988,1.210546,-0.160802,-13.561358,27.530254,-6.742447,-7.427186,-0.318209,0.589706,-0.202470,0.000000,0.000000,0.000000,0.000000,0.000000,0.000000
13060186.000000,-2.354656,-1.662267,1.105041,-1.406456,1.743686,1.181191,-0.570006,0.655107,-0.002342,1.089286,-0.481627,-0.447114,1.213428,-0.159600,-13.708148,27.530254,-6.841629,-7.427186,-0.294406,0.597030,-0.163102,0.000000,0.000000,0.000000,0.000000,0.000000,0.000000
13060187.000000,-2.354001,-1.662262,1.106170,-1.406937,1.743234,1.182385,-0.570164,0.651690,0.000149,1.097856,-0.477476,-0.442473,1.209774,-0.161901,-13.882709,27.454876,-6.889236,-7.454957,-0.204684,0.597030,-0.142960,0.000000,0.000000,0.000000,0.000000,0.000000,0.000000
13060188.000000,-2.353340,-1.662258,1.107287,-1.407423,1.742801,1.183606,-0.570313,0.658644,0.002287,1.102071,-0.480554,-0.438627,1.237485,-0.157638,-14.053302,27.359661,-6.865433,-7.355775,-0.246798,0.505477,-0.182328,0.000000,0.000000,0.000000,0.000000,0.000000,0.000000
13060189.000000,-2.352688,-1.662256,1.108425,-1.407893,1.742347,1.184791,-0.570477,0.657141,0.003258,1.107737,-0.473583,-0.444174,1.228340,-0.158127,-14.204059,27.284283,-6.742447,-7.454957,-0.180880,0.518295,-0.122819,0.000000,0.000000,0.000000,0.000000,0.000000,0.000000
13060190.000000,-2.352036,-1.662246,1.109573,-1.408354,1.741919,1.185988,-0.570623,0.657189,0.005584,1.142021,-0.478713,-0.439724,1.216013,-0.156283,-14.279437,27.137493,-6.544083,-7.577943,-0.228488,0.635482,-0.196061,0.000000,0.000000,0.000000,0.000000,0.000000,0.000000
13060191.000000,-2.351387,-1.662240,1.110705,-1.408825,1.741477,1.187161,-0.570778,0.656447,0.005933,1.139716,-0.480859,-0.440189,1.203410,-0.156219,-14.350848,27.042278,-6.325882,-7.625551,-0.312716,0.785628,-0.163102,0.000000,0.000000,0.000000,0.000000,0.000000,0.000000
13060192.000000,-2.350748,-1.662228,1.111881,-1.409292,1.741039,1.188358,-0.570931,0.649356,0.008026,1.146400,-0.474052,-0.432049,1.195523,-0.155311,-14.378619,26.867718,-6.302078,-7.748537,-0.365817,0.857040,-0.155778,0.000000,0.000000,0.000000,0.000000,0.000000,0.000000
13060193.000000,-2.350106,-1.662214,1.113051,-1.409748,1.740621,1.189563,-0.571081,0.646164,0.009332,1.157514,-0.470579,-0.425626,1.191272,-0.154176,-14.402423,26.697124,-6.274307,-7.823915,-0.438143,0.792037,-0.155778,0.000000,0.000000,0.000000,0.000000,0.000000,0.000000
13060194.000000,-2.349463,-1.662201,1.114271,-1.410200,1.740188,1.190747,-0.571232,0.648116,0.010205,1.178631,-0.459393,-0.427442,1.182393,-0.152454,-14.549212,26.526531,-6.544083,-7.970705,-0.473849,0.746261,-0.136552,0.000000,0.000000,0.000000,0.000000,0.000000,0.000000
13060195.000000,-2.348823,-1.662189,1.115512,-1.410673,1.739758,1.191935,-0.571374,0.645194,0.010788,1.190568,-0.460255,-0.425994,1.175885,-0.151723,-14.624591,26.355938,-6.964615,-7.899293,-0.443636,0.752670,-0.142960,0.000000,0.000000,0.000000,0.000000,0.000000,0.000000
13060196.000000,-2.348191,-1.662183,1.116757,-1.411115,1.739333,1.193107,-0.571522,0.635596,0.014664,1.206227,-0.453095,-0.428982,1.167628,-0.151130,-14.573016,26.304363,-7.504166,-7.998476,-0.426241,0.785628,-0.155778,0.000000,0.000000,0.000000,0.000000,0.000000,0.000000
13060197.000000,-2.347557,-1.662177,1.118020,-1.411562,1.738898,1.194283,-0.571669,0.631433,0.011966,1.218261,-0.447470,-0.427318,1.155730,-0.150359,-14.624591,26.232952,-7.896927,-8.196840,-0.372225,0.836898,-0.175919,0.000000,0.000000,0.000000,0.000000,0.000000,0.000000
13060198.000000,-2.346935,-1.662177,1.119275,-1.412011,1.738473,1.195472,-0.571821,0.624295,0.008367,1.235905,-0.450684,-0.427690,1.151710,-0.152756,-14.549212,26.232952,-8.190506,-8.268251,-0.276095,0.869857,-0.116410,0.000000,0.000000,0.000000,0.000000,0.000000,0.000000
13060199.000000,-2.346316,-1.662177,1.120544,-1.412459,1.738061,1.196626,-0.571961,0.639189,0.005313,1.239623,-0.445367,-0.428599,1.146376,-0.149420,-14.501605,26.256756,-8.361099,-8.391237,-0.282504,0.993453,-0.182328,0.000000,0.000000,0.000000,0.000000,0.000000,0.000000
13060200.000000,-2.345691,-1.662185,1.121816,-1.412911,1.737644,1.197804,-0.572111,0.632862,0.002119,1.233791,-0.447626,-0.419490,1.145849,-0.155321,-14.501605,26.597942,-8.559464,-8.391237,-0.300814,1.084090,-0.136552,0.000000,0.000000,0.000000,0.000000,0.000000,0.000000
13060201.000000,-2.345072,-1.662201,1.123052,-1.413363,1.737247,1.198972,-0.572249,0.628047,-0.003310,1.228602,-0.449051,-0.411982,1.172697,-0.147153,-14.251666,27.359661,-8.829239,-8.268251,-0.342013,1.096908,-0.196061,0.000000,0.000000,0.000000,0.000000,0.000000,0.000000
13060202.000000,-2.344456,-1.662224,1.124282,-1.413825,1.736852,1.200167,-0.572394,0.624425,-0.007355,1.223284,-0.452187,-0.407142,1.177214,-0.143592,-13.930316,28.434795,-9.293411,-8.121462,-0.348422,1.071273,-0.188737,0.000000,0.000000,0.000000,0.000000,0.000000,0.000000
13060203.000000,-2.343829,-1.662242,1.125507,-1.414280,1.736456,1.201368,-0.572537,0.624505,-0.011452,1.233837,-0.459967,-0.400734,1.180763,-0.142792,-13.608966,29.636883,-10.031326,-7.946901,-0.330111,1.025497,-0.136552,0.000000,0.000000,0.000000,0.000000,0.000000,0.000000
13060204.000000,-2.343209,-1.662252,1.126720,-1.414743,1.736063,1.202554,-0.572672,0.618945,-0.010773,1.225436,-0.458067,-0.396005,1.181461,-0.143085,-13.113055,30.858807,-11.039017,-7.800111,-0.312716,1.045638,-0.169511,0.000000,0.000000,0.000000,0.000000,0.000000,0.000000
13060205.000000,-2.342609,-1.662263,1.127931,-1.415198,1.735673,1.203753,-0.572813,0.613502,-0.013561,1.215087,-0.456641,-0.388978,1.184526,-0.146150,-12.569537,32.132305,-11.895950,-7.776308,-0.240389,1.064864,-0.142960,0.000000,0.000000,0.000000,0.000000,0.000000,0.000000
13060206.000000,-2.342006,-1.662267,1.129138,-1.415646,1.735276,1.204957,-0.572951,0.608753,-0.013498,1.214381,-0.453143,-0.389707,1.212015,-0.141837,-12.026019,33.207439,-12.951248,-7.875490,-0.145175,1.169235,-0.155778,0.000000,0.000000,0.000000,0.000000,0.000000,0.000000
13060207.000000,-2.341418,-1.662263,1.130371,-1.416093,1.734876,1.206135,-0.573088,0.601220,-0.012002,1.219627,-0.448807,-0.393338,1.198729,-0.133892,-11.407123,34.088177,-13.958939,-8.022280,-0.060946,1.350509,-0.169511,0.000000,0.000000,0.000000,0.000000,0.000000,0.000000
13060208.000000,-2.340821,-1.662260,1.131624,-1.416542,1.734490,1.207328,-0.573225,0.604887,-0.008599,1.248923,-0.457370,-0.390837,1.193275,-0.133790,-11.034198,34.849895,-15.038040,-8.121462,-0.007845,1.481429,-0.163102,0.000000,0.000000,0.000000,0.000000,0.000000,0.000000
13060209.000000,-2.340222,-1.662258,1.132857,-1.416996,1.734099,1.208501,-0.573358,0.599413,-0.003518,1.247317,-0.455160,-0.389215,1.184003,-0.136461,-10.712848,35.484661,-15.994156,-8.169069,0.046171,1.591293,-0.182328,0.000000,0.000000,0.000000,0.000000,0.000000,0.000000
13060210.000000,-2.339632,-1.662255,1.134099,-1.417453,1.733705,1.209685,-0.573495,0.593820,-0.000952,1.238369,-0.451341,-0.391217,1.176604,-0.136526,-10.466876,36.024212,-16.708267,-8.169069,0.076383,1.682845,-0.155778,0.000000,0.000000,0.000000,0.000000,0.000000,0.000000
13060211.000000,-2.339046,-1.662256,1.135345,-1.417899,1.733324,1.210872,-0.573623,0.586871,-0.002100,1.241547,-0.452408,-0.384536,1.174395,-0.134479,-10.193133,36.535992,-17.442215,-8.145266,0.123990,1.689254,-0.182328,0.000000,0.000000,0.000000,0.000000,0.000000,0.000000
13060212.000000,-2.338464,-1.662262,1.136594,-1.418354,1.732948,1.212038,-0.573756,0.577170,-0.003052,1.240174,-0.451216,-0.380390,1.178060,-0.129977,-9.994769,37.027935,-17.858780,-8.046083,0.046171,1.682845,-0.155778,0.000000,0.000000,0.000000,0.000000,0.000000,0.000000
13060213.000000,-2.337888,-1.662270,1.137854,-1.418792,1.732574,1.213222,-0.573882,0.569907,-0.006017,1.242263,-0.443915,-0.378739,1.176463,-0.127558,-9.748797,37.468304,-18.203934,-8.244448,0.010465,1.578475,-0.188737,0.000000,0.000000,0.000000,0.000000,0.000000,0.000000
13060214.000000,-2.337324,-1.662287,1.139109,-1.419213,1.732195,1.214374,-0.574016,0.565808,-0.009471,1.242784,-0.434371,-0.374326,1.173209,-0.130530,-9.328265,37.956280,-18.620499,-8.490419,0.022367,1.572067,-0.142960,0.000000,0.000000,0.000000,0.000000,0.000000,0.000000
13060215.000000,-2.336772,-1.662317,1.140388,-1.419631,1.731826,1.215534,-0.574139,0.564563,-0.017751,1.240509,-0.427276,-0.370951,1.169271,-0.128655,-8.931537,38.543438,-19.037064,-8.839540,-0.067355,1.630660,-0.202470,0.000000,0.000000,0.000000,0.000000,0.000000,0.000000
13060216.000000,-2.336224,-1.662353,1.141666,-1.420039,1.731458,1.216689,-0.574277,0.553200,-0.024495,1.249897,-0.421164,-0.372587,1.164226,-0.132405,-8.534808,39.158367,-19.552811,-9.160891,-0.072848,1.754256,-0.130143,0.000000,0.000000,0.000000,0.000000,0.000000,0.000000
13060217.000000,-2.335686,-1.662394,1.142967,-1.420447,1.731093,1.217828,-0.574402,0.546148,-0.028772,1.265449,-0.415032,-0.369780,1.163281,-0.130423,-8.015094,39.745525,-20.143936,-9.553652,-0.055453,1.825668,-0.169511,0.000000,0.000000,0.000000,0.000000,0.000000,0.000000
13060218.000000,-2.335151,-1.662435,1.144282,-1.420858,1.730737,1.218994,-0.574529,0.543921,-0.031390,1.270438,-0.411081,-0.362044,1.164168,-0.129411,-7.642169,40.308880,-20.854080,-9.803591,-0.067355,1.760665,-0.188737,0.000000,0.000000,0.000000,0.000000,0.000000,0.000000
13060219.000000,-2.334623,-1.662484,1.145584,-1.421267,1.730368,1.220148,-0.574671,0.535715,-0.037185,1.282236,-0.411043,-0.367111,1.180504,-0.133068,-7.273211,40.896038,-21.516617,-9.926577,-0.037142,1.670028,-0.110001,0.000000,0.000000,0.000000,0.000000,0.000000,0.000000
13060220.000000,-2.334102,-1.662523,1.146877,-1.421673,1.730005,1.221300,-0.574795,0.533962,-0.034817,1.276860,-0.406448,-0.364840,1.163915,-0.130600,-6.900286,41.336407,-21.837967,-10.049562,-0.019747,1.656295,-0.163102,0.000000,0.000000,0.000000,0.000000,0.000000,0.000000
13060221.000000,-2.333578,-1.662578,1.148179,-1.422087,1.729643,1.222459,-0.574922,0.529336,-0.040015,1.303436,-0.415223,-0.361403,1.152653,-0.127598,-6.555132,41.923565,-22.155350,-9.974184,0.058073,1.702071,-0.130143,0.000000,0.000000,0.000000,0.000000,0.000000,0.000000
13060222.000000,-2.333058,-1.662619,1.149441,-1.422485,1.729274,1.223582,-0.575044,0.521147,-0.039131,1.287795,-0.411970,-0.365495,1.139188,-0.122698,-6.281390,42.316326,-22.155350,-9.997988,0.069974,1.903487,-0.155778,0.000000,0.000000,0.000000,0.000000,0.000000,0.000000
13060223.000000,-2.332557,-1.662663,1.150733,-1.422897,1.728906,1.224731,-0.575169,0.516302,-0.042428,1.279587,-0.411565,-0.363411,1.132393,-0.119892,-5.912432,42.728924,-22.254532,-9.926577,0.064481,2.014266,-0.149369,0.000000,0.000000,0.000000,0.000000,0.000000,0.000000
13060224.000000,-2.332047,-1.662699,1.151995,-1.423297,1.728558,1.225901,-0.575292,0.515208,-0.038652,1.272387,-0.408501,-0.355861,1.134560,-0.117641,-5.614886,42.998699,-22.107742,-9.827394,0.022367,1.962081,-0.163102,0.000000,0.000000,0.000000,0.000000,0.000000,0.000000
13060225.000000,-2.331561,-1.662732,1.153302,-1.423709,1.728203,1.227052,-0.575419,0.502587,-0.037615,1.277585,-0.406555,-0.356230,1.138910,-0.120722,-5.241961,43.197063,-22.353714,-9.676638,0.027860,1.936446,-0.169511,0.000000,0.000000,0.000000,0.000000,0.000000,0.000000
13060226.000000,-2.331064,-1.662760,1.154607,-1.424130,1.727853,1.228205,-0.575541,0.497359,-0.034686,1.307924,-0.406378,-0.358000,1.139460,-0.122666,-4.920611,43.292278,-22.571915,-9.355288,-0.013339,1.936446,-0.169511,0.000000,0.000000,0.000000,0.000000,0.000000,0.000000
13060227.000000,-2.330565,-1.662786,1.155885,-1.424544,1.727492,1.229347,-0.575663,0.498457,-0.031424,1.299479,-0.409395,-0.354884,1.142304,-0.125200,-4.674639,43.320049,-22.718704,-9.133120,0.015958,1.930038,-0.163102,0.000000,0.000000,0.000000,0.000000,0.000000,0.000000
13060228.000000,-2.330094,-1.662816,1.157200,-1.424963,1.727133,1.230501,-0.575788,0.485520,-0.030521,1.296696,-0.408609,-0.355285,1.143227,-0.122938,-4.277911,43.391460,-23.135269,-8.887148,0.135892,1.936446,-0.142960,0.000000,0.000000,0.000000,0.000000,0.000000,0.000000
13060229.000000,-2.329619,-1.662838,1.158497,-1.425374,1.726784,1.231661,-0.575906,0.480031,-0.026731,1.295346,-0.408414,-0.356197,1.143793,-0.119347,-3.956561,43.320049,-23.555801,-8.787966,0.141385,1.949264,-0.175919,0.000000,0.000000,0.000000,0.000000,0.000000,0.000000
13060230.000000,-2.329153,-1.662858,1.159809,-1.425792,1.726434,1.232800,-0.576030,0.485692,-0.022964,1.297379,-0.405980,-0.352530,1.144921,-0.121569,-3.607440,43.197063,-23.996170,-8.641176,0.166105,1.962081,-0.136552,0.000000,0.000000,0.000000,0.000000,0.000000,0.000000
13060231.000000,-2.328684,-1.662883,1.161111,-1.426218,1.726094,1.233953,-0.576142,0.479378,-0.022965,1.289768,-0.409702,-0.344926,1.146642,-0.112994,-3.262286,43.173260,-24.166763,-8.419008,0.178007,2.001449,-0.182328,0.000000,0.000000,0.000000,0.000000,0.000000,0.000000
13060232.000000,-2.328222,-1.662913,1.162395,-1.426639,1.725758,1.235090,-0.576261,0.475930,-0.024074,1.287318,-0.409768,-0.345268,1.145670,-0.114467,-2.917132,43.197063,-24.341324,-8.169069,0.225614,2.027084,-0.149369,0.000000,0.000000,0.000000,0.000000,0.000000,0.000000
13060233.000000,-2.327758,-1.662939,1.163687,-1.427081,1.725413,1.236228,-0.576374,0.472450,-0.024364,1.277510,-0.417993,-0.343513,1.146940,-0.117970,-2.667193,43.197063,-24.412735,-7.800111,0.243009,2.137862,-0.175919,0.000000,0.000000,0.000000,0.000000,0.000000,0.000000
13060234.000000,-2.327293,-1.662956,1.164959,-1.427510,1.725079,1.237385,-0.576487,0.468591,-0.025310,1.275053,-0.420130,-0.337609,1.148588,-0.119027,-2.421221,43.097881,-24.436539,-7.478761,0.231107,2.104903,-0.196061,0.000000,0.000000,0.000000,0.000000,0.000000,0.000000
13060235.000000,-2.326841,-1.662979,1.166257,-1.427962,1.724748,1.238534,-0.576606,0.458077,-0.024820,1.282642,-0.428352,-0.329498,1.143836,-0.118938,-2.072100,43.074078,-24.611099,-7.006654,0.255826,1.988631,-0.155778,0.000000,0.000000,0.000000,0.000000,0.000000,0.000000
13060236.000000,-2.326390,-1.663003,1.167552,-1.428401,1.724413,1.239695,-0.576715,0.454585,-0.021391,1.278414,-0.428399,-0.332186,1.136934,-0.120584,-1.802325,43.050274,-24.706314,-6.760683,0.267728,1.877853,-0.182328,0.000000,0.000000,0.000000,0.000000,0.000000,0.000000
13060237.000000,-2.325945,-1.663028,1.168852,-1.428850,1.724078,1.240851,-0.576832,0.449943,-0.022912,1.285742,-0.437568,-0.335147,1.152833,-0.120690,-1.453204,43.074078,-25.126846,-6.415529,0.297025,1.844894,-0.130143,0.000000,0.000000,0.000000,0.000000,0.000000,0.000000
13060238.000000,-2.325519,-1.663056,1.170161,-1.429303,1.723746,1.241975,-0.576937,0.441584,-0.027720,1.281762,-0.442235,-0.330799,1.135493,-0.116837,-0.985064,43.121685,-25.567215,-6.117982,0.303434,2.007858,-0.175919,0.000000,0.000000,0.000000,0.000000,0.000000,0.000000
13060239.000000,-2.325092,-1.663079,1.171486,-1.429752,1.723428,1.243111,-0.577049,0.436050,-0.023899,1.314968,-0.451923,-0.328518,1.127077,-0.111851,-0.540728,43.121685,-26.182144,-5.872011,0.308927,2.169906,-0.163102,0.000000,0.000000,0.000000,0.000000,0.000000,0.000000
13060240.000000,-2.324663,-1.663105,1.172772,-1.430209,1.723093,1.244228,-0.577158,0.430365,-0.025257,1.306724,-0.453210,-0.328303,1.120931,-0.111713,-0.144000,43.173260,-26.475723,-5.626039,0.356534,2.365829,-0.169511,0.000000,0.000000,0.000000,0.000000,0.000000,0.000000
13060241.000000,-2.324239,-1.663132,1.174066,-1.430669,1.722757,1.245371,-0.577267,0.433029,-0.025719,1.294498,-0.450692,-0.327931,1.122274,-0.112747,0.177350,43.197063,-26.622513,-5.376100,0.405057,2.423507,-0.155778,0.000000,0.000000,0.000000,0.000000,0.000000,0.000000
13060242.000000,-2.323824,-1.663153,1.175337,-1.431122,1.722431,1.246523,-0.577373,0.420322,-0.024780,1.287880,-0.452353,-0.327695,1.121259,-0.111150,0.574079,43.173260,-26.670120,-5.130128,0.446256,2.410690,-0.155778,0.000000,0.000000,0.000000,0.000000,0.000000,0.000000
13060243.000000,-2.323405,-1.663172,1.176617,-1.431584,1.722109,1.247655,-0.577469,0.419168,-0.023005,1.278818,-0.451430,-0.325506,1.121119,-0.109194,0.772443,43.097881,-26.622513,-4.808778,0.452665,2.345687,-0.215287,0.000000,0.000000,0.000000,0.000000,0.000000,0.000000
13060244.000000,-2.322982,-1.663195,1.177902,-1.432059,1.721779,1.248804,-0.577577,0.420727,-0.024267,1.275596,-0.460445,-0.333520,1.120830,-0.106938,1.022382,43.121685,-26.547134,-4.364442,0.506681,2.228500,-0.182328,0.000000,0.000000,0.000000,0.000000,0.000000,0.000000
13060245.000000,-2.322558,-1.663219,1.179139,-1.432523,1.721451,1.249940,-0.577679,0.415231,-0.024366,1.260937,-0.462452,-0.327112,1.128000,-0.103815,1.268354,43.121685,-26.130569,-3.967714,0.554288,2.085677,-0.175919,0.000000,0.000000,0.000000,0.000000,0.000000,0.000000
13060246.000000,-2.322147,-1.663244,1.180424,-1.433000,1.721126,1.251087,-0.577779,0.412734,-0.025695,1.257911,-0.463952,-0.322557,1.136335,-0.104850,1.442914,43.173260,-26.229752,-3.547182,0.613798,1.995040,-0.215287,0.000000,0.000000,0.000000,0.000000,0.000000,0.000000
13060247.000000,-2.321734,-1.663269,1.181665,-1.433465,1.720824,1.252235,-0.577883,0.412427,-0.023467,1.252141,-0.464272,-0.319365,1.140296,-0.101941,1.641279,43.220867,-26.007584,-3.178224,0.542386,1.942855,-0.229020,0.000000,0.000000,0.000000,0.000000,0.000000,0.000000
13060248.000000,-2.321326,-1.663292,1.182936,-1.433921,1.720505,1.253366,-0.577995,0.411436,-0.024890,1.254422,-0.459017,-0.319975,1.142677,-0.103280,1.835676,43.268475,-26.031387,-3.178224,0.524076,1.923629,-0.142960,0.000000,0.000000,0.000000,0.000000,0.000000,0.000000
13060249.000000,-2.320922,-1.663315,1.184200,-1.434374,1.720188,1.254511,-0.578090,0.407075,-0.022090,1.250771,-0.453447,-0.320843,1.135525,-0.102920,2.109418,43.292278,-25.936172,-3.154421,0.542386,1.942855,-0.196061,0.000000,0.000000,0.000000,0.000000,0.000000,0.000000
13060250.000000,-2.320518,-1.663337,1.185447,-1.434811,1.719884,1.255632,-0.578191,0.402812,-0.023190,1.248314,-0.443162,-0.310658,1.148279,-0.099864,2.260175,43.320049,-25.983780,-3.277406,0.524076,1.995040,-0.221696,0.000000,0.000000,0.000000,0.000000,0.000000,0.000000
13060251.000000,-2.320108,-1.663357,1.186691,-1.435256,1.719571,1.256766,-0.578301,0.405534,-0.023304,1.237613,-0.445085,-0.310111,1.134806,-0.105045,2.307783,43.320049,-25.836990,-3.225832,0.584501,2.098495,-0.175919,0.000000,0.000000,0.000000,0.000000,0.000000,0.000000
13060252.000000,-2.319699,-1.663370,1.187913,-1.435695,1.719256,1.257924,-0.578402,0.406153,-0.017648,1.257471,-0.443849,-0.310711,1.130972,-0.106549,2.383161,43.197063,-25.666397,-3.202028,0.655912,2.047225,-0.188737,0.000000,0.000000,0.000000,0.000000,0.000000,0.000000
13060253.000000,-2.319279,-1.663382,1.189163,-1.436136,1.718943,1.259083,-0.578505,0.408072,-0.017945,1.252760,-0.440928,-0.306648,1.139036,-0.102995,2.307783,43.121685,-25.737808,-3.126650,0.739225,1.832076,-0.196061,0.000000,0.000000,0.000000,0.000000,0.000000,0.000000
13060254.000000,-2.318866,-1.663386,1.190387,-1.436572,1.718642,1.260253,-0.578606,0.410273,-0.014827,1.238395,-0.437960,-0.300643,1.144727,-0.104424,2.160993,42.903484,-25.468033,-3.079042,0.751127,1.689254,-0.208878,0.000000,0.000000,0.000000,0.000000,0.000000,0.000000
13060255.000000,-2.318450,-1.663390,1.191603,-1.436995,1.718354,1.261422,-0.578709,0.412644,-0.013905,1.233927,-0.435107,-0.303392,1.169284,-0.103642,2.061811,42.728924,-25.321243,-3.079042,0.698026,1.597701,-0.163102,0.000000,0.000000,0.000000,0.000000,0.000000,0.000000
13060256.000000,-2.318041,-1.663396,1.192832,-1.437417,1.718061,1.262565,-0.578802,0.410299,-0.011423,1.226084,-0.426895,-0.298941,1.161408,-0.099022,2.034040,42.609905,-25.222061,-3.154421,0.601896,1.656295,-0.221696,0.000000,0.000000,0.000000,0.000000,0.000000,0.000000
13060257.000000,-2.317628,-1.663401,1.194086,-1.437825,1.717775,1.263716,-0.578909,0.409665,-0.009579,1.259033,-0.432165,-0.293196,1.150909,-0.100071,1.962629,42.486919,-25.444229,-3.225832,0.542386,1.800033,-0.163102,0.000000,0.000000,0.000000,0.000000,0.000000,0.000000
13060258.000000,-2.317227,-1.663406,1.195304,-1.438226,1.717496,1.264846,-0.579012,0.406490,-0.009394,1.248163,-0.421171,-0.287987,1.144026,-0.099069,2.010236,42.411541,-25.543411,-3.376589,0.452665,1.974899,-0.142960,0.000000,0.000000,0.000000,0.000000,0.000000,0.000000
13060259.000000,-2.316828,-1.663411,1.196550,-1.438626,1.717217,1.265998,-0.579107,0.405288,-0.009179,1.241438,-0.416182,-0.286313,1.145465,-0.095667,2.010236,42.340130,-25.813187,-3.523378,0.428861,2.098495,-0.188737,0.000000,0.000000,0.000000,0.000000,0.000000,0.000000
13060260.000000,-2.316420,-1.663413,1.197795,-1.439026,1.716938,1.267154,-0.579203,0.405932,-0.010444,1.241550,-0.412994,-0.285801,1.149573,-0.093697,1.986432,42.193340,-26.352737,-3.547182,0.422452,2.157089,-0.235429,0.000000,0.000000,0.000000,0.000000,0.000000,0.000000
13060261.000000,-2.316012,-1.663413,1.199027,-1.439421,1.716657,1.268291,-0.579304,0.407353,-0.008214,1.233861,-0.406858,-0.282554,1.149246,-0.095336,1.887250,42.046551,-26.475723,-3.547182,0.482877,2.163497,-0.196061,0.000000,0.000000,0.000000,0.000000,0.000000,0.000000
13060262.000000,-2.315610,-1.663423,1.200256,-1.439818,1.716378,1.269435,-0.579409,0.403210,-0.010053,1.227060,-0.402295,-0.285717,1.146261,-0.100373,1.863447,42.046551,-26.523331,-3.448000,0.608304,2.183639,-0.149369,0.000000,0.000000,0.000000,0.000000,0.000000,0.000000
13060263.000000,-2.315204,-1.663427,1.201460,-1.440204,1.716114,1.270561,-0.579499,0.403316,-0.009384,1.222852,-0.397529,-0.280403,1.141974,-0.096249,1.835676,41.971172,-26.475723,-3.376589,0.613798,2.190048,-0.215287,0.000000,0.000000,0.000000,0.000000,0.000000,0.000000
13060264.000000,-2.314800,-1.663437,1.202676,-1.440584,1.715847,1.271702,-0.579599,0.403838,-0.010674,1.213055,-0.387281,-0.280530,1.139143,-0.092374,1.788068,41.971172,-26.352737,-3.424196,0.608304,2.177230,-0.182328,0.000000,0.000000,0.000000,0.000000,0.000000,0.000000
13060265.000000,-2.314394,-1.663446,1.203868,-1.440960,1.715581,1.272837,-0.579690,0.399804,-0.011599,1.208276,-0.382414,-0.279537,1.125378,-0.092134,1.764264,41.971172,-26.106766,-3.376589,0.566190,2.228500,-0.202470,0.000000,0.000000,0.000000,0.000000,0.000000,0.000000
13060266.000000,-2.313996,-1.663454,1.205068,-1.441336,1.715319,1.273968,-0.579788,0.403129,-0.011511,1.199054,-0.380197,-0.267644,1.124870,-0.093349,1.788068,41.947369,-25.737808,-3.400392,0.470060,2.137862,-0.169511,0.000000,0.000000,0.000000,0.000000,0.000000,0.000000
13060267.000000,-2.313616,-1.663460,1.206295,-1.441711,1.715055,1.275114,-0.579875,0.396809,-0.011319,1.196892,-0.376368,-0.266246,1.118347,-0.088116,1.962629,41.923565,-25.737808,-3.400392,0.446256,2.039901,-0.188737,0.000000,0.000000,0.000000,0.000000,0.000000,0.000000
13060268.000000,-2.313221,-1.663467,1.207477,-1.442085,1.714806,1.276248,-0.579965,0.393230,-0.011237,1.190512,-0.376642,-0.262925,1.119131,-0.090575,2.034040,41.899761,-25.468033,-3.400392,0.362943,1.968490,-0.163102,0.000000,0.000000,0.000000,0.000000,0.000000,0.000000
13060269.000000,-2.312836,-1.663471,1.208684,-1.442458,1.714537,1.277392,-0.580052,0.390912,-0.009804,1.187766,-0.372418,-0.264579,1.116703,-0.090484,2.109418,41.824383,-25.396622,-3.424196,0.398649,1.949264,-0.188737,0.000000,0.000000,0.000000,0.000000,0.000000,0.000000
13060270.000000,-2.312459,-1.663474,1.209877,-1.442823,1.714273,1.278542,-0.580141,0.382875,-0.005379,1.213816,-0.373732,-0.267196,1.122033,-0.086298,2.307783,41.729168,-25.345047,-3.424196,0.458158,1.877853,-0.202470,0.000000,0.000000,0.000000,0.000000,0.000000,0.000000
13060271.000000,-2.312080,-1.663478,1.211083,-1.443180,1.714016,1.279680,-0.580239,0.378837,-0.006337,1.206638,-0.367518,-0.262477,1.127203,-0.090408,2.454572,41.677593,-25.368851,-3.598757,0.476469,1.754256,-0.142960,0.000000,0.000000,0.000000,0.000000,0.000000,0.000000
13060272.000000,-2.311705,-1.663475,1.212284,-1.443545,1.713761,1.280818,-0.580321,0.378736,-0.002770,1.200842,-0.367446,-0.258344,1.126689,-0.089235,2.605329,41.578411,-25.321243,-3.570986,0.476469,1.767074,-0.196061,0.000000,0.000000,0.000000,0.000000,0.000000,0.000000
13060273.000000,-2.311324,-1.663476,1.213454,-1.443899,1.713519,1.281960,-0.580413,0.376360,-0.000825,1.185752,-0.366261,-0.259170,1.146985,-0.087846,2.680707,41.507000,-25.150650,-3.598757,0.452665,1.832076,-0.142960,0.000000,0.000000,0.000000,0.000000,0.000000,0.000000
13060274.000000,-2.310955,-1.663473,1.214639,-1.444257,1.713260,1.283088,-0.580496,0.375517,0.001284,1.181952,-0.364573,-0.257152,1.144899,-0.082400,2.752119,41.407818,-24.976089,-3.499574,0.500272,1.890670,-0.182328,0.000000,0.000000,0.000000,0.000000,0.000000,0.000000
13060275.000000,-2.310580,-1.663468,1.215805,-1.444607,1.713006,1.284222,-0.580581,0.375047,0.003368,1.194996,-0.367011,-0.254272,1.140614,-0.081468,2.803693,41.284832,-24.559525,-3.448000,0.500272,1.995040,-0.163102,0.000000,0.000000,0.000000,0.000000,0.000000,0.000000
13060276.000000,-2.310192,-1.663461,1.216962,-1.444961,1.712759,1.285350,-0.580664,0.378686,0.004756,1.185625,-0.363340,-0.251544,1.138735,-0.079167,2.680707,41.165813,-24.289749,-3.301210,0.464567,1.974899,-0.182328,0.000000,0.000000,0.000000,0.000000,0.000000,0.000000
13060277.000000,-2.309818,-1.663444,1.218146,-1.445316,1.712517,1.286500,-0.580748,0.380096,0.008162,1.179027,-0.361199,-0.248276,1.137815,-0.077685,2.680707,40.943645,-24.242142,-3.249635,0.422452,1.903487,-0.202470,0.000000,0.000000,0.000000,0.000000,0.000000,0.000000
13060278.000000,-2.309443,-1.663427,1.219315,-1.445654,1.712278,1.287658,-0.580831,0.376116,0.016019,1.176988,-0.352236,-0.246463,1.139958,-0.080757,2.652936,40.749249,-24.242142,-3.249635,0.393156,1.786300,-0.196061,0.000000,0.000000,0.000000,0.000000,0.000000,0.000000
13060279.000000,-2.309077,-1.663418,1.220507,-1.446002,1.712036,1.288797,-0.580917,0.373649,0.013956,1.175287,-0.351265,-0.245517,1.136395,-0.085217,2.680707,40.626263,-24.388931,-3.126650,0.381254,1.676437,-0.163102,0.000000,0.000000,0.000000,0.000000,0.000000,0.000000
13060280.000000,-2.308709,-1.663405,1.221714,-1.446338,1.711796,1.289936,-0.580997,0.370665,0.013038,1.177816,-0.345695,-0.241713,1.121789,-0.082172,2.704511,40.479473,-24.757889,-3.225832,0.398649,1.676437,-0.175919,0.000000,0.000000,0.000000,0.000000,0.000000,0.000000
13060281.000000,-2.308340,-1.663395,1.222893,-1.446670,1.711555,1.291055,-0.581076,0.367039,0.011237,1.177953,-0.340626,-0.239729,1.115514,-0.080361,2.779890,40.380291,-25.027664,-3.225832,0.446256,1.747848,-0.175919,0.000000,0.000000,0.000000,0.000000,0.000000,0.000000
13060282.000000,-2.307977,-1.663389,1.224092,-1.446991,1.711319,1.292186,-0.581159,0.362223,0.009330,1.176370,-0.330706,-0.236532,1.109482,-0.080167,2.827497,40.308880,-25.345047,-3.475771,0.452665,1.858627,-0.149369,0.000000,0.000000,0.000000,0.000000,0.000000,0.000000
13060283.000000,-2.307608,-1.663385,1.225265,-1.447312,1.711090,1.293311,-0.581236,0.360728,0.010601,1.181732,-0.327259,-0.238876,1.105231,-0.082204,2.752119,40.257305,-25.444229,-3.598757,0.458158,1.974899,-0.188737,0.000000,0.000000,0.000000,0.000000,0.000000,0.000000
13060284.000000,-2.307244,-1.663383,1.226455,-1.447634,1.710856,1.294430,-0.581327,0.364148,0.007417,1.179861,-0.326183,-0.239442,1.110421,-0.082637,2.704511,40.257305,-25.567215,-3.670168,0.434354,1.995040,-0.130143,0.000000,0.000000,0.000000,0.000000,0.000000,0.000000
13060285.000000,-2.306879,-1.663378,1.227628,-1.447957,1.710620,1.295552,-0.581398,0.366985,0.005763,1.169014,-0.322977,-0.235555,1.106928,-0.080984,2.704511,40.233501,-25.321243,-3.697939,0.410551,2.047225,-0.229020,0.000000,0.000000,0.000000,0.000000,0.000000,0.000000
13060286.000000,-2.306503,-1.663376,1.228786,-1.448273,1.710398,1.296665,-0.581484,0.368252,0.004595,1.164456,-0.319770,-0.227236,1.134272,-0.080981,2.581525,40.209698,-25.150650,-3.622560,0.374845,2.060043,-0.196061,0.000000,0.000000,0.000000,0.000000,0.000000,0.000000
13060287.000000,-2.306136,-1.663373,1.229950,-1.448601,1.710175,1.297803,-0.581571,0.370413,0.003211,1.159958,-0.321596,-0.225921,1.138935,-0.076731,2.430768,40.209698,-24.880875,-3.448000,0.351041,1.916305,-0.149369,0.000000,0.000000,0.000000,0.000000,0.000000,0.000000
13060288.000000,-2.305765,-1.663374,1.231113,-1.448917,1.709950,1.298956,-0.581644,0.372210,0.001137,1.171718,-0.319988,-0.228064,1.143656,-0.074644,2.260175,40.257305,-24.511917,-3.301210,0.405057,1.721298,-0.196061,0.000000,0.000000,0.000000,0.000000,0.000000,0.000000
13060289.000000,-2.305397,-1.663371,1.232273,-1.449230,1.709728,1.300074,-0.581729,0.368467,0.000841,1.167089,-0.320956,-0.232095,1.137760,-0.076262,2.184797,40.257305,-24.436539,-3.178224,0.393156,1.643478,-0.155778,0.000000,0.000000,0.000000,0.000000,0.000000,0.000000
13060290.000000,-2.305031,-1.663366,1.233431,-1.449535,1.709502,1.301209,-0.581804,0.366601,0.001180,1.159977,-0.311164,-0.228875,1.139969,-0.078826,2.061811,40.233501,-24.166763,-3.225832,0.344633,1.630660,-0.208878,0.000000,0.000000,0.000000,0.000000,0.000000,0.000000
13060291.000000,-2.304665,-1.663365,1.234585,-1.449834,1.709272,1.302340,-0.581889,0.363296,0.000833,1.159357,-0.305523,-0.231689,1.147691,-0.080569,1.986432,40.233501,-24.119156,-3.225832,0.434354,1.670028,-0.142960,0.000000,0.000000,0.000000,0.000000,0.000000,0.000000
13060292.000000,-2.304308,-1.663362,1.235745,-1.450124,1.709056,1.303456,-0.581961,0.358185,0.000590,1.155933,-0.298676,-0.228085,1.134398,-0.077132,1.911054,40.233501,-23.948563,-3.448000,0.393156,1.760665,-0.196061,0.000000,0.000000,0.000000,0.000000,0.000000,0.000000
13060293.000000,-2.303949,-1.663358,1.236926,-1.450419,1.708844,1.304587,-0.582038,0.357766,0.000976,1.160555,-0.300174,-0.225656,1.117798,-0.072325,1.835676,40.209698,-24.071548,-3.499574,0.369352,1.865035,-0.188737,0.000000,0.000000,0.000000,0.000000,0.000000,0.000000
13060294.000000,-2.303575,-1.663349,1.238075,-1.450706,1.708632,1.305709,-0.582117,0.361573,0.002434,1.156615,-0.291453,-0.220044,1.113804,-0.078229,1.589704,40.134319,-24.071548,-3.622560,0.339139,1.923629,-0.175919,0.000000,0.000000,0.000000,0.000000,0.000000,0.000000
13060295.000000,-2.303206,-1.663339,1.239233,-1.450995,1.708416,1.306851,-0.582185,0.363565,0.003865,1.145214,-0.288315,-0.224214,1.119290,-0.075561,1.367536,40.039104,-23.996170,-3.721742,0.285123,1.877853,-0.221696,0.000000,0.000000,0.000000,0.000000,0.000000,0.000000
13060296.000000,-2.302833,-1.663332,1.240367,-1.451289,1.708191,1.307984,-0.582263,0.365239,0.003794,1.140947,-0.290969,-0.223867,1.119706,-0.081310,1.121564,39.987530,-23.849380,-3.646364,0.381254,1.930038,-0.196061,0.000000,0.000000,0.000000,0.000000,0.000000,0.000000
13060297.000000,-2.302453,-1.663317,1.241510,-1.451579,1.707975,1.309102,-0.582343,0.376109,0.009010,1.140005,-0.290929,-0.219463,1.121204,-0.077257,0.649457,39.840740,-23.627213,-3.622560,0.386747,1.962081,-0.136552,0.000000,0.000000,0.000000,0.000000,0.000000,0.000000
13060298.000000,-2.302073,-1.663299,1.242652,-1.451876,1.707762,1.310241,-0.582409,0.374920,0.013424,1.130109,-0.292313,-0.216436,1.124285,-0.074804,0.351911,39.670147,-23.381241,-3.547182,0.393156,1.858627,-0.163102,0.000000,0.000000,0.000000,0.000000,0.000000,0.000000
13060299.000000,-2.301690,-1.663285,1.243785,-1.452155,1.707556,1.311373,-0.582476,0.377021,0.014215,1.129964,-0.287453,-0.209923,1.129940,-0.068774,0.054365,39.598736,-23.210648,-3.570986,0.398649,1.727706,-0.202470,0.000000,0.000000,0.000000,0.000000,0.000000,0.000000
13060300.000000,-2.301317,-1.663269,1.244942,-1.452428,1.707357,1.312501,-0.582553,0.376638,0.015565,1.131754,-0.283077,-0.210615,1.129094,-0.072237,-0.144000,39.499554,-23.234451,-3.622560,0.315336,1.721298,-0.155778,0.000000,0.000000,0.000000,0.000000,0.000000,0.000000
13060301.000000,-2.300946,-1.663262,1.246079,-1.452694,1.707152,1.313638,-0.582619,0.375267,0.013701,1.132641,-0.275900,-0.203587,1.133745,-0.066487,-0.314593,39.523357,-23.286026,-3.721742,0.267728,1.708480,-0.202470,0.000000,0.000000,0.000000,0.000000,0.000000,0.000000
13060302.000000,-2.300579,-1.663249,1.247251,-1.452952,1.706944,1.314741,-0.582697,0.374138,0.014203,1.140816,-0.269218,-0.200274,1.124729,-0.070608,-0.441546,39.475750,-23.555801,-3.892336,0.267728,1.779891,-0.149369,0.000000,0.000000,0.000000,0.000000,0.000000,0.000000
13060303.000000,-2.300217,-1.663237,1.248429,-1.453217,1.706742,1.315863,-0.582762,0.370045,0.014061,1.145555,-0.267589,-0.201079,1.117680,-0.069806,-0.540728,39.451946,-23.873184,-3.920107,0.231107,1.858627,-0.188737,0.000000,0.000000,0.000000,0.000000,0.000000,0.000000
13060304.000000,-2.299851,-1.663228,1.249588,-1.453471,1.706540,1.316953,-0.582831,0.366622,0.013533,1.152135,-0.263600,-0.199915,1.123820,-0.072047,-0.663714,39.451946,-24.218338,-4.066896,0.279630,1.995040,-0.169511,0.000000,0.000000,0.000000,0.000000,0.000000,0.000000
13060305.000000,-2.299498,-1.663222,1.250755,-1.453732,1.706337,1.318073,-0.582905,0.359492,0.011961,1.148559,-0.263295,-0.202501,1.115489,-0.073818,-0.687518,39.499554,-24.436539,-4.090700,0.303434,2.020675,-0.142960,0.000000,0.000000,0.000000,0.000000,0.000000,0.000000
13060306.000000,-2.299144,-1.663212,1.251923,-1.453978,1.706142,1.319203,-0.582965,0.350983,0.012106,1.167586,-0.255840,-0.199273,1.111635,-0.067731,-0.711321,39.499554,-24.583328,-4.166078,0.308927,1.981307,-0.188737,0.000000,0.000000,0.000000,0.000000,0.000000,0.000000
13060307.000000,-2.298785,-1.663206,1.253061,-1.454223,1.705938,1.320311,-0.583035,0.352523,0.008508,1.163134,-0.252647,-0.201130,1.110624,-0.070823,-0.762896,39.523357,-24.559525,-4.265260,0.297025,2.001449,-0.155778,0.000000,0.000000,0.000000,0.000000,0.000000,0.000000
13060308.000000,-2.298433,-1.663203,1.254204,-1.454481,1.705731,1.321426,-0.583097,0.352060,0.007709,1.146426,-0.251047,-0.202218,1.109332,-0.065749,-0.786700,39.598736,-24.388931,-4.189882,0.279630,2.027084,-0.196061,0.000000,0.000000,0.000000,0.000000,0.000000,0.000000
13060309.000000,-2.298073,-1.663197,1.255330,-1.454727,1.705529,1.322542,-0.583164,0.350753,0.007870,1.140616,-0.248199,-0.199261,1.109962,-0.065546,-0.909686,39.646343,-24.043777,-4.189882,0.291532,2.033492,-0.142960,0.000000,0.000000,0.000000,0.000000,0.000000,0.000000
13060310.000000,-2.297728,-1.663190,1.256464,-1.454980,1.705331,1.323649,-0.583228,0.350602,0.008046,1.131135,-0.250185,-0.200798,1.109947,-0.067352,-0.909686,39.693951,-23.651016,-4.118471,0.285123,2.039901,-0.149369,0.000000,0.000000,0.000000,0.000000,0.000000,0.000000
13060311.000000,-2.297388,-1.663176,1.257605,-1.455225,1.705140,1.324766,-0.583291,0.345983,0.010978,1.148820,-0.256298,-0.200749,1.109811,-0.069415,-0.862078,39.622540,-23.409012,-4.142274,0.261320,2.007858,-0.149369,0.000000,0.000000,0.000000,0.000000,0.000000,0.000000
13060312.000000,-2.297044,-1.663163,1.258739,-1.455477,1.704949,1.325883,-0.583348,0.343410,0.012491,1.145933,-0.253384,-0.196366,1.119375,-0.068819,-0.834307,39.574932,-23.286026,-4.066896,0.219205,1.884261,-0.202470,0.000000,0.000000,0.000000,0.000000,0.000000,0.000000
13060313.000000,-2.296713,-1.663147,1.259880,-1.455726,1.704754,1.327003,-0.583410,0.339645,0.015325,1.136917,-0.251052,-0.197995,1.116273,-0.065948,-0.711321,39.451946,-23.135269,-3.991518,0.183500,1.760665,-0.202470,0.000000,0.000000,0.000000,0.000000,0.000000,0.000000
13060314.000000,-2.296382,-1.663133,1.261014,-1.455966,1.704554,1.328132,-0.583477,0.334957,0.013518,1.139866,-0.246584,-0.197674,1.112334,-0.065422,-0.540728,39.352764,-23.135269,-4.043092,0.231107,1.676437,-0.136552,0.000000,0.000000,0.000000,0.000000,0.000000,0.000000
13060315.000000,-2.296064,-1.663118,1.262158,-1.456211,1.704363,1.329233,-0.583530,0.329581,0.015227,1.133970,-0.244458,-0.195663,1.101522,-0.055535,-0.366168,39.253582,-23.087662,-4.043092,0.249418,1.682845,-0.208878,0.000000,0.000000,0.000000,0.000000,0.000000,0.000000
13060316.000000,-2.295749,-1.663098,1.263316,-1.456450,1.704171,1.330351,-0.583594,0.325566,0.017449,1.130990,-0.242884,-0.194182,1.095573,-0.057598,-0.191607,39.106792,-23.210648,-4.043092,0.255826,1.714889,-0.163102,0.000000,0.000000,0.000000,0.000000,0.000000,0.000000
13060317.000000,-2.295434,-1.663081,1.264440,-1.456691,1.703985,1.331459,-0.583652,0.321071,0.017413,1.134090,-0.242320,-0.194265,1.094636,-0.056226,0.030561,39.035381,-23.210648,-4.019289,0.291532,1.695663,-0.188737,0.000000,0.000000,0.000000,0.000000,0.000000,0.000000
13060318.000000,-2.295121,-1.663067,1.265577,-1.456929,1.703801,1.332573,-0.583716,0.311680,0.013735,1.125898,-0.237766,-0.192028,1.096648,-0.058035,0.177350,38.983807,-23.163040,-4.019289,0.279630,1.741439,-0.142960,0.000000,0.000000,0.000000,0.000000,0.000000,0.000000
13060319.000000,-2.294809,-1.663053,1.266698,-1.457165,1.703618,1.333697,-0.583772,0.312844,0.014672,1.146112,-0.236092,-0.190201,1.094063,-0.055898,0.304304,38.912395,-23.063858,-3.967714,0.249418,1.747848,-0.188737,0.000000,0.000000,0.000000,0.000000,0.000000,0.000000
13060320.000000,-2.294499,-1.663033,1.267821,-1.457403,1.703429,1.334797,-0.583834,0.311960,0.013995,1.139957,-0.235769,-0.189578,1.097483,-0.057047,0.403486,38.765606,-22.841690,-3.868532,0.243009,1.779891,-0.163102,0.000000,0.000000,0.000000,0.000000,0.000000,0.000000
13060321.000000,-2.294200,-1.663013,1.268940,-1.457645,1.703240,1.335919,-0.583890,0.308541,0.016507,1.123725,-0.235244,-0.188855,1.101015,-0.059295,0.474897,38.618816,-22.571915,-3.769350,0.225614,1.773483,-0.202470,0.000000,0.000000,0.000000,0.000000,0.000000,0.000000
13060322.000000,-2.293898,-1.662994,1.270060,-1.457882,1.703054,1.337036,-0.583953,0.307798,0.017158,1.123198,-0.239648,-0.184677,1.134378,-0.063704,0.625654,38.519634,-22.448929,-3.598757,0.231107,1.649886,-0.196061,0.000000,0.000000,0.000000,0.000000,0.000000,0.000000
13060323.000000,-2.293593,-1.662973,1.271201,-1.458112,1.702870,1.338176,-0.584019,0.306493,0.018750,1.124291,-0.233559,-0.185857,1.133792,-0.064161,0.649457,38.372845,-22.500504,-3.547182,0.237516,1.481429,-0.136552,0.000000,0.000000,0.000000,0.000000,0.000000,0.000000
13060324.000000,-2.293302,-1.662955,1.272347,-1.458351,1.702687,1.339310,-0.584071,0.300119,0.022663,1.150137,-0.242745,-0.183232,1.129923,-0.060148,0.871625,38.249859,-22.595718,-3.400392,0.273221,1.377059,-0.188737,0.000000,0.000000,0.000000,0.000000,0.000000,0.000000
13060325.000000,-2.293012,-1.662938,1.273493,-1.458586,1.702509,1.340420,-0.584132,0.293985,0.020537,1.146171,-0.239418,-0.183641,1.117909,-0.060482,1.046186,38.202251,-22.917068,-3.348818,0.243009,1.422836,-0.155778,0.000000,0.000000,0.000000,0.000000,0.000000,0.000000
13060326.000000,-2.292731,-1.662920,1.274650,-1.458827,1.702321,1.341521,-0.584188,0.289196,0.020319,1.142140,-0.238864,-0.181616,1.097419,-0.058912,1.244550,38.103069,-23.258255,-3.202028,0.273221,1.617843,-0.169511,0.000000,0.000000,0.000000,0.000000,0.000000,0.000000
13060327.000000,-2.292459,-1.662904,1.275781,-1.459051,1.702137,1.342635,-0.584252,0.284966,0.018930,1.143901,-0.235060,-0.183867,1.093117,-0.060360,1.565900,38.055462,-23.480423,-3.202028,0.279630,1.832076,-0.116410,0.000000,0.000000,0.000000,0.000000,0.000000,0.000000
13060328.000000,-2.292183,-1.662892,1.276932,-1.459278,1.701956,1.343738,-0.584303,0.282261,0.016995,1.141413,-0.234669,-0.175974,1.093560,-0.057143,1.764264,38.055462,-23.726395,-3.225832,0.297025,1.962081,-0.169511,0.000000,0.000000,0.000000,0.000000,0.000000,0.000000
13060329.000000,-2.291900,-1.662865,1.278087,-1.459506,1.701781,1.344857,-0.584358,0.280582,0.023171,1.139334,-0.234291,-0.178384,1.098768,-0.057374,1.835676,37.861065,-23.873184,-3.154421,0.297025,2.033492,-0.163102,0.000000,0.000000,0.000000,0.000000,0.000000,0.000000
13060330.000000,-2.291619,-1.662844,1.279220,-1.459740,1.701609,1.345968,-0.584409,0.277220,0.023242,1.138677,-0.232307,-0.179511,1.100659,-0.056273,1.962629,37.714275,-23.849380,-3.003664,0.255826,1.968490,-0.188737,0.000000,0.000000,0.000000,0.000000,0.000000,0.000000
13060331.000000,-2.291334,-1.662824,1.280352,-1.459983,1.701430,1.347086,-0.584468,0.280159,0.022803,1.130696,-0.235695,-0.174185,1.100537,-0.052991,1.863447,37.591290,-23.726395,-2.757692,0.303434,1.897079,-0.155778,0.000000,0.000000,0.000000,0.000000,0.000000,0.000000
13060332.000000,-2.291056,-1.662807,1.281472,-1.460227,1.701256,1.348201,-0.584518,0.280928,0.020888,1.125397,-0.237006,-0.175376,1.103232,-0.052399,1.835676,37.539715,-23.528030,-2.436342,0.362943,1.890670,-0.196061,0.000000,0.000000,0.000000,0.000000,0.000000,0.000000
13060333.000000,-2.290781,-1.662790,1.282603,-1.460470,1.701084,1.349296,-0.584572,0.284669,0.016774,1.121304,-0.236447,-0.178168,1.110232,-0.048928,1.835676,37.468304,-23.286026,-2.162599,0.351041,1.884261,-0.182328,0.000000,0.000000,0.000000,0.000000,0.000000,0.000000
13060334.000000,-2.290504,-1.662777,1.283735,-1.460703,1.700906,1.350413,-0.584627,0.282290,0.015344,1.111124,-0.236649,-0.175717,1.114163,-0.052552,1.863447,37.468304,-23.111465,-1.992006,0.339139,1.865035,-0.136552,0.000000,0.000000,0.000000,0.000000,0.000000,0.000000
13060335.000000,-2.290234,-1.662763,1.284860,-1.460932,1.700740,1.351506,-0.584672,0.280647,0.014857,1.114666,-0.234509,-0.172230,1.110006,-0.051298,1.962629,37.444500,-23.016251,-1.916628,0.285123,1.819259,-0.196061,0.000000,0.000000,0.000000,0.000000,0.000000,0.000000
13060336.000000,-2.289974,-1.662748,1.285998,-1.461152,1.700575,1.352636,-0.584726,0.273181,0.014513,1.117211,-0.226117,-0.170265,1.111372,-0.054170,2.109418,37.420696,-22.917068,-1.992006,0.255826,1.643478,-0.155778,0.000000,0.000000,0.000000,0.000000,0.000000,0.000000
13060337.000000,-2.289708,-1.662737,1.287124,-1.461365,1.700404,1.353752,-0.584771,0.268977,0.013136,1.122794,-0.220711,-0.167498,1.101311,-0.048816,2.184797,37.444500,-22.964676,-2.063417,0.303434,1.630660,-0.188737,0.000000,0.000000,0.000000,0.000000,0.000000,0.000000
13060338.000000,-2.289448,-1.662723,1.288261,-1.461578,1.700239,1.354849,-0.584822,0.267080,0.013464,1.117484,-0.218127,-0.164171,1.095544,-0.050216,2.232404,37.420696,-22.964676,-2.091188,0.320829,1.721298,-0.188737,0.000000,0.000000,0.000000,0.000000,0.000000,0.000000
13060339.000000,-2.289189,-1.662715,1.289409,-1.461802,1.700071,1.355953,-0.584872,0.264996,0.012041,1.116801,-0.218771,-0.163132,1.089202,-0.052118,2.307783,37.468304,-23.063858,-2.015810,0.386747,1.806442,-0.175919,0.000000,0.000000,0.000000,0.000000,0.000000,0.000000
13060340.000000,-2.288920,-1.662713,1.290535,-1.462018,1.699904,1.357062,-0.584920,0.261789,0.008751,1.121684,-0.217882,-0.161540,1.115105,-0.052838,2.283979,37.615093,-23.111465,-1.992006,0.434354,1.721298,-0.182328,0.000000,0.000000,0.000000,0.000000,0.000000,0.000000
13060341.000000,-2.288655,-1.662703,1.291667,-1.462225,1.699741,1.358192,-0.584972,0.261549,0.009948,1.115339,-0.216397,-0.162134,1.114056,-0.054961,2.184797,37.615093,-23.111465,-1.992006,0.410551,1.578475,-0.149369,0.000000,0.000000,0.000000,0.000000,0.000000,0.000000
13060342.000000,-2.288380,-1.662695,1.292800,-1.462434,1.699583,1.359309,-0.585015,0.265331,0.007101,1.132548,-0.219150,-0.158438,1.107496,-0.052838,2.034040,37.638897,-23.040054,-1.916628,0.386747,1.546432,-0.196061,0.000000,0.000000,0.000000,0.000000,0.000000,0.000000
13060343.000000,-2.288108,-1.662683,1.293905,-1.462638,1.699427,1.360399,-0.585067,0.265238,0.009083,1.127534,-0.217042,-0.155548,1.108346,-0.049543,1.863447,37.615093,-22.841690,-1.940431,0.356534,1.656295,-0.182328,0.000000,0.000000,0.000000,0.000000,0.000000,0.000000
13060344.000000,-2.287847,-1.662675,1.295007,-1.462841,1.699276,1.361506,-0.585111,0.263494,0.008824,1.109216,-0.212816,-0.153084,1.110520,-0.045810,1.764264,37.662701,-22.448929,-1.940431,0.320829,1.702071,-0.202470,0.000000,0.000000,0.000000,0.000000,0.000000,0.000000
13060345.000000,-2.287581,-1.662663,1.296106,-1.463030,1.699120,1.362622,-0.585164,0.264503,0.010475,1.103123,-0.204465,-0.154480,1.109997,-0.050496,1.665082,37.638897,-22.179153,-2.039613,0.362943,1.754256,-0.149369,0.000000,0.000000,0.000000,0.000000,0.000000,0.000000
13060346.000000,-2.287318,-1.662651,1.297234,-1.463223,1.698976,1.363719,-0.585204,0.263109,0.007904,1.107117,-0.199757,-0.146855,1.100959,-0.048953,1.565900,37.638897,-22.202957,-2.063417,0.315336,1.754256,-0.221696,0.000000,0.000000,0.000000,0.000000,0.000000,0.000000
13060347.000000,-2.287054,-1.662636,1.298375,-1.463419,1.698835,1.364842,-0.585251,0.261402,0.010680,1.110513,-0.198855,-0.145319,1.094926,-0.047207,1.490522,37.567486,-22.425125,-2.114992,0.243009,1.689254,-0.196061,0.000000,0.000000,0.000000,0.000000,0.000000,0.000000
13060348.000000,-2.286787,-1.662617,1.299507,-1.463609,1.698685,1.365942,-0.585300,0.261168,0.013788,1.121177,-0.196586,-0.147745,1.091114,-0.051221,1.367536,37.444500,-22.671097,-2.114992,0.261320,1.643478,-0.149369,0.000000,0.000000,0.000000,0.000000,0.000000,0.000000
13060349.000000,-2.286526,-1.662609,1.300657,-1.463794,1.698528,1.367064,-0.585341,0.261088,0.012630,1.122311,-0.190701,-0.154982,1.092975,-0.051639,1.244550,37.468304,-23.016251,-2.138796,0.308927,1.584884,-0.169511,0.000000,0.000000,0.000000,0.000000,0.000000,0.000000
13060350.000000,-2.286263,-1.662599,1.301799,-1.463972,1.698371,1.368172,-0.585386,0.260865,0.011909,1.128862,-0.187294,-0.151680,1.095043,-0.053137,1.093793,37.492107,-23.504227,-2.138796,0.374845,1.637069,-0.155778,0.000000,0.000000,0.000000,0.000000,0.000000,0.000000
13060351.000000,-2.286019,-1.662587,1.302944,-1.464146,1.698224,1.369247,-0.585423,0.258026,0.009424,1.130107,-0.181527,-0.151515,1.091806,-0.048393,1.121564,37.468304,-23.750198,-2.261781,0.381254,1.825668,-0.175919,0.000000,0.000000,0.000000,0.000000,0.000000,0.000000
13060352.000000,-2.285763,-1.662582,1.304089,-1.464305,1.698076,1.370351,-0.585469,0.257303,0.008470,1.126812,-0.170498,-0.151213,1.091525,-0.046968,1.069990,37.539715,-23.896988,-2.559328,0.381254,1.825668,-0.142960,0.000000,0.000000,0.000000,0.000000,0.000000,0.000000
13060353.000000,-2.285499,-1.662578,1.305202,-1.464471,1.697928,1.371435,-0.585501,0.257967,0.007811,1.123751,-0.167249,-0.151193,1.096686,-0.042018,0.947004,37.615093,-23.896988,-2.658510,0.381254,1.819259,-0.208878,0.000000,0.000000,0.000000,0.000000,0.000000,0.000000
13060354.000000,-2.285246,-1.662575,1.306322,-1.464632,1.697789,1.372525,-0.585546,0.255187,0.006830,1.112572,-0.164427,-0.149727,1.093436,-0.042073,0.847822,37.714275,-23.726395,-2.757692,0.351041,1.877853,-0.182328,0.000000,0.000000,0.000000,0.000000,0.000000,0.000000
13060355.000000,-2.284981,-1.662574,1.307431,-1.464795,1.697657,1.373616,-0.585588,0.257770,0.002665,1.129869,-0.169260,-0.142917,1.090890,-0.040789,0.649457,37.833294,-23.504227,-2.706117,0.285123,1.936446,-0.188737,0.000000,0.000000,0.000000,0.000000,0.000000,0.000000
13060356.000000,-2.284720,-1.662575,1.308556,-1.464961,1.697514,1.374698,-0.585630,0.260271,0.002065,1.128291,-0.168991,-0.144303,1.081022,-0.040493,0.451093,37.984051,-23.286026,-2.658510,0.261320,1.962081,-0.175919,0.000000,0.000000,0.000000,0.000000,0.000000,0.000000
13060357.000000,-2.284463,-1.662578,1.309679,-1.465129,1.697366,1.375809,-0.585672,0.258061,-0.001291,1.118840,-0.166833,-0.146163,1.078059,-0.039560,0.276533,38.130840,-23.063858,-2.559328,0.261320,1.800033,-0.175919,0.000000,0.000000,0.000000,0.000000,0.000000,0.000000
13060358.000000,-2.284212,-1.662571,1.310798,-1.465279,1.697220,1.376947,-0.585708,0.258426,0.002857,1.116194,-0.162247,-0.146949,1.113818,-0.038115,0.205121,38.130840,-23.040054,-2.583132,0.243009,1.513473,-0.202470,0.000000,0.000000,0.000000,0.000000,0.000000,0.000000
13060362.000000,-2.283244,-1.662568,1.315296,-1.465808,1.696641,1.381334,-0.585858,0.235941,0.004788,1.131542,-0.136430,-0.144433,1.092010,-0.034475,0.304304,38.301434,-22.917068,-3.301210,0.381254,1.773483,-0.202470,0.000000,0.000000,0.000000,0.000000,0.000000,0.000000
13060363.000000,-2.283004,-1.662564,1.316399,-1.465929,1.696506,1.382453,-0.585902,0.237151,0.008113,1.126072,-0.133573,-0.143921,1.097466,-0.037330,0.252729,38.249859,-22.964676,-3.475771,0.327238,1.806442,-0.149369,0.000000,0.000000,0.000000,0.000000,0.000000,0.000000
13060364.000000,-2.282768,-1.662558,1.317531,-1.466052,1.696378,1.383557,-0.585931,0.241338,0.007840,1.126847,-0.129588,-0.141994,1.107154,-0.035240,0.153547,38.178448,-23.087662,-3.598757,0.231107,1.760665,-0.202470,0.000000,0.000000,0.000000,0.000000,0.000000,0.000000
13060365.000000,-2.282524,-1.662553,1.318655,-1.466181,1.696249,1.384673,-0.585974,0.242958,0.007561,1.118424,-0.130106,-0.137384,1.109402,-0.032941,0.030561,38.103069,-23.063858,-3.570986,0.166105,1.721298,-0.155778,0.000000,0.000000,0.000000,0.000000,0.000000,0.000000
13060366.000000,-2.282267,-1.662550,1.319750,-1.466307,1.696103,1.385758,-0.586010,0.249074,0.006583,1.111509,-0.128655,-0.141804,1.103189,-0.034780,-0.167803,38.055462,-22.893265,-3.475771,0.178007,1.760665,-0.136552,0.000000,0.000000,0.000000,0.000000,0.000000,0.000000
13060367.000000,-2.282021,-1.662548,1.320855,-1.466435,1.695960,1.386864,-0.586041,0.246218,0.005266,1.105061,-0.126988,-0.135228,1.094557,-0.033197,-0.191607,38.031658,-22.671097,-3.376589,0.195402,1.806442,-0.196061,0.000000,0.000000,0.000000,0.000000,0.000000,0.000000
13060368.000000,-2.281770,-1.662545,1.321950,-1.466552,1.695816,1.387979,-0.586080,0.246329,0.004866,1.101441,-0.128636,-0.138350,1.091856,-0.035965,-0.266986,37.984051,-22.472733,-3.424196,0.297025,1.741439,-0.155778,0.000000,0.000000,0.000000,0.000000,0.000000,0.000000
13060369.000000,-2.281525,-1.662538,1.323073,-1.466673,1.695682,1.389085,-0.586115,0.247503,0.005744,1.103439,-0.126117,-0.136462,1.099798,-0.035441,-0.342364,37.884869,-22.500504,-3.499574,0.297025,1.676437,-0.175919,0.000000,0.000000,0.000000,0.000000,0.000000,0.000000
13060370.000000,-2.281277,-1.662534,1.324200,-1.466781,1.695556,1.390197,-0.586155,0.245044,0.004522,1.099247,-0.119600,-0.128569,1.096503,-0.041161,-0.489153,37.861065,-22.571915,-3.646364,0.249418,1.637069,-0.155778,0.000000,0.000000,0.000000,0.000000,0.000000,0.000000
13060371.000000,-2.281040,-1.662530,1.325331,-1.466889,1.695426,1.391294,-0.586186,0.243785,0.004323,1.108815,-0.115582,-0.129566,1.118086,-0.038783,-0.588336,37.809490,-22.893265,-3.769350,0.249418,1.617843,-0.196061,0.000000,0.000000,0.000000,0.000000,0.000000,0.000000
13060372.000000,-2.280808,-1.662531,1.326479,-1.466999,1.695301,1.392394,-0.586226,0.239162,0.002401,1.117507,-0.112968,-0.123613,1.104836,-0.039422,-0.612139,37.833294,-23.286026,-3.868532,0.207303,1.643478,-0.169511,0.000000,0.000000,0.000000,0.000000,0.000000,0.000000
13060373.000000,-2.280567,-1.662533,1.327625,-1.467102,1.695181,1.393483,-0.586258,0.238571,0.001008,1.137601,-0.107996,-0.124003,1.103741,-0.038102,-0.762896,37.861065,-23.678787,-3.967714,0.154203,1.851302,-0.196061,0.000000,0.000000,0.000000,0.000000,0.000000,0.000000
13060374.000000,-2.280327,-1.662531,1.328762,-1.467213,1.695052,1.394555,-0.586294,0.235923,0.001365,1.137911,-0.109927,-0.126425,1.100032,-0.038691,-0.933489,37.833294,-24.095352,-3.967714,0.159696,2.007858,-0.175919,0.000000,0.000000,0.000000,0.000000,0.000000,0.000000
13060375.000000,-2.280097,-1.662535,1.329905,-1.467321,1.694919,1.395651,-0.586331,0.236345,-0.000264,1.140795,-0.106213,-0.128479,1.092595,-0.039690,-1.032672,37.884869,-24.313553,-4.043092,0.171598,1.974899,-0.142960,0.000000,0.000000,0.000000,0.000000,0.000000,0.000000
13060376.000000,-2.279859,-1.662538,1.331027,-1.467429,1.694787,1.396759,-0.586359,0.236516,-0.001266,1.133178,-0.105247,-0.129648,1.113393,-0.036902,-1.207232,37.932476,-24.412735,-4.043092,0.178007,1.890670,-0.196061,0.000000,0.000000,0.000000,0.000000,0.000000,0.000000
13060377.000000,-2.279627,-1.662542,1.332157,-1.467531,1.694654,1.397847,-0.586400,0.234036,-0.002032,1.121125,-0.102248,-0.131310,1.099822,-0.034949,-1.381793,37.984051,-24.341324,-4.118471,0.213712,1.838485,-0.130143,0.000000,0.000000,0.000000,0.000000,0.000000,0.000000
13060378.000000,-2.279399,-1.662548,1.333278,-1.467639,1.694528,1.398936,-0.586424,0.231789,-0.003568,1.140687,-0.106972,-0.131620,1.087763,-0.032851,-1.528582,38.079266,-24.119156,-4.019289,0.237516,1.930038,-0.188737,0.000000,0.000000,0.000000,0.000000,0.000000,0.000000
13060379.000000,-2.279159,-1.662559,1.334383,-1.467746,1.694393,1.400012,-0.586460,0.232139,-0.005802,1.129459,-0.107140,-0.134312,1.086399,-0.035341,-1.778521,38.226055,-23.896988,-3.943910,0.308927,1.988631,-0.155778,0.000000,0.000000,0.000000,0.000000,0.000000,0.000000
13060380.000000,-2.278935,-1.662572,1.335488,-1.467843,1.694268,1.401107,-0.586485,0.227510,-0.008501,1.114630,-0.104166,-0.132940,1.082433,-0.034165,-1.826129,38.424419,-23.456619,-3.991518,0.297025,1.995040,-0.202470,0.000000,0.000000,0.000000,0.000000,0.000000,0.000000
13060381.000000,-2.278707,-1.662580,1.336597,-1.467942,1.694150,1.402211,-0.586521,0.224818,-0.007332,1.114397,-0.100726,-0.130713,1.081594,-0.036345,-1.925311,38.495831,-23.357437,-3.967714,0.243009,1.955673,-0.169511,0.000000,0.000000,0.000000,0.000000,0.000000,0.000000
13060382.000000,-2.278486,-1.662585,1.337716,-1.468042,1.694037,1.403311,-0.586548,0.223132,-0.006647,1.110665,-0.101136,-0.127062,1.089416,-0.035592,-2.048296,38.571209,-23.286026,-3.943910,0.129484,1.806442,-0.196061,0.000000,0.000000,0.000000,0.000000,0.000000,0.000000
13060383.000000,-2.278265,-1.662594,1.338850,-1.468138,1.693923,1.404417,-0.586584,0.221145,-0.007212,1.109083,-0.099102,-0.126631,1.097907,-0.038631,-2.099871,38.690228,-23.333633,-4.019289,0.069974,1.708480,-0.130143,0.000000,0.000000,0.000000,0.000000,0.000000,0.000000
13060384.000000,-2.278047,-1.662601,1.339962,-1.468234,1.693796,1.405497,-0.586608,0.220281,-0.007126,1.108918,-0.098907,-0.129331,1.091180,-0.036500,-2.171282,38.789410,-23.333633,-4.043092,0.093778,1.695663,-0.175919,0.000000,0.000000,0.000000,0.000000,0.000000,0.000000
13060385.000000,-2.277836,-1.662610,1.341088,-1.468322,1.693664,1.406585,-0.586641,0.219823,-0.007069,1.107820,-0.093232,-0.132830,1.083544,-0.033314,-2.246661,38.888592,-23.409012,-4.166078,0.166105,1.754256,-0.142960,0.000000,0.000000,0.000000,0.000000,0.000000,0.000000
13060386.000000,-2.277633,-1.662620,1.342205,-1.468406,1.693532,1.407680,-0.586662,0.216793,-0.006938,1.112337,-0.093641,-0.130191,1.078645,-0.028151,-2.222857,38.983807,-23.555801,-4.241457,0.231107,1.793624,-0.182328,0.000000,0.000000,0.000000,0.000000,0.000000,0.000000
13060387.000000,-2.277424,-1.662630,1.343329,-1.468485,1.693406,1.408774,-0.586690,0.215893,-0.006945,1.108529,-0.089151,-0.127307,1.082729,-0.030758,-2.222857,39.082989,-23.627213,-4.388246,0.273221,1.779891,-0.175919,0.000000,0.000000,0.000000,0.000000,0.000000,0.000000
13060388.000000,-2.277220,-1.662634,1.344448,-1.468569,1.693282,1.409881,-0.586718,0.211427,-0.005743,1.103450,-0.088044,-0.125023,1.086187,-0.033327,-2.199053,39.130596,-23.579605,-4.439821,0.308927,1.676437,-0.149369,0.000000,0.000000,0.000000,0.000000,0.000000,0.000000
13060389.000000,-2.277006,-1.662644,1.345546,-1.468644,1.693164,1.410978,-0.586742,0.211251,-0.005591,1.098994,-0.083717,-0.122068,1.102472,-0.032859,-2.322039,39.205975,-23.504227,-4.511232,0.315336,1.708480,-0.188737,0.000000,0.000000,0.000000,0.000000,0.000000,0.000000
13060390.000000,-2.276803,-1.662646,1.346653,-1.468727,1.693049,1.412055,-0.586769,0.203315,-0.006701,1.098108,-0.083582,-0.113498,1.093027,-0.030110,-2.397418,39.205975,-23.357437,-4.439821,0.285123,1.754256,-0.169511,0.000000,0.000000,0.000000,0.000000,0.000000,0.000000
13060391.000000,-2.276594,-1.662648,1.347757,-1.468808,1.692938,1.413148,-0.586789,0.201028,-0.004715,1.118047,-0.082379,-0.110702,1.096220,-0.025814,-2.492632,39.205975,-23.063858,-4.388246,0.207303,1.779891,-0.208878,0.000000,0.000000,0.000000,0.000000,0.000000,0.000000
13060392.000000,-2.276387,-1.662650,1.348857,-1.468890,1.692827,1.414233,-0.586824,0.199536,-0.002216,1.111318,-0.081745,-0.105393,1.100070,-0.026873,-2.591815,39.158367,-23.040054,-4.340639,0.159696,1.773483,-0.136552,0.000000,0.000000,0.000000,0.000000,0.000000,0.000000
13060393.000000,-2.276189,-1.662652,1.349974,-1.468968,1.692719,1.415340,-0.586842,0.197266,-0.000967,1.103811,-0.079997,-0.105053,1.099772,-0.022314,-2.643389,39.130596,-23.063858,-4.340639,0.088285,1.656295,-0.202470,0.000000,0.000000,0.000000,0.000000,0.000000,0.000000
13060394.000000,-2.276002,-1.662643,1.351094,-1.469040,1.692611,1.416458,-0.586872,0.196546,0.002685,1.114357,-0.075783,-0.106328,1.115222,-0.023272,-2.568011,38.983807,-23.357437,-4.340639,0.058073,1.513473,-0.155778,0.000000,0.000000,0.000000,0.000000,0.000000,0.000000
13060395.000000,-2.275808,-1.662635,1.352229,-1.469110,1.692490,1.417543,-0.586899,0.197516,0.004496,1.114323,-0.074990,-0.110632,1.104422,-0.023004,-2.568011,38.864788,-23.678787,-4.364442,0.117582,1.500655,-0.130143,0.000000,0.000000,0.000000,0.000000,0.000000,0.000000
13060396.000000,-2.275623,-1.662639,1.353377,-1.469176,1.692364,1.418637,-0.586923,0.188630,0.002382,1.139240,-0.074166,-0.119018,1.095774,-0.026574,-2.421221,38.888592,-24.095352,-4.388246,0.213712,1.605026,-0.130143,0.000000,0.000000,0.000000,0.000000,0.000000,0.000000
13060397.000000,-2.275439,-1.662638,1.354505,-1.469242,1.692240,1.419700,-0.586938,0.186134,0.002100,1.143039,-0.071216,-0.115732,1.084038,-0.026564,-2.298235,38.864788,-24.436539,-4.388246,0.297025,1.884261,-0.202470,0.000000,0.000000,0.000000,0.000000,0.000000,0.000000
13060398.000000,-2.275264,-1.662638,1.355636,-1.469299,1.692122,1.420781,-0.586962,0.180905,0.001367,1.131407,-0.066780,-0.116626,1.077899,-0.030529,-2.171282,38.864788,-24.658707,-4.487428,0.351041,2.112228,-0.175919,0.000000,0.000000,0.000000,0.000000,0.000000,0.000000
13060399.000000,-2.275084,-1.662645,1.356753,-1.469360,1.692018,1.421886,-0.586985,0.179199,-0.001341,1.124028,-0.065433,-0.113422,1.078478,-0.027623,-2.147479,38.960003,-24.829300,-4.511232,0.297025,2.104903,-0.175919,0.000000,0.000000,0.000000,0.000000,0.000000,0.000000
13060400.000000,-2.274903,-1.662645,1.357881,-1.469426,1.691916,1.422980,-0.587007,0.180564,-0.000912,1.121704,-0.064210,-0.114421,1.089643,-0.029329,-2.147479,38.960003,-24.976089,-4.412050,0.189908,2.039901,-0.196061,0.000000,0.000000,0.000000,0.000000,0.000000,0.000000
13060401.000000,-2.274725,-1.662644,1.358998,-1.469492,1.691815,1.424075,-0.587031,0.177021,-0.002674,1.114539,-0.067230,-0.110913,1.090615,-0.028039,-2.171282,38.912395,-24.857071,-4.265260,0.093778,2.027084,-0.163102,0.000000,0.000000,0.000000,0.000000,0.000000,0.000000
13060402.000000,-2.274543,-1.662648,1.360100,-1.469560,1.691705,1.425151,-0.587050,0.175166,-0.003171,1.113615,-0.067268,-0.107154,1.091391,-0.025444,-2.246661,38.960003,-24.658707,-4.066896,0.093778,2.014266,-0.169511,0.000000,0.000000,0.000000,0.000000,0.000000,0.000000
13060403.000000,-2.274374,-1.662650,1.361212,-1.469631,1.691594,1.426242,-0.587072,0.172699,-0.002876,1.105285,-0.067048,-0.109824,1.081325,-0.024749,-2.270464,38.983807,-24.388931,-3.868532,0.123990,2.033492,-0.142960,0.000000,0.000000,0.000000,0.000000,0.000000,0.000000
13060404.000000,-2.274203,-1.662652,1.362308,-1.469695,1.691480,1.427331,-0.587085,0.173381,-0.005231,1.101767,-0.064462,-0.113595,1.073659,-0.020967,-2.246661,38.983807,-24.190567,-3.769350,0.195402,2.039901,-0.202470,0.000000,0.000000,0.000000,0.000000,0.000000,0.000000
13060405.000000,-2.274040,-1.662652,1.363436,-1.469750,1.691369,1.428421,-0.587111,0.167421,-0.002753,1.106906,-0.058422,-0.117735,1.075203,-0.022906,-2.099871,38.936199,-24.218338,-3.844728,0.183500,1.974899,-0.136552,0.000000,0.000000,0.000000,0.000000,0.000000,0.000000
13060406.000000,-2.273888,-1.662654,1.364561,-1.469801,1.691254,1.429526,-0.587130,0.159378,-0.002676,1.106649,-0.053790,-0.116958,1.075432,-0.021698,-1.925311,38.960003,-24.218338,-3.943910,0.195402,1.858627,-0.136552,0.000000,0.000000,0.000000,0.000000,0.000000,0.000000
13060407.000000,-2.273737,-1.662655,1.365665,-1.469847,1.691135,1.430616,-0.587145,0.156363,-0.001440,1.105442,-0.050538,-0.117707,1.104333,-0.019255,-1.726946,38.936199,-24.190567,-4.043092,0.237516,1.767074,-0.182328,0.000000,0.000000,0.000000,0.000000,0.000000,0.000000
13060408.000000,-2.273590,-1.662658,1.366793,-1.469896,1.691022,1.431705,-0.587164,0.156199,-0.001677,1.105750,-0.045613,-0.115560,1.099883,-0.014765,-1.603961,38.960003,-24.289749,-4.118471,0.219205,1.793624,-0.175919,0.000000,0.000000,0.000000,0.000000,0.000000,0.000000
13060409.000000,-2.273441,-1.662657,1.367904,-1.469953,1.690914,1.432783,-0.587180,0.153237,-0.000124,1.127446,-0.045984,-0.113677,1.090200,-0.010875,-1.504779,38.912395,-24.388931,-4.019289,0.183500,1.981307,-0.182328,0.000000,0.000000,0.000000,0.000000,0.000000,0.000000
13060410.000000,-2.273292,-1.662663,1.369021,-1.470006,1.690804,1.433870,-0.587203,0.148246,-0.001286,1.121107,-0.049330,-0.114517,1.096164,-0.015374,-1.429400,38.960003,-24.488113,-3.920107,0.207303,1.968490,-0.110001,0.000000,0.000000,0.000000,0.000000,0.000000,0.000000
13060411.000000,-2.273147,-1.662666,1.370137,-1.470055,1.690692,1.434980,-0.587212,0.150263,-0.001482,1.114447,-0.050401,-0.113910,1.094177,-0.013111,-1.429400,38.983807,-24.464310,-3.868532,0.201810,1.819259,-0.188737,0.000000,0.000000,0.000000,0.000000,0.000000,0.000000
13060412.000000,-2.273003,-1.662666,1.371237,-1.470103,1.690583,1.436088,-0.587229,0.145646,-0.000482,1.111021,-0.048727,-0.109438,1.088069,-0.010422,-1.354022,38.960003,-24.412735,-3.797121,0.207303,1.721298,-0.175919,0.000000,0.000000,0.000000,0.000000,0.000000,0.000000
13060413.000000,-2.272858,-1.662666,1.372336,-1.470154,1.690478,1.437161,-0.587245,0.144933,0.000755,1.103971,-0.050990,-0.104096,1.077273,-0.012041,-1.381793,38.912395,-24.218338,-3.697939,0.166105,1.760665,-0.188737,0.000000,0.000000,0.000000,0.000000,0.000000,0.000000
13060414.000000,-2.272718,-1.662667,1.373437,-1.470197,1.690371,1.438251,-0.587267,0.142639,0.000475,1.100383,-0.050015,-0.106269,1.070795,-0.015696,-1.330218,38.912395,-24.019974,-3.697939,0.171598,1.865035,-0.130143,0.000000,0.000000,0.000000,0.000000,0.000000,0.000000
13060415.000000,-2.272583,-1.662673,1.374515,-1.470242,1.690255,1.439341,-0.587275,0.138671,-0.000819,1.091692,-0.047810,-0.111440,1.077380,-0.013867,-1.207232,38.960003,-23.702591,-3.646364,0.261320,1.825668,-0.196061,0.000000,0.000000,0.000000,0.000000,0.000000,0.000000
13060416.000000,-2.272444,-1.662672,1.375618,-1.470278,1.690147,1.440442,-0.587294,0.139029,-0.002610,1.094283,-0.043799,-0.106686,1.080609,-0.016671,-1.207232,38.912395,-23.603409,-3.697939,0.255826,1.819259,-0.155778,0.000000,0.000000,0.000000,0.000000,0.000000,0.000000
13060417.000000,-2.272316,-1.662672,1.376719,-1.470317,1.690044,1.441545,-0.587301,0.135798,-0.000902,1.094183,-0.042792,-0.101392,1.082597,-0.010249,-1.084246,38.864788,-23.726395,-3.670168,0.195402,1.838485,-0.215287,0.000000,0.000000,0.000000,0.000000,0.000000,0.000000
13060418.000000,-2.272185,-1.662663,1.377846,-1.470357,1.689936,1.442636,-0.587320,0.138042,0.002626,1.097362,-0.043122,-0.099106,1.085947,-0.013999,-1.032672,38.717999,-24.019974,-3.598757,0.171598,1.806442,-0.175919,0.000000,0.000000,0.000000,0.000000,0.000000,0.000000
13060419.000000,-2.272056,-1.662668,1.378980,-1.470396,1.689825,1.443748,-0.587337,0.130903,-0.000075,1.106674,-0.043261,-0.103130,1.093864,-0.016151,-0.985064,38.789410,-24.365128,-3.523378,0.178007,1.702071,-0.149369,0.000000,0.000000,0.000000,0.000000,0.000000,0.000000
13060420.000000,-2.271936,-1.662661,1.380097,-1.470433,1.689722,1.444826,-0.587349,0.127415,0.002154,1.108983,-0.043289,-0.100992,1.091437,-0.015788,-0.885882,38.690228,-24.781693,-3.448000,0.178007,1.741439,-0.175919,0.000000,0.000000,0.000000,0.000000,0.000000,0.000000
13060421.000000,-2.271815,-1.662668,1.381218,-1.470461,1.689613,1.445904,-0.587365,0.124790,-0.000971,1.103593,-0.037757,-0.101395,1.080533,-0.017081,-0.786700,38.789410,-25.027664,-3.475771,0.237516,1.903487,-0.163102,0.000000,0.000000,0.000000,0.000000,0.000000,0.000000
13060422.000000,-2.271693,-1.662665,1.382331,-1.470492,1.689515,1.446987,-0.587375,0.121013,0.000401,1.131709,-0.035236,-0.104424,1.068579,-0.017011,-0.735125,38.741802,-25.222061,-3.448000,0.243009,2.033492,-0.175919,0.000000,0.000000,0.000000,0.000000,0.000000,0.000000
13060423.000000,-2.271577,-1.662670,1.383445,-1.470516,1.689416,1.448069,-0.587391,0.118082,-0.001452,1.120011,-0.031380,-0.106273,1.065547,-0.018653,-0.663714,38.813213,-25.222061,-3.499574,0.237516,2.027084,-0.142960,0.000000,0.000000,0.000000,0.000000,0.000000,0.000000
13060424.000000,-2.271458,-1.662677,1.384563,-1.470550,1.689312,1.449172,-0.587396,0.117105,-0.003325,1.107506,-0.032606,-0.109268,1.069647,-0.011698,-0.663714,38.912395,-25.174454,-3.376589,0.267728,1.903487,-0.202470,0.000000,0.000000,0.000000,0.000000,0.000000,0.000000
13060425.000000,-2.271340,-1.662679,1.385648,-1.470579,1.689217,1.450261,-0.587417,0.119198,-0.002244,1.106835,-0.032304,-0.104839,1.092835,-0.016221,-0.663714,38.912395,-24.928482,-3.301210,0.249418,1.897079,-0.130143,0.000000,0.000000,0.000000,0.000000,0.000000,0.000000
13060426.000000,-2.271224,-1.662685,1.386755,-1.470612,1.689116,1.451332,-0.587424,0.118513,-0.003187,1.101923,-0.033626,-0.102181,1.091625,-0.010806,-0.687518,38.983807,-24.805496,-3.154421,0.255826,1.909896,-0.163102,0.000000,0.000000,0.000000,0.000000,0.000000,0.000000
13060427.000000,-2.271109,-1.662693,1.387854,-1.470647,1.689021,1.452418,-0.587434,0.117133,-0.003904,1.113832,-0.031893,-0.099829,1.090503,-0.007163,-0.687518,39.059185,-24.488113,-2.979860,0.243009,1.909896,-0.188737,0.000000,0.000000,0.000000,0.000000,0.000000,0.000000
13060428.000000,-2.271000,-1.662697,1.388942,-1.470676,1.688920,1.453497,-0.587449,0.114510,-0.003728,1.105226,-0.032455,-0.103719,1.092910,-0.011413,-0.612139,39.106792,-24.313553,-2.856874,0.255826,1.871444,-0.155778,0.000000,0.000000,0.000000,0.000000,0.000000,0.000000
13060429.000000,-2.270898,-1.662701,1.390042,-1.470690,1.688819,1.454605,-0.587462,0.111324,-0.002494,1.098755,-0.028301,-0.100389,1.091971,-0.014190,-0.489153,39.106792,-24.190567,-2.928285,0.231107,1.714889,-0.130143,0.000000,0.000000,0.000000,0.000000,0.000000,0.000000
13060430.000000,-2.270799,-1.662699,1.391141,-1.470702,1.688719,1.455720,-0.587467,0.105519,-0.000555,1.099743,-0.025480,-0.098391,1.092925,-0.012791,-0.342364,39.059185,-24.242142,-3.003664,0.219205,1.532699,-0.196061,0.000000,0.000000,0.000000,0.000000,0.000000,0.000000
13060431.000000,-2.270701,-1.662701,1.392251,-1.470713,1.688619,1.456800,-0.587480,0.102211,-0.002427,1.101103,-0.020541,-0.096843,1.086220,-0.015105,-0.243182,39.011578,-24.289749,-3.079042,0.207303,1.546432,-0.175919,0.000000,0.000000,0.000000,0.000000,0.000000,0.000000
13060432.000000,-2.270603,-1.662699,1.393361,-1.470722,1.688516,1.457896,-0.587490,0.100479,-0.003294,1.096624,-0.016786,-0.097581,1.085285,-0.016048,-0.167803,38.936199,-24.313553,-3.154421,0.255826,1.591293,-0.175919,0.000000,0.000000,0.000000,0.000000,0.000000,0.000000
13060433.000000,-2.270507,-1.662706,1.394459,-1.470733,1.688413,1.458973,-0.587501,0.100497,-0.003218,1.096177,-0.016502,-0.099277,1.085944,-0.017225,-0.144000,38.960003,-24.341324,-3.126650,0.320829,1.735030,-0.163102,0.000000,0.000000,0.000000,0.000000,0.000000,0.000000
13060434.000000,-2.270410,-1.662714,1.395562,-1.470739,1.688313,1.460060,-0.587515,0.098331,-0.003051,1.093412,-0.014409,-0.102267,1.082441,-0.019130,-0.167803,38.983807,-24.341324,-3.178224,0.320829,1.871444,-0.122819,0.000000,0.000000,0.000000,0.000000,0.000000,0.000000
13060435.000000,-2.270319,-1.662715,1.396645,-1.470744,1.688222,1.461166,-0.587513,0.094571,-0.001182,1.089441,-0.010410,-0.097085,1.083901,-0.011254,-0.116229,38.936199,-24.313553,-3.202028,0.237516,1.903487,-0.202470,0.000000,0.000000,0.000000,0.000000,0.000000,0.000000
13060436.000000,-2.270220,-1.662716,1.397736,-1.470748,1.688132,1.462263,-0.587529,0.097692,0.001336,1.086465,-0.006848,-0.094130,1.093974,-0.011270,-0.191607,38.837017,-24.166763,-3.249635,0.171598,1.825668,-0.130143,0.000000,0.000000,0.000000,0.000000,0.000000,0.000000
13060437.000000,-2.270116,-1.662720,1.398829,-1.470751,1.688037,1.463372,-0.587531,0.098807,0.000744,1.081370,-0.005888,-0.092810,1.093539,-0.010340,-0.342364,38.837017,-24.043777,-3.225832,0.129484,1.754256,-0.202470,0.000000,0.000000,0.000000,0.000000,0.000000,0.000000
13060438.000000,-2.270020,-1.662714,1.399896,-1.470756,1.687943,1.464457,-0.587544,0.097161,0.004376,1.075848,-0.005613,-0.093949,1.093790,-0.013821,-0.413775,38.666424,-23.774002,-3.178224,0.135892,1.735030,-0.169511,0.000000,0.000000,0.000000,0.000000,0.000000,0.000000
