chaoyuefei/paper-gmrm-data/robot_logs/s2_dq_gmrm_xz_min_0.50_log_20260314_174345.csv
# time_ms,q_0,q_1,q_2,q_3,q_4,q_5,q_6,dq_0,dq_1,dq_2,dq_3,dq_4,dq_5,dq_6,tau_J_0,tau_J_1,tau_J_2,tau_J_3,tau_J_4,tau_J_5,tau_J_6,O_dP_EE_c_0,O_dP_EE_c_1,O_dP_EE_c_2,O_dP_EE_c_3,O_dP_EE_c_4,O_dP_EE_c_5
12887935.000000,-2.415664,-1.662597,1.042895,-1.356096,1.795475,1.081420,-0.548614,-0.000718,-0.000135,-0.000081,0.001124,0.000128,-0.000052,-0.000215,0.054365,41.554607,-21.076248,-5.749025,0.793241,1.318465,0.041976,0.000000,0.000000,0.000000,0.000000,0.000000,0.000000
12887936.000000,-2.415663,-1.662597,1.042894,-1.356096,1.795474,1.081421,-0.548608,0.000078,-0.000090,-0.000611,0.000749,-0.000356,0.000178,0.001824,0.030561,41.554607,-21.052444,-5.749025,0.805143,1.312057,-0.011124,0.000000,0.000000,0.000000,0.000000,0.000000,0.000000
12887937.000000,-2.415666,-1.662599,1.042894,-1.356099,1.795476,1.081421,-0.548614,-0.000505,-0.000617,-0.000407,-0.000707,0.000441,0.000100,-0.000751,0.054365,41.578411,-21.052444,-5.697450,0.786832,1.312057,0.041976,0.000000,0.000000,0.000000,0.000000,0.000000,0.000000
12887938.000000,-2.415664,-1.662599,1.042895,-1.356099,1.795474,1.081420,-0.548610,-0.000336,0.000146,0.000285,-0.000471,-0.000181,-0.000185,0.000720,0.054365,41.554607,-21.076248,-5.697450,0.799650,1.318465,0.009017,0.000000,0.000000,0.000000,0.000000,0.000000,0.000000
12887939.000000,-2.415659,-1.662601,1.042895,-1.356100,1.795474,1.081419,-0.548613,0.007587,-0.001962,0.000190,0.001055,0.000998,-0.001592,0.000480,0.304304,41.507000,-21.076248,-5.626039,0.769437,1.357833,0.009017,0.000000,0.000000,0.000000,0.000000,0.000000,0.000000
12887940.000000,-2.415656,-1.662604,1.042895,-1.356098,1.795473,1.081414,-0.548626,0.015284,-0.005831,0.000409,0.000043,-0.005779,0.002103,-0.007534,1.391340,41.284832,-20.953262,-5.451478,0.685209,1.526290,-0.031266,0.000000,0.000000,0.000000,0.000000,0.000000,0.000000
12887941.000000,-2.415630,-1.662603,1.042908,-1.356094,1.795465,1.081411,-0.548654,0.021754,-0.003930,0.004262,0.001494,-0.007593,0.002419,-0.014309,2.978254,40.844463,-20.977066,-5.229311,0.637601,1.773483,-0.056901,0.000000,0.000000,0.000000,0.000000,0.000000,0.000000
12887942.000000,-2.415584,-1.662604,1.042926,-1.356099,1.795449,1.081430,-0.548697,0.029624,-0.002335,0.011484,-0.003689,-0.008321,0.007514,-0.025061,4.834943,40.356487,-20.929459,-4.856386,0.571683,1.903487,-0.056901,0.000000,0.000000,0.000000,0.000000,0.000000,0.000000
12887943.000000,-2.415519,-1.662602,1.042947,-1.356111,1.795420,1.081480,-0.548753,0.041982,0.000968,0.016184,-0.007008,-0.016816,0.024351,-0.032389,6.739240,39.769329,-20.854080,-4.487428,0.584501,1.812850,-0.077042,0.000000,0.000000,0.000000,0.000000,0.000000,0.000000
12887944.000000,-2.415433,-1.662608,1.042978,-1.356139,1.795377,1.081557,-0.548831,0.050546,-0.000646,0.020103,-0.013007,-0.025581,0.046295,-0.049245,8.349957,39.328960,-20.782669,-4.090700,0.667814,1.578475,-0.044083,0.000000,0.000000,0.000000,0.000000,0.000000,0.000000
12887945.000000,-2.415333,-1.662602,1.043015,-1.356177,1.795324,1.081654,-0.548922,0.062831,0.003973,0.029199,-0.023520,-0.033961,0.064839,-0.062870,9.833722,38.765606,-20.707291,-3.697939,0.691617,1.383468,-0.103593,0.000000,0.000000,0.000000,0.000000,0.000000,0.000000
12887946.000000,-2.415216,-1.662601,1.043060,-1.356221,1.795257,1.081761,-0.549045,0.079646,0.003828,0.032463,-0.030897,-0.044617,0.078979,-0.087258,11.019940,38.349041,-20.608109,-3.448000,0.715421,1.305648,-0.044083,0.000000,0.000000,0.000000,0.000000,0.000000,0.000000
12887947.000000,-2.415082,-1.662598,1.043112,-1.356288,1.795173,1.081887,-0.549185,0.095265,0.003228,0.037511,-0.042588,-0.060990,0.095327,-0.102907,12.063336,37.956280,-20.485123,-3.079042,0.698026,1.331283,-0.050492,0.000000,0.000000,0.000000,0.000000,0.000000,0.000000
12887948.000000,-2.414943,-1.662594,1.043183,-1.356356,1.795085,1.082035,-0.549343,0.107358,0.004209,0.046970,-0.050945,-0.069482,0.113748,-0.122239,13.074994,37.638897,-20.461319,-2.856874,0.571683,1.448470,-0.116410,0.000000,0.000000,0.000000,0.000000,0.000000,0.000000
12887949.000000,-2.414791,-1.662578,1.043262,-1.356438,1.794969,1.082210,-0.549535,0.118762,0.008079,0.059600,-0.059838,-0.081910,0.132890,-0.145203,13.943830,37.198528,-20.413712,-2.658510,0.476469,1.565658,-0.089860,0.000000,0.000000,0.000000,0.000000,0.000000,0.000000
12887950.000000,-2.414620,-1.662564,1.043367,-1.356532,1.794839,1.082414,-0.549754,0.134738,0.012212,0.073942,-0.071662,-0.095655,0.159136,-0.170422,14.610333,36.833538,-20.584305,-2.535524,0.374845,1.611434,-0.122819,0.000000,0.000000,0.000000,0.000000,0.000000,0.000000
12887951.000000,-2.414436,-1.662543,1.043479,-1.356647,1.794684,1.082651,-0.550012,0.151386,0.013438,0.086427,-0.084371,-0.112863,0.195061,-0.201532,15.205426,36.416973,-20.707291,-2.384767,0.315336,1.572067,-0.056901,0.000000,0.000000,0.000000,0.000000,0.000000,0.000000
12887952.000000,-2.414230,-1.662527,1.043604,-1.356779,1.794502,1.082914,-0.550279,0.167591,0.011967,0.098375,-0.097556,-0.138217,0.215441,-0.221510,15.625958,36.095623,-20.806473,-2.214174,0.339139,1.487838,-0.097184,0.000000,0.000000,0.000000,0.000000,0.000000,0.000000
12887953.000000,-2.414006,-1.662505,1.043752,-1.356931,1.794286,1.083211,-0.550565,0.184670,0.013293,0.113076,-0.117685,-0.163692,0.243943,-0.238906,15.947309,35.683025,-21.024673,-2.015810,0.428861,1.416427,-0.097184,0.000000,0.000000,0.000000,0.000000,0.000000,0.000000
12887954.000000,-2.413770,-1.662485,1.043904,-1.357096,1.794049,1.083524,-0.550861,0.201043,0.015779,0.127339,-0.132014,-0.188048,0.263631,-0.250803,16.221052,35.337872,-21.123856,-1.964235,0.530485,1.396285,-0.044083,0.000000,0.000000,0.000000,0.000000,0.000000,0.000000
12887955.000000,-2.413516,-1.662466,1.044068,-1.357268,1.793797,1.083860,-0.551154,0.217220,0.016519,0.133955,-0.143648,-0.208327,0.285302,-0.260606,16.419416,35.044292,-21.199234,-2.039613,0.571683,1.429244,-0.116410,0.000000,0.000000,0.000000,0.000000,0.000000,0.000000
12887956.000000,-2.413246,-1.662446,1.044236,-1.357457,1.793530,1.084215,-0.551462,0.240920,0.021631,0.140276,-0.157160,-0.226394,0.307826,-0.275253,16.518599,34.826092,-21.175430,-2.063417,0.559781,1.442062,-0.064225,0.000000,0.000000,0.000000,0.000000,0.000000,0.000000
12887957.000000,-2.412960,-1.662434,1.044426,-1.357662,1.793257,1.084586,-0.551751,0.255735,0.016767,0.153574,-0.170222,-0.248460,0.325384,-0.281213,16.641584,34.726910,-21.246841,-2.091188,0.518583,1.559249,-0.122819,0.000000,0.000000,0.000000,0.000000,0.000000,0.000000
12887958.000000,-2.412654,-1.662426,1.044617,-1.357893,1.792961,1.084980,-0.552059,0.270677,0.011754,0.162750,-0.192784,-0.261422,0.342003,-0.288121,16.716963,34.703106,-21.147659,-1.992006,0.393156,1.695663,-0.070634,0.000000,0.000000,0.000000,0.000000,0.000000,0.000000
12887959.000000,-2.412328,-1.662420,1.044816,-1.358141,1.792656,1.085398,-0.552359,0.286569,0.008407,0.174485,-0.206347,-0.278395,0.364868,-0.291519,16.590010,34.679302,-21.100052,-1.892824,0.308927,1.721298,-0.070634,0.000000,0.000000,0.000000,0.000000,0.000000,0.000000
12887960.000000,-2.411991,-1.662415,1.045029,-1.358414,1.792326,1.085852,-0.552654,0.302189,0.008780,0.185213,-0.229493,-0.288836,0.388504,-0.288349,16.566206,34.679302,-21.024673,-1.642885,0.291532,1.682845,-0.116410,0.000000,0.000000,0.000000,0.000000,0.000000,0.000000
12887961.000000,-2.411635,-1.662412,1.045255,-1.358702,1.791972,1.086333,-0.552955,0.322761,0.005568,0.196778,-0.248387,-0.312836,0.412918,-0.290557,16.518599,34.703106,-20.929459,-1.448488,0.327238,1.584884,-0.070634,0.000000,0.000000,0.000000,0.000000,0.000000,0.000000
12887962.000000,-2.411267,-1.662405,1.045491,-1.358997,1.791602,1.086833,-0.553236,0.337045,0.005122,0.206221,-0.262071,-0.335249,0.440590,-0.286087,16.467024,34.651531,-20.877884,-1.373109,0.362943,1.481429,-0.122819,0.000000,0.000000,0.000000,0.000000,0.000000,0.000000
12887963.000000,-2.410895,-1.662407,1.045738,-1.359298,1.791217,1.087359,-0.553518,0.344879,0.004970,0.218702,-0.275153,-0.347953,0.467203,-0.279425,16.641584,34.726910,-20.806473,-1.349306,0.428861,1.435653,-0.142960,0.000000,0.000000,0.000000,0.000000,0.000000,0.000000
12887964.000000,-2.410512,-1.662406,1.045990,-1.359612,1.790817,1.087891,-0.553798,0.355100,0.003692,0.231752,-0.285489,-0.374796,0.491433,-0.281696,16.764570,34.726910,-20.731094,-1.448488,0.512174,1.435653,-0.116410,0.000000,0.000000,0.000000,0.000000,0.000000,0.000000
12887965.000000,-2.410114,-1.662407,1.046248,-1.359949,1.790399,1.088451,-0.554074,0.367289,0.002188,0.236646,-0.299023,-0.389287,0.511854,-0.276093,16.911360,34.750713,-20.584305,-1.448488,0.512174,1.500655,-0.097184,0.000000,0.000000,0.000000,0.000000,0.000000,0.000000
12887966.000000,-2.409705,-1.662405,1.046524,-1.360294,1.789967,1.089020,-0.554344,0.375317,0.001672,0.245943,-0.314735,-0.399750,0.521390,-0.277492,17.109724,34.750713,-20.536697,-1.472292,0.500272,1.591293,-0.110001,0.000000,0.000000,0.000000,0.000000,0.000000,0.000000
12887967.000000,-2.409286,-1.662401,1.046803,-1.360665,1.789532,1.089609,-0.554609,0.385612,0.004933,0.259087,-0.330195,-0.416939,0.542041,-0.268389,17.284285,34.726910,-20.485123,-1.321535,0.470060,1.591293,-0.142960,0.000000,0.000000,0.000000,0.000000,0.000000,0.000000
12887968.000000,-2.408850,-1.662398,1.047097,-1.361039,1.789072,1.090226,-0.554887,0.395312,0.004224,0.267989,-0.354101,-0.423680,0.560031,-0.269484,17.482649,34.703106,-20.413712,-1.226320,0.416959,1.487838,-0.083451,0.000000,0.000000,0.000000,0.000000,0.000000,0.000000
12887969.000000,-2.408411,-1.662399,1.047401,-1.361436,1.788599,1.090862,-0.555153,0.413872,0.002543,0.277429,-0.367039,-0.435304,0.594693,-0.261332,17.704817,34.726910,-20.437515,-1.051759,0.398649,1.377059,-0.116410,0.000000,0.000000,0.000000,0.000000,0.000000,0.000000
12887970.000000,-2.407946,-1.662392,1.047713,-1.361854,1.788109,1.091515,-0.555413,0.430377,0.003671,0.289424,-0.384066,-0.458297,0.614005,-0.264971,17.954756,34.651531,-20.413712,-0.805788,0.393156,1.279098,-0.110001,0.000000,0.000000,0.000000,0.000000,0.000000,0.000000
12887971.000000,-2.407461,-1.662386,1.048029,-1.362283,1.787595,1.092189,-0.555678,0.452479,0.004277,0.294701,-0.399381,-0.472653,0.634607,-0.265501,18.125349,34.580120,-20.362137,-0.583620,0.440763,1.253463,-0.083451,0.000000,0.000000,0.000000,0.000000,0.000000,0.000000
12887972.000000,-2.406977,-1.662379,1.048353,-1.362724,1.787080,1.092866,-0.555928,0.461904,0.004735,0.305482,-0.415131,-0.488428,0.653281,-0.257352,18.422895,34.504742,-20.338333,-0.409059,0.476469,1.285506,-0.116410,0.000000,0.000000,0.000000,0.000000,0.000000,0.000000
12887973.000000,-2.406477,-1.662371,1.048695,-1.363175,1.786539,1.093575,-0.556186,0.467702,0.004917,0.315862,-0.425066,-0.503828,0.671315,-0.259038,18.696638,34.433331,-20.314529,-0.333681,0.494779,1.324874,-0.110001,0.000000,0.000000,0.000000,0.000000,0.000000,0.000000
12887974.000000,-2.405964,-1.662360,1.049045,-1.363636,1.785984,1.094301,-0.556438,0.491154,0.005665,0.332960,-0.438577,-0.520874,0.689554,-0.261429,18.994184,34.334148,-20.338333,-0.286073,0.542386,1.383468,-0.136552,0.000000,0.000000,0.000000,0.000000,0.000000,0.000000
12887975.000000,-2.405452,-1.662357,1.049407,-1.364110,1.785423,1.095036,-0.556682,0.499449,0.006996,0.340449,-0.447867,-0.535660,0.704316,-0.256872,19.386946,34.334148,-20.314529,-0.262270,0.518583,1.422836,-0.149369,0.000000,0.000000,0.000000,0.000000,0.000000,0.000000
12887976.000000,-2.404918,-1.662345,1.049788,-1.364604,1.784847,1.095807,-0.556941,0.503454,0.007193,0.351607,-0.464440,-0.542598,0.723139,-0.262173,19.712263,34.238934,-20.413712,-0.135317,0.530485,1.454879,-0.077042,0.000000,0.000000,0.000000,0.000000,0.000000,0.000000
12887977.000000,-2.404367,-1.662336,1.050176,-1.365114,1.784256,1.096588,-0.557176,0.520740,0.006229,0.365838,-0.479186,-0.552389,0.747166,-0.255100,19.910627,34.187359,-20.485123,-0.036134,0.500272,1.402694,-0.149369,0.000000,0.000000,0.000000,0.000000,0.000000,0.000000
12887978.000000,-2.403801,-1.662328,1.050585,-1.365645,1.783656,1.097394,-0.557430,0.531117,0.004879,0.376797,-0.494486,-0.559801,0.764592,-0.255967,20.180403,34.163555,-20.608109,0.110655,0.470060,1.364242,-0.122819,0.000000,0.000000,0.000000,0.000000,0.000000,0.000000
12887979.000000,-2.403217,-1.662318,1.051015,-1.366175,1.783026,1.098243,-0.557680,0.547502,0.004494,0.394926,-0.507803,-0.574719,0.789874,-0.254882,20.402571,34.115948,-20.854080,0.209837,0.446256,1.247054,-0.083451,0.000000,0.000000,0.000000,0.000000,0.000000,0.000000
12887980.000000,-2.402640,-1.662304,1.051439,-1.366718,1.782402,1.099095,-0.557916,0.558282,0.008019,0.403243,-0.517800,-0.590695,0.811879,-0.251424,20.823103,34.040569,-21.024673,0.209837,0.398649,1.155502,-0.116410,0.000000,0.000000,0.000000,0.000000,0.000000,0.000000
12887981.000000,-2.402035,-1.662285,1.051883,-1.367272,1.781746,1.099962,-0.558158,0.568969,0.015561,0.416649,-0.527261,-0.602036,0.826387,-0.245059,21.096846,33.893780,-21.147659,0.233641,0.386747,1.194869,-0.116410,0.000000,0.000000,0.000000,0.000000,0.000000,0.000000
12887982.000000,-2.401424,-1.662277,1.052333,-1.367833,1.781089,1.100839,-0.558389,0.577576,0.014201,0.425664,-0.536910,-0.622295,0.855920,-0.242969,21.394392,33.893780,-21.322220,0.110655,0.386747,1.266280,-0.142960,0.000000,0.000000,0.000000,0.000000,0.000000,0.000000
12887983.000000,-2.400788,-1.662260,1.052796,-1.368414,1.780398,1.101748,-0.558633,0.594860,0.013189,0.433257,-0.551270,-0.643005,0.867186,-0.239958,21.616560,33.770794,-21.417435,0.011473,0.428861,1.292831,-0.116410,0.000000,0.000000,0.000000,0.000000,0.000000,0.000000
12887984.000000,-2.400138,-1.662248,1.053267,-1.368996,1.779696,1.102685,-0.558873,0.608188,0.014342,0.445340,-0.557772,-0.662740,0.889822,-0.235976,21.890303,33.699383,-21.492813,-0.012331,0.470060,1.318465,-0.089860,0.000000,0.000000,0.000000,0.000000,0.000000,0.000000
12887985.000000,-2.399464,-1.662233,1.053752,-1.369605,1.778992,1.103619,-0.559098,0.626924,0.017584,0.459972,-0.571190,-0.676484,0.898838,-0.230480,21.937910,33.647808,-21.663406,0.086851,0.589994,1.312057,-0.130143,0.000000,0.000000,0.000000,0.000000,0.000000,0.000000
12887986.000000,-2.398770,-1.662225,1.054253,-1.370222,1.778276,1.104599,-0.559336,0.646510,0.012788,0.470870,-0.598951,-0.686390,0.914852,-0.229679,22.088667,33.647808,-21.885574,0.285216,0.739225,1.247054,-0.116410,0.000000,0.000000,0.000000,0.000000,0.000000,0.000000
12887987.000000,-2.398065,-1.662211,1.054743,-1.370849,1.777567,1.105603,-0.559574,0.680355,0.014154,0.480505,-0.611629,-0.684935,0.937110,-0.234474,22.160078,33.576397,-21.984756,0.507384,0.882963,1.220504,-0.089860,0.000000,0.000000,0.000000,0.000000,0.000000,0.000000
12887988.000000,-2.397352,-1.662207,1.055259,-1.371485,1.776876,1.106607,-0.559799,0.685296,0.011793,0.492661,-0.614255,-0.680270,0.961750,-0.233686,22.410017,33.647808,-22.155350,0.606566,0.936979,1.207687,-0.155778,0.000000,0.000000,0.000000,0.000000,0.000000,0.000000
12887989.000000,-2.396621,-1.662202,1.055784,-1.372125,1.776183,1.107640,-0.560036,0.682452,0.009597,0.505725,-0.625377,-0.679617,0.984587,-0.233868,22.187849,33.746990,-22.107742,0.531187,0.972684,1.299239,-0.122819,0.000000,0.000000,0.000000,0.000000,0.000000,0.000000
12887990.000000,-2.395890,-1.662199,1.056319,-1.372791,1.775496,1.108667,-0.560257,0.686121,0.005202,0.516051,-0.640500,-0.682373,1.000582,-0.224241,20.922285,33.969158,-21.933182,0.086851,0.925077,1.481429,-0.155778,0.000000,0.000000,0.000000,0.000000,0.000000,0.000000
12887991.000000,-2.395163,-1.662194,1.056879,-1.373476,1.774801,1.109734,-0.560481,0.695968,0.004164,0.529241,-0.650117,-0.689391,1.012566,-0.224407,18.819624,34.115948,-21.492813,-0.778017,0.871061,1.643478,-0.169511,0.000000,0.000000,0.000000,0.000000,0.000000,0.000000
12887992.000000,-2.394429,-1.662190,1.057457,-1.374164,1.774108,1.110831,-0.560706,0.714876,0.004412,0.560821,-0.663036,-0.683010,1.026763,-0.222637,16.022688,34.088177,-20.854080,-1.718263,0.745634,1.689254,-0.142960,0.000000,0.000000,0.000000,0.000000,0.000000,0.000000
12887993.000000,-2.393702,-1.662186,1.058064,-1.374888,1.773427,1.111931,-0.560922,0.726910,0.005178,0.573442,-0.675617,-0.682957,1.048723,-0.216225,13.102765,33.893780,-20.068558,-2.384767,0.613798,1.689254,-0.163102,0.000000,0.000000,0.000000,0.000000,0.000000,0.000000
12887994.000000,-2.392976,-1.662187,1.058702,-1.375614,1.772760,1.113057,-0.561148,0.731421,0.006346,0.586974,-0.692601,-0.668067,1.065992,-0.216615,10.377240,33.647808,-19.283035,-2.805300,0.386747,1.727706,-0.103593,0.000000,0.000000,0.000000,0.000000,0.000000,0.000000
12887995.000000,-2.392264,-1.662194,1.059353,-1.376340,1.772105,1.114197,-0.561362,0.727783,0.002271,0.604836,-0.705965,-0.660385,1.090102,-0.214234,7.953229,33.453411,-18.644302,-3.178224,0.183500,1.643478,-0.103593,0.000000,0.000000,0.000000,0.000000,0.000000,0.000000
12887996.000000,-2.391535,-1.662207,1.060010,-1.377061,1.771450,1.115379,-0.561571,0.726743,-0.003064,0.615161,-0.706881,-0.652361,1.114852,-0.217242,5.723615,33.354229,-17.811172,-3.523378,0.046171,1.500655,-0.155778,0.000000,0.000000,0.000000,0.000000,0.000000,0.000000
12887997.000000,-2.390815,-1.662224,1.060680,-1.377766,1.770791,1.116576,-0.561799,0.723905,-0.005575,0.621840,-0.705944,-0.646064,1.140270,-0.224047,3.890729,33.330425,-17.101028,-3.797121,0.027860,1.416427,-0.070634,0.000000,0.000000,0.000000,0.000000,0.000000,0.000000
12887998.000000,-2.390099,-1.662251,1.061343,-1.378474,1.770150,1.117773,-0.562012,0.721674,-0.013224,0.630578,-0.702850,-0.640748,1.152030,-0.223273,2.232404,33.429607,-16.438492,-3.967714,0.129484,1.402694,-0.103593,0.000000,0.000000,0.000000,0.000000,0.000000,0.000000
12887999.000000,-2.389386,-1.662277,1.062022,-1.379173,1.769503,1.118989,-0.562229,0.710729,-0.017376,0.638723,-0.698903,-0.640487,1.162529,-0.222934,0.970807,33.477215,-15.894974,-3.991518,0.267728,1.519881,-0.130143,0.000000,0.000000,0.000000,0.000000,0.000000,0.000000
12888000.000000,-2.388669,-1.662315,1.062694,-1.379872,1.768866,1.120209,-0.562444,0.701806,-0.022106,0.652220,-0.699684,-0.640189,1.199138,-0.220856,-0.266986,33.600201,-15.355423,-3.943910,0.506681,1.532699,-0.169511,0.000000,0.000000,0.000000,0.000000,0.000000,0.000000
12888001.000000,-2.387952,-1.662352,1.063385,-1.380579,1.768225,1.121473,-0.562663,0.701579,-0.026969,0.661944,-0.698520,-0.634711,1.219503,-0.219223,-1.207232,33.647808,-14.938858,-3.697939,0.620206,1.266280,-0.130143,0.000000,0.000000,0.000000,0.000000,0.000000,0.000000
12888002.000000,-2.387223,-1.662390,1.064081,-1.381282,1.767598,1.122742,-0.562873,0.710523,-0.032399,0.666481,-0.706273,-0.631306,1.227938,-0.219536,-2.171282,33.647808,-14.569901,-3.301210,0.644010,1.031905,-0.169511,0.000000,0.000000,0.000000,0.000000,0.000000,0.000000
12888003.000000,-2.386504,-1.662428,1.064769,-1.381983,1.766983,1.123959,-0.563088,0.710315,-0.034727,0.669663,-0.702379,-0.623322,1.229655,-0.216182,-2.940936,33.576397,-14.177139,-2.956056,0.620206,1.058456,-0.175919,0.000000,0.000000,0.000000,0.000000,0.000000,0.000000
12888004.000000,-2.385786,-1.662467,1.065466,-1.382670,1.766383,1.125187,-0.563306,0.702155,-0.036293,0.674033,-0.697654,-0.614342,1.223648,-0.215955,-3.559832,33.477215,-13.812149,-2.606935,0.512174,1.110641,-0.122819,0.000000,0.000000,0.000000,0.000000,0.000000,0.000000
12888005.000000,-2.385080,-1.662501,1.066151,-1.383360,1.765776,1.126405,-0.563518,0.713925,-0.035796,0.678588,-0.690467,-0.607810,1.215081,-0.217643,-4.004168,33.306622,-13.320206,-2.384767,0.405057,1.240646,-0.149369,0.000000,0.000000,0.000000,0.000000,0.000000,0.000000
12888006.000000,-2.384378,-1.662520,1.066849,-1.384029,1.765194,1.127601,-0.563732,0.706439,-0.028073,0.679392,-0.678152,-0.602302,1.211835,-0.216947,-4.250140,32.937664,-12.852066,-2.436342,0.273221,1.396285,-0.103593,0.000000,0.000000,0.000000,0.000000,0.000000,0.000000
12888009.000000,-2.382290,-1.662517,1.068976,-1.385957,1.763438,1.131237,-0.564348,0.693404,-0.003995,0.698167,-0.654841,-0.574094,1.217059,-0.206809,-4.746050,31.152386,-11.796768,-3.079042,0.207303,1.279098,-0.122819,0.000000,0.000000,0.000000,0.000000,0.000000,0.000000
12888010.000000,-2.381585,-1.662500,1.069702,-1.386602,1.762851,1.132471,-0.564549,0.704594,0.003457,0.715651,-0.652346,-0.577377,1.212332,-0.206723,-5.019793,30.493816,-11.503189,-3.079042,0.332731,1.064864,-0.182328,0.000000,0.000000,0.000000,0.000000,0.000000,0.000000
12888011.000000,-2.380897,-1.662481,1.070419,-1.387247,1.762272,1.133672,-0.564759,0.692865,0.007626,0.715767,-0.644055,-0.578034,1.208096,-0.208303,-5.166583,29.878887,-11.281021,-3.027467,0.428861,0.993453,-0.149369,0.000000,0.000000,0.000000,0.000000,0.000000,0.000000
12888012.000000,-2.380213,-1.662459,1.071154,-1.387876,1.761705,1.134891,-0.564967,0.685978,0.009820,0.716830,-0.643245,-0.570599,1.201806,-0.208373,-5.166583,29.291729,-10.987442,-3.055238,0.344633,0.908309,-0.130143,0.000000,0.000000,0.000000,0.000000,0.000000,0.000000
12888013.000000,-2.379536,-1.662436,1.071882,-1.388492,1.761147,1.136095,-0.565171,0.683898,0.012952,0.716322,-0.627286,-0.566392,1.206161,-0.204613,-5.067400,28.779949,-10.765274,-3.202028,0.219205,0.804855,-0.097184,0.000000,0.000000,0.000000,0.000000,0.000000,0.000000
12888014.000000,-2.378867,-1.662410,1.072616,-1.389106,1.760588,1.137313,-0.565367,0.677281,0.015676,0.717444,-0.620693,-0.562119,1.207593,-0.200592,-4.674639,28.387188,-10.400284,-3.400392,0.081876,0.752670,-0.136552,0.000000,0.000000,0.000000,0.000000,0.000000,0.000000
12888015.000000,-2.378182,-1.662389,1.073364,-1.389713,1.760033,1.138520,-0.565566,0.688197,0.016822,0.723718,-0.619835,-0.563200,1.205535,-0.201713,-4.448504,28.046001,-10.178116,-3.570986,-0.067355,0.889083,-0.155778,0.000000,0.000000,0.000000,0.000000,0.000000,0.000000
12888016.000000,-2.377505,-1.662362,1.074107,-1.390334,1.759481,1.139710,-0.565763,0.680937,0.018638,0.730014,-0.622011,-0.560483,1.204039,-0.199037,-4.349322,27.677044,-9.932144,-3.547182,-0.067355,1.064864,-0.142960,0.000000,0.000000,0.000000,0.000000,0.000000,0.000000
12888017.000000,-2.376802,-1.662346,1.074858,-1.390947,1.758920,1.140941,-0.565959,0.682209,0.016068,0.731135,-0.630597,-0.564128,1.209655,-0.196574,-4.599261,27.482647,-9.590958,-3.523378,-0.001437,0.980636,-0.169511,0.000000,0.000000,0.000000,0.000000,0.000000,0.000000
12888018.000000,-2.376105,-1.662326,1.075617,-1.391570,1.758357,1.142196,-0.566156,0.688343,0.018952,0.741557,-0.624100,-0.560758,1.243839,-0.199380,-4.896807,27.236675,-9.317215,-3.400392,0.117582,0.713302,-0.142960,0.000000,0.000000,0.000000,0.000000,0.000000,0.000000
12888019.000000,-2.375399,-1.662312,1.076406,-1.392186,1.757796,1.143429,-0.566349,0.690244,0.018876,0.754265,-0.616231,-0.562091,1.247959,-0.195786,-5.317339,27.089886,-9.245804,-3.376589,0.243009,0.453292,-0.142960,0.000000,0.000000,0.000000,0.000000,0.000000,0.000000
12888021.000000,-2.374018,-1.662299,1.078008,-1.393364,1.756685,1.145878,-0.566736,0.690225,0.012293,0.777982,-0.600136,-0.551746,1.237792,-0.194548,-5.686297,26.990704,-9.122818,-3.797121,0.243009,0.473434,-0.122819,0.000000,0.000000,0.000000,0.000000,0.000000,0.000000
12888022.000000,-2.373322,-1.662301,1.078819,-1.393937,1.756134,1.147094,-0.566925,0.685416,0.006675,0.782486,-0.587412,-0.547288,1.222713,-0.190987,-5.884661,27.066082,-8.952225,-4.265260,0.159696,0.720626,-0.169511,0.000000,0.000000,0.000000,0.000000,0.000000,0.000000
12888023.000000,-2.372627,-1.662301,1.079642,-1.394506,1.755591,1.148304,-0.567119,0.696775,0.003519,0.792961,-0.581730,-0.539934,1.218351,-0.190176,-6.083025,27.113689,-8.999832,-4.610414,0.088285,1.019088,-0.182328,0.000000,0.000000,0.000000,0.000000,0.000000,0.000000
12888024.000000,-2.371938,-1.662298,1.080487,-1.395085,1.755064,1.149504,-0.567317,0.693677,0.002483,0.807816,-0.580662,-0.538316,1.209201,-0.196059,-6.380572,27.113689,-9.099014,-4.808778,-0.019747,1.194869,-0.142960,0.000000,0.000000,0.000000,0.000000,0.000000,0.000000
12888025.000000,-2.371238,-1.662295,1.081343,-1.395654,1.754535,1.150738,-0.567503,0.690487,0.001758,0.817549,-0.576281,-0.531795,1.211562,-0.193541,-6.626544,27.113689,-9.170425,-4.907960,-0.121371,1.077682,-0.169511,0.000000,0.000000,0.000000,0.000000,0.000000,0.000000
12888026.000000,-2.370534,-1.662288,1.082200,-1.396229,1.754013,1.151968,-0.567697,0.698862,0.002362,0.828560,-0.570264,-0.535338,1.218577,-0.197601,-7.051043,27.066082,-9.269608,-4.955568,-0.150668,0.863448,-0.110001,0.000000,0.000000,0.000000,0.000000,0.000000,0.000000
12888027.000000,-2.369815,-1.662283,1.083065,-1.396810,1.753467,1.153198,-0.567879,0.702287,0.001633,0.832913,-0.574106,-0.537705,1.223841,-0.193628,-7.495379,27.066082,-9.269608,-4.784975,-0.067355,0.746261,-0.155778,0.000000,0.000000,0.000000,0.000000,0.000000,0.000000
12888028.000000,-2.369095,-1.662270,1.083941,-1.397368,1.752934,1.154415,-0.568068,0.715608,0.004009,0.860406,-0.570251,-0.533950,1.216454,-0.192210,-7.991290,26.943096,-9.122818,-4.733400,0.015958,0.804855,-0.163102,0.000000,0.000000,0.000000,0.000000,0.000000,0.000000
12888029.000000,-2.368383,-1.662265,1.084805,-1.397939,1.752406,1.155606,-0.568252,0.716070,0.003262,0.863220,-0.569877,-0.535320,1.211399,-0.190972,-8.511004,26.919292,-8.900650,-4.661989,0.093778,0.889083,-0.175919,0.000000,0.000000,0.000000,0.000000,0.000000,0.000000
12888030.000000,-2.367666,-1.662253,1.085698,-1.398488,1.751879,1.156827,-0.568440,0.713610,0.008241,0.869102,-0.569751,-0.529640,1.202898,-0.187187,-8.955340,26.796307,-8.706253,-4.757204,0.141385,0.869857,-0.130143,0.000000,0.000000,0.000000,0.000000,0.000000,0.000000
12888031.000000,-2.366956,-1.662245,1.086594,-1.399043,1.751365,1.158016,-0.568621,0.710633,0.010694,0.879359,-0.560386,-0.538674,1.202165,-0.186952,-9.475055,26.720928,-8.607071,-4.856386,0.093778,0.922042,-0.142960,0.000000,0.000000,0.000000,0.000000,0.000000,0.000000
12888032.000000,-2.366228,-1.662231,1.087514,-1.399601,1.750854,1.159223,-0.568794,0.711671,0.013643,0.891063,-0.553846,-0.524517,1.197070,-0.181771,-9.994769,26.597942,-8.559464,-4.955568,0.027860,0.980636,-0.202470,0.000000,0.000000,0.000000,0.000000,0.000000,0.000000
12888033.000000,-2.365502,-1.662232,1.088459,-1.400156,1.750348,1.160437,-0.568983,0.713308,0.010519,0.906848,-0.556155,-0.523829,1.200982,-0.182416,-10.538287,26.697124,-8.654678,-4.884157,-0.019747,0.947677,-0.130143,0.000000,0.000000,0.000000,0.000000,0.000000,0.000000
12888034.000000,-2.364784,-1.662231,1.089390,-1.400718,1.749845,1.161632,-0.569159,0.710680,0.008957,0.909038,-0.555264,-0.517286,1.202967,-0.177376,-11.058002,26.772503,-8.654678,-4.709596,-0.109469,0.947677,-0.182328,0.000000,0.000000,0.000000,0.000000,0.000000,0.000000
12888035.000000,-2.364059,-1.662237,1.090363,-1.401274,1.749341,1.162830,-0.569343,0.711949,0.002773,0.924146,-0.555166,-0.510750,1.198725,-0.180630,-11.506305,26.943096,-8.900650,-4.562807,-0.097567,1.006271,-0.163102,0.000000,0.000000,0.000000,0.000000,0.000000,0.000000
12888036.000000,-2.363350,-1.662240,1.091314,-1.401824,1.748832,1.164040,-0.569530,0.712431,-0.000991,0.928550,-0.551355,-0.509196,1.223495,-0.182547,-11.851459,27.089886,-8.924454,-4.562807,-0.133273,0.974227,-0.116410,0.000000,0.000000,0.000000,0.000000,0.000000,0.000000
12888037.000000,-2.362636,-1.662248,1.092303,-1.402360,1.748341,1.165227,-0.569703,0.703916,-0.001038,0.941610,-0.544394,-0.500541,1.221382,-0.183859,-12.125201,27.260479,-9.075211,-4.733400,-0.126864,0.928451,-0.169511,0.000000,0.000000,0.000000,0.000000,0.000000,0.000000
12888038.000000,-2.361924,-1.662252,1.093282,-1.402889,1.747840,1.166420,-0.569888,0.702482,-0.001857,0.952379,-0.538604,-0.503892,1.216256,-0.183826,-12.371173,27.335857,-8.924454,-4.955568,-0.079257,1.045638,-0.110001,0.000000,0.000000,0.000000,0.000000,0.000000,0.000000
12888039.000000,-2.361222,-1.662264,1.094251,-1.403425,1.747342,1.167581,-0.570058,0.700508,-0.004223,0.956345,-0.535183,-0.503057,1.208223,-0.177045,-12.621112,27.482647,-8.777664,-5.106325,-0.019747,1.227828,-0.149369,0.000000,0.000000,0.000000,0.000000,0.000000,0.000000
12888040.000000,-2.360516,-1.662273,1.095238,-1.403961,1.746845,1.168769,-0.570220,0.693886,-0.004706,0.960412,-0.530916,-0.498466,1.198548,-0.172637,-12.867084,27.577862,-8.507889,-5.253114,0.069974,1.331283,-0.215287,0.000000,0.000000,0.000000,0.000000,0.000000,0.000000
12888041.000000,-2.359805,-1.662283,1.096207,-1.404498,1.746342,1.169967,-0.570402,0.708564,-0.005205,0.963040,-0.531676,-0.497760,1.195356,-0.175650,-13.164630,27.677044,-8.091324,-5.229311,0.117582,1.253463,-0.122819,0.000000,0.000000,0.000000,0.000000,0.000000,0.000000
12888042.000000,-2.359103,-1.662288,1.097226,-1.405029,1.745857,1.171154,-0.570569,0.706982,-0.003838,0.973612,-0.531859,-0.491070,1.194902,-0.167683,-13.485980,27.700848,-7.920731,-5.304689,0.117582,1.096908,-0.169511,0.000000,0.000000,0.000000,0.000000,0.000000,0.000000
12888043.000000,-2.358402,-1.662298,1.098242,-1.405551,1.745378,1.172360,-0.570735,0.702548,-0.007778,0.984940,-0.528411,-0.487750,1.189682,-0.165709,-13.759723,27.800030,-7.599380,-5.304689,0.064481,0.857040,-0.202470,0.000000,0.000000,0.000000,0.000000,0.000000,0.000000
12888044.000000,-2.357727,-1.662301,1.099246,-1.406080,1.744914,1.173549,-0.570905,0.691012,-0.005332,0.990390,-0.526796,-0.479433,1.188946,-0.168451,-13.731952,27.800030,-7.281998,-5.376100,-0.060946,0.706893,-0.163102,0.000000,0.000000,0.000000,0.000000,0.000000,0.000000
12888045.000000,-2.357042,-1.662313,1.100281,-1.406599,1.744447,1.174748,-0.571070,0.687699,-0.006542,0.994755,-0.527003,-0.465649,1.181485,-0.164989,-13.807330,27.923016,-7.111404,-5.550661,-0.138766,0.603439,-0.175919,0.000000,0.000000,0.000000,0.000000,0.000000,0.000000
12888046.000000,-2.356368,-1.662315,1.101304,-1.407097,1.743981,1.175937,-0.571238,0.690968,-0.003794,1.029667,-0.517279,-0.464016,1.173867,-0.164055,-13.684344,27.895245,-6.813858,-5.872011,-0.246798,0.706893,-0.142960,0.000000,0.000000,0.000000,0.000000,0.000000,0.000000
12888047.000000,-2.355707,-1.662307,1.102361,-1.407594,1.743520,1.177109,-0.571395,0.674700,0.000842,1.036695,-0.507971,-0.462426,1.164631,-0.159647,-13.585162,27.748455,-6.790054,-6.268739,-0.234896,0.778304,-0.169511,0.000000,0.000000,0.000000,0.000000,0.000000,0.000000
12888048.000000,-2.355040,-1.662302,1.103437,-1.408078,1.743072,1.178304,-0.571565,0.665396,0.002742,1.042892,-0.502230,-0.458768,1.165728,-0.163408,-13.533587,27.653240,-6.766251,-6.661500,-0.258700,0.811263,-0.130143,0.000000,0.000000,0.000000,0.000000,0.000000,0.000000
12888049.000000,-2.354378,-1.662289,1.104506,-1.408560,1.742614,1.179499,-0.571724,0.662562,0.006990,1.056188,-0.495196,-0.465939,1.171221,-0.163295,-13.585162,27.431072,-6.742447,-7.058229,-0.222994,0.700484,-0.175919,0.000000,0.000000,0.000000,0.000000,0.000000,0.000000
12888050.000000,-2.353713,-1.662276,1.105597,-1.409052,1.742151,1.180714,-0.571891,0.665167,0.009738,1.063848,-0.492091,-0.466272,1.174657,-0.161871,-13.660541,27.212872,-6.813858,-7.232790,-0.145175,0.564071,-0.136552,0.000000,0.000000,0.000000,0.000000,0.000000,0.000000
12888051.000000,-2.353044,-1.662265,1.106704,-1.409530,1.741697,1.181928,-0.572055,0.659795,0.009906,1.072923,-0.488724,-0.462149,1.174519,-0.164107,-13.731952,27.066082,-6.865433,-7.304201,-0.157076,0.479842,-0.130143,0.000000,0.000000,0.000000,0.000000,0.000000,0.000000
12888052.000000,-2.352388,-1.662249,1.107804,-1.410021,1.741249,1.183122,-0.572210,0.655711,0.011786,1.083924,-0.486901,-0.458564,1.177940,-0.159156,-13.807330,26.843914,-6.865433,-7.280397,-0.199191,0.453292,-0.175919,0.000000,0.000000,0.000000,0.000000,0.000000,0.000000
12888053.000000,-2.351728,-1.662238,1.108909,-1.410493,1.740809,1.184319,-0.572376,0.654110,0.010723,1.082209,-0.495823,-0.450578,1.169105,-0.159715,-13.858905,26.720928,-6.667068,-7.379579,-0.234896,0.532027,-0.103593,0.000000,0.000000,0.000000,0.000000,0.000000,0.000000
12888054.000000,-2.351086,-1.662225,1.110015,-1.410959,1.740363,1.185529,-0.572519,0.661112,0.011131,1.086474,-0.488098,-0.449816,1.197717,-0.150729,-13.783526,26.550335,-6.448868,-7.554140,-0.287997,0.597030,-0.188737,0.000000,0.000000,0.000000,0.000000,0.000000,0.000000
12888055.000000,-2.350440,-1.662211,1.111144,-1.411420,1.739926,1.186711,-0.572674,0.654411,0.011405,1.097311,-0.479642,-0.448049,1.195529,-0.150141,-13.731952,26.379742,-6.250504,-7.823915,-0.360323,0.713302,-0.196061,0.000000,0.000000,0.000000,0.000000,0.000000,0.000000
12888056.000000,-2.349786,-1.662197,1.112303,-1.411874,1.739496,1.187908,-0.572839,0.650325,0.012146,1.107266,-0.472689,-0.441624,1.193110,-0.153643,-13.759723,26.185345,-6.325882,-8.022280,-0.438143,0.824081,-0.103593,0.000000,0.000000,0.000000,0.000000,0.000000,0.000000
12888057.000000,-2.349144,-1.662180,1.113453,-1.412343,1.739062,1.189107,-0.572982,0.643945,0.012734,1.122591,-0.466075,-0.438068,1.196659,-0.149433,-13.783526,25.986980,-6.302078,-8.121462,-0.497653,0.713302,-0.196061,0.000000,0.000000,0.000000,0.000000,0.000000,0.000000
12888058.000000,-2.348502,-1.662174,1.114654,-1.412809,1.738619,1.190315,-0.573136,0.637101,0.009600,1.143505,-0.466824,-0.437253,1.195790,-0.149797,-13.783526,25.939373,-6.643265,-8.145266,-0.396029,0.648299,-0.163102,0.000000,0.000000,0.000000,0.000000,0.000000,0.000000
12888059.000000,-2.347850,-1.662166,1.115853,-1.413278,1.738194,1.191509,-0.573287,0.648444,0.008161,1.186073,-0.470373,-0.433262,1.187733,-0.149535,-13.858905,25.863995,-7.036026,-8.022280,-0.365817,0.700484,-0.175919,0.000000,0.000000,0.000000,0.000000,0.000000,0.000000
12888060.000000,-2.347220,-1.662159,1.117080,-1.413748,1.737771,1.192680,-0.573442,0.642933,0.006553,1.195093,-0.473349,-0.432979,1.184087,-0.152636,-13.906512,25.816387,-7.527969,-7.946901,-0.377719,0.798446,-0.103593,0.000000,0.000000,0.000000,0.000000,0.000000,0.000000
12888061.000000,-2.346584,-1.662157,1.118318,-1.414207,1.737338,1.193869,-0.573591,0.635701,0.003254,1.202820,-0.469139,-0.426297,1.180834,-0.153121,-13.882709,25.863995,-7.821548,-7.923097,-0.294406,0.836898,-0.097184,0.000000,0.000000,0.000000,0.000000,0.000000,0.000000
12888062.000000,-2.345960,-1.662157,1.119549,-1.414667,1.736931,1.195043,-0.573727,0.629492,0.001519,1.210134,-0.467080,-0.422948,1.177441,-0.149705,-13.858905,25.891766,-8.019913,-7.970705,-0.312716,0.843307,-0.142960,0.000000,0.000000,0.000000,0.000000,0.000000,0.000000
12888063.000000,-2.345329,-1.662163,1.120797,-1.415129,1.736508,1.196218,-0.573872,0.625880,-0.001772,1.216611,-0.463417,-0.424366,1.173564,-0.145810,-13.930316,26.010784,-8.091324,-7.998476,-0.353915,0.895492,-0.130143,0.000000,0.000000,0.000000,0.000000,0.000000,0.000000
12888064.000000,-2.344693,-1.662164,1.122054,-1.415590,1.736090,1.197388,-0.574020,0.627428,-0.001831,1.222330,-0.461014,-0.418104,1.165477,-0.148395,-14.005694,26.038555,-8.043716,-7.998476,-0.342013,1.064864,-0.116410,0.000000,0.000000,0.000000,0.000000,0.000000,0.000000
12888065.000000,-2.344077,-1.662181,1.123294,-1.416060,1.735687,1.198558,-0.574162,0.622987,-0.006882,1.230274,-0.463491,-0.417094,1.163275,-0.143369,-14.029498,26.280560,-7.821548,-7.899293,-0.353915,1.039230,-0.142960,0.000000,0.000000,0.000000,0.000000,0.000000,0.000000
12888066.000000,-2.343446,-1.662196,1.124549,-1.416539,1.735258,1.199750,-0.574305,0.621776,-0.003844,1.230063,-0.465258,-0.419088,1.172446,-0.144814,-14.053302,26.649517,-7.722366,-7.700929,-0.270602,0.915633,-0.182328,0.000000,0.000000,0.000000,0.000000,0.000000,0.000000
12888067.000000,-2.342833,-1.662214,1.125788,-1.417021,1.734855,1.200920,-0.574452,0.618261,-0.006390,1.227388,-0.472892,-0.411745,1.198649,-0.151131,-13.858905,27.383465,-8.091324,-7.502565,-0.312716,0.876266,-0.163102,0.000000,0.000000,0.000000,0.000000,0.000000,0.000000
12888068.000000,-2.342224,-1.662237,1.127028,-1.417494,1.734459,1.202118,-0.574601,0.612754,-0.009595,1.223388,-0.471648,-0.406235,1.202385,-0.152783,-13.410602,28.486370,-8.829239,-7.454957,-0.365817,0.817672,-0.122819,0.000000,0.000000,0.000000,0.000000,0.000000,0.000000
12888069.000000,-2.341614,-1.662257,1.128254,-1.417956,1.734052,1.203330,-0.574742,0.606560,-0.012157,1.218203,-0.468862,-0.400927,1.206139,-0.146036,-12.843280,29.783672,-9.662369,-7.502565,-0.318209,0.727035,-0.175919,0.000000,0.000000,0.000000,0.000000,0.000000,0.000000
12888070.000000,-2.341020,-1.662276,1.129473,-1.418414,1.733654,1.204518,-0.574892,0.596410,-0.014677,1.224534,-0.460151,-0.402435,1.208809,-0.145453,-12.149005,31.152386,-10.864456,-7.649354,-0.246798,0.778304,-0.103593,0.000000,0.000000,0.000000,0.000000,0.000000,0.000000
12888071.000000,-2.340407,-1.662282,1.130693,-1.418872,1.733264,1.205697,-0.575028,0.596520,-0.014237,1.218714,-0.469397,-0.399215,1.193555,-0.144961,-11.676898,32.350506,-12.018936,-7.748537,-0.150668,1.104232,-0.142960,0.000000,0.000000,0.000000,0.000000,0.000000,0.000000
12888072.000000,-2.339805,-1.662285,1.131907,-1.419325,1.732864,1.206888,-0.575170,0.608908,-0.013583,1.221808,-0.461959,-0.398473,1.192444,-0.140764,-11.232562,33.405804,-13.149612,-7.899293,-0.013339,1.402694,-0.169511,0.000000,0.000000,0.000000,0.000000,0.000000,0.000000
12888073.000000,-2.339195,-1.662279,1.133139,-1.419790,1.732476,1.208068,-0.575316,0.604639,-0.007663,1.226134,-0.458735,-0.395945,1.196634,-0.142389,-10.935016,34.238934,-14.252518,-7.946901,0.081876,1.552840,-0.130143,0.000000,0.000000,0.000000,0.000000,0.000000,0.000000
12888074.000000,-2.338572,-1.662270,1.134376,-1.420248,1.732089,1.209271,-0.575453,0.614765,-0.002924,1.226783,-0.461588,-0.392518,1.194687,-0.141614,-10.859637,34.897503,-15.184830,-7.923097,0.154203,1.539108,-0.215287,0.000000,0.000000,0.000000,0.000000,0.000000,0.000000
12888075.000000,-2.337954,-1.662262,1.135601,-1.420718,1.731703,1.210456,-0.575603,0.612108,-0.001430,1.225543,-0.461781,-0.394150,1.191127,-0.145758,-10.887408,35.484661,-16.017960,-7.823915,0.189908,1.494247,-0.130143,0.000000,0.000000,0.000000,0.000000,0.000000,0.000000
12888076.000000,-2.337340,-1.662252,1.136833,-1.421188,1.731330,1.211638,-0.575737,0.607683,0.005728,1.219141,-0.465371,-0.382362,1.188684,-0.140281,-10.859637,35.925030,-16.533707,-7.724733,0.129484,1.526290,-0.182328,0.000000,0.000000,0.000000,0.000000,0.000000,0.000000
12888077.000000,-2.336734,-1.662251,1.138068,-1.421644,1.730957,1.212819,-0.575877,0.618131,0.002844,1.251605,-0.463144,-0.379317,1.182037,-0.138529,-10.665240,36.416973,-17.101028,-7.677125,0.081876,1.591293,-0.175919,0.000000,0.000000,0.000000,0.000000,0.000000,0.000000
12888078.000000,-2.336148,-1.662248,1.139326,-1.422092,1.730599,1.213979,-0.576016,0.605994,0.003474,1.252464,-0.459199,-0.378864,1.170260,-0.136778,-10.490680,36.781963,-17.688187,-7.847719,-0.049044,1.584884,-0.182328,0.000000,0.000000,0.000000,0.000000,0.000000,0.000000
12888079.000000,-2.335568,-1.662258,1.140600,-1.422513,1.730230,1.215145,-0.576153,0.594442,0.000396,1.249766,-0.446375,-0.369951,1.155516,-0.135797,-10.117755,37.273907,-18.251541,-8.196840,-0.150668,1.649886,-0.169511,0.000000,0.000000,0.000000,0.000000,0.000000,0.000000
12888080.000000,-2.335005,-1.662282,1.141880,-1.422926,1.729863,1.216292,-0.576292,0.582632,-0.007251,1.257033,-0.433037,-0.371692,1.148258,-0.136074,-9.673419,37.861065,-19.037064,-8.740358,-0.174471,1.689254,-0.136552,0.000000,0.000000,0.000000,0.000000,0.000000,0.000000
12888081.000000,-2.334450,-1.662308,1.143184,-1.423326,1.729498,1.217437,-0.576422,0.575625,-0.014810,1.262995,-0.419927,-0.372701,1.137260,-0.133557,-9.177508,38.396648,-19.798782,-9.331484,-0.211093,1.884261,-0.175919,0.000000,0.000000,0.000000,0.000000,0.000000,0.000000
12888082.000000,-2.333894,-1.662343,1.144496,-1.423724,1.729113,1.218591,-0.576561,0.565558,-0.021694,1.274054,-0.413247,-0.376415,1.132175,-0.140989,-8.733172,38.983807,-20.536697,-9.803591,-0.150668,1.988631,-0.130143,0.000000,0.000000,0.000000,0.000000,0.000000,0.000000
12888083.000000,-2.333351,-1.662388,1.145790,-1.424128,1.728735,1.219750,-0.576692,0.558654,-0.028525,1.273894,-0.408334,-0.376920,1.137150,-0.137765,-8.312640,39.646343,-21.175430,-10.097170,-0.019747,1.871444,-0.155778,0.000000,0.000000,0.000000,0.000000,0.000000,0.000000
12888084.000000,-2.332806,-1.662438,1.147084,-1.424519,1.728366,1.220919,-0.576826,0.550940,-0.033438,1.268871,-0.405262,-0.369564,1.137930,-0.132264,-7.991290,40.308880,-21.540421,-10.394716,0.058073,1.747848,-0.136552,0.000000,0.000000,0.000000,0.000000,0.000000,0.000000
12888085.000000,-2.332275,-1.662483,1.148362,-1.424922,1.727999,1.222062,-0.576953,0.542655,-0.037938,1.270702,-0.404842,-0.367999,1.163714,-0.130785,-7.669940,40.872234,-21.861771,-10.470095,0.093778,1.721298,-0.155778,0.000000,0.000000,0.000000,0.000000,0.000000,0.000000
12888086.000000,-2.331741,-1.662532,1.149643,-1.425324,1.727632,1.223213,-0.577084,0.535223,-0.041205,1.270451,-0.403519,-0.364667,1.153870,-0.131733,-7.297015,41.431622,-21.885574,-10.569277,0.069974,1.767074,-0.142960,0.000000,0.000000,0.000000,0.000000,0.000000,0.000000
12888087.000000,-2.331217,-1.662589,1.150925,-1.425721,1.727267,1.224373,-0.577217,0.529329,-0.045443,1.266461,-0.400265,-0.361881,1.156048,-0.132748,-6.924090,42.070354,-21.810196,-10.493898,0.052579,1.779891,-0.116410,0.000000,0.000000,0.000000,0.000000,0.000000,0.000000
12888088.000000,-2.330702,-1.662635,1.152175,-1.426128,1.726912,1.225504,-0.577334,0.519323,-0.043955,1.259290,-0.401248,-0.363726,1.146895,-0.130708,-6.578936,42.510723,-21.516617,-10.347109,-0.007845,1.877853,-0.169511,0.000000,0.000000,0.000000,0.000000,0.000000,0.000000
12888089.000000,-2.330181,-1.662674,1.153475,-1.426527,1.726563,1.226656,-0.577459,0.511406,-0.040781,1.260839,-0.402807,-0.354159,1.142007,-0.127776,-6.281390,42.851910,-21.738785,-10.196352,-0.109469,1.981307,-0.130143,0.000000,0.000000,0.000000,0.000000,0.000000,0.000000
12888090.000000,-2.329680,-1.662713,1.154746,-1.426942,1.726214,1.227828,-0.577575,0.520466,-0.037683,1.267764,-0.402114,-0.348274,1.153003,-0.121715,-5.983843,43.145489,-21.810196,-9.950380,-0.180880,1.909896,-0.196061,0.000000,0.000000,0.000000,0.000000,0.000000,0.000000
12888091.000000,-2.329182,-1.662749,1.156038,-1.427350,1.725872,1.228980,-0.577707,0.508043,-0.034188,1.269262,-0.402622,-0.349265,1.154647,-0.122922,-5.587115,43.367657,-22.008560,-9.752016,-0.121371,1.851302,-0.103593,0.000000,0.000000,0.000000,0.000000,0.000000,0.000000
12888092.000000,-2.328684,-1.662776,1.157348,-1.427769,1.725510,1.230139,-0.577829,0.501872,-0.030857,1.276961,-0.406307,-0.354540,1.155550,-0.119858,-5.218157,43.415264,-22.377518,-9.430666,-0.031649,1.851302,-0.110001,0.000000,0.000000,0.000000,0.000000,0.000000,0.000000
12888093.000000,-2.328199,-1.662807,1.158646,-1.428185,1.725162,1.231275,-0.577941,0.495552,-0.029765,1.276036,-0.405892,-0.352808,1.152350,-0.116673,-4.896807,43.490643,-22.865494,-9.208498,0.027860,1.916305,-0.196061,0.000000,0.000000,0.000000,0.000000,0.000000,0.000000
12888094.000000,-2.327718,-1.662829,1.159956,-1.428619,1.724806,1.232433,-0.578066,0.486467,-0.028811,1.278395,-0.410528,-0.351102,1.151448,-0.116543,-4.424700,43.415264,-23.357437,-8.934755,0.201810,1.916305,-0.155778,0.000000,0.000000,0.000000,0.000000,0.000000,0.000000
12888095.000000,-2.327239,-1.662856,1.161267,-1.429041,1.724455,1.233586,-0.578183,0.491787,-0.026590,1.308665,-0.411737,-0.350836,1.149792,-0.114959,-3.956561,43.391460,-23.678787,-8.740358,0.279630,1.974899,-0.175919,0.000000,0.000000,0.000000,0.000000,0.000000,0.000000
12888096.000000,-2.326771,-1.662872,1.162550,-1.429485,1.724107,1.234730,-0.578308,0.480396,-0.018646,1.302507,-0.419055,-0.348343,1.140908,-0.116353,-3.607440,43.220867,-23.948563,-8.391237,0.308927,1.974899,-0.130143,0.000000,0.000000,0.000000,0.000000,0.000000,0.000000
12888097.000000,-2.326293,-1.662894,1.163841,-1.429925,1.723763,1.235876,-0.578422,0.478880,-0.018523,1.293373,-0.425908,-0.344438,1.128233,-0.114079,-3.309893,43.145489,-24.071548,-7.998476,0.297025,2.047225,-0.188737,0.000000,0.000000,0.000000,0.000000,0.000000,0.000000
12888098.000000,-2.325827,-1.662915,1.165117,-1.430385,1.723435,1.237024,-0.578548,0.478488,-0.018326,1.284273,-0.433174,-0.348912,1.131565,-0.114929,-2.964739,43.050274,-24.142960,-7.502565,0.261320,1.995040,-0.130143,0.000000,0.000000,0.000000,0.000000,0.000000,0.000000
12888099.000000,-2.325364,-1.662945,1.166419,-1.430849,1.723100,1.238189,-0.578659,0.470274,-0.021515,1.283386,-0.441771,-0.343678,1.136269,-0.113539,-2.619586,43.097881,-24.365128,-6.982851,0.183500,1.897079,-0.155778,0.000000,0.000000,0.000000,0.000000,0.000000,0.000000
12888100.000000,-2.324902,-1.662967,1.167726,-1.431309,1.722753,1.239349,-0.578775,0.468267,-0.021296,1.287354,-0.449151,-0.343359,1.138265,-0.113455,-2.298235,43.050274,-24.583328,-6.562318,0.201810,1.909896,-0.169511,0.000000,0.000000,0.000000,0.000000,0.000000,0.000000
12888101.000000,-2.324451,-1.662998,1.169034,-1.431777,1.722415,1.240487,-0.578894,0.463557,-0.024147,1.290466,-0.457410,-0.344584,1.139778,-0.119270,-1.972918,43.121685,-25.126846,-6.094179,0.255826,1.968490,-0.142960,0.000000,0.000000,0.000000,0.000000,0.000000,0.000000
12888102.000000,-2.323994,-1.663029,1.170337,-1.432239,1.722072,1.241634,-0.579008,0.455609,-0.026055,1.283739,-0.467483,-0.345515,1.135404,-0.120768,-1.679339,43.197063,-25.420425,-5.796632,0.327238,2.072860,-0.182328,0.000000,0.000000,0.000000,0.000000,0.000000,0.000000
12888103.000000,-2.323566,-1.663054,1.171639,-1.432698,1.721725,1.242778,-0.579132,0.446495,-0.025584,1.291396,-0.465862,-0.351765,1.153501,-0.124644,-1.183428,43.197063,-25.983780,-5.626039,0.405057,2.150680,-0.136552,0.000000,0.000000,0.000000,0.000000,0.000000,0.000000
12888104.000000,-2.323131,-1.663081,1.172945,-1.433154,1.721383,1.243898,-0.579244,0.444166,-0.026410,1.296801,-0.458351,-0.346981,1.142913,-0.120268,-0.735125,43.244671,-26.277359,-5.598268,0.488370,2.287093,-0.175919,0.000000,0.000000,0.000000,0.000000,0.000000,0.000000
12888105.000000,-2.322699,-1.663101,1.174249,-1.433610,1.721050,1.245030,-0.579357,0.438222,-0.024244,1.292495,-0.464522,-0.340639,1.132336,-0.123277,-0.266986,43.173260,-26.475723,-5.499086,0.524076,2.462875,-0.202470,0.000000,0.000000,0.000000,0.000000,0.000000,0.000000
12888106.000000,-2.322283,-1.663123,1.175524,-1.434072,1.720718,1.246158,-0.579477,0.430724,-0.023076,1.288783,-0.459242,-0.336208,1.137760,-0.122716,0.228925,43.121685,-26.499527,-5.399904,0.547880,2.469283,-0.155778,0.000000,0.000000,0.000000,0.000000,0.000000,0.000000
12888107.000000,-2.321855,-1.663141,1.176816,-1.434535,1.720390,1.247307,-0.579592,0.428402,-0.022091,1.280361,-0.462451,-0.334079,1.139268,-0.115280,0.526471,43.050274,-26.547134,-5.177736,0.464567,2.358505,-0.163102,0.000000,0.000000,0.000000,0.000000,0.000000,0.000000
12888108.000000,-2.321419,-1.663160,1.178081,-1.435014,1.720062,1.248461,-0.579705,0.437091,-0.021872,1.266521,-0.463125,-0.330534,1.143584,-0.114028,0.724836,42.998699,-26.424149,-4.733400,0.446256,2.202865,-0.175919,0.000000,0.000000,0.000000,0.000000,0.000000,0.000000
12888109.000000,-2.320995,-1.663178,1.179353,-1.435499,1.719749,1.249591,-0.579815,0.432457,-0.018147,1.258244,-0.465940,-0.326819,1.143110,-0.109370,0.923200,42.927288,-26.205948,-4.289064,0.405057,2.112228,-0.169511,0.000000,0.000000,0.000000,0.000000,0.000000,0.000000
12888110.000000,-2.320576,-1.663189,1.180641,-1.435966,1.719428,1.250743,-0.579924,0.426474,-0.017343,1.261153,-0.466242,-0.323532,1.143281,-0.110843,1.121564,42.804302,-26.229752,-3.920107,0.362943,1.955673,-0.149369,0.000000,0.000000,0.000000,0.000000,0.000000,0.000000
12888111.000000,-2.320167,-1.663209,1.181891,-1.436426,1.719113,1.251876,-0.580026,0.422484,-0.019224,1.258849,-0.464536,-0.319011,1.133615,-0.110230,1.391340,42.780499,-26.007584,-3.769350,0.374845,1.858627,-0.175919,0.000000,0.000000,0.000000,0.000000,0.000000,0.000000
12888112.000000,-2.319755,-1.663224,1.183163,-1.436878,1.718787,1.253018,-0.580139,0.414156,-0.016038,1.252744,-0.460232,-0.319796,1.127932,-0.112255,1.712690,42.705120,-26.007584,-3.769350,0.500272,1.851302,-0.142960,0.000000,0.000000,0.000000,0.000000,0.000000,0.000000
12888113.000000,-2.319338,-1.663241,1.184430,-1.437325,1.718474,1.254150,-0.580247,0.411155,-0.015426,1.276591,-0.454313,-0.321651,1.120646,-0.108053,1.934858,42.705120,-25.912369,-3.769350,0.542386,2.053634,-0.155778,0.000000,0.000000,0.000000,0.000000,0.000000,0.000000
12888116.000000,-2.318099,-1.663303,1.188155,-1.438674,1.717528,1.257564,-0.580554,0.405894,-0.021899,1.247451,-0.450866,-0.323777,1.131572,-0.100164,2.184797,42.851910,-25.666397,-3.475771,0.685209,2.020675,-0.235429,0.000000,0.000000,0.000000,0.000000,0.000000,0.000000
12888117.000000,-2.317677,-1.663318,1.189405,-1.439136,1.717226,1.258730,-0.580667,0.412870,-0.018351,1.242515,-0.451537,-0.322021,1.139172,-0.106637,2.109418,42.804302,-25.666397,-3.178224,0.667814,1.819259,-0.155778,0.000000,0.000000,0.000000,0.000000,0.000000,0.000000
12888118.000000,-2.317256,-1.663326,1.190638,-1.439578,1.716921,1.259898,-0.580769,0.412277,-0.014035,1.232568,-0.448172,-0.314377,1.140434,-0.102887,2.034040,42.681316,-25.444229,-3.027467,0.601896,1.695663,-0.182328,0.000000,0.000000,0.000000,0.000000,0.000000,0.000000
12888119.000000,-2.316847,-1.663337,1.191861,-1.440016,1.716625,1.261056,-0.580869,0.413027,-0.012637,1.227782,-0.440505,-0.305756,1.147315,-0.100091,2.034040,42.633709,-25.368851,-2.928285,0.571683,1.552840,-0.202470,0.000000,0.000000,0.000000,0.000000,0.000000,0.000000
12888120.000000,-2.316430,-1.663349,1.193100,-1.440441,1.716330,1.262212,-0.580976,0.410905,-0.011684,1.222752,-0.445266,-0.304648,1.147674,-0.100593,2.109418,42.582134,-25.321243,-2.979860,0.571683,1.597701,-0.149369,0.000000,0.000000,0.000000,0.000000,0.000000,0.000000
12888121.000000,-2.316032,-1.663359,1.194331,-1.440864,1.716048,1.263359,-0.581074,0.416030,-0.010526,1.222080,-0.437015,-0.298162,1.170803,-0.102707,2.406965,42.510723,-25.444229,-3.003664,0.535978,1.800033,-0.175919,0.000000,0.000000,0.000000,0.000000,0.000000,0.000000
12888122.000000,-2.315627,-1.663368,1.195578,-1.441277,1.715756,1.264487,-0.581173,0.408246,-0.009064,1.223295,-0.426418,-0.299893,1.163287,-0.104864,2.605329,42.411541,-25.642593,-3.202028,0.547880,2.007858,-0.188737,0.000000,0.000000,0.000000,0.000000,0.000000,0.000000
12888123.000000,-2.315218,-1.663384,1.196837,-1.441680,1.715463,1.265637,-0.581275,0.406776,-0.007205,1.224717,-0.419306,-0.289455,1.160072,-0.102481,2.779890,42.411541,-25.936172,-3.400392,0.524076,2.125045,-0.182328,0.000000,0.000000,0.000000,0.000000,0.000000,0.000000
12888124.000000,-2.314805,-1.663391,1.198083,-1.442098,1.715169,1.266781,-0.581378,0.406932,-0.007168,1.228234,-0.415639,-0.295224,1.153509,-0.101478,2.752119,42.340130,-26.328934,-3.499574,0.589994,2.131454,-0.155778,0.000000,0.000000,0.000000,0.000000,0.000000,0.000000
12888125.000000,-2.314386,-1.663400,1.199316,-1.442509,1.714882,1.267936,-0.581478,0.406735,-0.008418,1.223523,-0.413783,-0.293045,1.143091,-0.098030,2.652936,42.316326,-26.400345,-3.475771,0.613798,2.104903,-0.196061,0.000000,0.000000,0.000000,0.000000,0.000000,0.000000
12888126.000000,-2.313968,-1.663410,1.200540,-1.442937,1.714595,1.269086,-0.581579,0.417240,-0.005923,1.222584,-0.418658,-0.291164,1.135061,-0.097818,2.506147,42.288555,-26.598709,-3.301210,0.625699,2.144271,-0.196061,0.000000,0.000000,0.000000,0.000000,0.000000,0.000000
12888127.000000,-2.313558,-1.663418,1.201761,-1.443349,1.714311,1.270220,-0.581683,0.415246,-0.007396,1.215219,-0.410985,-0.284423,1.129887,-0.097556,2.430768,42.264751,-26.499527,-3.301210,0.625699,2.131454,-0.169511,0.000000,0.000000,0.000000,0.000000,0.000000,0.000000
12888128.000000,-2.313147,-1.663424,1.202989,-1.443761,1.714040,1.271375,-0.581780,0.411286,-0.003518,1.212054,-0.410948,-0.276715,1.125611,-0.096357,2.406965,42.169537,-26.352737,-3.202028,0.571683,2.066451,-0.175919,0.000000,0.000000,0.000000,0.000000,0.000000,0.000000
12888129.000000,-2.312741,-1.663432,1.204183,-1.444164,1.713778,1.272504,-0.581884,0.409517,-0.002956,1.202807,-0.402815,-0.270692,1.126049,-0.102001,2.359357,42.169537,-26.007584,-3.178224,0.488370,2.104903,-0.136552,0.000000,0.000000,0.000000,0.000000,0.000000,0.000000
12888130.000000,-2.312338,-1.663434,1.205400,-1.444563,1.713517,1.273641,-0.581979,0.403708,-0.003271,1.197965,-0.399190,-0.266718,1.126159,-0.097469,2.359357,42.070354,-25.813187,-3.202028,0.410551,2.144271,-0.182328,0.000000,0.000000,0.000000,0.000000,0.000000,0.000000
12888131.000000,-2.311942,-1.663433,1.206629,-1.444957,1.713244,1.274792,-0.582081,0.407911,-0.002488,1.221388,-0.395768,-0.270506,1.128185,-0.097280,2.482343,41.923565,-25.789383,-3.126650,0.386747,2.118636,-0.169511,0.000000,0.000000,0.000000,0.000000,0.000000,0.000000
12888132.000000,-2.311548,-1.663433,1.207823,-1.445347,1.712978,1.275929,-0.582177,0.401018,-0.002224,1.213250,-0.392225,-0.270341,1.132461,-0.095850,2.581525,41.776775,-25.614822,-3.178224,0.410551,2.027084,-0.188737,0.000000,0.000000,0.000000,0.000000,0.000000,0.000000
12888133.000000,-2.311149,-1.663433,1.209038,-1.445729,1.712701,1.277090,-0.582277,0.396667,-0.002572,1.206156,-0.388211,-0.267980,1.133955,-0.096641,2.605329,41.653790,-25.591019,-3.202028,0.524076,1.890670,-0.155778,0.000000,0.000000,0.000000,0.000000,0.000000,0.000000
12888134.000000,-2.310767,-1.663431,1.210240,-1.446111,1.712441,1.278217,-0.582368,0.392855,0.000848,1.200569,-0.387642,-0.267502,1.159021,-0.099510,2.704511,41.507000,-25.614822,-3.249635,0.578092,1.884261,-0.169511,0.000000,0.000000,0.000000,0.000000,0.000000,0.000000
12888135.000000,-2.310371,-1.663429,1.211458,-1.446493,1.712178,1.279365,-0.582457,0.388357,-0.000384,1.201752,-0.385588,-0.271995,1.157569,-0.097357,2.704511,41.384014,-25.737808,-3.249635,0.601896,1.838485,-0.196061,0.000000,0.000000,0.000000,0.000000,0.000000,0.000000
12888136.000000,-2.309980,-1.663431,1.212664,-1.446865,1.711916,1.280514,-0.582556,0.383185,-0.000454,1.198689,-0.386307,-0.268211,1.161231,-0.099190,2.779890,41.360210,-25.666397,-3.277406,0.566190,1.800033,-0.149369,0.000000,0.000000,0.000000,0.000000,0.000000,0.000000
12888137.000000,-2.309591,-1.663428,1.213842,-1.447239,1.711665,1.281643,-0.582644,0.385005,0.001452,1.195713,-0.377966,-0.261265,1.158107,-0.096232,2.779890,41.261028,-25.444229,-3.376589,0.530485,1.806442,-0.196061,0.000000,0.000000,0.000000,0.000000,0.000000,0.000000
12888138.000000,-2.309201,-1.663431,1.215031,-1.447603,1.711415,1.282772,-0.582744,0.382112,0.000543,1.186557,-0.381426,-0.260584,1.144661,-0.097679,2.752119,41.261028,-25.273636,-3.424196,0.494779,1.930038,-0.142960,0.000000,0.000000,0.000000,0.000000,0.000000,0.000000
12888139.000000,-2.308817,-1.663424,1.216192,-1.447967,1.711179,1.283897,-0.582830,0.388579,0.002921,1.183416,-0.376414,-0.253188,1.128789,-0.090083,2.728315,41.138042,-24.880875,-3.475771,0.386747,2.137862,-0.196061,0.000000,0.000000,0.000000,0.000000,0.000000,0.000000
12888140.000000,-2.308427,-1.663419,1.217370,-1.448339,1.710933,1.285031,-0.582924,0.387986,0.003379,1.178465,-0.373501,-0.250757,1.122392,-0.091975,2.728315,41.066631,-24.634903,-3.348818,0.362943,2.085677,-0.175919,0.000000,0.000000,0.000000,0.000000,0.000000,0.000000
12888141.000000,-2.308028,-1.663409,1.218554,-1.448692,1.710678,1.286195,-0.583014,0.387181,0.004950,1.175246,-0.367622,-0.254827,1.125625,-0.088857,2.605329,40.943645,-24.436539,-3.376589,0.386747,1.890670,-0.163102,0.000000,0.000000,0.000000,0.000000,0.000000,0.000000
12888142.000000,-2.307639,-1.663398,1.219730,-1.449043,1.710437,1.287340,-0.583098,0.387244,0.006600,1.172560,-0.359556,-0.252704,1.128016,-0.089265,2.454572,40.796856,-24.464310,-3.400392,0.386747,1.747848,-0.188737,0.000000,0.000000,0.000000,0.000000,0.000000,0.000000
12888143.000000,-2.307252,-1.663385,1.220940,-1.449394,1.710190,1.288480,-0.583193,0.388211,0.007733,1.176052,-0.354500,-0.252399,1.127243,-0.087795,2.383161,40.650066,-24.734085,-3.424196,0.422452,1.741439,-0.136552,0.000000,0.000000,0.000000,0.000000,0.000000,0.000000
12888144.000000,-2.306871,-1.663381,1.222142,-1.449726,1.709947,1.289628,-0.583275,0.393553,0.006193,1.202763,-0.347929,-0.246792,1.127540,-0.082567,2.482343,40.602459,-24.952286,-3.547182,0.440763,1.735030,-0.188737,0.000000,0.000000,0.000000,0.000000,0.000000,0.000000
12888145.000000,-2.306498,-1.663379,1.223330,-1.450059,1.709699,1.290754,-0.583364,0.390666,0.004629,1.197704,-0.345417,-0.249051,1.131484,-0.082848,2.553754,40.578655,-25.273636,-3.697939,0.512174,1.773483,-0.136552,0.000000,0.000000,0.000000,0.000000,0.000000,0.000000
12888146.000000,-2.306122,-1.663377,1.224535,-1.450389,1.709456,1.291886,-0.583444,0.387507,0.006202,1.195924,-0.338554,-0.245103,1.125110,-0.079701,2.605329,40.578655,-25.591019,-3.820925,0.452665,1.851302,-0.182328,0.000000,0.000000,0.000000,0.000000,0.000000,0.000000
12888147.000000,-2.305757,-1.663374,1.225712,-1.450707,1.709221,1.292985,-0.583525,0.382408,0.005015,1.192459,-0.328672,-0.246951,1.117327,-0.077080,2.704511,40.550884,-25.666397,-4.019289,0.410551,1.995040,-0.202470,0.000000,0.000000,0.000000,0.000000,0.000000,0.000000
12888148.000000,-2.305369,-1.663372,1.226904,-1.451037,1.708989,1.294108,-0.583615,0.380067,0.004074,1.190677,-0.330764,-0.240551,1.117999,-0.079481,2.581525,40.527081,-25.690201,-4.090700,0.369352,2.079269,-0.130143,0.000000,0.000000,0.000000,0.000000,0.000000,0.000000
12888149.000000,-2.304986,-1.663374,1.228072,-1.451363,1.708755,1.295246,-0.583691,0.380038,0.002289,1.177886,-0.328009,-0.241851,1.124423,-0.075992,2.506147,40.550884,-25.368851,-4.066896,0.362943,2.020675,-0.208878,0.000000,0.000000,0.000000,0.000000,0.000000,0.000000
12888150.000000,-2.304603,-1.663374,1.229239,-1.451697,1.708523,1.296363,-0.583778,0.379818,0.001624,1.171281,-0.330390,-0.243967,1.131282,-0.078786,2.307783,40.550884,-25.222061,-3.943910,0.386747,2.007858,-0.136552,0.000000,0.000000,0.000000,0.000000,0.000000,0.000000
12888151.000000,-2.304214,-1.663371,1.230395,-1.452025,1.708289,1.297500,-0.583861,0.376533,0.001156,1.161254,-0.330011,-0.243415,1.128781,-0.077178,2.034040,40.550884,-24.757889,-3.797121,0.369352,1.877853,-0.149369,0.000000,0.000000,0.000000,0.000000,0.000000,0.000000
12888152.000000,-2.303830,-1.663367,1.231551,-1.452348,1.708056,1.298650,-0.583943,0.376951,0.001939,1.157143,-0.325737,-0.240554,1.147003,-0.080966,1.811872,40.503277,-24.583328,-3.670168,0.405057,1.714889,-0.149369,0.000000,0.000000,0.000000,0.000000,0.000000,0.000000
12888153.000000,-2.303444,-1.663364,1.232722,-1.452675,1.707825,1.299783,-0.584023,0.380189,0.002447,1.154433,-0.324953,-0.237621,1.137324,-0.078802,1.641279,40.455669,-24.436539,-3.570986,0.422452,1.584884,-0.169511,0.000000,0.000000,0.000000,0.000000,0.000000,0.000000
12888154.000000,-2.303058,-1.663364,1.233887,-1.452988,1.707599,1.300924,-0.584104,0.380144,0.001662,1.149649,-0.319793,-0.234242,1.126756,-0.081515,1.542096,40.455669,-24.190567,-3.523378,0.410551,1.519881,-0.202470,0.000000,0.000000,0.000000,0.000000,0.000000,0.000000
12888155.000000,-2.302686,-1.663363,1.235050,-1.453290,1.707375,1.302036,-0.584193,0.376293,0.000575,1.155796,-0.315293,-0.234184,1.117031,-0.083374,1.466718,40.479473,-24.190567,-3.622560,0.452665,1.670028,-0.116410,0.000000,0.000000,0.000000,0.000000,0.000000,0.000000
12888156.000000,-2.302315,-1.663364,1.236215,-1.453600,1.707152,1.303158,-0.584263,0.374299,-0.000156,1.151696,-0.317023,-0.234700,1.106765,-0.077713,1.466718,40.503277,-24.095352,-3.598757,0.393156,1.858627,-0.208878,0.000000,0.000000,0.000000,0.000000,0.000000,0.000000
12888157.000000,-2.301939,-1.663361,1.237380,-1.453902,1.706925,1.304296,-0.584353,0.381535,0.001022,1.159330,-0.311529,-0.227372,1.110143,-0.085034,1.343732,40.455669,-24.190567,-3.670168,0.369352,1.955673,-0.130143,0.000000,0.000000,0.000000,0.000000,0.000000,0.000000
12888158.000000,-2.301557,-1.663360,1.238542,-1.454207,1.706707,1.305426,-0.584427,0.382508,0.000135,1.158123,-0.308395,-0.226225,1.111655,-0.085778,1.216779,40.479473,-24.142960,-3.697939,0.344633,1.930038,-0.169511,0.000000,0.000000,0.000000,0.000000,0.000000,0.000000
12888159.000000,-2.301169,-1.663349,1.239709,-1.454513,1.706485,1.306578,-0.584505,0.384052,0.003531,1.154270,-0.305581,-0.226789,1.114804,-0.086838,1.022382,40.332684,-24.119156,-3.622560,0.362943,1.812850,-0.196061,0.000000,0.000000,0.000000,0.000000,0.000000,0.000000
12888160.000000,-2.300783,-1.663345,1.240851,-1.454816,1.706270,1.307692,-0.584586,0.384766,0.003566,1.150121,-0.299770,-0.217698,1.116023,-0.086320,0.697065,40.281109,-24.043777,-3.547182,0.369352,1.877853,-0.136552,0.000000,0.000000,0.000000,0.000000,0.000000,0.000000
12888161.000000,-2.300389,-1.663329,1.241998,-1.455129,1.706045,1.308823,-0.584658,0.384803,0.006929,1.140732,-0.302571,-0.221090,1.117074,-0.082281,0.351911,40.086712,-23.825577,-3.448000,0.398649,1.942855,-0.169511,0.000000,0.000000,0.000000,0.000000,0.000000,0.000000
12888162.000000,-2.300001,-1.663322,1.243126,-1.455434,1.705815,1.309967,-0.584738,0.390985,0.006942,1.164780,-0.301085,-0.223492,1.128320,-0.081537,0.105939,39.987530,-23.504227,-3.348818,0.422452,1.871444,-0.142960,0.000000,0.000000,0.000000,0.000000,0.000000,0.000000
12888163.000000,-2.299617,-1.663311,1.244283,-1.455730,1.705591,1.311101,-0.584808,0.386994,0.009902,1.159688,-0.295992,-0.219855,1.138140,-0.078899,-0.116229,39.892315,-23.480423,-3.400392,0.434354,1.754256,-0.169511,0.000000,0.000000,0.000000,0.000000,0.000000,0.000000
12888164.000000,-2.299233,-1.663294,1.245449,-1.456021,1.705383,1.312218,-0.584882,0.382577,0.013573,1.159276,-0.289557,-0.216474,1.131079,-0.077466,-0.314593,39.745525,-23.504227,-3.475771,0.315336,1.812850,-0.182328,0.000000,0.000000,0.000000,0.000000,0.000000,0.000000
12888165.000000,-2.298854,-1.663281,1.246607,-1.456316,1.705167,1.313330,-0.584961,0.383322,0.014873,1.164443,-0.289208,-0.222986,1.124248,-0.078758,-0.489153,39.646343,-23.726395,-3.499574,0.327238,1.851302,-0.136552,0.000000,0.000000,0.000000,0.000000,0.000000,0.000000
12888166.000000,-2.298471,-1.663275,1.247774,-1.456602,1.704956,1.314455,-0.585031,0.380682,0.010517,1.159525,-0.286693,-0.220376,1.115612,-0.075513,-0.663714,39.646343,-23.948563,-3.622560,0.351041,1.865035,-0.182328,0.000000,0.000000,0.000000,0.000000,0.000000,0.000000
12888167.000000,-2.298094,-1.663261,1.248955,-1.456889,1.704742,1.315588,-0.585108,0.375579,0.012379,1.165115,-0.286699,-0.220924,1.109449,-0.080501,-0.711321,39.574932,-24.218338,-3.670168,0.327238,1.865035,-0.175919,0.000000,0.000000,0.000000,0.000000,0.000000,0.000000
12888168.000000,-2.297722,-1.663254,1.250121,-1.457168,1.704524,1.316690,-0.585181,0.373171,0.011395,1.168932,-0.281779,-0.219529,1.100649,-0.079319,-0.810504,39.598736,-24.535721,-3.769350,0.369352,1.988631,-0.175919,0.000000,0.000000,0.000000,0.000000,0.000000,0.000000
12888169.000000,-2.297349,-1.663246,1.251286,-1.457438,1.704316,1.317802,-0.585259,0.371279,0.010916,1.165795,-0.278229,-0.216095,1.097254,-0.079956,-0.933489,39.622540,-24.658707,-3.892336,0.369352,2.092086,-0.130143,0.000000,0.000000,0.000000,0.000000,0.000000,0.000000
12888170.000000,-2.296992,-1.663237,1.252436,-1.457708,1.704112,1.318939,-0.585324,0.364228,0.011784,1.162468,-0.272398,-0.212890,1.121352,-0.075692,-0.862078,39.598736,-24.781693,-4.019289,0.339139,2.014266,-0.188737,0.000000,0.000000,0.000000,0.000000,0.000000,0.000000
12888171.000000,-2.296626,-1.663228,1.253581,-1.457980,1.703909,1.320050,-0.585398,0.359174,0.008718,1.153100,-0.270480,-0.212807,1.116424,-0.071526,-0.862078,39.598736,-24.611099,-4.043092,0.369352,1.955673,-0.175919,0.000000,0.000000,0.000000,0.000000,0.000000,0.000000
12888172.000000,-2.296263,-1.663219,1.254731,-1.458247,1.703714,1.321157,-0.585469,0.358102,0.010028,1.150486,-0.271513,-0.208973,1.110918,-0.073577,-0.810504,39.574932,-24.365128,-4.090700,0.315336,2.039901,-0.155778,0.000000,0.000000,0.000000,0.000000,0.000000,0.000000
12888173.000000,-2.295909,-1.663211,1.255860,-1.458521,1.703520,1.322249,-0.585534,0.355663,0.011277,1.142344,-0.270593,-0.206563,1.110564,-0.072320,-0.834307,39.547161,-24.071548,-4.043092,0.249418,2.085677,-0.202470,0.000000,0.000000,0.000000,0.000000,0.000000,0.000000
12888174.000000,-2.295552,-1.663199,1.256997,-1.458793,1.703311,1.323370,-0.585609,0.354822,0.012600,1.137907,-0.277734,-0.207756,1.117948,-0.075315,-0.810504,39.499554,-23.651016,-3.943910,0.261320,2.104903,-0.142960,0.000000,0.000000,0.000000,0.000000,0.000000,0.000000
12888175.000000,-2.295199,-1.663182,1.258128,-1.459060,1.703112,1.324507,-0.585676,0.359145,0.011597,1.134822,-0.275505,-0.201610,1.123468,-0.073803,-0.735125,39.400372,-23.432816,-3.892336,0.225614,1.942855,-0.182328,0.000000,0.000000,0.000000,0.000000,0.000000,0.000000
12888176.000000,-2.294860,-1.663172,1.259261,-1.459328,1.702920,1.325626,-0.585746,0.352280,0.009502,1.125530,-0.272878,-0.202264,1.125509,-0.070208,-0.588336,39.352764,-23.186844,-3.868532,0.189908,1.786300,-0.163102,0.000000,0.000000,0.000000,0.000000,0.000000,0.000000
12888177.000000,-2.294522,-1.663154,1.260418,-1.459590,1.702717,1.326748,-0.585815,0.344732,0.012857,1.124459,-0.267570,-0.200918,1.111588,-0.067637,-0.465350,39.229778,-23.186844,-3.868532,0.249418,1.727706,-0.149369,0.000000,0.000000,0.000000,0.000000,0.000000,0.000000
12888178.000000,-2.294200,-1.663138,1.261547,-1.459844,1.702524,1.327857,-0.585876,0.337821,0.014688,1.127425,-0.264650,-0.199128,1.111625,-0.063775,-0.290789,39.130596,-23.087662,-3.943910,0.279630,1.708480,-0.175919,0.000000,0.000000,0.000000,0.000000,0.000000,0.000000
12888179.000000,-2.293873,-1.663124,1.262696,-1.460102,1.702327,1.328980,-0.585946,0.331743,0.015249,1.129973,-0.260025,-0.197496,1.107479,-0.063364,-0.068621,39.059185,-23.111465,-4.019289,0.297025,1.682845,-0.142960,0.000000,0.000000,0.000000,0.000000,0.000000,0.000000
12888180.000000,-2.293546,-1.663112,1.263843,-1.460348,1.702125,1.330109,-0.586007,0.325421,0.014548,1.146773,-0.252134,-0.196379,1.111511,-0.065746,0.105939,39.035381,-23.135269,-4.142274,0.327238,1.695663,-0.169511,0.000000,0.000000,0.000000,0.000000,0.000000,0.000000
12888181.000000,-2.293229,-1.663097,1.264974,-1.460600,1.701936,1.331217,-0.586072,0.323366,0.012319,1.144795,-0.250144,-0.192644,1.106781,-0.069261,0.304304,38.960003,-23.186844,-4.090700,0.279630,1.702071,-0.142960,0.000000,0.000000,0.000000,0.000000,0.000000,0.000000
12888182.000000,-2.292908,-1.663076,1.266115,-1.460850,1.701745,1.332326,-0.586130,0.324387,0.015892,1.139152,-0.248757,-0.192073,1.097205,-0.063927,0.451093,38.789410,-23.186844,-4.043092,0.297025,1.773483,-0.188737,0.000000,0.000000,0.000000,0.000000,0.000000,0.000000
12888183.000000,-2.292599,-1.663064,1.267220,-1.461096,1.701561,1.333435,-0.586197,0.320484,0.014609,1.124577,-0.246735,-0.190226,1.102376,-0.063677,0.601850,38.789410,-22.917068,-4.019289,0.291532,1.760665,-0.149369,0.000000,0.000000,0.000000,0.000000,0.000000,0.000000
12888184.000000,-2.292287,-1.663044,1.268347,-1.461350,1.701378,1.334562,-0.586258,0.317226,0.017160,1.120595,-0.245758,-0.184036,1.108827,-0.065151,0.772443,38.642620,-22.718704,-3.844728,0.261320,1.670028,-0.188737,0.000000,0.000000,0.000000,0.000000,0.000000,0.000000
12888185.000000,-2.291967,-1.663023,1.269480,-1.461591,1.701191,1.335695,-0.586322,0.317187,0.018891,1.116952,-0.244205,-0.185367,1.119042,-0.063324,0.847822,38.495831,-22.571915,-3.820925,0.267728,1.643478,-0.182328,0.000000,0.000000,0.000000,0.000000,0.000000,0.000000
12888186.000000,-2.291657,-1.663001,1.270607,-1.461844,1.701011,1.336801,-0.586387,0.312869,0.016951,1.118250,-0.245667,-0.179318,1.117896,-0.062387,0.923200,38.349041,-22.595718,-3.670168,0.207303,1.605026,-0.163102,0.000000,0.000000,0.000000,0.000000,0.000000,0.000000
12888187.000000,-2.291358,-1.662982,1.271746,-1.462087,1.700824,1.337938,-0.586442,0.305986,0.018025,1.119424,-0.246063,-0.180427,1.121930,-0.059541,1.121564,38.226055,-22.595718,-3.570986,0.178007,1.500655,-0.196061,0.000000,0.000000,0.000000,0.000000,0.000000,0.000000
12888188.000000,-2.291061,-1.662964,1.272891,-1.462334,1.700630,1.339071,-0.586513,0.304378,0.018825,1.129100,-0.247514,-0.186091,1.138499,-0.061719,1.216779,38.103069,-22.865494,-3.424196,0.261320,1.435653,-0.110001,0.000000,0.000000,0.000000,0.000000,0.000000,0.000000
12888189.000000,-2.290768,-1.662944,1.274038,-1.462582,1.700449,1.340184,-0.586566,0.300787,0.019239,1.130338,-0.247233,-0.183146,1.129263,-0.056888,1.442914,37.984051,-23.063858,-3.325014,0.297025,1.494247,-0.188737,0.000000,0.000000,0.000000,0.000000,0.000000,0.000000
12888190.000000,-2.290474,-1.662926,1.275202,-1.462822,1.700269,1.341295,-0.586635,0.297904,0.015480,1.134977,-0.246946,-0.180474,1.112802,-0.063820,1.641279,37.908672,-23.456619,-3.225832,0.327238,1.670028,-0.130143,0.000000,0.000000,0.000000,0.000000,0.000000,0.000000
12888191.000000,-2.290191,-1.662912,1.276344,-1.463061,1.700088,1.342394,-0.586693,0.292334,0.018316,1.139058,-0.241920,-0.184379,1.116579,-0.066361,1.835676,37.861065,-23.726395,-3.178224,0.386747,1.851302,-0.136552,0.000000,0.000000,0.000000,0.000000,0.000000,0.000000
12888192.000000,-2.289906,-1.662902,1.277496,-1.463306,1.699918,1.343510,-0.586744,0.287113,0.015830,1.138813,-0.243685,-0.182842,1.111462,-0.061442,2.061811,37.884869,-23.849380,-3.055238,0.327238,1.942855,-0.202470,0.000000,0.000000,0.000000,0.000000,0.000000,0.000000
12888193.000000,-2.289613,-1.662881,1.278634,-1.463555,1.699735,1.344635,-0.586814,0.290679,0.017592,1.134837,-0.244839,-0.184260,1.111821,-0.063348,2.085615,37.761883,-23.948563,-2.928285,0.327238,1.962081,-0.122819,0.000000,0.000000,0.000000,0.000000,0.000000,0.000000
12888194.000000,-2.289331,-1.662865,1.279777,-1.463808,1.699561,1.345745,-0.586864,0.289945,0.014523,1.127399,-0.245695,-0.180053,1.112765,-0.063295,2.160993,37.686504,-23.873184,-2.658510,0.308927,1.936446,-0.202470,0.000000,0.000000,0.000000,0.000000,0.000000,0.000000
12888195.000000,-2.289039,-1.662844,1.280914,-1.464056,1.699397,1.346860,-0.586923,0.286998,0.018885,1.126925,-0.249039,-0.179866,1.111099,-0.057507,2.160993,37.591290,-23.702591,-2.412538,0.249418,1.923629,-0.188737,0.000000,0.000000,0.000000,0.000000,0.000000,0.000000
12888196.000000,-2.288746,-1.662825,1.282035,-1.464322,1.699224,1.347964,-0.586985,0.286968,0.018607,1.123804,-0.253559,-0.175334,1.117851,-0.058794,2.085615,37.515911,-23.528030,-2.063417,0.315336,1.890670,-0.149369,0.000000,0.000000,0.000000,0.000000,0.000000,0.000000
12888197.000000,-2.288460,-1.662812,1.283159,-1.464580,1.699053,1.349075,-0.587043,0.283560,0.016537,1.116623,-0.251421,-0.175587,1.118880,-0.058460,2.133222,37.515911,-23.111465,-1.817445,0.351041,1.838485,-0.142960,0.000000,0.000000,0.000000,0.000000,0.000000,0.000000
12888198.000000,-2.288172,-1.662798,1.284309,-1.464822,1.698881,1.350195,-0.587097,0.282907,0.015777,1.141236,-0.249205,-0.175419,1.113850,-0.052991,2.109418,37.492107,-23.087662,-1.718263,0.386747,1.800033,-0.149369,0.000000,0.000000,0.000000,0.000000,0.000000,0.000000
12888199.000000,-2.287901,-1.662778,1.285428,-1.465065,1.698723,1.351284,-0.587145,0.280740,0.017066,1.133528,-0.244645,-0.171927,1.102328,-0.051953,2.208601,37.392925,-22.964676,-1.742067,0.332731,1.844894,-0.196061,0.000000,0.000000,0.000000,0.000000,0.000000,0.000000
12888200.000000,-2.287629,-1.662765,1.286567,-1.465304,1.698554,1.352412,-0.587204,0.276252,0.015591,1.130459,-0.239967,-0.169742,1.105956,-0.055131,2.331586,37.392925,-22.917068,-1.718263,0.297025,1.741439,-0.142960,0.000000,0.000000,0.000000,0.000000,0.000000,0.000000
12888201.000000,-2.287357,-1.662756,1.287694,-1.465537,1.698382,1.353524,-0.587252,0.274577,0.013283,1.131327,-0.235650,-0.167247,1.128744,-0.053700,2.430768,37.444500,-22.917068,-1.742067,0.351041,1.630660,-0.182328,0.000000,0.000000,0.000000,0.000000,0.000000,0.000000
12888202.000000,-2.287086,-1.662742,1.288846,-1.465774,1.698217,1.354640,-0.587308,0.270632,0.010459,1.137150,-0.237505,-0.163046,1.123389,-0.055448,2.506147,37.420696,-23.087662,-1.694460,0.351041,1.649886,-0.155778,0.000000,0.000000,0.000000,0.000000,0.000000,0.000000
12888203.000000,-2.286807,-1.662731,1.289988,-1.466010,1.698054,1.355750,-0.587359,0.273470,0.007757,1.130798,-0.236241,-0.159937,1.115604,-0.054998,2.482343,37.420696,-23.135269,-1.619081,0.351041,1.747848,-0.175919,0.000000,0.000000,0.000000,0.000000,0.000000,0.000000
12888204.000000,-2.286537,-1.662722,1.291113,-1.466240,1.697889,1.356852,-0.587418,0.272220,0.007740,1.125728,-0.230479,-0.164423,1.114134,-0.056645,2.430768,37.468304,-23.163040,-1.595277,0.398649,1.747848,-0.142960,0.000000,0.000000,0.000000,0.000000,0.000000,0.000000
12888205.000000,-2.286267,-1.662715,1.292243,-1.466461,1.697724,1.357984,-0.587467,0.269770,0.007908,1.125438,-0.229435,-0.161810,1.117499,-0.055016,2.406965,37.515911,-23.063858,-1.595277,0.428861,1.591293,-0.182328,0.000000,0.000000,0.000000,0.000000,0.000000,0.000000
12888206.000000,-2.285999,-1.662705,1.293354,-1.466687,1.697567,1.359101,-0.587523,0.277581,0.008543,1.119187,-0.227355,-0.158185,1.141779,-0.055183,2.383161,37.539715,-22.988480,-1.642885,0.398649,1.591293,-0.188737,0.000000,0.000000,0.000000,0.000000,0.000000,0.000000
12888207.000000,-2.285720,-1.662689,1.294476,-1.466913,1.697415,1.360191,-0.587579,0.276900,0.013877,1.114450,-0.223834,-0.157999,1.124758,-0.057386,2.260175,37.492107,-22.770279,-1.642885,0.315336,1.714889,-0.142960,0.000000,0.000000,0.000000,0.000000,0.000000,0.000000
12888208.000000,-2.285442,-1.662682,1.295594,-1.467125,1.697246,1.361299,-0.587625,0.271615,0.012433,1.112658,-0.220740,-0.160918,1.114654,-0.050366,2.160993,37.539715,-22.500504,-1.670656,0.315336,1.727706,-0.196061,0.000000,0.000000,0.000000,0.000000,0.000000,0.000000
12888209.000000,-2.285169,-1.662668,1.296701,-1.467340,1.697076,1.362397,-0.587681,0.276347,0.013141,1.112920,-0.219539,-0.161251,1.109771,-0.053018,2.010236,37.515911,-22.401321,-1.642885,0.386747,1.727706,-0.169511,0.000000,0.000000,0.000000,0.000000,0.000000,0.000000
12888210.000000,-2.284894,-1.662651,1.297834,-1.467553,1.696923,1.363516,-0.587730,0.271298,0.015256,1.112387,-0.216913,-0.161273,1.105767,-0.052858,1.887250,37.420696,-22.401321,-1.694460,0.327238,1.689254,-0.196061,0.000000,0.000000,0.000000,0.000000,0.000000,0.000000
12888211.000000,-2.284618,-1.662635,1.298965,-1.467758,1.696773,1.364643,-0.587779,0.277619,0.014142,1.142040,-0.215422,-0.157183,1.108412,-0.053611,1.740461,37.297710,-22.647293,-1.742067,0.279630,1.670028,-0.202470,0.000000,0.000000,0.000000,0.000000,0.000000,0.000000
12888212.000000,-2.284350,-1.662620,1.300109,-1.467959,1.696613,1.365748,-0.587835,0.275644,0.010806,1.139637,-0.210070,-0.157881,1.104985,-0.052396,1.641279,37.273907,-22.964676,-1.817445,0.332731,1.637069,-0.130143,0.000000,0.000000,0.000000,0.000000,0.000000,0.000000
12888213.000000,-2.284082,-1.662605,1.301267,-1.468152,1.696460,1.366861,-0.587877,0.272302,0.014666,1.142052,-0.205853,-0.155760,1.102737,-0.051096,1.613508,37.246136,-23.333633,-1.916628,0.332731,1.649886,-0.188737,0.000000,0.000000,0.000000,0.000000,0.000000,0.000000
12888214.000000,-2.283806,-1.662601,1.302410,-1.468352,1.696306,1.367946,-0.587927,0.271065,0.011586,1.143049,-0.206529,-0.154857,1.097398,-0.053254,1.415143,37.345318,-23.678787,-1.992006,0.339139,1.727706,-0.169511,0.000000,0.000000,0.000000,0.000000,0.000000,0.000000
12888215.000000,-2.283539,-1.662591,1.303550,-1.468537,1.696147,1.369038,-0.587974,0.269669,0.011321,1.139393,-0.197327,-0.159367,1.101573,-0.053597,1.367536,37.369122,-23.825577,-2.214174,0.356534,1.884261,-0.182328,0.000000,0.000000,0.000000,0.000000,0.000000,0.000000
12888216.000000,-2.283266,-1.662579,1.304695,-1.468723,1.695987,1.370146,-0.588018,0.269090,0.009672,1.161297,-0.191153,-0.158193,1.104239,-0.053404,1.216779,37.321514,-23.972366,-2.285585,0.381254,1.884261,-0.215287,0.000000,0.000000,0.000000,0.000000,0.000000,0.000000
12888217.000000,-2.282995,-1.662573,1.305809,-1.468899,1.695835,1.371227,-0.588066,0.272197,0.012301,1.147486,-0.187829,-0.156346,1.103048,-0.055323,0.994611,37.369122,-23.896988,-2.412538,0.381254,1.858627,-0.188737,0.000000,0.000000,0.000000,0.000000,0.000000,0.000000
12888218.000000,-2.282730,-1.662572,1.306929,-1.469079,1.695681,1.372323,-0.588117,0.272515,0.009014,1.141679,-0.184474,-0.150432,1.094366,-0.052294,0.871625,37.515911,-23.627213,-2.460146,0.393156,1.851302,-0.149369,0.000000,0.000000,0.000000,0.000000,0.000000,0.000000
12888219.000000,-2.282462,-1.662570,1.308040,-1.469257,1.695535,1.373404,-0.588161,0.272847,0.004210,1.128948,-0.179304,-0.150221,1.088041,-0.052942,0.724836,37.638897,-23.432816,-2.483949,0.381254,1.786300,-0.149369,0.000000,0.000000,0.000000,0.000000,0.000000,0.000000
12888220.000000,-2.282186,-1.662578,1.309156,-1.469429,1.695395,1.374501,-0.588199,0.274506,0.001469,1.118502,-0.177232,-0.144091,1.083631,-0.047137,0.502668,37.861065,-23.087662,-2.559328,0.339139,1.812850,-0.202470,0.000000,0.000000,0.000000,0.000000,0.000000,0.000000
12888221.000000,-2.281920,-1.662571,1.310286,-1.469599,1.695257,1.375611,-0.588250,0.270273,0.001840,1.118877,-0.174937,-0.143799,1.082674,-0.046987,0.375715,37.861065,-22.940872,-2.535524,0.285123,1.793624,-0.136552,0.000000,0.000000,0.000000,0.000000,0.000000,0.000000
12888222.000000,-2.281655,-1.662574,1.311391,-1.469755,1.695125,1.376729,-0.588285,0.266993,-0.001005,1.112667,-0.168541,-0.139377,1.093811,-0.041880,0.252729,37.984051,-22.770279,-2.682314,0.237516,1.559249,-0.208878,0.000000,0.000000,0.000000,0.000000,0.000000,0.000000
12888223.000000,-2.281391,-1.662574,1.312524,-1.469909,1.694984,1.377850,-0.588327,0.264195,-0.002413,1.112926,-0.168999,-0.142281,1.096924,-0.041678,0.105939,38.079266,-22.794083,-2.856874,0.231107,1.389877,-0.188737,0.000000,0.000000,0.000000,0.000000,0.000000,0.000000
12888224.000000,-2.281144,-1.662569,1.313641,-1.470063,1.694840,1.378959,-0.588372,0.261563,0.001348,1.112535,-0.162358,-0.140209,1.098712,-0.042622,0.105939,38.103069,-22.841690,-2.979860,0.237516,1.409103,-0.136552,0.000000,0.000000,0.000000,0.000000,0.000000,0.000000
12888225.000000,-2.280890,-1.662565,1.314768,-1.470199,1.694698,1.380043,-0.588408,0.259132,0.001433,1.109744,-0.154325,-0.143866,1.096529,-0.043757,0.054365,38.103069,-22.893265,-3.225832,0.255826,1.546432,-0.188737,0.000000,0.000000,0.000000,0.000000,0.000000,0.000000
12888226.000000,-2.280635,-1.662568,1.315899,-1.470340,1.694555,1.381142,-0.588454,0.256478,-0.000963,1.108441,-0.152037,-0.144138,1.094801,-0.044730,0.030561,38.202251,-22.917068,-3.325014,0.344633,1.656295,-0.122819,0.000000,0.000000,0.000000,0.000000,0.000000,0.000000
12888227.000000,-2.280385,-1.662569,1.317011,-1.470472,1.694417,1.382235,-0.588486,0.252247,-0.000898,1.109369,-0.145601,-0.137301,1.097260,-0.040407,-0.017047,38.226055,-22.964676,-3.475771,0.374845,1.741439,-0.188737,0.000000,0.000000,0.000000,0.000000,0.000000,0.000000
12888228.000000,-2.280128,-1.662568,1.318131,-1.470609,1.694282,1.383342,-0.588529,0.254159,-0.000373,1.102162,-0.145588,-0.135032,1.098669,-0.041265,-0.167803,38.226055,-22.964676,-3.570986,0.356534,1.786300,-0.149369,0.000000,0.000000,0.000000,0.000000,0.000000,0.000000
12888229.000000,-2.279868,-1.662560,1.319239,-1.470741,1.694160,1.384464,-0.588566,0.259036,0.003354,1.125974,-0.142967,-0.129874,1.092548,-0.040224,-0.366168,38.079266,-22.964676,-3.646364,0.237516,1.786300,-0.155778,0.000000,0.000000,0.000000,0.000000,0.000000,0.000000
12888230.000000,-2.279614,-1.662557,1.320346,-1.470878,1.694035,1.385566,-0.588605,0.256845,0.003477,1.114492,-0.139682,-0.128643,1.090077,-0.039859,-0.540728,38.031658,-22.718704,-3.622560,0.178007,1.727706,-0.149369,0.000000,0.000000,0.000000,0.000000,0.000000,0.000000
12888231.000000,-2.279354,-1.662558,1.321458,-1.471010,1.693902,1.386681,-0.588639,0.256342,0.002413,1.111739,-0.137868,-0.129751,1.089338,-0.037718,-0.810504,38.031658,-22.548111,-3.570986,0.178007,1.714889,-0.188737,0.000000,0.000000,0.000000,0.000000,0.000000,0.000000
12888232.000000,-2.279102,-1.662552,1.322557,-1.471134,1.693779,1.387772,-0.588680,0.256970,0.002794,1.105084,-0.133898,-0.129256,1.088236,-0.043289,-0.961260,37.984051,-22.425125,-3.622560,0.141385,1.767074,-0.169511,0.000000,0.000000,0.000000,0.000000,0.000000,0.000000
12888233.000000,-2.278847,-1.662543,1.323687,-1.471260,1.693644,1.388883,-0.588716,0.254161,0.004793,1.107320,-0.129015,-0.130146,1.090848,-0.042161,-1.108050,37.861065,-22.571915,-3.622560,0.135892,1.754256,-0.163102,0.000000,0.000000,0.000000,0.000000,0.000000,0.000000
12888234.000000,-2.278600,-1.662536,1.324828,-1.471372,1.693509,1.390001,-0.588751,0.250228,0.005555,1.118180,-0.127336,-0.127412,1.089275,-0.040517,-1.183428,37.761883,-22.770279,-3.797121,0.171598,1.702071,-0.182328,0.000000,0.000000,0.000000,0.000000,0.000000,0.000000
12888235.000000,-2.278359,-1.662530,1.325958,-1.471487,1.693382,1.391096,-0.588792,0.248342,0.005497,1.119660,-0.123593,-0.125143,1.096212,-0.040447,-1.231036,37.686504,-23.135269,-3.943910,0.201810,1.676437,-0.155778,0.000000,0.000000,0.000000,0.000000,0.000000,0.000000
12888236.000000,-2.278116,-1.662527,1.327109,-1.471595,1.693252,1.392206,-0.588826,0.242123,0.004801,1.121808,-0.117484,-0.128528,1.097298,-0.038448,-1.306414,37.638897,-23.603409,-4.118471,0.249418,1.670028,-0.188737,0.000000,0.000000,0.000000,0.000000,0.000000,0.000000
12888237.000000,-2.277879,-1.662528,1.328236,-1.471707,1.693120,1.393270,-0.588867,0.242519,0.002104,1.131151,-0.115464,-0.125971,1.116525,-0.040031,-1.405596,37.686504,-23.948563,-4.189882,0.285123,1.865035,-0.142960,0.000000,0.000000,0.000000,0.000000,0.000000,0.000000
12888238.000000,-2.277643,-1.662529,1.329381,-1.471820,1.693003,1.394354,-0.588900,0.237841,0.003486,1.130457,-0.115753,-0.125895,1.100807,-0.033147,-1.453204,37.738079,-24.265945,-4.189882,0.243009,2.007858,-0.182328,0.000000,0.000000,0.000000,0.000000,0.000000,0.000000
12888239.000000,-2.277405,-1.662536,1.330521,-1.471925,1.692879,1.395452,-0.588932,0.238203,-0.000270,1.124326,-0.114355,-0.127040,1.088629,-0.033602,-1.504779,37.861065,-24.341324,-4.241457,0.237516,2.014266,-0.202470,0.000000,0.000000,0.000000,0.000000,0.000000,0.000000
12888240.000000,-2.277164,-1.662541,1.331640,-1.472033,1.692763,1.396540,-0.588975,0.236262,-0.001638,1.126899,-0.111725,-0.122053,1.086572,-0.037802,-1.627764,37.932476,-24.313553,-4.213686,0.189908,1.988631,-0.122819,0.000000,0.000000,0.000000,0.000000,0.000000,0.000000
12888241.000000,-2.276927,-1.662551,1.332762,-1.472139,1.692647,1.397645,-0.589001,0.234346,-0.004367,1.118598,-0.109238,-0.117637,1.086645,-0.035107,-1.750750,38.079266,-24.190567,-4.213686,0.123990,1.884261,-0.188737,0.000000,0.000000,0.000000,0.000000,0.000000,0.000000
12888242.000000,-2.276688,-1.662557,1.333873,-1.472254,1.692524,1.398741,-0.589041,0.238545,-0.003998,1.114277,-0.108840,-0.116397,1.087076,-0.037722,-1.849932,38.130840,-24.019974,-4.142274,0.112089,1.916305,-0.136552,0.000000,0.000000,0.000000,0.000000,0.000000,0.000000
12888243.000000,-2.276452,-1.662572,1.334981,-1.472366,1.692400,1.399816,-0.589073,0.237233,-0.007124,1.106947,-0.108381,-0.118053,1.083337,-0.032413,-2.000689,38.325237,-23.651016,-4.066896,0.166105,1.923629,-0.149369,0.000000,0.000000,0.000000,0.000000,0.000000,0.000000
12888244.000000,-2.276224,-1.662580,1.336093,-1.472466,1.692269,1.400918,-0.589098,0.233194,-0.007559,1.100617,-0.105696,-0.119275,1.085962,-0.027281,-2.048296,38.448223,-23.357437,-4.090700,0.243009,1.851302,-0.196061,0.000000,0.000000,0.000000,0.000000,0.000000,0.000000
12888245.000000,-2.276004,-1.662582,1.337208,-1.472568,1.692147,1.402000,-0.589130,0.229734,-0.011984,1.105639,-0.103597,-0.118088,1.092425,-0.025293,-2.048296,38.472027,-23.333633,-4.118471,0.255826,1.858627,-0.196061,0.000000,0.000000,0.000000,0.000000,0.000000,0.000000
12888246.000000,-2.275784,-1.662593,1.338328,-1.472661,1.692034,1.403105,-0.589167,0.224853,-0.011365,1.105353,-0.099535,-0.114576,1.094774,-0.030713,-1.949114,38.595013,-23.234451,-4.265260,0.195402,1.779891,-0.136552,0.000000,0.000000,0.000000,0.000000,0.000000,0.000000
12888247.000000,-2.275565,-1.662600,1.339438,-1.472756,1.691912,1.404219,-0.589197,0.224484,-0.010178,1.132219,-0.095920,-0.115191,1.093150,-0.032607,-1.873736,38.690228,-23.258255,-4.312868,0.213712,1.689254,-0.130143,0.000000,0.000000,0.000000,0.000000,0.000000,0.000000
12888248.000000,-2.275345,-1.662608,1.340566,-1.472843,1.691798,1.405303,-0.589219,0.221125,-0.009386,1.127824,-0.094168,-0.113619,1.089067,-0.026606,-1.901507,38.789410,-23.357437,-4.439821,0.183500,1.662704,-0.196061,0.000000,0.000000,0.000000,0.000000,0.000000,0.000000
12888249.000000,-2.275127,-1.662613,1.341699,-1.472943,1.691680,1.406395,-0.589257,0.218397,-0.007581,1.126042,-0.098016,-0.112436,1.079229,-0.026962,-1.949114,38.837017,-23.456619,-4.364442,0.154203,1.747848,-0.136552,0.000000,0.000000,0.000000,0.000000,0.000000,0.000000
12888250.000000,-2.274909,-1.662621,1.342812,-1.473038,1.691564,1.407474,-0.589283,0.214034,-0.006975,1.126565,-0.095715,-0.112767,1.077230,-0.028107,-2.024493,38.912395,-23.555801,-4.364442,0.166105,1.786300,-0.175919,0.000000,0.000000,0.000000,0.000000,0.000000,0.000000
12888251.000000,-2.274691,-1.662629,1.343932,-1.473131,1.691450,1.408574,-0.589316,0.214881,-0.009598,1.120703,-0.090826,-0.111876,1.081909,-0.032068,-2.123675,38.983807,-23.603409,-4.364442,0.135892,1.800033,-0.136552,0.000000,0.000000,0.000000,0.000000,0.000000,0.000000
12888252.000000,-2.274471,-1.662636,1.345055,-1.473222,1.691324,1.409682,-0.589338,0.215407,-0.007957,1.113957,-0.087668,-0.118233,1.084526,-0.027503,-2.246661,39.035381,-23.579605,-4.340639,0.166105,1.702071,-0.169511,0.000000,0.000000,0.000000,0.000000,0.000000,0.000000
12888253.000000,-2.274256,-1.662639,1.346152,-1.473307,1.691198,1.410763,-0.589367,0.216421,-0.005569,1.114460,-0.087120,-0.123414,1.086713,-0.025887,-2.397418,39.035381,-23.432816,-4.364442,0.207303,1.695663,-0.155778,0.000000,0.000000,0.000000,0.000000,0.000000,0.000000
12888254.000000,-2.274042,-1.662648,1.347259,-1.473391,1.691074,1.411856,-0.589395,0.216142,-0.008856,1.100639,-0.084868,-0.125508,1.084666,-0.028497,-2.468829,39.106792,-23.286026,-4.340639,0.213712,1.721298,-0.163102,0.000000,0.000000,0.000000,0.000000,0.000000,0.000000
12888255.000000,-2.273831,-1.662649,1.348348,-1.473471,1.690943,1.412937,-0.589415,0.211946,-0.008928,1.094344,-0.081426,-0.124927,1.109534,-0.024342,-2.544207,39.082989,-23.087662,-4.388246,0.279630,1.721298,-0.208878,0.000000,0.000000,0.000000,0.000000,0.000000,0.000000
12888256.000000,-2.273620,-1.662650,1.349471,-1.473553,1.690822,1.414028,-0.589447,0.211800,-0.006531,1.102918,-0.080503,-0.122708,1.099277,-0.025610,-2.619586,39.082989,-23.163040,-4.364442,0.303434,1.760665,-0.142960,0.000000,0.000000,0.000000,0.000000,0.000000,0.000000
12888257.000000,-2.273413,-1.662648,1.350596,-1.473633,1.690711,1.415128,-0.589469,0.212013,-0.006140,1.103969,-0.080380,-0.121911,1.088606,-0.021802,-2.690997,39.011578,-23.286026,-4.312868,0.231107,1.735030,-0.196061,0.000000,0.000000,0.000000,0.000000,0.000000,0.000000
12888258.000000,-2.273208,-1.662645,1.351726,-1.473707,1.690593,1.416229,-0.589497,0.208667,-0.002908,1.111414,-0.078954,-0.119314,1.089632,-0.018651,-2.766375,38.936199,-23.702591,-4.312868,0.213712,1.611434,-0.136552,0.000000,0.000000,0.000000,0.000000,0.000000,0.000000
12888259.000000,-2.273013,-1.662646,1.352873,-1.473783,1.690481,1.417333,-0.589518,0.203244,-0.002372,1.116993,-0.080726,-0.116442,1.084124,-0.021563,-2.742571,38.936199,-24.142960,-4.312868,0.171598,1.584884,-0.182328,0.000000,0.000000,0.000000,0.000000,0.000000,0.000000
12888260.000000,-2.272821,-1.662642,1.354000,-1.473861,1.690368,1.418434,-0.589541,0.201858,-0.000236,1.117823,-0.076887,-0.115360,1.083856,-0.025164,-2.690997,38.864788,-24.511917,-4.289064,0.154203,1.649886,-0.202470,0.000000,0.000000,0.000000,0.000000,0.000000,0.000000
12888261.000000,-2.272632,-1.662649,1.355140,-1.473925,1.690252,1.419497,-0.589566,0.199528,-0.005242,1.117080,-0.069768,-0.116073,1.077159,-0.025090,-2.667193,38.936199,-24.805496,-4.439821,0.183500,1.884261,-0.163102,0.000000,0.000000,0.000000,0.000000,0.000000,0.000000
12888262.000000,-2.272444,-1.662653,1.356274,-1.473995,1.690129,1.420573,-0.589591,0.196183,-0.005055,1.117634,-0.068336,-0.121872,1.072144,-0.023939,-2.591815,38.983807,-24.928482,-4.439821,0.243009,2.112228,-0.149369,0.000000,0.000000,0.000000,0.000000,0.000000,0.000000
12888263.000000,-2.272257,-1.662658,1.357387,-1.474060,1.690013,1.421650,-0.589616,0.195236,-0.005469,1.115318,-0.067069,-0.119724,1.081268,-0.027782,-2.568011,39.059185,-24.976089,-4.439821,0.243009,2.190048,-0.136552,0.000000,0.000000,0.000000,0.000000,0.000000,0.000000
12888264.000000,-2.272065,-1.662654,1.358506,-1.474127,1.689894,1.422747,-0.589631,0.191967,-0.001577,1.110827,-0.066684,-0.118005,1.085182,-0.023508,-2.591815,38.960003,-24.904678,-4.412050,0.243009,2.163497,-0.188737,0.000000,0.000000,0.000000,0.000000,0.000000,0.000000
12888265.000000,-2.271875,-1.662655,1.359625,-1.474201,1.689785,1.423849,-0.589658,0.191041,-0.003826,1.129489,-0.069317,-0.115723,1.081185,-0.023884,-2.667193,38.936199,-24.734085,-4.265260,0.213712,2.085677,-0.149369,0.000000,0.000000,0.000000,0.000000,0.000000,0.000000
12888266.000000,-2.271683,-1.662657,1.360727,-1.474270,1.689670,1.424942,-0.589675,0.191571,-0.003511,1.119700,-0.066505,-0.116392,1.080570,-0.021333,-2.817950,38.960003,-24.559525,-4.166078,0.243009,1.942855,-0.182328,0.000000,0.000000,0.000000,0.000000,0.000000,0.000000
12888267.000000,-2.271506,-1.662657,1.361835,-1.474342,1.689561,1.426036,-0.589697,0.183898,-0.001530,1.110763,-0.068665,-0.111250,1.072665,-0.020542,-2.790179,38.912395,-24.242142,-4.019289,0.255826,1.909896,-0.188737,0.000000,0.000000,0.000000,0.000000,0.000000,0.000000
12888268.000000,-2.271332,-1.662663,1.362940,-1.474411,1.689458,1.427105,-0.589720,0.178232,-0.001803,1.108040,-0.069549,-0.110880,1.070454,-0.020955,-2.742571,38.936199,-24.142960,-3.892336,0.231107,1.981307,-0.169511,0.000000,0.000000,0.000000,0.000000,0.000000,0.000000
12888269.000000,-2.271166,-1.662667,1.364056,-1.474470,1.689357,1.428198,-0.589738,0.172022,-0.001929,1.106171,-0.066816,-0.109966,1.071136,-0.019978,-2.591815,38.960003,-24.119156,-3.920107,0.189908,1.981307,-0.182328,0.000000,0.000000,0.000000,0.000000,0.000000,0.000000
12888270.000000,-2.271008,-1.662666,1.365181,-1.474518,1.689255,1.429303,-0.589762,0.164925,-0.000300,1.108055,-0.058810,-0.104813,1.074713,-0.021413,-2.345843,38.912395,-24.119156,-4.066896,0.154203,1.909896,-0.136552,0.000000,0.000000,0.000000,0.000000,0.000000,0.000000
12888271.000000,-2.270855,-1.662666,1.366289,-1.474568,1.689156,1.430389,-0.589775,0.163901,-0.002166,1.105259,-0.056890,-0.101434,1.081321,-0.018505,-2.072100,38.864788,-24.142960,-4.189882,0.123990,1.865035,-0.188737,0.000000,0.000000,0.000000,0.000000,0.000000,0.000000
12888272.000000,-2.270701,-1.662671,1.367416,-1.474613,1.689056,1.431489,-0.589797,0.160410,-0.002321,1.109684,-0.052113,-0.099424,1.084726,-0.019341,-1.873736,38.888592,-24.265945,-4.340639,0.117582,1.793624,-0.169511,0.000000,0.000000,0.000000,0.000000,0.000000,0.000000
12888273.000000,-2.270547,-1.662670,1.368519,-1.474671,1.688949,1.432580,-0.589815,0.160135,-0.000581,1.108229,-0.050181,-0.105158,1.109535,-0.019134,-1.750750,38.837017,-24.388931,-4.289064,0.171598,1.871444,-0.175919,0.000000,0.000000,0.000000,0.000000,0.000000,0.000000
12888274.000000,-2.270388,-1.662673,1.369641,-1.474726,1.688842,1.433658,-0.589837,0.158988,-0.003614,1.109762,-0.049018,-0.109472,1.095342,-0.019984,-1.726946,38.837017,-24.511917,-4.213686,0.231107,1.909896,-0.149369,0.000000,0.000000,0.000000,0.000000,0.000000,0.000000
12888275.000000,-2.270233,-1.662682,1.370748,-1.474782,1.688732,1.434756,-0.589854,0.157870,-0.007810,1.107068,-0.049070,-0.107227,1.085099,-0.019838,-1.726946,38.912395,-24.341324,-4.090700,0.279630,1.890670,-0.142960,0.000000,0.000000,0.000000,0.000000,0.000000,0.000000
12888276.000000,-2.270082,-1.662683,1.371836,-1.474836,1.688626,1.435848,-0.589871,0.156352,-0.008368,1.100861,-0.048205,-0.109180,1.085399,-0.019265,-1.703143,38.888592,-24.218338,-3.991518,0.297025,1.819259,-0.149369,0.000000,0.000000,0.000000,0.000000,0.000000,0.000000
12888277.000000,-2.269938,-1.662680,1.372934,-1.474887,1.688530,1.436955,-0.589887,0.149536,-0.003943,1.089408,-0.046993,-0.106645,1.084255,-0.017885,-1.603961,38.789410,-24.019974,-3.920107,0.207303,1.727706,-0.182328,0.000000,0.000000,0.000000,0.000000,0.000000,0.000000
12888278.000000,-2.269795,-1.662679,1.374019,-1.474930,1.688431,1.438053,-0.589901,0.151577,-0.002029,1.112109,-0.045023,-0.102493,1.081049,-0.017835,-1.528582,38.741802,-23.849380,-3.892336,0.178007,1.747848,-0.196061,0.000000,0.000000,0.000000,0.000000,0.000000,0.000000
12888279.000000,-2.269659,-1.662677,1.375116,-1.474969,1.688334,1.439135,-0.589922,0.146595,-0.003700,1.100823,-0.042134,-0.100300,1.077548,-0.015442,-1.429400,38.690228,-23.678787,-3.920107,0.171598,1.786300,-0.142960,0.000000,0.000000,0.000000,0.000000,0.000000,0.000000
12888280.000000,-2.269525,-1.662678,1.376222,-1.475016,1.688231,1.440231,-0.589934,0.142354,-0.002463,1.095002,-0.042726,-0.098879,1.077767,-0.014239,-1.330218,38.666424,-23.603409,-3.844728,0.171598,1.819259,-0.196061,0.000000,0.000000,0.000000,0.000000,0.000000,0.000000
12888281.000000,-2.269393,-1.662677,1.377338,-1.475059,1.688129,1.441312,-0.589955,0.139654,-0.001500,1.108199,-0.041859,-0.106831,1.088662,-0.017431,-1.231036,38.642620,-23.873184,-3.820925,0.178007,1.890670,-0.142960,0.000000,0.000000,0.000000,0.000000,0.000000,0.000000
12888282.000000,-2.269261,-1.662670,1.378468,-1.475103,1.688032,1.442412,-0.589966,0.136975,0.001009,1.108720,-0.042367,-0.108193,1.090022,-0.016517,-1.108050,38.543438,-24.265945,-3.745546,0.166105,1.903487,-0.175919,0.000000,0.000000,0.000000,0.000000,0.000000,0.000000
12888283.000000,-2.269138,-1.662670,1.379603,-1.475145,1.687935,1.443521,-0.589979,0.133182,0.000439,1.110280,-0.039705,-0.104004,1.094392,-0.016715,-0.933489,38.543438,-24.658707,-3.670168,0.147794,1.812850,-0.188737,0.000000,0.000000,0.000000,0.000000,0.000000,0.000000
12888284.000000,-2.269012,-1.662674,1.380720,-1.475184,1.687827,1.444601,-0.589997,0.130092,-0.000532,1.115959,-0.039860,-0.104475,1.084377,-0.018529,-0.862078,38.571209,-25.027664,-3.622560,0.219205,1.832076,-0.155778,0.000000,0.000000,0.000000,0.000000,0.000000,0.000000
12888285.000000,-2.268889,-1.662676,1.381846,-1.475216,1.687723,1.445690,-0.590009,0.127497,-0.001599,1.109784,-0.037989,-0.102719,1.076870,-0.017826,-0.786700,38.618816,-25.273636,-3.670168,0.249418,1.890670,-0.175919,0.000000,0.000000,0.000000,0.000000,0.000000,0.000000
12888286.000000,-2.268766,-1.662678,1.382947,-1.475253,1.687625,1.446763,-0.590026,0.122926,-0.001721,1.104553,-0.038884,-0.099591,1.072557,-0.018839,-0.762896,38.642620,-25.297440,-3.622560,0.225614,1.995040,-0.155778,0.000000,0.000000,0.000000,0.000000,0.000000,0.000000
12888287.000000,-2.268642,-1.662686,1.384063,-1.475288,1.687519,1.447848,-0.590037,0.123543,-0.003541,1.105652,-0.036987,-0.103708,1.070705,-0.017862,-0.762896,38.741802,-25.297440,-3.547182,0.243009,2.066451,-0.182328,0.000000,0.000000,0.000000,0.000000,0.000000,0.000000
12888288.000000,-2.268517,-1.662696,1.385160,-1.475319,1.687412,1.448950,-0.590051,0.124447,-0.005293,1.098560,-0.034254,-0.106391,1.075942,-0.019005,-0.762896,38.864788,-25.003860,-3.523378,0.255826,1.955673,-0.163102,0.000000,0.000000,0.000000,0.000000,0.000000,0.000000
12888289.000000,-2.268399,-1.662703,1.386253,-1.475362,1.687308,1.450028,-0.590060,0.121379,-0.005798,1.096500,-0.036388,-0.104040,1.079849,-0.017533,-0.762896,38.960003,-24.829300,-3.325014,0.279630,1.851302,-0.202470,0.000000,0.000000,0.000000,0.000000,0.000000,0.000000
12888290.000000,-2.268283,-1.662705,1.387356,-1.475399,1.687204,1.451114,-0.590076,0.118806,-0.007059,1.092972,-0.036510,-0.101335,1.076652,-0.014984,-0.735125,38.960003,-24.634903,-3.178224,0.273221,1.838485,-0.155778,0.000000,0.000000,0.000000,0.000000,0.000000,0.000000
12888291.000000,-2.268163,-1.662711,1.388430,-1.475438,1.687103,1.452206,-0.590084,0.124150,-0.006199,1.089198,-0.036610,-0.099396,1.098795,-0.009671,-0.786700,39.011578,-24.289749,-3.027467,0.267728,1.793624,-0.196061,0.000000,0.000000,0.000000,0.000000,0.000000,0.000000
12888292.000000,-2.268055,-1.662719,1.389540,-1.475466,1.687002,1.453281,-0.590103,0.118369,-0.009185,1.094124,-0.036653,-0.103718,1.088082,-0.009770,-0.687518,39.082989,-24.265945,-3.003664,0.291532,1.786300,-0.130143,0.000000,0.000000,0.000000,0.000000,0.000000,0.000000
12888293.000000,-2.267949,-1.662719,1.390644,-1.475493,1.686909,1.454380,-0.590114,0.111477,-0.008578,1.091453,-0.033740,-0.098864,1.080104,-0.011255,-0.612139,39.035381,-24.119156,-2.979860,0.231107,1.735030,-0.142960,0.000000,0.000000,0.000000,0.000000,0.000000,0.000000
12888294.000000,-2.267853,-1.662721,1.391739,-1.475509,1.686810,1.455479,-0.590124,0.103536,-0.008134,1.091079,-0.027764,-0.097646,1.083579,-0.012654,-0.413775,38.983807,-24.166763,-3.126650,0.225614,1.597701,-0.155778,0.000000,0.000000,0.000000,0.000000,0.000000,0.000000
12888295.000000,-2.267753,-1.662720,1.392853,-1.475521,1.686714,1.456580,-0.590137,0.102450,-0.007603,1.095475,-0.024215,-0.096295,1.086568,-0.015175,-0.266986,38.912395,-24.265945,-3.249635,0.207303,1.559249,-0.130143,0.000000,0.000000,0.000000,0.000000,0.000000,0.000000
12888296.000000,-2.267649,-1.662719,1.393953,-1.475539,1.686616,1.457681,-0.590138,0.106616,-0.002972,1.113554,-0.021470,-0.096779,1.083878,-0.008621,-0.215411,38.789410,-24.412735,-3.249635,0.225614,1.552840,-0.202470,0.000000,0.000000,0.000000,0.000000,0.000000,0.000000
12888297.000000,-2.267549,-1.662722,1.395055,-1.475557,1.686518,1.458759,-0.590158,0.108132,-0.002010,1.102788,-0.016829,-0.097966,1.076122,-0.013744,-0.215411,38.765606,-24.436539,-3.225832,0.273221,1.682845,-0.136552,0.000000,0.000000,0.000000,0.000000,0.000000,0.000000
12888298.000000,-2.267448,-1.662729,1.396158,-1.475571,1.686413,1.459844,-0.590163,0.105529,-0.002336,1.098622,-0.016534,-0.098136,1.072876,-0.013003,-0.215411,38.789410,-24.365128,-3.202028,0.308927,1.832076,-0.188737,0.000000,0.000000,0.000000,0.000000,0.000000,0.000000
12888301.000000,-2.267141,-1.662733,1.399417,-1.475596,1.686133,1.463144,-0.590189,0.101038,-0.001624,1.080479,-0.014499,-0.092603,1.089280,-0.005453,-0.441546,38.595013,-23.920792,-3.178224,0.178007,1.800033,-0.188737,0.000000,0.000000,0.000000,0.000000,0.000000,0.000000
12888302.000000,-2.267038,-1.662735,1.400483,-1.475600,1.686039,1.464243,-0.590201,0.103837,-0.003512,1.073542,-0.009734,-0.089035,1.085455,-0.005084,-0.612139,38.543438,-23.627213,-3.225832,0.183500,1.676437,-0.163102,0.000000,0.000000,0.000000,0.000000,0.000000,0.000000
12888303.000000,-2.266942,-1.662733,1.401581,-1.475609,1.685942,1.465339,-0.590207,0.098658,-0.001850,1.073094,-0.011112,-0.092259,1.078544,-0.007473,-0.635943,38.495831,-23.678787,-3.202028,0.231107,1.702071,-0.188737,0.000000,0.000000,0.000000,0.000000,0.000000,0.000000
12888304.000000,-2.266845,-1.662734,1.402666,-1.475611,1.685854,1.466418,-0.590219,0.098857,-0.001701,1.079673,-0.011507,-0.092762,1.099433,-0.011270,-0.687518,38.495831,-23.702591,-3.202028,0.225614,1.819259,-0.163102,0.000000,0.000000,0.000000,0.000000,0.000000,0.000000
12888305.000000,-2.266748,-1.662733,1.403786,-1.475613,1.685766,1.467512,-0.590220,0.098634,-0.000370,1.088872,-0.009189,-0.088193,1.091520,-0.006472,-0.711321,38.448223,-24.071548,-3.178224,0.213712,1.865035,-0.215287,0.000000,0.000000,0.000000,0.000000,0.000000,0.000000
12888306.000000,-2.266663,-1.662737,1.404907,-1.475608,1.685675,1.468620,-0.590236,0.093977,-0.001623,1.091977,-0.005734,-0.089516,1.088565,-0.007424,-0.540728,38.495831,-24.436539,-3.225832,0.207303,1.806442,-0.149369,0.000000,0.000000,0.000000,0.000000,0.000000,0.000000
12888307.000000,-2.266573,-1.662735,1.406027,-1.475600,1.685592,1.469705,-0.590243,0.089563,-0.001279,1.105677,-0.003157,-0.084694,1.087596,-0.009232,-0.441546,38.495831,-24.904678,-3.277406,0.166105,1.760665,-0.169511,0.000000,0.000000,0.000000,0.000000,0.000000,0.000000
