chaoyuefei/paper-gmrm-data/robot_logs/s2_dq_mrm_min_0.30_log_20260314_172555.csv
# time_ms,q_0,q_1,q_2,q_3,q_4,q_5,q_6,dq_0,dq_1,dq_2,dq_3,dq_4,dq_5,dq_6,tau_J_0,tau_J_1,tau_J_2,tau_J_3,tau_J_4,tau_J_5,tau_J_6,O_dP_EE_c_0,O_dP_EE_c_1,O_dP_EE_c_2,O_dP_EE_c_3,O_dP_EE_c_4,O_dP_EE_c_5
11817526.000000,-2.418271,-1.662617,1.039421,-1.352491,1.798449,1.078664,-0.546423,0.000768,0.000167,0.000100,0.000221,0.000250,-0.000244,-0.001968,-0.068621,41.606182,-20.929459,-5.820436,0.859159,1.357833,0.081344,0.000000,0.000000,0.000000,0.000000,0.000000,0.000000
11817527.000000,-2.418273,-1.662616,1.039424,-1.352490,1.798448,1.078664,-0.546414,-0.000045,-0.000446,0.001180,0.000147,-0.000037,-0.000400,0.001638,-0.044818,41.629986,-20.977066,-5.820436,0.864652,1.364242,0.001693,0.000000,0.000000,0.000000,0.000000,0.000000,0.000000
11817528.000000,-2.418273,-1.662619,1.039419,-1.352491,1.798446,1.078664,-0.546418,-0.000030,-0.000854,-0.000883,-0.000459,-0.000703,-0.000030,-0.000400,-0.044818,41.653790,-20.905655,-5.796632,0.882963,1.357833,0.041976,0.000000,0.000000,0.000000,0.000000,0.000000,0.000000
11817529.000000,-2.418277,-1.662614,1.039419,-1.352491,1.798448,1.078664,-0.546416,-0.001226,0.000544,-0.000589,-0.000306,0.000210,-0.000257,0.000479,0.006757,41.606182,-20.905655,-5.796632,0.864652,1.364242,0.021835,0.000000,0.000000,0.000000,0.000000,0.000000,0.000000
11817530.000000,-2.418268,-1.662615,1.039421,-1.352492,1.798449,1.078663,-0.546420,0.005881,-0.000850,-0.000393,-0.001317,0.001225,-0.001358,-0.008292,0.252729,41.530804,-20.905655,-5.749025,0.835355,1.396285,0.001693,0.000000,0.000000,0.000000,0.000000,0.000000,0.000000
11817531.000000,-2.418255,-1.662624,1.039423,-1.352487,1.798447,1.078658,-0.546432,0.013729,-0.006760,-0.001468,-0.000705,0.003699,0.001897,-0.013772,1.216779,41.384014,-20.854080,-5.626039,0.757535,1.572067,-0.050492,0.000000,0.000000,0.000000,0.000000,0.000000,0.000000
11817532.000000,-2.418232,-1.662623,1.039437,-1.352482,1.798441,1.078657,-0.546460,0.018493,-0.001492,0.003394,0.000655,0.006230,0.003350,-0.019716,2.851301,40.943645,-20.905655,-5.399904,0.655912,1.793624,-0.056901,0.000000,0.000000,0.000000,0.000000,0.000000,0.000000
11817533.000000,-2.418180,-1.662620,1.039448,-1.352489,1.798427,1.078677,-0.546502,0.025758,0.000453,0.006348,-0.001731,-0.002679,0.009797,-0.029185,4.684186,40.427898,-20.806473,-5.007143,0.589994,1.884261,-0.056901,0.000000,0.000000,0.000000,0.000000,0.000000,0.000000
11817534.000000,-2.418120,-1.662618,1.039468,-1.352500,1.798399,1.078729,-0.546557,0.031591,0.001106,0.012671,-0.008173,-0.008135,0.025811,-0.034988,6.616254,39.916119,-20.731094,-4.661989,0.613798,1.793624,-0.083451,0.000000,0.000000,0.000000,0.000000,0.000000,0.000000
11817535.000000,-2.418026,-1.662617,1.039499,-1.352532,1.798358,1.078813,-0.546632,0.047210,0.001345,0.018022,-0.016815,-0.017974,0.047146,-0.051423,8.123822,39.400372,-20.683487,-4.142274,0.673307,1.565658,-0.044083,0.000000,0.000000,0.000000,0.000000,0.000000,0.000000
11817536.000000,-2.417922,-1.662615,1.039534,-1.352574,1.798306,1.078909,-0.546720,0.060620,0.003199,0.021374,-0.022944,-0.028231,0.064781,-0.060170,9.536176,38.936199,-20.608109,-3.745546,0.685209,1.396285,-0.097184,0.000000,0.000000,0.000000,0.000000,0.000000,0.000000
11817537.000000,-2.417810,-1.662613,1.039579,-1.352622,1.798241,1.079024,-0.546839,0.073590,0.006026,0.027809,-0.032111,-0.041361,0.083924,-0.079671,10.849347,38.543438,-20.560501,-3.424196,0.721830,1.312057,-0.056901,0.000000,0.000000,0.000000,0.000000,0.000000,0.000000
11817538.000000,-2.417680,-1.662607,1.039634,-1.352689,1.798161,1.079157,-0.546975,0.088679,0.005501,0.035617,-0.043323,-0.052664,0.099579,-0.102933,11.912580,38.130840,-20.512894,-3.055238,0.679716,1.324874,-0.037675,0.000000,0.000000,0.000000,0.000000,0.000000,0.000000
11817539.000000,-2.417541,-1.662603,1.039703,-1.352755,1.798071,1.079304,-0.547125,0.102925,0.006154,0.047774,-0.052837,-0.071508,0.112439,-0.117047,12.928205,37.809490,-20.485123,-2.904482,0.547880,1.442062,-0.097184,0.000000,0.000000,0.000000,0.000000,0.000000,0.000000
11817540.000000,-2.417389,-1.662594,1.039785,-1.352841,1.797951,1.079474,-0.547296,0.117361,0.010341,0.059206,-0.067409,-0.090276,0.136565,-0.136167,13.793073,37.468304,-20.536697,-2.706117,0.506681,1.565658,-0.037675,0.000000,0.000000,0.000000,0.000000,0.000000,0.000000
11817541.000000,-2.417218,-1.662575,1.039888,-1.352941,1.797818,1.079690,-0.547464,0.133307,0.011610,0.072956,-0.080101,-0.101156,0.161778,-0.146504,14.534955,37.075542,-20.683487,-2.559328,0.381254,1.617843,-0.110001,0.000000,0.000000,0.000000,0.000000,0.000000,0.000000
11817542.000000,-2.417029,-1.662561,1.039996,-1.353061,1.797652,1.079933,-0.547649,0.156073,0.011455,0.084347,-0.093629,-0.124362,0.184299,-0.157712,15.082440,36.734356,-20.754898,-2.412538,0.398649,1.584884,-0.089860,0.000000,0.000000,0.000000,0.000000,0.000000,0.000000
11817543.000000,-2.416829,-1.662543,1.040126,-1.353195,1.797467,1.080203,-0.547841,0.171419,0.012656,0.101548,-0.103350,-0.142424,0.212866,-0.167373,15.526776,36.341595,-20.929459,-2.285585,0.452665,1.487838,-0.037675,0.000000,0.000000,0.000000,0.000000,0.000000,0.000000
11817544.000000,-2.416599,-1.662520,1.040273,-1.353344,1.797261,1.080490,-0.548014,0.193693,0.014443,0.114727,-0.117027,-0.165229,0.235575,-0.164107,15.748944,35.901226,-21.123856,-2.162599,0.500272,1.461288,-0.130143,0.000000,0.000000,0.000000,0.000000,0.000000,0.000000
11817545.000000,-2.416370,-1.662500,1.040431,-1.353512,1.797037,1.080805,-0.548212,0.207781,0.015937,0.130230,-0.133403,-0.178938,0.261109,-0.173473,16.046492,35.583843,-21.294449,-2.039613,0.596403,1.467696,-0.050492,0.000000,0.000000,0.000000,0.000000,0.000000,0.000000
11817546.000000,-2.416119,-1.662485,1.040598,-1.353695,1.796791,1.081145,-0.548399,0.220700,0.014984,0.139013,-0.154988,-0.198693,0.285518,-0.180448,16.296431,35.361675,-21.369827,-2.015810,0.584501,1.454879,-0.083451,0.000000,0.000000,0.000000,0.000000,0.000000,0.000000
11817547.000000,-2.415851,-1.662473,1.040775,-1.353897,1.796531,1.081506,-0.548587,0.239526,0.012796,0.150978,-0.169446,-0.217186,0.303498,-0.176185,16.467024,35.214886,-21.516617,-1.992006,0.518583,1.461288,-0.116410,0.000000,0.000000,0.000000,0.000000,0.000000,0.000000
11817548.000000,-2.415567,-1.662465,1.040963,-1.354110,1.796256,1.081873,-0.548782,0.257419,0.012152,0.160096,-0.182434,-0.236375,0.323520,-0.179240,16.590010,35.167278,-21.540421,-2.015810,0.464567,1.546432,-0.116410,0.000000,0.000000,0.000000,0.000000,0.000000,0.000000
11817549.000000,-2.415265,-1.662457,1.041154,-1.354347,1.795967,1.082261,-0.548979,0.269660,0.009110,0.168210,-0.197418,-0.249646,0.336182,-0.182913,16.716963,35.119671,-21.469009,-1.841249,0.381254,1.682845,-0.077042,0.000000,0.000000,0.000000,0.000000,0.000000,0.000000
11817550.000000,-2.414944,-1.662456,1.041356,-1.354601,1.795657,1.082675,-0.549169,0.285982,0.005438,0.178250,-0.218719,-0.266825,0.355172,-0.178990,16.689192,35.143475,-21.417435,-1.742067,0.351041,1.727706,-0.089860,0.000000,0.000000,0.000000,0.000000,0.000000,0.000000
11817551.000000,-2.414611,-1.662454,1.041563,-1.354872,1.795323,1.083120,-0.549354,0.301535,0.003010,0.186968,-0.235133,-0.283911,0.386571,-0.179875,16.740767,35.167278,-21.294449,-1.642885,0.339139,1.682845,-0.130143,0.000000,0.000000,0.000000,0.000000,0.000000,0.000000
11817552.000000,-2.414262,-1.662456,1.041783,-1.355159,1.794978,1.083593,-0.549553,0.317131,0.000849,0.200224,-0.248899,-0.303982,0.410930,-0.183391,16.788374,35.214886,-21.223038,-1.472292,0.369352,1.597701,-0.083451,0.000000,0.000000,0.000000,0.000000,0.000000,0.000000
11817553.000000,-2.413899,-1.662456,1.042015,-1.355464,1.794615,1.084073,-0.549739,0.332646,0.000533,0.210984,-0.262917,-0.324585,0.428030,-0.183537,16.788374,35.214886,-21.123856,-1.373109,0.428861,1.546432,-0.110001,0.000000,0.000000,0.000000,0.000000,0.000000,0.000000
11817554.000000,-2.413534,-1.662463,1.042259,-1.355774,1.794221,1.084587,-0.549928,0.342144,-0.001433,0.222250,-0.276688,-0.347873,0.453393,-0.184002,16.986738,35.290264,-21.024673,-1.297731,0.458158,1.500655,-0.130143,0.000000,0.000000,0.000000,0.000000,0.000000,0.000000
11817555.000000,-2.413157,-1.662466,1.042510,-1.356096,1.793817,1.085118,-0.550122,0.355489,-0.001531,0.231650,-0.289085,-0.366210,0.488817,-0.182389,17.109724,35.314068,-20.953262,-1.273927,0.506681,1.474105,-0.077042,0.000000,0.000000,0.000000,0.000000,0.000000,0.000000
11817556.000000,-2.412764,-1.662466,1.042773,-1.356433,1.793401,1.085671,-0.550296,0.365271,-0.001035,0.241656,-0.301258,-0.376663,0.513045,-0.181397,17.359663,35.314068,-20.905655,-1.273927,0.500272,1.474105,-0.142960,0.000000,0.000000,0.000000,0.000000,0.000000,0.000000
11817557.000000,-2.412356,-1.662462,1.043045,-1.356772,1.792968,1.086241,-0.550479,0.376195,-0.000143,0.252752,-0.309420,-0.403404,0.532271,-0.184403,17.558027,35.290264,-20.854080,-1.321535,0.410551,1.572067,-0.097184,0.000000,0.000000,0.000000,0.000000,0.000000,0.000000
11817558.000000,-2.411941,-1.662465,1.043327,-1.357141,1.792522,1.086824,-0.550655,0.387875,-0.001217,0.259486,-0.324018,-0.416258,0.553032,-0.184582,17.780195,35.337872,-20.877884,-1.250124,0.422452,1.630660,-0.089860,0.000000,0.000000,0.000000,0.000000,0.000000,0.000000
11817559.000000,-2.411511,-1.662463,1.043617,-1.357515,1.792060,1.087448,-0.550824,0.399410,-0.000260,0.271250,-0.340594,-0.428500,0.570505,-0.178616,18.002363,35.314068,-20.806473,-1.099367,0.398649,1.605026,-0.149369,0.000000,0.000000,0.000000,0.000000,0.000000,0.000000
11817560.000000,-2.411063,-1.662460,1.043915,-1.357909,1.791579,1.088094,-0.551001,0.419553,0.000936,0.277355,-0.358049,-0.445381,0.597377,-0.178315,18.224531,35.266460,-20.731094,-0.976381,0.422452,1.513473,-0.097184,0.000000,0.000000,0.000000,0.000000,0.000000,0.000000
11817561.000000,-2.410602,-1.662454,1.044233,-1.358317,1.791084,1.088768,-0.551164,0.433281,0.002384,0.284134,-0.371005,-0.457165,0.613481,-0.175350,18.323713,35.191082,-20.754898,-0.853395,0.458158,1.383468,-0.116410,0.000000,0.000000,0.000000,0.000000,0.000000,0.000000
11817562.000000,-2.410124,-1.662444,1.044563,-1.358743,1.790565,1.089461,-0.551332,0.444833,0.005020,0.296129,-0.389833,-0.477964,0.637989,-0.172606,18.474470,35.044292,-20.806473,-0.631227,0.547880,1.259872,-0.142960,0.000000,0.000000,0.000000,0.000000,0.000000,0.000000
11817563.000000,-2.409644,-1.662438,1.044884,-1.359178,1.790048,1.090154,-0.551503,0.452409,0.007072,0.302418,-0.399468,-0.489216,0.653588,-0.169222,18.422895,35.020489,-20.608109,-0.532045,0.655912,1.234237,-0.089860,0.000000,0.000000,0.000000,0.000000,0.000000,0.000000
11817564.000000,-2.409157,-1.662427,1.045228,-1.359639,1.789524,1.090869,-0.551656,0.452182,0.007298,0.318801,-0.415204,-0.500245,0.665765,-0.162021,17.803999,34.921307,-20.266922,-0.532045,0.745634,1.305648,-0.155778,0.000000,0.000000,0.000000,0.000000,0.000000,0.000000
11817565.000000,-2.408680,-1.662414,1.045591,-1.360097,1.788999,1.091594,-0.551818,0.453262,0.004442,0.334072,-0.429577,-0.504621,0.679445,-0.163712,16.665388,34.679302,-19.846390,-0.829591,0.828947,1.402694,-0.155778,0.000000,0.000000,0.000000,0.000000,0.000000,0.000000
11817566.000000,-2.408204,-1.662401,1.045989,-1.360579,1.788478,1.092334,-0.551980,0.460204,0.006942,0.352980,-0.440836,-0.504565,0.696350,-0.165894,14.907880,34.357952,-19.334610,-1.250124,0.828947,1.461288,-0.136552,0.000000,0.000000,0.000000,0.000000,0.000000,0.000000
11817567.000000,-2.407730,-1.662384,1.046408,-1.361063,1.787964,1.093107,-0.552142,0.466579,0.008632,0.370773,-0.453891,-0.498856,0.715749,-0.161144,12.975812,33.893780,-18.695877,-1.670656,0.649503,1.435653,-0.163102,0.000000,0.000000,0.000000,0.000000,0.000000,0.000000
11817568.000000,-2.407272,-1.662378,1.046851,-1.361557,1.787459,1.093874,-0.552310,0.468202,0.009648,0.393523,-0.461757,-0.496925,0.728268,-0.160185,11.119123,33.552593,-18.033340,-2.039613,0.512174,1.357833,-0.122819,0.000000,0.000000,0.000000,0.000000,0.000000,0.000000
11817569.000000,-2.406813,-1.662375,1.047317,-1.362061,1.786956,1.094668,-0.552470,0.469102,0.007231,0.412916,-0.468145,-0.497687,0.740929,-0.161273,9.361615,33.207439,-17.343033,-2.412538,0.344633,1.201278,-0.155778,0.000000,0.000000,0.000000,0.000000,0.000000,0.000000
11817570.000000,-2.406354,-1.662372,1.047801,-1.362556,1.786467,1.095462,-0.552632,0.468150,0.004571,0.439856,-0.476891,-0.490866,0.758330,-0.163700,7.778669,32.890057,-16.732071,-2.634706,0.183500,1.077682,-0.136552,0.000000,0.000000,0.000000,0.000000,0.000000,0.000000
11817571.000000,-2.405906,-1.662370,1.048291,-1.363048,1.785977,1.096230,-0.552791,0.462666,0.006398,0.454235,-0.477489,-0.494084,0.755361,-0.161607,6.394086,32.548870,-16.140945,-2.904482,0.117582,0.993453,-0.103593,0.000000,0.000000,0.000000,0.000000,0.000000,0.000000
11817572.000000,-2.405457,-1.662376,1.048786,-1.363536,1.785478,1.097013,-0.552943,0.457848,0.005041,0.463521,-0.479662,-0.492889,0.756607,-0.157071,5.279279,32.326702,-15.478409,-3.154421,0.093778,0.882674,-0.149369,0.000000,0.000000,0.000000,0.000000,0.000000,0.000000
11817573.000000,-2.405020,-1.662383,1.049281,-1.364010,1.784991,1.097782,-0.553103,0.450828,0.000329,0.470002,-0.475963,-0.487618,0.763653,-0.157195,4.386640,32.132305,-14.915054,-3.499574,0.207303,0.817672,-0.103593,0.000000,0.000000,0.000000,0.000000,0.000000,0.000000
11817574.000000,-2.404569,-1.662389,1.049777,-1.364485,1.784503,1.098548,-0.553256,0.448744,-0.005440,0.474157,-0.471207,-0.489568,0.760116,-0.155342,3.545576,31.910137,-14.228714,-3.797121,0.273221,0.836898,-0.110001,0.000000,0.000000,0.000000,0.000000,0.000000,0.000000
11817575.000000,-2.404120,-1.662390,1.050289,-1.364960,1.784031,1.099309,-0.553408,0.447620,-0.002384,0.482487,-0.475155,-0.492260,0.749972,-0.152298,2.827497,31.640362,-13.712967,-3.920107,0.285123,0.928451,-0.149369,0.000000,0.000000,0.000000,0.000000,0.000000,0.000000
11817576.000000,-2.403655,-1.662399,1.050782,-1.365445,1.783555,1.100054,-0.553561,0.455741,-0.003010,0.479992,-0.472614,-0.484577,0.748217,-0.156219,2.061811,31.493572,-13.121841,-3.797121,0.344633,1.019088,-0.136552,0.000000,0.000000,0.000000,0.000000,0.000000,0.000000
11817577.000000,-2.403192,-1.662404,1.051288,-1.365931,1.783079,1.100824,-0.553712,0.456540,-0.002593,0.486413,-0.488148,-0.483785,0.750367,-0.158864,1.343732,31.322979,-12.633865,-3.499574,0.315336,0.987045,-0.155778,0.000000,0.000000,0.000000,0.000000,0.000000,0.000000
11817578.000000,-2.402721,-1.662405,1.051802,-1.366422,1.782622,1.101594,-0.553869,0.468268,-0.001160,0.497420,-0.487229,-0.473997,0.759913,-0.157151,0.625654,31.104778,-12.387894,-3.154421,0.255826,0.895492,-0.149369,0.000000,0.000000,0.000000,0.000000,0.000000,0.000000
11817579.000000,-2.402240,-1.662397,1.052324,-1.366913,1.782160,1.102345,-0.554020,0.467794,0.002241,0.502631,-0.484205,-0.471354,0.755895,-0.155599,-0.068621,30.787395,-12.165726,-2.856874,0.207303,0.850631,-0.149369,0.000000,0.000000,0.000000,0.000000,0.000000,0.000000
11817580.000000,-2.401767,-1.662388,1.052857,-1.367385,1.781704,1.103104,-0.554172,0.467307,0.004604,0.510596,-0.482595,-0.462612,0.749266,-0.154858,-0.540728,30.466045,-12.018936,-2.682314,0.088285,0.863448,-0.130143,0.000000,0.000000,0.000000,0.000000,0.000000,0.000000
11817581.000000,-2.401297,-1.662369,1.053380,-1.367857,1.781248,1.103845,-0.554326,0.471493,0.007691,0.515182,-0.477257,-0.461383,0.745533,-0.153464,-0.885882,30.077251,-11.820572,-2.634706,0.112089,0.869857,-0.142960,0.000000,0.000000,0.000000,0.000000,0.000000,0.000000
11817582.000000,-2.400837,-1.662354,1.053910,-1.368323,1.780786,1.104592,-0.554477,0.468076,0.008865,0.519983,-0.486523,-0.462291,0.739395,-0.152098,-1.084246,29.732098,-11.602371,-2.733888,0.088285,0.974227,-0.163102,0.000000,0.000000,0.000000,0.000000,0.000000,0.000000
11817583.000000,-2.400372,-1.662327,1.054453,-1.368775,1.780328,1.105336,-0.554638,0.466339,0.013033,0.528414,-0.474973,-0.461289,0.736589,-0.152673,-1.282611,29.244122,-11.550797,-2.856874,0.112089,1.155502,-0.130143,0.000000,0.000000,0.000000,0.000000,0.000000,0.000000
11817584.000000,-2.399902,-1.662308,1.055006,-1.369228,1.779875,1.106074,-0.554789,0.469495,0.016201,0.535992,-0.464403,-0.460836,0.730741,-0.150949,-1.552386,28.875164,-11.431778,-3.027467,0.147794,1.207687,-0.163102,0.000000,0.000000,0.000000,0.000000,0.000000,0.000000
11817585.000000,-2.399427,-1.662283,1.055578,-1.369674,1.779410,1.106843,-0.554956,0.469898,0.019057,0.544841,-0.456306,-0.455902,0.741006,-0.153379,-1.778521,28.486370,-11.455582,-3.126650,0.201810,1.096908,-0.097184,0.000000,0.000000,0.000000,0.000000,0.000000,0.000000
11817586.000000,-2.398943,-1.662258,1.056139,-1.370128,1.778965,1.107607,-0.555111,0.477348,0.020706,0.549576,-0.453669,-0.450347,0.750548,-0.151213,-2.171282,28.117413,-11.281021,-3.202028,0.201810,0.941268,-0.130143,0.000000,0.000000,0.000000,0.000000,0.000000,0.000000
11817587.000000,-2.398463,-1.662242,1.056717,-1.370574,1.778518,1.108373,-0.555261,0.478195,0.023529,0.555993,-0.450124,-0.449180,0.753198,-0.149445,-2.544207,27.946819,-11.134232,-3.225832,0.195402,0.895492,-0.175919,0.000000,0.000000,0.000000,0.000000,0.000000,0.000000
11817588.000000,-2.397984,-1.662224,1.057297,-1.371005,1.778072,1.109132,-0.555421,0.476324,0.019840,0.570590,-0.444368,-0.456343,0.752075,-0.151213,-2.841753,27.776226,-10.963638,-3.376589,0.183500,0.915633,-0.130143,0.000000,0.000000,0.000000,0.000000,0.000000,0.000000
11817589.000000,-2.397494,-1.662216,1.057870,-1.371442,1.777630,1.109878,-0.555571,0.479082,0.016624,0.574588,-0.441461,-0.445564,0.746890,-0.151082,-3.210711,27.776226,-10.618484,-3.424196,0.183500,0.947677,-0.130143,0.000000,0.000000,0.000000,0.000000,0.000000,0.000000
11817590.000000,-2.397001,-1.662209,1.058457,-1.371866,1.777191,1.110642,-0.555720,0.481944,0.014617,0.574259,-0.435502,-0.444173,0.743681,-0.149962,-3.607440,27.776226,-10.277298,-3.547182,0.100187,0.922042,-0.155778,0.000000,0.000000,0.000000,0.000000,0.000000,0.000000
11817591.000000,-2.396507,-1.662202,1.059046,-1.372284,1.776763,1.111381,-0.555875,0.485165,0.012860,0.583773,-0.429921,-0.439958,0.756486,-0.150636,-4.004168,27.800030,-10.031326,-3.721742,0.046171,0.922042,-0.142960,0.000000,0.000000,0.000000,0.000000,0.000000,0.000000
11817592.000000,-2.396006,-1.662201,1.059656,-1.372706,1.776328,1.112134,-0.556024,0.490705,0.007011,0.587499,-0.426854,-0.433852,0.755753,-0.150490,-4.400897,27.895245,-9.809158,-3.844728,0.069974,0.934859,-0.149369,0.000000,0.000000,0.000000,0.000000,0.000000,0.000000
11817593.000000,-2.395503,-1.662198,1.060284,-1.373112,1.775896,1.112893,-0.556176,0.485092,0.006457,0.593878,-0.422882,-0.432199,0.749801,-0.150909,-4.797625,27.970623,-9.737747,-4.043092,0.015958,0.947677,-0.130143,0.000000,0.000000,0.000000,0.000000,0.000000,0.000000
11817594.000000,-2.395004,-1.662200,1.060898,-1.373518,1.775461,1.113631,-0.556321,0.487466,0.002612,0.598700,-0.415566,-0.433890,0.745834,-0.153622,-5.194354,28.069805,-9.539383,-4.265260,0.052579,0.954086,-0.155778,0.000000,0.000000,0.000000,0.000000,0.000000,0.000000
11817595.000000,-2.394506,-1.662201,1.061546,-1.373915,1.775036,1.114386,-0.556471,0.483911,0.000542,0.612783,-0.419758,-0.428794,0.747114,-0.149424,-5.464129,28.141216,-9.563187,-4.412050,0.058073,0.947677,-0.122819,0.000000,0.000000,0.000000,0.000000,0.000000,0.000000
11817596.000000,-2.394002,-1.662201,1.062195,-1.374313,1.774622,1.115145,-0.556614,0.493681,-0.000492,0.627988,-0.412201,-0.426016,0.753368,-0.149961,-5.686297,28.192791,-9.638565,-4.586610,-0.049044,0.980636,-0.130143,0.000000,0.000000,0.000000,0.000000,0.000000,0.000000
11817597.000000,-2.393493,-1.662202,1.062880,-1.374711,1.774196,1.115886,-0.556759,0.501874,-0.000620,0.643691,-0.411123,-0.423095,0.745007,-0.151256,-6.134600,28.216595,-9.908340,-4.685792,-0.055453,0.974227,-0.097184,0.000000,0.000000,0.000000,0.000000,0.000000,0.000000
11817598.000000,-2.392981,-1.662207,1.063565,-1.375107,1.773781,1.116657,-0.556902,0.500004,-0.001328,0.654285,-0.405499,-0.423916,0.750168,-0.148746,-6.479754,28.264202,-10.007523,-4.733400,-0.103060,0.857040,-0.149369,0.000000,0.000000,0.000000,0.000000,0.000000,0.000000
11817599.000000,-2.392475,-1.662207,1.064253,-1.375499,1.773352,1.117406,-0.557050,0.504091,-0.001293,0.667228,-0.403224,-0.428301,0.751849,-0.149008,-6.824908,28.288006,-10.178116,-4.784975,-0.060946,0.843307,-0.155778,0.000000,0.000000,0.000000,0.000000,0.000000,0.000000
11817600.000000,-2.391960,-1.662210,1.064957,-1.375890,1.772924,1.118138,-0.557200,0.503354,-0.001957,0.672445,-0.398791,-0.426019,0.739140,-0.151964,-7.197833,28.339581,-10.348709,-4.856386,-0.007845,1.077682,-0.089860,0.000000,0.000000,0.000000,0.000000,0.000000,0.000000
11817601.000000,-2.391440,-1.662217,1.065661,-1.376277,1.772512,1.118882,-0.557337,0.505777,-0.002891,0.684084,-0.397017,-0.422835,0.738848,-0.143372,-7.519183,28.410992,-10.424088,-4.856386,-0.013339,1.201278,-0.175919,0.000000,0.000000,0.000000,0.000000,0.000000,0.000000
11817602.000000,-2.390930,-1.662228,1.066379,-1.376666,1.772076,1.119630,-0.557483,0.509500,-0.005298,0.690590,-0.391866,-0.428915,0.739758,-0.141105,-7.816729,28.557781,-10.400284,-4.983339,0.081876,1.169235,-0.163102,0.000000,0.000000,0.000000,0.000000,0.000000,0.000000
11817603.000000,-2.390410,-1.662244,1.067103,-1.377063,1.771648,1.120386,-0.557632,0.506321,-0.008682,0.697266,-0.394994,-0.426549,0.740236,-0.140468,-8.161883,28.779949,-10.301102,-4.856386,0.129484,1.117049,-0.116410,0.000000,0.000000,0.000000,0.000000,0.000000,0.000000
11817604.000000,-2.389899,-1.662253,1.067836,-1.377466,1.771242,1.121106,-0.557768,0.507110,-0.007980,0.701500,-0.398692,-0.421342,0.736620,-0.135480,-8.435626,28.875164,-10.277298,-4.784975,0.069974,1.201278,-0.188737,0.000000,0.000000,0.000000,0.000000,0.000000,0.000000
11817605.000000,-2.389384,-1.662263,1.068583,-1.377871,1.770813,1.121844,-0.557913,0.503185,-0.007613,0.709028,-0.402353,-0.419771,0.731236,-0.142228,-8.681598,28.974346,-10.253494,-4.661989,0.100187,1.227828,-0.116410,0.000000,0.000000,0.000000,0.000000,0.000000,0.000000
11817606.000000,-2.388878,-1.662281,1.069335,-1.378280,1.770403,1.122594,-0.558052,0.499626,-0.013297,0.729121,-0.406850,-0.425779,0.735331,-0.137963,-8.733172,29.196514,-10.031326,-4.463624,0.105680,1.162826,-0.149369,0.000000,0.000000,0.000000,0.000000,0.000000,0.000000
11817607.000000,-2.388381,-1.662291,1.070084,-1.378675,1.769993,1.123328,-0.558194,0.500859,-0.014488,0.735712,-0.401395,-0.426665,0.730618,-0.144498,-8.780780,29.291729,-9.884537,-4.439821,0.081876,1.039230,-0.155778,0.000000,0.000000,0.000000,0.000000,0.000000,0.000000
11817608.000000,-2.387884,-1.662300,1.070855,-1.379066,1.769579,1.124068,-0.558337,0.495988,-0.011864,0.742352,-0.397880,-0.417552,0.729552,-0.142374,-8.756976,29.367107,-9.709976,-4.439821,0.046171,1.058456,-0.130143,0.000000,0.000000,0.000000,0.000000,0.000000,0.000000
11817609.000000,-2.387396,-1.662305,1.071626,-1.379453,1.769175,1.124797,-0.558475,0.495704,-0.008241,0.748921,-0.390702,-0.410826,0.735186,-0.142870,-8.681598,29.367107,-9.563187,-4.511232,0.010465,1.096908,-0.169511,0.000000,0.000000,0.000000,0.000000,0.000000,0.000000
11817610.000000,-2.386909,-1.662313,1.072409,-1.379846,1.768764,1.125544,-0.558621,0.492296,-0.009348,0.755997,-0.388038,-0.411091,0.737069,-0.146526,-8.582416,29.390911,-9.269608,-4.610414,0.010465,1.058456,-0.122819,0.000000,0.000000,0.000000,0.000000,0.000000,0.000000
11817611.000000,-2.386417,-1.662321,1.073201,-1.380228,1.768342,1.126292,-0.558754,0.490515,-0.010392,0.762331,-0.385043,-0.413399,0.740543,-0.145238,-8.511004,29.414715,-8.999832,-4.634218,0.046171,1.071273,-0.175919,0.000000,0.000000,0.000000,0.000000,0.000000,0.000000
11817612.000000,-2.385940,-1.662315,1.073998,-1.380623,1.767937,1.127032,-0.558899,0.488438,-0.006807,0.770003,-0.385636,-0.409014,0.740396,-0.147895,-8.388019,29.244122,-8.853043,-4.634218,0.052579,1.058456,-0.122819,0.000000,0.000000,0.000000,0.000000,0.000000,0.000000
11817613.000000,-2.385449,-1.662305,1.074819,-1.381013,1.767534,1.127802,-0.559035,0.481096,-0.000616,0.779995,-0.389483,-0.404622,0.744329,-0.149540,-8.435626,29.045757,-8.829239,-4.685792,0.046171,0.922042,-0.122819,0.000000,0.000000,0.000000,0.000000,0.000000,0.000000
11817614.000000,-2.384965,-1.662299,1.075633,-1.381406,1.767132,1.128572,-0.559165,0.488528,0.002632,0.786104,-0.392871,-0.402856,0.756075,-0.142062,-8.312640,29.021954,-8.900650,-4.685792,0.064481,0.792037,-0.196061,0.000000,0.000000,0.000000,0.000000,0.000000,0.000000
11817615.000000,-2.384492,-1.662293,1.076449,-1.381790,1.766740,1.129331,-0.559314,0.484310,0.008118,0.786401,-0.386410,-0.395048,0.755894,-0.143145,-8.090472,29.267925,-9.122818,-4.784975,0.040677,0.778304,-0.103593,0.000000,0.000000,0.000000,0.000000,0.000000,0.000000
11817616.000000,-2.384010,-1.662294,1.077277,-1.382178,1.766350,1.130084,-0.559442,0.482266,0.007825,0.791203,-0.388631,-0.391341,0.747261,-0.141006,-7.693743,29.878887,-9.832962,-4.733400,0.058073,0.960494,-0.202470,0.000000,0.000000,0.000000,0.000000,0.000000,0.000000
11817617.000000,-2.383542,-1.662289,1.078072,-1.382560,1.765966,1.130826,-0.559591,0.482729,0.005021,0.788412,-0.383313,-0.391142,0.748533,-0.142431,-7.150225,30.640606,-10.693863,-4.808778,0.022367,1.117049,-0.110001,0.000000,0.000000,0.000000,0.000000,0.000000,0.000000
11817618.000000,-2.383065,-1.662278,1.078858,-1.382941,1.765587,1.131599,-0.559726,0.475018,0.004406,0.787905,-0.382774,-0.385754,0.748705,-0.138168,-6.531329,31.521343,-11.602371,-4.931764,-0.001437,1.182052,-0.149369,0.000000,0.000000,0.000000,0.000000,0.000000,0.000000
11817619.000000,-2.382572,-1.662257,1.079647,-1.383321,1.765210,1.132388,-0.559863,0.477920,0.006441,0.791607,-0.382159,-0.386878,0.757315,-0.135619,-6.106829,32.326702,-12.804459,-4.907960,0.088285,1.142684,-0.169511,0.000000,0.000000,0.000000,0.000000,0.000000,0.000000
11817620.000000,-2.382088,-1.662232,1.080435,-1.383705,1.764829,1.133145,-0.560008,0.483119,0.011417,0.793979,-0.386719,-0.386478,0.754941,-0.136732,-5.813250,33.013042,-13.907364,-4.884157,0.147794,1.194869,-0.116410,0.000000,0.000000,0.000000,0.000000,0.000000,0.000000
11817621.000000,-2.381597,-1.662203,1.081243,-1.384091,1.764440,1.133911,-0.560137,0.479257,0.011758,0.795759,-0.383364,-0.384015,0.753003,-0.133208,-5.515704,33.576397,-15.038040,-4.784975,0.279630,1.344100,-0.175919,0.000000,0.000000,0.000000,0.000000,0.000000,0.000000
11817622.000000,-2.381110,-1.662169,1.082025,-1.384487,1.764055,1.134665,-0.560271,0.482465,0.015290,0.794086,-0.385993,-0.387383,0.755413,-0.132913,-5.293536,33.992962,-15.799759,-4.586610,0.434354,1.442062,-0.175919,0.000000,0.000000,0.000000,0.000000,0.000000,0.000000
11817623.000000,-2.380624,-1.662140,1.082828,-1.384872,1.763673,1.135414,-0.560405,0.481886,0.020696,0.796503,-0.383213,-0.388078,0.742078,-0.133473,-5.095171,34.409527,-16.486099,-4.610414,0.446256,1.572067,-0.155778,0.000000,0.000000,0.000000,0.000000,0.000000,0.000000
11817624.000000,-2.380140,-1.662109,1.083646,-1.385248,1.763293,1.136158,-0.560535,0.482331,0.023084,0.816027,-0.381399,-0.391952,0.745410,-0.131500,-4.821429,34.750713,-17.247818,-4.610414,0.446256,1.735030,-0.188737,0.000000,0.000000,0.000000,0.000000,0.000000,0.000000
11817625.000000,-2.379666,-1.662070,1.084447,-1.385627,1.762924,1.136896,-0.560667,0.483629,0.024784,0.812132,-0.377037,-0.383441,0.746329,-0.131709,-4.575457,34.945110,-17.688187,-4.709596,0.327238,1.812850,-0.169511,0.000000,0.000000,0.000000,0.000000,0.000000,0.000000
11817626.000000,-2.379191,-1.662058,1.085267,-1.385995,1.762552,1.137657,-0.560799,0.479630,0.019161,0.808512,-0.371635,-0.382827,0.746444,-0.131189,-4.301714,35.413250,-18.080948,-4.808778,0.231107,1.721298,-0.182328,0.000000,0.000000,0.000000,0.000000,0.000000,0.000000
11817627.000000,-2.378721,-1.662044,1.086083,-1.386370,1.762168,1.138386,-0.560934,0.476879,0.016397,0.812146,-0.367115,-0.376413,0.762495,-0.131832,-4.127154,35.829815,-18.398331,-4.931764,0.207303,1.754256,-0.169511,0.000000,0.000000,0.000000,0.000000,0.000000,0.000000
11817628.000000,-2.378245,-1.662034,1.086925,-1.386738,1.761786,1.139116,-0.561063,0.475996,0.014762,0.813792,-0.363482,-0.374625,0.748667,-0.132050,-3.980364,36.218609,-18.842667,-5.054750,0.154203,1.838485,-0.163102,0.000000,0.000000,0.000000,0.000000,0.000000,0.000000
11817629.000000,-2.377771,-1.662037,1.087770,-1.387099,1.761396,1.139865,-0.561198,0.473706,0.008232,0.816741,-0.363185,-0.377741,0.741271,-0.132918,-3.805804,36.710552,-19.183853,-5.229311,0.201810,1.806442,-0.130143,0.000000,0.000000,0.000000,0.000000,0.000000,0.000000
11817630.000000,-2.377312,-1.662045,1.088604,-1.387453,1.760997,1.140609,-0.561326,0.478559,0.002931,0.818320,-0.357416,-0.386168,0.747179,-0.131781,-3.607440,37.222332,-19.481400,-5.475282,0.308927,1.630660,-0.149369,0.000000,0.000000,0.000000,0.000000,0.000000,0.000000
11817631.000000,-2.376834,-1.662065,1.089456,-1.387797,1.760603,1.141367,-0.561449,0.477528,-0.005260,0.824466,-0.362919,-0.384589,0.749835,-0.131401,-3.607440,37.785686,-19.798782,-5.796632,0.362943,1.467696,-0.182328,0.000000,0.000000,0.000000,0.000000,0.000000,0.000000
11817632.000000,-2.376356,-1.662087,1.090302,-1.388139,1.760220,1.142104,-0.561582,0.478229,-0.010546,0.828478,-0.353712,-0.384000,0.744375,-0.128141,-3.730425,38.325237,-20.143936,-6.117982,0.405057,1.513473,-0.142960,0.000000,0.000000,0.000000,0.000000,0.000000,0.000000
11817633.000000,-2.375877,-1.662119,1.091150,-1.388484,1.759823,1.142810,-0.561710,0.474294,-0.018670,0.828130,-0.348754,-0.384630,0.731941,-0.123834,-3.829607,38.912395,-20.314529,-6.340150,0.482877,1.670028,-0.155778,0.000000,0.000000,0.000000,0.000000,0.000000,0.000000
11817634.000000,-2.375394,-1.662157,1.091994,-1.388828,1.759440,1.143536,-0.561845,0.471692,-0.025167,0.822714,-0.347143,-0.380445,0.727415,-0.126787,-3.980364,39.523357,-20.413712,-6.514711,0.428861,1.793624,-0.130143,0.000000,0.000000,0.000000,0.000000,0.000000,0.000000
11817635.000000,-2.374911,-1.662198,1.092832,-1.389182,1.759066,1.144246,-0.561975,0.475333,-0.035514,0.825815,-0.348471,-0.379390,0.728412,-0.126753,-4.202532,40.110516,-20.512894,-6.538515,0.422452,1.968490,-0.163102,0.000000,0.000000,0.000000,0.000000,0.000000,0.000000
11817636.000000,-2.374420,-1.662236,1.093677,-1.389532,1.758682,1.144972,-0.562105,0.479481,-0.034258,0.828119,-0.348013,-0.384726,0.728731,-0.122948,-4.400897,40.578655,-20.683487,-6.637697,0.356534,2.053634,-0.175919,0.000000,0.000000,0.000000,0.000000,0.000000,0.000000
11817637.000000,-2.373927,-1.662276,1.094507,-1.389878,1.758313,1.145714,-0.562241,0.482753,-0.036696,0.845492,-0.348631,-0.376107,0.735689,-0.125922,-4.698443,41.042828,-20.731094,-6.685304,0.297025,1.949264,-0.149369,0.000000,0.000000,0.000000,0.000000,0.000000,0.000000
11817638.000000,-2.373442,-1.662316,1.095347,-1.390219,1.757940,1.146450,-0.562371,0.486324,-0.037991,0.839753,-0.345370,-0.372246,0.734660,-0.122629,-4.968218,41.483196,-20.806473,-6.859865,0.308927,1.858627,-0.149369,0.000000,0.000000,0.000000,0.000000,0.000000,0.000000
11817639.000000,-2.372955,-1.662352,1.096186,-1.390558,1.757560,1.147195,-0.562504,0.483460,-0.036904,0.838975,-0.344917,-0.379414,0.731383,-0.124598,-5.166583,41.824383,-20.782669,-6.982851,0.344633,1.793624,-0.155778,0.000000,0.000000,0.000000,0.000000,0.000000,0.000000
11817640.000000,-2.372472,-1.662384,1.097013,-1.390890,1.757187,1.147914,-0.562629,0.481151,-0.031978,0.836912,-0.341493,-0.371076,0.723000,-0.125743,-5.440325,42.117962,-20.782669,-7.232790,0.386747,1.819259,-0.175919,0.000000,0.000000,0.000000,0.000000,0.000000,0.000000
11817641.000000,-2.371994,-1.662421,1.097854,-1.391226,1.756811,1.148648,-0.562759,0.475011,-0.032942,0.835370,-0.337103,-0.368158,0.728437,-0.128833,-5.539507,42.463116,-20.731094,-7.427186,0.422452,1.890670,-0.136552,0.000000,0.000000,0.000000,0.000000,0.000000,0.000000
11817642.000000,-2.371515,-1.662460,1.098697,-1.391539,1.756451,1.149389,-0.562883,0.473639,-0.034217,0.833568,-0.331192,-0.370419,0.730785,-0.127694,-5.614886,42.828106,-20.707291,-7.748537,0.362943,1.877853,-0.175919,0.000000,0.000000,0.000000,0.000000,0.000000,0.000000
11817643.000000,-2.371041,-1.662484,1.099525,-1.391860,1.756085,1.150122,-0.563012,0.473339,-0.033926,0.831375,-0.324048,-0.371903,0.727218,-0.129327,-5.714068,42.998699,-20.631912,-8.022280,0.362943,1.760665,-0.142960,0.000000,0.000000,0.000000,0.000000,0.000000,0.000000
11817644.000000,-2.370567,-1.662508,1.100365,-1.392173,1.755724,1.150858,-0.563138,0.470751,-0.032763,0.827516,-0.320869,-0.366840,0.723689,-0.129087,-5.785479,43.121685,-20.659683,-8.244448,0.332731,1.727706,-0.163102,0.000000,0.000000,0.000000,0.000000,0.000000,0.000000
11817645.000000,-2.370095,-1.662529,1.101197,-1.392495,1.755378,1.151586,-0.563269,0.471717,-0.026839,0.829188,-0.323090,-0.359262,0.727601,-0.125496,-5.884661,43.145489,-20.707291,-8.391237,0.308927,1.714889,-0.149369,0.000000,0.000000,0.000000,0.000000,0.000000,0.000000
11817646.000000,-2.369613,-1.662556,1.102028,-1.392810,1.755022,1.152315,-0.563390,0.471362,-0.027113,0.827539,-0.316966,-0.362423,0.726827,-0.121901,-6.083025,43.220867,-20.659683,-8.613405,0.285123,1.786300,-0.163102,0.000000,0.000000,0.000000,0.000000,0.000000,0.000000
11817647.000000,-2.369144,-1.662578,1.102862,-1.393115,1.754664,1.153045,-0.563511,0.467217,-0.022692,0.822732,-0.313303,-0.361051,0.736008,-0.118503,-6.134600,43.220867,-20.560501,-8.787966,0.273221,1.832076,-0.188737,0.000000,0.000000,0.000000,0.000000,0.000000,0.000000
11817648.000000,-2.368682,-1.662604,1.103698,-1.393419,1.754315,1.153771,-0.563643,0.464865,-0.023807,0.825138,-0.310185,-0.360024,0.734919,-0.119703,-6.206011,43.268475,-20.707291,-9.085512,0.261320,1.871444,-0.122819,0.000000,0.000000,0.000000,0.000000,0.000000,0.000000
11817649.000000,-2.368221,-1.662620,1.104542,-1.393714,1.753979,1.154506,-0.563755,0.459571,-0.021383,0.823958,-0.312069,-0.350998,0.725253,-0.119685,-6.158404,43.173260,-20.830276,-9.430666,0.166105,1.877853,-0.202470,0.000000,0.000000,0.000000,0.000000,0.000000,0.000000
11817650.000000,-2.367761,-1.662636,1.105369,-1.394011,1.753634,1.155244,-0.563889,0.456689,-0.021122,0.823633,-0.307225,-0.350921,0.725997,-0.121149,-6.083025,43.121685,-20.905655,-9.728212,0.105680,1.819259,-0.116410,0.000000,0.000000,0.000000,0.000000,0.000000,0.000000
11817651.000000,-2.367309,-1.662662,1.106211,-1.394314,1.753284,1.155980,-0.564004,0.455484,-0.023409,0.821778,-0.304325,-0.348029,0.731019,-0.118151,-6.059222,43.173260,-21.052444,-9.974184,0.100187,1.760665,-0.136552,0.000000,0.000000,0.000000,0.000000,0.000000,0.000000
11817652.000000,-2.366857,-1.662673,1.107056,-1.394615,1.752941,1.156714,-0.564122,0.454813,-0.017639,0.824378,-0.302846,-0.345996,0.734326,-0.115322,-5.983843,43.050274,-21.246841,-10.073366,0.093778,1.773483,-0.175919,0.000000,0.000000,0.000000,0.000000,0.000000,0.000000
11817653.000000,-2.366412,-1.662691,1.107891,-1.394917,1.752600,1.157420,-0.564250,0.455107,-0.018390,0.829464,-0.301318,-0.349175,0.725317,-0.121711,-5.860857,42.998699,-21.417435,-10.172548,0.088285,1.903487,-0.116410,0.000000,0.000000,0.000000,0.000000,0.000000,0.000000
11817654.000000,-2.365978,-1.662709,1.108723,-1.395209,1.752260,1.158156,-0.564370,0.448114,-0.016625,0.824091,-0.294289,-0.340473,0.729942,-0.118387,-5.587115,42.974895,-21.445206,-10.394716,0.052579,1.877853,-0.142960,0.000000,0.000000,0.000000,0.000000,0.000000,0.000000
11817655.000000,-2.365552,-1.662725,1.109559,-1.395492,1.751927,1.158898,-0.564492,0.438042,-0.015266,0.842512,-0.292074,-0.334971,0.730495,-0.121895,-5.218157,42.951092,-21.615799,-10.616884,0.027860,1.793624,-0.130143,0.000000,0.000000,0.000000,0.000000,0.000000,0.000000
11817656.000000,-2.365138,-1.662738,1.110394,-1.395783,1.751593,1.159620,-0.564606,0.430339,-0.016313,0.836175,-0.288532,-0.335577,0.725301,-0.121503,-4.821429,42.875713,-21.663406,-10.767641,0.015958,1.844894,-0.188737,0.000000,0.000000,0.000000,0.000000,0.000000,0.000000
11817657.000000,-2.364722,-1.662748,1.111235,-1.396075,1.751255,1.160341,-0.564736,0.417897,-0.016483,0.834050,-0.289756,-0.334380,0.727944,-0.126520,-4.424700,42.780499,-21.687210,-10.767641,-0.043551,1.936446,-0.130143,0.000000,0.000000,0.000000,0.000000,0.000000,0.000000
11817658.000000,-2.364314,-1.662768,1.112065,-1.396373,1.750922,1.161064,-0.564855,0.410789,-0.016975,0.835183,-0.294187,-0.332712,0.740430,-0.122380,-4.055743,42.828106,-21.786392,-10.739870,-0.013339,1.936446,-0.149369,0.000000,0.000000,0.000000,0.000000,0.000000,0.000000
11817659.000000,-2.363908,-1.662782,1.112905,-1.396677,1.750586,1.161808,-0.564975,0.407803,-0.016161,0.833327,-0.294756,-0.332197,0.738585,-0.120265,-3.659014,42.828106,-21.837967,-10.668459,0.069974,1.838485,-0.142960,0.000000,0.000000,0.000000,0.000000,0.000000,0.000000
11817660.000000,-2.363497,-1.662792,1.113759,-1.396986,1.750261,1.162542,-0.565090,0.407985,-0.013717,0.841045,-0.298887,-0.338867,0.731686,-0.117432,-3.361468,42.756695,-22.079971,-10.446291,0.004056,1.741439,-0.163102,0.000000,0.000000,0.000000,0.000000,0.000000,0.000000
11817661.000000,-2.363098,-1.662801,1.114598,-1.397304,1.749929,1.163276,-0.565207,0.403471,-0.011343,0.838302,-0.306964,-0.334213,0.734281,-0.117268,-3.040118,42.657513,-22.254532,-10.220156,0.004056,1.708480,-0.122819,0.000000,0.000000,0.000000,0.000000,0.000000,0.000000
11817662.000000,-2.362703,-1.662822,1.115460,-1.397624,1.749596,1.164013,-0.565319,0.396371,-0.017489,0.848657,-0.315853,-0.331170,0.738400,-0.115381,-2.690997,42.756695,-22.623489,-9.950380,0.027860,1.702071,-0.142960,0.000000,0.000000,0.000000,0.000000,0.000000,0.000000
11817663.000000,-2.362309,-1.662839,1.116300,-1.397950,1.749267,1.164738,-0.565430,0.396903,-0.016714,0.846993,-0.320751,-0.329803,0.730712,-0.113465,-2.421221,42.780499,-22.817886,-9.676638,0.064481,1.779891,-0.175919,0.000000,0.000000,0.000000,0.000000,0.000000,0.000000
11817664.000000,-2.361914,-1.662866,1.117147,-1.398278,1.748926,1.165448,-0.565552,0.393549,-0.019707,0.845886,-0.324522,-0.338588,0.728499,-0.111255,-2.147479,42.951092,-23.016251,-9.529848,0.117582,1.995040,-0.110001,0.000000,0.000000,0.000000,0.000000,0.000000,0.000000
11817665.000000,-2.361529,-1.662887,1.118014,-1.398606,1.748589,1.166167,-0.565660,0.387838,-0.019347,0.847654,-0.323863,-0.333225,0.719755,-0.113785,-1.750750,43.026470,-23.480423,-9.406862,0.105680,2.150680,-0.175919,0.000000,0.000000,0.000000,0.000000,0.000000,0.000000
11817666.000000,-2.361145,-1.662912,1.118856,-1.398940,1.748255,1.166903,-0.565779,0.388657,-0.020607,0.854405,-0.329440,-0.332355,0.722457,-0.114928,-1.528582,43.173260,-23.750198,-9.256105,0.171598,2.085677,-0.142960,0.000000,0.000000,0.000000,0.000000,0.000000,0.000000
11817667.000000,-2.360761,-1.662935,1.119717,-1.399287,1.747916,1.167637,-0.565891,0.386695,-0.020983,0.856014,-0.330331,-0.336979,0.729372,-0.114746,-1.282611,43.292278,-24.095352,-9.010134,0.279630,2.001449,-0.136552,0.000000,0.000000,0.000000,0.000000,0.000000,0.000000
11817668.000000,-2.360367,-1.662967,1.120557,-1.399637,1.747580,1.168367,-0.566000,0.384246,-0.025960,0.853583,-0.333823,-0.340848,0.731087,-0.112806,-1.159625,43.490643,-24.218338,-8.641176,0.255826,2.007858,-0.182328,0.000000,0.000000,0.000000,0.000000,0.000000,0.000000
11817669.000000,-2.359985,-1.662998,1.121417,-1.400003,1.747228,1.169072,-0.566118,0.382815,-0.028895,0.858848,-0.342774,-0.344444,0.729376,-0.115194,-0.985064,43.661236,-24.488113,-8.220644,0.369352,2.085677,-0.122819,0.000000,0.000000,0.000000,0.000000,0.000000,0.000000
11817670.000000,-2.359609,-1.663027,1.122278,-1.400349,1.746890,1.169780,-0.566225,0.378972,-0.030465,0.860124,-0.344714,-0.338043,0.716832,-0.107592,-0.735125,43.808025,-24.658707,-8.022280,0.374845,2.079269,-0.182328,0.000000,0.000000,0.000000,0.000000,0.000000,0.000000
11817671.000000,-2.359237,-1.663062,1.123106,-1.400705,1.746565,1.170496,-0.566337,0.374114,-0.032818,0.852989,-0.352416,-0.335244,0.720492,-0.109168,-0.489153,44.002422,-24.583328,-7.823915,0.303434,1.988631,-0.182328,0.000000,0.000000,0.000000,0.000000,0.000000,0.000000
11817672.000000,-2.358869,-1.663094,1.123952,-1.401061,1.746220,1.171215,-0.566449,0.369087,-0.034113,0.851554,-0.350075,-0.332348,0.721290,-0.111924,-0.191607,44.173016,-24.611099,-7.724733,0.344633,1.949264,-0.136552,0.000000,0.000000,0.000000,0.000000,0.000000,0.000000
11817673.000000,-2.358500,-1.663121,1.124796,-1.401419,1.745891,1.171925,-0.566554,0.365819,-0.032813,0.867825,-0.354160,-0.328456,0.713019,-0.110366,0.105939,44.248394,-24.706314,-7.526369,0.320829,2.020675,-0.175919,0.000000,0.000000,0.000000,0.000000,0.000000,0.000000
11817674.000000,-2.358133,-1.663150,1.125631,-1.401788,1.745557,1.172619,-0.566670,0.366089,-0.029308,0.855924,-0.356715,-0.329621,0.714715,-0.112051,0.276533,44.347576,-24.511917,-7.304201,0.410551,2.150680,-0.149369,0.000000,0.000000,0.000000,0.000000,0.000000,0.000000
11817675.000000,-2.357759,-1.663177,1.126469,-1.402155,1.745214,1.173337,-0.566783,0.366462,-0.026098,0.845746,-0.356935,-0.333763,0.709467,-0.111431,0.403486,44.418987,-24.388931,-7.058229,0.476469,2.157089,-0.169511,0.000000,0.000000,0.000000,0.000000,0.000000,0.000000
11817676.000000,-2.357391,-1.663208,1.127300,-1.402538,1.744881,1.174064,-0.566894,0.370717,-0.027563,0.840760,-0.364052,-0.331527,0.725377,-0.111529,0.526471,44.518169,-24.341324,-6.784486,0.518583,1.942855,-0.175919,0.000000,0.000000,0.000000,0.000000,0.000000,0.000000
11817677.000000,-2.357006,-1.663230,1.128154,-1.402927,1.744545,1.174794,-0.567002,0.372628,-0.028452,0.839327,-0.367077,-0.328720,0.725233,-0.111224,0.502668,44.470562,-24.559525,-6.463136,0.542386,1.767074,-0.196061,0.000000,0.000000,0.000000,0.000000,0.000000,0.000000
11817678.000000,-2.356625,-1.663250,1.128989,-1.403315,1.744221,1.175514,-0.567124,0.375161,-0.023113,0.834008,-0.375571,-0.325002,0.720573,-0.109767,0.474897,44.418987,-24.436539,-6.141786,0.494779,1.819259,-0.116410,0.000000,0.000000,0.000000,0.000000,0.000000,0.000000
11817679.000000,-2.356256,-1.663276,1.129816,-1.403712,1.743897,1.176229,-0.567229,0.376483,-0.024113,0.829765,-0.381139,-0.327927,0.718575,-0.108271,0.474897,44.442791,-24.436539,-5.820436,0.476469,1.844894,-0.175919,0.000000,0.000000,0.000000,0.000000,0.000000,0.000000
11817680.000000,-2.355880,-1.663296,1.130656,-1.404102,1.743563,1.176952,-0.567338,0.377141,-0.023636,0.829553,-0.391436,-0.327903,0.716507,-0.109066,0.451093,44.418987,-24.488113,-5.574464,0.542386,1.865035,-0.188737,0.000000,0.000000,0.000000,0.000000,0.000000,0.000000
11817681.000000,-2.355503,-1.663313,1.131475,-1.404491,1.743247,1.177668,-0.567451,0.381719,-0.022326,0.822925,-0.388640,-0.325896,0.711830,-0.110669,0.474897,44.347576,-24.488113,-5.475282,0.542386,2.001449,-0.169511,0.000000,0.000000,0.000000,0.000000,0.000000,0.000000
11817682.000000,-2.355129,-1.663333,1.132312,-1.404887,1.742931,1.178367,-0.567559,0.381825,-0.022376,0.820834,-0.389395,-0.322962,0.708790,-0.110586,0.427289,44.323772,-24.559525,-5.253114,0.512174,2.131454,-0.188737,0.000000,0.000000,0.000000,0.000000,0.000000,0.000000
11817683.000000,-2.354756,-1.663346,1.133151,-1.405267,1.742596,1.179090,-0.567667,0.380213,-0.020788,0.823121,-0.385947,-0.324670,0.700660,-0.112407,0.427289,44.224590,-24.706314,-5.229311,0.578092,2.137862,-0.155778,0.000000,0.000000,0.000000,0.000000,0.000000,0.000000
11817684.000000,-2.354388,-1.663356,1.133974,-1.405664,1.742271,1.179812,-0.567766,0.378635,-0.018763,0.822695,-0.387797,-0.325234,0.710427,-0.104883,0.474897,44.077801,-24.781693,-4.983339,0.625699,2.001449,-0.235429,0.000000,0.000000,0.000000,0.000000,0.000000,0.000000
11817685.000000,-2.354003,-1.663370,1.134799,-1.406063,1.741946,1.180539,-0.567880,0.376033,-0.015941,0.817296,-0.390641,-0.319706,0.712179,-0.105167,0.375715,44.002422,-24.829300,-4.832582,0.661405,1.988631,-0.163102,0.000000,0.000000,0.000000,0.000000,0.000000,0.000000
11817686.000000,-2.353628,-1.663375,1.135612,-1.406452,1.741629,1.181264,-0.567989,0.370952,-0.014601,0.813670,-0.390037,-0.325329,0.713713,-0.102002,0.427289,43.831829,-24.829300,-4.661989,0.685209,1.981307,-0.163102,0.000000,0.000000,0.000000,0.000000,0.000000,0.000000
11817687.000000,-2.353253,-1.663384,1.136435,-1.406848,1.741300,1.181977,-0.568089,0.371112,-0.013084,0.812317,-0.387939,-0.328723,0.711641,-0.102248,0.375715,43.760418,-24.880875,-4.535036,0.685209,1.936446,-0.229020,0.000000,0.000000,0.000000,0.000000,0.000000,0.000000
11817688.000000,-2.352883,-1.663383,1.137251,-1.407227,1.740977,1.182704,-0.568205,0.369857,-0.008901,0.807318,-0.384375,-0.326270,0.713689,-0.108507,0.451093,43.562054,-24.757889,-4.535036,0.685209,1.884261,-0.136552,0.000000,0.000000,0.000000,0.000000,0.000000,0.000000
11817689.000000,-2.352518,-1.663391,1.138043,-1.407611,1.740670,1.183409,-0.568308,0.367142,-0.008919,0.802333,-0.380833,-0.318030,0.706470,-0.103019,0.526471,43.490643,-24.535721,-4.586610,0.632108,1.962081,-0.182328,0.000000,0.000000,0.000000,0.000000,0.000000,0.000000
11817691.000000,-2.351774,-1.663380,1.139676,-1.408370,1.740045,1.184846,-0.568524,0.370676,0.003005,0.816203,-0.380303,-0.324741,0.719292,-0.099811,0.601850,43.026470,-24.464310,-4.562807,0.578092,2.131454,-0.155778,0.000000,0.000000,0.000000,0.000000,0.000000,0.000000
11817692.000000,-2.351409,-1.663372,1.140474,-1.408748,1.739733,1.185574,-0.568626,0.368270,0.006974,0.810813,-0.376841,-0.318618,0.720112,-0.097890,0.601850,42.780499,-24.365128,-4.511232,0.566190,2.104903,-0.155778,0.000000,0.000000,0.000000,0.000000,0.000000,0.000000
11817693.000000,-2.351026,-1.663370,1.141283,-1.409126,1.739422,1.186315,-0.568728,0.369367,0.001597,0.802942,-0.379987,-0.315835,0.718104,-0.096224,0.474897,42.609905,-24.388931,-4.364442,0.613798,1.981307,-0.175919,0.000000,0.000000,0.000000,0.000000,0.000000,0.000000
11817694.000000,-2.350657,-1.663353,1.142088,-1.409514,1.739115,1.187034,-0.568828,0.371428,0.005694,0.802385,-0.377931,-0.313913,0.729199,-0.094928,0.474897,42.240948,-24.464310,-4.142274,0.655912,1.949264,-0.196061,0.000000,0.000000,0.000000,0.000000,0.000000,0.000000
11817695.000000,-2.350283,-1.663342,1.142910,-1.409893,1.738809,1.187769,-0.568934,0.369624,0.005954,0.805639,-0.376986,-0.305472,0.730415,-0.096474,0.474897,41.971172,-24.734085,-3.991518,0.655912,1.968490,-0.149369,0.000000,0.000000,0.000000,0.000000,0.000000,0.000000
11817696.000000,-2.349908,-1.663336,1.143724,-1.410261,1.738506,1.188493,-0.569031,0.364810,0.003786,0.803501,-0.373720,-0.304170,0.730211,-0.094166,0.474897,41.800579,-24.805496,-3.967714,0.649503,2.001449,-0.188737,0.000000,0.000000,0.000000,0.000000,0.000000,0.000000
11817697.000000,-2.349547,-1.663334,1.144519,-1.410630,1.738218,1.189210,-0.569140,0.356699,0.003828,0.798190,-0.367422,-0.297446,0.722581,-0.100690,0.625654,41.701397,-24.857071,-3.943910,0.613798,1.995040,-0.142960,0.000000,0.000000,0.000000,0.000000,0.000000,0.000000
11817698.000000,-2.349186,-1.663337,1.145329,-1.410999,1.737924,1.189911,-0.569239,0.354403,0.001140,0.800442,-0.373784,-0.298395,0.713828,-0.096907,0.796247,41.729168,-24.952286,-3.920107,0.625699,2.169906,-0.196061,0.000000,0.000000,0.000000,0.000000,0.000000,0.000000
11817699.000000,-2.348834,-1.663334,1.146118,-1.411362,1.737634,1.190612,-0.569343,0.358620,0.000838,0.795191,-0.367987,-0.292420,0.704089,-0.095664,1.046186,41.701397,-24.976089,-3.920107,0.571683,2.339278,-0.208878,0.000000,0.000000,0.000000,0.000000,0.000000,0.000000
11817700.000000,-2.348475,-1.663338,1.146909,-1.411735,1.737336,1.191308,-0.569448,0.355296,-0.001634,0.794510,-0.368166,-0.297494,0.705683,-0.097690,1.169172,41.776775,-24.857071,-3.844728,0.637601,2.404281,-0.149369,0.000000,0.000000,0.000000,0.000000,0.000000,0.000000
11817701.000000,-2.348123,-1.663339,1.147701,-1.412105,1.737048,1.192034,-0.569548,0.351913,-0.002524,0.788253,-0.367520,-0.294444,0.714533,-0.095437,1.343732,41.824383,-24.757889,-3.697939,0.661405,2.209274,-0.182328,0.000000,0.000000,0.000000,0.000000,0.000000,0.000000
11817702.000000,-2.347772,-1.663344,1.148482,-1.412469,1.736768,1.192757,-0.569652,0.352815,-0.003687,0.790876,-0.366192,-0.290284,0.716278,-0.100786,1.490522,41.899761,-24.682510,-3.670168,0.632108,2.047225,-0.155778,0.000000,0.000000,0.000000,0.000000,0.000000,0.000000
11817703.000000,-2.347419,-1.663348,1.149263,-1.412843,1.736473,1.193486,-0.569747,0.352852,-0.003196,0.782707,-0.368870,-0.293424,0.724809,-0.096905,1.613508,41.923565,-24.488113,-3.523378,0.655912,1.936446,-0.215287,0.000000,0.000000,0.000000,0.000000,0.000000,0.000000
11817704.000000,-2.347067,-1.663348,1.150034,-1.413200,1.736187,1.194205,-0.569857,0.349284,-0.002266,0.783065,-0.365844,-0.290371,0.719122,-0.098091,1.740461,41.923565,-24.265945,-3.448000,0.649503,1.903487,-0.163102,0.000000,0.000000,0.000000,0.000000,0.000000,0.000000
11817705.000000,-2.346730,-1.663350,1.150810,-1.413556,1.735901,1.194922,-0.569951,0.343512,-0.002169,0.779540,-0.359949,-0.284552,0.723311,-0.095846,1.911054,41.947369,-23.996170,-3.499574,0.667814,1.884261,-0.196061,0.000000,0.000000,0.000000,0.000000,0.000000,0.000000
11817706.000000,-2.346393,-1.663352,1.151580,-1.413912,1.735624,1.195646,-0.570050,0.335988,-0.002079,0.777759,-0.356271,-0.283041,0.716148,-0.095941,2.160993,41.971172,-23.627213,-3.424196,0.644010,1.858627,-0.182328,0.000000,0.000000,0.000000,0.000000,0.000000,0.000000
11817707.000000,-2.346053,-1.663343,1.152344,-1.414268,1.735342,1.196359,-0.570152,0.338174,0.001433,0.779087,-0.353498,-0.286493,0.716233,-0.096463,2.283979,41.848186,-23.456619,-3.475771,0.589994,1.858627,-0.155778,0.000000,0.000000,0.000000,0.000000,0.000000,0.000000
11817708.000000,-2.345709,-1.663335,1.153117,-1.414620,1.735053,1.197086,-0.570239,0.339377,0.003697,0.775683,-0.349179,-0.288821,0.727262,-0.093670,2.430768,41.729168,-23.309830,-3.499574,0.566190,1.825668,-0.215287,0.000000,0.000000,0.000000,0.000000,0.000000,0.000000
11817709.000000,-2.345356,-1.663320,1.153893,-1.414978,1.734760,1.197837,-0.570345,0.343301,0.006516,0.783397,-0.352126,-0.292927,0.729772,-0.096189,2.454572,41.554607,-23.210648,-3.400392,0.632108,1.695663,-0.149369,0.000000,0.000000,0.000000,0.000000,0.000000,0.000000
11817710.000000,-2.345018,-1.663309,1.154645,-1.415343,1.734475,1.198565,-0.570439,0.341572,0.007753,0.772107,-0.351927,-0.282395,0.732225,-0.098775,2.482343,41.407818,-23.016251,-3.225832,0.673307,1.643478,-0.175919,0.000000,0.000000,0.000000,0.000000,0.000000,0.000000
11817711.000000,-2.344663,-1.663293,1.155410,-1.415703,1.734187,1.199291,-0.570538,0.346013,0.009698,0.764971,-0.355296,-0.284039,0.717943,-0.098682,2.406965,41.213421,-22.893265,-3.055238,0.727323,1.617843,-0.149369,0.000000,0.000000,0.000000,0.000000,0.000000,0.000000
11817712.000000,-2.344317,-1.663275,1.156176,-1.416056,1.733902,1.200021,-0.570635,0.345364,0.012205,0.767295,-0.353138,-0.289728,0.734533,-0.097737,2.383161,40.967449,-22.940872,-3.079042,0.751127,1.670028,-0.142960,0.000000,0.000000,0.000000,0.000000,0.000000,0.000000
11817713.000000,-2.343966,-1.663258,1.156951,-1.416406,1.733626,1.200745,-0.570727,0.342675,0.016310,0.764550,-0.352085,-0.286074,0.732476,-0.095651,2.359357,40.749249,-22.964676,-3.079042,0.715421,1.617843,-0.175919,0.000000,0.000000,0.000000,0.000000,0.000000,0.000000
11817714.000000,-2.343616,-1.663233,1.157720,-1.416750,1.733355,1.201479,-0.570819,0.343466,0.016876,0.760680,-0.349601,-0.277964,0.729032,-0.093943,2.307783,40.503277,-22.893265,-3.178224,0.649503,1.572067,-0.208878,0.000000,0.000000,0.000000,0.000000,0.000000,0.000000
11817715.000000,-2.343269,-1.663216,1.158483,-1.417100,1.733085,1.202184,-0.570913,0.347777,0.018040,0.762846,-0.345818,-0.279658,0.725503,-0.093666,2.232404,40.356487,-22.893265,-3.202028,0.661405,1.695663,-0.221696,0.000000,0.000000,0.000000,0.000000,0.000000,0.000000
11817716.000000,-2.342919,-1.663194,1.159249,-1.417442,1.732815,1.202887,-0.571016,0.348996,0.020797,0.760450,-0.353600,-0.272518,0.710381,-0.096097,2.208601,40.134319,-22.940872,-3.249635,0.589994,1.923629,-0.163102,0.000000,0.000000,0.000000,0.000000,0.000000,0.000000
11817717.000000,-2.342562,-1.663172,1.160006,-1.417794,1.732549,1.203610,-0.571108,0.350802,0.021572,0.756308,-0.352324,-0.274728,0.706404,-0.094054,2.085615,39.963726,-22.964676,-3.154421,0.571683,1.981307,-0.196061,0.000000,0.000000,0.000000,0.000000,0.000000,0.000000
11817718.000000,-2.342213,-1.663151,1.160767,-1.418140,1.732278,1.204333,-0.571206,0.352351,0.021592,0.754371,-0.347273,-0.273369,0.714638,-0.091104,2.034040,39.816936,-22.893265,-3.079042,0.589994,1.858627,-0.149369,0.000000,0.000000,0.000000,0.000000,0.000000,0.000000
11817719.000000,-2.341857,-1.663128,1.161538,-1.418473,1.732014,1.205076,-0.571295,0.348897,0.019158,0.755208,-0.342939,-0.265861,0.719863,-0.090718,1.887250,39.646343,-22.940872,-3.178224,0.578092,1.695663,-0.175919,0.000000,0.000000,0.000000,0.000000,0.000000,0.000000
11817720.000000,-2.341503,-1.663100,1.162297,-1.418813,1.731751,1.205790,-0.571385,0.352268,0.022147,0.758873,-0.339583,-0.266634,0.724588,-0.090168,1.764264,39.400372,-22.964676,-3.126650,0.601896,1.676437,-0.215287,0.000000,0.000000,0.000000,0.000000,0.000000,0.000000
11817721.000000,-2.341148,-1.663075,1.163054,-1.419141,1.731483,1.206506,-0.571485,0.347812,0.023607,0.760055,-0.332286,-0.260392,0.715651,-0.094061,1.712690,39.182171,-22.841690,-3.301210,0.589994,1.735030,-0.142960,0.000000,0.000000,0.000000,0.000000,0.000000,0.000000
11817722.000000,-2.340785,-1.663059,1.163784,-1.419463,1.731220,1.207225,-0.571570,0.354643,0.020871,0.767641,-0.325828,-0.262452,0.714875,-0.090535,1.613508,39.130596,-22.472733,-3.400392,0.620206,1.779891,-0.229020,0.000000,0.000000,0.000000,0.000000,0.000000,0.000000
11817723.000000,-2.340431,-1.663040,1.164535,-1.419778,1.730963,1.207922,-0.571666,0.358868,0.023186,0.764738,-0.321200,-0.262981,0.707518,-0.093335,1.514325,39.035381,-22.302139,-3.598757,0.632108,1.877853,-0.221696,0.000000,0.000000,0.000000,0.000000,0.000000,0.000000
11817724.000000,-2.340076,-1.663020,1.165305,-1.420092,1.730716,1.208630,-0.571764,0.354880,0.024582,0.762914,-0.316695,-0.259337,0.701897,-0.095422,1.367536,38.960003,-22.325943,-3.745546,0.535978,1.942855,-0.175919,0.000000,0.000000,0.000000,0.000000,0.000000,0.000000
11817725.000000,-2.339716,-1.662998,1.166051,-1.420409,1.730469,1.209337,-0.571857,0.357465,0.023785,0.758888,-0.311156,-0.256908,0.719679,-0.089843,1.192975,38.837017,-22.230728,-3.844728,0.434354,1.838485,-0.188737,0.000000,0.000000,0.000000,0.000000,0.000000,0.000000
11817726.000000,-2.339349,-1.662981,1.166809,-1.420727,1.730211,1.210068,-0.571946,0.356950,0.020878,0.753125,-0.313584,-0.252434,0.725626,-0.090896,0.994611,38.813213,-22.202957,-3.943910,0.398649,1.656295,-0.188737,0.000000,0.000000,0.000000,0.000000,0.000000,0.000000
11817727.000000,-2.338983,-1.662959,1.167570,-1.421040,1.729944,1.210794,-0.572033,0.361999,0.023720,0.753500,-0.313910,-0.261135,0.723767,-0.090324,0.847822,38.717999,-22.179153,-3.967714,0.458158,1.519881,-0.221696,0.000000,0.000000,0.000000,0.000000,0.000000,0.000000
11817728.000000,-2.338615,-1.662943,1.168329,-1.421350,1.729696,1.211475,-0.572137,0.361763,0.023475,0.753248,-0.309496,-0.260610,0.710680,-0.094233,0.574079,38.717999,-22.278336,-4.019289,0.422452,1.689254,-0.130143,0.000000,0.000000,0.000000,0.000000,0.000000,0.000000
11817729.000000,-2.338254,-1.662934,1.169094,-1.421646,1.729438,1.212175,-0.572220,0.361011,0.021254,0.755108,-0.307815,-0.256781,0.706006,-0.092107,0.427289,38.813213,-22.401321,-4.213686,0.428861,1.832076,-0.182328,0.000000,0.000000,0.000000,0.000000,0.000000,0.000000
11817730.000000,-2.337899,-1.662927,1.169842,-1.421952,1.729177,1.212895,-0.572311,0.366214,0.016830,0.748642,-0.305695,-0.258924,0.702947,-0.092568,0.375715,38.912395,-22.425125,-4.265260,0.428861,1.760665,-0.182328,0.000000,0.000000,0.000000,0.000000,0.000000,0.000000
11817731.000000,-2.337540,-1.662915,1.170600,-1.422236,1.728916,1.213605,-0.572402,0.366483,0.017759,0.748643,-0.300132,-0.256538,0.704244,-0.094231,0.328107,38.960003,-22.524307,-4.610414,0.464567,1.702071,-0.149369,0.000000,0.000000,0.000000,0.000000,0.000000,0.000000
11817732.000000,-2.337176,-1.662903,1.171359,-1.422534,1.728664,1.214291,-0.572486,0.363832,0.013520,0.747702,-0.301841,-0.252724,0.700311,-0.092088,0.252729,38.960003,-22.571915,-4.610414,0.440763,1.865035,-0.202470,0.000000,0.000000,0.000000,0.000000,0.000000,0.000000
11817733.000000,-2.336816,-1.662898,1.172103,-1.422819,1.728418,1.214973,-0.572579,0.361680,0.013726,0.748730,-0.295680,-0.250165,0.694242,-0.089771,0.078168,39.082989,-22.548111,-4.733400,0.422452,2.039901,-0.155778,0.000000,0.000000,0.000000,0.000000,0.000000,0.000000
11817734.000000,-2.336455,-1.662897,1.172854,-1.423107,1.728161,1.215683,-0.572657,0.363629,0.010356,0.745797,-0.298874,-0.255920,0.698794,-0.083170,-0.017047,39.229778,-22.448929,-4.757204,0.494779,1.955673,-0.235429,0.000000,0.000000,0.000000,0.000000,0.000000,0.000000
11817735.000000,-2.336094,-1.662891,1.173597,-1.423387,1.727909,1.216406,-0.572746,0.361543,0.009091,0.748895,-0.289476,-0.253285,0.705823,-0.086958,-0.068621,39.328960,-22.353714,-4.931764,0.494779,1.779891,-0.208878,0.000000,0.000000,0.000000,0.000000,0.000000,0.000000
11817736.000000,-2.335732,-1.662895,1.174353,-1.423667,1.727655,1.217107,-0.572841,0.361622,0.006641,0.750919,-0.287825,-0.249213,0.704017,-0.090817,-0.191607,39.499554,-22.377518,-5.007143,0.440763,1.779891,-0.155778,0.000000,0.000000,0.000000,0.000000,0.000000,0.000000
11817737.000000,-2.335376,-1.662893,1.175111,-1.423939,1.727408,1.217815,-0.572924,0.354103,0.006509,0.745541,-0.284817,-0.246123,0.701275,-0.089819,-0.215411,39.598736,-22.377518,-5.177736,0.386747,1.767074,-0.202470,0.000000,0.000000,0.000000,0.000000,0.000000,0.000000
11817738.000000,-2.335032,-1.662893,1.175837,-1.424215,1.727167,1.218527,-0.573019,0.349689,0.004686,0.742267,-0.280711,-0.245230,0.703981,-0.088203,-0.191607,39.769329,-22.131546,-5.276918,0.362943,1.676437,-0.149369,0.000000,0.000000,0.000000,0.000000,0.000000,0.000000
11817739.000000,-2.334685,-1.662902,1.176578,-1.424477,1.726920,1.219246,-0.573101,0.346803,0.001693,0.736203,-0.275217,-0.244534,0.710507,-0.088589,-0.092425,40.015301,-21.909378,-5.499086,0.356534,1.591293,-0.175919,0.000000,0.000000,0.000000,0.000000,0.000000,0.000000
11817740.000000,-2.334331,-1.662902,1.177320,-1.424742,1.726680,1.219967,-0.573186,0.341313,0.003080,0.754118,-0.272253,-0.246137,0.707960,-0.089507,-0.116229,40.110516,-21.837967,-5.673646,0.303434,1.578475,-0.182328,0.000000,0.000000,0.000000,0.000000,0.000000,0.000000
11817741.000000,-2.333981,-1.662901,1.178067,-1.424999,1.726437,1.220665,-0.573275,0.344873,0.001949,0.751674,-0.267270,-0.245755,0.703851,-0.087922,-0.144000,40.162090,-21.714981,-5.947389,0.291532,1.630660,-0.155778,0.000000,0.000000,0.000000,0.000000,0.000000,0.000000
11817742.000000,-2.333630,-1.662901,1.178809,-1.425255,1.726192,1.221378,-0.573357,0.339580,0.001013,0.744423,-0.264789,-0.241999,0.702095,-0.084425,-0.191607,40.209698,-21.492813,-6.070375,0.320829,1.605026,-0.163102,0.000000,0.000000,0.000000,0.000000,0.000000,0.000000
11817743.000000,-2.333280,-1.662899,1.179542,-1.425523,1.725952,1.222101,-0.573444,0.345619,0.003443,0.741948,-0.264402,-0.245111,0.725261,-0.081607,-0.314593,40.257305,-21.369827,-6.117982,0.381254,1.487838,-0.175919,0.000000,0.000000,0.000000,0.000000,0.000000,0.000000
11817744.000000,-2.332922,-1.662894,1.180289,-1.425790,1.725717,1.222813,-0.573525,0.350502,0.004146,0.738045,-0.264272,-0.239168,0.718597,-0.079343,-0.441546,40.209698,-21.346024,-6.141786,0.356534,1.494247,-0.196061,0.000000,0.000000,0.000000,0.000000,0.000000,0.000000
11817745.000000,-2.332564,-1.662887,1.181043,-1.426050,1.725478,1.223539,-0.573613,0.354047,0.004430,0.740823,-0.262201,-0.241579,0.717451,-0.084928,-0.588336,40.162090,-21.369827,-6.117982,0.291532,1.494247,-0.142960,0.000000,0.000000,0.000000,0.000000,0.000000,0.000000
11817746.000000,-2.332217,-1.662878,1.181783,-1.426314,1.725245,1.224253,-0.573683,0.352446,0.006245,0.740819,-0.264731,-0.240865,0.721496,-0.079051,-0.588336,40.039104,-21.369827,-6.141786,0.243009,1.513473,-0.221696,0.000000,0.000000,0.000000,0.000000,0.000000,0.000000
11817747.000000,-2.331869,-1.662866,1.182540,-1.426574,1.725008,1.224975,-0.573767,0.346786,0.008464,0.745629,-0.269976,-0.237509,0.718225,-0.079435,-0.663714,39.868511,-21.469009,-6.117982,0.255826,1.532699,-0.188737,0.000000,0.000000,0.000000,0.000000,0.000000,0.000000
11817748.000000,-2.331523,-1.662856,1.183288,-1.426831,1.724780,1.225689,-0.573850,0.353611,0.008196,0.744325,-0.264987,-0.234236,0.708794,-0.078841,-0.735125,39.769329,-21.591995,-6.141786,0.243009,1.649886,-0.175919,0.000000,0.000000,0.000000,0.000000,0.000000,0.000000
11817749.000000,-2.331176,-1.662843,1.184048,-1.427099,1.724547,1.226392,-0.573933,0.349607,0.012164,0.744232,-0.266356,-0.233430,0.703950,-0.077528,-0.735125,39.622540,-21.762589,-6.070375,0.273221,1.727706,-0.188737,0.000000,0.000000,0.000000,0.000000,0.000000,0.000000
11817750.000000,-2.330828,-1.662830,1.184816,-1.427357,1.724310,1.227104,-0.574019,0.349920,0.011932,0.747270,-0.265656,-0.236616,0.703654,-0.077900,-0.735125,39.475750,-21.960953,-6.070375,0.285123,1.800033,-0.163102,0.000000,0.000000,0.000000,0.000000,0.000000,0.000000
11817751.000000,-2.330483,-1.662818,1.185571,-1.427623,1.724071,1.227812,-0.574100,0.346830,0.013723,0.750215,-0.263316,-0.230541,0.709383,-0.076020,-0.834307,39.376568,-22.155350,-5.994997,0.315336,1.760665,-0.196061,0.000000,0.000000,0.000000,0.000000,0.000000,0.000000
11817752.000000,-2.330143,-1.662810,1.186334,-1.427892,1.723841,1.228523,-0.574190,0.339194,0.010187,0.752134,-0.269608,-0.228352,0.707886,-0.077492,-0.885882,39.352764,-22.278336,-5.919618,0.297025,1.727706,-0.155778,0.000000,0.000000,0.000000,0.000000,0.000000,0.000000
11817753.000000,-2.329806,-1.662803,1.187091,-1.428155,1.723612,1.229227,-0.574273,0.334242,0.006039,0.755989,-0.265288,-0.228613,0.708493,-0.075431,-0.810504,39.400372,-22.448929,-5.895814,0.315336,1.773483,-0.188737,0.000000,0.000000,0.000000,0.000000,0.000000,0.000000
11817754.000000,-2.329470,-1.662797,1.187850,-1.428424,1.723387,1.229905,-0.574354,0.335146,0.006925,0.752707,-0.265390,-0.231120,0.692707,-0.079335,-0.786700,39.428143,-22.500504,-5.848207,0.273221,1.877853,-0.208878,0.000000,0.000000,0.000000,0.000000,0.000000,0.000000
11817755.000000,-2.329136,-1.662786,1.188609,-1.428689,1.723154,1.230598,-0.574441,0.332806,0.008138,0.748810,-0.268056,-0.233665,0.684858,-0.080347,-0.663714,39.428143,-22.500504,-5.848207,0.249418,1.968490,-0.155778,0.000000,0.000000,0.000000,0.000000,0.000000,0.000000
11817756.000000,-2.328802,-1.662781,1.189355,-1.428970,1.722920,1.231289,-0.574522,0.334348,0.008067,0.745564,-0.272103,-0.236297,0.681931,-0.082221,-0.635943,39.475750,-22.448929,-5.749025,0.237516,1.909896,-0.196061,0.000000,0.000000,0.000000,0.000000,0.000000,0.000000
11817757.000000,-2.328472,-1.662769,1.190109,-1.429252,1.722678,1.232002,-0.574608,0.330583,0.011023,0.744788,-0.272338,-0.229835,0.690348,-0.086508,-0.612139,39.400372,-22.377518,-5.649843,0.267728,1.806442,-0.163102,0.000000,0.000000,0.000000,0.000000,0.000000,0.000000
11817758.000000,-2.328143,-1.662757,1.190873,-1.429535,1.722447,1.232699,-0.574688,0.328753,0.012865,0.764539,-0.276558,-0.227415,0.697072,-0.081776,-0.489153,39.328960,-22.377518,-5.499086,0.255826,1.806442,-0.208878,0.000000,0.000000,0.000000,0.000000,0.000000,0.000000
11817759.000000,-2.327812,-1.662753,1.191626,-1.429825,1.722211,1.233384,-0.574769,0.331035,0.008876,0.765767,-0.279271,-0.227608,0.691117,-0.081712,-0.441546,39.352764,-22.401321,-5.328493,0.267728,1.851302,-0.196061,0.000000,0.000000,0.000000,0.000000,0.000000,0.000000
11817760.000000,-2.327481,-1.662741,1.192388,-1.430117,1.721970,1.234087,-0.574855,0.329271,0.010839,0.763359,-0.283001,-0.233992,0.693844,-0.080657,-0.314593,39.305157,-22.425125,-5.106325,0.327238,1.786300,-0.182328,0.000000,0.000000,0.000000,0.000000,0.000000,0.000000
11817761.000000,-2.327161,-1.662737,1.193133,-1.430412,1.721726,1.234781,-0.574936,0.326276,0.009438,0.757916,-0.285270,-0.238378,0.703429,-0.079982,-0.191607,39.376568,-22.425125,-4.907960,0.374845,1.714889,-0.163102,0.000000,0.000000,0.000000,0.000000,0.000000,0.000000
11817762.000000,-2.326840,-1.662724,1.193907,-1.430708,1.721490,1.235477,-0.575010,0.325387,0.011393,0.762712,-0.286056,-0.235032,0.696880,-0.077602,-0.116229,39.328960,-22.718704,-4.733400,0.381254,1.735030,-0.196061,0.000000,0.000000,0.000000,0.000000,0.000000,0.000000
11817763.000000,-2.326514,-1.662718,1.194676,-1.430998,1.721258,1.236162,-0.575088,0.328238,0.011082,0.759367,-0.286705,-0.231555,0.686747,-0.076455,-0.044818,39.352764,-22.817886,-4.562807,0.351041,1.871444,-0.208878,0.000000,0.000000,0.000000,0.000000,0.000000,0.000000
11817764.000000,-2.326198,-1.662708,1.195441,-1.431301,1.721025,1.236855,-0.575177,0.321906,0.012461,0.758822,-0.288851,-0.226822,0.690056,-0.082896,0.078168,39.305157,-23.016251,-4.289064,0.386747,1.871444,-0.142960,0.000000,0.000000,0.000000,0.000000,0.000000,0.000000
11817765.000000,-2.325879,-1.662712,1.196217,-1.431592,1.720792,1.237545,-0.575248,0.319700,0.005819,0.761189,-0.294762,-0.227559,0.689387,-0.078667,0.205121,39.451946,-23.258255,-4.166078,0.422452,1.936446,-0.202470,0.000000,0.000000,0.000000,0.000000,0.000000,0.000000
11817766.000000,-2.325569,-1.662709,1.196977,-1.431886,1.720554,1.238239,-0.575333,0.322967,0.003475,0.759234,-0.292528,-0.232779,0.689365,-0.078105,0.351911,39.499554,-23.432816,-4.019289,0.434354,2.014266,-0.196061,0.000000,0.000000,0.000000,0.000000,0.000000,0.000000
11817767.000000,-2.325253,-1.662708,1.197753,-1.432196,1.720317,1.238919,-0.575417,0.321137,0.004175,0.758736,-0.295696,-0.231558,0.694271,-0.083984,0.375715,39.574932,-23.651016,-3.797121,0.446256,2.085677,-0.149369,0.000000,0.000000,0.000000,0.000000,0.000000,0.000000
11817768.000000,-2.324933,-1.662710,1.198520,-1.432491,1.720080,1.239623,-0.575491,0.318342,0.001213,0.755970,-0.295457,-0.231003,0.693934,-0.084044,0.427289,39.670147,-23.750198,-3.697939,0.470060,1.981307,-0.208878,0.000000,0.000000,0.000000,0.000000,0.000000,0.000000
11817769.000000,-2.324627,-1.662715,1.199272,-1.432792,1.719849,1.240327,-0.575578,0.316089,-0.001576,0.754990,-0.295190,-0.231765,0.700125,-0.083882,0.601850,39.793133,-23.750198,-3.570986,0.518583,1.844894,-0.155778,0.000000,0.000000,0.000000,0.000000,0.000000,0.000000
11817770.000000,-2.324302,-1.662721,1.200029,-1.433093,1.719616,1.241008,-0.575646,0.317133,-0.002445,0.751710,-0.293955,-0.231257,0.687891,-0.079473,0.550275,39.868511,-23.702591,-3.523378,0.554288,1.890670,-0.215287,0.000000,0.000000,0.000000,0.000000,0.000000,0.000000
11817771.000000,-2.323992,-1.662725,1.200781,-1.433391,1.719386,1.241696,-0.575725,0.317120,-0.002467,0.755001,-0.296920,-0.228878,0.681380,-0.082927,0.673261,39.916119,-23.702591,-3.448000,0.530485,2.014266,-0.221696,0.000000,0.000000,0.000000,0.000000,0.000000,0.000000
11817772.000000,-2.323693,-1.662734,1.201530,-1.433682,1.719151,1.242381,-0.575810,0.311219,-0.003757,0.753643,-0.295074,-0.228025,0.681803,-0.083524,0.796247,40.015301,-23.528030,-3.523378,0.535978,2.007858,-0.155778,0.000000,0.000000,0.000000,0.000000,0.000000,0.000000
11817773.000000,-2.323388,-1.662749,1.202281,-1.433975,1.718921,1.243088,-0.575880,0.308986,-0.006339,0.754623,-0.292750,-0.228368,0.683023,-0.079097,0.923200,40.185894,-23.286026,-3.547182,0.554288,1.923629,-0.215287,0.000000,0.000000,0.000000,0.000000,0.000000,0.000000
11817774.000000,-2.323086,-1.662748,1.203028,-1.434271,1.718703,1.243785,-0.575965,0.303775,-0.003553,0.749506,-0.291470,-0.226041,0.688918,-0.079927,1.093793,40.162090,-23.186844,-3.547182,0.506681,1.858627,-0.169511,0.000000,0.000000,0.000000,0.000000,0.000000,0.000000
11817775.000000,-2.322777,-1.662750,1.203780,-1.434566,1.718488,1.244487,-0.576039,0.305404,-0.002838,0.744602,-0.293702,-0.223672,0.690854,-0.077275,1.121564,40.185894,-23.087662,-3.547182,0.452665,1.871444,-0.208878,0.000000,0.000000,0.000000,0.000000,0.000000,0.000000
11817776.000000,-2.322470,-1.662752,1.204517,-1.434866,1.718269,1.245207,-0.576119,0.305685,-0.002383,0.755382,-0.296580,-0.228378,0.700467,-0.078841,1.192975,40.209698,-22.917068,-3.376589,0.464567,1.786300,-0.149369,0.000000,0.000000,0.000000,0.000000,0.000000,0.000000
11817777.000000,-2.322167,-1.662750,1.205263,-1.435158,1.718044,1.245913,-0.576190,0.305508,-0.000982,0.746883,-0.292672,-0.223926,0.699083,-0.072583,1.192975,40.185894,-22.794083,-3.277406,0.482877,1.676437,-0.169511,0.000000,0.000000,0.000000,0.000000,0.000000,0.000000
11817778.000000,-2.321861,-1.662747,1.206018,-1.435452,1.717820,1.246622,-0.576264,0.308052,0.000588,0.748702,-0.296858,-0.220538,0.697395,-0.073933,1.169172,40.134319,-22.770279,-3.178224,0.512174,1.662704,-0.149369,0.000000,0.000000,0.000000,0.000000,0.000000,0.000000
11817779.000000,-2.321557,-1.662736,1.206760,-1.435743,1.717603,1.247309,-0.576335,0.310417,0.003854,0.747895,-0.295876,-0.216862,0.695893,-0.072905,1.145368,39.987530,-22.770279,-3.126650,0.506681,1.714889,-0.182328,0.000000,0.000000,0.000000,0.000000,0.000000,0.000000
11817780.000000,-2.321248,-1.662730,1.207507,-1.436025,1.717385,1.248011,-0.576408,0.309152,0.005374,0.744552,-0.289842,-0.215787,0.701168,-0.073652,1.121564,39.868511,-22.718704,-3.154421,0.554288,1.727706,-0.182328,0.000000,0.000000,0.000000,0.000000,0.000000,0.000000
11817781.000000,-2.320934,-1.662719,1.208252,-1.436311,1.717174,1.248714,-0.576485,0.309570,0.007032,0.738841,-0.290110,-0.218011,0.703693,-0.069672,1.022382,39.721722,-22.647293,-3.126650,0.542386,1.741439,-0.169511,0.000000,0.000000,0.000000,0.000000,0.000000,0.000000
11817782.000000,-2.320630,-1.662706,1.208999,-1.436595,1.716957,1.249402,-0.576552,0.305582,0.008783,0.742194,-0.286404,-0.220079,0.696760,-0.068914,0.970807,39.547161,-22.742508,-3.102846,0.542386,1.773483,-0.229020,0.000000,0.000000,0.000000,0.000000,0.000000,0.000000
11817783.000000,-2.320322,-1.662692,1.209754,-1.436873,1.716742,1.250098,-0.576628,0.306514,0.009855,0.742490,-0.286179,-0.215942,0.700010,-0.072841,0.871625,39.376568,-22.817886,-3.055238,0.530485,1.812850,-0.169511,0.000000,0.000000,0.000000,0.000000,0.000000,0.000000
11817784.000000,-2.320020,-1.662684,1.210495,-1.437166,1.716537,1.250793,-0.576698,0.309981,0.009453,0.746140,-0.289018,-0.218176,0.690161,-0.072076,0.847822,39.253582,-22.865494,-2.956056,0.512174,1.832076,-0.202470,0.000000,0.000000,0.000000,0.000000,0.000000,0.000000
11817785.000000,-2.319707,-1.662676,1.211248,-1.437454,1.716326,1.251489,-0.576769,0.308461,0.008534,0.744870,-0.287226,-0.215969,0.693743,-0.068801,0.748639,39.158367,-23.016251,-2.880678,0.530485,1.800033,-0.188737,0.000000,0.000000,0.000000,0.000000,0.000000,0.000000
11817787.000000,-2.319098,-1.662655,1.212736,-1.438014,1.715927,1.252877,-0.576905,0.307137,0.009521,0.739278,-0.285668,-0.210176,0.687646,-0.070912,0.772443,38.864788,-23.135269,-2.833071,0.464567,1.779891,-0.215287,0.000000,0.000000,0.000000,0.000000,0.000000,0.000000
11817788.000000,-2.318796,-1.662645,1.213478,-1.438290,1.715711,1.253563,-0.576981,0.306992,0.008669,0.737592,-0.282175,-0.214256,0.687932,-0.074768,0.724836,38.765606,-23.111465,-2.880678,0.476469,1.851302,-0.142960,0.000000,0.000000,0.000000,0.000000,0.000000,0.000000
11817789.000000,-2.318496,-1.662636,1.214213,-1.438551,1.715507,1.254253,-0.577042,0.303608,0.008101,0.737187,-0.277667,-0.210986,0.688409,-0.071411,0.772443,38.666424,-23.063858,-3.003664,0.428861,1.923629,-0.229020,0.000000,0.000000,0.000000,0.000000,0.000000,0.000000
11817790.000000,-2.318201,-1.662631,1.214947,-1.438830,1.715300,1.254937,-0.577110,0.300749,0.006516,0.731766,-0.280156,-0.210431,0.696221,-0.072562,0.871625,38.618816,-22.917068,-3.003664,0.434354,1.916305,-0.229020,0.000000,0.000000,0.000000,0.000000,0.000000,0.000000
11817791.000000,-2.317900,-1.662619,1.215685,-1.439097,1.715090,1.255636,-0.577183,0.298045,0.007778,0.728740,-0.275215,-0.210880,0.693729,-0.074160,0.847822,38.472027,-22.794083,-3.055238,0.464567,1.844894,-0.208878,0.000000,0.000000,0.000000,0.000000,0.000000,0.000000
11817792.000000,-2.317603,-1.662609,1.216411,-1.439369,1.714889,1.256318,-0.577255,0.296582,0.007506,0.726477,-0.274355,-0.210394,0.690640,-0.069748,0.824018,38.372845,-22.671097,-2.979860,0.476469,1.838485,-0.208878,0.000000,0.000000,0.000000,0.000000,0.000000,0.000000
11817793.000000,-2.317305,-1.662600,1.217148,-1.439643,1.714679,1.257011,-0.577322,0.296541,0.009168,0.727370,-0.276067,-0.211203,0.690379,-0.065987,0.824018,38.325237,-22.571915,-2.928285,0.530485,1.779891,-0.221696,0.000000,0.000000,0.000000,0.000000,0.000000,0.000000
11817794.000000,-2.317010,-1.662591,1.217893,-1.439905,1.714470,1.257717,-0.577395,0.295944,0.010765,0.744667,-0.273758,-0.212666,0.689794,-0.069852,0.871625,38.277630,-22.524307,-2.904482,0.506681,1.714889,-0.175919,0.000000,0.000000,0.000000,0.000000,0.000000,0.000000
11817795.000000,-2.316719,-1.662583,1.218615,-1.440166,1.714266,1.258414,-0.577463,0.293378,0.011333,0.741258,-0.270533,-0.210003,0.694930,-0.071767,0.923200,38.249859,-22.401321,-2.904482,0.470060,1.630660,-0.163102,0.000000,0.000000,0.000000,0.000000,0.000000,0.000000
11817796.000000,-2.316425,-1.662578,1.219359,-1.440423,1.714061,1.259116,-0.577527,0.289545,0.009999,0.742417,-0.266542,-0.209872,0.696152,-0.071247,0.994611,38.301434,-22.448929,-3.003664,0.482877,1.565658,-0.196061,0.000000,0.000000,0.000000,0.000000,0.000000,0.000000
11817797.000000,-2.316133,-1.662568,1.220084,-1.440690,1.713869,1.259811,-0.577601,0.288854,0.009956,0.739945,-0.266647,-0.203441,0.707345,-0.073423,1.046186,38.325237,-22.472733,-2.979860,0.446256,1.656295,-0.163102,0.000000,0.000000,0.000000,0.000000,0.000000,0.000000
11817798.000000,-2.315837,-1.662567,1.220827,-1.440945,1.713672,1.260492,-0.577666,0.290882,0.005108,0.738235,-0.260961,-0.198655,0.703091,-0.071895,0.994611,38.424419,-22.548111,-3.055238,0.422452,1.727706,-0.215287,0.000000,0.000000,0.000000,0.000000,0.000000,0.000000
11817799.000000,-2.315549,-1.662563,1.221577,-1.441201,1.713467,1.261191,-0.577739,0.285303,0.005373,0.737377,-0.260764,-0.203924,0.701054,-0.073207,1.069990,38.495831,-22.742508,-3.102846,0.494779,1.727706,-0.202470,0.000000,0.000000,0.000000,0.000000,0.000000,0.000000
11817800.000000,-2.315256,-1.662559,1.222302,-1.441461,1.713268,1.261874,-0.577815,0.290724,0.006336,0.734923,-0.256690,-0.209312,0.699550,-0.070319,1.022382,38.543438,-22.742508,-3.154421,0.488370,1.760665,-0.169511,0.000000,0.000000,0.000000,0.000000,0.000000,0.000000
11817801.000000,-2.314957,-1.662554,1.223048,-1.441715,1.713063,1.262573,-0.577879,0.290528,0.006962,0.734642,-0.257243,-0.209314,0.692233,-0.069816,0.994611,38.595013,-22.988480,-3.154421,0.518583,1.819259,-0.215287,0.000000,0.000000,0.000000,0.000000,0.000000,0.000000
11817802.000000,-2.314664,-1.662555,1.223781,-1.441972,1.712872,1.263275,-0.577954,0.291986,0.005758,0.736155,-0.257533,-0.204261,0.694546,-0.072664,0.923200,38.717999,-23.135269,-3.225832,0.518583,1.819259,-0.175919,0.000000,0.000000,0.000000,0.000000,0.000000,0.000000
11817803.000000,-2.314369,-1.662559,1.224522,-1.442232,1.712675,1.263976,-0.578021,0.288030,0.001307,0.734712,-0.255458,-0.200715,0.702063,-0.072777,0.923200,38.864788,-23.186844,-3.249635,0.530485,1.779891,-0.188737,0.000000,0.000000,0.000000,0.000000,0.000000,0.000000
11817804.000000,-2.314070,-1.662559,1.225260,-1.442484,1.712475,1.264685,-0.578087,0.290908,-0.000679,0.735802,-0.253272,-0.199066,0.705113,-0.073125,0.796247,38.960003,-23.163040,-3.301210,0.566190,1.754256,-0.196061,0.000000,0.000000,0.000000,0.000000,0.000000,0.000000
11817805.000000,-2.313784,-1.662562,1.225989,-1.442734,1.712295,1.265373,-0.578159,0.290397,-0.002265,0.733380,-0.250995,-0.194132,0.700808,-0.074190,0.796247,39.059185,-23.135269,-3.376589,0.506681,1.819259,-0.182328,0.000000,0.000000,0.000000,0.000000,0.000000,0.000000
11817806.000000,-2.313496,-1.662567,1.226726,-1.442985,1.712105,1.266073,-0.578222,0.288685,-0.003450,0.728508,-0.245933,-0.194725,0.698637,-0.072805,0.847822,39.158367,-23.163040,-3.475771,0.452665,1.858627,-0.229020,0.000000,0.000000,0.000000,0.000000,0.000000,0.000000
11817807.000000,-2.313199,-1.662570,1.227446,-1.443228,1.711914,1.266779,-0.578300,0.289306,-0.003128,0.736265,-0.244663,-0.192640,0.696639,-0.070901,0.824018,39.205975,-23.040054,-3.598757,0.428861,1.793624,-0.169511,0.000000,0.000000,0.000000,0.000000,0.000000,0.000000
11817808.000000,-2.312911,-1.662572,1.228173,-1.443472,1.711724,1.267473,-0.578364,0.289325,-0.002428,0.730984,-0.244372,-0.187356,0.698979,-0.070448,0.824018,39.229778,-22.893265,-3.670168,0.434354,1.727706,-0.208878,0.000000,0.000000,0.000000,0.000000,0.000000,0.000000
11817809.000000,-2.312620,-1.662574,1.228912,-1.443709,1.711540,1.268167,-0.578436,0.289668,-0.001458,0.730140,-0.241063,-0.187662,0.694243,-0.073232,0.772443,39.229778,-22.841690,-3.769350,0.434354,1.682845,-0.169511,0.000000,0.000000,0.000000,0.000000,0.000000,0.000000
11817810.000000,-2.312337,-1.662576,1.229641,-1.443947,1.711358,1.268848,-0.578504,0.289565,-0.001408,0.729631,-0.239291,-0.183118,0.703938,-0.073900,0.772443,39.253582,-22.817886,-3.844728,0.428861,1.727706,-0.163102,0.000000,0.000000,0.000000,0.000000,0.000000,0.000000
11817811.000000,-2.312047,-1.662576,1.230362,-1.444179,1.711177,1.269543,-0.578566,0.290248,-0.000849,0.722986,-0.231515,-0.183660,0.703471,-0.067758,0.724836,39.253582,-22.571915,-3.920107,0.416959,1.708480,-0.208878,0.000000,0.000000,0.000000,0.000000,0.000000,0.000000
11817812.000000,-2.311754,-1.662582,1.231094,-1.444408,1.710991,1.270248,-0.578638,0.290854,-0.002261,0.719688,-0.231698,-0.185030,0.704142,-0.066578,0.673261,39.328960,-22.448929,-4.019289,0.446256,1.637069,-0.163102,0.000000,0.000000,0.000000,0.000000,0.000000,0.000000
11817813.000000,-2.311465,-1.662580,1.231816,-1.444638,1.710805,1.270936,-0.578694,0.291615,-0.000900,0.721842,-0.228556,-0.184877,0.703160,-0.065829,0.625654,39.305157,-22.425125,-4.090700,0.422452,1.624252,-0.229020,0.000000,0.000000,0.000000,0.000000,0.000000,0.000000
11817814.000000,-2.311165,-1.662580,1.232546,-1.444860,1.710623,1.271627,-0.578767,0.293304,-0.000562,0.722836,-0.226173,-0.183977,0.694681,-0.065867,0.474897,39.305157,-22.377518,-4.189882,0.374845,1.662704,-0.169511,0.000000,0.000000,0.000000,0.000000,0.000000,0.000000
11817815.000000,-2.310876,-1.662582,1.233266,-1.445081,1.710440,1.272326,-0.578834,0.298681,-0.000346,0.721579,-0.227473,-0.185954,0.694203,-0.063319,0.375715,39.305157,-22.377518,-4.289064,0.393156,1.682845,-0.169511,0.000000,0.000000,0.000000,0.000000,0.000000,0.000000
11817816.000000,-2.310583,-1.662583,1.233994,-1.445308,1.710258,1.273006,-0.578896,0.295902,-0.000209,0.719470,-0.225174,-0.182790,0.684418,-0.059940,0.205121,39.305157,-22.353714,-4.388246,0.422452,1.721298,-0.215287,0.000000,0.000000,0.000000,0.000000,0.000000,0.000000
11817817.000000,-2.310279,-1.662581,1.234733,-1.445527,1.710076,1.273701,-0.578969,0.298070,0.000433,0.718530,-0.224689,-0.179876,0.686820,-0.065970,0.006757,39.281353,-22.472733,-4.439821,0.434354,1.721298,-0.155778,0.000000,0.000000,0.000000,0.000000,0.000000,0.000000
11817818.000000,-2.309982,-1.662574,1.235467,-1.445746,1.709907,1.274390,-0.579030,0.298529,0.002621,0.724299,-0.221483,-0.180357,0.686244,-0.066064,-0.144000,39.182171,-22.623489,-4.463624,0.381254,1.689254,-0.215287,0.000000,0.000000,0.000000,0.000000,0.000000,0.000000
11817819.000000,-2.309688,-1.662574,1.236210,-1.445963,1.709732,1.275089,-0.579099,0.297224,0.001756,0.725219,-0.221985,-0.175551,0.690628,-0.064484,-0.243182,39.182171,-22.817886,-4.586610,0.332731,1.649886,-0.196061,0.000000,0.000000,0.000000,0.000000,0.000000,0.000000
11817820.000000,-2.309383,-1.662576,1.236938,-1.446180,1.709545,1.275785,-0.579168,0.296694,0.000621,0.728445,-0.217970,-0.179682,0.692791,-0.063100,-0.465350,39.205975,-22.940872,-4.685792,0.351041,1.643478,-0.175919,0.000000,0.000000,0.000000,0.000000,0.000000,0.000000
11817821.000000,-2.309092,-1.662571,1.237676,-1.446395,1.709364,1.276459,-0.579228,0.293238,0.002182,0.726799,-0.217385,-0.181510,0.684455,-0.059918,-0.564532,39.130596,-23.040054,-4.808778,0.339139,1.779891,-0.215287,0.000000,0.000000,0.000000,0.000000,0.000000,0.000000
11817822.000000,-2.308795,-1.662574,1.238421,-1.446602,1.709187,1.277136,-0.579296,0.294593,0.000252,0.732801,-0.214289,-0.178894,0.681878,-0.060894,-0.711321,39.182171,-23.186844,-4.931764,0.344633,1.916305,-0.169511,0.000000,0.000000,0.000000,0.000000,0.000000,0.000000
11817823.000000,-2.308502,-1.662576,1.239148,-1.446809,1.709015,1.277807,-0.579360,0.292353,-0.000386,0.732195,-0.209872,-0.176221,0.676077,-0.059303,-0.834307,39.205975,-23.210648,-5.130128,0.332731,1.955673,-0.182328,0.000000,0.000000,0.000000,0.000000,0.000000,0.000000
11817824.000000,-2.308204,-1.662576,1.239884,-1.447021,1.708840,1.278506,-0.579426,0.293095,-0.000255,0.734277,-0.208889,-0.174958,0.677472,-0.063990,-0.933489,39.205975,-23.286026,-5.253114,0.351041,1.832076,-0.163102,0.000000,0.000000,0.000000,0.000000,0.000000,0.000000
11817825.000000,-2.307903,-1.662574,1.240602,-1.447229,1.708675,1.279197,-0.579483,0.295687,0.000388,0.739442,-0.209024,-0.171289,0.676048,-0.060015,-1.108050,39.182171,-23.210648,-5.328493,0.308927,1.754256,-0.215287,0.000000,0.000000,0.000000,0.000000,0.000000,0.000000
11817826.000000,-2.307607,-1.662577,1.241337,-1.447439,1.708502,1.279874,-0.579555,0.294208,0.000260,0.734400,-0.207641,-0.174004,0.671377,-0.065691,-1.282611,39.182171,-23.258255,-5.304689,0.267728,1.760665,-0.155778,0.000000,0.000000,0.000000,0.000000,0.000000,0.000000
11817827.000000,-2.307310,-1.662581,1.242064,-1.447649,1.708319,1.280544,-0.579614,0.295090,-0.000939,0.729677,-0.207210,-0.178222,0.669549,-0.062822,-1.429400,39.229778,-23.111465,-5.276918,0.285123,1.825668,-0.169511,0.000000,0.000000,0.000000,0.000000,0.000000,0.000000
11817828.000000,-2.307022,-1.662586,1.242777,-1.447854,1.708140,1.281214,-0.579673,0.294564,-0.002389,0.720014,-0.205185,-0.177295,0.680480,-0.060527,-1.504779,39.305157,-22.964676,-5.304689,0.315336,1.877853,-0.188737,0.000000,0.000000,0.000000,0.000000,0.000000,0.000000
11817829.000000,-2.306728,-1.662588,1.243502,-1.448055,1.707968,1.281898,-0.579735,0.292443,-0.002149,0.715051,-0.202414,-0.174406,0.685118,-0.060501,-1.552386,39.328960,-22.817886,-5.376100,0.303434,1.890670,-0.163102,0.000000,0.000000,0.000000,0.000000,0.000000,0.000000
11817830.000000,-2.306435,-1.662592,1.244242,-1.448254,1.707799,1.282591,-0.579786,0.290715,-0.001989,0.718104,-0.201111,-0.172022,0.680706,-0.057105,-1.580157,39.352764,-22.917068,-5.427675,0.273221,1.851302,-0.221696,0.000000,0.000000,0.000000,0.000000,0.000000,0.000000
11817831.000000,-2.306151,-1.662593,1.244964,-1.448455,1.707632,1.283275,-0.579847,0.289364,-0.001326,0.718170,-0.201630,-0.165899,0.688453,-0.058441,-1.552386,39.352764,-22.917068,-5.526857,0.243009,1.767074,-0.196061,0.000000,0.000000,0.000000,0.000000,0.000000,0.000000
11817832.000000,-2.305866,-1.662600,1.245698,-1.448655,1.707462,1.283963,-0.579907,0.284850,-0.003204,0.717805,-0.205127,-0.168542,0.680696,-0.054084,-1.552386,39.451946,-22.964676,-5.526857,0.291532,1.760665,-0.175919,0.000000,0.000000,0.000000,0.000000,0.000000,0.000000
11817833.000000,-2.305586,-1.662611,1.246426,-1.448859,1.707290,1.284654,-0.579960,0.287687,-0.005012,0.725068,-0.205365,-0.170700,0.682504,-0.053063,-1.580157,39.574932,-23.163040,-5.475282,0.332731,1.832076,-0.215287,0.000000,0.000000,0.000000,0.000000,0.000000,0.000000
11817834.000000,-2.305301,-1.662622,1.247168,-1.449063,1.707118,1.285316,-0.580022,0.287796,-0.009223,0.726623,-0.208458,-0.174251,0.676682,-0.055518,-1.580157,39.693951,-23.357437,-5.427675,0.315336,1.968490,-0.175919,0.000000,0.000000,0.000000,0.000000,0.000000,0.000000
11817835.000000,-2.305013,-1.662633,1.247908,-1.449267,1.706940,1.286006,-0.580081,0.288467,-0.009840,0.725168,-0.209640,-0.173744,0.676671,-0.055162,-1.603961,39.840740,-23.555801,-5.427675,0.339139,1.962081,-0.188737,0.000000,0.000000,0.000000,0.000000,0.000000,0.000000
11817836.000000,-2.304741,-1.662645,1.248647,-1.449467,1.706775,1.286694,-0.580142,0.280192,-0.009074,0.731265,-0.206370,-0.170474,0.682749,-0.060935,-1.504779,39.939922,-23.801773,-5.451478,0.285123,1.838485,-0.169511,0.000000,0.000000,0.000000,0.000000,0.000000,0.000000
11817837.000000,-2.304455,-1.662654,1.249389,-1.449669,1.706606,1.287387,-0.580197,0.282418,-0.007958,0.727493,-0.204502,-0.170116,0.683708,-0.058779,-1.552386,40.015301,-24.019974,-5.475282,0.291532,1.793624,-0.196061,0.000000,0.000000,0.000000,0.000000,0.000000,0.000000
11817838.000000,-2.304178,-1.662669,1.250124,-1.449867,1.706439,1.288056,-0.580258,0.280968,-0.009404,0.728672,-0.204057,-0.170413,0.679462,-0.063067,-1.552386,40.185894,-24.218338,-5.451478,0.303434,1.897079,-0.188737,0.000000,0.000000,0.000000,0.000000,0.000000,0.000000
11817839.000000,-2.303907,-1.662686,1.250860,-1.450075,1.706271,1.288715,-0.580320,0.280564,-0.013617,0.722863,-0.203040,-0.170837,0.674692,-0.062365,-1.580157,40.356487,-24.265945,-5.451478,0.320829,2.027084,-0.163102,0.000000,0.000000,0.000000,0.000000,0.000000,0.000000
11817840.000000,-2.303631,-1.662703,1.251596,-1.450285,1.706098,1.289389,-0.580374,0.276164,-0.012846,0.727262,-0.202284,-0.172508,0.672839,-0.059577,-1.552386,40.503277,-24.289749,-5.328493,0.369352,2.098495,-0.196061,0.000000,0.000000,0.000000,0.000000,0.000000,0.000000
11817841.000000,-2.303363,-1.662716,1.252322,-1.450485,1.705924,1.290054,-0.580437,0.274926,-0.013716,0.727119,-0.197396,-0.171429,0.671543,-0.059633,-1.480975,40.578655,-24.289749,-5.376100,0.362943,2.072860,-0.175919,0.000000,0.000000,0.000000,0.000000,0.000000,0.000000
11817842.000000,-2.303097,-1.662731,1.253056,-1.450685,1.705749,1.290741,-0.580491,0.270198,-0.010707,0.726954,-0.197718,-0.174047,0.672531,-0.052439,-1.381793,40.626263,-24.341324,-5.399904,0.327238,1.988631,-0.221696,0.000000,0.000000,0.000000,0.000000,0.000000,0.000000
11817843.000000,-2.302830,-1.662744,1.253779,-1.450889,1.705581,1.291425,-0.580556,0.266224,-0.011753,0.740373,-0.201122,-0.172116,0.672527,-0.051156,-1.254840,40.673870,-24.289749,-5.427675,0.327238,1.890670,-0.155778,0.000000,0.000000,0.000000,0.000000,0.000000,0.000000
11817844.000000,-2.302572,-1.662753,1.254508,-1.451098,1.705408,1.292104,-0.580607,0.264267,-0.011076,0.730044,-0.201371,-0.167276,0.676286,-0.051199,-1.159625,40.650066,-24.242142,-5.399904,0.339139,1.825668,-0.188737,0.000000,0.000000,0.000000,0.000000,0.000000,0.000000
11817845.000000,-2.302309,-1.662773,1.255233,-1.451303,1.705231,1.292771,-0.580666,0.262928,-0.014082,0.727029,-0.201921,-0.169422,0.670194,-0.057236,-1.108050,40.773052,-23.996170,-5.376100,0.381254,1.858627,-0.188737,0.000000,0.000000,0.000000,0.000000,0.000000,0.000000
11817846.000000,-2.302048,-1.662778,1.255957,-1.451512,1.705066,1.293431,-0.580724,0.262290,-0.011525,0.727013,-0.203842,-0.169027,0.683299,-0.056725,-1.032672,40.697674,-23.948563,-5.276918,0.374845,1.962081,-0.196061,0.000000,0.000000,0.000000,0.000000,0.000000,0.000000
11817847.000000,-2.301790,-1.662788,1.256685,-1.451722,1.704903,1.294113,-0.580776,0.259408,-0.011673,0.723429,-0.205901,-0.167095,0.689028,-0.055985,-0.862078,40.697674,-23.801773,-5.276918,0.332731,1.923629,-0.215287,0.000000,0.000000,0.000000,0.000000,0.000000,0.000000
11817848.000000,-2.301527,-1.662799,1.257416,-1.451929,1.704738,1.294813,-0.580841,0.254774,-0.009318,0.720346,-0.203090,-0.167214,0.686433,-0.058807,-0.810504,40.725445,-23.726395,-5.205507,0.315336,1.800033,-0.142960,0.000000,0.000000,0.000000,0.000000,0.000000,0.000000
11817849.000000,-2.301265,-1.662801,1.258137,-1.452138,1.704568,1.295497,-0.580896,0.256060,-0.006476,0.722387,-0.203950,-0.164122,0.691671,-0.057866,-0.786700,40.578655,-23.702591,-5.106325,0.332731,1.727706,-0.163102,0.000000,0.000000,0.000000,0.000000,0.000000,0.000000
11817850.000000,-2.301003,-1.662807,1.258864,-1.452349,1.704409,1.296179,-0.580952,0.257886,-0.004419,0.719162,-0.212119,-0.158818,0.685762,-0.061668,-0.786700,40.550884,-23.678787,-4.931764,0.279630,1.760665,-0.175919,0.000000,0.000000,0.000000,0.000000,0.000000,0.000000
11817851.000000,-2.300741,-1.662810,1.259573,-1.452566,1.704242,1.296867,-0.581009,0.261009,-0.000633,0.719964,-0.215868,-0.165407,0.686872,-0.061252,-0.810504,40.427898,-23.603409,-4.757204,0.374845,1.819259,-0.149369,0.000000,0.000000,0.000000,0.000000,0.000000,0.000000
11817852.000000,-2.300482,-1.662822,1.260299,-1.452783,1.704074,1.297549,-0.581060,0.262693,-0.004476,0.716697,-0.214748,-0.164879,0.681411,-0.058290,-0.834307,40.455669,-23.603409,-4.610414,0.464567,1.793624,-0.196061,0.000000,0.000000,0.000000,0.000000,0.000000,0.000000
11817853.000000,-2.300222,-1.662817,1.261026,-1.452999,1.703916,1.298243,-0.581116,0.262688,-0.002509,0.713396,-0.214637,-0.159882,0.679648,-0.058415,-0.834307,40.281109,-23.627213,-4.439821,0.434354,1.786300,-0.182328,0.000000,0.000000,0.000000,0.000000,0.000000,0.000000
11817854.000000,-2.299963,-1.662823,1.261755,-1.453210,1.703762,1.298921,-0.581168,0.263709,-0.004400,0.718228,-0.215476,-0.156789,0.679437,-0.056500,-0.862078,40.233501,-23.774002,-4.340639,0.416959,1.793624,-0.221696,0.000000,0.000000,0.000000,0.000000,0.000000,0.000000
11817855.000000,-2.299711,-1.662830,1.262486,-1.453426,1.703606,1.299618,-0.581228,0.260042,-0.006866,0.718917,-0.217314,-0.157863,0.680466,-0.057591,-0.762896,40.233501,-23.873184,-4.289064,0.369352,1.754256,-0.196061,0.000000,0.000000,0.000000,0.000000,0.000000,0.000000
11817856.000000,-2.299452,-1.662838,1.263207,-1.453641,1.703442,1.300304,-0.581289,0.258065,-0.009011,0.719359,-0.217541,-0.160557,0.684815,-0.053759,-0.762896,40.257305,-23.948563,-4.213686,0.362943,1.767074,-0.163102,0.000000,0.000000,0.000000,0.000000,0.000000,0.000000
11817857.000000,-2.299202,-1.662840,1.263935,-1.453860,1.703270,1.300971,-0.581346,0.255926,-0.008387,0.715190,-0.217856,-0.159792,0.673708,-0.054145,-0.735125,40.185894,-24.095352,-4.118471,0.405057,1.916305,-0.169511,0.000000,0.000000,0.000000,0.000000,0.000000,0.000000
11817858.000000,-2.298955,-1.662838,1.264667,-1.454078,1.703104,1.301649,-0.581399,0.252680,-0.006248,0.720999,-0.216642,-0.162777,0.674460,-0.053224,-0.663714,40.039104,-24.218338,-3.967714,0.422452,2.033492,-0.208878,0.000000,0.000000,0.000000,0.000000,0.000000,0.000000
11817859.000000,-2.298699,-1.662840,1.265390,-1.454294,1.702941,1.302331,-0.581457,0.253888,-0.003361,0.724832,-0.215009,-0.165489,0.669530,-0.055546,-0.711321,39.963726,-24.313553,-3.967714,0.446256,1.962081,-0.169511,0.000000,0.000000,0.000000,0.000000,0.000000,0.000000
11817860.000000,-2.298447,-1.662835,1.266105,-1.454514,1.702773,1.303026,-0.581517,0.247096,-0.001581,0.716668,-0.215348,-0.167938,0.676014,-0.056769,-0.635943,39.769329,-24.265945,-3.920107,0.500272,1.871444,-0.142960,0.000000,0.000000,0.000000,0.000000,0.000000,0.000000
11817861.000000,-2.298192,-1.662837,1.266821,-1.454731,1.702620,1.303718,-0.581564,0.249232,-0.003258,0.725173,-0.215632,-0.165050,0.676280,-0.053252,-0.663714,39.693951,-24.289749,-3.868532,0.440763,1.877853,-0.229020,0.000000,0.000000,0.000000,0.000000,0.000000,0.000000
11817862.000000,-2.297936,-1.662833,1.267532,-1.454950,1.702465,1.304398,-0.581625,0.251852,-0.000254,0.716391,-0.215386,-0.164983,0.675029,-0.055876,-0.735125,39.574932,-24.166763,-3.820925,0.405057,1.942855,-0.175919,0.000000,0.000000,0.000000,0.000000,0.000000,0.000000
11817863.000000,-2.297684,-1.662831,1.268255,-1.455178,1.702302,1.305074,-0.581683,0.251146,0.000387,0.713654,-0.217525,-0.166421,0.677479,-0.051969,-0.735125,39.523357,-24.071548,-3.697939,0.416959,2.001449,-0.155778,0.000000,0.000000,0.000000,0.000000,0.000000,0.000000
11817864.000000,-2.297436,-1.662830,1.268950,-1.455404,1.702142,1.305754,-0.581731,0.254177,0.000328,0.705096,-0.218159,-0.166754,0.683079,-0.046321,-0.786700,39.499554,-23.801773,-3.598757,0.398649,2.014266,-0.208878,0.000000,0.000000,0.000000,0.000000,0.000000,0.000000
11817865.000000,-2.297190,-1.662821,1.269669,-1.455626,1.701983,1.306435,-0.581786,0.251891,0.002730,0.703374,-0.217585,-0.162286,0.682599,-0.050478,-0.711321,39.376568,-23.726395,-3.547182,0.393156,2.020675,-0.169511,0.000000,0.000000,0.000000,0.000000,0.000000,0.000000
11817866.000000,-2.296939,-1.662813,1.270392,-1.455843,1.701830,1.307126,-0.581834,0.249907,0.003773,0.703463,-0.216794,-0.158933,0.681395,-0.049683,-0.687518,39.281353,-23.702591,-3.523378,0.374845,1.897079,-0.229020,0.000000,0.000000,0.000000,0.000000,0.000000,0.000000
11817867.000000,-2.296697,-1.662807,1.271099,-1.456070,1.701679,1.307808,-0.581888,0.246144,0.004073,0.706209,-0.216840,-0.156864,0.684390,-0.053296,-0.635943,39.205975,-23.678787,-3.448000,0.374845,1.793624,-0.196061,0.000000,0.000000,0.000000,0.000000,0.000000,0.000000
11817868.000000,-2.296454,-1.662799,1.271816,-1.456293,1.701522,1.308490,-0.581943,0.245258,0.007491,0.704858,-0.222925,-0.157442,0.678909,-0.055103,-0.564532,39.130596,-23.678787,-3.348818,0.440763,1.741439,-0.169511,0.000000,0.000000,0.000000,0.000000,0.000000,0.000000
11817869.000000,-2.296210,-1.662791,1.272523,-1.456508,1.701368,1.309169,-0.581991,0.242028,0.006813,0.706707,-0.216892,-0.152723,0.669654,-0.053797,-0.489153,39.059185,-23.750198,-3.348818,0.488370,1.865035,-0.208878,0.000000,0.000000,0.000000,0.000000,0.000000,0.000000
11817870.000000,-2.295975,-1.662792,1.273242,-1.456734,1.701223,1.309830,-0.582046,0.239718,0.004096,0.707207,-0.221072,-0.146056,0.660168,-0.055513,-0.413775,39.082989,-23.801773,-3.249635,0.452665,1.936446,-0.182328,0.000000,0.000000,0.000000,0.000000,0.000000,0.000000
11817871.000000,-2.295735,-1.662793,1.273969,-1.456951,1.701068,1.310509,-0.582098,0.239699,0.002257,0.707673,-0.219274,-0.147322,0.661781,-0.055171,-0.413775,39.106792,-23.996170,-3.225832,0.458158,1.995040,-0.196061,0.000000,0.000000,0.000000,0.000000,0.000000,0.000000
11817872.000000,-2.295507,-1.662790,1.274676,-1.457164,1.700915,1.311184,-0.582149,0.235670,0.002681,0.708193,-0.219617,-0.147541,0.663036,-0.056084,-0.243182,39.059185,-24.071548,-3.249635,0.446256,1.955673,-0.182328,0.000000,0.000000,0.000000,0.000000,0.000000,0.000000
11817873.000000,-2.295270,-1.662798,1.275399,-1.457374,1.700771,1.311861,-0.582196,0.233820,-0.001043,0.704379,-0.217963,-0.145777,0.666538,-0.054674,-0.167803,39.182171,-24.289749,-3.249635,0.386747,1.981307,-0.221696,0.000000,0.000000,0.000000,0.000000,0.000000,0.000000
11817874.000000,-2.295031,-1.662805,1.276105,-1.457588,1.700625,1.312535,-0.582251,0.233353,-0.002980,0.708055,-0.217783,-0.143567,0.669955,-0.057007,-0.191607,39.281353,-24.341324,-3.202028,0.416959,1.981307,-0.169511,0.000000,0.000000,0.000000,0.000000,0.000000,0.000000
11817875.000000,-2.294796,-1.662812,1.276825,-1.457800,1.700474,1.313206,-0.582298,0.235288,-0.004187,0.711345,-0.214230,-0.146937,0.673580,-0.056303,-0.191607,39.376568,-24.412735,-3.154421,0.458158,1.962081,-0.182328,0.000000,0.000000,0.000000,0.000000,0.000000,0.000000
11817876.000000,-2.294563,-1.662817,1.277534,-1.458006,1.700324,1.313888,-0.582343,0.234466,-0.004535,0.706938,-0.211397,-0.150704,0.679438,-0.050644,-0.144000,39.451946,-24.313553,-3.126650,0.530485,1.949264,-0.208878,0.000000,0.000000,0.000000,0.000000,0.000000,0.000000
11817877.000000,-2.294340,-1.662824,1.278242,-1.458208,1.700185,1.314552,-0.582397,0.230318,-0.005236,0.703082,-0.210970,-0.145440,0.684758,-0.053116,-0.044818,39.547161,-24.289749,-3.154421,0.524076,1.949264,-0.182328,0.000000,0.000000,0.000000,0.000000,0.000000,0.000000
11817878.000000,-2.294119,-1.662835,1.278951,-1.458414,1.700046,1.315233,-0.582442,0.227345,-0.006356,0.696961,-0.206821,-0.140268,0.684954,-0.052469,0.078168,39.670147,-24.218338,-3.225832,0.488370,1.903487,-0.221696,0.000000,0.000000,0.000000,0.000000,0.000000,0.000000
11817879.000000,-2.293893,-1.662846,1.279660,-1.458611,1.699912,1.315915,-0.582494,0.227308,-0.007663,0.698600,-0.203144,-0.135359,0.675982,-0.054590,0.228925,39.816936,-24.071548,-3.325014,0.410551,1.838485,-0.188737,0.000000,0.000000,0.000000,0.000000,0.000000,0.000000
11817880.000000,-2.293669,-1.662848,1.280362,-1.458812,1.699767,1.316588,-0.582543,0.224878,-0.005659,0.695720,-0.201938,-0.135401,0.670938,-0.055213,0.351911,39.840740,-24.043777,-3.348818,0.422452,1.871444,-0.175919,0.000000,0.000000,0.000000,0.000000,0.000000,0.000000
11817881.000000,-2.293452,-1.662848,1.281066,-1.459004,1.699622,1.317263,-0.582587,0.223070,-0.003768,0.693933,-0.200976,-0.133347,0.667227,-0.049325,0.451093,39.840740,-23.896988,-3.400392,0.398649,1.877853,-0.215287,0.000000,0.000000,0.000000,0.000000,0.000000,0.000000
11817882.000000,-2.293231,-1.662845,1.281762,-1.459200,1.699485,1.317951,-0.582643,0.226746,-0.000838,0.696473,-0.200040,-0.139051,0.667029,-0.048161,0.502668,39.769329,-23.750198,-3.448000,0.422452,1.851302,-0.169511,0.000000,0.000000,0.000000,0.000000,0.000000,0.000000
11817883.000000,-2.293008,-1.662846,1.282463,-1.459391,1.699345,1.318638,-0.582687,0.222446,-0.000556,0.698200,-0.198202,-0.137547,0.678845,-0.043771,0.574079,39.769329,-23.603409,-3.547182,0.434354,1.754256,-0.215287,0.000000,0.000000,0.000000,0.000000,0.000000,0.000000
11817884.000000,-2.292779,-1.662838,1.283168,-1.459587,1.699208,1.319334,-0.582740,0.219546,0.001395,0.697301,-0.196721,-0.136689,0.676825,-0.048363,0.550275,39.693951,-23.480423,-3.523378,0.452665,1.656295,-0.175919,0.000000,0.000000,0.000000,0.000000,0.000000,0.000000
11817885.000000,-2.292561,-1.662835,1.283858,-1.459776,1.699075,1.320014,-0.582784,0.219335,0.002602,0.690362,-0.193277,-0.139523,0.683563,-0.044593,0.526471,39.622540,-23.357437,-3.570986,0.440763,1.617843,-0.208878,0.000000,0.000000,0.000000,0.000000,0.000000,0.000000
11817886.000000,-2.292337,-1.662830,1.284562,-1.459968,1.698941,1.320699,-0.582832,0.220392,0.002849,0.692035,-0.200579,-0.136318,0.685234,-0.042932,0.550275,39.574932,-23.309830,-3.570986,0.410551,1.656295,-0.208878,0.000000,0.000000,0.000000,0.000000,0.000000,0.000000
11817887.000000,-2.292108,-1.662821,1.285248,-1.460160,1.698808,1.321389,-0.582885,0.223033,0.004777,0.687079,-0.197695,-0.135469,0.682833,-0.043311,0.502668,39.451946,-23.186844,-3.570986,0.416959,1.682845,-0.163102,0.000000,0.000000,0.000000,0.000000,0.000000,0.000000
11817888.000000,-2.291884,-1.662812,1.285943,-1.460346,1.698673,1.322065,-0.582925,0.225168,0.006062,0.688886,-0.193927,-0.134024,0.676194,-0.044858,0.451093,39.328960,-23.063858,-3.622560,0.398649,1.708480,-0.208878,0.000000,0.000000,0.000000,0.000000,0.000000,0.000000
11817889.000000,-2.291656,-1.662805,1.286661,-1.460525,1.698541,1.322755,-0.582974,0.224139,0.006362,0.693813,-0.188429,-0.131311,0.678684,-0.043854,0.351911,39.229778,-23.210648,-3.670168,0.344633,1.760665,-0.188737,0.000000,0.000000,0.000000,0.000000,0.000000,0.000000
11817890.000000,-2.291430,-1.662796,1.287357,-1.460711,1.698403,1.323436,-0.583015,0.226272,0.007119,0.696993,-0.189065,-0.132418,0.679533,-0.041300,0.276533,39.106792,-23.234451,-3.646364,0.362943,1.767074,-0.215287,0.000000,0.000000,0.000000,0.000000,0.000000,0.000000
11817891.000000,-2.291206,-1.662785,1.288066,-1.460891,1.698267,1.324136,-0.583064,0.225402,0.007623,0.696963,-0.183849,-0.132456,0.681723,-0.042162,0.252729,38.983807,-23.333633,-3.721742,0.374845,1.721298,-0.169511,0.000000,0.000000,0.000000,0.000000,0.000000,0.000000
11817892.000000,-2.290982,-1.662778,1.288768,-1.461066,1.698136,1.324821,-0.583107,0.224462,0.007309,0.710728,-0.180893,-0.132679,0.685838,-0.044566,0.177350,38.888592,-23.504227,-3.769350,0.405057,1.721298,-0.196061,0.000000,0.000000,0.000000,0.000000,0.000000,0.000000
11817893.000000,-2.290762,-1.662772,1.289484,-1.461240,1.698004,1.325489,-0.583150,0.222213,0.006079,0.712343,-0.178182,-0.132139,0.681855,-0.042391,0.153547,38.837017,-23.651016,-3.820925,0.398649,1.786300,-0.208878,0.000000,0.000000,0.000000,0.000000,0.000000,0.000000
