chaoyuefei/paper-gmrm-data/robot_logs/s2_dq_gmrm_xz_min_0.50_log_20260314_173925.csv
# time_ms,q_0,q_1,q_2,q_3,q_4,q_5,q_6,dq_0,dq_1,dq_2,dq_3,dq_4,dq_5,dq_6,tau_J_0,tau_J_1,tau_J_2,tau_J_3,tau_J_4,tau_J_5,tau_J_6,O_dP_EE_c_0,O_dP_EE_c_1,O_dP_EE_c_2,O_dP_EE_c_3,O_dP_EE_c_4,O_dP_EE_c_5
12627147.000000,-2.415662,-1.662618,1.042885,-1.356085,1.795457,1.081425,-0.548601,-0.000325,-0.001453,0.000659,-0.000263,0.000267,0.000065,-0.001211,0.054365,41.629986,-21.052444,-5.721254,0.828947,1.318465,0.054794,0.000000,0.000000,0.000000,0.000000,0.000000,0.000000
12627148.000000,-2.415659,-1.662613,1.042884,-1.356083,1.795454,1.081427,-0.548595,0.000897,0.000795,0.000439,0.000474,-0.000703,0.000518,0.001159,0.006757,41.554607,-21.052444,-5.749025,0.852750,1.305648,0.001693,0.000000,0.000000,0.000000,0.000000,0.000000,0.000000
12627149.000000,-2.415661,-1.662615,1.042882,-1.356085,1.795456,1.081424,-0.548594,0.000041,-0.000027,-0.000357,-0.000334,0.000413,-0.000367,0.001010,0.030561,41.578411,-21.024673,-5.721254,0.828947,1.324874,-0.004716,0.000000,0.000000,0.000000,0.000000,0.000000,0.000000
12627150.000000,-2.415659,-1.662617,1.042882,-1.356085,1.795456,1.081426,-0.548600,0.000028,-0.000668,-0.000238,-0.000222,0.000275,0.000230,-0.001293,0.030561,41.606182,-21.024673,-5.721254,0.828947,1.312057,0.048385,0.000000,0.000000,0.000000,0.000000,0.000000,0.000000
12627151.000000,-2.415656,-1.662616,1.042886,-1.356084,1.795455,1.081425,-0.548596,0.005437,0.001875,0.000491,0.002351,-0.008718,-0.001271,0.001579,0.328107,41.507000,-21.052444,-5.673646,0.811552,1.350509,-0.017533,0.000000,0.000000,0.000000,0.000000,0.000000,0.000000
12627152.000000,-2.415651,-1.662620,1.042884,-1.356082,1.795457,1.081420,-0.548618,0.010833,0.000158,0.001184,0.001271,-0.008075,-0.002418,-0.004187,1.415143,41.284832,-20.953262,-5.499086,0.727323,1.519881,-0.004716,0.000000,0.000000,0.000000,0.000000,0.000000,0.000000
12627153.000000,-2.415620,-1.662621,1.042900,-1.356078,1.795451,1.081416,-0.548646,0.018902,-0.000309,0.005230,-0.000342,-0.012777,-0.000978,-0.011205,2.926679,40.872234,-21.000870,-5.276918,0.644010,1.767074,-0.044083,0.000000,0.000000,0.000000,0.000000,0.000000,0.000000
12627154.000000,-2.415576,-1.662620,1.042916,-1.356086,1.795430,1.081434,-0.548685,0.023826,0.001306,0.008604,-0.005925,-0.013631,0.005647,-0.021434,4.834943,40.356487,-20.929459,-4.856386,0.613798,1.877853,-0.077042,0.000000,0.000000,0.000000,0.000000,0.000000,0.000000
12627155.000000,-2.415514,-1.662617,1.042934,-1.356098,1.795402,1.081480,-0.548753,0.030818,0.002485,0.013026,-0.011783,-0.015575,0.021976,-0.036751,6.715436,39.816936,-20.806473,-4.487428,0.620206,1.812850,-0.023942,0.000000,0.000000,0.000000,0.000000,0.000000,0.000000
12627156.000000,-2.415428,-1.662618,1.042964,-1.356124,1.795360,1.081560,-0.548831,0.043549,0.001668,0.018130,-0.016538,-0.023664,0.044410,-0.051070,8.349957,39.328960,-20.754898,-4.090700,0.685209,1.584884,-0.023942,0.000000,0.000000,0.000000,0.000000,0.000000,0.000000
12627157.000000,-2.415321,-1.662613,1.043002,-1.356170,1.795308,1.081653,-0.548925,0.057970,0.001250,0.025371,-0.028943,-0.034022,0.063572,-0.064720,9.782147,38.813213,-20.707291,-3.598757,0.739225,1.396285,-0.077042,0.000000,0.000000,0.000000,0.000000,0.000000,0.000000
12627158.000000,-2.415201,-1.662613,1.043049,-1.356213,1.795237,1.081759,-0.549042,0.074951,0.004873,0.033899,-0.031835,-0.050099,0.073252,-0.085653,10.948529,38.396648,-20.659683,-3.376589,0.769437,1.324874,-0.097184,0.000000,0.000000,0.000000,0.000000,0.000000,0.000000
12627159.000000,-2.415071,-1.662607,1.043101,-1.356281,1.795161,1.081885,-0.549191,0.092242,0.004410,0.039164,-0.041099,-0.058719,0.086179,-0.104448,12.011762,37.984051,-20.560501,-3.003664,0.715421,1.344100,-0.037675,0.000000,0.000000,0.000000,0.000000,0.000000,0.000000
12627160.000000,-2.414931,-1.662600,1.043162,-1.356347,1.795068,1.082030,-0.549352,0.112549,0.003815,0.045120,-0.050514,-0.073166,0.107075,-0.123006,12.975812,37.591290,-20.413712,-2.805300,0.608304,1.461288,-0.103593,0.000000,0.000000,0.000000,0.000000,0.000000,0.000000
12627161.000000,-2.414777,-1.662589,1.043250,-1.356436,1.794952,1.082209,-0.549549,0.127785,0.005887,0.058017,-0.063259,-0.085471,0.128766,-0.150241,13.820844,37.222332,-20.485123,-2.535524,0.535978,1.559249,-0.103593,0.000000,0.000000,0.000000,0.000000,0.000000,0.000000
12627162.000000,-2.414612,-1.662573,1.043352,-1.356531,1.794825,1.082409,-0.549773,0.137704,0.004951,0.072409,-0.075684,-0.101366,0.151088,-0.174438,14.586530,36.833538,-20.631912,-2.436342,0.381254,1.624252,-0.083451,0.000000,0.000000,0.000000,0.000000,0.000000,0.000000
12627163.000000,-2.414421,-1.662556,1.043463,-1.356643,1.794666,1.082641,-0.550022,0.156875,0.010020,0.084174,-0.089456,-0.119108,0.176143,-0.196468,15.082440,36.464581,-20.707291,-2.313356,0.374845,1.597701,-0.097184,0.000000,0.000000,0.000000,0.000000,0.000000,0.000000
12627164.000000,-2.414217,-1.662535,1.043591,-1.356777,1.794483,1.082907,-0.550302,0.174410,0.011380,0.098341,-0.104553,-0.137439,0.201602,-0.220273,15.526776,36.071819,-20.877884,-2.138796,0.393156,1.500655,-0.050492,0.000000,0.000000,0.000000,0.000000,0.000000,0.000000
12627165.000000,-2.413994,-1.662515,1.043726,-1.356925,1.794272,1.083197,-0.550586,0.185812,0.014239,0.112959,-0.119761,-0.162271,0.228951,-0.239908,15.899701,35.730633,-20.953262,-2.063417,0.458158,1.442062,-0.070634,0.000000,0.000000,0.000000,0.000000,0.000000,0.000000
12627166.000000,-2.413751,-1.662495,1.043885,-1.357095,1.794027,1.083515,-0.550873,0.204812,0.016569,0.126648,-0.136955,-0.183172,0.252385,-0.258957,16.070295,35.385479,-21.147659,-1.940431,0.584501,1.416427,-0.103593,0.000000,0.000000,0.000000,0.000000,0.000000,0.000000
12627167.000000,-2.413498,-1.662473,1.044049,-1.357268,1.793774,1.083850,-0.551178,0.220566,0.017166,0.137999,-0.145377,-0.204081,0.277113,-0.276303,16.268660,35.091900,-21.270645,-1.992006,0.613798,1.442062,-0.044083,0.000000,0.000000,0.000000,0.000000,0.000000,0.000000
12627168.000000,-2.413233,-1.662461,1.044217,-1.357458,1.793510,1.084199,-0.551467,0.233161,0.014317,0.148090,-0.156559,-0.219119,0.297339,-0.275024,16.419416,34.945110,-21.199234,-2.015810,0.625699,1.442062,-0.122819,0.000000,0.000000,0.000000,0.000000,0.000000,0.000000
12627169.000000,-2.412943,-1.662447,1.044400,-1.357664,1.793232,1.084580,-0.551765,0.252285,0.011908,0.158574,-0.172603,-0.236512,0.318725,-0.282081,16.518599,34.826092,-21.223038,-2.015810,0.559781,1.532699,-0.116410,0.000000,0.000000,0.000000,0.000000,0.000000,0.000000
12627170.000000,-2.412639,-1.662434,1.044594,-1.357896,1.792941,1.084974,-0.552072,0.269405,0.012975,0.171075,-0.192373,-0.260110,0.341785,-0.289594,16.641584,34.726910,-21.175430,-1.992006,0.422452,1.695663,-0.050492,0.000000,0.000000,0.000000,0.000000,0.000000,0.000000
12627171.000000,-2.412316,-1.662430,1.044796,-1.358146,1.792625,1.085387,-0.552361,0.290617,0.008666,0.180561,-0.210044,-0.273415,0.363940,-0.290469,16.542402,34.726910,-21.123856,-1.841249,0.362943,1.747848,-0.110001,0.000000,0.000000,0.000000,0.000000,0.000000,0.000000
12627172.000000,-2.411978,-1.662424,1.045010,-1.358412,1.792302,1.085841,-0.552658,0.302605,0.005789,0.189074,-0.226610,-0.283352,0.386283,-0.292253,16.542402,34.726910,-21.123856,-1.670656,0.297025,1.735030,-0.130143,0.000000,0.000000,0.000000,0.000000,0.000000,0.000000
12627173.000000,-2.411624,-1.662424,1.045232,-1.358699,1.791950,1.086315,-0.552956,0.317680,0.003312,0.201430,-0.246109,-0.304638,0.411173,-0.291944,16.443220,34.750713,-21.000870,-1.496095,0.339139,1.643478,-0.077042,0.000000,0.000000,0.000000,0.000000,0.000000,0.000000
12627174.000000,-2.411256,-1.662422,1.045466,-1.358994,1.791578,1.086818,-0.553244,0.332464,0.002215,0.215101,-0.261760,-0.324961,0.440201,-0.290651,16.443220,34.750713,-20.953262,-1.420717,0.405057,1.526290,-0.056901,0.000000,0.000000,0.000000,0.000000,0.000000,0.000000
12627175.000000,-2.410879,-1.662419,1.045712,-1.359298,1.791192,1.087344,-0.553523,0.344264,0.002038,0.222985,-0.272257,-0.338774,0.469117,-0.282855,16.542402,34.726910,-20.877884,-1.396913,0.428861,1.454879,-0.097184,0.000000,0.000000,0.000000,0.000000,0.000000,0.000000
12627176.000000,-2.410497,-1.662418,1.045964,-1.359617,1.790791,1.087880,-0.553798,0.355415,0.000806,0.233640,-0.286748,-0.361292,0.489104,-0.277618,16.689192,34.750713,-20.754898,-1.396913,0.524076,1.435653,-0.116410,0.000000,0.000000,0.000000,0.000000,0.000000,0.000000
12627177.000000,-2.410099,-1.662417,1.046225,-1.359949,1.790373,1.088447,-0.554074,0.366094,0.000540,0.239944,-0.299495,-0.373745,0.506425,-0.275930,16.863752,34.750713,-20.683487,-1.448488,0.530485,1.448470,-0.077042,0.000000,0.000000,0.000000,0.000000,0.000000,0.000000
12627178.000000,-2.409698,-1.662415,1.046497,-1.360296,1.789950,1.089007,-0.554340,0.387290,0.000362,0.248176,-0.322549,-0.388327,0.533776,-0.271007,17.062117,34.750713,-20.631912,-1.448488,0.524076,1.532699,-0.136552,0.000000,0.000000,0.000000,0.000000,0.000000,0.000000
12627179.000000,-2.409277,-1.662417,1.046780,-1.360665,1.789509,1.089598,-0.554609,0.396220,-0.000871,0.261067,-0.335032,-0.402607,0.550059,-0.271122,17.284285,34.798321,-20.584305,-1.321535,0.488370,1.572067,-0.110001,0.000000,0.000000,0.000000,0.000000,0.000000,0.000000
12627180.000000,-2.408841,-1.662417,1.047068,-1.361042,1.789050,1.090215,-0.554878,0.402587,-0.000579,0.266763,-0.345933,-0.416719,0.565446,-0.268151,17.530256,34.798321,-20.512894,-1.250124,0.410551,1.519881,-0.130143,0.000000,0.000000,0.000000,0.000000,0.000000,0.000000
12627181.000000,-2.408401,-1.662414,1.047367,-1.361439,1.788590,1.090852,-0.555145,0.413934,0.000728,0.273775,-0.361410,-0.430099,0.588851,-0.267696,17.780195,34.750713,-20.437515,-1.027956,0.386747,1.416427,-0.122819,0.000000,0.000000,0.000000,0.000000,0.000000,0.000000
12627182.000000,-2.407940,-1.662408,1.047676,-1.361851,1.788096,1.091504,-0.555410,0.427425,0.004765,0.286953,-0.378032,-0.448172,0.603905,-0.268228,18.026167,34.703106,-20.413712,-0.853395,0.362943,1.331283,-0.083451,0.000000,0.000000,0.000000,0.000000,0.000000,0.000000
12627183.000000,-2.407458,-1.662406,1.047995,-1.362284,1.787596,1.092177,-0.555667,0.445893,0.003998,0.296782,-0.399938,-0.464983,0.623215,-0.265024,18.224531,34.679302,-20.389908,-0.631227,0.386747,1.318465,-0.142960,0.000000,0.000000,0.000000,0.000000,0.000000,0.000000
12627184.000000,-2.406975,-1.662395,1.048318,-1.362723,1.787074,1.092863,-0.555927,0.454757,0.008835,0.306480,-0.412013,-0.483596,0.652474,-0.261661,18.498274,34.556316,-20.314529,-0.385256,0.452665,1.272689,-0.110001,0.000000,0.000000,0.000000,0.000000,0.000000,0.000000
12627185.000000,-2.406473,-1.662394,1.048658,-1.363177,1.786532,1.093575,-0.556186,0.463803,0.006297,0.317480,-0.421132,-0.500301,0.666894,-0.261813,18.768049,34.556316,-20.290726,-0.262270,0.476469,1.279098,-0.110001,0.000000,0.000000,0.000000,0.000000,0.000000,0.000000
12627186.000000,-2.405967,-1.662379,1.049013,-1.363636,1.785988,1.094293,-0.556430,0.480997,0.011096,0.326373,-0.432997,-0.514853,0.691822,-0.256214,19.041792,34.409527,-20.314529,-0.234499,0.542386,1.331283,-0.149369,0.000000,0.000000,0.000000,0.000000,0.000000,0.000000
12627187.000000,-2.405447,-1.662369,1.049376,-1.364116,1.785419,1.095034,-0.556683,0.492005,0.013380,0.337257,-0.444351,-0.526273,0.705044,-0.255926,19.386946,34.310345,-20.362137,-0.135317,0.542386,1.402694,-0.089860,0.000000,0.000000,0.000000,0.000000,0.000000,0.000000
12627188.000000,-2.404914,-1.662362,1.049755,-1.364609,1.784851,1.095809,-0.556934,0.501121,0.010667,0.352469,-0.457985,-0.546512,0.725094,-0.253030,19.736067,34.262737,-20.437515,-0.135317,0.547880,1.448470,-0.089860,0.000000,0.000000,0.000000,0.000000,0.000000,0.000000
12627189.000000,-2.404367,-1.662353,1.050151,-1.365116,1.784256,1.096590,-0.557174,0.516396,0.008792,0.366435,-0.476887,-0.558824,0.748087,-0.248588,20.005842,34.211163,-20.512894,-0.036134,0.494779,1.422836,-0.155778,0.000000,0.000000,0.000000,0.000000,0.000000,0.000000
12627190.000000,-2.403805,-1.662340,1.050556,-1.365646,1.783653,1.097401,-0.557427,0.524953,0.011613,0.382137,-0.483775,-0.568589,0.764273,-0.249319,20.331160,34.115948,-20.659683,0.110655,0.464567,1.377059,-0.110001,0.000000,0.000000,0.000000,0.000000,0.000000,0.000000
12627191.000000,-2.403232,-1.662330,1.050979,-1.366176,1.783034,1.098236,-0.557676,0.544300,0.012496,0.396603,-0.496233,-0.582020,0.785886,-0.244734,20.553328,34.064373,-20.830276,0.209837,0.446256,1.253463,-0.083451,0.000000,0.000000,0.000000,0.000000,0.000000,0.000000
12627192.000000,-2.402644,-1.662321,1.051407,-1.366722,1.782407,1.099096,-0.557911,0.556433,0.013258,0.408238,-0.508117,-0.589160,0.814901,-0.243649,20.898481,34.016766,-21.000870,0.257445,0.374845,1.155502,-0.116410,0.000000,0.000000,0.000000,0.000000,0.000000,0.000000
12627193.000000,-2.402036,-1.662305,1.051850,-1.367286,1.781747,1.099967,-0.558156,0.569871,0.015083,0.421082,-0.516271,-0.607458,0.826127,-0.245018,21.144453,33.917583,-21.123856,0.309019,0.381254,1.182052,-0.089860,0.000000,0.000000,0.000000,0.000000,0.000000,0.000000
12627194.000000,-2.401426,-1.662289,1.052312,-1.367844,1.781092,1.100848,-0.558382,0.579180,0.013110,0.432195,-0.527234,-0.629087,0.843746,-0.237624,21.441999,33.822369,-21.294449,0.233641,0.356534,1.253463,-0.163102,0.000000,0.000000,0.000000,0.000000,0.000000,0.000000
12627195.000000,-2.400792,-1.662277,1.052777,-1.368420,1.780397,1.101758,-0.558626,0.591269,0.011124,0.440159,-0.540075,-0.647178,0.861393,-0.237206,21.715742,33.746990,-21.445206,0.110655,0.410551,1.279098,-0.110001,0.000000,0.000000,0.000000,0.000000,0.000000,0.000000
12627196.000000,-2.400151,-1.662264,1.053246,-1.368997,1.779706,1.102681,-0.558866,0.617921,0.008995,0.444371,-0.558324,-0.661503,0.909562,-0.234817,21.937910,33.699383,-21.540421,0.011473,0.452665,1.292831,-0.103593,0.000000,0.000000,0.000000,0.000000,0.000000,0.000000
12627197.000000,-2.399474,-1.662250,1.053738,-1.369602,1.778999,1.103626,-0.559088,0.634805,0.011159,0.459244,-0.572781,-0.669373,0.917254,-0.232134,22.060896,33.624004,-21.714981,0.059080,0.559781,1.318465,-0.149369,0.000000,0.000000,0.000000,0.000000,0.000000,0.000000
12627198.000000,-2.398776,-1.662239,1.054226,-1.370233,1.778279,1.104601,-0.559322,0.654048,0.014718,0.469639,-0.589711,-0.681916,0.933614,-0.230311,22.160078,33.600201,-21.861771,0.257445,0.721830,1.305648,-0.155778,0.000000,0.000000,0.000000,0.000000,0.000000,0.000000
12627199.000000,-2.398072,-1.662225,1.054726,-1.370852,1.777581,1.105590,-0.559558,0.674440,0.014431,0.475772,-0.602798,-0.686291,0.952649,-0.235649,22.287031,33.576397,-21.984756,0.455809,0.871061,1.253463,-0.116410,0.000000,0.000000,0.000000,0.000000,0.000000,0.000000
12627200.000000,-2.397349,-1.662217,1.055231,-1.371485,1.776880,1.106608,-0.559791,0.681798,0.013293,0.487505,-0.606484,-0.679831,0.973181,-0.232871,22.410017,33.600201,-22.079971,0.578795,0.936979,1.220504,-0.130143,0.000000,0.000000,0.000000,0.000000,0.000000,0.000000
12627201.000000,-2.396622,-1.662210,1.055761,-1.372142,1.776194,1.107652,-0.560020,0.679858,0.011229,0.502328,-0.620857,-0.681585,0.997806,-0.229358,22.235456,33.675579,-22.155350,0.578795,1.001981,1.259872,-0.182328,0.000000,0.000000,0.000000,0.000000,0.000000,0.000000
12627202.000000,-2.395894,-1.662205,1.056301,-1.372803,1.775503,1.108685,-0.560246,0.683296,0.007587,0.512759,-0.639518,-0.681172,1.011672,-0.229344,20.997663,33.846172,-21.933182,0.186034,0.900358,1.402694,-0.169511,0.000000,0.000000,0.000000,0.000000,0.000000,0.000000
12627203.000000,-2.395171,-1.662203,1.056856,-1.373484,1.774802,1.109752,-0.560476,0.690128,0.002073,0.528218,-0.648981,-0.689149,1.025170,-0.229801,18.895002,34.016766,-21.492813,-0.655031,0.876554,1.565658,-0.130143,0.000000,0.000000,0.000000,0.000000,0.000000,0.000000
12627204.000000,-2.394451,-1.662197,1.057442,-1.374167,1.774119,1.110826,-0.560696,0.701318,0.002694,0.549987,-0.655391,-0.682317,1.031517,-0.231524,16.169477,33.992962,-20.830276,-1.642885,0.745634,1.649886,-0.149369,0.000000,0.000000,0.000000,0.000000,0.000000,0.000000
12627205.000000,-2.393718,-1.662194,1.058040,-1.374885,1.773433,1.111932,-0.560914,0.713518,0.000124,0.566455,-0.667022,-0.682961,1.045649,-0.225612,13.249555,33.822369,-20.068558,-2.412538,0.559781,1.735030,-0.149369,0.000000,0.000000,0.000000,0.000000,0.000000,0.000000
12627206.000000,-2.392990,-1.662191,1.058670,-1.375622,1.772761,1.113057,-0.561139,0.726192,0.000539,0.581696,-0.681580,-0.685151,1.061590,-0.226429,10.476422,33.528790,-19.235428,-2.833071,0.351041,1.800033,-0.130143,0.000000,0.000000,0.000000,0.000000,0.000000,0.000000
12627207.000000,-2.392273,-1.662193,1.059318,-1.376337,1.772101,1.114205,-0.561358,0.727499,-0.000835,0.595349,-0.690813,-0.673846,1.090627,-0.227997,8.024640,33.282818,-18.374527,-3.277406,0.178007,1.656295,-0.089860,0.000000,0.000000,0.000000,0.000000,0.000000,0.000000
12627208.000000,-2.391538,-1.662208,1.059976,-1.377064,1.771451,1.115388,-0.561564,0.729280,-0.003586,0.612860,-0.694636,-0.660726,1.114145,-0.220330,5.723615,33.235210,-17.640579,-3.499574,0.027860,1.481429,-0.149369,0.000000,0.000000,0.000000,0.000000,0.000000,0.000000
12627209.000000,-2.390832,-1.662224,1.060645,-1.377763,1.770800,1.116559,-0.561782,0.725966,-0.005435,0.619915,-0.688669,-0.656892,1.139517,-0.222398,3.942304,33.183636,-16.950272,-3.844728,0.022367,1.416427,-0.142960,0.000000,0.000000,0.000000,0.000000,0.000000,0.000000
12627210.000000,-2.390107,-1.662255,1.061318,-1.378479,1.770155,1.117771,-0.562004,0.728729,-0.011686,0.629271,-0.686932,-0.652174,1.163221,-0.225453,2.260175,33.354229,-16.263931,-3.892336,0.112089,1.364242,-0.089860,0.000000,0.000000,0.000000,0.000000,0.000000,0.000000
12627213.000000,-2.387949,-1.662352,1.063350,-1.380590,1.768229,1.121478,-0.562650,0.715330,-0.025993,0.660132,-0.686282,-0.642297,1.209367,-0.220175,-1.282611,33.552593,-14.815872,-3.598757,0.535978,1.292831,-0.149369,0.000000,0.000000,0.000000,0.000000,0.000000,0.000000
12627214.000000,-2.387232,-1.662387,1.064034,-1.381296,1.767611,1.122719,-0.562861,0.730959,-0.028077,0.660152,-0.707715,-0.638346,1.241350,-0.220565,-2.199053,33.528790,-14.351700,-3.301210,0.589994,1.117049,-0.188737,0.000000,0.000000,0.000000,0.000000,0.000000,0.000000
12627215.000000,-2.386512,-1.662426,1.064732,-1.381990,1.766988,1.123956,-0.563083,0.727893,-0.030343,0.668885,-0.701115,-0.629405,1.240761,-0.221825,-2.917132,33.528790,-14.006546,-2.956056,0.601896,1.155502,-0.103593,0.000000,0.000000,0.000000,0.000000,0.000000,0.000000
12627216.000000,-2.385785,-1.662460,1.065415,-1.382678,1.766385,1.125190,-0.563290,0.718943,-0.030273,0.672693,-0.692069,-0.622856,1.230577,-0.215006,-3.607440,33.453411,-13.661392,-2.733888,0.476469,1.285506,-0.175919,0.000000,0.000000,0.000000,0.000000,0.000000,0.000000
12627217.000000,-2.385076,-1.662487,1.066110,-1.383359,1.765786,1.126413,-0.563507,0.715731,-0.027756,0.676938,-0.683081,-0.614477,1.228892,-0.215072,-3.980364,33.259014,-13.320206,-2.483949,0.369352,1.324874,-0.130143,0.000000,0.000000,0.000000,0.000000,0.000000,0.000000
12627218.000000,-2.384374,-1.662506,1.066792,-1.384028,1.765195,1.127656,-0.563720,0.710852,-0.025884,0.678701,-0.675074,-0.606733,1.220902,-0.217120,-3.980364,32.913860,-12.879837,-2.412538,0.255826,1.240646,-0.149369,0.000000,0.000000,0.000000,0.000000,0.000000,0.000000
12627219.000000,-2.383655,-1.662511,1.067504,-1.384684,1.764612,1.128886,-0.563929,0.711088,-0.017174,0.692248,-0.669589,-0.607703,1.222640,-0.215035,-4.178729,32.378277,-12.681473,-2.535524,0.123990,1.266280,-0.142960,0.000000,0.000000,0.000000,0.000000,0.000000,0.000000
12627220.000000,-2.382958,-1.662502,1.068215,-1.385325,1.764020,1.130073,-0.564134,0.704280,-0.010927,0.699253,-0.662650,-0.598146,1.213456,-0.212444,-4.202532,31.691936,-12.336319,-2.634706,0.123990,1.409103,-0.163102,0.000000,0.000000,0.000000,0.000000,0.000000,0.000000
12627221.000000,-2.382257,-1.662490,1.068918,-1.385966,1.763414,1.131294,-0.564347,0.700122,-0.001918,0.704628,-0.650176,-0.594742,1.208169,-0.210904,-4.301714,31.053204,-12.018936,-2.833071,0.237516,1.337692,-0.163102,0.000000,0.000000,0.000000,0.000000,0.000000,0.000000
12627222.000000,-2.381566,-1.662480,1.069629,-1.386610,1.762826,1.132517,-0.564560,0.697193,0.002587,0.701097,-0.646481,-0.592945,1.213497,-0.215142,-4.448504,30.493816,-11.578568,-2.856874,0.381254,1.077682,-0.122819,0.000000,0.000000,0.000000,0.000000,0.000000,0.000000
12627223.000000,-2.380869,-1.662455,1.070354,-1.387246,1.762238,1.133735,-0.564769,0.691517,0.012367,0.724952,-0.637826,-0.585169,1.216078,-0.211877,-4.575457,29.783672,-11.431778,-3.003664,0.393156,0.966903,-0.155778,0.000000,0.000000,0.000000,0.000000,0.000000,0.000000
12627224.000000,-2.380179,-1.662429,1.071090,-1.387888,1.761660,1.134955,-0.564977,0.691749,0.014635,0.727414,-0.636762,-0.577322,1.208426,-0.210408,-4.599261,29.144939,-11.134232,-3.055238,0.320829,0.947677,-0.163102,0.000000,0.000000,0.000000,0.000000,0.000000,0.000000
12627225.000000,-2.379501,-1.662402,1.071840,-1.388504,1.761091,1.136149,-0.565182,0.688178,0.020089,0.734890,-0.627184,-0.574871,1.208541,-0.205678,-4.575457,28.605389,-10.939835,-3.202028,0.207303,0.922042,-0.149369,0.000000,0.000000,0.000000,0.000000,0.000000,0.000000
12627226.000000,-2.378826,-1.662379,1.072568,-1.389129,1.760520,1.137372,-0.565385,0.681691,0.021328,0.736637,-0.621770,-0.569131,1.204183,-0.206261,-4.476275,28.192791,-10.471695,-3.348818,0.117582,0.830489,-0.142960,0.000000,0.000000,0.000000,0.000000,0.000000,0.000000
12627227.000000,-2.378151,-1.662354,1.073314,-1.389743,1.759964,1.138567,-0.565587,0.695367,0.023325,0.735939,-0.633036,-0.564599,1.203675,-0.200704,-4.476275,27.748455,-10.102737,-3.499574,0.015958,0.869857,-0.169511,0.000000,0.000000,0.000000,0.000000,0.000000,0.000000
12627228.000000,-2.377460,-1.662337,1.074086,-1.390370,1.759408,1.139775,-0.565779,0.691803,0.020246,0.745055,-0.630876,-0.558290,1.201096,-0.201176,-4.646868,27.506451,-9.932144,-3.523378,-0.043551,0.987045,-0.208878,0.000000,0.000000,0.000000,0.000000,0.000000,0.000000
12627229.000000,-2.376764,-1.662314,1.074838,-1.390995,1.758842,1.141008,-0.565987,0.692682,0.020197,0.744692,-0.625571,-0.565429,1.206755,-0.205276,-4.845232,27.189068,-9.614761,-3.547182,-0.037142,0.895492,-0.130143,0.000000,0.000000,0.000000,0.000000,0.000000,0.000000
12627230.000000,-2.376068,-1.662302,1.075605,-1.391608,1.758284,1.142241,-0.566183,0.695933,0.015799,0.749135,-0.619836,-0.558983,1.210740,-0.201518,-5.142779,27.066082,-9.245804,-3.499574,0.040677,0.674850,-0.116410,0.000000,0.000000,0.000000,0.000000,0.000000,0.000000
12627231.000000,-2.375367,-1.662294,1.076381,-1.392224,1.757727,1.143489,-0.566367,0.693490,0.013845,0.755512,-0.613657,-0.562907,1.215595,-0.195591,-5.464129,27.042278,-9.075211,-3.475771,0.123990,0.440475,-0.188737,0.000000,0.000000,0.000000,0.000000,0.000000,0.000000
12627232.000000,-2.374665,-1.662286,1.077191,-1.392822,1.757174,1.144705,-0.566561,0.706373,0.009838,0.770237,-0.620211,-0.564392,1.214119,-0.195529,-5.714068,27.014507,-9.122818,-3.697939,0.154203,0.408431,-0.149369,0.000000,0.000000,0.000000,0.000000,0.000000,0.000000
12627233.000000,-2.373984,-1.662284,1.077995,-1.393399,1.756623,1.145921,-0.566754,0.701125,0.005877,0.773889,-0.608638,-0.555463,1.210367,-0.195656,-5.860857,27.042278,-8.976028,-3.943910,0.159696,0.576888,-0.122819,0.000000,0.000000,0.000000,0.000000,0.000000,0.000000
12627234.000000,-2.373288,-1.662289,1.078795,-1.393974,1.756062,1.147145,-0.566942,0.698527,0.003504,0.782105,-0.593206,-0.553122,1.207023,-0.191252,-6.059222,27.189068,-8.805435,-4.340639,0.159696,0.746261,-0.182328,0.000000,0.000000,0.000000,0.000000,0.000000,0.000000
12627235.000000,-2.372605,-1.662288,1.079629,-1.394548,1.755522,1.148343,-0.567133,0.689648,0.002015,0.789165,-0.585549,-0.547416,1.211002,-0.190996,-6.206011,27.212872,-8.876846,-4.610414,0.171598,0.934859,-0.175919,0.000000,0.000000,0.000000,0.000000,0.000000,0.000000
12627236.000000,-2.371906,-1.662287,1.080464,-1.395128,1.754986,1.149559,-0.567328,0.689056,0.000964,0.805999,-0.581742,-0.542932,1.204677,-0.191024,-6.503558,27.236675,-8.976028,-4.784975,0.076383,1.071273,-0.163102,0.000000,0.000000,0.000000,0.000000,0.000000,0.000000
12627237.000000,-2.371195,-1.662281,1.081316,-1.395711,1.754466,1.150795,-0.567517,0.691918,0.002538,0.817367,-0.588866,-0.546090,1.213270,-0.185444,-6.924090,27.161297,-9.047440,-4.808778,-0.049044,1.006271,-0.169511,0.000000,0.000000,0.000000,0.000000,0.000000,0.000000
12627238.000000,-2.370493,-1.662276,1.082184,-1.396289,1.753932,1.152024,-0.567704,0.697372,0.003462,0.831194,-0.583272,-0.541535,1.214142,-0.187130,-7.372393,27.089886,-9.099014,-4.733400,-0.067355,0.824081,-0.149369,0.000000,0.000000,0.000000,0.000000,0.000000,0.000000
12627239.000000,-2.369775,-1.662269,1.083034,-1.396860,1.753395,1.153248,-0.567888,0.701134,0.004703,0.838349,-0.579460,-0.539999,1.217197,-0.186716,-7.892107,26.990704,-8.999832,-4.709596,-0.031649,0.765487,-0.163102,0.000000,0.000000,0.000000,0.000000,0.000000,0.000000
12627240.000000,-2.369064,-1.662260,1.083902,-1.397422,1.752878,1.154441,-0.568076,0.702636,0.006068,0.842885,-0.575335,-0.538619,1.211654,-0.191333,-8.435626,26.867718,-8.805435,-4.634218,-0.001437,0.869857,-0.155778,0.000000,0.000000,0.000000,0.000000,0.000000,0.000000
12627241.000000,-2.368351,-1.662249,1.084768,-1.397992,1.752348,1.155639,-0.568262,0.705295,0.010038,0.865753,-0.567749,-0.531796,1.205794,-0.186703,-8.907733,26.748699,-8.630875,-4.586610,0.034269,1.006271,-0.136552,0.000000,0.000000,0.000000,0.000000,0.000000,0.000000
12627242.000000,-2.367636,-1.662238,1.085664,-1.398542,1.751826,1.156864,-0.568442,0.705421,0.009864,0.873446,-0.560007,-0.523133,1.205146,-0.185318,-9.300494,26.625713,-8.484085,-4.784975,0.076383,0.928451,-0.182328,0.000000,0.000000,0.000000,0.000000,0.000000,0.000000
12627243.000000,-2.366925,-1.662228,1.086573,-1.399093,1.751315,1.158069,-0.568625,0.705033,0.009118,0.882734,-0.558010,-0.523335,1.209703,-0.182370,-9.796405,26.526531,-8.384903,-4.832582,0.052579,0.836898,-0.163102,0.000000,0.000000,0.000000,0.000000,0.000000,0.000000
12627244.000000,-2.366201,-1.662221,1.087482,-1.399648,1.750804,1.159276,-0.568804,0.709443,0.009410,0.894851,-0.551023,-0.513312,1.205834,-0.178510,-10.292315,26.526531,-8.337296,-4.907960,0.022367,0.869857,-0.182328,0.000000,0.000000,0.000000,0.000000,0.000000,0.000000
12627245.000000,-2.365488,-1.662217,1.088421,-1.400201,1.750309,1.160459,-0.568984,0.710803,0.008571,0.908291,-0.561362,-0.511671,1.204884,-0.176884,-10.788226,26.574139,-8.436478,-4.808778,0.010465,0.928451,-0.169511,0.000000,0.000000,0.000000,0.000000,0.000000,0.000000
12627246.000000,-2.364762,-1.662214,1.089377,-1.400757,1.749806,1.161667,-0.569164,0.711961,0.007545,0.917696,-0.558323,-0.503360,1.209929,-0.175782,-11.307940,26.649517,-8.583267,-4.709596,-0.060946,0.954086,-0.155778,0.000000,0.000000,0.000000,0.000000,0.000000,0.000000
12627247.000000,-2.364039,-1.662218,1.090326,-1.401316,1.749308,1.162876,-0.569344,0.709555,0.004193,0.928045,-0.555778,-0.500563,1.211184,-0.174623,-11.676898,26.843914,-8.654678,-4.610414,-0.072848,0.928451,-0.155778,0.000000,0.000000,0.000000,0.000000,0.000000,0.000000
12627248.000000,-2.363332,-1.662226,1.091295,-1.401859,1.748814,1.164061,-0.569527,0.709951,-0.001652,0.932857,-0.548724,-0.500182,1.209729,-0.174856,-12.002215,27.066082,-8.777664,-4.586610,-0.145175,0.954086,-0.116410,0.000000,0.000000,0.000000,0.000000,0.000000,0.000000
12627249.000000,-2.362615,-1.662232,1.092264,-1.402383,1.748316,1.165259,-0.569703,0.705894,-0.000800,0.940684,-0.538476,-0.492784,1.211832,-0.171814,-12.323565,27.212872,-8.853043,-4.856386,-0.138766,0.960494,-0.163102,0.000000,0.000000,0.000000,0.000000,0.000000,0.000000
12627250.000000,-2.361906,-1.662234,1.093242,-1.402918,1.747823,1.166455,-0.569883,0.702026,-0.001518,0.951135,-0.542072,-0.500048,1.206760,-0.171911,-12.545733,27.284283,-8.777664,-5.054750,-0.067355,1.096908,-0.149369,0.000000,0.000000,0.000000,0.000000,0.000000,0.000000
12627251.000000,-2.361204,-1.662239,1.094211,-1.403448,1.747323,1.167623,-0.570054,0.703419,-0.002817,0.948197,-0.536997,-0.499793,1.202123,-0.177352,-12.815509,27.383465,-8.436478,-5.130128,-0.013339,1.234237,-0.149369,0.000000,0.000000,0.000000,0.000000,0.000000,0.000000
12627252.000000,-2.360493,-1.662246,1.095195,-1.403983,1.746827,1.168814,-0.570219,0.702373,-0.003162,0.959058,-0.535673,-0.495963,1.194566,-0.172700,-13.140826,27.454876,-8.361099,-5.205507,0.069974,1.312057,-0.215287,0.000000,0.000000,0.000000,0.000000,0.000000,0.000000
12627253.000000,-2.359795,-1.662256,1.096178,-1.404515,1.746335,1.169987,-0.570389,0.703930,-0.006740,0.962632,-0.534546,-0.495211,1.192146,-0.172266,-13.410602,27.530254,-8.019913,-5.205507,0.093778,1.253463,-0.215287,0.000000,0.000000,0.000000,0.000000,0.000000,0.000000
12627254.000000,-2.359090,-1.662263,1.097184,-1.405043,1.745845,1.171191,-0.570568,0.701699,-0.005653,0.979501,-0.530997,-0.487762,1.198144,-0.174502,-13.684344,27.577862,-7.920731,-5.276918,0.081876,1.058456,-0.142960,0.000000,0.000000,0.000000,0.000000,0.000000,0.000000
12627255.000000,-2.358388,-1.662265,1.098190,-1.405567,1.745375,1.172401,-0.570727,0.700393,-0.003246,0.989107,-0.528951,-0.497976,1.199294,-0.170859,-13.930316,27.554058,-7.575577,-5.352296,0.040677,0.817672,-0.208878,0.000000,0.000000,0.000000,0.000000,0.000000,0.000000
12627256.000000,-2.357713,-1.662271,1.099222,-1.406082,1.744905,1.173587,-0.570898,0.692499,-0.003304,0.998055,-0.522380,-0.492341,1.189173,-0.172224,-13.882709,27.601665,-7.428787,-5.475282,-0.055453,0.733443,-0.169511,0.000000,0.000000,0.000000,0.000000,0.000000,0.000000
12627257.000000,-2.357036,-1.662280,1.100239,-1.406591,1.744440,1.174776,-0.571063,0.686567,-0.004542,1.004932,-0.516374,-0.474982,1.176418,-0.171518,-13.882709,27.700848,-7.159012,-5.749025,-0.126864,0.727035,-0.163102,0.000000,0.000000,0.000000,0.000000,0.000000,0.000000
12627258.000000,-2.356381,-1.662285,1.101280,-1.407085,1.743987,1.175947,-0.571225,0.676111,-0.004156,1.014763,-0.506506,-0.470764,1.172347,-0.170563,-13.684344,27.748455,-6.936844,-6.042604,-0.228488,0.798446,-0.175919,0.000000,0.000000,0.000000,0.000000,0.000000,0.000000
12627259.000000,-2.355717,-1.662281,1.102320,-1.407576,1.743520,1.177136,-0.571389,0.670418,-0.001111,1.043562,-0.499454,-0.467884,1.172255,-0.167272,-13.533587,27.677044,-6.813858,-6.463136,-0.187289,0.798446,-0.136552,0.000000,0.000000,0.000000,0.000000,0.000000,0.000000
12627260.000000,-2.355044,-1.662273,1.103393,-1.408066,1.743072,1.178339,-0.571546,0.670270,0.002685,1.047026,-0.493484,-0.459046,1.167684,-0.161157,-13.561358,27.530254,-6.790054,-6.784486,-0.211093,0.785628,-0.182328,0.000000,0.000000,0.000000,0.000000,0.000000,0.000000
12627261.000000,-2.354392,-1.662267,1.104485,-1.408544,1.742622,1.179532,-0.571707,0.665605,0.004104,1.061871,-0.486989,-0.457276,1.172243,-0.162955,-13.509784,27.431072,-6.813858,-7.058229,-0.222994,0.674850,-0.196061,0.000000,0.000000,0.000000,0.000000,0.000000,0.000000
12627262.000000,-2.353722,-1.662254,1.105557,-1.409032,1.742162,1.180751,-0.571876,0.665130,0.007835,1.063371,-0.482947,-0.458710,1.179778,-0.166775,-13.660541,27.212872,-6.766251,-7.232790,-0.138766,0.518295,-0.142960,0.000000,0.000000,0.000000,0.000000,0.000000,0.000000
12627263.000000,-2.353065,-1.662241,1.106662,-1.409506,1.741719,1.181946,-0.572031,0.676072,0.009211,1.075507,-0.489888,-0.456513,1.201887,-0.165802,-13.759723,27.042278,-6.841629,-7.304201,-0.145175,0.421249,-0.188737,0.000000,0.000000,0.000000,0.000000,0.000000,0.000000
12627264.000000,-2.352402,-1.662235,1.107776,-1.409990,1.741272,1.183153,-0.572194,0.668799,0.007901,1.088672,-0.486333,-0.448997,1.202973,-0.163675,-13.831134,26.966900,-6.766251,-7.304201,-0.187289,0.414840,-0.149369,0.000000,0.000000,0.000000,0.000000,0.000000,0.000000
12627265.000000,-2.351750,-1.662221,1.108875,-1.410466,1.740824,1.184348,-0.572357,0.663851,0.009256,1.090417,-0.484684,-0.449810,1.192285,-0.162130,-13.807330,26.796307,-6.643265,-7.379579,-0.187289,0.576888,-0.110001,0.000000,0.000000,0.000000,0.000000,0.000000,0.000000
12627266.000000,-2.351105,-1.662208,1.109989,-1.410925,1.740392,1.185536,-0.572501,0.657739,0.010160,1.092908,-0.477854,-0.446957,1.194393,-0.155782,-13.783526,26.625713,-6.349686,-7.554140,-0.287997,0.662032,-0.202470,0.000000,0.000000,0.000000,0.000000,0.000000,0.000000
12627267.000000,-2.350462,-1.662198,1.111101,-1.411381,1.739952,1.186735,-0.572661,0.653388,0.010206,1.102400,-0.469847,-0.441828,1.185499,-0.156503,-13.708148,26.478924,-6.127518,-7.823915,-0.330111,0.706893,-0.155778,0.000000,0.000000,0.000000,0.000000,0.000000,0.000000
12627268.000000,-2.349814,-1.662178,1.112256,-1.411838,1.739521,1.187942,-0.572812,0.646758,0.012557,1.116520,-0.470189,-0.434691,1.184362,-0.154428,-13.708148,26.232952,-6.202896,-8.046083,-0.348422,0.798446,-0.175919,0.000000,0.000000,0.000000,0.000000,0.000000,0.000000
12627269.000000,-2.349171,-1.662162,1.113428,-1.412298,1.739093,1.189140,-0.572959,0.643997,0.016665,1.128360,-0.465672,-0.435402,1.184240,-0.153388,-13.783526,26.010784,-6.250504,-8.145266,-0.467440,0.706893,-0.202470,0.000000,0.000000,0.000000,0.000000,0.000000,0.000000
12627270.000000,-2.348525,-1.662154,1.114614,-1.412764,1.738647,1.190352,-0.573118,0.643726,0.013038,1.147469,-0.464605,-0.434721,1.186833,-0.154900,-13.858905,25.939373,-6.571854,-8.097658,-0.365817,0.616256,-0.142960,0.000000,0.000000,0.000000,0.000000,0.000000,0.000000
12627271.000000,-2.347891,-1.662146,1.115824,-1.413226,1.738223,1.191525,-0.573263,0.643215,0.010648,1.162047,-0.461720,-0.427650,1.181320,-0.153446,-13.858905,25.863995,-6.936844,-8.022280,-0.306307,0.654708,-0.155778,0.000000,0.000000,0.000000,0.000000,0.000000,0.000000
12627272.000000,-2.347253,-1.662141,1.117039,-1.413694,1.737800,1.192711,-0.573417,0.640903,0.007801,1.179075,-0.463265,-0.427273,1.183270,-0.153559,-13.930316,25.840191,-7.452591,-7.923097,-0.330111,0.759078,-0.136552,0.000000,0.000000,0.000000,0.000000,0.000000,0.000000
12627273.000000,-2.346615,-1.662140,1.118269,-1.414155,1.737382,1.193896,-0.573562,0.635051,0.004752,1.190947,-0.456928,-0.427621,1.177329,-0.147531,-13.954120,25.863995,-7.722366,-7.970705,-0.294406,0.850631,-0.149369,0.000000,0.000000,0.000000,0.000000,0.000000,0.000000
12627274.000000,-2.345992,-1.662142,1.119518,-1.414609,1.736968,1.195068,-0.573699,0.628903,0.001486,1.207478,-0.456301,-0.424749,1.179968,-0.142454,-13.906512,25.939373,-7.920731,-7.998476,-0.282504,0.869857,-0.182328,0.000000,0.000000,0.000000,0.000000,0.000000,0.000000
12627275.000000,-2.345360,-1.662146,1.120750,-1.415068,1.736543,1.196255,-0.573845,0.623988,-0.000618,1.218579,-0.451884,-0.420796,1.175839,-0.140544,-14.029498,26.010784,-8.019913,-8.022280,-0.318209,0.850631,-0.163102,0.000000,0.000000,0.000000,0.000000,0.000000,0.000000
12627276.000000,-2.344739,-1.662149,1.122006,-1.415526,1.736127,1.197406,-0.573982,0.622882,-0.001573,1.219130,-0.454072,-0.420583,1.173745,-0.137528,-14.104877,26.062359,-8.043716,-7.998476,-0.276095,1.006271,-0.188737,0.000000,0.000000,0.000000,0.000000,0.000000,0.000000
12627277.000000,-2.344116,-1.662164,1.123241,-1.416001,1.735722,1.198578,-0.574126,0.616931,-0.006675,1.221319,-0.456058,-0.413619,1.171487,-0.140559,-14.081073,26.304363,-7.869156,-7.800111,-0.276095,1.064864,-0.202470,0.000000,0.000000,0.000000,0.000000,0.000000,0.000000
12627278.000000,-2.343484,-1.662181,1.124495,-1.416482,1.735300,1.199768,-0.574280,0.622072,-0.009593,1.221877,-0.463289,-0.415458,1.177633,-0.144968,-14.053302,26.796307,-7.944534,-7.625551,-0.228488,1.019088,-0.149369,0.000000,0.000000,0.000000,0.000000,0.000000,0.000000
12627279.000000,-2.342871,-1.662203,1.125752,-1.416953,1.734892,1.200950,-0.574419,0.618708,-0.010165,1.220669,-0.468658,-0.410591,1.185604,-0.145499,-13.831134,27.653240,-8.484085,-7.454957,-0.222994,0.901900,-0.175919,0.000000,0.000000,0.000000,0.000000,0.000000,0.000000
12627280.000000,-2.342267,-1.662227,1.126971,-1.417428,1.734504,1.202150,-0.574569,0.614811,-0.015688,1.215646,-0.462655,-0.398308,1.192962,-0.147979,-13.335223,28.779949,-9.222000,-7.379579,-0.306307,0.798446,-0.142960,0.000000,0.000000,0.000000,0.000000,0.000000,0.000000
12627281.000000,-2.341664,-1.662250,1.128191,-1.417883,1.734107,1.203332,-0.574714,0.623619,-0.016965,1.212410,-0.473050,-0.394150,1.218561,-0.144290,-12.867084,30.101055,-10.078934,-7.478761,-0.282504,0.798446,-0.136552,0.000000,0.000000,0.000000,0.000000,0.000000,0.000000
12627282.000000,-2.341071,-1.662267,1.129431,-1.418340,1.733703,1.204529,-0.574852,0.608605,-0.019138,1.224504,-0.462126,-0.399232,1.212633,-0.140313,-12.097430,31.398357,-11.281021,-7.625551,-0.162570,0.876266,-0.163102,0.000000,0.000000,0.000000,0.000000,0.000000,0.000000
12627283.000000,-2.340457,-1.662272,1.130647,-1.418798,1.733312,1.205714,-0.574993,0.606311,-0.016386,1.225043,-0.457022,-0.392340,1.205853,-0.139042,-11.676898,32.548870,-12.459305,-7.800111,-0.060946,1.162826,-0.149369,0.000000,0.000000,0.000000,0.000000,0.000000,0.000000
12627284.000000,-2.339852,-1.662268,1.131875,-1.419250,1.732925,1.206887,-0.575133,0.604940,-0.012756,1.224274,-0.452272,-0.396697,1.202622,-0.137346,-11.284137,33.501019,-13.490799,-7.875490,0.040677,1.422836,-0.149369,0.000000,0.000000,0.000000,0.000000,0.000000,0.000000
12627285.000000,-2.339246,-1.662266,1.133090,-1.419709,1.732534,1.208074,-0.575276,0.601977,-0.009929,1.225605,-0.451899,-0.389161,1.197495,-0.136536,-10.958819,34.310345,-14.474686,-7.946901,0.135892,1.591293,-0.136552,0.000000,0.000000,0.000000,0.000000,0.000000,0.000000
12627286.000000,-2.338626,-1.662260,1.134318,-1.420172,1.732151,1.209279,-0.575416,0.602347,-0.005329,1.226386,-0.461110,-0.383524,1.202545,-0.134031,-10.859637,34.996685,-15.331619,-7.946901,0.219205,1.578475,-0.169511,0.000000,0.000000,0.000000,0.000000,0.000000,0.000000
12627287.000000,-2.338012,-1.662250,1.135567,-1.420640,1.731768,1.210462,-0.575548,0.604136,0.001371,1.230548,-0.464176,-0.386113,1.197394,-0.137609,-10.859637,35.508465,-16.192520,-7.800111,0.219205,1.532699,-0.215287,0.000000,0.000000,0.000000,0.000000,0.000000,0.000000
12627288.000000,-2.337408,-1.662244,1.136789,-1.421104,1.731393,1.211646,-0.575693,0.601792,0.003818,1.226627,-0.462676,-0.380402,1.193475,-0.141951,-10.764422,35.976604,-16.732071,-7.724733,0.147794,1.546432,-0.188737,0.000000,0.000000,0.000000,0.000000,0.000000,0.000000
12627289.000000,-2.336817,-1.662246,1.138029,-1.421556,1.731025,1.212817,-0.575829,0.598248,0.000908,1.230528,-0.457045,-0.378514,1.184826,-0.143457,-10.566058,36.488384,-17.124832,-7.748537,0.117582,1.526290,-0.188737,0.000000,0.000000,0.000000,0.000000,0.000000,0.000000
12627290.000000,-2.336227,-1.662249,1.139275,-1.421991,1.730662,1.213989,-0.575971,0.589634,0.000817,1.236581,-0.446664,-0.374250,1.176038,-0.146549,-10.367694,36.904949,-17.735794,-8.046083,0.027860,1.532699,-0.155778,0.000000,0.000000,0.000000,0.000000,0.000000,0.000000
12627291.000000,-2.335649,-1.662253,1.140542,-1.422420,1.730292,1.215152,-0.576105,0.582292,0.000904,1.241308,-0.435802,-0.379294,1.166097,-0.140941,-9.994769,37.297710,-18.251541,-8.343630,-0.055453,1.649886,-0.202470,0.000000,0.000000,0.000000,0.000000,0.000000,0.000000
12627292.000000,-2.335084,-1.662281,1.141835,-1.422827,1.729929,1.216296,-0.576247,0.577365,-0.008236,1.251861,-0.427385,-0.371815,1.151853,-0.142115,-9.625812,37.932476,-18.941849,-8.839540,-0.121371,1.702071,-0.116410,0.000000,0.000000,0.000000,0.000000,0.000000,0.000000
12627293.000000,-2.334534,-1.662310,1.143125,-1.423226,1.729567,1.217451,-0.576378,0.566422,-0.013708,1.272137,-0.412939,-0.368912,1.141728,-0.138488,-9.129901,38.519634,-19.751175,-9.355288,-0.121371,1.806442,-0.136552,0.000000,0.000000,0.000000,0.000000,0.000000,0.000000
12627294.000000,-2.333991,-1.662351,1.144429,-1.423618,1.729190,1.218591,-0.576501,0.557418,-0.021971,1.276931,-0.414923,-0.373212,1.133007,-0.134173,-8.681598,39.158367,-20.485123,-9.875002,-0.067355,1.890670,-0.208878,0.000000,0.000000,0.000000,0.000000,0.000000,0.000000
12627295.000000,-2.333446,-1.662393,1.145736,-1.424018,1.728815,1.219759,-0.576645,0.552228,-0.027357,1.279546,-0.403603,-0.372155,1.135471,-0.137507,-8.261065,39.769329,-21.076248,-10.148745,0.015958,1.844894,-0.110001,0.000000,0.000000,0.000000,0.000000,0.000000,0.000000
12627296.000000,-2.332900,-1.662443,1.147015,-1.424418,1.728450,1.220923,-0.576769,0.547215,-0.035617,1.273229,-0.399708,-0.365899,1.136979,-0.133257,-7.963519,40.427898,-21.445206,-10.394716,0.076383,1.786300,-0.175919,0.000000,0.000000,0.000000,0.000000,0.000000,0.000000
12627297.000000,-2.332373,-1.662492,1.148312,-1.424805,1.728082,1.222075,-0.576896,0.542185,-0.040231,1.273886,-0.394441,-0.366495,1.144255,-0.132446,-7.594561,41.019024,-21.837967,-10.569277,0.147794,1.708480,-0.196061,0.000000,0.000000,0.000000,0.000000,0.000000,0.000000
12627298.000000,-2.331836,-1.662539,1.149567,-1.425209,1.727710,1.223223,-0.577033,0.536111,-0.041761,1.271840,-0.393019,-0.363220,1.138092,-0.135003,-7.297015,41.530804,-21.762589,-10.593081,0.147794,1.741439,-0.130143,0.000000,0.000000,0.000000,0.000000,0.000000,0.000000
12627299.000000,-2.331317,-1.662594,1.150855,-1.425605,1.727348,1.224359,-0.577156,0.536325,-0.044710,1.268682,-0.402103,-0.362050,1.160778,-0.132075,-6.924090,42.117962,-21.861771,-10.517702,0.159696,1.786300,-0.188737,0.000000,0.000000,0.000000,0.000000,0.000000,0.000000
12627300.000000,-2.330803,-1.662640,1.152125,-1.426010,1.726996,1.225511,-0.577278,0.527407,-0.044164,1.265397,-0.402327,-0.358387,1.155138,-0.132040,-6.555132,42.582134,-21.568192,-10.370913,0.093778,1.865035,-0.196061,0.000000,0.000000,0.000000,0.000000,0.000000,0.000000
12627301.000000,-2.330285,-1.662682,1.153409,-1.426419,1.726643,1.226665,-0.577401,0.521952,-0.044255,1.273208,-0.403651,-0.350109,1.150815,-0.127984,-6.257586,42.927288,-21.810196,-10.148745,-0.001437,1.942855,-0.175919,0.000000,0.000000,0.000000,0.000000,0.000000,0.000000
12627302.000000,-2.329792,-1.662721,1.154693,-1.426825,1.726299,1.227814,-0.577525,0.513945,-0.043059,1.271578,-0.407906,-0.345803,1.153282,-0.125540,-5.912432,43.197063,-21.885574,-9.926577,-0.060946,1.909896,-0.142960,0.000000,0.000000,0.000000,0.000000,0.000000,0.000000
12627303.000000,-2.329292,-1.662755,1.155972,-1.427239,1.725956,1.228981,-0.577640,0.507691,-0.040136,1.273756,-0.407959,-0.340084,1.159404,-0.125358,-5.563311,43.367657,-22.131546,-9.652834,-0.037142,1.832076,-0.188737,0.000000,0.000000,0.000000,0.000000,0.000000,0.000000
12627304.000000,-2.328792,-1.662784,1.157284,-1.427658,1.725605,1.230138,-0.577769,0.503565,-0.039155,1.279294,-0.412284,-0.350916,1.160482,-0.124189,-5.218157,43.439068,-22.571915,-9.383059,0.052579,1.884261,-0.136552,0.000000,0.000000,0.000000,0.000000,0.000000,0.000000
12627305.000000,-2.328310,-1.662810,1.158592,-1.428067,1.725252,1.231276,-0.577887,0.495165,-0.034174,1.277732,-0.413004,-0.350141,1.155406,-0.120834,-4.920611,43.439068,-22.917068,-9.184694,0.112089,1.949264,-0.163102,0.000000,0.000000,0.000000,0.000000,0.000000,0.000000
12627306.000000,-2.327836,-1.662833,1.159889,-1.428493,1.724895,1.232427,-0.578005,0.485973,-0.030436,1.281838,-0.417820,-0.353221,1.150638,-0.117987,-4.400897,43.415264,-23.381241,-8.910952,0.267728,1.981307,-0.182328,0.000000,0.000000,0.000000,0.000000,0.000000,0.000000
12627307.000000,-2.327360,-1.662858,1.161185,-1.428912,1.724552,1.233563,-0.578125,0.486760,-0.026891,1.282971,-0.419210,-0.357260,1.145495,-0.121966,-4.027972,43.343853,-23.603409,-8.764162,0.356534,2.007858,-0.155778,0.000000,0.000000,0.000000,0.000000,0.000000,0.000000
12627308.000000,-2.326886,-1.662880,1.162473,-1.429351,1.724197,1.234725,-0.578238,0.481094,-0.024598,1.307083,-0.425361,-0.353897,1.140688,-0.122786,-3.659014,43.268475,-23.948563,-8.419008,0.416959,1.930038,-0.202470,0.000000,0.000000,0.000000,0.000000,0.000000,0.000000
12627309.000000,-2.326412,-1.662899,1.163762,-1.429804,1.723857,1.235874,-0.578359,0.475481,-0.021987,1.298173,-0.431607,-0.348960,1.131327,-0.120655,-3.361468,43.145489,-24.043777,-7.970705,0.398649,2.007858,-0.196061,0.000000,0.000000,0.000000,0.000000,0.000000,0.000000
12627310.000000,-2.325946,-1.662922,1.165058,-1.430253,1.723527,1.237015,-0.578480,0.471250,-0.021839,1.290587,-0.439843,-0.339659,1.131326,-0.120367,-3.063921,43.097881,-24.119156,-7.526369,0.356534,2.027084,-0.155778,0.000000,0.000000,0.000000,0.000000,0.000000,0.000000
12627311.000000,-2.325477,-1.662950,1.166339,-1.430723,1.723195,1.238185,-0.578593,0.467361,-0.023513,1.288690,-0.445397,-0.336741,1.138355,-0.116138,-2.790179,43.121685,-24.289749,-6.883668,0.291532,1.916305,-0.202470,0.000000,0.000000,0.000000,0.000000,0.000000,0.000000
12627312.000000,-2.325033,-1.662974,1.167638,-1.431178,1.722859,1.239328,-0.578711,0.459258,-0.026479,1.285540,-0.458232,-0.332445,1.142316,-0.117007,-2.369647,43.097881,-24.464310,-6.514711,0.285123,1.890670,-0.163102,0.000000,0.000000,0.000000,0.000000,0.000000,0.000000
12627313.000000,-2.324576,-1.662999,1.168968,-1.431639,1.722519,1.240481,-0.578832,0.457993,-0.026189,1.295078,-0.454739,-0.335621,1.143340,-0.117642,-2.048296,43.097881,-25.051468,-6.117982,0.327238,1.923629,-0.130143,0.000000,0.000000,0.000000,0.000000,0.000000,0.000000
12627314.000000,-2.324117,-1.663027,1.170266,-1.432106,1.722185,1.241624,-0.578943,0.458102,-0.029093,1.294464,-0.452795,-0.336922,1.138797,-0.113523,-1.778521,43.097881,-25.491837,-5.820436,0.339139,2.098495,-0.202470,0.000000,0.000000,0.000000,0.000000,0.000000,0.000000
12627315.000000,-2.323691,-1.663055,1.171574,-1.432555,1.721839,1.242750,-0.579059,0.444164,-0.029190,1.292048,-0.444783,-0.342626,1.135016,-0.113628,-1.282611,43.145489,-25.912369,-5.673646,0.470060,2.183639,-0.202470,0.000000,0.000000,0.000000,0.000000,0.000000,0.000000
12627316.000000,-2.323261,-1.663080,1.172861,-1.433011,1.721488,1.243888,-0.579180,0.436505,-0.028177,1.294934,-0.443625,-0.341732,1.129400,-0.114239,-0.810504,43.145489,-26.182144,-5.598268,0.620206,2.280685,-0.188737,0.000000,0.000000,0.000000,0.000000,0.000000,0.000000
12627317.000000,-2.322829,-1.663105,1.174161,-1.433463,1.721158,1.245029,-0.579290,0.432259,-0.027901,1.292871,-0.455145,-0.336407,1.126043,-0.113339,-0.366168,43.173260,-26.451920,-5.499086,0.632108,2.417098,-0.215287,0.000000,0.000000,0.000000,0.000000,0.000000,0.000000
12627318.000000,-2.322407,-1.663124,1.175462,-1.433930,1.720838,1.246151,-0.579404,0.429024,-0.025299,1.288588,-0.458526,-0.335519,1.130376,-0.113487,0.078168,43.097881,-26.598709,-5.328493,0.601896,2.482101,-0.215287,0.000000,0.000000,0.000000,0.000000,0.000000,0.000000
12627321.000000,-2.321129,-1.663186,1.179268,-1.435348,1.719862,1.249582,-0.579742,0.431292,-0.020431,1.271038,-0.468040,-0.324316,1.139193,-0.109508,0.824018,43.026470,-26.305130,-4.289064,0.512174,2.104903,-0.208878,0.000000,0.000000,0.000000,0.000000,0.000000,0.000000
12627322.000000,-2.320707,-1.663202,1.180549,-1.435822,1.719554,1.250726,-0.579857,0.427107,-0.019892,1.267850,-0.468474,-0.324737,1.139065,-0.108204,1.022382,42.951092,-26.305130,-3.920107,0.464567,2.072860,-0.142960,0.000000,0.000000,0.000000,0.000000,0.000000,0.000000
12627323.000000,-2.320296,-1.663220,1.181819,-1.436280,1.719238,1.251864,-0.579953,0.423722,-0.020816,1.260386,-0.461905,-0.322094,1.135950,-0.101400,1.216779,42.927288,-26.082962,-3.697939,0.410551,1.955673,-0.229020,0.000000,0.000000,0.000000,0.000000,0.000000,0.000000
12627324.000000,-2.319891,-1.663236,1.183073,-1.436728,1.718908,1.253019,-0.580066,0.416387,-0.020833,1.258525,-0.448822,-0.323468,1.131439,-0.106774,1.589704,42.875713,-26.007584,-3.646364,0.571683,1.844894,-0.163102,0.000000,0.000000,0.000000,0.000000,0.000000,0.000000
12627325.000000,-2.319487,-1.663254,1.184337,-1.437169,1.718597,1.254133,-0.580172,0.412468,-0.021498,1.256828,-0.441504,-0.321070,1.125341,-0.107707,1.934858,42.851910,-25.884598,-3.697939,0.655912,2.001449,-0.163102,0.000000,0.000000,0.000000,0.000000,0.000000,0.000000
12627326.000000,-2.319068,-1.663272,1.185580,-1.437612,1.718281,1.255263,-0.580270,0.413338,-0.018381,1.276928,-0.438624,-0.321133,1.117598,-0.106363,2.133222,42.804302,-25.813187,-3.670168,0.691617,2.125045,-0.254655,0.000000,0.000000,0.000000,0.000000,0.000000,0.000000
12627327.000000,-2.318655,-1.663291,1.186838,-1.438065,1.717957,1.256408,-0.580387,0.411978,-0.019223,1.269399,-0.438743,-0.319301,1.124766,-0.106863,2.383161,42.756695,-25.789383,-3.547182,0.781339,2.183639,-0.163102,0.000000,0.000000,0.000000,0.000000,0.000000,0.000000
12627328.000000,-2.318243,-1.663309,1.188084,-1.438508,1.717646,1.257556,-0.580484,0.413364,-0.017828,1.252967,-0.439284,-0.315754,1.132549,-0.101910,2.553754,42.756695,-25.591019,-3.400392,0.817045,2.039901,-0.208878,0.000000,0.000000,0.000000,0.000000,0.000000,0.000000
12627329.000000,-2.317808,-1.663323,1.189313,-1.438965,1.717344,1.258732,-0.580593,0.414902,-0.015939,1.250055,-0.439396,-0.309990,1.144666,-0.105924,2.383161,42.728924,-25.491837,-3.202028,0.781339,1.779891,-0.175919,0.000000,0.000000,0.000000,0.000000,0.000000,0.000000
12627330.000000,-2.317397,-1.663338,1.190544,-1.439410,1.717048,1.259881,-0.580700,0.416640,-0.014150,1.239674,-0.451413,-0.305027,1.171288,-0.103909,2.359357,42.681316,-25.297440,-3.027467,0.709928,1.670028,-0.155778,0.000000,0.000000,0.000000,0.000000,0.000000,0.000000
12627331.000000,-2.316986,-1.663343,1.191794,-1.439853,1.716748,1.261049,-0.580799,0.412809,-0.010552,1.239942,-0.447836,-0.301385,1.170984,-0.100190,2.383161,42.534527,-25.321243,-2.904482,0.632108,1.532699,-0.188737,0.000000,0.000000,0.000000,0.000000,0.000000,0.000000
12627332.000000,-2.316567,-1.663356,1.193007,-1.440282,1.716451,1.262215,-0.580899,0.410982,-0.008335,1.231030,-0.444143,-0.296645,1.174745,-0.103062,2.359357,42.534527,-25.150650,-2.979860,0.620206,1.513473,-0.196061,0.000000,0.000000,0.000000,0.000000,0.000000,0.000000
12627333.000000,-2.316159,-1.663365,1.194251,-1.440706,1.716163,1.263348,-0.580995,0.408121,-0.009253,1.233584,-0.439347,-0.294987,1.166971,-0.100440,2.406965,42.510723,-25.273636,-3.003664,0.655912,1.708480,-0.208878,0.000000,0.000000,0.000000,0.000000,0.000000,0.000000
12627334.000000,-2.315757,-1.663370,1.195490,-1.441120,1.715877,1.264487,-0.581098,0.403202,-0.008023,1.234820,-0.431343,-0.296077,1.160918,-0.100244,2.529951,42.411541,-25.591019,-3.202028,0.649503,1.968490,-0.175919,0.000000,0.000000,0.000000,0.000000,0.000000,0.000000
12627335.000000,-2.315346,-1.663376,1.196748,-1.441536,1.715588,1.265638,-0.581193,0.410571,-0.007948,1.240115,-0.431939,-0.292187,1.152383,-0.097842,2.506147,42.340130,-25.983780,-3.348818,0.632108,2.157089,-0.202470,0.000000,0.000000,0.000000,0.000000,0.000000,0.000000
12627336.000000,-2.314942,-1.663388,1.198005,-1.441944,1.715292,1.266783,-0.581294,0.407600,-0.009314,1.238645,-0.428999,-0.291329,1.152572,-0.102516,2.553754,42.340130,-26.305130,-3.475771,0.667814,2.163497,-0.182328,0.000000,0.000000,0.000000,0.000000,0.000000,0.000000
12627337.000000,-2.314524,-1.663394,1.199227,-1.442360,1.715003,1.267944,-0.581400,0.405792,-0.012358,1.235884,-0.425104,-0.285487,1.144801,-0.100926,2.406965,42.288555,-26.400345,-3.499574,0.703519,2.079269,-0.163102,0.000000,0.000000,0.000000,0.000000,0.000000,0.000000
12627338.000000,-2.314111,-1.663405,1.200464,-1.442779,1.714721,1.269072,-0.581490,0.408802,-0.008978,1.230235,-0.424512,-0.281744,1.136008,-0.101246,2.232404,42.264751,-26.598709,-3.301210,0.745634,2.137862,-0.235429,0.000000,0.000000,0.000000,0.000000,0.000000,0.000000
12627339.000000,-2.313704,-1.663412,1.201675,-1.443195,1.714439,1.270207,-0.581602,0.406847,-0.005843,1.225588,-0.420233,-0.285202,1.122248,-0.102743,2.208601,42.217144,-26.574905,-3.225832,0.721830,2.235824,-0.155778,0.000000,0.000000,0.000000,0.000000,0.000000,0.000000
12627340.000000,-2.313285,-1.663425,1.202892,-1.443609,1.714160,1.271361,-0.581697,0.407837,-0.008881,1.219518,-0.420755,-0.281586,1.127388,-0.098304,2.085615,42.264751,-26.376541,-3.154421,0.685209,2.183639,-0.215287,0.000000,0.000000,0.000000,0.000000,0.000000,0.000000
12627341.000000,-2.312883,-1.663428,1.204112,-1.444013,1.713895,1.272499,-0.581795,0.402282,-0.007681,1.216555,-0.414572,-0.275420,1.131145,-0.097339,2.109418,42.169537,-26.130569,-3.055238,0.632108,2.125045,-0.215287,0.000000,0.000000,0.000000,0.000000,0.000000,0.000000
12627342.000000,-2.312487,-1.663436,1.205312,-1.444413,1.713639,1.273645,-0.581900,0.395566,-0.007941,1.210667,-0.407454,-0.264894,1.131045,-0.098733,2.208601,42.117962,-25.936172,-3.027467,0.547880,2.072860,-0.163102,0.000000,0.000000,0.000000,0.000000,0.000000,0.000000
12627343.000000,-2.312093,-1.663435,1.206540,-1.444801,1.713379,1.274769,-0.582000,0.392757,-0.005368,1.209578,-0.402503,-0.262610,1.131311,-0.102130,2.260175,41.947369,-25.959976,-3.027467,0.476469,2.079269,-0.169511,0.000000,0.000000,0.000000,0.000000,0.000000,0.000000
12627344.000000,-2.311703,-1.663435,1.207730,-1.445191,1.713111,1.275908,-0.582096,0.390999,-0.005372,1.225797,-0.401786,-0.262777,1.131496,-0.104669,2.454572,41.848186,-25.737808,-3.055238,0.476469,2.079269,-0.182328,0.000000,0.000000,0.000000,0.000000,0.000000,0.000000
12627345.000000,-2.311305,-1.663439,1.208949,-1.445578,1.712831,1.277065,-0.582192,0.389216,-0.002886,1.221145,-0.393710,-0.269432,1.134245,-0.100745,2.529951,41.776775,-25.714005,-3.102846,0.637601,1.988631,-0.215287,0.000000,0.000000,0.000000,0.000000,0.000000,0.000000
12627346.000000,-2.310924,-1.663440,1.210161,-1.445959,1.712563,1.278200,-0.582291,0.387028,-0.002949,1.212455,-0.393488,-0.271458,1.136394,-0.100912,2.652936,41.653790,-25.591019,-3.055238,0.739225,1.909896,-0.169511,0.000000,0.000000,0.000000,0.000000,0.000000,0.000000
12627347.000000,-2.310532,-1.663435,1.211367,-1.446334,1.712304,1.279347,-0.582378,0.387480,0.001212,1.214374,-0.381475,-0.268999,1.143819,-0.097489,2.652936,41.483196,-25.690201,-3.178224,0.745634,1.871444,-0.215287,0.000000,0.000000,0.000000,0.000000,0.000000,0.000000
12627348.000000,-2.310147,-1.663432,1.212569,-1.446705,1.712052,1.280474,-0.582476,0.394111,0.003632,1.209685,-0.387188,-0.265281,1.168288,-0.099003,2.704511,41.336407,-25.614822,-3.202028,0.685209,1.825668,-0.155778,0.000000,0.000000,0.000000,0.000000,0.000000,0.000000
12627349.000000,-2.309759,-1.663431,1.213764,-1.447077,1.711798,1.281620,-0.582570,0.391508,0.003727,1.204396,-0.382121,-0.258677,1.160811,-0.097683,2.779890,41.261028,-25.368851,-3.277406,0.644010,1.786300,-0.155778,0.000000,0.000000,0.000000,0.000000,0.000000,0.000000
12627350.000000,-2.309364,-1.663431,1.214934,-1.447446,1.711544,1.282762,-0.582656,0.393005,0.003255,1.191363,-0.375237,-0.254905,1.146280,-0.089669,2.704511,41.213421,-25.150650,-3.348818,0.632108,1.832076,-0.215287,0.000000,0.000000,0.000000,0.000000,0.000000,0.000000
12627351.000000,-2.308989,-1.663424,1.216106,-1.447809,1.711313,1.283872,-0.582751,0.391205,0.004790,1.178240,-0.368462,-0.248143,1.135181,-0.093243,2.752119,41.090435,-24.734085,-3.348818,0.506681,2.047225,-0.155778,0.000000,0.000000,0.000000,0.000000,0.000000,0.000000
12627352.000000,-2.308601,-1.663417,1.217275,-1.448170,1.711076,1.285008,-0.582833,0.390595,0.005320,1.177871,-0.362826,-0.244767,1.125111,-0.090799,2.728315,40.991253,-24.611099,-3.348818,0.434354,2.125045,-0.229020,0.000000,0.000000,0.000000,0.000000,0.000000,0.000000
12627353.000000,-2.308211,-1.663405,1.218452,-1.448535,1.710828,1.286172,-0.582919,0.388456,0.006836,1.172648,-0.371452,-0.246443,1.129161,-0.086877,2.680707,40.844463,-24.436539,-3.301210,0.464567,1.955673,-0.235429,0.000000,0.000000,0.000000,0.000000,0.000000,0.000000
12627354.000000,-2.307831,-1.663398,1.219640,-1.448880,1.710581,1.287326,-0.583014,0.385978,0.006676,1.169173,-0.363991,-0.241504,1.133256,-0.086907,2.652936,40.749249,-24.388931,-3.348818,0.464567,1.735030,-0.163102,0.000000,0.000000,0.000000,0.000000,0.000000,0.000000
12627355.000000,-2.307445,-1.663387,1.220833,-1.449233,1.710335,1.288474,-0.583096,0.385943,0.007246,1.174497,-0.361362,-0.240130,1.132611,-0.082326,2.529951,40.626263,-24.682510,-3.249635,0.524076,1.670028,-0.202470,0.000000,0.000000,0.000000,0.000000,0.000000,0.000000
12627356.000000,-2.307064,-1.663374,1.222037,-1.449558,1.710097,1.289600,-0.583185,0.385034,0.008760,1.181974,-0.349459,-0.241692,1.130552,-0.086605,2.454572,40.455669,-25.003860,-3.448000,0.535978,1.714889,-0.155778,0.000000,0.000000,0.000000,0.000000,0.000000,0.000000
12627357.000000,-2.306689,-1.663373,1.223218,-1.449889,1.709852,1.290732,-0.583268,0.380964,0.005238,1.185798,-0.339015,-0.245513,1.126827,-0.087991,2.529951,40.479473,-25.297440,-3.570986,0.625699,1.825668,-0.169511,0.000000,0.000000,0.000000,0.000000,0.000000,0.000000
12627358.000000,-2.306310,-1.663372,1.224414,-1.450218,1.709609,1.291874,-0.583351,0.375881,0.003457,1.184969,-0.333507,-0.253415,1.123060,-0.083600,2.553754,40.479473,-25.468033,-3.769350,0.637601,1.877853,-0.202470,0.000000,0.000000,0.000000,0.000000,0.000000,0.000000
12627359.000000,-2.305941,-1.663370,1.225614,-1.450542,1.709375,1.292984,-0.583429,0.372879,0.002279,1.185702,-0.328786,-0.247917,1.118314,-0.081161,2.553754,40.479473,-25.591019,-3.844728,0.554288,1.949264,-0.215287,0.000000,0.000000,0.000000,0.000000,0.000000,0.000000
12627360.000000,-2.305566,-1.663371,1.226792,-1.450864,1.709142,1.294102,-0.583511,0.370351,0.001500,1.186485,-0.323890,-0.239827,1.115287,-0.080308,2.553754,40.479473,-25.690201,-3.943910,0.482877,2.053634,-0.208878,0.000000,0.000000,0.000000,0.000000,0.000000,0.000000
12627361.000000,-2.305185,-1.663372,1.227960,-1.451184,1.708916,1.295214,-0.583592,0.374785,0.000986,1.169278,-0.322034,-0.235479,1.120164,-0.080382,2.430768,40.479473,-25.420425,-3.991518,0.446256,2.053634,-0.175919,0.000000,0.000000,0.000000,0.000000,0.000000,0.000000
12627362.000000,-2.304805,-1.663375,1.229117,-1.451517,1.708687,1.296352,-0.583669,0.377353,-0.001024,1.186415,-0.321434,-0.233541,1.131590,-0.077903,2.331586,40.550884,-25.222061,-3.844728,0.458158,1.968490,-0.208878,0.000000,0.000000,0.000000,0.000000,0.000000,0.000000
12627363.000000,-2.304415,-1.663378,1.230273,-1.451841,1.708455,1.297489,-0.583756,0.379897,-0.001897,1.172515,-0.321490,-0.231947,1.130811,-0.079404,2.061811,40.602459,-24.781693,-3.820925,0.452665,1.871444,-0.155778,0.000000,0.000000,0.000000,0.000000,0.000000,0.000000
12627364.000000,-2.304038,-1.663372,1.231450,-1.452171,1.708217,1.298618,-0.583831,0.383024,0.000492,1.162121,-0.322810,-0.232897,1.131378,-0.076110,1.863447,40.527081,-24.611099,-3.598757,0.518583,1.741439,-0.215287,0.000000,0.000000,0.000000,0.000000,0.000000,0.000000
12627365.000000,-2.303650,-1.663365,1.232619,-1.452487,1.707993,1.299755,-0.583917,0.384876,0.001994,1.165386,-0.317776,-0.229877,1.117473,-0.076620,1.641279,40.455669,-24.634903,-3.570986,0.494779,1.662704,-0.202470,0.000000,0.000000,0.000000,0.000000,0.000000,0.000000
12627366.000000,-2.303270,-1.663367,1.233772,-1.452794,1.707768,1.300907,-0.584006,0.388031,0.000212,1.158112,-0.319466,-0.233277,1.142140,-0.083402,1.542096,40.503277,-24.289749,-3.570986,0.482877,1.526290,-0.142960,0.000000,0.000000,0.000000,0.000000,0.000000,0.000000
12627367.000000,-2.302905,-1.663371,1.234951,-1.453098,1.707539,1.302033,-0.584079,0.381284,-0.000975,1.161099,-0.314801,-0.229310,1.133054,-0.079678,1.542096,40.550884,-24.242142,-3.598757,0.542386,1.565658,-0.196061,0.000000,0.000000,0.000000,0.000000,0.000000,0.000000
12627368.000000,-2.302529,-1.663370,1.236100,-1.453403,1.707314,1.303149,-0.584162,0.376165,-0.000652,1.154520,-0.313177,-0.228527,1.124183,-0.079559,1.415143,40.550884,-24.095352,-3.697939,0.547880,1.786300,-0.169511,0.000000,0.000000,0.000000,0.000000,0.000000,0.000000
12627369.000000,-2.302157,-1.663367,1.237277,-1.453706,1.707093,1.304257,-0.584238,0.374874,0.000678,1.155935,-0.311875,-0.226569,1.119478,-0.077765,1.315961,40.503277,-24.190567,-3.670168,0.512174,1.988631,-0.188737,0.000000,0.000000,0.000000,0.000000,0.000000,0.000000
12627370.000000,-2.301774,-1.663362,1.238423,-1.454005,1.706874,1.305397,-0.584317,0.375042,0.001564,1.155014,-0.306414,-0.224485,1.121364,-0.076771,1.145368,40.455669,-24.095352,-3.670168,0.464567,2.001449,-0.202470,0.000000,0.000000,0.000000,0.000000,0.000000,0.000000
12627371.000000,-2.301384,-1.663354,1.239575,-1.454309,1.706655,1.306558,-0.584403,0.380570,0.003362,1.146164,-0.311585,-0.221353,1.123452,-0.078311,0.895429,40.356487,-23.948563,-3.646364,0.488370,1.812850,-0.155778,0.000000,0.000000,0.000000,0.000000,0.000000,0.000000
12627372.000000,-2.301001,-1.663347,1.240742,-1.454614,1.706436,1.307681,-0.584479,0.377885,0.004561,1.146741,-0.309787,-0.218990,1.122194,-0.076783,0.649457,40.257305,-23.920792,-3.499574,0.518583,1.773483,-0.175919,0.000000,0.000000,0.000000,0.000000,0.000000,0.000000
12627373.000000,-2.300605,-1.663334,1.241875,-1.454914,1.706224,1.308808,-0.584559,0.385458,0.006474,1.141911,-0.305717,-0.209975,1.123424,-0.077018,0.228925,40.110516,-23.702591,-3.448000,0.482877,1.890670,-0.155778,0.000000,0.000000,0.000000,0.000000,0.000000,0.000000
12627374.000000,-2.300223,-1.663323,1.243013,-1.455219,1.706004,1.309923,-0.584627,0.384791,0.007192,1.137369,-0.304686,-0.210953,1.126330,-0.074940,-0.044818,39.987530,-23.409012,-3.325014,0.524076,1.897079,-0.202470,0.000000,0.000000,0.000000,0.000000,0.000000,0.000000
12627375.000000,-2.299841,-1.663311,1.244147,-1.455511,1.705781,1.311069,-0.584706,0.382591,0.010077,1.131818,-0.295510,-0.210163,1.132940,-0.071427,-0.243182,39.892315,-23.286026,-3.400392,0.535978,1.773483,-0.175919,0.000000,0.000000,0.000000,0.000000,0.000000,0.000000
12627376.000000,-2.299453,-1.663300,1.245306,-1.455801,1.705568,1.312200,-0.584773,0.381603,0.012554,1.137542,-0.292576,-0.215017,1.129180,-0.070426,-0.465350,39.793133,-23.333633,-3.475771,0.464567,1.773483,-0.229020,0.000000,0.000000,0.000000,0.000000,0.000000,0.000000
12627377.000000,-2.299084,-1.663284,1.246486,-1.456088,1.705361,1.313312,-0.584847,0.378664,0.014757,1.150472,-0.290444,-0.210897,1.119422,-0.072506,-0.564532,39.670147,-23.627213,-3.547182,0.398649,1.806442,-0.215287,0.000000,0.000000,0.000000,0.000000,0.000000,0.000000
12627378.000000,-2.298711,-1.663272,1.247638,-1.456371,1.705149,1.314431,-0.584927,0.375045,0.015268,1.147667,-0.283154,-0.214339,1.108972,-0.075898,-0.635943,39.598736,-23.825577,-3.697939,0.393156,1.865035,-0.142960,0.000000,0.000000,0.000000,0.000000,0.000000,0.000000
12627379.000000,-2.298337,-1.663263,1.248821,-1.456658,1.704936,1.315545,-0.584993,0.374829,0.014158,1.156399,-0.291371,-0.215722,1.110098,-0.073156,-0.786700,39.598736,-24.190567,-3.670168,0.470060,1.865035,-0.221696,0.000000,0.000000,0.000000,0.000000,0.000000,0.000000
12627380.000000,-2.297961,-1.663252,1.249980,-1.456938,1.704722,1.316665,-0.585071,0.369894,0.013968,1.187576,-0.282423,-0.218941,1.108341,-0.075522,-0.862078,39.574932,-24.464310,-3.769350,0.488370,1.942855,-0.175919,0.000000,0.000000,0.000000,0.000000,0.000000,0.000000
12627381.000000,-2.297582,-1.663241,1.251146,-1.457210,1.704506,1.317778,-0.585148,0.370738,0.013993,1.177553,-0.275004,-0.216694,1.104411,-0.076760,-1.008868,39.547161,-24.682510,-3.892336,0.500272,2.072860,-0.136552,0.000000,0.000000,0.000000,0.000000,0.000000,0.000000
12627382.000000,-2.297226,-1.663235,1.252317,-1.457481,1.704307,1.318888,-0.585213,0.367482,0.009595,1.169734,-0.274754,-0.213251,1.107348,-0.073895,-0.961260,39.574932,-24.781693,-3.943910,0.470060,2.072860,-0.202470,0.000000,0.000000,0.000000,0.000000,0.000000,0.000000
12627383.000000,-2.296860,-1.663225,1.253454,-1.457745,1.704105,1.320006,-0.585288,0.366067,0.010903,1.163637,-0.268860,-0.206496,1.103136,-0.075526,-0.985064,39.547161,-24.682510,-4.066896,0.464567,2.047225,-0.175919,0.000000,0.000000,0.000000,0.000000,0.000000,0.000000
12627384.000000,-2.296504,-1.663217,1.254595,-1.458014,1.703914,1.321111,-0.585357,0.373111,0.010542,1.156400,-0.270702,-0.200968,1.129071,-0.074778,-0.885882,39.574932,-24.365128,-4.019289,0.434354,2.033492,-0.196061,0.000000,0.000000,0.000000,0.000000,0.000000,0.000000
12627385.000000,-2.296151,-1.663206,1.255749,-1.458282,1.703721,1.322224,-0.585426,0.366668,0.011703,1.149461,-0.269581,-0.195937,1.130117,-0.070317,-0.834307,39.547161,-24.166763,-3.991518,0.374845,2.033492,-0.196061,0.000000,0.000000,0.000000,0.000000,0.000000,0.000000
12627386.000000,-2.295801,-1.663197,1.256868,-1.458550,1.703521,1.323346,-0.585497,0.359409,0.012414,1.138322,-0.265484,-0.197551,1.129339,-0.072519,-0.810504,39.523357,-23.726395,-3.943910,0.339139,2.060043,-0.169511,0.000000,0.000000,0.000000,0.000000,0.000000,0.000000
12627387.000000,-2.295460,-1.663183,1.258018,-1.458821,1.703318,1.324453,-0.585563,0.351730,0.013935,1.135268,-0.265471,-0.195947,1.123236,-0.072998,-0.687518,39.451946,-23.579605,-3.769350,0.344633,2.001449,-0.175919,0.000000,0.000000,0.000000,0.000000,0.000000,0.000000
12627388.000000,-2.295113,-1.663170,1.259129,-1.459079,1.703123,1.325582,-0.585627,0.344379,0.014497,1.127394,-0.259756,-0.193147,1.120245,-0.072465,-0.635943,39.400372,-23.210648,-3.820925,0.320829,1.865035,-0.208878,0.000000,0.000000,0.000000,0.000000,0.000000,0.000000
12627389.000000,-2.294774,-1.663152,1.260282,-1.459339,1.702925,1.326718,-0.585700,0.339836,0.016446,1.136021,-0.265192,-0.198045,1.114687,-0.075258,-0.489153,39.281353,-23.186844,-3.844728,0.381254,1.721298,-0.155778,0.000000,0.000000,0.000000,0.000000,0.000000,0.000000
12627390.000000,-2.294456,-1.663130,1.261436,-1.459591,1.702729,1.327825,-0.585764,0.334428,0.019120,1.139666,-0.263056,-0.196148,1.112883,-0.075503,-0.243182,39.106792,-23.186844,-3.920107,0.398649,1.727706,-0.149369,0.000000,0.000000,0.000000,0.000000,0.000000,0.000000
12627391.000000,-2.294133,-1.663117,1.262569,-1.459837,1.702541,1.328945,-0.585819,0.332025,0.018013,1.137984,-0.259834,-0.188580,1.105389,-0.068132,-0.092425,39.059185,-23.163040,-4.043092,0.381254,1.735030,-0.221696,0.000000,0.000000,0.000000,0.000000,0.000000,0.000000
12627392.000000,-2.293818,-1.663101,1.263707,-1.460089,1.702347,1.330054,-0.585891,0.325727,0.018489,1.130427,-0.259793,-0.189833,1.108205,-0.071966,0.153547,38.960003,-23.087662,-4.090700,0.410551,1.727706,-0.163102,0.000000,0.000000,0.000000,0.000000,0.000000,0.000000
12627393.000000,-2.293503,-1.663089,1.264833,-1.460336,1.702150,1.331179,-0.585956,0.321731,0.013901,1.150116,-0.249507,-0.188910,1.109823,-0.068619,0.375715,38.936199,-23.087662,-4.142274,0.405057,1.714889,-0.149369,0.000000,0.000000,0.000000,0.000000,0.000000,0.000000
12627394.000000,-2.293180,-1.663075,1.265979,-1.460588,1.701956,1.332294,-0.586012,0.321114,0.014855,1.150645,-0.249346,-0.184191,1.104121,-0.067654,0.502668,38.864788,-23.135269,-4.019289,0.398649,1.754256,-0.215287,0.000000,0.000000,0.000000,0.000000,0.000000,0.000000
12627395.000000,-2.292862,-1.663049,1.267108,-1.460836,1.701773,1.333403,-0.586078,0.319423,0.019108,1.134351,-0.251558,-0.183458,1.111054,-0.068091,0.550275,38.642620,-22.917068,-3.920107,0.344633,1.773483,-0.149369,0.000000,0.000000,0.000000,0.000000,0.000000,0.000000
12627396.000000,-2.292550,-1.663037,1.268221,-1.461087,1.701581,1.334537,-0.586134,0.313210,0.017904,1.123298,-0.249779,-0.186221,1.119412,-0.063314,0.649457,38.595013,-22.718704,-3.797121,0.386747,1.637069,-0.196061,0.000000,0.000000,0.000000,0.000000,0.000000,0.000000
12627397.000000,-2.292246,-1.663016,1.269340,-1.461330,1.701399,1.335652,-0.586195,0.310165,0.018885,1.118794,-0.254305,-0.182403,1.124830,-0.061255,0.824018,38.472027,-22.472733,-3.670168,0.393156,1.565658,-0.208878,0.000000,0.000000,0.000000,0.000000,0.000000,0.000000
12627398.000000,-2.291932,-1.662996,1.270481,-1.461568,1.701226,1.336770,-0.586262,0.307202,0.016984,1.117711,-0.252592,-0.181378,1.117119,-0.066407,0.895429,38.325237,-22.500504,-3.670168,0.320829,1.559249,-0.169511,0.000000,0.000000,0.000000,0.000000,0.000000,0.000000
12627399.000000,-2.291629,-1.662975,1.271610,-1.461817,1.701037,1.337905,-0.586319,0.305545,0.018200,1.124225,-0.251296,-0.183494,1.113041,-0.062086,1.069990,38.202251,-22.548111,-3.523378,0.320829,1.513473,-0.215287,0.000000,0.000000,0.000000,0.000000,0.000000,0.000000
12627400.000000,-2.291339,-1.662958,1.272768,-1.462058,1.700850,1.339014,-0.586390,0.301164,0.015267,1.132341,-0.248477,-0.186189,1.104118,-0.063961,1.244550,38.103069,-22.841690,-3.448000,0.351041,1.507064,-0.130143,0.000000,0.000000,0.000000,0.000000,0.000000,0.000000
12627401.000000,-2.291046,-1.662944,1.273903,-1.462302,1.700665,1.340146,-0.586447,0.295528,0.014513,1.132197,-0.244875,-0.183526,1.104221,-0.064905,1.367536,38.079266,-23.111465,-3.277406,0.398649,1.494247,-0.182328,0.000000,0.000000,0.000000,0.000000,0.000000,0.000000
12627402.000000,-2.290759,-1.662923,1.275068,-1.462547,1.700488,1.341246,-0.586505,0.295358,0.013274,1.138292,-0.246944,-0.185284,1.097736,-0.062556,1.665082,37.956280,-23.528030,-3.154421,0.416959,1.624252,-0.188737,0.000000,0.000000,0.000000,0.000000,0.000000,0.000000
12627403.000000,-2.290471,-1.662910,1.276230,-1.462785,1.700310,1.342356,-0.586570,0.294329,0.012490,1.143147,-0.245071,-0.181722,1.095259,-0.067371,1.811872,37.956280,-23.801773,-3.079042,0.428861,1.800033,-0.155778,0.000000,0.000000,0.000000,0.000000,0.000000,0.000000
12627404.000000,-2.290185,-1.662892,1.277363,-1.463023,1.700133,1.343474,-0.586628,0.293907,0.016423,1.142294,-0.240657,-0.179877,1.100101,-0.064016,1.934858,37.908672,-23.920792,-2.979860,0.458158,1.909896,-0.169511,0.000000,0.000000,0.000000,0.000000,0.000000,0.000000
12627405.000000,-2.289905,-1.662877,1.278511,-1.463266,1.699961,1.344576,-0.586685,0.286503,0.016362,1.137330,-0.239644,-0.176824,1.102691,-0.066911,2.109418,37.861065,-23.972366,-2.805300,0.446256,1.968490,-0.169511,0.000000,0.000000,0.000000,0.000000,0.000000,0.000000
12627406.000000,-2.289614,-1.662858,1.279644,-1.463511,1.699785,1.345699,-0.586735,0.288792,0.020481,1.135116,-0.240603,-0.178449,1.110065,-0.062626,2.085615,37.761883,-23.972366,-2.682314,0.422452,1.974899,-0.215287,0.000000,0.000000,0.000000,0.000000,0.000000,0.000000
12627407.000000,-2.289322,-1.662838,1.280779,-1.463764,1.699615,1.346819,-0.586795,0.290785,0.023559,1.136211,-0.246644,-0.178222,1.118156,-0.066633,2.034040,37.662701,-23.801773,-2.412538,0.374845,1.936446,-0.215287,0.000000,0.000000,0.000000,0.000000,0.000000,0.000000
12627408.000000,-2.289042,-1.662822,1.281911,-1.464018,1.699438,1.347922,-0.586852,0.285711,0.021482,1.128370,-0.251095,-0.178385,1.118958,-0.064043,2.109418,37.615093,-23.528030,-2.063417,0.434354,1.890670,-0.221696,0.000000,0.000000,0.000000,0.000000,0.000000,0.000000
12627409.000000,-2.288749,-1.662804,1.283034,-1.464268,1.699266,1.349027,-0.586913,0.284550,0.023033,1.124671,-0.249586,-0.173771,1.110833,-0.063141,2.034040,37.567486,-23.309830,-1.892824,0.500272,1.884261,-0.196061,0.000000,0.000000,0.000000,0.000000,0.000000,0.000000
12627410.000000,-2.288474,-1.662787,1.284166,-1.464516,1.699107,1.350123,-0.586969,0.281117,0.021274,1.117819,-0.245384,-0.166161,1.103629,-0.062271,2.085615,37.515911,-23.111465,-1.718263,0.458158,1.858627,-0.175919,0.000000,0.000000,0.000000,0.000000,0.000000,0.000000
12627411.000000,-2.288193,-1.662774,1.285288,-1.464755,1.698944,1.351234,-0.587022,0.279204,0.018786,1.140420,-0.242568,-0.161921,1.097383,-0.059352,2.133222,37.515911,-23.063858,-1.694460,0.452665,1.844894,-0.215287,0.000000,0.000000,0.000000,0.000000,0.000000,0.000000
12627412.000000,-2.287916,-1.662756,1.286429,-1.464995,1.698783,1.352367,-0.587081,0.274281,0.015532,1.138227,-0.239477,-0.163311,1.101959,-0.065332,2.184797,37.444500,-23.016251,-1.718263,0.434354,1.702071,-0.163102,0.000000,0.000000,0.000000,0.000000,0.000000,0.000000
12627413.000000,-2.287656,-1.662746,1.287575,-1.465227,1.698622,1.353475,-0.587131,0.271222,0.014407,1.133852,-0.236933,-0.162873,1.102850,-0.061835,2.359357,37.444500,-23.040054,-1.769838,0.381254,1.637069,-0.196061,0.000000,0.000000,0.000000,0.000000,0.000000,0.000000
12627414.000000,-2.287381,-1.662737,1.288703,-1.465456,1.698451,1.354581,-0.587184,0.271188,0.012661,1.132665,-0.231390,-0.165969,1.099939,-0.060761,2.406965,37.492107,-23.111465,-1.817445,0.422452,1.721298,-0.188737,0.000000,0.000000,0.000000,0.000000,0.000000,0.000000
12627415.000000,-2.287111,-1.662726,1.289843,-1.465680,1.698289,1.355683,-0.587236,0.276990,0.012602,1.130366,-0.234903,-0.162602,1.103206,-0.055649,2.430768,37.492107,-23.087662,-1.793642,0.428861,1.735030,-0.169511,0.000000,0.000000,0.000000,0.000000,0.000000,0.000000
12627416.000000,-2.286836,-1.662718,1.290968,-1.465914,1.698123,1.356795,-0.587288,0.278220,0.011478,1.129159,-0.233804,-0.161771,1.106138,-0.055823,2.383161,37.539715,-23.135269,-1.694460,0.488370,1.735030,-0.169511,0.000000,0.000000,0.000000,0.000000,0.000000,0.000000
12627417.000000,-2.286565,-1.662709,1.292101,-1.466143,1.697960,1.357924,-0.587336,0.275419,0.010525,1.129737,-0.231807,-0.165151,1.109959,-0.051062,2.359357,37.591290,-23.087662,-1.642885,0.530485,1.676437,-0.175919,0.000000,0.000000,0.000000,0.000000,0.000000,0.000000
12627418.000000,-2.286292,-1.662691,1.293225,-1.466355,1.697806,1.359036,-0.587383,0.276121,0.013417,1.118010,-0.227871,-0.159854,1.115698,-0.050952,2.208601,37.492107,-22.917068,-1.694460,0.488370,1.559249,-0.215287,0.000000,0.000000,0.000000,0.000000,0.000000,0.000000
12627419.000000,-2.286022,-1.662681,1.294324,-1.466572,1.697649,1.360151,-0.587440,0.277351,0.009970,1.111645,-0.221603,-0.156819,1.117872,-0.053937,2.133222,37.492107,-22.623489,-1.718263,0.476469,1.552840,-0.175919,0.000000,0.000000,0.000000,0.000000,0.000000,0.000000
12627420.000000,-2.285751,-1.662675,1.295447,-1.466794,1.697489,1.361256,-0.587489,0.274211,0.008794,1.113822,-0.220973,-0.156111,1.108838,-0.053396,2.109418,37.567486,-22.472733,-1.694460,0.494779,1.649886,-0.208878,0.000000,0.000000,0.000000,0.000000,0.000000,0.000000
12627421.000000,-2.285473,-1.662659,1.296567,-1.467007,1.697334,1.362350,-0.587541,0.276158,0.011112,1.109125,-0.218184,-0.156250,1.100855,-0.049506,1.911054,37.515911,-22.302139,-1.670656,0.405057,1.773483,-0.215287,0.000000,0.000000,0.000000,0.000000,0.000000,0.000000
12627422.000000,-2.285203,-1.662643,1.297680,-1.467213,1.697170,1.363466,-0.587600,0.274352,0.013133,1.109734,-0.211115,-0.160276,1.092997,-0.048758,1.811872,37.444500,-22.278336,-1.694460,0.410551,1.773483,-0.155778,0.000000,0.000000,0.000000,0.000000,0.000000,0.000000
12627423.000000,-2.284934,-1.662631,1.298826,-1.467414,1.697015,1.364586,-0.587643,0.270196,0.012847,1.120831,-0.206448,-0.158515,1.103775,-0.048133,1.712690,37.444500,-22.571915,-1.718263,0.422452,1.662704,-0.221696,0.000000,0.000000,0.000000,0.000000,0.000000,0.000000
12627424.000000,-2.284663,-1.662610,1.299968,-1.467615,1.696865,1.365705,-0.587698,0.267841,0.012963,1.129429,-0.205715,-0.154257,1.102669,-0.052813,1.589704,37.297710,-23.040054,-1.769838,0.362943,1.611434,-0.155778,0.000000,0.000000,0.000000,0.000000,0.000000,0.000000
12627425.000000,-2.284395,-1.662595,1.301123,-1.467810,1.696713,1.366818,-0.587751,0.266509,0.014268,1.135315,-0.201251,-0.154262,1.109236,-0.054105,1.442914,37.222332,-23.432816,-1.841249,0.398649,1.643478,-0.142960,0.000000,0.000000,0.000000,0.000000,0.000000,0.000000
12627426.000000,-2.284132,-1.662589,1.302276,-1.467990,1.696553,1.367907,-0.587789,0.263006,0.011602,1.137762,-0.195095,-0.156192,1.102943,-0.052005,1.415143,37.297710,-23.726395,-2.039613,0.476469,1.714889,-0.215287,0.000000,0.000000,0.000000,0.000000,0.000000,0.000000
12627427.000000,-2.283862,-1.662578,1.303402,-1.468182,1.696398,1.368999,-0.587840,0.264456,0.008035,1.133889,-0.196602,-0.151651,1.103017,-0.054463,1.315961,37.321514,-23.920792,-2.114992,0.524076,1.851302,-0.182328,0.000000,0.000000,0.000000,0.000000,0.000000,0.000000
12627428.000000,-2.283592,-1.662567,1.304541,-1.468365,1.696245,1.370077,-0.587882,0.264930,0.006000,1.127998,-0.190164,-0.151482,1.101970,-0.049568,1.121564,37.321514,-23.996170,-2.237978,0.530485,1.974899,-0.202470,0.000000,0.000000,0.000000,0.000000,0.000000,0.000000
12627429.000000,-2.283324,-1.662563,1.305658,-1.468547,1.696095,1.371168,-0.587930,0.262488,0.003368,1.146176,-0.186120,-0.147750,1.101978,-0.046915,1.046186,37.369122,-23.972366,-2.337160,0.446256,1.955673,-0.196061,0.000000,0.000000,0.000000,0.000000,0.000000,0.000000
12627430.000000,-2.283049,-1.662564,1.306778,-1.468726,1.695941,1.372280,-0.587977,0.267937,0.001774,1.137999,-0.184029,-0.148212,1.094223,-0.044364,0.796247,37.539715,-23.774002,-2.384767,0.434354,1.858627,-0.202470,0.000000,0.000000,0.000000,0.000000,0.000000,0.000000
12627431.000000,-2.282791,-1.662561,1.307906,-1.468900,1.695789,1.373368,-0.588025,0.263053,0.002568,1.127087,-0.180166,-0.150522,1.088545,-0.044004,0.649457,37.638897,-23.528030,-2.384767,0.470060,1.754256,-0.169511,0.000000,0.000000,0.000000,0.000000,0.000000,0.000000
12627432.000000,-2.282526,-1.662560,1.309009,-1.469075,1.695643,1.374462,-0.588064,0.263886,0.003102,1.118389,-0.179433,-0.149831,1.081780,-0.045608,0.550275,37.738079,-23.186844,-2.412538,0.452665,1.812850,-0.208878,0.000000,0.000000,0.000000,0.000000,0.000000,0.000000
12627433.000000,-2.282264,-1.662560,1.310137,-1.469240,1.695500,1.375545,-0.588108,0.267478,0.000593,1.121819,-0.176574,-0.145985,1.101589,-0.043916,0.427289,37.833294,-23.040054,-2.511720,0.464567,1.838485,-0.202470,0.000000,0.000000,0.000000,0.000000,0.000000,0.000000
12627434.000000,-2.282005,-1.662564,1.311259,-1.469400,1.695363,1.376670,-0.588154,0.263580,-0.001917,1.115309,-0.171576,-0.140201,1.109008,-0.043161,0.375715,37.956280,-22.841690,-2.634706,0.405057,1.617843,-0.182328,0.000000,0.000000,0.000000,0.000000,0.000000,0.000000
12627435.000000,-2.281747,-1.662564,1.312370,-1.469551,1.695225,1.377799,-0.588192,0.261412,-0.002618,1.112273,-0.162344,-0.137681,1.112729,-0.041210,0.304304,38.031658,-22.770279,-2.833071,0.386747,1.396285,-0.196061,0.000000,0.000000,0.000000,0.000000,0.000000,0.000000
12627436.000000,-2.281491,-1.662561,1.313507,-1.469694,1.695093,1.378898,-0.588237,0.260932,0.001187,1.120740,-0.160202,-0.134974,1.119435,-0.042288,0.205121,38.055462,-22.865494,-3.003664,0.344633,1.357833,-0.142960,0.000000,0.000000,0.000000,0.000000,0.000000,0.000000
12627437.000000,-2.281241,-1.662560,1.314615,-1.469836,1.694958,1.380000,-0.588272,0.258697,0.000737,1.117582,-0.154118,-0.133039,1.112578,-0.038754,0.153547,38.079266,-22.841690,-3.202028,0.315336,1.448470,-0.202470,0.000000,0.000000,0.000000,0.000000,0.000000,0.000000
12627438.000000,-2.280998,-1.662563,1.315739,-1.469981,1.694810,1.381093,-0.588312,0.256008,-0.001452,1.109462,-0.151462,-0.136365,1.110248,-0.038839,0.177350,38.178448,-22.841690,-3.301210,0.405057,1.649886,-0.196061,0.000000,0.000000,0.000000,0.000000,0.000000,0.000000
12627439.000000,-2.280743,-1.662566,1.316859,-1.470115,1.694667,1.382182,-0.588355,0.255496,-0.001799,1.107727,-0.146135,-0.136169,1.102463,-0.040209,0.006757,38.226055,-22.770279,-3.424196,0.434354,1.779891,-0.155778,0.000000,0.000000,0.000000,0.000000,0.000000,0.000000
12627440.000000,-2.280490,-1.662562,1.317966,-1.470248,1.694534,1.383292,-0.588389,0.252339,0.000126,1.108848,-0.142725,-0.139071,1.094314,-0.037711,-0.068621,38.178448,-22.794083,-3.499574,0.416959,1.806442,-0.202470,0.000000,0.000000,0.000000,0.000000,0.000000,0.000000
12627441.000000,-2.280242,-1.662556,1.319087,-1.470377,1.694402,1.384403,-0.588431,0.249593,0.002006,1.109858,-0.137240,-0.137232,1.098673,-0.043482,-0.243182,38.103069,-22.794083,-3.570986,0.416959,1.727706,-0.169511,0.000000,0.000000,0.000000,0.000000,0.000000,0.000000
12627442.000000,-2.279983,-1.662550,1.320179,-1.470505,1.694278,1.385521,-0.588464,0.251079,0.003684,1.105058,-0.134242,-0.132649,1.096246,-0.040325,-0.441546,38.007854,-22.623489,-3.598757,0.332731,1.649886,-0.215287,0.000000,0.000000,0.000000,0.000000,0.000000,0.000000
12627443.000000,-2.279721,-1.662546,1.321283,-1.470643,1.694147,1.386640,-0.588503,0.253881,0.003752,1.099701,-0.137569,-0.136645,1.101374,-0.040922,-0.735125,37.956280,-22.448929,-3.523378,0.332731,1.630660,-0.182328,0.000000,0.000000,0.000000,0.000000,0.000000,0.000000
12627444.000000,-2.279475,-1.662543,1.322402,-1.470769,1.694014,1.387728,-0.588541,0.249343,0.003682,1.102883,-0.133915,-0.136718,1.091536,-0.035910,-0.885882,37.908672,-22.353714,-3.547182,0.362943,1.721298,-0.169511,0.000000,0.000000,0.000000,0.000000,0.000000,0.000000
12627445.000000,-2.279228,-1.662541,1.323513,-1.470896,1.693894,1.388829,-0.588572,0.247935,0.006335,1.106761,-0.132273,-0.133507,1.087998,-0.034816,-1.008868,37.884869,-22.448929,-3.523378,0.308927,1.806442,-0.208878,0.000000,0.000000,0.000000,0.000000,0.000000,0.000000
12627446.000000,-2.278983,-1.662534,1.324642,-1.471010,1.693772,1.389928,-0.588608,0.246266,0.006854,1.110634,-0.124770,-0.131032,1.097632,-0.031691,-1.084246,37.785686,-22.671097,-3.622560,0.249418,1.747848,-0.188737,0.000000,0.000000,0.000000,0.000000,0.000000,0.000000
12627447.000000,-2.278738,-1.662528,1.325777,-1.471121,1.693639,1.391039,-0.588646,0.242134,0.005916,1.139048,-0.117920,-0.132690,1.103417,-0.033703,-1.159625,37.738079,-23.111465,-3.769350,0.279630,1.702071,-0.175919,0.000000,0.000000,0.000000,0.000000,0.000000,0.000000
12627448.000000,-2.278496,-1.662524,1.326928,-1.471231,1.693516,1.392157,-0.588686,0.242959,0.005325,1.140849,-0.114368,-0.131687,1.108651,-0.035292,-1.254840,37.686504,-23.579605,-3.868532,0.255826,1.630660,-0.155778,0.000000,0.000000,0.000000,0.000000,0.000000,0.000000
12627449.000000,-2.278263,-1.662526,1.328081,-1.471341,1.693386,1.393223,-0.588715,0.242663,0.003031,1.141238,-0.115230,-0.128905,1.098851,-0.034628,-1.306414,37.714275,-24.043777,-3.967714,0.303434,1.806442,-0.188737,0.000000,0.000000,0.000000,0.000000,0.000000,0.000000
12627450.000000,-2.278024,-1.662525,1.329204,-1.471449,1.693252,1.394304,-0.588752,0.240337,0.001562,1.135580,-0.111562,-0.128536,1.084285,-0.035950,-1.429400,37.738079,-24.218338,-4.090700,0.410551,2.007858,-0.175919,0.000000,0.000000,0.000000,0.000000,0.000000,0.000000
12627451.000000,-2.277788,-1.662535,1.330342,-1.471554,1.693130,1.395381,-0.588787,0.240913,-0.002318,1.132101,-0.110177,-0.125048,1.099211,-0.036703,-1.552386,37.884869,-24.313553,-4.142274,0.428861,2.066451,-0.169511,0.000000,0.000000,0.000000,0.000000,0.000000,0.000000
12627452.000000,-2.277554,-1.662542,1.331488,-1.471661,1.693008,1.396478,-0.588822,0.242050,-0.003810,1.134446,-0.107343,-0.125779,1.095172,-0.031479,-1.651568,37.984051,-24.436539,-4.142274,0.410551,2.060043,-0.188737,0.000000,0.000000,0.000000,0.000000,0.000000,0.000000
12627453.000000,-2.277319,-1.662547,1.332593,-1.471772,1.692893,1.397591,-0.588859,0.238976,-0.004169,1.125250,-0.110796,-0.124232,1.094889,-0.033871,-1.726946,38.055462,-24.242142,-4.043092,0.327238,1.923629,-0.169511,0.000000,0.000000,0.000000,0.000000,0.000000,0.000000
12627454.000000,-2.277081,-1.662552,1.333710,-1.471876,1.692780,1.398684,-0.588889,0.238854,-0.003862,1.116369,-0.108678,-0.119035,1.093963,-0.033354,-1.873736,38.103069,-24.019974,-3.991518,0.255826,1.819259,-0.208878,0.000000,0.000000,0.000000,0.000000,0.000000,0.000000
12627455.000000,-2.276849,-1.662563,1.334819,-1.471984,1.692665,1.399771,-0.588928,0.233615,-0.005985,1.121481,-0.107689,-0.121677,1.085525,-0.036550,-1.972918,38.249859,-23.801773,-3.892336,0.237516,1.865035,-0.155778,0.000000,0.000000,0.000000,0.000000,0.000000,0.000000
12627456.000000,-2.276619,-1.662573,1.335918,-1.472087,1.692541,1.400864,-0.588956,0.231717,-0.007406,1.112008,-0.104822,-0.125658,1.091157,-0.030044,-2.000689,38.396648,-23.357437,-3.892336,0.285123,1.923629,-0.208878,0.000000,0.000000,0.000000,0.000000,0.000000,0.000000
12627457.000000,-2.276397,-1.662584,1.337049,-1.472184,1.692414,1.401941,-0.588992,0.227762,-0.013998,1.109814,-0.100973,-0.123868,1.093907,-0.032993,-2.048296,38.519634,-23.286026,-3.967714,0.320829,2.001449,-0.188737,0.000000,0.000000,0.000000,0.000000,0.000000,0.000000
12627458.000000,-2.276184,-1.662585,1.338148,-1.472277,1.692291,1.403047,-0.589023,0.220991,-0.009839,1.111918,-0.093500,-0.125267,1.096559,-0.029641,-1.949114,38.519634,-23.087662,-4.090700,0.308927,1.884261,-0.182328,0.000000,0.000000,0.000000,0.000000,0.000000,0.000000
12627459.000000,-2.275975,-1.662591,1.339281,-1.472365,1.692174,1.404148,-0.589051,0.217735,-0.008702,1.117592,-0.090462,-0.122154,1.098786,-0.026362,-1.901507,38.595013,-23.286026,-4.265260,0.303434,1.702071,-0.196061,0.000000,0.000000,0.000000,0.000000,0.000000,0.000000
12627460.000000,-2.275750,-1.662593,1.340393,-1.472455,1.692057,1.405254,-0.589088,0.218176,-0.006086,1.119674,-0.087398,-0.120171,1.091561,-0.026287,-1.972918,38.595013,-23.309830,-4.340639,0.315336,1.605026,-0.149369,0.000000,0.000000,0.000000,0.000000,0.000000,0.000000
12627461.000000,-2.275537,-1.662600,1.341520,-1.472550,1.691939,1.406355,-0.589117,0.215373,-0.006499,1.119459,-0.090857,-0.119026,1.090649,-0.024101,-1.901507,38.690228,-23.381241,-4.312868,0.332731,1.649886,-0.155778,0.000000,0.000000,0.000000,0.000000,0.000000,0.000000
12627462.000000,-2.275319,-1.662613,1.342652,-1.472643,1.691822,1.407430,-0.589144,0.214406,-0.007926,1.120209,-0.093269,-0.117953,1.083588,-0.021964,-2.000689,38.837017,-23.555801,-4.289064,0.351041,1.741439,-0.175919,0.000000,0.000000,0.000000,0.000000,0.000000,0.000000
12627463.000000,-2.275103,-1.662619,1.343758,-1.472725,1.691708,1.408522,-0.589173,0.212645,-0.010331,1.116474,-0.088754,-0.115179,1.080304,-0.021168,-2.099871,38.912395,-23.528030,-4.364442,0.315336,1.838485,-0.175919,0.000000,0.000000,0.000000,0.000000,0.000000,0.000000
12627464.000000,-2.274897,-1.662631,1.344869,-1.472810,1.691593,1.409611,-0.589197,0.209290,-0.009561,1.109679,-0.087143,-0.114203,1.086949,-0.020099,-2.099871,39.011578,-23.432816,-4.364442,0.303434,1.760665,-0.188737,0.000000,0.000000,0.000000,0.000000,0.000000,0.000000
12627465.000000,-2.274676,-1.662632,1.345959,-1.472889,1.691481,1.410714,-0.589228,0.211610,-0.009034,1.103374,-0.083802,-0.117554,1.092210,-0.021044,-2.298235,38.983807,-23.309830,-4.463624,0.273221,1.689254,-0.155778,0.000000,0.000000,0.000000,0.000000,0.000000,0.000000
12627466.000000,-2.274463,-1.662636,1.347069,-1.472978,1.691367,1.411816,-0.589248,0.211918,-0.009641,1.099657,-0.085101,-0.119776,1.093146,-0.018634,-2.445025,38.983807,-23.210648,-4.412050,0.231107,1.670028,-0.202470,0.000000,0.000000,0.000000,0.000000,0.000000,0.000000
12627467.000000,-2.274253,-1.662637,1.348177,-1.473060,1.691240,1.412899,-0.589275,0.212174,-0.006474,1.096285,-0.081379,-0.121063,1.095564,-0.019520,-2.591815,38.960003,-23.016251,-4.412050,0.303434,1.637069,-0.182328,0.000000,0.000000,0.000000,0.000000,0.000000,0.000000
12627468.000000,-2.274044,-1.662644,1.349279,-1.473143,1.691113,1.413985,-0.589300,0.212509,-0.005975,1.100625,-0.082303,-0.125953,1.081432,-0.024304,-2.643389,39.011578,-23.040054,-4.388246,0.369352,1.714889,-0.175919,0.000000,0.000000,0.000000,0.000000,0.000000,0.000000
12627469.000000,-2.273832,-1.662638,1.350402,-1.473222,1.690992,1.415080,-0.589320,0.216481,-0.002003,1.106620,-0.079901,-0.122830,1.095433,-0.021679,-2.742571,38.912395,-23.210648,-4.340639,0.374845,1.760665,-0.208878,0.000000,0.000000,0.000000,0.000000,0.000000,0.000000
12627470.000000,-2.273639,-1.662637,1.351547,-1.473298,1.690878,1.416182,-0.589350,0.207617,-0.001033,1.112806,-0.077157,-0.124124,1.095019,-0.023077,-2.690997,38.888592,-23.603409,-4.340639,0.356534,1.649886,-0.155778,0.000000,0.000000,0.000000,0.000000,0.000000,0.000000
12627471.000000,-2.273442,-1.662634,1.352676,-1.473370,1.690764,1.417285,-0.589368,0.203167,-0.002279,1.123699,-0.077546,-0.119623,1.091803,-0.019958,-2.718768,38.813213,-23.996170,-4.388246,0.308927,1.572067,-0.208878,0.000000,0.000000,0.000000,0.000000,0.000000,0.000000
12627472.000000,-2.273255,-1.662638,1.353827,-1.473438,1.690649,1.418373,-0.589393,0.197481,-0.002483,1.125679,-0.074466,-0.119117,1.097465,-0.021282,-2.643389,38.837017,-24.535721,-4.439821,0.332731,1.565658,-0.169511,0.000000,0.000000,0.000000,0.000000,0.000000,0.000000
12627473.000000,-2.273063,-1.662639,1.354949,-1.473510,1.690534,1.419450,-0.589418,0.195654,-0.001960,1.125211,-0.070983,-0.116601,1.086131,-0.021120,-2.667193,38.837017,-24.805496,-4.388246,0.308927,1.806442,-0.155778,0.000000,0.000000,0.000000,0.000000,0.000000,0.000000
12627474.000000,-2.272873,-1.662647,1.356087,-1.473577,1.690414,1.420519,-0.589436,0.189993,-0.003856,1.130975,-0.071039,-0.121065,1.077149,-0.018717,-2.643389,38.936199,-25.027664,-4.364442,0.344633,2.137862,-0.202470,0.000000,0.000000,0.000000,0.000000,0.000000,0.000000
12627475.000000,-2.272689,-1.662652,1.357204,-1.473643,1.690300,1.421589,-0.589463,0.189882,-0.004505,1.118655,-0.067728,-0.119313,1.077941,-0.020876,-2.667193,39.011578,-24.928482,-4.340639,0.356534,2.274276,-0.149369,0.000000,0.000000,0.000000,0.000000,0.000000,0.000000
12627476.000000,-2.272498,-1.662660,1.358322,-1.473707,1.690188,1.422684,-0.589480,0.187197,-0.004246,1.118418,-0.065009,-0.116921,1.083515,-0.023192,-2.718768,39.059185,-25.051468,-4.312868,0.339139,2.228500,-0.196061,0.000000,0.000000,0.000000,0.000000,0.000000,0.000000
12627477.000000,-2.272319,-1.662656,1.359435,-1.473775,1.690081,1.423773,-0.589506,0.183520,-0.000607,1.116936,-0.064913,-0.113413,1.083363,-0.023808,-2.690997,38.960003,-24.829300,-4.213686,0.267728,2.079269,-0.149369,0.000000,0.000000,0.000000,0.000000,0.000000,0.000000
12627478.000000,-2.272135,-1.662658,1.360535,-1.473844,1.689964,1.424878,-0.589522,0.181778,0.000080,1.113313,-0.065160,-0.114240,1.082554,-0.025003,-2.690997,38.936199,-24.634903,-4.090700,0.291532,1.909896,-0.208878,0.000000,0.000000,0.000000,0.000000,0.000000,0.000000
12627479.000000,-2.271950,-1.662663,1.361644,-1.473921,1.689841,1.425979,-0.589546,0.181264,-0.000558,1.109368,-0.067087,-0.116838,1.081747,-0.024533,-2.742571,38.960003,-24.341324,-3.892336,0.362943,1.877853,-0.182328,0.000000,0.000000,0.000000,0.000000,0.000000,0.000000
12627480.000000,-2.271776,-1.662664,1.362757,-1.473991,1.689722,1.427045,-0.589564,0.177270,0.000144,1.107105,-0.067073,-0.118045,1.080269,-0.022647,-2.766375,38.936199,-24.095352,-3.745546,0.422452,1.995040,-0.196061,0.000000,0.000000,0.000000,0.000000,0.000000,0.000000
12627481.000000,-2.271606,-1.662671,1.363860,-1.474050,1.689612,1.428128,-0.589583,0.171081,-0.000491,1.103283,-0.062815,-0.116205,1.079859,-0.021766,-2.667193,38.960003,-24.019974,-3.769350,0.416959,2.066451,-0.196061,0.000000,0.000000,0.000000,0.000000,0.000000,0.000000
12627482.000000,-2.271453,-1.662674,1.364974,-1.474096,1.689518,1.429219,-0.589605,0.168571,0.000206,1.101013,-0.052936,-0.112085,1.083906,-0.026766,-2.421221,38.936199,-23.920792,-3.943910,0.332731,1.936446,-0.169511,0.000000,0.000000,0.000000,0.000000,0.000000,0.000000
12627483.000000,-2.271301,-1.662679,1.366115,-1.474147,1.689416,1.430321,-0.589614,0.161919,-0.002925,1.109706,-0.051245,-0.105555,1.095545,-0.022568,-2.171282,38.936199,-24.190567,-4.043092,0.273221,1.832076,-0.229020,0.000000,0.000000,0.000000,0.000000,0.000000,0.000000
12627484.000000,-2.271150,-1.662680,1.367219,-1.474193,1.689314,1.431427,-0.589640,0.155422,-0.000547,1.107724,-0.050327,-0.101565,1.096711,-0.024171,-1.972918,38.864788,-24.242142,-4.142274,0.231107,1.760665,-0.163102,0.000000,0.000000,0.000000,0.000000,0.000000,0.000000
12627485.000000,-2.270999,-1.662682,1.368342,-1.474243,1.689212,1.432501,-0.589661,0.155527,-0.002962,1.108256,-0.048481,-0.100236,1.093168,-0.023528,-1.849932,38.837017,-24.341324,-4.142274,0.231107,1.838485,-0.142960,0.000000,0.000000,0.000000,0.000000,0.000000,0.000000
12627486.000000,-2.270846,-1.662688,1.369437,-1.474298,1.689104,1.433590,-0.589673,0.152543,-0.005549,1.104099,-0.049160,-0.106671,1.083744,-0.019768,-1.750750,38.837017,-24.313553,-4.043092,0.320829,1.923629,-0.208878,0.000000,0.000000,0.000000,0.000000,0.000000,0.000000
12627487.000000,-2.270689,-1.662693,1.370546,-1.474353,1.688998,1.434689,-0.589696,0.155014,-0.003710,1.100263,-0.049378,-0.111447,1.076485,-0.021245,-1.750750,38.813213,-24.289749,-3.943910,0.405057,1.949264,-0.169511,0.000000,0.000000,0.000000,0.000000,0.000000,0.000000
12627488.000000,-2.270538,-1.662693,1.371658,-1.474404,1.688894,1.435782,-0.589708,0.153841,-0.001785,1.098839,-0.049592,-0.107404,1.083172,-0.019436,-1.726946,38.765606,-24.166763,-3.844728,0.416959,1.884261,-0.202470,0.000000,0.000000,0.000000,0.000000,0.000000,0.000000
12627489.000000,-2.270388,-1.662690,1.372747,-1.474448,1.688797,1.436903,-0.589726,0.153038,-0.001795,1.095417,-0.043806,-0.101433,1.088118,-0.020044,-1.703143,38.642620,-24.043777,-3.844728,0.351041,1.670028,-0.182328,0.000000,0.000000,0.000000,0.000000,0.000000,0.000000
12627490.000000,-2.270250,-1.662692,1.373834,-1.474489,1.688698,1.437999,-0.589743,0.147972,-0.003076,1.086557,-0.042966,-0.098562,1.091466,-0.019538,-1.627764,38.571209,-23.750198,-3.844728,0.320829,1.597701,-0.188737,0.000000,0.000000,0.000000,0.000000,0.000000,0.000000
12627491.000000,-2.270110,-1.662696,1.374921,-1.474535,1.688595,1.439083,-0.589761,0.143673,-0.002682,1.086711,-0.043624,-0.097087,1.081304,-0.020304,-1.528582,38.571209,-23.627213,-3.797121,0.308927,1.721298,-0.163102,0.000000,0.000000,0.000000,0.000000,0.000000,0.000000
12627492.000000,-2.269975,-1.662697,1.376021,-1.474577,1.688494,1.440172,-0.589773,0.137271,-0.002261,1.087987,-0.040029,-0.095610,1.079128,-0.017923,-1.429400,38.571209,-23.528030,-3.769350,0.303434,1.884261,-0.215287,0.000000,0.000000,0.000000,0.000000,0.000000,0.000000
12627493.000000,-2.269841,-1.662700,1.377143,-1.474621,1.688393,1.441253,-0.589790,0.136056,-0.001862,1.094217,-0.038338,-0.096565,1.080035,-0.018791,-1.354022,38.571209,-23.726395,-3.697939,0.332731,1.981307,-0.202470,0.000000,0.000000,0.000000,0.000000,0.000000,0.000000
12627494.000000,-2.269719,-1.662697,1.378257,-1.474658,1.688298,1.442358,-0.589808,0.132883,-0.000301,1.101799,-0.038866,-0.094587,1.079689,-0.019847,-1.183428,38.519634,-24.043777,-3.697939,0.291532,1.923629,-0.175919,0.000000,0.000000,0.000000,0.000000,0.000000,0.000000
12627495.000000,-2.269596,-1.662694,1.379396,-1.474699,1.688206,1.443456,-0.589819,0.125756,0.000713,1.108597,-0.037028,-0.088023,1.084237,-0.018436,-1.060443,38.472027,-24.559525,-3.646364,0.243009,1.779891,-0.202470,0.000000,0.000000,0.000000,0.000000,0.000000,0.000000
12627496.000000,-2.269472,-1.662696,1.380506,-1.474735,1.688107,1.444552,-0.589841,0.124655,-0.000231,1.131211,-0.035090,-0.085787,1.077530,-0.021061,-0.985064,38.495831,-24.928482,-3.622560,0.267728,1.779891,-0.136552,0.000000,0.000000,0.000000,0.000000,0.000000,0.000000
12627497.000000,-2.269349,-1.662699,1.381635,-1.474771,1.688003,1.445643,-0.589851,0.123926,-0.001380,1.131620,-0.034180,-0.089620,1.074146,-0.018615,-0.909686,38.543438,-25.249832,-3.570986,0.308927,1.865035,-0.182328,0.000000,0.000000,0.000000,0.000000,0.000000,0.000000
12627498.000000,-2.269234,-1.662711,1.382754,-1.474804,1.687900,1.446712,-0.589862,0.121423,-0.005088,1.126292,-0.033367,-0.088983,1.075601,-0.018680,-0.762896,38.717999,-25.249832,-3.523378,0.393156,1.981307,-0.182328,0.000000,0.000000,0.000000,0.000000,0.000000,0.000000
12627499.000000,-2.269110,-1.662716,1.383854,-1.474842,1.687800,1.447791,-0.589877,0.123675,-0.005125,1.123210,-0.034425,-0.090594,1.069811,-0.019464,-0.810504,38.789410,-25.222061,-3.400392,0.410551,2.104903,-0.163102,0.000000,0.000000,0.000000,0.000000,0.000000,0.000000
12627500.000000,-2.268988,-1.662720,1.384958,-1.474874,1.687708,1.448872,-0.589885,0.124020,-0.004021,1.113417,-0.034201,-0.094152,1.096012,-0.017301,-0.810504,38.813213,-25.075272,-3.325014,0.362943,2.039901,-0.215287,0.000000,0.000000,0.000000,0.000000,0.000000,0.000000
12627501.000000,-2.268865,-1.662726,1.386068,-1.474907,1.687608,1.449973,-0.589900,0.122786,-0.004479,1.105377,-0.034393,-0.093538,1.098218,-0.019032,-0.862078,38.888592,-24.904678,-3.225832,0.344633,1.858627,-0.182328,0.000000,0.000000,0.000000,0.000000,0.000000,0.000000
12627502.000000,-2.268749,-1.662735,1.387151,-1.474943,1.687502,1.451072,-0.589911,0.123621,-0.005240,1.100791,-0.035581,-0.098756,1.101145,-0.018172,-0.862078,38.983807,-24.559525,-3.079042,0.351041,1.735030,-0.202470,0.000000,0.000000,0.000000,0.000000,0.000000,0.000000
12627503.000000,-2.268629,-1.662743,1.388242,-1.474975,1.687397,1.452139,-0.589926,0.119285,-0.008438,1.087677,-0.035818,-0.098676,1.094434,-0.014901,-0.933489,39.059185,-24.265945,-2.956056,0.381254,1.741439,-0.169511,0.000000,0.000000,0.000000,0.000000,0.000000,0.000000
12627504.000000,-2.268524,-1.662744,1.389334,-1.475006,1.687293,1.453212,-0.589934,0.117352,-0.005904,1.090141,-0.035915,-0.102728,1.077737,-0.010634,-0.810504,39.059185,-24.218338,-2.833071,0.405057,1.877853,-0.182328,0.000000,0.000000,0.000000,0.000000,0.000000,0.000000
12627505.000000,-2.268419,-1.662752,1.390434,-1.475027,1.687202,1.454306,-0.589943,0.111219,-0.005815,1.092451,-0.032544,-0.098613,1.068675,-0.011505,-0.711321,39.130596,-24.095352,-2.856874,0.351041,1.884261,-0.215287,0.000000,0.000000,0.000000,0.000000,0.000000,0.000000
12627506.000000,-2.268325,-1.662751,1.391540,-1.475041,1.687094,1.455419,-0.589954,0.108030,-0.002920,1.089141,-0.024488,-0.094839,1.086850,-0.009710,-0.540728,39.082989,-24.019974,-2.979860,0.398649,1.591293,-0.188737,0.000000,0.000000,0.000000,0.000000,0.000000,0.000000
12627507.000000,-2.268225,-1.662753,1.392643,-1.475051,1.687000,1.456529,-0.589961,0.104618,-0.000950,1.092165,-0.018383,-0.092969,1.091566,-0.011493,-0.465350,39.035381,-24.166763,-3.126650,0.356534,1.461288,-0.202470,0.000000,0.000000,0.000000,0.000000,0.000000,0.000000
12627508.000000,-2.268132,-1.662751,1.393764,-1.475065,1.686909,1.457612,-0.589976,0.099943,-0.001008,1.098896,-0.016469,-0.091574,1.091222,-0.009397,-0.290789,38.912395,-24.388931,-3.178224,0.303434,1.467696,-0.182328,0.000000,0.000000,0.000000,0.000000,0.000000,0.000000
12627509.000000,-2.268033,-1.662755,1.394851,-1.475075,1.686812,1.458699,-0.589986,0.100857,-0.001002,1.097568,-0.015560,-0.097430,1.085452,-0.011477,-0.290789,38.912395,-24.365128,-3.202028,0.315336,1.611434,-0.188737,0.000000,0.000000,0.000000,0.000000,0.000000,0.000000
12627510.000000,-2.267937,-1.662766,1.395939,-1.475089,1.686703,1.459783,-0.589998,0.100860,-0.005731,1.087806,-0.013666,-0.100322,1.079669,-0.014041,-0.266986,38.983807,-24.190567,-3.126650,0.428861,1.806442,-0.169511,0.000000,0.000000,0.000000,0.000000,0.000000,0.000000
12627513.000000,-2.267638,-1.662759,1.399209,-1.475100,1.686444,1.463065,-0.590030,0.098437,0.000505,1.080484,-0.009625,-0.092807,1.085170,-0.018167,-0.413775,38.741802,-23.948563,-3.249635,0.219205,1.793624,-0.142960,0.000000,0.000000,0.000000,0.000000,0.000000,0.000000
12627514.000000,-2.267538,-1.662755,1.400291,-1.475109,1.686343,1.464190,-0.590031,0.098754,0.002320,1.098973,-0.007964,-0.090448,1.091345,-0.015256,-0.540728,38.642620,-23.651016,-3.225832,0.261320,1.565658,-0.221696,0.000000,0.000000,0.000000,0.000000,0.000000,0.000000
12627515.000000,-2.267436,-1.662757,1.401379,-1.475112,1.686237,1.465287,-0.590046,0.098913,0.001293,1.098056,-0.006609,-0.095292,1.089923,-0.018197,-0.687518,38.642620,-23.726395,-3.202028,0.356534,1.630660,-0.169511,0.000000,0.000000,0.000000,0.000000,0.000000,0.000000
12627516.000000,-2.267338,-1.662752,1.402479,-1.475113,1.686146,1.466354,-0.590047,0.098041,0.002343,1.095210,-0.005520,-0.094239,1.081306,-0.011889,-0.786700,38.571209,-23.774002,-3.178224,0.339139,1.897079,-0.215287,0.000000,0.000000,0.000000,0.000000,0.000000,0.000000
12627517.000000,-2.267244,-1.662748,1.403589,-1.475113,1.686051,1.467449,-0.590055,0.094765,0.002626,1.108136,-0.002529,-0.090582,1.077003,-0.014497,-0.786700,38.519634,-24.190567,-3.102846,0.369352,1.949264,-0.196061,0.000000,0.000000,0.000000,0.000000,0.000000,0.000000
12627518.000000,-2.267158,-1.662743,1.404702,-1.475102,1.685961,1.468546,-0.590064,0.092559,0.002758,1.105693,0.003451,-0.091980,1.105326,-0.011151,-0.663714,38.472027,-24.464310,-3.178224,0.386747,1.793624,-0.188737,0.000000,0.000000,0.000000,0.000000,0.000000,0.000000
