chaoyuefei/paper-gmrm-data/robot_logs/s2_dq_gmrm_xz_min_0.30_log_20260314_173232.csv
# time_ms,q_0,q_1,q_2,q_3,q_4,q_5,q_6,dq_0,dq_1,dq_2,dq_3,dq_4,dq_5,dq_6,tau_J_0,tau_J_1,tau_J_2,tau_J_3,tau_J_4,tau_J_5,tau_J_6,O_dP_EE_c_0,O_dP_EE_c_1,O_dP_EE_c_2,O_dP_EE_c_3,O_dP_EE_c_4,O_dP_EE_c_5
12214669.000000,-2.415961,-1.662591,1.042300,-1.355844,1.795765,1.080861,-0.548494,-0.000487,0.000497,0.000636,-0.000261,0.000222,-0.000020,0.000930,-0.017047,41.554607,-21.052444,-5.697450,0.852750,1.350509,0.001693,0.000000,0.000000,0.000000,0.000000,0.000000,0.000000
12214670.000000,-2.415959,-1.662592,1.042296,-1.355846,1.795765,1.080861,-0.548494,-0.000324,-0.000226,-0.000782,-0.000731,-0.000089,0.000224,0.000858,-0.017047,41.578411,-21.000870,-5.673646,0.859159,1.344100,-0.004716,0.000000,0.000000,0.000000,0.000000,0.000000,0.000000
12214671.000000,-2.415961,-1.662594,1.042296,-1.355842,1.795766,1.080861,-0.548499,-0.000216,-0.000800,-0.000522,0.000627,0.000381,0.000149,-0.001158,-0.017047,41.606182,-21.000870,-5.721254,0.847257,1.344100,0.041976,0.000000,0.000000,0.000000,0.000000,0.000000,0.000000
12214672.000000,-2.415959,-1.662589,1.042300,-1.355840,1.795764,1.080861,-0.548494,-0.000144,0.001230,0.000209,0.001067,-0.000390,-0.000138,0.000720,-0.017047,41.530804,-21.024673,-5.749025,0.864652,1.350509,0.001693,0.000000,0.000000,0.000000,0.000000,0.000000,0.000000
12214673.000000,-2.415954,-1.662594,1.042301,-1.355845,1.795764,1.080859,-0.548501,0.008066,0.001377,-0.000417,0.001005,0.000825,-0.001550,-0.004524,0.228925,41.507000,-21.000870,-5.626039,0.835355,1.389877,0.009017,0.000000,0.000000,0.000000,0.000000,0.000000,0.000000
12214674.000000,-2.415945,-1.662599,1.042300,-1.355838,1.795766,1.080854,-0.548510,0.016231,-0.000771,-0.001392,0.002350,-0.000122,-0.002862,-0.006233,1.268354,41.312603,-20.953262,-5.550661,0.727323,1.565658,-0.044083,0.000000,0.000000,0.000000,0.000000,0.000000,0.000000
12214675.000000,-2.415920,-1.662600,1.042310,-1.355838,1.795762,1.080853,-0.548539,0.022905,0.002495,0.004859,0.001240,-0.002091,-0.000427,-0.013516,2.851301,40.896038,-20.929459,-5.253114,0.644010,1.786300,-0.064225,0.000000,0.000000,0.000000,0.000000,0.000000,0.000000
12214676.000000,-2.415872,-1.662598,1.042330,-1.355844,1.795745,1.080876,-0.548584,0.027404,0.000828,0.009420,-0.003890,-0.004547,0.011097,-0.024787,4.684186,40.356487,-20.905655,-4.884157,0.584501,1.877853,-0.064225,0.000000,0.000000,0.000000,0.000000,0.000000,0.000000
12214677.000000,-2.415804,-1.662597,1.042347,-1.355859,1.795718,1.080925,-0.548642,0.031977,0.002075,0.010602,-0.007802,-0.014239,0.026395,-0.036925,6.540876,39.816936,-20.782669,-4.487428,0.613798,1.800033,-0.083451,0.000000,0.000000,0.000000,0.000000,0.000000,0.000000
12214678.000000,-2.415723,-1.662599,1.042378,-1.355880,1.795680,1.081008,-0.548721,0.045069,0.001281,0.019611,-0.012892,-0.026170,0.046965,-0.051820,8.199201,39.328960,-20.731094,-4.118471,0.649503,1.578475,-0.070634,0.000000,0.000000,0.000000,0.000000,0.000000,0.000000
12214679.000000,-2.415628,-1.662598,1.042418,-1.355925,1.795631,1.081102,-0.548820,0.057617,0.003572,0.026601,-0.025282,-0.039484,0.064999,-0.069158,9.758344,38.837017,-20.683487,-3.646364,0.673307,1.396285,-0.044083,0.000000,0.000000,0.000000,0.000000,0.000000,0.000000
12214680.000000,-2.415507,-1.662591,1.042463,-1.355978,1.795564,1.081210,-0.548938,0.073459,0.005295,0.034784,-0.034803,-0.054371,0.078433,-0.088860,10.920758,38.349041,-20.631912,-3.277406,0.709928,1.331283,-0.070634,0.000000,0.000000,0.000000,0.000000,0.000000,0.000000
12214681.000000,-2.415375,-1.662590,1.042515,-1.356034,1.795481,1.081346,-0.549085,0.089715,0.006709,0.039232,-0.045197,-0.063057,0.096539,-0.105846,12.011762,37.984051,-20.512894,-3.027467,0.685209,1.305648,-0.031266,0.000000,0.000000,0.000000,0.000000,0.000000,0.000000
12214682.000000,-2.415238,-1.662583,1.042580,-1.356100,1.795384,1.081492,-0.549235,0.102556,0.007890,0.047030,-0.054809,-0.075971,0.110826,-0.117702,13.051190,37.615093,-20.437515,-2.856874,0.584501,1.396285,-0.064225,0.000000,0.000000,0.000000,0.000000,0.000000,0.000000
12214683.000000,-2.415087,-1.662572,1.042663,-1.356186,1.795266,1.081656,-0.549398,0.119730,0.009678,0.063319,-0.066592,-0.087940,0.124340,-0.129744,13.892255,37.222332,-20.512894,-2.634706,0.518583,1.539108,-0.089860,0.000000,0.000000,0.000000,0.000000,0.000000,0.000000
12214684.000000,-2.414913,-1.662557,1.042763,-1.356282,1.795135,1.081850,-0.549576,0.136038,0.010848,0.074590,-0.076646,-0.099350,0.146694,-0.147241,14.534955,36.833538,-20.584305,-2.511720,0.405057,1.624252,-0.050492,0.000000,0.000000,0.000000,0.000000,0.000000,0.000000
12214685.000000,-2.414736,-1.662539,1.042872,-1.356400,1.794977,1.082084,-0.549756,0.153554,0.014439,0.086018,-0.089112,-0.116928,0.176406,-0.156566,15.181623,36.464581,-20.659683,-2.313356,0.386747,1.624252,-0.077042,0.000000,0.000000,0.000000,0.000000,0.000000,0.000000
12214686.000000,-2.414530,-1.662519,1.043002,-1.356536,1.794790,1.082353,-0.549941,0.169888,0.018302,0.099533,-0.104716,-0.137289,0.201429,-0.160723,15.578351,36.048016,-20.830276,-2.114992,0.434354,1.546432,-0.077042,0.000000,0.000000,0.000000,0.000000,0.000000,0.000000
12214687.000000,-2.414308,-1.662499,1.043138,-1.356680,1.794587,1.082639,-0.550129,0.185523,0.019938,0.112466,-0.116783,-0.160658,0.228910,-0.167457,15.923505,35.683025,-20.977066,-2.039613,0.458158,1.481429,-0.089860,0.000000,0.000000,0.000000,0.000000,0.000000,0.000000
12214688.000000,-2.414070,-1.662484,1.043300,-1.356851,1.794358,1.082948,-0.550320,0.202701,0.019002,0.127283,-0.134173,-0.184647,0.252731,-0.173521,16.169477,35.413250,-21.223038,-1.869020,0.530485,1.429244,-0.089860,0.000000,0.000000,0.000000,0.000000,0.000000,0.000000
12214689.000000,-2.413814,-1.662465,1.043464,-1.357030,1.794104,1.083284,-0.550512,0.219494,0.019085,0.138252,-0.146798,-0.204524,0.286228,-0.178551,16.344038,35.119671,-21.322220,-1.869020,0.547880,1.422836,-0.056901,0.000000,0.000000,0.000000,0.000000,0.000000,0.000000
12214690.000000,-2.413546,-1.662451,1.043630,-1.357222,1.793835,1.083641,-0.550693,0.240518,0.016469,0.149063,-0.158936,-0.235941,0.307382,-0.180012,16.518599,34.945110,-21.270645,-1.916628,0.542386,1.454879,-0.089860,0.000000,0.000000,0.000000,0.000000,0.000000,0.000000
12214691.000000,-2.413261,-1.662437,1.043813,-1.357438,1.793553,1.084008,-0.550881,0.253091,0.016642,0.157141,-0.177280,-0.246746,0.320699,-0.181662,16.590010,34.826092,-21.223038,-1.841249,0.518583,1.559249,-0.097184,0.000000,0.000000,0.000000,0.000000,0.000000,0.000000
12214692.000000,-2.412956,-1.662434,1.044003,-1.357656,1.793258,1.084399,-0.551069,0.268443,0.014221,0.167550,-0.191082,-0.262363,0.345310,-0.180014,16.665388,34.826092,-21.199234,-1.892824,0.446256,1.649886,-0.070634,0.000000,0.000000,0.000000,0.000000,0.000000,0.000000
12214693.000000,-2.412638,-1.662426,1.044208,-1.357910,1.792949,1.084818,-0.551249,0.285918,0.010438,0.179389,-0.209690,-0.278163,0.368380,-0.181422,16.665388,34.798321,-21.175430,-1.718263,0.339139,1.735030,-0.122819,0.000000,0.000000,0.000000,0.000000,0.000000,0.000000
12214694.000000,-2.412296,-1.662426,1.044423,-1.358167,1.792615,1.085267,-0.551433,0.304466,0.005983,0.189289,-0.223872,-0.293330,0.390834,-0.178656,16.590010,34.849895,-21.100052,-1.670656,0.332731,1.708480,-0.122819,0.000000,0.000000,0.000000,0.000000,0.000000,0.000000
12214695.000000,-2.411947,-1.662425,1.044639,-1.358449,1.792276,1.085740,-0.551618,0.317545,0.004162,0.196310,-0.240856,-0.312609,0.417468,-0.178437,16.641584,34.849895,-20.977066,-1.496095,0.315336,1.662704,-0.070634,0.000000,0.000000,0.000000,0.000000,0.000000,0.000000
12214696.000000,-2.411583,-1.662420,1.044875,-1.358750,1.791904,1.086241,-0.551795,0.343581,0.003461,0.206106,-0.260909,-0.334565,0.437531,-0.174525,16.590010,34.826092,-20.929459,-1.396913,0.362943,1.578475,-0.110001,0.000000,0.000000,0.000000,0.000000,0.000000,0.000000
12214697.000000,-2.411205,-1.662425,1.045118,-1.359054,1.791514,1.086754,-0.551981,0.352432,0.001291,0.219901,-0.271766,-0.351837,0.461921,-0.179382,16.641584,34.873699,-20.854080,-1.349306,0.416959,1.513473,-0.097184,0.000000,0.000000,0.000000,0.000000,0.000000,0.000000
12214698.000000,-2.410829,-1.662415,1.045368,-1.359366,1.791119,1.087301,-0.552167,0.357092,0.003811,0.231796,-0.286658,-0.374947,0.488113,-0.182691,16.839949,34.750713,-20.731094,-1.396913,0.464567,1.474105,-0.077042,0.000000,0.000000,0.000000,0.000000,0.000000,0.000000
12214699.000000,-2.410427,-1.662419,1.045631,-1.359697,1.790699,1.087866,-0.552344,0.369314,0.000832,0.240530,-0.306814,-0.390967,0.507645,-0.176593,16.939131,34.826092,-20.631912,-1.396913,0.512174,1.467696,-0.122819,0.000000,0.000000,0.000000,0.000000,0.000000,0.000000
12214700.000000,-2.410022,-1.662419,1.045900,-1.360040,1.790271,1.088451,-0.552528,0.375441,0.000596,0.248210,-0.316458,-0.399490,0.526504,-0.180185,17.185102,34.826092,-20.536697,-1.448488,0.476469,1.467696,-0.110001,0.000000,0.000000,0.000000,0.000000,0.000000,0.000000
12214701.000000,-2.409603,-1.662419,1.046182,-1.360407,1.789837,1.089047,-0.552710,0.391565,0.000428,0.258504,-0.328943,-0.411471,0.543599,-0.183087,17.335859,34.826092,-20.461319,-1.420717,0.440763,1.474105,-0.110001,0.000000,0.000000,0.000000,0.000000,0.000000,0.000000
12214702.000000,-2.409164,-1.662415,1.046475,-1.360785,1.789378,1.089659,-0.552885,0.403214,0.004673,0.269155,-0.341737,-0.426454,0.557960,-0.179628,17.506453,34.774517,-20.413712,-1.250124,0.374845,1.474105,-0.116410,0.000000,0.000000,0.000000,0.000000,0.000000,0.000000
12214703.000000,-2.408726,-1.662412,1.046776,-1.361185,1.788911,1.090297,-0.553060,0.424793,0.003953,0.281246,-0.358023,-0.441704,0.580488,-0.179039,17.803999,34.750713,-20.413712,-1.027956,0.339139,1.416427,-0.070634,0.000000,0.000000,0.000000,0.000000,0.000000,0.000000
12214704.000000,-2.408265,-1.662409,1.047089,-1.361602,1.788426,1.090964,-0.553226,0.436012,0.006541,0.287575,-0.374158,-0.455640,0.607575,-0.174262,18.026167,34.726910,-20.338333,-0.778017,0.381254,1.337692,-0.130143,0.000000,0.000000,0.000000,0.000000,0.000000,0.000000
12214705.000000,-2.407787,-1.662403,1.047406,-1.362025,1.787922,1.091627,-0.553396,0.445765,0.005893,0.297596,-0.390905,-0.469030,0.625804,-0.171016,18.299910,34.679302,-20.314529,-0.583620,0.374845,1.312057,-0.116410,0.000000,0.000000,0.000000,0.000000,0.000000,0.000000
12214706.000000,-2.407304,-1.662391,1.047730,-1.362461,1.787409,1.092321,-0.553572,0.451621,0.006563,0.307663,-0.402825,-0.482270,0.646373,-0.172238,18.248335,34.580120,-20.143936,-0.508241,0.482877,1.305648,-0.077042,0.000000,0.000000,0.000000,0.000000,0.000000,0.000000
12214707.000000,-2.406819,-1.662380,1.048075,-1.362913,1.786878,1.093030,-0.553733,0.446184,0.008882,0.319835,-0.423760,-0.497741,0.687894,-0.164829,17.657209,34.532513,-19.997147,-0.631227,0.620206,1.292831,-0.149369,0.000000,0.000000,0.000000,0.000000,0.000000,0.000000
12214708.000000,-2.406332,-1.662367,1.048432,-1.363384,1.786354,1.093755,-0.553906,0.459778,0.009238,0.335074,-0.441326,-0.510621,0.692372,-0.163223,16.344038,34.409527,-19.604385,-1.000185,0.745634,1.350509,-0.103593,0.000000,0.000000,0.000000,0.000000,0.000000,0.000000
12214709.000000,-2.405856,-1.662352,1.048824,-1.363884,1.785818,1.094506,-0.554064,0.462651,0.011686,0.354988,-0.454994,-0.519565,0.708062,-0.158852,14.586530,34.187359,-19.136246,-1.373109,0.871061,1.435653,-0.142960,0.000000,0.000000,0.000000,0.000000,0.000000,0.000000
12214710.000000,-2.405387,-1.662337,1.049250,-1.364376,1.785295,1.095266,-0.554221,0.469394,0.013523,0.376374,-0.463210,-0.513711,0.723347,-0.156874,12.654462,33.822369,-18.644302,-1.869020,0.793241,1.454879,-0.163102,0.000000,0.000000,0.000000,0.000000,0.000000,0.000000
12214711.000000,-2.404935,-1.662324,1.049677,-1.364880,1.784798,1.096057,-0.554391,0.468615,0.013034,0.392764,-0.466634,-0.512223,0.733916,-0.161515,10.825543,33.382000,-17.957962,-2.313356,0.649503,1.344100,-0.110001,0.000000,0.000000,0.000000,0.000000,0.000000,0.000000
12214712.000000,-2.404482,-1.662320,1.050150,-1.365384,1.784295,1.096846,-0.554557,0.465113,0.010476,0.415675,-0.472719,-0.501789,0.743853,-0.163736,9.091840,33.013042,-17.394608,-2.658510,0.422452,1.201278,-0.122819,0.000000,0.000000,0.000000,0.000000,0.000000,0.000000
12214713.000000,-2.404030,-1.662318,1.050638,-1.365888,1.783821,1.097625,-0.554723,0.457291,0.010852,0.440792,-0.478321,-0.498930,0.753856,-0.162384,7.631879,32.671856,-16.902664,-2.956056,0.141385,1.090499,-0.077042,0.000000,0.000000,0.000000,0.000000,0.000000,0.000000
12214714.000000,-2.403585,-1.662324,1.051125,-1.366390,1.783327,1.098411,-0.554883,0.451114,0.007746,0.450118,-0.480190,-0.497024,0.755309,-0.163686,6.342512,32.473492,-16.240128,-3.225832,0.015958,0.974227,-0.097184,0.000000,0.000000,0.000000,0.000000,0.000000,0.000000
12214715.000000,-2.403133,-1.662332,1.051633,-1.366884,1.782834,1.099180,-0.555055,0.449070,0.005431,0.465138,-0.482983,-0.490118,0.761406,-0.167399,5.203901,32.279095,-15.652969,-3.424196,-0.031649,0.889083,-0.077042,0.000000,0.000000,0.000000,0.000000,0.000000,0.000000
12214716.000000,-2.402689,-1.662336,1.052136,-1.367362,1.782352,1.099947,-0.555217,0.448015,0.001462,0.477989,-0.477950,-0.488216,0.753541,-0.168493,4.263654,32.056927,-15.109451,-3.721742,0.052579,0.895492,-0.070634,0.000000,0.000000,0.000000,0.000000,0.000000,0.000000
12214717.000000,-2.402240,-1.662346,1.052636,-1.367831,1.781852,1.100715,-0.555371,0.448466,-0.002471,0.477469,-0.480191,-0.486431,0.750210,-0.165691,3.446393,31.886333,-14.546097,-4.090700,0.231107,0.966903,-0.149369,0.000000,0.000000,0.000000,0.000000,0.000000,0.000000
12214718.000000,-2.401788,-1.662359,1.053137,-1.368299,1.781368,1.101476,-0.555532,0.446755,-0.007126,0.486809,-0.479754,-0.480311,0.756425,-0.165311,2.752119,31.791119,-13.982742,-4.289064,0.320829,0.941268,-0.110001,0.000000,0.000000,0.000000,0.000000,0.000000,0.000000
12214719.000000,-2.401328,-1.662368,1.053641,-1.368771,1.780885,1.102245,-0.555696,0.451533,-0.005902,0.493276,-0.474235,-0.482230,0.755650,-0.164177,2.010236,31.640362,-13.466995,-4.289064,0.434354,0.895492,-0.083451,0.000000,0.000000,0.000000,0.000000,0.000000,0.000000
12214720.000000,-2.400864,-1.662376,1.054150,-1.369251,1.780407,1.102998,-0.555848,0.451080,-0.007058,0.498475,-0.474588,-0.476537,0.763950,-0.162358,1.367536,31.445965,-13.050430,-4.090700,0.416959,0.895492,-0.169511,0.000000,0.000000,0.000000,0.000000,0.000000,0.000000
12214721.000000,-2.400390,-1.662380,1.054652,-1.369740,1.779959,1.103749,-0.556011,0.467558,-0.005067,0.500738,-0.477146,-0.466262,0.755647,-0.161745,0.697065,31.251568,-12.606094,-3.745546,0.308927,0.908309,-0.116410,0.000000,0.000000,0.000000,0.000000,0.000000,0.000000
12214722.000000,-2.399922,-1.662377,1.055173,-1.370234,1.779490,1.104513,-0.556172,0.469437,-0.001695,0.506148,-0.479996,-0.469364,0.755702,-0.160589,0.129743,30.981792,-12.312515,-3.348818,0.243009,0.895492,-0.083451,0.000000,0.000000,0.000000,0.000000,0.000000,0.000000
12214723.000000,-2.399445,-1.662373,1.055688,-1.370704,1.779040,1.105266,-0.556319,0.467307,0.001262,0.520017,-0.477748,-0.459837,0.759637,-0.155741,-0.413775,30.688213,-12.042740,-3.102846,0.076383,0.895492,-0.149369,0.000000,0.000000,0.000000,0.000000,0.000000,0.000000
12214724.000000,-2.398982,-1.662364,1.056217,-1.371170,1.778595,1.106018,-0.556479,0.463114,0.006416,0.522423,-0.470779,-0.459405,0.750774,-0.161414,-0.834307,30.394634,-11.820572,-3.027467,-0.001437,0.928451,-0.097184,0.000000,0.000000,0.000000,0.000000,0.000000,0.000000
12214725.000000,-2.398514,-1.662347,1.056759,-1.371620,1.778132,1.106774,-0.556630,0.457908,0.009344,0.530757,-0.469772,-0.453495,0.763510,-0.157771,-1.131854,30.001873,-11.673782,-3.102846,0.015958,0.987045,-0.122819,0.000000,0.000000,0.000000,0.000000,0.000000,0.000000
12214726.000000,-2.398049,-1.662328,1.057294,-1.372074,1.777684,1.107518,-0.556781,0.464481,0.014984,0.536393,-0.460226,-0.456174,0.758078,-0.155905,-1.354022,29.585308,-11.503189,-3.178224,0.076383,1.071273,-0.142960,0.000000,0.000000,0.000000,0.000000,0.000000,0.000000
12214727.000000,-2.397579,-1.662313,1.057850,-1.372517,1.777227,1.108281,-0.556936,0.464938,0.017228,0.540484,-0.450035,-0.460708,0.755421,-0.159759,-1.603961,29.244122,-11.380203,-3.376589,0.213712,1.090499,-0.130143,0.000000,0.000000,0.000000,0.000000,0.000000,0.000000
12214728.000000,-2.397106,-1.662289,1.058414,-1.372959,1.776771,1.109034,-0.557088,0.462181,0.017521,0.547918,-0.443090,-0.461355,0.761735,-0.156381,-1.849932,28.827557,-11.233414,-3.448000,0.297025,1.045638,-0.142960,0.000000,0.000000,0.000000,0.000000,0.000000,0.000000
12214729.000000,-2.396626,-1.662271,1.058976,-1.373404,1.776330,1.109798,-0.557249,0.466419,0.018981,0.552866,-0.442013,-0.456262,0.757171,-0.156545,-2.222857,28.486370,-11.134232,-3.570986,0.356534,0.954086,-0.103593,0.000000,0.000000,0.000000,0.000000,0.000000,0.000000
12214730.000000,-2.396132,-1.662256,1.059559,-1.373841,1.775886,1.110574,-0.557402,0.474380,0.017898,0.560553,-0.448989,-0.447610,0.760571,-0.159203,-2.667193,28.240398,-11.062820,-3.570986,0.327238,0.830489,-0.116410,0.000000,0.000000,0.000000,0.000000,0.000000,0.000000
12214731.000000,-2.395639,-1.662248,1.060140,-1.374285,1.775463,1.111318,-0.557556,0.474010,0.013869,0.563957,-0.446223,-0.439265,0.757721,-0.157476,-3.087725,28.141216,-10.963638,-3.598757,0.201810,0.830489,-0.110001,0.000000,0.000000,0.000000,0.000000,0.000000,0.000000
12214732.000000,-2.395152,-1.662242,1.060734,-1.374723,1.775036,1.112070,-0.557710,0.478874,0.010073,0.574948,-0.444219,-0.428171,0.753202,-0.160465,-3.484454,28.093609,-10.840652,-3.622560,0.081876,0.857040,-0.110001,0.000000,0.000000,0.000000,0.000000,0.000000,0.000000
12214733.000000,-2.394660,-1.662241,1.061335,-1.375157,1.774602,1.112809,-0.557855,0.476196,0.005943,0.579385,-0.441165,-0.425257,0.750059,-0.151833,-3.857378,28.117413,-10.646255,-3.598757,-0.037142,0.934859,-0.149369,0.000000,0.000000,0.000000,0.000000,0.000000,0.000000
12214734.000000,-2.394167,-1.662237,1.061941,-1.375593,1.774185,1.113542,-0.558009,0.479229,0.003244,0.588035,-0.437593,-0.425931,0.737008,-0.157830,-4.202532,28.141216,-10.570877,-3.570986,-0.126864,1.064864,-0.110001,0.000000,0.000000,0.000000,0.000000,0.000000,0.000000
12214735.000000,-2.393669,-1.662233,1.062570,-1.376020,1.773763,1.114294,-0.558158,0.484440,0.002042,0.597039,-0.442797,-0.423597,0.739467,-0.159531,-4.547686,28.141216,-10.523270,-3.646364,-0.133273,1.117049,-0.136552,0.000000,0.000000,0.000000,0.000000,0.000000,0.000000
12214736.000000,-2.393158,-1.662233,1.063200,-1.376437,1.773318,1.115041,-0.558308,0.488695,0.000713,0.612163,-0.439290,-0.428528,0.743839,-0.152765,-4.995989,28.165020,-10.523270,-3.769350,-0.049044,1.096908,-0.136552,0.000000,0.000000,0.000000,0.000000,0.000000,0.000000
12214737.000000,-2.392655,-1.662237,1.063842,-1.376861,1.772876,1.115787,-0.558464,0.496499,-0.000799,0.622923,-0.430317,-0.437562,0.739419,-0.152760,-5.392718,28.216595,-10.570877,-3.868532,0.147794,1.104232,-0.097184,0.000000,0.000000,0.000000,0.000000,0.000000,0.000000
12214738.000000,-2.392149,-1.662243,1.064502,-1.377282,1.772448,1.116524,-0.558610,0.493831,-0.002811,0.634113,-0.430040,-0.436510,0.742603,-0.149766,-5.761675,28.311810,-10.594681,-3.868532,0.207303,1.110641,-0.163102,0.000000,0.000000,0.000000,0.000000,0.000000,0.000000
12214739.000000,-2.391639,-1.662250,1.065160,-1.377701,1.772018,1.117267,-0.558763,0.504836,-0.004232,0.642845,-0.424353,-0.437205,0.739957,-0.151122,-6.083025,28.410992,-10.717667,-3.943910,0.261320,1.123458,-0.136552,0.000000,0.000000,0.000000,0.000000,0.000000,0.000000
12214740.000000,-2.391141,-1.662259,1.065839,-1.378129,1.771591,1.118022,-0.558910,0.504239,-0.005170,0.650574,-0.425405,-0.429799,0.734752,-0.151360,-6.305193,28.510174,-10.840652,-3.943910,0.237516,1.104232,-0.122819,0.000000,0.000000,0.000000,0.000000,0.000000,0.000000
12214741.000000,-2.390639,-1.662272,1.066516,-1.378531,1.771173,1.118766,-0.559051,0.500089,-0.007459,0.662503,-0.415824,-0.427599,0.736099,-0.150030,-6.455950,28.680767,-10.864456,-4.118471,0.154203,1.064864,-0.155778,0.000000,0.000000,0.000000,0.000000,0.000000,0.000000
12214742.000000,-2.390139,-1.662284,1.067208,-1.378939,1.770758,1.119518,-0.559206,0.501733,-0.008979,0.669715,-0.412187,-0.421608,0.729305,-0.148122,-6.701922,28.851360,-10.864456,-4.241457,0.076383,1.064864,-0.089860,0.000000,0.000000,0.000000,0.000000,0.000000,0.000000
12214743.000000,-2.389639,-1.662296,1.067910,-1.379341,1.770344,1.120251,-0.559352,0.497350,-0.009989,0.676029,-0.408988,-0.412670,0.742017,-0.143275,-6.852679,29.021954,-10.793045,-4.289064,0.022367,1.149093,-0.110001,0.000000,0.000000,0.000000,0.000000,0.000000,0.000000
12214744.000000,-2.389130,-1.662308,1.068610,-1.379755,1.769939,1.120988,-0.559501,0.495349,-0.010102,0.681243,-0.411009,-0.419890,0.737598,-0.145377,-7.074847,29.168743,-10.717667,-4.289064,-0.001437,1.207687,-0.103593,0.000000,0.000000,0.000000,0.000000,0.000000,0.000000
12214745.000000,-2.388632,-1.662319,1.069323,-1.380167,1.769515,1.121748,-0.559642,0.494535,-0.010175,0.692670,-0.407379,-0.416696,0.739372,-0.140939,-7.273211,29.315533,-10.523270,-4.241457,0.058073,1.110641,-0.142960,0.000000,0.000000,0.000000,0.000000,0.000000,0.000000
12214746.000000,-2.388123,-1.662331,1.070035,-1.380565,1.769094,1.122499,-0.559791,0.495032,-0.012274,0.691985,-0.403844,-0.412586,0.746375,-0.144262,-7.495379,29.414715,-10.201920,-4.340639,0.117582,0.999862,-0.130143,0.000000,0.000000,0.000000,0.000000,0.000000,0.000000
12214747.000000,-2.387615,-1.662331,1.070753,-1.380972,1.768679,1.123239,-0.559941,0.498154,-0.007337,0.699801,-0.402922,-0.415036,0.738893,-0.146241,-7.741351,29.367107,-9.955948,-4.340639,0.166105,0.954086,-0.116410,0.000000,0.000000,0.000000,0.000000,0.000000,0.000000
12214748.000000,-2.387101,-1.662340,1.071491,-1.381376,1.768259,1.123983,-0.560080,0.499440,-0.006762,0.705152,-0.415184,-0.414129,0.739671,-0.141050,-8.062701,29.438519,-9.761551,-4.388246,0.159696,1.012679,-0.169511,0.000000,0.000000,0.000000,0.000000,0.000000,0.000000
12214749.000000,-2.386600,-1.662343,1.072216,-1.381775,1.767851,1.124716,-0.560227,0.493209,-0.004659,0.714624,-0.406516,-0.409855,0.741924,-0.141046,-8.161883,29.438519,-9.416397,-4.487428,0.154203,1.031905,-0.116410,0.000000,0.000000,0.000000,0.000000,0.000000,0.000000
12214750.000000,-2.386104,-1.662348,1.072965,-1.382174,1.767438,1.125468,-0.560366,0.493667,-0.006272,0.722508,-0.403376,-0.410424,0.739146,-0.138289,-8.261065,29.438519,-9.122818,-4.586610,0.141385,1.019088,-0.122819,0.000000,0.000000,0.000000,0.000000,0.000000,0.000000
12214751.000000,-2.385602,-1.662340,1.073735,-1.382562,1.767034,1.126202,-0.560503,0.491864,-0.000530,0.739558,-0.401379,-0.403090,0.740407,-0.139596,-8.360248,29.267925,-8.999832,-4.685792,0.064481,1.064864,-0.175919,0.000000,0.000000,0.000000,0.000000,0.000000,0.000000
12214752.000000,-2.385112,-1.662335,1.074503,-1.382953,1.766646,1.126952,-0.560649,0.501701,0.002826,0.752605,-0.398319,-0.397922,0.738344,-0.145227,-8.435626,29.121136,-8.924454,-4.808778,-0.043551,1.077682,-0.122819,0.000000,0.000000,0.000000,0.000000,0.000000,0.000000
12214753.000000,-2.384616,-1.662327,1.075288,-1.383345,1.766246,1.127732,-0.560789,0.500415,0.005684,0.763339,-0.393188,-0.396843,0.748440,-0.146592,-8.534808,28.950542,-8.853043,-4.832582,-0.060946,0.915633,-0.116410,0.000000,0.000000,0.000000,0.000000,0.000000,0.000000
12214754.000000,-2.384122,-1.662322,1.076083,-1.383721,1.765833,1.128489,-0.560923,0.495313,0.005966,0.778687,-0.389665,-0.397625,0.755419,-0.144203,-8.511004,28.851360,-8.876846,-4.955568,-0.025240,0.759078,-0.155778,0.000000,0.000000,0.000000,0.000000,0.000000,0.000000
12214755.000000,-2.383637,-1.662312,1.076894,-1.384107,1.765445,1.129248,-0.561066,0.490709,0.007861,0.794086,-0.388968,-0.391986,0.751453,-0.142494,-8.534808,28.680767,-8.876846,-4.983339,-0.055453,0.778304,-0.122819,0.000000,0.000000,0.000000,0.000000,0.000000,0.000000
12214756.000000,-2.383148,-1.662299,1.077729,-1.384481,1.765056,1.129983,-0.561211,0.488932,0.014895,0.804591,-0.388034,-0.392111,0.759959,-0.136344,-8.511004,28.533978,-9.047440,-5.054750,-0.060946,0.928451,-0.103593,0.000000,0.000000,0.000000,0.000000,0.000000,0.000000
12214757.000000,-2.382660,-1.662284,1.078543,-1.384856,1.764665,1.130724,-0.561346,0.495235,0.016174,0.810343,-0.381943,-0.389932,0.750263,-0.135109,-8.360248,28.557781,-9.293411,-5.205507,-0.037142,1.006271,-0.116410,0.000000,0.000000,0.000000,0.000000,0.000000,0.000000
12214758.000000,-2.382190,-1.662283,1.079361,-1.385223,1.764277,1.131491,-0.561482,0.485738,0.012662,0.806975,-0.372991,-0.387612,0.755541,-0.134331,-8.015094,29.045757,-9.785355,-5.427675,-0.013339,1.006271,-0.110001,0.000000,0.000000,0.000000,0.000000,0.000000,0.000000
12214759.000000,-2.381712,-1.662271,1.080158,-1.385596,1.763901,1.132247,-0.561614,0.479033,0.012758,0.816955,-0.370677,-0.383574,0.758445,-0.136859,-7.594561,29.585308,-10.594681,-5.475282,-0.055453,1.052047,-0.155778,0.000000,0.000000,0.000000,0.000000,0.000000,0.000000
12214760.000000,-2.381235,-1.662263,1.080960,-1.385979,1.763522,1.133002,-0.561758,0.479297,0.011494,0.808823,-0.370868,-0.382815,0.752696,-0.143153,-7.150225,30.370831,-11.550797,-5.399904,-0.037142,1.136276,-0.110001,0.000000,0.000000,0.000000,0.000000,0.000000,0.000000
12214761.000000,-2.380744,-1.662251,1.081753,-1.386365,1.763137,1.133770,-0.561899,0.479110,0.009666,0.798865,-0.374988,-0.385438,0.768469,-0.138978,-6.701922,31.227764,-12.558487,-5.304689,0.088285,1.240646,-0.149369,0.000000,0.000000,0.000000,0.000000,0.000000,0.000000
12214762.000000,-2.380255,-1.662231,1.082523,-1.386765,1.762769,1.134531,-0.562039,0.478973,0.008495,0.793289,-0.380572,-0.388292,0.767479,-0.138728,-6.233782,31.985516,-13.391617,-4.955568,0.154203,1.305648,-0.155778,0.000000,0.000000,0.000000,0.000000,0.000000,0.000000
12214763.000000,-2.379771,-1.662202,1.083305,-1.387162,1.762389,1.135300,-0.562188,0.478652,0.010979,0.790596,-0.383647,-0.386961,0.757370,-0.138926,-5.860857,32.620281,-14.327896,-4.757204,0.195402,1.318465,-0.103593,0.000000,0.000000,0.000000,0.000000,0.000000,0.000000
12214764.000000,-2.379281,-1.662176,1.084095,-1.387550,1.762003,1.136042,-0.562323,0.475311,0.013901,0.789582,-0.386005,-0.384466,0.753850,-0.140726,-5.464129,33.207439,-15.137222,-4.562807,0.243009,1.402694,-0.149369,0.000000,0.000000,0.000000,0.000000,0.000000,0.000000
12214765.000000,-2.378801,-1.662147,1.084881,-1.387950,1.761627,1.136800,-0.562467,0.479664,0.017832,0.791390,-0.391625,-0.382664,0.751234,-0.138916,-5.142779,33.723186,-15.871170,-4.412050,0.243009,1.474105,-0.142960,0.000000,0.000000,0.000000,0.000000,0.000000,0.000000
12214766.000000,-2.378324,-1.662118,1.085675,-1.388336,1.761234,1.137558,-0.562611,0.475062,0.021871,0.793382,-0.395719,-0.387160,0.753103,-0.137517,-4.746050,34.163555,-16.462296,-4.340639,0.320829,1.578475,-0.136552,0.000000,0.000000,0.000000,0.000000,0.000000,0.000000
12214767.000000,-2.377846,-1.662093,1.086472,-1.388723,1.760840,1.138285,-0.562742,0.468085,0.022189,0.799369,-0.396033,-0.385507,0.747779,-0.135199,-4.400897,34.580120,-17.025650,-4.364442,0.351041,1.741439,-0.163102,0.000000,0.000000,0.000000,0.000000,0.000000,0.000000
12214768.000000,-2.377378,-1.662069,1.087286,-1.389114,1.760450,1.139028,-0.562882,0.465916,0.023019,0.803866,-0.392922,-0.383479,0.739935,-0.138949,-4.127154,34.972881,-17.589005,-4.412050,0.386747,1.832076,-0.169511,0.000000,0.000000,0.000000,0.000000,0.000000,0.000000
12214769.000000,-2.376901,-1.662052,1.088119,-1.389501,1.760056,1.139777,-0.563025,0.466383,0.019010,0.809011,-0.394500,-0.387779,0.744675,-0.138691,-3.904986,35.413250,-18.156326,-4.439821,0.446256,1.812850,-0.136552,0.000000,0.000000,0.000000,0.000000,0.000000,0.000000
12214770.000000,-2.376426,-1.662042,1.088948,-1.389885,1.759675,1.140533,-0.563157,0.478404,0.016006,0.816817,-0.388389,-0.388987,0.743966,-0.135735,-3.805804,35.853619,-18.743484,-4.610414,0.386747,1.649886,-0.169511,0.000000,0.000000,0.000000,0.000000,0.000000,0.000000
12214771.000000,-2.375952,-1.662043,1.089795,-1.390267,1.759287,1.141300,-0.563297,0.472614,0.008810,0.824165,-0.388394,-0.385962,0.746343,-0.136367,-3.659014,36.365398,-19.259232,-4.784975,0.381254,1.500655,-0.122819,0.000000,0.000000,0.000000,0.000000,0.000000,0.000000
12214772.000000,-2.375484,-1.662053,1.090634,-1.390637,1.758903,1.142031,-0.563430,0.469175,0.001807,0.831067,-0.383052,-0.386090,0.746081,-0.139182,-3.508257,36.952557,-19.751175,-5.054750,0.344633,1.546432,-0.142960,0.000000,0.000000,0.000000,0.000000,0.000000,0.000000
12214773.000000,-2.375018,-1.662073,1.091481,-1.391009,1.758514,1.142754,-0.563568,0.467178,-0.004410,0.833112,-0.382241,-0.389264,0.735877,-0.136852,-3.409075,37.591290,-20.068558,-5.304689,0.351041,1.682845,-0.130143,0.000000,0.000000,0.000000,0.000000,0.000000,0.000000
12214774.000000,-2.374548,-1.662098,1.092326,-1.391369,1.758126,1.143468,-0.563703,0.467355,-0.011773,0.834728,-0.375738,-0.385959,0.740480,-0.136411,-3.309893,38.226055,-20.266922,-5.574464,0.374845,1.812850,-0.110001,0.000000,0.000000,0.000000,0.000000,0.000000,0.000000
12214775.000000,-2.374075,-1.662129,1.093162,-1.391724,1.757751,1.144194,-0.563829,0.475770,-0.016011,0.833366,-0.367107,-0.385678,0.732344,-0.133841,-3.286089,38.813213,-20.461319,-5.872011,0.410551,1.890670,-0.149369,0.000000,0.000000,0.000000,0.000000,0.000000,0.000000
12214776.000000,-2.373605,-1.662164,1.094001,-1.392087,1.757363,1.144940,-0.563959,0.477686,-0.022338,0.828123,-0.363038,-0.383721,0.733733,-0.132524,-3.337664,39.400372,-20.560501,-6.070375,0.428861,1.865035,-0.169511,0.000000,0.000000,0.000000,0.000000,0.000000,0.000000
12214777.000000,-2.373120,-1.662201,1.094822,-1.392432,1.756975,1.145672,-0.564088,0.480549,-0.025403,0.823989,-0.355966,-0.383567,0.736374,-0.133561,-3.536028,39.916119,-20.512894,-6.316347,0.470060,1.800033,-0.163102,0.000000,0.000000,0.000000,0.000000,0.000000,0.000000
12214778.000000,-2.372647,-1.662241,1.095664,-1.392791,1.756596,1.146411,-0.564219,0.477385,-0.034832,0.827755,-0.352635,-0.378539,0.730797,-0.133063,-3.730425,40.455669,-20.631912,-6.439332,0.506681,1.779891,-0.169511,0.000000,0.000000,0.000000,0.000000,0.000000,0.000000
12214779.000000,-2.372166,-1.662280,1.096491,-1.393142,1.756214,1.147152,-0.564350,0.478335,-0.034299,0.822046,-0.353184,-0.376899,0.744781,-0.132141,-3.928790,40.943645,-20.437515,-6.463136,0.494779,1.800033,-0.188737,0.000000,0.000000,0.000000,0.000000,0.000000,0.000000
12214780.000000,-2.371682,-1.662318,1.097315,-1.393485,1.755843,1.147874,-0.564489,0.480976,-0.034966,0.826156,-0.351931,-0.372886,0.736952,-0.130259,-4.154925,41.336407,-20.389908,-6.685304,0.500272,1.825668,-0.116410,0.000000,0.000000,0.000000,0.000000,0.000000,0.000000
12214781.000000,-2.371203,-1.662350,1.098153,-1.393830,1.755478,1.148623,-0.564611,0.480978,-0.033966,0.833298,-0.349164,-0.362991,0.737381,-0.128566,-4.349322,41.653790,-20.362137,-6.859865,0.452665,1.767074,-0.188737,0.000000,0.000000,0.000000,0.000000,0.000000,0.000000
12214782.000000,-2.370723,-1.662379,1.098998,-1.394152,1.755119,1.149358,-0.564743,0.477412,-0.032427,0.836813,-0.341873,-0.358365,0.738370,-0.130360,-4.547686,41.923565,-20.389908,-7.256593,0.362943,1.702071,-0.169511,0.000000,0.000000,0.000000,0.000000,0.000000,0.000000
12214783.000000,-2.370248,-1.662406,1.099819,-1.394489,1.754755,1.150101,-0.564875,0.470348,-0.030386,0.835828,-0.336761,-0.358500,0.734963,-0.130331,-4.698443,42.141766,-20.290726,-7.478761,0.344633,1.624252,-0.169511,0.000000,0.000000,0.000000,0.000000,0.000000,0.000000
12214784.000000,-2.369759,-1.662432,1.100663,-1.394810,1.754396,1.150836,-0.565004,0.474709,-0.028672,0.838532,-0.335994,-0.355924,0.727893,-0.130525,-4.995989,42.340130,-20.389908,-7.776308,0.297025,1.670028,-0.188737,0.000000,0.000000,0.000000,0.000000,0.000000,0.000000
12214785.000000,-2.369275,-1.662447,1.101493,-1.395144,1.754041,1.151556,-0.565132,0.475209,-0.024570,0.837452,-0.334566,-0.356230,0.721871,-0.127967,-5.265765,42.411541,-20.437515,-7.923097,0.267728,1.754256,-0.142960,0.000000,0.000000,0.000000,0.000000,0.000000,0.000000
12214786.000000,-2.368802,-1.662472,1.102333,-1.395468,1.753676,1.152296,-0.565257,0.475857,-0.026949,0.841278,-0.328381,-0.363549,0.723465,-0.129035,-5.464129,42.558331,-20.536697,-8.145266,0.315336,1.767074,-0.136552,0.000000,0.000000,0.000000,0.000000,0.000000,0.000000
12214787.000000,-2.368320,-1.662494,1.103173,-1.395782,1.753318,1.153025,-0.565377,0.473064,-0.024455,0.839325,-0.327414,-0.362528,0.728224,-0.129404,-5.714068,42.657513,-20.560501,-8.367434,0.332731,1.714889,-0.149369,0.000000,0.000000,0.000000,0.000000,0.000000,0.000000
12214788.000000,-2.367844,-1.662510,1.104010,-1.396098,1.752969,1.153761,-0.565497,0.483286,-0.023733,0.843939,-0.320923,-0.364064,0.724941,-0.129718,-5.884661,42.657513,-20.731094,-8.541994,0.362943,1.721298,-0.175919,0.000000,0.000000,0.000000,0.000000,0.000000,0.000000
12214789.000000,-2.367365,-1.662526,1.104857,-1.396407,1.752618,1.154490,-0.565625,0.478551,-0.020310,0.845058,-0.319186,-0.362538,0.717953,-0.131357,-6.083025,42.657513,-20.905655,-8.740358,0.356534,1.832076,-0.142960,0.000000,0.000000,0.000000,0.000000,0.000000,0.000000
12214790.000000,-2.366880,-1.662553,1.105686,-1.396710,1.752265,1.155205,-0.565747,0.480368,-0.023318,0.845690,-0.313840,-0.355968,0.717178,-0.131959,-6.281390,42.756695,-20.977066,-8.962526,0.320829,1.844894,-0.136552,0.000000,0.000000,0.000000,0.000000,0.000000,0.000000
12214791.000000,-2.366412,-1.662572,1.106525,-1.397007,1.751921,1.155936,-0.565865,0.480291,-0.020738,0.845984,-0.307148,-0.351308,0.714043,-0.130113,-6.356768,42.780499,-21.123856,-9.283876,0.303434,1.877853,-0.188737,0.000000,0.000000,0.000000,0.000000,0.000000,0.000000
12214792.000000,-2.365942,-1.662591,1.107375,-1.397306,1.751583,1.156655,-0.565994,0.471941,-0.018342,0.850495,-0.308945,-0.349463,0.732144,-0.132196,-6.380572,42.780499,-21.369827,-9.482241,0.243009,1.923629,-0.149369,0.000000,0.000000,0.000000,0.000000,0.000000,0.000000
12214793.000000,-2.365479,-1.662613,1.108206,-1.397603,1.751248,1.157372,-0.566117,0.478049,-0.018234,0.848017,-0.303128,-0.343994,0.720733,-0.128189,-6.356768,42.851910,-21.516617,-9.704409,0.147794,2.014266,-0.130143,0.000000,0.000000,0.000000,0.000000,0.000000,0.000000
12214794.000000,-2.365024,-1.662638,1.109046,-1.397899,1.750907,1.158109,-0.566235,0.468478,-0.018159,0.846999,-0.299664,-0.337423,0.720630,-0.123665,-6.257586,42.927288,-21.615799,-9.898806,0.135892,1.962081,-0.155778,0.000000,0.000000,0.000000,0.000000,0.000000,0.000000
12214795.000000,-2.364573,-1.662658,1.109875,-1.398182,1.750580,1.158833,-0.566355,0.456388,-0.016876,0.847851,-0.296492,-0.336209,0.721937,-0.125412,-6.059222,42.951092,-21.687210,-10.247927,0.076383,1.890670,-0.149369,0.000000,0.000000,0.000000,0.000000,0.000000,0.000000
12214796.000000,-2.364139,-1.662675,1.110711,-1.398475,1.750254,1.159566,-0.566472,0.446281,-0.014983,0.844475,-0.293407,-0.335620,0.719912,-0.121485,-5.785479,42.927288,-21.738785,-10.470095,0.022367,1.877853,-0.175919,0.000000,0.000000,0.000000,0.000000,0.000000,0.000000
12214797.000000,-2.363699,-1.662687,1.111547,-1.398759,1.749919,1.160292,-0.566594,0.446345,-0.015172,0.835641,-0.291018,-0.330757,0.721675,-0.124915,-5.563311,42.828106,-21.714981,-10.716066,-0.001437,1.909896,-0.155778,0.000000,0.000000,0.000000,0.000000,0.000000,0.000000
12214798.000000,-2.363264,-1.662707,1.112378,-1.399052,1.749588,1.161016,-0.566722,0.438720,-0.018363,0.835039,-0.291661,-0.329031,0.724939,-0.128307,-5.218157,42.851910,-21.762589,-10.862856,0.004056,1.897079,-0.116410,0.000000,0.000000,0.000000,0.000000,0.000000,0.000000
12214799.000000,-2.362841,-1.662719,1.113213,-1.399344,1.749262,1.161750,-0.566841,0.434227,-0.015269,0.834006,-0.292620,-0.327038,0.722481,-0.127286,-4.944415,42.780499,-21.762589,-10.989809,-0.007845,1.858627,-0.163102,0.000000,0.000000,0.000000,0.000000,0.000000,0.000000
12214800.000000,-2.362422,-1.662740,1.114062,-1.399639,1.748930,1.162468,-0.566962,0.431810,-0.018376,0.836037,-0.298080,-0.327275,0.718174,-0.129207,-4.646868,42.804302,-21.861771,-10.914431,-0.043551,1.786300,-0.163102,0.000000,0.000000,0.000000,0.000000,0.000000,0.000000
12214801.000000,-2.362009,-1.662753,1.114900,-1.399943,1.748594,1.163202,-0.567084,0.437383,-0.015882,0.832828,-0.301309,-0.327298,0.722577,-0.130560,-4.325518,42.756695,-22.079971,-10.815248,-0.013339,1.793624,-0.149369,0.000000,0.000000,0.000000,0.000000,0.000000,0.000000
12214802.000000,-2.361591,-1.662773,1.115753,-1.400244,1.748267,1.163934,-0.567208,0.431325,-0.016286,0.835551,-0.306436,-0.326343,0.724866,-0.125808,-4.079546,42.804302,-22.302139,-10.668459,0.004056,1.812850,-0.142960,0.000000,0.000000,0.000000,0.000000,0.000000,0.000000
12214803.000000,-2.361183,-1.662790,1.116585,-1.400563,1.747942,1.164650,-0.567331,0.420311,-0.015810,0.822701,-0.311395,-0.326082,0.725433,-0.123497,-3.730425,42.828106,-22.472733,-10.394716,0.027860,1.858627,-0.122819,0.000000,0.000000,0.000000,0.000000,0.000000,0.000000
12214804.000000,-2.360782,-1.662812,1.117441,-1.400885,1.747612,1.165371,-0.567448,0.414008,-0.016854,0.834974,-0.313369,-0.333521,0.726378,-0.119585,-3.436846,42.903484,-22.817886,-10.172548,0.022367,1.988631,-0.155778,0.000000,0.000000,0.000000,0.000000,0.000000,0.000000
12214805.000000,-2.360377,-1.662836,1.118289,-1.401201,1.747273,1.166093,-0.567571,0.408297,-0.018503,0.839628,-0.311701,-0.331175,0.723021,-0.119256,-3.163104,43.026470,-23.087662,-9.950380,0.064481,2.014266,-0.122819,0.000000,0.000000,0.000000,0.000000,0.000000,0.000000
12214806.000000,-2.359972,-1.662868,1.119128,-1.401531,1.746943,1.166832,-0.567685,0.412522,-0.021115,0.840937,-0.316735,-0.333229,0.722722,-0.117954,-2.917132,43.220867,-23.309830,-9.704409,0.129484,1.995040,-0.122819,0.000000,0.000000,0.000000,0.000000,0.000000,0.000000
12214807.000000,-2.359585,-1.662900,1.119975,-1.401868,1.746609,1.167556,-0.567797,0.403299,-0.023343,0.838835,-0.321108,-0.336804,0.719846,-0.114800,-2.568011,43.439068,-23.480423,-9.454470,0.189908,2.027084,-0.169511,0.000000,0.000000,0.000000,0.000000,0.000000,0.000000
12214808.000000,-2.359191,-1.662926,1.120814,-1.402208,1.746264,1.168275,-0.567924,0.394771,-0.024617,0.856078,-0.328181,-0.340280,0.717547,-0.116198,-2.322039,43.514446,-23.627213,-9.160891,0.267728,2.060043,-0.130143,0.000000,0.000000,0.000000,0.000000,0.000000,0.000000
12214809.000000,-2.358804,-1.662961,1.121666,-1.402556,1.745922,1.169001,-0.568036,0.392110,-0.029065,0.855015,-0.330927,-0.338060,0.716230,-0.113874,-2.048296,43.732647,-23.849380,-8.934755,0.351041,2.060043,-0.175919,0.000000,0.000000,0.000000,0.000000,0.000000,0.000000
12214810.000000,-2.358422,-1.662994,1.122512,-1.402902,1.745595,1.169713,-0.568152,0.386694,-0.031176,0.851517,-0.331213,-0.331369,0.728438,-0.112877,-1.679339,43.907207,-23.896988,-8.688784,0.344633,2.007858,-0.202470,0.000000,0.000000,0.000000,0.000000,0.000000,0.000000
12214811.000000,-2.358042,-1.663028,1.123344,-1.403266,1.745265,1.170438,-0.568270,0.381011,-0.032753,0.850274,-0.338685,-0.337651,0.728752,-0.109969,-1.330218,44.077801,-23.972366,-8.391237,0.339139,1.942855,-0.163102,0.000000,0.000000,0.000000,0.000000,0.000000,0.000000
12214812.000000,-2.357675,-1.663063,1.124190,-1.403634,1.744926,1.171165,-0.568388,0.376326,-0.033214,0.847451,-0.343693,-0.337368,0.726496,-0.111281,-0.961260,44.224590,-24.019974,-8.121462,0.332731,1.890670,-0.163102,0.000000,0.000000,0.000000,0.000000,0.000000,0.000000
12214813.000000,-2.357303,-1.663097,1.125038,-1.403996,1.744590,1.171874,-0.568502,0.368954,-0.033071,0.845271,-0.349479,-0.337619,0.718397,-0.111814,-0.612139,44.347576,-24.095352,-7.899293,0.327238,1.903487,-0.149369,0.000000,0.000000,0.000000,0.000000,0.000000,0.000000
12214814.000000,-2.356930,-1.663122,1.125865,-1.404364,1.744266,1.172587,-0.568617,0.370001,-0.030278,0.841971,-0.352619,-0.328852,0.719282,-0.111611,-0.366168,44.347576,-23.972366,-7.700929,0.327238,1.962081,-0.169511,0.000000,0.000000,0.000000,0.000000,0.000000,0.000000
12214815.000000,-2.356554,-1.663144,1.126702,-1.404735,1.743930,1.173316,-0.568736,0.369341,-0.027177,0.838285,-0.365252,-0.331501,0.719023,-0.113056,-0.191607,44.296001,-23.948563,-7.403383,0.344633,1.962081,-0.142960,0.000000,0.000000,0.000000,0.000000,0.000000,0.000000
12214816.000000,-2.356185,-1.663172,1.127539,-1.405111,1.743595,1.174039,-0.568844,0.367006,-0.030241,0.844637,-0.364954,-0.331877,0.726018,-0.112780,0.030561,44.323772,-24.071548,-7.205019,0.422452,1.865035,-0.149369,0.000000,0.000000,0.000000,0.000000,0.000000,0.000000
12214817.000000,-2.355812,-1.663190,1.128377,-1.405491,1.743264,1.174758,-0.568952,0.368623,-0.023282,0.844623,-0.366870,-0.331065,0.718491,-0.111091,0.129743,44.224590,-24.119156,-6.935243,0.476469,1.819259,-0.196061,0.000000,0.000000,0.000000,0.000000,0.000000,0.000000
12214818.000000,-2.355433,-1.663205,1.129220,-1.405877,1.742939,1.175465,-0.569066,0.372623,-0.021055,0.841617,-0.370804,-0.326511,0.718661,-0.109101,0.177350,44.101604,-24.119156,-6.685304,0.464567,1.909896,-0.142960,0.000000,0.000000,0.000000,0.000000,0.000000,0.000000
12214819.000000,-2.355068,-1.663221,1.130049,-1.406267,1.742604,1.176186,-0.569177,0.378659,-0.020169,0.845459,-0.373196,-0.331860,0.717549,-0.109721,0.304304,44.002422,-24.218338,-6.415529,0.518583,1.942855,-0.155778,0.000000,0.000000,0.000000,0.000000,0.000000,0.000000
12214820.000000,-2.354693,-1.663243,1.130896,-1.406656,1.742272,1.176918,-0.569287,0.377865,-0.021652,0.837620,-0.385008,-0.334030,0.713670,-0.108400,0.328107,44.002422,-24.388931,-6.193361,0.530485,1.903487,-0.196061,0.000000,0.000000,0.000000,0.000000,0.000000,0.000000
12214821.000000,-2.354315,-1.663257,1.131725,-1.407052,1.741948,1.177630,-0.569404,0.377507,-0.017421,0.835823,-0.386674,-0.328449,0.716529,-0.111797,0.375715,43.907207,-24.535721,-5.971193,0.470060,1.962081,-0.149369,0.000000,0.000000,0.000000,0.000000,0.000000,0.000000
12214822.000000,-2.353941,-1.663271,1.132562,-1.407454,1.741629,1.178344,-0.569516,0.377049,-0.017851,0.839281,-0.393897,-0.330438,0.707451,-0.111799,0.403486,43.831829,-24.611099,-5.749025,0.458158,2.039901,-0.163102,0.000000,0.000000,0.000000,0.000000,0.000000,0.000000
12214823.000000,-2.353565,-1.663284,1.133406,-1.407841,1.741296,1.179057,-0.569626,0.374987,-0.018272,0.839956,-0.393851,-0.323212,0.704777,-0.111865,0.474897,43.760418,-24.829300,-5.649843,0.476469,2.047225,-0.175919,0.000000,0.000000,0.000000,0.000000,0.000000,0.000000
12214824.000000,-2.353186,-1.663293,1.134232,-1.408238,1.740969,1.179778,-0.569738,0.380469,-0.014927,0.837283,-0.392376,-0.327032,0.710264,-0.112781,0.474897,43.661236,-24.928482,-5.475282,0.524076,2.007858,-0.163102,0.000000,0.000000,0.000000,0.000000,0.000000,0.000000
12214825.000000,-2.352812,-1.663304,1.135058,-1.408634,1.740646,1.180505,-0.569850,0.377420,-0.012905,0.826753,-0.394146,-0.322500,0.711063,-0.107363,0.427289,43.585857,-24.904678,-5.328493,0.571683,2.020675,-0.182328,0.000000,0.000000,0.000000,0.000000,0.000000,0.000000
12214826.000000,-2.352438,-1.663309,1.135882,-1.409025,1.740318,1.181218,-0.569959,0.375078,-0.013005,0.826610,-0.395521,-0.323572,0.712187,-0.109481,0.474897,43.439068,-24.976089,-5.177736,0.613798,2.014266,-0.169511,0.000000,0.000000,0.000000,0.000000,0.000000,0.000000
12214827.000000,-2.352067,-1.663320,1.136707,-1.409411,1.739992,1.181938,-0.570061,0.374993,-0.012382,0.825487,-0.390471,-0.324156,0.709500,-0.104314,0.502668,43.391460,-24.976089,-5.130128,0.649503,1.981307,-0.208878,0.000000,0.000000,0.000000,0.000000,0.000000,0.000000
12214828.000000,-2.351695,-1.663330,1.137522,-1.409787,1.739665,1.182662,-0.570168,0.371721,-0.011687,0.814905,-0.384565,-0.319957,0.725182,-0.102819,0.550275,43.343853,-24.757889,-5.078554,0.703519,1.988631,-0.196061,0.000000,0.000000,0.000000,0.000000,0.000000,0.000000
12214829.000000,-2.351313,-1.663332,1.138331,-1.410177,1.739358,1.183369,-0.570275,0.383002,-0.009353,0.810556,-0.384898,-0.316355,0.717641,-0.106031,0.451093,43.220867,-24.682510,-4.955568,0.655912,2.027084,-0.182328,0.000000,0.000000,0.000000,0.000000,0.000000,0.000000
12214830.000000,-2.350945,-1.663335,1.139147,-1.410565,1.739036,1.184099,-0.570381,0.379873,-0.008358,0.802832,-0.385295,-0.316916,0.711858,-0.108317,0.502668,43.121685,-24.583328,-4.832582,0.667814,2.020675,-0.182328,0.000000,0.000000,0.000000,0.000000,0.000000,0.000000
12214831.000000,-2.350565,-1.663336,1.139971,-1.410947,1.738724,1.184812,-0.570491,0.379041,-0.006538,0.809215,-0.384853,-0.310615,0.717410,-0.115063,0.474897,42.974895,-24.611099,-4.733400,0.608304,2.020675,-0.142960,0.000000,0.000000,0.000000,0.000000,0.000000,0.000000
12214832.000000,-2.350188,-1.663336,1.140774,-1.411332,1.738420,1.185547,-0.570591,0.377385,-0.005275,0.810539,-0.381302,-0.306376,0.717730,-0.112761,0.375715,42.828106,-24.535721,-4.610414,0.578092,2.001449,-0.188737,0.000000,0.000000,0.000000,0.000000,0.000000,0.000000
12214833.000000,-2.349813,-1.663337,1.141593,-1.411716,1.738125,1.186286,-0.570702,0.377505,-0.002352,0.806503,-0.379511,-0.300755,0.723641,-0.114488,0.351911,42.728924,-24.611099,-4.487428,0.589994,1.955673,-0.142960,0.000000,0.000000,0.000000,0.000000,0.000000,0.000000
12214835.000000,-2.349067,-1.663340,1.143224,-1.412492,1.737520,1.187727,-0.570905,0.373193,-0.002977,0.813273,-0.385369,-0.296789,0.711630,-0.106968,0.351911,42.510723,-24.904678,-4.241457,0.613798,2.053634,-0.202470,0.000000,0.000000,0.000000,0.000000,0.000000,0.000000
12214836.000000,-2.348695,-1.663341,1.144039,-1.412869,1.737217,1.188437,-0.571017,0.367843,-0.003090,0.808853,-0.384005,-0.293559,0.711329,-0.111402,0.427289,42.387737,-24.952286,-4.189882,0.661405,2.092086,-0.149369,0.000000,0.000000,0.000000,0.000000,0.000000,0.000000
12214837.000000,-2.348331,-1.663342,1.144841,-1.413250,1.736930,1.189162,-0.571116,0.370650,-0.000142,0.798985,-0.382729,-0.291809,0.710035,-0.110668,0.451093,42.264751,-25.051468,-4.118471,0.685209,2.053634,-0.182328,0.000000,0.000000,0.000000,0.000000,0.000000,0.000000
12214838.000000,-2.347973,-1.663350,1.145647,-1.413638,1.736633,1.189876,-0.571216,0.364783,-0.000814,0.794732,-0.384903,-0.294594,0.712897,-0.105652,0.649457,42.264751,-25.051468,-3.943910,0.691617,2.137862,-0.221696,0.000000,0.000000,0.000000,0.000000,0.000000,0.000000
12214839.000000,-2.347603,-1.663356,1.146443,-1.414015,1.736334,1.190575,-0.571318,0.365844,-0.001639,0.795783,-0.385087,-0.290290,0.701882,-0.103897,0.697065,42.288555,-25.126846,-3.820925,0.655912,2.209274,-0.196061,0.000000,0.000000,0.000000,0.000000,0.000000,0.000000
12214840.000000,-2.347248,-1.663356,1.147237,-1.414397,1.736041,1.191284,-0.571424,0.364777,-0.000383,0.793727,-0.380900,-0.289598,0.698866,-0.102795,0.871625,42.240948,-25.003860,-3.721742,0.685209,2.235824,-0.163102,0.000000,0.000000,0.000000,0.000000,0.000000,0.000000
12214841.000000,-2.346894,-1.663364,1.148031,-1.414767,1.735756,1.191990,-0.571528,0.355966,-0.000559,0.792443,-0.378395,-0.286315,0.715694,-0.100151,1.093793,42.240948,-24.880875,-3.622560,0.655912,2.163497,-0.175919,0.000000,0.000000,0.000000,0.000000,0.000000,0.000000
12214842.000000,-2.346541,-1.663365,1.148810,-1.415143,1.735475,1.192708,-0.571631,0.358773,-0.002638,0.792804,-0.375107,-0.288981,0.717657,-0.102615,1.268354,42.193340,-24.706314,-3.570986,0.625699,2.137862,-0.196061,0.000000,0.000000,0.000000,0.000000,0.000000,0.000000
12214843.000000,-2.346197,-1.663367,1.149596,-1.415518,1.735177,1.193426,-0.571738,0.355457,-0.001635,0.788409,-0.373196,-0.287302,0.718045,-0.106863,1.514325,42.169537,-24.559525,-3.523378,0.608304,2.104903,-0.149369,0.000000,0.000000,0.000000,0.000000,0.000000,0.000000
12214844.000000,-2.345855,-1.663367,1.150369,-1.415883,1.734879,1.194135,-0.571838,0.348961,0.000348,0.798243,-0.369428,-0.287755,0.713920,-0.107242,1.788068,42.094158,-24.289749,-3.570986,0.644010,2.066451,-0.163102,0.000000,0.000000,0.000000,0.000000,0.000000,0.000000
12214845.000000,-2.345510,-1.663369,1.151152,-1.416257,1.734586,1.194861,-0.571933,0.346506,-0.000012,0.797797,-0.368297,-0.293478,0.722245,-0.102394,1.986432,42.094158,-24.095352,-3.523378,0.698026,1.962081,-0.208878,0.000000,0.000000,0.000000,0.000000,0.000000,0.000000
12214846.000000,-2.345168,-1.663360,1.151937,-1.416627,1.734300,1.195590,-0.572038,0.340878,0.003800,0.788244,-0.370776,-0.294760,0.733260,-0.106481,2.184797,41.923565,-23.873184,-3.499574,0.715421,1.884261,-0.175919,0.000000,0.000000,0.000000,0.000000,0.000000,0.000000
12214847.000000,-2.344825,-1.663352,1.152701,-1.417000,1.734011,1.196317,-0.572139,0.339141,0.004716,0.779044,-0.370257,-0.300489,0.732388,-0.103411,2.359357,41.824383,-23.651016,-3.448000,0.739225,1.793624,-0.175919,0.000000,0.000000,0.000000,0.000000,0.000000,0.000000
12214848.000000,-2.344483,-1.663343,1.153486,-1.417369,1.733726,1.197049,-0.572237,0.340585,0.012219,0.778620,-0.374199,-0.294092,0.734241,-0.100354,2.482343,41.701397,-23.603409,-3.475771,0.715421,1.727706,-0.196061,0.000000,0.000000,0.000000,0.000000,0.000000,0.000000
12214849.000000,-2.344132,-1.663328,1.154259,-1.417740,1.733449,1.197778,-0.572341,0.343609,0.012585,0.774236,-0.374793,-0.288604,0.735704,-0.104738,2.482343,41.530804,-23.432816,-3.348818,0.649503,1.676437,-0.169511,0.000000,0.000000,0.000000,0.000000,0.000000,0.000000
12214850.000000,-2.343792,-1.663314,1.155016,-1.418118,1.733175,1.198511,-0.572437,0.341451,0.015765,0.775036,-0.376963,-0.280793,0.734843,-0.102040,2.553754,41.360210,-23.210648,-3.102846,0.655912,1.689254,-0.175919,0.000000,0.000000,0.000000,0.000000,0.000000,0.000000
12214851.000000,-2.343453,-1.663297,1.155798,-1.418478,1.732906,1.199237,-0.572534,0.341021,0.016213,0.776510,-0.377176,-0.274148,0.722930,-0.095617,2.605329,41.138042,-23.234451,-3.102846,0.589994,1.747848,-0.169511,0.000000,0.000000,0.000000,0.000000,0.000000,0.000000
12214852.000000,-2.343109,-1.663278,1.156561,-1.418847,1.732624,1.199964,-0.572626,0.340021,0.016849,0.778549,-0.369997,-0.272894,0.725164,-0.094841,2.680707,40.896038,-23.186844,-2.979860,0.625699,1.754256,-0.182328,0.000000,0.000000,0.000000,0.000000,0.000000,0.000000
12214853.000000,-2.342765,-1.663261,1.157333,-1.419204,1.732347,1.200697,-0.572724,0.341112,0.016714,0.781468,-0.362891,-0.271447,0.718854,-0.095916,2.680707,40.673870,-23.135269,-3.055238,0.644010,1.682845,-0.149369,0.000000,0.000000,0.000000,0.000000,0.000000,0.000000
12214854.000000,-2.342419,-1.663243,1.158108,-1.419561,1.732072,1.201421,-0.572821,0.342273,0.015903,0.780964,-0.361295,-0.266151,0.714918,-0.100135,2.728315,40.479473,-23.111465,-3.003664,0.685209,1.624252,-0.169511,0.000000,0.000000,0.000000,0.000000,0.000000,0.000000
12214855.000000,-2.342074,-1.663223,1.158872,-1.419918,1.731799,1.202136,-0.572913,0.350351,0.018568,0.780891,-0.360740,-0.274013,0.716583,-0.102024,2.680707,40.281109,-23.210648,-3.027467,0.781339,1.741439,-0.208878,0.000000,0.000000,0.000000,0.000000,0.000000,0.000000
12214856.000000,-2.341723,-1.663202,1.159641,-1.420276,1.731525,1.202847,-0.573013,0.350803,0.020999,0.774498,-0.358450,-0.275104,0.705786,-0.100808,2.553754,40.062908,-23.258255,-3.027467,0.757535,1.897079,-0.208878,0.000000,0.000000,0.000000,0.000000,0.000000,0.000000
12214857.000000,-2.341374,-1.663186,1.160398,-1.420626,1.731258,1.203563,-0.573108,0.345504,0.019853,0.771785,-0.359640,-0.270879,0.705383,-0.095069,2.553754,39.963726,-23.234451,-3.027467,0.721830,1.871444,-0.196061,0.000000,0.000000,0.000000,0.000000,0.000000,0.000000
12214858.000000,-2.341029,-1.663165,1.161162,-1.420969,1.731000,1.204287,-0.573205,0.341660,0.020924,0.772736,-0.350133,-0.266695,0.706025,-0.091220,2.506147,39.793133,-23.210648,-3.202028,0.649503,1.779891,-0.182328,0.000000,0.000000,0.000000,0.000000,0.000000,0.000000
12214859.000000,-2.340673,-1.663145,1.161941,-1.421309,1.730751,1.205008,-0.573299,0.341759,0.021282,0.774340,-0.346913,-0.257154,0.723167,-0.092528,2.430768,39.646343,-23.286026,-3.225832,0.542386,1.773483,-0.169511,0.000000,0.000000,0.000000,0.000000,0.000000,0.000000
12214860.000000,-2.340315,-1.663122,1.162695,-1.421654,1.730494,1.205719,-0.573390,0.351729,0.022732,0.769149,-0.343620,-0.264840,0.718902,-0.091788,2.260175,39.451946,-23.234451,-3.301210,0.482877,1.877853,-0.196061,0.000000,0.000000,0.000000,0.000000,0.000000,0.000000
12214861.000000,-2.339966,-1.663101,1.163451,-1.421995,1.730223,1.206443,-0.573489,0.353333,0.020028,0.759343,-0.342303,-0.261133,0.717681,-0.094648,2.160993,39.281353,-23.016251,-3.325014,0.494779,1.877853,-0.142960,0.000000,0.000000,0.000000,0.000000,0.000000,0.000000
12214862.000000,-2.339611,-1.663080,1.164201,-1.422333,1.729956,1.207164,-0.573577,0.353563,0.020050,0.770492,-0.342015,-0.258793,0.719781,-0.093450,2.061811,39.158367,-22.770279,-3.325014,0.535978,1.812850,-0.169511,0.000000,0.000000,0.000000,0.000000,0.000000,0.000000
12214863.000000,-2.339249,-1.663058,1.164954,-1.422664,1.729694,1.207881,-0.573666,0.358401,0.020720,0.767497,-0.338842,-0.261261,0.713972,-0.092023,1.811872,39.011578,-22.647293,-3.400392,0.559781,1.819259,-0.215287,0.000000,0.000000,0.000000,0.000000,0.000000,0.000000
12214864.000000,-2.338891,-1.663031,1.165715,-1.422984,1.729439,1.208598,-0.573766,0.358026,0.021746,0.763145,-0.334292,-0.259351,0.706138,-0.095224,1.712690,38.837017,-22.595718,-3.475771,0.518583,1.800033,-0.149369,0.000000,0.000000,0.000000,0.000000,0.000000,0.000000
12214865.000000,-2.338534,-1.663014,1.166468,-1.423305,1.729174,1.209311,-0.573848,0.354055,0.019653,0.764924,-0.326868,-0.260652,0.712742,-0.092987,1.565900,38.789410,-22.524307,-3.598757,0.512174,1.695663,-0.202470,0.000000,0.000000,0.000000,0.000000,0.000000,0.000000
12214866.000000,-2.338181,-1.662999,1.167226,-1.423623,1.728902,1.210037,-0.573941,0.352016,0.020202,0.758502,-0.322547,-0.262530,0.710255,-0.088313,1.466718,38.789410,-22.472733,-3.670168,0.554288,1.611434,-0.208878,0.000000,0.000000,0.000000,0.000000,0.000000,0.000000
12214867.000000,-2.337821,-1.662988,1.167990,-1.423938,1.728640,1.210730,-0.574043,0.350753,0.016731,0.764862,-0.319913,-0.262961,0.707922,-0.092126,1.343732,38.837017,-22.425125,-3.721742,0.559781,1.695663,-0.149369,0.000000,0.000000,0.000000,0.000000,0.000000,0.000000
12214868.000000,-2.337452,-1.662975,1.168749,-1.424256,1.728393,1.211419,-0.574135,0.359995,0.014844,0.768426,-0.317558,-0.258776,0.698572,-0.091523,1.069990,38.864788,-22.548111,-3.745546,0.500272,1.890670,-0.175919,0.000000,0.000000,0.000000,0.000000,0.000000,0.000000
12214869.000000,-2.337088,-1.662968,1.169521,-1.424558,1.728137,1.212132,-0.574232,0.359512,0.011936,0.772084,-0.316166,-0.260118,0.698383,-0.092645,0.947004,38.960003,-22.794083,-3.844728,0.494779,1.890670,-0.169511,0.000000,0.000000,0.000000,0.000000,0.000000,0.000000
12214870.000000,-2.336727,-1.662959,1.170258,-1.424857,1.727876,1.212841,-0.574323,0.358797,0.011147,0.759355,-0.310346,-0.258777,0.698264,-0.092647,0.796247,39.011578,-22.694901,-4.090700,0.458158,1.760665,-0.182328,0.000000,0.000000,0.000000,0.000000,0.000000,0.000000
12214871.000000,-2.336366,-1.662949,1.171016,-1.425165,1.727611,1.213560,-0.574419,0.363074,0.010593,0.762821,-0.307155,-0.263175,0.699446,-0.093701,0.649457,39.059185,-22.770279,-4.166078,0.524076,1.682845,-0.169511,0.000000,0.000000,0.000000,0.000000,0.000000,0.000000
12214872.000000,-2.336000,-1.662946,1.171778,-1.425458,1.727361,1.214240,-0.574512,0.359101,0.008875,0.758479,-0.302461,-0.255559,0.693466,-0.093882,0.502668,39.158367,-22.817886,-4.340639,0.476469,1.812850,-0.169511,0.000000,0.000000,0.000000,0.000000,0.000000,0.000000
12214873.000000,-2.335629,-1.662946,1.172527,-1.425756,1.727112,1.214932,-0.574604,0.366310,0.006603,0.755340,-0.299711,-0.249938,0.695495,-0.093626,0.252729,39.305157,-22.817886,-4.463624,0.518583,1.949264,-0.188737,0.000000,0.000000,0.000000,0.000000,0.000000,0.000000
12214874.000000,-2.335266,-1.662945,1.173267,-1.426046,1.726854,1.215645,-0.574700,0.361719,0.005047,0.747702,-0.293939,-0.249888,0.697384,-0.094000,0.129743,39.451946,-22.524307,-4.634218,0.547880,1.909896,-0.182328,0.000000,0.000000,0.000000,0.000000,0.000000,0.000000
12214875.000000,-2.334901,-1.662949,1.174006,-1.426330,1.726599,1.216349,-0.574793,0.363355,-0.000693,0.737145,-0.289986,-0.248078,0.696764,-0.095148,-0.017047,39.670147,-22.425125,-4.784975,0.530485,1.812850,-0.155778,0.000000,0.000000,0.000000,0.000000,0.000000,0.000000
12214876.000000,-2.334538,-1.662948,1.174759,-1.426612,1.726360,1.217056,-0.574882,0.365668,0.000610,0.745986,-0.285810,-0.239253,0.694944,-0.093388,-0.144000,39.793133,-22.353714,-4.955568,0.440763,1.844894,-0.196061,0.000000,0.000000,0.000000,0.000000,0.000000,0.000000
12214877.000000,-2.334171,-1.662942,1.175507,-1.426889,1.726127,1.217760,-0.574976,0.367393,0.003412,0.743996,-0.284774,-0.236136,0.707511,-0.095639,-0.290789,39.840740,-22.278336,-5.078554,0.320829,1.779891,-0.142960,0.000000,0.000000,0.000000,0.000000,0.000000,0.000000
12214878.000000,-2.333809,-1.662947,1.176240,-1.427173,1.725885,1.218487,-0.575068,0.370480,-0.000897,0.746431,-0.284791,-0.243323,0.711045,-0.095770,-0.342364,40.015301,-22.107742,-5.153932,0.356534,1.643478,-0.130143,0.000000,0.000000,0.000000,0.000000,0.000000,0.000000
12214879.000000,-2.333452,-1.662946,1.176982,-1.427445,1.725642,1.219207,-0.575152,0.365335,0.000440,0.743363,-0.279469,-0.244395,0.717699,-0.087733,-0.489153,40.134319,-21.909378,-5.328493,0.362943,1.584884,-0.196061,0.000000,0.000000,0.000000,0.000000,0.000000,0.000000
12214880.000000,-2.333092,-1.662944,1.177721,-1.427710,1.725399,1.219915,-0.575250,0.361861,-0.000696,0.748744,-0.273076,-0.242112,0.715462,-0.092309,-0.564532,40.209698,-21.786392,-5.475282,0.320829,1.611434,-0.130143,0.000000,0.000000,0.000000,0.000000,0.000000,0.000000
12214881.000000,-2.332735,-1.662939,1.178465,-1.427981,1.725152,1.220622,-0.575339,0.360766,0.002604,0.748962,-0.271335,-0.246155,0.709230,-0.092040,-0.663714,40.233501,-21.663406,-5.598268,0.398649,1.662704,-0.149369,0.000000,0.000000,0.000000,0.000000,0.000000,0.000000
12214882.000000,-2.332373,-1.662936,1.179208,-1.428241,1.724913,1.221346,-0.575427,0.359652,0.001311,0.744280,-0.269015,-0.240458,0.704307,-0.090951,-0.735125,40.281109,-21.540421,-5.796632,0.393156,1.578475,-0.208878,0.000000,0.000000,0.000000,0.000000,0.000000,0.000000
12214883.000000,-2.332013,-1.662932,1.179945,-1.428500,1.724674,1.222073,-0.575518,0.360320,0.001391,0.731090,-0.264171,-0.242790,0.712338,-0.092760,-0.762896,40.281109,-21.492813,-5.994997,0.416959,1.429244,-0.188737,0.000000,0.000000,0.000000,0.000000,0.000000,0.000000
12214884.000000,-2.331663,-1.662925,1.180691,-1.428769,1.724438,1.222786,-0.575612,0.359246,0.005590,0.733489,-0.265283,-0.243070,0.705172,-0.089881,-0.834307,40.233501,-21.469009,-6.117982,0.416959,1.461288,-0.149369,0.000000,0.000000,0.000000,0.000000,0.000000,0.000000
12214885.000000,-2.331306,-1.662917,1.181444,-1.429041,1.724200,1.223487,-0.575701,0.361137,0.005952,0.739027,-0.269256,-0.245627,0.702806,-0.090226,-0.909686,40.162090,-21.492813,-6.117982,0.356534,1.584884,-0.169511,0.000000,0.000000,0.000000,0.000000,0.000000,0.000000
12214886.000000,-2.330948,-1.662909,1.182188,-1.429311,1.723967,1.224193,-0.575787,0.361640,0.009869,0.747166,-0.268189,-0.247913,0.707928,-0.090857,-1.032672,40.062908,-21.540421,-6.117982,0.344633,1.689254,-0.182328,0.000000,0.000000,0.000000,0.000000,0.000000,0.000000
12214887.000000,-2.330587,-1.662898,1.182936,-1.429582,1.723743,1.224920,-0.575882,0.359048,0.010588,0.744832,-0.275275,-0.234997,0.705550,-0.088482,-1.183428,39.916119,-21.540421,-6.117982,0.273221,1.676437,-0.142960,0.000000,0.000000,0.000000,0.000000,0.000000,0.000000
12214888.000000,-2.330230,-1.662892,1.183685,-1.429860,1.723518,1.225642,-0.575969,0.354012,0.009254,0.744368,-0.277632,-0.229214,0.710396,-0.089773,-1.282611,39.840740,-21.687210,-6.042604,0.195402,1.611434,-0.149369,0.000000,0.000000,0.000000,0.000000,0.000000,0.000000
12214889.000000,-2.329883,-1.662878,1.184449,-1.430127,1.723295,1.226358,-0.576052,0.353930,0.010483,0.753233,-0.272836,-0.228635,0.710656,-0.089937,-1.330218,39.670147,-21.885574,-6.094179,0.178007,1.624252,-0.175919,0.000000,0.000000,0.000000,0.000000,0.000000,0.000000
12214890.000000,-2.329538,-1.662860,1.185216,-1.430396,1.723056,1.227064,-0.576139,0.349519,0.012336,0.753195,-0.273938,-0.232235,0.708258,-0.091671,-1.231036,39.451946,-22.131546,-6.094179,0.183500,1.708480,-0.175919,0.000000,0.000000,0.000000,0.000000,0.000000,0.000000
12214891.000000,-2.329191,-1.662850,1.185960,-1.430670,1.722818,1.227764,-0.576229,0.357059,0.013215,0.744535,-0.269360,-0.233029,0.708901,-0.088952,-1.231036,39.376568,-22.155350,-6.042604,0.231107,1.806442,-0.142960,0.000000,0.000000,0.000000,0.000000,0.000000,0.000000
12214892.000000,-2.328852,-1.662840,1.186714,-1.430935,1.722571,1.228469,-0.576308,0.349569,0.013451,0.746507,-0.267382,-0.240005,0.698241,-0.088833,-1.108050,39.328960,-22.202957,-6.070375,0.344633,1.884261,-0.175919,0.000000,0.000000,0.000000,0.000000,0.000000,0.000000
12214893.000000,-2.328515,-1.662828,1.187468,-1.431209,1.722334,1.229161,-0.576397,0.342895,0.010635,0.766352,-0.268225,-0.237396,0.697403,-0.086749,-1.008868,39.281353,-22.377518,-5.994997,0.369352,1.909896,-0.142960,0.000000,0.000000,0.000000,0.000000,0.000000,0.000000
12214894.000000,-2.328181,-1.662817,1.188229,-1.431480,1.722107,1.229861,-0.576479,0.342596,0.011313,0.767537,-0.267438,-0.237651,0.698124,-0.084106,-0.885882,39.253582,-22.500504,-5.947389,0.332731,1.890670,-0.149369,0.000000,0.000000,0.000000,0.000000,0.000000,0.000000
12214895.000000,-2.327841,-1.662804,1.188983,-1.431753,1.721869,1.230578,-0.576560,0.339067,0.011827,0.759641,-0.269296,-0.238076,0.712137,-0.085310,-0.762896,39.229778,-22.472733,-5.820436,0.308927,1.767074,-0.188737,0.000000,0.000000,0.000000,0.000000,0.000000,0.000000
12214896.000000,-2.327507,-1.662800,1.189728,-1.432034,1.721635,1.231271,-0.576648,0.337797,0.007372,0.753860,-0.272905,-0.237542,0.706147,-0.088790,-0.588336,39.281353,-22.425125,-5.721254,0.285123,1.721298,-0.142960,0.000000,0.000000,0.000000,0.000000,0.000000,0.000000
12214897.000000,-2.327177,-1.662793,1.190483,-1.432317,1.721400,1.231966,-0.576729,0.336608,0.005435,0.751710,-0.276045,-0.234929,0.699361,-0.085093,-0.489153,39.281353,-22.401321,-5.598268,0.279630,1.812850,-0.149369,0.000000,0.000000,0.000000,0.000000,0.000000,0.000000
12214898.000000,-2.326846,-1.662779,1.191239,-1.432597,1.721168,1.232641,-0.576812,0.332754,0.009059,0.750999,-0.279827,-0.235543,0.694008,-0.087439,-0.441546,39.205975,-22.302139,-5.427675,0.255826,1.936446,-0.136552,0.000000,0.000000,0.000000,0.000000,0.000000,0.000000
12214899.000000,-2.326521,-1.662769,1.191990,-1.432881,1.720946,1.233340,-0.576887,0.329290,0.009097,0.755716,-0.279604,-0.232434,0.691346,-0.082089,-0.342364,39.229778,-22.325943,-5.352296,0.219205,1.942855,-0.196061,0.000000,0.000000,0.000000,0.000000,0.000000,0.000000
12214900.000000,-2.326196,-1.662762,1.192750,-1.433167,1.720707,1.234061,-0.576974,0.325202,0.008663,0.756091,-0.280500,-0.233216,0.700020,-0.082547,-0.167803,39.281353,-22.377518,-5.253114,0.291532,1.747848,-0.142960,0.000000,0.000000,0.000000,0.000000,0.000000,0.000000
12214901.000000,-2.325859,-1.662755,1.193506,-1.433456,1.720470,1.234759,-0.577053,0.327393,0.006545,0.757788,-0.281799,-0.236230,0.696770,-0.079995,-0.144000,39.281353,-22.548111,-5.130128,0.291532,1.649886,-0.163102,0.000000,0.000000,0.000000,0.000000,0.000000,0.000000
12214902.000000,-2.325539,-1.662740,1.194274,-1.433757,1.720233,1.235450,-0.577132,0.325907,0.009741,0.763914,-0.286422,-0.240260,0.692006,-0.077895,-0.068621,39.205975,-22.694901,-4.983339,0.356534,1.721298,-0.188737,0.000000,0.000000,0.000000,0.000000,0.000000,0.000000
12214903.000000,-2.325215,-1.662734,1.195042,-1.434060,1.719995,1.236117,-0.577216,0.324567,0.009226,0.767698,-0.289342,-0.233049,0.681503,-0.078322,-0.044818,39.253582,-22.817886,-4.733400,0.398649,1.897079,-0.163102,0.000000,0.000000,0.000000,0.000000,0.000000,0.000000
12214904.000000,-2.324894,-1.662730,1.195804,-1.434353,1.719765,1.236815,-0.577296,0.322260,0.005165,0.773493,-0.290578,-0.233167,0.686531,-0.077863,0.030561,39.328960,-22.988480,-4.610414,0.452665,1.930038,-0.155778,0.000000,0.000000,0.000000,0.000000,0.000000,0.000000
12214905.000000,-2.324575,-1.662731,1.196573,-1.434651,1.719537,1.237520,-0.577368,0.320621,0.004284,0.774557,-0.297812,-0.234687,0.685693,-0.075606,0.153547,39.451946,-23.163040,-4.439821,0.422452,1.897079,-0.196061,0.000000,0.000000,0.000000,0.000000,0.000000,0.000000
12214906.000000,-2.324245,-1.662721,1.197340,-1.434941,1.719300,1.238209,-0.577448,0.320075,0.007929,0.776930,-0.292070,-0.235571,0.683070,-0.076687,0.177350,39.400372,-23.480423,-4.412050,0.393156,1.909896,-0.169511,0.000000,0.000000,0.000000,0.000000,0.000000,0.000000
12214907.000000,-2.323931,-1.662722,1.198113,-1.435237,1.719074,1.238899,-0.577526,0.316607,0.004311,0.774270,-0.293147,-0.232052,0.684184,-0.076893,0.276533,39.475750,-23.702591,-4.289064,0.356534,1.968490,-0.155778,0.000000,0.000000,0.000000,0.000000,0.000000,0.000000
12214908.000000,-2.323618,-1.662727,1.198867,-1.435531,1.718834,1.239591,-0.577601,0.314230,0.000588,0.764078,-0.290913,-0.238199,0.684130,-0.079478,0.351911,39.598736,-23.627213,-4.189882,0.440763,1.942855,-0.202470,0.000000,0.000000,0.000000,0.000000,0.000000,0.000000
12214909.000000,-2.323304,-1.662734,1.199616,-1.435831,1.718608,1.240285,-0.577682,0.319505,-0.002041,0.746814,-0.289671,-0.236963,0.693485,-0.078661,0.427289,39.721722,-23.555801,-4.043092,0.488370,1.962081,-0.202470,0.000000,0.000000,0.000000,0.000000,0.000000,0.000000
12214910.000000,-2.322991,-1.662739,1.200379,-1.436127,1.718379,1.240970,-0.577761,0.316080,-0.002699,0.748894,-0.291302,-0.239476,0.682393,-0.078115,0.574079,39.793133,-23.627213,-3.943910,0.512174,2.027084,-0.196061,0.000000,0.000000,0.000000,0.000000,0.000000,0.000000
12214911.000000,-2.322675,-1.662742,1.201123,-1.436416,1.718151,1.241660,-0.577845,0.317722,-0.002664,0.750096,-0.291205,-0.238971,0.681320,-0.078704,0.673261,39.840740,-23.555801,-3.892336,0.470060,2.039901,-0.163102,0.000000,0.000000,0.000000,0.000000,0.000000,0.000000
12214912.000000,-2.322373,-1.662750,1.201877,-1.436712,1.717918,1.242365,-0.577919,0.313013,-0.003352,0.754145,-0.288526,-0.236716,0.682114,-0.076550,0.847822,39.916119,-23.456619,-3.797121,0.488370,1.877853,-0.196061,0.000000,0.000000,0.000000,0.000000,0.000000,0.000000
12214913.000000,-2.322065,-1.662759,1.202627,-1.437000,1.717695,1.243077,-0.578003,0.309259,-0.004971,0.745244,-0.288212,-0.233589,0.699401,-0.077704,0.895429,40.039104,-23.210648,-3.797121,0.482877,1.760665,-0.169511,0.000000,0.000000,0.000000,0.000000,0.000000,0.000000
12214914.000000,-2.321759,-1.662761,1.203378,-1.437303,1.717473,1.243768,-0.578079,0.306035,-0.003766,0.744419,-0.290923,-0.235495,0.702530,-0.077923,1.022382,40.062908,-23.186844,-3.670168,0.482877,1.779891,-0.149369,0.000000,0.000000,0.000000,0.000000,0.000000,0.000000
12214915.000000,-2.321449,-1.662766,1.204129,-1.437595,1.717255,1.244459,-0.578153,0.307999,-0.003545,0.740348,-0.286926,-0.228122,0.689479,-0.075383,1.046186,40.110516,-23.063858,-3.670168,0.464567,1.923629,-0.196061,0.000000,0.000000,0.000000,0.000000,0.000000,0.000000
12214916.000000,-2.321140,-1.662769,1.204872,-1.437893,1.717026,1.245166,-0.578236,0.307868,-0.002861,0.735533,-0.293276,-0.228238,0.694003,-0.081217,1.093793,40.134319,-22.794083,-3.547182,0.506681,1.858627,-0.175919,0.000000,0.000000,0.000000,0.000000,0.000000,0.000000
12214917.000000,-2.320839,-1.662767,1.205614,-1.438195,1.716803,1.245882,-0.578318,0.305397,-0.001306,0.741172,-0.294672,-0.223464,0.697051,-0.081000,1.145368,40.110516,-22.694901,-3.400392,0.518583,1.708480,-0.142960,0.000000,0.000000,0.000000,0.000000,0.000000,0.000000
12214918.000000,-2.320529,-1.662761,1.206373,-1.438484,1.716591,1.246596,-0.578395,0.306068,0.001390,0.746949,-0.298565,-0.218613,0.697687,-0.078699,1.093793,40.015301,-22.794083,-3.348818,0.500272,1.670028,-0.175919,0.000000,0.000000,0.000000,0.000000,0.000000,0.000000
12214919.000000,-2.320223,-1.662754,1.207112,-1.438786,1.716377,1.247289,-0.578472,0.306107,0.000112,0.747184,-0.298557,-0.215388,0.697129,-0.077612,1.093793,39.916119,-22.794083,-3.225832,0.482877,1.670028,-0.182328,0.000000,0.000000,0.000000,0.000000,0.000000,0.000000
12214920.000000,-2.319914,-1.662747,1.207859,-1.439090,1.716159,1.247996,-0.578557,0.308958,0.002150,0.748893,-0.298690,-0.216243,0.695805,-0.078840,1.069990,39.816936,-22.770279,-3.079042,0.566190,1.676437,-0.142960,0.000000,0.000000,0.000000,0.000000,0.000000,0.000000
12214921.000000,-2.319609,-1.662742,1.208611,-1.439383,1.715949,1.248682,-0.578631,0.305686,0.002921,0.745445,-0.299357,-0.217880,0.689983,-0.077933,1.093793,39.745525,-22.794083,-2.928285,0.559781,1.708480,-0.142960,0.000000,0.000000,0.000000,0.000000,0.000000,0.000000
12214924.000000,-2.318687,-1.662710,1.210858,-1.440260,1.715309,1.250759,-0.578861,0.309872,0.007690,0.747017,-0.297837,-0.211993,0.685539,-0.073177,0.947004,39.281353,-23.040054,-2.733888,0.470060,1.832076,-0.142960,0.000000,0.000000,0.000000,0.000000,0.000000,0.000000
12214925.000000,-2.318383,-1.662692,1.211606,-1.440556,1.715096,1.251460,-0.578930,0.304842,0.010266,0.746887,-0.296220,-0.211610,0.684422,-0.075902,0.923200,39.059185,-23.135269,-2.682314,0.482877,1.812850,-0.208878,0.000000,0.000000,0.000000,0.000000,0.000000,0.000000
12214926.000000,-2.318078,-1.662679,1.212357,-1.440848,1.714882,1.252133,-0.579017,0.302771,0.010791,0.746628,-0.296307,-0.211330,0.690571,-0.078750,0.947004,38.888592,-23.186844,-2.583132,0.530485,1.877853,-0.142960,0.000000,0.000000,0.000000,0.000000,0.000000,0.000000
12214927.000000,-2.317767,-1.662668,1.213099,-1.441135,1.714674,1.252829,-0.579091,0.306246,0.010038,0.750096,-0.293850,-0.215882,0.688640,-0.077706,0.895429,38.765606,-23.258255,-2.583132,0.547880,1.884261,-0.149369,0.000000,0.000000,0.000000,0.000000,0.000000,0.000000
12214928.000000,-2.317467,-1.662658,1.213844,-1.441430,1.714457,1.253517,-0.579160,0.305367,0.009544,0.749094,-0.293415,-0.214122,0.684149,-0.074857,0.871625,38.642620,-23.234451,-2.535524,0.584501,1.930038,-0.208878,0.000000,0.000000,0.000000,0.000000,0.000000,0.000000
12214929.000000,-2.317175,-1.662653,1.214579,-1.441713,1.714245,1.254203,-0.579242,0.301858,0.008015,0.753018,-0.291428,-0.212575,0.683447,-0.076846,0.970807,38.571209,-23.210648,-2.559328,0.589994,1.916305,-0.163102,0.000000,0.000000,0.000000,0.000000,0.000000,0.000000
12214930.000000,-2.316886,-1.662639,1.215318,-1.441996,1.714045,1.254905,-0.579317,0.297207,0.009970,0.752462,-0.288172,-0.203917,0.691524,-0.077042,1.169172,38.372845,-23.111465,-2.634706,0.518583,1.819259,-0.149369,0.000000,0.000000,0.000000,0.000000,0.000000,0.000000
12214931.000000,-2.316586,-1.662630,1.216055,-1.442283,1.713841,1.255597,-0.579387,0.296361,0.008307,0.748584,-0.287895,-0.208311,0.703314,-0.069949,1.268354,38.301434,-22.964676,-2.658510,0.494779,1.812850,-0.202470,0.000000,0.000000,0.000000,0.000000,0.000000,0.000000
12214932.000000,-2.316288,-1.662620,1.216778,-1.442568,1.713645,1.256273,-0.579465,0.293078,0.008407,0.739175,-0.281939,-0.207256,0.699302,-0.073161,1.367536,38.178448,-22.794083,-2.658510,0.458158,1.877853,-0.155778,0.000000,0.000000,0.000000,0.000000,0.000000,0.000000
12214933.000000,-2.315994,-1.662612,1.217517,-1.442853,1.713447,1.256969,-0.579536,0.291910,0.006712,0.736712,-0.283261,-0.206296,0.694138,-0.072136,1.391340,38.130840,-22.647293,-2.682314,0.428861,1.838485,-0.196061,0.000000,0.000000,0.000000,0.000000,0.000000,0.000000
12214934.000000,-2.315697,-1.662602,1.218262,-1.443133,1.713236,1.257662,-0.579610,0.290456,0.005120,0.738490,-0.281304,-0.207138,0.697274,-0.077581,1.391340,38.103069,-22.623489,-2.706117,0.458158,1.786300,-0.188737,0.000000,0.000000,0.000000,0.000000,0.000000,0.000000
12214935.000000,-2.315410,-1.662598,1.218986,-1.443412,1.713033,1.258369,-0.579682,0.288860,0.004810,0.729721,-0.275440,-0.204010,0.703378,-0.076821,1.466718,38.178448,-22.472733,-2.757692,0.488370,1.662704,-0.188737,0.000000,0.000000,0.000000,0.000000,0.000000,0.000000
12214936.000000,-2.315114,-1.662587,1.219732,-1.443692,1.712832,1.259077,-0.579753,0.288461,0.007163,0.732231,-0.283571,-0.199879,0.703842,-0.076240,1.490522,38.154644,-22.571915,-2.757692,0.488370,1.591293,-0.196061,0.000000,0.000000,0.000000,0.000000,0.000000,0.000000
12214937.000000,-2.314816,-1.662577,1.220467,-1.443965,1.712630,1.259768,-0.579827,0.289497,0.008275,0.721493,-0.280821,-0.203096,0.705172,-0.077814,1.490522,38.154644,-22.647293,-2.805300,0.518583,1.617843,-0.149369,0.000000,0.000000,0.000000,0.000000,0.000000,0.000000
12214938.000000,-2.314518,-1.662575,1.221208,-1.444242,1.712437,1.260468,-0.579895,0.291252,0.006929,0.731791,-0.277876,-0.199068,0.702049,-0.071437,1.415143,38.249859,-22.718704,-2.757692,0.518583,1.624252,-0.175919,0.000000,0.000000,0.000000,0.000000,0.000000,0.000000
12214939.000000,-2.314224,-1.662574,1.221948,-1.444509,1.712242,1.261163,-0.579962,0.291836,0.005488,0.733668,-0.273370,-0.197749,0.700913,-0.071768,1.415143,38.372845,-22.794083,-2.805300,0.566190,1.617843,-0.188737,0.000000,0.000000,0.000000,0.000000,0.000000,0.000000
12214940.000000,-2.313936,-1.662571,1.222683,-1.444774,1.712051,1.261848,-0.580037,0.296998,0.005169,0.734753,-0.269571,-0.196792,0.691912,-0.074223,1.367536,38.472027,-22.940872,-2.856874,0.512174,1.760665,-0.149369,0.000000,0.000000,0.000000,0.000000,0.000000,0.000000
12214941.000000,-2.313648,-1.662569,1.223430,-1.445032,1.711857,1.262544,-0.580104,0.295940,0.005750,0.738234,-0.262436,-0.198527,0.688494,-0.068044,1.442914,38.543438,-23.186844,-2.979860,0.482877,1.884261,-0.196061,0.000000,0.000000,0.000000,0.000000,0.000000,0.000000
12214942.000000,-2.313348,-1.662572,1.224151,-1.445301,1.711664,1.263233,-0.580177,0.299581,0.004502,0.731329,-0.263600,-0.195790,0.686073,-0.070528,1.391340,38.690228,-23.135269,-2.956056,0.482877,1.897079,-0.182328,0.000000,0.000000,0.000000,0.000000,0.000000,0.000000
12214943.000000,-2.313059,-1.662576,1.224885,-1.445557,1.711473,1.263947,-0.580251,0.296242,0.003550,0.734615,-0.259998,-0.194812,0.686857,-0.072555,1.415143,38.837017,-23.111465,-3.102846,0.494779,1.832076,-0.163102,0.000000,0.000000,0.000000,0.000000,0.000000,0.000000
12214944.000000,-2.312762,-1.662582,1.225627,-1.445814,1.711282,1.264641,-0.580317,0.293352,-0.000111,0.732382,-0.258393,-0.192587,0.710302,-0.072277,1.315961,38.983807,-23.087662,-3.102846,0.494779,1.812850,-0.188737,0.000000,0.000000,0.000000,0.000000,0.000000,0.000000
12214945.000000,-2.312464,-1.662584,1.226363,-1.446071,1.711104,1.265347,-0.580389,0.291723,-0.001121,0.723739,-0.258740,-0.190399,0.708488,-0.074919,1.216779,39.059185,-23.186844,-3.154421,0.464567,1.800033,-0.149369,0.000000,0.000000,0.000000,0.000000,0.000000,0.000000
12214946.000000,-2.312182,-1.662585,1.227097,-1.446322,1.710914,1.266063,-0.580456,0.293776,-0.001880,0.721679,-0.253937,-0.188977,0.707608,-0.070094,1.244550,39.130596,-23.135269,-3.301210,0.452665,1.721298,-0.149369,0.000000,0.000000,0.000000,0.000000,0.000000,0.000000
12214947.000000,-2.311889,-1.662593,1.227811,-1.446565,1.710716,1.266757,-0.580519,0.289826,-0.003170,0.722497,-0.247076,-0.189928,0.698259,-0.064948,1.192975,39.229778,-22.940872,-3.448000,0.476469,1.656295,-0.188737,0.000000,0.000000,0.000000,0.000000,0.000000,0.000000
12214948.000000,-2.311601,-1.662594,1.228539,-1.446813,1.710522,1.267456,-0.580594,0.285626,-0.001811,0.729664,-0.245891,-0.191024,0.697573,-0.064372,1.216779,39.229778,-22.817886,-3.547182,0.512174,1.676437,-0.149369,0.000000,0.000000,0.000000,0.000000,0.000000,0.000000
12214949.000000,-2.311307,-1.662589,1.229278,-1.447052,1.710340,1.268147,-0.580654,0.287321,-0.004831,0.728829,-0.243697,-0.188208,0.704570,-0.064955,1.169172,39.130596,-22.770279,-3.721742,0.464567,1.735030,-0.215287,0.000000,0.000000,0.000000,0.000000,0.000000,0.000000
12214950.000000,-2.311013,-1.662592,1.230001,-1.447297,1.710157,1.268834,-0.580729,0.286601,-0.004214,0.730372,-0.240959,-0.183345,0.696779,-0.070244,1.093793,39.158367,-22.718704,-3.820925,0.452665,1.760665,-0.149369,0.000000,0.000000,0.000000,0.000000,0.000000,0.000000
12214951.000000,-2.310727,-1.662592,1.230715,-1.447536,1.709970,1.269541,-0.580794,0.288592,-0.003068,0.719793,-0.238759,-0.185406,0.705021,-0.070597,1.022382,39.158367,-22.401321,-3.920107,0.464567,1.637069,-0.169511,0.000000,0.000000,0.000000,0.000000,0.000000,0.000000
12214952.000000,-2.310428,-1.662593,1.231452,-1.447771,1.709792,1.270229,-0.580857,0.288208,-0.003352,0.717033,-0.237817,-0.179552,0.699411,-0.070513,0.871625,39.205975,-22.425125,-3.991518,0.416959,1.605026,-0.208878,0.000000,0.000000,0.000000,0.000000,0.000000,0.000000
12214953.000000,-2.310136,-1.662586,1.232184,-1.448006,1.709611,1.270911,-0.580930,0.290784,0.000497,0.726737,-0.234289,-0.180439,0.696767,-0.069126,0.748639,39.082989,-22.500504,-4.019289,0.369352,1.721298,-0.155778,0.000000,0.000000,0.000000,0.000000,0.000000,0.000000
12214954.000000,-2.309836,-1.662580,1.232913,-1.448236,1.709426,1.271606,-0.580996,0.293085,0.002542,0.721912,-0.236548,-0.181160,0.695928,-0.070638,0.601850,38.983807,-22.448929,-4.066896,0.332731,1.747848,-0.163102,0.000000,0.000000,0.000000,0.000000,0.000000,0.000000
12214955.000000,-2.309534,-1.662578,1.233625,-1.448467,1.709235,1.272305,-0.581061,0.294843,0.002170,0.708572,-0.236334,-0.185184,0.699534,-0.066226,0.451093,38.960003,-22.325943,-4.118471,0.386747,1.662704,-0.188737,0.000000,0.000000,0.000000,0.000000,0.000000,0.000000
12214956.000000,-2.309239,-1.662573,1.234368,-1.448698,1.709050,1.273000,-0.581129,0.292710,0.002499,0.720253,-0.232936,-0.187865,0.694151,-0.070172,0.304304,38.912395,-22.472733,-4.166078,0.434354,1.649886,-0.149369,0.000000,0.000000,0.000000,0.000000,0.000000,0.000000
12214957.000000,-2.308941,-1.662565,1.235113,-1.448914,1.708874,1.273689,-0.581193,0.291442,0.003940,0.727497,-0.228715,-0.185660,0.689832,-0.065035,0.129743,38.813213,-22.647293,-4.289064,0.381254,1.643478,-0.196061,0.000000,0.000000,0.000000,0.000000,0.000000,0.000000
12214958.000000,-2.308639,-1.662566,1.235845,-1.449130,1.708700,1.274382,-0.581263,0.297100,0.002036,0.732512,-0.225392,-0.184896,0.689500,-0.063918,-0.068621,38.837017,-22.770279,-4.412050,0.369352,1.637069,-0.175919,0.000000,0.000000,0.000000,0.000000,0.000000,0.000000
12214959.000000,-2.308342,-1.662566,1.236578,-1.449340,1.708516,1.275074,-0.581334,0.295565,0.001331,0.731949,-0.220865,-0.188488,0.687615,-0.067987,-0.144000,38.837017,-22.865494,-4.634218,0.434354,1.721298,-0.142960,0.000000,0.000000,0.000000,0.000000,0.000000,0.000000
12214960.000000,-2.308037,-1.662573,1.237300,-1.449557,1.708334,1.275746,-0.581398,0.294428,-0.001452,0.731487,-0.221888,-0.187920,0.686311,-0.067559,-0.342364,38.936199,-22.865494,-4.685792,0.416959,1.825668,-0.202470,0.000000,0.000000,0.000000,0.000000,0.000000,0.000000
12214961.000000,-2.307737,-1.662575,1.238042,-1.449768,1.708158,1.276425,-0.581472,0.296571,-0.000983,0.734046,-0.217278,-0.181355,0.682704,-0.066911,-0.540728,38.936199,-23.087662,-4.808778,0.362943,1.909896,-0.149369,0.000000,0.000000,0.000000,0.000000,0.000000,0.000000
12214962.000000,-2.307434,-1.662574,1.238785,-1.449974,1.707983,1.277120,-0.581539,0.297722,-0.000666,0.735055,-0.213509,-0.177141,0.702204,-0.069062,-0.735125,38.936199,-23.186844,-4.955568,0.327238,1.890670,-0.149369,0.000000,0.000000,0.000000,0.000000,0.000000,0.000000
12214963.000000,-2.307136,-1.662581,1.239517,-1.450188,1.707812,1.277811,-0.581605,0.302744,-0.002215,0.722388,-0.212075,-0.174311,0.697932,-0.070201,-0.834307,39.011578,-23.309830,-5.054750,0.291532,1.747848,-0.163102,0.000000,0.000000,0.000000,0.000000,0.000000,0.000000
12214964.000000,-2.306841,-1.662581,1.240247,-1.450393,1.707634,1.278505,-0.581676,0.300660,-0.001483,0.720464,-0.209356,-0.177982,0.695133,-0.071720,-0.933489,39.011578,-23.234451,-5.229311,0.303434,1.670028,-0.155778,0.000000,0.000000,0.000000,0.000000,0.000000,0.000000
12214965.000000,-2.306534,-1.662590,1.240967,-1.450598,1.707464,1.279171,-0.581737,0.300421,-0.003777,0.724646,-0.207071,-0.175985,0.687178,-0.070796,-1.108050,39.130596,-23.210648,-5.276918,0.297025,1.760665,-0.196061,0.000000,0.000000,0.000000,0.000000,0.000000,0.000000
12214966.000000,-2.306234,-1.662590,1.241691,-1.450805,1.707291,1.279845,-0.581805,0.299851,-0.002522,0.726712,-0.205525,-0.174546,0.678580,-0.068132,-1.254840,39.130596,-23.111465,-5.352296,0.308927,1.865035,-0.175919,0.000000,0.000000,0.000000,0.000000,0.000000,0.000000
12214967.000000,-2.305940,-1.662599,1.242420,-1.451006,1.707110,1.280520,-0.581876,0.297403,-0.004561,0.726781,-0.204510,-0.174998,0.676958,-0.071222,-1.306414,39.253582,-22.988480,-5.499086,0.356534,1.903487,-0.142960,0.000000,0.000000,0.000000,0.000000,0.000000,0.000000
12214968.000000,-2.305646,-1.662599,1.243133,-1.451213,1.706935,1.281199,-0.581933,0.296698,-0.003042,0.730380,-0.206457,-0.173154,0.679091,-0.065897,-1.354022,39.253582,-22.865494,-5.550661,0.339139,1.851302,-0.202470,0.000000,0.000000,0.000000,0.000000,0.000000,0.000000
12214969.000000,-2.305356,-1.662603,1.243870,-1.451408,1.706772,1.281890,-0.582005,0.295322,-0.002679,0.738374,-0.198505,-0.169598,0.685325,-0.070290,-1.405596,39.281353,-22.940872,-5.721254,0.267728,1.800033,-0.149369,0.000000,0.000000,0.000000,0.000000,0.000000,0.000000
12214970.000000,-2.305054,-1.662602,1.244608,-1.451613,1.706607,1.282572,-0.582074,0.295227,-0.001138,0.735470,-0.203108,-0.163374,0.685280,-0.067527,-1.528582,39.253582,-23.016251,-5.721254,0.237516,1.741439,-0.130143,0.000000,0.000000,0.000000,0.000000,0.000000,0.000000
12214971.000000,-2.304766,-1.662610,1.245326,-1.451824,1.706439,1.283253,-0.582131,0.288324,-0.003636,0.737336,-0.200632,-0.165400,0.689876,-0.062479,-1.528582,39.376568,-22.940872,-5.673646,0.237516,1.779891,-0.188737,0.000000,0.000000,0.000000,0.000000,0.000000,0.000000
12214972.000000,-2.304464,-1.662618,1.246061,-1.452030,1.706273,1.283938,-0.582199,0.291813,-0.004188,0.735130,-0.207880,-0.162363,0.685179,-0.067460,-1.703143,39.451946,-23.087662,-5.598268,0.249418,1.844894,-0.142960,0.000000,0.000000,0.000000,0.000000,0.000000,0.000000
12214973.000000,-2.304169,-1.662622,1.246791,-1.452234,1.706103,1.284621,-0.582259,0.292476,-0.003906,0.726184,-0.204633,-0.164140,0.687007,-0.059683,-1.802325,39.499554,-23.210648,-5.526857,0.243009,1.877853,-0.163102,0.000000,0.000000,0.000000,0.000000,0.000000,0.000000
12214974.000000,-2.303882,-1.662631,1.247543,-1.452437,1.705934,1.285310,-0.582325,0.289508,-0.005481,0.736725,-0.202895,-0.165132,0.686076,-0.060097,-1.873736,39.622540,-23.555801,-5.550661,0.225614,1.858627,-0.130143,0.000000,0.000000,0.000000,0.000000,0.000000,0.000000
12214975.000000,-2.303593,-1.662642,1.248286,-1.452636,1.705756,1.285996,-0.582383,0.286361,-0.006531,0.738708,-0.201502,-0.167185,0.685091,-0.058731,-1.925311,39.745525,-23.726395,-5.598268,0.249418,1.825668,-0.142960,0.000000,0.000000,0.000000,0.000000,0.000000,0.000000
12214976.000000,-2.303308,-1.662660,1.249022,-1.452835,1.705578,1.286679,-0.582440,0.299214,-0.008902,0.747465,-0.200021,-0.173547,0.688261,-0.056735,-1.925311,39.939922,-23.920792,-5.649843,0.315336,1.871444,-0.182328,0.000000,0.000000,0.000000,0.000000,0.000000,0.000000
12214977.000000,-2.303023,-1.662678,1.249760,-1.453035,1.705398,1.287356,-0.582501,0.292833,-0.013610,0.747538,-0.198167,-0.175204,0.681467,-0.057509,-1.901507,40.134319,-24.043777,-5.626039,0.386747,1.981307,-0.163102,0.000000,0.000000,0.000000,0.000000,0.000000,0.000000
12214978.000000,-2.302733,-1.662696,1.250492,-1.453240,1.705223,1.288017,-0.582559,0.289376,-0.016407,0.758356,-0.200312,-0.173919,0.677789,-0.056371,-1.949114,40.308880,-24.218338,-5.574464,0.410551,2.066451,-0.188737,0.000000,0.000000,0.000000,0.000000,0.000000,0.000000
12214979.000000,-2.302455,-1.662715,1.251220,-1.453452,1.705051,1.288693,-0.582621,0.285342,-0.019644,0.752486,-0.202447,-0.173651,0.675553,-0.056462,-1.925311,40.527081,-24.242142,-5.475282,0.440763,2.053634,-0.188737,0.000000,0.000000,0.000000,0.000000,0.000000,0.000000
12214980.000000,-2.302180,-1.662735,1.251965,-1.453656,1.704883,1.289372,-0.582690,0.284068,-0.020946,0.747519,-0.202526,-0.170388,0.694761,-0.063510,-1.849932,40.697674,-24.313553,-5.451478,0.410551,1.962081,-0.130143,0.000000,0.000000,0.000000,0.000000,0.000000,0.000000
12214981.000000,-2.301897,-1.662752,1.252694,-1.453858,1.704718,1.290047,-0.582742,0.286681,-0.020722,0.740718,-0.201945,-0.171144,0.683325,-0.060209,-1.826129,40.820660,-24.388931,-5.451478,0.339139,1.923629,-0.188737,0.000000,0.000000,0.000000,0.000000,0.000000,0.000000
12214982.000000,-2.301625,-1.662771,1.253428,-1.454066,1.704550,1.290729,-0.582804,0.281358,-0.019631,0.736201,-0.206031,-0.167944,0.681709,-0.059558,-1.703143,40.896038,-24.365128,-5.399904,0.273221,1.903487,-0.182328,0.000000,0.000000,0.000000,0.000000,0.000000,0.000000
12214983.000000,-2.301352,-1.662789,1.254155,-1.454270,1.704376,1.291395,-0.582869,0.276764,-0.019357,0.728704,-0.203860,-0.165363,0.676605,-0.065150,-1.580157,40.991253,-24.218338,-5.427675,0.308927,1.890670,-0.130143,0.000000,0.000000,0.000000,0.000000,0.000000,0.000000
12214984.000000,-2.301085,-1.662806,1.254878,-1.454475,1.704204,1.292076,-0.582920,0.272006,-0.018750,0.733783,-0.202744,-0.171598,0.673618,-0.055800,-1.480975,41.066631,-24.119156,-5.427675,0.362943,1.903487,-0.196061,0.000000,0.000000,0.000000,0.000000,0.000000,0.000000
12214985.000000,-2.300813,-1.662813,1.255610,-1.454681,1.704038,1.292749,-0.582980,0.271894,-0.015359,0.733153,-0.203472,-0.166699,0.674305,-0.052597,-1.405596,41.019024,-24.019974,-5.376100,0.381254,1.916305,-0.169511,0.000000,0.000000,0.000000,0.000000,0.000000,0.000000
12214986.000000,-2.300543,-1.662822,1.256329,-1.454889,1.703876,1.293421,-0.583043,0.266247,-0.013279,0.733447,-0.205835,-0.167033,0.674427,-0.055342,-1.381793,40.967449,-23.920792,-5.376100,0.374845,1.916305,-0.122819,0.000000,0.000000,0.000000,0.000000,0.000000,0.000000
12214987.000000,-2.300281,-1.662831,1.257055,-1.455105,1.703713,1.294111,-0.583092,0.263904,-0.011898,0.730038,-0.208251,-0.168784,0.683235,-0.047915,-1.282611,40.919842,-23.774002,-5.352296,0.398649,1.812850,-0.196061,0.000000,0.000000,0.000000,0.000000,0.000000,0.000000
12214988.000000,-2.300015,-1.662833,1.257791,-1.455326,1.703544,1.294790,-0.583153,0.262028,-0.009231,0.727495,-0.209872,-0.172080,0.683269,-0.052009,-1.207232,40.796856,-23.801773,-5.205507,0.374845,1.760665,-0.163102,0.000000,0.000000,0.000000,0.000000,0.000000,0.000000
12214989.000000,-2.299743,-1.662836,1.258513,-1.455543,1.703383,1.295464,-0.583209,0.272141,-0.004856,0.726246,-0.209979,-0.165411,0.685186,-0.052438,-1.282611,40.697674,-23.774002,-5.078554,0.332731,1.851302,-0.182328,0.000000,0.000000,0.000000,0.000000,0.000000,0.000000
12214990.000000,-2.299479,-1.662835,1.259234,-1.455765,1.703216,1.296148,-0.583272,0.265822,-0.003701,0.721264,-0.221942,-0.165759,0.681559,-0.050670,-1.231036,40.550884,-23.726395,-4.931764,0.303434,1.890670,-0.130143,0.000000,0.000000,0.000000,0.000000,0.000000,0.000000
12214991.000000,-2.299207,-1.662841,1.259953,-1.455990,1.703047,1.296839,-0.583322,0.266298,-0.005350,0.719808,-0.222164,-0.168241,0.682194,-0.050565,-1.282611,40.503277,-23.702591,-4.808778,0.339139,1.858627,-0.169511,0.000000,0.000000,0.000000,0.000000,0.000000,0.000000
12214992.000000,-2.298950,-1.662841,1.260681,-1.456217,1.702879,1.297531,-0.583376,0.264333,-0.004181,0.728829,-0.223208,-0.170786,0.680496,-0.046700,-1.231036,40.356487,-23.726395,-4.634218,0.405057,1.767074,-0.188737,0.000000,0.000000,0.000000,0.000000,0.000000,0.000000
12214993.000000,-2.298686,-1.662840,1.261416,-1.456434,1.702718,1.298215,-0.583440,0.259461,-0.003433,0.736185,-0.221884,-0.169377,0.679428,-0.051428,-1.183428,40.209698,-23.825577,-4.562807,0.393156,1.773483,-0.130143,0.000000,0.000000,0.000000,0.000000,0.000000,0.000000
12214994.000000,-2.298417,-1.662842,1.262150,-1.456660,1.702559,1.298900,-0.583490,0.258721,-0.001486,0.729129,-0.225063,-0.169249,0.680577,-0.051266,-1.231036,40.134319,-23.996170,-4.439821,0.416959,1.773483,-0.169511,0.000000,0.000000,0.000000,0.000000,0.000000,0.000000
12214995.000000,-2.298155,-1.662848,1.262869,-1.456889,1.702395,1.299594,-0.583543,0.259500,-0.000597,0.723433,-0.223745,-0.165581,0.674271,-0.051673,-1.207232,40.086712,-23.948563,-4.340639,0.440763,1.786300,-0.196061,0.000000,0.000000,0.000000,0.000000,0.000000,0.000000
12214996.000000,-2.297894,-1.662850,1.263593,-1.457114,1.702225,1.300264,-0.583608,0.258998,0.000732,0.723457,-0.223596,-0.167036,0.673114,-0.056083,-1.159625,40.015301,-24.095352,-4.213686,0.452665,1.838485,-0.130143,0.000000,0.000000,0.000000,0.000000,0.000000,0.000000
12214997.000000,-2.297635,-1.662855,1.264320,-1.457335,1.702065,1.300937,-0.583655,0.257482,-0.002428,0.725486,-0.221054,-0.165911,0.671301,-0.053605,-1.159625,39.987530,-24.242142,-4.166078,0.410551,1.974899,-0.196061,0.000000,0.000000,0.000000,0.000000,0.000000,0.000000
12214998.000000,-2.297385,-1.662856,1.265052,-1.457561,1.701904,1.301621,-0.583711,0.252850,-0.001073,0.724817,-0.220953,-0.156129,0.690780,-0.054823,-1.032672,39.939922,-24.313553,-4.066896,0.386747,2.027084,-0.196061,0.000000,0.000000,0.000000,0.000000,0.000000,0.000000
12214999.000000,-2.297131,-1.662858,1.265769,-1.457781,1.701744,1.302302,-0.583775,0.252949,-0.003187,0.723591,-0.218704,-0.159933,0.685974,-0.057629,-0.909686,39.892315,-24.365128,-4.066896,0.416959,1.968490,-0.136552,0.000000,0.000000,0.000000,0.000000,0.000000,0.000000
12215000.000000,-2.296882,-1.662855,1.266489,-1.458005,1.701584,1.302992,-0.583827,0.250664,-0.000387,0.719416,-0.218073,-0.158141,0.683826,-0.055616,-0.810504,39.793133,-24.313553,-4.019289,0.440763,1.955673,-0.182328,0.000000,0.000000,0.000000,0.000000,0.000000,0.000000
12215001.000000,-2.296629,-1.662857,1.267209,-1.458232,1.701432,1.303660,-0.583888,0.249651,-0.000138,0.717251,-0.222606,-0.155144,0.675999,-0.057028,-0.762896,39.769329,-24.218338,-3.892336,0.410551,2.001449,-0.155778,0.000000,0.000000,0.000000,0.000000,0.000000,0.000000
12215002.000000,-2.296379,-1.662850,1.267919,-1.458465,1.701276,1.304352,-0.583942,0.249217,0.003014,0.722382,-0.224863,-0.158389,0.674798,-0.055863,-0.711321,39.622540,-24.166763,-3.797121,0.434354,1.995040,-0.182328,0.000000,0.000000,0.000000,0.000000,0.000000,0.000000
12215003.000000,-2.296132,-1.662849,1.268632,-1.458694,1.701117,1.305043,-0.584001,0.245111,0.002320,0.721324,-0.229504,-0.161642,0.683130,-0.057592,-0.635943,39.598736,-23.996170,-3.670168,0.452665,1.930038,-0.142960,0.000000,0.000000,0.000000,0.000000,0.000000,0.000000
12215004.000000,-2.295883,-1.662841,1.269336,-1.458925,1.700962,1.305730,-0.584054,0.242978,0.004239,0.719446,-0.228441,-0.157353,0.683825,-0.056063,-0.612139,39.475750,-23.896988,-3.523378,0.428861,1.858627,-0.175919,0.000000,0.000000,0.000000,0.000000,0.000000,0.000000
12215005.000000,-2.295634,-1.662834,1.270053,-1.459155,1.700807,1.306416,-0.584110,0.245821,0.004451,0.723354,-0.225978,-0.154928,0.687120,-0.051265,-0.635943,39.400372,-23.825577,-3.448000,0.405057,1.865035,-0.182328,0.000000,0.000000,0.000000,0.000000,0.000000,0.000000
12215006.000000,-2.295395,-1.662823,1.270776,-1.459379,1.700654,1.307090,-0.584162,0.242974,0.006298,0.722964,-0.225558,-0.152881,0.680412,-0.051896,-0.465350,39.253582,-23.825577,-3.448000,0.386747,1.851302,-0.202470,0.000000,0.000000,0.000000,0.000000,0.000000,0.000000
12215007.000000,-2.295154,-1.662812,1.271477,-1.459610,1.700503,1.307767,-0.584218,0.245382,0.006997,0.722124,-0.226510,-0.149031,0.685736,-0.053906,-0.389971,39.130596,-23.678787,-3.376589,0.416959,1.890670,-0.182328,0.000000,0.000000,0.000000,0.000000,0.000000,0.000000
12215008.000000,-2.294910,-1.662811,1.272193,-1.459829,1.700347,1.308450,-0.584271,0.246502,0.004607,0.714369,-0.225526,-0.151695,0.678083,-0.054475,-0.366168,39.130596,-23.702591,-3.400392,0.488370,1.903487,-0.182328,0.000000,0.000000,0.000000,0.000000,0.000000,0.000000
12215009.000000,-2.294670,-1.662804,1.272910,-1.460057,1.700203,1.309121,-0.584325,0.242942,0.008418,0.708783,-0.226688,-0.149571,0.671103,-0.055744,-0.290789,39.035381,-23.849380,-3.348818,0.440763,1.974899,-0.163102,0.000000,0.000000,0.000000,0.000000,0.000000,0.000000
12215012.000000,-2.293963,-1.662799,1.275071,-1.460725,1.699766,1.311160,-0.584491,0.240538,0.002543,0.715269,-0.221814,-0.147066,0.681705,-0.060025,-0.116229,39.011578,-24.289749,-3.178224,0.440763,1.897079,-0.136552,0.000000,0.000000,0.000000,0.000000,0.000000,0.000000
12215013.000000,-2.293728,-1.662806,1.275785,-1.460942,1.699617,1.311838,-0.584537,0.238886,-0.000435,0.710317,-0.218936,-0.143611,0.672301,-0.056517,-0.044818,39.106792,-24.412735,-3.202028,0.452665,1.981307,-0.202470,0.000000,0.000000,0.000000,0.000000,0.000000,0.000000
12215014.000000,-2.293498,-1.662809,1.276494,-1.461157,1.699474,1.312505,-0.584597,0.233315,-0.001980,0.723228,-0.215598,-0.139585,0.674313,-0.059223,0.054365,39.182171,-24.412735,-3.154421,0.428861,1.981307,-0.136552,0.000000,0.000000,0.000000,0.000000,0.000000,0.000000
12215015.000000,-2.293268,-1.662819,1.277214,-1.461367,1.699332,1.313189,-0.584645,0.232830,-0.004142,0.724299,-0.210832,-0.139317,0.674264,-0.056843,0.129743,39.305157,-24.511917,-3.178224,0.470060,1.942855,-0.182328,0.000000,0.000000,0.000000,0.000000,0.000000,0.000000
12215016.000000,-2.293038,-1.662823,1.277923,-1.461574,1.699188,1.313871,-0.584694,0.231097,-0.003834,0.714640,-0.210850,-0.137925,0.690170,-0.051162,0.276533,39.352764,-24.341324,-3.202028,0.488370,1.923629,-0.208878,0.000000,0.000000,0.000000,0.000000,0.000000,0.000000
12215017.000000,-2.292812,-1.662830,1.278629,-1.461783,1.699051,1.314533,-0.584746,0.228800,-0.004288,0.712511,-0.210464,-0.140423,0.680603,-0.048745,0.474897,39.428143,-24.289749,-3.249635,0.464567,1.974899,-0.188737,0.000000,0.000000,0.000000,0.000000,0.000000,0.000000
12215018.000000,-2.292586,-1.662832,1.279332,-1.461992,1.698914,1.315205,-0.584795,0.226944,-0.003949,0.711953,-0.211397,-0.142143,0.674861,-0.050813,0.550275,39.475750,-24.119156,-3.249635,0.446256,1.988631,-0.182328,0.000000,0.000000,0.000000,0.000000,0.000000,0.000000
12215019.000000,-2.292363,-1.662844,1.280045,-1.462196,1.698780,1.315881,-0.584845,0.228436,-0.006049,0.714249,-0.209537,-0.142688,0.674907,-0.048013,0.748639,39.622540,-24.071548,-3.225832,0.398649,1.890670,-0.169511,0.000000,0.000000,0.000000,0.000000,0.000000,0.000000
12215020.000000,-2.292137,-1.662843,1.280734,-1.462398,1.698640,1.316575,-0.584898,0.227685,-0.004020,0.710685,-0.206395,-0.140364,0.677396,-0.050668,0.796247,39.622540,-23.896988,-3.249635,0.405057,1.786300,-0.155778,0.000000,0.000000,0.000000,0.000000,0.000000,0.000000
12215021.000000,-2.291904,-1.662842,1.281444,-1.462600,1.698497,1.317260,-0.584942,0.227808,-0.002670,0.707282,-0.209458,-0.138559,0.679145,-0.046076,0.796247,39.622540,-23.825577,-3.277406,0.410551,1.721298,-0.196061,0.000000,0.000000,0.000000,0.000000,0.000000,0.000000
12215022.000000,-2.291690,-1.662844,1.282144,-1.462804,1.698355,1.317938,-0.584999,0.220773,-0.001773,0.706668,-0.208200,-0.136306,0.683222,-0.050524,0.970807,39.622540,-23.750198,-3.249635,0.398649,1.708480,-0.149369,0.000000,0.000000,0.000000,0.000000,0.000000,0.000000
12215023.000000,-2.291465,-1.662837,1.282843,-1.462999,1.698207,1.318627,-0.585051,0.222649,0.000587,0.701000,-0.204303,-0.143805,0.682533,-0.051580,0.970807,39.547161,-23.504227,-3.348818,0.494779,1.708480,-0.149369,0.000000,0.000000,0.000000,0.000000,0.000000,0.000000
12215024.000000,-2.291238,-1.662832,1.283546,-1.463195,1.698072,1.319306,-0.585098,0.221254,0.002066,0.694862,-0.202709,-0.140355,0.676039,-0.046401,0.923200,39.475750,-23.381241,-3.400392,0.494779,1.714889,-0.202470,0.000000,0.000000,0.000000,0.000000,0.000000,0.000000
12215025.000000,-2.291021,-1.662825,1.284243,-1.463390,1.697939,1.319993,-0.585158,0.221375,0.003700,0.703113,-0.199786,-0.136640,0.683529,-0.046795,0.923200,39.376568,-23.309830,-3.499574,0.452665,1.721298,-0.136552,0.000000,0.000000,0.000000,0.000000,0.000000,0.000000
12215026.000000,-2.290795,-1.662816,1.284944,-1.463590,1.697802,1.320681,-0.585211,0.222488,0.005346,0.701255,-0.201078,-0.134294,0.681825,-0.054276,0.923200,39.253582,-23.258255,-3.475771,0.434354,1.727706,-0.130143,0.000000,0.000000,0.000000,0.000000,0.000000,0.000000
12215027.000000,-2.290566,-1.662811,1.285630,-1.463785,1.697671,1.321373,-0.585258,0.223842,0.005236,0.711665,-0.199330,-0.132430,0.683476,-0.053773,0.895429,39.182171,-23.163040,-3.424196,0.393156,1.656295,-0.155778,0.000000,0.000000,0.000000,0.000000,0.000000,0.000000
12215028.000000,-2.290337,-1.662801,1.286336,-1.463982,1.697540,1.322060,-0.585310,0.226902,0.006926,0.712143,-0.201187,-0.135115,0.684780,-0.054959,0.796247,39.035381,-23.163040,-3.348818,0.386747,1.630660,-0.155778,0.000000,0.000000,0.000000,0.000000,0.000000,0.000000
12215029.000000,-2.290106,-1.662790,1.287047,-1.464181,1.697399,1.322730,-0.585360,0.228526,0.007495,0.713239,-0.202685,-0.134767,0.692891,-0.050171,0.697065,38.912395,-23.258255,-3.277406,0.398649,1.767074,-0.169511,0.000000,0.000000,0.000000,0.000000,0.000000,0.000000
12215030.000000,-2.289874,-1.662784,1.287746,-1.464374,1.697265,1.323421,-0.585414,0.230495,0.007317,0.701341,-0.197692,-0.136161,0.693751,-0.048645,0.601850,38.813213,-23.286026,-3.325014,0.351041,1.806442,-0.130143,0.000000,0.000000,0.000000,0.000000,0.000000,0.000000
12215031.000000,-2.289647,-1.662774,1.288456,-1.464560,1.697120,1.324128,-0.585455,0.230800,0.007756,0.700112,-0.193021,-0.137365,0.694074,-0.048047,0.526471,38.690228,-23.409012,-3.424196,0.405057,1.695663,-0.196061,0.000000,0.000000,0.000000,0.000000,0.000000,0.000000
12215032.000000,-2.289424,-1.662768,1.289158,-1.464738,1.696983,1.324808,-0.585505,0.229435,0.006285,0.704128,-0.191822,-0.136300,0.686510,-0.050665,0.502668,38.642620,-23.528030,-3.570986,0.416959,1.662704,-0.182328,0.000000,0.000000,0.000000,0.000000,0.000000,0.000000
12215033.000000,-2.289205,-1.662755,1.289874,-1.464924,1.696856,1.325489,-0.585557,0.225152,0.007624,0.708192,-0.188661,-0.134028,0.679331,-0.048959,0.502668,38.495831,-23.726395,-3.670168,0.381254,1.735030,-0.142960,0.000000,0.000000,0.000000,0.000000,0.000000,0.000000
12215034.000000,-2.288981,-1.662750,1.290580,-1.465113,1.696720,1.326164,-0.585602,0.224469,0.005639,0.705338,-0.189728,-0.134202,0.675825,-0.049805,0.526471,38.472027,-23.801773,-3.646364,0.398649,1.832076,-0.169511,0.000000,0.000000,0.000000,0.000000,0.000000,0.000000
12215035.000000,-2.288750,-1.662747,1.291277,-1.465294,1.696586,1.326824,-0.585650,0.226027,0.003760,0.692431,-0.188513,-0.133651,0.670338,-0.051291,0.474897,38.472027,-23.825577,-3.697939,0.398649,1.871444,-0.175919,0.000000,0.000000,0.000000,0.000000,0.000000,0.000000
12215036.000000,-2.288527,-1.662744,1.291978,-1.465478,1.696454,1.327493,-0.585700,0.223696,0.002507,0.691396,-0.186896,-0.132211,0.663989,-0.049126,0.427289,38.472027,-23.801773,-3.646364,0.381254,1.865035,-0.149369,0.000000,0.000000,0.000000,0.000000,0.000000,0.000000
12215037.000000,-2.288297,-1.662733,1.292693,-1.465651,1.696328,1.328151,-0.585741,0.225765,0.006478,0.698853,-0.181931,-0.130291,0.658465,-0.044727,0.351911,38.396648,-23.849380,-3.745546,0.332731,1.858627,-0.188737,0.000000,0.000000,0.000000,0.000000,0.000000,0.000000
12215038.000000,-2.288073,-1.662729,1.293390,-1.465830,1.696198,1.328825,-0.585786,0.223809,0.004572,0.700643,-0.182864,-0.128712,0.658329,-0.043823,0.304304,38.396648,-23.896988,-3.769350,0.279630,1.819259,-0.175919,0.000000,0.000000,0.000000,0.000000,0.000000,0.000000
12215039.000000,-2.287849,-1.662724,1.294086,-1.466004,1.696060,1.329494,-0.585836,0.224880,0.003795,0.697073,-0.182718,-0.130927,0.654924,-0.048226,0.276533,38.372845,-23.750198,-3.797121,0.308927,1.779891,-0.142960,0.000000,0.000000,0.000000,0.000000,0.000000,0.000000
