chaoyuefei/paper-gmrm-data/robot_logs/s2_dq_mrm_min_0.50_log_20260314_174620.csv
# time_ms,q_0,q_1,q_2,q_3,q_4,q_5,q_6,dq_0,dq_1,dq_2,dq_3,dq_4,dq_5,dq_6,tau_J_0,tau_J_1,tau_J_2,tau_J_3,tau_J_4,tau_J_5,tau_J_6,O_dP_EE_c_0,O_dP_EE_c_1,O_dP_EE_c_2,O_dP_EE_c_3,O_dP_EE_c_4,O_dP_EE_c_5
13043084.000000,-2.417852,-1.662615,1.040155,-1.352896,1.798098,1.079502,-0.546493,0.000314,0.000178,0.000657,0.000616,-0.000329,0.000176,0.000887,0.054365,41.606182,-21.052444,-5.721254,0.823453,1.324874,0.009017,0.000000,0.000000,0.000000,0.000000,0.000000,0.000000
13043085.000000,-2.417856,-1.662617,1.040151,-1.352897,1.798100,1.079502,-0.546498,-0.000348,-0.000995,-0.000768,-0.000146,0.000459,0.000117,-0.000358,0.078168,41.653790,-21.000870,-5.697450,0.805143,1.324874,0.034652,0.000000,0.000000,0.000000,0.000000,0.000000,0.000000
13043086.000000,-2.417851,-1.662612,1.040153,-1.352896,1.798098,1.079502,-0.546498,0.000882,0.001657,0.000044,0.000460,-0.000372,0.000078,-0.001222,0.030561,41.554607,-21.024673,-5.721254,0.823453,1.324874,0.061202,0.000000,0.000000,0.000000,0.000000,0.000000,0.000000
13043087.000000,-2.417852,-1.662616,1.040151,-1.352896,1.798098,1.079501,-0.546496,0.000031,-0.000659,-0.000527,0.000306,-0.000248,-0.000423,0.000643,0.054365,41.629986,-21.000870,-5.721254,0.823453,1.337692,0.021835,0.000000,0.000000,0.000000,0.000000,0.000000,0.000000
13043088.000000,-2.417849,-1.662615,1.040154,-1.352896,1.798098,1.079500,-0.546500,0.008777,-0.001170,-0.000351,0.001586,0.000716,-0.001502,-0.008158,0.351911,41.530804,-21.000870,-5.649843,0.799650,1.370651,0.021835,0.000000,0.000000,0.000000,0.000000,0.000000,0.000000
13043089.000000,-2.417840,-1.662620,1.040157,-1.352898,1.798100,1.079492,-0.546509,0.016099,-0.005870,0.002260,0.005512,0.004716,0.002183,-0.011968,1.391340,41.336407,-20.977066,-5.427675,0.685209,1.539108,-0.056901,0.000000,0.000000,0.000000,0.000000,0.000000,0.000000
13043090.000000,-2.417803,-1.662623,1.040167,-1.352894,1.798094,1.079491,-0.546537,0.026830,-0.005240,0.004254,0.005688,0.001985,0.002860,-0.016723,2.902875,40.943645,-20.953262,-5.205507,0.589994,1.779891,-0.083451,0.000000,0.000000,0.000000,0.000000,0.000000,0.000000
13043091.000000,-2.417758,-1.662622,1.040183,-1.352895,1.798080,1.079511,-0.546581,0.029392,-0.005303,0.008449,0.004022,-0.002436,0.004348,-0.027320,4.783369,40.427898,-20.905655,-4.884157,0.554288,1.877853,-0.037675,0.000000,0.000000,0.000000,0.000000,0.000000,0.000000
13043093.000000,-2.417605,-1.662618,1.040230,-1.352933,1.798007,1.079644,-0.546708,0.054073,0.001433,0.018650,-0.011120,-0.017319,0.038225,-0.049652,8.223004,39.400372,-20.754898,-4.118471,0.637601,1.597701,-0.044083,0.000000,0.000000,0.000000,0.000000,0.000000,0.000000
13043094.000000,-2.417506,-1.662620,1.040269,-1.352970,1.797958,1.079746,-0.546789,0.064711,0.003264,0.025648,-0.022208,-0.027894,0.059308,-0.060827,9.682965,38.936199,-20.707291,-3.721742,0.661405,1.396285,-0.103593,0.000000,0.000000,0.000000,0.000000,0.000000,0.000000
13043095.000000,-2.417391,-1.662619,1.040320,-1.353020,1.797885,1.079858,-0.546910,0.080405,0.002756,0.034747,-0.031603,-0.041521,0.079467,-0.078299,10.972333,38.543438,-20.683487,-3.400392,0.715421,1.324874,-0.031266,0.000000,0.000000,0.000000,0.000000,0.000000,0.000000
13043096.000000,-2.417266,-1.662617,1.040379,-1.353076,1.797808,1.079990,-0.547042,0.095513,0.004984,0.040786,-0.040219,-0.052459,0.100888,-0.098803,12.110944,38.178448,-20.631912,-3.154421,0.661405,1.337692,-0.103593,0.000000,0.000000,0.000000,0.000000,0.000000,0.000000
13043097.000000,-2.417124,-1.662606,1.040446,-1.353141,1.797712,1.080137,-0.547209,0.108813,0.004787,0.047533,-0.051438,-0.063723,0.113591,-0.118350,13.126569,37.761883,-20.536697,-2.979860,0.559781,1.448470,-0.077042,0.000000,0.000000,0.000000,0.000000,0.000000,0.000000
13043098.000000,-2.416969,-1.662599,1.040530,-1.353229,1.797599,1.080315,-0.547409,0.124961,0.005470,0.058610,-0.065577,-0.082622,0.132472,-0.145721,13.991437,37.444500,-20.560501,-2.706117,0.470060,1.565658,-0.037675,0.000000,0.000000,0.000000,0.000000,0.000000,0.000000
13043099.000000,-2.416808,-1.662581,1.040628,-1.353327,1.797468,1.080516,-0.547625,0.134685,0.008613,0.071493,-0.076557,-0.096142,0.154568,-0.166140,14.784894,37.027935,-20.659683,-2.559328,0.362943,1.624252,-0.122819,0.000000,0.000000,0.000000,0.000000,0.000000,0.000000
13043100.000000,-2.416625,-1.662561,1.040751,-1.353433,1.797310,1.080756,-0.547881,0.153703,0.010190,0.090792,-0.088348,-0.113407,0.182995,-0.194883,15.328412,36.635174,-20.905655,-2.511720,0.327238,1.611434,-0.070634,0.000000,0.000000,0.000000,0.000000,0.000000,0.000000
13043101.000000,-2.416421,-1.662542,1.040875,-1.353567,1.797135,1.081035,-0.548147,0.170221,0.010607,0.101294,-0.104531,-0.133325,0.211889,-0.224828,15.748944,36.270184,-21.000870,-2.313356,0.344633,1.507064,-0.103593,0.000000,0.000000,0.000000,0.000000,0.000000,0.000000
13043102.000000,-2.416192,-1.662521,1.041022,-1.353716,1.796932,1.081331,-0.548439,0.191421,0.014349,0.114628,-0.120522,-0.153819,0.238338,-0.246078,16.022688,35.901226,-21.199234,-2.214174,0.386747,1.402694,-0.089860,0.000000,0.000000,0.000000,0.000000,0.000000,0.000000
13043103.000000,-2.415961,-1.662503,1.041180,-1.353891,1.796692,1.081642,-0.548748,0.205396,0.013356,0.130672,-0.134130,-0.180026,0.263821,-0.262796,16.344038,35.560040,-21.393631,-2.063417,0.488370,1.383468,-0.056901,0.000000,0.000000,0.000000,0.000000,0.000000,0.000000
13043104.000000,-2.415703,-1.662484,1.041345,-1.354059,1.796444,1.081970,-0.549050,0.221746,0.014189,0.138152,-0.144006,-0.196543,0.289478,-0.272082,16.518599,35.290264,-21.417435,-2.190370,0.506681,1.454879,-0.116410,0.000000,0.000000,0.000000,0.000000,0.000000,0.000000
13043105.000000,-2.415438,-1.662470,1.041518,-1.354255,1.796178,1.082324,-0.549365,0.244434,0.018780,0.150474,-0.158716,-0.212175,0.310169,-0.284651,16.689192,35.119671,-21.469009,-2.138796,0.500272,1.494247,-0.056901,0.000000,0.000000,0.000000,0.000000,0.000000,0.000000
13043106.000000,-2.415156,-1.662458,1.041703,-1.354462,1.795901,1.082701,-0.549677,0.257199,0.015328,0.159540,-0.175723,-0.229406,0.329721,-0.294548,16.839949,34.996685,-21.469009,-2.138796,0.494779,1.539108,-0.064225,0.000000,0.000000,0.000000,0.000000,0.000000,0.000000
13043107.000000,-2.414854,-1.662446,1.041892,-1.354693,1.795613,1.083089,-0.549986,0.270860,0.012487,0.166629,-0.195587,-0.247664,0.347886,-0.301575,16.911360,34.897503,-21.346024,-2.114992,0.381254,1.637069,-0.122819,0.000000,0.000000,0.000000,0.000000,0.000000,0.000000
13043108.000000,-2.414537,-1.662440,1.042101,-1.354950,1.795299,1.083506,-0.550310,0.286150,0.011466,0.181089,-0.212773,-0.268815,0.368519,-0.305769,16.911360,34.897503,-21.322220,-1.964235,0.327238,1.689254,-0.050492,0.000000,0.000000,0.000000,0.000000,0.000000,0.000000
13043109.000000,-2.414207,-1.662437,1.042320,-1.355223,1.794968,1.083949,-0.550609,0.298423,0.010347,0.189205,-0.231304,-0.286677,0.390489,-0.304619,16.986738,34.921307,-21.322220,-1.742067,0.327238,1.682845,-0.097184,0.000000,0.000000,0.000000,0.000000,0.000000,0.000000
13043110.000000,-2.413852,-1.662437,1.042539,-1.355514,1.794628,1.084416,-0.550916,0.316256,0.006121,0.194616,-0.248494,-0.298502,0.424049,-0.303346,16.962934,34.972881,-21.147659,-1.571474,0.297025,1.591293,-0.050492,0.000000,0.000000,0.000000,0.000000,0.000000,0.000000
13043111.000000,-2.413481,-1.662440,1.042769,-1.355816,1.794251,1.084915,-0.551214,0.335894,0.003289,0.204377,-0.266201,-0.336069,0.446829,-0.301107,16.939131,35.020489,-21.076248,-1.396913,0.332731,1.526290,-0.056901,0.000000,0.000000,0.000000,0.000000,0.000000,0.000000
13043112.000000,-2.413114,-1.662441,1.043016,-1.356122,1.793861,1.085417,-0.551499,0.346862,0.001877,0.215628,-0.275122,-0.354066,0.463617,-0.293225,17.010542,35.044292,-21.052444,-1.349306,0.416959,1.500655,-0.089860,0.000000,0.000000,0.000000,0.000000,0.000000,0.000000
13043113.000000,-2.412743,-1.662444,1.043267,-1.356443,1.793459,1.085955,-0.551777,0.355447,0.000319,0.227560,-0.288335,-0.369609,0.485393,-0.287088,17.260481,35.091900,-21.024673,-1.349306,0.446256,1.487838,-0.122819,0.000000,0.000000,0.000000,0.000000,0.000000,0.000000
13043114.000000,-2.412340,-1.662442,1.043523,-1.356768,1.793038,1.086507,-0.552056,0.369096,0.000348,0.235880,-0.299885,-0.391374,0.499425,-0.288396,17.335859,35.091900,-20.854080,-1.396913,0.482877,1.532699,-0.122819,0.000000,0.000000,0.000000,0.000000,0.000000,0.000000
13043115.000000,-2.411936,-1.662443,1.043796,-1.357119,1.792601,1.087075,-0.552339,0.378252,0.000334,0.244859,-0.313761,-0.401654,0.518766,-0.286726,17.581831,35.091900,-20.782669,-1.373109,0.488370,1.591293,-0.077042,0.000000,0.000000,0.000000,0.000000,0.000000,0.000000
13043116.000000,-2.411525,-1.662442,1.044081,-1.357476,1.792149,1.087675,-0.552614,0.391920,0.000856,0.259151,-0.324458,-0.410694,0.534871,-0.281281,17.827803,35.068096,-20.754898,-1.321535,0.518583,1.597701,-0.136552,0.000000,0.000000,0.000000,0.000000,0.000000,0.000000
13043117.000000,-2.411086,-1.662440,1.044378,-1.357857,1.791686,1.088294,-0.552882,0.403746,0.000628,0.272328,-0.345738,-0.424300,0.558992,-0.276895,17.978559,35.068096,-20.731094,-1.150941,0.494779,1.572067,-0.097184,0.000000,0.000000,0.000000,0.000000,0.000000,0.000000
13043118.000000,-2.410635,-1.662435,1.044674,-1.358252,1.791210,1.088943,-0.553149,0.423212,0.002132,0.278313,-0.361377,-0.437340,0.580250,-0.272744,18.149153,34.996685,-20.659683,-1.051759,0.446256,1.435653,-0.064225,0.000000,0.000000,0.000000,0.000000,0.000000,0.000000
13043119.000000,-2.410180,-1.662433,1.044987,-1.358661,1.790713,1.089612,-0.553401,0.434054,0.002010,0.286568,-0.382048,-0.461044,0.604159,-0.273195,18.323713,34.972881,-20.608109,-0.853395,0.482877,1.305648,-0.142960,0.000000,0.000000,0.000000,0.000000,0.000000,0.000000
13043120.000000,-2.409702,-1.662431,1.045315,-1.359090,1.790199,1.090282,-0.553660,0.445324,0.002014,0.295424,-0.395088,-0.477840,0.629686,-0.266169,18.474470,34.945110,-20.536697,-0.631227,0.494779,1.247054,-0.116410,0.000000,0.000000,0.000000,0.000000,0.000000,0.000000
13043121.000000,-2.409217,-1.662424,1.045644,-1.359526,1.789674,1.090976,-0.553914,0.460692,0.006769,0.308381,-0.412397,-0.490881,0.644745,-0.259469,18.621260,34.849895,-20.461319,-0.508241,0.518583,1.272689,-0.116410,0.000000,0.000000,0.000000,0.000000,0.000000,0.000000
13043122.000000,-2.408716,-1.662418,1.045989,-1.359973,1.789139,1.091684,-0.554164,0.468798,0.005997,0.317392,-0.422233,-0.503646,0.665121,-0.256388,18.843428,34.798321,-20.389908,-0.357485,0.482877,1.337692,-0.070634,0.000000,0.000000,0.000000,0.000000,0.000000,0.000000
13043123.000000,-2.408208,-1.662407,1.046341,-1.360435,1.788590,1.092405,-0.554409,0.479993,0.006991,0.336251,-0.435867,-0.514186,0.683145,-0.255573,19.192549,34.679302,-20.362137,-0.333681,0.506681,1.331283,-0.097184,0.000000,0.000000,0.000000,0.000000,0.000000,0.000000
13043124.000000,-2.407686,-1.662397,1.046704,-1.360901,1.788021,1.093153,-0.554655,0.494185,0.010308,0.346438,-0.444573,-0.543165,0.698589,-0.250746,19.438520,34.580120,-20.338333,-0.262270,0.530485,1.364242,-0.122819,0.000000,0.000000,0.000000,0.000000,0.000000,0.000000
13043125.000000,-2.407144,-1.662385,1.047083,-1.361386,1.787441,1.093905,-0.554905,0.506088,0.010131,0.354236,-0.457082,-0.549103,0.717077,-0.253942,19.712263,34.457134,-20.338333,-0.234499,0.542386,1.396285,-0.110001,0.000000,0.000000,0.000000,0.000000,0.000000,0.000000
13043126.000000,-2.406592,-1.662370,1.047472,-1.361895,1.786842,1.094698,-0.555153,0.524897,0.014207,0.366460,-0.474315,-0.567249,0.736958,-0.248656,20.033613,34.286541,-20.461319,-0.111513,0.547880,1.383468,-0.149369,0.000000,0.000000,0.000000,0.000000,0.000000,0.000000
13043127.000000,-2.406032,-1.662363,1.047875,-1.362412,1.786241,1.095521,-0.555398,0.535750,0.013097,0.373262,-0.485599,-0.572108,0.763985,-0.248089,20.279585,34.286541,-20.536697,0.059080,0.566190,1.299239,-0.116410,0.000000,0.000000,0.000000,0.000000,0.000000,0.000000
13043128.000000,-2.405450,-1.662345,1.048291,-1.362948,1.785619,1.096346,-0.555644,0.546236,0.015838,0.384974,-0.500873,-0.586797,0.784247,-0.245942,20.501753,34.139751,-20.731094,0.186034,0.542386,1.207687,-0.122819,0.000000,0.000000,0.000000,0.000000,0.000000,0.000000
13043129.000000,-2.404850,-1.662332,1.048719,-1.363491,1.784989,1.097196,-0.555887,0.569867,0.016095,0.395962,-0.520470,-0.604823,0.802362,-0.249028,20.700117,34.064373,-20.905655,0.332823,0.512174,1.234237,-0.136552,0.000000,0.000000,0.000000,0.000000,0.000000,0.000000
13043130.000000,-2.404242,-1.662318,1.049167,-1.364054,1.784349,1.098060,-0.556129,0.584494,0.016904,0.410706,-0.529437,-0.615941,0.824622,-0.248072,20.850874,33.969158,-21.123856,0.380431,0.458158,1.220504,-0.103593,0.000000,0.000000,0.000000,0.000000,0.000000,0.000000
13043131.000000,-2.403628,-1.662305,1.049612,-1.364626,1.783691,1.098950,-0.556365,0.598237,0.015833,0.423449,-0.545119,-0.624517,0.845006,-0.244606,21.073042,33.941387,-21.246841,0.356627,0.416959,1.240646,-0.130143,0.000000,0.000000,0.000000,0.000000,0.000000,0.000000
13043132.000000,-2.402992,-1.662285,1.050071,-1.365206,1.783016,1.099849,-0.556599,0.604974,0.017939,0.437713,-0.558702,-0.638366,0.855157,-0.243640,21.295210,33.794598,-21.294449,0.332823,0.422452,1.377059,-0.130143,0.000000,0.000000,0.000000,0.000000,0.000000,0.000000
13043133.000000,-2.402330,-1.662269,1.050552,-1.365805,1.782326,1.100766,-0.556838,0.619417,0.015672,0.449793,-0.566944,-0.649297,0.869447,-0.243713,21.418196,33.675579,-21.417435,0.408202,0.434354,1.467696,-0.110001,0.000000,0.000000,0.000000,0.000000,0.000000,0.000000
13043134.000000,-2.401662,-1.662253,1.051039,-1.366425,1.781612,1.101720,-0.557074,0.637137,0.019815,0.462764,-0.582787,-0.664315,0.894057,-0.241485,21.616560,33.576397,-21.568192,0.554991,0.512174,1.422836,-0.142960,0.000000,0.000000,0.000000,0.000000,0.000000,0.000000
13043135.000000,-2.400971,-1.662238,1.051531,-1.367047,1.780899,1.102694,-0.557309,0.646191,0.016025,0.467418,-0.594824,-0.681580,0.928373,-0.236720,21.862532,33.501019,-21.663406,0.729552,0.644010,1.253463,-0.149369,0.000000,0.000000,0.000000,0.000000,0.000000,0.000000
13043136.000000,-2.400266,-1.662226,1.052032,-1.367686,1.780182,1.103686,-0.557552,0.679431,0.014656,0.474719,-0.609941,-0.683414,0.945400,-0.234303,21.989485,33.501019,-21.762589,0.927916,0.774930,1.149093,-0.110001,0.000000,0.000000,0.000000,0.000000,0.000000,0.000000
13043137.000000,-2.399542,-1.662214,1.052551,-1.368321,1.779472,1.104699,-0.557771,0.685600,0.014355,0.488331,-0.608092,-0.695474,0.957782,-0.232165,22.187849,33.477215,-21.933182,1.050902,0.906766,1.155502,-0.175919,0.000000,0.000000,0.000000,0.000000,0.000000,0.000000
13043138.000000,-2.398803,-1.662207,1.053072,-1.368972,1.778768,1.105717,-0.558011,0.697272,0.011322,0.495403,-0.619376,-0.687658,0.974839,-0.232463,22.088667,33.576397,-21.960953,0.951720,0.966276,1.247054,-0.110001,0.000000,0.000000,0.000000,0.000000,0.000000,0.000000
13043139.000000,-2.398061,-1.662202,1.053603,-1.369652,1.778053,1.106764,-0.558240,0.705347,0.011404,0.506892,-0.639638,-0.693196,0.993143,-0.229457,21.120649,33.723186,-21.837967,0.654173,0.936979,1.409103,-0.122819,0.000000,0.000000,0.000000,0.000000,0.000000,0.000000
13043140.000000,-2.397339,-1.662194,1.054163,-1.370341,1.777356,1.107837,-0.558468,0.705024,0.010314,0.524399,-0.655252,-0.696179,1.013442,-0.228088,19.414717,33.794598,-21.591995,0.059080,0.882963,1.559249,-0.116410,0.000000,0.000000,0.000000,0.000000,0.000000,0.000000
13043141.000000,-2.396617,-1.662185,1.054741,-1.371036,1.776646,1.108919,-0.558687,0.714307,0.010293,0.554470,-0.667854,-0.691539,1.037046,-0.224998,16.962934,33.699383,-21.223038,-0.877199,0.786832,1.617843,-0.175919,0.000000,0.000000,0.000000,0.000000,0.000000,0.000000
13043142.000000,-2.395893,-1.662175,1.055347,-1.371741,1.775956,1.110033,-0.558911,0.720377,0.010331,0.572071,-0.676672,-0.707070,1.060510,-0.224105,14.265180,33.453411,-20.584305,-1.694460,0.644010,1.702071,-0.188737,0.000000,0.000000,0.000000,0.000000,0.000000,0.000000
13043143.000000,-2.395164,-1.662171,1.055973,-1.372461,1.775267,1.111137,-0.559137,0.722887,0.007381,0.580959,-0.684122,-0.694788,1.075591,-0.228156,11.638837,33.183636,-19.751175,-2.412538,0.494779,1.812850,-0.097184,0.000000,0.000000,0.000000,0.000000,0.000000,0.000000
13043144.000000,-2.394433,-1.662184,1.056606,-1.373177,1.774575,1.112283,-0.559356,0.733688,0.003319,0.595420,-0.688585,-0.687914,1.102418,-0.225047,9.091840,33.112225,-18.914078,-3.154421,0.405057,1.779891,-0.130143,0.000000,0.000000,0.000000,0.000000,0.000000,0.000000
13043145.000000,-2.393708,-1.662198,1.057271,-1.373875,1.773922,1.113460,-0.559576,0.739297,0.000406,0.612419,-0.692046,-0.675258,1.125158,-0.224218,6.763044,33.036846,-18.203934,-3.745546,0.237516,1.662704,-0.136552,0.000000,0.000000,0.000000,0.000000,0.000000,0.000000
13043146.000000,-2.392980,-1.662216,1.057930,-1.374574,1.773253,1.114633,-0.559804,0.739444,-0.004684,0.626322,-0.692795,-0.668962,1.143779,-0.226303,4.759565,33.088421,-17.343033,-4.213686,0.135892,1.584884,-0.070634,0.000000,0.000000,0.000000,0.000000,0.000000,0.000000
13043147.000000,-2.392253,-1.662244,1.058586,-1.375254,1.772604,1.115835,-0.560019,0.738632,-0.010420,0.634346,-0.687618,-0.658571,1.152804,-0.220017,2.926679,33.235210,-16.533707,-4.562807,0.015958,1.565658,-0.122819,0.000000,0.000000,0.000000,0.000000,0.000000,0.000000
13043148.000000,-2.391523,-1.662273,1.059248,-1.375939,1.771950,1.117057,-0.560233,0.736172,-0.017348,0.637119,-0.681410,-0.651878,1.198672,-0.216415,1.415143,33.382000,-15.775955,-4.733400,0.064481,1.409103,-0.122819,0.000000,0.000000,0.000000,0.000000,0.000000,0.000000
13043149.000000,-2.390809,-1.662300,1.059911,-1.376619,1.771303,1.118295,-0.560444,0.731746,-0.020119,0.644736,-0.676106,-0.651868,1.207091,-0.216544,0.153547,33.429607,-15.061844,-4.884157,0.147794,1.364242,-0.155778,0.000000,0.000000,0.000000,0.000000,0.000000,0.000000
13043150.000000,-2.390083,-1.662331,1.060587,-1.377300,1.770663,1.119563,-0.560658,0.728174,-0.024273,0.652345,-0.680475,-0.643135,1.217724,-0.221776,-0.933489,33.429607,-14.446915,-4.685792,0.249418,1.188461,-0.142960,0.000000,0.000000,0.000000,0.000000,0.000000,0.000000
13043151.000000,-2.389346,-1.662367,1.061270,-1.377994,1.770032,1.120816,-0.560869,0.727601,-0.026836,0.658610,-0.687985,-0.641407,1.224850,-0.218726,-1.949114,33.405804,-13.835953,-4.340639,0.362943,0.934859,-0.116410,0.000000,0.000000,0.000000,0.000000,0.000000,0.000000
13043152.000000,-2.388638,-1.662395,1.061945,-1.378691,1.769389,1.122073,-0.561075,0.722560,-0.026131,0.660642,-0.691679,-0.637519,1.226252,-0.213903,-2.591815,33.259014,-13.268631,-3.844728,0.530485,0.830489,-0.155778,0.000000,0.000000,0.000000,0.000000,0.000000,0.000000
13043153.000000,-2.387915,-1.662429,1.062638,-1.379378,1.768775,1.123289,-0.561286,0.714546,-0.026392,0.669432,-0.696806,-0.633644,1.223100,-0.213343,-3.210711,33.136028,-12.804459,-3.301210,0.559781,0.895492,-0.122819,0.000000,0.000000,0.000000,0.000000,0.000000,0.000000
13043154.000000,-2.387207,-1.662454,1.063327,-1.380067,1.768160,1.124522,-0.561483,0.727001,-0.023837,0.679706,-0.692285,-0.625283,1.221698,-0.204587,-3.706622,32.890057,-12.435501,-2.904482,0.464567,0.980636,-0.182328,0.000000,0.000000,0.000000,0.000000,0.000000,0.000000
13043155.000000,-2.386502,-1.662472,1.064032,-1.380732,1.767557,1.125759,-0.561694,0.710872,-0.016868,0.683739,-0.678633,-0.621964,1.216467,-0.211161,-3.956561,32.548870,-12.189529,-2.706117,0.416959,0.993453,-0.103593,0.000000,0.000000,0.000000,0.000000,0.000000,0.000000
13043156.000000,-2.385792,-1.662491,1.064745,-1.381398,1.766958,1.126964,-0.561891,0.702378,-0.013277,0.686207,-0.675463,-0.612849,1.210199,-0.206161,-4.226336,32.255291,-11.971329,-2.658510,0.303434,1.136276,-0.202470,0.000000,0.000000,0.000000,0.000000,0.000000,0.000000
13043157.000000,-2.385080,-1.662498,1.065450,-1.382063,1.766363,1.128166,-0.562105,0.711315,-0.010405,0.693128,-0.670147,-0.607611,1.196962,-0.208537,-4.476275,31.814922,-11.848343,-2.634706,0.225614,1.350509,-0.136552,0.000000,0.000000,0.000000,0.000000,0.000000,0.000000
13043158.000000,-2.384388,-1.662498,1.066178,-1.382709,1.765768,1.129382,-0.562312,0.705871,-0.007491,0.703267,-0.661916,-0.602381,1.197275,-0.208260,-4.599261,31.322979,-11.749161,-2.658510,0.237516,1.467696,-0.122819,0.000000,0.000000,0.000000,0.000000,0.000000,0.000000
13043159.000000,-2.383685,-1.662496,1.066899,-1.383364,1.765172,1.130592,-0.562515,0.701695,-0.002976,0.709357,-0.651780,-0.594366,1.196708,-0.205299,-4.773821,30.858807,-11.649979,-2.682314,0.279630,1.350509,-0.182328,0.000000,0.000000,0.000000,0.000000,0.000000,0.000000
13043160.000000,-2.382986,-1.662482,1.067642,-1.384002,1.764587,1.131827,-0.562720,0.703191,0.005445,0.719836,-0.647786,-0.603788,1.201979,-0.202774,-5.019793,30.295452,-11.578568,-2.757692,0.315336,1.096908,-0.142960,0.000000,0.000000,0.000000,0.000000,0.000000,0.000000
13043161.000000,-2.382296,-1.662465,1.068391,-1.384635,1.764006,1.133031,-0.562919,0.693454,0.011333,0.723281,-0.647855,-0.594042,1.204442,-0.203625,-5.095171,29.732098,-11.479385,-2.956056,0.320829,0.960494,-0.163102,0.000000,0.000000,0.000000,0.000000,0.000000,0.000000
13043162.000000,-2.381595,-1.662447,1.069137,-1.385262,1.763421,1.134245,-0.563125,0.699349,0.017052,0.733030,-0.638882,-0.586033,1.200906,-0.204199,-5.293536,29.244122,-11.380203,-3.154421,0.308927,0.928451,-0.155778,0.000000,0.000000,0.000000,0.000000,0.000000,0.000000
13043163.000000,-2.380910,-1.662428,1.069884,-1.385876,1.762862,1.135458,-0.563327,0.698639,0.020230,0.734201,-0.629674,-0.574815,1.192901,-0.205568,-5.364947,28.803753,-11.062820,-3.376589,0.279630,0.922042,-0.130143,0.000000,0.000000,0.000000,0.000000,0.000000,0.000000
13043164.000000,-2.380223,-1.662409,1.070640,-1.386503,1.762292,1.136641,-0.563528,0.696456,0.021038,0.742300,-0.624761,-0.569634,1.182275,-0.200348,-5.392718,28.434795,-10.717667,-3.448000,0.207303,1.045638,-0.155778,0.000000,0.000000,0.000000,0.000000,0.000000,0.000000
13043165.000000,-2.379535,-1.662386,1.071395,-1.387115,1.761733,1.137844,-0.563729,0.701718,0.019905,0.748688,-0.624271,-0.559788,1.176498,-0.199491,-5.539507,28.018230,-10.372513,-3.499574,0.081876,1.084090,-0.130143,0.000000,0.000000,0.000000,0.000000,0.000000,0.000000
13043166.000000,-2.378844,-1.662362,1.072170,-1.387723,1.761180,1.139040,-0.563919,0.699475,0.018352,0.759008,-0.622012,-0.556222,1.201246,-0.195313,-5.638690,27.629436,-10.078934,-3.547182,-0.055453,1.110641,-0.169511,0.000000,0.000000,0.000000,0.000000,0.000000,0.000000
13043167.000000,-2.378168,-1.662340,1.072930,-1.388327,1.760614,1.140258,-0.564118,0.693991,0.019400,0.762057,-0.611862,-0.549465,1.197386,-0.194497,-5.638690,27.284283,-9.638565,-3.646364,-0.031649,1.012679,-0.142960,0.000000,0.000000,0.000000,0.000000,0.000000,0.000000
13043168.000000,-2.377468,-1.662326,1.073717,-1.388929,1.760056,1.141508,-0.564317,0.692443,0.021909,0.769995,-0.611145,-0.551104,1.209393,-0.200283,-5.884661,27.137493,-9.416397,-3.622560,0.027860,0.752670,-0.149369,0.000000,0.000000,0.000000,0.000000,0.000000,0.000000
13043169.000000,-2.376766,-1.662310,1.074513,-1.389532,1.759501,1.142719,-0.564517,0.692586,0.021217,0.778228,-0.611024,-0.546084,1.203192,-0.198346,-6.083025,26.990704,-9.170425,-3.646364,0.052579,0.654708,-0.122819,0.000000,0.000000,0.000000,0.000000,0.000000,0.000000
13043170.000000,-2.376065,-1.662300,1.075305,-1.390137,1.758941,1.143948,-0.564717,0.697233,0.018823,0.785269,-0.604636,-0.549153,1.202913,-0.200107,-6.432147,26.943096,-8.976028,-3.598757,0.135892,0.609847,-0.122819,0.000000,0.000000,0.000000,0.000000,0.000000,0.000000
13043171.000000,-2.375366,-1.662296,1.076121,-1.390727,1.758391,1.145179,-0.564905,0.691600,0.015491,0.793204,-0.602764,-0.545349,1.199385,-0.195360,-6.678118,26.966900,-8.829239,-3.670168,0.183500,0.589706,-0.182328,0.000000,0.000000,0.000000,0.000000,0.000000,0.000000
13043172.000000,-2.374679,-1.662289,1.076932,-1.391316,1.757847,1.146398,-0.565104,0.703152,0.010937,0.803962,-0.592834,-0.536464,1.204822,-0.195514,-6.852679,26.966900,-8.682449,-3.820925,0.219205,0.616256,-0.130143,0.000000,0.000000,0.000000,0.000000,0.000000,0.000000
13043173.000000,-2.373990,-1.662287,1.077767,-1.391882,1.757305,1.147621,-0.565293,0.690081,0.007191,0.813934,-0.578430,-0.531979,1.194562,-0.190165,-6.951861,26.990704,-8.607071,-4.090700,0.171598,0.727035,-0.122819,0.000000,0.000000,0.000000,0.000000,0.000000,0.000000
13043174.000000,-2.373284,-1.662289,1.078618,-1.392451,1.756777,1.148829,-0.565475,0.688715,0.006658,0.827850,-0.570993,-0.525103,1.193745,-0.187809,-7.197833,27.066082,-8.607071,-4.312868,0.027860,0.863448,-0.175919,0.000000,0.000000,0.000000,0.000000,0.000000,0.000000
13043175.000000,-2.372578,-1.662288,1.079473,-1.393026,1.756232,1.150047,-0.565667,0.700531,0.003856,0.839021,-0.564240,-0.529030,1.184973,-0.185071,-7.471575,27.113689,-8.730057,-4.463624,-0.001437,0.960494,-0.136552,0.000000,0.000000,0.000000,0.000000,0.000000,0.000000
13043176.000000,-2.371873,-1.662290,1.080333,-1.393585,1.755699,1.151272,-0.565845,0.704342,0.001205,0.843481,-0.565857,-0.525982,1.189933,-0.183928,-7.939715,27.189068,-8.682449,-4.586610,0.046171,1.019088,-0.188737,0.000000,0.000000,0.000000,0.000000,0.000000,0.000000
13043177.000000,-2.371156,-1.662289,1.081191,-1.394165,1.755165,1.152475,-0.566039,0.705015,0.001102,0.845619,-0.568312,-0.531369,1.190732,-0.188539,-8.435626,27.189068,-8.607071,-4.487428,0.069974,1.019088,-0.116410,0.000000,0.000000,0.000000,0.000000,0.000000,0.000000
13043178.000000,-2.370445,-1.662285,1.082080,-1.394732,1.754639,1.153698,-0.566220,0.708393,0.002165,0.858217,-0.568349,-0.538180,1.189730,-0.187792,-8.955340,27.137493,-8.607071,-4.487428,0.105680,1.012679,-0.136552,0.000000,0.000000,0.000000,0.000000,0.000000,0.000000
13043179.000000,-2.369728,-1.662280,1.082977,-1.395301,1.754117,1.154904,-0.566388,0.704743,0.003282,0.865556,-0.571245,-0.535052,1.188876,-0.182300,-9.399676,27.066082,-8.583267,-4.463624,0.100187,0.922042,-0.175919,0.000000,0.000000,0.000000,0.000000,0.000000,0.000000
13043180.000000,-2.369005,-1.662272,1.083871,-1.395867,1.753591,1.156137,-0.566572,0.711801,0.005191,0.876998,-0.566726,-0.530869,1.199950,-0.185017,-9.919391,26.943096,-8.484085,-4.487428,0.052579,0.752670,-0.136552,0.000000,0.000000,0.000000,0.000000,0.000000,0.000000
13043181.000000,-2.368305,-1.662263,1.084763,-1.396410,1.753084,1.157351,-0.566742,0.712490,0.005875,0.876348,-0.548329,-0.519605,1.192229,-0.180209,-10.268512,26.843914,-8.142899,-4.634218,0.022367,0.746261,-0.175919,0.000000,0.000000,0.000000,0.000000,0.000000,0.000000
13043182.000000,-2.367596,-1.662250,1.085690,-1.396957,1.752567,1.158541,-0.566923,0.711808,0.011160,0.888224,-0.540677,-0.520714,1.191904,-0.178521,-10.566058,26.673321,-8.019913,-4.733400,0.015958,0.863448,-0.163102,0.000000,0.000000,0.000000,0.000000,0.000000,0.000000
13043183.000000,-2.366894,-1.662242,1.086618,-1.397485,1.752060,1.159737,-0.567102,0.707338,0.012043,0.906487,-0.542882,-0.510942,1.184422,-0.177705,-10.958819,26.625713,-8.019913,-4.931764,-0.055453,0.993453,-0.155778,0.000000,0.000000,0.000000,0.000000,0.000000,0.000000
13043184.000000,-2.366191,-1.662235,1.087557,-1.398026,1.751560,1.160926,-0.567282,0.704090,0.009738,0.912171,-0.541749,-0.510315,1.212001,-0.176890,-11.157184,26.574139,-7.896927,-4.983339,-0.060946,1.025497,-0.136552,0.000000,0.000000,0.000000,0.000000,0.000000,0.000000
13043185.000000,-2.365489,-1.662227,1.088508,-1.398562,1.751052,1.162142,-0.567463,0.701128,0.010029,0.925417,-0.542833,-0.500335,1.205507,-0.172657,-11.506305,26.574139,-7.944534,-5.130128,-0.037142,0.928451,-0.103593,0.000000,0.000000,0.000000,0.000000,0.000000,0.000000
13043186.000000,-2.364779,-1.662220,1.089487,-1.399080,1.750567,1.163364,-0.567624,0.701745,0.006675,0.937651,-0.538305,-0.491669,1.208910,-0.167798,-11.851459,26.597942,-8.115128,-5.352296,-0.072848,0.830489,-0.196061,0.000000,0.000000,0.000000,0.000000,0.000000,0.000000
13043187.000000,-2.364071,-1.662216,1.090484,-1.399606,1.750069,1.164552,-0.567802,0.700028,0.003653,0.949735,-0.533500,-0.490243,1.204622,-0.170798,-12.097430,26.649517,-8.313492,-5.499086,-0.097567,0.817672,-0.142960,0.000000,0.000000,0.000000,0.000000,0.000000,0.000000
13043188.000000,-2.363352,-1.662219,1.091472,-1.400129,1.749575,1.165745,-0.567977,0.709558,0.001934,0.963197,-0.527326,-0.490377,1.200060,-0.170702,-12.494159,26.820110,-8.436478,-5.626039,-0.091158,0.915633,-0.149369,0.000000,0.000000,0.000000,0.000000,0.000000,0.000000
13043189.000000,-2.362659,-1.662220,1.092474,-1.400640,1.749096,1.166943,-0.568148,0.703346,0.001501,0.968893,-0.520926,-0.488882,1.193310,-0.166996,-12.692523,26.966900,-8.460281,-5.697450,-0.133273,1.025497,-0.142960,0.000000,0.000000,0.000000,0.000000,0.000000,0.000000
13043190.000000,-2.361968,-1.662224,1.093459,-1.401148,1.748599,1.168119,-0.568319,0.713531,-0.001242,0.994159,-0.514818,-0.484632,1.194866,-0.167697,-12.966266,27.089886,-8.313492,-5.895814,-0.103060,1.117049,-0.149369,0.000000,0.000000,0.000000,0.000000,0.000000,0.000000
13043191.000000,-2.361273,-1.662228,1.094468,-1.401644,1.748136,1.169306,-0.568491,0.707496,-0.003786,0.996219,-0.504488,-0.474752,1.183968,-0.168373,-13.140826,27.236675,-8.238113,-6.070375,-0.150668,1.182052,-0.155778,0.000000,0.000000,0.000000,0.000000,0.000000,0.000000
13043192.000000,-2.360567,-1.662230,1.095489,-1.402145,1.747658,1.170487,-0.568661,0.698639,-0.003281,0.997215,-0.499922,-0.475921,1.184042,-0.169503,-13.434405,27.284283,-8.043716,-6.169557,-0.216586,1.123458,-0.149369,0.000000,0.000000,0.000000,0.000000,0.000000,0.000000
13043193.000000,-2.359865,-1.662235,1.096502,-1.402651,1.747176,1.171686,-0.568821,0.704695,-0.003126,1.007809,-0.495514,-0.475921,1.185908,-0.164153,-13.684344,27.335857,-7.797745,-6.292543,-0.180880,0.993453,-0.188737,0.000000,0.000000,0.000000,0.000000,0.000000,0.000000
13043194.000000,-2.359182,-1.662241,1.097533,-1.403152,1.746705,1.172888,-0.568989,0.692677,-0.002997,1.008930,-0.498743,-0.472691,1.190468,-0.167242,-13.858905,27.383465,-7.504166,-6.268739,-0.109469,0.889083,-0.155778,0.000000,0.000000,0.000000,0.000000,0.000000,0.000000
13043195.000000,-2.358493,-1.662249,1.098573,-1.403647,1.746230,1.174069,-0.569153,0.690005,-0.003518,1.010519,-0.492719,-0.471618,1.188201,-0.163236,-14.081073,27.454876,-7.111404,-6.415529,-0.126864,0.817672,-0.175919,0.000000,0.000000,0.000000,0.000000,0.000000,0.000000
13043196.000000,-2.357824,-1.662254,1.099623,-1.404145,1.745762,1.175254,-0.569322,0.683208,-0.002882,1.028924,-0.495151,-0.481147,1.186993,-0.161874,-14.104877,27.482647,-7.012222,-6.463136,-0.055453,0.804855,-0.155778,0.000000,0.000000,0.000000,0.000000,0.000000,0.000000
13043197.000000,-2.357160,-1.662260,1.100688,-1.404626,1.745310,1.176439,-0.569488,0.670083,-0.002950,1.031461,-0.491851,-0.479261,1.190546,-0.165289,-14.053302,27.530254,-6.841629,-6.685304,-0.150668,0.713302,-0.142960,0.000000,0.000000,0.000000,0.000000,0.000000,0.000000
13043198.000000,-2.356505,-1.662263,1.101746,-1.405107,1.744857,1.177646,-0.569650,0.666303,-0.002460,1.039299,-0.482572,-0.467886,1.195673,-0.165106,-13.954120,27.554058,-6.667068,-6.959047,-0.252291,0.557662,-0.182328,0.000000,0.000000,0.000000,0.000000,0.000000,0.000000
13043199.000000,-2.355849,-1.662267,1.102849,-1.405576,1.744410,1.178845,-0.569817,0.662625,-0.002149,1.060440,-0.479683,-0.458834,1.196849,-0.164540,-13.783526,27.577862,-6.790054,-7.205019,-0.276095,0.589706,-0.130143,0.000000,0.000000,0.000000,0.000000,0.000000,0.000000
13043200.000000,-2.355186,-1.662271,1.103961,-1.406060,1.743962,1.180025,-0.569974,0.661960,-0.005789,1.070543,-0.477011,-0.454302,1.203380,-0.160061,-13.831134,27.629436,-6.813858,-7.328004,-0.348422,0.622665,-0.182328,0.000000,0.000000,0.000000,0.000000,0.000000,0.000000
13043201.000000,-2.354517,-1.662268,1.105062,-1.406536,1.743504,1.181226,-0.570134,0.669230,-0.002892,1.076590,-0.479487,-0.452504,1.197450,-0.156287,-13.954120,27.577862,-6.813858,-7.379579,-0.270602,0.609847,-0.149369,0.000000,0.000000,0.000000,0.000000,0.000000,0.000000
13043202.000000,-2.353866,-1.662267,1.106185,-1.407012,1.743064,1.182410,-0.570288,0.660567,-0.000993,1.088969,-0.477733,-0.449629,1.222665,-0.155618,-14.081073,27.530254,-6.841629,-7.478761,-0.216586,0.570480,-0.155778,0.000000,0.000000,0.000000,0.000000,0.000000,0.000000
13043203.000000,-2.353221,-1.662261,1.107304,-1.407497,1.742618,1.183622,-0.570442,0.671699,0.002080,1.097522,-0.477873,-0.444772,1.221059,-0.154284,-14.152484,27.407269,-6.865433,-7.478761,-0.211093,0.511886,-0.175919,0.000000,0.000000,0.000000,0.000000,0.000000,0.000000
13043204.000000,-2.352558,-1.662257,1.108445,-1.407965,1.742170,1.184822,-0.570603,0.668355,0.002957,1.105063,-0.473833,-0.443423,1.218668,-0.159641,-14.327044,27.335857,-6.766251,-7.554140,-0.162570,0.576888,-0.122819,0.000000,0.000000,0.000000,0.000000,0.000000,0.000000
13043205.000000,-2.351911,-1.662246,1.109590,-1.408431,1.741734,1.186004,-0.570749,0.657703,0.006536,1.112009,-0.472195,-0.442335,1.212004,-0.155790,-14.327044,27.137493,-6.520279,-7.677125,-0.234896,0.687667,-0.188737,0.000000,0.000000,0.000000,0.000000,0.000000,0.000000
13043206.000000,-2.351261,-1.662238,1.110723,-1.408897,1.741292,1.187198,-0.570906,0.659806,0.006528,1.114809,-0.468162,-0.437817,1.202360,-0.160684,-14.473834,27.042278,-6.274307,-7.823915,-0.294406,0.771896,-0.163102,0.000000,0.000000,0.000000,0.000000,0.000000,0.000000
13043207.000000,-2.350615,-1.662223,1.111899,-1.409358,1.740862,1.188402,-0.571057,0.649393,0.008949,1.127783,-0.465595,-0.435198,1.202207,-0.155650,-14.549212,26.843914,-6.274307,-7.847719,-0.336520,0.824081,-0.149369,0.000000,0.000000,0.000000,0.000000,0.000000,0.000000
13043208.000000,-2.349979,-1.662206,1.113094,-1.409822,1.740438,1.189586,-0.571207,0.659124,0.011688,1.163312,-0.461237,-0.429479,1.200877,-0.154397,-14.573016,26.597942,-6.302078,-7.875490,-0.467440,0.785628,-0.169511,0.000000,0.000000,0.000000,0.000000,0.000000,0.000000
13043209.000000,-2.349329,-1.662194,1.114297,-1.410269,1.740012,1.190789,-0.571356,0.654271,0.018107,1.183908,-0.450177,-0.436491,1.189723,-0.155553,-14.699969,26.427349,-6.544083,-7.970705,-0.503146,0.720626,-0.149369,0.000000,0.000000,0.000000,0.000000,0.000000,0.000000
13043210.000000,-2.348689,-1.662188,1.115532,-1.410733,1.739581,1.191960,-0.571504,0.646547,0.013696,1.197938,-0.451562,-0.428365,1.185073,-0.154877,-14.699969,26.379742,-6.936844,-7.970705,-0.450045,0.727035,-0.155778,0.000000,0.000000,0.000000,0.000000,0.000000,0.000000
13043211.000000,-2.348064,-1.662177,1.116773,-1.411180,1.739148,1.193140,-0.571652,0.641643,0.012948,1.215690,-0.451640,-0.429496,1.174043,-0.154599,-14.672198,26.232952,-7.476395,-8.145266,-0.443636,0.811263,-0.155778,0.000000,0.000000,0.000000,0.000000,0.000000,0.000000
13043213.000000,-2.346803,-1.662175,1.119304,-1.412077,1.738299,1.195493,-0.571948,0.624319,0.006347,1.239562,-0.449146,-0.422314,1.166799,-0.151699,-14.600787,26.209148,-8.115128,-8.391237,-0.306307,0.934859,-0.130143,0.000000,0.000000,0.000000,0.000000,0.000000,0.000000
13043214.000000,-2.346181,-1.662175,1.120563,-1.412519,1.737877,1.196668,-0.572091,0.622287,0.006340,1.243335,-0.445875,-0.425903,1.156133,-0.151783,-14.600787,26.256756,-8.313492,-8.466616,-0.282504,0.954086,-0.142960,0.000000,0.000000,0.000000,0.000000,0.000000,0.000000
13043215.000000,-2.345557,-1.662181,1.121828,-1.412972,1.737465,1.197834,-0.572232,0.620873,0.000613,1.242214,-0.450938,-0.422952,1.154586,-0.146973,-14.624591,26.427349,-8.261917,-8.442812,-0.276095,0.987045,-0.175919,0.000000,0.000000,0.000000,0.000000,0.000000,0.000000
13043216.000000,-2.344934,-1.662197,1.123086,-1.413435,1.737063,1.199016,-0.572379,0.627375,-0.006177,1.247239,-0.453121,-0.413493,1.161139,-0.145721,-14.624591,26.720928,-8.166702,-8.244448,-0.312716,0.960494,-0.142960,0.000000,0.000000,0.000000,0.000000,0.000000,0.000000
13043217.000000,-2.344317,-1.662207,1.124364,-1.413887,1.736655,1.200202,-0.572514,0.627728,-0.009103,1.250198,-0.455859,-0.417979,1.160856,-0.138284,-14.600787,26.943096,-7.944534,-8.121462,-0.324618,0.901900,-0.169511,0.000000,0.000000,0.000000,0.000000,0.000000,0.000000
13043218.000000,-2.343701,-1.662230,1.125652,-1.414340,1.736248,1.201371,-0.572655,0.625401,-0.012857,1.251804,-0.450321,-0.411632,1.166499,-0.139161,-14.450030,27.506451,-8.019913,-8.022280,-0.336520,0.843307,-0.142960,0.000000,0.000000,0.000000,0.000000,0.000000,0.000000
13043219.000000,-2.343094,-1.662245,1.126913,-1.414787,1.735867,1.202550,-0.572800,0.623807,-0.008441,1.242434,-0.450890,-0.394596,1.171371,-0.139675,-14.081073,28.339581,-8.630875,-7.998476,-0.438143,0.915633,-0.122819,0.000000,0.000000,0.000000,0.000000,0.000000,0.000000
13043220.000000,-2.342500,-1.662272,1.128152,-1.415233,1.735486,1.203748,-0.572933,0.605979,-0.011903,1.224866,-0.448517,-0.392290,1.179419,-0.137687,-13.287616,29.902691,-9.590958,-8.097658,-0.509554,0.966903,-0.155778,0.000000,0.000000,0.000000,0.000000,0.000000,0.000000
13043221.000000,-2.341910,-1.662300,1.129371,-1.415681,1.735092,1.204936,-0.573078,0.612707,-0.019464,1.224415,-0.442296,-0.389783,1.186875,-0.139092,-12.323565,31.910137,-11.332596,-8.268251,-0.461947,1.110641,-0.122819,0.000000,0.000000,0.000000,0.000000,0.000000,0.000000
13043222.000000,-2.341313,-1.662317,1.130565,-1.416128,1.734709,1.206146,-0.573208,0.597664,-0.026523,1.212119,-0.447689,-0.386416,1.191066,-0.139908,-11.307940,33.941387,-13.050430,-8.292055,-0.336520,1.253463,-0.182328,0.000000,0.000000,0.000000,0.000000,0.000000,0.000000
13043223.000000,-2.340703,-1.662319,1.131773,-1.416580,1.734312,1.207349,-0.573354,0.594636,-0.023905,1.209108,-0.449089,-0.392889,1.197966,-0.141926,-10.689044,35.560040,-14.867447,-8.391237,-0.085665,1.350509,-0.110001,0.000000,0.000000,0.000000,0.000000,0.000000,0.000000
13043224.000000,-2.340105,-1.662305,1.132973,-1.417050,1.733910,1.208552,-0.573485,0.600179,-0.017240,1.217120,-0.458024,-0.391710,1.196489,-0.138786,-10.244708,36.587566,-16.486099,-8.220644,0.147794,1.494247,-0.155778,0.000000,0.000000,0.000000,0.000000,0.000000,0.000000
13043225.000000,-2.339495,-1.662281,1.134186,-1.417511,1.733518,1.209763,-0.573616,0.594016,-0.006295,1.213816,-0.459195,-0.392420,1.193403,-0.134602,-10.093951,37.174725,-17.565201,-8.046083,0.308927,1.565658,-0.182328,0.000000,0.000000,0.000000,0.000000,0.000000,0.000000
13043226.000000,-2.338875,-1.662260,1.135404,-1.417985,1.733128,1.210950,-0.573753,0.596437,0.002976,1.241798,-0.464045,-0.391048,1.192904,-0.132673,-10.145526,37.515911,-18.374527,-7.724733,0.422452,1.584884,-0.136552,0.000000,0.000000,0.000000,0.000000,0.000000,0.000000
13043227.000000,-2.338278,-1.662243,1.136641,-1.418442,1.732751,1.212128,-0.573875,0.598760,0.008228,1.240824,-0.461010,-0.394418,1.179769,-0.126735,-10.117755,37.738079,-18.791092,-7.577943,0.327238,1.735030,-0.208878,0.000000,0.000000,0.000000,0.000000,0.000000,0.000000
13043228.000000,-2.337694,-1.662228,1.137897,-1.418902,1.732374,1.213277,-0.574014,0.589836,0.010755,1.240310,-0.458881,-0.384091,1.168697,-0.127420,-9.947162,37.833294,-19.112442,-7.554140,0.189908,1.884261,-0.149369,0.000000,0.000000,0.000000,0.000000,0.000000,0.000000
13043229.000000,-2.337128,-1.662229,1.139158,-1.419347,1.732009,1.214427,-0.574143,0.580795,0.009175,1.243593,-0.450441,-0.380222,1.160504,-0.123660,-9.649615,38.031658,-19.505203,-7.700929,0.004056,2.047225,-0.196061,0.000000,0.000000,0.000000,0.000000,0.000000,0.000000
13043230.000000,-2.336564,-1.662244,1.140440,-1.419778,1.731643,1.215585,-0.574273,0.575591,0.001079,1.248179,-0.444833,-0.378473,1.158918,-0.126919,-9.252887,38.372845,-19.774979,-7.970705,-0.162570,2.066451,-0.202470,0.000000,0.000000,0.000000,0.000000,0.000000,0.000000
13043231.000000,-2.336013,-1.662274,1.141755,-1.420201,1.731272,1.216733,-0.574412,0.564121,-0.008581,1.260868,-0.435957,-0.377280,1.165086,-0.133196,-8.808551,38.864788,-20.338333,-8.419008,-0.187289,2.001449,-0.116410,0.000000,0.000000,0.000000,0.000000,0.000000,0.000000
13043232.000000,-2.335487,-1.662311,1.143061,-1.420610,1.730904,1.217890,-0.574539,0.551850,-0.017243,1.277415,-0.436173,-0.365108,1.157399,-0.131869,-8.189654,39.428143,-20.953262,-8.934755,-0.157076,1.936446,-0.175919,0.000000,0.000000,0.000000,0.000000,0.000000,0.000000
13043233.000000,-2.334957,-1.662363,1.144391,-1.421014,1.730538,1.219031,-0.574679,0.540017,-0.026773,1.287676,-0.427759,-0.368956,1.182193,-0.132565,-7.594561,40.134319,-21.714981,-9.454470,-0.138766,1.825668,-0.089860,0.000000,0.000000,0.000000,0.000000,0.000000,0.000000
13043234.000000,-2.334449,-1.662416,1.145700,-1.421412,1.730156,1.220197,-0.574802,0.532165,-0.035480,1.293173,-0.417500,-0.365856,1.177213,-0.130925,-6.999468,40.796856,-22.278336,-9.974184,-0.007845,1.643478,-0.149369,0.000000,0.000000,0.000000,0.000000,0.000000,0.000000
13043235.000000,-2.333942,-1.662480,1.146999,-1.421801,1.729782,1.221357,-0.574930,0.516024,-0.044224,1.287789,-0.408230,-0.367155,1.163748,-0.132303,-6.356768,41.554607,-22.425125,-10.418520,0.093778,1.578475,-0.136552,0.000000,0.000000,0.000000,0.000000,0.000000,0.000000
13043236.000000,-2.333423,-1.662546,1.148305,-1.422194,1.729407,1.222487,-0.575050,0.512950,-0.049640,1.288239,-0.402448,-0.371209,1.152033,-0.127472,-5.936236,42.288555,-22.595718,-10.692263,0.166105,1.676437,-0.182328,0.000000,0.000000,0.000000,0.000000,0.000000,0.000000
13043237.000000,-2.332916,-1.662601,1.149571,-1.422588,1.729031,1.223618,-0.575181,0.513140,-0.049653,1.284266,-0.408690,-0.361821,1.136329,-0.127320,-5.638690,42.851910,-22.401321,-10.739870,0.147794,1.909896,-0.155778,0.000000,0.000000,0.000000,0.000000,0.000000,0.000000
13043238.000000,-2.332406,-1.662659,1.150858,-1.422992,1.728674,1.224780,-0.575307,0.506535,-0.052317,1.273465,-0.408024,-0.358718,1.135088,-0.125692,-5.392718,43.391460,-22.278336,-10.640688,0.100187,1.942855,-0.149369,0.000000,0.000000,0.000000,0.000000,0.000000,0.000000
13043239.000000,-2.331904,-1.662704,1.152109,-1.423401,1.728326,1.225934,-0.575431,0.514206,-0.049914,1.268481,-0.409592,-0.355007,1.143191,-0.122659,-5.118975,43.732647,-21.861771,-10.394716,0.015958,1.871444,-0.188737,0.000000,0.000000,0.000000,0.000000,0.000000,0.000000
13043240.000000,-2.331396,-1.662748,1.153410,-1.423818,1.727969,1.227105,-0.575559,0.512810,-0.045823,1.274738,-0.414104,-0.354448,1.141013,-0.123380,-4.968218,43.954815,-22.032364,-9.997988,-0.025240,1.819259,-0.136552,0.000000,0.000000,0.000000,0.000000,0.000000,0.000000
13043241.000000,-2.330891,-1.662778,1.154709,-1.424240,1.727609,1.228246,-0.575680,0.510015,-0.036089,1.280111,-0.418848,-0.349705,1.147417,-0.125773,-4.773821,44.002422,-22.155350,-9.553652,-0.055453,1.858627,-0.163102,0.000000,0.000000,0.000000,0.000000,0.000000,0.000000
13043242.000000,-2.330396,-1.662809,1.155987,-1.424666,1.727255,1.229405,-0.575812,0.502719,-0.034314,1.279222,-0.421776,-0.348233,1.149052,-0.125397,-4.599261,43.978619,-22.302139,-9.208498,-0.031649,1.851302,-0.130143,0.000000,0.000000,0.000000,0.000000,0.000000,0.000000
13043243.000000,-2.329919,-1.662832,1.157305,-1.425082,1.726894,1.230573,-0.575930,0.492307,-0.031099,1.282356,-0.419499,-0.350528,1.150668,-0.122681,-4.226336,43.855633,-22.794083,-8.910952,0.093778,1.838485,-0.169511,0.000000,0.000000,0.000000,0.000000,0.000000,0.000000
13043244.000000,-2.329439,-1.662850,1.158624,-1.425489,1.726542,1.231715,-0.576051,0.489125,-0.027687,1.306163,-0.412961,-0.342818,1.149873,-0.122157,-3.881182,43.661236,-23.258255,-8.910952,0.112089,1.897079,-0.163102,0.000000,0.000000,0.000000,0.000000,0.000000,0.000000
13043245.000000,-2.328967,-1.662867,1.159936,-1.425899,1.726196,1.232869,-0.576174,0.486639,-0.021963,1.311617,-0.407645,-0.351360,1.145742,-0.123094,-3.559832,43.439068,-23.920792,-8.764162,0.171598,1.955673,-0.142960,0.000000,0.000000,0.000000,0.000000,0.000000,0.000000
13043246.000000,-2.328506,-1.662884,1.161245,-1.426322,1.725861,1.233999,-0.576287,0.475627,-0.018043,1.309860,-0.409599,-0.343634,1.142944,-0.121123,-3.139300,43.220867,-24.265945,-8.589602,0.183500,2.079269,-0.175919,0.000000,0.000000,0.000000,0.000000,0.000000,0.000000
13043247.000000,-2.328045,-1.662908,1.162531,-1.426747,1.725506,1.235151,-0.576405,0.473944,-0.019393,1.306071,-0.418696,-0.349165,1.145910,-0.121815,-2.817950,43.173260,-24.488113,-8.367434,0.243009,2.098495,-0.149369,0.000000,0.000000,0.000000,0.000000,0.000000,0.000000
13043248.000000,-2.327572,-1.662931,1.163826,-1.427185,1.725166,1.236305,-0.576519,0.475205,-0.020245,1.299830,-0.426554,-0.347156,1.151382,-0.120812,-2.591815,43.121685,-24.583328,-7.946901,0.273221,2.144271,-0.163102,0.000000,0.000000,0.000000,0.000000,0.000000,0.000000
13043249.000000,-2.327102,-1.662950,1.165135,-1.427630,1.724832,1.237448,-0.576640,0.472034,-0.019674,1.295066,-0.434089,-0.343689,1.155703,-0.117716,-2.345843,43.026470,-24.757889,-7.478761,0.261320,2.060043,-0.136552,0.000000,0.000000,0.000000,0.000000,0.000000,0.000000
13043250.000000,-2.326640,-1.662975,1.166424,-1.428080,1.724498,1.238605,-0.576758,0.476141,-0.021506,1.296424,-0.449830,-0.341033,1.155398,-0.114424,-2.246661,43.026470,-24.952286,-6.959047,0.219205,1.981307,-0.122819,0.000000,0.000000,0.000000,0.000000,0.000000,0.000000
13043251.000000,-2.326183,-1.663002,1.167720,-1.428536,1.724159,1.239750,-0.576867,0.466876,-0.023774,1.289787,-0.455121,-0.340790,1.175779,-0.114805,-1.949114,43.074078,-25.003860,-6.490907,0.237516,1.877853,-0.149369,0.000000,0.000000,0.000000,0.000000,0.000000,0.000000
13043252.000000,-2.325737,-1.663032,1.169018,-1.428996,1.723820,1.240903,-0.576975,0.460246,-0.025874,1.292366,-0.453681,-0.341806,1.165424,-0.114777,-1.627764,43.145489,-25.345047,-6.141786,0.291532,1.858627,-0.175919,0.000000,0.000000,0.000000,0.000000,0.000000,0.000000
13043253.000000,-2.325302,-1.663057,1.170322,-1.429453,1.723502,1.242038,-0.577088,0.447549,-0.026229,1.293479,-0.452560,-0.336043,1.148692,-0.116589,-1.231036,43.173260,-25.666397,-5.796632,0.285123,2.060043,-0.149369,0.000000,0.000000,0.000000,0.000000,0.000000,0.000000
13043254.000000,-2.324861,-1.663087,1.171650,-1.429909,1.723164,1.243147,-0.577202,0.445448,-0.027606,1.300040,-0.451438,-0.334592,1.137429,-0.118391,-0.885882,43.244671,-26.229752,-5.598268,0.362943,2.307235,-0.122819,0.000000,0.000000,0.000000,0.000000,0.000000,0.000000
13043255.000000,-2.324435,-1.663108,1.172931,-1.430365,1.722822,1.244279,-0.577302,0.439351,-0.026179,1.297031,-0.455477,-0.332369,1.129111,-0.111505,-0.465350,43.220867,-26.376541,-5.399904,0.405057,2.495834,-0.208878,0.000000,0.000000,0.000000,0.000000,0.000000,0.000000
13043256.000000,-2.324005,-1.663137,1.174229,-1.430822,1.722485,1.245432,-0.577414,0.431772,-0.026409,1.290499,-0.454756,-0.332680,1.132293,-0.111989,-0.092425,43.244671,-26.574905,-5.205507,0.506681,2.475692,-0.142960,0.000000,0.000000,0.000000,0.000000,0.000000,0.000000
13043257.000000,-2.323589,-1.663154,1.175500,-1.431287,1.722154,1.246565,-0.577513,0.434832,-0.023610,1.278127,-0.455766,-0.334108,1.135191,-0.103521,0.252729,43.145489,-26.622513,-4.955568,0.518583,2.410690,-0.196061,0.000000,0.000000,0.000000,0.000000,0.000000,0.000000
13043258.000000,-2.323170,-1.663172,1.176793,-1.431742,1.721829,1.247708,-0.577620,0.432181,-0.021953,1.276504,-0.452732,-0.333119,1.131257,-0.104238,0.649457,43.050274,-26.697891,-4.733400,0.470060,2.339278,-0.175919,0.000000,0.000000,0.000000,0.000000,0.000000,0.000000
13043259.000000,-2.322747,-1.663190,1.178080,-1.432224,1.721500,1.248844,-0.577727,0.431093,-0.021199,1.272479,-0.460449,-0.329083,1.132186,-0.108675,0.970807,42.974895,-26.622513,-4.265260,0.452665,2.222091,-0.163102,0.000000,0.000000,0.000000,0.000000,0.000000,0.000000
13043260.000000,-2.322343,-1.663214,1.179327,-1.432696,1.721173,1.249993,-0.577831,0.422448,-0.023682,1.261815,-0.461400,-0.328973,1.133166,-0.105562,1.391340,43.026470,-26.305130,-3.920107,0.512174,2.072860,-0.202470,0.000000,0.000000,0.000000,0.000000,0.000000,0.000000
13043261.000000,-2.321930,-1.663234,1.180609,-1.433166,1.720858,1.251146,-0.577946,0.416655,-0.024060,1.259842,-0.461847,-0.326308,1.139866,-0.108748,1.641279,43.026470,-26.328934,-3.598757,0.506681,1.995040,-0.130143,0.000000,0.000000,0.000000,0.000000,0.000000,0.000000
13043262.000000,-2.321511,-1.663255,1.181876,-1.433634,1.720542,1.252284,-0.578044,0.417307,-0.021874,1.282564,-0.465168,-0.321928,1.145147,-0.105581,1.835676,43.050274,-26.106766,-3.376589,0.458158,1.916305,-0.169511,0.000000,0.000000,0.000000,0.000000,0.000000,0.000000
13043263.000000,-2.321107,-1.663280,1.183130,-1.434082,1.720226,1.253426,-0.578151,0.412261,-0.023868,1.276669,-0.451674,-0.325991,1.144418,-0.104710,2.085615,43.097881,-26.059158,-3.376589,0.494779,1.897079,-0.175919,0.000000,0.000000,0.000000,0.000000,0.000000,0.000000
13043264.000000,-2.320707,-1.663301,1.184384,-1.434535,1.719907,1.254548,-0.578249,0.405011,-0.024570,1.266713,-0.451162,-0.320866,1.139524,-0.102673,2.331586,43.121685,-25.884598,-3.376589,0.524076,1.949264,-0.221696,0.000000,0.000000,0.000000,0.000000,0.000000,0.000000
13043265.000000,-2.320299,-1.663329,1.185620,-1.434984,1.719591,1.255689,-0.578366,0.407865,-0.027435,1.257657,-0.451606,-0.317580,1.135244,-0.105535,2.383161,43.244671,-25.789383,-3.376589,0.584501,2.027084,-0.142960,0.000000,0.000000,0.000000,0.000000,0.000000,0.000000
13043266.000000,-2.319889,-1.663345,1.186863,-1.435434,1.719271,1.256834,-0.578466,0.408486,-0.022210,1.250360,-0.451825,-0.316465,1.131568,-0.099558,2.482343,43.197063,-25.642593,-3.249635,0.673307,2.098495,-0.163102,0.000000,0.000000,0.000000,0.000000,0.000000,0.000000
13043267.000000,-2.319468,-1.663366,1.188111,-1.435876,1.718960,1.257983,-0.578566,0.412283,-0.019601,1.245664,-0.443428,-0.317019,1.137115,-0.098613,2.430768,43.197063,-25.567215,-3.178224,0.691617,1.974899,-0.208878,0.000000,0.000000,0.000000,0.000000,0.000000,0.000000
13043268.000000,-2.319055,-1.663381,1.189333,-1.436316,1.718647,1.259157,-0.578672,0.409451,-0.016022,1.241867,-0.441803,-0.314788,1.136990,-0.096728,2.331586,43.121685,-25.468033,-3.079042,0.745634,1.747848,-0.175919,0.000000,0.000000,0.000000,0.000000,0.000000,0.000000
13043269.000000,-2.318642,-1.663385,1.190553,-1.436751,1.718353,1.260314,-0.578772,0.408248,-0.010602,1.228132,-0.437852,-0.309742,1.140399,-0.098115,2.283979,42.927288,-25.198257,-3.003664,0.715421,1.624252,-0.182328,0.000000,0.000000,0.000000,0.000000,0.000000,0.000000
13043270.000000,-2.318233,-1.663393,1.191774,-1.437180,1.718056,1.261478,-0.578878,0.410157,-0.008701,1.230430,-0.432155,-0.308643,1.145026,-0.099601,2.283979,42.804302,-25.174454,-3.102846,0.625699,1.572067,-0.169511,0.000000,0.000000,0.000000,0.000000,0.000000,0.000000
13043271.000000,-2.317822,-1.663396,1.193013,-1.437593,1.717766,1.262634,-0.578976,0.405570,-0.006915,1.227212,-0.418258,-0.299673,1.140571,-0.103191,2.260175,42.657513,-25.222061,-3.202028,0.559781,1.682845,-0.196061,0.000000,0.000000,0.000000,0.000000,0.000000,0.000000
13043272.000000,-2.317415,-1.663402,1.194260,-1.438006,1.717478,1.263769,-0.579082,0.401716,-0.006567,1.229373,-0.414026,-0.293884,1.137620,-0.103584,2.260175,42.558331,-25.368851,-3.348818,0.512174,1.851302,-0.182328,0.000000,0.000000,0.000000,0.000000,0.000000,0.000000
13043273.000000,-2.317017,-1.663400,1.195489,-1.438412,1.717193,1.264926,-0.579189,0.401179,-0.004049,1.229067,-0.406399,-0.290706,1.137012,-0.100967,2.283979,42.363934,-25.591019,-3.448000,0.494779,1.949264,-0.136552,0.000000,0.000000,0.000000,0.000000,0.000000,0.000000
13043274.000000,-2.316610,-1.663406,1.196745,-1.438809,1.716910,1.266087,-0.579279,0.400358,-0.002717,1.233520,-0.402049,-0.287288,1.138952,-0.098582,2.307783,42.316326,-26.007584,-3.622560,0.452665,2.020675,-0.208878,0.000000,0.000000,0.000000,0.000000,0.000000,0.000000
13043275.000000,-2.316204,-1.663406,1.197986,-1.439211,1.716626,1.267230,-0.579382,0.402118,-0.001678,1.260936,-0.396459,-0.282913,1.144455,-0.100870,2.260175,42.141766,-26.451920,-3.622560,0.482877,2.085677,-0.175919,0.000000,0.000000,0.000000,0.000000,0.000000,0.000000
13043276.000000,-2.315791,-1.663411,1.199221,-1.439607,1.716352,1.268376,-0.579480,0.402456,-0.004073,1.252387,-0.393488,-0.287479,1.136127,-0.097374,2.109418,42.094158,-26.574905,-3.570986,0.524076,2.150680,-0.169511,0.000000,0.000000,0.000000,0.000000,0.000000,0.000000
13043277.000000,-2.315382,-1.663418,1.200452,-1.440004,1.716078,1.269503,-0.579581,0.403839,-0.003094,1.238458,-0.391355,-0.279271,1.133886,-0.094940,2.010236,42.070354,-26.670120,-3.448000,0.596403,2.202865,-0.155778,0.000000,0.000000,0.000000,0.000000,0.000000,0.000000
13043278.000000,-2.314976,-1.663430,1.201657,-1.440403,1.715808,1.270643,-0.579681,0.407467,-0.006059,1.228999,-0.392568,-0.279602,1.138366,-0.092151,1.962629,42.070354,-26.574905,-3.376589,0.589994,2.235824,-0.163102,0.000000,0.000000,0.000000,0.000000,0.000000,0.000000
13043279.000000,-2.314556,-1.663440,1.202870,-1.440788,1.715537,1.271790,-0.579773,0.409790,-0.007984,1.218237,-0.387882,-0.278786,1.143029,-0.090066,1.788068,42.070354,-26.352737,-3.277406,0.554288,2.222091,-0.175919,0.000000,0.000000,0.000000,0.000000,0.000000,0.000000
13043280.000000,-2.314151,-1.663448,1.204090,-1.441177,1.715269,1.272909,-0.579865,0.407985,-0.008790,1.218693,-0.389455,-0.277025,1.135066,-0.093073,1.764264,42.046551,-26.154373,-3.202028,0.500272,2.261459,-0.182328,0.000000,0.000000,0.000000,0.000000,0.000000,0.000000
13043281.000000,-2.313757,-1.663457,1.205278,-1.441551,1.715001,1.274058,-0.579952,0.404951,-0.007327,1.210168,-0.379070,-0.276126,1.137001,-0.090143,1.811872,42.070354,-25.813187,-3.249635,0.476469,2.131454,-0.221696,0.000000,0.000000,0.000000,0.000000,0.000000,0.000000
13043282.000000,-2.313363,-1.663467,1.206495,-1.441934,1.714741,1.275184,-0.580049,0.400328,-0.008160,1.207180,-0.383032,-0.276959,1.130026,-0.092171,1.934858,42.046551,-25.737808,-3.202028,0.452665,2.053634,-0.142960,0.000000,0.000000,0.000000,0.000000,0.000000,0.000000
13043283.000000,-2.312972,-1.663469,1.207687,-1.442311,1.714475,1.276328,-0.580134,0.396057,-0.004452,1.204194,-0.378869,-0.272342,1.128931,-0.092339,2.010236,41.971172,-25.567215,-3.301210,0.422452,1.974899,-0.208878,0.000000,0.000000,0.000000,0.000000,0.000000,0.000000
13043284.000000,-2.312586,-1.663472,1.208909,-1.442683,1.714212,1.277477,-0.580231,0.394446,-0.004372,1.207151,-0.379260,-0.266798,1.131675,-0.093380,2.160993,41.875957,-25.666397,-3.277406,0.452665,1.923629,-0.136552,0.000000,0.000000,0.000000,0.000000,0.000000,0.000000
13043285.000000,-2.312202,-1.663479,1.210112,-1.443048,1.713943,1.278609,-0.580316,0.390188,-0.002955,1.199799,-0.374751,-0.263436,1.129326,-0.089604,2.307783,41.848186,-25.491837,-3.424196,0.512174,1.858627,-0.182328,0.000000,0.000000,0.000000,0.000000,0.000000,0.000000
13043286.000000,-2.311827,-1.663480,1.211307,-1.443414,1.713690,1.279761,-0.580406,0.386042,-0.000260,1.199700,-0.372846,-0.262494,1.126085,-0.088136,2.506147,41.752972,-25.519608,-3.424196,0.476469,1.773483,-0.196061,0.000000,0.000000,0.000000,0.000000,0.000000,0.000000
13043287.000000,-2.311448,-1.663480,1.212506,-1.443779,1.713442,1.280876,-0.580500,0.383154,-0.001386,1.192622,-0.367929,-0.261360,1.121532,-0.090207,2.680707,41.653790,-25.468033,-3.475771,0.440763,1.832076,-0.136552,0.000000,0.000000,0.000000,0.000000,0.000000,0.000000
13043288.000000,-2.311073,-1.663480,1.213678,-1.444139,1.713178,1.282018,-0.580579,0.382176,0.001400,1.185923,-0.360165,-0.257791,1.123730,-0.090689,2.752119,41.530804,-25.273636,-3.499574,0.458158,1.858627,-0.202470,0.000000,0.000000,0.000000,0.000000,0.000000,0.000000
13043289.000000,-2.310698,-1.663476,1.214862,-1.444498,1.712919,1.283157,-0.580672,0.380211,0.000229,1.178834,-0.353936,-0.255986,1.125860,-0.095498,2.827497,41.407818,-25.075272,-3.448000,0.500272,1.936446,-0.142960,0.000000,0.000000,0.000000,0.000000,0.000000,0.000000
13043290.000000,-2.310310,-1.663473,1.216026,-1.444858,1.712664,1.284279,-0.580754,0.384932,0.001805,1.168731,-0.353036,-0.253256,1.130659,-0.091236,2.752119,41.312603,-24.583328,-3.348818,0.512174,2.014266,-0.188737,0.000000,0.000000,0.000000,0.000000,0.000000,0.000000
13043291.000000,-2.309932,-1.663457,1.217184,-1.445216,1.712418,1.285424,-0.580841,0.384390,0.006526,1.168566,-0.355723,-0.244602,1.132589,-0.090088,2.728315,41.066631,-24.313553,-3.225832,0.470060,1.981307,-0.182328,0.000000,0.000000,0.000000,0.000000,0.000000,0.000000
13043292.000000,-2.309545,-1.663447,1.218368,-1.445562,1.712174,1.286584,-0.580926,0.381042,0.006904,1.163457,-0.352363,-0.248554,1.138697,-0.088710,2.652936,40.943645,-24.265945,-3.202028,0.446256,1.865035,-0.188737,0.000000,0.000000,0.000000,0.000000,0.000000,0.000000
13043293.000000,-2.309167,-1.663432,1.219535,-1.445910,1.711927,1.287727,-0.581011,0.386636,0.014552,1.186998,-0.350136,-0.250100,1.143212,-0.084181,2.629133,40.773052,-24.242142,-3.126650,0.398649,1.721298,-0.175919,0.000000,0.000000,0.000000,0.000000,0.000000,0.000000
13043294.000000,-2.308795,-1.663422,1.220733,-1.446247,1.711686,1.288872,-0.581092,0.381823,0.012356,1.189659,-0.346109,-0.252591,1.135367,-0.084346,2.605329,40.673870,-24.464310,-3.178224,0.405057,1.670028,-0.182328,0.000000,0.000000,0.000000,0.000000,0.000000,0.000000
13043295.000000,-2.308425,-1.663410,1.221935,-1.446585,1.711448,1.289991,-0.581175,0.374494,0.014536,1.193205,-0.340132,-0.250257,1.122890,-0.084954,2.704511,40.550884,-24.706314,-3.249635,0.393156,1.721298,-0.175919,0.000000,0.000000,0.000000,0.000000,0.000000,0.000000
13043297.000000,-2.307695,-1.663393,1.224324,-1.447250,1.710975,1.292261,-0.581343,0.370200,0.010906,1.191203,-0.332615,-0.245553,1.105866,-0.085640,2.827497,40.356487,-25.420425,-3.475771,0.428861,1.865035,-0.163102,0.000000,0.000000,0.000000,0.000000,0.000000,0.000000
13043298.000000,-2.307325,-1.663394,1.225514,-1.447570,1.710737,1.293375,-0.581433,0.372954,0.006969,1.187120,-0.326848,-0.244973,1.105773,-0.087140,2.803693,40.380291,-25.491837,-3.646364,0.434354,1.942855,-0.122819,0.000000,0.000000,0.000000,0.000000,0.000000,0.000000
13043299.000000,-2.306960,-1.663390,1.226683,-1.447890,1.710498,1.294504,-0.581510,0.371794,0.005950,1.179917,-0.324657,-0.241234,1.108269,-0.083832,2.779890,40.332684,-25.519608,-3.697939,0.464567,2.001449,-0.202470,0.000000,0.000000,0.000000,0.000000,0.000000,0.000000
13043300.000000,-2.306590,-1.663387,1.227854,-1.448213,1.710275,1.295610,-0.581597,0.372951,0.005317,1.172952,-0.323427,-0.235355,1.113850,-0.085743,2.752119,40.281109,-25.321243,-3.670168,0.410551,2.060043,-0.169511,0.000000,0.000000,0.000000,0.000000,0.000000,0.000000
13043301.000000,-2.306222,-1.663387,1.229015,-1.448540,1.710048,1.296742,-0.581681,0.370492,0.003002,1.171870,-0.323963,-0.232197,1.115502,-0.085632,2.629133,40.308880,-25.174454,-3.570986,0.386747,2.033492,-0.175919,0.000000,0.000000,0.000000,0.000000,0.000000,0.000000
13043302.000000,-2.305856,-1.663384,1.230174,-1.448858,1.709827,1.297889,-0.581759,0.369937,0.002732,1.165619,-0.324818,-0.231239,1.121719,-0.080920,2.581525,40.281109,-24.781693,-3.448000,0.398649,1.851302,-0.188737,0.000000,0.000000,0.000000,0.000000,0.000000,0.000000
13043303.000000,-2.305480,-1.663382,1.231340,-1.449175,1.709594,1.299019,-0.581841,0.369913,0.001881,1.162396,-0.324982,-0.234307,1.135133,-0.079389,2.529951,40.281109,-24.488113,-3.301210,0.393156,1.708480,-0.149369,0.000000,0.000000,0.000000,0.000000,0.000000,0.000000
13043304.000000,-2.305106,-1.663373,1.232508,-1.449494,1.709363,1.300148,-0.581919,0.370599,0.002970,1.168657,-0.324466,-0.236786,1.133290,-0.078956,2.430768,40.209698,-24.488113,-3.202028,0.386747,1.676437,-0.202470,0.000000,0.000000,0.000000,0.000000,0.000000,0.000000
13043305.000000,-2.304735,-1.663374,1.233660,-1.449798,1.709143,1.301271,-0.582004,0.368988,0.001457,1.155172,-0.318869,-0.228187,1.138878,-0.083245,2.383161,40.233501,-24.119156,-3.202028,0.356534,1.649886,-0.142960,0.000000,0.000000,0.000000,0.000000,0.000000,0.000000
13043306.000000,-2.304372,-1.663370,1.234818,-1.450104,1.708911,1.302405,-0.582084,0.373381,0.001554,1.157307,-0.316656,-0.229884,1.137377,-0.079051,2.283979,40.209698,-24.119156,-3.225832,0.416959,1.649886,-0.149369,0.000000,0.000000,0.000000,0.000000,0.000000,0.000000
13043307.000000,-2.304010,-1.663369,1.235978,-1.450400,1.708698,1.303543,-0.582157,0.372032,0.000498,1.155540,-0.307829,-0.223216,1.132787,-0.078455,2.232404,40.233501,-23.948563,-3.348818,0.398649,1.708480,-0.196061,0.000000,0.000000,0.000000,0.000000,0.000000,0.000000
13043308.000000,-2.303640,-1.663364,1.237161,-1.450694,1.708478,1.304658,-0.582236,0.369786,0.000903,1.159876,-0.296914,-0.221993,1.123712,-0.080866,2.109418,40.209698,-24.071548,-3.499574,0.351041,1.844894,-0.182328,0.000000,0.000000,0.000000,0.000000,0.000000,0.000000
13043309.000000,-2.303271,-1.663356,1.238310,-1.450995,1.708257,1.305792,-0.582314,0.372877,0.002376,1.158852,-0.298071,-0.221568,1.118474,-0.082531,1.911054,40.134319,-24.019974,-3.570986,0.308927,1.923629,-0.169511,0.000000,0.000000,0.000000,0.000000,0.000000,0.000000
13043310.000000,-2.302895,-1.663349,1.239470,-1.451286,1.708033,1.306939,-0.582386,0.369768,0.002149,1.152853,-0.297336,-0.219774,1.119493,-0.078541,1.641279,40.110516,-23.996170,-3.670168,0.351041,1.877853,-0.182328,0.000000,0.000000,0.000000,0.000000,0.000000,0.000000
13043311.000000,-2.302512,-1.663338,1.240608,-1.451583,1.707810,1.308055,-0.582461,0.370920,0.006774,1.171322,-0.293129,-0.218385,1.121325,-0.080157,1.244550,40.015301,-23.825577,-3.646364,0.410551,1.936446,-0.188737,0.000000,0.000000,0.000000,0.000000,0.000000,0.000000
13043312.000000,-2.302129,-1.663325,1.241751,-1.451882,1.707597,1.309190,-0.582539,0.377475,0.010271,1.164176,-0.294960,-0.223682,1.121397,-0.078030,0.847822,39.916119,-23.603409,-3.547182,0.410551,1.955673,-0.169511,0.000000,0.000000,0.000000,0.000000,0.000000,0.000000
13043313.000000,-2.301739,-1.663306,1.242902,-1.452178,1.707385,1.310319,-0.582610,0.380158,0.015020,1.155745,-0.294561,-0.219623,1.123713,-0.078906,0.502668,39.721722,-23.480423,-3.448000,0.416959,1.851302,-0.196061,0.000000,0.000000,0.000000,0.000000,0.000000,0.000000
13043314.000000,-2.301348,-1.663291,1.244036,-1.452468,1.707172,1.311469,-0.582688,0.386752,0.016560,1.153276,-0.294078,-0.219262,1.126707,-0.078279,0.153547,39.598736,-23.286026,-3.400392,0.374845,1.702071,-0.142960,0.000000,0.000000,0.000000,0.000000,0.000000,0.000000
13043315.000000,-2.300973,-1.663279,1.245194,-1.452747,1.706962,1.312602,-0.582754,0.384681,0.016115,1.152012,-0.288951,-0.213150,1.129303,-0.073566,-0.068621,39.547161,-23.286026,-3.424196,0.291532,1.689254,-0.202470,0.000000,0.000000,0.000000,0.000000,0.000000,0.000000
13043316.000000,-2.300597,-1.663262,1.246358,-1.453017,1.706754,1.313719,-0.582830,0.383400,0.016271,1.156638,-0.282548,-0.210677,1.134694,-0.073900,-0.290789,39.475750,-23.357437,-3.547182,0.267728,1.708480,-0.163102,0.000000,0.000000,0.000000,0.000000,0.000000,0.000000
13043317.000000,-2.300230,-1.663245,1.247515,-1.453278,1.706545,1.314834,-0.582903,0.380632,0.017074,1.154548,-0.285677,-0.210385,1.126219,-0.077237,-0.413775,39.376568,-23.627213,-3.697939,0.279630,1.844894,-0.155778,0.000000,0.000000,0.000000,0.000000,0.000000,0.000000
13043318.000000,-2.299857,-1.663235,1.248691,-1.453551,1.706344,1.315939,-0.582967,0.374960,0.012277,1.153975,-0.282129,-0.208787,1.146939,-0.069207,-0.564532,39.376568,-23.948563,-3.769350,0.255826,1.936446,-0.196061,0.000000,0.000000,0.000000,0.000000,0.000000,0.000000
13043319.000000,-2.299498,-1.663223,1.249857,-1.453815,1.706134,1.317048,-0.583041,0.367965,0.013701,1.163487,-0.272193,-0.210202,1.126782,-0.071265,-0.564532,39.305157,-24.341324,-3.892336,0.303434,2.027084,-0.136552,0.000000,0.000000,0.000000,0.000000,0.000000,0.000000
13043320.000000,-2.299133,-1.663218,1.251021,-1.454069,1.705922,1.318176,-0.583105,0.362898,0.009345,1.158831,-0.268552,-0.214965,1.118759,-0.068297,-0.687518,39.328960,-24.535721,-3.991518,0.327238,2.027084,-0.196061,0.000000,0.000000,0.000000,0.000000,0.000000,0.000000
13043321.000000,-2.298771,-1.663209,1.252191,-1.454329,1.705705,1.319287,-0.583177,0.359587,0.009427,1.160756,-0.265154,-0.213673,1.110212,-0.070615,-0.687518,39.352764,-24.658707,-4.043092,0.356534,1.995040,-0.136552,0.000000,0.000000,0.000000,0.000000,0.000000,0.000000
13043322.000000,-2.298409,-1.663207,1.253326,-1.454586,1.705499,1.320405,-0.583242,0.362689,0.007403,1.156847,-0.260456,-0.211292,1.103116,-0.069778,-0.762896,39.475750,-24.559525,-4.118471,0.339139,2.047225,-0.142960,0.000000,0.000000,0.000000,0.000000,0.000000,0.000000
13043323.000000,-2.298041,-1.663201,1.254465,-1.454836,1.705297,1.321505,-0.583304,0.362514,0.005176,1.147873,-0.258820,-0.209602,1.101883,-0.067711,-0.909686,39.499554,-24.289749,-4.142274,0.320829,2.047225,-0.188737,0.000000,0.000000,0.000000,0.000000,0.000000,0.000000
13043324.000000,-2.297688,-1.663198,1.255594,-1.455095,1.705091,1.322621,-0.583375,0.365086,0.005386,1.137881,-0.259397,-0.204000,1.106096,-0.069169,-0.961260,39.574932,-24.019974,-4.166078,0.327238,2.027084,-0.155778,0.000000,0.000000,0.000000,0.000000,0.000000,0.000000
13043325.000000,-2.297335,-1.663197,1.256724,-1.455346,1.704900,1.323748,-0.583434,0.361700,0.004804,1.130600,-0.254779,-0.197898,1.107216,-0.067545,-0.985064,39.693951,-23.579605,-4.166078,0.273221,2.014266,-0.196061,0.000000,0.000000,0.000000,0.000000,0.000000,0.000000
13043326.000000,-2.296985,-1.663189,1.257877,-1.455603,1.704703,1.324850,-0.583501,0.354266,0.006533,1.134130,-0.255879,-0.193862,1.109967,-0.069148,-0.933489,39.721722,-23.409012,-4.090700,0.225614,2.001449,-0.163102,0.000000,0.000000,0.000000,0.000000,0.000000,0.000000
13043327.000000,-2.296643,-1.663174,1.259003,-1.455856,1.704506,1.325982,-0.583563,0.349480,0.010153,1.130933,-0.254269,-0.191402,1.119408,-0.068727,-0.885882,39.646343,-23.210648,-4.118471,0.183500,1.903487,-0.169511,0.000000,0.000000,0.000000,0.000000,0.000000,0.000000
13043328.000000,-2.296307,-1.663163,1.260146,-1.456108,1.704311,1.327113,-0.583628,0.339814,0.011268,1.127296,-0.251645,-0.192028,1.123708,-0.069596,-0.687518,39.622540,-23.063858,-4.066896,0.213712,1.760665,-0.142960,0.000000,0.000000,0.000000,0.000000,0.000000,0.000000
13043329.000000,-2.295979,-1.663147,1.261298,-1.456350,1.704113,1.328226,-0.583685,0.332424,0.011328,1.129889,-0.246384,-0.192490,1.119290,-0.067554,-0.489153,39.499554,-23.063858,-4.142274,0.261320,1.676437,-0.188737,0.000000,0.000000,0.000000,0.000000,0.000000,0.000000
13043330.000000,-2.295654,-1.663126,1.262429,-1.456597,1.703924,1.329343,-0.583755,0.332130,0.012246,1.132818,-0.249680,-0.195416,1.110389,-0.065053,-0.366168,39.328960,-23.087662,-4.066896,0.273221,1.670028,-0.149369,0.000000,0.000000,0.000000,0.000000,0.000000,0.000000
13043331.000000,-2.295335,-1.663108,1.263581,-1.456848,1.703738,1.330446,-0.583816,0.325239,0.014172,1.135153,-0.248923,-0.193752,1.110819,-0.065177,-0.116229,39.229778,-23.210648,-4.043092,0.285123,1.676437,-0.169511,0.000000,0.000000,0.000000,0.000000,0.000000,0.000000
13043332.000000,-2.295012,-1.663093,1.264709,-1.457091,1.703547,1.331567,-0.583881,0.324950,0.014838,1.135873,-0.245615,-0.196178,1.107831,-0.066687,-0.044818,39.158367,-23.234451,-4.066896,0.273221,1.656295,-0.149369,0.000000,0.000000,0.000000,0.000000,0.000000,0.000000
13043333.000000,-2.294694,-1.663069,1.265841,-1.457332,1.703351,1.332685,-0.583941,0.319776,0.018331,1.134399,-0.242782,-0.199027,1.106560,-0.066078,0.105939,38.960003,-23.111465,-3.991518,0.279630,1.735030,-0.175919,0.000000,0.000000,0.000000,0.000000,0.000000,0.000000
13043334.000000,-2.294378,-1.663052,1.266980,-1.457577,1.703156,1.333790,-0.584005,0.317049,0.018313,1.131269,-0.243014,-0.195911,1.108345,-0.066300,0.205121,38.864788,-22.988480,-3.920107,0.273221,1.760665,-0.188737,0.000000,0.000000,0.000000,0.000000,0.000000,0.000000
13043335.000000,-2.294069,-1.663029,1.268088,-1.457812,1.702966,1.334903,-0.584069,0.314868,0.020883,1.126547,-0.243412,-0.192939,1.100986,-0.068567,0.304304,38.666424,-22.742508,-3.892336,0.243009,1.825668,-0.149369,0.000000,0.000000,0.000000,0.000000,0.000000,0.000000
13043336.000000,-2.293760,-1.663011,1.269210,-1.458049,1.702777,1.336016,-0.584126,0.310898,0.020733,1.127296,-0.240906,-0.191610,1.130266,-0.062457,0.474897,38.543438,-22.500504,-3.820925,0.237516,1.754256,-0.196061,0.000000,0.000000,0.000000,0.000000,0.000000,0.000000
13043337.000000,-2.293455,-1.662987,1.270326,-1.458291,1.702594,1.337151,-0.584190,0.308373,0.022044,1.123736,-0.242882,-0.190659,1.133249,-0.061572,0.526471,38.372845,-22.377518,-3.745546,0.231107,1.584884,-0.149369,0.000000,0.000000,0.000000,0.000000,0.000000,0.000000
13043338.000000,-2.293152,-1.662972,1.271467,-1.458537,1.702407,1.338295,-0.584247,0.308627,0.020518,1.125195,-0.243153,-0.190340,1.137107,-0.062685,0.724836,38.301434,-22.425125,-3.547182,0.237516,1.454879,-0.155778,0.000000,0.000000,0.000000,0.000000,0.000000,0.000000
13043339.000000,-2.292852,-1.662949,1.272628,-1.458775,1.702218,1.339403,-0.584307,0.303696,0.017553,1.137440,-0.240745,-0.194198,1.136473,-0.059575,0.895429,38.178448,-22.694901,-3.475771,0.225614,1.429244,-0.163102,0.000000,0.000000,0.000000,0.000000,0.000000,0.000000
13043340.000000,-2.292561,-1.662934,1.273767,-1.459015,1.702030,1.340531,-0.584369,0.302030,0.016742,1.139256,-0.239653,-0.188147,1.131142,-0.058714,0.994611,38.130840,-22.940872,-3.348818,0.231107,1.467696,-0.130143,0.000000,0.000000,0.000000,0.000000,0.000000,0.000000
13043341.000000,-2.292282,-1.662920,1.274920,-1.459245,1.701844,1.341651,-0.584420,0.290952,0.015781,1.138793,-0.239253,-0.184964,1.118376,-0.054468,1.343732,38.103069,-23.234451,-3.348818,0.273221,1.572067,-0.196061,0.000000,0.000000,0.000000,0.000000,0.000000,0.000000
13043342.000000,-2.291996,-1.662903,1.276060,-1.459478,1.701662,1.342746,-0.584484,0.291299,0.016244,1.143211,-0.235481,-0.186135,1.110067,-0.060266,1.565900,38.031658,-23.528030,-3.348818,0.303434,1.786300,-0.136552,0.000000,0.000000,0.000000,0.000000,0.000000,0.000000
13043343.000000,-2.291717,-1.662887,1.277211,-1.459702,1.701484,1.343856,-0.584533,0.287132,0.016695,1.139269,-0.228970,-0.185810,1.098250,-0.056283,1.788068,37.956280,-23.774002,-3.376589,0.308927,1.968490,-0.182328,0.000000,0.000000,0.000000,0.000000,0.000000,0.000000
13043344.000000,-2.291436,-1.662871,1.278367,-1.459935,1.701311,1.344963,-0.584596,0.282734,0.016378,1.141649,-0.229680,-0.180856,1.100858,-0.057126,1.911054,37.908672,-23.873184,-3.325014,0.291532,2.039901,-0.130143,0.000000,0.000000,0.000000,0.000000,0.000000,0.000000
13043345.000000,-2.291159,-1.662854,1.279500,-1.460177,1.701133,1.346088,-0.584642,0.280643,0.016719,1.138519,-0.230229,-0.182280,1.102857,-0.052890,1.986432,37.833294,-23.873184,-3.154421,0.285123,1.988631,-0.202470,0.000000,0.000000,0.000000,0.000000,0.000000,0.000000
13043346.000000,-2.290874,-1.662835,1.280634,-1.460423,1.700958,1.347212,-0.584700,0.283423,0.018065,1.134026,-0.233161,-0.187343,1.103393,-0.053372,1.986432,37.714275,-23.726395,-2.833071,0.249418,1.930038,-0.182328,0.000000,0.000000,0.000000,0.000000,0.000000,0.000000
13043347.000000,-2.290582,-1.662815,1.281771,-1.460667,1.700776,1.348314,-0.584757,0.287326,0.018110,1.125422,-0.234638,-0.183272,1.098454,-0.053899,1.911054,37.638897,-23.528030,-2.511720,0.267728,1.897079,-0.155778,0.000000,0.000000,0.000000,0.000000,0.000000,0.000000
13043348.000000,-2.290297,-1.662795,1.282893,-1.460909,1.700598,1.349429,-0.584809,0.286296,0.022198,1.125067,-0.241187,-0.185206,1.102175,-0.052780,1.835676,37.515911,-23.309830,-2.237978,0.315336,1.825668,-0.169511,0.000000,0.000000,0.000000,0.000000,0.000000,0.000000
13043349.000000,-2.290018,-1.662779,1.284031,-1.461155,1.700423,1.350535,-0.584858,0.281663,0.019909,1.126022,-0.244106,-0.178431,1.110980,-0.052469,1.911054,37.492107,-23.186844,-1.940431,0.369352,1.786300,-0.169511,0.000000,0.000000,0.000000,0.000000,0.000000,0.000000
13043350.000000,-2.289749,-1.662758,1.285153,-1.461386,1.700257,1.351642,-0.584910,0.277992,0.020567,1.124677,-0.238863,-0.174059,1.116243,-0.055179,2.010236,37.369122,-23.111465,-1.916628,0.320829,1.800033,-0.202470,0.000000,0.000000,0.000000,0.000000,0.000000,0.000000
13043351.000000,-2.289481,-1.662743,1.286288,-1.461600,1.700097,1.352771,-0.584964,0.273202,0.018625,1.120375,-0.229481,-0.171931,1.119784,-0.055615,2.085615,37.345318,-22.964676,-2.015810,0.297025,1.689254,-0.169511,0.000000,0.000000,0.000000,0.000000,0.000000,0.000000
13043352.000000,-2.289217,-1.662733,1.287435,-1.461826,1.699922,1.353867,-0.585013,0.270470,0.018678,1.127466,-0.226814,-0.173332,1.110741,-0.053816,2.260175,37.392925,-22.964676,-2.063417,0.351041,1.649886,-0.188737,0.000000,0.000000,0.000000,0.000000,0.000000,0.000000
13043353.000000,-2.288953,-1.662726,1.288564,-1.462045,1.699754,1.354972,-0.585071,0.267304,0.015249,1.128751,-0.224197,-0.170957,1.099890,-0.054135,2.359357,37.468304,-23.040054,-2.063417,0.315336,1.767074,-0.169511,0.000000,0.000000,0.000000,0.000000,0.000000,0.000000
13043354.000000,-2.288680,-1.662710,1.289712,-1.462270,1.699584,1.356061,-0.585123,0.264913,0.015723,1.129632,-0.220882,-0.171856,1.091979,-0.049659,2.307783,37.420696,-23.135269,-1.964235,0.351041,1.851302,-0.155778,0.000000,0.000000,0.000000,0.000000,0.000000,0.000000
13043355.000000,-2.288411,-1.662711,1.290830,-1.462496,1.699419,1.357189,-0.585172,0.265386,0.010911,1.125752,-0.221868,-0.167742,1.101647,-0.048902,2.283979,37.591290,-23.087662,-1.841249,0.393156,1.754256,-0.188737,0.000000,0.000000,0.000000,0.000000,0.000000,0.000000
13043356.000000,-2.288132,-1.662704,1.291963,-1.462709,1.699258,1.358325,-0.585225,0.269544,0.009854,1.121901,-0.219389,-0.163906,1.107020,-0.051829,2.109418,37.662701,-23.087662,-1.841249,0.410551,1.552840,-0.122819,0.000000,0.000000,0.000000,0.000000,0.000000,0.000000
13043357.000000,-2.287862,-1.662694,1.293098,-1.462921,1.699102,1.359427,-0.585268,0.269903,0.010897,1.117676,-0.219605,-0.163037,1.103959,-0.045726,2.034040,37.662701,-23.040054,-1.841249,0.356534,1.532699,-0.188737,0.000000,0.000000,0.000000,0.000000,0.000000,0.000000
13043358.000000,-2.287596,-1.662684,1.294203,-1.463124,1.698946,1.360533,-0.585318,0.269222,0.011463,1.115617,-0.210080,-0.158828,1.097314,-0.043209,1.986432,37.662701,-22.794083,-1.916628,0.327238,1.637069,-0.182328,0.000000,0.000000,0.000000,0.000000,0.000000,0.000000
13043359.000000,-2.287326,-1.662679,1.295306,-1.463324,1.698792,1.361647,-0.585368,0.268610,0.010001,1.112358,-0.208191,-0.157533,1.106031,-0.043100,1.934858,37.738079,-22.401321,-2.039613,0.344633,1.662704,-0.163102,0.000000,0.000000,0.000000,0.000000,0.000000,0.000000
13043360.000000,-2.287060,-1.662669,1.296411,-1.463528,1.698633,1.362745,-0.585414,0.269495,0.010185,1.108853,-0.205306,-0.155502,1.109780,-0.045626,1.835676,37.761883,-22.230728,-2.091188,0.344633,1.747848,-0.149369,0.000000,0.000000,0.000000,0.000000,0.000000,0.000000
13043361.000000,-2.286789,-1.662654,1.297537,-1.463722,1.698479,1.363855,-0.585451,0.268299,0.012667,1.109192,-0.203489,-0.156277,1.112017,-0.044906,1.665082,37.686504,-22.202957,-2.138796,0.297025,1.786300,-0.208878,0.000000,0.000000,0.000000,0.000000,0.000000,0.000000
13043362.000000,-2.286521,-1.662641,1.298686,-1.463921,1.698323,1.364965,-0.585499,0.266101,0.013644,1.121217,-0.198066,-0.154370,1.111979,-0.048429,1.542096,37.638897,-22.472733,-2.091188,0.279630,1.689254,-0.196061,0.000000,0.000000,0.000000,0.000000,0.000000,0.000000
13043363.000000,-2.286256,-1.662626,1.299817,-1.464116,1.698169,1.366083,-0.585548,0.262305,0.011806,1.121483,-0.196522,-0.154451,1.107271,-0.045432,1.391340,37.567486,-22.742508,-2.091188,0.303434,1.572067,-0.182328,0.000000,0.000000,0.000000,0.000000,0.000000,0.000000
13043364.000000,-2.285995,-1.662610,1.300972,-1.464304,1.698019,1.367202,-0.585595,0.260540,0.013003,1.124824,-0.193059,-0.154516,1.105576,-0.044229,1.315961,37.515911,-23.135269,-2.162599,0.332731,1.546432,-0.163102,0.000000,0.000000,0.000000,0.000000,0.000000,0.000000
13043365.000000,-2.285730,-1.662598,1.302135,-1.464489,1.697863,1.368290,-0.585639,0.262042,0.012689,1.140428,-0.186916,-0.154821,1.098577,-0.042631,1.268354,37.515911,-23.579605,-2.237978,0.374845,1.662704,-0.163102,0.000000,0.000000,0.000000,0.000000,0.000000,0.000000
13043366.000000,-2.285464,-1.662591,1.303266,-1.464665,1.697717,1.369384,-0.585678,0.262419,0.008802,1.137562,-0.187612,-0.152499,1.088984,-0.039288,1.121564,37.539715,-23.849380,-2.337160,0.344633,1.851302,-0.196061,0.000000,0.000000,0.000000,0.000000,0.000000,0.000000
13043367.000000,-2.285207,-1.662584,1.304406,-1.464838,1.697571,1.370472,-0.585728,0.259077,0.005893,1.132541,-0.183241,-0.151924,1.108121,-0.044618,1.093793,37.567486,-23.972366,-2.460146,0.344633,1.871444,-0.136552,0.000000,0.000000,0.000000,0.000000,0.000000,0.000000
13043368.000000,-2.284941,-1.662576,1.305515,-1.465010,1.697424,1.371565,-0.585763,0.261026,0.003878,1.129795,-0.178785,-0.150371,1.105128,-0.039167,0.923200,37.591290,-23.873184,-2.583132,0.308927,1.897079,-0.208878,0.000000,0.000000,0.000000,0.000000,0.000000,0.000000
13043369.000000,-2.284676,-1.662573,1.306639,-1.465180,1.697276,1.372662,-0.585811,0.258881,0.003257,1.124192,-0.175367,-0.149073,1.103764,-0.041436,0.748639,37.714275,-23.774002,-2.583132,0.267728,1.890670,-0.142960,0.000000,0.000000,0.000000,0.000000,0.000000,0.000000
13043370.000000,-2.284418,-1.662571,1.307770,-1.465350,1.697123,1.373742,-0.585854,0.255738,0.003114,1.121127,-0.172886,-0.149645,1.101968,-0.044643,0.649457,37.833294,-23.555801,-2.559328,0.273221,1.909896,-0.155778,0.000000,0.000000,0.000000,0.000000,0.000000,0.000000
13043371.000000,-2.284155,-1.662574,1.308873,-1.465512,1.696969,1.374842,-0.585887,0.258168,-0.000774,1.119875,-0.169105,-0.151198,1.098778,-0.044946,0.474897,37.984051,-23.210648,-2.535524,0.308927,1.897079,-0.196061,0.000000,0.000000,0.000000,0.000000,0.000000,0.000000
13043372.000000,-2.283891,-1.662574,1.309997,-1.465677,1.696822,1.375936,-0.585933,0.258347,0.000907,1.118553,-0.166465,-0.151131,1.099345,-0.044718,0.351911,38.079266,-23.063858,-2.460146,0.315336,1.760665,-0.155778,0.000000,0.000000,0.000000,0.000000,0.000000,0.000000
13043373.000000,-2.283638,-1.662573,1.311113,-1.465828,1.696678,1.377059,-0.585969,0.262193,0.002657,1.115117,-0.162914,-0.145917,1.101850,-0.040815,0.276533,38.154644,-23.016251,-2.583132,0.315336,1.532699,-0.188737,0.000000,0.000000,0.000000,0.000000,0.000000,0.000000
13043374.000000,-2.283391,-1.662568,1.312238,-1.465975,1.696536,1.378182,-0.586011,0.257054,0.002518,1.114953,-0.157273,-0.141472,1.098929,-0.040319,0.351911,38.154644,-22.917068,-2.706117,0.291532,1.389877,-0.155778,0.000000,0.000000,0.000000,0.000000,0.000000,0.000000
13043375.000000,-2.283140,-1.662569,1.313379,-1.466115,1.696392,1.379278,-0.586044,0.253117,0.000011,1.118354,-0.149287,-0.139358,1.106663,-0.037895,0.304304,38.249859,-22.988480,-2.880678,0.297025,1.409103,-0.202470,0.000000,0.000000,0.000000,0.000000,0.000000,0.000000
13043376.000000,-2.282900,-1.662569,1.314491,-1.466254,1.696248,1.380370,-0.586089,0.249410,0.002520,1.114938,-0.146318,-0.141967,1.095289,-0.042370,0.304304,38.301434,-22.940872,-3.055238,0.291532,1.605026,-0.175919,0.000000,0.000000,0.000000,0.000000,0.000000,0.000000
13043377.000000,-2.282661,-1.662569,1.315623,-1.466383,1.696099,1.381473,-0.586131,0.245145,0.001713,1.109622,-0.141460,-0.149594,1.095082,-0.042719,0.351911,38.325237,-23.016251,-3.225832,0.315336,1.754256,-0.149369,0.000000,0.000000,0.000000,0.000000,0.000000,0.000000
13043378.000000,-2.282411,-1.662570,1.316748,-1.466513,1.695956,1.382574,-0.586167,0.245495,0.001028,1.136589,-0.136615,-0.147777,1.099678,-0.043755,0.276533,38.349041,-23.016251,-3.424196,0.267728,1.786300,-0.175919,0.000000,0.000000,0.000000,0.000000,0.000000,0.000000
13043379.000000,-2.282164,-1.662566,1.317859,-1.466643,1.695815,1.383693,-0.586205,0.246572,-0.003004,1.127858,-0.130900,-0.147398,1.107100,-0.041197,0.153547,38.249859,-23.063858,-3.523378,0.255826,1.760665,-0.182328,0.000000,0.000000,0.000000,0.000000,0.000000,0.000000
13043380.000000,-2.281909,-1.662556,1.318979,-1.466778,1.695680,1.384796,-0.586245,0.246998,0.001151,1.121164,-0.134146,-0.143116,1.110928,-0.041019,-0.116229,38.103069,-23.016251,-3.499574,0.243009,1.735030,-0.163102,0.000000,0.000000,0.000000,0.000000,0.000000,0.000000
13043381.000000,-2.281656,-1.662551,1.320072,-1.466911,1.695547,1.385903,-0.586282,0.250800,0.001671,1.114798,-0.136501,-0.139803,1.107621,-0.038815,-0.389971,38.055462,-22.742508,-3.475771,0.225614,1.721298,-0.175919,0.000000,0.000000,0.000000,0.000000,0.000000,0.000000
13043382.000000,-2.281403,-1.662548,1.321182,-1.467036,1.695411,1.387014,-0.586316,0.249645,0.001514,1.109244,-0.131632,-0.139629,1.099651,-0.038112,-0.635943,38.031658,-22.623489,-3.448000,0.267728,1.741439,-0.188737,0.000000,0.000000,0.000000,0.000000,0.000000,0.000000
13043383.000000,-2.281153,-1.662543,1.322297,-1.467154,1.695282,1.388112,-0.586361,0.250328,0.002655,1.104799,-0.128841,-0.132409,1.099614,-0.040554,-0.834307,37.956280,-22.448929,-3.523378,0.255826,1.721298,-0.122819,0.000000,0.000000,0.000000,0.000000,0.000000,0.000000
13043384.000000,-2.280909,-1.662536,1.323408,-1.467271,1.695164,1.389225,-0.586387,0.247749,0.003908,1.111282,-0.129571,-0.123655,1.101035,-0.040158,-1.032672,37.861065,-22.524307,-3.570986,0.154203,1.727706,-0.202470,0.000000,0.000000,0.000000,0.000000,0.000000,0.000000
13043385.000000,-2.280669,-1.662532,1.324539,-1.467384,1.695038,1.390317,-0.586430,0.241920,0.003189,1.116669,-0.122564,-0.124731,1.116627,-0.041626,-1.084246,37.833294,-22.718704,-3.721742,0.123990,1.741439,-0.149369,0.000000,0.000000,0.000000,0.000000,0.000000,0.000000
13043386.000000,-2.280431,-1.662530,1.325671,-1.467497,1.694903,1.391430,-0.586464,0.238442,0.002633,1.125483,-0.118263,-0.127534,1.113144,-0.039651,-1.131854,37.809490,-23.040054,-3.820925,0.141385,1.702071,-0.149369,0.000000,0.000000,0.000000,0.000000,0.000000,0.000000
13043387.000000,-2.280197,-1.662531,1.326818,-1.467603,1.694770,1.392538,-0.586495,0.236560,0.001161,1.129698,-0.112997,-0.129410,1.103271,-0.033470,-1.207232,37.833294,-23.432816,-3.943910,0.159696,1.702071,-0.175919,0.000000,0.000000,0.000000,0.000000,0.000000,0.000000
13043388.000000,-2.279952,-1.662533,1.327966,-1.467712,1.694634,1.393608,-0.586533,0.240117,0.000097,1.133650,-0.109189,-0.127610,1.095742,-0.035813,-1.354022,37.861065,-23.873184,-3.991518,0.219205,1.865035,-0.142960,0.000000,0.000000,0.000000,0.000000,0.000000,0.000000
13043389.000000,-2.279720,-1.662536,1.329096,-1.467817,1.694502,1.394698,-0.586561,0.237764,-0.001070,1.135914,-0.105932,-0.129327,1.090344,-0.033764,-1.429400,37.908672,-24.166763,-4.066896,0.243009,1.968490,-0.188737,0.000000,0.000000,0.000000,0.000000,0.000000,0.000000
13043390.000000,-2.279487,-1.662541,1.330236,-1.467920,1.694381,1.395803,-0.586599,0.232714,-0.003049,1.132529,-0.104622,-0.129210,1.099197,-0.031343,-1.504779,38.007854,-24.341324,-4.090700,0.225614,1.942855,-0.155778,0.000000,0.000000,0.000000,0.000000,0.000000,0.000000
13043391.000000,-2.279258,-1.662547,1.331348,-1.468018,1.694249,1.396893,-0.586628,0.235114,-0.004272,1.127334,-0.102137,-0.130663,1.102180,-0.031831,-1.627764,38.103069,-24.289749,-4.166078,0.261320,1.877853,-0.163102,0.000000,0.000000,0.000000,0.000000,0.000000,0.000000
13043392.000000,-2.279026,-1.662551,1.332471,-1.468124,1.694130,1.397984,-0.586663,0.233958,-0.003506,1.119960,-0.102850,-0.128533,1.089610,-0.033037,-1.703143,38.130840,-24.190567,-4.142274,0.201810,1.865035,-0.142960,0.000000,0.000000,0.000000,0.000000,0.000000,0.000000
13043393.000000,-2.278789,-1.662562,1.333597,-1.468234,1.694012,1.399054,-0.586689,0.234727,-0.005778,1.115201,-0.105446,-0.127256,1.077974,-0.031951,-1.849932,38.277630,-24.019974,-4.043092,0.147794,1.974899,-0.202470,0.000000,0.000000,0.000000,0.000000,0.000000,0.000000
13043394.000000,-2.278555,-1.662574,1.334699,-1.468340,1.693885,1.400145,-0.586725,0.233876,-0.007847,1.113390,-0.102913,-0.129170,1.076798,-0.034449,-2.048296,38.448223,-23.726395,-3.967714,0.166105,1.988631,-0.155778,0.000000,0.000000,0.000000,0.000000,0.000000,0.000000
13043395.000000,-2.278331,-1.662583,1.335803,-1.468442,1.693758,1.401248,-0.586752,0.232914,-0.008112,1.102623,-0.101049,-0.130730,1.082921,-0.030028,-2.123675,38.571209,-23.357437,-3.892336,0.189908,1.955673,-0.175919,0.000000,0.000000,0.000000,0.000000,0.000000,0.000000
13043396.000000,-2.278104,-1.662581,1.336910,-1.468541,1.693626,1.402334,-0.586787,0.229726,-0.004761,1.124796,-0.100470,-0.130748,1.088039,-0.027839,-2.222857,38.543438,-23.286026,-3.892336,0.189908,1.923629,-0.149369,0.000000,0.000000,0.000000,0.000000,0.000000,0.000000
13043397.000000,-2.277891,-1.662586,1.338034,-1.468623,1.693510,1.403442,-0.586812,0.225572,-0.004383,1.126965,-0.097415,-0.127895,1.091334,-0.027991,-2.246661,38.595013,-23.234451,-4.066896,0.123990,1.819259,-0.188737,0.000000,0.000000,0.000000,0.000000,0.000000,0.000000
13043398.000000,-2.277679,-1.662594,1.339165,-1.468715,1.693381,1.404539,-0.586841,0.217139,-0.007871,1.122620,-0.097214,-0.126210,1.097075,-0.030258,-2.246661,38.666424,-23.286026,-4.118471,0.171598,1.702071,-0.196061,0.000000,0.000000,0.000000,0.000000,0.000000,0.000000
13043399.000000,-2.277470,-1.662598,1.340278,-1.468796,1.693251,1.405636,-0.586877,0.215649,-0.007285,1.119890,-0.091835,-0.125874,1.097886,-0.033761,-2.222857,38.741802,-23.309830,-4.265260,0.249418,1.670028,-0.130143,0.000000,0.000000,0.000000,0.000000,0.000000,0.000000
13043400.000000,-2.277264,-1.662607,1.341410,-1.468880,1.693131,1.406727,-0.586898,0.213029,-0.007290,1.122960,-0.089119,-0.122056,1.094655,-0.027480,-2.123675,38.837017,-23.480423,-4.364442,0.243009,1.741439,-0.196061,0.000000,0.000000,0.000000,0.000000,0.000000,0.000000
13043401.000000,-2.277047,-1.662615,1.342538,-1.468962,1.693014,1.407802,-0.586930,0.211893,-0.009948,1.121004,-0.087568,-0.118752,1.087583,-0.027377,-2.199053,38.912395,-23.555801,-4.439821,0.219205,1.812850,-0.142960,0.000000,0.000000,0.000000,0.000000,0.000000,0.000000
13043402.000000,-2.276843,-1.662626,1.343646,-1.469047,1.692894,1.408901,-0.586958,0.209836,-0.010445,1.118234,-0.087785,-0.117163,1.084372,-0.024989,-2.222857,39.059185,-23.555801,-4.439821,0.213712,1.786300,-0.136552,0.000000,0.000000,0.000000,0.000000,0.000000,0.000000
13043403.000000,-2.276632,-1.662636,1.344765,-1.469132,1.692787,1.409993,-0.586979,0.206082,-0.008919,1.113649,-0.086609,-0.114027,1.103877,-0.021967,-2.322039,39.130596,-23.555801,-4.388246,0.159696,1.682845,-0.175919,0.000000,0.000000,0.000000,0.000000,0.000000,0.000000
13043404.000000,-2.276420,-1.662639,1.345852,-1.469210,1.692671,1.411091,-0.587013,0.208505,-0.009340,1.108579,-0.083944,-0.113981,1.101303,-0.022976,-2.492632,39.130596,-23.381241,-4.388246,0.171598,1.689254,-0.116410,0.000000,0.000000,0.000000,0.000000,0.000000,0.000000
13043405.000000,-2.276214,-1.662645,1.346952,-1.469288,1.692558,1.412186,-0.587031,0.204454,-0.010356,1.105776,-0.080004,-0.116807,1.092607,-0.019350,-2.568011,39.158367,-23.111465,-4.340639,0.123990,1.714889,-0.182328,0.000000,0.000000,0.000000,0.000000,0.000000,0.000000
13043406.000000,-2.276011,-1.662646,1.348064,-1.469361,1.692440,1.413267,-0.587056,0.200938,-0.006828,1.100547,-0.078227,-0.116679,1.092110,-0.024090,-2.619586,39.130596,-22.964676,-4.364442,0.141385,1.754256,-0.182328,0.000000,0.000000,0.000000,0.000000,0.000000,0.000000
13043407.000000,-2.275809,-1.662649,1.349165,-1.469429,1.692314,1.414361,-0.587080,0.201805,-0.004982,1.100768,-0.076882,-0.122895,1.090697,-0.022697,-2.667193,39.130596,-22.988480,-4.412050,0.207303,1.773483,-0.175919,0.000000,0.000000,0.000000,0.000000,0.000000,0.000000
13043408.000000,-2.275612,-1.662646,1.350281,-1.469494,1.692197,1.415478,-0.587111,0.195262,-0.001417,1.100991,-0.071843,-0.125266,1.101224,-0.022969,-2.619586,39.035381,-23.016251,-4.487428,0.213712,1.662704,-0.142960,0.000000,0.000000,0.000000,0.000000,0.000000,0.000000
13043409.000000,-2.275421,-1.662642,1.351406,-1.469559,1.692080,1.416579,-0.587132,0.197182,0.000577,1.109563,-0.069308,-0.122304,1.100357,-0.025300,-2.568011,38.960003,-23.409012,-4.511232,0.231107,1.507064,-0.155778,0.000000,0.000000,0.000000,0.000000,0.000000,0.000000
13043410.000000,-2.275232,-1.662635,1.352544,-1.469631,1.691967,1.417677,-0.587154,0.190685,0.002430,1.116356,-0.069441,-0.123991,1.091171,-0.022980,-2.520403,38.864788,-23.849380,-4.439821,0.237516,1.519881,-0.163102,0.000000,0.000000,0.000000,0.000000,0.000000,0.000000
13043411.000000,-2.275040,-1.662635,1.353691,-1.469699,1.691856,1.418754,-0.587181,0.190012,0.001484,1.121447,-0.069249,-0.120430,1.088490,-0.021944,-2.520403,38.864788,-24.242142,-4.388246,0.213712,1.624252,-0.163102,0.000000,0.000000,0.000000,0.000000,0.000000,0.000000
13043412.000000,-2.274858,-1.662637,1.354819,-1.469762,1.691741,1.419830,-0.587205,0.188406,0.000887,1.121722,-0.066957,-0.118595,1.074770,-0.021473,-2.468829,38.864788,-24.559525,-4.412050,0.213712,1.909896,-0.142960,0.000000,0.000000,0.000000,0.000000,0.000000,0.000000
13043413.000000,-2.274679,-1.662638,1.355953,-1.469824,1.691631,1.420918,-0.587226,0.186200,-0.000042,1.119767,-0.065828,-0.116856,1.072907,-0.020212,-2.369647,38.888592,-24.805496,-4.412050,0.201810,2.112228,-0.163102,0.000000,0.000000,0.000000,0.000000,0.000000,0.000000
13043414.000000,-2.274503,-1.662639,1.357082,-1.469879,1.691530,1.422002,-0.587244,0.182453,-0.000085,1.114491,-0.063735,-0.112357,1.078739,-0.023602,-2.298235,38.888592,-24.904678,-4.463624,0.112089,2.157089,-0.188737,0.000000,0.000000,0.000000,0.000000,0.000000,0.000000
13043415.000000,-2.274328,-1.662638,1.358193,-1.469938,1.691423,1.423104,-0.587271,0.181826,0.000457,1.115779,-0.062038,-0.111054,1.077301,-0.024569,-2.322039,38.864788,-24.928482,-4.412050,0.081876,2.125045,-0.122819,0.000000,0.000000,0.000000,0.000000,0.000000,0.000000
13043416.000000,-2.274146,-1.662636,1.359305,-1.469998,1.691307,1.424190,-0.587282,0.184781,-0.002230,1.112749,-0.060717,-0.112548,1.083928,-0.020280,-2.369647,38.837017,-24.757889,-4.340639,0.105680,2.085677,-0.196061,0.000000,0.000000,0.000000,0.000000,0.000000,0.000000
13043417.000000,-2.273969,-1.662640,1.360402,-1.470065,1.691179,1.425285,-0.587310,0.183123,-0.002980,1.106775,-0.062686,-0.116090,1.089062,-0.017072,-2.397418,38.888592,-24.559525,-4.142274,0.195402,2.033492,-0.149369,0.000000,0.000000,0.000000,0.000000,0.000000,0.000000
13043418.000000,-2.273791,-1.662642,1.361511,-1.470134,1.691057,1.426379,-0.587329,0.182995,-0.002202,1.099678,-0.063726,-0.118235,1.086115,-0.012511,-2.468829,38.888592,-24.265945,-3.943910,0.279630,2.014266,-0.155778,0.000000,0.000000,0.000000,0.000000,0.000000,0.000000
13043419.000000,-2.273623,-1.662644,1.362637,-1.470198,1.690938,1.427456,-0.587345,0.176210,-0.001072,1.109101,-0.062670,-0.113393,1.080605,-0.012899,-2.397418,38.864788,-24.166763,-3.820925,0.320829,1.981307,-0.188737,0.000000,0.000000,0.000000,0.000000,0.000000,0.000000
13043420.000000,-2.273466,-1.662648,1.363745,-1.470252,1.690831,1.428555,-0.587367,0.174001,-0.001950,1.105888,-0.061581,-0.115087,1.080214,-0.014969,-2.298235,38.912395,-24.166763,-3.820925,0.249418,1.923629,-0.163102,0.000000,0.000000,0.000000,0.000000,0.000000,0.000000
13043421.000000,-2.273314,-1.662652,1.364859,-1.470296,1.690723,1.429642,-0.587385,0.166570,-0.004967,1.100098,-0.055570,-0.112334,1.100236,-0.015435,-2.099871,38.936199,-24.095352,-3.943910,0.189908,1.838485,-0.175919,0.000000,0.000000,0.000000,0.000000,0.000000,0.000000
13043422.000000,-2.273172,-1.662656,1.365972,-1.470339,1.690618,1.430745,-0.587410,0.160441,-0.004745,1.106825,-0.050816,-0.114731,1.101060,-0.017796,-1.849932,38.983807,-24.218338,-4.090700,0.129484,1.779891,-0.122819,0.000000,0.000000,0.000000,0.000000,0.000000,0.000000
13043423.000000,-2.273023,-1.662660,1.367093,-1.470383,1.690518,1.431840,-0.587422,0.155855,-0.004053,1.108062,-0.047197,-0.112121,1.096014,-0.015457,-1.726946,39.011578,-24.265945,-4.142274,0.064481,1.838485,-0.188737,0.000000,0.000000,0.000000,0.000000,0.000000,0.000000
13043424.000000,-2.272882,-1.662661,1.368221,-1.470428,1.690404,1.432904,-0.587445,0.147960,-0.002232,1.107240,-0.043915,-0.109695,1.089984,-0.017673,-1.528582,38.983807,-24.365128,-4.189882,0.105680,2.007858,-0.155778,0.000000,0.000000,0.000000,0.000000,0.000000,0.000000
13043425.000000,-2.272737,-1.662663,1.369324,-1.470475,1.690293,1.434001,-0.587462,0.149114,-0.001066,1.107662,-0.040168,-0.107116,1.098018,-0.017119,-1.504779,38.960003,-24.412735,-4.166078,0.135892,1.968490,-0.169511,0.000000,0.000000,0.000000,0.000000,0.000000,0.000000
13043426.000000,-2.272594,-1.662666,1.370429,-1.470523,1.690181,1.435117,-0.587482,0.147675,-0.001369,1.099988,-0.041416,-0.115574,1.107526,-0.018778,-1.405596,38.983807,-24.313553,-4.090700,0.195402,1.819259,-0.136552,0.000000,0.000000,0.000000,0.000000,0.000000,0.000000
13043427.000000,-2.272446,-1.662667,1.371529,-1.470572,1.690064,1.436209,-0.587496,0.145328,0.000125,1.101904,-0.042755,-0.117187,1.104009,-0.017002,-1.381793,38.936199,-24.289749,-3.991518,0.267728,1.695663,-0.169511,0.000000,0.000000,0.000000,0.000000,0.000000,0.000000
13043428.000000,-2.272301,-1.662667,1.372627,-1.470614,1.689958,1.437306,-0.587513,0.147698,0.001140,1.095115,-0.041783,-0.113780,1.094690,-0.017310,-1.405596,38.888592,-24.071548,-3.967714,0.231107,1.682845,-0.163102,0.000000,0.000000,0.000000,0.000000,0.000000,0.000000
13043429.000000,-2.272159,-1.662665,1.373720,-1.470664,1.689844,1.438379,-0.587525,0.144770,0.001924,1.088254,-0.044774,-0.114063,1.081727,-0.012279,-1.405596,38.837017,-23.801773,-3.797121,0.243009,1.779891,-0.182328,0.000000,0.000000,0.000000,0.000000,0.000000,0.000000
13043430.000000,-2.272021,-1.662667,1.374801,-1.470705,1.689731,1.439476,-0.587544,0.143807,0.001251,1.087949,-0.043267,-0.109567,1.080004,-0.013800,-1.429400,38.837017,-23.528030,-3.769350,0.261320,1.800033,-0.175919,0.000000,0.000000,0.000000,0.000000,0.000000,0.000000
13043431.000000,-2.271892,-1.662665,1.375908,-1.470742,1.689634,1.440584,-0.587564,0.139437,0.001923,1.088651,-0.042603,-0.103264,1.084557,-0.011832,-1.306414,38.789410,-23.528030,-3.721742,0.195402,1.800033,-0.136552,0.000000,0.000000,0.000000,0.000000,0.000000,0.000000
13043432.000000,-2.271766,-1.662664,1.377027,-1.470781,1.689535,1.441668,-0.587569,0.136552,0.002378,1.092723,-0.042157,-0.098898,1.084886,-0.006564,-1.183428,38.741802,-23.702591,-3.670168,0.141385,1.865035,-0.196061,0.000000,0.000000,0.000000,0.000000,0.000000,0.000000
13043433.000000,-2.271640,-1.662659,1.378152,-1.470814,1.689438,1.442772,-0.587589,0.131946,0.003335,1.106226,-0.040857,-0.100671,1.085458,-0.011798,-1.084246,38.666424,-24.119156,-3.670168,0.088285,1.851302,-0.130143,0.000000,0.000000,0.000000,0.000000,0.000000,0.000000
13043434.000000,-2.271516,-1.662660,1.379280,-1.470847,1.689338,1.443862,-0.587598,0.128889,0.002213,1.108944,-0.034713,-0.105027,1.095361,-0.008008,-1.008868,38.666424,-24.464310,-3.622560,0.112089,1.786300,-0.149369,0.000000,0.000000,0.000000,0.000000,0.000000,0.000000
13043435.000000,-2.271400,-1.662658,1.380390,-1.470878,1.689231,1.444953,-0.587610,0.122652,0.002025,1.113371,-0.032625,-0.105651,1.098896,-0.009725,-0.885882,38.642620,-24.829300,-3.598757,0.207303,1.832076,-0.163102,0.000000,0.000000,0.000000,0.000000,0.000000,0.000000
13043436.000000,-2.271285,-1.662660,1.381522,-1.470909,1.689125,1.446045,-0.587622,0.121133,0.000787,1.117310,-0.031137,-0.104658,1.091539,-0.012609,-0.762896,38.666424,-25.150650,-3.570986,0.261320,1.884261,-0.149369,0.000000,0.000000,0.000000,0.000000,0.000000,0.000000
13043437.000000,-2.271168,-1.662661,1.382649,-1.470939,1.689030,1.447111,-0.587632,0.118099,-0.000036,1.114296,-0.030485,-0.106082,1.079502,-0.012919,-0.687518,38.690228,-25.297440,-3.523378,0.249418,1.995040,-0.182328,0.000000,0.000000,0.000000,0.000000,0.000000,0.000000
13043438.000000,-2.271053,-1.662668,1.383747,-1.470963,1.688923,1.448204,-0.587649,0.115780,-0.002347,1.108405,-0.028347,-0.108655,1.072982,-0.011978,-0.612139,38.789410,-25.273636,-3.547182,0.279630,1.981307,-0.122819,0.000000,0.000000,0.000000,0.000000,0.000000,0.000000
13043439.000000,-2.270936,-1.662679,1.384853,-1.470994,1.688825,1.449293,-0.587656,0.114965,-0.005001,1.100885,-0.029791,-0.103764,1.078348,-0.011577,-0.588336,38.936199,-25.126846,-3.448000,0.255826,1.865035,-0.175919,0.000000,0.000000,0.000000,0.000000,0.000000,0.000000
13043440.000000,-2.270820,-1.662682,1.385940,-1.471026,1.688724,1.450373,-0.587669,0.117151,-0.003893,1.097292,-0.029234,-0.104594,1.075885,-0.013744,-0.588336,38.960003,-24.904678,-3.277406,0.225614,1.903487,-0.155778,0.000000,0.000000,0.000000,0.000000,0.000000,0.000000
13043441.000000,-2.270703,-1.662692,1.387045,-1.471055,1.688623,1.451457,-0.587677,0.117407,-0.004916,1.096890,-0.027637,-0.106460,1.073697,-0.014253,-0.635943,39.059185,-24.757889,-3.154421,0.219205,1.930038,-0.175919,0.000000,0.000000,0.000000,0.000000,0.000000,0.000000
13043442.000000,-2.270589,-1.662697,1.388137,-1.471085,1.688523,1.452530,-0.587691,0.116497,-0.004392,1.091041,-0.026729,-0.103151,1.080999,-0.016903,-0.635943,39.106792,-24.365128,-3.003664,0.213712,1.916305,-0.136552,0.000000,0.000000,0.000000,0.000000,0.000000,0.000000
13043443.000000,-2.270485,-1.662699,1.389233,-1.471111,1.688417,1.453626,-0.587702,0.110934,-0.005426,1.095579,-0.024921,-0.102797,1.089909,-0.017088,-0.564532,39.082989,-24.313553,-2.904482,0.261320,1.858627,-0.130143,0.000000,0.000000,0.000000,0.000000,0.000000,0.000000
13043444.000000,-2.270383,-1.662700,1.390337,-1.471130,1.688323,1.454738,-0.587710,0.107072,-0.002759,1.091641,-0.020541,-0.099075,1.096894,-0.016966,-0.512957,39.035381,-24.218338,-2.928285,0.225614,1.702071,-0.142960,0.000000,0.000000,0.000000,0.000000,0.000000,0.000000
13043445.000000,-2.270285,-1.662700,1.391434,-1.471141,1.688225,1.455836,-0.587713,0.102724,-0.000824,1.115953,-0.016413,-0.101910,1.097970,-0.015494,-0.389971,38.983807,-24.265945,-3.003664,0.213712,1.519881,-0.196061,0.000000,0.000000,0.000000,0.000000,0.000000,0.000000
13043446.000000,-2.270189,-1.662702,1.392548,-1.471149,1.688126,1.456926,-0.587725,0.097757,-0.002755,1.111195,-0.013608,-0.100035,1.083733,-0.016784,-0.314593,38.936199,-24.365128,-3.079042,0.225614,1.526290,-0.175919,0.000000,0.000000,0.000000,0.000000,0.000000,0.000000
13043447.000000,-2.270098,-1.662703,1.393658,-1.471161,1.688021,1.458004,-0.587738,0.092748,-0.003699,1.109047,-0.013000,-0.099538,1.083270,-0.013851,-0.191607,38.864788,-24.365128,-3.102846,0.249418,1.597701,-0.142960,0.000000,0.000000,0.000000,0.000000,0.000000,0.000000
13043448.000000,-2.270006,-1.662712,1.394748,-1.471173,1.687921,1.459088,-0.587744,0.091040,-0.007862,1.103349,-0.010959,-0.093968,1.078903,-0.008856,-0.144000,38.936199,-24.365128,-3.055238,0.267728,1.806442,-0.182328,0.000000,0.000000,0.000000,0.000000,0.000000,0.000000
13043449.000000,-2.269908,-1.662714,1.395852,-1.471167,1.687824,1.460182,-0.587761,0.092458,-0.004800,1.097594,-0.004757,-0.094277,1.079294,-0.009156,-0.215411,38.888592,-24.388931,-3.202028,0.273221,1.923629,-0.116410,0.000000,0.000000,0.000000,0.000000,0.000000,0.000000
13043450.000000,-2.269817,-1.662719,1.396951,-1.471173,1.687731,1.461277,-0.587758,0.093830,-0.003147,1.097515,-0.006866,-0.091780,1.081836,-0.003762,-0.191607,38.864788,-24.265945,-3.202028,0.213712,1.884261,-0.196061,0.000000,0.000000,0.000000,0.000000,0.000000,0.000000
13043451.000000,-2.269722,-1.662722,1.398023,-1.471174,1.687633,1.462389,-0.587770,0.093800,-0.003883,1.090244,-0.004214,-0.095298,1.085164,-0.004184,-0.243182,38.789410,-24.095352,-3.249635,0.166105,1.825668,-0.163102,0.000000,0.000000,0.000000,0.000000,0.000000,0.000000
13043452.000000,-2.269624,-1.662720,1.399112,-1.471175,1.687535,1.463484,-0.587781,0.094843,-0.003965,1.083172,-0.003372,-0.093796,1.095965,-0.008348,-0.366168,38.690228,-23.948563,-3.249635,0.129484,1.760665,-0.149369,0.000000,0.000000,0.000000,0.000000,0.000000,0.000000
