chaoyuefei/paper-gmrm-data/robot_logs/s2_dq_gmrm_xz_min_0.30_log_20260314_173139.csv
# time_ms,q_0,q_1,q_2,q_3,q_4,q_5,q_6,dq_0,dq_1,dq_2,dq_3,dq_4,dq_5,dq_6,tau_J_0,tau_J_1,tau_J_2,tau_J_3,tau_J_4,tau_J_5,tau_J_6,O_dP_EE_c_0,O_dP_EE_c_1,O_dP_EE_c_2,O_dP_EE_c_3,O_dP_EE_c_4,O_dP_EE_c_5
12161666.000000,-2.415950,-1.662597,1.042302,-1.355825,1.795753,1.080866,-0.548499,0.000248,0.001315,0.000380,0.001257,-0.000203,-0.000104,-0.000819,-0.044818,41.507000,-21.000870,-5.749025,0.882963,1.344100,0.048385,0.000000,0.000000,0.000000,0.000000,0.000000,0.000000
12161667.000000,-2.415950,-1.662602,1.042304,-1.355834,1.795754,1.080866,-0.548494,0.000165,-0.000794,0.000254,-0.001482,0.000305,-0.000069,0.001421,-0.044818,41.578411,-21.000870,-5.649843,0.871061,1.344100,-0.004716,0.000000,0.000000,0.000000,0.000000,0.000000,0.000000
12161668.000000,-2.415950,-1.662602,1.042302,-1.355829,1.795754,1.080868,-0.548496,0.000110,-0.000529,-0.000945,0.000682,0.000204,0.000666,0.000201,-0.044818,41.578411,-20.953262,-5.721254,0.871061,1.324874,0.015426,0.000000,0.000000,0.000000,0.000000,0.000000,0.000000
12161669.000000,-2.415952,-1.662599,1.042303,-1.355829,1.795750,1.080867,-0.548496,-0.000576,0.000761,0.000484,-0.000102,-0.001187,-0.000031,-0.000103,-0.017047,41.530804,-21.000870,-5.697450,0.906766,1.337692,0.021835,0.000000,0.000000,0.000000,0.000000,0.000000,0.000000
12161670.000000,-2.415947,-1.662603,1.042303,-1.355827,1.795756,1.080866,-0.548503,0.005982,-0.002657,-0.000234,0.002042,0.001413,-0.001241,-0.004362,0.252729,41.530804,-20.977066,-5.649843,0.847257,1.370651,0.021835,0.000000,0.000000,0.000000,0.000000,0.000000,0.000000
12161671.000000,-2.415938,-1.662604,1.042304,-1.355826,1.795756,1.080861,-0.548513,0.015015,-0.002620,0.001891,0.001255,-0.000880,-0.002364,-0.009124,1.292158,41.284832,-20.929459,-5.499086,0.763029,1.539108,-0.050492,0.000000,0.000000,0.000000,0.000000,0.000000,0.000000
12161672.000000,-2.415909,-1.662607,1.042313,-1.355824,1.795754,1.080859,-0.548545,0.023524,-0.002193,0.003474,-0.001155,-0.001011,-0.005440,-0.019957,2.827497,40.872234,-20.877884,-5.253114,0.637601,1.779891,-0.050492,0.000000,0.000000,0.000000,0.000000,0.000000,0.000000
12161673.000000,-2.415866,-1.662608,1.042330,-1.355825,1.795738,1.080882,-0.548588,0.028700,-0.001469,0.008553,-0.004482,-0.004318,0.003074,-0.027289,4.707990,40.404095,-20.854080,-4.931764,0.589994,1.871444,-0.070634,0.000000,0.000000,0.000000,0.000000,0.000000,0.000000
12161674.000000,-2.415799,-1.662605,1.042353,-1.355839,1.795712,1.080928,-0.548648,0.037859,0.001128,0.011174,-0.008362,-0.009373,0.019475,-0.042028,6.564680,39.840740,-20.782669,-4.535036,0.613798,1.819259,-0.070634,0.000000,0.000000,0.000000,0.000000,0.000000,0.000000
12161675.000000,-2.415713,-1.662607,1.042377,-1.355869,1.795675,1.081011,-0.548728,0.052772,0.000772,0.015239,-0.020841,-0.018225,0.037756,-0.058024,8.151593,39.352764,-20.659683,-4.118471,0.655912,1.591293,-0.050492,0.000000,0.000000,0.000000,0.000000,0.000000,0.000000
12161676.000000,-2.415614,-1.662602,1.042419,-1.355907,1.795627,1.081107,-0.548825,0.062636,0.004015,0.024900,-0.029395,-0.023605,0.058950,-0.072020,9.659162,38.837017,-20.683487,-3.721742,0.667814,1.389877,-0.097184,0.000000,0.000000,0.000000,0.000000,0.000000,0.000000
12161677.000000,-2.415497,-1.662597,1.042464,-1.355956,1.795557,1.081216,-0.548950,0.079706,0.004924,0.032857,-0.040074,-0.043561,0.074176,-0.089978,10.896955,38.372845,-20.608109,-3.400392,0.727323,1.318465,-0.056901,0.000000,0.000000,0.000000,0.000000,0.000000,0.000000
12161678.000000,-2.415370,-1.662598,1.042520,-1.356022,1.795479,1.081347,-0.549095,0.095462,0.005410,0.039510,-0.052087,-0.058429,0.096685,-0.106840,12.011762,38.055462,-20.560501,-3.055238,0.661405,1.312057,-0.037675,0.000000,0.000000,0.000000,0.000000,0.000000,0.000000
12161679.000000,-2.415229,-1.662592,1.042580,-1.356088,1.795383,1.081495,-0.549244,0.105846,0.007830,0.045151,-0.056366,-0.064405,0.111219,-0.120653,13.003583,37.662701,-20.413712,-2.904482,0.578092,1.402694,-0.097184,0.000000,0.000000,0.000000,0.000000,0.000000,0.000000
12161680.000000,-2.415076,-1.662580,1.042664,-1.356176,1.795262,1.081659,-0.549420,0.120456,0.009436,0.060581,-0.068403,-0.084117,0.125155,-0.135546,13.820844,37.273907,-20.485123,-2.658510,0.524076,1.546432,-0.044083,0.000000,0.000000,0.000000,0.000000,0.000000,0.000000
12161681.000000,-2.414908,-1.662564,1.042765,-1.356275,1.795137,1.081854,-0.549598,0.133147,0.013934,0.073640,-0.078262,-0.101544,0.152644,-0.147128,14.534955,36.881145,-20.608109,-2.511720,0.398649,1.630660,-0.077042,0.000000,0.000000,0.000000,0.000000,0.000000,0.000000
12161682.000000,-2.414723,-1.662550,1.042880,-1.356390,1.794980,1.082090,-0.549777,0.148507,0.013066,0.085702,-0.090296,-0.117814,0.181158,-0.152517,15.106244,36.535992,-20.707291,-2.337160,0.362943,1.617843,-0.103593,0.000000,0.000000,0.000000,0.000000,0.000000,0.000000
12161683.000000,-2.414521,-1.662529,1.043007,-1.356522,1.794794,1.082356,-0.549975,0.165650,0.014189,0.098704,-0.103936,-0.137908,0.205424,-0.167808,15.550580,36.123394,-20.854080,-2.214174,0.405057,1.532699,-0.050492,0.000000,0.000000,0.000000,0.000000,0.000000,0.000000
12161684.000000,-2.414296,-1.662506,1.043145,-1.356674,1.794591,1.082645,-0.550167,0.184243,0.014940,0.114949,-0.120346,-0.157364,0.232247,-0.172002,15.824323,35.706829,-21.024673,-2.091188,0.452665,1.454879,-0.070634,0.000000,0.000000,0.000000,0.000000,0.000000,0.000000
12161685.000000,-2.414062,-1.662488,1.043302,-1.356843,1.794354,1.082953,-0.550357,0.200923,0.016387,0.127433,-0.137500,-0.182463,0.254452,-0.177121,16.098066,35.385479,-21.199234,-1.916628,0.547880,1.429244,-0.044083,0.000000,0.000000,0.000000,0.000000,0.000000,0.000000
12161686.000000,-2.413806,-1.662472,1.043460,-1.357024,1.794106,1.083286,-0.550542,0.218729,0.015769,0.133625,-0.153489,-0.203008,0.280024,-0.179352,16.268660,35.143475,-21.246841,-1.892824,0.554288,1.442062,-0.056901,0.000000,0.000000,0.000000,0.000000,0.000000,0.000000
12161687.000000,-2.413537,-1.662461,1.043630,-1.357219,1.793836,1.083640,-0.550723,0.234347,0.013334,0.146859,-0.163923,-0.223542,0.302386,-0.179938,16.443220,34.996685,-21.270645,-1.940431,0.566190,1.500655,-0.110001,0.000000,0.000000,0.000000,0.000000,0.000000,0.000000
12161688.000000,-2.413258,-1.662447,1.043814,-1.357430,1.793553,1.084012,-0.550916,0.249741,0.011306,0.157344,-0.176888,-0.237073,0.318695,-0.185601,16.590010,34.873699,-21.294449,-1.916628,0.530485,1.565658,-0.050492,0.000000,0.000000,0.000000,0.000000,0.000000,0.000000
12161689.000000,-2.412952,-1.662438,1.044011,-1.357651,1.793264,1.084406,-0.551095,0.265226,0.008307,0.167819,-0.191072,-0.255368,0.340639,-0.179951,16.641584,34.826092,-21.294449,-1.940431,0.452665,1.637069,-0.097184,0.000000,0.000000,0.000000,0.000000,0.000000,0.000000
12161690.000000,-2.412627,-1.662434,1.044209,-1.357901,1.792952,1.084825,-0.551276,0.290345,0.005279,0.173125,-0.208879,-0.271851,0.365404,-0.174288,16.590010,34.826092,-21.175430,-1.817445,0.332731,1.714889,-0.116410,0.000000,0.000000,0.000000,0.000000,0.000000,0.000000
12161691.000000,-2.412288,-1.662434,1.044421,-1.358168,1.792617,1.085266,-0.551467,0.304660,0.005265,0.185409,-0.225643,-0.294617,0.383863,-0.175663,16.518599,34.873699,-21.123856,-1.670656,0.351041,1.702071,-0.064225,0.000000,0.000000,0.000000,0.000000,0.000000,0.000000
12161692.000000,-2.411937,-1.662434,1.044636,-1.358455,1.792272,1.085741,-0.551644,0.315830,0.002505,0.191294,-0.242586,-0.310373,0.411828,-0.176746,16.542402,34.921307,-20.953262,-1.472292,0.332731,1.682845,-0.122819,0.000000,0.000000,0.000000,0.000000,0.000000,0.000000
12161693.000000,-2.411573,-1.662431,1.044869,-1.358750,1.791902,1.086242,-0.551829,0.329284,0.002866,0.204207,-0.261241,-0.328564,0.434668,-0.181937,16.490828,34.873699,-20.977066,-1.420717,0.374845,1.605026,-0.070634,0.000000,0.000000,0.000000,0.000000,0.000000,0.000000
12161694.000000,-2.411198,-1.662433,1.045103,-1.359061,1.791519,1.086759,-0.552010,0.341817,0.000858,0.212026,-0.276283,-0.342368,0.460501,-0.179627,16.590010,34.921307,-20.806473,-1.349306,0.405057,1.539108,-0.070634,0.000000,0.000000,0.000000,0.000000,0.000000,0.000000
12161695.000000,-2.410812,-1.662429,1.045366,-1.359369,1.791119,1.087304,-0.552186,0.353333,0.001732,0.228075,-0.294396,-0.362079,0.488097,-0.179917,16.764570,34.873699,-20.782669,-1.420717,0.446256,1.474105,-0.122819,0.000000,0.000000,0.000000,0.000000,0.000000,0.000000
12161696.000000,-2.410421,-1.662427,1.045625,-1.359705,1.790698,1.087860,-0.552370,0.364604,0.001746,0.237420,-0.306256,-0.382683,0.522967,-0.182906,16.962934,34.849895,-20.659683,-1.396913,0.518583,1.474105,-0.103593,0.000000,0.000000,0.000000,0.000000,0.000000,0.000000
12161697.000000,-2.410010,-1.662432,1.045891,-1.360046,1.790273,1.088445,-0.552555,0.373532,-0.000481,0.243646,-0.315438,-0.394227,0.542218,-0.184912,17.109724,34.921307,-20.512894,-1.496095,0.482877,1.500655,-0.083451,0.000000,0.000000,0.000000,0.000000,0.000000,0.000000
12161698.000000,-2.409598,-1.662425,1.046184,-1.360413,1.789833,1.089047,-0.552733,0.385315,0.001926,0.266766,-0.331268,-0.406893,0.556981,-0.184682,17.335859,34.826092,-20.584305,-1.373109,0.458158,1.500655,-0.116410,0.000000,0.000000,0.000000,0.000000,0.000000,0.000000
12161699.000000,-2.409163,-1.662427,1.046468,-1.360796,1.789380,1.089664,-0.552909,0.398675,0.000185,0.272675,-0.343210,-0.426454,0.575139,-0.182141,17.530256,34.873699,-20.461319,-1.198549,0.410551,1.467696,-0.089860,0.000000,0.000000,0.000000,0.000000,0.000000,0.000000
12161700.000000,-2.408713,-1.662423,1.046768,-1.361192,1.788909,1.090305,-0.553075,0.413334,0.001248,0.281932,-0.363492,-0.441587,0.598712,-0.174326,17.780195,34.826092,-20.413712,-1.000185,0.374845,1.389877,-0.116410,0.000000,0.000000,0.000000,0.000000,0.000000,0.000000
12161701.000000,-2.408261,-1.662420,1.047079,-1.361607,1.788423,1.090972,-0.553253,0.427536,0.001490,0.289569,-0.378701,-0.453622,0.616796,-0.174705,18.053938,34.798321,-20.389908,-0.754213,0.356534,1.312057,-0.089860,0.000000,0.000000,0.000000,0.000000,0.000000,0.000000
12161702.000000,-2.407784,-1.662413,1.047398,-1.362040,1.787922,1.091630,-0.553427,0.443574,0.002670,0.298154,-0.400103,-0.460542,0.632066,-0.173866,18.323713,34.726910,-20.362137,-0.508241,0.410551,1.305648,-0.083451,0.000000,0.000000,0.000000,0.000000,0.000000,0.000000
12161703.000000,-2.407303,-1.662399,1.047731,-1.362475,1.787410,1.092322,-0.553587,0.446452,0.007147,0.310022,-0.415009,-0.472821,0.646811,-0.166901,18.347517,34.627728,-20.290726,-0.385256,0.547880,1.305648,-0.136552,0.000000,0.000000,0.000000,0.000000,0.000000,0.000000
12161704.000000,-2.406817,-1.662389,1.048062,-1.362932,1.786897,1.093027,-0.553761,0.444128,0.008629,0.318200,-0.431689,-0.496702,0.668652,-0.169140,17.756392,34.603924,-20.044754,-0.484438,0.649503,1.318465,-0.110001,0.000000,0.000000,0.000000,0.000000,0.000000,0.000000
12161705.000000,-2.406335,-1.662372,1.048427,-1.363407,1.786366,1.093754,-0.553930,0.446581,0.010747,0.337149,-0.445846,-0.504506,0.679703,-0.170170,16.490828,34.409527,-19.699600,-0.778017,0.786832,1.357833,-0.103593,0.000000,0.000000,0.000000,0.000000,0.000000,0.000000
12161706.000000,-2.405859,-1.662358,1.048816,-1.363892,1.785836,1.094507,-0.554084,0.456742,0.007040,0.356987,-0.457169,-0.516592,0.700435,-0.165376,14.661908,34.163555,-19.259232,-1.226320,0.852750,1.429244,-0.149369,0.000000,0.000000,0.000000,0.000000,0.000000,0.000000
12161707.000000,-2.405394,-1.662343,1.049234,-1.364384,1.785321,1.095267,-0.554248,0.462724,0.007855,0.376898,-0.465692,-0.516679,0.723276,-0.166425,12.753644,33.746990,-18.620499,-1.769838,0.781339,1.448470,-0.155778,0.000000,0.000000,0.000000,0.000000,0.000000,0.000000
12161708.000000,-2.404935,-1.662331,1.049677,-1.364880,1.784822,1.096050,-0.554414,0.468577,0.008379,0.391674,-0.471950,-0.507881,0.737374,-0.162572,10.920758,33.306622,-17.957962,-2.261781,0.620206,1.377059,-0.097184,0.000000,0.000000,0.000000,0.000000,0.000000,0.000000
12161709.000000,-2.404484,-1.662331,1.050141,-1.365397,1.784329,1.096823,-0.554573,0.465878,0.005468,0.412951,-0.478589,-0.500261,0.746239,-0.158179,9.163251,32.989239,-17.295425,-2.535524,0.381254,1.259872,-0.155778,0.000000,0.000000,0.000000,0.000000,0.000000,0.000000
12161710.000000,-2.404029,-1.662328,1.050641,-1.365905,1.783843,1.097608,-0.554741,0.464670,0.003437,0.435847,-0.485652,-0.489818,0.752786,-0.158521,7.604108,32.671856,-16.831253,-2.856874,0.141385,1.136276,-0.122819,0.000000,0.000000,0.000000,0.000000,0.000000,0.000000
12161711.000000,-2.403587,-1.662332,1.051128,-1.366399,1.783347,1.098405,-0.554905,0.456239,0.000458,0.460289,-0.486860,-0.491147,0.764156,-0.162292,6.366315,32.425884,-16.216324,-3.102846,0.022367,0.960494,-0.110001,0.000000,0.000000,0.000000,0.000000,0.000000,0.000000
12161712.000000,-2.403135,-1.662337,1.051631,-1.366894,1.782863,1.099183,-0.555069,0.457384,-0.002355,0.471904,-0.484553,-0.490736,0.771071,-0.164558,5.227705,32.203716,-15.601395,-3.400392,-0.031649,0.811263,-0.130143,0.000000,0.000000,0.000000,0.000000,0.000000,0.000000
12161713.000000,-2.402685,-1.662343,1.052143,-1.367362,1.782378,1.099949,-0.555233,0.451315,-0.007538,0.483935,-0.479396,-0.489456,0.759348,-0.166417,4.287458,31.985516,-15.109451,-3.769350,0.046171,0.830489,-0.103593,0.000000,0.000000,0.000000,0.000000,0.000000,0.000000
12161714.000000,-2.402241,-1.662353,1.052637,-1.367832,1.781872,1.100713,-0.555388,0.453507,-0.009900,0.484869,-0.477715,-0.492655,0.753811,-0.161832,3.497968,31.838726,-14.546097,-4.118471,0.237516,0.941268,-0.142960,0.000000,0.000000,0.000000,0.000000,0.000000,0.000000
12161715.000000,-2.401789,-1.662358,1.053138,-1.368305,1.781396,1.101466,-0.555551,0.451126,-0.011017,0.486392,-0.474922,-0.490154,0.752517,-0.161357,2.752119,31.668133,-13.935135,-4.340639,0.308927,0.987045,-0.103593,0.000000,0.000000,0.000000,0.000000,0.000000,0.000000
12161716.000000,-2.401333,-1.662372,1.053639,-1.368771,1.780912,1.102238,-0.555705,0.456024,-0.010291,0.487849,-0.472169,-0.488154,0.754344,-0.158367,2.061811,31.568951,-13.391617,-4.364442,0.416959,0.941268,-0.136552,0.000000,0.000000,0.000000,0.000000,0.000000,0.000000
12161717.000000,-2.400868,-1.662377,1.054139,-1.369257,1.780440,1.102990,-0.555866,0.455689,-0.007879,0.494738,-0.476672,-0.483350,0.755164,-0.156986,1.415143,31.398357,-12.998856,-4.118471,0.398649,0.934859,-0.142960,0.000000,0.000000,0.000000,0.000000,0.000000,0.000000
12161718.000000,-2.400387,-1.662382,1.054653,-1.369745,1.779984,1.103745,-0.556029,0.461582,-0.006042,0.499962,-0.482704,-0.466908,0.745922,-0.157712,0.649457,31.227764,-12.633865,-3.797121,0.291532,0.908309,-0.110001,0.000000,0.000000,0.000000,0.000000,0.000000,0.000000
12161719.000000,-2.399918,-1.662381,1.055165,-1.370234,1.779516,1.104507,-0.556182,0.462170,-0.002814,0.504545,-0.485460,-0.464868,0.743352,-0.156170,0.078168,30.981792,-12.288712,-3.348818,0.195402,0.908309,-0.130143,0.000000,0.000000,0.000000,0.000000,0.000000,0.000000
12161720.000000,-2.399444,-1.662373,1.055686,-1.370714,1.779070,1.105262,-0.556340,0.463873,0.001559,0.506662,-0.487550,-0.457725,0.751386,-0.155743,-0.465350,30.640606,-12.042740,-3.055238,0.069974,0.889083,-0.122819,0.000000,0.000000,0.000000,0.000000,0.000000,0.000000
12161721.000000,-2.398979,-1.662360,1.056217,-1.371177,1.778617,1.106017,-0.556491,0.468073,0.004663,0.511991,-0.480697,-0.454659,0.745365,-0.155181,-0.909686,30.295452,-11.820572,-2.928285,0.027860,0.895492,-0.130143,0.000000,0.000000,0.000000,0.000000,0.000000,0.000000
12161722.000000,-2.398511,-1.662347,1.056750,-1.371628,1.778161,1.106757,-0.556642,0.463765,0.006687,0.523409,-0.472250,-0.462721,0.743441,-0.154526,-1.183428,29.954266,-11.673782,-3.079042,0.058073,1.012679,-0.142960,0.000000,0.000000,0.000000,0.000000,0.000000,0.000000
12161723.000000,-2.398049,-1.662325,1.057289,-1.372080,1.777710,1.107512,-0.556800,0.458577,0.009876,0.526149,-0.462012,-0.457135,0.749425,-0.155060,-1.354022,29.537701,-11.479385,-3.178224,0.088285,1.084090,-0.130143,0.000000,0.000000,0.000000,0.000000,0.000000,0.000000
12161724.000000,-2.397581,-1.662308,1.057837,-1.372523,1.777248,1.108278,-0.556952,0.460352,0.013412,0.534517,-0.456738,-0.460779,0.751826,-0.154822,-1.580157,29.196514,-11.356400,-3.325014,0.225614,1.077682,-0.149369,0.000000,0.000000,0.000000,0.000000,0.000000,0.000000
12161725.000000,-2.397108,-1.662290,1.058397,-1.372965,1.776800,1.109032,-0.557109,0.461559,0.016150,0.545729,-0.448015,-0.461565,0.754486,-0.154429,-1.826129,28.851360,-11.185806,-3.499574,0.297025,1.045638,-0.149369,0.000000,0.000000,0.000000,0.000000,0.000000,0.000000
12161726.000000,-2.396619,-1.662269,1.058964,-1.373405,1.776354,1.109795,-0.557265,0.479139,0.018656,0.547541,-0.447574,-0.455489,0.751343,-0.156054,-2.222857,28.486370,-11.039017,-3.598757,0.351041,0.974227,-0.110001,0.000000,0.000000,0.000000,0.000000,0.000000,0.000000
12161727.000000,-2.396132,-1.662260,1.059543,-1.373848,1.775911,1.110560,-0.557415,0.484014,0.015384,0.558081,-0.446511,-0.453030,0.757424,-0.156953,-2.667193,28.339581,-10.987442,-3.598757,0.308927,0.843307,-0.188737,0.000000,0.000000,0.000000,0.000000,0.000000,0.000000
12161728.000000,-2.395645,-1.662252,1.060138,-1.374294,1.775484,1.111318,-0.557584,0.482526,0.012768,0.565569,-0.445661,-0.443998,0.753937,-0.156712,-3.040118,28.216595,-10.987442,-3.598757,0.195402,0.792037,-0.064225,0.000000,0.000000,0.000000,0.000000,0.000000,0.000000
12161729.000000,-2.395149,-1.662243,1.060717,-1.374734,1.775062,1.112076,-0.557726,0.487582,0.010002,0.585747,-0.446350,-0.430852,0.753458,-0.148785,-3.536028,28.141216,-10.793045,-3.523378,0.058073,0.798446,-0.142960,0.000000,0.000000,0.000000,0.000000,0.000000,0.000000
12161730.000000,-2.394660,-1.662235,1.061317,-1.375171,1.774637,1.112814,-0.557873,0.487002,0.010064,0.589645,-0.443269,-0.428770,0.745853,-0.145400,-3.857378,28.117413,-10.618484,-3.547182,-0.049044,0.882674,-0.169511,0.000000,0.000000,0.000000,0.000000,0.000000,0.000000
12161731.000000,-2.394162,-1.662235,1.061932,-1.375590,1.774212,1.113548,-0.558031,0.486416,0.005695,0.594841,-0.446832,-0.423176,0.736369,-0.150111,-4.154925,28.165020,-10.547073,-3.670168,-0.121371,1.039230,-0.083451,0.000000,0.000000,0.000000,0.000000,0.000000,0.000000
12161732.000000,-2.393667,-1.662232,1.062553,-1.376016,1.773786,1.114293,-0.558175,0.491655,0.004429,0.605620,-0.441291,-0.422001,0.737781,-0.144004,-4.547686,28.141216,-10.495499,-3.721742,-0.121371,1.162826,-0.155778,0.000000,0.000000,0.000000,0.000000,0.000000,0.000000
12161733.000000,-2.393154,-1.662231,1.063190,-1.376447,1.773348,1.115038,-0.558329,0.493276,0.002452,0.616375,-0.440708,-0.423852,0.747314,-0.142489,-5.043597,28.165020,-10.471695,-3.745546,-0.043551,1.162826,-0.149369,0.000000,0.000000,0.000000,0.000000,0.000000,0.000000
12161734.000000,-2.392659,-1.662228,1.063831,-1.376866,1.772906,1.115787,-0.558484,0.496960,0.002233,0.634686,-0.432777,-0.431114,0.739668,-0.142952,-5.341143,28.141216,-10.471695,-3.844728,0.112089,1.142684,-0.103593,0.000000,0.000000,0.000000,0.000000,0.000000,0.000000
12161735.000000,-2.392154,-1.662233,1.064483,-1.377290,1.772480,1.116528,-0.558628,0.494452,-0.000243,0.642229,-0.433660,-0.430433,0.746060,-0.142765,-5.662493,28.216595,-10.594681,-3.892336,0.201810,1.090499,-0.175919,0.000000,0.000000,0.000000,0.000000,0.000000,0.000000
12161736.000000,-2.391640,-1.662242,1.065155,-1.377718,1.772043,1.117273,-0.558779,0.497719,-0.002365,0.648163,-0.433266,-0.427788,0.747251,-0.146339,-6.059222,28.311810,-10.793045,-3.892336,0.243009,1.096908,-0.163102,0.000000,0.000000,0.000000,0.000000,0.000000,0.000000
12161737.000000,-2.391140,-1.662250,1.065823,-1.378134,1.771615,1.118027,-0.558932,0.499283,-0.003879,0.657200,-0.430664,-0.428470,0.749476,-0.150799,-6.305193,28.410992,-10.864456,-3.967714,0.231107,1.096908,-0.103593,0.000000,0.000000,0.000000,0.000000,0.000000,0.000000
12161738.000000,-2.390641,-1.662262,1.066502,-1.378546,1.771206,1.118766,-0.559074,0.496904,-0.006563,0.663567,-0.422249,-0.421415,0.751271,-0.145351,-6.432147,28.581585,-10.816849,-4.090700,0.129484,1.084090,-0.149369,0.000000,0.000000,0.000000,0.000000,0.000000,0.000000
12161739.000000,-2.390146,-1.662274,1.067199,-1.378952,1.770780,1.119521,-0.559226,0.507847,-0.008356,0.673050,-0.419754,-0.418689,0.747627,-0.149959,-6.626544,28.752178,-10.816849,-4.142274,0.105680,1.039230,-0.089860,0.000000,0.000000,0.000000,0.000000,0.000000,0.000000
12161740.000000,-2.389647,-1.662288,1.067890,-1.379354,1.770377,1.120257,-0.559365,0.501715,-0.015980,0.675222,-0.413524,-0.418082,0.745876,-0.143921,-6.753497,28.926739,-10.717667,-4.289064,0.034269,1.129867,-0.163102,0.000000,0.000000,0.000000,0.000000,0.000000,0.000000
12161741.000000,-2.389139,-1.662299,1.068600,-1.379773,1.769968,1.120990,-0.559517,0.501905,-0.014609,0.681702,-0.413072,-0.416007,0.741851,-0.143419,-6.951861,29.073528,-10.646255,-4.241457,-0.019747,1.194869,-0.136552,0.000000,0.000000,0.000000,0.000000,0.000000,0.000000
12161742.000000,-2.388637,-1.662312,1.069302,-1.380178,1.769542,1.121750,-0.559665,0.500454,-0.013565,0.688099,-0.411184,-0.418176,0.743835,-0.147426,-7.197833,29.220318,-10.424088,-4.241457,0.040677,1.123458,-0.103593,0.000000,0.000000,0.000000,0.000000,0.000000,0.000000
12161743.000000,-2.388128,-1.662325,1.070018,-1.380587,1.769126,1.122497,-0.559809,0.500999,-0.012771,0.690337,-0.411246,-0.416488,0.745570,-0.143169,-7.420001,29.367107,-10.201920,-4.265260,0.135892,1.031905,-0.142960,0.000000,0.000000,0.000000,0.000000,0.000000,0.000000
12161744.000000,-2.387612,-1.662328,1.070744,-1.380991,1.768710,1.123241,-0.559953,0.515721,-0.008734,0.696883,-0.404452,-0.416830,0.734184,-0.138230,-7.693743,29.367107,-9.908340,-4.241457,0.166105,0.974227,-0.149369,0.000000,0.000000,0.000000,0.000000,0.000000,0.000000
12161745.000000,-2.387109,-1.662337,1.071475,-1.381398,1.768288,1.123978,-0.560103,0.510417,-0.007658,0.704752,-0.405700,-0.416131,0.753662,-0.139120,-7.939715,29.438519,-9.737747,-4.312868,0.166105,0.980636,-0.122819,0.000000,0.000000,0.000000,0.000000,0.000000,0.000000
12161746.000000,-2.386605,-1.662335,1.072213,-1.381798,1.767879,1.124718,-0.560241,0.506799,-0.003559,0.712208,-0.402080,-0.414168,0.753630,-0.137404,-8.090472,29.367107,-9.416397,-4.439821,0.129484,0.993453,-0.155778,0.000000,0.000000,0.000000,0.000000,0.000000,0.000000
12161747.000000,-2.386106,-1.662336,1.072949,-1.382194,1.767469,1.125476,-0.560379,0.501836,-0.001909,0.734692,-0.404425,-0.413090,0.754288,-0.136733,-8.261065,29.343304,-9.122818,-4.511232,0.117582,0.966903,-0.175919,0.000000,0.000000,0.000000,0.000000,0.000000,0.000000
12161748.000000,-2.385605,-1.662338,1.073711,-1.382588,1.767067,1.126210,-0.560524,0.496522,-0.000693,0.743447,-0.400478,-0.406629,0.756973,-0.139292,-8.360248,29.315533,-8.976028,-4.634218,0.052579,1.031905,-0.122819,0.000000,0.000000,0.000000,0.000000,0.000000,0.000000
12161749.000000,-2.385103,-1.662325,1.074491,-1.382978,1.766670,1.126955,-0.560660,0.496657,0.004590,0.753867,-0.407265,-0.401858,0.748768,-0.136801,-8.483233,29.097332,-8.900650,-4.709596,-0.019747,1.090499,-0.155778,0.000000,0.000000,0.000000,0.000000,0.000000,0.000000
12161750.000000,-2.384612,-1.662322,1.075273,-1.383364,1.766270,1.127728,-0.560799,0.492585,0.005341,0.766983,-0.401093,-0.404370,0.750119,-0.136001,-8.558612,28.998150,-8.900650,-4.832582,-0.055453,0.993453,-0.182328,0.000000,0.000000,0.000000,0.000000,0.000000,0.000000
12161751.000000,-2.384121,-1.662309,1.076071,-1.383746,1.765867,1.128489,-0.560950,0.489351,0.008078,0.774592,-0.399093,-0.398437,0.757587,-0.139718,-8.534808,28.803753,-8.853043,-4.955568,-0.049044,0.824081,-0.089860,0.000000,0.000000,0.000000,0.000000,0.000000,0.000000
12161752.000000,-2.383641,-1.662299,1.076891,-1.384123,1.765472,1.129251,-0.561081,0.485223,0.008797,0.791117,-0.393707,-0.397054,0.757262,-0.133078,-8.511004,28.656963,-8.924454,-5.030946,-0.060946,0.771896,-0.130143,0.000000,0.000000,0.000000,0.000000,0.000000,0.000000
12161753.000000,-2.383156,-1.662288,1.077709,-1.384503,1.765081,1.129991,-0.561221,0.484448,0.008725,0.802656,-0.390980,-0.393767,0.752804,-0.133499,-8.435626,28.533978,-9.023636,-5.130128,-0.031649,0.863448,-0.142960,0.000000,0.000000,0.000000,0.000000,0.000000,0.000000
12161754.000000,-2.382670,-1.662276,1.078542,-1.384883,1.764685,1.130730,-0.561362,0.485050,0.011074,0.810304,-0.386793,-0.394942,0.744114,-0.134720,-8.261065,28.581585,-9.392593,-5.229311,-0.019747,0.980636,-0.136552,0.000000,0.000000,0.000000,0.000000,0.000000,0.000000
12161755.000000,-2.382192,-1.662271,1.079347,-1.385256,1.764299,1.131491,-0.561494,0.481938,0.011126,0.802823,-0.383198,-0.390389,0.749684,-0.135197,-8.038898,28.974346,-9.832962,-5.304689,-0.031649,1.045638,-0.136552,0.000000,0.000000,0.000000,0.000000,0.000000,0.000000
12161756.000000,-2.381710,-1.662263,1.080152,-1.385633,1.763930,1.132247,-0.561636,0.481631,0.010843,0.798110,-0.381793,-0.381673,0.755582,-0.135996,-7.669940,29.561504,-10.618484,-5.376100,-0.055453,1.064864,-0.122819,0.000000,0.000000,0.000000,0.000000,0.000000,0.000000
12161757.000000,-2.381228,-1.662252,1.080953,-1.386007,1.763547,1.133007,-0.561773,0.488527,0.010129,0.793771,-0.378964,-0.380237,0.753021,-0.139542,-7.150225,30.343060,-11.550797,-5.352296,-0.055453,1.096908,-0.149369,0.000000,0.000000,0.000000,0.000000,0.000000,0.000000
12161758.000000,-2.380740,-1.662244,1.081736,-1.386396,1.763170,1.133760,-0.561916,0.487424,0.008950,0.794716,-0.381419,-0.383119,0.754019,-0.139453,-6.753497,31.199993,-12.558487,-5.253114,0.034269,1.220504,-0.136552,0.000000,0.000000,0.000000,0.000000,0.000000,0.000000
12161759.000000,-2.380257,-1.662219,1.082517,-1.386795,1.762794,1.134518,-0.562060,0.480726,0.011464,0.789245,-0.384139,-0.379927,0.754883,-0.139055,-6.257586,31.937908,-13.419388,-4.955568,0.123990,1.350509,-0.130143,0.000000,0.000000,0.000000,0.000000,0.000000,0.000000
12161760.000000,-2.379772,-1.662200,1.083286,-1.387185,1.762413,1.135287,-0.562199,0.480024,0.012444,0.783299,-0.382714,-0.380726,0.753532,-0.138184,-5.884661,32.719463,-14.276321,-4.784975,0.189908,1.409103,-0.149369,0.000000,0.000000,0.000000,0.000000,0.000000,0.000000
12161761.000000,-2.379283,-1.662172,1.084072,-1.387583,1.762033,1.136037,-0.562345,0.477535,0.018999,0.783745,-0.386645,-0.381582,0.758035,-0.138940,-5.487933,33.282818,-15.085648,-4.511232,0.243009,1.448470,-0.116410,0.000000,0.000000,0.000000,0.000000,0.000000,0.000000
12161762.000000,-2.378798,-1.662140,1.084866,-1.387974,1.761652,1.136795,-0.562483,0.477818,0.023304,0.787335,-0.383686,-0.379853,0.755140,-0.137990,-5.142779,33.723186,-15.775955,-4.388246,0.249418,1.481429,-0.136552,0.000000,0.000000,0.000000,0.000000,0.000000,0.000000
12161763.000000,-2.378320,-1.662113,1.085659,-1.388365,1.761262,1.137543,-0.562617,0.475568,0.022499,0.796834,-0.382946,-0.385286,0.763684,-0.136133,-4.821429,34.187359,-16.438492,-4.312868,0.291532,1.526290,-0.182328,0.000000,0.000000,0.000000,0.000000,0.000000,0.000000
12161764.000000,-2.377845,-1.662085,1.086467,-1.388753,1.760872,1.138289,-0.562764,0.468640,0.023445,0.797241,-0.385064,-0.389511,0.762902,-0.138879,-4.448504,34.580120,-17.025650,-4.340639,0.339139,1.617843,-0.116410,0.000000,0.000000,0.000000,0.000000,0.000000,0.000000
12161765.000000,-2.377376,-1.662063,1.087286,-1.389143,1.760479,1.139034,-0.562895,0.467005,0.022697,0.816153,-0.386614,-0.386488,0.751021,-0.141009,-4.202532,35.020489,-17.589005,-4.312868,0.362943,1.754256,-0.163102,0.000000,0.000000,0.000000,0.000000,0.000000,0.000000
12161766.000000,-2.376903,-1.662048,1.088096,-1.389530,1.760091,1.139774,-0.563033,0.468415,0.022138,0.814937,-0.384216,-0.390836,0.746491,-0.139817,-3.928790,35.460857,-17.981766,-4.439821,0.416959,1.806442,-0.188737,0.000000,0.000000,0.000000,0.000000,0.000000,0.000000
12161767.000000,-2.376421,-1.662040,1.088941,-1.389908,1.759707,1.140525,-0.563173,0.469343,0.017753,0.824558,-0.391433,-0.385571,0.742924,-0.144093,-3.805804,35.925030,-18.695877,-4.634218,0.369352,1.708480,-0.155778,0.000000,0.000000,0.000000,0.000000,0.000000,0.000000
12161768.000000,-2.375957,-1.662035,1.089778,-1.390285,1.759322,1.141291,-0.563310,0.468247,0.012725,0.827816,-0.387093,-0.377681,0.751056,-0.142166,-3.607440,36.341595,-19.211624,-4.832582,0.332731,1.584884,-0.163102,0.000000,0.000000,0.000000,0.000000,0.000000,0.000000
12161769.000000,-2.375486,-1.662045,1.090624,-1.390658,1.758942,1.142026,-0.563449,0.468720,0.007921,0.828297,-0.381469,-0.381681,0.747278,-0.141755,-3.508257,36.928753,-19.675797,-5.130128,0.308927,1.565658,-0.136552,0.000000,0.000000,0.000000,0.000000,0.000000,0.000000
12161770.000000,-2.375023,-1.662065,1.091478,-1.391024,1.758549,1.142756,-0.563581,0.466099,-0.002184,0.833760,-0.379391,-0.380305,0.735655,-0.135328,-3.385272,37.539715,-20.044754,-5.399904,0.315336,1.624252,-0.163102,0.000000,0.000000,0.000000,0.000000,0.000000,0.000000
12161771.000000,-2.374551,-1.662090,1.092314,-1.391399,1.758164,1.143472,-0.563718,0.467664,-0.009853,0.833151,-0.377144,-0.381639,0.731532,-0.135875,-3.286089,38.154644,-20.314529,-5.526857,0.362943,1.760665,-0.163102,0.000000,0.000000,0.000000,0.000000,0.000000,0.000000
12161772.000000,-2.374079,-1.662122,1.093156,-1.391757,1.757781,1.144197,-0.563856,0.467056,-0.018405,0.828560,-0.373310,-0.382919,0.734201,-0.137468,-3.262286,38.765606,-20.461319,-5.772829,0.422452,1.858627,-0.136552,0.000000,0.000000,0.000000,0.000000,0.000000,0.000000
12161773.000000,-2.373604,-1.662154,1.093983,-1.392110,1.757394,1.144938,-0.563980,0.470305,-0.020514,0.825441,-0.366645,-0.385675,0.730526,-0.135644,-3.385272,39.328960,-20.536697,-6.018800,0.416959,1.858627,-0.182328,0.000000,0.000000,0.000000,0.000000,0.000000,0.000000
12161774.000000,-2.373128,-1.662194,1.094817,-1.392461,1.757011,1.145667,-0.564111,0.473492,-0.026328,0.821587,-0.359771,-0.385229,0.734127,-0.136554,-3.460650,39.939922,-20.512894,-6.240968,0.464567,1.806442,-0.163102,0.000000,0.000000,0.000000,0.000000,0.000000,0.000000
12161775.000000,-2.372651,-1.662231,1.095657,-1.392811,1.756631,1.146408,-0.564245,0.480733,-0.026624,0.823925,-0.355263,-0.377954,0.733543,-0.137312,-3.706622,40.380291,-20.560501,-6.415529,0.470060,1.793624,-0.149369,0.000000,0.000000,0.000000,0.000000,0.000000,0.000000
12161776.000000,-2.372172,-1.662267,1.096472,-1.393165,1.756250,1.147134,-0.564370,0.481224,-0.027685,0.820662,-0.354710,-0.376176,0.732699,-0.135509,-3.928790,40.844463,-20.389908,-6.463136,0.434354,1.844894,-0.196061,0.000000,0.000000,0.000000,0.000000,0.000000,0.000000
12161777.000000,-2.371691,-1.662301,1.097310,-1.393505,1.755879,1.147865,-0.564512,0.476383,-0.029533,0.823638,-0.349246,-0.376646,0.728168,-0.134608,-4.079546,41.213421,-20.389908,-6.713075,0.434354,1.865035,-0.116410,0.000000,0.000000,0.000000,0.000000,0.000000,0.000000
12161778.000000,-2.371210,-1.662338,1.098139,-1.393845,1.755507,1.148622,-0.564637,0.481074,-0.031058,0.841734,-0.346986,-0.372456,0.733984,-0.129064,-4.301714,41.578411,-20.389908,-6.883668,0.452665,1.767074,-0.163102,0.000000,0.000000,0.000000,0.000000,0.000000,0.000000
12161779.000000,-2.370733,-1.662365,1.098977,-1.394178,1.755157,1.149362,-0.564766,0.479628,-0.029008,0.841621,-0.342033,-0.365117,0.737310,-0.130381,-4.476275,41.800579,-20.413712,-7.181215,0.339139,1.689254,-0.175919,0.000000,0.000000,0.000000,0.000000,0.000000,0.000000
12161780.000000,-2.370248,-1.662392,1.099817,-1.394512,1.754789,1.150102,-0.564896,0.483046,-0.027986,0.840312,-0.334767,-0.362790,0.733218,-0.131858,-4.698443,42.022747,-20.389908,-7.403383,0.315336,1.617843,-0.169511,0.000000,0.000000,0.000000,0.000000,0.000000,0.000000
12161781.000000,-2.369765,-1.662417,1.100648,-1.394834,1.754425,1.150831,-0.565029,0.480301,-0.027304,0.845066,-0.326808,-0.361182,0.747812,-0.130183,-4.968218,42.240948,-20.437515,-7.724733,0.297025,1.630660,-0.136552,0.000000,0.000000,0.000000,0.000000,0.000000,0.000000
12161782.000000,-2.369282,-1.662444,1.101484,-1.395163,1.754075,1.151559,-0.565152,0.477100,-0.026638,0.839591,-0.325306,-0.355515,0.742350,-0.126398,-5.218157,42.435345,-20.461319,-7.923097,0.273221,1.695663,-0.169511,0.000000,0.000000,0.000000,0.000000,0.000000,0.000000
12161783.000000,-2.368811,-1.662464,1.102322,-1.395481,1.753710,1.152294,-0.565275,0.474852,-0.023863,0.854170,-0.322057,-0.358042,0.732203,-0.125387,-5.440325,42.534527,-20.485123,-8.145266,0.320829,1.773483,-0.155778,0.000000,0.000000,0.000000,0.000000,0.000000,0.000000
12161784.000000,-2.368334,-1.662486,1.103152,-1.395799,1.753358,1.153018,-0.565401,0.475117,-0.022204,0.848702,-0.322864,-0.357775,0.732643,-0.125202,-5.614886,42.633709,-20.536697,-8.391237,0.303434,1.806442,-0.136552,0.000000,0.000000,0.000000,0.000000,0.000000,0.000000
12161785.000000,-2.367846,-1.662502,1.103999,-1.396117,1.753007,1.153758,-0.565520,0.476164,-0.018808,0.847109,-0.327475,-0.353524,0.728140,-0.126558,-5.837054,42.633709,-20.731094,-8.490419,0.303434,1.819259,-0.182328,0.000000,0.000000,0.000000,0.000000,0.000000,0.000000
12161786.000000,-2.367372,-1.662525,1.104833,-1.396417,1.752650,1.154492,-0.565643,0.476866,-0.018286,0.845187,-0.318248,-0.356112,0.725134,-0.129921,-6.035418,42.705120,-20.854080,-8.787966,0.339139,1.832076,-0.169511,0.000000,0.000000,0.000000,0.000000,0.000000,0.000000
12161787.000000,-2.366890,-1.662547,1.105672,-1.396727,1.752306,1.155211,-0.565770,0.479497,-0.017515,0.844606,-0.317662,-0.350794,0.720120,-0.128573,-6.257586,42.756695,-20.929459,-8.962526,0.303434,1.793624,-0.136552,0.000000,0.000000,0.000000,0.000000,0.000000,0.000000
12161788.000000,-2.366420,-1.662566,1.106519,-1.397026,1.751957,1.155945,-0.565886,0.476489,-0.016371,0.843028,-0.306393,-0.351738,0.721448,-0.124804,-6.332964,42.780499,-21.175430,-9.184694,0.297025,1.825668,-0.182328,0.000000,0.000000,0.000000,0.000000,0.000000,0.000000
12161789.000000,-2.365951,-1.662585,1.107354,-1.397324,1.751622,1.156659,-0.566013,0.473806,-0.015192,0.842940,-0.303926,-0.354725,0.722593,-0.124590,-6.380572,42.780499,-21.369827,-9.430666,0.249418,1.897079,-0.155778,0.000000,0.000000,0.000000,0.000000,0.000000,0.000000
12161790.000000,-2.365484,-1.662608,1.108194,-1.397626,1.751281,1.157377,-0.566139,0.471004,-0.015954,0.840403,-0.300747,-0.352153,0.718172,-0.125344,-6.380572,42.851910,-21.516617,-9.629030,0.147794,1.995040,-0.110001,0.000000,0.000000,0.000000,0.000000,0.000000,0.000000
12161791.000000,-2.365036,-1.662631,1.109020,-1.397911,1.750940,1.158115,-0.566252,0.457811,-0.021417,0.836940,-0.296163,-0.348464,0.725349,-0.121747,-6.182208,42.875713,-21.540421,-9.898806,0.117582,1.949264,-0.169511,0.000000,0.000000,0.000000,0.000000,0.000000,0.000000
12161792.000000,-2.364587,-1.662651,1.109860,-1.398201,1.750616,1.158839,-0.566376,0.453988,-0.019625,0.837001,-0.294748,-0.340414,0.724942,-0.122411,-5.983843,42.903484,-21.663406,-10.247927,0.069974,1.909896,-0.136552,0.000000,0.000000,0.000000,0.000000,0.000000,0.000000
12161793.000000,-2.364145,-1.662670,1.110706,-1.398488,1.750285,1.159566,-0.566492,0.454874,-0.017652,0.836295,-0.295853,-0.337914,0.721265,-0.120316,-5.737872,42.903484,-21.786392,-10.493898,0.015958,1.930038,-0.175919,0.000000,0.000000,0.000000,0.000000,0.000000,0.000000
12161794.000000,-2.363713,-1.662685,1.111525,-1.398775,1.749951,1.160274,-0.566618,0.448267,-0.018212,0.832131,-0.297858,-0.337442,0.723639,-0.122545,-5.464129,42.851910,-21.714981,-10.739870,-0.031649,1.968490,-0.116410,0.000000,0.000000,0.000000,0.000000,0.000000,0.000000
12161795.000000,-2.363279,-1.662703,1.112364,-1.399070,1.749616,1.161011,-0.566742,0.442827,-0.019268,0.829988,-0.293879,-0.335429,0.729183,-0.126319,-5.166583,42.828106,-21.738785,-10.890627,0.010465,1.909896,-0.110001,0.000000,0.000000,0.000000,0.000000,0.000000,0.000000
12161796.000000,-2.362854,-1.662722,1.113191,-1.399365,1.749288,1.161756,-0.566859,0.437099,-0.017658,0.842976,-0.294556,-0.331588,0.734628,-0.122735,-4.896807,42.828106,-21.738785,-10.914431,0.015958,1.819259,-0.175919,0.000000,0.000000,0.000000,0.000000,0.000000,0.000000
12161797.000000,-2.362427,-1.662735,1.114034,-1.399665,1.748967,1.162471,-0.566986,0.432063,-0.015201,0.837847,-0.299241,-0.335966,0.727816,-0.119877,-4.722247,42.780499,-21.837967,-10.839052,-0.055453,1.760665,-0.116410,0.000000,0.000000,0.000000,0.000000,0.000000,0.000000
12161798.000000,-2.362010,-1.662752,1.114882,-1.399965,1.748626,1.163206,-0.567110,0.423395,-0.014088,0.832783,-0.296506,-0.333833,0.728118,-0.121281,-4.349322,42.756695,-22.032364,-10.716066,-0.019747,1.760665,-0.089860,0.000000,0.000000,0.000000,0.000000,0.000000,0.000000
12161799.000000,-2.361598,-1.662771,1.115726,-1.400266,1.748296,1.163926,-0.567226,0.419335,-0.014410,0.836271,-0.296804,-0.330621,0.730070,-0.118553,-4.055743,42.780499,-22.254532,-10.640688,-0.019747,1.767074,-0.149369,0.000000,0.000000,0.000000,0.000000,0.000000,0.000000
12161800.000000,-2.361193,-1.662794,1.116579,-1.400583,1.747977,1.164649,-0.567353,0.410934,-0.019266,0.831876,-0.303697,-0.323932,0.723287,-0.119623,-3.706622,42.875713,-22.524307,-10.446291,-0.007845,1.858627,-0.130143,0.000000,0.000000,0.000000,0.000000,0.000000,0.000000
12161801.000000,-2.360793,-1.662815,1.117428,-1.400898,1.747642,1.165367,-0.567473,0.409878,-0.019327,0.851585,-0.310671,-0.331685,0.723514,-0.119462,-3.409075,42.951092,-22.718704,-10.247927,-0.013339,2.047225,-0.136552,0.000000,0.000000,0.000000,0.000000,0.000000,0.000000
12161802.000000,-2.360387,-1.662840,1.118272,-1.401218,1.747306,1.166086,-0.567589,0.407077,-0.020283,0.846934,-0.310388,-0.336351,0.721477,-0.119636,-3.163104,43.074078,-23.087662,-9.997988,0.046171,2.085677,-0.149369,0.000000,0.000000,0.000000,0.000000,0.000000,0.000000
12161803.000000,-2.359989,-1.662868,1.119122,-1.401543,1.746973,1.166826,-0.567702,0.399833,-0.024372,0.845399,-0.316587,-0.334431,0.721908,-0.118996,-2.841753,43.220867,-23.333633,-9.752016,0.100187,2.047225,-0.169511,0.000000,0.000000,0.000000,0.000000,0.000000,0.000000
12161804.000000,-2.359593,-1.662899,1.119957,-1.401885,1.746637,1.167560,-0.567822,0.397471,-0.027915,0.840782,-0.323149,-0.338997,0.727830,-0.119933,-2.643389,43.391460,-23.504227,-9.406862,0.189908,1.995040,-0.155778,0.000000,0.000000,0.000000,0.000000,0.000000,0.000000
12161805.000000,-2.359198,-1.662930,1.120807,-1.402230,1.746297,1.168283,-0.567946,0.393460,-0.030554,0.835715,-0.332234,-0.340407,0.730450,-0.117008,-2.397418,43.562054,-23.627213,-9.133120,0.231107,1.981307,-0.116410,0.000000,0.000000,0.000000,0.000000,0.000000,0.000000
12161806.000000,-2.358817,-1.662961,1.121660,-1.402577,1.745947,1.169008,-0.568058,0.395826,-0.029264,0.837393,-0.336441,-0.343583,0.729982,-0.116218,-2.048296,43.732647,-23.825577,-8.863344,0.356534,1.995040,-0.155778,0.000000,0.000000,0.000000,0.000000,0.000000,0.000000
12161807.000000,-2.358433,-1.662996,1.122499,-1.402922,1.745622,1.169713,-0.568174,0.390873,-0.031951,0.837150,-0.336750,-0.344500,0.722206,-0.111900,-1.703143,43.931011,-23.948563,-8.688784,0.351041,2.001449,-0.182328,0.000000,0.000000,0.000000,0.000000,0.000000,0.000000
12161808.000000,-2.358055,-1.663030,1.123333,-1.403286,1.745293,1.170435,-0.568296,0.383923,-0.033268,0.830964,-0.342844,-0.341953,0.717707,-0.111698,-1.330218,44.101604,-23.920792,-8.419008,0.320829,1.968490,-0.130143,0.000000,0.000000,0.000000,0.000000,0.000000,0.000000
12161809.000000,-2.357686,-1.663061,1.124171,-1.403645,1.744956,1.171160,-0.568410,0.381708,-0.036264,0.834496,-0.345889,-0.336139,0.714116,-0.109011,-0.961260,44.224590,-23.996170,-8.196840,0.315336,1.936446,-0.142960,0.000000,0.000000,0.000000,0.000000,0.000000,0.000000
12161810.000000,-2.357315,-1.663095,1.125017,-1.404013,1.744626,1.171873,-0.568527,0.373678,-0.034842,0.834668,-0.352032,-0.331221,0.715465,-0.111987,-0.612139,44.323772,-24.095352,-7.946901,0.285123,1.916305,-0.130143,0.000000,0.000000,0.000000,0.000000,0.000000,0.000000
12161811.000000,-2.356936,-1.663122,1.125857,-1.404380,1.744298,1.172590,-0.568637,0.374140,-0.032100,0.833187,-0.356076,-0.328444,0.712762,-0.112228,-0.366168,44.347576,-23.996170,-7.724733,0.285123,1.962081,-0.175919,0.000000,0.000000,0.000000,0.000000,0.000000,0.000000
12161812.000000,-2.356563,-1.663146,1.126681,-1.404756,1.743958,1.173302,-0.568754,0.373014,-0.032462,0.831111,-0.361388,-0.333715,0.727866,-0.112051,-0.215411,44.323772,-23.948563,-7.403383,0.344633,1.981307,-0.122819,0.000000,0.000000,0.000000,0.000000,0.000000,0.000000
12161813.000000,-2.356194,-1.663172,1.127529,-1.405136,1.743621,1.174033,-0.568863,0.370300,-0.033449,0.830830,-0.366411,-0.332927,0.730516,-0.107647,-0.017047,44.323772,-24.043777,-7.157411,0.416959,1.858627,-0.175919,0.000000,0.000000,0.000000,0.000000,0.000000,0.000000
12161814.000000,-2.355823,-1.663190,1.128356,-1.405515,1.743286,1.174759,-0.568973,0.371077,-0.029442,0.845892,-0.371653,-0.331655,0.724694,-0.106299,0.078168,44.248394,-24.095352,-6.859865,0.494779,1.786300,-0.188737,0.000000,0.000000,0.000000,0.000000,0.000000,0.000000
12161815.000000,-2.355442,-1.663206,1.129194,-1.405901,1.742971,1.175468,-0.569088,0.372860,-0.025651,0.841892,-0.375613,-0.323574,0.720110,-0.111061,0.105939,44.125408,-24.119156,-6.661500,0.482877,1.877853,-0.149369,0.000000,0.000000,0.000000,0.000000,0.000000,0.000000
12161816.000000,-2.355069,-1.663224,1.130036,-1.406285,1.742639,1.176188,-0.569198,0.371518,-0.020949,0.836274,-0.375770,-0.327402,0.716329,-0.112484,0.228925,44.053997,-24.190567,-6.391725,0.476469,1.923629,-0.175919,0.000000,0.000000,0.000000,0.000000,0.000000,0.000000
12161817.000000,-2.354702,-1.663243,1.130877,-1.406678,1.742299,1.176917,-0.569314,0.371833,-0.021684,0.835758,-0.379872,-0.332317,0.717739,-0.110427,0.304304,44.026226,-24.388931,-6.169557,0.524076,1.909896,-0.169511,0.000000,0.000000,0.000000,0.000000,0.000000,0.000000
12161818.000000,-2.354329,-1.663252,1.131715,-1.407072,1.741983,1.177623,-0.569428,0.370813,-0.019405,0.831289,-0.377825,-0.327255,0.718885,-0.113616,0.403486,43.879436,-24.511917,-6.018800,0.464567,1.995040,-0.149369,0.000000,0.000000,0.000000,0.000000,0.000000,0.000000
12161819.000000,-2.353951,-1.663267,1.132558,-1.407469,1.741658,1.178338,-0.569535,0.373803,-0.016503,0.830843,-0.385691,-0.324038,0.709787,-0.114029,0.375715,43.808025,-24.634903,-5.772829,0.440763,2.079269,-0.182328,0.000000,0.000000,0.000000,0.000000,0.000000,0.000000
12161820.000000,-2.353579,-1.663283,1.133386,-1.407860,1.741321,1.179052,-0.569648,0.372012,-0.018154,0.829861,-0.384540,-0.330615,0.707631,-0.116935,0.502668,43.760418,-24.781693,-5.673646,0.500272,2.085677,-0.155778,0.000000,0.000000,0.000000,0.000000,0.000000,0.000000
12161821.000000,-2.353196,-1.663289,1.134225,-1.408261,1.740995,1.179774,-0.569757,0.372227,-0.013713,0.824203,-0.386983,-0.324395,0.713022,-0.111987,0.427289,43.613628,-24.904678,-5.451478,0.524076,2.014266,-0.196061,0.000000,0.000000,0.000000,0.000000,0.000000,0.000000
12161822.000000,-2.352819,-1.663297,1.135041,-1.408652,1.740673,1.180508,-0.569873,0.374856,-0.011008,0.818577,-0.386825,-0.319638,0.715620,-0.111525,0.375715,43.490643,-24.904678,-5.304689,0.547880,1.981307,-0.149369,0.000000,0.000000,0.000000,0.000000,0.000000,0.000000
12161823.000000,-2.352448,-1.663311,1.135869,-1.409041,1.740349,1.181220,-0.569981,0.369457,-0.011585,0.814162,-0.388511,-0.322160,0.721734,-0.113421,0.451093,43.466839,-24.904678,-5.205507,0.613798,1.962081,-0.149369,0.000000,0.000000,0.000000,0.000000,0.000000,0.000000
12161824.000000,-2.352079,-1.663317,1.136700,-1.409427,1.740018,1.181943,-0.570080,0.374586,-0.006260,0.812564,-0.381422,-0.317562,0.715382,-0.104326,0.502668,43.343853,-24.976089,-5.106325,0.649503,1.930038,-0.208878,0.000000,0.000000,0.000000,0.000000,0.000000,0.000000
12161825.000000,-2.351704,-1.663330,1.137506,-1.409810,1.739697,1.182648,-0.570194,0.372395,-0.008525,0.809912,-0.381637,-0.318827,0.714281,-0.111056,0.502668,43.343853,-24.805496,-5.030946,0.661405,1.968490,-0.136552,0.000000,0.000000,0.000000,0.000000,0.000000,0.000000
12161826.000000,-2.351327,-1.663335,1.138312,-1.410198,1.739383,1.183361,-0.570301,0.373511,-0.008011,0.804057,-0.379376,-0.313548,0.702650,-0.108236,0.502668,43.268475,-24.559525,-4.931764,0.637601,2.053634,-0.155778,0.000000,0.000000,0.000000,0.000000,0.000000,0.000000
12161827.000000,-2.350955,-1.663337,1.139123,-1.410577,1.739066,1.184090,-0.570401,0.374858,-0.006050,0.807102,-0.381073,-0.315077,0.706293,-0.104993,0.502668,43.121685,-24.535721,-4.832582,0.637601,2.060043,-0.208878,0.000000,0.000000,0.000000,0.000000,0.000000,0.000000
12161828.000000,-2.350579,-1.663337,1.139941,-1.410966,1.738755,1.184804,-0.570512,0.374657,-0.001647,0.807002,-0.382663,-0.310985,0.714147,-0.110487,0.502668,42.974895,-24.559525,-4.733400,0.613798,2.047225,-0.163102,0.000000,0.000000,0.000000,0.000000,0.000000,0.000000
12161829.000000,-2.350195,-1.663335,1.140760,-1.411346,1.738451,1.185543,-0.570616,0.374710,-0.004076,0.801723,-0.379020,-0.307242,0.715099,-0.107863,0.403486,42.804302,-24.511917,-4.562807,0.571683,1.995040,-0.182328,0.000000,0.000000,0.000000,0.000000,0.000000,0.000000
12161830.000000,-2.349825,-1.663338,1.141567,-1.411732,1.738151,1.186274,-0.570717,0.372585,-0.004666,0.804707,-0.378184,-0.300976,0.736654,-0.106423,0.375715,42.705120,-24.583328,-4.487428,0.559781,1.936446,-0.188737,0.000000,0.000000,0.000000,0.000000,0.000000,0.000000
12161831.000000,-2.349453,-1.663339,1.142389,-1.412121,1.737843,1.186995,-0.570830,0.372077,-0.001326,0.802367,-0.377852,-0.304582,0.731096,-0.107230,0.403486,42.582134,-24.706314,-4.340639,0.644010,1.955673,-0.142960,0.000000,0.000000,0.000000,0.000000,0.000000,0.000000
12161832.000000,-2.349076,-1.663338,1.143199,-1.412503,1.737539,1.187719,-0.570931,0.371671,0.001731,0.817738,-0.377364,-0.303357,0.727319,-0.104393,0.328107,42.435345,-24.857071,-4.241457,0.644010,2.072860,-0.188737,0.000000,0.000000,0.000000,0.000000,0.000000,0.000000
12161833.000000,-2.348705,-1.663337,1.144014,-1.412888,1.737249,1.188435,-0.571039,0.370288,0.000278,0.813389,-0.375745,-0.306393,0.724893,-0.105659,0.427289,42.316326,-24.976089,-4.142274,0.613798,2.092086,-0.142960,0.000000,0.000000,0.000000,0.000000,0.000000,0.000000
12161834.000000,-2.348339,-1.663347,1.144828,-1.413267,1.736954,1.189163,-0.571142,0.366679,-0.001643,0.808094,-0.382474,-0.302760,0.719557,-0.104891,0.526471,42.363934,-25.051468,-4.043092,0.667814,2.039901,-0.155778,0.000000,0.000000,0.000000,0.000000,0.000000,0.000000
12161835.000000,-2.347979,-1.663349,1.145633,-1.413649,1.736656,1.189878,-0.571238,0.367413,0.000689,0.805988,-0.383003,-0.302682,0.721964,-0.102466,0.625654,42.264751,-25.150650,-3.943910,0.673307,2.112228,-0.208878,0.000000,0.000000,0.000000,0.000000,0.000000,0.000000
12161836.000000,-2.347612,-1.663356,1.146434,-1.414030,1.736361,1.190572,-0.571349,0.364546,-0.002990,0.799994,-0.383599,-0.296698,0.707088,-0.104923,0.697065,42.264751,-25.126846,-3.844728,0.644010,2.235824,-0.149369,0.000000,0.000000,0.000000,0.000000,0.000000,0.000000
12161837.000000,-2.347258,-1.663364,1.147228,-1.414408,1.736063,1.191277,-0.571444,0.364790,-0.003105,0.793548,-0.381371,-0.299265,0.701736,-0.103383,0.847822,42.288555,-24.952286,-3.721742,0.685209,2.300826,-0.175919,0.000000,0.000000,0.000000,0.000000,0.000000,0.000000
12161838.000000,-2.346904,-1.663364,1.148012,-1.414784,1.735776,1.191983,-0.571549,0.357914,-0.000816,0.791089,-0.378500,-0.303119,0.705314,-0.103679,1.022382,42.217144,-24.857071,-3.646364,0.685209,2.196456,-0.163102,0.000000,0.000000,0.000000,0.000000,0.000000,0.000000
12161839.000000,-2.346557,-1.663366,1.148801,-1.415161,1.735497,1.192707,-0.571649,0.355553,-0.003008,0.789552,-0.374965,-0.301416,0.710206,-0.097741,1.216779,42.169537,-24.682510,-3.622560,0.644010,2.137862,-0.202470,0.000000,0.000000,0.000000,0.000000,0.000000,0.000000
12161840.000000,-2.346207,-1.663368,1.149579,-1.415531,1.735203,1.193430,-0.571755,0.352881,-0.001862,0.784282,-0.371197,-0.296410,0.714152,-0.100482,1.343732,42.141766,-24.559525,-3.523378,0.625699,2.066451,-0.169511,0.000000,0.000000,0.000000,0.000000,0.000000,0.000000
12161841.000000,-2.345864,-1.663372,1.150357,-1.415904,1.734907,1.194139,-0.571855,0.346730,-0.001621,0.779680,-0.368136,-0.294150,0.711549,-0.100343,1.589704,42.141766,-24.265945,-3.547182,0.644010,2.027084,-0.182328,0.000000,0.000000,0.000000,0.000000,0.000000,0.000000
12161842.000000,-2.345524,-1.663370,1.151147,-1.416273,1.734612,1.194866,-0.571952,0.349987,0.000305,0.777799,-0.362268,-0.287957,0.714238,-0.095404,1.863447,42.070354,-24.166763,-3.499574,0.691617,1.942855,-0.215287,0.000000,0.000000,0.000000,0.000000,0.000000,0.000000
12161843.000000,-2.345182,-1.663366,1.151907,-1.416641,1.734331,1.195582,-0.572059,0.343512,0.001753,0.770962,-0.364722,-0.287687,0.712162,-0.099541,2.061811,41.994976,-23.801773,-3.547182,0.715421,1.884261,-0.155778,0.000000,0.000000,0.000000,0.000000,0.000000,0.000000
12161844.000000,-2.344835,-1.663356,1.152689,-1.417017,1.734040,1.196314,-0.572156,0.346880,0.004442,0.766550,-0.366767,-0.286343,0.711635,-0.094805,2.184797,41.848186,-23.678787,-3.475771,0.709928,1.793624,-0.188737,0.000000,0.000000,0.000000,0.000000,0.000000,0.000000
12161845.000000,-2.344493,-1.663351,1.153459,-1.417385,1.733755,1.197048,-0.572254,0.346311,0.003955,0.768301,-0.370977,-0.280670,0.719719,-0.096875,2.307783,41.800579,-23.579605,-3.424196,0.709928,1.727706,-0.188737,0.000000,0.000000,0.000000,0.000000,0.000000,0.000000
12161846.000000,-2.344152,-1.663336,1.154228,-1.417758,1.733480,1.197781,-0.572355,0.344810,0.007094,0.764430,-0.367782,-0.279534,0.725414,-0.098831,2.454572,41.606182,-23.409012,-3.325014,0.661405,1.676437,-0.169511,0.000000,0.000000,0.000000,0.000000,0.000000,0.000000
12161847.000000,-2.343803,-1.663324,1.154998,-1.418125,1.733208,1.198515,-0.572450,0.343947,0.008745,0.760637,-0.371474,-0.275289,0.730404,-0.094572,2.482343,41.431622,-23.210648,-3.126650,0.655912,1.689254,-0.196061,0.000000,0.000000,0.000000,0.000000,0.000000,0.000000
12161848.000000,-2.343468,-1.663308,1.155761,-1.418483,1.732933,1.199228,-0.572549,0.342287,0.010327,0.764466,-0.365244,-0.276783,0.739715,-0.097788,2.529951,41.237225,-23.135269,-3.178224,0.644010,1.727706,-0.169511,0.000000,0.000000,0.000000,0.000000,0.000000,0.000000
12161849.000000,-2.343127,-1.663291,1.156541,-1.418858,1.732658,1.199958,-0.572642,0.342643,0.011394,0.770972,-0.367353,-0.274271,0.727780,-0.097980,2.629133,41.042828,-23.186844,-2.956056,0.649503,1.773483,-0.196061,0.000000,0.000000,0.000000,0.000000,0.000000,0.000000
12161850.000000,-2.342784,-1.663266,1.157314,-1.419212,1.732382,1.200694,-0.572736,0.342112,0.015641,0.786191,-0.362657,-0.270800,0.727836,-0.094531,2.629133,40.697674,-23.135269,-3.027467,0.637601,1.695663,-0.208878,0.000000,0.000000,0.000000,0.000000,0.000000,0.000000
12161851.000000,-2.342436,-1.663250,1.158077,-1.419571,1.732110,1.201423,-0.572836,0.344418,0.017567,0.784819,-0.357584,-0.271811,0.728677,-0.097777,2.652936,40.527081,-23.135269,-2.979860,0.703519,1.605026,-0.175919,0.000000,0.000000,0.000000,0.000000,0.000000,0.000000
12161852.000000,-2.342090,-1.663232,1.158849,-1.419924,1.731836,1.202137,-0.572934,0.346258,0.016507,0.778017,-0.359475,-0.276823,0.725544,-0.094516,2.652936,40.332684,-23.186844,-2.979860,0.763029,1.702071,-0.188737,0.000000,0.000000,0.000000,0.000000,0.000000,0.000000
12161853.000000,-2.341748,-1.663213,1.159611,-1.420277,1.731564,1.202847,-0.573033,0.346304,0.018879,0.777748,-0.356941,-0.277469,0.717503,-0.093234,2.581525,40.134319,-23.286026,-3.003664,0.745634,1.865035,-0.163102,0.000000,0.000000,0.000000,0.000000,0.000000,0.000000
12161854.000000,-2.341399,-1.663191,1.160375,-1.420630,1.731299,1.203559,-0.573130,0.347344,0.017527,0.771861,-0.357310,-0.278203,0.716912,-0.091707,2.553754,39.939922,-23.210648,-3.055238,0.727323,1.890670,-0.155778,0.000000,0.000000,0.000000,0.000000,0.000000,0.000000
12161855.000000,-2.341051,-1.663175,1.161144,-1.420965,1.731043,1.204281,-0.573220,0.347449,0.013650,0.767247,-0.348481,-0.271149,0.709300,-0.093183,2.454572,39.868511,-23.210648,-3.249635,0.644010,1.825668,-0.188737,0.000000,0.000000,0.000000,0.000000,0.000000,0.000000
12161856.000000,-2.340700,-1.663147,1.161909,-1.421304,1.730797,1.205002,-0.573317,0.344999,0.018242,0.765502,-0.345834,-0.269297,0.712812,-0.092031,2.454572,39.622540,-23.286026,-3.325014,0.542386,1.793624,-0.169511,0.000000,0.000000,0.000000,0.000000,0.000000,0.000000
12161857.000000,-2.340347,-1.663127,1.162672,-1.421653,1.730543,1.205717,-0.573408,0.345602,0.016025,0.759671,-0.345013,-0.266267,0.711441,-0.093485,2.359357,39.475750,-23.234451,-3.325014,0.476469,1.858627,-0.202470,0.000000,0.000000,0.000000,0.000000,0.000000,0.000000
12161858.000000,-2.339994,-1.663105,1.163415,-1.421994,1.730269,1.206441,-0.573502,0.348568,0.017490,0.756505,-0.341998,-0.266585,0.713615,-0.092284,2.160993,39.328960,-23.016251,-3.277406,0.488370,1.844894,-0.196061,0.000000,0.000000,0.000000,0.000000,0.000000,0.000000
12161859.000000,-2.339639,-1.663081,1.164166,-1.422328,1.730004,1.207160,-0.573598,0.350370,0.016796,0.751109,-0.339438,-0.264084,0.720967,-0.091947,2.061811,39.130596,-22.794083,-3.348818,0.554288,1.800033,-0.155778,0.000000,0.000000,0.000000,0.000000,0.000000,0.000000
12161860.000000,-2.339278,-1.663059,1.164926,-1.422658,1.729735,1.207874,-0.573681,0.357811,0.018151,0.751709,-0.336593,-0.266099,0.708850,-0.092828,1.911054,38.983807,-22.647293,-3.348818,0.620206,1.806442,-0.202470,0.000000,0.000000,0.000000,0.000000,0.000000,0.000000
12161861.000000,-2.338923,-1.663034,1.165682,-1.422976,1.729488,1.208581,-0.573775,0.358719,0.019798,0.749467,-0.331734,-0.257932,0.706865,-0.096880,1.788068,38.813213,-22.623489,-3.475771,0.535978,1.786300,-0.163102,0.000000,0.000000,0.000000,0.000000,0.000000,0.000000
12161862.000000,-2.338567,-1.663013,1.166444,-1.423293,1.729224,1.209299,-0.573866,0.356294,0.019759,0.748884,-0.327174,-0.263441,0.708006,-0.093999,1.641279,38.690228,-22.595718,-3.646364,0.506681,1.695663,-0.163102,0.000000,0.000000,0.000000,0.000000,0.000000,0.000000
12161863.000000,-2.338215,-1.663002,1.167193,-1.423606,1.728952,1.210028,-0.573955,0.357571,0.015882,0.744877,-0.322966,-0.264850,0.711934,-0.095438,1.514325,38.741802,-22.524307,-3.721742,0.542386,1.630660,-0.182328,0.000000,0.000000,0.000000,0.000000,0.000000,0.000000
12161864.000000,-2.337857,-1.662988,1.167955,-1.423924,1.728694,1.210717,-0.574050,0.354533,0.017171,0.753531,-0.319781,-0.259798,0.708730,-0.093415,1.415143,38.765606,-22.500504,-3.769350,0.535978,1.735030,-0.169511,0.000000,0.000000,0.000000,0.000000,0.000000,0.000000
12161865.000000,-2.337485,-1.662972,1.168728,-1.424238,1.728441,1.211407,-0.574140,0.359788,0.018896,0.756884,-0.318798,-0.255501,0.698606,-0.094285,1.145368,38.765606,-22.647293,-3.797121,0.512174,1.909896,-0.196061,0.000000,0.000000,0.000000,0.000000,0.000000,0.000000
12161866.000000,-2.337125,-1.662967,1.169480,-1.424548,1.728187,1.212122,-0.574239,0.357386,0.014147,0.757901,-0.319047,-0.252997,0.713297,-0.098052,0.970807,38.888592,-22.742508,-3.820925,0.506681,1.916305,-0.155778,0.000000,0.000000,0.000000,0.000000,0.000000,0.000000
12161867.000000,-2.336766,-1.662962,1.170238,-1.424855,1.727935,1.212839,-0.574333,0.354795,0.011004,0.750075,-0.314927,-0.254320,0.713401,-0.094360,0.824018,39.011578,-22.794083,-3.967714,0.458158,1.702071,-0.169511,0.000000,0.000000,0.000000,0.000000,0.000000,0.000000
12161868.000000,-2.336407,-1.662952,1.171002,-1.425152,1.727668,1.213554,-0.574423,0.356175,0.010065,0.765008,-0.309730,-0.259467,0.715669,-0.095872,0.697065,39.082989,-22.917068,-4.118471,0.535978,1.630660,-0.188737,0.000000,0.000000,0.000000,0.000000,0.000000,0.000000
12161869.000000,-2.336035,-1.662948,1.171749,-1.425444,1.727419,1.214231,-0.574518,0.360317,0.008625,0.758000,-0.306007,-0.254963,0.709939,-0.094518,0.427289,39.182171,-22.893265,-4.340639,0.506681,1.793624,-0.155778,0.000000,0.000000,0.000000,0.000000,0.000000,0.000000
12161870.000000,-2.335667,-1.662945,1.172499,-1.425738,1.727164,1.214917,-0.574609,0.359105,0.007600,0.750123,-0.300755,-0.254074,0.704222,-0.095407,0.328107,39.281353,-22.794083,-4.463624,0.542386,1.995040,-0.188737,0.000000,0.000000,0.000000,0.000000,0.000000,0.000000
12161871.000000,-2.335306,-1.662950,1.173231,-1.426031,1.726906,1.215627,-0.574704,0.360814,0.004111,0.741943,-0.292542,-0.253683,0.704994,-0.093098,0.153547,39.499554,-22.524307,-4.586610,0.589994,1.962081,-0.188737,0.000000,0.000000,0.000000,0.000000,0.000000,0.000000
12161872.000000,-2.334942,-1.662952,1.173981,-1.426313,1.726661,1.216334,-0.574801,0.361250,0.002889,0.738933,-0.287790,-0.248843,0.707285,-0.092977,-0.017047,39.670147,-22.425125,-4.784975,0.518583,1.858627,-0.149369,0.000000,0.000000,0.000000,0.000000,0.000000,0.000000
12161873.000000,-2.334586,-1.662949,1.174742,-1.426600,1.726417,1.217047,-0.574884,0.359202,0.003270,0.742955,-0.288167,-0.244536,0.705599,-0.089079,-0.068621,39.793133,-22.448929,-4.832582,0.428861,1.812850,-0.202470,0.000000,0.000000,0.000000,0.000000,0.000000,0.000000
12161874.000000,-2.334217,-1.662951,1.175473,-1.426872,1.726182,1.217748,-0.574974,0.361144,0.002858,0.739320,-0.284118,-0.246476,0.701644,-0.084088,-0.266986,39.939922,-22.278336,-5.078554,0.369352,1.741439,-0.202470,0.000000,0.000000,0.000000,0.000000,0.000000,0.000000
12161875.000000,-2.333852,-1.662950,1.176213,-1.427156,1.725940,1.218468,-0.575071,0.357139,0.001194,0.733512,-0.281996,-0.242643,0.708921,-0.086769,-0.366168,40.015301,-22.056168,-5.130128,0.386747,1.649886,-0.142960,0.000000,0.000000,0.000000,0.000000,0.000000,0.000000
12161876.000000,-2.333493,-1.662951,1.176948,-1.427425,1.725696,1.219188,-0.575152,0.356001,-0.001848,0.735769,-0.279330,-0.243727,0.716971,-0.088558,-0.540728,40.162090,-21.909378,-5.304689,0.393156,1.617843,-0.202470,0.000000,0.000000,0.000000,0.000000,0.000000,0.000000
12161877.000000,-2.333135,-1.662947,1.177693,-1.427692,1.725458,1.219900,-0.575248,0.354631,0.001296,0.737556,-0.272611,-0.248396,0.718502,-0.089756,-0.588336,40.209698,-21.762589,-5.451478,0.369352,1.584884,-0.149369,0.000000,0.000000,0.000000,0.000000,0.000000,0.000000
12161878.000000,-2.332772,-1.662944,1.178443,-1.427957,1.725213,1.220616,-0.575335,0.362471,0.000448,0.740062,-0.273663,-0.248083,0.712285,-0.091543,-0.687518,40.257305,-21.687210,-5.626039,0.386747,1.578475,-0.188737,0.000000,0.000000,0.000000,0.000000,0.000000,0.000000
12161879.000000,-2.332421,-1.662943,1.179172,-1.428214,1.724972,1.221322,-0.575428,0.362085,0.002221,0.737671,-0.265815,-0.244025,0.706570,-0.091091,-0.687518,40.332684,-21.540421,-5.895814,0.410551,1.513473,-0.163102,0.000000,0.000000,0.000000,0.000000,0.000000,0.000000
12161880.000000,-2.332065,-1.662937,1.179913,-1.428479,1.724735,1.222044,-0.575520,0.359040,0.002694,0.735590,-0.263693,-0.244976,0.709984,-0.089863,-0.711321,40.308880,-21.445206,-6.018800,0.428861,1.487838,-0.155778,0.000000,0.000000,0.000000,0.000000,0.000000,0.000000
12161881.000000,-2.331709,-1.662928,1.180644,-1.428744,1.724499,1.222753,-0.575609,0.360963,0.004051,0.747087,-0.265045,-0.244701,0.708076,-0.089030,-0.885882,40.233501,-21.369827,-6.141786,0.428861,1.578475,-0.149369,0.000000,0.000000,0.000000,0.000000,0.000000,0.000000
12161882.000000,-2.331351,-1.662921,1.181395,-1.429020,1.724259,1.223463,-0.575700,0.359847,0.004183,0.746058,-0.267153,-0.244698,0.708862,-0.088228,-0.961260,40.185894,-21.369827,-6.117982,0.422452,1.630660,-0.142960,0.000000,0.000000,0.000000,0.000000,0.000000,0.000000
12161883.000000,-2.330994,-1.662912,1.182152,-1.429292,1.724028,1.224178,-0.575784,0.355850,0.005943,0.744276,-0.273371,-0.242595,0.714001,-0.089129,-1.032672,40.062908,-21.492813,-6.042604,0.362943,1.649886,-0.202470,0.000000,0.000000,0.000000,0.000000,0.000000,0.000000
12161884.000000,-2.330636,-1.662901,1.182897,-1.429566,1.723804,1.224911,-0.575881,0.357788,0.007603,0.745400,-0.275220,-0.234953,0.712278,-0.090729,-1.183428,39.916119,-21.568192,-6.042604,0.261320,1.584884,-0.142960,0.000000,0.000000,0.000000,0.000000,0.000000,0.000000
12161885.000000,-2.330285,-1.662887,1.183651,-1.429845,1.723580,1.225628,-0.575966,0.349747,0.009215,0.738894,-0.274705,-0.236560,0.714201,-0.088050,-1.231036,39.745525,-21.663406,-5.947389,0.213712,1.565658,-0.175919,0.000000,0.000000,0.000000,0.000000,0.000000,0.000000
12161886.000000,-2.329938,-1.662874,1.184411,-1.430107,1.723354,1.226338,-0.576050,0.351387,0.013412,0.739811,-0.271569,-0.233950,0.706700,-0.086883,-1.306414,39.574932,-21.810196,-5.994997,0.213712,1.630660,-0.196061,0.000000,0.000000,0.000000,0.000000,0.000000,0.000000
12161887.000000,-2.329589,-1.662859,1.185163,-1.430376,1.723121,1.227037,-0.576142,0.350630,0.015888,0.746331,-0.271579,-0.237558,0.704359,-0.088591,-1.282611,39.428143,-21.984756,-6.042604,0.219205,1.773483,-0.142960,0.000000,0.000000,0.000000,0.000000,0.000000,0.000000
12161888.000000,-2.329243,-1.662848,1.185923,-1.430647,1.722882,1.227739,-0.576221,0.349132,0.015905,0.750063,-0.270093,-0.235986,0.704336,-0.086476,-1.207232,39.352764,-22.131546,-6.042604,0.243009,1.865035,-0.188737,0.000000,0.000000,0.000000,0.000000,0.000000,0.000000
12161889.000000,-2.328906,-1.662840,1.186675,-1.430905,1.722640,1.228451,-0.576309,0.343783,0.014975,0.756872,-0.263749,-0.236980,0.702795,-0.091558,-1.084246,39.328960,-22.278336,-6.117982,0.327238,1.877853,-0.163102,0.000000,0.000000,0.000000,0.000000,0.000000,0.000000
12161890.000000,-2.328572,-1.662829,1.187429,-1.431177,1.722404,1.229146,-0.576397,0.336674,0.015009,0.756005,-0.268350,-0.236004,0.707220,-0.090970,-0.985064,39.281353,-22.325943,-6.070375,0.369352,1.871444,-0.142960,0.000000,0.000000,0.000000,0.000000,0.000000,0.000000
12161891.000000,-2.328231,-1.662814,1.188192,-1.431446,1.722172,1.229843,-0.576475,0.348173,0.012595,0.751013,-0.264835,-0.236919,0.698128,-0.092165,-0.985064,39.205975,-22.448929,-6.042604,0.356534,1.909896,-0.188737,0.000000,0.000000,0.000000,0.000000,0.000000,0.000000
12161892.000000,-2.327897,-1.662802,1.188938,-1.431723,1.721940,1.230541,-0.576562,0.341818,0.012181,0.748194,-0.269436,-0.238216,0.700973,-0.087132,-0.810504,39.205975,-22.472733,-5.872011,0.332731,1.844894,-0.169511,0.000000,0.000000,0.000000,0.000000,0.000000,0.000000
12161893.000000,-2.327559,-1.662794,1.189692,-1.432008,1.721701,1.231246,-0.576642,0.342663,0.008849,0.743081,-0.271271,-0.239404,0.699294,-0.085842,-0.711321,39.205975,-22.425125,-5.721254,0.315336,1.747848,-0.196061,0.000000,0.000000,0.000000,0.000000,0.000000,0.000000
12161894.000000,-2.327232,-1.662784,1.190435,-1.432283,1.721464,1.231951,-0.576730,0.338676,0.010104,0.744538,-0.275468,-0.235855,0.698398,-0.087945,-0.540728,39.182171,-22.377518,-5.649843,0.315336,1.767074,-0.142960,0.000000,0.000000,0.000000,0.000000,0.000000,0.000000
12161895.000000,-2.326903,-1.662773,1.191195,-1.432570,1.721240,1.232632,-0.576807,0.333727,0.011890,0.744450,-0.276523,-0.236451,0.695506,-0.081460,-0.465350,39.130596,-22.401321,-5.451478,0.267728,1.844894,-0.182328,0.000000,0.000000,0.000000,0.000000,0.000000,0.000000
12161896.000000,-2.326570,-1.662767,1.191949,-1.432850,1.721018,1.233327,-0.576889,0.330571,0.007494,0.740948,-0.280832,-0.232616,0.692529,-0.082820,-0.389971,39.182171,-22.325943,-5.376100,0.231107,1.909896,-0.175919,0.000000,0.000000,0.000000,0.000000,0.000000,0.000000
12161897.000000,-2.326252,-1.662757,1.192699,-1.433134,1.720783,1.234028,-0.576976,0.325604,0.009186,0.744769,-0.280807,-0.233760,0.703615,-0.080973,-0.191607,39.158367,-22.325943,-5.304689,0.285123,1.800033,-0.130143,0.000000,0.000000,0.000000,0.000000,0.000000,0.000000
12161898.000000,-2.325923,-1.662746,1.193462,-1.433425,1.720548,1.234727,-0.577055,0.324216,0.009396,0.745667,-0.282640,-0.237441,0.703314,-0.080050,-0.116229,39.182171,-22.472733,-5.153932,0.303434,1.767074,-0.182328,0.000000,0.000000,0.000000,0.000000,0.000000,0.000000
12161899.000000,-2.325602,-1.662733,1.194223,-1.433720,1.720309,1.235426,-0.577135,0.320986,0.011414,0.766999,-0.287640,-0.236836,0.695937,-0.077539,-0.044818,39.130596,-22.671097,-4.983339,0.369352,1.793624,-0.175919,0.000000,0.000000,0.000000,0.000000,0.000000,0.000000
12161900.000000,-2.325278,-1.662727,1.194993,-1.434026,1.720080,1.236106,-0.577218,0.319492,0.007808,0.770481,-0.289675,-0.234874,0.684346,-0.080216,-0.044818,39.158367,-22.865494,-4.733400,0.393156,1.865035,-0.155778,0.000000,0.000000,0.000000,0.000000,0.000000,0.000000
12161901.000000,-2.324957,-1.662727,1.195761,-1.434312,1.719845,1.236810,-0.577293,0.319481,0.006750,0.770671,-0.295073,-0.234624,0.683226,-0.080652,0.054365,39.253582,-22.988480,-4.661989,0.440763,1.844894,-0.182328,0.000000,0.000000,0.000000,0.000000,0.000000,0.000000
12161902.000000,-2.324634,-1.662725,1.196523,-1.434614,1.719613,1.237511,-0.577372,0.317433,0.003475,0.770910,-0.298689,-0.234163,0.682597,-0.078452,0.105939,39.328960,-23.210648,-4.463624,0.488370,1.844894,-0.163102,0.000000,0.000000,0.000000,0.000000,0.000000,0.000000
12161903.000000,-2.324308,-1.662722,1.197293,-1.434911,1.719388,1.238194,-0.577447,0.318984,0.001757,0.769578,-0.294520,-0.229755,0.678393,-0.075428,0.129743,39.376568,-23.432816,-4.364442,0.428861,1.942855,-0.175919,0.000000,0.000000,0.000000,0.000000,0.000000,0.000000
12161904.000000,-2.323993,-1.662721,1.198069,-1.435198,1.719162,1.238882,-0.577520,0.319588,-0.000177,0.767902,-0.287906,-0.222338,0.679386,-0.073483,0.205121,39.451946,-23.678787,-4.289064,0.386747,2.027084,-0.182328,0.000000,0.000000,0.000000,0.000000,0.000000,0.000000
12161905.000000,-2.323681,-1.662725,1.198816,-1.435497,1.718927,1.239577,-0.577601,0.315844,-0.000071,0.756652,-0.290055,-0.226282,0.687550,-0.072716,0.328107,39.598736,-23.678787,-4.166078,0.452665,1.955673,-0.169511,0.000000,0.000000,0.000000,0.000000,0.000000,0.000000
12161906.000000,-2.323368,-1.662735,1.199568,-1.435788,1.718698,1.240277,-0.577678,0.313298,-0.003540,0.751138,-0.290984,-0.227373,0.691133,-0.075075,0.451093,39.769329,-23.555801,-4.118471,0.482877,1.936446,-0.202470,0.000000,0.000000,0.000000,0.000000,0.000000,0.000000
12161907.000000,-2.323053,-1.662735,1.200325,-1.436081,1.718467,1.240961,-0.577761,0.312349,-0.003100,0.749732,-0.293129,-0.223927,0.676896,-0.075294,0.526471,39.816936,-23.627213,-3.991518,0.530485,1.995040,-0.155778,0.000000,0.000000,0.000000,0.000000,0.000000,0.000000
12161908.000000,-2.322742,-1.662745,1.201080,-1.436382,1.718247,1.241648,-0.577833,0.312972,-0.004664,0.748126,-0.295255,-0.227542,0.676822,-0.076513,0.649457,39.939922,-23.555801,-3.844728,0.482877,2.020675,-0.196061,0.000000,0.000000,0.000000,0.000000,0.000000,0.000000
12161909.000000,-2.322439,-1.662758,1.201830,-1.436673,1.718011,1.242354,-0.577919,0.317362,-0.006333,0.741822,-0.292342,-0.223877,0.681837,-0.080638,0.824018,40.086712,-23.381241,-3.745546,0.518583,1.884261,-0.149369,0.000000,0.000000,0.000000,0.000000,0.000000,0.000000
12161910.000000,-2.322132,-1.662761,1.202569,-1.436965,1.717784,1.243052,-0.577999,0.312025,-0.007107,0.740411,-0.295409,-0.225317,0.689754,-0.077298,0.895429,40.086712,-23.163040,-3.721742,0.542386,1.779891,-0.155778,0.000000,0.000000,0.000000,0.000000,0.000000,0.000000
12161911.000000,-2.321826,-1.662759,1.203330,-1.437264,1.717565,1.243753,-0.578070,0.310629,-0.003760,0.738728,-0.294671,-0.219046,0.696774,-0.072628,0.994611,40.039104,-23.135269,-3.670168,0.494779,1.760665,-0.221696,0.000000,0.000000,0.000000,0.000000,0.000000,0.000000
12161912.000000,-2.321519,-1.662768,1.204071,-1.437555,1.717344,1.244451,-0.578154,0.310927,-0.008697,0.739451,-0.295479,-0.220354,0.692767,-0.078727,1.046186,40.162090,-22.988480,-3.622560,0.482877,1.865035,-0.155778,0.000000,0.000000,0.000000,0.000000,0.000000,0.000000
12161913.000000,-2.321212,-1.662764,1.204809,-1.437851,1.717122,1.245157,-0.578228,0.307504,-0.004935,0.737438,-0.298145,-0.219740,0.701437,-0.079276,1.093793,40.110516,-22.718704,-3.547182,0.547880,1.806442,-0.182328,0.000000,0.000000,0.000000,0.000000,0.000000,0.000000
12161914.000000,-2.320907,-1.662768,1.205565,-1.438144,1.716901,1.245873,-0.578307,0.301289,-0.004754,0.741596,-0.291363,-0.219950,0.703635,-0.080473,1.169172,40.162090,-22.694901,-3.448000,0.512174,1.689254,-0.196061,0.000000,0.000000,0.000000,0.000000,0.000000,0.000000
12161915.000000,-2.320601,-1.662761,1.206308,-1.438433,1.716680,1.246576,-0.578390,0.303373,-0.001043,0.743155,-0.287811,-0.217929,0.717464,-0.078569,1.093793,40.062908,-22.742508,-3.424196,0.535978,1.670028,-0.169511,0.000000,0.000000,0.000000,0.000000,0.000000,0.000000
12161916.000000,-2.320292,-1.662753,1.207056,-1.438737,1.716468,1.247273,-0.578465,0.303845,0.002593,0.741310,-0.294355,-0.219448,0.706563,-0.074819,1.046186,39.916119,-22.742508,-3.277406,0.518583,1.695663,-0.202470,0.000000,0.000000,0.000000,0.000000,0.000000,0.000000
12161917.000000,-2.319986,-1.662748,1.207797,-1.439033,1.716255,1.247979,-0.578547,0.303857,0.002734,0.756578,-0.295513,-0.217418,0.702902,-0.075127,1.022382,39.868511,-22.770279,-3.154421,0.559781,1.702071,-0.155778,0.000000,0.000000,0.000000,0.000000,0.000000,0.000000
12161918.000000,-2.319675,-1.662735,1.208544,-1.439327,1.716043,1.248669,-0.578621,0.305143,0.005824,0.750031,-0.292462,-0.216545,0.701260,-0.072074,0.947004,39.693951,-22.770279,-3.027467,0.601896,1.721298,-0.188737,0.000000,0.000000,0.000000,0.000000,0.000000,0.000000
12161919.000000,-2.319368,-1.662727,1.209298,-1.439619,1.715834,1.249366,-0.578693,0.302862,0.006606,0.744766,-0.290582,-0.212212,0.693999,-0.070966,0.994611,39.574932,-22.794083,-2.928285,0.542386,1.760665,-0.196061,0.000000,0.000000,0.000000,0.000000,0.000000,0.000000
12161920.000000,-2.319063,-1.662714,1.210047,-1.439913,1.715619,1.250061,-0.578773,0.306878,0.008441,0.746777,-0.289619,-0.214293,0.698800,-0.075979,0.947004,39.400372,-22.917068,-2.833071,0.506681,1.800033,-0.163102,0.000000,0.000000,0.000000,0.000000,0.000000,0.000000
12161921.000000,-2.318760,-1.662701,1.210803,-1.440209,1.715405,1.250747,-0.578846,0.302346,0.010140,0.743321,-0.288757,-0.213087,0.693457,-0.077328,0.923200,39.205975,-23.040054,-2.706117,0.512174,1.812850,-0.188737,0.000000,0.000000,0.000000,0.000000,0.000000,0.000000
12161922.000000,-2.318460,-1.662690,1.211552,-1.440498,1.715190,1.251442,-0.578923,0.302083,0.009611,0.740899,-0.285469,-0.211340,0.687980,-0.079431,0.923200,39.082989,-23.111465,-2.682314,0.506681,1.844894,-0.188737,0.000000,0.000000,0.000000,0.000000,0.000000,0.000000
12161923.000000,-2.318147,-1.662676,1.212293,-1.440794,1.714979,1.252118,-0.579000,0.303484,0.010935,0.742214,-0.288867,-0.216159,0.680047,-0.076903,0.847822,38.888592,-23.186844,-2.559328,0.559781,1.890670,-0.182328,0.000000,0.000000,0.000000,0.000000,0.000000,0.000000
12161924.000000,-2.317846,-1.662661,1.213046,-1.441083,1.714769,1.252810,-0.579078,0.300593,0.014411,0.744817,-0.286251,-0.215340,0.679943,-0.074374,0.923200,38.717999,-23.258255,-2.535524,0.596403,1.903487,-0.202470,0.000000,0.000000,0.000000,0.000000,0.000000,0.000000
12161925.000000,-2.317548,-1.662650,1.213779,-1.441371,1.714555,1.253499,-0.579150,0.301435,0.013292,0.745863,-0.284052,-0.213573,0.679153,-0.072263,0.895429,38.571209,-23.234451,-2.511720,0.608304,1.923629,-0.221696,0.000000,0.000000,0.000000,0.000000,0.000000,0.000000
12161926.000000,-2.317251,-1.662639,1.214525,-1.441653,1.714346,1.254184,-0.579230,0.297808,0.011927,0.744785,-0.276597,-0.216630,0.680016,-0.076995,0.895429,38.448223,-23.234451,-2.606935,0.608304,1.916305,-0.188737,0.000000,0.000000,0.000000,0.000000,0.000000,0.000000
12161927.000000,-2.316964,-1.662633,1.215261,-1.441928,1.714141,1.254878,-0.579303,0.298792,0.009299,0.737793,-0.277155,-0.212395,0.685563,-0.075833,1.069990,38.396648,-23.111465,-2.733888,0.566190,1.858627,-0.163102,0.000000,0.000000,0.000000,0.000000,0.000000,0.000000
12161928.000000,-2.316668,-1.662623,1.215985,-1.442216,1.713938,1.255564,-0.579367,0.299241,0.008532,0.732382,-0.278258,-0.204905,0.686002,-0.071727,1.093793,38.301434,-22.964676,-2.733888,0.524076,1.812850,-0.221696,0.000000,0.000000,0.000000,0.000000,0.000000,0.000000
12161929.000000,-2.316372,-1.662618,1.216718,-1.442508,1.713744,1.256246,-0.579452,0.295421,0.005768,0.729566,-0.279523,-0.200455,0.686546,-0.074210,1.145368,38.301434,-22.817886,-2.682314,0.500272,1.877853,-0.136552,0.000000,0.000000,0.000000,0.000000,0.000000,0.000000
12161930.000000,-2.316080,-1.662603,1.217444,-1.442786,1.713548,1.256939,-0.579521,0.293031,0.009272,0.726147,-0.279052,-0.197006,0.685264,-0.071552,1.192975,38.202251,-22.647293,-2.733888,0.494779,1.858627,-0.169511,0.000000,0.000000,0.000000,0.000000,0.000000,0.000000
12161931.000000,-2.315783,-1.662592,1.218186,-1.443067,1.713350,1.257631,-0.579589,0.292486,0.007037,0.724373,-0.278308,-0.199318,0.686657,-0.069120,1.169172,38.178448,-22.647293,-2.733888,0.476469,1.786300,-0.208878,0.000000,0.000000,0.000000,0.000000,0.000000,0.000000
12161932.000000,-2.315494,-1.662584,1.218921,-1.443342,1.713145,1.258340,-0.579669,0.290221,0.007508,0.722385,-0.273843,-0.197173,0.687945,-0.075740,1.244550,38.202251,-22.524307,-2.757692,0.488370,1.656295,-0.136552,0.000000,0.000000,0.000000,0.000000,0.000000,0.000000
12161933.000000,-2.315206,-1.662574,1.219657,-1.443617,1.712942,1.259051,-0.579730,0.285978,0.008600,0.727395,-0.273860,-0.196378,0.703544,-0.071312,1.292158,38.202251,-22.623489,-2.805300,0.518583,1.565658,-0.202470,0.000000,0.000000,0.000000,0.000000,0.000000,0.000000
12161934.000000,-2.314912,-1.662565,1.220400,-1.443892,1.712747,1.259732,-0.579800,0.285166,0.009606,0.730856,-0.271534,-0.195741,0.699426,-0.070448,1.343732,38.202251,-22.671097,-2.833071,0.554288,1.624252,-0.208878,0.000000,0.000000,0.000000,0.000000,0.000000,0.000000
12161935.000000,-2.314617,-1.662562,1.221148,-1.444163,1.712553,1.260428,-0.579873,0.290031,0.007965,0.750793,-0.270915,-0.194422,0.696493,-0.072436,1.315961,38.301434,-22.794083,-2.781496,0.578092,1.676437,-0.142960,0.000000,0.000000,0.000000,0.000000,0.000000,0.000000
12161936.000000,-2.314325,-1.662559,1.221872,-1.444432,1.712362,1.261120,-0.579935,0.290481,0.007047,0.746147,-0.271996,-0.193888,0.701504,-0.073043,1.292158,38.396648,-22.841690,-2.805300,0.601896,1.676437,-0.208878,0.000000,0.000000,0.000000,0.000000,0.000000,0.000000
12161937.000000,-2.314037,-1.662557,1.222613,-1.444697,1.712171,1.261810,-0.580006,0.286224,0.006376,0.740753,-0.273367,-0.196214,0.692433,-0.072742,1.315961,38.495831,-22.988480,-2.856874,0.578092,1.760665,-0.188737,0.000000,0.000000,0.000000,0.000000,0.000000,0.000000
12161938.000000,-2.313750,-1.662556,1.223346,-1.444958,1.711978,1.262504,-0.580074,0.286252,0.005998,0.738131,-0.267765,-0.192412,0.690966,-0.071005,1.343732,38.595013,-23.163040,-2.880678,0.524076,1.871444,-0.208878,0.000000,0.000000,0.000000,0.000000,0.000000,0.000000
12161939.000000,-2.313463,-1.662558,1.224087,-1.445213,1.711791,1.263192,-0.580149,0.285109,0.002067,0.739140,-0.264723,-0.185694,0.688093,-0.071541,1.391340,38.717999,-23.258255,-2.979860,0.488370,1.884261,-0.175919,0.000000,0.000000,0.000000,0.000000,0.000000,0.000000
12161940.000000,-2.313179,-1.662562,1.224828,-1.445468,1.711600,1.263905,-0.580215,0.280466,0.002465,0.736772,-0.256397,-0.187333,0.691882,-0.070020,1.442914,38.837017,-23.286026,-3.055238,0.518583,1.819259,-0.196061,0.000000,0.000000,0.000000,0.000000,0.000000,0.000000
12161941.000000,-2.312880,-1.662565,1.225552,-1.445727,1.711412,1.264598,-0.580284,0.281869,0.002732,0.734786,-0.255375,-0.188959,0.698486,-0.070167,1.343732,38.960003,-23.163040,-3.055238,0.547880,1.812850,-0.182328,0.000000,0.000000,0.000000,0.000000,0.000000,0.000000
12161942.000000,-2.312586,-1.662568,1.226290,-1.445980,1.711223,1.265300,-0.580357,0.285716,0.004053,0.731970,-0.253855,-0.188915,0.697621,-0.074774,1.244550,39.035381,-23.186844,-3.102846,0.547880,1.832076,-0.163102,0.000000,0.000000,0.000000,0.000000,0.000000,0.000000
12161943.000000,-2.312303,-1.662569,1.227014,-1.446224,1.711043,1.266014,-0.580422,0.284058,0.003052,0.732014,-0.249557,-0.187174,0.699908,-0.067632,1.216779,39.059185,-23.111465,-3.277406,0.506681,1.773483,-0.196061,0.000000,0.000000,0.000000,0.000000,0.000000,0.000000
12161944.000000,-2.312017,-1.662578,1.227740,-1.446470,1.710853,1.266718,-0.580490,0.283870,-0.000162,0.727469,-0.244409,-0.192784,0.699659,-0.068318,1.244550,39.182171,-22.964676,-3.424196,0.512174,1.643478,-0.188737,0.000000,0.000000,0.000000,0.000000,0.000000,0.000000
12161945.000000,-2.311732,-1.662578,1.228472,-1.446703,1.710661,1.267420,-0.580564,0.287917,0.000402,0.728981,-0.242840,-0.191721,0.693550,-0.070527,1.315961,39.182171,-22.865494,-3.598757,0.518583,1.624252,-0.130143,0.000000,0.000000,0.000000,0.000000,0.000000,0.000000
12161946.000000,-2.311445,-1.662580,1.229196,-1.446947,1.710476,1.268097,-0.580623,0.288599,0.000650,0.731766,-0.243449,-0.185246,0.697683,-0.067247,1.292158,39.182171,-22.817886,-3.745546,0.494779,1.682845,-0.202470,0.000000,0.000000,0.000000,0.000000,0.000000,0.000000
12161947.000000,-2.311149,-1.662575,1.229923,-1.447190,1.710298,1.268780,-0.580691,0.288074,0.002484,0.727340,-0.244583,-0.180287,0.689047,-0.068249,1.169172,39.106792,-22.718704,-3.820925,0.464567,1.793624,-0.188737,0.000000,0.000000,0.000000,0.000000,0.000000,0.000000
12161948.000000,-2.310861,-1.662579,1.230628,-1.447419,1.710111,1.269482,-0.580764,0.287761,0.000664,0.731120,-0.237671,-0.182928,0.698518,-0.065837,1.046186,39.158367,-22.353714,-3.991518,0.488370,1.727706,-0.142960,0.000000,0.000000,0.000000,0.000000,0.000000,0.000000
12161949.000000,-2.310573,-1.662579,1.231360,-1.447655,1.709933,1.270180,-0.580823,0.289295,0.000604,0.728606,-0.234856,-0.179865,0.702239,-0.063884,0.970807,39.158367,-22.353714,-4.019289,0.494779,1.637069,-0.208878,0.000000,0.000000,0.000000,0.000000,0.000000,0.000000
12161950.000000,-2.310279,-1.662569,1.232095,-1.447884,1.709765,1.270879,-0.580892,0.288239,0.003958,0.725518,-0.227958,-0.178112,0.700399,-0.069551,0.847822,39.011578,-22.377518,-4.066896,0.386747,1.617843,-0.196061,0.000000,0.000000,0.000000,0.000000,0.000000,0.000000
12161951.000000,-2.309980,-1.662565,1.232822,-1.448115,1.709580,1.271574,-0.580957,0.292525,0.003936,0.723069,-0.227464,-0.175237,0.694879,-0.065567,0.649457,38.960003,-22.472733,-4.090700,0.356534,1.617843,-0.182328,0.000000,0.000000,0.000000,0.000000,0.000000,0.000000
12161952.000000,-2.309681,-1.662565,1.233545,-1.448341,1.709397,1.272264,-0.581025,0.291406,0.002692,0.717024,-0.229737,-0.180534,0.700344,-0.061487,0.474897,38.960003,-22.377518,-4.142274,0.405057,1.637069,-0.196061,0.000000,0.000000,0.000000,0.000000,0.000000,0.000000
12161953.000000,-2.309386,-1.662562,1.234271,-1.448565,1.709213,1.272949,-0.581087,0.290890,0.002959,0.719717,-0.231301,-0.183100,0.685883,-0.062380,0.304304,38.912395,-22.448929,-4.189882,0.434354,1.721298,-0.221696,0.000000,0.000000,0.000000,0.000000,0.000000,0.000000
12161954.000000,-2.309089,-1.662555,1.235005,-1.448789,1.709038,1.273630,-0.581155,0.293087,0.004331,0.723819,-0.226019,-0.179665,0.687116,-0.064673,0.153547,38.813213,-22.548111,-4.241457,0.434354,1.786300,-0.202470,0.000000,0.000000,0.000000,0.000000,0.000000,0.000000
12161955.000000,-2.308790,-1.662550,1.235744,-1.449005,1.708864,1.274326,-0.581228,0.292220,0.004587,0.726016,-0.220552,-0.176257,0.691900,-0.067727,-0.017047,38.741802,-22.623489,-4.364442,0.410551,1.727706,-0.149369,0.000000,0.000000,0.000000,0.000000,0.000000,0.000000
12161956.000000,-2.308496,-1.662550,1.236474,-1.449214,1.708690,1.275031,-0.581287,0.293962,0.002522,0.727653,-0.216072,-0.174667,0.690723,-0.065228,-0.167803,38.765606,-22.817886,-4.511232,0.410551,1.676437,-0.221696,0.000000,0.000000,0.000000,0.000000,0.000000,0.000000
12161957.000000,-2.308199,-1.662556,1.237210,-1.449423,1.708510,1.275712,-0.581361,0.293455,0.000027,0.726411,-0.210682,-0.179810,0.691904,-0.063961,-0.266986,38.837017,-22.917068,-4.733400,0.446256,1.702071,-0.163102,0.000000,0.000000,0.000000,0.000000,0.000000,0.000000
12161958.000000,-2.307899,-1.662562,1.237952,-1.449635,1.708332,1.276392,-0.581430,0.304033,-0.001733,0.729439,-0.206689,-0.179940,0.682878,-0.061486,-0.465350,38.912395,-23.063858,-4.784975,0.398649,1.832076,-0.142960,0.000000,0.000000,0.000000,0.000000,0.000000,0.000000
12161959.000000,-2.307596,-1.662567,1.238680,-1.449845,1.708154,1.277066,-0.581490,0.305342,-0.002817,0.730512,-0.207298,-0.181561,0.680109,-0.060687,-0.711321,38.983807,-23.135269,-4.856386,0.381254,1.909896,-0.208878,0.000000,0.000000,0.000000,0.000000,0.000000,0.000000
12161960.000000,-2.307296,-1.662567,1.239410,-1.450049,1.707981,1.277754,-0.581566,0.301519,-0.001871,0.725420,-0.208595,-0.178382,0.681621,-0.065684,-0.909686,38.983807,-23.163040,-5.054750,0.362943,1.877853,-0.130143,0.000000,0.000000,0.000000,0.000000,0.000000,0.000000
12161961.000000,-2.307005,-1.662572,1.240136,-1.450257,1.707806,1.278454,-0.581625,0.299156,-0.003005,0.726641,-0.205747,-0.180441,0.686286,-0.063825,-0.985064,39.059185,-23.210648,-5.130128,0.351041,1.741439,-0.196061,0.000000,0.000000,0.000000,0.000000,0.000000,0.000000
12161962.000000,-2.306704,-1.662574,1.240864,-1.450459,1.707647,1.279132,-0.581689,0.298799,-0.002557,0.722740,-0.205733,-0.170280,0.686246,-0.060960,-1.131854,39.082989,-23.163040,-5.276918,0.273221,1.695663,-0.196061,0.000000,0.000000,0.000000,0.000000,0.000000,0.000000
12161963.000000,-2.306409,-1.662576,1.241597,-1.450658,1.707474,1.279812,-0.581759,0.292986,-0.002258,0.726882,-0.203736,-0.172441,0.681561,-0.065177,-1.159625,39.106792,-23.163040,-5.352296,0.327238,1.735030,-0.136552,0.000000,0.000000,0.000000,0.000000,0.000000,0.000000
12161964.000000,-2.306116,-1.662579,1.242305,-1.450857,1.707299,1.280466,-0.581816,0.292763,-0.002710,0.722530,-0.203676,-0.173026,0.685974,-0.063145,-1.231036,39.158367,-22.964676,-5.526857,0.362943,1.865035,-0.208878,0.000000,0.000000,0.000000,0.000000,0.000000,0.000000
12161965.000000,-2.305824,-1.662588,1.243027,-1.451063,1.707122,1.281140,-0.581889,0.289696,-0.004032,0.719445,-0.202938,-0.173608,0.676617,-0.062252,-1.306414,39.253582,-22.841690,-5.574464,0.405057,1.955673,-0.155778,0.000000,0.000000,0.000000,0.000000,0.000000,0.000000
12161966.000000,-2.305533,-1.662587,1.243739,-1.451263,1.706950,1.281828,-0.581952,0.288212,-0.002130,0.727954,-0.202721,-0.170915,0.683199,-0.063601,-1.405596,39.229778,-22.718704,-5.626039,0.374845,1.923629,-0.163102,0.000000,0.000000,0.000000,0.000000,0.000000,0.000000
12161967.000000,-2.305242,-1.662591,1.244479,-1.451462,1.706792,1.282522,-0.582022,0.288928,-0.001976,0.730193,-0.200852,-0.162870,0.684610,-0.065961,-1.453204,39.253582,-22.917068,-5.697450,0.291532,1.760665,-0.130143,0.000000,0.000000,0.000000,0.000000,0.000000,0.000000
12161968.000000,-2.304948,-1.662596,1.245215,-1.451666,1.706630,1.283214,-0.582079,0.289526,-0.002523,0.729994,-0.202707,-0.162982,0.689968,-0.063934,-1.504779,39.305157,-22.964676,-5.673646,0.237516,1.670028,-0.188737,0.000000,0.000000,0.000000,0.000000,0.000000,0.000000
12161969.000000,-2.304657,-1.662599,1.245940,-1.451873,1.706460,1.283901,-0.582145,0.291287,-0.002795,0.723054,-0.203828,-0.165933,0.685410,-0.066450,-1.603961,39.352764,-23.087662,-5.626039,0.255826,1.702071,-0.155778,0.000000,0.000000,0.000000,0.000000,0.000000,0.000000
12161970.000000,-2.304362,-1.662605,1.246678,-1.452081,1.706293,1.284577,-0.582210,0.289485,-0.003626,0.725059,-0.205273,-0.164328,0.684886,-0.067626,-1.726946,39.428143,-23.210648,-5.550661,0.308927,1.806442,-0.136552,0.000000,0.000000,0.000000,0.000000,0.000000,0.000000
12161971.000000,-2.304074,-1.662620,1.247423,-1.452280,1.706130,1.285247,-0.582265,0.287975,-0.006965,0.730482,-0.205487,-0.164704,0.672014,-0.060977,-1.826129,39.622540,-23.409012,-5.499086,0.291532,1.974899,-0.202470,0.000000,0.000000,0.000000,0.000000,0.000000,0.000000
12161972.000000,-2.303790,-1.662628,1.248151,-1.452476,1.705960,1.285929,-0.582330,0.285888,-0.006313,0.737006,-0.202820,-0.166098,0.673806,-0.064990,-1.873736,39.693951,-23.603409,-5.598268,0.315336,1.995040,-0.149369,0.000000,0.000000,0.000000,0.000000,0.000000,0.000000
12161973.000000,-2.303509,-1.662641,1.248894,-1.452672,1.705788,1.286621,-0.582384,0.280947,-0.008292,0.735508,-0.198906,-0.166153,0.678738,-0.059408,-1.802325,39.868511,-23.849380,-5.626039,0.291532,1.903487,-0.208878,0.000000,0.000000,0.000000,0.000000,0.000000,0.000000
12161974.000000,-2.303221,-1.662656,1.249623,-1.452866,1.705607,1.287311,-0.582445,0.281490,-0.008962,0.737449,-0.198847,-0.169952,0.681256,-0.062556,-1.873736,40.015301,-24.043777,-5.721254,0.369352,1.851302,-0.188737,0.000000,0.000000,0.000000,0.000000,0.000000,0.000000
12161975.000000,-2.302940,-1.662676,1.250368,-1.453072,1.705436,1.287970,-0.582509,0.279415,-0.013802,0.734540,-0.199830,-0.171346,0.682174,-0.060717,-1.873736,40.209698,-24.218338,-5.574464,0.410551,1.936446,-0.163102,0.000000,0.000000,0.000000,0.000000,0.000000,0.000000
12161976.000000,-2.302663,-1.662697,1.251105,-1.453277,1.705262,1.288637,-0.582564,0.280029,-0.017740,0.730640,-0.201221,-0.167001,0.671825,-0.061219,-1.873736,40.427898,-24.289749,-5.475282,0.440763,2.053634,-0.202470,0.000000,0.000000,0.000000,0.000000,0.000000,0.000000
12161977.000000,-2.302383,-1.662716,1.251832,-1.453485,1.705090,1.289302,-0.582631,0.276577,-0.016379,0.730768,-0.202156,-0.169805,0.673577,-0.065047,-1.901507,40.602459,-24.313553,-5.427675,0.500272,2.079269,-0.149369,0.000000,0.000000,0.000000,0.000000,0.000000,0.000000
12161978.000000,-2.302108,-1.662742,1.252566,-1.453689,1.704928,1.289985,-0.582693,0.277449,-0.019633,0.725356,-0.201622,-0.168018,0.674335,-0.065921,-1.826129,40.820660,-24.341324,-5.427675,0.458158,1.988631,-0.149369,0.000000,0.000000,0.000000,0.000000,0.000000,0.000000
12161979.000000,-2.301837,-1.662755,1.253287,-1.453886,1.704766,1.290668,-0.582744,0.275484,-0.017927,0.725533,-0.197857,-0.164423,0.678731,-0.064106,-1.750750,40.872234,-24.341324,-5.451478,0.351041,1.916305,-0.215287,0.000000,0.000000,0.000000,0.000000,0.000000,0.000000
12161980.000000,-2.301574,-1.662774,1.254020,-1.454088,1.704600,1.291342,-0.582814,0.270154,-0.014838,0.727848,-0.198299,-0.160046,0.671979,-0.063764,-1.504779,40.967449,-24.289749,-5.451478,0.315336,1.844894,-0.142960,0.000000,0.000000,0.000000,0.000000,0.000000,0.000000
12161981.000000,-2.301301,-1.662789,1.254750,-1.454291,1.704426,1.292018,-0.582866,0.270574,-0.015304,0.727022,-0.196492,-0.158859,0.671353,-0.058415,-1.429400,41.042828,-24.142960,-5.427675,0.339139,1.877853,-0.202470,0.000000,0.000000,0.000000,0.000000,0.000000,0.000000
12161982.000000,-2.301035,-1.662803,1.255470,-1.454499,1.704257,1.292687,-0.582928,0.268281,-0.011393,0.724403,-0.199535,-0.159173,0.682158,-0.058289,-1.381793,41.066631,-23.996170,-5.376100,0.393156,1.916305,-0.163102,0.000000,0.000000,0.000000,0.000000,0.000000,0.000000
12161983.000000,-2.300767,-1.662812,1.256196,-1.454703,1.704091,1.293352,-0.582981,0.265915,-0.010659,0.719019,-0.196945,-0.159111,0.679127,-0.056043,-1.330218,41.042828,-23.896988,-5.376100,0.446256,1.981307,-0.175919,0.000000,0.000000,0.000000,0.000000,0.000000,0.000000
12161984.000000,-2.300510,-1.662817,1.256912,-1.454916,1.703928,1.294038,-0.583041,0.267142,-0.007893,0.730699,-0.204351,-0.161593,0.681937,-0.060414,-1.254840,40.919842,-23.750198,-5.276918,0.458158,1.903487,-0.142960,0.000000,0.000000,0.000000,0.000000,0.000000,0.000000
12161985.000000,-2.300243,-1.662821,1.257642,-1.455130,1.703776,1.294730,-0.583092,0.265926,-0.006810,0.726818,-0.203638,-0.157515,0.683189,-0.056056,-1.231036,40.820660,-23.726395,-5.253114,0.416959,1.735030,-0.196061,0.000000,0.000000,0.000000,0.000000,0.000000,0.000000
12161986.000000,-2.299978,-1.662823,1.258378,-1.455344,1.703619,1.295413,-0.583148,0.264623,-0.002464,0.727359,-0.209209,-0.158663,0.681214,-0.059537,-1.183428,40.697674,-23.750198,-5.153932,0.362943,1.721298,-0.182328,0.000000,0.000000,0.000000,0.000000,0.000000,0.000000
12161987.000000,-2.299710,-1.662829,1.259090,-1.455561,1.703457,1.296097,-0.583208,0.269117,-0.004290,0.719479,-0.211011,-0.155358,0.678370,-0.058575,-1.231036,40.650066,-23.678787,-4.983339,0.320829,1.786300,-0.155778,0.000000,0.000000,0.000000,0.000000,0.000000,0.000000
12161988.000000,-2.299445,-1.662830,1.259812,-1.455785,1.703286,1.296777,-0.583258,0.264301,-0.003866,0.716386,-0.214844,-0.156855,0.680923,-0.055403,-1.231036,40.527081,-23.627213,-4.832582,0.381254,1.844894,-0.188737,0.000000,0.000000,0.000000,0.000000,0.000000,0.000000
12161989.000000,-2.299186,-1.662833,1.260545,-1.456005,1.703118,1.297458,-0.583319,0.261203,-0.004219,0.720967,-0.217286,-0.161416,0.674250,-0.060241,-1.231036,40.427898,-23.678787,-4.685792,0.422452,1.865035,-0.149369,0.000000,0.000000,0.000000,0.000000,0.000000,0.000000
12161990.000000,-2.298924,-1.662831,1.261266,-1.456230,1.702960,1.298139,-0.583370,0.262555,0.000315,0.724690,-0.220174,-0.158938,0.670928,-0.057316,-1.254840,40.257305,-23.750198,-4.535036,0.428861,1.871444,-0.169511,0.000000,0.000000,0.000000,0.000000,0.000000,0.000000
12161991.000000,-2.298660,-1.662828,1.261999,-1.456442,1.702796,1.298833,-0.583424,0.259411,0.002996,0.727350,-0.218043,-0.157926,0.670763,-0.059473,-1.254840,40.110516,-23.873184,-4.535036,0.458158,1.812850,-0.188737,0.000000,0.000000,0.000000,0.000000,0.000000,0.000000
12161992.000000,-2.298404,-1.662834,1.262719,-1.456670,1.702634,1.299540,-0.583481,0.258742,0.001512,0.723129,-0.222089,-0.156929,0.676999,-0.062838,-1.183428,40.110516,-23.972366,-4.364442,0.482877,1.708480,-0.169511,0.000000,0.000000,0.000000,0.000000,0.000000,0.000000
12161993.000000,-2.298139,-1.662836,1.263447,-1.456892,1.702479,1.300211,-0.583530,0.260808,0.002314,0.722587,-0.220910,-0.160117,0.680666,-0.058573,-1.231036,40.039104,-24.043777,-4.289064,0.482877,1.754256,-0.202470,0.000000,0.000000,0.000000,0.000000,0.000000,0.000000
12161994.000000,-2.297877,-1.662837,1.264179,-1.457117,1.702315,1.300879,-0.583586,0.265949,0.003033,0.721005,-0.222179,-0.157492,0.672111,-0.058140,-1.207232,39.963726,-24.218338,-4.142274,0.482877,1.942855,-0.169511,0.000000,0.000000,0.000000,0.000000,0.000000,0.000000
12161995.000000,-2.297626,-1.662840,1.264896,-1.457337,1.702155,1.301544,-0.583638,0.261319,-0.000232,0.720547,-0.221278,-0.158626,0.674912,-0.055961,-1.159625,39.916119,-24.265945,-4.066896,0.428861,2.072860,-0.182328,0.000000,0.000000,0.000000,0.000000,0.000000,0.000000
12161996.000000,-2.297376,-1.662849,1.265617,-1.457563,1.701996,1.302231,-0.583691,0.257016,-0.003704,0.717520,-0.224530,-0.156438,0.674252,-0.054160,-1.084246,39.916119,-24.265945,-3.991518,0.416959,2.020675,-0.208878,0.000000,0.000000,0.000000,0.000000,0.000000,0.000000
12161997.000000,-2.297132,-1.662845,1.266334,-1.457775,1.701835,1.302925,-0.583753,0.252428,-0.003216,0.720542,-0.220208,-0.156598,0.678524,-0.056251,-0.933489,39.793133,-24.313553,-4.043092,0.458158,1.955673,-0.136552,0.000000,0.000000,0.000000,0.000000,0.000000,0.000000
12161998.000000,-2.296877,-1.662839,1.267054,-1.457997,1.701685,1.303601,-0.583802,0.254337,0.001162,0.717420,-0.220753,-0.153666,0.678772,-0.052551,-0.885882,39.622540,-24.265945,-3.967714,0.416959,1.962081,-0.196061,0.000000,0.000000,0.000000,0.000000,0.000000,0.000000
12161999.000000,-2.296627,-1.662834,1.267777,-1.458217,1.701526,1.304292,-0.583862,0.252678,0.003138,0.719426,-0.221254,-0.154898,0.672735,-0.053068,-0.834307,39.499554,-24.265945,-3.868532,0.470060,1.968490,-0.169511,0.000000,0.000000,0.000000,0.000000,0.000000,0.000000
12162000.000000,-2.296383,-1.662836,1.268475,-1.458452,1.701368,1.304969,-0.583917,0.250057,0.001707,0.710597,-0.225541,-0.156337,0.686540,-0.051724,-0.735125,39.499554,-24.043777,-3.721742,0.535978,1.923629,-0.196061,0.000000,0.000000,0.000000,0.000000,0.000000,0.000000
12162001.000000,-2.296132,-1.662831,1.269181,-1.458683,1.701220,1.305657,-0.583978,0.249320,0.002520,0.702890,-0.225146,-0.154411,0.690069,-0.053888,-0.711321,39.428143,-23.849380,-3.598757,0.524076,1.916305,-0.136552,0.000000,0.000000,0.000000,0.000000,0.000000,0.000000
12162002.000000,-2.295894,-1.662819,1.269891,-1.458909,1.701073,1.306344,-0.584028,0.245355,0.004897,0.717057,-0.223410,-0.150664,0.690546,-0.052649,-0.635943,39.281353,-23.774002,-3.424196,0.458158,1.936446,-0.163102,0.000000,0.000000,0.000000,0.000000,0.000000,0.000000
12162003.000000,-2.295654,-1.662815,1.270608,-1.459125,1.700919,1.307021,-0.584080,0.245631,0.004309,0.714111,-0.215125,-0.154509,0.685803,-0.055078,-0.564532,39.229778,-23.774002,-3.499574,0.422452,1.877853,-0.202470,0.000000,0.000000,0.000000,0.000000,0.000000,0.000000
12162004.000000,-2.295413,-1.662805,1.271322,-1.459351,1.700767,1.307708,-0.584140,0.242058,0.005071,0.708386,-0.224383,-0.153067,0.685549,-0.056236,-0.465350,39.130596,-23.678787,-3.424196,0.398649,1.825668,-0.149369,0.000000,0.000000,0.000000,0.000000,0.000000,0.000000
12162005.000000,-2.295174,-1.662801,1.272029,-1.459573,1.700614,1.308391,-0.584187,0.240510,0.004403,0.708239,-0.222104,-0.149741,0.679225,-0.053194,-0.413775,39.082989,-23.678787,-3.400392,0.446256,1.825668,-0.196061,0.000000,0.000000,0.000000,0.000000,0.000000,0.000000
12162006.000000,-2.294937,-1.662796,1.272751,-1.459799,1.700467,1.309052,-0.584240,0.238926,0.004537,0.711883,-0.221616,-0.151926,0.674075,-0.052580,-0.366168,39.011578,-23.774002,-3.325014,0.494779,1.962081,-0.202470,0.000000,0.000000,0.000000,0.000000,0.000000,0.000000
12162007.000000,-2.294702,-1.662791,1.273475,-1.460021,1.700323,1.309726,-0.584296,0.237513,0.004736,0.712983,-0.223199,-0.151546,0.663670,-0.053590,-0.290789,38.936199,-23.896988,-3.301210,0.500272,2.007858,-0.169511,0.000000,0.000000,0.000000,0.000000,0.000000,0.000000
12162008.000000,-2.294465,-1.662794,1.274183,-1.460240,1.700179,1.310405,-0.584349,0.237084,0.002005,0.713474,-0.220481,-0.155419,0.670272,-0.056420,-0.243182,38.983807,-24.019974,-3.325014,0.512174,1.955673,-0.196061,0.000000,0.000000,0.000000,0.000000,0.000000,0.000000
12162009.000000,-2.294239,-1.662795,1.274903,-1.460460,1.700037,1.311091,-0.584406,0.231592,0.000102,0.711424,-0.219207,-0.148729,0.670132,-0.056442,-0.116229,39.035381,-24.142960,-3.301210,0.488370,1.890670,-0.163102,0.000000,0.000000,0.000000,0.000000,0.000000,0.000000
12162010.000000,-2.294006,-1.662795,1.275615,-1.460672,1.699896,1.311775,-0.584458,0.233458,0.000046,0.713357,-0.219199,-0.148452,0.666673,-0.054668,-0.092425,39.035381,-24.341324,-3.249635,0.470060,1.909896,-0.175919,0.000000,0.000000,0.000000,0.000000,0.000000,0.000000
12162011.000000,-2.293773,-1.662801,1.276332,-1.460889,1.699752,1.312433,-0.584510,0.232027,-0.002213,0.711826,-0.214842,-0.144531,0.662648,-0.049288,0.006757,39.130596,-24.412735,-3.225832,0.470060,1.981307,-0.182328,0.000000,0.000000,0.000000,0.000000,0.000000,0.000000
12162012.000000,-2.293541,-1.662805,1.277048,-1.461096,1.699605,1.313111,-0.584566,0.237157,-0.002694,0.706345,-0.211331,-0.146095,0.660965,-0.050836,0.078168,39.182171,-24.436539,-3.225832,0.470060,1.995040,-0.155778,0.000000,0.000000,0.000000,0.000000,0.000000,0.000000
12162013.000000,-2.293316,-1.662815,1.277748,-1.461306,1.699463,1.313778,-0.584617,0.236117,-0.005239,0.709451,-0.209473,-0.138951,0.665568,-0.051379,0.153547,39.328960,-24.341324,-3.202028,0.500272,2.001449,-0.142960,0.000000,0.000000,0.000000,0.000000,0.000000,0.000000
12162014.000000,-2.293090,-1.662824,1.278463,-1.461508,1.699322,1.314458,-0.584664,0.230868,-0.006376,0.705444,-0.205592,-0.137823,0.665681,-0.049882,0.276533,39.451946,-24.313553,-3.277406,0.518583,1.968490,-0.188737,0.000000,0.000000,0.000000,0.000000,0.000000,0.000000
12162015.000000,-2.292875,-1.662829,1.279164,-1.461714,1.699190,1.315140,-0.584710,0.229460,-0.005926,0.718375,-0.207804,-0.134931,0.670996,-0.049401,0.451093,39.523357,-24.265945,-3.277406,0.488370,1.909896,-0.215287,0.000000,0.000000,0.000000,0.000000,0.000000,0.000000
12162016.000000,-2.292653,-1.662834,1.279866,-1.461919,1.699057,1.315818,-0.584769,0.227181,-0.005718,0.707338,-0.206578,-0.128991,0.676699,-0.048241,0.526471,39.598736,-24.095352,-3.301210,0.470060,1.812850,-0.149369,0.000000,0.000000,0.000000,0.000000,0.000000,0.000000
12162017.000000,-2.292431,-1.662839,1.280574,-1.462115,1.698915,1.316497,-0.584813,0.228139,-0.004929,0.700799,-0.201694,-0.131487,0.675854,-0.051169,0.625654,39.646343,-23.996170,-3.325014,0.512174,1.806442,-0.196061,0.000000,0.000000,0.000000,0.000000,0.000000,0.000000
12162018.000000,-2.292212,-1.662840,1.281264,-1.462316,1.698782,1.317166,-0.584860,0.225937,-0.003288,0.699201,-0.200441,-0.130911,0.671417,-0.051134,0.724836,39.646343,-23.750198,-3.277406,0.494779,1.825668,-0.202470,0.000000,0.000000,0.000000,0.000000,0.000000,0.000000
12162019.000000,-2.291989,-1.662842,1.281970,-1.462515,1.698650,1.317849,-0.584914,0.224378,-0.002750,0.694706,-0.199563,-0.135106,0.673400,-0.053262,0.796247,39.670147,-23.651016,-3.325014,0.470060,1.825668,-0.149369,0.000000,0.000000,0.000000,0.000000,0.000000,0.000000
12162020.000000,-2.291773,-1.662840,1.282663,-1.462710,1.698511,1.318548,-0.584957,0.220968,-0.001278,0.695142,-0.192496,-0.133577,0.682373,-0.051204,0.847822,39.646343,-23.504227,-3.325014,0.452665,1.735030,-0.196061,0.000000,0.000000,0.000000,0.000000,0.000000,0.000000
12162021.000000,-2.291553,-1.662839,1.283365,-1.462900,1.698374,1.319234,-0.585014,0.218615,-0.000296,0.694660,-0.192777,-0.138183,0.679676,-0.053223,0.895429,39.622540,-23.357437,-3.400392,0.458158,1.649886,-0.142960,0.000000,0.000000,0.000000,0.000000,0.000000,0.000000
12162022.000000,-2.291329,-1.662832,1.284071,-1.463090,1.698237,1.319918,-0.585059,0.218464,0.002122,0.693635,-0.192955,-0.137270,0.683918,-0.051173,0.871625,39.523357,-23.357437,-3.376589,0.470060,1.637069,-0.182328,0.000000,0.000000,0.000000,0.000000,0.000000,0.000000
12162023.000000,-2.291109,-1.662818,1.284762,-1.463282,1.698102,1.320606,-0.585109,0.218578,0.005405,0.691111,-0.190324,-0.136328,0.685573,-0.055242,0.824018,39.352764,-23.258255,-3.448000,0.476469,1.689254,-0.188737,0.000000,0.000000,0.000000,0.000000,0.000000,0.000000
12162024.000000,-2.290890,-1.662816,1.285459,-1.463481,1.697965,1.321290,-0.585164,0.217784,0.004716,0.690555,-0.191361,-0.136497,0.689229,-0.055923,0.796247,39.305157,-23.234451,-3.400392,0.506681,1.676437,-0.142960,0.000000,0.000000,0.000000,0.000000,0.000000,0.000000
12162025.000000,-2.290669,-1.662808,1.286163,-1.463671,1.697833,1.321975,-0.585203,0.222334,0.006021,0.691983,-0.191352,-0.135207,0.681117,-0.051783,0.772443,39.182171,-23.135269,-3.376589,0.512174,1.670028,-0.221696,0.000000,0.000000,0.000000,0.000000,0.000000,0.000000
12162026.000000,-2.290442,-1.662795,1.286860,-1.463861,1.697706,1.322647,-0.585260,0.221682,0.007447,0.694907,-0.189133,-0.132287,0.677531,-0.053684,0.697065,39.035381,-23.234451,-3.325014,0.458158,1.754256,-0.175919,0.000000,0.000000,0.000000,0.000000,0.000000,0.000000
12162027.000000,-2.290214,-1.662781,1.287563,-1.464046,1.697582,1.323341,-0.585312,0.224856,0.008955,0.691895,-0.190464,-0.125569,0.678585,-0.054138,0.601850,38.864788,-23.234451,-3.400392,0.398649,1.754256,-0.149369,0.000000,0.000000,0.000000,0.000000,0.000000,0.000000
12162028.000000,-2.289995,-1.662773,1.288268,-1.464233,1.697447,1.324042,-0.585360,0.225492,0.008290,0.699177,-0.190789,-0.127886,0.680704,-0.049102,0.574079,38.765606,-23.409012,-3.424196,0.416959,1.702071,-0.149369,0.000000,0.000000,0.000000,0.000000,0.000000,0.000000
12162029.000000,-2.289767,-1.662769,1.288967,-1.464417,1.697312,1.324717,-0.585401,0.223867,0.006640,0.700677,-0.188366,-0.129411,0.680689,-0.043069,0.502668,38.717999,-23.432816,-3.499574,0.422452,1.702071,-0.208878,0.000000,0.000000,0.000000,0.000000,0.000000,0.000000
12162030.000000,-2.289542,-1.662756,1.289686,-1.464598,1.697179,1.325392,-0.585448,0.225705,0.011015,0.702424,-0.182581,-0.129767,0.675609,-0.045773,0.451093,38.571209,-23.627213,-3.547182,0.416959,1.800033,-0.196061,0.000000,0.000000,0.000000,0.000000,0.000000,0.000000
12162031.000000,-2.289324,-1.662745,1.290388,-1.464781,1.697043,1.326059,-0.585500,0.220794,0.011040,0.702389,-0.183852,-0.126376,0.689723,-0.044933,0.375715,38.424419,-23.774002,-3.570986,0.434354,1.851302,-0.142960,0.000000,0.000000,0.000000,0.000000,0.000000,0.000000
