chaoyuefei/paper-gmrm-data/robot_logs/s2_dq_mrm_max_0.30_log_20260314_183302.csv
# time_ms,q_0,q_1,q_2,q_3,q_4,q_5,q_6,dq_0,dq_1,dq_2,dq_3,dq_4,dq_5,dq_6,tau_J_0,tau_J_1,tau_J_2,tau_J_3,tau_J_4,tau_J_5,tau_J_6,O_dP_EE_c_0,O_dP_EE_c_1,O_dP_EE_c_2,O_dP_EE_c_3,O_dP_EE_c_4,O_dP_EE_c_5
15847485.000000,2.313444,-0.961398,-1.822501,-1.385853,-0.923308,1.666982,0.445888,0.000037,0.000572,0.000152,-0.000560,-0.000217,-0.000201,0.001680,0.328107,34.897503,19.275009,12.171202,0.261320,1.324874,0.015426,0.000000,0.000000,0.000000,0.000000,0.000000,0.000000
15847486.000000,2.313444,-0.961401,-1.822503,-1.385850,-0.923309,1.666980,0.445883,0.000024,-0.000732,-0.000456,0.000183,-0.000382,0.000103,-0.000575,0.328107,34.945110,19.298813,12.147398,0.267728,1.318465,0.061202,0.000000,0.000000,0.000000,0.000000,0.000000,0.000000
15847487.000000,2.313446,-0.961397,-1.822503,-1.385847,-0.923308,1.666979,0.445880,0.000573,0.000069,-0.000304,0.000679,-0.000017,0.000069,-0.001367,0.304304,34.921307,19.298813,12.123594,0.261320,1.318465,0.087753,0.000000,0.000000,0.000000,0.000000,0.000000,0.000000
15847488.000000,2.313440,-0.961397,-1.822503,-1.385855,-0.923309,1.666979,0.445884,-0.000732,0.000046,0.000354,-0.001311,-0.000249,0.000046,0.001293,0.351911,34.921307,19.275009,12.198973,0.267728,1.318465,0.028243,0.000000,0.000000,0.000000,0.000000,0.000000,0.000000
15847489.000000,2.313434,-0.961401,-1.822508,-1.385853,-0.923306,1.666980,0.445879,-0.012047,-0.010587,-0.010022,-0.001431,-0.000836,-0.003880,-0.002326,-0.116229,34.433331,18.759262,12.222776,0.159696,1.285506,0.114303,0.000000,0.000000,0.000000,0.000000,0.000000,0.000000
15847490.000000,2.313417,-0.961375,-1.822520,-1.385853,-0.923295,1.666976,0.445904,-0.029304,-0.012417,-0.028009,0.001107,-0.000512,-0.006785,0.009086,-1.972918,32.156109,16.870834,12.270384,-0.234896,1.247054,0.081344,0.000000,0.000000,0.000000,0.000000,0.000000,0.000000
15847491.000000,2.313412,-0.961324,-1.822585,-1.385849,-0.923292,1.666958,0.445945,-0.027831,0.004844,-0.047838,0.000353,-0.001204,-0.008634,0.022040,-5.487933,28.240398,14.022324,12.298155,-0.754916,1.337692,0.061202,0.000000,0.000000,0.000000,0.000000,0.000000,0.000000
15847492.000000,2.313373,-0.961314,-1.822687,-1.385837,-0.923324,1.666936,0.445998,-0.024971,0.010466,-0.066687,0.004517,-0.010827,-0.012594,0.038167,-9.498858,24.003338,10.610458,12.123594,-1.065279,1.507064,0.107894,0.000000,0.000000,0.000000,0.000000,0.000000,0.000000
15847493.000000,2.313294,-0.961360,-1.822823,-1.385826,-0.923408,1.666937,0.446076,-0.029661,0.003112,-0.081892,0.005738,-0.032079,0.001322,0.057641,-13.263812,20.309795,7.099411,11.877623,-0.999362,1.513473,0.094161,0.000000,0.000000,0.000000,0.000000,0.000000,0.000000
15847494.000000,2.313207,-0.961452,-1.822986,-1.385833,-0.923529,1.666982,0.446171,-0.034598,-0.017098,-0.099040,0.000883,-0.059599,0.016898,0.074927,-16.679644,17.421612,3.838302,11.726866,-0.712802,1.234237,0.133529,0.000000,0.000000,0.000000,0.000000,0.000000,0.000000
15847495.000000,2.313104,-0.961582,-1.823149,-1.385850,-0.923670,1.667081,0.446289,-0.038750,-0.043393,-0.106719,-0.009493,-0.085598,0.049857,0.087644,-19.179033,15.291180,1.259567,11.429319,-0.377719,0.641891,0.199447,0.000000,0.000000,0.000000,0.000000,0.000000,0.000000
15847496.000000,2.313003,-0.961747,-1.823294,-1.385879,-0.923836,1.667227,0.446431,-0.042365,-0.073499,-0.104150,-0.022354,-0.112797,0.085275,0.104022,-20.393023,14.216045,-0.704239,10.691404,-0.055453,-0.144547,0.193038,0.000000,0.000000,0.000000,0.000000,0.000000,0.000000
15847497.000000,2.312919,-0.961929,-1.823434,-1.385943,-0.923996,1.667386,0.446595,-0.049925,-0.103176,-0.106468,-0.039432,-0.129141,0.111020,0.117674,-20.468401,13.870892,-1.783341,9.822569,0.046171,-0.678300,0.140853,0.000000,0.000000,0.000000,0.000000,0.000000,0.000000
15847498.000000,2.312866,-0.962113,-1.823551,-1.386011,-0.924165,1.667552,0.446757,-0.050249,-0.129702,-0.106987,-0.050836,-0.142913,0.133905,0.129857,-19.897112,13.970074,-2.346695,8.441954,0.052579,-0.898942,0.166488,0.000000,0.000000,0.000000,0.000000,0.000000,0.000000
15847499.000000,2.312817,-0.962279,-1.823658,-1.386099,-0.924312,1.667727,0.446922,-0.051540,-0.140630,-0.106505,-0.064066,-0.141693,0.147038,0.139143,-18.706926,13.918499,-2.422074,6.783629,-0.246798,-0.723161,0.186630,0.000000,0.000000,0.000000,0.000000,0.000000,0.000000
15847500.000000,2.312769,-0.962409,-1.823763,-1.386224,-0.924447,1.667918,0.447103,-0.059337,-0.136833,-0.115211,-0.085912,-0.139544,0.161316,0.150507,-17.175554,13.478130,-2.128495,5.228453,-0.754916,-0.359696,0.087753,0.000000,0.000000,0.000000,0.000000,0.000000,0.000000
15847501.000000,2.312708,-0.962503,-1.823860,-1.386398,-0.924593,1.668134,0.447269,-0.069332,-0.123900,-0.113255,-0.110077,-0.137298,0.171028,0.154201,-15.342669,12.621197,-1.807144,4.165221,-1.190707,-0.033768,0.114303,0.000000,0.000000,0.000000,0.000000,0.000000,0.000000
15847502.000000,2.312631,-0.962561,-1.823960,-1.386608,-0.924765,1.668382,0.447448,-0.080628,-0.101617,-0.114282,-0.136610,-0.149344,0.186801,0.160107,-13.362994,11.351665,-1.442154,3.494749,-1.405856,0.219833,0.048385,0.000000,0.000000,0.000000,0.000000,0.000000,0.000000
15847503.000000,2.312532,-0.962598,-1.824080,-1.386858,-0.924974,1.668658,0.447620,-0.091790,-0.081578,-0.121737,-0.172972,-0.168354,0.219109,0.162551,-11.184955,9.879803,-0.874832,3.272581,-1.346346,0.375472,0.048385,0.000000,0.000000,0.000000,0.000000,0.000000,0.000000
15847504.000000,2.312402,-0.962632,-1.824211,-1.387124,-0.925233,1.668978,0.447792,-0.111879,-0.064103,-0.128530,-0.198326,-0.193497,0.248203,0.163080,-8.808551,8.388103,-0.335281,3.201170,-0.951754,0.388290,0.081344,0.000000,0.000000,0.000000,0.000000,0.000000,0.000000
15847505.000000,2.312267,-0.962687,-1.824335,-1.387412,-0.925510,1.669323,0.447967,-0.120553,-0.060118,-0.129261,-0.226365,-0.228935,0.276310,0.165072,-6.654315,7.261395,-0.089310,3.399534,-0.419833,0.375472,0.067611,0.000000,0.000000,0.000000,0.000000,0.000000,0.000000
15847506.000000,2.312116,-0.962753,-1.824474,-1.387717,-0.925788,1.669679,0.448134,-0.132851,-0.063327,-0.135411,-0.254570,-0.246053,0.297242,0.160567,-4.476275,6.456036,0.128891,3.720885,-0.013339,0.362655,0.094161,0.000000,0.000000,0.000000,0.000000,0.000000,0.000000
15847507.000000,2.311966,-0.962845,-1.824614,-1.388024,-0.926048,1.670075,0.448304,-0.143261,-0.076442,-0.137372,-0.271095,-0.247402,0.329518,0.158290,-2.643389,6.087078,0.228073,3.867674,0.105680,0.277511,0.107894,0.000000,0.000000,0.000000,0.000000,0.000000,0.000000
15847508.000000,2.311835,-0.962966,-1.824757,-1.388314,-0.926286,1.670480,0.448473,-0.139469,-0.086261,-0.137676,-0.280066,-0.242764,0.357453,0.160325,-1.183428,6.309246,0.398666,3.645506,-0.079257,0.264693,0.133529,0.000000,0.000000,0.000000,0.000000,0.000000,0.000000
15847509.000000,2.311731,-0.963122,-1.824905,-1.388605,-0.926522,1.670890,0.448648,-0.126969,-0.105546,-0.137911,-0.278330,-0.237132,0.370621,0.165685,-0.044818,7.261395,0.843002,3.149595,-0.342013,0.434066,0.081344,0.000000,0.000000,0.000000,0.000000,0.000000,0.000000
15847510.000000,2.311634,-0.963306,-1.825037,-1.388883,-0.926750,1.671328,0.448816,-0.112661,-0.131405,-0.135296,-0.274853,-0.229665,0.388588,0.165160,1.093793,8.828472,1.453964,2.407713,-0.604769,0.681258,0.114303,0.000000,0.000000,0.000000,0.000000,0.000000,0.000000
15847511.000000,2.311530,-0.963487,-1.825175,-1.389160,-0.926969,1.671791,0.448984,-0.106303,-0.145314,-0.138168,-0.278862,-0.222080,0.412552,0.166971,2.383161,10.419353,2.437851,1.594420,-0.814425,0.817672,0.100570,0.000000,0.000000,0.000000,0.000000,0.000000,0.000000
15847512.000000,2.311436,-0.963667,-1.825312,-1.389459,-0.927200,1.672308,0.449155,-0.102746,-0.158887,-0.137381,-0.279683,-0.217994,0.443687,0.169337,3.597150,11.962627,3.616134,0.999327,-0.844637,0.700484,0.061202,0.000000,0.000000,0.000000,0.000000,0.000000,0.000000
15847513.000000,2.311344,-0.963831,-1.825443,-1.389768,-0.927447,1.672861,0.449320,-0.098008,-0.165798,-0.135999,-0.292155,-0.226111,0.492253,0.168789,4.684186,13.013958,4.671432,0.554991,-0.706393,0.401107,0.081344,0.000000,0.000000,0.000000,0.000000,0.000000,0.000000
15847514.000000,2.311248,-0.963976,-1.825583,-1.390106,-0.927713,1.673419,0.449487,-0.095769,-0.162153,-0.140179,-0.305233,-0.236074,0.514719,0.165127,5.676008,13.553509,5.702927,0.332823,-0.443636,0.128280,0.061202,0.000000,0.000000,0.000000,0.000000,0.000000,0.000000
15847515.000000,2.311152,-0.964102,-1.825713,-1.390454,-0.927975,1.673970,0.449646,-0.094622,-0.151346,-0.139159,-0.316091,-0.240764,0.520651,0.159810,6.540876,13.577312,6.413071,0.186034,-0.234896,0.096236,0.100570,0.000000,0.000000,0.000000,0.000000,0.000000,0.000000
15847516.000000,2.311064,-0.964216,-1.825848,-1.390812,-0.928242,1.674491,0.449815,-0.090004,-0.142107,-0.137088,-0.330358,-0.245098,0.514811,0.164173,7.211347,13.236126,6.928818,0.059080,0.010465,0.239059,0.054794,0.000000,0.000000,0.000000,0.000000,0.000000,0.000000
15847517.000000,2.310998,-0.964323,-1.825984,-1.391182,-0.928501,1.675023,0.449984,-0.081583,-0.128297,-0.135402,-0.340420,-0.247469,0.513813,0.165530,7.504926,12.621197,7.273972,-0.087709,0.129484,0.394698,0.054794,0.000000,0.000000,0.000000,0.000000,0.000000,0.000000
15847518.000000,2.310941,-0.964430,-1.826133,-1.391563,-0.928752,1.675554,0.450151,-0.071417,-0.119971,-0.141087,-0.349443,-0.247676,0.513046,0.164984,7.580305,11.887249,7.615158,-0.286073,0.064481,0.492660,0.094161,0.000000,0.000000,0.000000,0.000000,0.000000,0.000000
15847519.000000,2.310887,-0.964546,-1.826283,-1.391943,-0.929003,1.676069,0.450320,-0.065888,-0.119051,-0.144987,-0.357197,-0.244310,0.513407,0.166359,7.556501,11.177105,7.789719,-0.456667,-0.114962,0.551253,0.094161,0.000000,0.000000,0.000000,0.000000,0.000000,0.000000
15847520.000000,2.310846,-0.964693,-1.826444,-1.392332,-0.929253,1.676589,0.450495,-0.054985,-0.126855,-0.150388,-0.369030,-0.243538,0.511353,0.168259,7.334333,10.812115,8.031723,-0.754213,-0.264193,0.635482,0.061202,0.000000,0.000000,0.000000,0.000000,0.000000,0.000000
15847521.000000,2.310816,-0.964864,-1.826607,-1.392719,-0.929509,1.677083,0.450664,-0.046754,-0.140976,-0.154970,-0.370959,-0.242952,0.510842,0.168677,6.937604,10.788311,8.154709,-1.127138,-0.306307,0.733443,0.061202,0.000000,0.000000,0.000000,0.000000,0.000000,0.000000
15847522.000000,2.310786,-0.965066,-1.826784,-1.393121,-0.929785,1.677597,0.450826,-0.043033,-0.154090,-0.158265,-0.374293,-0.252595,0.508778,0.162161,6.465497,11.177105,8.376877,-1.396913,-0.187289,0.733443,0.120712,0.000000,0.000000,0.000000,0.000000,0.000000,0.000000
15847523.000000,2.310751,-0.965298,-1.826957,-1.393505,-0.930067,1.678111,0.451003,-0.043092,-0.176901,-0.165817,-0.370444,-0.268305,0.506002,0.170961,5.798994,11.915020,8.547470,-1.547670,-0.049044,0.609847,0.061202,0.000000,0.000000,0.000000,0.000000,0.000000,0.000000
15847524.000000,2.310709,-0.965544,-1.827126,-1.393889,-0.930363,1.678631,0.451174,-0.042854,-0.200298,-0.167850,-0.371347,-0.272687,0.510168,0.170189,4.957929,12.843365,8.547470,-1.250124,0.117582,0.453292,0.074935,0.000000,0.000000,0.000000,0.000000,0.000000,0.000000
15847525.000000,2.310659,-0.965810,-1.827298,-1.394272,-0.930653,1.679159,0.451353,-0.046812,-0.219181,-0.167642,-0.370114,-0.276857,0.516253,0.171945,3.966108,14.017681,8.599045,-0.555849,0.195402,0.316879,0.041976,0.000000,0.000000,0.000000,0.000000,0.000000,0.000000
15847526.000000,2.310596,-0.966093,-1.827460,-1.394641,-0.930926,1.679681,0.451523,-0.050782,-0.237327,-0.161630,-0.368643,-0.277705,0.526401,0.170095,3.002058,15.560955,8.670456,0.408202,0.201810,0.199691,0.074935,0.000000,0.000000,0.000000,0.000000,0.000000,0.000000
15847527.000000,2.310528,-0.966366,-1.827618,-1.395012,-0.931214,1.680198,0.451691,-0.054611,-0.245241,-0.157188,-0.367551,-0.278796,0.519788,0.168955,2.160993,17.199444,8.868820,1.594420,0.219205,0.297652,0.120712,0.000000,0.000000,0.000000,0.000000,0.000000,0.000000
15847528.000000,2.310445,-0.966641,-1.827766,-1.395396,-0.931498,1.680709,0.451870,-0.061702,-0.255563,-0.149112,-0.373631,-0.277005,0.512596,0.171206,1.589704,18.960918,9.261581,3.125792,0.159696,0.473434,0.061202,0.000000,0.000000,0.000000,0.000000,0.000000,0.000000
15847529.000000,2.310346,-0.966907,-1.827903,-1.395783,-0.931758,1.681220,0.452029,-0.072291,-0.258372,-0.145897,-0.383893,-0.272289,0.508242,0.168394,1.315961,20.674786,9.678146,4.807921,-0.007845,0.662032,0.127120,0.000000,0.000000,0.000000,0.000000,0.000000,0.000000
15847530.000000,2.310242,-0.967162,-1.828041,-1.396190,-0.932014,1.681744,0.452201,-0.084054,-0.258816,-0.145294,-0.394027,-0.263779,0.501995,0.165688,1.244550,22.218060,10.193893,6.561461,-0.180880,0.759078,0.087753,0.000000,0.000000,0.000000,0.000000,0.000000,0.000000
15847531.000000,2.310144,-0.967415,-1.828179,-1.396600,-0.932273,1.682263,0.452375,-0.088102,-0.256341,-0.145529,-0.404720,-0.261928,0.519834,0.172361,1.145368,23.638348,10.757248,8.168211,-0.252291,0.889083,0.087753,0.000000,0.000000,0.000000,0.000000,0.000000,0.000000
15847532.000000,2.310039,-0.967662,-1.828321,-1.397019,-0.932545,1.682759,0.452550,-0.092993,-0.254367,-0.146418,-0.413786,-0.263127,0.509637,0.172561,1.145368,24.911846,11.372177,9.600401,-0.252291,1.188461,0.067611,0.000000,0.000000,0.000000,0.000000,0.000000,0.000000
15847533.000000,2.309931,-0.967913,-1.828475,-1.397443,-0.932820,1.683248,0.452716,-0.101706,-0.255044,-0.153509,-0.416943,-0.267805,0.500952,0.169321,1.244550,26.010784,12.106125,10.762815,-0.145175,1.513473,0.127120,0.000000,0.000000,0.000000,0.000000,0.000000,0.000000
15847534.000000,2.309820,-0.968175,-1.828639,-1.397861,-0.933090,1.683733,0.452894,-0.105436,-0.263185,-0.159231,-0.417041,-0.271232,0.495451,0.175026,1.367536,27.042278,12.768661,11.655455,-0.025240,1.714889,0.081344,0.000000,0.000000,0.000000,0.000000,0.000000,0.000000
15847535.000000,2.309715,-0.968455,-1.828817,-1.398288,-0.933357,1.684232,0.453067,-0.106324,-0.268440,-0.168991,-0.417947,-0.266729,0.493977,0.178442,1.442914,28.093609,13.530380,12.298155,0.058073,1.676437,0.081344,0.000000,0.000000,0.000000,0.000000,0.000000,0.000000
15847536.000000,2.309597,-0.968751,-1.828991,-1.398713,-0.933623,1.684738,0.453236,-0.110223,-0.273702,-0.175607,-0.419430,-0.274747,0.502682,0.173968,1.641279,29.196514,14.145309,12.643309,0.093778,1.572067,0.140853,0.000000,0.000000,0.000000,0.000000,0.000000,0.000000
15847537.000000,2.309479,-0.969056,-1.829179,-1.399126,-0.933889,1.685224,0.453409,-0.109560,-0.287331,-0.179994,-0.412002,-0.273596,0.494465,0.179950,1.863447,30.295452,14.732468,12.690916,0.027860,1.500655,0.087753,0.000000,0.000000,0.000000,0.000000,0.000000,0.000000
15847538.000000,2.309363,-0.969383,-1.829364,-1.399532,-0.934154,1.685691,0.453577,-0.111544,-0.301720,-0.180704,-0.405227,-0.268343,0.492235,0.175098,2.061811,31.445965,15.200607,12.520323,-0.037142,1.572067,0.140853,0.000000,0.000000,0.000000,0.000000,0.000000,0.000000
15847539.000000,2.309235,-0.969722,-1.829566,-1.399928,-0.934420,1.686151,0.453750,-0.117074,-0.311718,-0.190488,-0.401908,-0.266871,0.485193,0.175346,2.454572,32.548870,15.640976,12.171202,-0.049044,1.682845,0.107894,0.000000,0.000000,0.000000,0.000000,0.000000,0.000000
15847540.000000,2.309114,-0.970053,-1.829772,-1.400329,-0.934681,1.686621,0.453923,-0.117717,-0.317427,-0.196235,-0.398655,-0.263205,0.478122,0.170510,2.704511,33.453411,16.009933,11.778440,-0.109469,1.689254,0.074935,0.000000,0.000000,0.000000,0.000000,0.000000,0.000000
15847541.000000,2.308982,-0.970377,-1.829983,-1.400732,-0.934948,1.687108,0.454089,-0.123398,-0.319429,-0.202261,-0.396272,-0.269058,0.480641,0.168298,3.049665,33.992962,16.426498,11.457090,-0.174471,1.617843,0.120712,0.000000,0.000000,0.000000,0.000000,0.000000,0.000000
15847542.000000,2.308855,-0.970688,-1.830201,-1.401122,-0.935231,1.687588,0.454260,-0.122439,-0.313739,-0.205970,-0.395039,-0.268934,0.479186,0.170780,3.323408,34.286541,16.819260,11.159544,-0.150668,1.494247,0.067611,0.000000,0.000000,0.000000,0.000000,0.000000,0.000000
15847543.000000,2.308731,-0.970986,-1.830438,-1.401510,-0.935521,1.688056,0.454425,-0.123870,-0.308763,-0.218689,-0.387817,-0.275416,0.472086,0.170118,3.545576,34.238934,17.358810,10.861998,-0.055453,1.500655,0.094161,0.000000,0.000000,0.000000,0.000000,0.000000,0.000000
15847544.000000,2.308608,-0.971294,-1.830682,-1.401880,-0.935803,1.688515,0.454588,-0.123672,-0.307079,-0.229992,-0.382412,-0.278030,0.465123,0.169962,3.720136,34.211163,17.973740,10.540648,0.100187,1.597701,0.100570,0.000000,0.000000,0.000000,0.000000,0.000000,0.000000
15847545.000000,2.308501,-0.971574,-1.830928,-1.402263,-0.936095,1.688983,0.454753,-0.113895,-0.294901,-0.233104,-0.377822,-0.283194,0.460940,0.170390,3.720136,33.941387,18.513290,10.342283,0.231107,1.670028,0.114303,0.000000,0.000000,0.000000,0.000000,0.000000,0.000000
15847546.000000,2.308387,-0.971858,-1.831181,-1.402646,-0.936382,1.689458,0.454923,-0.110976,-0.291319,-0.234584,-0.377780,-0.282151,0.468338,0.170708,3.767744,33.624004,19.104416,10.270872,0.231107,1.727706,0.094161,0.000000,0.000000,0.000000,0.000000,0.000000,0.000000
15847547.000000,2.308278,-0.972139,-1.831429,-1.403022,-0.936667,1.689927,0.455091,-0.107312,-0.285450,-0.239596,-0.378693,-0.286819,0.466458,0.170565,3.767744,33.382000,19.497177,10.195494,0.237516,1.708480,0.094161,0.000000,0.000000,0.000000,0.000000,0.000000,0.000000
15847548.000000,2.308176,-0.972429,-1.831688,-1.403395,-0.936948,1.690393,0.455258,-0.102824,-0.287576,-0.244375,-0.372938,-0.282928,0.462701,0.170465,3.668561,33.306622,19.937546,10.072508,0.189908,1.735030,0.094161,0.000000,0.000000,0.000000,0.000000,0.000000,0.000000
15847549.000000,2.308075,-0.972733,-1.831953,-1.403767,-0.937227,1.690842,0.455431,-0.103273,-0.290601,-0.251977,-0.373969,-0.281943,0.463547,0.172157,3.569379,33.382000,20.401718,9.973326,0.171598,1.890670,0.074935,0.000000,0.000000,0.000000,0.000000,0.000000,0.000000
15847550.000000,2.307973,-0.973042,-1.832213,-1.404141,-0.937529,1.691297,0.455593,-0.101212,-0.295562,-0.252240,-0.372015,-0.285242,0.457211,0.170322,3.497968,33.600201,20.647690,9.949522,0.261320,2.047225,0.107894,0.000000,0.000000,0.000000,0.000000,0.000000,0.000000
15847551.000000,2.307878,-0.973351,-1.832482,-1.404515,-0.937821,1.691766,0.455762,-0.098521,-0.302213,-0.256577,-0.375604,-0.285519,0.458634,0.171674,3.371015,33.846172,21.016647,9.822569,0.291532,2.027084,0.061202,0.000000,0.000000,0.000000,0.000000,0.000000,0.000000
15847552.000000,2.307791,-0.973658,-1.832754,-1.404895,-0.938108,1.692238,0.455923,-0.093128,-0.313137,-0.262263,-0.378557,-0.285159,0.459035,0.173941,3.148847,34.016766,21.361801,9.897947,0.303434,1.890670,0.087753,0.000000,0.000000,0.000000,0.000000,0.000000,0.000000
15847553.000000,2.307701,-0.973972,-1.833009,-1.405273,-0.938398,1.692709,0.456090,-0.092416,-0.312168,-0.260568,-0.378681,-0.286150,0.458192,0.173374,3.002058,34.262737,21.457016,9.850340,0.369352,1.747848,0.074935,0.000000,0.000000,0.000000,0.000000,0.000000,0.000000
15847554.000000,2.307628,-0.974290,-1.833276,-1.405656,-0.938684,1.693176,0.456260,-0.087984,-0.315487,-0.262928,-0.380134,-0.291338,0.463147,0.171782,2.680707,34.433331,21.679184,9.897947,0.339139,1.760665,0.087753,0.000000,0.000000,0.000000,0.000000,0.000000,0.000000
15847555.000000,2.307556,-0.974606,-1.833532,-1.406036,-0.938978,1.693622,0.456421,-0.085578,-0.314823,-0.260070,-0.382220,-0.289689,0.455581,0.170310,2.383161,34.580120,21.702988,9.973326,0.362943,1.909896,0.120712,0.000000,0.000000,0.000000,0.000000,0.000000,0.000000
15847556.000000,2.307496,-0.974915,-1.833786,-1.406421,-0.939275,1.694078,0.456593,-0.077314,-0.310931,-0.256461,-0.382302,-0.288925,0.456559,0.168129,1.934858,34.603924,21.631577,10.048704,0.398649,2.014266,0.048385,0.000000,0.000000,0.000000,0.000000,0.000000,0.000000
15847557.000000,2.307445,-0.975230,-1.834052,-1.406807,-0.939547,1.694547,0.456752,-0.069535,-0.311407,-0.261778,-0.385372,-0.278762,0.457250,0.165728,1.415143,34.603924,21.754562,10.219297,0.303434,2.014266,0.120712,0.000000,0.000000,0.000000,0.000000,0.000000,0.000000
15847558.000000,2.307389,-0.975535,-1.834299,-1.407208,-0.939835,1.695019,0.456921,-0.068367,-0.309268,-0.256682,-0.390740,-0.282750,0.458411,0.164851,1.069990,34.504742,21.631577,10.417662,0.267728,1.995040,0.048385,0.000000,0.000000,0.000000,0.000000,0.000000,0.000000
15847559.000000,2.307341,-0.975848,-1.834539,-1.407612,-0.940133,1.695496,0.457081,-0.062914,-0.309406,-0.250719,-0.396917,-0.282506,0.459381,0.165174,0.673261,34.480938,21.532394,10.691404,0.261320,1.955673,0.061202,0.000000,0.000000,0.000000,0.000000,0.000000,0.000000
15847560.000000,2.307301,-0.976155,-1.834790,-1.408008,-0.940421,1.695970,0.457245,-0.056457,-0.307853,-0.252064,-0.397816,-0.287274,0.465330,0.166597,0.177350,34.357952,21.532394,10.838194,0.261320,1.930038,0.054794,0.000000,0.000000,0.000000,0.000000,0.000000,0.000000
15847561.000000,2.307265,-0.976466,-1.835030,-1.408413,-0.940715,1.696445,0.457412,-0.050329,-0.306297,-0.245836,-0.399847,-0.283839,0.461391,0.167287,-0.266986,34.334148,21.361801,11.012754,0.339139,1.942855,0.074935,0.000000,0.000000,0.000000,0.000000,0.000000,0.000000
15847562.000000,2.307230,-0.976781,-1.835270,-1.408820,-0.941008,1.696911,0.457575,-0.042983,-0.307976,-0.244120,-0.401113,-0.289243,0.469907,0.161458,-0.687518,34.310345,21.310226,11.207151,0.369352,2.027084,0.120712,0.000000,0.000000,0.000000,0.000000,0.000000,0.000000
15847563.000000,2.307198,-0.977096,-1.835498,-1.409227,-0.941306,1.697389,0.457750,-0.041237,-0.311627,-0.238308,-0.401932,-0.295634,0.473722,0.166403,-1.084246,34.385723,21.064255,11.381712,0.344633,1.995040,0.061202,0.000000,0.000000,0.000000,0.000000,0.000000,0.000000
15847564.000000,2.307165,-0.977422,-1.835725,-1.409645,-0.941606,1.697870,0.457916,-0.038247,-0.317099,-0.229416,-0.403353,-0.292887,0.477643,0.165170,-1.429400,34.603924,20.822250,11.603880,0.356534,1.909896,0.107894,0.000000,0.000000,0.000000,0.000000,0.000000,0.000000
15847565.000000,2.307137,-0.977760,-1.835947,-1.410048,-0.941891,1.698338,0.458085,-0.035958,-0.321898,-0.226613,-0.402622,-0.289284,0.473626,0.167752,-1.750750,34.921307,20.647690,11.703062,0.327238,1.877853,0.074935,0.000000,0.000000,0.000000,0.000000,0.000000,0.000000
15847566.000000,2.307109,-0.978099,-1.836164,-1.410460,-0.942182,1.698810,0.458253,-0.031548,-0.325575,-0.223427,-0.402911,-0.290796,0.463624,0.167636,-2.048296,35.238689,20.429489,11.778440,0.297025,1.865035,0.094161,0.000000,0.000000,0.000000,0.000000,0.000000,0.000000
15847567.000000,2.307082,-0.978449,-1.836365,-1.410866,-0.942474,1.699281,0.458423,-0.031085,-0.334606,-0.216909,-0.403592,-0.292278,0.473949,0.168543,-2.345843,35.655254,20.159714,11.925230,0.261320,1.884261,0.107894,0.000000,0.000000,0.000000,0.000000,0.000000,0.000000
15847568.000000,2.307059,-0.978800,-1.836578,-1.411279,-0.942773,1.699746,0.458598,-0.027103,-0.340751,-0.215746,-0.402388,-0.295605,0.471152,0.171097,-2.667193,36.071819,20.060532,12.048216,0.285123,1.851302,0.054794,0.000000,0.000000,0.000000,0.000000,0.000000,0.000000
15847569.000000,2.307030,-0.979146,-1.836774,-1.411693,-0.943064,1.700218,0.458764,-0.027546,-0.341275,-0.208938,-0.403488,-0.291312,0.469323,0.168427,-2.841753,36.341595,19.838364,12.198973,0.255826,1.786300,0.107894,0.000000,0.000000,0.000000,0.000000,0.000000,0.000000
15847570.000000,2.307002,-0.979501,-1.836983,-1.412104,-0.943343,1.700686,0.458936,-0.030492,-0.350266,-0.210593,-0.406266,-0.292668,0.467838,0.173643,-3.040118,36.635174,19.766953,12.345762,0.219205,1.747848,0.081344,0.000000,0.000000,0.000000,0.000000,0.000000,0.000000
15847571.000000,2.306969,-0.979858,-1.837184,-1.412523,-0.943641,1.701161,0.459109,-0.032618,-0.345948,-0.212781,-0.408749,-0.290383,0.465473,0.173163,-3.087725,36.904949,19.616196,12.619505,0.237516,1.721298,0.067611,0.000000,0.000000,0.000000,0.000000,0.000000,0.000000
15847572.000000,2.306931,-0.980218,-1.837384,-1.412940,-0.943930,1.701634,0.459277,-0.034907,-0.348001,-0.210222,-0.409741,-0.295740,0.467606,0.170883,-3.087725,37.150921,19.544785,12.766294,0.225614,1.747848,0.100570,0.000000,0.000000,0.000000,0.000000,0.000000,0.000000
15847573.000000,2.306895,-0.980569,-1.837586,-1.413349,-0.944215,1.702101,0.459445,-0.036289,-0.348990,-0.209272,-0.408754,-0.291156,0.462607,0.171561,-3.087725,37.345318,19.544785,12.913084,0.189908,1.800033,0.081344,0.000000,0.000000,0.000000,0.000000,0.000000,0.000000
15847574.000000,2.306854,-0.980919,-1.837784,-1.413764,-0.944499,1.702563,0.459614,-0.035121,-0.350932,-0.208269,-0.409605,-0.288830,0.458417,0.170619,-3.040118,37.444500,19.520981,13.063841,0.183500,1.844894,0.094161,0.000000,0.000000,0.000000,0.000000,0.000000,0.000000
15847575.000000,2.306807,-0.981276,-1.837983,-1.414174,-0.944780,1.703030,0.459793,-0.039637,-0.352773,-0.207675,-0.400274,-0.289523,0.461702,0.171745,-2.889361,37.539715,19.520981,13.286009,0.105680,1.890670,0.061202,0.000000,0.000000,0.000000,0.000000,0.000000,0.000000
15847576.000000,2.306761,-0.981625,-1.838187,-1.414586,-0.945071,1.703510,0.459961,-0.041859,-0.345785,-0.204558,-0.403295,-0.282834,0.462271,0.169470,-2.766375,37.686504,19.544785,13.432798,0.100187,1.865035,0.107894,0.000000,0.000000,0.000000,0.000000,0.000000,0.000000
15847577.000000,2.306708,-0.981984,-1.838393,-1.414999,-0.945362,1.703989,0.460136,-0.045039,-0.347575,-0.205302,-0.402626,-0.283785,0.462074,0.170145,-2.591815,37.884869,19.643967,13.583555,0.117582,1.832076,0.087753,0.000000,0.000000,0.000000,0.000000,0.000000,0.000000
15847578.000000,2.306645,-0.982344,-1.838600,-1.415405,-0.945638,1.704457,0.460304,-0.049424,-0.350910,-0.209585,-0.403596,-0.278304,0.461146,0.168468,-2.298235,38.154644,19.691574,13.654966,0.100187,1.832076,0.133529,0.000000,0.000000,0.000000,0.000000,0.000000,0.000000
15847579.000000,2.306581,-0.982709,-1.838813,-1.415812,-0.945932,1.704922,0.460482,-0.051711,-0.355914,-0.210603,-0.402442,-0.285299,0.458269,0.171461,-2.024493,38.396648,19.790756,13.754148,0.154203,1.844894,0.087753,0.000000,0.000000,0.000000,0.000000,0.000000,0.000000
15847580.000000,2.306517,-0.983080,-1.839022,-1.416209,-0.946222,1.705387,0.460649,-0.052973,-0.360267,-0.214461,-0.402230,-0.285300,0.471841,0.171200,-1.778521,38.666424,19.885971,13.754148,0.178007,1.819259,0.081344,0.000000,0.000000,0.000000,0.000000,0.000000,0.000000
15847581.000000,2.306452,-0.983448,-1.839240,-1.416600,-0.946510,1.705854,0.460811,-0.056996,-0.365227,-0.216054,-0.400092,-0.289081,0.467442,0.169739,-1.528582,39.011578,20.084335,13.607359,0.178007,1.819259,0.120712,0.000000,0.000000,0.000000,0.000000,0.000000,0.000000
15847582.000000,2.306383,-0.983826,-1.839453,-1.416988,-0.946797,1.706312,0.460987,-0.060664,-0.370068,-0.213492,-0.395949,-0.290990,0.463171,0.171378,-1.254840,39.305157,20.207321,13.385191,0.147794,1.865035,0.074935,0.000000,0.000000,0.000000,0.000000,0.000000,0.000000
15847583.000000,2.306310,-0.984195,-1.839678,-1.417369,-0.947085,1.706768,0.461151,-0.067241,-0.375252,-0.219038,-0.385682,-0.293104,0.460704,0.165563,-0.933489,39.598736,20.429489,13.186827,0.135892,1.909896,0.094161,0.000000,0.000000,0.000000,0.000000,0.000000,0.000000
15847584.000000,2.306234,-0.984582,-1.839904,-1.417746,-0.947385,1.707232,0.461318,-0.072124,-0.378053,-0.221825,-0.383327,-0.293188,0.460870,0.167804,-0.612139,39.892315,20.600082,12.913084,0.105680,1.871444,0.061202,0.000000,0.000000,0.000000,0.000000,0.000000,0.000000
15847585.000000,2.306154,-0.984958,-1.840130,-1.418118,-0.947675,1.707699,0.461482,-0.076793,-0.373840,-0.225246,-0.378561,-0.294235,0.475474,0.168353,-0.266986,40.062908,20.822250,12.667112,0.076383,1.786300,0.087753,0.000000,0.000000,0.000000,0.000000,0.000000,0.000000
15847586.000000,2.306074,-0.985319,-1.840366,-1.418494,-0.947971,1.708155,0.461641,-0.078734,-0.373301,-0.227617,-0.377280,-0.296005,0.470854,0.163331,0.030561,40.062908,21.064255,12.444944,0.076383,1.786300,0.107894,0.000000,0.000000,0.000000,0.000000,0.000000,0.000000
15847587.000000,2.305982,-0.985674,-1.840599,-1.418874,-0.948277,1.708615,0.461804,-0.082968,-0.367935,-0.229538,-0.376736,-0.294650,0.459781,0.160551,0.451093,39.987530,21.286423,12.321959,0.129484,1.832076,0.094161,0.000000,0.000000,0.000000,0.000000,0.000000,0.000000
15847588.000000,2.305890,-0.986030,-1.840842,-1.419242,-0.948584,1.709072,0.461964,-0.087626,-0.362282,-0.235641,-0.378439,-0.298347,0.463447,0.162999,0.824018,39.939922,21.580002,12.198973,0.183500,1.877853,0.067611,0.000000,0.000000,0.000000,0.000000,0.000000,0.000000
15847589.000000,2.305798,-0.986374,-1.841085,-1.419613,-0.948899,1.709534,0.462125,-0.087993,-0.355436,-0.236659,-0.373084,-0.300451,0.461253,0.158955,1.192975,39.769329,21.877548,12.048216,0.243009,1.890670,0.094161,0.000000,0.000000,0.000000,0.000000,0.000000,0.000000
15847590.000000,2.305701,-0.986719,-1.841326,-1.419977,-0.949204,1.709993,0.462291,-0.091962,-0.350193,-0.235114,-0.371887,-0.305035,0.460762,0.161537,1.589704,39.721722,22.147324,11.901426,0.285123,1.890670,0.094161,0.000000,0.000000,0.000000,0.000000,0.000000,0.000000
15847591.000000,2.305610,-0.987056,-1.841577,-1.420331,-0.949505,1.710447,0.462459,-0.092199,-0.343726,-0.239582,-0.365815,-0.305823,0.453276,0.164918,1.863447,39.547161,22.464706,11.679258,0.213712,1.936446,0.061202,0.000000,0.000000,0.000000,0.000000,0.000000,0.000000
15847592.000000,2.305519,-0.987396,-1.841820,-1.420686,-0.949821,1.710906,0.462619,-0.091191,-0.337425,-0.242186,-0.359703,-0.307871,0.453514,0.160146,2.085615,39.428143,22.611496,11.528502,0.183500,1.942855,0.094161,0.000000,0.000000,0.000000,0.000000,0.000000,0.000000
15847593.000000,2.305434,-0.987735,-1.842071,-1.421023,-0.950136,1.711359,0.462787,-0.087752,-0.336655,-0.250794,-0.353402,-0.312447,0.449404,0.163269,2.208601,39.205975,22.881271,11.159544,0.219205,1.949264,0.081344,0.000000,0.000000,0.000000,0.000000,0.000000,0.000000
15847594.000000,2.305345,-0.988075,-1.842331,-1.421363,-0.950449,1.711815,0.462949,-0.086983,-0.335531,-0.257980,-0.346675,-0.308755,0.444879,0.159837,2.359357,39.082989,23.202621,10.814390,0.201810,1.995040,0.094161,0.000000,0.000000,0.000000,0.000000,0.000000,0.000000
15847595.000000,2.305252,-0.988409,-1.842580,-1.421706,-0.950769,1.712264,0.463108,-0.088429,-0.336202,-0.251674,-0.345990,-0.314217,0.441741,0.155953,2.581525,38.912395,23.373215,10.516844,0.267728,2.020675,0.133529,0.000000,0.000000,0.000000,0.000000,0.000000,0.000000
15847596.000000,2.305170,-0.988746,-1.842830,-1.422040,-0.951093,1.712713,0.463280,-0.085737,-0.335004,-0.249697,-0.341134,-0.323205,0.446771,0.162565,2.652936,38.789410,23.567612,10.294676,0.351041,2.001449,0.054794,0.000000,0.000000,0.000000,0.000000,0.000000,0.000000
15847597.000000,2.305086,-0.989081,-1.843086,-1.422376,-0.951413,1.713176,0.463444,-0.083886,-0.330631,-0.253361,-0.340892,-0.316902,0.450600,0.158391,2.728315,38.642620,23.841354,10.120115,0.356534,1.936446,0.100570,0.000000,0.000000,0.000000,0.000000,0.000000,0.000000
15847598.000000,2.304999,-0.989424,-1.843334,-1.422709,-0.951734,1.713626,0.463614,-0.083195,-0.333410,-0.254996,-0.338404,-0.314907,0.456240,0.158075,2.827497,38.495831,23.936569,9.949522,0.416959,1.903487,0.061202,0.000000,0.000000,0.000000,0.000000,0.000000,0.000000
15847599.000000,2.304923,-0.989755,-1.843584,-1.423043,-0.952057,1.714086,0.463781,-0.079694,-0.329368,-0.253677,-0.335593,-0.321882,0.450034,0.161207,2.779890,38.349041,24.059555,9.897947,0.452665,1.923629,0.061202,0.000000,0.000000,0.000000,0.000000,0.000000,0.000000
15847600.000000,2.304842,-0.990085,-1.843834,-1.423384,-0.952381,1.714536,0.463944,-0.079509,-0.328072,-0.247569,-0.334724,-0.319184,0.444453,0.157850,2.827497,38.178448,24.158737,9.897947,0.398649,1.962081,0.074935,0.000000,0.000000,0.000000,0.000000,0.000000,0.000000
15847601.000000,2.304770,-0.990414,-1.844083,-1.423715,-0.952697,1.714979,0.464103,-0.076215,-0.333931,-0.246425,-0.334570,-0.318731,0.440570,0.154816,2.752119,38.079266,24.182541,9.897947,0.386747,2.014266,0.114303,0.000000,0.000000,0.000000,0.000000,0.000000,0.000000
15847602.000000,2.304698,-0.990735,-1.844330,-1.424046,-0.953011,1.715432,0.464271,-0.072283,-0.332054,-0.246694,-0.333238,-0.312894,0.442221,0.160391,2.680707,37.908672,24.257919,9.921751,0.362943,2.072860,0.067611,0.000000,0.000000,0.000000,0.000000,0.000000,0.000000
15847603.000000,2.304630,-0.991062,-1.844567,-1.424387,-0.953328,1.715896,0.464435,-0.070746,-0.327433,-0.241720,-0.335144,-0.324859,0.455232,0.159025,2.581525,37.738079,24.234116,10.048704,0.308927,2.033492,0.061202,0.000000,0.000000,0.000000,0.000000,0.000000,0.000000
15847604.000000,2.304563,-0.991373,-1.844802,-1.424728,-0.953651,1.716352,0.464594,-0.068905,-0.320047,-0.243958,-0.338937,-0.319182,0.456952,0.160419,2.454572,37.515911,24.206345,10.294676,0.315336,2.014266,0.094161,0.000000,0.000000,0.000000,0.000000,0.000000,0.000000
15847605.000000,2.304500,-0.991693,-1.845032,-1.425070,-0.953972,1.716807,0.464767,-0.064831,-0.321597,-0.241816,-0.337922,-0.315711,0.449813,0.163903,2.331586,37.345318,24.111130,10.417662,0.344633,2.039901,0.061202,0.000000,0.000000,0.000000,0.000000,0.000000,0.000000
15847606.000000,2.304441,-0.992012,-1.845265,-1.425407,-0.954289,1.717243,0.464927,-0.061322,-0.320243,-0.241206,-0.338118,-0.314159,0.441247,0.159097,2.184797,37.174725,24.059555,10.564451,0.398649,2.053634,0.107894,0.000000,0.000000,0.000000,0.000000,0.000000,0.000000
15847607.000000,2.304383,-0.992322,-1.845492,-1.425753,-0.954620,1.717689,0.465102,-0.060010,-0.319544,-0.236357,-0.343555,-0.323101,0.439538,0.163376,2.085615,37.027935,23.960373,10.762815,0.494779,2.079269,0.067611,0.000000,0.000000,0.000000,0.000000,0.000000,0.000000
15847608.000000,2.304332,-0.992643,-1.845709,-1.426105,-0.954940,1.718128,0.465273,-0.056721,-0.317803,-0.228292,-0.347168,-0.326471,0.437403,0.165750,1.887250,36.857342,23.742172,10.984983,0.482877,2.125045,0.041976,0.000000,0.000000,0.000000,0.000000,0.000000,0.000000
15847609.000000,2.304280,-0.992961,-1.845923,-1.426448,-0.955254,1.718565,0.465433,-0.054412,-0.316826,-0.225331,-0.346195,-0.317558,0.438954,0.165271,1.688886,36.805767,23.567612,11.135740,0.416959,2.079269,0.081344,0.000000,0.000000,0.000000,0.000000,0.000000,0.000000
15847610.000000,2.304228,-0.993285,-1.846130,-1.426804,-0.955568,1.719011,0.465602,-0.051681,-0.318705,-0.218485,-0.347793,-0.316496,0.439191,0.162257,1.542096,36.734356,23.325607,11.334105,0.381254,2.039901,0.067611,0.000000,0.000000,0.000000,0.000000,0.000000,0.000000
15847611.000000,2.304181,-0.993610,-1.846325,-1.427154,-0.955882,1.719444,0.465766,-0.050966,-0.320956,-0.212588,-0.349466,-0.318957,0.446716,0.163288,1.367536,36.710552,23.028061,11.528502,0.297025,2.027084,0.094161,0.000000,0.000000,0.000000,0.000000,0.000000,0.000000
15847612.000000,2.304140,-0.993932,-1.846525,-1.427505,-0.956200,1.719873,0.465943,-0.049355,-0.323656,-0.208299,-0.352179,-0.318247,0.438221,0.167064,1.145368,36.734356,22.758286,11.655455,0.267728,2.047225,0.041976,0.000000,0.000000,0.000000,0.000000,0.000000,0.000000
15847613.000000,2.304096,-0.994265,-1.846712,-1.427868,-0.956523,1.720299,0.466107,-0.046960,-0.325817,-0.198831,-0.354689,-0.315074,0.429090,0.165903,0.970807,36.805767,22.417099,11.925230,0.279630,2.150680,0.081344,0.000000,0.000000,0.000000,0.000000,0.000000,0.000000
15847614.000000,2.304062,-0.994589,-1.846904,-1.428222,-0.956834,1.720736,0.466270,-0.042851,-0.323978,-0.198953,-0.354881,-0.316441,0.431572,0.166320,0.697065,36.857342,22.147324,12.147398,0.273221,2.157089,0.100570,0.000000,0.000000,0.000000,0.000000,0.000000,0.000000
15847615.000000,2.304026,-0.994920,-1.847100,-1.428587,-0.957159,1.721187,0.466445,-0.041499,-0.327111,-0.196993,-0.357976,-0.317061,0.440675,0.169639,0.502668,36.952557,21.925156,12.369566,0.279630,2.047225,0.028243,0.000000,0.000000,0.000000,0.000000,0.000000,0.000000
15847616.000000,2.303989,-0.995241,-1.847287,-1.428939,-0.957480,1.721634,0.466605,-0.040897,-0.324555,-0.198476,-0.363983,-0.315633,0.450779,0.167099,0.328107,36.857342,21.679184,12.544127,0.351041,1.962081,0.094161,0.000000,0.000000,0.000000,0.000000,0.000000,0.000000
15847617.000000,2.303959,-0.995563,-1.847473,-1.429312,-0.957793,1.722079,0.466766,-0.039313,-0.322766,-0.197268,-0.367655,-0.310290,0.443383,0.163186,0.105939,36.881145,21.508591,12.841673,0.308927,1.916305,0.094161,0.000000,0.000000,0.000000,0.000000,0.000000,0.000000
15847618.000000,2.303924,-0.995893,-1.847650,-1.429676,-0.958109,1.722530,0.466933,-0.036545,-0.323534,-0.189677,-0.366491,-0.311850,0.441203,0.160487,-0.044818,36.881145,21.262619,13.012266,0.291532,1.909896,0.081344,0.000000,0.000000,0.000000,0.000000,0.000000,0.000000
15847619.000000,2.303892,-0.996211,-1.847825,-1.430040,-0.958428,1.722969,0.467104,-0.034381,-0.324577,-0.186547,-0.372700,-0.310391,0.442574,0.167792,-0.191607,36.833538,21.040451,13.163023,0.320829,1.988631,0.048385,0.000000,0.000000,0.000000,0.000000,0.000000,0.000000
15847620.000000,2.303866,-0.996523,-1.848005,-1.430416,-0.958734,1.723417,0.467269,-0.034595,-0.323780,-0.184236,-0.374448,-0.308445,0.435051,0.166252,-0.389971,36.635174,20.822250,13.385191,0.225614,2.001449,0.100570,0.000000,0.000000,0.000000,0.000000,0.000000,0.000000
15847621.000000,2.303829,-0.996845,-1.848176,-1.430793,-0.959040,1.723871,0.467443,-0.035610,-0.318149,-0.177064,-0.376306,-0.313293,0.448440,0.165113,-0.413775,36.488384,20.600082,13.583555,0.189908,1.988631,0.054794,0.000000,0.000000,0.000000,0.000000,0.000000,0.000000
15847622.000000,2.303789,-0.997148,-1.848347,-1.431169,-0.959354,1.724316,0.467607,-0.037113,-0.314726,-0.175681,-0.376771,-0.318482,0.446340,0.164857,-0.389971,36.218609,20.330307,13.777952,0.154203,1.968490,0.094161,0.000000,0.000000,0.000000,0.000000,0.000000,0.000000
15847623.000000,2.303758,-0.997471,-1.848522,-1.431545,-0.959671,1.724754,0.467774,-0.036759,-0.315540,-0.174262,-0.375207,-0.318128,0.441762,0.165707,-0.441546,36.095623,20.159714,13.904905,0.129484,1.995040,0.100570,0.000000,0.000000,0.000000,0.000000,0.000000,0.000000
15847624.000000,2.303725,-0.997784,-1.848695,-1.431918,-0.959988,1.725192,0.467944,-0.036440,-0.312342,-0.176531,-0.373742,-0.316199,0.438701,0.168616,-0.489153,35.925030,20.008957,14.000120,0.183500,2.053634,0.054794,0.000000,0.000000,0.000000,0.000000,0.000000,0.000000
15847625.000000,2.303690,-0.998100,-1.848871,-1.432291,-0.960303,1.725641,0.468100,-0.036531,-0.313207,-0.176580,-0.371024,-0.312762,0.438835,0.166398,-0.512957,35.901226,19.937546,14.099302,0.213712,2.047225,0.120712,0.000000,0.000000,0.000000,0.000000,0.000000,0.000000
15847626.000000,2.303653,-0.998421,-1.849041,-1.432668,-0.960617,1.726099,0.468271,-0.034357,-0.313548,-0.171110,-0.370607,-0.317750,0.447202,0.165234,-0.489153,35.901226,19.862167,14.174681,0.178007,1.949264,0.048385,0.000000,0.000000,0.000000,0.000000,0.000000,0.000000
15847627.000000,2.303613,-0.998734,-1.849210,-1.433031,-0.960939,1.726552,0.468433,-0.036417,-0.314943,-0.170928,-0.368202,-0.317903,0.447626,0.165945,-0.441546,35.925030,19.739182,14.150877,0.166105,1.858627,0.061202,0.000000,0.000000,0.000000,0.000000,0.000000,0.000000
15847628.000000,2.303582,-0.999055,-1.849379,-1.433388,-0.961258,1.726990,0.468599,-0.031980,-0.314903,-0.172326,-0.365529,-0.317152,0.437440,0.162059,-0.512957,35.925030,19.667770,13.976316,0.141385,1.884261,0.061202,0.000000,0.000000,0.000000,0.000000,0.000000,0.000000
15847629.000000,2.303545,-0.999379,-1.849551,-1.433739,-0.961573,1.727421,0.468763,-0.030963,-0.313255,-0.173787,-0.356273,-0.318014,0.440203,0.159294,-0.489153,35.976604,19.616196,13.829527,0.135892,1.955673,0.061202,0.000000,0.000000,0.000000,0.000000,0.000000,0.000000
15847630.000000,2.303515,-0.999688,-1.849725,-1.434086,-0.961899,1.727864,0.468922,-0.028410,-0.313000,-0.174415,-0.354528,-0.323708,0.443612,0.161740,-0.540728,35.948833,19.568588,13.654966,0.147794,1.981307,0.067611,0.000000,0.000000,0.000000,0.000000,0.000000,0.000000
15847631.000000,2.303477,-0.999999,-1.849894,-1.434441,-0.962230,1.728315,0.469084,-0.032199,-0.312246,-0.169661,-0.351933,-0.323350,0.437791,0.158753,-0.489153,35.778240,19.520981,13.555784,0.159696,1.936446,0.067611,0.000000,0.000000,0.000000,0.000000,0.000000,0.000000
15847632.000000,2.303437,-1.000300,-1.850071,-1.434787,-0.962549,1.728761,0.469239,-0.035257,-0.313092,-0.172259,-0.350862,-0.322067,0.433823,0.155328,-0.413775,35.583843,19.497177,13.484373,0.147794,1.903487,0.107894,0.000000,0.000000,0.000000,0.000000,0.000000,0.000000
15847633.000000,2.303397,-1.000611,-1.850248,-1.435134,-0.962871,1.729213,0.469408,-0.035333,-0.308985,-0.174454,-0.349026,-0.321281,0.431777,0.161463,-0.314593,35.361675,19.497177,13.333616,0.159696,1.812850,0.041976,0.000000,0.000000,0.000000,0.000000,0.000000,0.000000
15847634.000000,2.303356,-1.000917,-1.850424,-1.435468,-0.963199,1.729656,0.469570,-0.035084,-0.303902,-0.176410,-0.348103,-0.321406,0.441156,0.162078,-0.215411,35.044292,19.497177,13.163023,0.166105,1.793624,0.081344,0.000000,0.000000,0.000000,0.000000,0.000000,0.000000
15847635.000000,2.303318,-1.001222,-1.850600,-1.435805,-0.963539,1.730095,0.469727,-0.036308,-0.304232,-0.173927,-0.347041,-0.329060,0.443039,0.161955,-0.167803,34.897503,19.497177,12.988462,0.255826,1.844894,0.140853,0.000000,0.000000,0.000000,0.000000,0.000000,0.000000
15847636.000000,2.303270,-1.001537,-1.850770,-1.436133,-0.963868,1.730537,0.469903,-0.040059,-0.306593,-0.171182,-0.341603,-0.321173,0.439713,0.166688,-0.017047,34.726910,19.445602,12.790098,0.237516,1.877853,0.061202,0.000000,0.000000,0.000000,0.000000,0.000000,0.000000
15847637.000000,2.303223,-1.001847,-1.850940,-1.436453,-0.964183,1.730977,0.470070,-0.041827,-0.311240,-0.172061,-0.331430,-0.323038,0.439822,0.167859,0.105939,34.603924,19.374191,12.591734,0.159696,1.865035,0.061202,0.000000,0.000000,0.000000,0.000000,0.000000,0.000000
15847638.000000,2.303182,-1.002163,-1.851122,-1.436774,-0.964518,1.731422,0.470235,-0.039010,-0.313306,-0.177465,-0.325548,-0.324275,0.434752,0.168486,0.177350,34.480938,19.374191,12.369566,0.100187,1.825668,0.054794,0.000000,0.000000,0.000000,0.000000,0.000000,0.000000
15847639.000000,2.303148,-1.002485,-1.851303,-1.437084,-0.964853,1.731865,0.470401,-0.037692,-0.312163,-0.177356,-0.319196,-0.331195,0.439260,0.168923,0.153547,34.385723,19.421799,12.147398,0.105680,1.779891,0.061202,0.000000,0.000000,0.000000,0.000000,0.000000,0.000000
15847642.000000,2.303026,-1.003424,-1.851848,-1.437982,-0.965867,1.733178,0.470899,-0.039131,-0.313304,-0.184024,-0.308393,-0.336334,0.435055,0.164850,0.276533,34.139751,19.397995,11.504698,0.189908,1.819259,0.094161,0.000000,0.000000,0.000000,0.000000,0.000000,0.000000
15847643.000000,2.302986,-1.003737,-1.852035,-1.438284,-0.966204,1.733633,0.471064,-0.038855,-0.314918,-0.182719,-0.303116,-0.336470,0.438095,0.161106,0.304304,34.040569,19.397995,11.381712,0.195402,1.747848,0.127120,0.000000,0.000000,0.000000,0.000000,0.000000,0.000000
15847644.000000,2.302943,-1.004055,-1.852222,-1.438582,-0.966540,1.734088,0.471238,-0.043990,-0.310192,-0.181628,-0.299039,-0.332333,0.439498,0.165097,0.403486,33.969158,19.469406,11.306334,0.195402,1.695663,0.074935,0.000000,0.000000,0.000000,0.000000,0.000000,0.000000
15847645.000000,2.302902,-1.004368,-1.852397,-1.438867,-0.966874,1.734527,0.471406,-0.043137,-0.311798,-0.178167,-0.297702,-0.332437,0.434123,0.167530,0.451093,33.969158,19.346420,11.159544,0.154203,1.682845,0.041976,0.000000,0.000000,0.000000,0.000000,0.000000,0.000000
15847646.000000,2.302871,-1.004686,-1.852580,-1.439155,-0.967221,1.734972,0.471564,-0.036601,-0.314399,-0.178459,-0.293244,-0.333777,0.436235,0.161492,0.375715,33.893780,19.322617,11.036558,0.159696,1.747848,0.087753,0.000000,0.000000,0.000000,0.000000,0.000000,0.000000
15847647.000000,2.302846,-1.005008,-1.852762,-1.439433,-0.967557,1.735418,0.471725,-0.033523,-0.310892,-0.181821,-0.286796,-0.335341,0.448431,0.157922,0.228925,33.846172,19.298813,10.913572,0.166105,1.767074,0.114303,0.000000,0.000000,0.000000,0.000000,0.000000,0.000000
15847648.000000,2.302811,-1.005326,-1.852941,-1.439719,-0.967892,1.735865,0.471900,-0.031751,-0.314246,-0.179344,-0.285801,-0.339512,0.445736,0.164047,0.228925,33.794598,19.223434,10.814390,0.123990,1.735030,0.034652,0.000000,0.000000,0.000000,0.000000,0.000000,0.000000
15847649.000000,2.302781,-1.005644,-1.853119,-1.440008,-0.968238,1.736319,0.472063,-0.031569,-0.310547,-0.176511,-0.284330,-0.337405,0.438643,0.162617,0.153547,33.647808,19.175827,10.762815,0.064481,1.714889,0.100570,0.000000,0.000000,0.000000,0.000000,0.000000,0.000000
15847650.000000,2.302754,-1.005962,-1.853301,-1.440285,-0.968588,1.736758,0.472238,-0.030403,-0.319649,-0.176450,-0.281989,-0.341135,0.434825,0.169477,0.030561,33.647808,19.128220,10.715208,0.141385,1.670028,0.067611,0.000000,0.000000,0.000000,0.000000,0.000000,0.000000
15847651.000000,2.302733,-1.006290,-1.853488,-1.440563,-0.968932,1.737203,0.472410,-0.025734,-0.318841,-0.181369,-0.282258,-0.336225,0.435769,0.170498,-0.144000,33.647808,19.152023,10.639830,0.178007,1.617843,0.041976,0.000000,0.000000,0.000000,0.000000,0.000000,0.000000
15847652.000000,2.302703,-1.006622,-1.853665,-1.440835,-0.969272,1.737642,0.472580,-0.028493,-0.322213,-0.176834,-0.285089,-0.348637,0.448436,0.168496,-0.167803,33.699383,19.052841,10.592222,0.171598,1.630660,0.087753,0.000000,0.000000,0.000000,0.000000,0.000000,0.000000
15847653.000000,2.302679,-1.006951,-1.853847,-1.441108,-0.969631,1.738070,0.472753,-0.028498,-0.327449,-0.177377,-0.281280,-0.349297,0.438577,0.169950,-0.290789,33.723186,19.052841,10.564451,0.255826,1.662704,0.061202,0.000000,0.000000,0.000000,0.000000,0.000000,0.000000
15847654.000000,2.302658,-1.007287,-1.854024,-1.441391,-0.969971,1.738503,0.472924,-0.025432,-0.331302,-0.177919,-0.283705,-0.340435,0.437168,0.169349,-0.413775,33.770794,19.029037,10.564451,0.219205,1.670028,0.067611,0.000000,0.000000,0.000000,0.000000,0.000000,0.000000
15847655.000000,2.302641,-1.007617,-1.854205,-1.441661,-0.970303,1.738934,0.473093,-0.022020,-0.333032,-0.181303,-0.274357,-0.339060,0.434668,0.168803,-0.588336,33.893780,19.005234,10.516844,0.189908,1.597701,0.100570,0.000000,0.000000,0.000000,0.000000,0.000000,0.000000
15847656.000000,2.302621,-1.007958,-1.854386,-1.441930,-0.970649,1.739361,0.473266,-0.021016,-0.333631,-0.182431,-0.273330,-0.336350,0.426167,0.169413,-0.687518,33.992962,18.929855,10.441465,0.141385,1.559249,0.094161,0.000000,0.000000,0.000000,0.000000,0.000000,0.000000
15847657.000000,2.302606,-1.008291,-1.854568,-1.442208,-0.970985,1.739784,0.473440,-0.019436,-0.330813,-0.179535,-0.277070,-0.338544,0.420449,0.169683,-0.834307,33.969158,18.906052,10.393858,0.100187,1.630660,0.107894,0.000000,0.000000,0.000000,0.000000,0.000000,0.000000
15847658.000000,2.302589,-1.008625,-1.854748,-1.442479,-0.971322,1.740203,0.473616,-0.018680,-0.334120,-0.181064,-0.276199,-0.338629,0.417751,0.171522,-0.961260,34.016766,18.830673,10.342283,0.100187,1.662704,0.061202,0.000000,0.000000,0.000000,0.000000,0.000000,0.000000
15847659.000000,2.302572,-1.008965,-1.854932,-1.442753,-0.971660,1.740635,0.473785,-0.018787,-0.335199,-0.179675,-0.275315,-0.337844,0.417966,0.170083,-1.060443,34.016766,18.759262,10.294676,0.088285,1.624252,0.081344,0.000000,0.000000,0.000000,0.000000,0.000000,0.000000
15847660.000000,2.302559,-1.009302,-1.855121,-1.443033,-0.971999,1.741063,0.473960,-0.021494,-0.333674,-0.183994,-0.279228,-0.334366,0.421730,0.170907,-1.159625,34.040569,18.783066,10.294676,0.105680,1.624252,0.061202,0.000000,0.000000,0.000000,0.000000,0.000000,0.000000
15847661.000000,2.302546,-1.009638,-1.855311,-1.443317,-0.972347,1.741489,0.474122,-0.020118,-0.334444,-0.186131,-0.279892,-0.338115,0.420529,0.169362,-1.282611,34.016766,18.783066,10.318480,0.183500,1.630660,0.094161,0.000000,0.000000,0.000000,0.000000,0.000000,0.000000
15847662.000000,2.302523,-1.009985,-1.855495,-1.443601,-0.972679,1.741913,0.474296,-0.021860,-0.334701,-0.182766,-0.279329,-0.333224,0.419767,0.171460,-1.282611,34.139751,18.783066,10.318480,0.171598,1.624252,0.034652,0.000000,0.000000,0.000000,0.000000,0.000000,0.000000
15847663.000000,2.302507,-1.010341,-1.855681,-1.443882,-0.973018,1.742345,0.474461,-0.019053,-0.343921,-0.182355,-0.282487,-0.338670,0.420373,0.170093,-1.330218,34.357952,18.783066,10.294676,0.154203,1.597701,0.061202,0.000000,0.000000,0.000000,0.000000,0.000000,0.000000
15847664.000000,2.302491,-1.010694,-1.855866,-1.444168,-0.973369,1.742780,0.474631,-0.017411,-0.344767,-0.184648,-0.280455,-0.339659,0.424209,0.167793,-1.354022,34.457134,18.759262,10.270872,0.189908,1.584884,0.120712,0.000000,0.000000,0.000000,0.000000,0.000000,0.000000
15847665.000000,2.302479,-1.011053,-1.856060,-1.444446,-0.973700,1.743214,0.474814,-0.014082,-0.351519,-0.191712,-0.282789,-0.341277,0.435353,0.171447,-1.453204,34.679302,18.830673,10.219297,0.112089,1.565658,0.041976,0.000000,0.000000,0.000000,0.000000,0.000000,0.000000
15847666.000000,2.302451,-1.011403,-1.856247,-1.444735,-0.974037,1.743644,0.474977,-0.017130,-0.350639,-0.193583,-0.285382,-0.342224,0.430172,0.164990,-1.330218,34.798321,18.783066,10.243101,0.022367,1.552840,0.074935,0.000000,0.000000,0.000000,0.000000,0.000000,0.000000
15847667.000000,2.302438,-1.011756,-1.856438,-1.445015,-0.974392,1.744076,0.475142,-0.014989,-0.349926,-0.188813,-0.282374,-0.347847,0.427562,0.164063,-1.381793,34.945110,18.806870,10.171690,0.052579,1.513473,0.133529,0.000000,0.000000,0.000000,0.000000,0.000000,0.000000
15847668.000000,2.302414,-1.012114,-1.856634,-1.445296,-0.974742,1.744494,0.475309,-0.019390,-0.358088,-0.194472,-0.284768,-0.347871,0.419772,0.170159,-1.306414,35.119671,18.858444,10.195494,0.105680,1.507064,0.114303,0.000000,0.000000,0.000000,0.000000,0.000000,0.000000
15847669.000000,2.302389,-1.012477,-1.856834,-1.445587,-0.975090,1.744917,0.475484,-0.020652,-0.357804,-0.199046,-0.284926,-0.345890,0.415490,0.173043,-1.183428,35.337872,18.929855,10.294676,0.135892,1.565658,0.041976,0.000000,0.000000,0.000000,0.000000,0.000000,0.000000
15847670.000000,2.302360,-1.012829,-1.857024,-1.445872,-0.975445,1.745349,0.475653,-0.021798,-0.359585,-0.192570,-0.284815,-0.357152,0.424118,0.176005,-1.032672,35.385479,18.953659,10.370054,0.166105,1.559249,0.061202,0.000000,0.000000,0.000000,0.000000,0.000000,0.000000
15847671.000000,2.302332,-1.013172,-1.857223,-1.446160,-0.975809,1.745771,0.475817,-0.024518,-0.354762,-0.194883,-0.287604,-0.359207,0.427458,0.173002,-0.933489,35.290264,19.076645,10.441465,0.231107,1.526290,0.100570,0.000000,0.000000,0.000000,0.000000,0.000000,0.000000
15847672.000000,2.302307,-1.013526,-1.857419,-1.446457,-0.976161,1.746196,0.475988,-0.022829,-0.356769,-0.196522,-0.287234,-0.353766,0.422997,0.173992,-0.862078,35.290264,19.175827,10.564451,0.231107,1.546432,0.048385,0.000000,0.000000,0.000000,0.000000,0.000000,0.000000
15847673.000000,2.302273,-1.013880,-1.857612,-1.446735,-0.976500,1.746605,0.476146,-0.027249,-0.352690,-0.199251,-0.283564,-0.347127,0.415153,0.171469,-0.687518,35.167278,19.199631,10.516844,0.154203,1.591293,0.094161,0.000000,0.000000,0.000000,0.000000,0.000000,0.000000
15847674.000000,2.302237,-1.014217,-1.857813,-1.447021,-0.976854,1.747017,0.476316,-0.031066,-0.348216,-0.198920,-0.284110,-0.347584,0.412619,0.172113,-0.489153,34.972881,19.275009,10.493040,0.105680,1.656295,0.067611,0.000000,0.000000,0.000000,0.000000,0.000000,0.000000
15847675.000000,2.302208,-1.014575,-1.858009,-1.447310,-0.977212,1.747436,0.476480,-0.031372,-0.348450,-0.196151,-0.284902,-0.358340,0.411890,0.171291,-0.389971,34.945110,19.322617,10.441465,0.129484,1.695663,0.067611,0.000000,0.000000,0.000000,0.000000,0.000000,0.000000
15847676.000000,2.302170,-1.014928,-1.858212,-1.447594,-0.977551,1.747854,0.476632,-0.030242,-0.346095,-0.200541,-0.286024,-0.352089,0.413153,0.169511,-0.191607,34.921307,19.421799,10.441465,0.100187,1.682845,0.107894,0.000000,0.000000,0.000000,0.000000,0.000000,0.000000
15847677.000000,2.302133,-1.015283,-1.858420,-1.447883,-0.977908,1.748270,0.476803,-0.033118,-0.347727,-0.203364,-0.288230,-0.353714,0.412992,0.171854,0.006757,34.774517,19.497177,10.370054,0.123990,1.689254,0.048385,0.000000,0.000000,0.000000,0.000000,0.000000,0.000000
15847678.000000,2.302089,-1.015644,-1.858626,-1.448167,-0.978261,1.748681,0.476966,-0.035908,-0.348361,-0.202768,-0.287104,-0.352729,0.424853,0.169033,0.252729,34.726910,19.592392,10.294676,0.195402,1.689254,0.107894,0.000000,0.000000,0.000000,0.000000,0.000000,0.000000
15847679.000000,2.302052,-1.015998,-1.858831,-1.448460,-0.978612,1.749100,0.477136,-0.035472,-0.350025,-0.205379,-0.290515,-0.350921,0.419061,0.170362,0.403486,34.726910,19.715378,10.370054,0.249418,1.649886,0.094161,0.000000,0.000000,0.000000,0.000000,0.000000,0.000000
15847680.000000,2.302008,-1.016360,-1.859034,-1.448736,-0.978958,1.749514,0.477310,-0.039598,-0.350981,-0.201636,-0.282704,-0.351742,0.419336,0.171910,0.601850,34.750713,19.790756,10.171690,0.231107,1.611434,0.041976,0.000000,0.000000,0.000000,0.000000,0.000000,0.000000
15847681.000000,2.301963,-1.016713,-1.859241,-1.449015,-0.979310,1.749924,0.477472,-0.039277,-0.351660,-0.203977,-0.281612,-0.352816,0.417306,0.169367,0.796247,34.750713,19.862167,10.120115,0.225614,1.630660,0.094161,0.000000,0.000000,0.000000,0.000000,0.000000,0.000000
15847682.000000,2.301928,-1.017068,-1.859456,-1.449292,-0.979661,1.750335,0.477639,-0.035883,-0.352907,-0.206581,-0.279786,-0.352145,0.421149,0.169430,0.847822,34.651531,19.961349,10.096312,0.195402,1.637069,0.100570,0.000000,0.000000,0.000000,0.000000,0.000000,0.000000
15847683.000000,2.301888,-1.017418,-1.859654,-1.449569,-0.979999,1.750745,0.477813,-0.038322,-0.348413,-0.198945,-0.279936,-0.346376,0.427324,0.171729,0.970807,34.580120,19.885971,10.072508,0.135892,1.656295,0.048385,0.000000,0.000000,0.000000,0.000000,0.000000,0.000000
15847684.000000,2.301838,-1.017772,-1.859868,-1.449849,-0.980362,1.751141,0.477975,-0.042551,-0.349233,-0.205135,-0.280559,-0.349087,0.417014,0.171491,1.192975,34.556316,19.961349,10.120115,0.123990,1.714889,0.041976,0.000000,0.000000,0.000000,0.000000,0.000000,0.000000
15847685.000000,2.301797,-1.018118,-1.860072,-1.450118,-0.980722,1.751540,0.478141,-0.040456,-0.346728,-0.207403,-0.275484,-0.351149,0.409179,0.169398,1.315961,34.433331,19.913742,10.072508,0.117582,1.779891,0.094161,0.000000,0.000000,0.000000,0.000000,0.000000,0.000000
15847686.000000,2.301755,-1.018462,-1.860285,-1.450398,-0.981075,1.751934,0.478315,-0.044457,-0.355481,-0.207453,-0.277647,-0.349093,0.408856,0.174877,1.415143,34.286541,19.913742,10.143919,0.135892,1.838485,0.054794,0.000000,0.000000,0.000000,0.000000,0.000000,0.000000
15847687.000000,2.301716,-1.018816,-1.860499,-1.450675,-0.981434,1.752347,0.478484,-0.041272,-0.353556,-0.208627,-0.279470,-0.351470,0.405821,0.173711,1.514325,34.211163,19.985153,10.219297,0.159696,1.825668,0.048385,0.000000,0.000000,0.000000,0.000000,0.000000,0.000000
15847688.000000,2.301672,-1.019168,-1.860705,-1.450944,-0.981796,1.752761,0.478653,-0.041619,-0.353142,-0.206043,-0.274421,-0.362774,0.405571,0.171870,1.613508,34.187359,19.985153,10.171690,0.225614,1.773483,0.067611,0.000000,0.000000,0.000000,0.000000,0.000000,0.000000
15847689.000000,2.301630,-1.019514,-1.860916,-1.451225,-0.982155,1.753174,0.478818,-0.039253,-0.350836,-0.206435,-0.279355,-0.357420,0.405691,0.166720,1.712690,34.064373,20.008957,10.270872,0.255826,1.702071,0.067611,0.000000,0.000000,0.000000,0.000000,0.000000,0.000000
15847690.000000,2.301592,-1.019864,-1.861130,-1.451499,-0.982506,1.753588,0.478981,-0.035849,-0.349729,-0.207132,-0.278422,-0.355775,0.407207,0.161121,1.740461,33.992962,20.036728,10.270872,0.225614,1.695663,0.107894,0.000000,0.000000,0.000000,0.000000,0.000000,0.000000
15847691.000000,2.301554,-1.020225,-1.861334,-1.451759,-0.982862,1.753992,0.479153,-0.034480,-0.351270,-0.208280,-0.275986,-0.355404,0.403436,0.165890,1.811872,33.992962,19.961349,10.171690,0.207303,1.714889,0.067611,0.000000,0.000000,0.000000,0.000000,0.000000,0.000000
15847692.000000,2.301522,-1.020580,-1.861546,-1.452027,-0.983221,1.754394,0.479319,-0.030957,-0.350910,-0.211192,-0.271306,-0.354416,0.408081,0.166415,1.788068,34.088177,19.985153,10.096312,0.178007,1.786300,0.081344,0.000000,0.000000,0.000000,0.000000,0.000000,0.000000
15847693.000000,2.301488,-1.020940,-1.861759,-1.452297,-0.983574,1.754806,0.479496,-0.031808,-0.352569,-0.208694,-0.269135,-0.352932,0.401725,0.168608,1.764264,34.163555,20.008957,10.048704,0.112089,1.865035,0.054794,0.000000,0.000000,0.000000,0.000000,0.000000,0.000000
15847694.000000,2.301457,-1.021293,-1.861959,-1.452558,-0.983926,1.755224,0.479663,-0.032361,-0.351891,-0.205164,-0.266938,-0.353718,0.407146,0.163304,1.712690,34.139751,19.885971,9.997129,0.093778,1.812850,0.081344,0.000000,0.000000,0.000000,0.000000,0.000000,0.000000
15847695.000000,2.301427,-1.021652,-1.862168,-1.452834,-0.984285,1.755645,0.479845,-0.032729,-0.355198,-0.206796,-0.267466,-0.353746,0.405960,0.171904,1.665082,34.139751,19.937546,10.048704,0.081876,1.735030,0.021835,0.000000,0.000000,0.000000,0.000000,0.000000,0.000000
15847696.000000,2.301395,-1.022020,-1.862376,-1.453100,-0.984643,1.756060,0.480014,-0.033956,-0.359578,-0.209383,-0.268064,-0.352996,0.406034,0.170675,1.665082,34.211163,20.036728,10.096312,0.154203,1.656295,0.034652,0.000000,0.000000,0.000000,0.000000,0.000000,0.000000
15847697.000000,2.301368,-1.022372,-1.862583,-1.453363,-0.985008,1.756469,0.480170,-0.030121,-0.358501,-0.211697,-0.268144,-0.357567,0.397967,0.163715,1.589704,34.238934,20.060532,10.096312,0.255826,1.662704,0.114303,0.000000,0.000000,0.000000,0.000000,0.000000,0.000000
15847698.000000,2.301345,-1.022729,-1.862793,-1.453632,-0.985379,1.756871,0.480338,-0.026693,-0.357596,-0.204055,-0.269252,-0.363270,0.400220,0.166638,1.490522,34.163555,20.159714,10.171690,0.291532,1.714889,0.074935,0.000000,0.000000,0.000000,0.000000,0.000000,0.000000
15847699.000000,2.301323,-1.023084,-1.862997,-1.453892,-0.985738,1.757277,0.480504,-0.024310,-0.356807,-0.204561,-0.263537,-0.357185,0.398458,0.167328,1.391340,34.163555,20.159714,10.219297,0.297025,1.735030,0.081344,0.000000,0.000000,0.000000,0.000000,0.000000,0.000000
15847700.000000,2.301302,-1.023445,-1.863208,-1.454158,-0.986095,1.757687,0.480674,-0.022979,-0.353603,-0.209845,-0.263985,-0.355379,0.397992,0.164334,1.315961,34.064373,20.231125,10.393858,0.273221,1.714889,0.054794,0.000000,0.000000,0.000000,0.000000,0.000000,0.000000
15847701.000000,2.301289,-1.023806,-1.863412,-1.454426,-0.986445,1.758092,0.480836,-0.019260,-0.350040,-0.211695,-0.270435,-0.356550,0.404907,0.163732,1.093793,34.040569,20.207321,10.516844,0.159696,1.708480,0.107894,0.000000,0.000000,0.000000,0.000000,0.000000,0.000000
15847702.000000,2.301261,-1.024155,-1.863619,-1.454696,-0.986810,1.758479,0.481005,-0.022278,-0.351610,-0.206443,-0.268228,-0.355400,0.398260,0.163114,1.121564,33.941387,20.207321,10.639830,0.112089,1.825668,0.041976,0.000000,0.000000,0.000000,0.000000,0.000000,0.000000
15847703.000000,2.301250,-1.024523,-1.863827,-1.454964,-0.987181,1.758866,0.481169,-0.016699,-0.353876,-0.209056,-0.266344,-0.356961,0.393442,0.160267,0.970807,34.040569,20.306503,10.762815,0.129484,1.930038,0.028243,0.000000,0.000000,0.000000,0.000000,0.000000,0.000000
15847704.000000,2.301238,-1.024881,-1.864033,-1.455230,-0.987550,1.759251,0.481322,-0.015869,-0.364812,-0.209498,-0.267672,-0.364190,0.398444,0.159430,0.824018,34.088177,20.354111,10.861998,0.183500,1.955673,0.087753,0.000000,0.000000,0.000000,0.000000,0.000000,0.000000
15847705.000000,2.301226,-1.025247,-1.864243,-1.455507,-0.987926,1.759651,0.481482,-0.013068,-0.367016,-0.211897,-0.271404,-0.367024,0.394598,0.158593,0.697065,34.187359,20.377914,11.060362,0.207303,1.916305,0.067611,0.000000,0.000000,0.000000,0.000000,0.000000,0.000000
15847706.000000,2.301216,-1.025601,-1.864449,-1.455782,-0.988305,1.760059,0.481641,-0.014157,-0.362923,-0.205102,-0.273126,-0.379203,0.398995,0.155644,0.574079,34.187359,20.377914,11.234922,0.279630,1.812850,0.094161,0.000000,0.000000,0.000000,0.000000,0.000000,0.000000
15847707.000000,2.301203,-1.025963,-1.864658,-1.456061,-0.988673,1.760455,0.481808,-0.012931,-0.362151,-0.208367,-0.278590,-0.373026,0.400721,0.160818,0.502668,34.262737,20.377914,11.381712,0.267728,1.735030,0.054794,0.000000,0.000000,0.000000,0.000000,0.000000,0.000000
15847708.000000,2.301198,-1.026314,-1.864864,-1.456341,-0.989054,1.760848,0.481971,-0.010068,-0.356561,-0.206437,-0.278763,-0.372969,0.390863,0.157169,0.351911,34.139751,20.306503,11.457090,0.261320,1.786300,0.081344,0.000000,0.000000,0.000000,0.000000,0.000000,0.000000
15847709.000000,2.301196,-1.026689,-1.865067,-1.456616,-0.989420,1.761227,0.482138,-0.009666,-0.360805,-0.208247,-0.276294,-0.373423,0.383331,0.161505,0.153547,34.211163,20.231125,11.556273,0.249418,1.897079,0.081344,0.000000,0.000000,0.000000,0.000000,0.000000,0.000000
15847710.000000,2.301196,-1.027045,-1.865271,-1.456891,-0.989786,1.761608,0.482302,-0.007100,-0.360600,-0.203804,-0.276015,-0.363581,0.383101,0.163396,-0.017047,34.163555,20.207321,11.556273,0.225614,1.995040,0.087753,0.000000,0.000000,0.000000,0.000000,0.000000,0.000000
15847711.000000,2.301187,-1.027415,-1.865471,-1.457174,-0.990161,1.762010,0.482475,-0.008079,-0.365878,-0.198607,-0.280209,-0.364993,0.381179,0.166930,-0.068621,34.238934,20.159714,11.603880,0.166105,2.001449,0.028243,0.000000,0.000000,0.000000,0.000000,0.000000,0.000000
15847712.000000,2.301182,-1.027780,-1.865673,-1.457451,-0.990528,1.762419,0.482627,-0.008043,-0.367967,-0.202824,-0.277636,-0.366851,0.389362,0.159870,-0.144000,34.211163,20.108139,11.679258,0.135892,1.890670,0.107894,0.000000,0.000000,0.000000,0.000000,0.000000,0.000000
15847713.000000,2.301180,-1.028147,-1.865879,-1.457729,-0.990901,1.762825,0.482798,-0.007056,-0.370139,-0.206733,-0.281162,-0.365194,0.390132,0.164313,-0.266986,34.187359,20.084335,11.679258,0.171598,1.747848,0.061202,0.000000,0.000000,0.000000,0.000000,0.000000,0.000000
15847714.000000,2.301170,-1.028523,-1.866080,-1.458014,-0.991267,1.763214,0.482964,-0.008666,-0.371230,-0.202123,-0.282975,-0.369311,0.389689,0.165371,-0.290789,34.139751,20.084335,11.802244,0.201810,1.786300,0.067611,0.000000,0.000000,0.000000,0.000000,0.000000,0.000000
15847715.000000,2.301166,-1.028893,-1.866278,-1.458287,-0.991656,1.763601,0.483129,-0.008926,-0.371514,-0.200965,-0.278047,-0.374085,0.387882,0.166340,-0.342364,34.211163,20.008957,11.778440,0.285123,1.865035,0.094161,0.000000,0.000000,0.000000,0.000000,0.000000,0.000000
15847716.000000,2.301164,-1.029268,-1.866469,-1.458564,-0.992036,1.763989,0.483302,-0.007845,-0.369176,-0.194536,-0.278247,-0.375462,0.384038,0.167649,-0.441546,34.211163,19.885971,11.802244,0.315336,1.890670,0.074935,0.000000,0.000000,0.000000,0.000000,0.000000,0.000000
15847717.000000,2.301162,-1.029632,-1.866669,-1.458836,-0.992398,1.764385,0.483460,-0.006008,-0.371792,-0.197054,-0.275279,-0.372595,0.386366,0.162471,-0.588336,34.187359,19.838364,11.826048,0.231107,1.916305,0.114303,0.000000,0.000000,0.000000,0.000000,0.000000,0.000000
15847718.000000,2.301157,-1.030008,-1.866868,-1.459113,-0.992777,1.764793,0.483634,-0.007481,-0.372082,-0.195521,-0.273257,-0.376301,0.390496,0.167012,-0.635943,34.139751,19.790756,11.877623,0.201810,1.851302,0.041976,0.000000,0.000000,0.000000,0.000000,0.000000,0.000000
15847719.000000,2.301152,-1.030382,-1.867059,-1.459387,-0.993140,1.765198,0.483797,-0.005455,-0.366902,-0.188943,-0.278360,-0.381052,0.397151,0.162478,-0.663714,34.139751,19.739182,11.901426,0.135892,1.773483,0.054794,0.000000,0.000000,0.000000,0.000000,0.000000,0.000000
15847720.000000,2.301147,-1.030755,-1.867256,-1.459661,-0.993506,1.765591,0.483953,-0.006417,-0.366898,-0.190582,-0.274660,-0.374995,0.399782,0.163087,-0.711321,34.163555,19.766953,11.901426,0.129484,1.806442,0.087753,0.000000,0.000000,0.000000,0.000000,0.000000,0.000000
15847721.000000,2.301141,-1.031131,-1.867446,-1.459933,-0.993881,1.765983,0.484117,-0.003955,-0.368545,-0.193243,-0.272028,-0.377026,0.394764,0.165444,-0.762896,34.139751,19.691574,11.901426,0.166105,1.890670,0.074935,0.000000,0.000000,0.000000,0.000000,0.000000,0.000000
15847722.000000,2.301130,-1.031511,-1.867636,-1.460203,-0.994252,1.766371,0.484278,-0.007170,-0.375744,-0.194649,-0.273709,-0.373932,0.390101,0.166490,-0.735125,34.211163,19.592392,11.925230,0.207303,1.897079,0.081344,0.000000,0.000000,0.000000,0.000000,0.000000,0.000000
15847723.000000,2.301126,-1.031889,-1.867830,-1.460470,-0.994627,1.766774,0.484449,-0.004339,-0.374668,-0.193830,-0.270607,-0.375286,0.396551,0.168955,-0.786700,34.139751,19.568588,11.877623,0.237516,1.884261,0.041976,0.000000,0.000000,0.000000,0.000000,0.000000,0.000000
15847724.000000,2.301115,-1.032264,-1.868018,-1.460735,-0.994998,1.767188,0.484606,-0.006758,-0.373716,-0.189637,-0.268026,-0.380981,0.398856,0.166393,-0.786700,34.088177,19.469406,11.826048,0.189908,1.812850,0.107894,0.000000,0.000000,0.000000,0.000000,0.000000,0.000000
15847725.000000,2.301111,-1.032639,-1.868212,-1.461003,-0.995365,1.767591,0.484773,-0.007225,-0.370675,-0.192949,-0.272909,-0.373644,0.401027,0.164002,-0.834307,34.040569,19.421799,11.849852,0.147794,1.727706,0.074935,0.000000,0.000000,0.000000,0.000000,0.000000,0.000000
15847726.000000,2.301104,-1.033031,-1.868408,-1.461263,-0.995744,1.767994,0.484934,-0.008727,-0.376343,-0.193127,-0.267052,-0.374977,0.403796,0.160221,-0.834307,34.187359,19.397995,11.703062,0.171598,1.727706,0.087753,0.000000,0.000000,0.000000,0.000000,0.000000,0.000000
15847727.000000,2.301101,-1.033425,-1.868596,-1.461513,-0.996112,1.768384,0.485097,-0.006020,-0.378789,-0.193193,-0.255916,-0.376405,0.404220,0.162183,-0.862078,34.286541,19.374191,11.556273,0.195402,1.786300,0.094161,0.000000,0.000000,0.000000,0.000000,0.000000,0.000000
15847728.000000,2.301094,-1.033807,-1.868783,-1.461764,-0.996492,1.768777,0.485252,-0.008286,-0.380967,-0.188589,-0.252397,-0.371505,0.401894,0.158995,-0.834307,34.409527,19.322617,11.429319,0.195402,1.793624,0.107894,0.000000,0.000000,0.000000,0.000000,0.000000,0.000000
15847729.000000,2.301088,-1.034199,-1.868969,-1.462018,-0.996872,1.769185,0.485417,-0.006809,-0.381505,-0.187745,-0.250418,-0.373040,0.406868,0.158798,-0.810504,34.532513,19.298813,11.334105,0.195402,1.747848,0.067611,0.000000,0.000000,0.000000,0.000000,0.000000,0.000000
15847730.000000,2.301084,-1.034580,-1.869162,-1.462258,-0.997233,1.769591,0.485575,-0.005085,-0.382381,-0.192505,-0.245134,-0.372682,0.407055,0.159990,-0.810504,34.627728,19.275009,11.207151,0.154203,1.662704,0.107894,0.000000,0.000000,0.000000,0.000000,0.000000,0.000000
15847731.000000,2.301078,-1.034969,-1.869354,-1.462500,-0.997613,1.769997,0.485743,-0.004913,-0.381286,-0.196232,-0.244746,-0.371428,0.401124,0.163436,-0.762896,34.651531,19.275009,11.107969,0.117582,1.591293,0.087753,0.000000,0.000000,0.000000,0.000000,0.000000,0.000000
15847732.000000,2.301073,-1.035363,-1.869547,-1.462743,-0.997995,1.770386,0.485908,-0.004789,-0.380419,-0.193415,-0.245199,-0.375297,0.406076,0.165462,-0.711321,34.798321,19.251205,11.012754,0.183500,1.605026,0.074935,0.000000,0.000000,0.000000,0.000000,0.000000,0.000000
15847733.000000,2.301074,-1.035754,-1.869743,-1.462986,-0.998364,1.770777,0.486063,-0.002866,-0.384695,-0.193519,-0.243565,-0.370348,0.400528,0.165871,-0.735125,34.897503,19.275009,10.984983,0.171598,1.676437,0.120712,0.000000,0.000000,0.000000,0.000000,0.000000,0.000000
15847734.000000,2.301069,-1.036151,-1.869938,-1.463218,-0.998742,1.771169,0.486234,-0.006251,-0.384426,-0.191746,-0.238529,-0.375273,0.398106,0.169620,-0.687518,34.996685,19.275009,10.913572,0.129484,1.702071,0.041976,0.000000,0.000000,0.000000,0.000000,0.000000,0.000000
15847735.000000,2.301072,-1.036550,-1.870132,-1.463455,-0.999122,1.771559,0.486391,-0.003995,-0.398118,-0.189927,-0.235199,-0.375872,0.403125,0.167653,-0.711321,35.091900,19.298813,10.885801,0.129484,1.682845,0.094161,0.000000,0.000000,0.000000,0.000000,0.000000,0.000000
15847736.000000,2.301072,-1.036941,-1.870331,-1.463687,-0.999499,1.771965,0.486550,-0.002951,-0.391764,-0.196187,-0.231971,-0.374428,0.401437,0.163316,-0.711321,35.068096,19.397995,10.838194,0.112089,1.662704,0.100570,0.000000,0.000000,0.000000,0.000000,0.000000,0.000000
15847737.000000,2.301069,-1.037344,-1.870521,-1.463913,-0.999871,1.772366,0.486721,-0.003297,-0.394235,-0.190265,-0.230303,-0.385576,0.402747,0.166045,-0.663714,35.214886,19.397995,10.786619,0.076383,1.656295,0.074935,0.000000,0.000000,0.000000,0.000000,0.000000,0.000000
15847738.000000,2.301065,-1.037730,-1.870716,-1.464143,-1.000257,1.772752,0.486886,-0.003567,-0.391715,-0.191326,-0.233119,-0.384474,0.403708,0.167014,-0.612139,35.167278,19.421799,10.786619,0.100187,1.708480,0.074935,0.000000,0.000000,0.000000,0.000000,0.000000,0.000000
15847739.000000,2.301071,-1.038130,-1.870919,-1.464374,-1.000643,1.773151,0.487055,-0.000736,-0.396576,-0.198394,-0.230519,-0.384085,0.395801,0.169036,-0.687518,35.290264,19.544785,10.715208,0.141385,1.714889,0.054794,0.000000,0.000000,0.000000,0.000000,0.000000,0.000000
15847740.000000,2.301067,-1.038526,-1.871117,-1.464602,-1.001018,1.773549,0.487215,0.004435,-0.392515,-0.201781,-0.229952,-0.387795,0.392475,0.171440,-0.635943,35.337872,19.592392,10.715208,0.166105,1.682845,0.094161,0.000000,0.000000,0.000000,0.000000,0.000000,0.000000
15847741.000000,2.301071,-1.038920,-1.871318,-1.464822,-1.001405,1.773944,0.487383,0.004613,-0.395250,-0.200458,-0.225523,-0.387930,0.398117,0.166948,-0.687518,35.508465,19.643967,10.663633,0.141385,1.676437,0.081344,0.000000,0.000000,0.000000,0.000000,0.000000,0.000000
15847742.000000,2.301074,-1.039318,-1.871522,-1.465049,-1.001791,1.774347,0.487545,0.004527,-0.394115,-0.202283,-0.226100,-0.390236,0.397329,0.162707,-0.735125,35.560040,19.739182,10.663633,0.147794,1.676437,0.100570,0.000000,0.000000,0.000000,0.000000,0.000000,0.000000
15847743.000000,2.301080,-1.039710,-1.871733,-1.465266,-1.002166,1.774752,0.487704,0.004478,-0.397802,-0.203121,-0.225007,-0.386684,0.398815,0.165279,-0.786700,35.631451,19.885971,10.540648,0.147794,1.624252,0.081344,0.000000,0.000000,0.000000,0.000000,0.000000,0.000000
15847744.000000,2.301079,-1.040104,-1.871933,-1.465488,-1.002558,1.775149,0.487865,0.002618,-0.393764,-0.204393,-0.221757,-0.383406,0.397619,0.165112,-0.762896,35.560040,19.913742,10.516844,0.135892,1.605026,0.114303,0.000000,0.000000,0.000000,0.000000,0.000000,0.000000
15847745.000000,2.301088,-1.040492,-1.872131,-1.465702,-1.002945,1.775532,0.488031,0.004208,-0.393585,-0.205856,-0.218887,-0.383783,0.388444,0.167369,-0.862078,35.460857,19.961349,10.493040,0.195402,1.702071,0.087753,0.000000,0.000000,0.000000,0.000000,0.000000,0.000000
15847746.000000,2.301091,-1.040882,-1.872335,-1.465921,-1.003327,1.775920,0.488194,0.003469,-0.390011,-0.203017,-0.219875,-0.381450,0.383847,0.168710,-0.885882,35.337872,20.008957,10.441465,0.195402,1.754256,0.087753,0.000000,0.000000,0.000000,0.000000,0.000000,0.000000
15847747.000000,2.301093,-1.041273,-1.872542,-1.466144,-1.003711,1.776307,0.488355,0.002393,-0.389527,-0.203214,-0.219568,-0.383319,0.382584,0.169152,-0.885882,35.191082,20.060532,10.465269,0.147794,1.721298,0.074935,0.000000,0.000000,0.000000,0.000000,0.000000,0.000000
15847748.000000,2.301101,-1.041662,-1.872749,-1.466359,-1.004098,1.776697,0.488516,0.002769,-0.390185,-0.204055,-0.215883,-0.381727,0.387434,0.169089,-0.933489,35.068096,20.060532,10.493040,0.154203,1.689254,0.081344,0.000000,0.000000,0.000000,0.000000,0.000000,0.000000
15847749.000000,2.301107,-1.042054,-1.872957,-1.466566,-1.004482,1.777082,0.488670,0.002541,-0.388994,-0.205288,-0.211207,-0.379928,0.387412,0.162608,-0.961260,34.996685,20.084335,10.441465,0.154203,1.721298,0.133529,0.000000,0.000000,0.000000,0.000000,0.000000,0.000000
15847750.000000,2.301111,-1.042455,-1.873163,-1.466779,-1.004863,1.777455,0.488840,0.004123,-0.392971,-0.203735,-0.214795,-0.386478,0.385867,0.167345,-0.933489,34.972881,20.084335,10.465269,0.105680,1.767074,0.061202,0.000000,0.000000,0.000000,0.000000,0.000000,0.000000
15847751.000000,2.301117,-1.042850,-1.873372,-1.466992,-1.005256,1.777831,0.488990,0.003677,-0.394446,-0.206270,-0.212413,-0.385472,0.388699,0.160040,-0.961260,35.044292,20.060532,10.493040,0.147794,1.760665,0.147262,0.000000,0.000000,0.000000,0.000000,0.000000,0.000000
15847752.000000,2.301124,-1.043255,-1.873578,-1.467199,-1.005647,1.778207,0.489161,0.006269,-0.398354,-0.202285,-0.208329,-0.385084,0.380336,0.163489,-0.985064,35.143475,20.108139,10.441465,0.201810,1.747848,0.120712,0.000000,0.000000,0.000000,0.000000,0.000000,0.000000
15847753.000000,2.301125,-1.043642,-1.873784,-1.467413,-1.006026,1.778575,0.489330,0.006100,-0.400254,-0.204330,-0.207432,-0.382252,0.379624,0.173753,-0.909686,35.143475,20.131943,10.516844,0.183500,1.747848,0.114303,0.000000,0.000000,0.000000,0.000000,0.000000,0.000000
15847754.000000,2.301124,-1.044042,-1.873985,-1.467628,-1.006418,1.778944,0.489499,0.005755,-0.401939,-0.202864,-0.208482,-0.384698,0.377998,0.169533,-0.810504,35.191082,20.060532,10.516844,0.189908,1.767074,0.074935,0.000000,0.000000,0.000000,0.000000,0.000000,0.000000
15847755.000000,2.301132,-1.044442,-1.874194,-1.467843,-1.006800,1.779325,0.489667,0.005115,-0.399697,-0.199307,-0.207947,-0.392928,0.385296,0.168807,-0.834307,35.238689,20.084335,10.564451,0.147794,1.760665,0.087753,0.000000,0.000000,0.000000,0.000000,0.000000,0.000000
15847756.000000,2.301136,-1.044846,-1.874404,-1.468052,-1.007190,1.779697,0.489831,0.002281,-0.402098,-0.204857,-0.206692,-0.391981,0.379136,0.167667,-0.762896,35.314068,20.108139,10.592222,0.105680,1.735030,0.127120,0.000000,0.000000,0.000000,0.000000,0.000000,0.000000
15847758.000000,2.301134,-1.045668,-1.874816,-1.468480,-1.007978,1.780433,0.490166,0.003101,-0.404196,-0.210165,-0.213842,-0.392949,0.368634,0.162786,-0.540728,35.560040,20.108139,10.663633,0.105680,1.858627,0.140853,0.000000,0.000000,0.000000,0.000000,0.000000,0.000000
15847759.000000,2.301129,-1.046069,-1.875029,-1.468697,-1.008372,1.780814,0.490340,-0.000198,-0.401412,-0.209289,-0.215771,-0.398405,0.373231,0.166867,-0.413775,35.607647,20.131943,10.715208,0.123990,1.800033,0.081344,0.000000,0.000000,0.000000,0.000000,0.000000,0.000000
15847760.000000,2.301126,-1.046475,-1.875230,-1.468907,-1.008780,1.781194,0.490514,-0.002480,-0.399753,-0.203662,-0.211482,-0.400002,0.375221,0.167955,-0.290789,35.560040,20.131943,10.691404,0.171598,1.747848,0.081344,0.000000,0.000000,0.000000,0.000000,0.000000,0.000000
15847761.000000,2.301116,-1.046883,-1.875437,-1.469126,-1.009174,1.781569,0.490679,-0.005340,-0.397872,-0.205180,-0.217614,-0.398297,0.374962,0.166799,-0.116229,35.730633,20.159714,10.739012,0.159696,1.767074,0.127120,0.000000,0.000000,0.000000,0.000000,0.000000,0.000000
15847762.000000,2.301111,-1.047306,-1.875644,-1.469343,-1.009568,1.781953,0.490852,-0.004933,-0.405600,-0.206446,-0.215261,-0.396643,0.369569,0.169334,-0.044818,36.024212,20.183517,10.691404,0.154203,1.773483,0.081344,0.000000,0.000000,0.000000,0.000000,0.000000,0.000000
15847763.000000,2.301101,-1.047723,-1.875848,-1.469562,-1.009966,1.782324,0.491014,-0.005943,-0.404852,-0.208018,-0.214934,-0.397019,0.367198,0.167145,0.078168,36.194805,20.183517,10.691404,0.171598,1.767074,0.140853,0.000000,0.000000,0.000000,0.000000,0.000000,0.000000
15847764.000000,2.301102,-1.048139,-1.876056,-1.469776,-1.010362,1.782709,0.491182,-0.002681,-0.407699,-0.208072,-0.213668,-0.390981,0.371211,0.170356,0.030561,36.365398,20.231125,10.639830,0.154203,1.721298,0.107894,0.000000,0.000000,0.000000,0.000000,0.000000,0.000000
15847765.000000,2.301086,-1.048545,-1.876264,-1.469991,-1.010751,1.783093,0.491347,-0.005745,-0.402392,-0.207070,-0.215419,-0.386828,0.373487,0.170372,0.205121,36.389202,20.278732,10.540648,0.135892,1.676437,0.094161,0.000000,0.000000,0.000000,0.000000,0.000000,0.000000
15847766.000000,2.301079,-1.048963,-1.876474,-1.470204,-1.011145,1.783460,0.491510,-0.007334,-0.409244,-0.208464,-0.214231,-0.393058,0.368917,0.169915,0.228925,36.563763,20.330307,10.493040,0.123990,1.695663,0.100570,0.000000,0.000000,0.000000,0.000000,0.000000,0.000000
15847767.000000,2.301074,-1.049371,-1.876691,-1.470426,-1.011544,1.783827,0.491673,-0.005629,-0.403149,-0.210262,-0.216450,-0.394382,0.372915,0.172623,0.252729,36.535992,20.429489,10.564451,0.166105,1.741439,0.153671,0.000000,0.000000,0.000000,0.000000,0.000000,0.000000
15847768.000000,2.301067,-1.049788,-1.876892,-1.470637,-1.011930,1.784205,0.491845,-0.004447,-0.404900,-0.201231,-0.221080,-0.390539,0.377047,0.174333,0.276533,36.488384,20.453293,10.564451,0.183500,1.727706,0.094161,0.000000,0.000000,0.000000,0.000000,0.000000,0.000000
15847769.000000,2.301055,-1.050194,-1.877099,-1.470855,-1.012327,1.784574,0.492010,-0.004830,-0.401109,-0.202984,-0.218962,-0.395232,0.372284,0.178386,0.351911,36.488384,20.500900,10.540648,0.159696,1.721298,0.081344,0.000000,0.000000,0.000000,0.000000,0.000000,0.000000
15847770.000000,2.301046,-1.050608,-1.877304,-1.471078,-1.012725,1.784937,0.492173,-0.008149,-0.401163,-0.207731,-0.220182,-0.394990,0.363867,0.168963,0.427289,36.512188,20.524704,10.639830,0.159696,1.800033,0.140853,0.000000,0.000000,0.000000,0.000000,0.000000,0.000000
15847771.000000,2.301038,-1.051017,-1.877523,-1.471291,-1.013110,1.785301,0.492343,-0.006305,-0.400550,-0.210873,-0.212873,-0.390450,0.365978,0.171860,0.451093,36.611370,20.671494,10.715208,0.154203,1.832076,0.074935,0.000000,0.000000,0.000000,0.000000,0.000000,0.000000
15847772.000000,2.301029,-1.051438,-1.877740,-1.471496,-1.013506,1.785673,0.492508,-0.005646,-0.407150,-0.215094,-0.210958,-0.394206,0.368909,0.171398,0.502668,36.758160,20.794479,10.639830,0.117582,1.825668,0.074935,0.000000,0.000000,0.000000,0.000000,0.000000,0.000000
15847773.000000,2.301017,-1.051854,-1.877963,-1.471712,-1.013903,1.786043,0.492664,-0.006261,-0.405513,-0.215924,-0.213538,-0.401204,0.373232,0.168162,0.601850,36.904949,21.016647,10.691404,0.100187,1.825668,0.147262,0.000000,0.000000,0.000000,0.000000,0.000000,0.000000
15847774.000000,2.301010,-1.052252,-1.878187,-1.471925,-1.014307,1.786414,0.492830,-0.008187,-0.405984,-0.219987,-0.212087,-0.397246,0.374617,0.170882,0.625654,36.833538,21.187241,10.762815,0.159696,1.812850,0.094161,0.000000,0.000000,0.000000,0.000000,0.000000,0.000000
15847775.000000,2.301012,-1.052656,-1.878418,-1.472140,-1.014716,1.786786,0.492996,-0.004628,-0.400214,-0.224451,-0.210870,-0.396769,0.373586,0.169626,0.574079,36.781963,21.409409,10.838194,0.171598,1.812850,0.114303,0.000000,0.000000,0.000000,0.000000,0.000000,0.000000
15847776.000000,2.301004,-1.053063,-1.878637,-1.472349,-1.015123,1.787152,0.493162,-0.005131,-0.400612,-0.225716,-0.212597,-0.399470,0.363410,0.166576,0.649457,36.635174,21.532394,10.885801,0.255826,1.858627,0.074935,0.000000,0.000000,0.000000,0.000000,0.000000,0.000000
15847777.000000,2.300996,-1.053463,-1.878857,-1.472567,-1.015532,1.787519,0.493318,-0.005396,-0.396070,-0.225144,-0.213922,-0.400101,0.360596,0.165167,0.724836,36.535992,21.631577,10.913572,0.327238,1.903487,0.133529,0.000000,0.000000,0.000000,0.000000,0.000000,0.000000
15847778.000000,2.300995,-1.053866,-1.879080,-1.472785,-1.015929,1.787885,0.493487,-0.006888,-0.397239,-0.223757,-0.215572,-0.401919,0.362215,0.168046,0.724836,36.389202,21.726791,10.984983,0.279630,1.968490,0.081344,0.000000,0.000000,0.000000,0.000000,0.000000,0.000000
15847779.000000,2.300994,-1.054262,-1.879299,-1.472990,-1.016327,1.788247,0.493648,-0.004972,-0.395089,-0.222020,-0.214185,-0.404611,0.360575,0.165661,0.724836,36.218609,21.726791,10.961180,0.267728,1.995040,0.074935,0.000000,0.000000,0.000000,0.000000,0.000000,0.000000
15847780.000000,2.300989,-1.054670,-1.879529,-1.473200,-1.016721,1.788615,0.493803,-0.004714,-0.398859,-0.224972,-0.213199,-0.399597,0.360708,0.165455,0.772443,36.123394,21.877548,10.937376,0.225614,1.962081,0.107894,0.000000,0.000000,0.000000,0.000000,0.000000,0.000000
15847781.000000,2.300988,-1.055076,-1.879745,-1.473406,-1.017110,1.788985,0.493969,-0.003913,-0.395446,-0.222055,-0.211658,-0.401461,0.356442,0.167208,0.796247,36.048016,21.901352,10.861998,0.178007,1.936446,0.094161,0.000000,0.000000,0.000000,0.000000,0.000000,0.000000
15847782.000000,2.300992,-1.055473,-1.879970,-1.473618,-1.017512,1.789346,0.494131,-0.001656,-0.397685,-0.222257,-0.211681,-0.401430,0.355206,0.167379,0.748639,35.901226,21.972763,10.838194,0.219205,1.974899,0.107894,0.000000,0.000000,0.000000,0.000000,0.000000,0.000000
15847783.000000,2.300985,-1.055875,-1.880191,-1.473831,-1.017914,1.789708,0.494299,-0.003544,-0.396730,-0.218740,-0.210152,-0.402320,0.350407,0.168832,0.847822,35.802044,22.071945,10.861998,0.285123,1.968490,0.094161,0.000000,0.000000,0.000000,0.000000,0.000000,0.000000
15847784.000000,2.300984,-1.056282,-1.880409,-1.474037,-1.018301,1.790070,0.494460,-0.003010,-0.399095,-0.219358,-0.209514,-0.399496,0.352991,0.168122,0.871625,35.802044,22.095749,10.786619,0.261320,1.955673,0.120712,0.000000,0.000000,0.000000,0.000000,0.000000,0.000000
15847785.000000,2.300986,-1.056679,-1.880621,-1.474246,-1.018710,1.790428,0.494629,-0.002074,-0.395138,-0.217666,-0.211107,-0.404475,0.352203,0.169348,0.871625,35.706829,22.048141,10.762815,0.320829,1.995040,0.100570,0.000000,0.000000,0.000000,0.000000,0.000000,0.000000
15847786.000000,2.300988,-1.057087,-1.880833,-1.474458,-1.019103,1.790784,0.494794,-0.000877,-0.396329,-0.212686,-0.213084,-0.397521,0.360618,0.165089,0.847822,35.655254,22.024338,10.861998,0.327238,2.014266,0.087753,0.000000,0.000000,0.000000,0.000000,0.000000,0.000000
15847787.000000,2.300985,-1.057484,-1.881046,-1.474659,-1.019500,1.791138,0.494957,-0.001736,-0.396340,-0.213479,-0.205724,-0.398848,0.359489,0.162264,0.895429,35.560040,22.000534,10.814390,0.249418,2.027084,0.067611,0.000000,0.000000,0.000000,0.000000,0.000000,0.000000
15847788.000000,2.300989,-1.057890,-1.881255,-1.474864,-1.019905,1.791501,0.495116,-0.000072,-0.402173,-0.216501,-0.204013,-0.401019,0.356391,0.158120,0.847822,35.484661,21.901352,10.786619,0.201810,2.072860,0.094161,0.000000,0.000000,0.000000,0.000000,0.000000,0.000000
15847789.000000,2.300996,-1.058278,-1.881465,-1.475067,-1.020308,1.791866,0.495273,0.001694,-0.395194,-0.219443,-0.203963,-0.401309,0.358161,0.163100,0.772443,35.290264,21.825974,10.786619,0.237516,2.047225,0.140853,0.000000,0.000000,0.000000,0.000000,0.000000,0.000000
15847790.000000,2.300997,-1.058682,-1.881676,-1.475274,-1.020710,1.792230,0.495448,0.001113,-0.398801,-0.217857,-0.201862,-0.398324,0.360182,0.167989,0.772443,35.191082,21.754562,10.861998,0.213712,1.981307,0.061202,0.000000,0.000000,0.000000,0.000000,0.000000,0.000000
15847791.000000,2.300994,-1.059088,-1.881883,-1.475477,-1.021121,1.792594,0.495601,-0.001033,-0.395351,-0.210545,-0.200032,-0.410934,0.370872,0.160731,0.847822,35.119671,21.754562,10.913572,0.255826,1.995040,0.133529,0.000000,0.000000,0.000000,0.000000,0.000000,0.000000
15847792.000000,2.300997,-1.059494,-1.882080,-1.475679,-1.021534,1.792953,0.495761,0.002036,-0.397835,-0.209547,-0.201278,-0.408862,0.366762,0.157668,0.871625,35.119671,21.607773,10.961180,0.308927,2.020675,0.153671,0.000000,0.000000,0.000000,0.000000,0.000000,0.000000
15847793.000000,2.301006,-1.059910,-1.882281,-1.475885,-1.021947,1.793322,0.495935,0.006701,-0.395765,-0.206686,-0.199159,-0.405964,0.364972,0.164502,0.796247,35.238689,21.484787,11.012754,0.332731,1.962081,0.054794,0.000000,0.000000,0.000000,0.000000,0.000000,0.000000
15847794.000000,2.301005,-1.060333,-1.882477,-1.476084,-1.022350,1.793685,0.496093,0.005843,-0.405283,-0.202215,-0.197771,-0.402176,0.371895,0.159478,0.895429,35.437054,21.337997,11.060362,0.308927,1.974899,0.094161,0.000000,0.000000,0.000000,0.000000,0.000000,0.000000
15847795.000000,2.301010,-1.060739,-1.882676,-1.476277,-1.022752,1.794058,0.496252,0.005078,-0.402476,-0.202315,-0.195997,-0.398449,0.368144,0.162687,0.871625,35.484661,21.286423,11.060362,0.267728,1.981307,0.100570,0.000000,0.000000,0.000000,0.000000,0.000000,0.000000
15847796.000000,2.301018,-1.061157,-1.882867,-1.476469,-1.023147,1.794438,0.496410,0.004411,-0.406227,-0.196270,-0.193570,-0.399964,0.366558,0.162629,0.847822,35.560040,21.163437,11.036558,0.189908,1.923629,0.140853,0.000000,0.000000,0.000000,0.000000,0.000000,0.000000
15847797.000000,2.301036,-1.061564,-1.883061,-1.476657,-1.023546,1.794806,0.496581,0.010119,-0.406677,-0.198463,-0.194158,-0.397935,0.365529,0.167881,0.697065,35.631451,21.092026,10.937376,0.154203,1.890670,0.061202,0.000000,0.000000,0.000000,0.000000,0.000000,0.000000
15847798.000000,2.301040,-1.061981,-1.883258,-1.476850,-1.023952,1.795180,0.496740,0.008856,-0.410467,-0.196855,-0.192824,-0.392881,0.363542,0.164647,0.772443,35.706829,21.040451,10.937376,0.178007,1.865035,0.160079,0.000000,0.000000,0.000000,0.000000,0.000000,0.000000
15847799.000000,2.301053,-1.062400,-1.883443,-1.477034,-1.024345,1.795545,0.496913,0.007699,-0.406810,-0.193246,-0.189512,-0.394275,0.370364,0.169022,0.724836,35.778240,20.969040,10.885801,0.201810,1.844894,0.087753,0.000000,0.000000,0.000000,0.000000,0.000000,0.000000
15847800.000000,2.301063,-1.062821,-1.883629,-1.477224,-1.024750,1.795908,0.497075,0.008724,-0.411536,-0.191272,-0.190155,-0.396071,0.367472,0.163997,0.724836,35.901226,20.869858,10.913572,0.237516,1.832076,0.100570,0.000000,0.000000,0.000000,0.000000,0.000000,0.000000
15847801.000000,2.301074,-1.063230,-1.883809,-1.477419,-1.025158,1.796278,0.497238,0.010193,-0.403729,-0.184585,-0.194106,-0.397433,0.369015,0.165239,0.697065,35.853619,20.746872,10.937376,0.285123,1.825668,0.127120,0.000000,0.000000,0.000000,0.000000,0.000000,0.000000
15847802.000000,2.301087,-1.063649,-1.883996,-1.477606,-1.025543,1.796640,0.497404,0.011923,-0.421732,-0.186871,-0.192813,-0.394137,0.371872,0.163534,0.649457,35.948833,20.699265,10.937376,0.219205,1.800033,0.081344,0.000000,0.000000,0.000000,0.000000,0.000000,0.000000
15847803.000000,2.301098,-1.064056,-1.884177,-1.477789,-1.025949,1.796997,0.497560,0.009331,-0.415067,-0.185996,-0.187277,-0.393294,0.363500,0.162925,0.625654,35.877422,20.576279,10.885801,0.213712,1.793624,0.140853,0.000000,0.000000,0.000000,0.000000,0.000000,0.000000
15847804.000000,2.301119,-1.064473,-1.884358,-1.477963,-1.026350,1.797350,0.497731,0.013103,-0.411638,-0.181358,-0.184455,-0.393135,0.367277,0.166359,0.502668,35.877422,20.477097,10.786619,0.189908,1.844894,0.094161,0.000000,0.000000,0.000000,0.000000,0.000000,0.000000
15847805.000000,2.301134,-1.064881,-1.884550,-1.478137,-1.026747,1.797699,0.497895,0.014302,-0.408108,-0.183354,-0.179265,-0.396394,0.358699,0.167196,0.427289,35.948833,20.552475,10.639830,0.135892,1.884261,0.094161,0.000000,0.000000,0.000000,0.000000,0.000000,0.000000
15847806.000000,2.301154,-1.065299,-1.884736,-1.478313,-1.027156,1.798054,0.498054,0.015236,-0.411449,-0.182672,-0.176617,-0.395334,0.352277,0.166088,0.351911,36.048016,20.524704,10.540648,0.112089,1.877853,0.133529,0.000000,0.000000,0.000000,0.000000,0.000000,0.000000
15847807.000000,2.301172,-1.065708,-1.884927,-1.478497,-1.027560,1.798409,0.498215,0.016612,-0.407433,-0.183022,-0.176970,-0.395966,0.356607,0.166504,0.252729,35.976604,20.524704,10.592222,0.117582,1.812850,0.153671,0.000000,0.000000,0.000000,0.000000,0.000000,0.000000
15847808.000000,2.301189,-1.066111,-1.885116,-1.478672,-1.027964,1.798773,0.498384,0.017210,-0.406032,-0.186207,-0.176227,-0.400105,0.358831,0.164824,0.177350,35.829815,20.552475,10.564451,0.129484,1.760665,0.100570,0.000000,0.000000,0.000000,0.000000,0.000000,0.000000
15847809.000000,2.301203,-1.066512,-1.885295,-1.478839,-1.028374,1.799133,0.498548,0.016952,-0.397168,-0.180748,-0.174460,-0.411103,0.356909,0.161481,0.129743,35.631451,20.453293,10.465269,0.141385,1.760665,0.094161,0.000000,0.000000,0.000000,0.000000,0.000000,0.000000
15847810.000000,2.301224,-1.066913,-1.885479,-1.479009,-1.028787,1.799480,0.498702,0.018564,-0.398311,-0.182718,-0.173681,-0.413719,0.355127,0.157074,0.006757,35.460857,20.377914,10.393858,0.189908,1.812850,0.140853,0.000000,0.000000,0.000000,0.000000,0.000000,0.000000
15847811.000000,2.301249,-1.067316,-1.885665,-1.479186,-1.029205,1.799836,0.498872,0.023614,-0.395712,-0.183811,-0.172944,-0.414173,0.358574,0.158291,-0.167803,35.266460,20.278732,10.441465,0.225614,1.851302,0.067611,0.000000,0.000000,0.000000,0.000000,0.000000,0.000000
15847812.000000,2.301269,-1.067725,-1.885855,-1.479345,-1.029621,1.800187,0.499038,0.021757,-0.396556,-0.182506,-0.167382,-0.413858,0.353013,0.160021,-0.243182,35.044292,20.306503,10.294676,0.219205,1.877853,0.094161,0.000000,0.000000,0.000000,0.000000,0.000000,0.000000
15847813.000000,2.301288,-1.068123,-1.886041,-1.479508,-1.030038,1.800552,0.499200,0.020161,-0.392310,-0.183053,-0.166933,-0.408760,0.351115,0.161280,-0.290789,34.873699,20.231125,10.270872,0.219205,1.838485,0.120712,0.000000,0.000000,0.000000,0.000000,0.000000,0.000000
15847814.000000,2.301314,-1.068533,-1.886235,-1.479667,-1.030449,1.800917,0.499369,0.020880,-0.396017,-0.186261,-0.165878,-0.409644,0.354457,0.163625,-0.413775,34.774517,20.306503,10.243101,0.201810,1.767074,0.107894,0.000000,0.000000,0.000000,0.000000,0.000000,0.000000
15847815.000000,2.301331,-1.068933,-1.886428,-1.479830,-1.030863,1.801283,0.499535,0.018107,-0.392688,-0.188108,-0.166316,-0.414798,0.361304,0.162672,-0.413775,34.651531,20.278732,10.243101,0.178007,1.727706,0.087753,0.000000,0.000000,0.000000,0.000000,0.000000,0.000000
15847816.000000,2.301351,-1.069348,-1.886612,-1.479991,-1.031281,1.801643,0.499703,0.020495,-0.396118,-0.187697,-0.165107,-0.414204,0.358326,0.164689,-0.441546,34.651531,20.183517,10.219297,0.189908,1.760665,0.081344,0.000000,0.000000,0.000000,0.000000,0.000000,0.000000
15847817.000000,2.301370,-1.069760,-1.886800,-1.480150,-1.031694,1.801998,0.499856,0.021159,-0.393764,-0.187460,-0.165678,-0.414341,0.360326,0.163557,-0.441546,34.726910,20.159714,10.219297,0.189908,1.779891,0.147262,0.000000,0.000000,0.000000,0.000000,0.000000,0.000000
15847818.000000,2.301391,-1.070170,-1.886989,-1.480305,-1.032119,1.802353,0.500023,0.022290,-0.399933,-0.188363,-0.161649,-0.414961,0.359551,0.168101,-0.465350,34.750713,20.131943,10.195494,0.207303,1.786300,0.074935,0.000000,0.000000,0.000000,0.000000,0.000000,0.000000
15847819.000000,2.301413,-1.070581,-1.887179,-1.480460,-1.032541,1.802705,0.500179,0.023750,-0.400009,-0.187315,-0.161758,-0.411019,0.356495,0.162021,-0.512957,34.750713,20.084335,10.171690,0.243009,1.812850,0.127120,0.000000,0.000000,0.000000,0.000000,0.000000,0.000000
15847820.000000,2.301431,-1.070989,-1.887370,-1.480621,-1.032951,1.803061,0.500344,0.023097,-0.410297,-0.188734,-0.159988,-0.411235,0.353559,0.168498,-0.489153,34.726910,20.036728,10.195494,0.225614,1.773483,0.107894,0.000000,0.000000,0.000000,0.000000,0.000000,0.000000
15847821.000000,2.301452,-1.071403,-1.887564,-1.480775,-1.033371,1.803420,0.500505,0.021253,-0.407177,-0.192096,-0.157268,-0.414299,0.355703,0.164736,-0.512957,34.798321,19.985153,10.143919,0.183500,1.727706,0.094161,0.000000,0.000000,0.000000,0.000000,0.000000,0.000000
15847822.000000,2.301473,-1.071824,-1.887753,-1.480935,-1.033793,1.803780,0.500659,0.022387,-0.406904,-0.187477,-0.160130,-0.422194,0.365323,0.159698,-0.512957,34.849895,19.961349,10.195494,0.207303,1.735030,0.133529,0.000000,0.000000,0.000000,0.000000,0.000000,0.000000
15847823.000000,2.301486,-1.072231,-1.887945,-1.481088,-1.034213,1.804134,0.500815,0.020493,-0.406333,-0.188658,-0.157290,-0.418586,0.362999,0.157707,-0.413775,34.873699,19.937546,10.171690,0.166105,1.735030,0.133529,0.000000,0.000000,0.000000,0.000000,0.000000,0.000000
15847824.000000,2.301500,-1.072659,-1.888136,-1.481242,-1.034641,1.804488,0.500972,0.016971,-0.413383,-0.190807,-0.155709,-0.418174,0.361057,0.157122,-0.342364,34.972881,19.937546,10.171690,0.189908,1.708480,0.100570,0.000000,0.000000,0.000000,0.000000,0.000000,0.000000
15847825.000000,2.301516,-1.073084,-1.888323,-1.481406,-1.035059,1.804837,0.501124,0.018190,-0.414169,-0.192335,-0.158698,-0.418597,0.359811,0.156037,-0.290789,35.119671,19.937546,10.270872,0.231107,1.721298,0.087753,0.000000,0.000000,0.000000,0.000000,0.000000,0.000000
15847826.000000,2.301526,-1.073509,-1.888509,-1.481566,-1.035479,1.805188,0.501272,0.014073,-0.417776,-0.188783,-0.159762,-0.415897,0.353970,0.148571,-0.167803,35.290264,19.913742,10.270872,0.207303,1.735030,0.127120,0.000000,0.000000,0.000000,0.000000,0.000000,0.000000
15847827.000000,2.301542,-1.073942,-1.888693,-1.481719,-1.035900,1.805542,0.501437,0.012820,-0.416944,-0.184544,-0.156836,-0.414825,0.357038,0.155628,-0.116229,35.460857,19.885971,10.219297,0.195402,1.714889,0.074935,0.000000,0.000000,0.000000,0.000000,0.000000,0.000000
15847828.000000,2.301559,-1.074374,-1.888887,-1.481868,-1.036316,1.805886,0.501591,0.015620,-0.419815,-0.188459,-0.152687,-0.414738,0.356207,0.158435,-0.092425,35.631451,19.937546,10.096312,0.201810,1.741439,0.094161,0.000000,0.000000,0.000000,0.000000,0.000000,0.000000
15847829.000000,2.301571,-1.074802,-1.889078,-1.482017,-1.036735,1.806243,0.501749,0.013709,-0.420978,-0.190763,-0.150379,-0.417365,0.356543,0.156887,-0.017047,35.754436,19.961349,9.997129,0.166105,1.721298,0.081344,0.000000,0.000000,0.000000,0.000000,0.000000,0.000000
15847830.000000,2.301586,-1.075240,-1.889264,-1.482171,-1.037144,1.806600,0.501903,0.012545,-0.421734,-0.187129,-0.153108,-0.415615,0.354652,0.153937,0.030561,35.877422,19.985153,9.949522,0.135892,1.649886,0.120712,0.000000,0.000000,0.000000,0.000000,0.000000,0.000000
15847831.000000,2.301604,-1.075665,-1.889456,-1.482327,-1.037559,1.806952,0.502061,0.015686,-0.423942,-0.190042,-0.149334,-0.411391,0.351259,0.154010,0.054365,35.925030,20.060532,9.921751,0.154203,1.630660,0.094161,0.000000,0.000000,0.000000,0.000000,0.000000,0.000000
15847832.000000,2.301625,-1.076101,-1.889657,-1.482484,-1.037977,1.807302,0.502221,0.019067,-0.425082,-0.192613,-0.152259,-0.416747,0.349561,0.154234,0.030561,36.000408,20.207321,9.874144,0.154203,1.682845,0.061202,0.000000,0.000000,0.000000,0.000000,0.000000,0.000000
15847833.000000,2.301637,-1.076530,-1.889842,-1.482628,-1.038395,1.807649,0.502364,0.018530,-0.427670,-0.188868,-0.150270,-0.412711,0.346404,0.146906,0.129743,36.095623,20.159714,9.751158,0.183500,1.702071,0.140853,0.000000,0.000000,0.000000,0.000000,0.000000,0.000000
15847834.000000,2.301652,-1.076968,-1.890038,-1.482783,-1.038809,1.807997,0.502526,0.016696,-0.429188,-0.192233,-0.151814,-0.407617,0.343271,0.150066,0.153547,36.171001,20.254929,9.798765,0.189908,1.714889,0.087753,0.000000,0.000000,0.000000,0.000000,0.000000,0.000000
15847835.000000,2.301672,-1.077413,-1.890235,-1.482931,-1.039225,1.808342,0.502683,0.016594,-0.436450,-0.194321,-0.152241,-0.414011,0.355370,0.149222,0.129743,36.389202,20.401718,9.798765,0.195402,1.695663,0.120712,0.000000,0.000000,0.000000,0.000000,0.000000,0.000000
15847836.000000,2.301684,-1.077852,-1.890434,-1.483082,-1.039647,1.808694,0.502843,0.016620,-0.438214,-0.195377,-0.147834,-0.413202,0.351544,0.151283,0.228925,36.587566,20.477097,9.751158,0.183500,1.689254,0.081344,0.000000,0.000000,0.000000,0.000000,0.000000,0.000000
15847837.000000,2.301707,-1.078279,-1.890639,-1.483235,-1.040058,1.809044,0.502996,0.020379,-0.434098,-0.198732,-0.149540,-0.407178,0.351578,0.146393,0.177350,36.587566,20.623886,9.774961,0.147794,1.689254,0.094161,0.000000,0.000000,0.000000,0.000000,0.000000,0.000000
15847838.000000,2.301735,-1.078702,-1.890846,-1.483385,-1.040475,1.809388,0.503149,0.021539,-0.435586,-0.204428,-0.150580,-0.413779,0.349450,0.151284,0.054365,36.587566,20.770676,9.798765,0.147794,1.662704,0.094161,0.000000,0.000000,0.000000,0.000000,0.000000,0.000000
15847839.000000,2.301747,-1.079139,-1.891055,-1.483530,-1.040899,1.809731,0.503304,0.019986,-0.439910,-0.206444,-0.149547,-0.414395,0.345075,0.155175,0.153547,36.611370,20.869858,9.727354,0.183500,1.695663,0.114303,0.000000,0.000000,0.000000,0.000000,0.000000,0.000000
15847840.000000,2.301771,-1.079566,-1.891260,-1.483684,-1.041310,1.810065,0.503458,0.023610,-0.434452,-0.203385,-0.149064,-0.421058,0.338154,0.153968,0.078168,36.535992,20.945236,9.822569,0.178007,1.800033,0.114303,0.000000,0.000000,0.000000,0.000000,0.000000,0.000000
15847841.000000,2.301793,-1.079988,-1.891468,-1.483838,-1.041738,1.810405,0.503607,0.024056,-0.432964,-0.205431,-0.151660,-0.424927,0.334328,0.153879,0.078168,36.416973,21.016647,9.921751,0.201810,1.786300,0.100570,0.000000,0.000000,0.000000,0.000000,0.000000,0.000000
15847842.000000,2.301811,-1.080421,-1.891677,-1.483988,-1.042167,1.810747,0.503764,0.023706,-0.431027,-0.208308,-0.151049,-0.424241,0.335285,0.152457,0.105939,36.389202,21.115829,9.921751,0.261320,1.773483,0.114303,0.000000,0.000000,0.000000,0.000000,0.000000,0.000000
15847843.000000,2.301830,-1.080859,-1.891883,-1.484140,-1.042578,1.811086,0.503926,0.020820,-0.432712,-0.204532,-0.153488,-0.420974,0.335396,0.153644,0.105939,36.317791,21.187241,10.020933,0.249418,1.806442,0.074935,0.000000,0.000000,0.000000,0.000000,0.000000,0.000000
15847844.000000,2.301850,-1.081284,-1.892092,-1.484290,-1.043004,1.811425,0.504081,0.018124,-0.426272,-0.208944,-0.153841,-0.425813,0.334439,0.152943,0.129743,36.218609,21.262619,10.072508,0.195402,1.858627,0.074935,0.000000,0.000000,0.000000,0.000000,0.000000,0.000000
15847845.000000,2.301873,-1.081722,-1.892302,-1.484436,-1.043435,1.811764,0.504231,0.020692,-0.425976,-0.204317,-0.149560,-0.427762,0.327641,0.150920,0.105939,36.194805,21.310226,10.048704,0.195402,1.884261,0.107894,0.000000,0.000000,0.000000,0.000000,0.000000,0.000000
15847846.000000,2.301899,-1.082150,-1.892521,-1.484580,-1.043855,1.812103,0.504388,0.022821,-0.426653,-0.209055,-0.149306,-0.428271,0.330058,0.147298,0.054365,36.194805,21.484787,10.020933,0.171598,1.903487,0.081344,0.000000,0.000000,0.000000,0.000000,0.000000,0.000000
15847847.000000,2.301913,-1.082587,-1.892736,-1.484732,-1.044286,1.812446,0.504539,0.017420,-0.426298,-0.209881,-0.147280,-0.427544,0.332143,0.146620,0.177350,36.147198,21.556198,10.048704,0.141385,1.903487,0.127120,0.000000,0.000000,0.000000,0.000000,0.000000,0.000000
15847848.000000,2.301932,-1.083022,-1.892944,-1.484887,-1.044717,1.812785,0.504699,0.018101,-0.429563,-0.207390,-0.148500,-0.426019,0.334363,0.154163,0.228925,36.123394,21.556198,10.195494,0.183500,1.897079,0.081344,0.000000,0.000000,0.000000,0.000000,0.000000,0.000000
15847849.000000,2.301949,-1.083456,-1.893161,-1.485041,-1.045139,1.813124,0.504846,0.019065,-0.431961,-0.208863,-0.150681,-0.423849,0.331453,0.147332,0.276533,36.095623,21.655380,10.270872,0.207303,1.877853,0.114303,0.000000,0.000000,0.000000,0.000000,0.000000,0.000000
15847850.000000,2.301963,-1.083895,-1.893367,-1.485193,-1.045583,1.813474,0.505003,0.018666,-0.433854,-0.206852,-0.151061,-0.428443,0.332161,0.148551,0.375715,36.095623,21.679184,10.294676,0.267728,1.865035,0.100570,0.000000,0.000000,0.000000,0.000000,0.000000,0.000000
15847851.000000,2.301978,-1.084317,-1.893571,-1.485335,-1.046019,1.813809,0.505156,0.015296,-0.431458,-0.209375,-0.150693,-0.425490,0.332048,0.148756,0.474897,35.901226,21.631577,10.270872,0.285123,1.909896,0.114303,0.000000,0.000000,0.000000,0.000000,0.000000,0.000000
15847852.000000,2.301999,-1.084750,-1.893783,-1.485492,-1.046451,1.814146,0.505313,0.014960,-0.432039,-0.213032,-0.151965,-0.429691,0.327282,0.149566,0.474897,35.802044,21.679184,10.342283,0.255826,1.942855,0.107894,0.000000,0.000000,0.000000,0.000000,0.000000,0.000000
15847853.000000,2.302011,-1.085185,-1.893986,-1.485637,-1.046881,1.814480,0.505473,0.015739,-0.432503,-0.205496,-0.150963,-0.428779,0.336766,0.150754,0.574079,35.706829,21.631577,10.294676,0.207303,1.968490,0.087753,0.000000,0.000000,0.000000,0.000000,0.000000,0.000000
15847854.000000,2.302025,-1.085621,-1.894194,-1.485787,-1.047313,1.814817,0.505626,0.013738,-0.435041,-0.208083,-0.147745,-0.428865,0.333248,0.150058,0.649457,35.706829,21.607773,10.294676,0.171598,1.955673,0.107894,0.000000,0.000000,0.000000,0.000000,0.000000,0.000000
15847855.000000,2.302038,-1.086061,-1.894398,-1.485933,-1.047751,1.815159,0.505786,0.011114,-0.434244,-0.208323,-0.148185,-0.435190,0.329683,0.151855,0.772443,35.754436,21.607773,10.270872,0.183500,1.903487,0.074935,0.000000,0.000000,0.000000,0.000000,0.000000,0.000000
