chaoyuefei/paper-gmrm-data/robot_logs/s2_dq_gmrm_xz_max_0.50_log_20260314_175036.csv
# time_ms,q_0,q_1,q_2,q_3,q_4,q_5,q_6,dq_0,dq_1,dq_2,dq_3,dq_4,dq_5,dq_6,tau_J_0,tau_J_1,tau_J_2,tau_J_3,tau_J_4,tau_J_5,tau_J_6,O_dP_EE_c_0,O_dP_EE_c_1,O_dP_EE_c_2,O_dP_EE_c_3,O_dP_EE_c_4,O_dP_EE_c_5
13298125.000000,-0.258944,0.525645,0.336271,-1.429351,-0.177853,1.925877,0.097039,0.000438,0.000122,-0.000292,-0.000418,-0.000645,0.000046,-0.000355,-0.068621,-39.048725,4.647629,19.538450,0.996488,1.312057,-0.136552,0.000000,0.000000,0.000000,0.000000,0.000000,0.000000
13298126.000000,-0.258948,0.525646,0.336271,-1.429347,-0.177850,1.925878,0.097044,-0.000914,0.000082,-0.000195,0.000278,0.000011,0.000268,0.001222,-0.017047,-39.048725,4.647629,19.514647,0.984586,1.305648,-0.175919,0.000000,0.000000,0.000000,0.000000,0.000000,0.000000
13298127.000000,-0.258948,0.525640,0.336269,-1.429347,-0.177855,1.925876,0.097041,-0.000610,-0.001059,-0.000130,0.000742,-0.000433,-0.000533,-0.000169,-0.017047,-39.001118,4.647629,19.490843,0.996488,1.324874,-0.149369,0.000000,0.000000,0.000000,0.000000,0.000000,0.000000
13298128.000000,-0.258948,0.525643,0.336268,-1.429349,-0.177851,1.925877,0.097041,0.000243,-0.000149,-0.000087,-0.000062,0.000152,0.000119,-0.000113,-0.044818,-39.024921,4.647629,19.514647,0.984586,1.312057,-0.149369,0.000000,0.000000,0.000000,0.000000,0.000000,0.000000
13298129.000000,-0.258967,0.525643,0.336267,-1.429351,-0.177851,1.925876,0.097044,-0.016455,0.011353,-0.012755,-0.006026,-0.001637,0.000554,0.004683,-0.540728,-38.437763,3.985092,19.240904,0.906766,1.299239,-0.149369,0.000000,0.000000,0.000000,0.000000,0.000000,0.000000
13298130.000000,-0.258997,0.525637,0.336249,-1.429357,-0.177833,1.925871,0.097055,-0.039900,0.019820,-0.031904,-0.013418,0.002544,-0.003329,0.006297,-2.619586,-36.331135,1.922104,18.253050,0.542386,1.272689,-0.097184,0.000000,0.000000,0.000000,0.000000,0.000000,0.000000
13298131.000000,-0.259022,0.525658,0.336164,-1.429379,-0.177813,1.925865,0.097084,-0.034147,0.025411,-0.048063,-0.023940,0.013399,-0.002610,0.018236,-6.257586,-33.200947,-0.851029,16.598692,0.069974,1.272689,-0.077042,0.000000,0.000000,0.000000,0.000000,0.000000,0.000000
13298132.000000,-0.259067,0.525716,0.336033,-1.429406,-0.177828,1.925865,0.097136,-0.018880,0.024996,-0.063864,-0.022840,0.008070,-0.003728,0.029951,-9.673419,-29.820820,-3.405960,14.075499,-0.067355,1.318465,-0.130143,0.000000,0.000000,0.000000,0.000000,0.000000,0.000000
13298133.000000,-0.259150,0.525794,0.335888,-1.429464,-0.177890,1.925862,0.097181,-0.016173,0.029218,-0.070422,-0.032601,-0.013960,-0.002347,0.038622,-11.629291,-26.762043,-5.318192,11.627684,0.166105,1.442062,-0.056901,0.000000,0.000000,0.000000,0.000000,0.000000,0.000000
13298134.000000,-0.259236,0.525886,0.335765,-1.429566,-0.177963,1.925919,0.097241,-0.023015,0.042348,-0.070178,-0.047512,-0.035168,0.019424,0.043202,-12.248187,-24.191242,-6.373489,9.628172,0.434354,1.136276,-0.056901,0.000000,0.000000,0.000000,0.000000,0.000000,0.000000
13298135.000000,-0.259298,0.525978,0.335663,-1.429682,-0.178052,1.926067,0.097296,-0.031083,0.049796,-0.070806,-0.063583,-0.053472,0.063408,0.048505,-12.073627,-21.937824,-6.397293,7.700072,0.667814,0.186874,0.021835,0.000000,0.000000,0.000000,0.000000,0.000000,0.000000
13298136.000000,-0.259344,0.526080,0.335606,-1.429793,-0.178153,1.926245,0.097368,-0.038534,0.062563,-0.057396,-0.074732,-0.072511,0.109049,0.051635,-11.284137,-20.251728,-6.079910,5.843382,0.811552,-0.795487,0.001693,0.000000,0.000000,0.000000,0.000000,0.000000,0.000000
13298137.000000,-0.259393,0.526186,0.335582,-1.429903,-0.178223,1.926388,0.097438,-0.046429,0.072514,-0.046669,-0.084221,-0.074793,0.124104,0.056238,-9.970965,-18.783833,-5.540359,4.165221,0.500272,-1.068314,0.041976,0.000000,0.000000,0.000000,0.000000,0.000000,0.000000
13298138.000000,-0.259410,0.526285,0.335577,-1.430011,-0.178296,1.926503,0.097523,-0.043866,0.081648,-0.033498,-0.089966,-0.068670,0.129658,0.064485,-8.879962,-17.311970,-4.854019,2.705260,0.069974,-0.671891,-0.044083,0.000000,0.000000,0.000000,0.000000,0.000000,0.000000
13298139.000000,-0.259415,0.526371,0.335586,-1.430129,-0.178393,1.926634,0.097617,-0.034373,0.081390,-0.023292,-0.101047,-0.075014,0.125900,0.074054,-7.915911,-15.844074,-4.116104,1.570616,-0.228488,-0.085954,-0.110001,0.000000,0.000000,0.000000,0.000000,0.000000,0.000000
13298140.000000,-0.259431,0.526425,0.335584,-1.430274,-0.178484,1.926813,0.097699,-0.034416,0.070867,-0.021821,-0.112407,-0.079617,0.137367,0.076495,-6.852679,-14.106403,-3.183792,1.023131,-0.545260,0.304061,-0.044083,0.000000,0.000000,0.000000,0.000000,0.000000,0.000000
13298141.000000,-0.259457,0.526442,0.335573,-1.430466,-0.178594,1.927056,0.097807,-0.036014,0.056857,-0.024374,-0.139726,-0.084969,0.168130,0.084810,-5.686297,-11.999775,-2.176102,1.344481,-0.682589,0.251876,-0.142960,0.000000,0.000000,0.000000,0.000000,0.000000,0.000000
13298142.000000,-0.259491,0.526466,0.335543,-1.430691,-0.178745,1.927334,0.097899,-0.036920,0.045975,-0.030731,-0.167767,-0.109630,0.199243,0.084473,-4.500079,-10.067707,-1.073197,2.114134,-0.389620,0.069686,-0.077042,0.000000,0.000000,0.000000,0.000000,0.000000,0.000000
13298143.000000,-0.259535,0.526495,0.335504,-1.430917,-0.178919,1.927610,0.097997,-0.040342,0.042972,-0.036682,-0.189167,-0.131604,0.221021,0.090953,-3.309893,-8.353840,-0.017899,2.756834,0.040677,0.174056,-0.056901,0.000000,0.000000,0.000000,0.000000,0.000000,0.000000
13298144.000000,-0.259597,0.526549,0.335465,-1.431139,-0.179108,1.927895,0.098102,-0.047808,0.050075,-0.038736,-0.200958,-0.151563,0.238192,0.095936,-2.024493,-7.179523,0.819198,3.149595,0.476469,0.401107,-0.044083,0.000000,0.000000,0.000000,0.000000,0.000000,0.000000
13298145.000000,-0.259663,0.526636,0.335436,-1.431367,-0.179279,1.928210,0.098202,-0.056400,0.063387,-0.035337,-0.208365,-0.160104,0.258942,0.099163,-0.862078,-6.544758,1.307175,3.399534,0.637601,0.532027,0.009017,0.000000,0.000000,0.000000,0.000000,0.000000,0.000000
13298146.000000,-0.259712,0.526740,0.335420,-1.431595,-0.179421,1.928547,0.098320,-0.053606,0.078503,-0.028144,-0.212688,-0.154584,0.283991,0.104884,-0.092425,-6.199604,1.430160,3.494749,0.482877,0.564071,-0.044083,0.000000,0.000000,0.000000,0.000000,0.000000,0.000000
13298147.000000,-0.259744,0.526869,0.335404,-1.431825,-0.179537,1.928929,0.098436,-0.044077,0.098052,-0.020522,-0.217466,-0.141579,0.311540,0.106407,0.328107,-6.151997,1.406357,3.324156,0.069974,0.479842,-0.031266,0.000000,0.000000,0.000000,0.000000,0.000000,0.000000
13298148.000000,-0.259776,0.527004,0.335389,-1.432069,-0.179650,1.929332,0.098553,-0.038347,0.110107,-0.015394,-0.223605,-0.128144,0.344050,0.109616,0.625654,-6.076618,1.358749,3.101988,-0.377719,0.440475,-0.070634,0.000000,0.000000,0.000000,0.000000,0.000000,0.000000
13298149.000000,-0.259808,0.527144,0.335366,-1.432308,-0.179781,1.929739,0.098665,-0.036462,0.121417,-0.015604,-0.225992,-0.127251,0.359607,0.109592,0.847822,-6.005207,1.453964,2.756834,-0.604769,0.505477,-0.050492,0.000000,0.000000,0.000000,0.000000,0.000000,0.000000
13298150.000000,-0.259851,0.527273,0.335342,-1.432577,-0.179930,1.930166,0.098784,-0.036164,0.125472,-0.016157,-0.237826,-0.131827,0.381142,0.115441,1.216779,-5.636250,1.553146,2.582274,-0.569064,0.662032,-0.056901,0.000000,0.000000,0.000000,0.000000,0.000000,0.000000
13298151.000000,-0.259893,0.527391,0.335309,-1.432880,-0.180113,1.930622,0.098903,-0.036277,0.122011,-0.023266,-0.257692,-0.149562,0.404031,0.118577,1.589704,-5.124470,1.799118,2.705260,-0.246798,0.681258,-0.056901,0.000000,0.000000,0.000000,0.000000,0.000000,0.000000
13298152.000000,-0.259928,0.527491,0.335270,-1.433190,-0.180310,1.931123,0.099024,-0.036699,0.113336,-0.028946,-0.273733,-0.163989,0.438406,0.116323,1.835676,-4.338947,2.068893,2.903624,0.135892,0.486251,-0.037675,0.000000,0.000000,0.000000,0.000000,0.000000,0.000000
13298153.000000,-0.259959,0.527596,0.335239,-1.433527,-0.180500,1.931666,0.099144,-0.032622,0.112416,-0.029065,-0.292566,-0.170341,0.468593,0.115605,2.010236,-3.509785,2.168075,3.173399,0.428861,0.258285,-0.004716,0.000000,0.000000,0.000000,0.000000,0.000000,0.000000
13298154.000000,-0.259991,0.527712,0.335221,-1.433846,-0.180674,1.932208,0.099262,-0.031819,0.113497,-0.027329,-0.301400,-0.170529,0.486869,0.113990,2.133222,-2.847248,2.045089,3.078184,0.494779,0.154830,0.028243,0.000000,0.000000,0.000000,0.000000,0.000000,0.000000
13298155.000000,-0.260012,0.527850,0.335211,-1.434177,-0.180822,1.932762,0.099390,-0.028176,0.120046,-0.020034,-0.312757,-0.161557,0.499585,0.121463,2.109418,-2.430683,1.775314,2.903624,0.291532,0.291244,-0.044083,0.000000,0.000000,0.000000,0.000000,0.000000,0.000000
13298156.000000,-0.260022,0.527999,0.335203,-1.434494,-0.180964,1.933299,0.099508,-0.022395,0.129123,-0.014690,-0.312045,-0.151920,0.519396,0.123581,1.934858,-2.212483,1.481735,2.308531,-0.013339,0.622665,-0.031266,0.000000,0.000000,0.000000,0.000000,0.000000,0.000000
13298157.000000,-0.260026,0.528170,0.335192,-1.434819,-0.181094,1.933868,0.099632,-0.016353,0.144245,-0.012193,-0.317624,-0.138190,0.535553,0.126256,1.665082,-2.236286,1.235763,1.792784,-0.401522,0.928451,-0.037675,0.000000,0.000000,0.000000,0.000000,0.000000,0.000000
13298158.000000,-0.260041,0.528350,0.335173,-1.435155,-0.181233,1.934498,0.099753,-0.013422,0.154982,-0.012984,-0.321858,-0.138568,0.554448,0.123026,1.565900,-2.160908,1.088974,1.296873,-0.653292,0.778304,-0.037675,0.000000,0.000000,0.000000,0.000000,0.000000,0.000000
13298159.000000,-0.260060,0.528541,0.335151,-1.435505,-0.181398,1.935154,0.099866,-0.013052,0.169975,-0.012595,-0.328410,-0.143802,0.584383,0.119150,1.542096,-2.160908,1.037399,1.023131,-0.641390,0.453292,0.001693,0.000000,0.000000,0.000000,0.000000,0.000000,0.000000
13298160.000000,-0.260081,0.528743,0.335128,-1.435862,-0.181585,1.935822,0.099986,-0.016991,0.179959,-0.012208,-0.333764,-0.155736,0.607723,0.122984,1.565900,-2.212483,0.989792,0.630369,-0.401522,0.186874,-0.011124,0.000000,0.000000,0.000000,0.000000,0.000000,0.000000
13298161.000000,-0.260099,0.528961,0.335101,-1.436221,-0.181784,1.936514,0.100101,-0.018606,0.190165,-0.016560,-0.337110,-0.172702,0.629605,0.118943,1.542096,-2.406880,1.013595,0.233641,-0.043551,0.044051,0.034652,0.000000,0.000000,0.000000,0.000000,0.000000,0.000000
13298162.000000,-0.260111,0.529190,0.335080,-1.436580,-0.181972,1.937211,0.100222,-0.018099,0.203875,-0.017299,-0.342116,-0.175435,0.653243,0.118214,1.442914,-2.601277,0.942184,-0.210695,0.201810,-0.033768,0.015426,0.000000,0.000000,0.000000,0.000000,0.000000,0.000000
13298163.000000,-0.260119,0.529428,0.335063,-1.436946,-0.182143,1.937948,0.100343,-0.017206,0.214860,-0.015952,-0.345076,-0.173103,0.676777,0.117032,1.315961,-2.724262,0.791427,-0.678835,0.213712,-0.171098,0.009017,0.000000,0.000000,0.000000,0.000000,0.000000,0.000000
13298166.000000,-0.260102,0.530145,0.335005,-1.438150,-0.182587,1.940231,0.100688,-0.000365,0.230420,-0.018903,-0.381499,-0.152214,0.731598,0.117656,0.451093,-2.454487,0.450241,-1.273927,-0.557162,-0.001725,0.028243,0.000000,0.000000,0.000000,0.000000,0.000000,0.000000
13298167.000000,-0.260111,0.530399,0.334976,-1.438559,-0.182758,1.941006,0.100808,-0.001525,0.233886,-0.021544,-0.386924,-0.156024,0.750048,0.118067,0.451093,-2.359272,0.474045,-1.472292,-0.604769,0.186874,-0.011124,0.000000,0.000000,0.000000,0.000000,0.000000,0.000000
13298168.000000,-0.260131,0.530657,0.334945,-1.439014,-0.182934,1.941827,0.100920,-0.004855,0.241691,-0.023919,-0.403764,-0.159927,0.763673,0.111127,0.574079,-2.212483,0.521652,-1.349306,-0.497653,0.219833,0.015426,0.000000,0.000000,0.000000,0.000000,0.000000,0.000000
13298169.000000,-0.260154,0.530926,0.334913,-1.439486,-0.183122,1.942667,0.101031,-0.007485,0.250717,-0.026106,-0.426201,-0.169959,0.798822,0.106096,0.724836,-2.061726,0.597031,-1.075563,-0.300814,0.115462,0.054794,0.000000,0.000000,0.000000,0.000000,0.000000,0.000000
13298170.000000,-0.260180,0.531217,0.334883,-1.439967,-0.183306,1.943551,0.101146,-0.012652,0.258442,-0.028843,-0.442086,-0.171341,0.830624,0.109118,0.895429,-2.212483,0.597031,-0.805788,-0.126864,-0.125321,0.021835,0.000000,0.000000,0.000000,0.000000,0.000000,0.000000
13298171.000000,-0.260203,0.531521,0.334851,-1.440462,-0.183480,1.944457,0.101257,-0.014549,0.274144,-0.030462,-0.459765,-0.172702,0.846817,0.109195,0.994611,-2.430683,0.573227,-0.631227,-0.060946,-0.326737,0.048385,0.000000,0.000000,0.000000,0.000000,0.000000,0.000000
13298172.000000,-0.260226,0.531846,0.334813,-1.440949,-0.183646,1.945348,0.101372,-0.018478,0.289624,-0.030279,-0.465957,-0.169613,0.859212,0.110342,1.069990,-2.799641,0.620834,-0.655031,-0.097567,-0.287370,0.048385,0.000000,0.000000,0.000000,0.000000,0.000000,0.000000
13298173.000000,-0.260246,0.532183,0.334783,-1.441468,-0.183807,1.946253,0.101491,-0.020879,0.305564,-0.030408,-0.479141,-0.169497,0.867010,0.111645,1.121564,-3.240010,0.549423,-0.583620,-0.222994,-0.112504,0.034652,0.000000,0.000000,0.000000,0.000000,0.000000,0.000000
13298174.000000,-0.260262,0.532525,0.334743,-1.441999,-0.183970,1.947175,0.101606,-0.018926,0.314283,-0.034018,-0.492537,-0.168755,0.890903,0.111520,1.145368,-3.581196,0.620834,-0.655031,-0.377719,0.031234,0.048385,0.000000,0.000000,0.000000,0.000000,0.000000,0.000000
13298175.000000,-0.260282,0.532862,0.334702,-1.442560,-0.184139,1.948127,0.101726,-0.018622,0.319564,-0.035873,-0.515508,-0.166800,0.904858,0.113348,1.216779,-3.727986,0.668442,-0.456667,-0.455538,0.031234,0.009017,0.000000,0.000000,0.000000,0.000000,0.000000,0.000000
13298176.000000,-0.260317,0.533190,0.334657,-1.443144,-0.184309,1.949121,0.101835,-0.023712,0.323539,-0.038515,-0.534120,-0.162915,0.926011,0.112368,1.514325,-3.628803,0.767624,-0.262270,-0.473849,-0.047501,0.034652,0.000000,0.000000,0.000000,0.000000,0.000000,0.000000
13298177.000000,-0.260349,0.533533,0.334609,-1.443748,-0.184485,1.950112,0.101950,-0.029630,0.338884,-0.044558,-0.562593,-0.167359,0.943127,0.111892,1.788068,-3.557392,0.914413,0.086851,-0.407931,-0.112504,0.054794,0.000000,0.000000,0.000000,0.000000,0.000000,0.000000
13298178.000000,-0.260389,0.533879,0.334558,-1.444370,-0.184670,1.951116,0.102071,-0.031832,0.338984,-0.048345,-0.578111,-0.174853,0.957697,0.114275,2.109418,-3.434407,1.037399,0.356627,-0.228488,-0.020951,0.001693,0.000000,0.000000,0.000000,0.000000,0.000000,0.000000
13298179.000000,-0.260432,0.534240,0.334500,-1.445012,-0.184852,1.952141,0.102174,-0.039456,0.346358,-0.053479,-0.594869,-0.176289,0.976099,0.110750,2.430768,-3.359028,1.259567,0.606566,-0.145175,0.161239,0.087753,0.000000,0.000000,0.000000,0.000000,0.000000,0.000000
13298180.000000,-0.260473,0.534604,0.334449,-1.445653,-0.185027,1.953176,0.102292,-0.040780,0.354500,-0.053415,-0.609970,-0.177284,0.997592,0.112882,2.704511,-3.359028,1.330978,0.677977,-0.187289,0.161239,0.048385,0.000000,0.000000,0.000000,0.000000,0.000000,0.000000
13298181.000000,-0.260508,0.534976,0.334390,-1.446319,-0.185197,1.954243,0.102406,-0.039393,0.355717,-0.055709,-0.625703,-0.171708,1.014802,0.114018,2.879072,-3.434407,1.505539,0.828734,-0.282504,0.050460,0.028243,0.000000,0.000000,0.000000,0.000000,0.000000,0.000000
13298182.000000,-0.260543,0.535368,0.334341,-1.446979,-0.185367,1.955286,0.102520,-0.040428,0.355080,-0.055855,-0.643646,-0.167995,1.021388,0.118470,3.002058,-4.243732,1.604721,1.221495,-0.365817,0.037643,0.028243,0.000000,0.000000,0.000000,0.000000,0.000000,0.000000
13298183.000000,-0.260578,0.535758,0.334294,-1.447641,-0.185536,1.956367,0.102639,-0.039718,0.360140,-0.050187,-0.640558,-0.168184,1.035414,0.117201,3.049665,-5.906025,1.723740,1.987181,-0.384127,0.023910,0.021835,0.000000,0.000000,0.000000,0.000000,0.000000,0.000000
13298184.000000,-0.260627,0.536149,0.334240,-1.448300,-0.185706,1.957448,0.102748,-0.041879,0.367913,-0.052134,-0.638047,-0.170153,1.041782,0.114009,3.200422,-8.135639,1.969711,3.324156,-0.348422,0.115462,0.081344,0.000000,0.000000,0.000000,0.000000,0.000000,0.000000
13298185.000000,-0.260679,0.536517,0.334187,-1.448940,-0.185886,1.958523,0.102871,-0.042272,0.370850,-0.053257,-0.637375,-0.171828,1.055486,0.110596,3.299604,-10.484272,2.215683,5.053893,-0.174471,0.245467,0.041976,0.000000,0.000000,0.000000,0.000000,0.000000,0.000000
13298186.000000,-0.260719,0.536873,0.334120,-1.449584,-0.186069,1.959612,0.102985,-0.041235,0.369212,-0.058020,-0.638165,-0.174152,1.058593,0.109268,3.200422,-12.761494,2.632248,7.081175,0.040677,0.381881,0.094161,0.000000,0.000000,0.000000,0.000000,0.000000,0.000000
13298187.000000,-0.260754,0.537210,0.334060,-1.450226,-0.186248,1.960660,0.103102,-0.035846,0.364770,-0.058925,-0.643138,-0.175616,1.077964,0.114295,3.025861,-14.816547,2.953598,9.207640,0.141385,0.706893,0.087753,0.000000,0.000000,0.000000,0.000000,0.000000,0.000000
13298188.000000,-0.260788,0.537546,0.334008,-1.450852,-0.186428,1.961721,0.103223,-0.035234,0.362616,-0.054210,-0.639804,-0.178804,1.071169,0.114749,2.851301,-16.677204,3.052780,11.234922,0.166105,1.052047,0.067611,0.000000,0.000000,0.000000,0.000000,0.000000,0.000000
13298189.000000,-0.260811,0.537901,0.333946,-1.451477,-0.186604,1.962796,0.103337,-0.031335,0.363164,-0.053875,-0.638317,-0.180030,1.073216,0.114902,2.506147,-18.514057,3.270981,12.841673,0.147794,1.207687,0.087753,0.000000,0.000000,0.000000,0.000000,0.000000,0.000000
13298190.000000,-0.260833,0.538261,0.333882,-1.452087,-0.186775,1.963832,0.103462,-0.027488,0.366231,-0.056361,-0.638937,-0.174708,1.055944,0.116862,2.232404,-20.299335,3.469345,14.075499,0.093778,1.487838,0.028243,0.000000,0.000000,0.000000,0.000000,0.000000,0.000000
13298191.000000,-0.260850,0.538627,0.333819,-1.452704,-0.186943,1.964863,0.103581,-0.023718,0.367884,-0.056482,-0.630676,-0.176223,1.035976,0.115610,1.911054,-21.914021,3.592331,15.015745,0.040677,1.793624,0.034652,0.000000,0.000000,0.000000,0.000000,0.000000,0.000000
13298192.000000,-0.260864,0.539023,0.333754,-1.453332,-0.187121,1.965923,0.103701,-0.021057,0.379732,-0.060427,-0.630026,-0.174035,1.038862,0.115214,1.589704,-23.580280,3.739120,15.757627,0.022367,1.812850,0.028243,0.000000,0.000000,0.000000,0.000000,0.000000,0.000000
13298193.000000,-0.260878,0.539420,0.333680,-1.453932,-0.187309,1.966958,0.103824,-0.017251,0.383269,-0.061836,-0.623965,-0.180357,1.033155,0.114862,1.315961,-25.123554,3.957321,16.055174,0.088285,1.773483,0.028243,0.000000,0.000000,0.000000,0.000000,0.000000,0.000000
13298194.000000,-0.260891,0.539837,0.333601,-1.454529,-0.187500,1.968010,0.103948,-0.015043,0.394404,-0.066967,-0.613575,-0.185335,1.034407,0.114213,1.069990,-26.639057,4.227097,16.102781,0.166105,1.611434,0.034652,0.000000,0.000000,0.000000,0.000000,0.000000,0.000000
13298195.000000,-0.260906,0.540274,0.333519,-1.455126,-0.187704,1.969039,0.104070,-0.014950,0.406280,-0.069872,-0.606876,-0.188466,1.040352,0.117930,0.895429,-28.130756,4.449265,16.078978,0.249418,1.494247,0.054794,0.000000,0.000000,0.000000,0.000000,0.000000,0.000000
13298196.000000,-0.260910,0.540718,0.333443,-1.455740,-0.187910,1.970069,0.104191,-0.013097,0.415404,-0.069121,-0.604842,-0.192611,1.032735,0.120258,0.649457,-29.479633,4.548447,16.126585,0.369352,1.429244,0.087753,0.000000,0.000000,0.000000,0.000000,0.000000,0.000000
13298197.000000,-0.260906,0.541173,0.333366,-1.456351,-0.188109,1.971102,0.104318,-0.009412,0.425274,-0.068898,-0.605408,-0.197046,1.024068,0.119681,0.304304,-30.701557,4.647629,16.102781,0.405057,1.435653,0.061202,0.000000,0.000000,0.000000,0.000000,0.000000,0.000000
13298198.000000,-0.260899,0.541622,0.333297,-1.456945,-0.188307,1.972132,0.104439,-0.000490,0.430117,-0.068236,-0.599022,-0.197650,1.025859,0.121411,-0.044818,-31.756855,4.596054,16.003599,0.362943,1.370651,0.094161,0.000000,0.000000,0.000000,0.000000,0.000000,0.000000
13298199.000000,-0.260889,0.542080,0.333226,-1.457562,-0.188492,1.973166,0.104572,0.002830,0.438155,-0.069578,-0.599755,-0.191887,1.024062,0.125943,-0.389971,-32.586018,4.596054,16.055174,0.267728,1.429244,0.048385,0.000000,0.000000,0.000000,0.000000,0.000000,0.000000
13298200.000000,-0.260870,0.542537,0.333164,-1.458172,-0.188686,1.974173,0.104695,0.009566,0.440617,-0.067863,-0.613693,-0.193025,1.019324,0.122780,-0.786700,-33.347736,4.473068,16.126585,0.195402,1.526290,0.048385,0.000000,0.000000,0.000000,0.000000,0.000000,0.000000
13298201.000000,-0.260847,0.543000,0.333093,-1.458798,-0.188885,1.975188,0.104817,0.015571,0.449862,-0.065967,-0.616229,-0.195090,1.016220,0.119789,-1.231036,-34.129292,4.449265,16.348753,0.141385,1.630660,0.061202,0.000000,0.000000,0.000000,0.000000,0.000000,0.000000
13298202.000000,-0.260835,0.543470,0.333026,-1.459416,-0.189090,1.976209,0.104943,0.014677,0.455933,-0.067276,-0.610748,-0.199273,1.011692,0.124323,-1.453204,-34.887043,4.401657,16.447935,0.159696,1.676437,0.021835,0.000000,0.000000,0.000000,0.000000,0.000000,0.000000
13298203.000000,-0.260827,0.543948,0.332951,-1.460045,-0.189298,1.977218,0.105064,0.013193,0.464445,-0.066760,-0.618590,-0.199770,1.007074,0.124137,-1.627764,-35.620991,4.425461,16.745481,0.243009,1.630660,0.074935,0.000000,0.000000,0.000000,0.000000,0.000000,0.000000
13298204.000000,-0.260826,0.544437,0.332890,-1.460680,-0.189501,1.978248,0.105194,0.008846,0.469452,-0.062400,-0.622292,-0.200004,1.010150,0.121967,-1.651568,-36.430317,4.278671,17.019224,0.327238,1.578475,0.061202,0.000000,0.000000,0.000000,0.000000,0.000000,0.000000
13298205.000000,-0.260816,0.544943,0.332834,-1.461324,-0.189705,1.979248,0.105317,0.008487,0.481109,-0.059410,-0.629223,-0.204049,1.019456,0.119081,-1.778521,-37.311054,4.131882,17.289000,0.398649,1.611434,0.081344,0.000000,0.000000,0.000000,0.000000,0.000000,0.000000
13298206.000000,-0.260815,0.545462,0.332778,-1.461946,-0.189900,1.980265,0.105448,0.004723,0.498331,-0.056534,-0.624167,-0.204430,1.019135,0.122913,-1.750750,-38.413960,3.957321,17.411985,0.393156,1.624252,0.061202,0.000000,0.000000,0.000000,0.000000,0.000000,0.000000
13298207.000000,-0.260813,0.545996,0.332731,-1.462570,-0.190087,1.981295,0.105572,0.001822,0.503390,-0.052496,-0.620203,-0.196180,1.026842,0.119624,-1.703143,-39.393879,3.687546,17.411985,0.279630,1.532699,0.074935,0.000000,0.000000,0.000000,0.000000,0.000000,0.000000
13298208.000000,-0.260805,0.546518,0.332678,-1.463201,-0.190281,1.982298,0.105697,0.001054,0.520566,-0.052065,-0.622295,-0.190827,1.021264,0.122832,-1.703143,-40.199238,3.516952,17.586546,0.189908,1.513473,0.074935,0.000000,0.000000,0.000000,0.000000,0.000000,0.000000
13298209.000000,-0.260796,0.547036,0.332629,-1.463841,-0.190470,1.983325,0.105830,0.001139,0.512966,-0.049165,-0.628486,-0.188379,1.016239,0.127317,-1.726946,-40.810200,3.370163,17.808714,0.129484,1.461288,0.034652,0.000000,0.000000,0.000000,0.000000,0.000000,0.000000
13298210.000000,-0.260796,0.547562,0.332576,-1.464485,-0.190663,1.984350,0.105947,-0.002207,0.516562,-0.049294,-0.634055,-0.193373,1.012644,0.121955,-1.603961,-41.278339,3.322555,18.106260,0.123990,1.454879,0.081344,0.000000,0.000000,0.000000,0.000000,0.000000,0.000000
13298211.000000,-0.260799,0.548083,0.332528,-1.465121,-0.190864,1.985349,0.106073,-0.002464,0.518470,-0.047817,-0.632409,-0.195428,1.010817,0.120475,-1.429400,-41.813923,3.223373,18.399839,0.201810,1.546432,0.061202,0.000000,0.000000,0.000000,0.000000,0.000000,0.000000
13298212.000000,-0.260801,0.548615,0.332476,-1.465771,-0.191057,1.986365,0.106195,-0.001171,0.519091,-0.048839,-0.634718,-0.196316,1.006033,0.125397,-1.306414,-42.329670,3.223373,18.772764,0.267728,1.591293,0.114303,0.000000,0.000000,0.000000,0.000000,0.000000,0.000000
13298213.000000,-0.260812,0.549135,0.332422,-1.466420,-0.191256,1.987361,0.106330,-0.002443,0.516302,-0.052260,-0.641378,-0.196117,1.008288,0.129433,-1.084246,-42.647053,3.199569,19.193296,0.327238,1.637069,0.061202,0.000000,0.000000,0.000000,0.000000,0.000000,0.000000
13298214.000000,-0.260821,0.549656,0.332365,-1.467075,-0.191454,1.988369,0.106454,-0.004580,0.514720,-0.052056,-0.643690,-0.198499,1.004276,0.128481,-0.933489,-42.964436,3.199569,19.661436,0.351041,1.695663,0.100570,0.000000,0.000000,0.000000,0.000000,0.000000,0.000000
13298215.000000,-0.260832,0.550183,0.332308,-1.467728,-0.191647,1.989386,0.106581,-0.006613,0.518203,-0.052394,-0.640680,-0.194787,0.998969,0.128565,-0.762896,-43.258015,3.223373,20.058165,0.320829,1.689254,0.127120,0.000000,0.000000,0.000000,0.000000,0.000000,0.000000
13298216.000000,-0.260846,0.550700,0.332248,-1.468373,-0.191837,1.990378,0.106714,-0.008168,0.520755,-0.052987,-0.642698,-0.190101,0.994438,0.132030,-0.588336,-43.480183,3.270981,20.355711,0.237516,1.844894,0.061202,0.000000,0.000000,0.000000,0.000000,0.000000,0.000000
13298217.000000,-0.260858,0.551232,0.332189,-1.469021,-0.192025,1.991373,0.106837,-0.007523,0.516626,-0.055973,-0.643399,-0.189032,0.983758,0.125316,-0.489153,-43.702351,3.294784,20.677061,0.207303,2.020675,0.114303,0.000000,0.000000,0.000000,0.000000,0.000000,0.000000
13298218.000000,-0.260875,0.551767,0.332128,-1.469667,-0.192207,1.992359,0.106969,-0.010822,0.523312,-0.058830,-0.642654,-0.185662,0.995224,0.124405,-0.366168,-43.920551,3.346359,20.899229,0.123990,2.112228,0.061202,0.000000,0.000000,0.000000,0.000000,0.000000,0.000000
13298219.000000,-0.260888,0.552295,0.332057,-1.470303,-0.192396,1.993357,0.107098,-0.011680,0.524259,-0.061014,-0.636185,-0.186136,0.996468,0.126573,-0.314593,-44.237934,3.540756,21.121397,0.100187,2.163497,0.048385,0.000000,0.000000,0.000000,0.000000,0.000000,0.000000
13298220.000000,-0.260904,0.552839,0.331987,-1.470954,-0.192598,1.994360,0.107213,-0.013596,0.523748,-0.064504,-0.637262,-0.193016,0.989492,0.120481,-0.215411,-44.555317,3.687546,21.343565,0.129484,2.125045,0.120712,0.000000,0.000000,0.000000,0.000000,0.000000,0.000000
13298221.000000,-0.260918,0.553369,0.331901,-1.471596,-0.192802,1.995366,0.107344,-0.014389,0.529624,-0.073539,-0.638080,-0.190416,0.993060,0.121352,-0.144000,-44.801289,3.985092,21.514158,0.219205,1.995040,0.054794,0.000000,0.000000,0.000000,0.000000,0.000000,0.000000
13298222.000000,-0.260935,0.553895,0.331810,-1.472232,-0.193007,1.996371,0.107465,-0.016355,0.529727,-0.079835,-0.637040,-0.194238,0.990622,0.121645,-0.017047,-44.876667,4.278671,21.514158,0.332731,1.903487,0.114303,0.000000,0.000000,0.000000,0.000000,0.000000,0.000000
13298223.000000,-0.260947,0.554430,0.331728,-1.472866,-0.193209,1.997347,0.107596,-0.013327,0.529234,-0.082058,-0.630444,-0.199838,1.009069,0.121459,0.054365,-44.924274,4.473068,21.490355,0.398649,1.942855,0.067611,0.000000,0.000000,0.000000,0.000000,0.000000,0.000000
13298224.000000,-0.260957,0.554954,0.331633,-1.473487,-0.193411,1.998344,0.107718,-0.013069,0.529301,-0.086006,-0.623699,-0.202310,1.007717,0.121593,0.078168,-44.948078,4.770615,21.367369,0.422452,1.923629,0.127120,0.000000,0.000000,0.000000,0.000000,0.000000,0.000000
13298225.000000,-0.260964,0.555471,0.331539,-1.474105,-0.193609,1.999336,0.107849,-0.011963,0.521681,-0.088298,-0.615620,-0.201415,0.995745,0.118770,0.054365,-44.825092,5.040390,21.169004,0.369352,1.936446,0.048385,0.000000,0.000000,0.000000,0.000000,0.000000,0.000000
13298226.000000,-0.260972,0.555985,0.331439,-1.474716,-0.193811,2.000306,0.107965,-0.011316,0.535048,-0.093136,-0.618420,-0.199199,0.982753,0.119303,0.030561,-44.654499,5.310165,20.998411,0.285123,2.079269,0.120712,0.000000,0.000000,0.000000,0.000000,0.000000,0.000000
13298227.000000,-0.260980,0.556501,0.331337,-1.475313,-0.194011,2.001302,0.108091,-0.008382,0.529878,-0.095410,-0.610240,-0.198671,0.982730,0.123297,0.030561,-44.483906,5.528366,20.649290,0.207303,2.060043,0.100570,0.000000,0.000000,0.000000,0.000000,0.000000,0.000000
13298228.000000,-0.260987,0.557014,0.331231,-1.475914,-0.194215,2.002311,0.108220,-0.005660,0.522570,-0.097923,-0.603852,-0.200567,0.989877,0.123886,0.006757,-44.313313,5.774338,20.403318,0.183500,1.995040,0.034652,0.000000,0.000000,0.000000,0.000000,0.000000,0.000000
13298229.000000,-0.260997,0.557526,0.331135,-1.476502,-0.194423,2.003306,0.108337,-0.005915,0.521513,-0.095595,-0.598579,-0.203309,0.998175,0.118646,0.078168,-44.166523,5.849716,20.133543,0.201810,1.968490,0.094161,0.000000,0.000000,0.000000,0.000000,0.000000,0.000000
13298230.000000,-0.261006,0.558032,0.331027,-1.477091,-0.194636,2.004315,0.108464,-0.006060,0.513588,-0.100300,-0.595135,-0.203308,0.996347,0.124074,0.153547,-43.896748,6.067917,19.935179,0.291532,1.851302,0.041976,0.000000,0.000000,0.000000,0.000000,0.000000,0.000000
13298231.000000,-0.261017,0.558546,0.330913,-1.477647,-0.194856,2.005330,0.108580,-0.006068,0.506433,-0.104403,-0.592778,-0.206612,1.002913,0.124503,0.228925,-43.773762,6.290085,19.562254,0.362943,1.682845,0.081344,0.000000,0.000000,0.000000,0.000000,0.000000,0.000000
13298232.000000,-0.261026,0.559065,0.330803,-1.478215,-0.195072,2.006331,0.108703,-0.006008,0.513302,-0.105074,-0.580734,-0.215498,1.000768,0.125658,0.304304,-43.797565,6.413071,19.268675,0.381254,1.708480,0.107894,0.000000,0.000000,0.000000,0.000000,0.000000,0.000000
13298233.000000,-0.261031,0.559584,0.330702,-1.478785,-0.195290,2.007349,0.108834,-0.004711,0.508525,-0.103438,-0.573080,-0.213112,1.001373,0.129387,0.328107,-43.726154,6.436874,19.169493,0.374845,1.682845,0.054794,0.000000,0.000000,0.000000,0.000000,0.000000,0.000000
13298234.000000,-0.261037,0.560094,0.330601,-1.479323,-0.195506,2.008355,0.108960,-0.003253,0.507674,-0.105523,-0.562409,-0.211393,1.008058,0.123192,0.328107,-43.579365,6.460678,18.871946,0.374845,1.624252,0.107894,0.000000,0.000000,0.000000,0.000000,0.000000,0.000000
13298235.000000,-0.261039,0.560611,0.330492,-1.479868,-0.195709,2.009361,0.109091,-0.002252,0.511899,-0.105503,-0.552768,-0.208263,1.001776,0.121297,0.328107,-43.503986,6.536057,18.673582,0.315336,1.670028,0.094161,0.000000,0.000000,0.000000,0.000000,0.000000,0.000000
13298236.000000,-0.261043,0.561135,0.330398,-1.480407,-0.195912,2.010353,0.109218,-0.002121,0.512923,-0.100891,-0.542923,-0.205627,0.993906,0.123096,0.351911,-43.480183,6.413071,18.475218,0.249418,1.754256,0.120712,0.000000,0.000000,0.000000,0.000000,0.000000,0.000000
13298237.000000,-0.261046,0.561656,0.330297,-1.480943,-0.196121,2.011371,0.109353,-0.001461,0.516081,-0.099858,-0.544152,-0.204658,0.995343,0.127152,0.351911,-43.555561,6.389267,18.499022,0.201810,1.786300,0.067611,0.000000,0.000000,0.000000,0.000000,0.000000,0.000000
13298238.000000,-0.261049,0.562182,0.330206,-1.481483,-0.196331,2.012396,0.109475,-0.001566,0.517920,-0.094583,-0.539431,-0.205098,0.997005,0.126842,0.375715,-43.674580,6.290085,18.598204,0.183500,1.773483,0.107894,0.000000,0.000000,0.000000,0.000000,0.000000,0.000000
13298239.000000,-0.261053,0.562708,0.330111,-1.482030,-0.196546,2.013398,0.109607,-0.002277,0.517679,-0.095132,-0.542522,-0.202343,0.999344,0.128556,0.427289,-43.821369,6.242477,18.971128,0.219205,1.754256,0.100570,0.000000,0.000000,0.000000,0.000000,0.000000,0.000000
13298240.000000,-0.261060,0.563236,0.330012,-1.482577,-0.196758,2.014413,0.109741,-0.003858,0.521595,-0.094041,-0.543719,-0.206042,1.008482,0.131561,0.526471,-43.896748,6.266281,19.340086,0.279630,1.714889,0.041976,0.000000,0.000000,0.000000,0.000000,0.000000,0.000000
13298241.000000,-0.261066,0.563780,0.329923,-1.483144,-0.196972,2.015417,0.109861,-0.005464,0.529766,-0.087702,-0.548871,-0.209235,1.017155,0.128956,0.649457,-44.214130,6.190903,19.784422,0.356534,1.786300,0.114303,0.000000,0.000000,0.000000,0.000000,0.000000,0.000000
13298242.000000,-0.261069,0.564317,0.329841,-1.483689,-0.197180,2.016390,0.109998,-0.004767,0.530086,-0.088653,-0.549593,-0.209345,1.003146,0.131120,0.697065,-44.408527,6.095688,20.081968,0.374845,1.923629,0.074935,0.000000,0.000000,0.000000,0.000000,0.000000,0.000000
13298243.000000,-0.261067,0.564859,0.329761,-1.484236,-0.197388,2.017384,0.110132,-0.003187,0.532158,-0.085977,-0.547138,-0.211942,0.997764,0.131425,0.697065,-44.606892,5.972702,20.327940,0.332731,2.047225,0.074935,0.000000,0.000000,0.000000,0.000000,0.000000,0.000000
13298244.000000,-0.261062,0.565396,0.329681,-1.484789,-0.197600,2.018359,0.110259,-0.001017,0.532596,-0.083518,-0.546740,-0.208591,0.992428,0.132243,0.649457,-44.825092,5.825912,20.577879,0.279630,2.104903,0.074935,0.000000,0.000000,0.000000,0.000000,0.000000,0.000000
13298245.000000,-0.261059,0.565944,0.329603,-1.485353,-0.197801,2.019350,0.110390,0.000431,0.533772,-0.082330,-0.555827,-0.205826,0.995104,0.132936,0.601850,-44.971882,5.702927,20.946836,0.201810,2.079269,0.054794,0.000000,0.000000,0.000000,0.000000,0.000000,0.000000
13298246.000000,-0.261057,0.566493,0.329529,-1.485915,-0.198008,2.020346,0.110515,0.000284,0.535178,-0.075197,-0.554233,-0.205501,0.995683,0.126526,0.601850,-45.170246,5.579941,21.268187,0.171598,1.974899,0.094161,0.000000,0.000000,0.000000,0.000000,0.000000,0.000000
13298247.000000,-0.261052,0.567024,0.329450,-1.486474,-0.198224,2.021312,0.110648,0.003969,0.534672,-0.074495,-0.557931,-0.207942,0.982194,0.124769,0.574079,-45.241657,5.528366,21.514158,0.213712,1.995040,0.061202,0.000000,0.000000,0.000000,0.000000,0.000000,0.000000
13298248.000000,-0.261047,0.567571,0.329367,-1.487046,-0.198441,2.022290,0.110772,0.003462,0.537085,-0.077950,-0.562306,-0.212530,0.972330,0.129655,0.550275,-45.317036,5.528366,21.863279,0.332731,2.072860,0.087753,0.000000,0.000000,0.000000,0.000000,0.000000,0.000000
13298249.000000,-0.261036,0.568113,0.329288,-1.487597,-0.198664,2.023249,0.110901,0.007376,0.538151,-0.077150,-0.570562,-0.217584,0.966432,0.130815,0.474897,-45.340839,5.504562,21.986265,0.398649,2.157089,0.074935,0.000000,0.000000,0.000000,0.000000,0.000000,0.000000
13298250.000000,-0.261030,0.568642,0.329209,-1.488163,-0.198887,2.024225,0.111030,0.008455,0.533494,-0.076358,-0.568036,-0.220803,0.970057,0.125990,0.474897,-45.265461,5.480759,22.133055,0.470060,2.177230,0.081344,0.000000,0.000000,0.000000,0.000000,0.000000,0.000000
13298251.000000,-0.261019,0.569181,0.329135,-1.488730,-0.199104,2.025213,0.111158,0.010447,0.530149,-0.075766,-0.566653,-0.220859,0.971160,0.122640,0.427289,-45.094868,5.456955,22.283812,0.446256,2.112228,0.120712,0.000000,0.000000,0.000000,0.000000,0.000000,0.000000
13298252.000000,-0.261010,0.569693,0.329062,-1.489276,-0.199316,2.026192,0.111297,0.008206,0.526144,-0.073980,-0.560105,-0.219243,0.969702,0.127080,0.403486,-44.777485,5.381577,22.331419,0.374845,1.968490,0.067611,0.000000,0.000000,0.000000,0.000000,0.000000,0.000000
13298253.000000,-0.260988,0.570216,0.328988,-1.489839,-0.199531,2.027176,0.111429,0.012651,0.523188,-0.076646,-0.555302,-0.216012,0.969401,0.127568,0.252729,-44.583088,5.333969,22.430601,0.362943,1.981307,0.087753,0.000000,0.000000,0.000000,0.000000,0.000000,0.000000
13298254.000000,-0.260972,0.570742,0.328909,-1.490391,-0.199747,2.028125,0.111566,0.014517,0.522666,-0.077147,-0.550556,-0.217572,0.979855,0.129462,0.153547,-44.313313,5.357773,22.406797,0.332731,2.118636,0.067611,0.000000,0.000000,0.000000,0.000000,0.000000,0.000000
13298255.000000,-0.260951,0.571258,0.328827,-1.490935,-0.199970,2.029082,0.111697,0.016368,0.520500,-0.077757,-0.550182,-0.215081,0.978398,0.128855,0.030561,-44.091145,5.405380,22.505980,0.327238,2.326461,0.094161,0.000000,0.000000,0.000000,0.000000,0.000000,0.000000
13298256.000000,-0.260934,0.571780,0.328753,-1.491480,-0.200199,2.030046,0.111828,0.017207,0.516064,-0.076675,-0.545350,-0.220482,0.965722,0.130686,-0.068621,-43.944355,5.381577,22.478209,0.393156,2.462875,0.067611,0.000000,0.000000,0.000000,0.000000,0.000000,0.000000
13298257.000000,-0.260913,0.572309,0.328675,-1.492021,-0.200418,2.031018,0.111961,0.018353,0.518460,-0.076385,-0.546232,-0.216396,0.963829,0.130522,-0.191607,-43.849140,5.381577,22.577391,0.381254,2.397872,0.081344,0.000000,0.000000,0.000000,0.000000,0.000000,0.000000
13298258.000000,-0.260894,0.572826,0.328594,-1.492560,-0.200635,2.032015,0.112091,0.018638,0.516412,-0.076753,-0.540462,-0.213970,0.968896,0.125664,-0.290789,-43.603168,5.405380,22.676573,0.374845,2.222091,0.094161,0.000000,0.000000,0.000000,0.000000,0.000000,0.000000
13298259.000000,-0.260870,0.573349,0.328521,-1.493111,-0.200855,2.032993,0.112227,0.020041,0.512855,-0.074136,-0.541957,-0.217158,0.977606,0.129070,-0.441546,-43.404804,5.310165,22.874937,0.374845,2.066451,0.048385,0.000000,0.000000,0.000000,0.000000,0.000000,0.000000
13298260.000000,-0.260849,0.573876,0.328439,-1.493638,-0.201088,2.033967,0.112354,0.020282,0.519782,-0.078125,-0.539857,-0.220720,0.978977,0.127677,-0.564532,-43.333393,5.333969,22.974119,0.410551,2.053634,0.094161,0.000000,0.000000,0.000000,0.000000,0.000000,0.000000
13298261.000000,-0.260840,0.574425,0.328365,-1.494158,-0.201326,2.034920,0.112492,0.016430,0.529382,-0.075728,-0.529160,-0.224724,0.961743,0.130118,-0.512957,-43.527790,5.258591,22.997923,0.476469,2.235824,0.054794,0.000000,0.000000,0.000000,0.000000,0.000000,0.000000
13298262.000000,-0.260811,0.574953,0.328290,-1.494675,-0.201564,2.035858,0.112623,0.019714,0.524178,-0.074756,-0.523885,-0.227351,0.955292,0.129359,-0.711321,-43.555561,5.210983,23.073301,0.554288,2.437240,0.087753,0.000000,0.000000,0.000000,0.000000,0.000000,0.000000
13298263.000000,-0.260792,0.575496,0.328213,-1.495198,-0.201790,2.036830,0.112757,0.018490,0.529265,-0.074510,-0.522669,-0.225176,0.953143,0.129338,-0.762896,-43.579365,5.187180,23.271666,0.512174,2.437240,0.114303,0.000000,0.000000,0.000000,0.000000,0.000000,0.000000
13298264.000000,-0.260770,0.576036,0.328146,-1.495721,-0.202020,2.037818,0.112894,0.020714,0.532771,-0.071496,-0.520635,-0.224314,0.966301,0.131632,-0.810504,-43.626972,5.040390,23.418455,0.482877,2.267867,0.074935,0.000000,0.000000,0.000000,0.000000,0.000000,0.000000
13298265.000000,-0.260750,0.576578,0.328066,-1.496234,-0.202243,2.038779,0.113034,0.021394,0.533042,-0.072685,-0.520604,-0.221312,0.964298,0.132761,-0.810504,-43.797565,5.040390,23.493834,0.386747,2.169906,0.041976,0.000000,0.000000,0.000000,0.000000,0.000000,0.000000
13298266.000000,-0.260731,0.577108,0.327995,-1.496746,-0.202479,2.039737,0.113169,0.021460,0.533396,-0.073401,-0.511969,-0.223383,0.955142,0.131313,-0.786700,-43.603168,4.917404,23.517637,0.393156,2.235824,0.074935,0.000000,0.000000,0.000000,0.000000,0.000000,0.000000
13298267.000000,-0.260721,0.577646,0.327923,-1.497243,-0.202724,2.040691,0.113295,0.016174,0.530274,-0.073100,-0.516581,-0.227195,0.955910,0.129699,-0.663714,-43.503986,4.865829,23.418455,0.482877,2.267867,0.127120,0.000000,0.000000,0.000000,0.000000,0.000000,0.000000
13298268.000000,-0.260703,0.578177,0.327848,-1.497744,-0.202955,2.041647,0.113437,0.014200,0.527826,-0.072801,-0.512419,-0.227945,0.954074,0.133049,-0.612139,-43.404804,4.818222,23.271666,0.506681,2.378646,0.054794,0.000000,0.000000,0.000000,0.000000,0.000000,0.000000
13298269.000000,-0.260694,0.578712,0.327780,-1.498243,-0.203191,2.042612,0.113567,0.011100,0.529410,-0.070904,-0.503506,-0.228534,0.955142,0.131259,-0.489153,-43.234211,4.695236,23.120909,0.535978,2.430831,0.094161,0.000000,0.000000,0.000000,0.000000,0.000000,0.000000
13298270.000000,-0.260673,0.579240,0.327700,-1.498740,-0.203417,2.043583,0.113711,0.014988,0.530362,-0.075053,-0.501797,-0.226730,0.959869,0.132915,-0.489153,-43.111225,4.671432,23.148680,0.518583,2.242233,0.054794,0.000000,0.000000,0.000000,0.000000,0.000000,0.000000
13298271.000000,-0.260657,0.579771,0.327626,-1.499225,-0.203639,2.044574,0.113853,0.013511,0.526837,-0.074948,-0.497440,-0.227846,0.961544,0.136956,-0.441546,-42.940632,4.647629,22.974119,0.422452,2.047225,0.067611,0.000000,0.000000,0.000000,0.000000,0.000000,0.000000
13298272.000000,-0.260651,0.580305,0.327556,-1.499709,-0.203868,2.045536,0.113985,0.008866,0.529947,-0.076189,-0.490481,-0.222180,0.962148,0.134073,-0.243182,-42.746235,4.548447,22.728148,0.405057,2.039901,0.114303,0.000000,0.000000,0.000000,0.000000,0.000000,0.000000
13298273.000000,-0.260641,0.580842,0.327481,-1.500168,-0.204097,2.046500,0.114131,0.008025,0.532796,-0.075596,-0.484028,-0.224320,0.960313,0.140865,-0.144000,-42.722431,4.524643,22.406797,0.428861,2.092086,0.041976,0.000000,0.000000,0.000000,0.000000,0.000000,0.000000
13298274.000000,-0.260633,0.581375,0.327408,-1.500623,-0.204319,2.047460,0.114264,0.006196,0.530829,-0.074685,-0.470345,-0.224877,0.958436,0.136687,0.006757,-42.551838,4.473068,22.010069,0.422452,2.261459,0.094161,0.000000,0.000000,0.000000,0.000000,0.000000,0.000000
13298275.000000,-0.260627,0.581894,0.327335,-1.501078,-0.204540,2.048417,0.114398,0.005020,0.540654,-0.073462,-0.466629,-0.224472,0.958470,0.139971,0.153547,-42.159077,4.401657,21.712523,0.416959,2.300826,0.107894,0.000000,0.000000,0.000000,0.000000,0.000000,0.000000
13298278.000000,-0.260596,0.583439,0.327103,-1.502425,-0.205213,2.051391,0.114810,0.006535,0.520730,-0.079003,-0.453977,-0.215834,0.978073,0.136134,0.375715,-40.933186,4.401657,21.069822,0.320829,1.942855,0.067611,0.000000,0.000000,0.000000,0.000000,0.000000,0.000000
13298279.000000,-0.260583,0.583947,0.327020,-1.502860,-0.205434,2.052364,0.114943,0.011098,0.513956,-0.083235,-0.447648,-0.219249,0.973871,0.135393,0.403486,-40.516621,4.500839,20.800047,0.339139,2.020675,0.081344,0.000000,0.000000,0.000000,0.000000,0.000000,0.000000
13298280.000000,-0.260570,0.584459,0.326939,-1.503279,-0.205657,2.053316,0.115087,0.010737,0.507672,-0.081144,-0.438136,-0.218303,0.963521,0.136555,0.451093,-40.127827,4.500839,20.554075,0.398649,2.125045,0.028243,0.000000,0.000000,0.000000,0.000000,0.000000,0.000000
13298281.000000,-0.260560,0.584972,0.326851,-1.503690,-0.205874,2.054296,0.115220,0.010357,0.511438,-0.081332,-0.429336,-0.219636,0.958538,0.138055,0.502668,-39.834248,4.572250,20.232725,0.381254,2.125045,0.081344,0.000000,0.000000,0.000000,0.000000,0.000000,0.000000
13298282.000000,-0.260545,0.585471,0.326766,-1.504106,-0.206096,2.055284,0.115358,0.011239,0.501907,-0.078865,-0.427595,-0.223585,0.963698,0.137680,0.502668,-39.318501,4.671432,19.982786,0.308927,2.033492,0.054794,0.000000,0.000000,0.000000,0.000000,0.000000,0.000000
13298283.000000,-0.260523,0.585971,0.326685,-1.504505,-0.206321,2.056252,0.115497,0.013026,0.499723,-0.078636,-0.415621,-0.218325,0.966674,0.141090,0.451093,-38.953510,4.719040,19.661436,0.267728,1.949264,0.048385,0.000000,0.000000,0.000000,0.000000,0.000000,0.000000
13298284.000000,-0.260508,0.586476,0.326604,-1.504908,-0.206537,2.057226,0.115630,0.012440,0.500810,-0.080705,-0.410759,-0.219153,0.968365,0.138178,0.474897,-38.608356,4.719040,19.415464,0.219205,1.930038,0.067611,0.000000,0.000000,0.000000,0.000000,0.000000,0.000000
13298285.000000,-0.260494,0.586986,0.326513,-1.505296,-0.206758,2.058173,0.115769,0.011899,0.502241,-0.085728,-0.412743,-0.216495,0.959569,0.136734,0.502668,-38.290974,4.865829,19.094114,0.225614,2.014266,0.061202,0.000000,0.000000,0.000000,0.000000,0.000000,0.000000
13298286.000000,-0.260480,0.587490,0.326429,-1.505686,-0.206988,2.059154,0.115904,0.011608,0.505043,-0.081989,-0.405148,-0.217664,0.963475,0.134138,0.526471,-38.021198,4.842026,18.820372,0.308927,1.930038,0.094161,0.000000,0.000000,0.000000,0.000000,0.000000,0.000000
13298287.000000,-0.260456,0.587993,0.326336,-1.506080,-0.207212,2.060137,0.116047,0.016865,0.501722,-0.086675,-0.399567,-0.220075,0.971358,0.139443,0.451093,-37.727619,4.988815,18.697386,0.315336,1.858627,0.081344,0.000000,0.000000,0.000000,0.000000,0.000000,0.000000
13298288.000000,-0.260436,0.588495,0.326253,-1.506466,-0.207442,2.061100,0.116190,0.019435,0.499174,-0.082311,-0.394752,-0.220740,0.975690,0.137730,0.427289,-37.509418,4.941208,18.673582,0.303434,1.812850,0.081344,0.000000,0.000000,0.000000,0.000000,0.000000,0.000000
13298289.000000,-0.260410,0.589017,0.326163,-1.506846,-0.207670,2.062081,0.116342,0.019943,0.506949,-0.082978,-0.388723,-0.223809,0.975070,0.142701,0.328107,-37.457844,4.917404,18.574400,0.344633,1.702071,0.034652,0.000000,0.000000,0.000000,0.000000,0.000000,0.000000
13298290.000000,-0.260387,0.589541,0.326067,-1.507224,-0.207898,2.063038,0.116479,0.022160,0.508746,-0.089452,-0.387584,-0.224201,0.984558,0.138496,0.276533,-37.386433,5.012619,18.475218,0.344633,1.714889,0.074935,0.000000,0.000000,0.000000,0.000000,0.000000,0.000000
13298291.000000,-0.260359,0.590060,0.325980,-1.507595,-0.208126,2.063998,0.116620,0.024810,0.509291,-0.086955,-0.382664,-0.219600,0.975150,0.140958,0.177350,-37.287251,4.941208,18.352232,0.327238,1.812850,0.100570,0.000000,0.000000,0.000000,0.000000,0.000000,0.000000
13298292.000000,-0.260332,0.590592,0.325891,-1.507967,-0.208349,2.064970,0.116772,0.026213,0.516403,-0.086699,-0.378399,-0.225097,0.970917,0.146586,0.105939,-37.263447,4.917404,18.352232,0.297025,1.819259,0.021835,0.000000,0.000000,0.000000,0.000000,0.000000,0.000000
13298293.000000,-0.260308,0.591109,0.325803,-1.508332,-0.208586,2.065928,0.116911,0.023610,0.525518,-0.086519,-0.374943,-0.224492,0.975218,0.146126,0.054365,-37.211872,4.893600,18.328428,0.279630,1.786300,0.061202,0.000000,0.000000,0.000000,0.000000,0.000000,0.000000
13298294.000000,-0.260281,0.591644,0.325719,-1.508701,-0.208818,2.066889,0.117051,0.024746,0.527714,-0.084601,-0.373268,-0.229398,0.965951,0.147048,0.006757,-37.239643,4.794418,18.352232,0.267728,1.779891,0.067611,0.000000,0.000000,0.000000,0.000000,0.000000,0.000000
13298295.000000,-0.260258,0.592192,0.325630,-1.509064,-0.209056,2.067857,0.117188,0.023933,0.534960,-0.085083,-0.367671,-0.230469,0.965030,0.142446,0.030561,-37.410236,4.770615,18.205442,0.308927,1.786300,0.094161,0.000000,0.000000,0.000000,0.000000,0.000000,0.000000
13298296.000000,-0.260227,0.592730,0.325545,-1.509419,-0.209290,2.068798,0.117336,0.025810,0.537759,-0.086542,-0.358220,-0.229266,0.960133,0.146329,-0.044818,-37.580830,4.671432,18.078489,0.303434,1.890670,0.041976,0.000000,0.000000,0.000000,0.000000,0.000000,0.000000
13298297.000000,-0.260200,0.593284,0.325464,-1.509785,-0.209516,2.069758,0.117484,0.025955,0.537707,-0.086994,-0.359101,-0.227721,0.957781,0.143201,-0.068621,-37.727619,4.548447,18.054686,0.279630,1.942855,0.028243,0.000000,0.000000,0.000000,0.000000,0.000000,0.000000
13298298.000000,-0.260169,0.593844,0.325377,-1.510142,-0.209755,2.070719,0.117623,0.026634,0.542516,-0.085962,-0.365713,-0.235198,0.955172,0.144115,-0.116229,-37.898212,4.473068,17.955503,0.249418,1.806442,0.054794,0.000000,0.000000,0.000000,0.000000,0.000000,0.000000
13298299.000000,-0.260144,0.594385,0.325285,-1.510508,-0.209992,2.071690,0.117765,0.025443,0.541166,-0.087497,-0.368565,-0.233346,0.952289,0.145972,-0.092425,-37.874409,4.500839,17.931700,0.249418,1.682845,0.061202,0.000000,0.000000,0.000000,0.000000,0.000000,0.000000
13298300.000000,-0.260120,0.594940,0.325202,-1.510870,-0.210236,2.072661,0.117899,0.024151,0.538767,-0.085537,-0.364887,-0.233168,0.960450,0.140633,-0.044818,-37.826801,4.401657,17.808714,0.291532,1.656295,0.114303,0.000000,0.000000,0.000000,0.000000,0.000000,0.000000
13298301.000000,-0.260094,0.595493,0.325120,-1.511219,-0.210470,2.073593,0.118048,0.022666,0.543949,-0.084579,-0.358718,-0.230503,0.951747,0.146463,0.030561,-37.898212,4.326279,17.661924,0.273221,1.773483,0.028243,0.000000,0.000000,0.000000,0.000000,0.000000,0.000000
13298302.000000,-0.260069,0.596064,0.325040,-1.511562,-0.210705,2.074548,0.118185,0.022875,0.551170,-0.081034,-0.351072,-0.231204,0.951624,0.140726,0.054365,-38.120380,4.254868,17.411985,0.320829,1.767074,0.081344,0.000000,0.000000,0.000000,0.000000,0.000000,0.000000
13298303.000000,-0.260044,0.596642,0.324958,-1.511904,-0.210937,2.075492,0.118318,0.022325,0.552776,-0.078804,-0.352811,-0.231980,0.947105,0.137485,0.105939,-38.338581,4.203293,17.265196,0.261320,1.714889,0.114303,0.000000,0.000000,0.000000,0.000000,0.000000,0.000000
13298304.000000,-0.260018,0.597211,0.324877,-1.512255,-0.211176,2.076458,0.118466,0.023242,0.563459,-0.079634,-0.349243,-0.234330,0.946422,0.143010,0.105939,-38.536945,4.131882,17.090635,0.225614,1.591293,0.054794,0.000000,0.000000,0.000000,0.000000,0.000000,0.000000
13298305.000000,-0.259988,0.597789,0.324790,-1.512603,-0.211407,2.077430,0.118603,0.023848,0.567713,-0.080105,-0.348069,-0.236231,0.949343,0.144037,0.105939,-38.778950,4.179489,16.991453,0.195402,1.481429,0.081344,0.000000,0.000000,0.000000,0.000000,0.000000,0.000000
13298306.000000,-0.259967,0.598368,0.324704,-1.512937,-0.211642,2.078361,0.118753,0.024482,0.568493,-0.079117,-0.345200,-0.238355,0.946758,0.147219,0.228925,-39.001118,4.179489,16.793089,0.201810,1.500655,0.048385,0.000000,0.000000,0.000000,0.000000,0.000000,0.000000
13298307.000000,-0.259943,0.598946,0.324618,-1.513278,-0.211871,2.079298,0.118896,0.026332,0.570659,-0.077705,-0.340711,-0.235797,0.940367,0.141900,0.304304,-39.024921,4.155685,16.646299,0.207303,1.597701,0.087753,0.000000,0.000000,0.000000,0.000000,0.000000,0.000000
13298308.000000,-0.259915,0.599526,0.324525,-1.513620,-0.212111,2.080236,0.119045,0.026331,0.570009,-0.081494,-0.341435,-0.239292,0.951123,0.145529,0.304304,-39.072529,4.203293,16.523314,0.237516,1.572067,0.054794,0.000000,0.000000,0.000000,0.000000,0.000000,0.000000
13298309.000000,-0.259886,0.600109,0.324432,-1.513962,-0.212350,2.081185,0.119191,0.029214,0.571523,-0.087206,-0.340577,-0.240511,0.948792,0.146165,0.304304,-39.195515,4.254868,16.471739,0.219205,1.591293,0.067611,0.000000,0.000000,0.000000,0.000000,0.000000,0.000000
13298310.000000,-0.259859,0.600706,0.324338,-1.514306,-0.212581,2.082144,0.119337,0.027797,0.576770,-0.089012,-0.338263,-0.240801,0.952724,0.143193,0.328107,-39.417683,4.326279,16.523314,0.189908,1.565658,0.054794,0.000000,0.000000,0.000000,0.000000,0.000000,0.000000
13298311.000000,-0.259831,0.601300,0.324248,-1.514642,-0.212810,2.083091,0.119478,0.029302,0.598592,-0.085422,-0.338146,-0.231581,0.958085,0.139664,0.375715,-39.687458,4.326279,16.499510,0.171598,1.487838,0.081344,0.000000,0.000000,0.000000,0.000000,0.000000,0.000000
13298312.000000,-0.259809,0.601907,0.324146,-1.514982,-0.213037,2.084049,0.119628,0.026119,0.602215,-0.092457,-0.335652,-0.230281,0.947623,0.143576,0.474897,-39.957233,4.473068,16.499510,0.166105,1.383468,0.054794,0.000000,0.000000,0.000000,0.000000,0.000000,0.000000
13298313.000000,-0.259783,0.602504,0.324045,-1.515322,-0.213279,2.084999,0.119776,0.027508,0.593403,-0.096411,-0.336153,-0.235305,0.939362,0.145248,0.550275,-40.028645,4.572250,16.471739,0.195402,1.448470,0.061202,0.000000,0.000000,0.000000,0.000000,0.000000,0.000000
13298314.000000,-0.259751,0.603092,0.323939,-1.515661,-0.213525,2.085931,0.119927,0.027853,0.594577,-0.099679,-0.338513,-0.237839,0.938443,0.146145,0.526471,-40.004841,4.695236,16.523314,0.195402,1.481429,0.067611,0.000000,0.000000,0.000000,0.000000,0.000000,0.000000
13298315.000000,-0.259726,0.603678,0.323836,-1.515994,-0.213771,2.086869,0.120075,0.025598,0.589474,-0.101752,-0.334989,-0.241206,0.938578,0.148423,0.601850,-39.881855,4.818222,16.523314,0.231107,1.572067,0.048385,0.000000,0.000000,0.000000,0.000000,0.000000,0.000000
13298316.000000,-0.259699,0.604285,0.323727,-1.516324,-0.214010,2.087787,0.120217,0.024585,0.593004,-0.100048,-0.340339,-0.241595,0.928145,0.146934,0.649457,-40.004841,4.917404,16.523314,0.225614,1.649886,0.107894,0.000000,0.000000,0.000000,0.000000,0.000000,0.000000
13298317.000000,-0.259670,0.604883,0.323619,-1.516662,-0.214242,2.088734,0.120371,0.024996,0.593528,-0.104951,-0.335575,-0.239718,0.932467,0.150143,0.649457,-40.052448,5.012619,16.598692,0.183500,1.656295,0.048385,0.000000,0.000000,0.000000,0.000000,0.000000,0.000000
13298318.000000,-0.259639,0.605488,0.323507,-1.516994,-0.214490,2.089698,0.120514,0.028347,0.600171,-0.105591,-0.335181,-0.241042,0.935470,0.144556,0.649457,-40.151630,5.111801,16.547117,0.178007,1.546432,0.074935,0.000000,0.000000,0.000000,0.000000,0.000000,0.000000
13298319.000000,-0.259608,0.606082,0.323397,-1.517336,-0.214741,2.090628,0.120659,0.027678,0.604137,-0.109040,-0.338006,-0.240455,0.941619,0.140471,0.649457,-40.151630,5.210983,16.745481,0.135892,1.559249,0.100570,0.000000,0.000000,0.000000,0.000000,0.000000,0.000000
13298320.000000,-0.259579,0.606679,0.323289,-1.517667,-0.214989,2.091563,0.120809,0.026041,0.598463,-0.107431,-0.336026,-0.243324,0.939101,0.140265,0.697065,-40.052448,5.258591,16.820860,0.171598,1.597701,0.054794,0.000000,0.000000,0.000000,0.000000,0.000000,0.000000
13298321.000000,-0.259551,0.607284,0.323176,-1.518003,-0.215240,2.092478,0.120951,0.027822,0.597106,-0.111218,-0.341875,-0.245791,0.933040,0.141089,0.748639,-39.929462,5.381577,16.868467,0.225614,1.682845,0.100570,0.000000,0.000000,0.000000,0.000000,0.000000,0.000000
13298322.000000,-0.259523,0.607874,0.323056,-1.518340,-0.215483,2.093404,0.121110,0.029700,0.595629,-0.111171,-0.341288,-0.241544,0.929421,0.145991,0.772443,-39.758869,5.528366,17.019224,0.243009,1.754256,0.028243,0.000000,0.000000,0.000000,0.000000,0.000000,0.000000
13298323.000000,-0.259492,0.608468,0.322945,-1.518685,-0.215732,2.094338,0.121256,0.031881,0.592498,-0.111642,-0.343231,-0.247600,0.928640,0.142411,0.772443,-39.564472,5.556137,17.166014,0.261320,1.760665,0.067611,0.000000,0.000000,0.000000,0.000000,0.000000,0.000000
13298324.000000,-0.259456,0.609052,0.322828,-1.519022,-0.215988,2.095250,0.121403,0.033977,0.584614,-0.115673,-0.338851,-0.250401,0.928661,0.145099,0.748639,-39.342304,5.603745,17.312803,0.243009,1.767074,0.054794,0.000000,0.000000,0.000000,0.000000,0.000000,0.000000
13298325.000000,-0.259423,0.609658,0.322709,-1.519356,-0.216240,2.096175,0.121557,0.031234,0.588088,-0.116347,-0.335316,-0.253654,0.917368,0.147588,0.772443,-39.247089,5.679123,17.463560,0.237516,1.754256,0.028243,0.000000,0.000000,0.000000,0.000000,0.000000,0.000000
13298326.000000,-0.259390,0.610259,0.322596,-1.519696,-0.216490,2.097094,0.121703,0.032829,0.590223,-0.112029,-0.332856,-0.251931,0.911884,0.143682,0.772443,-39.124104,5.679123,17.610350,0.243009,1.832076,0.028243,0.000000,0.000000,0.000000,0.000000,0.000000,0.000000
13298327.000000,-0.259358,0.610851,0.322480,-1.520031,-0.216740,2.097994,0.121848,0.030817,0.592717,-0.112309,-0.331415,-0.252560,0.910173,0.144701,0.772443,-39.024921,5.702927,17.784910,0.303434,1.865035,0.054794,0.000000,0.000000,0.000000,0.000000,0.000000,0.000000
13298328.000000,-0.259325,0.611448,0.322373,-1.520371,-0.216987,2.098915,0.121989,0.032002,0.588107,-0.110487,-0.331485,-0.250579,0.911331,0.146425,0.796247,-38.854328,5.627548,17.907896,0.297025,1.786300,0.054794,0.000000,0.000000,0.000000,0.000000,0.000000,0.000000
13298329.000000,-0.259290,0.612031,0.322255,-1.520709,-0.217243,2.099812,0.122138,0.033487,0.585823,-0.112322,-0.333466,-0.248925,0.899411,0.148348,0.796247,-38.536945,5.679123,18.078489,0.303434,1.825668,0.034652,0.000000,0.000000,0.000000,0.000000,0.000000,0.000000
13298330.000000,-0.259259,0.612621,0.322144,-1.521033,-0.217496,2.100726,0.122285,0.033377,0.588012,-0.111156,-0.327838,-0.250130,0.901257,0.147642,0.847822,-38.243366,5.627548,18.078489,0.356534,1.800033,0.067611,0.000000,0.000000,0.000000,0.000000,0.000000,0.000000
13298331.000000,-0.259220,0.613226,0.322029,-1.521362,-0.217743,2.101642,0.122436,0.035752,0.591558,-0.111669,-0.320885,-0.247071,0.910386,0.150079,0.796247,-38.191792,5.627548,18.078489,0.308927,1.838485,0.028243,0.000000,0.000000,0.000000,0.000000,0.000000,0.000000
13298332.000000,-0.259192,0.613822,0.321920,-1.521690,-0.217986,2.102532,0.122578,0.033892,0.588505,-0.112093,-0.323784,-0.240602,0.902126,0.148100,0.895429,-38.144184,5.504562,18.153868,0.273221,1.909896,0.081344,0.000000,0.000000,0.000000,0.000000,0.000000,0.000000
13298333.000000,-0.259155,0.614438,0.321812,-1.522022,-0.218233,2.103452,0.122724,0.035579,0.594338,-0.110344,-0.326059,-0.241555,0.902498,0.145820,0.871625,-38.215595,5.433151,18.130064,0.255826,1.871444,0.041976,0.000000,0.000000,0.000000,0.000000,0.000000,0.000000
13298334.000000,-0.259120,0.615045,0.321705,-1.522355,-0.218489,2.104369,0.122873,0.036150,0.597105,-0.110808,-0.332491,-0.241540,0.906468,0.146886,0.871625,-38.191792,5.405380,18.229246,0.237516,1.779891,0.048385,0.000000,0.000000,0.000000,0.000000,0.000000,0.000000
13298335.000000,-0.259090,0.615644,0.321603,-1.522680,-0.218750,2.105285,0.123015,0.034835,0.598687,-0.108710,-0.330280,-0.244330,0.912918,0.141539,0.947004,-38.167988,5.286362,18.205442,0.285123,1.741439,0.081344,0.000000,0.000000,0.000000,0.000000,0.000000,0.000000
13298336.000000,-0.259051,0.616256,0.321497,-1.523014,-0.219004,2.106197,0.123159,0.036309,0.595882,-0.109037,-0.326542,-0.245474,0.904178,0.145021,0.923200,-38.167988,5.234787,18.229246,0.308927,1.800033,0.054794,0.000000,0.000000,0.000000,0.000000,0.000000,0.000000
13298337.000000,-0.259011,0.616865,0.321392,-1.523342,-0.219260,2.107101,0.123301,0.037345,0.604416,-0.106035,-0.327055,-0.247178,0.908108,0.140713,0.895429,-38.167988,5.187180,18.253050,0.362943,1.851302,0.094161,0.000000,0.000000,0.000000,0.000000,0.000000,0.000000
13298338.000000,-0.258970,0.617473,0.321288,-1.523673,-0.219511,2.108006,0.123453,0.038567,0.606299,-0.106365,-0.329825,-0.250811,0.902639,0.149612,0.847822,-38.120380,5.111801,18.276854,0.344633,1.955673,0.054794,0.000000,0.000000,0.000000,0.000000,0.000000,0.000000
13298339.000000,-0.258925,0.618080,0.321183,-1.524003,-0.219760,2.108915,0.123601,0.040484,0.605583,-0.107240,-0.325860,-0.246710,0.926701,0.148461,0.748639,-37.997395,5.064194,18.276854,0.273221,1.968490,0.094161,0.000000,0.000000,0.000000,0.000000,0.000000,0.000000
13298340.000000,-0.258879,0.618691,0.321075,-1.524319,-0.220013,2.109840,0.123754,0.041300,0.603604,-0.106202,-0.319737,-0.246248,0.921816,0.151480,0.673261,-38.045002,5.087997,18.276854,0.261320,1.865035,0.028243,0.000000,0.000000,0.000000,0.000000,0.000000,0.000000
13298341.000000,-0.258838,0.619322,0.320978,-1.524644,-0.220262,2.110769,0.123903,0.040611,0.608632,-0.102661,-0.318291,-0.246654,0.923641,0.148312,0.649457,-38.167988,4.988815,18.304625,0.267728,1.825668,0.021835,0.000000,0.000000,0.000000,0.000000,0.000000,0.000000
13298342.000000,-0.258797,0.619940,0.320879,-1.524959,-0.220508,2.111671,0.124052,0.039589,0.616364,-0.101325,-0.316428,-0.249332,0.913690,0.148117,0.649457,-38.290974,4.941208,18.276854,0.237516,1.858627,0.041976,0.000000,0.000000,0.000000,0.000000,0.000000,0.000000
13298343.000000,-0.258752,0.620559,0.320779,-1.525271,-0.220767,2.112575,0.124205,0.042690,0.616294,-0.102215,-0.316330,-0.259312,0.909124,0.150052,0.625654,-38.290974,4.842026,18.153868,0.273221,1.877853,0.009017,0.000000,0.000000,0.000000,0.000000,0.000000,0.000000
13298344.000000,-0.258703,0.621189,0.320674,-1.525583,-0.221027,2.113469,0.124344,0.043489,0.613180,-0.102761,-0.311220,-0.256714,0.900110,0.147775,0.526471,-38.290974,4.865829,18.078489,0.291532,1.865035,0.074935,0.000000,0.000000,0.000000,0.000000,0.000000,0.000000
13298345.000000,-0.258660,0.621808,0.320571,-1.525888,-0.221290,2.114390,0.124492,0.045403,0.615877,-0.102181,-0.308723,-0.254308,0.895717,0.149733,0.502668,-38.215595,4.865829,18.054686,0.303434,1.779891,0.041976,0.000000,0.000000,0.000000,0.000000,0.000000,0.000000
13298346.000000,-0.258612,0.622440,0.320465,-1.526194,-0.221540,2.115306,0.124634,0.047561,0.623232,-0.103096,-0.307996,-0.251181,0.894067,0.143761,0.451093,-38.290974,4.917404,17.983274,0.273221,1.735030,0.087753,0.000000,0.000000,0.000000,0.000000,0.000000,0.000000
13298347.000000,-0.258561,0.623066,0.320366,-1.526495,-0.221801,2.116202,0.124791,0.049635,0.626697,-0.100713,-0.306035,-0.258917,0.901905,0.147406,0.375715,-38.362385,4.842026,17.955503,0.279630,1.754256,0.041976,0.000000,0.000000,0.000000,0.000000,0.000000,0.000000
13298348.000000,-0.258514,0.623698,0.320257,-1.526793,-0.222065,2.117103,0.124944,0.050048,0.622498,-0.102003,-0.305519,-0.263874,0.893558,0.148561,0.351911,-38.413960,4.893600,17.832518,0.291532,1.741439,0.034652,0.000000,0.000000,0.000000,0.000000,0.000000,0.000000
13298349.000000,-0.258457,0.624355,0.320156,-1.527101,-0.222331,2.118010,0.125089,0.048962,0.628868,-0.101607,-0.302383,-0.259426,0.894787,0.147444,0.252729,-38.659931,4.893600,17.856321,0.291532,1.779891,0.081344,0.000000,0.000000,0.000000,0.000000,0.000000,0.000000
13298350.000000,-0.258406,0.624986,0.320056,-1.527393,-0.222593,2.118913,0.125245,0.049986,0.634634,-0.100426,-0.295657,-0.260861,0.899729,0.149617,0.205121,-38.659931,4.865829,17.832518,0.297025,1.735030,0.041976,0.000000,0.000000,0.000000,0.000000,0.000000,0.000000
13298351.000000,-0.258359,0.625616,0.319949,-1.527696,-0.222847,2.119818,0.125396,0.049164,0.636096,-0.102898,-0.295945,-0.262699,0.896653,0.149171,0.228925,-38.536945,4.865829,17.931700,0.327238,1.689254,0.061202,0.000000,0.000000,0.000000,0.000000,0.000000,0.000000
13298352.000000,-0.258304,0.626261,0.319844,-1.527994,-0.223108,2.120711,0.125549,0.050918,0.635301,-0.106120,-0.304133,-0.262343,0.893097,0.150817,0.153547,-38.560749,4.893600,18.030882,0.320829,1.727706,0.034652,0.000000,0.000000,0.000000,0.000000,0.000000,0.000000
13298353.000000,-0.258252,0.626900,0.319737,-1.528286,-0.223377,2.121615,0.125693,0.051629,0.632489,-0.101990,-0.300614,-0.263777,0.894847,0.148552,0.105939,-38.632160,4.917404,18.054686,0.339139,1.779891,0.087753,0.000000,0.000000,0.000000,0.000000,0.000000,0.000000
13298354.000000,-0.258201,0.627555,0.319632,-1.528592,-0.223641,2.122528,0.125852,0.050464,0.639341,-0.104141,-0.300947,-0.263689,0.903461,0.151653,0.129743,-38.755146,4.893600,18.205442,0.332731,1.754256,0.021835,0.000000,0.000000,0.000000,0.000000,0.000000,0.000000
13298355.000000,-0.258148,0.628194,0.319522,-1.528888,-0.223903,2.123422,0.126005,0.050840,0.642295,-0.103714,-0.300549,-0.258561,0.904506,0.150700,0.105939,-38.854328,4.917404,18.328428,0.320829,1.760665,0.048385,0.000000,0.000000,0.000000,0.000000,0.000000,0.000000
13298356.000000,-0.258096,0.628838,0.319415,-1.529178,-0.224167,2.124331,0.126156,0.050036,0.644909,-0.104803,-0.296492,-0.257473,0.896032,0.148662,0.129743,-38.854328,4.865829,18.451414,0.374845,1.702071,0.107894,0.000000,0.000000,0.000000,0.000000,0.000000,0.000000
13298357.000000,-0.258044,0.629479,0.319306,-1.529474,-0.224437,2.125220,0.126316,0.053052,0.640281,-0.107624,-0.297021,-0.259862,0.916901,0.151161,0.129743,-38.707539,4.893600,18.574400,0.393156,1.727706,0.061202,0.000000,0.000000,0.000000,0.000000,0.000000,0.000000
13298358.000000,-0.257998,0.630117,0.319201,-1.529756,-0.224706,2.126112,0.126476,0.050309,0.638565,-0.103938,-0.291296,-0.257778,0.913849,0.151789,0.205121,-38.608356,4.818222,18.574400,0.434354,1.865035,0.034652,0.000000,0.000000,0.000000,0.000000,0.000000,0.000000
13298359.000000,-0.257945,0.630773,0.319097,-1.530033,-0.224967,2.127002,0.126631,0.050428,0.645362,-0.104617,-0.284147,-0.259108,0.894889,0.153137,0.205121,-38.632160,4.742844,18.550596,0.428861,1.955673,0.028243,0.000000,0.000000,0.000000,0.000000,0.000000,0.000000
13298360.000000,-0.257893,0.631412,0.318982,-1.530314,-0.225213,2.127901,0.126777,0.050480,0.643496,-0.108224,-0.285067,-0.255399,0.898941,0.150865,0.205121,-38.584553,4.794418,18.550596,0.315336,1.949264,0.074935,0.000000,0.000000,0.000000,0.000000,0.000000,0.000000
13298361.000000,-0.257842,0.632047,0.318883,-1.530596,-0.225462,2.128818,0.126934,0.050490,0.641096,-0.102913,-0.283874,-0.256435,0.903623,0.152807,0.205121,-38.362385,4.647629,18.598204,0.273221,1.851302,0.028243,0.000000,0.000000,0.000000,0.000000,0.000000,0.000000
13298362.000000,-0.257793,0.632694,0.318767,-1.530870,-0.225719,2.129717,0.127079,0.048730,0.638264,-0.107444,-0.276223,-0.257000,0.909119,0.150587,0.276533,-38.215595,4.719040,18.625975,0.225614,1.858627,0.074935,0.000000,0.000000,0.000000,0.000000,0.000000,0.000000
13298363.000000,-0.257748,0.633344,0.318657,-1.531130,-0.225988,2.130604,0.127231,0.049446,0.639815,-0.104998,-0.270370,-0.257267,0.897797,0.150469,0.403486,-38.191792,4.695236,18.499022,0.303434,1.897079,0.074935,0.000000,0.000000,0.000000,0.000000,0.000000,0.000000
13298364.000000,-0.257705,0.633995,0.318548,-1.531400,-0.226255,2.131499,0.127385,0.047149,0.645289,-0.107160,-0.267795,-0.257949,0.890961,0.156090,0.526471,-38.045002,4.719040,18.475218,0.398649,1.955673,0.034652,0.000000,0.000000,0.000000,0.000000,0.000000,0.000000
13298365.000000,-0.257658,0.634637,0.318440,-1.531664,-0.226512,2.132374,0.127531,0.046567,0.641960,-0.106094,-0.267486,-0.259331,0.889452,0.153468,0.601850,-37.802998,4.742844,18.499022,0.416959,1.981307,0.067611,0.000000,0.000000,0.000000,0.000000,0.000000,0.000000
13298366.000000,-0.257607,0.635267,0.318332,-1.531924,-0.226767,2.133275,0.127682,0.050544,0.640154,-0.104118,-0.264249,-0.267520,0.888705,0.153521,0.625654,-37.557026,4.719040,18.399839,0.393156,1.865035,0.048385,0.000000,0.000000,0.000000,0.000000,0.000000,0.000000
13298367.000000,-0.257555,0.635911,0.318226,-1.532189,-0.227025,2.134169,0.127828,0.053907,0.636145,-0.102713,-0.265166,-0.268370,0.884685,0.152121,0.625654,-37.362629,4.695236,18.427610,0.308927,1.825668,0.067611,0.000000,0.000000,0.000000,0.000000,0.000000,0.000000
13298368.000000,-0.257502,0.636541,0.318116,-1.532425,-0.227285,2.135042,0.127982,0.053799,0.636651,-0.101962,-0.253908,-0.265460,0.882164,0.153341,0.601850,-37.116657,4.695236,18.229246,0.255826,1.903487,0.021835,0.000000,0.000000,0.000000,0.000000,0.000000,0.000000
13298369.000000,-0.257452,0.637188,0.318001,-1.532665,-0.227542,2.135920,0.128125,0.055621,0.641241,-0.105466,-0.246029,-0.260991,0.877380,0.150932,0.625654,-36.946064,4.719040,18.054686,0.255826,2.020675,0.067611,0.000000,0.000000,0.000000,0.000000,0.000000,0.000000
13298370.000000,-0.257402,0.637824,0.317892,-1.532898,-0.227798,2.136782,0.128275,0.053170,0.637361,-0.106229,-0.246276,-0.261670,0.864509,0.147540,0.673261,-36.600910,4.671432,17.907896,0.261320,2.066451,0.034652,0.000000,0.000000,0.000000,0.000000,0.000000,0.000000
13298371.000000,-0.257352,0.638456,0.317776,-1.533134,-0.228063,2.137683,0.128429,0.052039,0.636461,-0.108467,-0.243354,-0.262818,0.876219,0.148057,0.697065,-36.307331,4.695236,17.832518,0.267728,1.930038,0.028243,0.000000,0.000000,0.000000,0.000000,0.000000,0.000000
13298372.000000,-0.257293,0.639097,0.317666,-1.533366,-0.228327,2.138585,0.128579,0.052894,0.629399,-0.107091,-0.240862,-0.263639,0.878880,0.148603,0.649457,-36.089130,4.719040,17.757139,0.273221,1.793624,0.034652,0.000000,0.000000,0.000000,0.000000,0.000000,0.000000
13298374.000000,-0.257194,0.640407,0.317435,-1.533802,-0.228864,2.140341,0.128881,0.049820,0.639111,-0.110620,-0.229518,-0.261236,0.876694,0.148942,0.748639,-36.136738,4.770615,17.463560,0.351041,1.806442,0.061202,0.000000,0.000000,0.000000,0.000000,0.000000,0.000000
13298375.000000,-0.257140,0.641075,0.317325,-1.534014,-0.229130,2.141218,0.129036,0.050005,0.644245,-0.110489,-0.223434,-0.263740,0.893298,0.150037,0.748639,-36.307331,4.742844,17.340574,0.398649,1.819259,0.048385,0.000000,0.000000,0.000000,0.000000,0.000000,0.000000
13298376.000000,-0.257077,0.641739,0.317210,-1.534223,-0.229390,2.142109,0.129187,0.055865,0.652521,-0.110897,-0.219250,-0.261784,0.893996,0.154009,0.625654,-36.553303,4.742844,17.241392,0.351041,1.754256,0.067611,0.000000,0.000000,0.000000,0.000000,0.000000,0.000000
13298377.000000,-0.257019,0.642411,0.317090,-1.534434,-0.229647,2.143011,0.129345,0.058632,0.653965,-0.113266,-0.213745,-0.260503,0.890020,0.156340,0.574079,-36.676289,4.818222,17.189817,0.291532,1.670028,0.028243,0.000000,0.000000,0.000000,0.000000,0.000000,0.000000
13298378.000000,-0.256962,0.643078,0.316972,-1.534637,-0.229909,2.143896,0.129492,0.056303,0.666222,-0.116822,-0.211859,-0.255826,0.886595,0.157529,0.574079,-36.846882,4.842026,17.090635,0.267728,1.617843,0.087753,0.000000,0.000000,0.000000,0.000000,0.000000,0.000000
13298379.000000,-0.256905,0.643756,0.316862,-1.534841,-0.230162,2.144774,0.129650,0.054696,0.669563,-0.115218,-0.210710,-0.257978,0.882587,0.161294,0.574079,-37.017475,4.818222,16.991453,0.261320,1.702071,0.074935,0.000000,0.000000,0.000000,0.000000,0.000000,0.000000
13298380.000000,-0.256850,0.644437,0.316747,-1.535044,-0.230423,2.145657,0.129809,0.052774,0.668782,-0.115747,-0.208249,-0.256491,0.880591,0.160527,0.601850,-37.211872,4.865829,16.820860,0.297025,1.793624,0.028243,0.000000,0.000000,0.000000,0.000000,0.000000,0.000000
13298381.000000,-0.256792,0.645113,0.316629,-1.535242,-0.230689,2.146526,0.129959,0.054730,0.673787,-0.112753,-0.203228,-0.258851,0.871898,0.156252,0.625654,-37.481647,4.917404,16.646299,0.308927,1.832076,0.067611,0.000000,0.000000,0.000000,0.000000,0.000000,0.000000
13298382.000000,-0.256727,0.645798,0.316517,-1.535454,-0.230943,2.147418,0.130112,0.059626,0.674922,-0.115205,-0.207505,-0.258879,0.875339,0.155236,0.502668,-37.680012,4.917404,16.697874,0.273221,1.800033,0.041976,0.000000,0.000000,0.000000,0.000000,0.000000,0.000000
13298383.000000,-0.256670,0.646486,0.316402,-1.535645,-0.231199,2.148307,0.130260,0.057008,0.674209,-0.114631,-0.205375,-0.258079,0.886141,0.153685,0.502668,-37.775227,4.917404,16.570921,0.225614,1.727706,0.054794,0.000000,0.000000,0.000000,0.000000,0.000000,0.000000
13298384.000000,-0.256609,0.647167,0.316283,-1.535842,-0.231448,2.149199,0.130414,0.059512,0.678834,-0.117175,-0.203677,-0.261479,0.880830,0.153606,0.451093,-37.802998,4.917404,16.523314,0.183500,1.630660,0.034652,0.000000,0.000000,0.000000,0.000000,0.000000,0.000000
13298385.000000,-0.256547,0.647859,0.316165,-1.536031,-0.231710,2.150094,0.130553,0.060125,0.681899,-0.119227,-0.196370,-0.268083,0.876093,0.150562,0.451093,-37.874409,4.917404,16.348753,0.201810,1.662704,0.100570,0.000000,0.000000,0.000000,0.000000,0.000000,0.000000
13298386.000000,-0.256488,0.648555,0.316044,-1.536212,-0.231981,2.150961,0.130709,0.060649,0.687936,-0.116044,-0.190485,-0.269558,0.870441,0.153251,0.451093,-38.167988,4.988815,16.150389,0.273221,1.760665,0.028243,0.000000,0.000000,0.000000,0.000000,0.000000,0.000000
13298387.000000,-0.256427,0.649262,0.315927,-1.536389,-0.232237,2.151837,0.130856,0.061684,0.695333,-0.117230,-0.182955,-0.263305,0.872081,0.151149,0.427289,-38.461567,4.941208,15.955992,0.267728,1.793624,0.067611,0.000000,0.000000,0.000000,0.000000,0.000000,0.000000
13298388.000000,-0.256362,0.649994,0.315809,-1.536578,-0.232487,2.152720,0.131008,0.062904,0.703960,-0.119314,-0.190293,-0.261377,0.871571,0.151916,0.375715,-39.024921,4.941208,15.955992,0.219205,1.670028,0.048385,0.000000,0.000000,0.000000,0.000000,0.000000,0.000000
13298389.000000,-0.256300,0.650711,0.315688,-1.536761,-0.232736,2.153622,0.131160,0.063263,0.705411,-0.117604,-0.186733,-0.260582,0.878652,0.146795,0.351911,-39.417683,4.941208,15.928221,0.171598,1.454879,0.048385,0.000000,0.000000,0.000000,0.000000,0.000000,0.000000
13298390.000000,-0.256234,0.651432,0.315567,-1.536953,-0.232990,2.154510,0.131308,0.064111,0.705253,-0.120252,-0.186544,-0.264569,0.881711,0.147176,0.304304,-39.687458,4.965012,16.027403,0.117582,1.409103,0.067611,0.000000,0.000000,0.000000,0.000000,0.000000,0.000000
13298391.000000,-0.256174,0.652154,0.315446,-1.537130,-0.233265,2.155373,0.131462,0.063019,0.715956,-0.117772,-0.184041,-0.266176,0.870896,0.149192,0.328107,-39.981037,4.941208,16.027403,0.166105,1.474105,0.048385,0.000000,0.000000,0.000000,0.000000,0.000000,0.000000
13298392.000000,-0.256111,0.652886,0.315321,-1.537308,-0.233540,2.156239,0.131610,0.062366,0.722543,-0.120274,-0.182705,-0.274946,0.863113,0.148071,0.351911,-40.322224,4.965012,16.055174,0.285123,1.611434,0.094161,0.000000,0.000000,0.000000,0.000000,0.000000,0.000000
13298393.000000,-0.256053,0.653629,0.315203,-1.537495,-0.233808,2.157086,0.131762,0.060001,0.728768,-0.118462,-0.183423,-0.272744,0.860307,0.150802,0.451093,-40.738789,4.965012,16.150389,0.297025,1.747848,0.048385,0.000000,0.000000,0.000000,0.000000,0.000000,0.000000
13298394.000000,-0.255988,0.654358,0.315080,-1.537689,-0.234075,2.157962,0.131910,0.061091,0.730658,-0.119952,-0.187156,-0.269115,0.864705,0.149486,0.427289,-41.032368,4.965012,16.400328,0.261320,1.714889,0.074935,0.000000,0.000000,0.000000,0.000000,0.000000,0.000000
13298395.000000,-0.255917,0.655082,0.314955,-1.537884,-0.234340,2.158851,0.132061,0.063926,0.727548,-0.122486,-0.189722,-0.274035,0.862274,0.146183,0.328107,-41.079975,5.012619,16.670103,0.166105,1.539108,0.094161,0.000000,0.000000,0.000000,0.000000,0.000000,0.000000
13298396.000000,-0.255853,0.655794,0.314829,-1.538074,-0.234613,2.159713,0.132220,0.060298,0.737471,-0.123904,-0.187321,-0.266327,0.863124,0.148490,0.328107,-41.008564,5.040390,16.892271,0.159696,1.565658,0.067611,0.000000,0.000000,0.000000,0.000000,0.000000,0.000000
13298397.000000,-0.255790,0.656527,0.314703,-1.538257,-0.234886,2.160575,0.132372,0.063440,0.731932,-0.124131,-0.187364,-0.267833,0.858760,0.143639,0.351911,-41.155354,5.040390,16.920042,0.207303,1.695663,0.087753,0.000000,0.000000,0.000000,0.000000,0.000000,0.000000
13298398.000000,-0.255730,0.657263,0.314574,-1.538452,-0.235156,2.161427,0.132533,0.061431,0.728597,-0.128158,-0.189772,-0.267976,0.846517,0.147969,0.427289,-41.226765,5.064194,17.043028,0.231107,1.832076,0.021835,0.000000,0.000000,0.000000,0.000000,0.000000,0.000000
13298399.000000,-0.255661,0.657994,0.314445,-1.538642,-0.235435,2.162286,0.132689,0.062470,0.732288,-0.125194,-0.188613,-0.277620,0.847420,0.146876,0.403486,-41.401325,5.111801,17.166014,0.267728,1.851302,0.061202,0.000000,0.000000,0.000000,0.000000,0.000000,0.000000
13298400.000000,-0.255594,0.658729,0.314320,-1.538834,-0.235715,2.163161,0.132841,0.063201,0.734151,-0.127495,-0.187778,-0.275088,0.855140,0.148109,0.375715,-41.448933,5.111801,17.312803,0.291532,1.741439,0.061202,0.000000,0.000000,0.000000,0.000000,0.000000,0.000000
13298401.000000,-0.255530,0.659475,0.314182,-1.539019,-0.235990,2.164016,0.132991,0.065499,0.736033,-0.129836,-0.191532,-0.275474,0.853498,0.152308,0.403486,-41.595722,5.234787,17.411985,0.267728,1.611434,0.094161,0.000000,0.000000,0.000000,0.000000,0.000000,0.000000
13298402.000000,-0.255467,0.660202,0.314052,-1.539205,-0.236265,2.164881,0.133154,0.067473,0.734641,-0.127794,-0.189529,-0.273775,0.852331,0.154158,0.427289,-41.595722,5.210983,17.388182,0.297025,1.605026,0.034652,0.000000,0.000000,0.000000,0.000000,0.000000,0.000000
13298403.000000,-0.255406,0.660930,0.313921,-1.539387,-0.236546,2.165728,0.133303,0.064617,0.731878,-0.130909,-0.187662,-0.278267,0.849216,0.151587,0.502668,-41.472736,5.234787,17.340574,0.351041,1.786300,0.081344,0.000000,0.000000,0.000000,0.000000,0.000000,0.000000
13298404.000000,-0.255335,0.661648,0.313784,-1.539571,-0.236824,2.166569,0.133459,0.065573,0.729269,-0.133521,-0.184706,-0.273342,0.851673,0.151198,0.451093,-41.373554,5.286362,17.340574,0.327238,1.851302,0.087753,0.000000,0.000000,0.000000,0.000000,0.000000,0.000000
13298405.000000,-0.255266,0.662367,0.313649,-1.539751,-0.237092,2.167438,0.133624,0.064900,0.723829,-0.131994,-0.181921,-0.274287,0.848057,0.148697,0.451093,-41.131550,5.310165,17.340574,0.285123,1.779891,0.028243,0.000000,0.000000,0.000000,0.000000,0.000000,0.000000
13298406.000000,-0.255200,0.663085,0.313514,-1.539937,-0.237358,2.168293,0.133770,0.066822,0.717323,-0.128724,-0.182564,-0.273984,0.867232,0.146515,0.474897,-40.861774,5.381577,17.435789,0.225614,1.754256,0.100570,0.000000,0.000000,0.000000,0.000000,0.000000,0.000000
13298407.000000,-0.255131,0.663790,0.313385,-1.540123,-0.237628,2.169150,0.133936,0.069564,0.707994,-0.126816,-0.184479,-0.272220,0.872138,0.149008,0.451093,-40.544392,5.357773,17.463560,0.225614,1.779891,0.054794,0.000000,0.000000,0.000000,0.000000,0.000000,0.000000
13298408.000000,-0.255062,0.664496,0.313256,-1.540306,-0.237901,2.170000,0.134088,0.067870,0.703226,-0.125860,-0.183589,-0.276441,0.858231,0.149557,0.451093,-40.104023,5.333969,17.534971,0.255826,1.884261,0.054794,0.000000,0.000000,0.000000,0.000000,0.000000,0.000000
13298409.000000,-0.254996,0.665192,0.313119,-1.540478,-0.238184,2.170842,0.134243,0.066051,0.697795,-0.132620,-0.178390,-0.274798,0.855032,0.145844,0.474897,-39.687458,5.357773,17.534971,0.303434,1.923629,0.041976,0.000000,0.000000,0.000000,0.000000,0.000000,0.000000
13298410.000000,-0.254927,0.665902,0.312981,-1.540651,-0.238453,2.171690,0.134393,0.065867,0.702063,-0.134549,-0.174808,-0.272323,0.860626,0.146047,0.451093,-39.417683,5.381577,17.562742,0.308927,1.949264,0.067611,0.000000,0.000000,0.000000,0.000000,0.000000,0.000000
13298411.000000,-0.254861,0.666631,0.312844,-1.540819,-0.238719,2.172531,0.134544,0.066883,0.711510,-0.132758,-0.173836,-0.269307,0.860459,0.146652,0.502668,-39.441486,5.405380,17.511168,0.285123,1.909896,0.087753,0.000000,0.000000,0.000000,0.000000,0.000000,0.000000
13298412.000000,-0.254789,0.667351,0.312711,-1.540988,-0.238993,2.173380,0.134704,0.069291,0.719478,-0.129472,-0.172428,-0.267727,0.855359,0.149883,0.474897,-39.512897,5.357773,17.562742,0.273221,1.871444,0.028243,0.000000,0.000000,0.000000,0.000000,0.000000,0.000000
13298413.000000,-0.254725,0.668082,0.312577,-1.541156,-0.239263,2.174233,0.134850,0.067014,0.719961,-0.131125,-0.170723,-0.267000,0.853844,0.143794,0.502668,-39.612080,5.333969,17.610350,0.267728,1.851302,0.100570,0.000000,0.000000,0.000000,0.000000,0.000000,0.000000
13298414.000000,-0.254653,0.668824,0.312439,-1.541313,-0.239542,2.175073,0.135009,0.067179,0.735268,-0.130418,-0.168169,-0.271841,0.854008,0.147610,0.451093,-39.782673,5.357773,17.586546,0.303434,1.819259,0.048385,0.000000,0.000000,0.000000,0.000000,0.000000,0.000000
13298415.000000,-0.254589,0.669549,0.312296,-1.541474,-0.239808,2.175906,0.135163,0.064851,0.726050,-0.133425,-0.165193,-0.270558,0.843934,0.148569,0.502668,-39.858051,5.405380,17.634153,0.315336,1.916305,0.041976,0.000000,0.000000,0.000000,0.000000,0.000000,0.000000
13298416.000000,-0.254526,0.670288,0.312167,-1.541635,-0.240074,2.176758,0.135310,0.062050,0.725519,-0.132398,-0.165143,-0.268652,0.845918,0.143504,0.601850,-39.981037,5.310165,17.661924,0.303434,1.903487,0.067611,0.000000,0.000000,0.000000,0.000000,0.000000,0.000000
13298417.000000,-0.254458,0.671018,0.312027,-1.541805,-0.240347,2.177597,0.135461,0.065126,0.728144,-0.131659,-0.166617,-0.266198,0.848912,0.139924,0.625654,-40.052448,5.357773,17.884092,0.261320,1.851302,0.081344,0.000000,0.000000,0.000000,0.000000,0.000000,0.000000
13298418.000000,-0.254382,0.671759,0.311894,-1.541961,-0.240622,2.178437,0.135620,0.069611,0.732975,-0.136226,-0.162930,-0.265272,0.837665,0.149551,0.550275,-40.151630,5.381577,17.931700,0.243009,1.851302,0.028243,0.000000,0.000000,0.000000,0.000000,0.000000,0.000000
13298419.000000,-0.254318,0.672509,0.311765,-1.542120,-0.240899,2.179272,0.135772,0.069718,0.741904,-0.135517,-0.165120,-0.265463,0.840126,0.148471,0.601850,-40.322224,5.333969,18.078489,0.255826,1.865035,0.067611,0.000000,0.000000,0.000000,0.000000,0.000000,0.000000
13298420.000000,-0.254257,0.673229,0.311626,-1.542273,-0.241176,2.180115,0.135929,0.065851,0.739139,-0.131560,-0.159529,-0.266547,0.841121,0.147670,0.697065,-40.199238,5.405380,18.153868,0.285123,1.903487,0.107894,0.000000,0.000000,0.000000,0.000000,0.000000,0.000000
13298421.000000,-0.254186,0.673965,0.311501,-1.542422,-0.241456,2.180952,0.136090,0.065896,0.736747,-0.128306,-0.156818,-0.272067,0.832964,0.156347,0.673261,-40.127827,5.333969,18.153868,0.320829,1.942855,0.028243,0.000000,0.000000,0.000000,0.000000,0.000000,0.000000
13298422.000000,-0.254116,0.674700,0.311361,-1.542570,-0.241748,2.181783,0.136241,0.068364,0.737682,-0.132314,-0.151457,-0.280301,0.835110,0.151843,0.673261,-40.223042,5.405380,18.130064,0.362943,1.995040,0.107894,0.000000,0.000000,0.000000,0.000000,0.000000,0.000000
13298423.000000,-0.254053,0.675450,0.311228,-1.542709,-0.242023,2.182632,0.136400,0.068494,0.742166,-0.130049,-0.148523,-0.279798,0.838312,0.156945,0.748639,-40.346027,5.381577,18.030882,0.332731,1.962081,0.100570,0.000000,0.000000,0.000000,0.000000,0.000000,0.000000
13298424.000000,-0.253987,0.676212,0.311093,-1.542859,-0.242297,2.183468,0.136564,0.069185,0.742285,-0.130124,-0.147130,-0.279025,0.835649,0.157278,0.796247,-40.615803,5.433151,18.078489,0.297025,1.858627,0.054794,0.000000,0.000000,0.000000,0.000000,0.000000,0.000000
13298425.000000,-0.253916,0.676969,0.310963,-1.542996,-0.242572,2.184318,0.136715,0.068980,0.742085,-0.127347,-0.141205,-0.279630,0.841249,0.154104,0.748639,-40.885578,5.381577,18.054686,0.273221,1.825668,0.087753,0.000000,0.000000,0.000000,0.000000,0.000000,0.000000
13298426.000000,-0.253846,0.677742,0.310827,-1.543130,-0.242850,2.185161,0.136877,0.070617,0.744190,-0.130664,-0.139030,-0.284451,0.842658,0.154964,0.748639,-41.202961,5.405380,18.007078,0.243009,1.844894,0.048385,0.000000,0.000000,0.000000,0.000000,0.000000,0.000000
13298427.000000,-0.253772,0.678503,0.310687,-1.543262,-0.243135,2.185983,0.137034,0.072995,0.761744,-0.131133,-0.140245,-0.280275,0.833717,0.152840,0.697065,-41.425129,5.480759,17.931700,0.273221,1.871444,0.081344,0.000000,0.000000,0.000000,0.000000,0.000000,0.000000
13298428.000000,-0.253705,0.679274,0.310546,-1.543396,-0.243415,2.186822,0.137199,0.071821,0.763666,-0.134451,-0.136342,-0.277536,0.827520,0.153226,0.772443,-41.619526,5.556137,17.907896,0.303434,1.974899,0.061202,0.000000,0.000000,0.000000,0.000000,0.000000,0.000000
13298429.000000,-0.253631,0.680065,0.310406,-1.543537,-0.243690,2.187674,0.137351,0.073248,0.773309,-0.136890,-0.137399,-0.279253,0.834113,0.151252,0.748639,-42.036091,5.627548,18.054686,0.308927,1.949264,0.100570,0.000000,0.000000,0.000000,0.000000,0.000000,0.000000
13298430.000000,-0.253556,0.680822,0.310270,-1.543681,-0.243971,2.188516,0.137516,0.073909,0.773159,-0.134056,-0.140169,-0.280710,0.842446,0.152674,0.724836,-42.135273,5.651352,18.304625,0.315336,1.832076,0.054794,0.000000,0.000000,0.000000,0.000000,0.000000,0.000000
13298431.000000,-0.253477,0.681577,0.310131,-1.543823,-0.244247,2.189368,0.137676,0.076534,0.768143,-0.138616,-0.141486,-0.280666,0.840595,0.149219,0.625654,-42.083698,5.679123,18.550596,0.297025,1.773483,0.048385,0.000000,0.000000,0.000000,0.000000,0.000000,0.000000
13298432.000000,-0.253404,0.682338,0.309991,-1.543952,-0.244530,2.190187,0.137830,0.072808,0.765660,-0.139366,-0.136382,-0.278733,0.836403,0.148122,0.625654,-41.960712,5.726730,18.673582,0.369352,1.825668,0.087753,0.000000,0.000000,0.000000,0.000000,0.000000,0.000000
13298433.000000,-0.253330,0.683093,0.309852,-1.544077,-0.244807,2.191005,0.137989,0.073858,0.765942,-0.139384,-0.136701,-0.276212,0.829290,0.153559,0.601850,-41.936909,5.750534,18.697386,0.398649,1.974899,0.087753,0.000000,0.000000,0.000000,0.000000,0.000000,0.000000
13298434.000000,-0.253252,0.683859,0.309712,-1.544216,-0.245079,2.191824,0.138150,0.075252,0.764554,-0.138401,-0.140016,-0.277271,0.819009,0.158729,0.550275,-41.913105,5.726730,18.848143,0.381254,2.137862,0.061202,0.000000,0.000000,0.000000,0.000000,0.000000,0.000000
13298435.000000,-0.253170,0.684608,0.309571,-1.544343,-0.245356,2.192640,0.138313,0.074816,0.760730,-0.137454,-0.136929,-0.276792,0.813949,0.156958,0.427289,-41.841694,5.702927,18.895750,0.332731,2.137862,0.048385,0.000000,0.000000,0.000000,0.000000,0.000000,0.000000
13298436.000000,-0.253083,0.685372,0.309425,-1.544476,-0.245631,2.193476,0.138464,0.078694,0.761188,-0.140400,-0.136825,-0.272205,0.820976,0.153001,0.252729,-41.766315,5.726730,19.042540,0.285123,2.014266,0.114303,0.000000,0.000000,0.000000,0.000000,0.000000,0.000000
13298437.000000,-0.253008,0.686137,0.309282,-1.544593,-0.245907,2.194300,0.138633,0.076627,0.757521,-0.143478,-0.132648,-0.269403,0.821833,0.154862,0.276533,-41.667133,5.750534,19.042540,0.267728,1.916305,0.054794,0.000000,0.000000,0.000000,0.000000,0.000000,0.000000
13298438.000000,-0.252932,0.686897,0.309139,-1.544711,-0.246185,2.195122,0.138792,0.079673,0.752577,-0.141894,-0.127444,-0.273931,0.818767,0.157072,0.252729,-41.595722,5.750534,19.042540,0.291532,1.936446,0.087753,0.000000,0.000000,0.000000,0.000000,0.000000,0.000000
13298439.000000,-0.252855,0.687660,0.309001,-1.544819,-0.246473,2.195929,0.138950,0.080258,0.747022,-0.142943,-0.120625,-0.279890,0.816618,0.155189,0.304304,-41.496540,5.702927,18.919554,0.386747,2.066451,0.100570,0.000000,0.000000,0.000000,0.000000,0.000000,0.000000
13298440.000000,-0.252773,0.688408,0.308856,-1.544932,-0.246763,2.196732,0.139111,0.082685,0.742920,-0.141627,-0.118814,-0.277073,0.811991,0.156000,0.276533,-41.325947,5.702927,18.919554,0.440763,2.163497,0.054794,0.000000,0.000000,0.000000,0.000000,0.000000,0.000000
13298441.000000,-0.252690,0.689166,0.308712,-1.545041,-0.247036,2.197564,0.139265,0.081863,0.740234,-0.141359,-0.116193,-0.278413,0.815389,0.152796,0.228925,-41.179157,5.726730,18.871946,0.440763,2.039901,0.107894,0.000000,0.000000,0.000000,0.000000,0.000000,0.000000
13298442.000000,-0.252610,0.689913,0.308576,-1.545149,-0.247310,2.198386,0.139429,0.079974,0.738755,-0.142651,-0.109360,-0.278036,0.838946,0.154239,0.228925,-40.786396,5.679123,18.871946,0.410551,1.897079,0.061202,0.000000,0.000000,0.000000,0.000000,0.000000,0.000000
13298443.000000,-0.252530,0.690645,0.308441,-1.545254,-0.247582,2.199208,0.139589,0.084486,0.736869,-0.139033,-0.105259,-0.276870,0.831960,0.152624,0.228925,-40.322224,5.579941,18.919554,0.339139,1.897079,0.074935,0.000000,0.000000,0.000000,0.000000,0.000000,0.000000
13298444.000000,-0.252445,0.691387,0.308306,-1.545349,-0.247863,2.200025,0.139749,0.084472,0.738286,-0.141125,-0.099631,-0.282883,0.818982,0.148761,0.129743,-39.905659,5.528366,18.871946,0.320829,1.981307,0.041976,0.000000,0.000000,0.000000,0.000000,0.000000,0.000000
13298445.000000,-0.252369,0.692122,0.308169,-1.545429,-0.248153,2.200829,0.139907,0.080157,0.754675,-0.140096,-0.089588,-0.283963,0.815156,0.148808,0.205121,-39.588276,5.504562,18.697386,0.362943,2.060043,0.067611,0.000000,0.000000,0.000000,0.000000,0.000000,0.000000
13298446.000000,-0.252292,0.692882,0.308035,-1.545514,-0.248428,2.201650,0.140066,0.077880,0.759576,-0.137560,-0.084757,-0.283105,0.812724,0.153105,0.252729,-39.564472,5.405380,18.625975,0.344633,2.079269,0.094161,0.000000,0.000000,0.000000,0.000000,0.000000,0.000000
13298447.000000,-0.252205,0.693642,0.307901,-1.545596,-0.248708,2.202480,0.140228,0.082130,0.761088,-0.133237,-0.081646,-0.279191,0.810479,0.154689,0.177350,-39.489094,5.333969,18.574400,0.362943,2.027084,0.041976,0.000000,0.000000,0.000000,0.000000,0.000000,0.000000
13298448.000000,-0.252128,0.694395,0.307770,-1.545684,-0.248997,2.203302,0.140377,0.079160,0.762217,-0.132195,-0.084881,-0.285448,0.821147,0.156208,0.228925,-39.540668,5.234787,18.625975,0.374845,1.877853,0.094161,0.000000,0.000000,0.000000,0.000000,0.000000,0.000000
13298449.000000,-0.252051,0.695165,0.307630,-1.545753,-0.249280,2.204127,0.140537,0.080256,0.764750,-0.140087,-0.081563,-0.285576,0.818651,0.159807,0.276533,-39.612080,5.258591,18.451414,0.393156,1.844894,0.067611,0.000000,0.000000,0.000000,0.000000,0.000000,0.000000
13298450.000000,-0.251970,0.695937,0.307493,-1.545820,-0.249563,2.204940,0.140693,0.077804,0.764830,-0.140020,-0.076997,-0.285708,0.814712,0.155947,0.328107,-39.687458,5.258591,18.304625,0.428861,1.884261,0.114303,0.000000,0.000000,0.000000,0.000000,0.000000,0.000000
13298451.000000,-0.251890,0.696705,0.307366,-1.545885,-0.249841,2.205761,0.140855,0.076302,0.766587,-0.136195,-0.073710,-0.289137,0.817430,0.154753,0.375715,-39.858051,5.111801,18.153868,0.452665,1.923629,0.114303,0.000000,0.000000,0.000000,0.000000,0.000000,0.000000
13298452.000000,-0.251813,0.697478,0.307233,-1.545958,-0.250113,2.206595,0.141018,0.075079,0.763445,-0.135430,-0.072215,-0.284703,0.815452,0.160615,0.427289,-40.028645,5.040390,18.177671,0.374845,1.955673,0.081344,0.000000,0.000000,0.000000,0.000000,0.000000,0.000000
13298453.000000,-0.251730,0.698244,0.307105,-1.546020,-0.250396,2.207415,0.141176,0.078520,0.763685,-0.133955,-0.069200,-0.282436,0.820109,0.162407,0.427289,-40.127827,4.941208,18.130064,0.327238,1.949264,0.087753,0.000000,0.000000,0.000000,0.000000,0.000000,0.000000
13298454.000000,-0.251650,0.699017,0.306973,-1.546076,-0.250670,2.208247,0.141338,0.078462,0.758413,-0.134755,-0.066088,-0.281732,0.822142,0.160858,0.403486,-40.127827,4.941208,18.054686,0.291532,1.923629,0.054794,0.000000,0.000000,0.000000,0.000000,0.000000,0.000000
13298455.000000,-0.251575,0.699786,0.306844,-1.546137,-0.250943,2.209068,0.141493,0.075302,0.750771,-0.131669,-0.065865,-0.281271,0.821484,0.158065,0.502668,-39.981037,4.893600,18.078489,0.273221,1.877853,0.061202,0.000000,0.000000,0.000000,0.000000,0.000000,0.000000
13298456.000000,-0.251502,0.700540,0.306711,-1.546188,-0.251230,2.210023,0.141685,0.073281,0.749008,-0.129555,-0.062445,-0.286432,0.862537,0.169004,0.601850,-39.834248,4.865829,17.955503,0.393156,0.706893,-0.287614,0.000000,0.000000,0.000000,0.000000,0.000000,0.000000
13298457.000000,-0.251424,0.701321,0.306575,-1.546238,-0.251760,2.211249,0.141832,0.073622,0.753224,-0.136905,-0.058085,-0.367856,0.990383,0.163811,0.625654,-39.881855,4.941208,17.884092,2.616056,-2.700700,-0.169511,0.000000,0.000000,0.000000,0.000000,0.000000,0.000000
13298458.000000,-0.251342,0.702091,0.306424,-1.546263,-0.251996,2.212375,0.141942,0.074899,0.758093,-0.141630,-0.047676,-0.324514,1.040212,0.146343,0.601850,-39.905659,5.135605,17.511168,1.958707,-4.826554,0.331283,0.000000,0.000000,0.000000,0.000000,0.000000,0.000000
13298459.000000,-0.251279,0.702923,0.306363,-1.546165,-0.252361,2.213342,0.142185,0.069414,0.783171,-0.112115,0.002461,-0.337226,1.017127,0.175418,0.847822,-40.738789,4.056503,15.436277,2.389005,-4.794511,-0.386491,0.000000,0.000000,0.000000,0.000000,0.000000,0.000000
13298460.000000,-0.251108,0.703758,0.306139,-1.546028,-0.252767,2.214399,0.142289,0.103436,0.800980,-0.148945,0.050800,-0.367466,1.050891,0.154800,-0.389971,-41.472736,5.405380,13.012266,3.022550,-5.236711,0.114303,0.000000,0.000000,0.000000,0.000000,0.000000,0.000000
13298461.000000,-0.251037,0.704481,0.305982,-1.545874,-0.253053,2.215508,0.142478,0.095417,0.780406,-0.151462,0.085178,-0.335533,1.071049,0.166870,-0.191607,-40.639606,5.702927,10.663633,2.323087,-5.672502,-0.097184,0.000000,0.000000,0.000000,0.000000,0.000000,0.000000
13298462.000000,-0.251027,0.705203,0.305970,-1.545756,-0.253271,2.216517,0.142555,0.066431,0.758926,-0.107324,0.097428,-0.287349,1.049120,0.139732,0.923200,-39.687458,3.885910,9.207640,1.121915,-4.976701,0.654464,0.000000,0.000000,0.000000,0.000000,0.000000,0.000000
13298463.000000,-0.250896,0.705909,0.305844,-1.545516,-0.253748,2.217551,0.142781,0.088370,0.756900,-0.111042,0.143420,-0.347512,1.040572,0.168543,0.276533,-38.707539,3.739120,6.339293,2.316679,-4.612321,0.021835,0.000000,0.000000,0.000000,0.000000,0.000000,0.000000
13298464.000000,-0.250832,0.706550,0.305763,-1.545264,-0.254147,2.218529,0.142942,0.081110,0.719697,-0.099419,0.179666,-0.367986,1.011077,0.162275,0.574079,-36.723896,3.001205,3.693114,2.831205,-3.753556,-0.064225,0.000000,0.000000,0.000000,0.000000,0.000000,0.000000
13298465.000000,-0.250864,0.707089,0.305812,-1.545057,-0.254359,2.219461,0.143072,0.041255,0.657558,-0.048213,0.188947,-0.314573,0.966463,0.150430,2.232404,-33.442951,0.549423,2.161741,1.641935,-2.707108,0.166488,0.000000,0.000000,0.000000,0.000000,0.000000,0.000000
13298466.000000,-0.250743,0.707532,0.305747,-1.544820,-0.254693,2.220395,0.143259,0.067732,0.586440,-0.051246,0.206046,-0.319167,0.949229,0.160326,1.613508,-29.162251,-0.017899,0.531187,1.665739,-2.154130,-0.097184,0.000000,0.000000,0.000000,0.000000,0.000000,0.000000
13298467.000000,-0.250584,0.707920,0.305641,-1.544593,-0.255013,2.221239,0.143362,0.099704,0.515206,-0.070063,0.207801,-0.319823,0.904042,0.142162,0.375715,-24.385639,0.180466,-0.484438,1.760953,-1.158952,0.338607,0.000000,0.000000,0.000000,0.000000,0.000000,0.000000
13298468.000000,-0.250545,0.708242,0.305605,-1.544376,-0.255283,2.221931,0.143569,0.079000,0.440299,-0.061703,0.207515,-0.306536,0.832298,0.162493,0.923200,-19.101215,-0.509842,-1.075563,1.396574,0.597030,-0.122819,0.000000,0.000000,0.000000,0.000000,0.000000,0.000000
13298469.000000,-0.250497,0.708514,0.305531,-1.544146,-0.255540,2.222665,0.143740,0.067643,0.379759,-0.066466,0.212543,-0.293438,0.791943,0.162101,1.367536,-13.765217,-0.605057,-1.670656,1.079801,1.429244,-0.215287,0.000000,0.000000,0.000000,0.000000,0.000000,0.000000
13298470.000000,-0.250430,0.708785,0.305475,-1.543876,-0.255906,2.223407,0.143850,0.066352,0.342741,-0.066924,0.227661,-0.321694,0.772754,0.143210,1.542096,-8.869587,-0.926407,-2.559328,1.857084,1.689254,0.199447,0.000000,0.000000,0.000000,0.000000,0.000000,0.000000
13298471.000000,-0.250381,0.709000,0.305439,-1.543650,-0.256188,2.224032,0.144019,0.059155,0.300814,-0.058089,0.228826,-0.308628,0.721538,0.154523,1.986432,-3.803364,-1.489761,-2.733888,1.923002,2.372237,0.087753,0.000000,0.000000,0.000000,0.000000,0.000000,0.000000
13298472.000000,-0.250358,0.709197,0.305413,-1.543407,-0.256389,2.224659,0.144210,0.047934,0.260987,-0.045356,0.227910,-0.276932,0.688371,0.169550,2.704511,1.143841,-2.199906,-3.055238,1.259244,2.743026,-0.208878,0.000000,0.000000,0.000000,0.000000,0.000000,0.000000
13298473.000000,-0.250350,0.709420,0.305424,-1.543136,-0.256673,2.225303,0.144331,0.033703,0.247726,-0.028977,0.245421,-0.278461,0.677790,0.156341,3.569379,5.230145,-3.354386,-3.769350,1.355375,2.489425,0.127120,0.000000,0.000000,0.000000,0.000000,0.000000,0.000000
13298474.000000,-0.250314,0.709595,0.305410,-1.542886,-0.256886,2.225911,0.144517,0.031818,0.223365,-0.021844,0.246542,-0.253045,0.656577,0.166945,3.966108,9.491009,-4.068497,-4.189882,0.871061,2.521468,-0.064225,0.000000,0.000000,0.000000,0.000000,0.000000,0.000000
13298475.000000,-0.250258,0.709710,0.305351,-1.542633,-0.257026,2.226426,0.144704,0.038190,0.187958,-0.034490,0.243019,-0.217147,0.608761,0.176526,4.017683,14.263653,-4.016922,-4.535036,-0.103060,3.256637,-0.307755,0.000000,0.000000,0.000000,0.000000,0.000000,0.000000
13298476.000000,-0.250191,0.709790,0.305292,-1.542401,-0.257208,2.226958,0.144833,0.046202,0.152763,-0.042853,0.240146,-0.202365,0.590020,0.158055,3.890729,18.937115,-3.945511,-4.709596,-0.539767,3.705245,-0.004716,0.000000,0.000000,0.000000,0.000000,0.000000,0.000000
13298477.000000,-0.250154,0.709860,0.305246,-1.542175,-0.257425,2.227503,0.145013,0.044565,0.126864,-0.044173,0.234808,-0.207986,0.573254,0.166047,4.188276,23.467754,-4.040726,-4.733400,-0.539767,3.946029,-0.130143,0.000000,0.000000,0.000000,0.000000,0.000000,0.000000
13298478.000000,-0.250133,0.709874,0.305192,-1.541979,-0.257586,2.228114,0.145172,0.035615,0.084972,-0.050195,0.222690,-0.189698,0.596717,0.161870,4.684186,28.410992,-4.040726,-4.364442,-0.981967,3.640243,-0.122819,0.000000,0.000000,0.000000,0.000000,0.000000,0.000000
13298479.000000,-0.250103,0.709862,0.305146,-1.541803,-0.257800,2.228772,0.145323,0.035883,0.054675,-0.050012,0.207361,-0.198038,0.620478,0.154676,5.029340,33.207439,-4.215286,-3.820925,-0.838229,2.846481,-0.017533,0.000000,0.000000,0.000000,0.000000,0.000000,0.000000
13298480.000000,-0.250049,0.709866,0.305093,-1.541612,-0.258024,2.229475,0.145497,0.041944,0.037587,-0.052511,0.199684,-0.208899,0.657091,0.162829,5.005537,37.468304,-4.286697,-3.670168,-0.533358,1.936446,-0.122819,0.000000,0.000000,0.000000,0.000000,0.000000,0.000000
13298481.000000,-0.250010,0.709887,0.305047,-1.541411,-0.258198,2.230179,0.145642,0.044275,0.035636,-0.053196,0.201822,-0.197928,0.676494,0.157478,5.180097,40.991253,-4.532669,-3.844728,-0.688998,1.207687,0.074935,0.000000,0.000000,0.000000,0.000000,0.000000,0.000000
13298482.000000,-0.249977,0.709946,0.305010,-1.541189,-0.258411,2.230896,0.145833,0.040648,0.048467,-0.047414,0.211446,-0.207062,0.685521,0.169065,5.449872,43.808025,-4.925430,-4.388246,-0.527865,0.843307,-0.142960,0.000000,0.000000,0.000000,0.000000,0.000000,0.000000
13298483.000000,-0.249891,0.710057,0.304918,-1.540922,-0.258626,2.231642,0.145979,0.055230,0.072733,-0.061317,0.228890,-0.214001,0.703193,0.163806,4.981733,45.740093,-4.556473,-5.550661,-0.473849,0.597030,-0.004716,0.000000,0.000000,0.000000,0.000000,0.000000,0.000000
13298484.000000,-0.249788,0.710189,0.304829,-1.540630,-0.258853,2.232412,0.146127,0.072769,0.096458,-0.072311,0.249641,-0.218672,0.720208,0.160492,4.311262,47.160381,-4.239090,-7.133607,-0.431735,0.388290,0.120712,0.000000,0.000000,0.000000,0.000000,0.000000,0.000000
13298485.000000,-0.249710,0.710350,0.304758,-1.540327,-0.259078,2.233227,0.146304,0.075206,0.122929,-0.074698,0.269799,-0.220652,0.747707,0.166268,4.041486,48.187908,-4.262894,-8.740358,-0.426241,0.128280,-0.064225,0.000000,0.000000,0.000000,0.000000,0.000000,0.000000
13298486.000000,-0.249644,0.710534,0.304685,-1.540013,-0.259310,2.234084,0.146444,0.071744,0.145844,-0.072820,0.289255,-0.219724,0.781546,0.156127,3.989912,48.973431,-4.338272,-10.370913,-0.479342,-0.424699,0.100570,0.000000,0.000000,0.000000,0.000000,0.000000,0.000000
13298487.000000,-0.249578,0.710738,0.304629,-1.539671,-0.259554,2.234988,0.146602,0.071601,0.169253,-0.067308,0.307991,-0.229068,0.816124,0.160952,3.989912,49.512981,-4.731033,-12.025270,-0.407931,-0.990495,0.067611,0.000000,0.000000,0.000000,0.000000,0.000000,0.000000
13298488.000000,-0.249505,0.710962,0.304565,-1.539308,-0.259801,2.235889,0.146757,0.071027,0.190095,-0.066972,0.326079,-0.235425,0.842583,0.160152,3.890729,49.806561,-5.000809,-13.755007,-0.473849,-1.321915,0.028243,0.000000,0.000000,0.000000,0.000000,0.000000,0.000000
13298489.000000,-0.249435,0.711198,0.304489,-1.538936,-0.260048,2.236798,0.146913,0.070853,0.210028,-0.067746,0.341285,-0.239380,0.865914,0.157556,3.918500,50.123943,-5.096024,-15.437136,-0.682589,-1.613969,0.028243,0.000000,0.000000,0.000000,0.000000,0.000000,0.000000
13298490.000000,-0.249373,0.711473,0.304416,-1.538556,-0.260308,2.237726,0.147069,0.068695,0.233127,-0.070133,0.352286,-0.243320,0.878357,0.156626,4.041486,50.171551,-5.246780,-16.897097,-0.766818,-1.816300,0.009017,0.000000,0.000000,0.000000,0.000000,0.000000,0.000000
13298491.000000,-0.249298,0.711762,0.304338,-1.538167,-0.260558,2.238631,0.147202,0.071952,0.252572,-0.071160,0.364871,-0.242004,0.883789,0.150597,3.966108,50.072369,-5.294388,-18.353090,-0.963656,-1.718339,0.133529,0.000000,0.000000,0.000000,0.000000,0.000000,0.000000
13298492.000000,-0.249211,0.712091,0.304240,-1.537754,-0.260825,2.239553,0.147357,0.079928,0.280802,-0.080394,0.377602,-0.248127,0.890908,0.152940,3.767744,49.608196,-5.096024,-19.813051,-0.981967,-1.659745,0.074935,0.000000,0.000000,0.000000,0.000000,0.000000,0.000000
13298493.000000,-0.249126,0.712475,0.304156,-1.537327,-0.261106,2.240492,0.147504,0.082261,0.313056,-0.081129,0.387770,-0.260734,0.902480,0.153218,3.597150,48.703655,-5.147598,-21.173830,-0.904147,-1.744889,0.061202,0.000000,0.000000,0.000000,0.000000,0.000000,0.000000
13298494.000000,-0.249054,0.712874,0.304080,-1.536897,-0.261381,2.241419,0.147649,0.078731,0.347059,-0.081013,0.398223,-0.260779,0.908739,0.147209,3.644758,47.747540,-5.365799,-22.506838,-0.916049,-1.919755,0.081344,0.000000,0.000000,0.000000,0.000000,0.000000,0.000000
13298495.000000,-0.248962,0.713331,0.304007,-1.536469,-0.261650,2.242373,0.147803,0.082217,0.384369,-0.079438,0.406247,-0.266037,0.916916,0.150030,3.446393,46.501812,-5.663345,-23.570070,-0.927950,-2.238358,0.034652,0.000000,0.000000,0.000000,0.000000,0.000000,0.000000
13298496.000000,-0.248874,0.713825,0.303920,-1.536041,-0.261923,2.243322,0.147947,0.085789,0.419286,-0.080258,0.410906,-0.270690,0.923825,0.154717,3.323408,45.006145,-5.758560,-24.534121,-0.927950,-2.550553,0.041976,0.000000,0.000000,0.000000,0.000000,0.000000,0.000000
13298497.000000,-0.248776,0.714339,0.303823,-1.535616,-0.262175,2.244203,0.148100,0.089820,0.449920,-0.083327,0.417264,-0.265925,0.904907,0.154205,3.125043,43.538250,-5.734756,-25.323610,-1.143099,-2.453507,0.021835,0.000000,0.000000,0.000000,0.000000,0.000000,0.000000
13298498.000000,-0.248688,0.714886,0.303732,-1.535192,-0.262442,2.245072,0.148256,0.090843,0.482321,-0.084500,0.415242,-0.261707,0.882424,0.154665,3.025861,41.994976,-5.758560,-25.966311,-1.268527,-2.160538,-0.011124,0.000000,0.000000,0.000000,0.000000,0.000000,0.000000
13298499.000000,-0.248598,0.715464,0.303629,-1.534794,-0.262709,2.245905,0.148415,0.087927,0.511790,-0.090526,0.407370,-0.264611,0.865695,0.156741,2.950483,40.380291,-5.687149,-26.263857,-1.339938,-1.776932,-0.089860,0.000000,0.000000,0.000000,0.000000,0.000000,0.000000
13298500.000000,-0.248512,0.716056,0.303525,-1.534426,-0.262966,2.246730,0.148579,0.087351,0.538520,-0.094349,0.390663,-0.269180,0.851179,0.162595,2.950483,38.936199,-5.635574,-26.041689,-1.441561,-1.360368,-0.169511,0.000000,0.000000,0.000000,0.000000,0.000000,0.000000
