chaoyuefei/paper-gmrm-data/robot_logs/s2_dq_gmrm_xz_min_0.30_log_20260314_173043.csv
# time_ms,q_0,q_1,q_2,q_3,q_4,q_5,q_6,dq_0,dq_1,dq_2,dq_3,dq_4,dq_5,dq_6,tau_J_0,tau_J_1,tau_J_2,tau_J_3,tau_J_4,tau_J_5,tau_J_6,O_dP_EE_c_0,O_dP_EE_c_1,O_dP_EE_c_2,O_dP_EE_c_3,O_dP_EE_c_4,O_dP_EE_c_5
12110509.000000,-2.415926,-1.662623,1.042143,-1.355857,1.795710,1.080863,-0.548235,0.000367,-0.000371,-0.000940,-0.000510,-0.000451,-0.000053,-0.001342,-0.116229,41.554607,-20.731094,-5.626039,0.966276,1.331283,-0.142960,0.000000,0.000000,0.000000,0.000000,0.000000,0.000000
12110510.000000,-2.415929,-1.662624,1.042144,-1.355856,1.795712,1.080864,-0.548231,-0.000869,-0.000804,-0.000070,0.000217,0.000343,0.000202,0.001309,-0.068621,41.578411,-20.754898,-5.649843,0.948881,1.324874,-0.202470,0.000000,0.000000,0.000000,0.000000,0.000000,0.000000
12110511.000000,-2.415926,-1.662623,1.042143,-1.355858,1.795711,1.080863,-0.548232,0.000534,0.000021,-0.000603,-0.000412,0.000026,-0.000103,0.000635,-0.116229,41.554607,-20.731094,-5.626039,0.954374,1.331283,-0.196061,0.000000,0.000000,0.000000,0.000000,0.000000,0.000000
12110512.000000,-2.415925,-1.662619,1.042144,-1.355857,1.795712,1.080862,-0.548238,0.000356,0.001127,0.000155,0.000282,0.000220,-0.000306,-0.001306,-0.116229,41.507000,-20.754898,-5.649843,0.948881,1.337692,-0.149369,0.000000,0.000000,0.000000,0.000000,0.000000,0.000000
12110513.000000,-2.415919,-1.662626,1.042146,-1.355856,1.795711,1.080862,-0.548232,0.009656,0.000752,0.000103,-0.001018,0.001029,-0.001425,-0.002619,0.153547,41.507000,-20.754898,-5.598268,0.925077,1.370651,-0.229020,0.000000,0.000000,0.000000,0.000000,0.000000,0.000000
12110514.000000,-2.415912,-1.662631,1.042148,-1.355854,1.795712,1.080857,-0.548250,0.017731,-0.001377,0.002229,-0.001504,0.004450,-0.002249,-0.010841,1.216779,41.312603,-20.707291,-5.427675,0.823453,1.532699,-0.248246,0.000000,0.000000,0.000000,0.000000,0.000000,0.000000
12110515.000000,-2.415880,-1.662624,1.042159,-1.355852,1.795716,1.080856,-0.548290,0.023401,0.000870,0.007423,-0.000369,0.004293,-0.004843,-0.022668,2.752119,40.820660,-20.683487,-5.177736,0.661405,1.760665,-0.241837,0.000000,0.000000,0.000000,0.000000,0.000000,0.000000
12110516.000000,-2.415834,-1.662632,1.042178,-1.355856,1.795705,1.080879,-0.548351,0.034781,-0.003979,0.015007,-0.005138,-0.004504,-0.002428,-0.037127,4.585004,40.427898,-20.683487,-4.808778,0.584501,1.884261,-0.208878,0.000000,0.000000,0.000000,0.000000,0.000000,0.000000
12110517.000000,-2.415770,-1.662629,1.042195,-1.355864,1.795680,1.080928,-0.548423,0.042755,-0.001390,0.017842,-0.006421,-0.009447,0.015224,-0.049955,6.441694,39.892315,-20.560501,-4.511232,0.601896,1.838485,-0.248246,0.000000,0.000000,0.000000,0.000000,0.000000,0.000000
12110518.000000,-2.415685,-1.662628,1.042225,-1.355889,1.795646,1.081005,-0.548522,0.051058,-0.000599,0.022471,-0.012612,-0.017117,0.037455,-0.070232,8.123822,39.376568,-20.536697,-4.118471,0.608304,1.656295,-0.248246,0.000000,0.000000,0.000000,0.000000,0.000000,0.000000
12110519.000000,-2.415584,-1.662626,1.042260,-1.355932,1.795600,1.081096,-0.548645,0.063934,0.001815,0.024178,-0.024058,-0.028571,0.056889,-0.086673,9.559979,38.912395,-20.437515,-3.697939,0.637601,1.494247,-0.221696,0.000000,0.000000,0.000000,0.000000,0.000000,0.000000
12110520.000000,-2.415467,-1.662626,1.042310,-1.355981,1.795535,1.081205,-0.548784,0.077182,0.001692,0.033069,-0.033010,-0.042432,0.076997,-0.100588,10.825543,38.519634,-20.389908,-3.376589,0.691617,1.448470,-0.274796,0.000000,0.000000,0.000000,0.000000,0.000000,0.000000
12110521.000000,-2.415338,-1.662619,1.042365,-1.356041,1.795456,1.081335,-0.548957,0.090513,0.002905,0.038494,-0.041808,-0.054632,0.100674,-0.119091,11.936383,38.079266,-20.290726,-3.102846,0.673307,1.422836,-0.241837,0.000000,0.000000,0.000000,0.000000,0.000000,0.000000
12110522.000000,-2.415200,-1.662610,1.042434,-1.356108,1.795366,1.081483,-0.549132,0.109413,0.005739,0.048969,-0.050378,-0.070811,0.115634,-0.136149,12.928205,37.686504,-20.191544,-2.880678,0.584501,1.481429,-0.248246,0.000000,0.000000,0.000000,0.000000,0.000000,0.000000
12110523.000000,-2.415048,-1.662602,1.042522,-1.356191,1.795250,1.081649,-0.549319,0.118464,0.004209,0.060924,-0.062315,-0.083824,0.128887,-0.144487,13.820844,37.321514,-20.266922,-2.706117,0.518583,1.605026,-0.235429,0.000000,0.000000,0.000000,0.000000,0.000000,0.000000
12110524.000000,-2.414875,-1.662586,1.042619,-1.356292,1.795127,1.081844,-0.549516,0.137386,0.006725,0.075056,-0.074887,-0.096617,0.152063,-0.164990,14.463544,36.928753,-20.314529,-2.511720,0.398649,1.649886,-0.202470,0.000000,0.000000,0.000000,0.000000,0.000000,0.000000
12110525.000000,-2.414696,-1.662567,1.042734,-1.356404,1.794971,1.082079,-0.549716,0.145863,0.008863,0.090644,-0.086643,-0.114832,0.181185,-0.174685,15.106244,36.535992,-20.437515,-2.360964,0.381254,1.630660,-0.221696,0.000000,0.000000,0.000000,0.000000,0.000000,0.000000
12110526.000000,-2.414488,-1.662543,1.042868,-1.356534,1.794792,1.082339,-0.549919,0.168244,0.013989,0.106331,-0.101160,-0.139371,0.207862,-0.178484,15.479169,36.123394,-20.608109,-2.237978,0.405057,1.597701,-0.202470,0.000000,0.000000,0.000000,0.000000,0.000000,0.000000
12110527.000000,-2.414272,-1.662524,1.043013,-1.356679,1.794593,1.082627,-0.550122,0.184350,0.016221,0.117851,-0.118222,-0.157334,0.230267,-0.181487,15.848126,35.778240,-20.782669,-2.138796,0.422452,1.507064,-0.188737,0.000000,0.000000,0.000000,0.000000,0.000000,0.000000
12110528.000000,-2.414031,-1.662503,1.043171,-1.356845,1.794360,1.082935,-0.550318,0.201015,0.018468,0.133119,-0.134903,-0.178121,0.254324,-0.181166,16.098066,35.413250,-20.977066,-2.015810,0.524076,1.461288,-0.235429,0.000000,0.000000,0.000000,0.000000,0.000000,0.000000
12110529.000000,-2.413777,-1.662481,1.043334,-1.357029,1.794111,1.083275,-0.550521,0.220000,0.018516,0.140040,-0.151715,-0.207928,0.279789,-0.185711,16.221052,35.119671,-21.000870,-1.964235,0.542386,1.467696,-0.163102,0.000000,0.000000,0.000000,0.000000,0.000000,0.000000
12110530.000000,-2.413510,-1.662469,1.043508,-1.357220,1.793847,1.083626,-0.550706,0.234797,0.015281,0.154796,-0.162244,-0.227353,0.302346,-0.184587,16.419416,34.972881,-21.052444,-2.015810,0.542386,1.519881,-0.208878,0.000000,0.000000,0.000000,0.000000,0.000000,0.000000
12110531.000000,-2.413221,-1.662452,1.043689,-1.357431,1.793559,1.083996,-0.550896,0.247862,0.013898,0.165287,-0.178399,-0.245899,0.322477,-0.184741,16.490828,34.798321,-21.024673,-1.992006,0.554288,1.591293,-0.215287,0.000000,0.000000,0.000000,0.000000,0.000000,0.000000
12110532.000000,-2.412918,-1.662441,1.043888,-1.357653,1.793271,1.084380,-0.551086,0.268561,0.010656,0.174535,-0.194624,-0.255530,0.346333,-0.187128,16.518599,34.726910,-21.052444,-1.940431,0.452665,1.708480,-0.175919,0.000000,0.000000,0.000000,0.000000,0.000000,0.000000
12110533.000000,-2.412596,-1.662434,1.044088,-1.357904,1.792954,1.084804,-0.551269,0.285756,0.009948,0.181876,-0.213962,-0.273314,0.372040,-0.181591,16.566206,34.726910,-20.953262,-1.841249,0.362943,1.760665,-0.202470,0.000000,0.000000,0.000000,0.000000,0.000000,0.000000
12110534.000000,-2.412257,-1.662430,1.044304,-1.358172,1.792617,1.085257,-0.551457,0.313162,0.006729,0.191512,-0.232211,-0.292324,0.390218,-0.183574,16.467024,34.726910,-20.905655,-1.694460,0.344633,1.708480,-0.188737,0.000000,0.000000,0.000000,0.000000,0.000000,0.000000
12110535.000000,-2.411906,-1.662428,1.044532,-1.358449,1.792277,1.085733,-0.551636,0.323154,0.004002,0.199259,-0.246497,-0.308117,0.418507,-0.185352,16.467024,34.750713,-20.854080,-1.547670,0.315336,1.637069,-0.175919,0.000000,0.000000,0.000000,0.000000,0.000000,0.000000
12110536.000000,-2.411532,-1.662427,1.044763,-1.358754,1.791907,1.086233,-0.551813,0.339135,0.002166,0.207650,-0.265833,-0.326001,0.442043,-0.180572,16.367842,34.774517,-20.782669,-1.420717,0.339139,1.597701,-0.182328,0.000000,0.000000,0.000000,0.000000,0.000000,0.000000
12110537.000000,-2.411165,-1.662423,1.045007,-1.359064,1.791523,1.086744,-0.551988,0.348258,0.001485,0.216993,-0.279222,-0.341519,0.476311,-0.180948,16.518599,34.774517,-20.731094,-1.349306,0.398649,1.559249,-0.196061,0.000000,0.000000,0.000000,0.000000,0.000000,0.000000
12110538.000000,-2.410784,-1.662424,1.045261,-1.359377,1.791122,1.087289,-0.552173,0.353483,0.000464,0.230346,-0.294008,-0.361933,0.499628,-0.183851,16.740767,34.798321,-20.659683,-1.349306,0.452665,1.539108,-0.163102,0.000000,0.000000,0.000000,0.000000,0.000000,0.000000
12110539.000000,-2.410385,-1.662426,1.045529,-1.359708,1.790697,1.087856,-0.552350,0.362431,-0.000317,0.244009,-0.302577,-0.382712,0.517232,-0.179876,16.911360,34.826092,-20.608109,-1.420717,0.535978,1.513473,-0.169511,0.000000,0.000000,0.000000,0.000000,0.000000,0.000000
12110540.000000,-2.409986,-1.662422,1.045803,-1.360054,1.790279,1.088438,-0.552524,0.374291,0.001012,0.249281,-0.315330,-0.397440,0.539059,-0.180566,17.137495,34.774517,-20.485123,-1.396913,0.464567,1.507064,-0.208878,0.000000,0.000000,0.000000,0.000000,0.000000,0.000000
12110541.000000,-2.409568,-1.662416,1.046093,-1.360424,1.789837,1.089041,-0.552707,0.389083,0.004974,0.263062,-0.329407,-0.410484,0.559942,-0.184052,17.359663,34.726910,-20.485123,-1.321535,0.458158,1.474105,-0.155778,0.000000,0.000000,0.000000,0.000000,0.000000,0.000000
12110542.000000,-2.409128,-1.662416,1.046387,-1.360805,1.789380,1.089666,-0.552871,0.409387,0.003590,0.271162,-0.344295,-0.424490,0.576690,-0.177890,17.530256,34.726910,-20.437515,-1.174745,0.422452,1.448470,-0.221696,0.000000,0.000000,0.000000,0.000000,0.000000,0.000000
12110543.000000,-2.408685,-1.662414,1.046680,-1.361205,1.788909,1.090297,-0.553043,0.423113,0.003156,0.276408,-0.361670,-0.434763,0.594626,-0.178016,17.728621,34.703106,-20.314529,-0.904970,0.374845,1.402694,-0.163102,0.000000,0.000000,0.000000,0.000000,0.000000,0.000000
12110544.000000,-2.408226,-1.662408,1.046996,-1.361619,1.788425,1.090954,-0.553208,0.434833,0.003465,0.285116,-0.375191,-0.449297,0.611413,-0.174771,18.002363,34.651531,-20.266922,-0.706606,0.369352,1.364242,-0.182328,0.000000,0.000000,0.000000,0.000000,0.000000,0.000000
12110545.000000,-2.407760,-1.662403,1.047319,-1.362048,1.787926,1.091615,-0.553373,0.447660,0.002982,0.294665,-0.398344,-0.461818,0.633672,-0.172503,18.347517,34.627728,-20.215347,-0.409059,0.416959,1.344100,-0.208878,0.000000,0.000000,0.000000,0.000000,0.000000,0.000000
12110546.000000,-2.407273,-1.662396,1.047648,-1.362482,1.787419,1.092314,-0.553544,0.448958,0.005175,0.307905,-0.407781,-0.471915,0.647739,-0.173772,18.375288,34.627728,-20.143936,-0.385256,0.506681,1.285506,-0.149369,0.000000,0.000000,0.000000,0.000000,0.000000,0.000000
12110547.000000,-2.406793,-1.662386,1.047986,-1.362946,1.786901,1.093037,-0.553707,0.456343,0.007507,0.318271,-0.426459,-0.499997,0.675777,-0.166850,17.780195,34.603924,-19.874161,-0.432863,0.596403,1.259872,-0.182328,0.000000,0.000000,0.000000,0.000000,0.000000,0.000000
12110548.000000,-2.406316,-1.662371,1.048358,-1.363412,1.786370,1.093752,-0.553866,0.456195,0.009502,0.346921,-0.444114,-0.507401,0.683813,-0.166019,16.518599,34.433331,-19.604385,-0.754213,0.745634,1.324874,-0.221696,0.000000,0.000000,0.000000,0.000000,0.000000,0.000000
12110549.000000,-2.405838,-1.662355,1.048745,-1.363905,1.785840,1.094502,-0.554031,0.459650,0.010427,0.365517,-0.455416,-0.514651,0.696838,-0.168181,14.709516,34.139751,-19.088638,-1.174745,0.840848,1.429244,-0.182328,0.000000,0.000000,0.000000,0.000000,0.000000,0.000000
12110550.000000,-2.405378,-1.662342,1.049162,-1.364404,1.785326,1.095259,-0.554185,0.462188,0.009857,0.386087,-0.468463,-0.514958,0.720951,-0.161991,12.829022,33.746990,-18.449905,-1.595277,0.769437,1.448470,-0.229020,0.000000,0.000000,0.000000,0.000000,0.000000,0.000000
12110551.000000,-2.404921,-1.662338,1.049599,-1.364904,1.784825,1.096041,-0.554349,0.462240,0.007740,0.406390,-0.472424,-0.502182,0.737956,-0.160320,10.972333,33.405804,-17.834976,-2.138796,0.608304,1.370651,-0.202470,0.000000,0.000000,0.000000,0.000000,0.000000,0.000000
12110552.000000,-2.404469,-1.662330,1.050078,-1.365415,1.784325,1.096833,-0.554513,0.465565,0.010274,0.425432,-0.475091,-0.503891,0.752481,-0.163063,9.238629,33.013042,-17.271622,-2.535524,0.362943,1.227828,-0.188737,0.000000,0.000000,0.000000,0.000000,0.000000,0.000000
12110553.000000,-2.404025,-1.662327,1.050578,-1.365919,1.783840,1.097612,-0.554674,0.460120,0.010178,0.448864,-0.484689,-0.493979,0.762836,-0.163933,7.754865,32.695660,-16.779678,-2.805300,0.154203,1.084090,-0.208878,0.000000,0.000000,0.000000,0.000000,0.000000,0.000000
12110554.000000,-2.403578,-1.662329,1.051065,-1.366414,1.783350,1.098401,-0.554846,0.454073,0.008395,0.459484,-0.483436,-0.489513,0.762814,-0.163239,6.465497,32.449688,-16.140945,-3.154421,0.015958,0.960494,-0.130143,0.000000,0.000000,0.000000,0.000000,0.000000,0.000000
12110555.000000,-2.403126,-1.662337,1.051566,-1.366920,1.782864,1.099189,-0.555009,0.450782,0.005985,0.466574,-0.484031,-0.484567,0.782841,-0.167250,5.279279,32.255291,-15.502213,-3.301210,-0.031649,0.857040,-0.155778,0.000000,0.000000,0.000000,0.000000,0.000000,0.000000
12110556.000000,-2.402680,-1.662339,1.052069,-1.367388,1.782375,1.099948,-0.555170,0.445816,0.005563,0.478418,-0.479295,-0.486622,0.769791,-0.162004,4.362836,32.009319,-14.938858,-3.670168,0.076383,0.869857,-0.182328,0.000000,0.000000,0.000000,0.000000,0.000000,0.000000
12110557.000000,-2.402225,-1.662350,1.052574,-1.367862,1.781873,1.100717,-0.555336,0.445011,0.002830,0.481398,-0.472792,-0.489344,0.763406,-0.159965,3.497968,31.862530,-14.399307,-3.967714,0.231107,0.922042,-0.155778,0.000000,0.000000,0.000000,0.000000,0.000000,0.000000
12110558.000000,-2.401777,-1.662362,1.053085,-1.368325,1.781397,1.101473,-0.555491,0.445787,-0.002667,0.484333,-0.469715,-0.489068,0.766944,-0.161494,2.752119,31.739544,-13.883560,-4.241457,0.303434,0.901900,-0.175919,0.000000,0.000000,0.000000,0.000000,0.000000,0.000000
12110559.000000,-2.401314,-1.662365,1.053576,-1.368795,1.780912,1.102237,-0.555656,0.452056,-0.001720,0.487333,-0.466806,-0.491427,0.768045,-0.163647,2.010236,31.545147,-13.268631,-4.265260,0.386747,0.889083,-0.163102,0.000000,0.000000,0.000000,0.000000,0.000000,0.000000
12110560.000000,-2.400854,-1.662372,1.054088,-1.369284,1.780441,1.103004,-0.555812,0.450315,-0.001577,0.491523,-0.472421,-0.485905,0.764274,-0.162423,1.343732,31.374554,-12.927444,-4.066896,0.381254,0.901900,-0.235429,0.000000,0.000000,0.000000,0.000000,0.000000,0.000000
12110561.000000,-2.400381,-1.662373,1.054593,-1.369763,1.779983,1.103744,-0.555974,0.457478,-0.000115,0.494351,-0.478536,-0.474152,0.755407,-0.161447,0.649457,31.152386,-12.534683,-3.769350,0.291532,0.947677,-0.188737,0.000000,0.000000,0.000000,0.000000,0.000000,0.000000
12110562.000000,-2.399904,-1.662378,1.055112,-1.370253,1.779513,1.104500,-0.556132,0.458915,-0.000416,0.503558,-0.479201,-0.471097,0.753986,-0.163204,0.054365,30.981792,-12.189529,-3.400392,0.219205,0.947677,-0.182328,0.000000,0.000000,0.000000,0.000000,0.000000,0.000000
12110563.000000,-2.399431,-1.662368,1.055637,-1.370725,1.779067,1.105256,-0.556286,0.460281,0.003550,0.508523,-0.488155,-0.462119,0.760046,-0.158614,-0.489153,30.640606,-11.919754,-3.126650,0.093778,0.928451,-0.221696,0.000000,0.000000,0.000000,0.000000,0.000000,0.000000
12110564.000000,-2.398963,-1.662353,1.056164,-1.371187,1.778617,1.106015,-0.556445,0.455578,0.006844,0.514021,-0.478409,-0.459060,0.755904,-0.157952,-0.909686,30.271648,-11.725357,-3.102846,0.027860,0.882674,-0.182328,0.000000,0.000000,0.000000,0.000000,0.000000,0.000000
12110565.000000,-2.398500,-1.662339,1.056707,-1.371651,1.778159,1.106773,-0.556600,0.455222,0.008940,0.524424,-0.474306,-0.459641,0.749510,-0.156402,-1.207232,29.902691,-11.602371,-3.079042,0.052579,0.922042,-0.175919,0.000000,0.000000,0.000000,0.000000,0.000000,0.000000
12110567.000000,-2.397558,-1.662301,1.057799,-1.372544,1.777248,1.108276,-0.556902,0.456547,0.015048,0.542250,-0.454216,-0.454293,0.741974,-0.156121,-1.679339,29.144939,-11.281021,-3.325014,0.225614,1.064864,-0.208878,0.000000,0.000000,0.000000,0.000000,0.000000,0.000000
12110568.000000,-2.397087,-1.662288,1.058362,-1.372981,1.776801,1.109020,-0.557057,0.463366,0.016661,0.548799,-0.448462,-0.441603,0.749986,-0.155221,-1.949114,28.827557,-11.158035,-3.448000,0.291532,1.084090,-0.196061,0.000000,0.000000,0.000000,0.000000,0.000000,0.000000
12110569.000000,-2.396604,-1.662271,1.058918,-1.373421,1.776357,1.109786,-0.557207,0.469255,0.017936,0.553180,-0.442353,-0.440084,0.750008,-0.152696,-2.298235,28.510174,-10.987442,-3.646364,0.320829,1.006271,-0.229020,0.000000,0.000000,0.000000,0.000000,0.000000,0.000000
12110570.000000,-2.396114,-1.662255,1.059501,-1.373862,1.775907,1.110564,-0.557370,0.475218,0.017264,0.560719,-0.440765,-0.446188,0.752277,-0.154229,-2.667193,28.264202,-10.888260,-3.670168,0.315336,0.850631,-0.175919,0.000000,0.000000,0.000000,0.000000,0.000000,0.000000
12110571.000000,-2.395627,-1.662246,1.060100,-1.374300,1.775481,1.111311,-0.557523,0.475163,0.019790,0.569360,-0.438375,-0.438972,0.759409,-0.158551,-3.111529,28.165020,-10.888260,-3.670168,0.207303,0.804855,-0.163102,0.000000,0.000000,0.000000,0.000000,0.000000,0.000000
12110572.000000,-2.395130,-1.662242,1.060687,-1.374741,1.775058,1.112058,-0.557670,0.479583,0.016763,0.576696,-0.437248,-0.433227,0.750135,-0.154169,-3.536028,28.165020,-10.816849,-3.622560,0.088285,0.850631,-0.215287,0.000000,0.000000,0.000000,0.000000,0.000000,0.000000
12110573.000000,-2.394643,-1.662236,1.061280,-1.375187,1.774637,1.112800,-0.557820,0.480881,0.011655,0.576420,-0.437812,-0.429254,0.763330,-0.157368,-3.829607,28.165020,-10.570877,-3.499574,-0.049044,0.922042,-0.208878,0.000000,0.000000,0.000000,0.000000,0.000000,0.000000
12110574.000000,-2.394143,-1.662235,1.061890,-1.375616,1.774206,1.113537,-0.557977,0.485385,0.006923,0.584352,-0.436659,-0.430195,0.753171,-0.161864,-4.127154,28.216595,-10.594681,-3.448000,-0.097567,1.019088,-0.169511,0.000000,0.000000,0.000000,0.000000,0.000000,0.000000
12110575.000000,-2.393643,-1.662230,1.062512,-1.376033,1.773782,1.114286,-0.558126,0.489535,0.005442,0.596582,-0.429370,-0.426251,0.745491,-0.158654,-4.448504,28.192791,-10.495499,-3.622560,-0.126864,1.104232,-0.175919,0.000000,0.000000,0.000000,0.000000,0.000000,0.000000
12110576.000000,-2.393137,-1.662227,1.063157,-1.376454,1.773345,1.115032,-0.558274,0.495416,0.004480,0.609808,-0.430725,-0.431055,0.752819,-0.155108,-4.896807,28.165020,-10.570877,-3.697939,-0.060946,1.117049,-0.215287,0.000000,0.000000,0.000000,0.000000,0.000000,0.000000
12110577.000000,-2.392629,-1.662234,1.063788,-1.376877,1.772898,1.115772,-0.558426,0.500029,0.000818,0.618517,-0.427935,-0.433236,0.742008,-0.154504,-5.265765,28.264202,-10.570877,-3.797121,0.112089,1.155502,-0.196061,0.000000,0.000000,0.000000,0.000000,0.000000,0.000000
12110578.000000,-2.392132,-1.662239,1.064454,-1.377306,1.772468,1.116527,-0.558579,0.496483,-0.001104,0.629310,-0.427613,-0.440550,0.747237,-0.153933,-5.563311,28.339581,-10.717667,-3.820925,0.231107,1.117049,-0.188737,0.000000,0.000000,0.000000,0.000000,0.000000,0.000000
12110579.000000,-2.391623,-1.662246,1.065112,-1.377727,1.772030,1.117263,-0.558726,0.501427,-0.002321,0.650419,-0.424543,-0.435157,0.748766,-0.147247,-5.912432,28.410992,-10.840652,-3.844728,0.273221,1.142684,-0.215287,0.000000,0.000000,0.000000,0.000000,0.000000,0.000000
12110580.000000,-2.391116,-1.662255,1.065789,-1.378150,1.771599,1.118010,-0.558874,0.501569,-0.004360,0.658854,-0.423927,-0.429158,0.738512,-0.147606,-6.158404,28.533978,-10.916031,-3.892336,0.267728,1.182052,-0.221696,0.000000,0.000000,0.000000,0.000000,0.000000,0.000000
12110581.000000,-2.390619,-1.662273,1.066479,-1.378555,1.771185,1.118753,-0.559022,0.498973,-0.008612,0.666777,-0.419125,-0.427241,0.750538,-0.150424,-6.332964,28.779949,-10.939835,-4.043092,0.189908,1.117049,-0.169511,0.000000,0.000000,0.000000,0.000000,0.000000,0.000000
12110582.000000,-2.390116,-1.662281,1.067157,-1.378963,1.770760,1.119508,-0.559164,0.499777,-0.008490,0.670618,-0.415812,-0.423069,0.754587,-0.148758,-6.555132,28.898968,-10.864456,-4.166078,0.129484,1.045638,-0.208878,0.000000,0.000000,0.000000,0.000000,0.000000,0.000000
12110583.000000,-2.389615,-1.662297,1.067863,-1.379376,1.770348,1.120264,-0.559314,0.505512,-0.010273,0.679374,-0.411454,-0.419770,0.748459,-0.148815,-6.701922,29.097332,-10.816849,-4.213686,0.076383,1.084090,-0.221696,0.000000,0.000000,0.000000,0.000000,0.000000,0.000000
12110584.000000,-2.389112,-1.662310,1.068577,-1.379787,1.769939,1.120987,-0.559467,0.502694,-0.013425,0.697843,-0.410039,-0.416979,0.742098,-0.146930,-6.924090,29.244122,-10.717667,-4.213686,-0.001437,1.175643,-0.163102,0.000000,0.000000,0.000000,0.000000,0.000000,0.000000
12110585.000000,-2.388607,-1.662325,1.069282,-1.380197,1.769512,1.121740,-0.559611,0.502828,-0.013189,0.704903,-0.405323,-0.413729,0.741201,-0.141485,-7.122454,29.414715,-10.523270,-4.189882,0.052579,1.142684,-0.196061,0.000000,0.000000,0.000000,0.000000,0.000000,0.000000
12110586.000000,-2.388104,-1.662340,1.069995,-1.380606,1.769094,1.122491,-0.559763,0.504147,-0.012969,0.700293,-0.406993,-0.408766,0.763660,-0.145009,-7.344622,29.585308,-10.225723,-4.241457,0.135892,1.025497,-0.163102,0.000000,0.000000,0.000000,0.000000,0.000000,0.000000
12110587.000000,-2.387594,-1.662342,1.070708,-1.381016,1.768674,1.123238,-0.559903,0.507476,-0.007672,0.703646,-0.407367,-0.411643,0.754638,-0.143631,-7.570757,29.537701,-9.884537,-4.189882,0.166105,0.954086,-0.235429,0.000000,0.000000,0.000000,0.000000,0.000000,0.000000
12110588.000000,-2.387090,-1.662347,1.071447,-1.381417,1.768251,1.123982,-0.560053,0.505647,-0.004663,0.709419,-0.404586,-0.409506,0.753218,-0.145982,-7.840533,29.513897,-9.686172,-4.340639,0.159696,0.987045,-0.221696,0.000000,0.000000,0.000000,0.000000,0.000000,0.000000
12110589.000000,-2.386588,-1.662351,1.072193,-1.381814,1.767840,1.124719,-0.560198,0.503849,-0.005656,0.721525,-0.402758,-0.406431,0.753337,-0.143175,-7.963519,29.490093,-9.392593,-4.412050,0.166105,0.999862,-0.202470,0.000000,0.000000,0.000000,0.000000,0.000000,0.000000
12110590.000000,-2.386079,-1.662350,1.072933,-1.382215,1.767425,1.125473,-0.560334,0.503472,-0.002318,0.727441,-0.401250,-0.407639,0.749080,-0.138725,-8.161883,29.414715,-9.099014,-4.487428,0.147794,0.966903,-0.235429,0.000000,0.000000,0.000000,0.000000,0.000000,0.000000
12110591.000000,-2.385582,-1.662351,1.073696,-1.382609,1.767018,1.126206,-0.560483,0.502669,-0.002629,0.739326,-0.395791,-0.403464,0.749047,-0.142939,-8.288836,29.315533,-8.952225,-4.610414,0.112089,1.025497,-0.182328,0.000000,0.000000,0.000000,0.000000,0.000000,0.000000
12110592.000000,-2.385086,-1.662348,1.074461,-1.383003,1.766622,1.126951,-0.560624,0.496674,-0.001811,0.750888,-0.397969,-0.400558,0.743667,-0.144971,-8.360248,29.168743,-8.829239,-4.634218,0.027860,1.084090,-0.175919,0.000000,0.000000,0.000000,0.000000,0.000000,0.000000
12110593.000000,-2.384583,-1.662339,1.075252,-1.383384,1.766225,1.127728,-0.560760,0.498329,0.003313,0.766405,-0.388887,-0.401502,0.749582,-0.139470,-8.511004,28.950542,-8.876846,-4.784975,-0.060946,0.974227,-0.229020,0.000000,0.000000,0.000000,0.000000,0.000000,0.000000
12110594.000000,-2.384099,-1.662335,1.076055,-1.383767,1.765821,1.128489,-0.560905,0.494243,0.004647,0.777799,-0.388676,-0.400765,0.756158,-0.145112,-8.459430,28.827557,-8.829239,-4.832582,-0.060946,0.824081,-0.155778,0.000000,0.000000,0.000000,0.000000,0.000000,0.000000
12110595.000000,-2.383609,-1.662321,1.076861,-1.384144,1.765425,1.129256,-0.561046,0.489289,0.007967,0.792692,-0.382742,-0.398871,0.758038,-0.145921,-8.483233,28.605389,-8.900650,-5.007143,-0.072848,0.752670,-0.163102,0.000000,0.000000,0.000000,0.000000,0.000000,0.000000
12110596.000000,-2.383128,-1.662313,1.077688,-1.384526,1.765037,1.130006,-0.561181,0.488375,0.007849,0.802268,-0.382922,-0.405437,0.757111,-0.145386,-8.435626,28.486370,-8.976028,-5.106325,-0.072848,0.857040,-0.208878,0.000000,0.000000,0.000000,0.000000,0.000000,0.000000
12110597.000000,-2.382644,-1.662305,1.078506,-1.384905,1.764638,1.130735,-0.561325,0.487984,0.009042,0.806616,-0.383916,-0.400384,0.746052,-0.143562,-8.261065,28.581585,-9.269608,-5.177736,-0.025240,1.006271,-0.169511,0.000000,0.000000,0.000000,0.000000,0.000000,0.000000
12110598.000000,-2.382161,-1.662297,1.079325,-1.385279,1.764247,1.131491,-0.561455,0.482298,0.009657,0.800158,-0.380032,-0.395335,0.744774,-0.138568,-8.015094,28.974346,-9.709976,-5.276918,0.004056,1.071273,-0.215287,0.000000,0.000000,0.000000,0.000000,0.000000,0.000000
12110599.000000,-2.381676,-1.662289,1.080132,-1.385649,1.763873,1.132250,-0.561593,0.486151,0.009472,0.794792,-0.377424,-0.389539,0.754015,-0.137080,-7.669940,29.561504,-10.424088,-5.399904,-0.037142,1.045638,-0.215287,0.000000,0.000000,0.000000,0.000000,0.000000,0.000000
12110600.000000,-2.381198,-1.662283,1.080923,-1.386030,1.763492,1.133011,-0.561742,0.485147,0.009480,0.793845,-0.378760,-0.387417,0.754374,-0.142640,-7.174029,30.319256,-11.332596,-5.376100,-0.013339,1.064864,-0.155778,0.000000,0.000000,0.000000,0.000000,0.000000,0.000000
12110601.000000,-2.380704,-1.662266,1.081715,-1.386423,1.763109,1.133778,-0.561876,0.495145,0.009458,0.790535,-0.378095,-0.383069,0.751620,-0.136738,-6.801104,31.128582,-12.336319,-5.253114,0.058073,1.169235,-0.235429,0.000000,0.000000,0.000000,0.000000,0.000000,0.000000
12110602.000000,-2.380224,-1.662249,1.082503,-1.386814,1.762739,1.134529,-0.562025,0.488148,0.009697,0.785888,-0.380602,-0.381911,0.752017,-0.142143,-6.332964,31.961712,-13.244827,-5.007143,0.129484,1.318465,-0.188737,0.000000,0.000000,0.000000,0.000000,0.000000,0.000000
12110603.000000,-2.379728,-1.662227,1.083272,-1.387211,1.762353,1.135291,-0.562169,0.485618,0.010225,0.780108,-0.385007,-0.382295,0.748878,-0.143905,-5.983843,32.671856,-14.081924,-4.757204,0.189908,1.396285,-0.188737,0.000000,0.000000,0.000000,0.000000,0.000000,0.000000
12110604.000000,-2.379251,-1.662201,1.084056,-1.387609,1.761969,1.136041,-0.562307,0.483712,0.012815,0.782620,-0.387817,-0.383295,0.753316,-0.144891,-5.487933,33.282818,-14.867447,-4.535036,0.261320,1.474105,-0.208878,0.000000,0.000000,0.000000,0.000000,0.000000,0.000000
12110605.000000,-2.378761,-1.662168,1.084838,-1.388002,1.761590,1.136801,-0.562456,0.483502,0.015231,0.787878,-0.387996,-0.381154,0.753806,-0.147327,-5.218157,33.746990,-15.601395,-4.388246,0.249418,1.513473,-0.182328,0.000000,0.000000,0.000000,0.000000,0.000000,0.000000
12110606.000000,-2.378278,-1.662138,1.085634,-1.388397,1.761193,1.137570,-0.562591,0.478460,0.021391,0.788898,-0.385873,-0.382750,0.750529,-0.141337,-4.845232,34.139751,-16.216324,-4.289064,0.315336,1.513473,-0.235429,0.000000,0.000000,0.000000,0.000000,0.000000,0.000000
12110607.000000,-2.377801,-1.662108,1.086448,-1.388784,1.760803,1.138313,-0.562728,0.476707,0.022423,0.797334,-0.389419,-0.387641,0.755474,-0.139069,-4.547686,34.532513,-16.855057,-4.289064,0.362943,1.559249,-0.235429,0.000000,0.000000,0.000000,0.000000,0.000000,0.000000
12110608.000000,-2.377323,-1.662089,1.087260,-1.389177,1.760408,1.139057,-0.562872,0.472938,0.018291,0.803973,-0.389254,-0.390005,0.744983,-0.138940,-4.325518,34.996685,-17.493790,-4.289064,0.398649,1.682845,-0.182328,0.000000,0.000000,0.000000,0.000000,0.000000,0.000000
12110609.000000,-2.376854,-1.662069,1.088080,-1.389575,1.760016,1.139803,-0.563006,0.470680,0.019936,0.802064,-0.391694,-0.393464,0.735272,-0.144054,-4.079546,35.385479,-17.934158,-4.312868,0.458158,1.786300,-0.221696,0.000000,0.000000,0.000000,0.000000,0.000000,0.000000
12110610.000000,-2.376372,-1.662063,1.088908,-1.389949,1.759630,1.140543,-0.563152,0.474812,0.015448,0.810617,-0.381917,-0.389323,0.737823,-0.143186,-3.956561,35.877422,-18.549088,-4.586610,0.416959,1.741439,-0.163102,0.000000,0.000000,0.000000,0.000000,0.000000,0.000000
12110611.000000,-2.375898,-1.662061,1.089755,-1.390325,1.759245,1.141306,-0.563286,0.470781,0.008662,0.818480,-0.377234,-0.383464,0.745841,-0.138433,-3.805804,36.389202,-19.088638,-4.856386,0.351041,1.630660,-0.202470,0.000000,0.000000,0.000000,0.000000,0.000000,0.000000
12110612.000000,-2.375433,-1.662072,1.090611,-1.390694,1.758861,1.142046,-0.563418,0.466678,0.002400,0.824899,-0.384444,-0.385953,0.745709,-0.141259,-3.631243,36.952557,-19.651993,-5.153932,0.327238,1.591293,-0.208878,0.000000,0.000000,0.000000,0.000000,0.000000,0.000000
12110613.000000,-2.374963,-1.662092,1.091451,-1.391063,1.758469,1.142777,-0.563560,0.467428,-0.003831,0.828538,-0.380216,-0.382702,0.736762,-0.140382,-3.508257,37.591290,-19.997147,-5.451478,0.308927,1.617843,-0.163102,0.000000,0.000000,0.000000,0.000000,0.000000,0.000000
12110614.000000,-2.374499,-1.662116,1.092298,-1.391438,1.758080,1.143508,-0.563689,0.464941,-0.010890,0.828070,-0.377346,-0.386828,0.732265,-0.135963,-3.361468,38.202251,-20.290726,-5.598268,0.386747,1.727706,-0.221696,0.000000,0.000000,0.000000,0.000000,0.000000,0.000000
12110615.000000,-2.374027,-1.662148,1.093129,-1.391792,1.757698,1.144218,-0.563821,0.462340,-0.016504,0.843109,-0.373463,-0.385974,0.723561,-0.130555,-3.337664,38.837017,-20.437515,-5.820436,0.440763,1.884261,-0.215287,0.000000,0.000000,0.000000,0.000000,0.000000,0.000000
12110616.000000,-2.373548,-1.662186,1.093968,-1.392152,1.757305,1.144950,-0.563956,0.464577,-0.023857,0.840085,-0.367132,-0.385512,0.721019,-0.132284,-3.385272,39.475750,-20.536697,-6.018800,0.458158,1.903487,-0.169511,0.000000,0.000000,0.000000,0.000000,0.000000,0.000000
12110617.000000,-2.373072,-1.662220,1.094806,-1.392497,1.756920,1.145682,-0.564080,0.466899,-0.025754,0.831595,-0.361532,-0.385358,0.734144,-0.130071,-3.536028,39.963726,-20.512894,-6.292543,0.512174,1.806442,-0.221696,0.000000,0.000000,0.000000,0.000000,0.000000,0.000000
12110618.000000,-2.372589,-1.662260,1.095633,-1.392846,1.756541,1.146428,-0.564216,0.468419,-0.028617,0.827610,-0.357380,-0.382911,0.737811,-0.131787,-3.782000,40.503277,-20.536697,-6.562318,0.506681,1.741439,-0.188737,0.000000,0.000000,0.000000,0.000000,0.000000,0.000000
12110619.000000,-2.372106,-1.662300,1.096462,-1.393201,1.756158,1.147165,-0.564346,0.473774,-0.029055,0.823005,-0.350034,-0.379955,0.731544,-0.125549,-3.956561,40.967449,-20.413712,-6.590089,0.464567,1.779891,-0.229020,0.000000,0.000000,0.000000,0.000000,0.000000,0.000000
12110620.000000,-2.371626,-1.662335,1.097296,-1.393545,1.755785,1.147884,-0.564479,0.476466,-0.030386,0.825779,-0.347751,-0.375022,0.730576,-0.128192,-4.178729,41.336407,-20.314529,-6.760683,0.464567,1.851302,-0.202470,0.000000,0.000000,0.000000,0.000000,0.000000,0.000000
12110621.000000,-2.371146,-1.662370,1.098129,-1.393884,1.755417,1.148625,-0.564612,0.478870,-0.034313,0.825968,-0.344439,-0.364494,0.730767,-0.128815,-4.325518,41.677593,-20.314529,-6.982851,0.446256,1.851302,-0.202470,0.000000,0.000000,0.000000,0.000000,0.000000,0.000000
12110622.000000,-2.370669,-1.662397,1.098966,-1.394222,1.755060,1.149362,-0.564739,0.480048,-0.032134,0.831122,-0.341174,-0.364485,0.749897,-0.132833,-4.547686,41.923565,-20.314529,-7.256593,0.362943,1.779891,-0.241837,0.000000,0.000000,0.000000,0.000000,0.000000,0.000000
12110623.000000,-2.370193,-1.662427,1.099796,-1.394559,1.754690,1.150107,-0.564878,0.478701,-0.027698,0.833984,-0.338204,-0.364343,0.742133,-0.134604,-4.646868,42.169537,-20.290726,-7.427186,0.381254,1.637069,-0.188737,0.000000,0.000000,0.000000,0.000000,0.000000,0.000000
12110624.000000,-2.369697,-1.662451,1.100642,-1.394884,1.754333,1.150855,-0.565006,0.482668,-0.023405,0.841818,-0.329694,-0.360274,0.742633,-0.133005,-4.995989,42.363934,-20.413712,-7.700929,0.303434,1.578475,-0.208878,0.000000,0.000000,0.000000,0.000000,0.000000,0.000000
12110625.000000,-2.369227,-1.662471,1.101485,-1.395207,1.753980,1.151578,-0.565127,0.478385,-0.021911,0.839956,-0.325192,-0.359456,0.739856,-0.127189,-5.166583,42.486919,-20.461319,-7.923097,0.285123,1.611434,-0.229020,0.000000,0.000000,0.000000,0.000000,0.000000,0.000000
12110626.000000,-2.368748,-1.662495,1.102306,-1.395530,1.753608,1.152308,-0.565256,0.475318,-0.021131,0.839913,-0.321971,-0.361684,0.732746,-0.126184,-5.392718,42.609905,-20.437515,-8.145266,0.351041,1.735030,-0.155778,0.000000,0.000000,0.000000,0.000000,0.000000,0.000000
12110627.000000,-2.368273,-1.662520,1.103146,-1.395849,1.753252,1.153031,-0.565379,0.473333,-0.021315,0.839132,-0.319059,-0.361493,0.737616,-0.121288,-5.587115,42.756695,-20.485123,-8.391237,0.362943,1.773483,-0.196061,0.000000,0.000000,0.000000,0.000000,0.000000,0.000000
12110628.000000,-2.367786,-1.662536,1.103986,-1.396162,1.752902,1.153762,-0.565496,0.475771,-0.017580,0.845195,-0.315298,-0.357130,0.731153,-0.122139,-5.837054,42.728924,-20.707291,-8.565798,0.351041,1.832076,-0.241837,0.000000,0.000000,0.000000,0.000000,0.000000,0.000000
12110629.000000,-2.367309,-1.662553,1.104834,-1.396463,1.752542,1.154497,-0.565627,0.475647,-0.015713,0.844794,-0.311938,-0.358599,0.724850,-0.122548,-5.983843,42.728924,-20.854080,-8.863344,0.374845,1.890670,-0.169511,0.000000,0.000000,0.000000,0.000000,0.000000,0.000000
12110630.000000,-2.366832,-1.662573,1.105671,-1.396769,1.752198,1.155219,-0.565743,0.479545,-0.018303,0.843345,-0.314633,-0.351997,0.721635,-0.118130,-6.158404,42.756695,-20.854080,-9.033937,0.327238,1.819259,-0.221696,0.000000,0.000000,0.000000,0.000000,0.000000,0.000000
12110631.000000,-2.366357,-1.662597,1.106509,-1.397072,1.751853,1.155956,-0.565870,0.476362,-0.018787,0.841346,-0.311335,-0.347159,0.725470,-0.117997,-6.257586,42.851910,-21.076248,-9.232302,0.291532,1.812850,-0.188737,0.000000,0.000000,0.000000,0.000000,0.000000,0.000000
12110632.000000,-2.365894,-1.662619,1.107353,-1.397381,1.751513,1.156684,-0.565988,0.470142,-0.018178,0.842942,-0.309357,-0.352941,0.725269,-0.114679,-6.281390,42.903484,-21.270645,-9.406862,0.261320,1.897079,-0.241837,0.000000,0.000000,0.000000,0.000000,0.000000,0.000000
12110633.000000,-2.365428,-1.662636,1.108197,-1.397676,1.751170,1.157395,-0.566115,0.466075,-0.018818,0.855263,-0.304579,-0.351900,0.716691,-0.116386,-6.305193,42.875713,-21.369827,-9.605227,0.183500,1.974899,-0.188737,0.000000,0.000000,0.000000,0.000000,0.000000,0.000000
12110634.000000,-2.364967,-1.662660,1.109030,-1.397972,1.750828,1.158131,-0.566236,0.462812,-0.021907,0.850597,-0.300607,-0.348094,0.717902,-0.119805,-6.182208,42.951092,-21.469009,-9.775820,0.166105,1.930038,-0.188737,0.000000,0.000000,0.000000,0.000000,0.000000,0.000000
12110635.000000,-2.364523,-1.662678,1.109869,-1.398255,1.750503,1.158858,-0.566351,0.458311,-0.018621,0.842462,-0.296105,-0.339468,0.721881,-0.116294,-5.960040,42.927288,-21.540421,-10.172548,0.105680,1.838485,-0.235429,0.000000,0.000000,0.000000,0.000000,0.000000,0.000000
12110636.000000,-2.364081,-1.662693,1.110701,-1.398543,1.750172,1.159587,-0.566474,0.450008,-0.015673,0.840710,-0.294655,-0.341123,0.719665,-0.116787,-5.737872,42.875713,-21.639603,-10.493898,0.015958,1.865035,-0.202470,0.000000,0.000000,0.000000,0.000000,0.000000,0.000000
12110637.000000,-2.363649,-1.662711,1.111537,-1.398830,1.749833,1.160305,-0.566598,0.447611,-0.017552,0.832608,-0.293908,-0.336172,0.720815,-0.121681,-5.440325,42.851910,-21.639603,-10.791445,0.004056,1.962081,-0.169511,0.000000,0.000000,0.000000,0.000000,0.000000,0.000000
12110638.000000,-2.363214,-1.662726,1.112376,-1.399128,1.749504,1.161029,-0.566716,0.443025,-0.015256,0.832026,-0.293235,-0.338706,0.725333,-0.122409,-5.142779,42.804302,-21.639603,-10.839052,0.022367,1.949264,-0.215287,0.000000,0.000000,0.000000,0.000000,0.000000,0.000000
12110639.000000,-2.362781,-1.662743,1.113203,-1.399420,1.749172,1.161766,-0.566840,0.436558,-0.014735,0.830860,-0.292262,-0.334699,0.724263,-0.119793,-4.896807,42.804302,-21.639603,-10.890627,0.040677,1.890670,-0.215287,0.000000,0.000000,0.000000,0.000000,0.000000,0.000000
12110640.000000,-2.362359,-1.662755,1.114049,-1.399721,1.748838,1.162491,-0.566966,0.434259,-0.012536,0.831815,-0.295988,-0.334584,0.722424,-0.119930,-4.674639,42.728924,-21.786392,-10.862856,0.010465,1.779891,-0.169511,0.000000,0.000000,0.000000,0.000000,0.000000,0.000000
12110641.000000,-2.361942,-1.662771,1.114887,-1.400027,1.748504,1.163228,-0.567086,0.426349,-0.012661,0.832644,-0.299009,-0.336827,0.731853,-0.116669,-4.349322,42.728924,-22.008560,-10.692263,0.022367,1.741439,-0.202470,0.000000,0.000000,0.000000,0.000000,0.000000,0.000000
12110642.000000,-2.361520,-1.662787,1.115742,-1.400335,1.748179,1.163965,-0.567214,0.418931,-0.012689,0.836918,-0.300427,-0.327125,0.732165,-0.116870,-4.079546,42.728924,-22.278336,-10.517702,-0.007845,1.741439,-0.169511,0.000000,0.000000,0.000000,0.000000,0.000000,0.000000
12110643.000000,-2.361120,-1.662809,1.116595,-1.400643,1.747852,1.164678,-0.567336,0.411047,-0.015738,0.836247,-0.303146,-0.326938,0.725550,-0.116074,-3.706622,42.851910,-22.500504,-10.394716,0.027860,1.819259,-0.163102,0.000000,0.000000,0.000000,0.000000,0.000000,0.000000
12110644.000000,-2.360710,-1.662830,1.117438,-1.400965,1.747514,1.165392,-0.567456,0.407072,-0.016552,0.839389,-0.310841,-0.329253,0.719171,-0.113796,-3.460650,42.927288,-22.770279,-10.172548,0.027860,2.039901,-0.196061,0.000000,0.000000,0.000000,0.000000,0.000000,0.000000
12110645.000000,-2.360306,-1.662854,1.118290,-1.401287,1.747181,1.166118,-0.567571,0.405720,-0.018084,0.839024,-0.316199,-0.334042,0.715403,-0.116753,-3.238482,43.050274,-23.135269,-9.950380,0.081876,2.150680,-0.221696,0.000000,0.000000,0.000000,0.000000,0.000000,0.000000
12110646.000000,-2.359910,-1.662884,1.119133,-1.401619,1.746847,1.166845,-0.567690,0.398563,-0.020413,0.842046,-0.318661,-0.328777,0.722311,-0.112158,-2.889361,43.220867,-23.409012,-9.652834,0.154203,2.137862,-0.196061,0.000000,0.000000,0.000000,0.000000,0.000000,0.000000
12110647.000000,-2.359506,-1.662914,1.119978,-1.401951,1.746505,1.167576,-0.567808,0.397052,-0.022423,0.837670,-0.320653,-0.332973,0.726976,-0.112003,-2.690997,43.415264,-23.555801,-9.454470,0.207303,2.085677,-0.202470,0.000000,0.000000,0.000000,0.000000,0.000000,0.000000
12110648.000000,-2.359114,-1.662943,1.120829,-1.402297,1.746163,1.168301,-0.567924,0.397400,-0.025774,0.840113,-0.336661,-0.337577,0.728191,-0.111280,-2.445025,43.562054,-23.678787,-9.109316,0.297025,2.014266,-0.229020,0.000000,0.000000,0.000000,0.000000,0.000000,0.000000
12110649.000000,-2.358726,-1.662981,1.121671,-1.402649,1.745819,1.169027,-0.568047,0.391588,-0.030502,0.838096,-0.338975,-0.340197,0.725211,-0.117430,-2.099871,43.808025,-23.873184,-8.839540,0.381254,2.007858,-0.202470,0.000000,0.000000,0.000000,0.000000,0.000000,0.000000
12110650.000000,-2.358346,-1.663010,1.122517,-1.403007,1.745486,1.169739,-0.568166,0.395379,-0.031090,0.837102,-0.344556,-0.342185,0.718014,-0.116319,-1.778521,43.931011,-23.920792,-8.541994,0.386747,2.033492,-0.202470,0.000000,0.000000,0.000000,0.000000,0.000000,0.000000
12110651.000000,-2.357973,-1.663047,1.123361,-1.403366,1.745156,1.170449,-0.568282,0.383551,-0.030546,0.848600,-0.348188,-0.344423,0.714553,-0.115109,-1.381793,44.149212,-23.948563,-8.268251,0.351041,2.007858,-0.215287,0.000000,0.000000,0.000000,0.000000,0.000000,0.000000
12110652.000000,-2.357598,-1.663081,1.124198,-1.403721,1.744817,1.171175,-0.568400,0.377022,-0.031676,0.847756,-0.346406,-0.342462,0.715556,-0.115358,-0.985064,44.296001,-23.996170,-8.169069,0.332731,1.949264,-0.188737,0.000000,0.000000,0.000000,0.000000,0.000000,0.000000
12110653.000000,-2.357238,-1.663111,1.125042,-1.404093,1.744486,1.171888,-0.568511,0.370040,-0.030710,0.843253,-0.355411,-0.336942,0.712629,-0.113143,-0.512957,44.371380,-24.043777,-7.923097,0.327238,1.909896,-0.229020,0.000000,0.000000,0.000000,0.000000,0.000000,0.000000
12110654.000000,-2.356859,-1.663135,1.125870,-1.404459,1.744156,1.172601,-0.568629,0.368012,-0.028037,0.836531,-0.358071,-0.333670,0.716443,-0.114182,-0.266986,44.347576,-23.920792,-7.724733,0.320829,1.968490,-0.202470,0.000000,0.000000,0.000000,0.000000,0.000000,0.000000
12110655.000000,-2.356477,-1.663166,1.126711,-1.404836,1.743814,1.173321,-0.568746,0.366856,-0.027871,0.837622,-0.368112,-0.331923,0.715557,-0.114602,-0.167803,44.395184,-23.948563,-7.427186,0.362943,2.014266,-0.182328,0.000000,0.000000,0.000000,0.000000,0.000000,0.000000
12110656.000000,-2.356113,-1.663187,1.127551,-1.405210,1.743475,1.174050,-0.568848,0.365887,-0.022404,0.834797,-0.369041,-0.333460,0.721071,-0.116658,0.054365,44.347576,-23.920792,-7.157411,0.470060,1.890670,-0.241837,0.000000,0.000000,0.000000,0.000000,0.000000,0.000000
12110657.000000,-2.355734,-1.663211,1.128383,-1.405595,1.743146,1.174773,-0.568963,0.367741,-0.021748,0.831689,-0.373768,-0.327006,0.721350,-0.120806,0.129743,44.296001,-23.996170,-6.859865,0.530485,1.812850,-0.229020,0.000000,0.000000,0.000000,0.000000,0.000000,0.000000
12110658.000000,-2.355355,-1.663229,1.129220,-1.405988,1.742825,1.175482,-0.569081,0.371258,-0.020848,0.825703,-0.379483,-0.324362,0.736658,-0.120722,0.129743,44.224590,-23.996170,-6.590089,0.518583,1.884261,-0.163102,0.000000,0.000000,0.000000,0.000000,0.000000,0.000000
12110659.000000,-2.354984,-1.663248,1.130053,-1.406370,1.742491,1.176210,-0.569191,0.369690,-0.019671,0.826962,-0.382626,-0.323295,0.732251,-0.116186,0.252729,44.125408,-24.166763,-6.363954,0.518583,1.884261,-0.229020,0.000000,0.000000,0.000000,0.000000,0.000000,0.000000
12110660.000000,-2.354607,-1.663264,1.130895,-1.406765,1.742155,1.176943,-0.569302,0.371132,-0.019712,0.824121,-0.384389,-0.324611,0.729366,-0.114039,0.304304,44.053997,-24.289749,-6.141786,0.554288,1.851302,-0.268388,0.000000,0.000000,0.000000,0.000000,0.000000,0.000000
12110661.000000,-2.354238,-1.663278,1.131736,-1.407152,1.741836,1.177649,-0.569418,0.371141,-0.016481,0.824576,-0.382726,-0.321868,0.727493,-0.110401,0.403486,43.978619,-24.388931,-5.947389,0.506681,1.962081,-0.235429,0.000000,0.000000,0.000000,0.000000,0.000000,0.000000
12110662.000000,-2.353856,-1.663294,1.132563,-1.407557,1.741509,1.178359,-0.569538,0.371766,-0.014787,0.823203,-0.386201,-0.329179,0.714831,-0.113083,0.427289,43.931011,-24.436539,-5.697450,0.458158,2.104903,-0.175919,0.000000,0.000000,0.000000,0.000000,0.000000,0.000000
12110663.000000,-2.353485,-1.663305,1.133410,-1.407948,1.741174,1.179085,-0.569648,0.371909,-0.014897,0.821987,-0.381739,-0.332715,0.711228,-0.112183,0.502668,43.808025,-24.706314,-5.598268,0.524076,2.118636,-0.196061,0.000000,0.000000,0.000000,0.000000,0.000000,0.000000
12110664.000000,-2.353108,-1.663317,1.134230,-1.408338,1.740846,1.179801,-0.569755,0.371683,-0.013044,0.820096,-0.385730,-0.331285,0.716615,-0.110085,0.474897,43.732647,-24.706314,-5.475282,0.566190,2.027084,-0.254655,0.000000,0.000000,0.000000,0.000000,0.000000,0.000000
12110665.000000,-2.352728,-1.663323,1.135060,-1.408733,1.740521,1.180536,-0.569874,0.370878,-0.009943,0.816244,-0.386133,-0.329573,0.718163,-0.113240,0.451093,43.585857,-24.757889,-5.304689,0.596403,1.962081,-0.188737,0.000000,0.000000,0.000000,0.000000,0.000000,0.000000
12110666.000000,-2.352356,-1.663326,1.135892,-1.409124,1.740188,1.181253,-0.569978,0.369321,-0.007634,0.812151,-0.398567,-0.334630,0.719954,-0.112099,0.451093,43.439068,-24.757889,-5.205507,0.667814,1.916305,-0.215287,0.000000,0.000000,0.000000,0.000000,0.000000,0.000000
12110667.000000,-2.351977,-1.663338,1.136713,-1.409517,1.739860,1.181967,-0.570078,0.367758,-0.009026,0.812148,-0.396388,-0.336048,0.714890,-0.110050,0.451093,43.415264,-24.857071,-5.030946,0.691617,1.909896,-0.274796,0.000000,0.000000,0.000000,0.000000,0.000000,0.000000
12110668.000000,-2.351609,-1.663342,1.137521,-1.409905,1.739540,1.182687,-0.570194,0.365911,-0.008212,0.801725,-0.395383,-0.329113,0.713057,-0.113381,0.502668,43.320049,-24.583328,-4.955568,0.721830,1.974899,-0.208878,0.000000,0.000000,0.000000,0.000000,0.000000,0.000000
12110669.000000,-2.351227,-1.663346,1.138337,-1.410289,1.739227,1.183394,-0.570297,0.371408,-0.010126,0.819893,-0.393152,-0.325815,0.707117,-0.113025,0.403486,43.197063,-24.436539,-4.832582,0.698026,2.047225,-0.215287,0.000000,0.000000,0.000000,0.000000,0.000000,0.000000
12110670.000000,-2.350848,-1.663346,1.139146,-1.410674,1.738904,1.184122,-0.570400,0.372156,-0.007925,0.814227,-0.392969,-0.328143,0.709248,-0.106624,0.427289,43.050274,-24.365128,-4.757204,0.667814,2.039901,-0.254655,0.000000,0.000000,0.000000,0.000000,0.000000,0.000000
12110671.000000,-2.350462,-1.663343,1.139968,-1.411062,1.738593,1.184835,-0.570512,0.379455,-0.005799,0.812519,-0.390240,-0.320646,0.716623,-0.105320,0.351911,42.875713,-24.436539,-4.685792,0.644010,2.039901,-0.208878,0.000000,0.000000,0.000000,0.000000,0.000000,0.000000
12110672.000000,-2.350081,-1.663343,1.140770,-1.411443,1.738291,1.185568,-0.570617,0.380677,-0.004885,0.805456,-0.389901,-0.314734,0.717446,-0.106915,0.252729,42.728924,-24.341324,-4.535036,0.584501,2.033492,-0.215287,0.000000,0.000000,0.000000,0.000000,0.000000,0.000000
12110673.000000,-2.349706,-1.663346,1.141593,-1.411831,1.737989,1.186304,-0.570716,0.382696,-0.005411,0.804847,-0.387433,-0.312171,0.719004,-0.107420,0.228925,42.633709,-24.511917,-4.439821,0.596403,2.007858,-0.241837,0.000000,0.000000,0.000000,0.000000,0.000000,0.000000
12110674.000000,-2.349334,-1.663348,1.142410,-1.412216,1.737678,1.187021,-0.570820,0.378004,-0.002467,0.801838,-0.384599,-0.308309,0.718915,-0.103964,0.228925,42.534527,-24.535721,-4.289064,0.679716,2.007858,-0.248246,0.000000,0.000000,0.000000,0.000000,0.000000,0.000000
12110675.000000,-2.348957,-1.663337,1.143231,-1.412606,1.737377,1.187750,-0.570925,0.377193,0.003782,0.806580,-0.385651,-0.305701,0.720048,-0.101343,0.228925,42.264751,-24.857071,-4.142274,0.673307,2.060043,-0.248246,0.000000,0.000000,0.000000,0.000000,0.000000,0.000000
12110676.000000,-2.348587,-1.663342,1.144042,-1.412993,1.737083,1.188461,-0.571037,0.375245,-0.000200,0.797910,-0.382564,-0.304797,0.732889,-0.110519,0.304304,42.217144,-24.904678,-4.019289,0.685209,2.092086,-0.188737,0.000000,0.000000,0.000000,0.000000,0.000000,0.000000
12110677.000000,-2.348220,-1.663348,1.144846,-1.413367,1.736786,1.189188,-0.571133,0.369674,-0.003520,0.802238,-0.380176,-0.300979,0.726826,-0.104303,0.351911,42.193340,-25.027664,-4.043092,0.727323,2.033492,-0.241837,0.000000,0.000000,0.000000,0.000000,0.000000,0.000000
12110678.000000,-2.347859,-1.663353,1.145655,-1.413749,1.736483,1.189896,-0.571239,0.366387,-0.005795,0.797136,-0.377155,-0.300635,0.724796,-0.102225,0.574079,42.169537,-25.075272,-3.967714,0.709928,2.144271,-0.229020,0.000000,0.000000,0.000000,0.000000,0.000000,0.000000
12110679.000000,-2.347494,-1.663354,1.146459,-1.414127,1.736188,1.190588,-0.571342,0.365288,-0.006020,0.792142,-0.381992,-0.301194,0.713109,-0.106170,0.625654,42.094158,-25.051468,-3.892336,0.715421,2.300826,-0.196061,0.000000,0.000000,0.000000,0.000000,0.000000,0.000000
12110680.000000,-2.347129,-1.663364,1.147245,-1.414510,1.735896,1.191294,-0.571439,0.359308,-0.009868,0.790060,-0.380766,-0.291153,0.707376,-0.101032,0.724836,42.169537,-24.952286,-3.745546,0.709928,2.358505,-0.248246,0.000000,0.000000,0.000000,0.000000,0.000000,0.000000
12110681.000000,-2.346784,-1.663367,1.148037,-1.414891,1.735618,1.192011,-0.571544,0.355972,-0.007533,0.786177,-0.381534,-0.295185,0.705604,-0.099642,0.947004,42.169537,-24.857071,-3.646364,0.667814,2.248641,-0.241837,0.000000,0.000000,0.000000,0.000000,0.000000,0.000000
12110682.000000,-2.346427,-1.663372,1.148815,-1.415264,1.735325,1.192732,-0.571650,0.356257,-0.006295,0.782809,-0.378245,-0.297025,0.713220,-0.104117,1.069990,42.193340,-24.682510,-3.598757,0.644010,2.125045,-0.208878,0.000000,0.000000,0.000000,0.000000,0.000000,0.000000
12110683.000000,-2.346076,-1.663375,1.149598,-1.415640,1.735026,1.193453,-0.571751,0.354010,-0.005291,0.779670,-0.378528,-0.297712,0.715773,-0.100206,1.292158,42.217144,-24.464310,-3.523378,0.632108,2.047225,-0.241837,0.000000,0.000000,0.000000,0.000000,0.000000,0.000000
12110684.000000,-2.345733,-1.663375,1.150384,-1.416005,1.734731,1.194155,-0.571853,0.355614,-0.003930,0.777556,-0.377604,-0.295688,0.716377,-0.098717,1.514325,42.217144,-24.218338,-3.570986,0.667814,2.033492,-0.241837,0.000000,0.000000,0.000000,0.000000,0.000000,0.000000
12110685.000000,-2.345386,-1.663368,1.151156,-1.416381,1.734435,1.194875,-0.571958,0.352222,-0.000602,0.777191,-0.376235,-0.290959,0.718304,-0.098967,1.764264,42.117962,-23.996170,-3.475771,0.757535,2.001449,-0.202470,0.000000,0.000000,0.000000,0.000000,0.000000,0.000000
12110686.000000,-2.345050,-1.663367,1.151930,-1.416749,1.734144,1.195606,-0.572053,0.353139,-0.000071,0.770285,-0.370579,-0.289416,0.717207,-0.100408,1.962629,42.094158,-23.702591,-3.570986,0.763029,1.909896,-0.254655,0.000000,0.000000,0.000000,0.000000,0.000000,0.000000
12110687.000000,-2.344705,-1.663357,1.152707,-1.417115,1.733859,1.196336,-0.572154,0.345813,0.003216,0.782454,-0.366420,-0.288512,0.722542,-0.099226,2.109418,41.947369,-23.456619,-3.547182,0.786832,1.767074,-0.248246,0.000000,0.000000,0.000000,0.000000,0.000000,0.000000
12110688.000000,-2.344361,-1.663352,1.153481,-1.417487,1.733578,1.197067,-0.572260,0.344479,0.003687,0.778829,-0.366335,-0.283751,0.725316,-0.099494,2.283979,41.875957,-23.409012,-3.523378,0.715421,1.727706,-0.202470,0.000000,0.000000,0.000000,0.000000,0.000000,0.000000
12110689.000000,-2.344024,-1.663337,1.154257,-1.417857,1.733303,1.197800,-0.572357,0.340339,0.006446,0.770541,-0.367276,-0.278039,0.729349,-0.097864,2.454572,41.701397,-23.333633,-3.348818,0.685209,1.682845,-0.208878,0.000000,0.000000,0.000000,0.000000,0.000000,0.000000
12110690.000000,-2.343673,-1.663321,1.155010,-1.418229,1.733030,1.198532,-0.572449,0.338990,0.009330,0.764946,-0.369845,-0.279928,0.730634,-0.090724,2.430768,41.483196,-23.087662,-3.202028,0.698026,1.676437,-0.248246,0.000000,0.000000,0.000000,0.000000,0.000000,0.000000
12110691.000000,-2.343329,-1.663308,1.155779,-1.418601,1.732751,1.199258,-0.572544,0.339816,0.009600,0.762560,-0.367657,-0.275099,0.721189,-0.091391,2.454572,41.336407,-22.964676,-3.055238,0.667814,1.708480,-0.254655,0.000000,0.000000,0.000000,0.000000,0.000000,0.000000
12110692.000000,-2.342988,-1.663289,1.156571,-1.418960,1.732475,1.199982,-0.572645,0.341713,0.012670,0.772141,-0.367506,-0.273567,0.723662,-0.093816,2.529951,41.066631,-23.135269,-3.003664,0.698026,1.754256,-0.208878,0.000000,0.000000,0.000000,0.000000,0.000000,0.000000
12110693.000000,-2.342643,-1.663273,1.157327,-1.419319,1.732204,1.200713,-0.572742,0.340677,0.012964,0.767986,-0.362395,-0.269898,0.727580,-0.092645,2.553754,40.872234,-23.016251,-3.027467,0.673307,1.702071,-0.235429,0.000000,0.000000,0.000000,0.000000,0.000000,0.000000
12110694.000000,-2.342300,-1.663253,1.158098,-1.419670,1.731933,1.201441,-0.572840,0.343454,0.014374,0.768603,-0.358290,-0.270944,0.727948,-0.096433,2.652936,40.626263,-22.988480,-3.079042,0.739225,1.617843,-0.254655,0.000000,0.000000,0.000000,0.000000,0.000000,0.000000
12110695.000000,-2.341948,-1.663233,1.158865,-1.420025,1.731652,1.202160,-0.572940,0.342763,0.014205,0.768375,-0.353659,-0.275567,0.727328,-0.096839,2.529951,40.427898,-23.111465,-3.079042,0.786832,1.695663,-0.229020,0.000000,0.000000,0.000000,0.000000,0.000000,0.000000
12110696.000000,-2.341600,-1.663214,1.159625,-1.420377,1.731379,1.202867,-0.573035,0.342960,0.014562,0.763714,-0.350837,-0.271956,0.716998,-0.090905,2.506147,40.209698,-23.063858,-3.154421,0.769437,1.890670,-0.241837,0.000000,0.000000,0.000000,0.000000,0.000000,0.000000
12110697.000000,-2.341258,-1.663196,1.160396,-1.420728,1.731119,1.203579,-0.573130,0.341630,0.016278,0.760944,-0.351274,-0.268719,0.712552,-0.086726,2.529951,40.062908,-23.063858,-3.154421,0.733732,1.923629,-0.248246,0.000000,0.000000,0.000000,0.000000,0.000000,0.000000
12110698.000000,-2.340901,-1.663172,1.161155,-1.421069,1.730866,1.204308,-0.573229,0.346749,0.019475,0.759400,-0.345238,-0.263761,0.717593,-0.090644,2.406965,39.840740,-23.063858,-3.301210,0.637601,1.832076,-0.188737,0.000000,0.000000,0.000000,0.000000,0.000000,0.000000
12110699.000000,-2.340559,-1.663146,1.161928,-1.421416,1.730612,1.205046,-0.573322,0.347949,0.021166,0.757017,-0.347409,-0.265322,0.725141,-0.089676,2.406965,39.646343,-23.087662,-3.301210,0.578092,1.767074,-0.235429,0.000000,0.000000,0.000000,0.000000,0.000000,0.000000
12110700.000000,-2.340208,-1.663124,1.162700,-1.421751,1.730347,1.205757,-0.573415,0.345272,0.018707,0.772939,-0.345899,-0.267824,0.721254,-0.090624,2.283979,39.475750,-23.087662,-3.424196,0.518583,1.819259,-0.241837,0.000000,0.000000,0.000000,0.000000,0.000000,0.000000
12110701.000000,-2.339847,-1.663097,1.163445,-1.422095,1.730079,1.206479,-0.573513,0.347059,0.021375,0.763428,-0.342621,-0.270853,0.719222,-0.092626,2.133222,39.253582,-22.865494,-3.348818,0.494779,1.819259,-0.208878,0.000000,0.000000,0.000000,0.000000,0.000000,0.000000
12110702.000000,-2.339489,-1.663073,1.164197,-1.422428,1.729810,1.207190,-0.573604,0.349734,0.019410,0.756084,-0.341188,-0.273806,0.719068,-0.092537,1.934858,39.059185,-22.647293,-3.400392,0.589994,1.806442,-0.221696,0.000000,0.000000,0.000000,0.000000,0.000000,0.000000
12110703.000000,-2.339129,-1.663049,1.164945,-1.422760,1.729547,1.207906,-0.573700,0.352196,0.020492,0.753273,-0.334183,-0.272405,0.713843,-0.089380,1.811872,38.888592,-22.500504,-3.424196,0.625699,1.812850,-0.188737,0.000000,0.000000,0.000000,0.000000,0.000000,0.000000
12110704.000000,-2.338774,-1.663026,1.165709,-1.423083,1.729293,1.208626,-0.573788,0.359781,0.020317,0.752156,-0.329780,-0.267863,0.714695,-0.084797,1.641279,38.765606,-22.472733,-3.523378,0.547880,1.825668,-0.215287,0.000000,0.000000,0.000000,0.000000,0.000000,0.000000
12110705.000000,-2.338415,-1.663008,1.166471,-1.423400,1.729018,1.209334,-0.573879,0.361031,0.021015,0.748406,-0.326968,-0.267936,0.718278,-0.082454,1.466718,38.741802,-22.401321,-3.622560,0.566190,1.754256,-0.215287,0.000000,0.000000,0.000000,0.000000,0.000000,0.000000
12110706.000000,-2.338056,-1.662991,1.167220,-1.423719,1.728755,1.210061,-0.573970,0.359931,0.019444,0.748766,-0.320242,-0.267155,0.715459,-0.088869,1.367536,38.690228,-22.325943,-3.646364,0.566190,1.656295,-0.241837,0.000000,0.000000,0.000000,0.000000,0.000000,0.000000
12110707.000000,-2.337700,-1.662976,1.167982,-1.424038,1.728500,1.210756,-0.574063,0.356855,0.017172,0.752700,-0.317769,-0.262225,0.727915,-0.089595,1.244550,38.690228,-22.325943,-3.721742,0.571683,1.721298,-0.261979,0.000000,0.000000,0.000000,0.000000,0.000000,0.000000
12110708.000000,-2.337328,-1.662962,1.168743,-1.424354,1.728248,1.211446,-0.574164,0.358926,0.018858,0.757294,-0.318059,-0.257570,0.710741,-0.092638,0.994611,38.690228,-22.472733,-3.697939,0.559781,1.871444,-0.215287,0.000000,0.000000,0.000000,0.000000,0.000000,0.000000
12110709.000000,-2.336964,-1.662951,1.169507,-1.424665,1.727988,1.212159,-0.574254,0.355958,0.015857,0.758899,-0.312064,-0.256684,0.711962,-0.091867,0.871625,38.741802,-22.595718,-3.769350,0.494779,1.890670,-0.241837,0.000000,0.000000,0.000000,0.000000,0.000000,0.000000
12110710.000000,-2.336602,-1.662951,1.170271,-1.424963,1.727725,1.212872,-0.574346,0.359008,0.010303,0.756682,-0.308248,-0.260139,0.709030,-0.087712,0.673261,38.936199,-22.694901,-3.967714,0.535978,1.760665,-0.241837,0.000000,0.000000,0.000000,0.000000,0.000000,0.000000
12110711.000000,-2.336238,-1.662941,1.171018,-1.425263,1.727466,1.213586,-0.574444,0.357865,0.010116,0.753933,-0.304052,-0.256994,0.706751,-0.090227,0.574079,38.983807,-22.742508,-4.118471,0.566190,1.721298,-0.208878,0.000000,0.000000,0.000000,0.000000,0.000000,0.000000
12110712.000000,-2.335879,-1.662933,1.171776,-1.425562,1.727220,1.214265,-0.574533,0.358970,0.009309,0.749132,-0.299250,-0.247886,0.699902,-0.093244,0.451093,39.059185,-22.770279,-4.340639,0.524076,1.844894,-0.261979,0.000000,0.000000,0.000000,0.000000,0.000000,0.000000
12110713.000000,-2.335504,-1.662936,1.172522,-1.425857,1.726964,1.214959,-0.574629,0.362172,0.005973,0.746386,-0.294046,-0.254051,0.694796,-0.094697,0.205121,39.253582,-22.742508,-4.487428,0.578092,1.995040,-0.229020,0.000000,0.000000,0.000000,0.000000,0.000000,0.000000
12110714.000000,-2.335147,-1.662943,1.173264,-1.426146,1.726705,1.215672,-0.574724,0.359578,0.001837,0.741715,-0.290214,-0.252231,0.701899,-0.094432,0.129743,39.523357,-22.472733,-4.610414,0.578092,1.936446,-0.229020,0.000000,0.000000,0.000000,0.000000,0.000000,0.000000
12110715.000000,-2.334785,-1.662943,1.174016,-1.426432,1.726456,1.216373,-0.574815,0.357441,0.001905,0.742427,-0.291167,-0.253753,0.699831,-0.093916,-0.017047,39.670147,-22.353714,-4.733400,0.542386,1.858627,-0.241837,0.000000,0.000000,0.000000,0.000000,0.000000,0.000000
12110716.000000,-2.334418,-1.662947,1.174760,-1.426722,1.726216,1.217083,-0.574905,0.355029,-0.001651,0.741828,-0.289733,-0.244148,0.705309,-0.089645,-0.144000,39.840740,-22.302139,-4.808778,0.476469,1.838485,-0.229020,0.000000,0.000000,0.000000,0.000000,0.000000,0.000000
12110717.000000,-2.334052,-1.662942,1.175504,-1.426996,1.725982,1.217797,-0.574992,0.361066,-0.001505,0.734013,-0.284937,-0.245457,0.700890,-0.089874,-0.314593,39.892315,-22.155350,-5.030946,0.405057,1.786300,-0.254655,0.000000,0.000000,0.000000,0.000000,0.000000,0.000000
12110718.000000,-2.333689,-1.662938,1.176247,-1.427274,1.725739,1.218517,-0.575089,0.361342,-0.002072,0.746107,-0.281069,-0.251005,0.706025,-0.093131,-0.441546,39.963726,-21.960953,-5.153932,0.398649,1.637069,-0.196061,0.000000,0.000000,0.000000,0.000000,0.000000,0.000000
12110719.000000,-2.333330,-1.662939,1.176981,-1.427550,1.725489,1.219237,-0.575180,0.361012,-0.003807,0.741622,-0.277599,-0.250558,0.708880,-0.092800,-0.540728,40.086712,-21.786392,-5.276918,0.422452,1.578475,-0.202470,0.000000,0.000000,0.000000,0.000000,0.000000,0.000000
12110720.000000,-2.332974,-1.662946,1.177728,-1.427818,1.725249,1.219943,-0.575263,0.359231,-0.006747,0.744872,-0.277884,-0.243835,0.705386,-0.091616,-0.588336,40.281109,-21.663406,-5.475282,0.398649,1.591293,-0.241837,0.000000,0.000000,0.000000,0.000000,0.000000,0.000000
12110721.000000,-2.332614,-1.662939,1.178460,-1.428084,1.724998,1.220654,-0.575363,0.362045,-0.001149,0.741383,-0.274216,-0.246804,0.706861,-0.094548,-0.687518,40.281109,-21.492813,-5.649843,0.464567,1.630660,-0.182328,0.000000,0.000000,0.000000,0.000000,0.000000,0.000000
12110722.000000,-2.332261,-1.662935,1.179201,-1.428345,1.724758,1.221369,-0.575445,0.363176,-0.000318,0.737456,-0.267591,-0.247691,0.706807,-0.091120,-0.687518,40.281109,-21.346024,-5.848207,0.488370,1.597701,-0.268388,0.000000,0.000000,0.000000,0.000000,0.000000,0.000000
12110723.000000,-2.331906,-1.662933,1.179950,-1.428610,1.724526,1.222088,-0.575539,0.357096,-0.000525,0.736267,-0.267890,-0.247097,0.708118,-0.088115,-0.711321,40.308880,-21.346024,-5.971193,0.482877,1.513473,-0.248246,0.000000,0.000000,0.000000,0.000000,0.000000,0.000000
12110724.000000,-2.331545,-1.662926,1.180682,-1.428881,1.724283,1.222807,-0.575637,0.358391,0.001108,0.733179,-0.268607,-0.244725,0.704228,-0.087326,-0.834307,40.257305,-21.270645,-6.070375,0.446256,1.487838,-0.182328,0.000000,0.000000,0.000000,0.000000,0.000000,0.000000
12110725.000000,-2.331192,-1.662919,1.181437,-1.429161,1.724050,1.223516,-0.575717,0.357243,0.003155,0.732988,-0.272995,-0.238845,0.706217,-0.081524,-0.885882,40.162090,-21.369827,-6.018800,0.416959,1.539108,-0.254655,0.000000,0.000000,0.000000,0.000000,0.000000,0.000000
12110726.000000,-2.330825,-1.662915,1.182176,-1.429433,1.723820,1.224225,-0.575813,0.359413,0.003452,0.733172,-0.275659,-0.238164,0.705346,-0.081968,-1.084246,40.110516,-21.393631,-5.971193,0.344633,1.649886,-0.202470,0.000000,0.000000,0.000000,0.000000,0.000000,0.000000
12110727.000000,-2.330466,-1.662903,1.182930,-1.429706,1.723594,1.224952,-0.575905,0.356513,0.006398,0.736595,-0.272510,-0.233030,0.708645,-0.080722,-1.183428,39.939922,-21.469009,-5.971193,0.279630,1.637069,-0.188737,0.000000,0.000000,0.000000,0.000000,0.000000,0.000000
12110728.000000,-2.330120,-1.662888,1.183688,-1.429978,1.723367,1.225667,-0.575988,0.352581,0.008336,0.739842,-0.271026,-0.232264,0.711068,-0.077795,-1.254840,39.769329,-21.568192,-5.947389,0.273221,1.637069,-0.229020,0.000000,0.000000,0.000000,0.000000,0.000000,0.000000
12110729.000000,-2.329770,-1.662881,1.184436,-1.430245,1.723133,1.226387,-0.576077,0.348812,0.007937,0.739807,-0.271369,-0.235005,0.707720,-0.082413,-1.282611,39.670147,-21.687210,-5.994997,0.261320,1.624252,-0.208878,0.000000,0.000000,0.000000,0.000000,0.000000,0.000000
12110730.000000,-2.329425,-1.662866,1.185199,-1.430519,1.722896,1.227098,-0.576159,0.348080,0.012501,0.743669,-0.269628,-0.231056,0.711112,-0.087826,-1.231036,39.499554,-21.909378,-5.994997,0.273221,1.741439,-0.254655,0.000000,0.000000,0.000000,0.000000,0.000000,0.000000
12110731.000000,-2.329073,-1.662851,1.185945,-1.430781,1.722658,1.227792,-0.576245,0.352269,0.015238,0.747703,-0.264152,-0.231149,0.709381,-0.090463,-1.254840,39.352764,-21.984756,-6.042604,0.303434,1.844894,-0.229020,0.000000,0.000000,0.000000,0.000000,0.000000,0.000000
12110732.000000,-2.328734,-1.662847,1.186708,-1.431053,1.722411,1.228496,-0.576333,0.348867,0.013814,0.751527,-0.264501,-0.233305,0.700117,-0.087622,-1.108050,39.352764,-22.107742,-6.018800,0.386747,1.884261,-0.202470,0.000000,0.000000,0.000000,0.000000,0.000000,0.000000
12110733.000000,-2.328403,-1.662834,1.187464,-1.431320,1.722171,1.229191,-0.576410,0.344923,0.010953,0.751555,-0.264746,-0.233649,0.700704,-0.087292,-1.008868,39.305157,-22.131546,-6.018800,0.446256,1.890670,-0.254655,0.000000,0.000000,0.000000,0.000000,0.000000,0.000000
12110734.000000,-2.328063,-1.662821,1.188215,-1.431591,1.721935,1.229889,-0.576502,0.341164,0.012146,0.750184,-0.265584,-0.239589,0.695812,-0.091541,-0.909686,39.253582,-22.202957,-5.971193,0.405057,1.897079,-0.188737,0.000000,0.000000,0.000000,0.000000,0.000000,0.000000
12110735.000000,-2.327734,-1.662810,1.188973,-1.431873,1.721704,1.230603,-0.576586,0.337171,0.012452,0.748237,-0.272039,-0.238133,0.696009,-0.086684,-0.735125,39.229778,-22.302139,-5.796632,0.327238,1.800033,-0.208878,0.000000,0.000000,0.000000,0.000000,0.000000,0.000000
12110736.000000,-2.327395,-1.662804,1.189728,-1.432148,1.721469,1.231295,-0.576663,0.336113,0.010986,0.758760,-0.270438,-0.235246,0.694468,-0.082909,-0.635943,39.281353,-22.230728,-5.749025,0.315336,1.735030,-0.235429,0.000000,0.000000,0.000000,0.000000,0.000000,0.000000
12110737.000000,-2.327064,-1.662790,1.190475,-1.432439,1.721236,1.232001,-0.576752,0.334821,0.009341,0.754159,-0.274149,-0.233022,0.693452,-0.082632,-0.512957,39.229778,-22.230728,-5.499086,0.320829,1.747848,-0.188737,0.000000,0.000000,0.000000,0.000000,0.000000,0.000000
12110738.000000,-2.326732,-1.662778,1.191227,-1.432721,1.721013,1.232679,-0.576825,0.336735,0.011531,0.750660,-0.276273,-0.226242,0.691248,-0.078650,-0.512957,39.158367,-22.107742,-5.399904,0.303434,1.851302,-0.241837,0.000000,0.000000,0.000000,0.000000,0.000000,0.000000
12110739.000000,-2.326402,-1.662771,1.191978,-1.433006,1.720783,1.233367,-0.576909,0.334684,0.011012,0.751025,-0.277650,-0.230616,0.685424,-0.077700,-0.389971,39.182171,-22.179153,-5.304689,0.291532,1.955673,-0.248246,0.000000,0.000000,0.000000,0.000000,0.000000,0.000000
12110740.000000,-2.326076,-1.662756,1.192737,-1.433296,1.720544,1.234081,-0.576997,0.334668,0.012399,0.751394,-0.278688,-0.226698,0.693518,-0.079116,-0.290789,39.130596,-22.202957,-5.205507,0.315336,1.832076,-0.196061,0.000000,0.000000,0.000000,0.000000,0.000000,0.000000
12110741.000000,-2.325750,-1.662745,1.193501,-1.433582,1.720307,1.234780,-0.577073,0.327310,0.009117,0.748802,-0.283649,-0.228287,0.694202,-0.076397,-0.167803,39.130596,-22.325943,-5.078554,0.356534,1.721298,-0.241837,0.000000,0.000000,0.000000,0.000000,0.000000,0.000000
12110742.000000,-2.325421,-1.662734,1.194263,-1.433886,1.720072,1.235478,-0.577159,0.322572,0.011003,0.751331,-0.289527,-0.229215,0.693339,-0.081850,-0.116229,39.082989,-22.548111,-4.856386,0.393156,1.727706,-0.208878,0.000000,0.000000,0.000000,0.000000,0.000000,0.000000
12110743.000000,-2.325095,-1.662728,1.195036,-1.434183,1.719845,1.236150,-0.577238,0.324946,0.011248,0.754872,-0.288104,-0.229451,0.695178,-0.079946,-0.144000,39.082989,-22.770279,-4.733400,0.416959,1.858627,-0.202470,0.000000,0.000000,0.000000,0.000000,0.000000,0.000000
12110744.000000,-2.324774,-1.662727,1.195799,-1.434482,1.719608,1.236850,-0.577315,0.325436,0.008620,0.756247,-0.295544,-0.231480,0.694546,-0.077693,-0.017047,39.205975,-22.988480,-4.511232,0.494779,1.909896,-0.229020,0.000000,0.000000,0.000000,0.000000,0.000000,0.000000
12110745.000000,-2.324448,-1.662720,1.196567,-1.434779,1.719375,1.237546,-0.577394,0.324280,0.009245,0.762006,-0.295551,-0.228944,0.695006,-0.077372,0.054365,39.229778,-23.163040,-4.388246,0.470060,1.930038,-0.221696,0.000000,0.000000,0.000000,0.000000,0.000000,0.000000
12110746.000000,-2.324128,-1.662721,1.197339,-1.435066,1.719149,1.238237,-0.577467,0.321168,0.006798,0.763685,-0.294022,-0.226486,0.690598,-0.080307,0.105939,39.376568,-23.381241,-4.340639,0.422452,1.949264,-0.254655,0.000000,0.000000,0.000000,0.000000,0.000000,0.000000
12110747.000000,-2.323814,-1.662719,1.198105,-1.435365,1.718917,1.238929,-0.577547,0.316354,0.006777,0.762970,-0.294875,-0.226447,0.694770,-0.079949,0.228925,39.451946,-23.627213,-4.213686,0.434354,2.001449,-0.229020,0.000000,0.000000,0.000000,0.000000,0.000000,0.000000
12110748.000000,-2.323504,-1.662720,1.198866,-1.435654,1.718689,1.239633,-0.577629,0.316751,0.005784,0.754984,-0.292052,-0.229107,0.693632,-0.083748,0.351911,39.574932,-23.651016,-4.241457,0.470060,1.949264,-0.208878,0.000000,0.000000,0.000000,0.000000,0.000000,0.000000
12110749.000000,-2.323187,-1.662726,1.199606,-1.435948,1.718455,1.240320,-0.577701,0.317263,0.001415,0.751403,-0.291651,-0.231464,0.695006,-0.079630,0.451093,39.721722,-23.528030,-4.066896,0.547880,1.949264,-0.261979,0.000000,0.000000,0.000000,0.000000,0.000000,0.000000
12110750.000000,-2.322871,-1.662733,1.200367,-1.436242,1.718224,1.241001,-0.577787,0.315018,-0.001096,0.751937,-0.291034,-0.229567,0.682450,-0.085135,0.550275,39.840740,-23.528030,-4.019289,0.542386,2.027084,-0.208878,0.000000,0.000000,0.000000,0.000000,0.000000,0.000000
12110751.000000,-2.322563,-1.662742,1.201127,-1.436546,1.717994,1.241685,-0.577869,0.309087,-0.002492,0.750480,-0.300445,-0.228532,0.676898,-0.082835,0.697065,39.939922,-23.456619,-3.769350,0.542386,2.047225,-0.202470,0.000000,0.000000,0.000000,0.000000,0.000000,0.000000
12110752.000000,-2.322252,-1.662748,1.201872,-1.436835,1.717761,1.242391,-0.577944,0.304050,-0.008469,0.748541,-0.296863,-0.230357,0.682386,-0.079579,0.824018,39.987530,-23.333633,-3.745546,0.589994,1.923629,-0.235429,0.000000,0.000000,0.000000,0.000000,0.000000,0.000000
12110753.000000,-2.321947,-1.662758,1.202625,-1.437136,1.717543,1.243104,-0.578026,0.304654,-0.011326,0.744234,-0.299081,-0.226718,0.686550,-0.079350,0.871625,40.086712,-23.163040,-3.670168,0.524076,1.786300,-0.215287,0.000000,0.000000,0.000000,0.000000,0.000000,0.000000
12110754.000000,-2.321646,-1.662759,1.203383,-1.437427,1.717324,1.243801,-0.578100,0.307773,-0.007961,0.758283,-0.296930,-0.226420,0.695119,-0.077110,1.022382,40.086712,-23.040054,-3.622560,0.518583,1.747848,-0.248246,0.000000,0.000000,0.000000,0.000000,0.000000,0.000000
12110755.000000,-2.321332,-1.662761,1.204121,-1.437723,1.717105,1.244497,-0.578181,0.306146,-0.009195,0.753086,-0.295974,-0.224675,0.690470,-0.081443,1.046186,40.110516,-22.841690,-3.547182,0.482877,1.844894,-0.241837,0.000000,0.000000,0.000000,0.000000,0.000000,0.000000
12110756.000000,-2.321028,-1.662767,1.204870,-1.438020,1.716878,1.245200,-0.578259,0.304162,-0.007819,0.749311,-0.295424,-0.222339,0.693733,-0.080917,1.121564,40.162090,-22.694901,-3.475771,0.535978,1.812850,-0.215287,0.000000,0.000000,0.000000,0.000000,0.000000,0.000000
12110757.000000,-2.320722,-1.662765,1.205610,-1.438311,1.716654,1.245910,-0.578335,0.303070,-0.005575,0.749895,-0.294416,-0.219624,0.687932,-0.083175,1.145368,40.162090,-22.623489,-3.424196,0.566190,1.747848,-0.241837,0.000000,0.000000,0.000000,0.000000,0.000000,0.000000
12110758.000000,-2.320420,-1.662760,1.206367,-1.438609,1.716436,1.246622,-0.578417,0.301553,-0.002225,0.748858,-0.294928,-0.216771,0.691004,-0.081537,1.093793,40.086712,-22.694901,-3.301210,0.571683,1.727706,-0.235429,0.000000,0.000000,0.000000,0.000000,0.000000,0.000000
12110759.000000,-2.320112,-1.662753,1.207116,-1.438905,1.716224,1.247320,-0.578492,0.305339,0.001190,0.747673,-0.294979,-0.213665,0.694331,-0.080015,1.093793,39.963726,-22.671097,-3.202028,0.554288,1.695663,-0.235429,0.000000,0.000000,0.000000,0.000000,0.000000,0.000000
12110760.000000,-2.319800,-1.662743,1.207857,-1.439203,1.716004,1.248028,-0.578570,0.303633,0.004074,0.743386,-0.295693,-0.219922,0.690642,-0.078234,1.093793,39.816936,-22.671097,-3.079042,0.632108,1.656295,-0.248246,0.000000,0.000000,0.000000,0.000000,0.000000,0.000000
12110761.000000,-2.319496,-1.662740,1.208610,-1.439502,1.715793,1.248714,-0.578648,0.305634,0.003715,0.738931,-0.299469,-0.220263,0.706084,-0.078302,1.093793,39.769329,-22.718704,-2.956056,0.601896,1.708480,-0.215287,0.000000,0.000000,0.000000,0.000000,0.000000,0.000000
12110762.000000,-2.319183,-1.662728,1.209353,-1.439795,1.715577,1.249405,-0.578718,0.306559,0.005825,0.737471,-0.298809,-0.216142,0.696268,-0.080462,1.022382,39.622540,-22.770279,-2.833071,0.578092,1.793624,-0.261979,0.000000,0.000000,0.000000,0.000000,0.000000,0.000000
12110763.000000,-2.318876,-1.662717,1.210111,-1.440086,1.715355,1.250103,-0.578800,0.302005,0.007252,0.738128,-0.293363,-0.218485,0.694887,-0.079989,0.970807,39.475750,-22.893265,-2.781496,0.571683,1.838485,-0.241837,0.000000,0.000000,0.000000,0.000000,0.000000,0.000000
12110764.000000,-2.318572,-1.662705,1.210867,-1.440374,1.715149,1.250790,-0.578878,0.302740,0.008777,0.739375,-0.297215,-0.213996,0.686958,-0.080060,0.923200,39.305157,-22.940872,-2.733888,0.524076,1.825668,-0.208878,0.000000,0.000000,0.000000,0.000000,0.000000,0.000000
12110765.000000,-2.318263,-1.662691,1.211612,-1.440672,1.714933,1.251486,-0.578954,0.305757,0.010455,0.740079,-0.296830,-0.213739,0.688570,-0.077365,0.895429,39.106792,-23.087662,-2.634706,0.559781,1.844894,-0.241837,0.000000,0.000000,0.000000,0.000000,0.000000,0.000000
12110766.000000,-2.317960,-1.662684,1.212361,-1.440959,1.714725,1.252178,-0.579031,0.304689,0.008613,0.738673,-0.291325,-0.217198,0.685433,-0.077902,0.895429,39.035381,-23.135269,-2.634706,0.596403,1.884261,-0.215287,0.000000,0.000000,0.000000,0.000000,0.000000,0.000000
12110767.000000,-2.317657,-1.662669,1.213099,-1.441253,1.714509,1.252866,-0.579106,0.299798,0.010362,0.753458,-0.295631,-0.219775,0.688384,-0.076947,0.871625,38.837017,-23.135269,-2.535524,0.601896,1.890670,-0.221696,0.000000,0.000000,0.000000,0.000000,0.000000,0.000000
12110768.000000,-2.317355,-1.662653,1.213844,-1.441545,1.714288,1.253553,-0.579185,0.297193,0.011440,0.756368,-0.293137,-0.219334,0.689078,-0.076082,0.871625,38.642620,-23.111465,-2.535524,0.649503,1.916305,-0.229020,0.000000,0.000000,0.000000,0.000000,0.000000,0.000000
12110769.000000,-2.317063,-1.662643,1.214592,-1.441829,1.714083,1.254234,-0.579263,0.297075,0.009935,0.754881,-0.291698,-0.215976,0.687406,-0.077153,0.923200,38.543438,-23.087662,-2.606935,0.644010,1.909896,-0.196061,0.000000,0.000000,0.000000,0.000000,0.000000,0.000000
12110770.000000,-2.316768,-1.662634,1.215323,-1.442117,1.713887,1.254934,-0.579329,0.296092,0.009399,0.749918,-0.290440,-0.205437,0.692562,-0.074093,0.994611,38.424419,-23.016251,-2.606935,0.547880,1.851302,-0.261979,0.000000,0.000000,0.000000,0.000000,0.000000,0.000000
12110771.000000,-2.316475,-1.662628,1.216058,-1.442401,1.713683,1.255629,-0.579405,0.300374,0.007466,0.739624,-0.288289,-0.201791,0.690800,-0.070091,1.069990,38.372845,-22.865494,-2.682314,0.554288,1.819259,-0.254655,0.000000,0.000000,0.000000,0.000000,0.000000,0.000000
12110772.000000,-2.316176,-1.662618,1.216794,-1.442681,1.713487,1.256312,-0.579485,0.299719,0.010359,0.744289,-0.284975,-0.203215,0.687234,-0.073927,1.121564,38.277630,-22.694901,-2.682314,0.535978,1.832076,-0.188737,0.000000,0.000000,0.000000,0.000000,0.000000,0.000000
12110773.000000,-2.315876,-1.662606,1.217518,-1.442961,1.713286,1.257003,-0.579550,0.298102,0.012622,0.740013,-0.280980,-0.198528,0.684739,-0.071452,1.093793,38.178448,-22.524307,-2.757692,0.506681,1.806442,-0.254655,0.000000,0.000000,0.000000,0.000000,0.000000,0.000000
12110776.000000,-2.315005,-1.662577,1.219725,-1.443798,1.712681,1.259108,-0.579768,0.296761,0.011130,0.731524,-0.276523,-0.199911,0.693626,-0.069086,1.244550,38.178448,-22.448929,-2.833071,0.578092,1.578475,-0.241837,0.000000,0.000000,0.000000,0.000000,0.000000,0.000000
12110777.000000,-2.314709,-1.662574,1.220474,-1.444076,1.712485,1.259792,-0.579836,0.294496,0.006552,0.733472,-0.278848,-0.202677,0.692692,-0.071647,1.268354,38.249859,-22.548111,-2.733888,0.601896,1.637069,-0.215287,0.000000,0.000000,0.000000,0.000000,0.000000,0.000000
12110778.000000,-2.314409,-1.662565,1.221208,-1.444343,1.712300,1.260489,-0.579900,0.294021,0.004970,0.737256,-0.274151,-0.200877,0.687640,-0.065694,1.216779,38.249859,-22.623489,-2.757692,0.535978,1.656295,-0.268388,0.000000,0.000000,0.000000,0.000000,0.000000,0.000000
12110779.000000,-2.314115,-1.662568,1.221951,-1.444614,1.712102,1.261192,-0.579971,0.298354,0.002736,0.736843,-0.270957,-0.199997,0.690522,-0.068865,1.216779,38.424419,-22.794083,-2.781496,0.589994,1.656295,-0.241837,0.000000,0.000000,0.000000,0.000000,0.000000,0.000000
12110780.000000,-2.313834,-1.662563,1.222678,-1.444874,1.711910,1.261865,-0.580045,0.296262,0.003803,0.736994,-0.267482,-0.196722,0.682921,-0.071655,1.343732,38.495831,-22.893265,-2.833071,0.559781,1.793624,-0.208878,0.000000,0.000000,0.000000,0.000000,0.000000,0.000000
12110781.000000,-2.313542,-1.662563,1.223422,-1.445136,1.711715,1.262559,-0.580107,0.292395,0.000915,0.739045,-0.265131,-0.194355,0.682929,-0.070170,1.442914,38.595013,-23.087662,-2.880678,0.547880,1.897079,-0.268388,0.000000,0.000000,0.000000,0.000000,0.000000,0.000000
12110782.000000,-2.313251,-1.662568,1.224165,-1.445392,1.711526,1.263245,-0.580185,0.293910,0.000850,0.734558,-0.267133,-0.194474,0.683278,-0.073964,1.514325,38.741802,-23.163040,-2.979860,0.571683,1.897079,-0.202470,0.000000,0.000000,0.000000,0.000000,0.000000,0.000000
12110783.000000,-2.312959,-1.662571,1.224893,-1.445652,1.711336,1.263950,-0.580256,0.292169,0.002170,0.731962,-0.262554,-0.192656,0.683291,-0.073816,1.542096,38.837017,-23.135269,-3.003664,0.571683,1.871444,-0.208878,0.000000,0.000000,0.000000,0.000000,0.000000,0.000000
12110784.000000,-2.312664,-1.662572,1.225631,-1.445910,1.711148,1.264663,-0.580323,0.290694,0.000997,0.731600,-0.260128,-0.191498,0.690528,-0.077376,1.442914,38.888592,-23.087662,-3.003664,0.596403,1.786300,-0.248246,0.000000,0.000000,0.000000,0.000000,0.000000,0.000000
12110785.000000,-2.312374,-1.662572,1.226358,-1.446162,1.710964,1.265363,-0.580397,0.289961,0.000675,0.731511,-0.257778,-0.189230,0.688311,-0.078600,1.415143,38.912395,-23.087662,-3.126650,0.547880,1.767074,-0.202470,0.000000,0.000000,0.000000,0.000000,0.000000,0.000000
12110786.000000,-2.312084,-1.662577,1.227090,-1.446413,1.710771,1.266070,-0.580461,0.289588,-0.000795,0.728310,-0.253233,-0.187634,0.691697,-0.070694,1.415143,38.983807,-22.988480,-3.249635,0.506681,1.695663,-0.261979,0.000000,0.000000,0.000000,0.000000,0.000000,0.000000
12110787.000000,-2.311798,-1.662582,1.227826,-1.446661,1.710578,1.266766,-0.580534,0.289552,-0.001974,0.725682,-0.251643,-0.188924,0.685990,-0.068742,1.415143,39.059185,-22.893265,-3.376589,0.530485,1.643478,-0.221696,0.000000,0.000000,0.000000,0.000000,0.000000,0.000000
12110788.000000,-2.311507,-1.662584,1.228548,-1.446901,1.710386,1.267464,-0.580598,0.286439,-0.001634,0.727569,-0.250214,-0.189882,0.682384,-0.064662,1.391340,39.082989,-22.794083,-3.570986,0.542386,1.689254,-0.248246,0.000000,0.000000,0.000000,0.000000,0.000000,0.000000
12110789.000000,-2.311213,-1.662585,1.229277,-1.447143,1.710199,1.268154,-0.580669,0.294771,-0.001466,0.725883,-0.246351,-0.189090,0.679332,-0.067338,1.268354,39.106792,-22.647293,-3.769350,0.524076,1.760665,-0.248246,0.000000,0.000000,0.000000,0.000000,0.000000,0.000000
12110790.000000,-2.310928,-1.662583,1.230007,-1.447375,1.710016,1.268840,-0.580740,0.293339,-0.000286,0.724379,-0.240733,-0.184040,0.683769,-0.065698,1.268354,39.082989,-22.524307,-3.943910,0.512174,1.786300,-0.221696,0.000000,0.000000,0.000000,0.000000,0.000000,0.000000
12110791.000000,-2.310629,-1.662584,1.230725,-1.447616,1.709836,1.269548,-0.580802,0.293205,0.000467,0.722270,-0.238790,-0.179346,0.691248,-0.066084,1.069990,39.059185,-22.353714,-4.019289,0.488370,1.656295,-0.268388,0.000000,0.000000,0.000000,0.000000,0.000000,0.000000
12110792.000000,-2.310341,-1.662584,1.231457,-1.447854,1.709653,1.270244,-0.580875,0.293461,-0.000170,0.717709,-0.238470,-0.185676,0.695939,-0.070192,0.994611,39.082989,-22.377518,-4.066896,0.470060,1.584884,-0.221696,0.000000,0.000000,0.000000,0.000000,0.000000,0.000000
12110793.000000,-2.310037,-1.662580,1.232181,-1.448091,1.709467,1.270936,-0.580941,0.299396,0.001057,0.721030,-0.236889,-0.185179,0.695328,-0.071079,0.796247,39.035381,-22.377518,-4.019289,0.434354,1.617843,-0.229020,0.000000,0.000000,0.000000,0.000000,0.000000,0.000000
12110794.000000,-2.309737,-1.662577,1.232913,-1.448325,1.709280,1.271630,-0.581007,0.297106,0.001954,0.717233,-0.234257,-0.186847,0.689560,-0.066880,0.625654,38.983807,-22.401321,-4.019289,0.428861,1.662704,-0.241837,0.000000,0.000000,0.000000,0.000000,0.000000,0.000000
12110795.000000,-2.309443,-1.662577,1.233644,-1.448555,1.709094,1.272316,-0.581078,0.293945,0.001335,0.718742,-0.238681,-0.188919,0.690206,-0.070390,0.502668,38.983807,-22.353714,-4.066896,0.470060,1.727706,-0.202470,0.000000,0.000000,0.000000,0.000000,0.000000,0.000000
12110796.000000,-2.309140,-1.662573,1.234367,-1.448777,1.708911,1.273003,-0.581140,0.293477,0.002027,0.715852,-0.232820,-0.184848,0.685023,-0.069380,0.276533,38.936199,-22.377518,-4.189882,0.482877,1.760665,-0.254655,0.000000,0.000000,0.000000,0.000000,0.000000,0.000000
12110797.000000,-2.308837,-1.662570,1.235108,-1.448997,1.708740,1.273708,-0.581209,0.299837,0.002483,0.720842,-0.225446,-0.179596,0.690682,-0.071320,0.054365,38.888592,-22.524307,-4.312868,0.446256,1.721298,-0.235429,0.000000,0.000000,0.000000,0.000000,0.000000,0.000000
12110798.000000,-2.308548,-1.662570,1.235843,-1.449210,1.708560,1.274400,-0.581277,0.297338,0.001669,0.727175,-0.224852,-0.182196,0.695940,-0.072867,0.006757,38.888592,-22.694901,-4.487428,0.446256,1.643478,-0.221696,0.000000,0.000000,0.000000,0.000000,0.000000,0.000000
12110799.000000,-2.308244,-1.662570,1.236573,-1.449431,1.708371,1.275095,-0.581345,0.297303,0.001123,0.728003,-0.220657,-0.184885,0.694292,-0.072612,-0.144000,38.888592,-22.742508,-4.562807,0.476469,1.676437,-0.241837,0.000000,0.000000,0.000000,0.000000,0.000000,0.000000
12110800.000000,-2.307939,-1.662575,1.237316,-1.449643,1.708187,1.275767,-0.581417,0.303255,-0.000914,0.727862,-0.224185,-0.181906,0.690868,-0.074301,-0.389971,38.960003,-22.865494,-4.685792,0.488370,1.806442,-0.215287,0.000000,0.000000,0.000000,0.000000,0.000000,0.000000
12110801.000000,-2.307636,-1.662582,1.238046,-1.449858,1.708005,1.276448,-0.581485,0.299526,-0.002367,0.725229,-0.220707,-0.183065,0.680408,-0.074617,-0.588336,39.035381,-23.016251,-4.733400,0.482877,1.903487,-0.208878,0.000000,0.000000,0.000000,0.000000,0.000000,0.000000
12110802.000000,-2.307340,-1.662588,1.238782,-1.450071,1.707834,1.277145,-0.581552,0.297304,-0.003244,0.724512,-0.219171,-0.181757,0.681451,-0.069037,-0.762896,39.106792,-23.040054,-4.884157,0.440763,1.877853,-0.235429,0.000000,0.000000,0.000000,0.000000,0.000000,0.000000
12110803.000000,-2.307039,-1.662590,1.239524,-1.450278,1.707664,1.277834,-0.581619,0.299144,-0.002716,0.738550,-0.214607,-0.176611,0.676599,-0.066423,-0.909686,39.130596,-23.135269,-5.030946,0.381254,1.754256,-0.221696,0.000000,0.000000,0.000000,0.000000,0.000000,0.000000
12110804.000000,-2.306740,-1.662594,1.240252,-1.450483,1.707491,1.278536,-0.581685,0.297692,-0.003015,0.736180,-0.208137,-0.174663,0.679972,-0.068495,-0.985064,39.182171,-23.163040,-5.177736,0.369352,1.637069,-0.221696,0.000000,0.000000,0.000000,0.000000,0.000000,0.000000
12110805.000000,-2.306444,-1.662594,1.240982,-1.450687,1.707322,1.279204,-0.581753,0.296758,-0.004590,0.726474,-0.208784,-0.172339,0.676505,-0.066995,-1.060443,39.158367,-23.135269,-5.304689,0.332731,1.714889,-0.182328,0.000000,0.000000,0.000000,0.000000,0.000000,0.000000
12110806.000000,-2.306142,-1.662601,1.241698,-1.450892,1.707140,1.279873,-0.581812,0.296781,-0.006197,0.727779,-0.210783,-0.173779,0.672115,-0.066347,-1.183428,39.281353,-23.016251,-5.427675,0.386747,1.865035,-0.248246,0.000000,0.000000,0.000000,0.000000,0.000000,0.000000
12110807.000000,-2.305844,-1.662606,1.242417,-1.451096,1.706958,1.280546,-0.581880,0.302098,-0.005440,0.722457,-0.206609,-0.174656,0.671502,-0.069192,-1.330218,39.328960,-22.817886,-5.526857,0.434354,1.955673,-0.235429,0.000000,0.000000,0.000000,0.000000,0.000000,0.000000
12110808.000000,-2.305553,-1.662605,1.243144,-1.451302,1.706788,1.281223,-0.581950,0.299335,-0.003216,0.722281,-0.209748,-0.173318,0.675107,-0.067066,-1.381793,39.305157,-22.718704,-5.550661,0.428861,1.930038,-0.208878,0.000000,0.000000,0.000000,0.000000,0.000000,0.000000
12110809.000000,-2.305254,-1.662604,1.243870,-1.451506,1.706622,1.281920,-0.582010,0.297705,-0.001697,0.724783,-0.206548,-0.170049,0.685168,-0.063002,-1.453204,39.281353,-22.742508,-5.598268,0.374845,1.793624,-0.241837,0.000000,0.000000,0.000000,0.000000,0.000000,0.000000
12110810.000000,-2.304958,-1.662604,1.244608,-1.451714,1.706464,1.282615,-0.582080,0.298277,-0.000564,0.722420,-0.208207,-0.166528,0.704498,-0.063600,-1.580157,39.253582,-22.917068,-5.626039,0.273221,1.611434,-0.182328,0.000000,0.000000,0.000000,0.000000,0.000000,0.000000
12110811.000000,-2.304666,-1.662608,1.245330,-1.451918,1.706294,1.283302,-0.582142,0.295990,-0.001644,0.721574,-0.207029,-0.168317,0.697313,-0.065348,-1.603961,39.305157,-22.940872,-5.598268,0.285123,1.630660,-0.208878,0.000000,0.000000,0.000000,0.000000,0.000000,0.000000
12110812.000000,-2.304363,-1.662614,1.246062,-1.452126,1.706123,1.283976,-0.582204,0.294834,-0.002813,0.721119,-0.207018,-0.170662,0.686124,-0.067333,-1.778521,39.376568,-23.016251,-5.526857,0.320829,1.800033,-0.221696,0.000000,0.000000,0.000000,0.000000,0.000000,0.000000
12110813.000000,-2.304072,-1.662621,1.246804,-1.452328,1.705952,1.284647,-0.582270,0.292101,-0.007376,0.722935,-0.208232,-0.175111,0.683523,-0.070283,-1.873736,39.475750,-23.163040,-5.475282,0.315336,1.974899,-0.196061,0.000000,0.000000,0.000000,0.000000,0.000000,0.000000
12110814.000000,-2.303786,-1.662630,1.247535,-1.452531,1.705773,1.285326,-0.582328,0.289049,-0.007525,0.721788,-0.204696,-0.179139,0.680565,-0.069903,-1.901507,39.574932,-23.333633,-5.526857,0.320829,2.020675,-0.235429,0.000000,0.000000,0.000000,0.000000,0.000000,0.000000
12110815.000000,-2.303502,-1.662639,1.248289,-1.452731,1.705598,1.286032,-0.582390,0.285424,-0.010749,0.729637,-0.202111,-0.177992,0.681598,-0.071689,-1.901507,39.670147,-23.702591,-5.598268,0.351041,1.897079,-0.235429,0.000000,0.000000,0.000000,0.000000,0.000000,0.000000
12110816.000000,-2.303211,-1.662654,1.249021,-1.452926,1.705423,1.286712,-0.582458,0.283651,-0.012243,0.735286,-0.196806,-0.177614,0.683456,-0.069704,-1.925311,39.868511,-23.849380,-5.649843,0.381254,1.844894,-0.188737,0.000000,0.000000,0.000000,0.000000,0.000000,0.000000
12110817.000000,-2.302925,-1.662671,1.249764,-1.453128,1.705244,1.287393,-0.582512,0.280606,-0.015654,0.741645,-0.198074,-0.178706,0.676041,-0.063497,-1.925311,40.039104,-24.095352,-5.626039,0.470060,1.877853,-0.261979,0.000000,0.000000,0.000000,0.000000,0.000000,0.000000
12110818.000000,-2.302639,-1.662690,1.250509,-1.453338,1.705072,1.288046,-0.582575,0.280571,-0.019203,0.740368,-0.205433,-0.177602,0.671556,-0.067690,-1.972918,40.257305,-24.242142,-5.550661,0.500272,2.027084,-0.229020,0.000000,0.000000,0.000000,0.000000,0.000000,0.000000
12110819.000000,-2.302359,-1.662711,1.251232,-1.453549,1.704904,1.288711,-0.582636,0.278567,-0.021740,0.734673,-0.209668,-0.179657,0.666400,-0.064764,-1.949114,40.479473,-24.289749,-5.427675,0.500272,2.104903,-0.229020,0.000000,0.000000,0.000000,0.000000,0.000000,0.000000
12110820.000000,-2.302087,-1.662734,1.251970,-1.453753,1.704730,1.289397,-0.582701,0.275561,-0.023638,0.731498,-0.204046,-0.177360,0.676846,-0.063591,-1.849932,40.697674,-24.313553,-5.427675,0.500272,2.066451,-0.202470,0.000000,0.000000,0.000000,0.000000,0.000000,0.000000
12110821.000000,-2.301811,-1.662752,1.252697,-1.453951,1.704562,1.290072,-0.582760,0.272238,-0.018910,0.742846,-0.202603,-0.171611,0.672616,-0.060502,-1.726946,40.796856,-24.365128,-5.427675,0.398649,1.949264,-0.235429,0.000000,0.000000,0.000000,0.000000,0.000000,0.000000
12110822.000000,-2.301535,-1.662766,1.253434,-1.454158,1.704396,1.290752,-0.582820,0.271277,-0.017634,0.741826,-0.204761,-0.169178,0.674464,-0.059890,-1.627764,40.844463,-24.365128,-5.427675,0.344633,1.903487,-0.221696,0.000000,0.000000,0.000000,0.000000,0.000000,0.000000
12110823.000000,-2.301265,-1.662784,1.254162,-1.454364,1.704224,1.291418,-0.582883,0.270569,-0.018515,0.733802,-0.207753,-0.171582,0.667031,-0.060371,-1.528582,40.967449,-24.218338,-5.451478,0.398649,1.897079,-0.175919,0.000000,0.000000,0.000000,0.000000,0.000000,0.000000
12110824.000000,-2.300994,-1.662796,1.254881,-1.454574,1.704056,1.292097,-0.582934,0.269894,-0.019525,0.731956,-0.211076,-0.172659,0.669186,-0.056658,-1.429400,40.967449,-24.043777,-5.352296,0.440763,1.923629,-0.241837,0.000000,0.000000,0.000000,0.000000,0.000000,0.000000
12110825.000000,-2.300728,-1.662812,1.255618,-1.454780,1.703886,1.292769,-0.582991,0.272694,-0.021459,0.729548,-0.208145,-0.174035,0.666287,-0.056728,-1.381793,41.019024,-23.996170,-5.352296,0.500272,1.949264,-0.241837,0.000000,0.000000,0.000000,0.000000,0.000000,0.000000
12110826.000000,-2.300457,-1.662821,1.256347,-1.454990,1.703723,1.293439,-0.583054,0.273581,-0.017736,0.733237,-0.213762,-0.172898,0.670161,-0.058398,-1.354022,40.967449,-23.849380,-5.352296,0.494779,1.942855,-0.196061,0.000000,0.000000,0.000000,0.000000,0.000000,0.000000
12110827.000000,-2.300190,-1.662825,1.257066,-1.455205,1.703561,1.294132,-0.583106,0.269589,-0.010893,0.726156,-0.210805,-0.174296,0.680672,-0.055965,-1.282611,40.872234,-23.702591,-5.304689,0.428861,1.825668,-0.241837,0.000000,0.000000,0.000000,0.000000,0.000000,0.000000
12110828.000000,-2.299920,-1.662832,1.257795,-1.455426,1.703392,1.294819,-0.583167,0.268446,-0.006472,0.720137,-0.211060,-0.173519,0.694358,-0.056821,-1.282611,40.796856,-23.726395,-5.177736,0.434354,1.708480,-0.215287,0.000000,0.000000,0.000000,0.000000,0.000000,0.000000
12110829.000000,-2.299653,-1.662834,1.258515,-1.455645,1.703227,1.295501,-0.583222,0.266922,-0.005346,0.719087,-0.211859,-0.170765,0.694230,-0.055921,-1.254840,40.673870,-23.702591,-5.007143,0.381254,1.741439,-0.235429,0.000000,0.000000,0.000000,0.000000,0.000000,0.000000
12110830.000000,-2.299386,-1.662837,1.259240,-1.455868,1.703058,1.296183,-0.583283,0.266526,-0.005317,0.718103,-0.213618,-0.167227,0.681759,-0.057077,-1.231036,40.578655,-23.678787,-4.907960,0.410551,1.825668,-0.208878,0.000000,0.000000,0.000000,0.000000,0.000000,0.000000
12110831.000000,-2.299118,-1.662843,1.259968,-1.456097,1.702891,1.296863,-0.583338,0.267545,-0.006352,0.715729,-0.221427,-0.165230,0.678953,-0.057025,-1.282611,40.527081,-23.627213,-4.733400,0.464567,1.890670,-0.202470,0.000000,0.000000,0.000000,0.000000,0.000000,0.000000
12110832.000000,-2.298857,-1.662842,1.260689,-1.456312,1.702726,1.297552,-0.583389,0.265007,-0.001717,0.714291,-0.216749,-0.162594,0.674587,-0.054931,-1.231036,40.380291,-23.678787,-4.661989,0.494779,1.865035,-0.248246,0.000000,0.000000,0.000000,0.000000,0.000000,0.000000
12110833.000000,-2.298594,-1.662843,1.261418,-1.456540,1.702566,1.298252,-0.583448,0.265232,0.001045,0.717926,-0.222557,-0.163366,0.684127,-0.056710,-1.231036,40.257305,-23.750198,-4.487428,0.494779,1.800033,-0.202470,0.000000,0.000000,0.000000,0.000000,0.000000,0.000000
12110834.000000,-2.298326,-1.662847,1.262146,-1.456763,1.702404,1.298934,-0.583501,0.265630,0.001294,0.723253,-0.224422,-0.165470,0.683986,-0.055334,-1.254840,40.209698,-23.873184,-4.388246,0.494779,1.760665,-0.235429,0.000000,0.000000,0.000000,0.000000,0.000000,0.000000
12110835.000000,-2.298062,-1.662856,1.262876,-1.456993,1.702234,1.299627,-0.583553,0.265004,-0.000080,0.726625,-0.224265,-0.166701,0.681974,-0.055133,-1.231036,40.233501,-23.972366,-4.241457,0.506681,1.754256,-0.248246,0.000000,0.000000,0.000000,0.000000,0.000000,0.000000
12110836.000000,-2.297795,-1.662854,1.263608,-1.457218,1.702068,1.300295,-0.583611,0.266873,-0.000054,0.721809,-0.227338,-0.167695,0.678969,-0.056906,-1.306414,40.086712,-24.043777,-4.142274,0.512174,1.825668,-0.208878,0.000000,0.000000,0.000000,0.000000,0.000000,0.000000
12110837.000000,-2.297541,-1.662860,1.264324,-1.457439,1.701905,1.300965,-0.583664,0.260047,0.000041,0.716564,-0.224123,-0.163267,0.673214,-0.055675,-1.207232,40.062908,-24.142960,-4.090700,0.512174,1.988631,-0.235429,0.000000,0.000000,0.000000,0.000000,0.000000,0.000000
12110838.000000,-2.297294,-1.662862,1.265053,-1.457664,1.701747,1.301652,-0.583724,0.262939,0.002545,0.715750,-0.222104,-0.164785,0.678522,-0.061702,-1.084246,39.939922,-24.190567,-4.043092,0.494779,2.039901,-0.208878,0.000000,0.000000,0.000000,0.000000,0.000000,0.000000
12110839.000000,-2.297039,-1.662864,1.265779,-1.457883,1.701581,1.302334,-0.583778,0.258538,-0.000624,0.726845,-0.222069,-0.163796,0.673247,-0.060364,-1.008868,39.892315,-24.190567,-4.043092,0.559781,1.949264,-0.208878,0.000000,0.000000,0.000000,0.000000,0.000000,0.000000
12110840.000000,-2.296788,-1.662862,1.266498,-1.458104,1.701430,1.303023,-0.583829,0.253168,-0.000509,0.721840,-0.220573,-0.163827,0.675375,-0.057268,-0.862078,39.745525,-24.218338,-3.991518,0.524076,1.909896,-0.261979,0.000000,0.000000,0.000000,0.000000,0.000000,0.000000
12110841.000000,-2.296538,-1.662860,1.267221,-1.458337,1.701281,1.303698,-0.583895,0.251888,-0.001773,0.715697,-0.224111,-0.158888,0.671285,-0.055451,-0.810504,39.646343,-24.190567,-3.868532,0.476469,1.936446,-0.182328,0.000000,0.000000,0.000000,0.000000,0.000000,0.000000
12110842.000000,-2.296279,-1.662855,1.267928,-1.458561,1.701120,1.304389,-0.583943,0.248855,0.000979,0.717525,-0.225007,-0.163521,0.672819,-0.052576,-0.810504,39.523357,-24.119156,-3.797121,0.512174,1.955673,-0.261979,0.000000,0.000000,0.000000,0.000000,0.000000,0.000000
12110843.000000,-2.296032,-1.662853,1.268633,-1.458794,1.700958,1.305078,-0.584002,0.251256,0.001230,0.709532,-0.221846,-0.165216,0.680523,-0.054181,-0.735125,39.475750,-23.825577,-3.646364,0.518583,1.942855,-0.248246,0.000000,0.000000,0.000000,0.000000,0.000000,0.000000
12110844.000000,-2.295786,-1.662850,1.269350,-1.459021,1.700802,1.305760,-0.584064,0.248347,0.001531,0.709592,-0.226733,-0.162192,0.676295,-0.052513,-0.735125,39.428143,-23.726395,-3.499574,0.518583,1.930038,-0.182328,0.000000,0.000000,0.000000,0.000000,0.000000,0.000000
12110845.000000,-2.295538,-1.662836,1.270057,-1.459248,1.700652,1.306446,-0.584114,0.247085,0.004802,0.709623,-0.226006,-0.158092,0.682082,-0.050826,-0.663714,39.253582,-23.627213,-3.475771,0.488370,1.903487,-0.241837,0.000000,0.000000,0.000000,0.000000,0.000000,0.000000
12110846.000000,-2.295298,-1.662827,1.270772,-1.459475,1.700508,1.307129,-0.584174,0.243754,0.011518,0.706569,-0.225628,-0.155151,0.690809,-0.052954,-0.588336,39.158367,-23.603409,-3.475771,0.452665,1.806442,-0.215287,0.000000,0.000000,0.000000,0.000000,0.000000,0.000000
12110847.000000,-2.295058,-1.662822,1.271479,-1.459697,1.700352,1.307811,-0.584228,0.235980,0.009242,0.705305,-0.222173,-0.156834,0.683441,-0.054753,-0.465350,39.106792,-23.555801,-3.448000,0.524076,1.800033,-0.188737,0.000000,0.000000,0.000000,0.000000,0.000000,0.000000
12110848.000000,-2.294809,-1.662815,1.272187,-1.459923,1.700207,1.308490,-0.584280,0.239643,0.008099,0.701090,-0.223756,-0.150944,0.674110,-0.052842,-0.465350,39.035381,-23.504227,-3.400392,0.524076,1.871444,-0.248246,0.000000,0.000000,0.000000,0.000000,0.000000,0.000000
12110849.000000,-2.294575,-1.662807,1.272920,-1.460159,1.700064,1.309158,-0.584335,0.233575,0.007920,0.706518,-0.228253,-0.150460,0.666869,-0.049333,-0.366168,38.936199,-23.702591,-3.277406,0.512174,1.974899,-0.241837,0.000000,0.000000,0.000000,0.000000,0.000000,0.000000
12110850.000000,-2.294337,-1.662805,1.273636,-1.460382,1.699915,1.309835,-0.584388,0.233174,0.005987,0.709619,-0.224782,-0.151172,0.660089,-0.051051,-0.314593,38.912395,-23.873184,-3.225832,0.530485,1.981307,-0.241837,0.000000,0.000000,0.000000,0.000000,0.000000,0.000000
12110851.000000,-2.294106,-1.662808,1.274352,-1.460599,1.699771,1.310530,-0.584451,0.233230,0.002991,0.711735,-0.218918,-0.153694,0.667755,-0.054663,-0.243182,38.960003,-23.996170,-3.202028,0.494779,1.923629,-0.182328,0.000000,0.000000,0.000000,0.000000,0.000000,0.000000
12110852.000000,-2.293868,-1.662803,1.275066,-1.460816,1.699623,1.311206,-0.584501,0.233548,0.003192,0.722253,-0.216479,-0.148083,0.672549,-0.053533,-0.167803,38.912395,-24.190567,-3.202028,0.488370,1.877853,-0.221696,0.000000,0.000000,0.000000,0.000000,0.000000,0.000000
12110853.000000,-2.293634,-1.662809,1.275779,-1.461036,1.699476,1.311881,-0.584548,0.231277,-0.000129,0.715414,-0.216225,-0.144629,0.670083,-0.048761,-0.044818,39.011578,-24.289749,-3.154421,0.500272,1.955673,-0.241837,0.000000,0.000000,0.000000,0.000000,0.000000,0.000000
12110856.000000,-2.292948,-1.662829,1.277922,-1.461672,1.699050,1.313904,-0.584704,0.231164,-0.005132,0.709567,-0.213850,-0.145549,0.676283,-0.047878,0.252729,39.305157,-24.289749,-3.178224,0.559781,1.968490,-0.254655,0.000000,0.000000,0.000000,0.000000,0.000000,0.000000
12110857.000000,-2.292722,-1.662834,1.278637,-1.461880,1.698915,1.314567,-0.584758,0.226128,-0.005072,0.721755,-0.217302,-0.140548,0.673136,-0.051519,0.375715,39.376568,-24.242142,-3.202028,0.518583,1.955673,-0.215287,0.000000,0.000000,0.000000,0.000000,0.000000,0.000000
12110858.000000,-2.292493,-1.662840,1.279338,-1.462084,1.698777,1.315245,-0.584803,0.224896,-0.004573,0.721134,-0.212611,-0.137951,0.666549,-0.046908,0.403486,39.428143,-24.142960,-3.202028,0.512174,1.897079,-0.241837,0.000000,0.000000,0.000000,0.000000,0.000000,0.000000
12110859.000000,-2.292275,-1.662847,1.280043,-1.462290,1.698640,1.315919,-0.584855,0.222222,-0.005821,0.712674,-0.210030,-0.139658,0.667607,-0.045374,0.574079,39.547161,-23.996170,-3.178224,0.464567,1.838485,-0.235429,0.000000,0.000000,0.000000,0.000000,0.000000,0.000000
12110860.000000,-2.292049,-1.662849,1.280739,-1.462492,1.698492,1.316604,-0.584909,0.223771,-0.003872,0.709538,-0.206004,-0.139310,0.666268,-0.049540,0.697065,39.547161,-23.920792,-3.225832,0.500272,1.825668,-0.196061,0.000000,0.000000,0.000000,0.000000,0.000000,0.000000
12110861.000000,-2.291829,-1.662851,1.281438,-1.462690,1.698348,1.317285,-0.584952,0.217738,-0.003225,0.699379,-0.203443,-0.142743,0.665534,-0.048509,0.871625,39.574932,-23.702591,-3.277406,0.506681,1.800033,-0.268388,0.000000,0.000000,0.000000,0.000000,0.000000,0.000000
12110862.000000,-2.291604,-1.662849,1.282147,-1.462887,1.698206,1.317963,-0.585010,0.222185,-0.001496,0.699032,-0.205470,-0.145377,0.671030,-0.052377,0.947004,39.547161,-23.603409,-3.348818,0.518583,1.754256,-0.221696,0.000000,0.000000,0.000000,0.000000,0.000000,0.000000
12110863.000000,-2.291381,-1.662848,1.282843,-1.463082,1.698066,1.318658,-0.585056,0.221178,-0.000437,0.699226,-0.204010,-0.143104,0.683255,-0.047477,1.046186,39.523357,-23.409012,-3.348818,0.554288,1.689254,-0.248246,0.000000,0.000000,0.000000,0.000000,0.000000,0.000000
12110864.000000,-2.291159,-1.662848,1.283540,-1.463280,1.697926,1.319333,-0.585111,0.219895,-0.000288,0.691819,-0.202314,-0.140876,0.677792,-0.050437,1.046186,39.523357,-23.234451,-3.400392,0.566190,1.676437,-0.221696,0.000000,0.000000,0.000000,0.000000,0.000000,0.000000
12110865.000000,-2.290940,-1.662841,1.284236,-1.463479,1.697792,1.320020,-0.585161,0.218038,0.002037,0.697921,-0.198988,-0.137320,0.682287,-0.051429,1.069990,39.428143,-23.186844,-3.376589,0.530485,1.689254,-0.235429,0.000000,0.000000,0.000000,0.000000,0.000000,0.000000
12110866.000000,-2.290706,-1.662838,1.284941,-1.463680,1.697663,1.320709,-0.585214,0.222934,0.002566,0.699915,-0.197228,-0.133713,0.680397,-0.047990,0.970807,39.376568,-23.186844,-3.325014,0.464567,1.689254,-0.235429,0.000000,0.000000,0.000000,0.000000,0.000000,0.000000
12110867.000000,-2.290482,-1.662823,1.285640,-1.463879,1.697526,1.321402,-0.585266,0.224450,0.005702,0.696253,-0.202085,-0.137946,0.683874,-0.046190,0.947004,39.205975,-23.135269,-3.225832,0.458158,1.605026,-0.215287,0.000000,0.000000,0.000000,0.000000,0.000000,0.000000
12110868.000000,-2.290253,-1.662817,1.286342,-1.464067,1.697386,1.322084,-0.585315,0.223590,0.005566,0.693831,-0.199097,-0.137089,0.676588,-0.047897,0.847822,39.130596,-23.186844,-3.301210,0.470060,1.637069,-0.235429,0.000000,0.000000,0.000000,0.000000,0.000000,0.000000
12110869.000000,-2.290027,-1.662807,1.287045,-1.464268,1.697244,1.322769,-0.585366,0.225864,0.007145,0.695410,-0.197066,-0.144481,0.678911,-0.045849,0.772443,38.983807,-23.210648,-3.277406,0.470060,1.747848,-0.221696,0.000000,0.000000,0.000000,0.000000,0.000000,0.000000
12110870.000000,-2.289797,-1.662798,1.287743,-1.464456,1.697107,1.323455,-0.585416,0.224717,0.007548,0.709592,-0.195984,-0.146539,0.682914,-0.044258,0.697065,38.864788,-23.234451,-3.325014,0.470060,1.779891,-0.208878,0.000000,0.000000,0.000000,0.000000,0.000000,0.000000
12110871.000000,-2.289568,-1.662789,1.288447,-1.464639,1.696967,1.324152,-0.585461,0.223033,0.010463,0.702920,-0.190699,-0.144679,0.683008,-0.041502,0.625654,38.765606,-23.309830,-3.448000,0.518583,1.747848,-0.235429,0.000000,0.000000,0.000000,0.000000,0.000000,0.000000
12110872.000000,-2.289345,-1.662778,1.289165,-1.464832,1.696828,1.324828,-0.585509,0.221920,0.010111,0.709033,-0.193737,-0.142310,0.682807,-0.045242,0.550275,38.642620,-23.456619,-3.499574,0.524076,1.741439,-0.235429,0.000000,0.000000,0.000000,0.000000,0.000000,0.000000
12110873.000000,-2.289123,-1.662768,1.289871,-1.465018,1.696701,1.325506,-0.585560,0.224724,0.009812,0.708327,-0.190374,-0.141707,0.680747,-0.049254,0.574079,38.519634,-23.627213,-3.570986,0.452665,1.779891,-0.202470,0.000000,0.000000,0.000000,0.000000,0.000000,0.000000
12110874.000000,-2.288900,-1.662762,1.290587,-1.465205,1.696566,1.326188,-0.585603,0.227345,0.010417,0.707414,-0.186839,-0.139586,0.679632,-0.044553,0.550275,38.495831,-23.849380,-3.570986,0.452665,1.806442,-0.248246,0.000000,0.000000,0.000000,0.000000,0.000000,0.000000
12110875.000000,-2.288668,-1.662757,1.291282,-1.465387,1.696432,1.326850,-0.585654,0.226291,0.007876,0.699849,-0.188611,-0.137644,0.670927,-0.048540,0.451093,38.472027,-23.849380,-3.570986,0.452665,1.806442,-0.221696,0.000000,0.000000,0.000000,0.000000,0.000000,0.000000
12110876.000000,-2.288444,-1.662755,1.291989,-1.465565,1.696303,1.327520,-0.585704,0.223145,0.008156,0.697568,-0.187544,-0.135490,0.666379,-0.046355,0.427289,38.495831,-23.873184,-3.598757,0.434354,1.819259,-0.202470,0.000000,0.000000,0.000000,0.000000,0.000000,0.000000
12110877.000000,-2.288214,-1.662747,1.292702,-1.465742,1.696168,1.328172,-0.585755,0.229185,0.007583,0.697335,-0.182050,-0.134405,0.663523,-0.044856,0.351911,38.424419,-23.849380,-3.721742,0.422452,1.877853,-0.175919,0.000000,0.000000,0.000000,0.000000,0.000000,0.000000
12110878.000000,-2.287992,-1.662745,1.293392,-1.465918,1.696031,1.328842,-0.585791,0.225461,0.004298,0.691238,-0.175932,-0.138505,0.663129,-0.044687,0.328107,38.472027,-23.801773,-3.769350,0.410551,1.884261,-0.254655,0.000000,0.000000,0.000000,0.000000,0.000000,0.000000
12110879.000000,-2.287768,-1.662739,1.294089,-1.466093,1.695891,1.329514,-0.585843,0.222942,0.003690,0.692702,-0.174716,-0.133501,0.665335,-0.044770,0.276533,38.448223,-23.627213,-3.820925,0.446256,1.812850,-0.208878,0.000000,0.000000,0.000000,0.000000,0.000000,0.000000
