chaoyuefei/paper-gmrm-data/robot_logs/s2_dq_gmrm_xz_max_0.50_log_20260314_175150.csv
# time_ms,q_0,q_1,q_2,q_3,q_4,q_5,q_6,dq_0,dq_1,dq_2,dq_3,dq_4,dq_5,dq_6,tau_J_0,tau_J_1,tau_J_2,tau_J_3,tau_J_4,tau_J_5,tau_J_6,O_dP_EE_c_0,O_dP_EE_c_1,O_dP_EE_c_2,O_dP_EE_c_3,O_dP_EE_c_4,O_dP_EE_c_5
13372560.000000,-0.258967,0.525631,0.336242,-1.429399,-0.177867,1.925859,0.097036,0.000254,0.000605,0.001148,-0.000343,0.000005,0.000114,-0.000127,-0.017047,-39.072529,4.647629,19.590025,1.013883,1.350509,-0.155778,0.000000,0.000000,0.000000,0.000000,0.000000,0.000000
13372561.000000,-0.258968,0.525633,0.336244,-1.429393,-0.177866,1.925859,0.097035,-0.000387,0.001053,0.001539,0.000978,0.000444,0.000076,-0.000797,0.006757,-39.100300,4.619858,19.538450,1.001981,1.350509,-0.136552,0.000000,0.000000,0.000000,0.000000,0.000000,0.000000
13372562.000000,-0.258968,0.525631,0.336242,-1.429400,-0.177867,1.925859,0.097034,-0.000258,0.000052,0.000469,-0.001668,0.000059,0.000288,0.000181,0.006757,-39.072529,4.647629,19.637632,1.008390,1.344100,-0.155778,0.000000,0.000000,0.000000,0.000000,0.000000,0.000000
13372563.000000,-0.258969,0.525630,0.336242,-1.429396,-0.177868,1.925859,0.097034,0.000385,-0.001079,0.000382,0.000651,-0.000402,-0.000045,0.000629,-0.017047,-39.024921,4.647629,19.562254,1.020292,1.350509,-0.169511,0.000000,0.000000,0.000000,0.000000,0.000000,0.000000
13372564.000000,-0.258990,0.525630,0.336244,-1.429399,-0.177865,1.925858,0.097031,-0.019232,0.008496,-0.009363,-0.006362,-0.001471,0.000919,0.006574,-0.489153,-38.437763,3.985092,19.316282,0.936979,1.324874,-0.083451,0.000000,0.000000,0.000000,0.000000,0.000000,0.000000
13372565.000000,-0.259019,0.525624,0.336225,-1.429401,-0.177848,1.925856,0.097049,-0.038649,0.016832,-0.028994,-0.012172,0.004034,0.001325,0.010297,-2.568011,-36.307331,1.969711,18.276854,0.559781,1.305648,-0.089860,0.000000,0.000000,0.000000,0.000000,0.000000,0.000000
13372566.000000,-0.259053,0.525650,0.336146,-1.429421,-0.177832,1.925849,0.097087,-0.036263,0.023593,-0.044776,-0.027193,0.009864,0.000883,0.019495,-6.083025,-33.224751,-0.751846,16.570921,0.112089,1.305648,-0.149369,0.000000,0.000000,0.000000,0.000000,0.000000,0.000000
13372567.000000,-0.259099,0.525710,0.336015,-1.429440,-0.177847,1.925847,0.097126,-0.018337,0.025431,-0.060211,-0.025004,-0.001577,0.008076,0.026189,-9.550433,-29.872395,-3.330582,14.000120,-0.055453,1.357833,-0.083451,0.000000,0.000000,0.000000,0.000000,0.000000,0.000000
13372568.000000,-0.259182,0.525792,0.335875,-1.429512,-0.177902,1.925845,0.097179,-0.019205,0.031918,-0.067584,-0.036557,-0.019932,0.006797,0.034926,-11.506305,-26.833454,-5.246780,11.726866,0.166105,1.467696,-0.110001,0.000000,0.000000,0.000000,0.000000,0.000000,0.000000
13372569.000000,-0.259267,0.525881,0.335756,-1.429610,-0.177982,1.925909,0.097233,-0.025100,0.043342,-0.065820,-0.050438,-0.044148,0.022722,0.042205,-12.125201,-24.215046,-6.274307,9.727354,0.476469,1.129867,-0.037675,0.000000,0.000000,0.000000,0.000000,0.000000,0.000000
13372570.000000,-0.259329,0.525981,0.335653,-1.429725,-0.178071,1.926051,0.097296,-0.032615,0.052542,-0.067337,-0.065131,-0.062761,0.059682,0.049866,-11.950641,-22.037006,-6.302078,7.771483,0.709928,0.212508,-0.023942,0.000000,0.000000,0.000000,0.000000,0.000000,0.000000
13372571.000000,-0.259379,0.526082,0.335601,-1.429829,-0.178163,1.926224,0.097363,-0.037868,0.064169,-0.056986,-0.074656,-0.073625,0.099882,0.055470,-11.109576,-20.275532,-6.028336,5.843382,0.774930,-0.729569,0.001693,0.000000,0.000000,0.000000,0.000000,0.000000,0.000000
13372572.000000,-0.259420,0.526185,0.335578,-1.429935,-0.178235,1.926367,0.097428,-0.044024,0.074114,-0.046333,-0.076370,-0.069136,0.115145,0.057383,-9.871783,-18.756062,-5.488785,4.089842,0.476469,-1.041764,0.087753,0.000000,0.000000,0.000000,0.000000,0.000000,0.000000
13372573.000000,-0.259437,0.526291,0.335572,-1.430045,-0.178310,1.926487,0.097525,-0.038173,0.082565,-0.034205,-0.081498,-0.071190,0.115310,0.073110,-8.808551,-17.363544,-4.778641,2.657652,0.064481,-0.671891,-0.077042,0.000000,0.000000,0.000000,0.000000,0.000000,0.000000
13372574.000000,-0.259442,0.526379,0.335580,-1.430161,-0.178402,1.926622,0.097612,-0.033631,0.084531,-0.022300,-0.092295,-0.077457,0.120440,0.078729,-7.816729,-15.919453,-4.092300,1.542845,-0.246798,-0.112504,-0.097184,0.000000,0.000000,0.000000,0.000000,0.000000,0.000000
13372575.000000,-0.259452,0.526429,0.335580,-1.430313,-0.178496,1.926802,0.097703,-0.028996,0.073644,-0.016996,-0.112191,-0.083871,0.139188,0.082426,-6.824908,-14.130207,-3.207596,1.122313,-0.533358,0.245467,-0.097184,0.000000,0.000000,0.000000,0.000000,0.000000,0.000000
13372576.000000,-0.259480,0.526448,0.335563,-1.430504,-0.178609,1.927044,0.097796,-0.031969,0.054987,-0.022023,-0.137711,-0.086657,0.171886,0.084517,-5.662493,-11.975971,-2.152298,1.372252,-0.634982,0.245467,-0.077042,0.000000,0.000000,0.000000,0.000000,0.000000,0.000000
13372577.000000,-0.259511,0.526468,0.335539,-1.430720,-0.178762,1.927322,0.097899,-0.036566,0.043238,-0.029895,-0.163711,-0.107134,0.200789,0.092632,-4.500079,-9.996296,-1.144608,2.038756,-0.353915,0.115462,-0.089860,0.000000,0.000000,0.000000,0.000000,0.000000,0.000000
13372578.000000,-0.259553,0.526501,0.335497,-1.430951,-0.178934,1.927593,0.097996,-0.038855,0.041801,-0.036297,-0.191352,-0.130062,0.228990,0.096459,-3.361468,-8.353840,-0.089310,2.780638,0.052579,0.193282,-0.056901,0.000000,0.000000,0.000000,0.000000,0.000000,0.000000
13372579.000000,-0.259618,0.526561,0.335453,-1.431169,-0.179113,1.927882,0.098094,-0.050694,0.047289,-0.039659,-0.201874,-0.143890,0.243630,0.098517,-2.048296,-7.227131,0.791427,3.149595,0.422452,0.408431,0.001693,0.000000,0.000000,0.000000,0.000000,0.000000,0.000000
13372580.000000,-0.259681,0.526648,0.335427,-1.431392,-0.179282,1.928196,0.098206,-0.059186,0.058212,-0.034452,-0.212191,-0.151798,0.258812,0.098965,-0.862078,-6.592365,1.211960,3.371763,0.608304,0.538436,-0.031266,0.000000,0.000000,0.000000,0.000000,0.000000,0.000000
13372581.000000,-0.259731,0.526760,0.335406,-1.431619,-0.179422,1.928538,0.098312,-0.055693,0.079094,-0.029811,-0.216339,-0.144155,0.284714,0.101614,-0.092425,-6.322590,1.430160,3.447142,0.446256,0.544845,-0.004716,0.000000,0.000000,0.000000,0.000000,0.000000,0.000000
13372582.000000,-0.259763,0.526885,0.335402,-1.431851,-0.179541,1.928919,0.098437,-0.048691,0.095894,-0.016230,-0.224753,-0.130702,0.320359,0.107061,0.328107,-6.175800,1.307175,3.324156,0.034269,0.505477,-0.077042,0.000000,0.000000,0.000000,0.000000,0.000000,0.000000
13372583.000000,-0.259802,0.527030,0.335391,-1.432089,-0.179658,1.929316,0.098548,-0.047282,0.113691,-0.012782,-0.227460,-0.123082,0.350335,0.108042,0.724836,-6.223408,1.283371,3.050413,-0.353915,0.473434,-0.064225,0.000000,0.000000,0.000000,0.000000,0.000000,0.000000
13372584.000000,-0.259832,0.527171,0.335365,-1.432331,-0.179783,1.929726,0.098664,-0.039830,0.125368,-0.015484,-0.238059,-0.121694,0.364128,0.109334,0.947004,-6.104389,1.453964,2.756834,-0.629489,0.551253,-0.056901,0.000000,0.000000,0.000000,0.000000,0.000000,0.000000
13372585.000000,-0.259876,0.527302,0.335341,-1.432598,-0.179938,1.930156,0.098785,-0.038562,0.128882,-0.017134,-0.246915,-0.125553,0.383603,0.110988,1.315961,-5.806843,1.604721,2.558470,-0.569064,0.648299,-0.077042,0.000000,0.000000,0.000000,0.000000,0.000000,0.000000
13372586.000000,-0.259915,0.527418,0.335310,-1.432893,-0.180117,1.930617,0.098898,-0.036902,0.122225,-0.020055,-0.262960,-0.145177,0.405533,0.109039,1.641279,-5.247456,1.822922,2.629881,-0.258700,0.668441,-0.011124,0.000000,0.000000,0.000000,0.000000,0.000000,0.000000
13372587.000000,-0.259949,0.527517,0.335268,-1.433200,-0.180305,1.931121,0.099026,-0.033538,0.115398,-0.025062,-0.277501,-0.159333,0.438831,0.111704,1.863447,-4.438129,2.168075,2.804442,0.076383,0.479842,-0.056901,0.000000,0.000000,0.000000,0.000000,0.000000,0.000000
13372588.000000,-0.259982,0.527618,0.335246,-1.433528,-0.180496,1.931655,0.099142,-0.033709,0.108537,-0.024207,-0.293666,-0.168878,0.469604,0.118271,2.061811,-3.557392,2.191879,2.979002,0.393156,0.258285,0.009017,0.000000,0.000000,0.000000,0.000000,0.000000,0.000000
13372589.000000,-0.260014,0.527739,0.335228,-1.433855,-0.180669,1.932207,0.099267,-0.033250,0.112773,-0.020494,-0.301113,-0.170087,0.491180,0.118171,2.208601,-2.894856,2.068893,2.951231,0.476469,0.161239,-0.017533,0.000000,0.000000,0.000000,0.000000,0.000000,0.000000
13372590.000000,-0.260034,0.527874,0.335214,-1.434177,-0.180819,1.932759,0.099393,-0.028637,0.118346,-0.016047,-0.307788,-0.161425,0.508188,0.117843,2.160993,-2.454487,1.846725,2.705260,0.267728,0.316879,-0.044083,0.000000,0.000000,0.000000,0.000000,0.000000,0.000000
13372591.000000,-0.260045,0.528028,0.335207,-1.434502,-0.180960,1.933304,0.099511,-0.022780,0.128307,-0.010978,-0.314735,-0.153040,0.517940,0.115722,1.986432,-2.307698,1.529343,2.260924,-0.019747,0.576888,-0.017533,0.000000,0.000000,0.000000,0.000000,0.000000,0.000000
13372592.000000,-0.260050,0.528193,0.335197,-1.434828,-0.181088,1.933878,0.099635,-0.017310,0.142702,-0.009475,-0.318376,-0.144111,0.530319,0.120917,1.740461,-2.212483,1.283371,1.840392,-0.389620,0.843307,-0.050492,0.000000,0.000000,0.000000,0.000000,0.000000,0.000000
13372593.000000,-0.260064,0.528374,0.335176,-1.435163,-0.181224,1.934490,0.099756,-0.016476,0.153414,-0.011982,-0.323183,-0.142825,0.552995,0.118299,1.613508,-2.184712,1.184189,1.344481,-0.653292,0.765487,-0.031266,0.000000,0.000000,0.000000,0.000000,0.000000,0.000000
13372594.000000,-0.260081,0.528573,0.335155,-1.435511,-0.181393,1.935150,0.099875,-0.018000,0.166988,-0.014450,-0.326891,-0.151844,0.591902,0.118154,1.565900,-2.260090,1.112778,0.975523,-0.634982,0.492660,-0.044083,0.000000,0.000000,0.000000,0.000000,0.000000,0.000000
13372595.000000,-0.260099,0.528774,0.335131,-1.435869,-0.181578,1.935814,0.099987,-0.016469,0.176543,-0.017256,-0.334189,-0.165074,0.611602,0.114103,1.542096,-2.331501,1.088974,0.654173,-0.443636,0.291244,0.021835,0.000000,0.000000,0.000000,0.000000,0.000000,0.000000
13372596.000000,-0.260116,0.528994,0.335108,-1.436224,-0.181769,1.936500,0.100105,-0.018327,0.191606,-0.021587,-0.337360,-0.173903,0.635557,0.119263,1.514325,-2.553669,1.037399,0.257445,-0.138766,0.089828,0.009017,0.000000,0.000000,0.000000,0.000000,0.000000,0.000000
13372597.000000,-0.260128,0.529217,0.335086,-1.436586,-0.181962,1.937214,0.100224,-0.015501,0.204060,-0.021276,-0.345920,-0.177946,0.660465,0.118133,1.442914,-2.676655,0.965988,-0.163088,0.147794,-0.085954,0.001693,0.000000,0.000000,0.000000,0.000000,0.000000,0.000000
13372598.000000,-0.260135,0.529455,0.335070,-1.436950,-0.182133,1.937942,0.100341,-0.012113,0.212558,-0.022405,-0.348255,-0.180263,0.669531,0.114949,1.315961,-2.799641,0.819198,-0.631227,0.171598,-0.236100,0.054794,0.000000,0.000000,0.000000,0.000000,0.000000,0.000000
13372599.000000,-0.260131,0.529690,0.335049,-1.437339,-0.182286,1.938691,0.100460,-0.005172,0.218118,-0.021294,-0.359627,-0.169473,0.695329,0.116132,0.994611,-2.771870,0.720016,-0.952577,-0.025240,-0.268143,0.015426,0.000000,0.000000,0.000000,0.000000,0.000000,0.000000
13372600.000000,-0.260127,0.529927,0.335036,-1.437731,-0.182432,1.939453,0.100576,-0.001610,0.224987,-0.018191,-0.367536,-0.159431,0.712413,0.110701,0.724836,-2.700459,0.521652,-1.174745,-0.300814,-0.177506,0.009017,0.000000,0.000000,0.000000,0.000000,0.000000,0.000000
13372601.000000,-0.260121,0.530172,0.335012,-1.438146,-0.182580,1.940214,0.100695,0.000481,0.228225,-0.019519,-0.380902,-0.153673,0.729131,0.112843,0.474897,-2.478291,0.474045,-1.297731,-0.563571,0.031234,-0.031266,0.000000,0.000000,0.000000,0.000000,0.000000,0.000000
13372602.000000,-0.260131,0.530425,0.334987,-1.438560,-0.182750,1.941006,0.100805,-0.004014,0.236817,-0.020989,-0.388565,-0.156476,0.753498,0.106341,0.474897,-2.307698,0.450241,-1.420717,-0.623080,0.154830,0.015426,0.000000,0.000000,0.000000,0.000000,0.000000,0.000000
13372603.000000,-0.260149,0.530686,0.334956,-1.439016,-0.182927,1.941815,0.100915,-0.009959,0.244309,-0.023486,-0.406165,-0.160030,0.764229,0.106342,0.601850,-2.212483,0.497848,-1.273927,-0.545260,0.174056,0.061202,0.000000,0.000000,0.000000,0.000000,0.000000,0.000000
13372604.000000,-0.260171,0.530958,0.334924,-1.439488,-0.183109,1.942666,0.101032,-0.014291,0.252106,-0.029031,-0.423884,-0.170312,0.788754,0.114817,0.748639,-2.113301,0.573227,-1.027956,-0.353915,0.102645,0.009017,0.000000,0.000000,0.000000,0.000000,0.000000,0.000000
13372605.000000,-0.260196,0.531243,0.334894,-1.439963,-0.183294,1.943547,0.101139,-0.017864,0.263137,-0.031225,-0.441986,-0.176220,0.819406,0.112587,0.923200,-2.184712,0.573227,-0.853395,-0.180880,-0.066727,0.048385,0.000000,0.000000,0.000000,0.000000,0.000000,0.000000
13372606.000000,-0.260227,0.531552,0.334859,-1.440464,-0.183467,1.944435,0.101255,-0.021342,0.276396,-0.030757,-0.462050,-0.177164,0.837779,0.117645,1.145368,-2.430683,0.620834,-0.631227,-0.103060,-0.236100,0.028243,0.000000,0.000000,0.000000,0.000000,0.000000,0.000000
13372607.000000,-0.260241,0.531884,0.334826,-1.440955,-0.183631,1.945342,0.101368,-0.019567,0.295725,-0.029747,-0.469684,-0.172590,0.853904,0.115033,1.192975,-2.799641,0.644638,-0.730409,-0.150668,-0.268143,0.067611,0.000000,0.000000,0.000000,0.000000,0.000000,0.000000
13372608.000000,-0.260261,0.532216,0.334796,-1.441468,-0.183796,1.946259,0.101484,-0.022060,0.307578,-0.031103,-0.481302,-0.172369,0.878730,0.115232,1.268354,-3.188435,0.620834,-0.730409,-0.264193,-0.144547,0.067611,0.000000,0.000000,0.000000,0.000000,0.000000,0.000000
13372609.000000,-0.260274,0.532555,0.334758,-1.441998,-0.183960,1.947186,0.101605,-0.019172,0.315747,-0.033162,-0.497603,-0.166458,0.895920,0.116751,1.268354,-3.509785,0.644638,-0.754213,-0.419833,-0.033768,0.015426,0.000000,0.000000,0.000000,0.000000,0.000000,0.000000
13372610.000000,-0.260302,0.532894,0.334717,-1.442553,-0.184127,1.948141,0.101715,-0.021247,0.327038,-0.036049,-0.515282,-0.163888,0.907755,0.113693,1.442914,-3.704182,0.720016,-0.607423,-0.521456,-0.027360,0.067611,0.000000,0.000000,0.000000,0.000000,0.000000,0.000000
13372611.000000,-0.260327,0.533225,0.334675,-1.443141,-0.184298,1.949113,0.101834,-0.025650,0.327448,-0.037904,-0.536983,-0.170751,0.928130,0.115064,1.613508,-3.656574,0.791427,-0.357485,-0.497653,-0.066727,0.028243,0.000000,0.000000,0.000000,0.000000,0.000000,0.000000
13372612.000000,-0.260365,0.533567,0.334622,-1.443754,-0.184479,1.950110,0.101952,-0.032323,0.332274,-0.041156,-0.563902,-0.169950,0.942048,0.114246,1.934858,-3.482014,0.942184,-0.036134,-0.407931,-0.066727,0.034652,0.000000,0.000000,0.000000,0.000000,0.000000,0.000000
13372613.000000,-0.260407,0.533906,0.334570,-1.444371,-0.184663,1.951124,0.102063,-0.034428,0.335158,-0.043267,-0.581022,-0.175301,0.958738,0.112256,2.283979,-3.359028,1.088974,0.309019,-0.270602,0.004684,0.074935,0.000000,0.000000,0.000000,0.000000,0.000000,0.000000
13372614.000000,-0.260443,0.534263,0.334512,-1.445008,-0.184840,1.952138,0.102179,-0.036459,0.338807,-0.048825,-0.592589,-0.176928,0.980813,0.113859,2.529951,-3.240010,1.283371,0.531187,-0.187289,0.134689,0.041976,0.000000,0.000000,0.000000,0.000000,0.000000,0.000000
13372615.000000,-0.260484,0.534622,0.334458,-1.445654,-0.185013,1.953185,0.102292,-0.038592,0.344693,-0.051783,-0.621650,-0.175794,0.999004,0.113364,2.803693,-3.164631,1.430160,0.677977,-0.258700,0.147506,0.048385,0.000000,0.000000,0.000000,0.000000,0.000000,0.000000
13372616.000000,-0.260522,0.535002,0.334405,-1.446311,-0.185191,1.954233,0.102406,-0.038446,0.350178,-0.051177,-0.629530,-0.175344,1.008077,0.113023,3.002058,-3.287617,1.453964,0.701781,-0.353915,0.076095,0.054794,0.000000,0.000000,0.000000,0.000000,0.000000,0.000000
13372617.000000,-0.260551,0.535394,0.334353,-1.446977,-0.185358,1.955291,0.102521,-0.036868,0.351458,-0.048883,-0.633836,-0.170925,1.015396,0.113090,3.002058,-4.045368,1.529343,1.074705,-0.443636,0.063277,0.054794,0.000000,0.000000,0.000000,0.000000,0.000000,0.000000
13372618.000000,-0.260586,0.535782,0.334297,-1.447629,-0.185530,1.956373,0.102638,-0.036062,0.361061,-0.049570,-0.631270,-0.166913,1.037218,0.112398,3.002058,-5.564838,1.699936,1.864195,-0.443636,0.050460,0.067611,0.000000,0.000000,0.000000,0.000000,0.000000,0.000000
13372619.000000,-0.260634,0.536169,0.334249,-1.448282,-0.185705,1.957438,0.102759,-0.041892,0.367938,-0.048798,-0.630824,-0.171688,1.046199,0.114085,3.125043,-7.719074,1.822922,3.224974,-0.353915,0.089828,0.028243,0.000000,0.000000,0.000000,0.000000,0.000000,0.000000
13372620.000000,-0.260685,0.536545,0.334186,-1.448920,-0.185889,1.958526,0.102874,-0.041981,0.373137,-0.053426,-0.643609,-0.177249,1.058662,0.112512,3.200422,-10.067707,2.168075,5.030089,-0.174471,0.206100,0.061202,0.000000,0.000000,0.000000,0.000000,0.000000,0.000000
13372621.000000,-0.260723,0.536898,0.334125,-1.449555,-0.186073,1.959599,0.102988,-0.041097,0.367347,-0.055668,-0.642781,-0.182206,1.085505,0.111916,3.101240,-12.368732,2.485458,7.029601,0.015958,0.349838,0.081344,0.000000,0.000000,0.000000,0.000000,0.000000,0.000000
13372622.000000,-0.260759,0.537245,0.334062,-1.450190,-0.186251,1.960659,0.103103,-0.036560,0.366838,-0.057320,-0.646403,-0.182205,1.075291,0.111369,2.950483,-14.546772,2.806808,9.179869,0.117582,0.694076,0.107894,0.000000,0.000000,0.000000,0.000000,0.000000,0.000000
13372623.000000,-0.260787,0.537590,0.334009,-1.450809,-0.186427,1.961723,0.103228,-0.034357,0.364140,-0.054844,-0.641709,-0.177625,1.067609,0.113491,2.704511,-16.506611,2.977401,11.183348,0.112089,1.058456,0.061202,0.000000,0.000000,0.000000,0.000000,0.000000,0.000000
13372624.000000,-0.260811,0.537940,0.333947,-1.451427,-0.186602,1.962776,0.103351,-0.032104,0.359861,-0.054371,-0.640356,-0.178857,1.066587,0.115145,2.430768,-18.291889,3.199569,12.790098,0.088285,1.227828,0.034652,0.000000,0.000000,0.000000,0.000000,0.000000,0.000000
13372625.000000,-0.260828,0.538304,0.333884,-1.452039,-0.186776,1.963824,0.103464,-0.026974,0.361247,-0.059553,-0.638385,-0.173901,1.056220,0.118237,2.109418,-20.104939,3.393966,14.051695,0.034269,1.481429,0.061202,0.000000,0.000000,0.000000,0.000000,0.000000,0.000000
13372626.000000,-0.260848,0.538673,0.333823,-1.452645,-0.186953,1.964856,0.103586,-0.022023,0.369581,-0.058932,-0.629672,-0.176022,1.045915,0.122866,1.863447,-21.719624,3.516952,14.964170,-0.007845,1.773483,0.034652,0.000000,0.000000,0.000000,0.000000,0.000000,0.000000
13372627.000000,-0.260862,0.539067,0.333757,-1.453267,-0.187132,1.965900,0.103707,-0.017166,0.378267,-0.062774,-0.626043,-0.179200,1.045983,0.124590,1.565900,-23.358112,3.687546,15.733824,-0.007845,1.786300,0.048385,0.000000,0.000000,0.000000,0.000000,0.000000,0.000000
13372628.000000,-0.260878,0.539466,0.333682,-1.453864,-0.187323,1.966942,0.103835,-0.015392,0.391752,-0.068134,-0.621250,-0.183909,1.038266,0.123204,1.343732,-24.925190,3.957321,16.055174,0.081876,1.754256,0.009017,0.000000,0.000000,0.000000,0.000000,0.000000,0.000000
13372629.000000,-0.260891,0.539892,0.333605,-1.454462,-0.187517,1.967973,0.103951,-0.014590,0.400699,-0.070782,-0.609439,-0.195143,1.039016,0.122362,1.145368,-26.516071,4.179489,16.201963,0.159696,1.637069,0.087753,0.000000,0.000000,0.000000,0.000000,0.000000,0.000000
13372630.000000,-0.260902,0.540330,0.333524,-1.455068,-0.187722,1.969012,0.104077,-0.010209,0.409741,-0.072740,-0.603947,-0.199904,1.042412,0.125616,0.923200,-27.936359,4.401657,16.178160,0.243009,1.546432,0.074935,0.000000,0.000000,0.000000,0.000000,0.000000,0.000000
13372631.000000,-0.260906,0.540777,0.333451,-1.455663,-0.187930,1.970045,0.104206,-0.006235,0.420193,-0.073561,-0.600953,-0.200454,1.034561,0.123803,0.673261,-29.356647,4.473068,16.150389,0.351041,1.467696,0.034652,0.000000,0.000000,0.000000,0.000000,0.000000,0.000000
13372632.000000,-0.260900,0.541236,0.333372,-1.456267,-0.188126,1.971062,0.104323,0.002592,0.428145,-0.075791,-0.601687,-0.196603,1.026456,0.123062,0.304304,-30.606342,4.596054,16.126585,0.344633,1.448470,0.107894,0.000000,0.000000,0.000000,0.000000,0.000000,0.000000
13372633.000000,-0.260893,0.541697,0.333302,-1.456849,-0.188321,1.972100,0.104456,0.001538,0.436372,-0.074281,-0.601948,-0.195770,1.024642,0.127227,-0.017047,-31.705280,4.596054,15.904417,0.303434,1.396285,0.061202,0.000000,0.000000,0.000000,0.000000,0.000000,0.000000
13372634.000000,-0.260878,0.542163,0.333237,-1.457458,-0.188511,1.973119,0.104581,0.008722,0.447267,-0.068687,-0.601979,-0.194422,1.034800,0.128144,-0.413775,-32.661396,4.500839,15.880613,0.201810,1.422836,0.067611,0.000000,0.000000,0.000000,0.000000,0.000000,0.000000
13372635.000000,-0.260855,0.542623,0.333163,-1.458074,-0.188702,1.974142,0.104706,0.014464,0.448434,-0.070045,-0.603967,-0.193762,1.028558,0.130228,-0.834307,-33.442951,4.500839,15.955992,0.112089,1.494247,0.034652,0.000000,0.000000,0.000000,0.000000,0.000000,0.000000
13372636.000000,-0.260840,0.543087,0.333096,-1.458693,-0.188909,1.975160,0.104831,0.013812,0.453641,-0.070128,-0.610492,-0.196521,1.031630,0.131244,-1.183428,-34.176899,4.449265,16.225767,0.105680,1.572067,0.028243,0.000000,0.000000,0.000000,0.000000,0.000000,0.000000
13372637.000000,-0.260829,0.543557,0.333026,-1.459313,-0.189120,1.976168,0.104953,0.013478,0.458748,-0.069978,-0.607002,-0.198362,1.027924,0.129854,-1.405596,-34.914814,4.401657,16.471739,0.201810,1.597701,0.048385,0.000000,0.000000,0.000000,0.000000,0.000000,0.000000
13372638.000000,-0.260823,0.544049,0.332959,-1.459941,-0.189327,1.977186,0.105076,0.011724,0.469914,-0.069893,-0.610032,-0.197121,1.020505,0.129901,-1.552386,-35.720173,4.350082,16.670103,0.261320,1.597701,0.087753,0.000000,0.000000,0.000000,0.000000,0.000000,0.000000
13372639.000000,-0.260820,0.544535,0.332900,-1.460568,-0.189534,1.978211,0.105203,0.008501,0.474331,-0.064181,-0.619047,-0.201884,1.015338,0.129683,-1.603961,-36.505695,4.179489,17.019224,0.339139,1.605026,0.107894,0.000000,0.000000,0.000000,0.000000,0.000000,0.000000
13372640.000000,-0.260810,0.545043,0.332841,-1.461188,-0.189728,1.979213,0.105335,0.008153,0.481767,-0.064540,-0.618235,-0.198078,1.005767,0.132679,-1.726946,-37.386433,4.056503,17.090635,0.339139,1.643478,0.048385,0.000000,0.000000,0.000000,0.000000,0.000000,0.000000
13372641.000000,-0.260800,0.545571,0.332785,-1.461813,-0.189920,1.980230,0.105457,0.010039,0.506277,-0.063158,-0.618426,-0.196573,1.004495,0.125333,-1.802325,-38.513142,3.885910,17.312803,0.279630,1.611434,0.107894,0.000000,0.000000,0.000000,0.000000,0.000000,0.000000
13372642.000000,-0.260793,0.546106,0.332735,-1.462431,-0.190113,1.981249,0.105587,0.009247,0.505879,-0.061091,-0.614350,-0.198473,0.996145,0.129720,-1.778521,-39.441486,3.639938,17.340574,0.183500,1.461288,0.067611,0.000000,0.000000,0.000000,0.000000,0.000000,0.000000
13372643.000000,-0.260790,0.546643,0.332683,-1.463068,-0.190306,1.982261,0.105712,0.007836,0.515618,-0.059003,-0.619044,-0.196771,0.992465,0.125471,-1.703143,-40.250813,3.493149,17.534971,0.100187,1.435653,0.067611,0.000000,0.000000,0.000000,0.000000,0.000000,0.000000
13372644.000000,-0.260780,0.547159,0.332626,-1.463694,-0.190504,1.983285,0.105834,0.008822,0.515529,-0.059146,-0.622678,-0.195069,1.000183,0.121163,-1.703143,-40.837971,3.417770,17.757139,0.100187,1.454879,0.094161,0.000000,0.000000,0.000000,0.000000,0.000000,0.000000
13372645.000000,-0.260778,0.547705,0.332574,-1.464335,-0.190700,1.984284,0.105962,0.004736,0.521317,-0.055442,-0.621545,-0.199560,1.001252,0.120404,-1.627764,-41.520344,3.322555,18.130064,0.147794,1.552840,0.061202,0.000000,0.000000,0.000000,0.000000,0.000000,0.000000
13372646.000000,-0.260785,0.548237,0.332527,-1.464968,-0.190896,1.985297,0.106081,0.001592,0.522417,-0.052012,-0.625286,-0.198233,1.003539,0.121099,-1.405596,-42.036091,3.199569,18.399839,0.213712,1.617843,0.114303,0.000000,0.000000,0.000000,0.000000,0.000000,0.000000
13372647.000000,-0.260786,0.548754,0.332469,-1.465610,-0.191091,1.986305,0.106211,0.001945,0.518561,-0.056490,-0.630318,-0.197157,1.008785,0.124774,-1.282611,-42.405048,3.247177,18.748960,0.255826,1.591293,0.094161,0.000000,0.000000,0.000000,0.000000,0.000000,0.000000
13372648.000000,-0.260795,0.549274,0.332418,-1.466268,-0.191288,1.987321,0.106337,-0.000040,0.518996,-0.054251,-0.641259,-0.195078,1.021553,0.120887,-1.060443,-42.623249,3.199569,19.268675,0.279630,1.565658,0.120712,0.000000,0.000000,0.000000,0.000000,0.000000,0.000000
13372649.000000,-0.260801,0.549793,0.332363,-1.466908,-0.191486,1.988332,0.106470,-0.002750,0.519672,-0.056169,-0.639137,-0.192365,1.014195,0.118777,-0.909686,-42.916828,3.171798,19.661436,0.267728,1.630660,0.120712,0.000000,0.000000,0.000000,0.000000,0.000000,0.000000
13372650.000000,-0.260810,0.550330,0.332303,-1.467555,-0.191678,1.989322,0.106599,-0.005315,0.517366,-0.059764,-0.635197,-0.190270,1.010317,0.118248,-0.735125,-43.309589,3.247177,20.034361,0.243009,1.721298,0.100570,0.000000,0.000000,0.000000,0.000000,0.000000,0.000000
13372651.000000,-0.260822,0.550872,0.332244,-1.468191,-0.191875,1.990316,0.106723,-0.008289,0.523613,-0.060693,-0.647274,-0.188436,1.003221,0.121265,-0.512957,-43.702351,3.270981,20.304136,0.231107,1.936446,0.114303,0.000000,0.000000,0.000000,0.000000,0.000000,0.000000
13372652.000000,-0.260835,0.551405,0.332180,-1.468840,-0.192057,1.991298,0.106857,-0.009178,0.525583,-0.060444,-0.646499,-0.184614,1.006234,0.125960,-0.342364,-43.995930,3.370163,20.677061,0.123990,2.079269,0.061202,0.000000,0.000000,0.000000,0.000000,0.000000,0.000000
13372653.000000,-0.260842,0.551938,0.332117,-1.469482,-0.192247,1.992302,0.106976,-0.009685,0.522775,-0.062495,-0.642889,-0.184867,1.010810,0.124901,-0.314593,-44.142719,3.445541,20.946836,0.100187,2.072860,0.127120,0.000000,0.000000,0.000000,0.000000,0.000000,0.000000
13372654.000000,-0.260853,0.552461,0.332041,-1.470119,-0.192439,1.993308,0.107112,-0.011329,0.522370,-0.067995,-0.642334,-0.188742,1.006482,0.124488,-0.243182,-44.289509,3.687546,21.145201,0.069974,2.072860,0.054794,0.000000,0.000000,0.000000,0.000000,0.000000,0.000000
13372655.000000,-0.260870,0.553000,0.331973,-1.470764,-0.192637,1.994290,0.107233,-0.014010,0.522007,-0.066937,-0.641663,-0.193848,0.996256,0.124982,-0.116229,-44.531513,3.739120,21.367369,0.088285,2.060043,0.067611,0.000000,0.000000,0.000000,0.000000,0.000000,0.000000
13372656.000000,-0.260886,0.553536,0.331891,-1.471406,-0.192843,1.995300,0.107357,-0.015283,0.522490,-0.073884,-0.642986,-0.196061,1.001856,0.121117,-0.017047,-44.678303,3.985092,21.490355,0.201810,1.981307,0.100570,0.000000,0.000000,0.000000,0.000000,0.000000,0.000000
13372658.000000,-0.260916,0.554591,0.331714,-1.472662,-0.193254,1.997273,0.107611,-0.016210,0.523921,-0.079948,-0.629440,-0.204850,0.996797,0.120788,0.129743,-44.753681,4.473068,21.514158,0.374845,2.033492,0.100570,0.000000,0.000000,0.000000,0.000000,0.000000,0.000000
13372659.000000,-0.260925,0.555120,0.331615,-1.473283,-0.193449,1.998273,0.107743,-0.012176,0.536523,-0.085549,-0.627160,-0.201872,0.994114,0.120320,0.153547,-44.801289,4.818222,21.442747,0.332731,1.968490,0.067611,0.000000,0.000000,0.000000,0.000000,0.000000,0.000000
13372660.000000,-0.260929,0.555649,0.331521,-1.473897,-0.193646,1.999251,0.107867,-0.008727,0.531784,-0.090358,-0.623809,-0.207536,0.990991,0.117881,0.153547,-44.801289,5.064194,21.268187,0.273221,1.930038,0.087753,0.000000,0.000000,0.000000,0.000000,0.000000,0.000000
13372661.000000,-0.260932,0.556179,0.331421,-1.474508,-0.193854,2.000234,0.107985,-0.005161,0.524801,-0.094003,-0.617492,-0.204018,0.984527,0.120228,0.105939,-44.702106,5.310165,21.046019,0.207303,2.039901,0.120712,0.000000,0.000000,0.000000,0.000000,0.000000,0.000000
13372662.000000,-0.260935,0.556693,0.331317,-1.475099,-0.194061,2.001227,0.108120,-0.004340,0.522020,-0.097460,-0.607512,-0.203981,0.987325,0.125788,0.129743,-44.555317,5.579941,20.724669,0.189908,2.072860,0.048385,0.000000,0.000000,0.000000,0.000000,0.000000,0.000000
13372663.000000,-0.260943,0.557215,0.331215,-1.475690,-0.194264,2.002216,0.108241,-0.007409,0.517242,-0.097744,-0.598612,-0.203149,0.993171,0.122011,0.177350,-44.531513,5.774338,20.379515,0.154203,2.027084,0.061202,0.000000,0.000000,0.000000,0.000000,0.000000,0.000000
13372664.000000,-0.260958,0.557737,0.331111,-1.476278,-0.194471,2.003215,0.108365,-0.008921,0.514610,-0.099193,-0.597315,-0.203989,0.999457,0.119753,0.328107,-44.408527,5.996506,20.181150,0.183500,2.001449,0.061202,0.000000,0.000000,0.000000,0.000000,0.000000,0.000000
13372665.000000,-0.260961,0.558236,0.331005,-1.476864,-0.194687,2.004220,0.108488,-0.009373,0.510846,-0.101895,-0.589906,-0.207113,0.992719,0.117898,0.328107,-44.142719,6.167099,20.006590,0.255826,1.812850,0.067611,0.000000,0.000000,0.000000,0.000000,0.000000,0.000000
13372666.000000,-0.260963,0.558751,0.330893,-1.477441,-0.194901,2.005251,0.108612,-0.006205,0.508913,-0.101363,-0.580322,-0.211800,1.001229,0.122158,0.304304,-44.043537,6.341660,19.760618,0.291532,1.611434,0.048385,0.000000,0.000000,0.000000,0.000000,0.000000,0.000000
13372667.000000,-0.260973,0.559262,0.330784,-1.477998,-0.195125,2.006255,0.108735,-0.006841,0.513546,-0.100325,-0.570327,-0.214869,0.993497,0.123369,0.403486,-43.896748,6.488449,19.439268,0.320829,1.662704,0.074935,0.000000,0.000000,0.000000,0.000000,0.000000,0.000000
13372668.000000,-0.260983,0.559781,0.330678,-1.478550,-0.195342,2.007242,0.108862,-0.007170,0.511795,-0.100826,-0.562486,-0.217656,0.997322,0.124831,0.502668,-43.773762,6.559860,19.117918,0.351041,1.741439,0.094161,0.000000,0.000000,0.000000,0.000000,0.000000,0.000000
13372669.000000,-0.260984,0.560303,0.330578,-1.479090,-0.195556,2.008252,0.108995,-0.004346,0.508787,-0.102308,-0.562986,-0.217115,1.001330,0.123492,0.474897,-43.702351,6.559860,18.895750,0.339139,1.735030,0.054794,0.000000,0.000000,0.000000,0.000000,0.000000,0.000000
13372670.000000,-0.260986,0.560818,0.330476,-1.479641,-0.195763,2.009248,0.109121,-0.002503,0.513293,-0.100828,-0.556248,-0.215422,1.008028,0.124376,0.451093,-43.555561,6.536057,18.772764,0.261320,1.721298,0.087753,0.000000,0.000000,0.000000,0.000000,0.000000,0.000000
13372671.000000,-0.260989,0.561337,0.330376,-1.480187,-0.195966,2.010267,0.109249,-0.001790,0.513953,-0.098716,-0.551685,-0.215291,1.002281,0.127090,0.451093,-43.503986,6.460678,18.697386,0.207303,1.695663,0.067611,0.000000,0.000000,0.000000,0.000000,0.000000,0.000000
13372672.000000,-0.260989,0.561856,0.330280,-1.480718,-0.196175,2.011290,0.109380,-0.000171,0.522845,-0.094349,-0.542389,-0.215260,1.004036,0.127807,0.403486,-43.603168,6.389267,18.625975,0.166105,1.689254,0.074935,0.000000,0.000000,0.000000,0.000000,0.000000,0.000000
13372673.000000,-0.260992,0.562398,0.330186,-1.481257,-0.196382,2.012291,0.109510,-0.000183,0.530020,-0.093186,-0.536886,-0.211584,0.999899,0.124288,0.403486,-43.849140,6.290085,18.673582,0.154203,1.779891,0.074935,0.000000,0.000000,0.000000,0.000000,0.000000,0.000000
13372674.000000,-0.261002,0.562929,0.330087,-1.481796,-0.196592,2.013294,0.109640,-0.003050,0.531700,-0.094823,-0.535735,-0.210283,0.996006,0.127194,0.526471,-43.968159,6.266281,18.820372,0.178007,1.865035,0.048385,0.000000,0.000000,0.000000,0.000000,0.000000,0.000000
13372675.000000,-0.261004,0.563468,0.329992,-1.482333,-0.196800,2.014311,0.109764,-0.002629,0.537343,-0.092574,-0.538625,-0.205596,1.000275,0.126681,0.550275,-44.289509,6.242477,19.141722,0.195402,1.812850,0.087753,0.000000,0.000000,0.000000,0.000000,0.000000,0.000000
13372676.000000,-0.261009,0.564009,0.329907,-1.482886,-0.197011,2.015312,0.109894,-0.004101,0.537956,-0.092369,-0.544200,-0.207993,0.998705,0.124942,0.649457,-44.460102,6.143295,19.562254,0.267728,1.735030,0.081344,0.000000,0.000000,0.000000,0.000000,0.000000,0.000000
13372677.000000,-0.261011,0.564545,0.329822,-1.483431,-0.197220,2.016317,0.110022,-0.003870,0.536482,-0.092112,-0.544824,-0.202091,0.992494,0.125109,0.697065,-44.678303,6.067917,19.935179,0.273221,1.735030,0.120712,0.000000,0.000000,0.000000,0.000000,0.000000,0.000000
13372678.000000,-0.261009,0.565082,0.329740,-1.483986,-0.197429,2.017294,0.110164,-0.002596,0.532626,-0.091720,-0.548035,-0.205436,0.989337,0.129914,0.697065,-44.729877,5.948898,20.304136,0.261320,1.884261,0.041976,0.000000,0.000000,0.000000,0.000000,0.000000,0.000000
13372679.000000,-0.261008,0.565637,0.329661,-1.484539,-0.197648,2.018272,0.110288,-0.001743,0.539261,-0.084427,-0.552411,-0.209617,0.981810,0.124356,0.697065,-45.023457,5.798141,20.502501,0.279630,2.047225,0.074935,0.000000,0.000000,0.000000,0.000000,0.000000,0.000000
13372680.000000,-0.261005,0.566174,0.329579,-1.485091,-0.197854,2.019247,0.110413,-0.000057,0.538245,-0.081142,-0.550331,-0.209082,0.987388,0.125405,0.649457,-45.170246,5.726730,20.871458,0.189908,2.209274,0.107894,0.000000,0.000000,0.000000,0.000000,0.000000,0.000000
13372681.000000,-0.260999,0.566719,0.329503,-1.485650,-0.198061,2.020231,0.110545,0.001069,0.533682,-0.077094,-0.551727,-0.207347,0.981684,0.129152,0.601850,-45.265461,5.603745,21.145201,0.166105,2.085677,0.054794,0.000000,0.000000,0.000000,0.000000,0.000000,0.000000
13372682.000000,-0.260993,0.567264,0.329425,-1.486212,-0.198271,2.021222,0.110671,0.001914,0.535740,-0.079309,-0.559815,-0.205705,0.981631,0.127676,0.550275,-45.340839,5.556137,21.541929,0.159696,2.001449,0.107894,0.000000,0.000000,0.000000,0.000000,0.000000,0.000000
13372683.000000,-0.260984,0.567802,0.329346,-1.486769,-0.198483,2.022194,0.110803,0.005519,0.533146,-0.077543,-0.555808,-0.210322,0.976450,0.130602,0.502668,-45.412251,5.504562,21.787901,0.171598,2.007858,0.061202,0.000000,0.000000,0.000000,0.000000,0.000000,0.000000
13372684.000000,-0.260974,0.568357,0.329265,-1.487332,-0.198707,2.023163,0.110929,0.005144,0.537832,-0.076988,-0.554963,-0.216657,0.970860,0.129881,0.451093,-45.535236,5.480759,21.986265,0.267728,2.072860,0.087753,0.000000,0.000000,0.000000,0.000000,0.000000,0.000000
13372685.000000,-0.260972,0.568886,0.329182,-1.487885,-0.198940,2.024136,0.111058,0.005561,0.537765,-0.080695,-0.559724,-0.222064,0.974849,0.130110,0.502668,-45.440022,5.504562,22.109251,0.398649,2.169906,0.087753,0.000000,0.000000,0.000000,0.000000,0.000000,0.000000
13372686.000000,-0.260963,0.569423,0.329107,-1.488450,-0.199158,2.025100,0.111190,0.007260,0.528489,-0.078378,-0.557646,-0.225803,0.974867,0.130593,0.502668,-45.293232,5.456955,22.307615,0.434354,2.169906,0.087753,0.000000,0.000000,0.000000,0.000000,0.000000,0.000000
13372687.000000,-0.260947,0.569957,0.329030,-1.489007,-0.199379,2.026089,0.111325,0.010873,0.527765,-0.079679,-0.556698,-0.223462,0.969862,0.130202,0.403486,-45.047260,5.433151,22.478209,0.434354,2.060043,0.107894,0.000000,0.000000,0.000000,0.000000,0.000000,0.000000
13372688.000000,-0.260925,0.570474,0.328952,-1.489563,-0.199589,2.027059,0.111465,0.012020,0.525685,-0.078919,-0.559075,-0.214934,0.975516,0.132390,0.228925,-44.825092,5.433151,22.529783,0.339139,2.033492,0.061202,0.000000,0.000000,0.000000,0.000000,0.000000,0.000000
13372689.000000,-0.260904,0.571003,0.328882,-1.490115,-0.199801,2.028030,0.111594,0.015757,0.519910,-0.075349,-0.550991,-0.213692,0.969866,0.131227,0.054365,-44.630695,5.310165,22.577391,0.261320,2.072860,0.087753,0.000000,0.000000,0.000000,0.000000,0.000000,0.000000
13372690.000000,-0.260883,0.571527,0.328802,-1.490651,-0.200029,2.028993,0.111727,0.014031,0.532424,-0.076282,-0.546675,-0.210550,0.967968,0.132205,-0.068621,-44.460102,5.333969,22.529783,0.243009,2.222091,0.061202,0.000000,0.000000,0.000000,0.000000,0.000000,0.000000
13372691.000000,-0.260869,0.572057,0.328725,-1.491200,-0.200251,2.029941,0.111856,0.013468,0.533277,-0.075927,-0.549051,-0.214157,0.956751,0.131060,-0.092425,-44.360920,5.333969,22.577391,0.285123,2.385055,0.094161,0.000000,0.000000,0.000000,0.000000,0.000000,0.000000
13372692.000000,-0.260850,0.572585,0.328647,-1.491745,-0.200478,2.030916,0.111988,0.011920,0.524691,-0.076617,-0.546089,-0.217811,0.960379,0.131439,-0.191607,-44.142719,5.357773,22.676573,0.351041,2.404281,0.107894,0.000000,0.000000,0.000000,0.000000,0.000000,0.000000
13372693.000000,-0.260832,0.573096,0.328564,-1.492289,-0.200701,2.031910,0.112124,0.013307,0.522455,-0.080013,-0.546504,-0.219503,0.970737,0.128484,-0.266986,-43.773762,5.381577,22.898741,0.374845,2.287093,0.061202,0.000000,0.000000,0.000000,0.000000,0.000000,0.000000
13372694.000000,-0.260806,0.573609,0.328484,-1.492834,-0.200923,2.032884,0.112250,0.016714,0.517165,-0.078814,-0.543408,-0.220410,0.980158,0.128015,-0.441546,-43.432575,5.381577,23.049498,0.393156,2.150680,0.094161,0.000000,0.000000,0.000000,0.000000,0.000000,0.000000
13372695.000000,-0.260787,0.574155,0.328409,-1.493360,-0.201155,2.033855,0.112385,0.017271,0.520461,-0.076231,-0.535056,-0.223112,0.974273,0.129621,-0.540728,-43.503986,5.310165,23.148680,0.374845,2.131454,0.081344,0.000000,0.000000,0.000000,0.000000,0.000000,0.000000
13372696.000000,-0.260767,0.574699,0.328338,-1.493887,-0.201394,2.034794,0.112522,0.017129,0.530464,-0.073218,-0.531409,-0.231447,0.963891,0.130494,-0.612139,-43.650776,5.187180,23.220091,0.416959,2.280685,0.074935,0.000000,0.000000,0.000000,0.000000,0.000000,0.000000
13372697.000000,-0.260744,0.575244,0.328260,-1.494403,-0.201623,2.035751,0.112661,0.020364,0.534401,-0.073814,-0.525732,-0.233161,0.959541,0.132118,-0.687518,-43.773762,5.187180,23.172483,0.428861,2.404281,0.041976,0.000000,0.000000,0.000000,0.000000,0.000000,0.000000
13372698.000000,-0.260722,0.575778,0.328186,-1.494912,-0.201853,2.036720,0.112791,0.019011,0.529748,-0.072674,-0.520688,-0.228857,0.962719,0.130235,-0.735125,-43.797565,5.111801,23.196287,0.398649,2.430831,0.081344,0.000000,0.000000,0.000000,0.000000,0.000000,0.000000
13372699.000000,-0.260701,0.576326,0.328116,-1.495427,-0.202080,2.037690,0.112923,0.020572,0.534371,-0.071249,-0.517868,-0.231324,0.974078,0.126785,-0.762896,-43.920551,5.012619,23.295469,0.398649,2.261459,0.100570,0.000000,0.000000,0.000000,0.000000,0.000000,0.000000
13372700.000000,-0.260684,0.576861,0.328036,-1.495937,-0.202306,2.038662,0.113067,0.020729,0.535460,-0.072700,-0.524486,-0.229868,0.968501,0.130360,-0.735125,-43.849140,5.012619,23.470030,0.339139,2.169906,0.041976,0.000000,0.000000,0.000000,0.000000,0.000000,0.000000
13372701.000000,-0.260666,0.577390,0.327962,-1.496455,-0.202552,2.039606,0.113197,0.021096,0.529439,-0.071856,-0.524422,-0.230997,0.959703,0.128941,-0.711321,-43.726154,4.941208,23.569212,0.416959,2.228500,0.087753,0.000000,0.000000,0.000000,0.000000,0.000000,0.000000
13372702.000000,-0.260650,0.577931,0.327886,-1.496962,-0.202788,2.040573,0.113332,0.020950,0.530739,-0.072523,-0.517815,-0.230649,0.958504,0.130770,-0.663714,-43.626972,4.917404,23.541441,0.476469,2.274276,0.061202,0.000000,0.000000,0.000000,0.000000,0.000000,0.000000
13372703.000000,-0.260634,0.578457,0.327810,-1.497457,-0.203022,2.041533,0.113465,0.017111,0.531546,-0.072301,-0.509405,-0.232348,0.949991,0.130858,-0.588336,-43.480183,4.865829,23.470030,0.488370,2.385055,0.061202,0.000000,0.000000,0.000000,0.000000,0.000000,0.000000
13372704.000000,-0.260620,0.579004,0.327741,-1.497950,-0.203248,2.042479,0.113603,0.017568,0.527123,-0.069739,-0.499175,-0.232829,0.954958,0.131420,-0.512957,-43.432575,4.719040,23.271666,0.494779,2.489425,0.054794,0.000000,0.000000,0.000000,0.000000,0.000000,0.000000
13372705.000000,-0.260597,0.579544,0.327666,-1.498433,-0.203466,2.043461,0.113742,0.020932,0.529579,-0.072563,-0.496966,-0.224657,0.957597,0.130745,-0.564532,-43.309589,4.647629,23.120909,0.374845,2.300826,0.074935,0.000000,0.000000,0.000000,0.000000,0.000000,0.000000
13372706.000000,-0.260583,0.580065,0.327596,-1.498917,-0.203692,2.044443,0.113881,0.020306,0.527272,-0.071992,-0.491881,-0.224723,0.974272,0.130558,-0.489153,-43.111225,4.572250,22.950315,0.273221,2.066451,0.087753,0.000000,0.000000,0.000000,0.000000,0.000000,0.000000
13372707.000000,-0.260576,0.580602,0.327523,-1.499398,-0.203917,2.045421,0.114022,0.017623,0.521647,-0.072099,-0.489676,-0.220899,0.972931,0.131745,-0.314593,-42.964436,4.524643,22.728148,0.297025,2.007858,0.067611,0.000000,0.000000,0.000000,0.000000,0.000000,0.000000
13372708.000000,-0.260567,0.581139,0.327445,-1.499852,-0.204145,2.046392,0.114158,0.016499,0.538469,-0.073942,-0.476552,-0.217478,0.973433,0.130301,-0.167803,-42.893024,4.548447,22.382994,0.327238,2.047225,0.100570,0.000000,0.000000,0.000000,0.000000,0.000000,0.000000
13372709.000000,-0.260564,0.581666,0.327371,-1.500321,-0.204376,2.047334,0.114303,0.011419,0.533126,-0.076414,-0.471078,-0.224760,0.969400,0.132813,0.030561,-42.599445,4.500839,22.208433,0.410551,2.215682,0.048385,0.000000,0.000000,0.000000,0.000000,0.000000,0.000000
13372710.000000,-0.260556,0.582187,0.327300,-1.500781,-0.204606,2.048302,0.114430,0.012126,0.517673,-0.074734,-0.465313,-0.225200,0.964214,0.129595,0.177350,-42.107502,4.425461,21.962461,0.464567,2.287093,0.127120,0.000000,0.000000,0.000000,0.000000,0.000000,0.000000
13372711.000000,-0.260541,0.582706,0.327214,-1.501235,-0.204835,2.049291,0.114567,0.015521,0.521465,-0.077344,-0.463787,-0.222064,0.968205,0.131904,0.205121,-41.766315,4.524643,21.688719,0.416959,2.202865,0.100570,0.000000,0.000000,0.000000,0.000000,0.000000,0.000000
13372712.000000,-0.260531,0.583218,0.327140,-1.501678,-0.205049,2.050279,0.114708,0.016218,0.513705,-0.075539,-0.457563,-0.216907,0.977461,0.133873,0.304304,-41.325947,4.473068,21.391172,0.285123,2.039901,0.048385,0.000000,0.000000,0.000000,0.000000,0.000000,0.000000
13372713.000000,-0.260513,0.583745,0.327065,-1.502116,-0.205267,2.051267,0.114838,0.016442,0.511823,-0.078147,-0.452699,-0.215437,0.978355,0.131248,0.276533,-41.032368,4.449265,21.169004,0.237516,1.974899,0.114303,0.000000,0.000000,0.000000,0.000000,0.000000,0.000000
13372714.000000,-0.260503,0.584257,0.326986,-1.502541,-0.205482,2.052231,0.114984,0.014605,0.514621,-0.077537,-0.445641,-0.213181,0.977515,0.138852,0.328107,-40.714985,4.449265,20.800047,0.154203,2.001449,0.041976,0.000000,0.000000,0.000000,0.000000,0.000000,0.000000
13372715.000000,-0.260493,0.584774,0.326903,-1.502964,-0.205704,2.053198,0.115119,0.012653,0.511121,-0.080518,-0.436719,-0.214315,0.965201,0.135746,0.403486,-40.421406,4.473068,20.526304,0.237516,2.092086,0.074935,0.000000,0.000000,0.000000,0.000000,0.000000,0.000000
13372716.000000,-0.260482,0.585282,0.326815,-1.503379,-0.205933,2.054176,0.115255,0.011240,0.506673,-0.081605,-0.431312,-0.217710,0.968572,0.129850,0.474897,-40.004841,4.572250,20.327940,0.285123,2.118636,0.074935,0.000000,0.000000,0.000000,0.000000,0.000000,0.000000
13372717.000000,-0.260468,0.585780,0.326732,-1.503786,-0.206159,2.055144,0.115393,0.011315,0.502040,-0.083985,-0.419257,-0.219038,0.970258,0.132713,0.502668,-39.393879,4.619858,20.081968,0.297025,2.039901,0.048385,0.000000,0.000000,0.000000,0.000000,0.000000,0.000000
13372718.000000,-0.260452,0.586281,0.326645,-1.504190,-0.206388,2.056120,0.115526,0.011938,0.499965,-0.083936,-0.424866,-0.219953,0.972789,0.130973,0.502668,-38.830524,4.719040,19.883604,0.327238,1.974899,0.087753,0.000000,0.000000,0.000000,0.000000,0.000000,0.000000
13372719.000000,-0.260434,0.586781,0.326557,-1.504585,-0.206610,2.057075,0.115668,0.012309,0.499956,-0.082518,-0.411919,-0.222246,0.971057,0.132193,0.502668,-38.314777,4.770615,19.637632,0.267728,1.955673,0.061202,0.000000,0.000000,0.000000,0.000000,0.000000,0.000000
13372720.000000,-0.260414,0.587296,0.326473,-1.504973,-0.206827,2.058038,0.115804,0.016895,0.501708,-0.086099,-0.405774,-0.215978,0.962167,0.132426,0.451093,-38.068806,4.742844,19.292479,0.213712,2.014266,0.054794,0.000000,0.000000,0.000000,0.000000,0.000000,0.000000
13372721.000000,-0.260392,0.587810,0.326382,-1.505348,-0.207050,2.059014,0.115943,0.016920,0.516622,-0.090188,-0.395785,-0.220676,0.963528,0.137243,0.403486,-37.973591,4.818222,18.947325,0.201810,1.974899,0.041976,0.000000,0.000000,0.000000,0.000000,0.000000,0.000000
13372722.000000,-0.260372,0.588336,0.326296,-1.505736,-0.207274,2.059981,0.116081,0.016937,0.516736,-0.086113,-0.390907,-0.226772,0.967556,0.143274,0.351911,-37.898212,4.818222,18.748960,0.159696,1.877853,0.074935,0.000000,0.000000,0.000000,0.000000,0.000000,0.000000
13372723.000000,-0.260346,0.588856,0.326213,-1.506113,-0.207501,2.060954,0.116231,0.020624,0.514106,-0.084838,-0.386408,-0.223960,0.970622,0.146543,0.276533,-37.775227,4.770615,18.625975,0.135892,1.832076,0.041976,0.000000,0.000000,0.000000,0.000000,0.000000,0.000000
13372724.000000,-0.260323,0.589371,0.326119,-1.506497,-0.207737,2.061918,0.116374,0.018914,0.515444,-0.086764,-0.388656,-0.226700,0.977144,0.142068,0.252729,-37.680012,4.818222,18.625975,0.219205,1.727706,0.061202,0.000000,0.000000,0.000000,0.000000,0.000000,0.000000
13372725.000000,-0.260299,0.589897,0.326017,-1.506865,-0.207965,2.062893,0.116516,0.021393,0.515529,-0.090121,-0.379743,-0.226893,0.969855,0.139899,0.205121,-37.533222,4.965012,18.499022,0.267728,1.702071,0.054794,0.000000,0.000000,0.000000,0.000000,0.000000,0.000000
13372726.000000,-0.260280,0.590417,0.325930,-1.507228,-0.208195,2.063860,0.116657,0.021468,0.525067,-0.088227,-0.379182,-0.226357,0.961947,0.136203,0.228925,-37.334858,4.917404,18.451414,0.320829,1.754256,0.094161,0.000000,0.000000,0.000000,0.000000,0.000000,0.000000
13372727.000000,-0.260250,0.590941,0.325840,-1.507595,-0.208430,2.064818,0.116803,0.023898,0.520736,-0.087420,-0.374362,-0.232525,0.962551,0.134866,0.153547,-37.287251,4.893600,18.376036,0.327238,1.747848,0.107894,0.000000,0.000000,0.000000,0.000000,0.000000,0.000000
13372728.000000,-0.260220,0.591476,0.325753,-1.507961,-0.208662,2.065781,0.116950,0.026328,0.523406,-0.086389,-0.370908,-0.231150,0.962609,0.141455,0.054365,-37.239643,4.842026,18.427610,0.267728,1.760665,0.041976,0.000000,0.000000,0.000000,0.000000,0.000000,0.000000
13372729.000000,-0.260195,0.592008,0.325666,-1.508314,-0.208900,2.066743,0.117086,0.025643,0.528980,-0.084361,-0.368610,-0.235780,0.957413,0.137686,0.054365,-37.311054,4.742844,18.376036,0.231107,1.779891,0.094161,0.000000,0.000000,0.000000,0.000000,0.000000,0.000000
13372730.000000,-0.260161,0.592555,0.325576,-1.508671,-0.209128,2.067693,0.117232,0.027614,0.527400,-0.087327,-0.363147,-0.234736,0.953216,0.138305,-0.044818,-37.509418,4.695236,18.328428,0.178007,1.819259,0.041976,0.000000,0.000000,0.000000,0.000000,0.000000,0.000000
13372731.000000,-0.260137,0.593111,0.325489,-1.509021,-0.209362,2.068648,0.117377,0.029143,0.538981,-0.089870,-0.360285,-0.226133,0.956619,0.136714,-0.017047,-37.680012,4.647629,18.177671,0.171598,1.890670,0.041976,0.000000,0.000000,0.000000,0.000000,0.000000,0.000000
13372732.000000,-0.260112,0.593654,0.325400,-1.509377,-0.209596,2.069586,0.117515,0.029939,0.538181,-0.088529,-0.354025,-0.228135,0.956000,0.138966,0.030561,-37.727619,4.596054,18.106260,0.135892,1.981307,0.100570,0.000000,0.000000,0.000000,0.000000,0.000000,0.000000
13372733.000000,-0.260084,0.594202,0.325313,-1.509731,-0.209839,2.070550,0.117665,0.029298,0.535967,-0.089778,-0.354863,-0.232006,0.951698,0.145039,0.006757,-37.727619,4.524643,18.007078,0.166105,1.903487,0.021835,0.000000,0.000000,0.000000,0.000000,0.000000,0.000000
13372734.000000,-0.260054,0.594754,0.325226,-1.510077,-0.210082,2.071529,0.117801,0.028720,0.540804,-0.088496,-0.355163,-0.230350,0.958329,0.142858,-0.017047,-37.703815,4.473068,17.884092,0.201810,1.735030,0.107894,0.000000,0.000000,0.000000,0.000000,0.000000,0.000000
13372735.000000,-0.260029,0.595312,0.325136,-1.510425,-0.210317,2.072486,0.117944,0.026640,0.541436,-0.088307,-0.353874,-0.228650,0.957799,0.146661,0.030561,-37.775227,4.473068,17.733335,0.219205,1.637069,0.067611,0.000000,0.000000,0.000000,0.000000,0.000000,0.000000
13372736.000000,-0.260006,0.595886,0.325054,-1.510770,-0.210556,2.073439,0.118083,0.027637,0.544593,-0.086825,-0.357454,-0.231575,0.959895,0.142248,0.105939,-37.973591,4.401657,17.562742,0.261320,1.656295,0.094161,0.000000,0.000000,0.000000,0.000000,0.000000,0.000000
13372737.000000,-0.259981,0.596464,0.324972,-1.511110,-0.210793,2.074375,0.118224,0.029240,0.556485,-0.082422,-0.350112,-0.232692,0.974243,0.144576,0.153547,-38.243366,4.326279,17.411985,0.249418,1.676437,0.087753,0.000000,0.000000,0.000000,0.000000,0.000000,0.000000
13372738.000000,-0.259950,0.597037,0.324890,-1.511448,-0.211028,2.075329,0.118363,0.029007,0.558426,-0.081345,-0.342818,-0.237014,0.964174,0.141430,0.129743,-38.437763,4.203293,17.189817,0.213712,1.630660,0.087753,0.000000,0.000000,0.000000,0.000000,0.000000,0.000000
13372739.000000,-0.259923,0.597609,0.324806,-1.511784,-0.211256,2.076292,0.118502,0.027512,0.571832,-0.084992,-0.341461,-0.229710,0.954900,0.137968,0.153547,-38.683735,4.179489,17.114439,0.141385,1.584884,0.114303,0.000000,0.000000,0.000000,0.000000,0.000000,0.000000
13372740.000000,-0.259898,0.598194,0.324717,-1.512129,-0.211486,2.077242,0.118654,0.025679,0.572263,-0.089597,-0.344129,-0.233570,0.954572,0.143172,0.205121,-38.854328,4.203293,17.090635,0.093778,1.526290,0.041976,0.000000,0.000000,0.000000,0.000000,0.000000,0.000000
13372741.000000,-0.259868,0.598773,0.324626,-1.512471,-0.211722,2.078180,0.118796,0.027745,0.572158,-0.090611,-0.345121,-0.226182,0.948390,0.143179,0.252729,-38.925739,4.254868,17.019224,0.100187,1.572067,0.087753,0.000000,0.000000,0.000000,0.000000,0.000000,0.000000
13372742.000000,-0.259842,0.599342,0.324535,-1.512799,-0.211956,2.079116,0.118947,0.029229,0.570276,-0.089984,-0.339170,-0.230399,0.943284,0.146184,0.304304,-38.925739,4.254868,16.920042,0.123990,1.676437,0.054794,0.000000,0.000000,0.000000,0.000000,0.000000,0.000000
13372743.000000,-0.259812,0.599944,0.324438,-1.513127,-0.212197,2.080062,0.119089,0.028472,0.572979,-0.091127,-0.334598,-0.233591,0.946417,0.141617,0.304304,-39.195515,4.326279,16.721678,0.159696,1.611434,0.081344,0.000000,0.000000,0.000000,0.000000,0.000000,0.000000
13372744.000000,-0.259784,0.600546,0.324344,-1.513461,-0.212436,2.081006,0.119238,0.029192,0.591162,-0.091493,-0.330026,-0.229534,0.948816,0.139276,0.375715,-39.465290,4.377853,16.697874,0.159696,1.630660,0.074935,0.000000,0.000000,0.000000,0.000000,0.000000,0.000000
13372745.000000,-0.259759,0.601133,0.324255,-1.513805,-0.212671,2.081947,0.119385,0.029855,0.590495,-0.093484,-0.333553,-0.234172,0.954679,0.142999,0.451093,-39.635883,4.377853,16.721678,0.147794,1.578475,0.054794,0.000000,0.000000,0.000000,0.000000,0.000000,0.000000
13372746.000000,-0.259728,0.601733,0.324156,-1.514143,-0.212901,2.082899,0.119523,0.029560,0.587281,-0.096867,-0.331492,-0.234327,0.952233,0.142891,0.427289,-39.810444,4.449265,16.697874,0.129484,1.448470,0.107894,0.000000,0.000000,0.000000,0.000000,0.000000,0.000000
13372747.000000,-0.259703,0.602336,0.324057,-1.514468,-0.213136,2.083861,0.119675,0.029935,0.592848,-0.095989,-0.332619,-0.231203,0.947725,0.146276,0.502668,-40.052448,4.524643,16.646299,0.135892,1.364242,0.067611,0.000000,0.000000,0.000000,0.000000,0.000000,0.000000
13372748.000000,-0.259676,0.602928,0.323950,-1.514800,-0.213372,2.084789,0.119823,0.027882,0.590972,-0.097013,-0.332776,-0.235750,0.938920,0.144518,0.550275,-40.028645,4.671432,16.598692,0.093778,1.448470,0.067611,0.000000,0.000000,0.000000,0.000000,0.000000,0.000000
13372749.000000,-0.259649,0.603529,0.323845,-1.515123,-0.213621,2.085726,0.119978,0.029201,0.587211,-0.099629,-0.327207,-0.236348,0.937416,0.147340,0.601850,-40.028645,4.794418,16.547117,0.117582,1.494247,0.034652,0.000000,0.000000,0.000000,0.000000,0.000000,0.000000
13372750.000000,-0.259616,0.604124,0.323741,-1.515455,-0.213868,2.086644,0.120123,0.029699,0.585805,-0.100481,-0.326485,-0.233252,0.923865,0.146592,0.550275,-40.076252,4.842026,16.499510,0.135892,1.605026,0.074935,0.000000,0.000000,0.000000,0.000000,0.000000,0.000000
13372751.000000,-0.259588,0.604734,0.323632,-1.515787,-0.214103,2.087574,0.120270,0.030611,0.589570,-0.104643,-0.325175,-0.233193,0.916607,0.148048,0.601850,-40.127827,4.917404,16.547117,0.105680,1.689254,0.067611,0.000000,0.000000,0.000000,0.000000,0.000000,0.000000
13372752.000000,-0.259560,0.605323,0.323521,-1.516114,-0.214351,2.088530,0.120424,0.031358,0.599646,-0.106138,-0.328335,-0.235704,0.929410,0.150325,0.649457,-40.076252,5.040390,16.646299,0.147794,1.605026,0.041976,0.000000,0.000000,0.000000,0.000000,0.000000,0.000000
13372753.000000,-0.259528,0.605927,0.323408,-1.516451,-0.214595,2.089471,0.120570,0.033094,0.593178,-0.107473,-0.330972,-0.242729,0.935706,0.145664,0.649457,-40.104023,5.187180,16.793089,0.129484,1.526290,0.041976,0.000000,0.000000,0.000000,0.000000,0.000000,0.000000
13372754.000000,-0.259499,0.606528,0.323302,-1.516773,-0.214848,2.090405,0.120715,0.033320,0.590223,-0.108903,-0.334391,-0.244135,0.934328,0.145890,0.697065,-39.981037,5.210983,16.820860,0.105680,1.552840,0.067611,0.000000,0.000000,0.000000,0.000000,0.000000,0.000000
13372755.000000,-0.259471,0.607139,0.323190,-1.517106,-0.215102,2.091320,0.120859,0.030251,0.598494,-0.111201,-0.333384,-0.243528,0.941728,0.145656,0.748639,-40.076252,5.286362,16.868467,0.129484,1.649886,0.107894,0.000000,0.000000,0.000000,0.000000,0.000000,0.000000
13372756.000000,-0.259434,0.607737,0.323073,-1.517436,-0.215344,2.092244,0.121017,0.030967,0.593778,-0.110926,-0.330466,-0.241811,0.929332,0.150633,0.673261,-39.929462,5.405380,16.967649,0.123990,1.747848,0.015426,0.000000,0.000000,0.000000,0.000000,0.000000,0.000000
13372757.000000,-0.259403,0.608323,0.322961,-1.517758,-0.215592,2.093177,0.121159,0.031361,0.598358,-0.111618,-0.331185,-0.245194,0.928194,0.147907,0.724836,-39.659687,5.480759,17.043028,0.154203,1.735030,0.074935,0.000000,0.000000,0.000000,0.000000,0.000000,0.000000
13372758.000000,-0.259371,0.608922,0.322842,-1.518092,-0.215848,2.094091,0.121316,0.032860,0.591787,-0.113617,-0.332075,-0.250247,0.927699,0.150423,0.724836,-39.489094,5.579941,17.166014,0.147794,1.741439,0.034652,0.000000,0.000000,0.000000,0.000000,0.000000,0.000000
13372759.000000,-0.259338,0.609525,0.322723,-1.518415,-0.216102,2.095013,0.121460,0.033600,0.593594,-0.117129,-0.327683,-0.251175,0.917889,0.144958,0.748639,-39.294697,5.651352,17.189817,0.159696,1.735030,0.054794,0.000000,0.000000,0.000000,0.000000,0.000000,0.000000
13372760.000000,-0.259301,0.610120,0.322606,-1.518746,-0.216356,2.095937,0.121607,0.032106,0.591411,-0.115714,-0.330065,-0.249243,0.925236,0.145020,0.724836,-39.195515,5.651352,17.312803,0.195402,1.767074,0.087753,0.000000,0.000000,0.000000,0.000000,0.000000,0.000000
13372761.000000,-0.259272,0.610724,0.322495,-1.519072,-0.216599,2.096844,0.121759,0.029299,0.587640,-0.113742,-0.326868,-0.246320,0.924539,0.148326,0.772443,-39.147907,5.627548,17.388182,0.195402,1.793624,0.041976,0.000000,0.000000,0.000000,0.000000,0.000000,0.000000
13372762.000000,-0.259239,0.611332,0.322382,-1.519393,-0.216846,2.097758,0.121900,0.030216,0.588680,-0.113444,-0.326687,-0.244260,0.921634,0.142814,0.824018,-39.001118,5.627548,17.534971,0.225614,1.760665,0.074935,0.000000,0.000000,0.000000,0.000000,0.000000,0.000000
13372763.000000,-0.259201,0.611920,0.322262,-1.519728,-0.217103,2.098670,0.122051,0.032915,0.591676,-0.116846,-0.327632,-0.253489,0.916634,0.146175,0.796247,-38.731342,5.651352,17.733335,0.219205,1.670028,0.041976,0.000000,0.000000,0.000000,0.000000,0.000000,0.000000
13372765.000000,-0.259135,0.613093,0.322036,-1.520381,-0.217609,2.100483,0.122341,0.034034,0.582914,-0.114271,-0.328899,-0.251575,0.909838,0.148011,0.847822,-38.096577,5.603745,17.983274,0.255826,1.851302,0.054794,0.000000,0.000000,0.000000,0.000000,0.000000,0.000000
13372766.000000,-0.259107,0.613700,0.321919,-1.520705,-0.217850,2.101379,0.122488,0.030172,0.585981,-0.116357,-0.322148,-0.246424,0.907504,0.148242,0.923200,-38.068806,5.579941,18.030882,0.213712,1.909896,0.067611,0.000000,0.000000,0.000000,0.000000,0.000000,0.000000
13372767.000000,-0.259067,0.614319,0.321812,-1.521023,-0.218094,2.102283,0.122637,0.033452,0.593197,-0.112969,-0.329268,-0.241660,0.899986,0.149230,0.871625,-38.167988,5.504562,18.130064,0.171598,1.949264,0.061202,0.000000,0.000000,0.000000,0.000000,0.000000,0.000000
13372768.000000,-0.259029,0.614925,0.321702,-1.521349,-0.218345,2.103196,0.122785,0.037727,0.597685,-0.112651,-0.324387,-0.243693,0.894965,0.149360,0.871625,-38.243366,5.480759,18.229246,0.135892,1.838485,0.067611,0.000000,0.000000,0.000000,0.000000,0.000000,0.000000
13372769.000000,-0.258992,0.615537,0.321595,-1.521674,-0.218599,2.104126,0.122934,0.037224,0.592797,-0.111131,-0.323288,-0.243099,0.907027,0.145999,0.895429,-38.290974,5.405380,18.304625,0.154203,1.714889,0.041976,0.000000,0.000000,0.000000,0.000000,0.000000,0.000000
13372770.000000,-0.258960,0.616162,0.321492,-1.521991,-0.218859,2.105039,0.123080,0.033042,0.608631,-0.109719,-0.323687,-0.247441,0.911084,0.147288,0.947004,-38.413960,5.310165,18.304625,0.213712,1.714889,0.048385,0.000000,0.000000,0.000000,0.000000,0.000000,0.000000
13372771.000000,-0.258920,0.616771,0.321387,-1.522312,-0.219116,2.105932,0.123216,0.033988,0.609122,-0.109526,-0.319932,-0.254335,0.906330,0.146310,0.947004,-38.485371,5.258591,18.276854,0.279630,1.825668,0.100570,0.000000,0.000000,0.000000,0.000000,0.000000,0.000000
13372772.000000,-0.258881,0.617385,0.321280,-1.522633,-0.219376,2.106840,0.123369,0.031876,0.607429,-0.110891,-0.325648,-0.255847,0.906742,0.150907,0.947004,-38.513142,5.258591,18.276854,0.339139,1.890670,0.041976,0.000000,0.000000,0.000000,0.000000,0.000000,0.000000
13372773.000000,-0.258843,0.617982,0.321174,-1.522950,-0.219632,2.107739,0.123520,0.036545,0.598614,-0.110857,-0.324811,-0.252831,0.928449,0.150527,0.947004,-38.338581,5.234787,18.229246,0.273221,1.923629,0.048385,0.000000,0.000000,0.000000,0.000000,0.000000,0.000000
13372774.000000,-0.258799,0.618601,0.321068,-1.523277,-0.219877,2.108653,0.123670,0.038656,0.599626,-0.109942,-0.323625,-0.250222,0.932469,0.150870,0.871625,-38.314777,5.163376,18.304625,0.195402,1.923629,0.041976,0.000000,0.000000,0.000000,0.000000,0.000000,0.000000
13372775.000000,-0.258752,0.619220,0.320965,-1.523589,-0.220127,2.109584,0.123819,0.040514,0.613165,-0.109240,-0.326421,-0.249075,0.923362,0.150513,0.772443,-38.267170,5.135605,18.253050,0.154203,1.838485,0.041976,0.000000,0.000000,0.000000,0.000000,0.000000,0.000000
13372776.000000,-0.258711,0.619839,0.320860,-1.523912,-0.220373,2.110494,0.123960,0.043020,0.617023,-0.107145,-0.323875,-0.252159,0.920449,0.145049,0.748639,-38.338581,5.135605,18.276854,0.112089,1.793624,0.081344,0.000000,0.000000,0.000000,0.000000,0.000000,0.000000
13372777.000000,-0.258673,0.620462,0.320764,-1.524222,-0.220630,2.111406,0.124115,0.043522,0.614910,-0.104512,-0.314284,-0.255194,0.919212,0.144359,0.796247,-38.314777,4.965012,18.229246,0.178007,1.851302,0.015426,0.000000,0.000000,0.000000,0.000000,0.000000,0.000000
13372778.000000,-0.258623,0.621080,0.320659,-1.524529,-0.220897,2.112307,0.124259,0.044318,0.613520,-0.104496,-0.316578,-0.252638,0.908485,0.143046,0.697065,-38.267170,4.988815,18.177671,0.225614,1.903487,0.081344,0.000000,0.000000,0.000000,0.000000,0.000000,0.000000
13372779.000000,-0.258579,0.621713,0.320557,-1.524831,-0.221156,2.113204,0.124403,0.046157,0.616575,-0.105877,-0.312938,-0.253707,0.906598,0.145606,0.673261,-38.290974,4.965012,18.054686,0.243009,1.930038,0.067611,0.000000,0.000000,0.000000,0.000000,0.000000,0.000000
13372780.000000,-0.258528,0.622345,0.320451,-1.525131,-0.221416,2.114120,0.124547,0.049207,0.619461,-0.108552,-0.306958,-0.252178,0.908463,0.145946,0.574079,-38.314777,4.988815,18.030882,0.231107,1.851302,0.094161,0.000000,0.000000,0.000000,0.000000,0.000000,0.000000
13372781.000000,-0.258481,0.622976,0.320344,-1.525440,-0.221669,2.115020,0.124701,0.050305,0.621415,-0.110307,-0.306609,-0.250528,0.910842,0.148373,0.526471,-38.461567,5.012619,18.054686,0.171598,1.767074,0.067611,0.000000,0.000000,0.000000,0.000000,0.000000,0.000000
13372782.000000,-0.258425,0.623622,0.320237,-1.525736,-0.221934,2.115931,0.124849,0.052692,0.621646,-0.107895,-0.300422,-0.256528,0.907430,0.148686,0.403486,-38.632160,5.012619,17.955503,0.195402,1.702071,0.087753,0.000000,0.000000,0.000000,0.000000,0.000000,0.000000
13372783.000000,-0.258369,0.624277,0.320136,-1.526029,-0.222205,2.116843,0.125002,0.054407,0.645613,-0.104528,-0.303934,-0.256954,0.902710,0.149427,0.276533,-38.953510,4.965012,17.931700,0.231107,1.676437,0.074935,0.000000,0.000000,0.000000,0.000000,0.000000,0.000000
13372784.000000,-0.258325,0.624920,0.320035,-1.526325,-0.222462,2.117726,0.125152,0.052238,0.641028,-0.106061,-0.299396,-0.258778,0.895962,0.150698,0.304304,-39.001118,4.941208,17.907896,0.219205,1.741439,0.048385,0.000000,0.000000,0.000000,0.000000,0.000000,0.000000
13372785.000000,-0.258276,0.625560,0.319930,-1.526617,-0.222726,2.118632,0.125301,0.051139,0.640564,-0.107227,-0.304705,-0.254621,0.896609,0.149948,0.304304,-38.953510,4.941208,17.907896,0.273221,1.754256,0.067611,0.000000,0.000000,0.000000,0.000000,0.000000,0.000000
13372786.000000,-0.258222,0.626194,0.319823,-1.526917,-0.222988,2.119528,0.125461,0.051943,0.635196,-0.108851,-0.305311,-0.255798,0.892024,0.151526,0.252729,-38.925739,4.941208,17.955503,0.303434,1.708480,0.028243,0.000000,0.000000,0.000000,0.000000,0.000000,0.000000
13372787.000000,-0.258167,0.626841,0.319717,-1.527223,-0.223244,2.120430,0.125602,0.053051,0.630421,-0.106562,-0.305316,-0.256265,0.894121,0.149088,0.177350,-38.925739,4.941208,18.130064,0.219205,1.754256,0.087753,0.000000,0.000000,0.000000,0.000000,0.000000,0.000000
13372788.000000,-0.258115,0.627491,0.319613,-1.527516,-0.223512,2.121339,0.125758,0.051958,0.645023,-0.107745,-0.301359,-0.255383,0.907956,0.151733,0.177350,-38.925739,4.917404,18.276854,0.219205,1.760665,0.048385,0.000000,0.000000,0.000000,0.000000,0.000000,0.000000
13372789.000000,-0.258056,0.628138,0.319498,-1.527812,-0.223782,2.122226,0.125910,0.056149,0.646827,-0.107335,-0.299148,-0.263046,0.902019,0.155070,0.078168,-39.072529,4.988815,18.352232,0.237516,1.767074,0.054794,0.000000,0.000000,0.000000,0.000000,0.000000,0.000000
13372790.000000,-0.258010,0.628782,0.319393,-1.528101,-0.224041,2.123132,0.126069,0.052061,0.640986,-0.105039,-0.295691,-0.260617,0.896040,0.158527,0.177350,-39.072529,4.965012,18.451414,0.243009,1.773483,0.061202,0.000000,0.000000,0.000000,0.000000,0.000000,0.000000
13372791.000000,-0.257962,0.629417,0.319288,-1.528397,-0.224306,2.124024,0.126227,0.053586,0.633716,-0.102437,-0.293764,-0.260823,0.893660,0.157279,0.228925,-38.953510,4.917404,18.598204,0.297025,1.786300,0.041976,0.000000,0.000000,0.000000,0.000000,0.000000,0.000000
13372792.000000,-0.257907,0.630064,0.319176,-1.528693,-0.224582,2.124921,0.126381,0.054087,0.631432,-0.105699,-0.296602,-0.261303,0.899919,0.154739,0.177350,-38.830524,4.941208,18.673582,0.362943,1.767074,0.067611,0.000000,0.000000,0.000000,0.000000,0.000000,0.000000
13372793.000000,-0.257859,0.630716,0.319070,-1.528974,-0.224850,2.125819,0.126544,0.051824,0.649302,-0.107728,-0.291245,-0.259306,0.889449,0.160004,0.228925,-38.731342,4.865829,18.673582,0.393156,1.812850,0.021835,0.000000,0.000000,0.000000,0.000000,0.000000,0.000000
13372794.000000,-0.257811,0.631361,0.318962,-1.529254,-0.225112,2.126699,0.126692,0.052559,0.647148,-0.104855,-0.288195,-0.259635,0.888787,0.156383,0.304304,-38.707539,4.818222,18.721189,0.369352,1.916305,0.081344,0.000000,0.000000,0.000000,0.000000,0.000000,0.000000
13372795.000000,-0.257754,0.632009,0.318850,-1.529530,-0.225355,2.127596,0.126849,0.056529,0.642564,-0.106851,-0.284077,-0.254493,0.887901,0.157085,0.252729,-38.659931,4.818222,18.673582,0.273221,1.930038,0.028243,0.000000,0.000000,0.000000,0.000000,0.000000,0.000000
13372796.000000,-0.257699,0.632653,0.318738,-1.529801,-0.225607,2.128505,0.126998,0.058116,0.636838,-0.105416,-0.278669,-0.255962,0.900707,0.155179,0.252729,-38.608356,4.818222,18.649778,0.189908,1.909896,0.028243,0.000000,0.000000,0.000000,0.000000,0.000000,0.000000
13372797.000000,-0.257647,0.633317,0.318629,-1.530070,-0.225865,2.129386,0.127149,0.058863,0.639286,-0.102679,-0.274447,-0.255431,0.892254,0.153611,0.276533,-38.608356,4.770615,18.649778,0.178007,1.930038,0.041976,0.000000,0.000000,0.000000,0.000000,0.000000,0.000000
13372798.000000,-0.257601,0.633966,0.318518,-1.530332,-0.226130,2.130291,0.127303,0.053781,0.641873,-0.103540,-0.269699,-0.255427,0.889992,0.153381,0.403486,-38.390156,4.818222,18.550596,0.207303,1.903487,0.028243,0.000000,0.000000,0.000000,0.000000,0.000000,0.000000
13372799.000000,-0.257557,0.634593,0.318419,-1.530599,-0.226398,2.131178,0.127450,0.052947,0.637823,-0.103645,-0.265437,-0.254467,0.895071,0.150839,0.550275,-38.045002,4.719040,18.550596,0.303434,1.890670,0.081344,0.000000,0.000000,0.000000,0.000000,0.000000,0.000000
13372800.000000,-0.257514,0.635230,0.318311,-1.530856,-0.226655,2.132065,0.127602,0.049685,0.629331,-0.105685,-0.257992,-0.256071,0.889020,0.152610,0.673261,-37.703815,4.695236,18.499022,0.351041,1.858627,0.041976,0.000000,0.000000,0.000000,0.000000,0.000000,0.000000
13372801.000000,-0.257464,0.635861,0.318200,-1.531103,-0.226917,2.132959,0.127751,0.049683,0.633729,-0.105098,-0.256931,-0.253456,0.883326,0.151099,0.697065,-37.434040,4.719040,18.376036,0.320829,1.871444,0.061202,0.000000,0.000000,0.000000,0.000000,0.000000,0.000000
13372802.000000,-0.257406,0.636514,0.318089,-1.531356,-0.227177,2.133835,0.127902,0.052482,0.637613,-0.103838,-0.257459,-0.254854,0.883116,0.152780,0.601850,-37.362629,4.719040,18.328428,0.279630,1.903487,0.015426,0.000000,0.000000,0.000000,0.000000,0.000000,0.000000
13372803.000000,-0.257351,0.637163,0.317974,-1.531591,-0.227432,2.134712,0.128049,0.051678,0.639058,-0.109009,-0.253608,-0.250984,0.885037,0.152103,0.601850,-37.164265,4.742844,18.130064,0.195402,1.968490,0.021835,0.000000,0.000000,0.000000,0.000000,0.000000,0.000000
13372804.000000,-0.257303,0.637790,0.317861,-1.531835,-0.227687,2.135585,0.128188,0.052879,0.636882,-0.110127,-0.251433,-0.246188,0.882092,0.148525,0.673261,-36.823078,4.742844,18.030882,0.147794,1.974899,0.107894,0.000000,0.000000,0.000000,0.000000,0.000000,0.000000
13372805.000000,-0.257251,0.638423,0.317749,-1.532073,-0.227945,2.136474,0.128347,0.051877,0.629330,-0.107528,-0.245321,-0.253407,0.879943,0.157470,0.697065,-36.430317,4.742844,17.884092,0.166105,1.942855,0.015426,0.000000,0.000000,0.000000,0.000000,0.000000,0.000000
13372806.000000,-0.257201,0.639062,0.317640,-1.532302,-0.228216,2.137365,0.128495,0.050949,0.635192,-0.108905,-0.242172,-0.258153,0.888023,0.154105,0.724836,-36.089130,4.742844,17.784910,0.189908,1.871444,0.074935,0.000000,0.000000,0.000000,0.000000,0.000000,0.000000
13372807.000000,-0.257145,0.639713,0.317526,-1.532525,-0.228488,2.138242,0.128643,0.053562,0.635320,-0.109517,-0.236408,-0.265876,0.889493,0.152685,0.724836,-36.089130,4.742844,17.685728,0.231107,1.838485,0.100570,0.000000,0.000000,0.000000,0.000000,0.000000,0.000000
13372808.000000,-0.257098,0.640385,0.317414,-1.532736,-0.228758,2.139124,0.128804,0.051225,0.649807,-0.112949,-0.225244,-0.269335,0.885930,0.156331,0.796247,-36.307331,4.742844,17.411985,0.297025,1.838485,0.021835,0.000000,0.000000,0.000000,0.000000,0.000000,0.000000
13372809.000000,-0.257040,0.641041,0.317302,-1.532952,-0.229018,2.140020,0.128954,0.055467,0.653567,-0.112661,-0.221739,-0.265497,0.887733,0.152470,0.748639,-36.505695,4.742844,17.340574,0.303434,1.800033,0.081344,0.000000,0.000000,0.000000,0.000000,0.000000,0.000000
13372810.000000,-0.256987,0.641705,0.317182,-1.533165,-0.229272,2.140904,0.129108,0.057947,0.653350,-0.113981,-0.219019,-0.265033,0.906898,0.148200,0.724836,-36.600910,4.794418,17.289000,0.255826,1.747848,0.061202,0.000000,0.000000,0.000000,0.000000,0.000000,0.000000
13372811.000000,-0.256927,0.642386,0.317064,-1.533367,-0.229538,2.141798,0.129259,0.060241,0.667044,-0.114258,-0.215603,-0.260168,0.894998,0.147260,0.673261,-36.799274,4.865829,17.166014,0.231107,1.630660,0.100570,0.000000,0.000000,0.000000,0.000000,0.000000,0.000000
13372812.000000,-0.256874,0.643045,0.316944,-1.533576,-0.229802,2.142681,0.129411,0.059903,0.663293,-0.114822,-0.212229,-0.265170,0.892789,0.153922,0.697065,-36.799274,4.917404,17.142210,0.219205,1.624252,0.094161,0.000000,0.000000,0.000000,0.000000,0.000000,0.000000
13372813.000000,-0.256820,0.643717,0.316832,-1.533779,-0.230058,2.143563,0.129566,0.060005,0.664742,-0.113308,-0.205706,-0.257903,0.888783,0.154176,0.724836,-36.846882,4.893600,17.090635,0.207303,1.676437,0.067611,0.000000,0.000000,0.000000,0.000000,0.000000,0.000000
13372814.000000,-0.256762,0.644389,0.316721,-1.533968,-0.230318,2.144443,0.129726,0.060694,0.677657,-0.115693,-0.202178,-0.258153,0.888245,0.153995,0.724836,-37.041279,4.865829,16.967649,0.243009,1.747848,0.041976,0.000000,0.000000,0.000000,0.000000,0.000000,0.000000
13372815.000000,-0.256702,0.645069,0.316605,-1.534158,-0.230577,2.145312,0.129876,0.059878,0.670942,-0.114856,-0.199679,-0.253376,0.876312,0.152888,0.649457,-37.239643,4.865829,16.868467,0.255826,1.819259,0.048385,0.000000,0.000000,0.000000,0.000000,0.000000,0.000000
13372816.000000,-0.256638,0.645755,0.316490,-1.534352,-0.230838,2.146200,0.130024,0.062305,0.670293,-0.111336,-0.200177,-0.251236,0.877345,0.150656,0.574079,-37.386433,4.865829,16.844664,0.219205,1.806442,0.094161,0.000000,0.000000,0.000000,0.000000,0.000000,0.000000
13372817.000000,-0.256575,0.646433,0.316373,-1.534546,-0.231095,2.147077,0.130185,0.063937,0.667800,-0.112448,-0.197323,-0.249536,0.886655,0.153529,0.502668,-37.457844,4.893600,16.820860,0.159696,1.754256,0.021835,0.000000,0.000000,0.000000,0.000000,0.000000,0.000000
13372818.000000,-0.256513,0.647127,0.316250,-1.534730,-0.231341,2.147963,0.130328,0.063968,0.671102,-0.113781,-0.192656,-0.248196,0.887052,0.150557,0.474897,-37.557026,4.941208,16.697874,0.088285,1.747848,0.081344,0.000000,0.000000,0.000000,0.000000,0.000000,0.000000
13372819.000000,-0.256452,0.647813,0.316130,-1.534910,-0.231602,2.148857,0.130476,0.063294,0.689168,-0.114095,-0.191871,-0.250409,0.882437,0.150011,0.474897,-37.703815,4.965012,16.547117,0.117582,1.735030,0.094161,0.000000,0.000000,0.000000,0.000000,0.000000,0.000000
13372820.000000,-0.256390,0.648523,0.316010,-1.535090,-0.231870,2.149729,0.130626,0.063601,0.695410,-0.117229,-0.186119,-0.259605,0.883862,0.151917,0.451093,-38.045002,4.988815,16.324949,0.147794,1.735030,0.054794,0.000000,0.000000,0.000000,0.000000,0.000000,0.000000
13372821.000000,-0.256328,0.649248,0.315898,-1.535267,-0.232128,2.150615,0.130772,0.063847,0.701971,-0.116705,-0.186867,-0.258934,0.877817,0.150098,0.427289,-38.536945,4.917404,16.201963,0.178007,1.727706,0.094161,0.000000,0.000000,0.000000,0.000000,0.000000,0.000000
13372822.000000,-0.256265,0.649959,0.315777,-1.535446,-0.232386,2.151487,0.130931,0.063548,0.701217,-0.115913,-0.182862,-0.257771,0.874016,0.152523,0.427289,-38.953510,4.917404,16.102781,0.189908,1.656295,0.034652,0.000000,0.000000,0.000000,0.000000,0.000000,0.000000
13372823.000000,-0.256204,0.650682,0.315656,-1.535624,-0.232638,2.152378,0.131073,0.063270,0.698904,-0.118956,-0.181207,-0.252461,0.881457,0.149347,0.427289,-39.294697,4.941208,16.078978,0.189908,1.552840,0.107894,0.000000,0.000000,0.000000,0.000000,0.000000,0.000000
13372824.000000,-0.256137,0.651405,0.315533,-1.535801,-0.232889,2.153275,0.131225,0.063886,0.712762,-0.118133,-0.179945,-0.249117,0.884626,0.146705,0.375715,-39.512897,4.965012,16.055174,0.112089,1.442062,0.081344,0.000000,0.000000,0.000000,0.000000,0.000000,0.000000
13372825.000000,-0.256070,0.652126,0.315408,-1.535980,-0.233161,2.154134,0.131374,0.064655,0.716622,-0.117278,-0.175965,-0.257259,0.875200,0.151582,0.328107,-39.782673,4.988815,16.055174,0.105680,1.454879,0.081344,0.000000,0.000000,0.000000,0.000000,0.000000,0.000000
13372826.000000,-0.256008,0.652862,0.315288,-1.536160,-0.233428,2.155005,0.131529,0.063486,0.718939,-0.121232,-0.177526,-0.257678,0.863523,0.152548,0.351911,-40.127827,4.965012,16.102781,0.141385,1.572067,0.048385,0.000000,0.000000,0.000000,0.000000,0.000000,0.000000
13372827.000000,-0.255945,0.653587,0.315163,-1.536341,-0.233694,2.155877,0.131676,0.062657,0.721166,-0.123334,-0.176461,-0.256506,0.862238,0.150979,0.375715,-40.469013,5.012619,16.201963,0.135892,1.643478,0.074935,0.000000,0.000000,0.000000,0.000000,0.000000,0.000000
13372828.000000,-0.255885,0.654327,0.315039,-1.536525,-0.233958,2.156736,0.131824,0.060994,0.721710,-0.123770,-0.182386,-0.256576,0.865210,0.150603,0.451093,-40.786396,5.012619,16.348753,0.159696,1.611434,0.087753,0.000000,0.000000,0.000000,0.000000,0.000000,0.000000
13372829.000000,-0.255815,0.655055,0.314912,-1.536715,-0.234233,2.157603,0.131980,0.060694,0.716757,-0.122759,-0.185695,-0.258729,0.855289,0.152080,0.351911,-40.861774,5.087997,16.570921,0.154203,1.605026,0.048385,0.000000,0.000000,0.000000,0.000000,0.000000,0.000000
13372830.000000,-0.255752,0.655766,0.314787,-1.536906,-0.234510,2.158461,0.132130,0.061236,0.709369,-0.122729,-0.184631,-0.264255,0.846424,0.154394,0.351911,-40.786396,5.064194,16.793089,0.147794,1.611434,0.107894,0.000000,0.000000,0.000000,0.000000,0.000000,0.000000
13372831.000000,-0.255690,0.656499,0.314662,-1.537094,-0.234782,2.159316,0.132288,0.060353,0.708655,-0.125644,-0.185144,-0.261858,0.847517,0.155194,0.403486,-40.909382,5.040390,16.943846,0.159696,1.721298,0.067611,0.000000,0.000000,0.000000,0.000000,0.000000,0.000000
13372832.000000,-0.255625,0.657233,0.314529,-1.537273,-0.235051,2.160173,0.132446,0.060376,0.724640,-0.127469,-0.184813,-0.259154,0.841855,0.154887,0.427289,-41.131550,5.111801,17.066832,0.147794,1.844894,0.061202,0.000000,0.000000,0.000000,0.000000,0.000000,0.000000
13372833.000000,-0.255554,0.657972,0.314400,-1.537452,-0.235319,2.161027,0.132600,0.062277,0.723806,-0.127262,-0.182463,-0.266043,0.843728,0.153603,0.375715,-41.254536,5.135605,17.114439,0.178007,1.865035,0.067611,0.000000,0.000000,0.000000,0.000000,0.000000,0.000000
13372834.000000,-0.255491,0.658706,0.314276,-1.537637,-0.235597,2.161902,0.132757,0.061674,0.726241,-0.126283,-0.182485,-0.269889,0.853629,0.154187,0.403486,-41.278339,5.111801,17.213621,0.154203,1.735030,0.067611,0.000000,0.000000,0.000000,0.000000,0.000000,0.000000
13372835.000000,-0.255425,0.659446,0.314141,-1.537826,-0.235875,2.162765,0.132907,0.058964,0.729570,-0.131054,-0.184614,-0.269843,0.858912,0.151847,0.403486,-41.472736,5.187180,17.388182,0.147794,1.584884,0.107894,0.000000,0.000000,0.000000,0.000000,0.000000,0.000000
13372836.000000,-0.255358,0.660182,0.314012,-1.537999,-0.236160,2.163621,0.133064,0.059974,0.727895,-0.129049,-0.177555,-0.273241,0.856657,0.154005,0.403486,-41.472736,5.163376,17.340574,0.231107,1.591293,0.048385,0.000000,0.000000,0.000000,0.000000,0.000000,0.000000
13372837.000000,-0.255294,0.660919,0.313875,-1.538167,-0.236443,2.164476,0.133218,0.062057,0.737720,-0.133553,-0.178827,-0.274706,0.851134,0.151161,0.474897,-41.425129,5.258591,17.289000,0.315336,1.676437,0.094161,0.000000,0.000000,0.000000,0.000000,0.000000,0.000000
13372838.000000,-0.255226,0.661642,0.313742,-1.538339,-0.236723,2.165314,0.133377,0.067047,0.732264,-0.134244,-0.177029,-0.280428,0.848469,0.152622,0.502668,-41.325947,5.258591,17.265196,0.315336,1.786300,0.054794,0.000000,0.000000,0.000000,0.000000,0.000000,0.000000
13372839.000000,-0.255158,0.662366,0.313607,-1.538521,-0.236994,2.166167,0.133530,0.069305,0.725015,-0.135962,-0.182976,-0.275809,0.843019,0.155411,0.502668,-41.107746,5.333969,17.388182,0.279630,1.786300,0.094161,0.000000,0.000000,0.000000,0.000000,0.000000,0.000000
13372840.000000,-0.255084,0.663080,0.313475,-1.538695,-0.237258,2.167025,0.133685,0.072000,0.715139,-0.133747,-0.178923,-0.271211,0.859388,0.153281,0.451093,-40.933186,5.357773,17.435789,0.189908,1.735030,0.120712,0.000000,0.000000,0.000000,0.000000,0.000000,0.000000
13372841.000000,-0.255017,0.663798,0.313342,-1.538872,-0.237516,2.167887,0.133850,0.070302,0.705446,-0.134466,-0.177566,-0.262788,0.867635,0.159754,0.427289,-40.639606,5.357773,17.562742,0.076383,1.714889,0.061202,0.000000,0.000000,0.000000,0.000000,0.000000,0.000000
13372842.000000,-0.254946,0.664511,0.313212,-1.539038,-0.237796,2.168737,0.134008,0.071929,0.714582,-0.131657,-0.174292,-0.267069,0.860159,0.158232,0.403486,-40.223042,5.333969,17.586546,0.147794,1.767074,0.034652,0.000000,0.000000,0.000000,0.000000,0.000000,0.000000
13372843.000000,-0.254882,0.665220,0.313071,-1.539202,-0.238080,2.169572,0.134159,0.071238,0.713423,-0.132365,-0.169878,-0.273218,0.851423,0.160071,0.451093,-39.905659,5.433151,17.534971,0.219205,1.936446,0.061202,0.000000,0.000000,0.000000,0.000000,0.000000,0.000000
13372844.000000,-0.254814,0.665921,0.312935,-1.539369,-0.238352,2.170418,0.134304,0.068552,0.707205,-0.132427,-0.167753,-0.272748,0.846173,0.160732,0.474897,-39.465290,5.381577,17.511168,0.231107,2.001449,0.107894,0.000000,0.000000,0.000000,0.000000,0.000000,0.000000
13372845.000000,-0.254744,0.666638,0.312804,-1.539530,-0.238630,2.171267,0.134469,0.070320,0.713115,-0.129491,-0.166283,-0.272549,0.845335,0.161474,0.474897,-39.465290,5.333969,17.487364,0.249418,1.949264,0.021835,0.000000,0.000000,0.000000,0.000000,0.000000,0.000000
13372846.000000,-0.254675,0.667364,0.312668,-1.539702,-0.238890,2.172114,0.134616,0.072307,0.711638,-0.132128,-0.168193,-0.273033,0.851968,0.156269,0.451093,-39.489094,5.357773,17.610350,0.207303,1.865035,0.087753,0.000000,0.000000,0.000000,0.000000,0.000000,0.000000
13372847.000000,-0.254605,0.668103,0.312529,-1.539864,-0.239164,2.172968,0.134769,0.070419,0.715946,-0.132379,-0.164848,-0.270365,0.847925,0.153685,0.427289,-39.659687,5.357773,17.661924,0.183500,1.779891,0.120712,0.000000,0.000000,0.000000,0.000000,0.000000,0.000000
13372848.000000,-0.254538,0.668837,0.312390,-1.540019,-0.239442,2.173800,0.134932,0.071196,0.719683,-0.134300,-0.158388,-0.274676,0.843203,0.156180,0.451093,-39.858051,5.381577,17.534971,0.219205,1.773483,0.041976,0.000000,0.000000,0.000000,0.000000,0.000000,0.000000
13372849.000000,-0.254473,0.669579,0.312249,-1.540182,-0.239712,2.174646,0.135081,0.067425,0.716934,-0.135958,-0.157302,-0.269916,0.838162,0.153039,0.526471,-40.028645,5.433151,17.562742,0.237516,1.832076,0.087753,0.000000,0.000000,0.000000,0.000000,0.000000,0.000000
13372850.000000,-0.254402,0.670305,0.312118,-1.540339,-0.239982,2.175485,0.135238,0.065782,0.726077,-0.134208,-0.153730,-0.266207,0.838319,0.154147,0.550275,-40.052448,5.333969,17.610350,0.255826,1.930038,0.054794,0.000000,0.000000,0.000000,0.000000,0.000000,0.000000
13372851.000000,-0.254341,0.671046,0.311979,-1.540498,-0.240249,2.176317,0.135388,0.062893,0.727454,-0.135257,-0.154966,-0.272741,0.842340,0.153323,0.649457,-40.127827,5.357773,17.709532,0.219205,1.909896,0.054794,0.000000,0.000000,0.000000,0.000000,0.000000,0.000000
13372852.000000,-0.254264,0.671793,0.311848,-1.540649,-0.240525,2.177169,0.135538,0.068680,0.731048,-0.136147,-0.157745,-0.273713,0.849258,0.151759,0.550275,-40.223042,5.357773,17.784910,0.166105,1.819259,0.081344,0.000000,0.000000,0.000000,0.000000,0.000000,0.000000
13372853.000000,-0.254201,0.672523,0.311717,-1.540807,-0.240803,2.177999,0.135697,0.065032,0.733687,-0.132431,-0.158020,-0.272618,0.857835,0.152665,0.649457,-40.199238,5.333969,17.884092,0.154203,1.825668,0.054794,0.000000,0.000000,0.000000,0.000000,0.000000,0.000000
13372854.000000,-0.254132,0.673264,0.311585,-1.540965,-0.241075,2.178830,0.135856,0.064716,0.731332,-0.130280,-0.158151,-0.271713,0.861373,0.152708,0.649457,-40.199238,5.310165,17.983274,0.147794,1.903487,0.041976,0.000000,0.000000,0.000000,0.000000,0.000000,0.000000
13372855.000000,-0.254066,0.674002,0.311453,-1.541112,-0.241352,2.179672,0.136013,0.062532,0.739529,-0.132531,-0.154076,-0.272328,0.847889,0.156366,0.724836,-40.104023,5.333969,18.030882,0.189908,1.930038,0.048385,0.000000,0.000000,0.000000,0.000000,0.000000,0.000000
13372856.000000,-0.253995,0.674740,0.311311,-1.541251,-0.241646,2.180505,0.136166,0.065397,0.736272,-0.132302,-0.147789,-0.281161,0.848178,0.157841,0.724836,-40.175434,5.405380,17.955503,0.255826,1.942855,0.100570,0.000000,0.000000,0.000000,0.000000,0.000000,0.000000
13372857.000000,-0.253929,0.675496,0.311180,-1.541394,-0.241929,2.181346,0.136329,0.067266,0.739268,-0.129818,-0.146545,-0.278773,0.847429,0.157793,0.748639,-40.346027,5.405380,18.007078,0.279630,1.942855,0.054794,0.000000,0.000000,0.000000,0.000000,0.000000,0.000000
13372858.000000,-0.253859,0.676249,0.311045,-1.541530,-0.242205,2.182179,0.136483,0.066370,0.737921,-0.129444,-0.143667,-0.275746,0.848074,0.159437,0.748639,-40.615803,5.433151,17.983274,0.255826,1.890670,0.087753,0.000000,0.000000,0.000000,0.000000,0.000000,0.000000
13372859.000000,-0.253791,0.677030,0.310907,-1.541672,-0.242471,2.183027,0.136641,0.067338,0.737853,-0.131485,-0.142180,-0.267954,0.841362,0.157163,0.772443,-41.056171,5.456955,17.983274,0.201810,1.825668,0.094161,0.000000,0.000000,0.000000,0.000000,0.000000,0.000000
13372860.000000,-0.253719,0.677798,0.310773,-1.541803,-0.242746,2.183877,0.136798,0.069901,0.747159,-0.130556,-0.136744,-0.270409,0.847634,0.156079,0.748639,-41.254536,5.480759,17.931700,0.159696,1.793624,0.074935,0.000000,0.000000,0.000000,0.000000,0.000000,0.000000
13372861.000000,-0.253645,0.678562,0.310634,-1.541937,-0.243031,2.184707,0.136956,0.072130,0.747676,-0.133285,-0.132098,-0.273687,0.839509,0.155201,0.697065,-41.472736,5.528366,17.983274,0.166105,1.779891,0.067611,0.000000,0.000000,0.000000,0.000000,0.000000,0.000000
13372862.000000,-0.253574,0.679350,0.310495,-1.542062,-0.243314,2.185537,0.137116,0.071693,0.751682,-0.137583,-0.129176,-0.274768,0.833718,0.158540,0.748639,-41.865498,5.528366,17.931700,0.219205,1.851302,0.074935,0.000000,0.000000,0.000000,0.000000,0.000000,0.000000
13372863.000000,-0.253500,0.680128,0.310355,-1.542194,-0.243592,2.186374,0.137273,0.072913,0.771244,-0.138535,-0.128723,-0.273410,0.835382,0.154386,0.724836,-42.206684,5.579941,18.078489,0.219205,1.955673,0.127120,0.000000,0.000000,0.000000,0.000000,0.000000,0.000000
13372864.000000,-0.253428,0.680900,0.310217,-1.542329,-0.243866,2.187203,0.137442,0.074232,0.766055,-0.136137,-0.129006,-0.276366,0.834347,0.156797,0.697065,-42.329670,5.627548,18.276854,0.243009,1.962081,0.041976,0.000000,0.000000,0.000000,0.000000,0.000000,0.000000
13372865.000000,-0.253352,0.681664,0.310076,-1.542463,-0.244152,2.188058,0.137599,0.075488,0.763862,-0.137728,-0.132253,-0.277954,0.836422,0.159245,0.649457,-42.282063,5.726730,18.475218,0.243009,1.844894,0.054794,0.000000,0.000000,0.000000,0.000000,0.000000,0.000000
13372866.000000,-0.253275,0.682414,0.309937,-1.542605,-0.244433,2.188896,0.137756,0.073335,0.760391,-0.137542,-0.135710,-0.276333,0.828399,0.155648,0.601850,-42.135273,5.726730,18.721189,0.255826,1.806442,0.094161,0.000000,0.000000,0.000000,0.000000,0.000000,0.000000
13372867.000000,-0.253196,0.683168,0.309797,-1.542738,-0.244712,2.189718,0.137914,0.072329,0.753169,-0.136981,-0.132571,-0.275438,0.825477,0.155101,0.526471,-41.936909,5.726730,18.871946,0.279630,1.909896,0.081344,0.000000,0.000000,0.000000,0.000000,0.000000,0.000000
13372869.000000,-0.253038,0.684694,0.309513,-1.542985,-0.245267,2.191341,0.138231,0.076000,0.762155,-0.138413,-0.128199,-0.278973,0.820626,0.158029,0.403486,-41.889301,5.702927,18.994932,0.273221,2.177230,0.061202,0.000000,0.000000,0.000000,0.000000,0.000000,0.000000
13372870.000000,-0.252957,0.685463,0.309370,-1.543103,-0.245539,2.192173,0.138389,0.077340,0.759774,-0.138989,-0.126179,-0.274470,0.820516,0.155041,0.328107,-41.841694,5.726730,18.994932,0.225614,2.085677,0.094161,0.000000,0.000000,0.000000,0.000000,0.000000,0.000000
13372871.000000,-0.252877,0.686221,0.309224,-1.543220,-0.245818,2.192995,0.138555,0.077711,0.757618,-0.139512,-0.122492,-0.276898,0.823950,0.159975,0.276533,-41.790119,5.774338,18.994932,0.207303,1.955673,0.061202,0.000000,0.000000,0.000000,0.000000,0.000000,0.000000
13372872.000000,-0.252798,0.686987,0.309078,-1.543343,-0.246090,2.193819,0.138712,0.079329,0.749077,-0.139142,-0.120862,-0.275204,0.826752,0.156676,0.304304,-41.643330,5.774338,19.042540,0.201810,1.942855,0.087753,0.000000,0.000000,0.000000,0.000000,0.000000,0.000000
13372873.000000,-0.252716,0.687753,0.308941,-1.543456,-0.246371,2.194638,0.138877,0.081802,0.754650,-0.137383,-0.117721,-0.274644,0.816479,0.160849,0.276533,-41.520344,5.726730,18.994932,0.243009,1.981307,0.054794,0.000000,0.000000,0.000000,0.000000,0.000000,0.000000
13372874.000000,-0.252632,0.688504,0.308795,-1.543561,-0.246663,2.195445,0.139031,0.082989,0.745641,-0.138015,-0.110386,-0.283373,0.816420,0.156769,0.252729,-41.349751,5.750534,18.871946,0.320829,1.995040,0.074935,0.000000,0.000000,0.000000,0.000000,0.000000,0.000000
13372875.000000,-0.252553,0.689261,0.308655,-1.543669,-0.246945,2.196253,0.139184,0.080970,0.739638,-0.137862,-0.110674,-0.276973,0.811334,0.154312,0.252729,-41.226765,5.774338,18.848143,0.362943,2.066451,0.120712,0.000000,0.000000,0.000000,0.000000,0.000000,0.000000
13372876.000000,-0.252474,0.690008,0.308520,-1.543770,-0.247219,2.197065,0.139352,0.082173,0.748509,-0.138980,-0.107668,-0.273932,0.821714,0.160652,0.252729,-41.008564,5.679123,18.820372,0.332731,2.014266,0.054794,0.000000,0.000000,0.000000,0.000000,0.000000,0.000000
13372877.000000,-0.252391,0.690745,0.308383,-1.543876,-0.247481,2.197895,0.139511,0.084718,0.733317,-0.137344,-0.107141,-0.269596,0.823055,0.161725,0.205121,-40.492817,5.627548,18.871946,0.249418,1.903487,0.087753,0.000000,0.000000,0.000000,0.000000,0.000000,0.000000
13372878.000000,-0.252305,0.691489,0.308251,-1.543971,-0.247765,2.198718,0.139678,0.086389,0.742819,-0.135594,-0.101285,-0.268560,0.828523,0.160241,0.153547,-40.028645,5.528366,18.820372,0.237516,1.897079,0.048385,0.000000,0.000000,0.000000,0.000000,0.000000,0.000000
13372879.000000,-0.252226,0.692224,0.308111,-1.544058,-0.248051,2.199513,0.139836,0.085669,0.738842,-0.136444,-0.095817,-0.272412,0.814614,0.157136,0.177350,-39.659687,5.528366,18.721189,0.255826,2.039901,0.067611,0.000000,0.000000,0.000000,0.000000,0.000000,0.000000
13372880.000000,-0.252150,0.692989,0.307974,-1.544142,-0.248329,2.200321,0.139991,0.081553,0.744766,-0.135559,-0.090147,-0.271004,0.808107,0.154568,0.228925,-39.659687,5.456955,18.550596,0.237516,2.125045,0.094161,0.000000,0.000000,0.000000,0.000000,0.000000,0.000000
13372881.000000,-0.252073,0.693743,0.307845,-1.544226,-0.248610,2.201150,0.140156,0.081423,0.762180,-0.133322,-0.088288,-0.265846,0.815264,0.155737,0.304304,-39.687458,5.333969,18.475218,0.225614,2.085677,0.034652,0.000000,0.000000,0.000000,0.000000,0.000000,0.000000
13372882.000000,-0.251989,0.694504,0.307708,-1.544320,-0.248893,2.201973,0.140310,0.084541,0.761430,-0.134206,-0.087809,-0.279533,0.823806,0.153869,0.252729,-39.711262,5.310165,18.574400,0.261320,1.936446,0.048385,0.000000,0.000000,0.000000,0.000000,0.000000,0.000000
13372883.000000,-0.251908,0.695276,0.307569,-1.544393,-0.249177,2.202810,0.140465,0.081019,0.762197,-0.136862,-0.082990,-0.276046,0.824482,0.152381,0.304304,-39.782673,5.286362,18.499022,0.255826,1.760665,0.067611,0.000000,0.000000,0.000000,0.000000,0.000000,0.000000
13372884.000000,-0.251830,0.696030,0.307437,-1.544462,-0.249465,2.203626,0.140627,0.078111,0.758198,-0.136251,-0.081153,-0.277312,0.827130,0.152304,0.375715,-39.782673,5.234787,18.352232,0.327238,1.708480,0.061202,0.000000,0.000000,0.000000,0.000000,0.000000,0.000000
13372885.000000,-0.251753,0.696809,0.307302,-1.544527,-0.249741,2.204430,0.140787,0.077002,0.759824,-0.131863,-0.073738,-0.276259,0.820842,0.153258,0.403486,-39.957233,5.163376,18.205442,0.356534,1.877853,0.048385,0.000000,0.000000,0.000000,0.000000,0.000000,0.000000
13372886.000000,-0.251672,0.697590,0.307170,-1.544590,-0.250019,2.205240,0.140943,0.079248,0.772901,-0.132709,-0.069164,-0.277736,0.816183,0.150398,0.427289,-40.151630,5.111801,18.106260,0.344633,2.060043,0.100570,0.000000,0.000000,0.000000,0.000000,0.000000,0.000000
13372887.000000,-0.251594,0.698359,0.307042,-1.544652,-0.250300,2.206062,0.141098,0.078007,0.769539,-0.128220,-0.064367,-0.284201,0.822113,0.154934,0.451093,-40.274616,4.988815,18.078489,0.279630,2.007858,0.114303,0.000000,0.000000,0.000000,0.000000,0.000000,0.000000
13372888.000000,-0.251510,0.699125,0.306914,-1.544717,-0.250571,2.206903,0.141267,0.081891,0.760299,-0.127010,-0.065342,-0.276930,0.823676,0.162781,0.403486,-40.175434,4.941208,18.130064,0.189908,1.871444,0.041976,0.000000,0.000000,0.000000,0.000000,0.000000,0.000000
13372889.000000,-0.251435,0.699881,0.306781,-1.544774,-0.250846,2.207727,0.141417,0.078095,0.751496,-0.126016,-0.064445,-0.273994,0.836993,0.152967,0.502668,-39.981037,4.917404,18.106260,0.154203,1.819259,0.094161,0.000000,0.000000,0.000000,0.000000,0.000000,0.000000
13372890.000000,-0.251359,0.700654,0.306652,-1.544824,-0.251121,2.208548,0.141575,0.075974,0.745538,-0.125101,-0.058118,-0.274893,0.832620,0.153947,0.574079,-39.905659,4.865829,17.983274,0.201810,1.890670,0.054794,0.000000,0.000000,0.000000,0.000000,0.000000,0.000000
13372891.000000,-0.251281,0.701447,0.306518,-1.544866,-0.251464,2.209662,0.141762,0.074677,0.764288,-0.131943,-0.052905,-0.294396,0.921486,0.162889,0.625654,-40.076252,4.865829,17.832518,0.786832,-0.671891,-0.215287,0.000000,0.000000,0.000000,0.000000,0.000000,0.000000
13372892.000000,-0.251200,0.702229,0.306364,-1.544913,-0.251971,2.210790,0.141995,0.078396,0.760776,-0.138659,-0.050968,-0.372884,0.998755,0.183755,0.625654,-40.274616,5.087997,17.757139,2.705778,-3.187760,-0.868058,0.000000,0.000000,0.000000,0.000000,0.000000,0.000000
13372893.000000,-0.251128,0.703029,0.306251,-1.544905,-0.252220,2.211942,0.142029,0.073924,0.768481,-0.130911,-0.029115,-0.330237,1.055647,0.132507,0.796247,-40.568195,4.770615,16.943846,2.107938,-5.236711,0.351424,0.000000,0.000000,0.000000,0.000000,0.000000,0.000000
13372894.000000,-0.251015,0.703851,0.306146,-1.544801,-0.252589,2.212986,0.142251,0.087494,0.795629,-0.120212,0.017430,-0.341366,1.062238,0.161723,0.375715,-41.254536,4.350082,14.916563,2.443021,-5.672502,-0.136552,0.000000,0.000000,0.000000,0.000000,0.000000,0.000000
13372895.000000,-0.250851,0.704657,0.305891,-1.544638,-0.252983,2.213951,0.142441,0.113752,0.790461,-0.168522,0.066474,-0.365590,1.037621,0.172022,-0.762896,-41.448933,6.067917,12.270384,2.807401,-5.100297,-0.360856,0.000000,0.000000,0.000000,0.000000,0.000000,0.000000
13372896.000000,-0.250834,0.705397,0.305804,-1.544486,-0.253293,2.215088,0.142576,0.081434,0.779433,-0.143848,0.097177,-0.342416,1.071126,0.156312,0.228925,-40.639606,5.310165,10.143919,2.263578,-5.659684,-0.103593,0.000000,0.000000,0.000000,0.000000,0.000000,0.000000
13372897.000000,-0.250810,0.706125,0.305781,-1.544352,-0.253577,2.216088,0.142690,0.062476,0.763765,-0.101332,0.110905,-0.325939,1.037995,0.138961,1.121564,-39.881855,3.564560,8.636351,1.582426,-4.995927,0.338607,0.000000,0.000000,0.000000,0.000000,0.000000,0.000000
13372898.000000,-0.250644,0.706812,0.305609,-1.544081,-0.254012,2.217138,0.142879,0.098051,0.734031,-0.122102,0.165426,-0.364949,1.023976,0.154262,-0.044818,-38.437763,4.056503,5.522032,2.377103,-4.664506,0.048385,0.000000,0.000000,0.000000,0.000000,0.000000,0.000000
13372899.000000,-0.250608,0.707413,0.305561,-1.543849,-0.254439,2.218077,0.143080,0.077071,0.698214,-0.096967,0.187660,-0.378907,0.981987,0.172506,0.697065,-35.866962,2.902023,3.347960,2.992338,-3.441361,-0.347123,0.000000,0.000000,0.000000,0.000000,0.000000,0.000000
13372900.000000,-0.250658,0.707912,0.305644,-1.543635,-0.254697,2.219014,0.143214,0.034026,0.628586,-0.036069,0.199019,-0.337552,0.954836,0.160533,2.553754,-32.169453,0.005905,1.792784,2.167448,-2.609147,-0.070634,0.000000,0.000000,0.000000,0.000000,0.000000,0.000000
13372901.000000,-0.250497,0.708345,0.305532,-1.543401,-0.254936,2.219976,0.143374,0.076209,0.555600,-0.061910,0.208672,-0.298380,0.945479,0.162074,1.367536,-27.789570,0.128891,0.380431,1.337064,-2.342728,-0.044083,0.000000,0.000000,0.000000,0.000000,0.000000,0.000000
13372902.000000,-0.250324,0.708695,0.305412,-1.543185,-0.255310,2.220739,0.143560,0.111465,0.483920,-0.082509,0.208785,-0.323289,0.873869,0.167955,0.006757,-22.723347,0.521652,-0.409059,1.785673,-0.853165,-0.274796,0.000000,0.000000,0.000000,0.000000,0.000000,0.000000
13372903.000000,-0.250298,0.708990,0.305376,-1.542962,-0.255593,2.221408,0.143701,0.084142,0.411884,-0.065818,0.211843,-0.308046,0.794102,0.160608,0.824018,-17.264362,-0.212296,-0.976381,1.606229,1.084090,-0.083451,0.000000,0.000000,0.000000,0.000000,0.000000,0.000000
13372904.000000,-0.250262,0.709282,0.305315,-1.542707,-0.255833,2.222184,0.143867,0.066244,0.373314,-0.066433,0.222263,-0.285577,0.781510,0.161228,1.490522,-12.221943,-0.557449,-1.817445,1.133817,1.442062,-0.142960,0.000000,0.000000,0.000000,0.000000,0.000000,0.000000
13372905.000000,-0.250196,0.709541,0.305257,-1.542448,-0.256209,2.222897,0.144030,0.066353,0.331826,-0.062415,0.231136,-0.320353,0.757615,0.164759,1.641279,-7.326313,-0.926407,-2.559328,2.053922,1.643478,-0.182328,0.000000,0.000000,0.000000,0.000000,0.000000,0.000000
13372906.000000,-0.250141,0.709744,0.305214,-1.542233,-0.256515,2.223496,0.144170,0.062316,0.287412,-0.055636,0.228942,-0.314859,0.705632,0.155232,1.962629,-2.160908,-1.465958,-2.535524,2.292875,2.547103,-0.023942,0.000000,0.000000,0.000000,0.000000,0.000000,0.000000
13372907.000000,-0.250122,0.709947,0.305193,-1.541976,-0.256707,2.224140,0.144353,0.048566,0.253218,-0.041665,0.235087,-0.271715,0.700013,0.165077,2.752119,2.464947,-2.251480,-2.979860,1.480802,2.502242,-0.182328,0.000000,0.000000,0.000000,0.000000,0.000000,0.000000
13372908.000000,-0.250114,0.710172,0.305207,-1.541708,-0.256948,2.224840,0.144512,0.034349,0.240117,-0.022191,0.240206,-0.258742,0.712620,0.165507,3.620954,6.380657,-3.453568,-3.570986,1.229032,1.800033,-0.169511,0.000000,0.000000,0.000000,0.000000,0.000000,0.000000
13372909.000000,-0.250071,0.710322,0.305173,-1.541449,-0.257171,2.225423,0.144675,0.037465,0.214393,-0.024438,0.245563,-0.246005,0.678175,0.165534,3.918500,10.859722,-3.846329,-4.090700,0.900358,2.014266,-0.155778,0.000000,0.000000,0.000000,0.000000,0.000000,0.000000
13372910.000000,-0.249997,0.710413,0.305092,-1.541210,-0.257300,2.225897,0.144842,0.050869,0.173141,-0.042724,0.241928,-0.209563,0.613936,0.168706,3.720136,15.779156,-3.501175,-4.289064,-0.150668,3.158675,-0.208878,0.000000,0.000000,0.000000,0.000000,0.000000,0.000000
13372911.000000,-0.249948,0.710494,0.305053,-1.540962,-0.257480,2.226433,0.145019,0.052542,0.140780,-0.044127,0.240714,-0.199167,0.587260,0.173260,3.843122,20.405010,-3.723343,-4.511232,-0.623080,3.653060,-0.314164,0.000000,0.000000,0.000000,0.000000,0.000000,0.000000
13372912.000000,-0.249921,0.710567,0.305008,-1.540732,-0.257683,2.227002,0.145175,0.042037,0.125284,-0.046487,0.231098,-0.199336,0.580544,0.164598,4.311262,24.713482,-3.893936,-4.610414,-0.760409,3.808700,-0.248246,0.000000,0.000000,0.000000,0.000000,0.000000,0.000000
13372913.000000,-0.249896,0.710564,0.304954,-1.540541,-0.257866,2.227611,0.145335,0.034816,0.077380,-0.050175,0.214948,-0.194530,0.593669,0.165588,4.783369,29.755901,-3.969315,-4.189882,-0.862032,3.458053,-0.241837,0.000000,0.000000,0.000000,0.000000,0.000000,0.000000
13372914.000000,-0.249857,0.710554,0.304907,-1.540359,-0.258055,2.228313,0.145493,0.038058,0.050980,-0.050511,0.200281,-0.189888,0.631317,0.163982,5.029340,34.480938,-4.139908,-3.721742,-0.868441,2.417098,-0.175919,0.000000,0.000000,0.000000,0.000000,0.000000,0.000000
13372915.000000,-0.249809,0.710568,0.304861,-1.540154,-0.258259,2.229026,0.145671,0.043840,0.038673,-0.049455,0.199007,-0.197334,0.660485,0.168380,5.128522,38.519634,-4.362076,-3.622560,-0.658785,1.377059,-0.248246,0.000000,0.000000,0.000000,0.000000,0.000000,0.000000
13372916.000000,-0.249762,0.710609,0.304813,-1.539930,-0.258439,2.229739,0.145805,0.048189,0.037630,-0.048871,0.203374,-0.189909,0.680985,0.158243,5.203901,41.776775,-4.580276,-4.019289,-0.677096,0.836898,0.034652,0.000000,0.000000,0.000000,0.000000,0.000000,0.000000
13372917.000000,-0.249712,0.710694,0.304755,-1.539679,-0.258649,2.230445,0.145981,0.049199,0.062629,-0.051701,0.220821,-0.197097,0.690863,0.165746,5.227705,44.149212,-4.655655,-4.931764,-0.569064,0.674850,-0.077042,0.000000,0.000000,0.000000,0.000000,0.000000,0.000000
13372918.000000,-0.249623,0.710808,0.304666,-1.539390,-0.258863,2.231187,0.146136,0.062432,0.081302,-0.062748,0.243462,-0.207865,0.711267,0.165516,4.707990,45.938457,-4.338272,-6.340150,-0.503146,0.459701,-0.037675,0.000000,0.000000,0.000000,0.000000,0.000000,0.000000
13372919.000000,-0.249527,0.710957,0.304591,-1.539089,-0.259078,2.231974,0.146274,0.072739,0.102797,-0.067620,0.264696,-0.214879,0.737124,0.156033,4.116865,47.160381,-4.239090,-7.875490,-0.479342,0.193282,0.127120,0.000000,0.000000,0.000000,0.000000,0.000000,0.000000
13372920.000000,-0.249451,0.711128,0.304513,-1.538770,-0.259299,2.232778,0.146440,0.070978,0.128254,-0.069997,0.285249,-0.215530,0.759920,0.159231,3.890729,47.969707,-4.215286,-9.529848,-0.479342,-0.118913,0.021835,0.000000,0.000000,0.000000,0.000000,0.000000,0.000000
13372921.000000,-0.249384,0.711325,0.304449,-1.538427,-0.259522,2.233649,0.146585,0.071239,0.153735,-0.065893,0.304130,-0.218722,0.792683,0.156795,3.866926,48.580669,-4.433487,-11.259584,-0.521456,-0.613297,0.034652,0.000000,0.000000,0.000000,0.000000,0.000000,0.000000
13372922.000000,-0.249328,0.711551,0.304408,-1.538072,-0.259764,2.234551,0.146733,0.063984,0.182843,-0.059191,0.326028,-0.222401,0.827820,0.154860,4.041486,48.997234,-4.973038,-12.965517,-0.521456,-1.158952,0.041976,0.000000,0.000000,0.000000,0.000000,0.000000,0.000000
13372923.000000,-0.249258,0.711782,0.304347,-1.537700,-0.260012,2.235435,0.146884,0.063979,0.200759,-0.057839,0.339078,-0.231985,0.847056,0.155029,4.017683,49.314617,-5.246780,-14.572268,-0.653292,-1.504105,0.015426,0.000000,0.000000,0.000000,0.000000,0.000000,0.000000
13372924.000000,-0.249180,0.712039,0.304264,-1.537317,-0.260254,2.236346,0.147028,0.069559,0.221774,-0.065406,0.363187,-0.231565,0.858723,0.152570,3.890729,49.485210,-5.171402,-16.179018,-0.814425,-1.699113,0.061202,0.000000,0.000000,0.000000,0.000000,0.000000,0.000000
13372925.000000,-0.249114,0.712311,0.304192,-1.536931,-0.260508,2.237242,0.147176,0.069446,0.243506,-0.065551,0.369990,-0.237820,0.870174,0.153266,3.942304,49.632000,-5.294388,-17.512026,-0.921542,-1.744889,0.034652,0.000000,0.000000,0.000000,0.000000,0.000000,0.000000
13372926.000000,-0.249038,0.712617,0.304109,-1.536522,-0.260753,2.238138,0.147309,0.071993,0.261526,-0.072032,0.377639,-0.239677,0.885781,0.149965,3.890729,49.461407,-5.294388,-18.948183,-1.065279,-1.621293,0.107894,0.000000,0.000000,0.000000,0.000000,0.000000,0.000000
13372927.000000,-0.248946,0.712972,0.304016,-1.536107,-0.261027,2.239036,0.147455,0.078827,0.301074,-0.079841,0.388360,-0.247656,0.883783,0.146446,3.620954,48.921856,-5.147598,-20.304995,-1.053378,-1.471146,0.081344,0.000000,0.000000,0.000000,0.000000,0.000000,0.000000
13372928.000000,-0.248854,0.713355,0.303925,-1.535668,-0.261316,2.239942,0.147602,0.084050,0.323745,-0.085467,0.401922,-0.260699,0.890754,0.150328,3.446393,48.215679,-5.123795,-21.641970,-0.933444,-1.510514,0.021835,0.000000,0.000000,0.000000,0.000000,0.000000,0.000000
13372929.000000,-0.248782,0.713790,0.303855,-1.535237,-0.261571,2.240887,0.147737,0.079955,0.355725,-0.078760,0.409383,-0.258283,0.902414,0.143133,3.497968,47.136578,-5.441177,-22.705202,-1.053378,-1.874894,0.087753,0.000000,0.000000,0.000000,0.000000,0.000000,0.000000
13372930.000000,-0.248693,0.714252,0.303784,-1.534817,-0.261836,2.241842,0.147883,0.081943,0.394948,-0.077950,0.413410,-0.254661,0.927852,0.140954,3.347211,45.886883,-5.734756,-23.546267,-1.112887,-2.375687,0.067611,0.000000,0.000000,0.000000,0.000000,0.000000,0.000000
13372931.000000,-0.248592,0.714762,0.303693,-1.534384,-0.262104,2.242751,0.148034,0.086634,0.430775,-0.080572,0.417055,-0.264953,0.918803,0.144924,3.049665,44.323772,-5.758560,-24.411135,-1.124789,-2.589921,0.028243,0.000000,0.000000,0.000000,0.000000,0.000000,0.000000
13372932.000000,-0.248502,0.715313,0.303597,-1.533956,-0.262367,2.243617,0.148184,0.088796,0.473567,-0.088005,0.424202,-0.261782,0.896403,0.146688,2.926679,42.657513,-5.687149,-25.125246,-1.232821,-2.296952,0.015426,0.000000,0.000000,0.000000,0.000000,0.000000,0.000000
13372933.000000,-0.248414,0.715883,0.303504,-1.533532,-0.262632,2.244437,0.148341,0.088792,0.504142,-0.090355,0.422452,-0.259961,0.869083,0.149664,2.879072,40.896038,-5.734756,-25.644960,-1.339938,-1.770524,-0.037675,0.000000,0.000000,0.000000,0.000000,0.000000,0.000000
