chaoyuefei/paper-gmrm-data/robot_logs/s2_dq_mrm_min_0.50_log_20260314_174656.csv
# time_ms,q_0,q_1,q_2,q_3,q_4,q_5,q_6,dq_0,dq_1,dq_2,dq_3,dq_4,dq_5,dq_6,tau_J_0,tau_J_1,tau_J_2,tau_J_3,tau_J_4,tau_J_5,tau_J_6,O_dP_EE_c_0,O_dP_EE_c_1,O_dP_EE_c_2,O_dP_EE_c_3,O_dP_EE_c_4,O_dP_EE_c_5
13078847.000000,-2.417860,-1.662609,1.040155,-1.352894,1.798088,1.079505,-0.546498,-0.000296,-0.000512,-0.001003,-0.000450,0.000110,0.000259,0.001000,0.078168,41.629986,-20.977066,-5.697450,0.828947,1.312057,0.015426,0.000000,0.000000,0.000000,0.000000,0.000000,0.000000
13078848.000000,-2.417860,-1.662607,1.040159,-1.352894,1.798093,1.079502,-0.546504,-0.000198,0.000215,0.001095,-0.000300,0.000514,-0.000540,-0.001537,0.078168,41.606182,-21.052444,-5.697450,0.817045,1.331283,0.074935,0.000000,0.000000,0.000000,0.000000,0.000000,0.000000
13078849.000000,-2.417860,-1.662607,1.040155,-1.352896,1.798090,1.079505,-0.546506,0.000425,0.000143,-0.000477,-0.000757,0.000105,-0.000122,-0.000754,0.054365,41.606182,-21.000870,-5.673646,0.823453,1.324874,0.067611,0.000000,0.000000,0.000000,0.000000,0.000000,0.000000
13078850.000000,-2.417857,-1.662607,1.040158,-1.352894,1.798088,1.079506,-0.546503,0.000840,0.000096,0.000889,0.000052,-0.000133,-0.000082,0.000956,0.030561,41.606182,-21.052444,-5.697450,0.828947,1.324874,0.028243,0.000000,0.000000,0.000000,0.000000,0.000000,0.000000
13078851.000000,-2.417852,-1.662610,1.040158,-1.352895,1.798090,1.079506,-0.546502,0.007079,0.001270,0.006291,0.001540,-0.007919,-0.001275,0.001858,0.304304,41.554607,-21.024673,-5.626039,0.786832,1.357833,-0.004716,0.000000,0.000000,0.000000,0.000000,0.000000,0.000000
13078852.000000,-2.417843,-1.662612,1.040158,-1.352890,1.798089,1.079497,-0.546515,0.015588,-0.000275,0.006226,0.001355,-0.008306,-0.002878,-0.001993,1.343732,41.336407,-20.953262,-5.499086,0.721830,1.539108,-0.044083,0.000000,0.000000,0.000000,0.000000,0.000000,0.000000
13078853.000000,-2.417815,-1.662615,1.040171,-1.352892,1.798086,1.079497,-0.546545,0.023452,-0.001473,0.004812,0.000166,-0.010835,-0.000729,-0.011622,2.950483,40.967449,-20.953262,-5.177736,0.584501,1.773483,-0.031266,0.000000,0.000000,0.000000,0.000000,0.000000,0.000000
13078854.000000,-2.417767,-1.662614,1.040190,-1.352894,1.798071,1.079519,-0.546578,0.029604,-0.000319,0.006878,-0.000207,-0.016747,0.006151,-0.020258,4.807172,40.479473,-20.953262,-4.856386,0.547880,1.877853,-0.103593,0.000000,0.000000,0.000000,0.000000,0.000000,0.000000
13078855.000000,-2.417701,-1.662613,1.040210,-1.352906,1.798041,1.079568,-0.546635,0.035083,0.004502,0.012864,-0.004707,-0.019334,0.022683,-0.036088,6.640058,39.939922,-20.877884,-4.487428,0.589994,1.800033,-0.056901,0.000000,0.000000,0.000000,0.000000,0.000000,0.000000
13078856.000000,-2.417611,-1.662616,1.040237,-1.352933,1.798006,1.079647,-0.546708,0.046765,0.005746,0.017689,-0.011852,-0.030109,0.048939,-0.051003,8.274579,39.475750,-20.806473,-4.066896,0.625699,1.584884,-0.044083,0.000000,0.000000,0.000000,0.000000,0.000000,0.000000
13078857.000000,-2.417511,-1.662610,1.040274,-1.352969,1.797952,1.079752,-0.546791,0.057506,0.007805,0.021284,-0.022087,-0.038560,0.067993,-0.065539,9.710736,38.960003,-20.731094,-3.697939,0.673307,1.383468,-0.089860,0.000000,0.000000,0.000000,0.000000,0.000000,0.000000
13078858.000000,-2.417400,-1.662604,1.040325,-1.353013,1.797885,1.079862,-0.546909,0.073682,0.008363,0.028313,-0.026701,-0.052946,0.085165,-0.084018,11.047711,38.472027,-20.707291,-3.448000,0.703519,1.331283,-0.044083,0.000000,0.000000,0.000000,0.000000,0.000000,0.000000
13078859.000000,-2.417269,-1.662604,1.040384,-1.353078,1.797808,1.079991,-0.547040,0.092365,0.005424,0.041901,-0.038884,-0.066196,0.100899,-0.102494,12.110944,38.130840,-20.659683,-3.102846,0.661405,1.337692,-0.116410,0.000000,0.000000,0.000000,0.000000,0.000000,0.000000
13078860.000000,-2.417130,-1.662597,1.040446,-1.353141,1.797711,1.080142,-0.547207,0.106610,0.007651,0.046515,-0.044428,-0.074299,0.113535,-0.125018,13.126569,37.738079,-20.485123,-2.979860,0.566190,1.442062,-0.097184,0.000000,0.000000,0.000000,0.000000,0.000000,0.000000
13078861.000000,-2.416979,-1.662585,1.040537,-1.353226,1.797596,1.080313,-0.547402,0.118873,0.009358,0.060232,-0.058962,-0.091381,0.129705,-0.146290,14.043012,37.345318,-20.608109,-2.757692,0.500272,1.565658,-0.070634,0.000000,0.000000,0.000000,0.000000,0.000000,0.000000
13078862.000000,-2.416809,-1.662569,1.040637,-1.353320,1.797471,1.080514,-0.547630,0.136401,0.010677,0.073403,-0.067034,-0.101754,0.152089,-0.171108,14.733319,36.952557,-20.731094,-2.658510,0.369352,1.630660,-0.070634,0.000000,0.000000,0.000000,0.000000,0.000000,0.000000
13078863.000000,-2.416624,-1.662555,1.040752,-1.353431,1.797317,1.080756,-0.547870,0.154022,0.013092,0.086450,-0.084065,-0.117106,0.180637,-0.192669,15.304608,36.635174,-20.877884,-2.511720,0.303434,1.630660,-0.116410,0.000000,0.000000,0.000000,0.000000,0.000000,0.000000
13078864.000000,-2.416421,-1.662533,1.040880,-1.353565,1.797136,1.081033,-0.548143,0.170623,0.014919,0.099447,-0.100753,-0.137475,0.206760,-0.219423,15.725141,36.194805,-21.024673,-2.337160,0.351041,1.507064,-0.116410,0.000000,0.000000,0.000000,0.000000,0.000000,0.000000
13078865.000000,-2.416200,-1.662513,1.041025,-1.353718,1.796934,1.081332,-0.548443,0.186654,0.014963,0.113142,-0.118145,-0.155752,0.234233,-0.247162,16.070295,35.802044,-21.223038,-2.214174,0.374845,1.416427,-0.050492,0.000000,0.000000,0.000000,0.000000,0.000000,0.000000
13078866.000000,-2.415955,-1.662495,1.041178,-1.353883,1.796700,1.081647,-0.548744,0.207644,0.016341,0.126918,-0.133122,-0.186806,0.256967,-0.258078,16.268660,35.484661,-21.322220,-2.162599,0.476469,1.377059,-0.116410,0.000000,0.000000,0.000000,0.000000,0.000000,0.000000
13078867.000000,-2.415705,-1.662476,1.041342,-1.354067,1.796451,1.081970,-0.549060,0.222629,0.016967,0.140319,-0.147755,-0.206502,0.282413,-0.270684,16.490828,35.191082,-21.393631,-2.091188,0.494779,1.442062,-0.070634,0.000000,0.000000,0.000000,0.000000,0.000000,0.000000
13078868.000000,-2.415441,-1.662466,1.041518,-1.354252,1.796186,1.082324,-0.549365,0.235636,0.013592,0.149994,-0.158843,-0.224278,0.299250,-0.278742,16.740767,35.068096,-21.445206,-2.162599,0.470060,1.494247,-0.064225,0.000000,0.000000,0.000000,0.000000,0.000000,0.000000
13078869.000000,-2.415153,-1.662450,1.041705,-1.354464,1.795907,1.082693,-0.549674,0.250521,0.015348,0.159717,-0.179325,-0.239285,0.317749,-0.283316,16.839949,34.921307,-21.469009,-2.138796,0.482877,1.546432,-0.122819,0.000000,0.000000,0.000000,0.000000,0.000000,0.000000
13078870.000000,-2.414860,-1.662445,1.041892,-1.354696,1.795618,1.083084,-0.549995,0.265709,0.013351,0.167343,-0.193659,-0.255035,0.344022,-0.295256,16.939131,34.921307,-21.369827,-2.138796,0.381254,1.656295,-0.056901,0.000000,0.000000,0.000000,0.000000,0.000000,0.000000
13078871.000000,-2.414540,-1.662440,1.042099,-1.354950,1.795306,1.083507,-0.550299,0.279647,0.009121,0.176769,-0.214687,-0.277594,0.366022,-0.294272,16.962934,34.921307,-21.294449,-1.992006,0.332731,1.708480,-0.122819,0.000000,0.000000,0.000000,0.000000,0.000000,0.000000
13078872.000000,-2.414207,-1.662437,1.042316,-1.355228,1.794973,1.083947,-0.550609,0.296484,0.008839,0.186249,-0.235645,-0.293416,0.386027,-0.291654,16.939131,34.945110,-21.294449,-1.742067,0.332731,1.676437,-0.116410,0.000000,0.000000,0.000000,0.000000,0.000000,0.000000
13078873.000000,-2.413854,-1.662435,1.042540,-1.355520,1.794629,1.084421,-0.550911,0.315099,0.008810,0.194314,-0.252341,-0.303807,0.412566,-0.295767,16.911360,34.972881,-21.199234,-1.571474,0.303434,1.572067,-0.077042,0.000000,0.000000,0.000000,0.000000,0.000000,0.000000
13078874.000000,-2.413488,-1.662435,1.042770,-1.355822,1.794259,1.084913,-0.551201,0.331245,0.005871,0.206080,-0.268280,-0.329114,0.429619,-0.290506,16.911360,34.996685,-21.076248,-1.396913,0.351041,1.494247,-0.110001,0.000000,0.000000,0.000000,0.000000,0.000000,0.000000
13078875.000000,-2.413121,-1.662432,1.043009,-1.356134,1.793869,1.085420,-0.551489,0.341812,0.004330,0.215599,-0.283809,-0.341532,0.457912,-0.292393,17.010542,34.996685,-20.977066,-1.297731,0.381254,1.481429,-0.097184,0.000000,0.000000,0.000000,0.000000,0.000000,0.000000
13078876.000000,-2.412735,-1.662433,1.043267,-1.356446,1.793462,1.085960,-0.551769,0.353194,0.002642,0.224701,-0.293738,-0.356784,0.481000,-0.291689,17.161299,35.020489,-20.977066,-1.373109,0.434354,1.481429,-0.110001,0.000000,0.000000,0.000000,0.000000,0.000000,0.000000
13078877.000000,-2.412341,-1.662437,1.043522,-1.356779,1.793038,1.086502,-0.552048,0.374067,0.001438,0.235453,-0.301887,-0.377856,0.488740,-0.283644,17.260481,35.044292,-20.854080,-1.373109,0.488370,1.526290,-0.136552,0.000000,0.000000,0.000000,0.000000,0.000000,0.000000
13078878.000000,-2.411937,-1.662439,1.043790,-1.357131,1.792603,1.087077,-0.552320,0.382951,0.000578,0.243463,-0.317808,-0.394889,0.509504,-0.283296,17.506453,35.068096,-20.731094,-1.373109,0.476469,1.591293,-0.142960,0.000000,0.000000,0.000000,0.000000,0.000000,0.000000
13078879.000000,-2.411518,-1.662439,1.044078,-1.357487,1.792159,1.087663,-0.552602,0.396372,0.000517,0.254157,-0.329957,-0.409850,0.528297,-0.279877,17.728621,35.068096,-20.683487,-1.349306,0.488370,1.630660,-0.097184,0.000000,0.000000,0.000000,0.000000,0.000000,0.000000
13078880.000000,-2.411087,-1.662437,1.044369,-1.357869,1.791686,1.088293,-0.552865,0.407931,0.001000,0.266133,-0.347880,-0.424279,0.558025,-0.270716,17.903181,35.044292,-20.659683,-1.198549,0.482877,1.584884,-0.110001,0.000000,0.000000,0.000000,0.000000,0.000000,0.000000
13078881.000000,-2.410636,-1.662434,1.044670,-1.358260,1.791207,1.088946,-0.553124,0.418439,0.001298,0.273479,-0.353479,-0.440207,0.581390,-0.268419,18.077742,35.020489,-20.584305,-1.027956,0.470060,1.435653,-0.130143,0.000000,0.000000,0.000000,0.000000,0.000000,0.000000
13078882.000000,-2.410174,-1.662428,1.044983,-1.358669,1.790711,1.089611,-0.553389,0.430618,0.002684,0.280494,-0.370715,-0.458563,0.609420,-0.264089,18.248335,34.945110,-20.560501,-0.928774,0.500272,1.272689,-0.077042,0.000000,0.000000,0.000000,0.000000,0.000000,0.000000
13078883.000000,-2.409694,-1.662424,1.045308,-1.359102,1.790194,1.090289,-0.553631,0.445401,0.005492,0.295194,-0.387593,-0.470352,0.627848,-0.256721,18.299910,34.921307,-20.536697,-0.631227,0.506681,1.220504,-0.149369,0.000000,0.000000,0.000000,0.000000,0.000000,0.000000
13078884.000000,-2.409205,-1.662416,1.045646,-1.359532,1.789680,1.090986,-0.553885,0.454627,0.006179,0.301512,-0.402666,-0.484376,0.643771,-0.250003,18.522078,34.826092,-20.485123,-0.508241,0.506681,1.253463,-0.130143,0.000000,0.000000,0.000000,0.000000,0.000000,0.000000
13078885.000000,-2.408714,-1.662409,1.045979,-1.359980,1.789142,1.091681,-0.554137,0.465636,0.006657,0.311137,-0.415715,-0.494151,0.666358,-0.250342,18.768049,34.726910,-20.338333,-0.432863,0.470060,1.299239,-0.089860,0.000000,0.000000,0.000000,0.000000,0.000000,0.000000
13078886.000000,-2.408206,-1.662403,1.046335,-1.360438,1.788591,1.092408,-0.554372,0.476913,0.005714,0.325351,-0.428967,-0.508517,0.688187,-0.246374,19.117170,34.679302,-20.338333,-0.385256,0.500272,1.337692,-0.155778,0.000000,0.000000,0.000000,0.000000,0.000000,0.000000
13078887.000000,-2.407677,-1.662387,1.046695,-1.360910,1.788024,1.093142,-0.554622,0.487953,0.008572,0.337209,-0.436468,-0.522860,0.692711,-0.246974,19.414717,34.480938,-20.266922,-0.309877,0.506681,1.416427,-0.122819,0.000000,0.000000,0.000000,0.000000,0.000000,0.000000
13078888.000000,-2.407143,-1.662379,1.047070,-1.361398,1.787445,1.093902,-0.554872,0.501936,0.007477,0.348218,-0.449262,-0.537266,0.711099,-0.247983,19.736067,34.409527,-20.290726,-0.286073,0.506681,1.461288,-0.083451,0.000000,0.000000,0.000000,0.000000,0.000000,0.000000
13078889.000000,-2.406591,-1.662366,1.047465,-1.361905,1.786843,1.094702,-0.555110,0.514716,0.007373,0.358752,-0.470534,-0.574628,0.736996,-0.244000,20.005842,34.310345,-20.437515,-0.063905,0.535978,1.389877,-0.169511,0.000000,0.000000,0.000000,0.000000,0.000000,0.000000
13078890.000000,-2.406031,-1.662355,1.047862,-1.362427,1.786245,1.095518,-0.555362,0.530032,0.009905,0.369031,-0.481770,-0.582509,0.767801,-0.247733,20.231977,34.238934,-20.536697,0.086851,0.559781,1.259872,-0.116410,0.000000,0.000000,0.000000,0.000000,0.000000,0.000000
13078891.000000,-2.405450,-1.662340,1.048278,-1.362966,1.785619,1.096352,-0.555601,0.541921,0.009791,0.382605,-0.496011,-0.601172,0.789788,-0.246268,20.454145,34.115948,-20.754898,0.233641,0.547880,1.162826,-0.136552,0.000000,0.000000,0.000000,0.000000,0.000000,0.000000
13078892.000000,-2.404853,-1.662325,1.048713,-1.363504,1.785001,1.097191,-0.555843,0.555284,0.009081,0.394888,-0.510817,-0.605818,0.803342,-0.244954,20.700117,34.016766,-20.953262,0.285216,0.524076,1.194869,-0.155778,0.000000,0.000000,0.000000,0.000000,0.000000,0.000000
13078893.000000,-2.404245,-1.662310,1.049153,-1.364064,1.784356,1.098063,-0.556088,0.571796,0.010512,0.407084,-0.520904,-0.610816,0.825951,-0.250921,20.874678,33.969158,-21.147659,0.332823,0.440763,1.227828,-0.089860,0.000000,0.000000,0.000000,0.000000,0.000000,0.000000
13078894.000000,-2.403621,-1.662293,1.049604,-1.364627,1.783693,1.098952,-0.556322,0.587639,0.012892,0.416214,-0.546480,-0.617779,0.849051,-0.247759,21.096846,33.869976,-21.246841,0.309019,0.440763,1.285506,-0.130143,0.000000,0.000000,0.000000,0.000000,0.000000,0.000000
13078895.000000,-2.402991,-1.662279,1.050056,-1.365218,1.783021,1.099837,-0.556557,0.615327,0.014629,0.429048,-0.561070,-0.631787,0.859856,-0.241642,21.319014,33.770794,-21.294449,0.332823,0.393156,1.416427,-0.142960,0.000000,0.000000,0.000000,0.000000,0.000000,0.000000
13078896.000000,-2.402333,-1.662266,1.050539,-1.365818,1.782331,1.100765,-0.556792,0.622015,0.014611,0.445038,-0.566936,-0.653039,0.877645,-0.243398,21.469770,33.723186,-21.469009,0.408202,0.428861,1.487838,-0.122819,0.000000,0.000000,0.000000,0.000000,0.000000,0.000000
13078897.000000,-2.401653,-1.662245,1.051026,-1.366424,1.781627,1.101710,-0.557027,0.638616,0.017573,0.456408,-0.580499,-0.668241,0.906310,-0.239708,21.668135,33.552593,-21.516617,0.479613,0.535978,1.402694,-0.136552,0.000000,0.000000,0.000000,0.000000,0.000000,0.000000
13078898.000000,-2.400952,-1.662232,1.051515,-1.367057,1.780911,1.102700,-0.557266,0.665385,0.013754,0.464843,-0.593438,-0.684781,0.939017,-0.237493,21.838728,33.501019,-21.663406,0.701781,0.667814,1.220504,-0.110001,0.000000,0.000000,0.000000,0.000000,0.000000,0.000000
13078899.000000,-2.400246,-1.662219,1.052024,-1.367688,1.780200,1.103696,-0.557494,0.678947,0.010907,0.473746,-0.610477,-0.690425,0.952530,-0.237084,21.937910,33.453411,-21.786392,0.927916,0.769437,1.123458,-0.169511,0.000000,0.000000,0.000000,0.000000,0.000000,0.000000
13078900.000000,-2.399526,-1.662208,1.052547,-1.368334,1.779493,1.104696,-0.557728,0.689841,0.011335,0.488049,-0.618067,-0.696902,0.960088,-0.234414,22.187849,33.429607,-21.984756,1.098509,0.918668,1.110641,-0.155778,0.000000,0.000000,0.000000,0.000000,0.000000,0.000000
13078901.000000,-2.398804,-1.662202,1.053062,-1.368991,1.778790,1.105726,-0.557958,0.693484,0.011492,0.497666,-0.629142,-0.691983,0.969194,-0.234423,22.088667,33.552593,-21.984756,0.999327,0.972684,1.227828,-0.097184,0.000000,0.000000,0.000000,0.000000,0.000000,0.000000
13078902.000000,-2.398071,-1.662195,1.053599,-1.369655,1.778098,1.106773,-0.558176,0.690971,0.011542,0.512364,-0.643152,-0.689809,0.992764,-0.228781,21.049238,33.699383,-21.810196,0.531187,0.882963,1.435653,-0.188737,0.000000,0.000000,0.000000,0.000000,0.000000,0.000000
13078903.000000,-2.397347,-1.662190,1.054157,-1.370354,1.777396,1.107830,-0.558411,0.697428,0.006724,0.528990,-0.656083,-0.690845,1.024991,-0.226484,19.117170,33.794598,-21.540421,-0.111513,0.871061,1.597701,-0.110001,0.000000,0.000000,0.000000,0.000000,0.000000,0.000000
13078904.000000,-2.396621,-1.662181,1.054736,-1.371041,1.776687,1.108924,-0.558635,0.706142,0.007652,0.542033,-0.664761,-0.693171,1.047158,-0.220794,16.590010,33.699383,-21.000870,-1.051759,0.769437,1.656295,-0.130143,0.000000,0.000000,0.000000,0.000000,0.000000,0.000000
13078905.000000,-2.395896,-1.662172,1.055349,-1.371754,1.776004,1.110025,-0.558854,0.714484,0.005717,0.561530,-0.674062,-0.693280,1.052480,-0.214899,13.868451,33.429607,-20.290726,-1.892824,0.608304,1.721298,-0.182328,0.000000,0.000000,0.000000,0.000000,0.000000,0.000000
13078906.000000,-2.395182,-1.662171,1.055975,-1.372477,1.775317,1.111142,-0.559074,0.721272,0.003895,0.579112,-0.683975,-0.684124,1.084853,-0.214584,11.269879,33.159832,-19.529007,-2.559328,0.470060,1.806442,-0.116410,0.000000,0.000000,0.000000,0.000000,0.000000,0.000000
13078907.000000,-2.394457,-1.662181,1.056621,-1.373181,1.774630,1.112300,-0.559291,0.727019,-0.001828,0.592209,-0.689398,-0.694838,1.110747,-0.216136,8.770490,33.060650,-18.672073,-3.249635,0.369352,1.727706,-0.155778,0.000000,0.000000,0.000000,0.000000,0.000000,0.000000
13078908.000000,-2.393740,-1.662196,1.057283,-1.373890,1.773981,1.113458,-0.559509,0.729963,-0.008004,0.625035,-0.694309,-0.676191,1.133790,-0.213084,6.517072,33.036846,-18.080948,-3.769350,0.201810,1.597701,-0.175919,0.000000,0.000000,0.000000,0.000000,0.000000,0.000000
13078909.000000,-2.393013,-1.662213,1.057934,-1.374587,1.773316,1.114650,-0.559738,0.729713,-0.010822,0.630261,-0.691947,-0.670255,1.156045,-0.220118,4.537397,33.088421,-17.148636,-4.265260,0.129484,1.519881,-0.077042,0.000000,0.000000,0.000000,0.000000,0.000000,0.000000
13078910.000000,-2.392285,-1.662237,1.058597,-1.375266,1.772683,1.115833,-0.559957,0.726425,-0.014344,0.637687,-0.685301,-0.654704,1.159497,-0.219776,2.827497,33.207439,-16.363113,-4.562807,0.010465,1.519881,-0.110001,0.000000,0.000000,0.000000,0.000000,0.000000,0.000000
13078911.000000,-2.391564,-1.662266,1.059253,-1.375939,1.772027,1.117071,-0.560168,0.729308,-0.019917,0.642604,-0.675598,-0.648948,1.183467,-0.209907,1.292158,33.330425,-15.676773,-4.856386,0.064481,1.409103,-0.169511,0.000000,0.000000,0.000000,0.000000,0.000000,0.000000
13078912.000000,-2.390842,-1.662297,1.059921,-1.376613,1.771378,1.118310,-0.560380,0.722295,-0.025819,0.646949,-0.690527,-0.646682,1.194506,-0.210932,0.030561,33.405804,-14.938858,-4.884157,0.159696,1.389877,-0.130143,0.000000,0.000000,0.000000,0.000000,0.000000,0.000000
13078913.000000,-2.390114,-1.662327,1.060599,-1.377302,1.770744,1.119557,-0.560594,0.728838,-0.027852,0.652202,-0.692548,-0.643722,1.205071,-0.210418,-1.060443,33.382000,-14.351700,-4.634218,0.243009,1.207687,-0.116410,0.000000,0.000000,0.000000,0.000000,0.000000,0.000000
13078914.000000,-2.389392,-1.662358,1.061271,-1.377993,1.770110,1.120823,-0.560795,0.726895,-0.028895,0.657896,-0.693767,-0.637951,1.208067,-0.207215,-2.024493,33.330425,-13.736771,-4.312868,0.393156,0.941268,-0.182328,0.000000,0.000000,0.000000,0.000000,0.000000,0.000000
13078915.000000,-2.388674,-1.662385,1.061958,-1.378682,1.769482,1.122060,-0.561008,0.720535,-0.026646,0.664837,-0.693921,-0.639016,1.220018,-0.209044,-2.718768,33.136028,-13.268631,-3.745546,0.535978,0.850631,-0.130143,0.000000,0.000000,0.000000,0.000000,0.000000,0.000000
13078916.000000,-2.387958,-1.662418,1.062646,-1.379372,1.768867,1.123289,-0.561219,0.721900,-0.030158,0.675756,-0.688204,-0.629975,1.209548,-0.209159,-3.361468,33.013042,-12.879837,-3.225832,0.554288,0.922042,-0.116410,0.000000,0.000000,0.000000,0.000000,0.000000,0.000000
13078917.000000,-2.387249,-1.662444,1.063345,-1.380048,1.768253,1.124532,-0.561412,0.711366,-0.030491,0.683089,-0.686194,-0.623254,1.221020,-0.201463,-3.782000,32.790874,-12.487076,-2.856874,0.446256,0.954086,-0.182328,0.000000,0.000000,0.000000,0.000000,0.000000,0.000000
13078918.000000,-2.386556,-1.662467,1.064049,-1.380726,1.767652,1.125746,-0.561620,0.702344,-0.026714,0.688369,-0.684358,-0.616922,1.216153,-0.200125,-4.027972,32.525066,-12.213333,-2.535524,0.410551,0.987045,-0.122819,0.000000,0.000000,0.000000,0.000000,0.000000,0.000000
13078919.000000,-2.385845,-1.662477,1.064748,-1.381385,1.767055,1.126954,-0.561817,0.699977,-0.020821,0.693010,-0.677930,-0.603268,1.214495,-0.199387,-4.301714,32.108501,-11.995132,-2.606935,0.285123,1.220504,-0.188737,0.000000,0.000000,0.000000,0.000000,0.000000,0.000000
13078920.000000,-2.385137,-1.662481,1.065470,-1.382036,1.766472,1.128158,-0.562024,0.696152,-0.018211,0.699048,-0.668131,-0.607010,1.200408,-0.202124,-4.547686,31.616558,-11.971329,-2.606935,0.219205,1.448470,-0.175919,0.000000,0.000000,0.000000,0.000000,0.000000,0.000000
13078921.000000,-2.384450,-1.662486,1.066184,-1.382680,1.765871,1.129362,-0.562239,0.695202,-0.015339,0.705235,-0.654151,-0.602562,1.205748,-0.210121,-4.646868,31.199993,-11.820572,-2.757692,0.237516,1.461288,-0.122819,0.000000,0.000000,0.000000,0.000000,0.000000,0.000000
13078922.000000,-2.383749,-1.662482,1.066919,-1.383337,1.765279,1.130591,-0.562436,0.697275,-0.009218,0.711853,-0.650235,-0.595516,1.206300,-0.206944,-4.845232,30.735821,-11.772964,-2.781496,0.285123,1.292831,-0.188737,0.000000,0.000000,0.000000,0.000000,0.000000,0.000000
13078923.000000,-2.383044,-1.662474,1.067660,-1.383980,1.764693,1.131804,-0.562644,0.696488,-0.004147,0.720304,-0.645727,-0.590495,1.189157,-0.204225,-5.043597,30.247845,-11.626175,-2.757692,0.351041,1.110641,-0.130143,0.000000,0.000000,0.000000,0.000000,0.000000,0.000000
13078924.000000,-2.382358,-1.662458,1.068399,-1.384607,1.764119,1.133011,-0.562843,0.691859,0.003960,0.724278,-0.640788,-0.581876,1.196853,-0.199347,-5.218157,29.708294,-11.550797,-3.003664,0.327238,1.045638,-0.130143,0.000000,0.000000,0.000000,0.000000,0.000000,0.000000
13078925.000000,-2.381659,-1.662438,1.069152,-1.385223,1.763539,1.134238,-0.563045,0.690120,0.009067,0.731804,-0.631335,-0.587698,1.197179,-0.200358,-5.416522,29.196514,-11.431778,-3.178224,0.303434,0.934859,-0.169511,0.000000,0.000000,0.000000,0.000000,0.000000,0.000000
13078926.000000,-2.380980,-1.662420,1.069882,-1.385839,1.762981,1.135442,-0.563254,0.687148,0.010590,0.745927,-0.622650,-0.576246,1.201210,-0.203692,-5.464129,28.779949,-10.987442,-3.424196,0.273221,0.817672,-0.122819,0.000000,0.000000,0.000000,0.000000,0.000000,0.000000
13078927.000000,-2.380299,-1.662401,1.070639,-1.386463,1.762423,1.136639,-0.563452,0.680488,0.011390,0.752259,-0.616440,-0.569120,1.189549,-0.204345,-5.440325,28.387188,-10.693863,-3.523378,0.166105,0.954086,-0.130143,0.000000,0.000000,0.000000,0.000000,0.000000,0.000000
13078928.000000,-2.379601,-1.662384,1.071405,-1.387067,1.761874,1.137809,-0.563652,0.682544,0.010791,0.753101,-0.614412,-0.564585,1.173202,-0.199982,-5.587115,28.046001,-10.348709,-3.646364,0.058073,1.136276,-0.130143,0.000000,0.000000,0.000000,0.000000,0.000000,0.000000
13078929.000000,-2.378923,-1.662357,1.072160,-1.387676,1.761320,1.139014,-0.563842,0.683067,0.015469,0.761927,-0.608140,-0.566634,1.180299,-0.200286,-5.662493,27.629436,-9.955948,-3.646364,-0.031649,1.220504,-0.175919,0.000000,0.000000,0.000000,0.000000,0.000000,0.000000
13078930.000000,-2.378239,-1.662339,1.072933,-1.388281,1.760752,1.140246,-0.564040,0.677964,0.015521,0.760906,-0.614828,-0.563295,1.179048,-0.199399,-5.686297,27.359661,-9.563187,-3.570986,-0.007845,1.058456,-0.122819,0.000000,0.000000,0.000000,0.000000,0.000000,0.000000
13078931.000000,-2.377541,-1.662323,1.073721,-1.388876,1.760203,1.141485,-0.564235,0.677878,0.014161,0.772060,-0.606598,-0.560168,1.175904,-0.196966,-5.860857,27.161297,-9.344986,-3.670168,0.010465,0.706893,-0.130143,0.000000,0.000000,0.000000,0.000000,0.000000,0.000000
13078932.000000,-2.376850,-1.662306,1.074511,-1.389485,1.759650,1.142720,-0.564426,0.686543,0.012812,0.778999,-0.607650,-0.552016,1.177805,-0.193383,-6.106829,26.990704,-9.198196,-3.598757,0.040677,0.532027,-0.169511,0.000000,0.000000,0.000000,0.000000,0.000000,0.000000
13078933.000000,-2.376148,-1.662295,1.075310,-1.390071,1.759108,1.143928,-0.564629,0.689971,0.012949,0.786741,-0.598984,-0.549576,1.185108,-0.194198,-6.380572,26.919292,-8.976028,-3.670168,0.135892,0.518295,-0.116410,0.000000,0.000000,0.000000,0.000000,0.000000,0.000000
13078934.000000,-2.375455,-1.662296,1.076104,-1.390664,1.758552,1.145146,-0.564822,0.694664,0.009493,0.792731,-0.597639,-0.549843,1.189388,-0.190367,-6.701922,27.014507,-8.682449,-3.769350,0.183500,0.597030,-0.175919,0.000000,0.000000,0.000000,0.000000,0.000000,0.000000
13078935.000000,-2.374765,-1.662294,1.076930,-1.391248,1.758010,1.146374,-0.565020,0.691855,0.005882,0.805831,-0.591689,-0.543861,1.191891,-0.192229,-6.824908,27.042278,-8.630875,-3.967714,0.183500,0.706893,-0.116410,0.000000,0.000000,0.000000,0.000000,0.000000,0.000000
13078936.000000,-2.374076,-1.662291,1.077775,-1.391817,1.757474,1.147586,-0.565203,0.686631,0.006109,0.817599,-0.584796,-0.542338,1.187704,-0.189173,-6.900286,27.089886,-8.654678,-4.166078,0.135892,0.798446,-0.163102,0.000000,0.000000,0.000000,0.000000,0.000000,0.000000
13078937.000000,-2.373382,-1.662289,1.078614,-1.392387,1.756946,1.148819,-0.565383,0.690855,0.007170,0.831659,-0.575862,-0.532888,1.195693,-0.184141,-7.174029,27.113689,-8.682449,-4.340639,0.010465,0.843307,-0.169511,0.000000,0.000000,0.000000,0.000000,0.000000,0.000000
13078938.000000,-2.372682,-1.662291,1.079474,-1.392950,1.756416,1.150047,-0.565575,0.689846,0.004222,0.837906,-0.571115,-0.546503,1.193122,-0.186582,-7.471575,27.161297,-8.730057,-4.487428,-0.007845,0.869857,-0.136552,0.000000,0.000000,0.000000,0.000000,0.000000,0.000000
13078939.000000,-2.371986,-1.662294,1.080325,-1.393518,1.755876,1.151250,-0.565754,0.693117,0.002025,0.848457,-0.573540,-0.538992,1.196943,-0.180427,-7.892107,27.212872,-8.706253,-4.511232,0.034269,0.954086,-0.182328,0.000000,0.000000,0.000000,0.000000,0.000000,0.000000
13078940.000000,-2.371272,-1.662294,1.081194,-1.394090,1.755351,1.152460,-0.565937,0.702497,0.001662,0.848085,-0.569438,-0.536638,1.186434,-0.183872,-8.360248,27.212872,-8.607071,-4.511232,0.052579,1.031905,-0.149369,0.000000,0.000000,0.000000,0.000000,0.000000,0.000000
13078941.000000,-2.370551,-1.662290,1.082092,-1.394657,1.754819,1.153665,-0.566118,0.704922,0.002549,0.862060,-0.566720,-0.537284,1.172140,-0.184287,-8.931537,27.161297,-8.682449,-4.487428,0.129484,1.039230,-0.155778,0.000000,0.000000,0.000000,0.000000,0.000000,0.000000
13078942.000000,-2.369849,-1.662287,1.082969,-1.395226,1.754302,1.154887,-0.566295,0.702493,0.002989,0.864222,-0.567331,-0.528251,1.176107,-0.184874,-9.328265,27.113689,-8.583267,-4.439821,0.105680,0.934859,-0.142960,0.000000,0.000000,0.000000,0.000000,0.000000,0.000000
13078943.000000,-2.369130,-1.662275,1.083867,-1.395778,1.753778,1.156125,-0.566469,0.704846,0.006115,0.872650,-0.562951,-0.522357,1.191499,-0.186643,-9.820209,26.943096,-8.412674,-4.487428,0.076383,0.752670,-0.136552,0.000000,0.000000,0.000000,0.000000,0.000000,0.000000
13078944.000000,-2.368420,-1.662267,1.084759,-1.396328,1.753270,1.157318,-0.566640,0.713116,0.005939,0.894717,-0.558407,-0.512147,1.191176,-0.180681,-10.216937,26.867718,-8.238113,-4.586610,0.015958,0.778304,-0.182328,0.000000,0.000000,0.000000,0.000000,0.000000,0.000000
13078945.000000,-2.367724,-1.662253,1.085685,-1.396876,1.752765,1.158523,-0.566818,0.707058,0.008024,0.898833,-0.555437,-0.513590,1.190387,-0.178511,-10.514483,26.697124,-8.115128,-4.685792,-0.037142,0.850631,-0.169511,0.000000,0.000000,0.000000,0.000000,0.000000,0.000000
13078946.000000,-2.367012,-1.662246,1.086625,-1.397401,1.752265,1.159707,-0.566994,0.704961,0.006518,0.912505,-0.547645,-0.506207,1.208506,-0.175347,-10.935016,26.649517,-8.091324,-4.884157,-0.085665,0.941268,-0.188737,0.000000,0.000000,0.000000,0.000000,0.000000,0.000000
13078947.000000,-2.366322,-1.662237,1.087550,-1.397943,1.751759,1.160911,-0.567179,0.712514,0.008641,0.920093,-0.544424,-0.499562,1.213659,-0.175712,-11.109576,26.597942,-7.896927,-4.931764,-0.037142,0.960494,-0.142960,0.000000,0.000000,0.000000,0.000000,0.000000,0.000000
13078948.000000,-2.365618,-1.662226,1.088518,-1.398468,1.751252,1.162120,-0.567353,0.705498,0.010889,0.932753,-0.550558,-0.496642,1.202895,-0.178353,-11.430926,26.526531,-8.043716,-5.054750,-0.055453,0.954086,-0.155778,0.000000,0.000000,0.000000,0.000000,0.000000,0.000000
13078949.000000,-2.364917,-1.662223,1.089497,-1.398994,1.750763,1.163317,-0.567522,0.706029,0.009785,0.941952,-0.541798,-0.490210,1.202636,-0.174289,-11.803851,26.574139,-8.142899,-5.229311,-0.055453,0.876266,-0.196061,0.000000,0.000000,0.000000,0.000000,0.000000,0.000000
13078950.000000,-2.364220,-1.662213,1.090485,-1.399523,1.750270,1.164523,-0.567698,0.701394,0.010803,0.958242,-0.535296,-0.494128,1.200163,-0.175120,-11.974444,26.550335,-8.412674,-5.376100,-0.055453,0.811263,-0.142960,0.000000,0.000000,0.000000,0.000000,0.000000,0.000000
13078951.000000,-2.363508,-1.662216,1.091482,-1.400032,1.749786,1.165722,-0.567865,0.702638,0.006989,0.969590,-0.532439,-0.492619,1.211578,-0.172217,-12.371173,26.720928,-8.484085,-5.598268,-0.079257,0.889083,-0.182328,0.000000,0.000000,0.000000,0.000000,0.000000,0.000000
13078952.000000,-2.362815,-1.662223,1.092473,-1.400542,1.749305,1.166894,-0.568038,0.700095,0.003863,0.978888,-0.519288,-0.487138,1.200719,-0.172057,-12.593341,26.919292,-8.507889,-5.749025,-0.085665,1.039230,-0.169511,0.000000,0.000000,0.000000,0.000000,0.000000,0.000000
13078953.000000,-2.362114,-1.662224,1.093468,-1.401053,1.748813,1.168078,-0.568205,0.696894,0.000551,0.981780,-0.515977,-0.487299,1.198595,-0.171569,-12.890887,27.042278,-8.313492,-5.919618,-0.097567,1.194869,-0.169511,0.000000,0.000000,0.000000,0.000000,0.000000,0.000000
13078954.000000,-2.361410,-1.662228,1.094478,-1.401554,1.748343,1.169251,-0.568376,0.694840,-0.002427,0.989630,-0.512148,-0.482122,1.191496,-0.166614,-13.164630,27.189068,-8.190506,-5.994997,-0.133273,1.234237,-0.155778,0.000000,0.000000,0.000000,0.000000,0.000000,0.000000
13078955.000000,-2.360718,-1.662231,1.095488,-1.402055,1.747878,1.170450,-0.568543,0.692947,-0.002809,0.997880,-0.507142,-0.480266,1.201743,-0.163185,-13.434405,27.260479,-8.067520,-6.117982,-0.216586,1.110641,-0.175919,0.000000,0.000000,0.000000,0.000000,0.000000,0.000000
13078956.000000,-2.360026,-1.662234,1.096509,-1.402550,1.747399,1.171658,-0.568711,0.689164,-0.002627,1.002992,-0.501796,-0.485134,1.196387,-0.164698,-13.684344,27.308086,-7.750137,-6.217165,-0.211093,0.928451,-0.175919,0.000000,0.000000,0.000000,0.000000,0.000000,0.000000
13078957.000000,-2.359339,-1.662241,1.097535,-1.403047,1.746933,1.172838,-0.568876,0.688449,-0.003245,1.006841,-0.497896,-0.479546,1.195580,-0.162534,-13.930316,27.383465,-7.551773,-6.292543,-0.150668,0.824081,-0.142960,0.000000,0.000000,0.000000,0.000000,0.000000,0.000000
13078958.000000,-2.358656,-1.662249,1.098567,-1.403546,1.746465,1.174028,-0.569032,0.682989,-0.006245,1.010687,-0.497644,-0.481318,1.191824,-0.162051,-14.104877,27.431072,-7.111404,-6.391725,-0.162570,0.817672,-0.202470,0.000000,0.000000,0.000000,0.000000,0.000000,0.000000
13078959.000000,-2.357978,-1.662255,1.099632,-1.404036,1.745996,1.175194,-0.569205,0.679566,-0.008007,1.027551,-0.500565,-0.477212,1.174797,-0.166182,-14.152484,27.454876,-6.988419,-6.490907,-0.085665,0.850631,-0.136552,0.000000,0.000000,0.000000,0.000000,0.000000,0.000000
13078960.000000,-2.357321,-1.662263,1.100680,-1.404515,1.745546,1.176391,-0.569362,0.671081,-0.007450,1.031096,-0.488033,-0.464329,1.181593,-0.164617,-14.081073,27.530254,-6.790054,-6.784486,-0.121371,0.771896,-0.175919,0.000000,0.000000,0.000000,0.000000,0.000000,0.000000
13078961.000000,-2.356662,-1.662273,1.101761,-1.404985,1.745096,1.177607,-0.569524,0.662091,-0.008105,1.038834,-0.483541,-0.457905,1.194632,-0.165962,-13.981891,27.653240,-6.742447,-7.058229,-0.216586,0.583297,-0.175919,0.000000,0.000000,0.000000,0.000000,0.000000,0.000000
13078962.000000,-2.356014,-1.662268,1.102851,-1.405457,1.744649,1.178789,-0.569692,0.669491,-0.003836,1.063861,-0.478945,-0.455125,1.196911,-0.162746,-13.858905,27.577862,-6.865433,-7.256593,-0.252291,0.583297,-0.155778,0.000000,0.000000,0.000000,0.000000,0.000000,0.000000
13078963.000000,-2.355358,-1.662270,1.103953,-1.405937,1.744205,1.179984,-0.569850,0.662590,-0.003262,1.071755,-0.479340,-0.451312,1.201915,-0.163382,-13.858905,27.601665,-6.841629,-7.403383,-0.318209,0.589706,-0.182328,0.000000,0.000000,0.000000,0.000000,0.000000,0.000000
13078964.000000,-2.354696,-1.662269,1.105075,-1.406412,1.743761,1.181168,-0.570016,0.658208,-0.001171,1.080166,-0.479602,-0.448165,1.224977,-0.167338,-13.930316,27.554058,-6.889236,-7.427186,-0.294406,0.597030,-0.116410,0.000000,0.000000,0.000000,0.000000,0.000000,0.000000
13078965.000000,-2.354047,-1.662268,1.106188,-1.406893,1.743314,1.182363,-0.570165,0.656230,-0.000307,1.097625,-0.479087,-0.443157,1.231279,-0.160913,-14.005694,27.530254,-6.936844,-7.427186,-0.211093,0.589706,-0.175919,0.000000,0.000000,0.000000,0.000000,0.000000,0.000000
13078966.000000,-2.353387,-1.662260,1.107315,-1.407365,1.742873,1.183577,-0.570317,0.655993,0.003167,1.100927,-0.478743,-0.444945,1.225550,-0.158939,-14.204059,27.383465,-6.865433,-7.478761,-0.222994,0.544845,-0.163102,0.000000,0.000000,0.000000,0.000000,0.000000,0.000000
13078967.000000,-2.352735,-1.662257,1.108459,-1.407828,1.742434,1.184760,-0.570476,0.652732,0.003828,1.109782,-0.472547,-0.448120,1.214813,-0.157579,-14.227862,27.308086,-6.766251,-7.625551,-0.192782,0.576888,-0.136552,0.000000,0.000000,0.000000,0.000000,0.000000,0.000000
13078968.000000,-2.352089,-1.662252,1.109585,-1.408295,1.742005,1.185956,-0.570623,0.646194,0.004744,1.119734,-0.467640,-0.436506,1.207065,-0.154327,-14.327044,27.212872,-6.496475,-7.748537,-0.252291,0.681258,-0.175919,0.000000,0.000000,0.000000,0.000000,0.000000,0.000000
13078969.000000,-2.351443,-1.662246,1.110729,-1.408756,1.741573,1.187158,-0.570778,0.639523,0.006014,1.122070,-0.467467,-0.437908,1.208416,-0.154821,-14.402423,27.089886,-6.226700,-7.776308,-0.324618,0.733443,-0.149369,0.000000,0.000000,0.000000,0.000000,0.000000,0.000000
13078970.000000,-2.350800,-1.662231,1.111892,-1.409223,1.741136,1.188341,-0.570927,0.642402,0.009186,1.139602,-0.466396,-0.436371,1.200861,-0.152329,-14.501605,26.867718,-6.250504,-7.823915,-0.348422,0.811263,-0.188737,0.000000,0.000000,0.000000,0.000000,0.000000,0.000000
13078971.000000,-2.350164,-1.662217,1.113081,-1.409679,1.740718,1.189533,-0.571078,0.638318,0.010100,1.153811,-0.464461,-0.427207,1.196884,-0.153540,-14.473834,26.697124,-6.325882,-7.923097,-0.443636,0.817672,-0.149369,0.000000,0.000000,0.000000,0.000000,0.000000,0.000000
13078972.000000,-2.349511,-1.662204,1.114306,-1.410136,1.740295,1.190719,-0.571231,0.643134,0.010713,1.180966,-0.462681,-0.426967,1.188457,-0.154087,-14.624591,26.526531,-6.619461,-7.899293,-0.509554,0.746261,-0.110001,0.000000,0.000000,0.000000,0.000000,0.000000,0.000000
13078973.000000,-2.348889,-1.662190,1.115526,-1.410587,1.739861,1.191908,-0.571368,0.635267,0.011124,1.193276,-0.456943,-0.424612,1.189737,-0.154523,-14.573016,26.355938,-6.988419,-8.022280,-0.485751,0.706893,-0.175919,0.000000,0.000000,0.000000,0.000000,0.000000,0.000000
13078974.000000,-2.348260,-1.662186,1.116782,-1.411030,1.739437,1.193104,-0.571514,0.628234,0.008616,1.206132,-0.451157,-0.435619,1.184529,-0.154305,-14.549212,26.304363,-7.527969,-8.097658,-0.431735,0.720626,-0.163102,0.000000,0.000000,0.000000,0.000000,0.000000,0.000000
13078975.000000,-2.347634,-1.662181,1.118026,-1.411477,1.739011,1.194259,-0.571665,0.628661,0.010691,1.243744,-0.448377,-0.431802,1.170754,-0.153658,-14.549212,26.232952,-7.896927,-8.244448,-0.389620,0.876266,-0.155778,0.000000,0.000000,0.000000,0.000000,0.000000,0.000000
13078976.000000,-2.347012,-1.662180,1.119296,-1.411926,1.738583,1.195433,-0.571816,0.625351,0.007398,1.256439,-0.444849,-0.425083,1.159873,-0.154685,-14.525409,26.232952,-8.190506,-8.343630,-0.300814,0.987045,-0.110001,0.000000,0.000000,0.000000,0.000000,0.000000,0.000000
13078977.000000,-2.346386,-1.662181,1.120570,-1.412365,1.738176,1.196594,-0.571954,0.625282,0.006634,1.253297,-0.440920,-0.419643,1.140847,-0.150870,-14.473834,26.304363,-8.384903,-8.490419,-0.246798,1.031905,-0.175919,0.000000,0.000000,0.000000,0.000000,0.000000,0.000000
13078978.000000,-2.345768,-1.662188,1.121817,-1.412813,1.737764,1.197780,-0.572102,0.619337,0.005712,1.248645,-0.440953,-0.416316,1.153018,-0.151574,-14.450030,26.673321,-8.607071,-8.466616,-0.276095,1.039230,-0.163102,0.000000,0.000000,0.000000,0.000000,0.000000,0.000000
13078979.000000,-2.345146,-1.662209,1.123059,-1.413266,1.737362,1.198967,-0.572247,0.618771,-0.001318,1.237009,-0.442387,-0.404914,1.159286,-0.151272,-14.279437,27.482647,-8.952225,-8.319826,-0.318209,1.052047,-0.163102,0.000000,0.000000,0.000000,0.000000,0.000000,0.000000
13078980.000000,-2.344526,-1.662226,1.124294,-1.413730,1.736977,1.200143,-0.572388,0.622381,-0.008065,1.234387,-0.450753,-0.395501,1.167197,-0.145976,-13.906512,28.533978,-9.491776,-8.069887,-0.377719,1.084090,-0.169511,0.000000,0.000000,0.000000,0.000000,0.000000,0.000000
13078981.000000,-2.343912,-1.662250,1.125494,-1.414191,1.736576,1.201346,-0.572524,0.622195,-0.014014,1.222583,-0.451568,-0.395640,1.173458,-0.143791,-13.509784,29.831280,-10.201920,-7.899293,-0.360323,1.012679,-0.136552,0.000000,0.000000,0.000000,0.000000,0.000000,0.000000
13078982.000000,-2.343300,-1.662263,1.126716,-1.414643,1.736185,1.202529,-0.572657,0.612554,-0.013451,1.218813,-0.454543,-0.393867,1.202395,-0.139232,-12.990069,31.104778,-11.209610,-7.776308,-0.282504,1.031905,-0.175919,0.000000,0.000000,0.000000,0.000000,0.000000,0.000000
13078983.000000,-2.342699,-1.662269,1.127912,-1.415099,1.735805,1.203722,-0.572802,0.606394,-0.012981,1.220224,-0.450767,-0.386087,1.205928,-0.144359,-12.470355,32.279095,-12.066544,-7.724733,-0.252291,1.117049,-0.116410,0.000000,0.000000,0.000000,0.000000,0.000000,0.000000
13078984.000000,-2.342095,-1.662271,1.129135,-1.415544,1.735412,1.204922,-0.572939,0.601998,-0.011800,1.218511,-0.448152,-0.386149,1.206395,-0.140743,-11.974444,33.306622,-13.121841,-7.847719,-0.174471,1.240646,-0.130143,0.000000,0.000000,0.000000,0.000000,0.000000,0.000000
13078985.000000,-2.341496,-1.662270,1.130373,-1.415985,1.735017,1.206098,-0.573068,0.602194,-0.008330,1.225985,-0.442031,-0.387489,1.204988,-0.135748,-11.430926,34.211163,-14.153336,-8.022280,-0.067355,1.396285,-0.196061,0.000000,0.000000,0.000000,0.000000,0.000000,0.000000
13078986.000000,-2.340912,-1.662267,1.131596,-1.416440,1.734619,1.207299,-0.573209,0.594758,-0.005340,1.228793,-0.442750,-0.383697,1.201612,-0.137325,-10.986590,34.945110,-15.061844,-8.097658,0.058073,1.474105,-0.136552,0.000000,0.000000,0.000000,0.000000,0.000000,0.000000
13078987.000000,-2.340319,-1.662267,1.132854,-1.416885,1.734237,1.208484,-0.573337,0.588271,-0.004818,1.234940,-0.444022,-0.386856,1.196503,-0.133729,-10.665240,35.607647,-16.117142,-8.169069,0.076383,1.630660,-0.196061,0.000000,0.000000,0.000000,0.000000,0.000000,0.000000
13078988.000000,-2.339737,-1.662262,1.134082,-1.417346,1.733851,1.209650,-0.573474,0.586943,-0.001386,1.230417,-0.445211,-0.383210,1.187548,-0.129628,-10.316119,36.123394,-16.831253,-8.097658,0.052579,1.727706,-0.169511,0.000000,0.000000,0.000000,0.000000,0.000000,0.000000
13078989.000000,-2.339147,-1.662265,1.135339,-1.417800,1.733459,1.210837,-0.573605,0.589758,-0.005740,1.236604,-0.445266,-0.383383,1.179538,-0.126560,-10.145526,36.635174,-17.517593,-8.046083,0.112089,1.649886,-0.142960,0.000000,0.000000,0.000000,0.000000,0.000000,0.000000
13078990.000000,-2.338563,-1.662270,1.136593,-1.418241,1.733092,1.212008,-0.573727,0.583672,-0.005033,1.236763,-0.442836,-0.379046,1.179986,-0.120602,-9.919391,37.099346,-17.886551,-8.097658,0.046171,1.584884,-0.202470,0.000000,0.000000,0.000000,0.000000,0.000000,0.000000
13078991.000000,-2.337993,-1.662278,1.137835,-1.418683,1.732718,1.213182,-0.573857,0.578527,-0.004155,1.240823,-0.442019,-0.374488,1.185011,-0.124899,-9.673419,37.539715,-18.251541,-8.196840,-0.049044,1.578475,-0.169511,0.000000,0.000000,0.000000,0.000000,0.000000,0.000000
13078992.000000,-2.337437,-1.662297,1.139105,-1.419105,1.732335,1.214351,-0.573988,0.566386,-0.008291,1.240156,-0.432978,-0.371516,1.181743,-0.122947,-9.252887,38.031658,-18.695877,-8.442812,-0.025240,1.597701,-0.142960,0.000000,0.000000,0.000000,0.000000,0.000000,0.000000
13078993.000000,-2.336889,-1.662329,1.140355,-1.419514,1.731978,1.215495,-0.574115,0.562798,-0.016891,1.266039,-0.424952,-0.371149,1.175144,-0.123110,-8.879962,38.618816,-18.941849,-8.887148,-0.079257,1.637069,-0.196061,0.000000,0.000000,0.000000,0.000000,0.000000,0.000000
13078994.000000,-2.336346,-1.662366,1.141649,-1.419931,1.731600,1.216646,-0.574243,0.548353,-0.023773,1.272139,-0.417525,-0.368943,1.172900,-0.120962,-8.411822,39.229778,-19.529007,-9.160891,-0.037142,1.735030,-0.188737,0.000000,0.000000,0.000000,0.000000,0.000000,0.000000
13078995.000000,-2.335803,-1.662404,1.142954,-1.420332,1.731240,1.217780,-0.574382,0.545778,-0.027693,1.280820,-0.412369,-0.366935,1.148119,-0.127227,-8.015094,39.793133,-20.092361,-9.553652,-0.019747,1.858627,-0.089860,0.000000,0.000000,0.000000,0.000000,0.000000,0.000000
13078996.000000,-2.335272,-1.662452,1.144252,-1.420741,1.730889,1.218945,-0.574505,0.543931,-0.032959,1.284411,-0.406296,-0.359119,1.153273,-0.126075,-7.618365,40.455669,-20.854080,-9.752016,-0.037142,1.779891,-0.149369,0.000000,0.000000,0.000000,0.000000,0.000000,0.000000
13078997.000000,-2.334749,-1.662497,1.145565,-1.421146,1.730523,1.220121,-0.574628,0.528118,-0.036801,1.286648,-0.413645,-0.365054,1.148279,-0.126616,-7.197833,40.991253,-21.492813,-9.898806,-0.007845,1.649886,-0.175919,0.000000,0.000000,0.000000,0.000000,0.000000,0.000000
13078998.000000,-2.334226,-1.662538,1.146864,-1.421550,1.730165,1.221268,-0.574763,0.539982,-0.037666,1.281951,-0.406142,-0.363478,1.139734,-0.125250,-6.924090,41.431622,-21.861771,-10.025759,-0.007845,1.637069,-0.116410,0.000000,0.000000,0.000000,0.000000,0.000000,0.000000
13078999.000000,-2.333700,-1.662589,1.148144,-1.421970,1.729803,1.222416,-0.574885,0.538066,-0.043431,1.284031,-0.405121,-0.362640,1.134788,-0.125328,-6.626544,41.947369,-22.179153,-9.926577,0.015958,1.727706,-0.155778,0.000000,0.000000,0.000000,0.000000,0.000000,0.000000
13079000.000000,-2.333183,-1.662626,1.149420,-1.422362,1.729450,1.223561,-0.575008,0.527926,-0.040767,1.275602,-0.400491,-0.361258,1.128032,-0.122853,-6.356768,42.288555,-22.179153,-9.997988,0.015958,1.916305,-0.142960,0.000000,0.000000,0.000000,0.000000,0.000000,0.000000
13079001.000000,-2.332683,-1.662674,1.150694,-1.422774,1.729080,1.224703,-0.575129,0.517089,-0.041986,1.275031,-0.404388,-0.361435,1.136709,-0.124407,-5.983843,42.756695,-22.254532,-9.851198,0.046171,1.974899,-0.163102,0.000000,0.000000,0.000000,0.000000,0.000000,0.000000
13079002.000000,-2.332180,-1.662709,1.151972,-1.423167,1.728729,1.225861,-0.575253,0.513451,-0.041300,1.265945,-0.398568,-0.353393,1.139272,-0.130872,-5.638690,43.026470,-22.107742,-9.827394,-0.019747,1.988631,-0.169511,0.000000,0.000000,0.000000,0.000000,0.000000,0.000000
13079003.000000,-2.331682,-1.662739,1.153286,-1.423580,1.728381,1.227008,-0.575377,0.504907,-0.039017,1.273886,-0.406836,-0.355355,1.139021,-0.125994,-5.293536,43.197063,-22.425125,-9.652834,-0.007845,1.962081,-0.175919,0.000000,0.000000,0.000000,0.000000,0.000000,0.000000
13079004.000000,-2.331199,-1.662770,1.154563,-1.423997,1.728026,1.228163,-0.575503,0.497443,-0.037279,1.276008,-0.404349,-0.355541,1.142310,-0.128081,-4.920611,43.343853,-22.548111,-9.406862,-0.007845,1.962081,-0.163102,0.000000,0.000000,0.000000,0.000000,0.000000,0.000000
13079005.000000,-2.330705,-1.662793,1.155858,-1.424407,1.727669,1.229323,-0.575627,0.493530,-0.030140,1.272991,-0.410993,-0.359525,1.145593,-0.125557,-4.646868,43.367657,-22.742508,-9.208498,0.010465,1.942855,-0.136552,0.000000,0.000000,0.000000,0.000000,0.000000,0.000000
13079006.000000,-2.330231,-1.662819,1.157158,-1.424828,1.727310,1.230467,-0.575746,0.486520,-0.028514,1.285250,-0.412116,-0.355465,1.143913,-0.120655,-4.301714,43.391460,-23.163040,-8.910952,0.166105,1.909896,-0.182328,0.000000,0.000000,0.000000,0.000000,0.000000,0.000000
13079007.000000,-2.329759,-1.662840,1.158461,-1.425243,1.726965,1.231623,-0.575866,0.482147,-0.021361,1.284013,-0.414138,-0.350994,1.143477,-0.124279,-3.980364,43.292278,-23.456619,-8.811769,0.171598,1.923629,-0.163102,0.000000,0.000000,0.000000,0.000000,0.000000,0.000000
13079008.000000,-2.329285,-1.662864,1.159786,-1.425661,1.726620,1.232759,-0.575988,0.473056,-0.021388,1.295152,-0.412494,-0.347822,1.143890,-0.121420,-3.682818,43.268475,-24.019974,-8.589602,0.171598,1.955673,-0.163102,0.000000,0.000000,0.000000,0.000000,0.000000,0.000000
13079009.000000,-2.328824,-1.662887,1.161066,-1.426076,1.726281,1.233909,-0.576107,0.467656,-0.020424,1.292479,-0.410823,-0.345400,1.147210,-0.120302,-3.309893,43.197063,-24.218338,-8.466616,0.178007,2.014266,-0.122819,0.000000,0.000000,0.000000,0.000000,0.000000,0.000000
13079010.000000,-2.328368,-1.662912,1.162356,-1.426494,1.725945,1.235062,-0.576213,0.459789,-0.021126,1.284963,-0.410015,-0.334991,1.147744,-0.115498,-2.940936,43.173260,-24.289749,-8.244448,0.195402,2.039901,-0.202470,0.000000,0.000000,0.000000,0.000000,0.000000,0.000000
13079011.000000,-2.327908,-1.662936,1.163634,-1.426936,1.725610,1.236187,-0.576337,0.463810,-0.021460,1.307180,-0.420393,-0.336006,1.150663,-0.117913,-2.690997,43.145489,-24.412735,-7.800111,0.201810,2.137862,-0.122819,0.000000,0.000000,0.000000,0.000000,0.000000,0.000000
13079012.000000,-2.327444,-1.662956,1.164916,-1.427367,1.725273,1.237336,-0.576451,0.463436,-0.020874,1.298101,-0.423916,-0.330786,1.144254,-0.116384,-2.445025,43.074078,-24.341324,-7.526369,0.189908,2.137862,-0.130143,0.000000,0.000000,0.000000,0.000000,0.000000,0.000000
13079013.000000,-2.326993,-1.662980,1.166219,-1.427804,1.724942,1.238477,-0.576557,0.454586,-0.018906,1.298028,-0.430149,-0.329582,1.142871,-0.112469,-2.099871,43.074078,-24.535721,-7.105836,0.225614,2.014266,-0.208878,0.000000,0.000000,0.000000,0.000000,0.000000,0.000000
13079014.000000,-2.326550,-1.663003,1.167500,-1.428246,1.724614,1.239638,-0.576674,0.449401,-0.020097,1.291812,-0.432275,-0.333332,1.140123,-0.114546,-1.802325,43.050274,-24.734085,-6.760683,0.267728,1.877853,-0.163102,0.000000,0.000000,0.000000,0.000000,0.000000,0.000000
13079015.000000,-2.326110,-1.663024,1.168805,-1.428687,1.724275,1.240801,-0.576786,0.441014,-0.020889,1.294646,-0.449347,-0.337145,1.133547,-0.114529,-1.405596,43.026470,-25.051468,-6.463136,0.332731,1.844894,-0.155778,0.000000,0.000000,0.000000,0.000000,0.000000,0.000000
13079016.000000,-2.325671,-1.663051,1.170125,-1.429139,1.723951,1.241926,-0.576896,0.436642,-0.022520,1.297990,-0.449765,-0.332581,1.129790,-0.113971,-1.008868,43.050274,-25.614822,-6.141786,0.332731,1.981307,-0.155778,0.000000,0.000000,0.000000,0.000000,0.000000,0.000000
13079017.000000,-2.325255,-1.663081,1.171424,-1.429588,1.723632,1.243059,-0.576999,0.432648,-0.025508,1.301940,-0.449935,-0.322942,1.129169,-0.107794,-0.564532,43.145489,-26.154373,-5.919618,0.303434,2.163497,-0.188737,0.000000,0.000000,0.000000,0.000000,0.000000,0.000000
13079018.000000,-2.324838,-1.663102,1.172722,-1.430038,1.723311,1.244198,-0.577109,0.425124,-0.024643,1.296338,-0.449623,-0.324268,1.128933,-0.110580,-0.044818,43.121685,-26.451920,-5.626039,0.356534,2.339278,-0.155778,0.000000,0.000000,0.000000,0.000000,0.000000,0.000000
13079019.000000,-2.324411,-1.663130,1.174000,-1.430488,1.722979,1.245328,-0.577219,0.425361,-0.028985,1.291296,-0.446280,-0.324046,1.132004,-0.106649,0.228925,43.173260,-26.598709,-5.451478,0.381254,2.397872,-0.149369,0.000000,0.000000,0.000000,0.000000,0.000000,0.000000
13079020.000000,-2.323995,-1.663149,1.175291,-1.430940,1.722654,1.246472,-0.577317,0.422801,-0.026617,1.288632,-0.447802,-0.323444,1.131874,-0.106486,0.601850,43.121685,-26.721695,-5.153932,0.398649,2.385055,-0.196061,0.000000,0.000000,0.000000,0.000000,0.000000,0.000000
13079021.000000,-2.323574,-1.663170,1.176568,-1.431404,1.722332,1.247599,-0.577424,0.424702,-0.025599,1.279154,-0.449888,-0.318831,1.130618,-0.104113,0.824018,43.097881,-26.574905,-4.784975,0.422452,2.345687,-0.175919,0.000000,0.000000,0.000000,0.000000,0.000000,0.000000
13079022.000000,-2.323154,-1.663193,1.177829,-1.431869,1.722005,1.248744,-0.577523,0.425523,-0.025455,1.277138,-0.454380,-0.320839,1.134773,-0.100688,1.022382,43.097881,-26.451920,-4.388246,0.482877,2.255050,-0.202470,0.000000,0.000000,0.000000,0.000000,0.000000,0.000000
13079023.000000,-2.322734,-1.663219,1.179085,-1.432337,1.721672,1.249898,-0.577630,0.422669,-0.026610,1.261951,-0.458808,-0.326321,1.140365,-0.100241,1.216779,43.145489,-26.106766,-3.967714,0.559781,2.112228,-0.175919,0.000000,0.000000,0.000000,0.000000,0.000000,0.000000
13079024.000000,-2.322326,-1.663239,1.180348,-1.432805,1.721351,1.251033,-0.577737,0.417519,-0.022485,1.263440,-0.460690,-0.327214,1.146797,-0.105079,1.442914,43.121685,-26.154373,-3.598757,0.637601,1.988631,-0.130143,0.000000,0.000000,0.000000,0.000000,0.000000,0.000000
13079025.000000,-2.321919,-1.663263,1.181605,-1.433274,1.721049,1.252183,-0.577835,0.416631,-0.024414,1.254770,-0.459730,-0.321369,1.147512,-0.100012,1.665082,43.173260,-25.936172,-3.325014,0.547880,1.909896,-0.188737,0.000000,0.000000,0.000000,0.000000,0.000000,0.000000
13079026.000000,-2.321503,-1.663286,1.182882,-1.433728,1.720745,1.253307,-0.577937,0.414351,-0.025117,1.257863,-0.463039,-0.319514,1.143694,-0.103091,1.811872,43.197063,-25.983780,-3.178224,0.506681,1.909896,-0.188737,0.000000,0.000000,0.000000,0.000000,0.000000,0.000000
13079027.000000,-2.321100,-1.663314,1.184123,-1.434179,1.720424,1.254446,-0.578042,0.414315,-0.026648,1.254788,-0.454686,-0.320633,1.142795,-0.102202,2.010236,43.268475,-25.860794,-3.178224,0.542386,1.942855,-0.155778,0.000000,0.000000,0.000000,0.000000,0.000000,0.000000
13079028.000000,-2.320698,-1.663330,1.185381,-1.434614,1.720114,1.255592,-0.578144,0.407187,-0.025428,1.247363,-0.460655,-0.311219,1.134537,-0.099612,2.184797,43.244671,-25.860794,-3.277406,0.542386,1.981307,-0.169511,0.000000,0.000000,0.000000,0.000000,0.000000,0.000000
13079029.000000,-2.320297,-1.663349,1.186613,-1.435057,1.719814,1.256713,-0.578246,0.405632,-0.024617,1.267826,-0.452719,-0.309313,1.126599,-0.097270,2.260175,43.220867,-25.813187,-3.249635,0.559781,2.104903,-0.196061,0.000000,0.000000,0.000000,0.000000,0.000000,0.000000
13079030.000000,-2.319886,-1.663365,1.187857,-1.435502,1.719504,1.257863,-0.578353,0.405401,-0.020950,1.257194,-0.449554,-0.308671,1.122688,-0.098121,2.283979,43.197063,-25.714005,-3.225832,0.613798,2.092086,-0.155778,0.000000,0.000000,0.000000,0.000000,0.000000,0.000000
13079031.000000,-2.319470,-1.663379,1.189101,-1.435934,1.719193,1.259021,-0.578447,0.409377,-0.016599,1.249505,-0.442563,-0.309461,1.138386,-0.099449,2.260175,43.097881,-25.690201,-3.154421,0.685209,1.871444,-0.215287,0.000000,0.000000,0.000000,0.000000,0.000000,0.000000
13079032.000000,-2.319059,-1.663388,1.190309,-1.436367,1.718887,1.260192,-0.578551,0.411338,-0.012952,1.233853,-0.438747,-0.304495,1.147346,-0.103961,2.133222,42.974895,-25.420425,-3.102846,0.745634,1.695663,-0.188737,0.000000,0.000000,0.000000,0.000000,0.000000,0.000000
13079033.000000,-2.318646,-1.663386,1.191539,-1.436783,1.718596,1.261359,-0.578652,0.411314,-0.006956,1.229948,-0.432614,-0.296662,1.151798,-0.102775,2.010236,42.705120,-25.273636,-3.102846,0.691617,1.605026,-0.155778,0.000000,0.000000,0.000000,0.000000,0.000000,0.000000
13079034.000000,-2.318234,-1.663388,1.192779,-1.437208,1.718313,1.262505,-0.578745,0.406865,-0.005269,1.228778,-0.427475,-0.295027,1.149582,-0.098221,2.010236,42.534527,-25.273636,-3.126650,0.613798,1.643478,-0.215287,0.000000,0.000000,0.000000,0.000000,0.000000,0.000000
13079035.000000,-2.317827,-1.663394,1.193999,-1.437614,1.718021,1.263654,-0.578853,0.406739,-0.005476,1.228636,-0.413872,-0.294429,1.148975,-0.099841,1.962629,42.435345,-25.321243,-3.277406,0.559781,1.767074,-0.149369,0.000000,0.000000,0.000000,0.000000,0.000000,0.000000
13079036.000000,-2.317424,-1.663402,1.195237,-1.438015,1.717743,1.264808,-0.578951,0.401943,-0.003199,1.224230,-0.409100,-0.296146,1.144200,-0.097521,1.962629,42.363934,-25.468033,-3.376589,0.464567,1.916305,-0.169511,0.000000,0.000000,0.000000,0.000000,0.000000,0.000000
13079037.000000,-2.317022,-1.663405,1.196462,-1.438410,1.717467,1.265937,-0.579050,0.403091,-0.003893,1.229472,-0.401604,-0.291861,1.142307,-0.101004,1.887250,42.264751,-25.714005,-3.499574,0.422452,2.112228,-0.182328,0.000000,0.000000,0.000000,0.000000,0.000000,0.000000
13079038.000000,-2.316621,-1.663405,1.197725,-1.438806,1.717190,1.267086,-0.579145,0.402397,-0.003281,1.237570,-0.401191,-0.285738,1.139979,-0.103073,1.911054,42.117962,-26.277359,-3.570986,0.434354,2.209274,-0.208878,0.000000,0.000000,0.000000,0.000000,0.000000,0.000000
13079039.000000,-2.316214,-1.663414,1.198962,-1.439193,1.716915,1.268222,-0.579251,0.403074,-0.008396,1.230663,-0.393397,-0.280886,1.144315,-0.103002,1.887250,42.070354,-26.475723,-3.670168,0.440763,2.196456,-0.149369,0.000000,0.000000,0.000000,0.000000,0.000000,0.000000
13079040.000000,-2.315813,-1.663415,1.200174,-1.439598,1.716630,1.269370,-0.579346,0.402199,-0.007710,1.221910,-0.393615,-0.281133,1.147569,-0.100759,1.788068,41.971172,-26.547134,-3.475771,0.571683,2.177230,-0.136552,0.000000,0.000000,0.000000,0.000000,0.000000,0.000000
13079041.000000,-2.315413,-1.663428,1.201388,-1.439981,1.716367,1.270510,-0.579436,0.400872,-0.010848,1.212925,-0.391223,-0.280733,1.144097,-0.096221,1.788068,42.022747,-26.451920,-3.400392,0.601896,2.190048,-0.215287,0.000000,0.000000,0.000000,0.000000,0.000000,0.000000
13079042.000000,-2.315016,-1.663432,1.202587,-1.440367,1.716102,1.271638,-0.579539,0.401502,-0.009793,1.212329,-0.392929,-0.277065,1.137827,-0.098053,1.764264,41.947369,-26.328934,-3.325014,0.625699,2.169906,-0.155778,0.000000,0.000000,0.000000,0.000000,0.000000,0.000000
13079043.000000,-2.314610,-1.663438,1.203798,-1.440746,1.715845,1.272771,-0.579627,0.402955,-0.009737,1.208031,-0.383312,-0.271187,1.129759,-0.090568,1.712690,41.899761,-26.154373,-3.301210,0.571683,2.228500,-0.202470,0.000000,0.000000,0.000000,0.000000,0.000000,0.000000
13079044.000000,-2.314218,-1.663447,1.204997,-1.441113,1.715586,1.273903,-0.579719,0.397146,-0.011228,1.197687,-0.380555,-0.270281,1.126762,-0.091362,1.811872,41.923565,-25.690201,-3.348818,0.470060,2.098495,-0.202470,0.000000,0.000000,0.000000,0.000000,0.000000,0.000000
13079045.000000,-2.313837,-1.663458,1.206201,-1.441486,1.715319,1.275050,-0.579811,0.393092,-0.012317,1.198229,-0.376144,-0.268339,1.129518,-0.088919,1.911054,41.947369,-25.666397,-3.348818,0.452665,2.001449,-0.163102,0.000000,0.000000,0.000000,0.000000,0.000000,0.000000
13079046.000000,-2.313453,-1.663458,1.207397,-1.441849,1.715066,1.276197,-0.579896,0.390537,-0.006980,1.193575,-0.372839,-0.264328,1.133894,-0.083598,2.085615,41.848186,-25.420425,-3.376589,0.369352,1.988631,-0.215287,0.000000,0.000000,0.000000,0.000000,0.000000,0.000000
13079047.000000,-2.313068,-1.663465,1.208612,-1.442229,1.714813,1.277322,-0.579991,0.399091,-0.008073,1.196201,-0.373335,-0.259850,1.136338,-0.088912,2.184797,41.824383,-25.420425,-3.277406,0.369352,2.001449,-0.142960,0.000000,0.000000,0.000000,0.000000,0.000000,0.000000
13079048.000000,-2.312685,-1.663471,1.209800,-1.442588,1.714541,1.278470,-0.580074,0.395812,-0.008320,1.193545,-0.364233,-0.265309,1.135857,-0.089273,2.260175,41.776775,-25.297440,-3.424196,0.500272,1.923629,-0.175919,0.000000,0.000000,0.000000,0.000000,0.000000,0.000000
13079049.000000,-2.312316,-1.663472,1.211006,-1.442948,1.714287,1.279614,-0.580162,0.386122,-0.003591,1.191146,-0.360870,-0.264674,1.146146,-0.094673,2.482343,41.653790,-25.321243,-3.448000,0.494779,1.747848,-0.188737,0.000000,0.000000,0.000000,0.000000,0.000000,0.000000
13079050.000000,-2.311945,-1.663472,1.212189,-1.443304,1.714030,1.280757,-0.580252,0.382110,-0.003812,1.193640,-0.356022,-0.260317,1.143850,-0.090699,2.605329,41.554607,-25.345047,-3.547182,0.512174,1.708480,-0.169511,0.000000,0.000000,0.000000,0.000000,0.000000,0.000000
13079051.000000,-2.311567,-1.663468,1.213370,-1.443656,1.713787,1.281894,-0.580335,0.376710,-0.003609,1.183187,-0.363307,-0.253879,1.137307,-0.086660,2.704511,41.431622,-25.150650,-3.598757,0.446256,1.800033,-0.175919,0.000000,0.000000,0.000000,0.000000,0.000000,0.000000
13079052.000000,-2.311192,-1.663469,1.214564,-1.444014,1.713538,1.283017,-0.580426,0.369785,-0.001579,1.180745,-0.362626,-0.248641,1.134343,-0.084424,2.803693,41.360210,-25.003860,-3.523378,0.488370,1.858627,-0.155778,0.000000,0.000000,0.000000,0.000000,0.000000,0.000000
13079053.000000,-2.310822,-1.663464,1.215715,-1.444367,1.713287,1.284150,-0.580506,0.369151,0.001192,1.170075,-0.360632,-0.246125,1.134749,-0.081073,2.803693,41.237225,-24.634903,-3.475771,0.464567,1.988631,-0.182328,0.000000,0.000000,0.000000,0.000000,0.000000,0.000000
13079054.000000,-2.310449,-1.663454,1.216879,-1.444722,1.713043,1.285292,-0.580592,0.365384,0.004311,1.160952,-0.359583,-0.248169,1.133453,-0.084419,2.827497,41.066631,-24.313553,-3.301210,0.434354,2.020675,-0.182328,0.000000,0.000000,0.000000,0.000000,0.000000,0.000000
13079055.000000,-2.310076,-1.663442,1.218045,-1.445064,1.712797,1.286430,-0.580675,0.366863,0.005952,1.164773,-0.354731,-0.246942,1.137703,-0.087078,2.779890,40.919842,-24.265945,-3.277406,0.410551,1.916305,-0.175919,0.000000,0.000000,0.000000,0.000000,0.000000,0.000000
13079056.000000,-2.309700,-1.663426,1.219223,-1.445410,1.712559,1.287587,-0.580758,0.371044,0.014452,1.167034,-0.350120,-0.240171,1.131544,-0.089146,2.728315,40.725445,-24.218338,-3.178224,0.369352,1.760665,-0.169511,0.000000,0.000000,0.000000,0.000000,0.000000,0.000000
13079057.000000,-2.309327,-1.663412,1.220425,-1.445750,1.712319,1.288720,-0.580841,0.370021,0.016580,1.174469,-0.345399,-0.239062,1.109841,-0.089489,2.704511,40.578655,-24.436539,-3.126650,0.422452,1.649886,-0.188737,0.000000,0.000000,0.000000,0.000000,0.000000,0.000000
13079058.000000,-2.308968,-1.663404,1.221595,-1.446087,1.712073,1.289860,-0.580923,0.365881,0.013877,1.173287,-0.341914,-0.236070,1.110656,-0.091026,2.752119,40.479473,-24.535721,-3.178224,0.434354,1.656295,-0.196061,0.000000,0.000000,0.000000,0.000000,0.000000,0.000000
13079059.000000,-2.308605,-1.663397,1.222809,-1.446411,1.711827,1.290997,-0.581010,0.366412,0.011392,1.181659,-0.335691,-0.235284,1.110577,-0.088920,2.827497,40.404095,-25.075272,-3.277406,0.476469,1.747848,-0.149369,0.000000,0.000000,0.000000,0.000000,0.000000,0.000000
13079060.000000,-2.308249,-1.663385,1.223990,-1.446741,1.711596,1.292115,-0.581086,0.363723,0.010755,1.209793,-0.336309,-0.233123,1.111817,-0.083698,2.926679,40.281109,-25.368851,-3.301210,0.482877,1.865035,-0.196061,0.000000,0.000000,0.000000,0.000000,0.000000,0.000000
13079061.000000,-2.307883,-1.663384,1.225171,-1.447056,1.711367,1.293235,-0.581169,0.361699,0.007383,1.200304,-0.327697,-0.234176,1.110980,-0.083176,2.902875,40.281109,-25.420425,-3.570986,0.446256,1.962081,-0.155778,0.000000,0.000000,0.000000,0.000000,0.000000,0.000000
13079062.000000,-2.307519,-1.663378,1.226361,-1.447381,1.711138,1.294346,-0.581246,0.360922,0.009370,1.193420,-0.325321,-0.233438,1.115882,-0.084807,2.851301,40.233501,-25.491837,-3.570986,0.482877,2.001449,-0.182328,0.000000,0.000000,0.000000,0.000000,0.000000,0.000000
13079063.000000,-2.307159,-1.663376,1.227521,-1.447695,1.710915,1.295469,-0.581327,0.360126,0.007188,1.181187,-0.323361,-0.228530,1.114546,-0.082319,2.803693,40.209698,-25.368851,-3.670168,0.405057,2.053634,-0.188737,0.000000,0.000000,0.000000,0.000000,0.000000,0.000000
13079064.000000,-2.306785,-1.663375,1.228693,-1.448015,1.710687,1.296600,-0.581414,0.361113,0.007809,1.171830,-0.324657,-0.225878,1.114947,-0.082485,2.652936,40.233501,-25.198257,-3.547182,0.351041,2.047225,-0.136552,0.000000,0.000000,0.000000,0.000000,0.000000,0.000000
13079065.000000,-2.306419,-1.663375,1.229858,-1.448338,1.710463,1.297727,-0.581490,0.371935,0.007633,1.162418,-0.326466,-0.226041,1.128208,-0.078518,2.529951,40.281109,-24.880875,-3.376589,0.339139,1.916305,-0.188737,0.000000,0.000000,0.000000,0.000000,0.000000,0.000000
13079066.000000,-2.306049,-1.663371,1.231003,-1.448662,1.710232,1.298871,-0.581573,0.374382,0.006824,1.156496,-0.324001,-0.223413,1.133333,-0.078288,2.331586,40.233501,-24.535721,-3.202028,0.398649,1.741439,-0.175919,0.000000,0.000000,0.000000,0.000000,0.000000,0.000000
13079067.000000,-2.305683,-1.663369,1.232180,-1.448975,1.710010,1.299993,-0.581651,0.374066,0.005015,1.158196,-0.320759,-0.221568,1.141533,-0.077533,2.208601,40.233501,-24.488113,-3.079042,0.452665,1.637069,-0.175919,0.000000,0.000000,0.000000,0.000000,0.000000,0.000000
13079068.000000,-2.305325,-1.663362,1.233314,-1.449278,1.709801,1.301119,-0.581731,0.372726,0.004807,1.157484,-0.314155,-0.219136,1.133543,-0.078022,2.133222,40.185894,-24.119156,-3.126650,0.362943,1.649886,-0.149369,0.000000,0.000000,0.000000,0.000000,0.000000,0.000000
13079069.000000,-2.304961,-1.663366,1.234484,-1.449571,1.709565,1.302256,-0.581803,0.367941,0.001240,1.152080,-0.308407,-0.229239,1.117475,-0.075834,2.061811,40.281109,-24.095352,-3.225832,0.452665,1.643478,-0.188737,0.000000,0.000000,0.000000,0.000000,0.000000,0.000000
13079070.000000,-2.304601,-1.663365,1.235651,-1.449863,1.709344,1.303378,-0.581886,0.360636,0.000373,1.150077,-0.300928,-0.229095,1.114316,-0.076542,2.034040,40.308880,-23.972366,-3.348818,0.464567,1.714889,-0.163102,0.000000,0.000000,0.000000,0.000000,0.000000,0.000000
13079071.000000,-2.304247,-1.663364,1.236804,-1.450153,1.709137,1.304502,-0.581957,0.356400,0.000396,1.153199,-0.296701,-0.219900,1.117682,-0.075036,1.934858,40.308880,-23.972366,-3.523378,0.381254,1.890670,-0.196061,0.000000,0.000000,0.000000,0.000000,0.000000,0.000000
13079072.000000,-2.303875,-1.663345,1.237973,-1.450447,1.708925,1.305638,-0.582034,0.363920,0.008187,1.152392,-0.296141,-0.220045,1.113804,-0.075453,1.665082,40.110516,-24.095352,-3.499574,0.369352,1.995040,-0.188737,0.000000,0.000000,0.000000,0.000000,0.000000,0.000000
13079073.000000,-2.303502,-1.663340,1.239118,-1.450733,1.708718,1.306770,-0.582115,0.371724,0.006919,1.150759,-0.290231,-0.209780,1.128238,-0.081542,1.415143,40.062908,-24.043777,-3.547182,0.297025,1.897079,-0.149369,0.000000,0.000000,0.000000,0.000000,0.000000,0.000000
13079074.000000,-2.303130,-1.663332,1.240270,-1.451027,1.708501,1.307907,-0.582181,0.375932,0.006636,1.150072,-0.294195,-0.211331,1.129614,-0.077482,1.121564,39.987530,-23.920792,-3.523378,0.344633,1.844894,-0.215287,0.000000,0.000000,0.000000,0.000000,0.000000,0.000000
13079075.000000,-2.302749,-1.663317,1.241418,-1.451311,1.708283,1.309025,-0.582260,0.378365,0.007404,1.147614,-0.292682,-0.211797,1.109015,-0.074452,0.724836,39.868511,-23.702591,-3.547182,0.374845,1.877853,-0.155778,0.000000,0.000000,0.000000,0.000000,0.000000,0.000000
13079076.000000,-2.302382,-1.663298,1.242544,-1.451597,1.708073,1.310153,-0.582330,0.377286,0.012900,1.139419,-0.289029,-0.209447,1.119752,-0.074725,0.427289,39.670147,-23.456619,-3.523378,0.351041,1.877853,-0.142960,0.000000,0.000000,0.000000,0.000000,0.000000,0.000000
13079077.000000,-2.302005,-1.663284,1.243691,-1.451878,1.707856,1.311300,-0.582395,0.373974,0.015149,1.133297,-0.285325,-0.210768,1.129638,-0.077285,0.153547,39.547161,-23.309830,-3.547182,0.405057,1.786300,-0.202470,0.000000,0.000000,0.000000,0.000000,0.000000,0.000000
13079078.000000,-2.301632,-1.663272,1.244822,-1.452143,1.707656,1.312415,-0.582471,0.373080,0.014349,1.156494,-0.276190,-0.208252,1.131011,-0.078376,-0.116229,39.523357,-23.186844,-3.721742,0.362943,1.773483,-0.163102,0.000000,0.000000,0.000000,0.000000,0.000000,0.000000
13079079.000000,-2.301261,-1.663257,1.245978,-1.452422,1.707457,1.313552,-0.582534,0.373489,0.015088,1.150389,-0.278579,-0.206638,1.136290,-0.071231,-0.266986,39.451946,-23.258255,-3.646364,0.332731,1.702071,-0.208878,0.000000,0.000000,0.000000,0.000000,0.000000,0.000000
13079080.000000,-2.300892,-1.663243,1.247152,-1.452676,1.707260,1.314654,-0.582608,0.370003,0.015208,1.154915,-0.269910,-0.205314,1.124082,-0.068660,-0.413775,39.400372,-23.504227,-3.868532,0.291532,1.754256,-0.182328,0.000000,0.000000,0.000000,0.000000,0.000000,0.000000
13079081.000000,-2.300530,-1.663234,1.248314,-1.452935,1.707062,1.315773,-0.582681,0.368547,0.010983,1.161248,-0.264256,-0.203808,1.114397,-0.070950,-0.588336,39.400372,-23.873184,-3.920107,0.231107,1.825668,-0.169511,0.000000,0.000000,0.000000,0.000000,0.000000,0.000000
13079082.000000,-2.300176,-1.663222,1.249480,-1.453184,1.706855,1.316889,-0.582747,0.361631,0.008512,1.161674,-0.264788,-0.201611,1.100631,-0.066614,-0.540728,39.376568,-24.142960,-3.991518,0.267728,1.949264,-0.188737,0.000000,0.000000,0.000000,0.000000,0.000000,0.000000
13079083.000000,-2.299816,-1.663218,1.250654,-1.453435,1.706659,1.317992,-0.582821,0.362501,0.007555,1.159820,-0.258320,-0.203569,1.102809,-0.070965,-0.687518,39.451946,-24.388931,-4.142274,0.273221,1.995040,-0.136552,0.000000,0.000000,0.000000,0.000000,0.000000,0.000000
13079084.000000,-2.299467,-1.663215,1.251800,-1.453688,1.706457,1.319117,-0.582880,0.354886,0.003430,1.157042,-0.256748,-0.200591,1.098770,-0.070522,-0.635943,39.547161,-24.488113,-4.166078,0.303434,2.014266,-0.175919,0.000000,0.000000,0.000000,0.000000,0.000000,0.000000
13079085.000000,-2.299108,-1.663202,1.252958,-1.453928,1.706266,1.320234,-0.582948,0.350026,0.003865,1.155978,-0.251095,-0.197570,1.107901,-0.072218,-0.762896,39.499554,-24.583328,-4.241457,0.303434,2.072860,-0.163102,0.000000,0.000000,0.000000,0.000000,0.000000,0.000000
13079086.000000,-2.298753,-1.663196,1.254081,-1.454172,1.706076,1.321341,-0.583010,0.350040,0.004970,1.144591,-0.247829,-0.193425,1.111444,-0.072580,-0.885882,39.547161,-24.365128,-4.265260,0.255826,2.039901,-0.175919,0.000000,0.000000,0.000000,0.000000,0.000000,0.000000
13079087.000000,-2.298405,-1.663191,1.255221,-1.454419,1.705863,1.322456,-0.583077,0.346145,0.003189,1.141691,-0.247302,-0.198551,1.107960,-0.074765,-0.862078,39.574932,-24.071548,-4.213686,0.297025,1.981307,-0.136552,0.000000,0.000000,0.000000,0.000000,0.000000,0.000000
13079088.000000,-2.298052,-1.663183,1.256354,-1.454666,1.705665,1.323564,-0.583139,0.348209,0.001963,1.137167,-0.246555,-0.196253,1.109231,-0.068824,-0.885882,39.598736,-23.651016,-4.166078,0.303434,1.981307,-0.169511,0.000000,0.000000,0.000000,0.000000,0.000000,0.000000
13079089.000000,-2.297710,-1.663173,1.257477,-1.454914,1.705469,1.324676,-0.583199,0.345565,0.005871,1.132051,-0.246505,-0.197151,1.113232,-0.064654,-0.933489,39.547161,-23.381241,-4.066896,0.261320,2.001449,-0.202470,0.000000,0.000000,0.000000,0.000000,0.000000,0.000000
13079090.000000,-2.297373,-1.663159,1.258628,-1.455153,1.705277,1.325805,-0.583265,0.342071,0.006061,1.132367,-0.242778,-0.201309,1.115999,-0.068659,-0.885882,39.475750,-23.309830,-4.142274,0.213712,1.942855,-0.169511,0.000000,0.000000,0.000000,0.000000,0.000000,0.000000
13079091.000000,-2.297046,-1.663149,1.259748,-1.455396,1.705089,1.326916,-0.583325,0.338904,0.007555,1.131816,-0.238903,-0.197380,1.114153,-0.064672,-0.762896,39.475750,-23.087662,-4.142274,0.189908,1.779891,-0.196061,0.000000,0.000000,0.000000,0.000000,0.000000,0.000000
13079092.000000,-2.296721,-1.663133,1.260894,-1.455635,1.704897,1.328041,-0.583392,0.330344,0.011058,1.134077,-0.235740,-0.196450,1.107367,-0.065499,-0.588336,39.376568,-23.135269,-4.142274,0.225614,1.670028,-0.122819,0.000000,0.000000,0.000000,0.000000,0.000000,0.000000
13079093.000000,-2.296396,-1.663115,1.262042,-1.455873,1.704708,1.329138,-0.583441,0.325508,0.014083,1.132091,-0.236142,-0.194004,1.081945,-0.060011,-0.389971,39.253582,-23.063858,-4.166078,0.213712,1.689254,-0.202470,0.000000,0.000000,0.000000,0.000000,0.000000,0.000000
13079094.000000,-2.296088,-1.663097,1.263186,-1.456116,1.704514,1.330255,-0.583503,0.317727,0.016199,1.136629,-0.234382,-0.193352,1.084535,-0.060452,-0.144000,39.130596,-23.234451,-4.118471,0.237516,1.721298,-0.163102,0.000000,0.000000,0.000000,0.000000,0.000000,0.000000
13079095.000000,-2.295773,-1.663082,1.264320,-1.456347,1.704321,1.331384,-0.583560,0.318398,0.013305,1.139605,-0.231887,-0.193544,1.091853,-0.059273,-0.044818,39.059185,-23.210648,-4.142274,0.273221,1.682845,-0.169511,0.000000,0.000000,0.000000,0.000000,0.000000,0.000000
13079096.000000,-2.295459,-1.663071,1.265437,-1.456584,1.704134,1.332480,-0.583619,0.320075,0.013201,1.154274,-0.231689,-0.188568,1.091300,-0.057859,0.129743,39.035381,-23.111465,-4.090700,0.303434,1.714889,-0.188737,0.000000,0.000000,0.000000,0.000000,0.000000,0.000000
13079097.000000,-2.295146,-1.663053,1.266568,-1.456825,1.703949,1.333597,-0.583679,0.319672,0.015590,1.146529,-0.235133,-0.188578,1.088008,-0.059307,0.205121,38.912395,-22.988480,-4.019289,0.320829,1.754256,-0.149369,0.000000,0.000000,0.000000,0.000000,0.000000,0.000000
13079098.000000,-2.294834,-1.663036,1.267702,-1.457059,1.703778,1.334693,-0.583731,0.317218,0.019876,1.139323,-0.235430,-0.185688,1.118713,-0.056005,0.276533,38.813213,-22.865494,-3.920107,0.249418,1.812850,-0.215287,0.000000,0.000000,0.000000,0.000000,0.000000,0.000000
13079099.000000,-2.294537,-1.663018,1.268809,-1.457291,1.703595,1.335818,-0.583795,0.311141,0.020440,1.126365,-0.231533,-0.186312,1.129527,-0.058233,0.403486,38.690228,-22.647293,-3.820925,0.237516,1.779891,-0.163102,0.000000,0.000000,0.000000,0.000000,0.000000,0.000000
13079100.000000,-2.294240,-1.662998,1.269935,-1.457528,1.703411,1.336954,-0.583855,0.306940,0.023991,1.119635,-0.238392,-0.186397,1.139762,-0.057270,0.502668,38.571209,-22.425125,-3.670168,0.219205,1.624252,-0.175919,0.000000,0.000000,0.000000,0.000000,0.000000,0.000000
13079101.000000,-2.293942,-1.662982,1.271080,-1.457758,1.703230,1.338081,-0.583915,0.302505,0.022167,1.123938,-0.233315,-0.181264,1.143118,-0.057467,0.673261,38.495831,-22.524307,-3.598757,0.189908,1.481429,-0.163102,0.000000,0.000000,0.000000,0.000000,0.000000,0.000000
13079102.000000,-2.293651,-1.662956,1.272208,-1.457998,1.703045,1.339199,-0.583970,0.298762,0.023833,1.123060,-0.232464,-0.179163,1.129737,-0.056232,0.824018,38.301434,-22.647293,-3.400392,0.213712,1.448470,-0.188737,0.000000,0.000000,0.000000,0.000000,0.000000,0.000000
13079103.000000,-2.293362,-1.662939,1.273356,-1.458225,1.702861,1.340327,-0.584031,0.295678,0.019442,1.130049,-0.232652,-0.183562,1.121700,-0.057737,0.994611,38.202251,-22.794083,-3.301210,0.261320,1.487838,-0.155778,0.000000,0.000000,0.000000,0.000000,0.000000,0.000000
13079104.000000,-2.293085,-1.662919,1.274502,-1.458454,1.702677,1.341430,-0.584092,0.288846,0.019932,1.140034,-0.229738,-0.186752,1.111047,-0.058387,1.268354,38.079266,-23.186844,-3.325014,0.315336,1.578475,-0.130143,0.000000,0.000000,0.000000,0.000000,0.000000,0.000000
13079105.000000,-2.292810,-1.662906,1.275657,-1.458685,1.702497,1.342545,-0.584142,0.284069,0.017867,1.143790,-0.230926,-0.187921,1.102363,-0.055428,1.514325,38.055462,-23.555801,-3.225832,0.332731,1.754256,-0.196061,0.000000,0.000000,0.000000,0.000000,0.000000,0.000000
13079106.000000,-2.292534,-1.662886,1.276808,-1.458912,1.702329,1.343644,-0.584202,0.282223,0.018913,1.140217,-0.227388,-0.184824,1.095566,-0.057384,1.712690,37.932476,-23.726395,-3.178224,0.249418,1.909896,-0.149369,0.000000,0.000000,0.000000,0.000000,0.000000,0.000000
13079107.000000,-2.292255,-1.662874,1.277944,-1.459136,1.702142,1.344760,-0.584250,0.283666,0.017320,1.143437,-0.226858,-0.182158,1.107167,-0.055266,1.788068,37.908672,-23.849380,-3.154421,0.279630,2.001449,-0.188737,0.000000,0.000000,0.000000,0.000000,0.000000,0.000000
13079108.000000,-2.291977,-1.662854,1.279091,-1.459365,1.701964,1.345885,-0.584307,0.280492,0.019159,1.141909,-0.229586,-0.182397,1.104832,-0.055623,1.863447,37.761883,-23.896988,-3.027467,0.267728,2.014266,-0.188737,0.000000,0.000000,0.000000,0.000000,0.000000,0.000000
13079109.000000,-2.291697,-1.662835,1.280213,-1.459607,1.701793,1.346986,-0.584363,0.285389,0.019281,1.131169,-0.231429,-0.182577,1.110611,-0.056598,1.835676,37.662701,-23.801773,-2.757692,0.231107,1.988631,-0.169511,0.000000,0.000000,0.000000,0.000000,0.000000,0.000000
13079110.000000,-2.291417,-1.662819,1.281339,-1.459844,1.701613,1.348108,-0.584414,0.284163,0.017615,1.125643,-0.232188,-0.182693,1.108420,-0.051402,1.811872,37.638897,-23.528030,-2.511720,0.320829,1.916305,-0.182328,0.000000,0.000000,0.000000,0.000000,0.000000,0.000000
13079111.000000,-2.291141,-1.662804,1.282474,-1.460083,1.701441,1.349209,-0.584472,0.275038,0.019575,1.126055,-0.235575,-0.181675,1.093313,-0.049412,1.811872,37.615093,-23.309830,-2.261781,0.381254,1.812850,-0.142960,0.000000,0.000000,0.000000,0.000000,0.000000,0.000000
13079112.000000,-2.290867,-1.662785,1.283594,-1.460322,1.701276,1.350321,-0.584514,0.280079,0.016111,1.120819,-0.233176,-0.177406,1.102796,-0.043987,1.764264,37.539715,-23.135269,-2.063417,0.362943,1.806442,-0.208878,0.000000,0.000000,0.000000,0.000000,0.000000,0.000000
13079113.000000,-2.290601,-1.662771,1.284735,-1.460544,1.701101,1.351427,-0.584570,0.275541,0.015327,1.121059,-0.232680,-0.174410,1.097723,-0.048628,1.911054,37.515911,-23.087662,-2.039613,0.339139,1.858627,-0.169511,0.000000,0.000000,0.000000,0.000000,0.000000,0.000000
13079114.000000,-2.290347,-1.662755,1.285844,-1.460762,1.700936,1.352544,-0.584621,0.272981,0.015587,1.146793,-0.230326,-0.170171,1.097810,-0.050245,2.109418,37.468304,-22.841690,-2.039613,0.261320,1.702071,-0.175919,0.000000,0.000000,0.000000,0.000000,0.000000,0.000000
13079115.000000,-2.290081,-1.662744,1.286984,-1.460984,1.700761,1.353666,-0.584671,0.272677,0.011402,1.146076,-0.228415,-0.166894,1.093401,-0.051927,2.184797,37.468304,-22.917068,-2.039613,0.303434,1.605026,-0.175919,0.000000,0.000000,0.000000,0.000000,0.000000,0.000000
13079118.000000,-2.289299,-1.662719,1.290398,-1.461618,1.700266,1.356987,-0.584818,0.265421,0.010557,1.135068,-0.215562,-0.164136,1.107841,-0.044570,2.260175,37.615093,-23.063858,-2.015810,0.398649,1.714889,-0.155778,0.000000,0.000000,0.000000,0.000000,0.000000,0.000000
13079119.000000,-2.289033,-1.662711,1.291536,-1.461825,1.700106,1.358108,-0.584863,0.265985,0.010786,1.130089,-0.213687,-0.162404,1.111279,-0.046393,2.232404,37.638897,-23.087662,-2.063417,0.446256,1.539108,-0.182328,0.000000,0.000000,0.000000,0.000000,0.000000,0.000000
13079120.000000,-2.288765,-1.662699,1.292653,-1.462037,1.699954,1.359212,-0.584913,0.269541,0.011400,1.127365,-0.215303,-0.156057,1.108811,-0.049744,2.061811,37.638897,-23.040054,-1.992006,0.369352,1.572067,-0.163102,0.000000,0.000000,0.000000,0.000000,0.000000,0.000000
13079121.000000,-2.288496,-1.662687,1.293771,-1.462234,1.699793,1.360317,-0.584958,0.267169,0.012418,1.121862,-0.208355,-0.158954,1.107515,-0.045839,1.934858,37.615093,-22.841690,-1.992006,0.381254,1.714889,-0.188737,0.000000,0.000000,0.000000,0.000000,0.000000,0.000000
13079122.000000,-2.288233,-1.662682,1.294863,-1.462433,1.699632,1.361416,-0.585006,0.264313,0.007037,1.111508,-0.204092,-0.156777,1.110140,-0.048799,1.887250,37.714275,-22.500504,-1.964235,0.381254,1.682845,-0.182328,0.000000,0.000000,0.000000,0.000000,0.000000,0.000000
13079123.000000,-2.287962,-1.662670,1.295978,-1.462637,1.699476,1.362533,-0.585049,0.265796,0.006707,1.110225,-0.204338,-0.150236,1.104475,-0.050050,1.811872,37.662701,-22.278336,-1.916628,0.374845,1.676437,-0.202470,0.000000,0.000000,0.000000,0.000000,0.000000,0.000000
13079124.000000,-2.287699,-1.662654,1.297110,-1.462822,1.699331,1.363621,-0.585097,0.262148,0.009911,1.116637,-0.198539,-0.148488,1.093972,-0.047484,1.811872,37.591290,-22.254532,-1.992006,0.320829,1.760665,-0.188737,0.000000,0.000000,0.000000,0.000000,0.000000,0.000000
13079125.000000,-2.287440,-1.662640,1.298229,-1.463015,1.699184,1.364744,-0.585149,0.260516,0.008532,1.114507,-0.195697,-0.146878,1.103937,-0.046106,1.863447,37.539715,-22.377518,-1.992006,0.267728,1.708480,-0.155778,0.000000,0.000000,0.000000,0.000000,0.000000,0.000000
13079126.000000,-2.287170,-1.662626,1.299376,-1.463198,1.699031,1.365870,-0.585188,0.260562,0.009952,1.121324,-0.192959,-0.149226,1.105476,-0.046950,1.740461,37.515911,-22.671097,-2.039613,0.297025,1.597701,-0.202470,0.000000,0.000000,0.000000,0.000000,0.000000,0.000000
13079127.000000,-2.286912,-1.662616,1.300506,-1.463386,1.698888,1.366971,-0.585238,0.259426,0.006746,1.127187,-0.190922,-0.145311,1.112800,-0.051314,1.688886,37.539715,-22.940872,-2.091188,0.303434,1.591293,-0.149369,0.000000,0.000000,0.000000,0.000000,0.000000,0.000000
13079128.000000,-2.286647,-1.662600,1.301663,-1.463567,1.698739,1.368075,-0.585283,0.257501,0.009724,1.132668,-0.185230,-0.147365,1.104414,-0.053242,1.542096,37.468304,-23.432816,-2.190370,0.327238,1.649886,-0.130143,0.000000,0.000000,0.000000,0.000000,0.000000,0.000000
13079129.000000,-2.286385,-1.662592,1.302820,-1.463743,1.698589,1.369159,-0.585318,0.255217,0.009628,1.134954,-0.181711,-0.144007,1.082920,-0.051222,1.415143,37.492107,-23.750198,-2.261781,0.339139,1.760665,-0.202470,0.000000,0.000000,0.000000,0.000000,0.000000,0.000000
13079130.000000,-2.286135,-1.662582,1.303945,-1.463909,1.698436,1.370260,-0.585360,0.252213,0.010215,1.133768,-0.173157,-0.146362,1.080639,-0.047289,1.343732,37.492107,-23.896988,-2.436342,0.356534,1.786300,-0.215287,0.000000,0.000000,0.000000,0.000000,0.000000,0.000000
13079131.000000,-2.285881,-1.662578,1.305073,-1.464069,1.698285,1.371358,-0.585407,0.252730,0.008906,1.127496,-0.170599,-0.147856,1.087320,-0.047212,1.268354,37.567486,-23.896988,-2.606935,0.369352,1.825668,-0.155778,0.000000,0.000000,0.000000,0.000000,0.000000,0.000000
13079132.000000,-2.285617,-1.662575,1.306205,-1.464233,1.698144,1.372437,-0.585446,0.256846,0.004566,1.127175,-0.165967,-0.142871,1.087357,-0.043929,1.093793,37.662701,-23.825577,-2.757692,0.351041,1.890670,-0.175919,0.000000,0.000000,0.000000,0.000000,0.000000,0.000000
13079133.000000,-2.285355,-1.662574,1.307309,-1.464404,1.698000,1.373526,-0.585479,0.256328,0.001366,1.121413,-0.166589,-0.143831,1.082678,-0.035693,0.895429,37.761883,-23.528030,-2.733888,0.332731,1.909896,-0.235429,0.000000,0.000000,0.000000,0.000000,0.000000,0.000000
13079134.000000,-2.285092,-1.662570,1.308434,-1.464566,1.697857,1.374606,-0.585531,0.259129,0.002246,1.115541,-0.163971,-0.141024,1.097896,-0.039492,0.697065,37.861065,-23.357437,-2.706117,0.339139,1.936446,-0.149369,0.000000,0.000000,0.000000,0.000000,0.000000,0.000000
13079135.000000,-2.284834,-1.662574,1.309535,-1.464730,1.697722,1.375713,-0.585564,0.257886,-0.001868,1.107296,-0.161747,-0.136217,1.091517,-0.036924,0.502668,38.031658,-23.040054,-2.658510,0.273221,1.832076,-0.202470,0.000000,0.000000,0.000000,0.000000,0.000000,0.000000
13079136.000000,-2.284581,-1.662570,1.310671,-1.464889,1.697585,1.376849,-0.585604,0.254169,0.000727,1.109005,-0.159845,-0.138947,1.100804,-0.037447,0.403486,38.103069,-23.087662,-2.634706,0.243009,1.572067,-0.196061,0.000000,0.000000,0.000000,0.000000,0.000000,0.000000
13079137.000000,-2.284334,-1.662567,1.311800,-1.465038,1.697445,1.377957,-0.585651,0.254032,-0.000106,1.113544,-0.154339,-0.141140,1.110094,-0.043879,0.351911,38.154644,-22.988480,-2.781496,0.213712,1.396285,-0.149369,0.000000,0.000000,0.000000,0.000000,0.000000,0.000000
13079138.000000,-2.284085,-1.662563,1.312912,-1.465184,1.697296,1.379068,-0.585685,0.251286,0.002496,1.108554,-0.148107,-0.145413,1.110202,-0.040505,0.276533,38.202251,-22.940872,-2.880678,0.267728,1.357833,-0.196061,0.000000,0.000000,0.000000,0.000000,0.000000,0.000000
13079139.000000,-2.283844,-1.662566,1.314045,-1.465317,1.697150,1.380164,-0.585730,0.246148,0.000516,1.110313,-0.142155,-0.146682,1.105768,-0.046709,0.328107,38.277630,-22.964676,-3.055238,0.285123,1.546432,-0.142960,0.000000,0.000000,0.000000,0.000000,0.000000,0.000000
13079140.000000,-2.283606,-1.662561,1.315158,-1.465447,1.697002,1.381243,-0.585765,0.243642,0.000805,1.116561,-0.137892,-0.150265,1.105324,-0.043143,0.351911,38.277630,-22.964676,-3.225832,0.356534,1.747848,-0.175919,0.000000,0.000000,0.000000,0.000000,0.000000,0.000000
13079141.000000,-2.283365,-1.662562,1.316281,-1.465570,1.696861,1.382355,-0.585800,0.239846,0.000883,1.113079,-0.134205,-0.144716,1.103936,-0.041833,0.328107,38.277630,-23.016251,-3.424196,0.339139,1.800033,-0.175919,0.000000,0.000000,0.000000,0.000000,0.000000,0.000000
13079142.000000,-2.283120,-1.662555,1.317419,-1.465696,1.696728,1.383453,-0.585836,0.238588,0.002611,1.116685,-0.133291,-0.139026,1.103022,-0.040441,0.228925,38.202251,-23.135269,-3.547182,0.273221,1.773483,-0.182328,0.000000,0.000000,0.000000,0.000000,0.000000,0.000000
13079143.000000,-2.282878,-1.662553,1.318528,-1.465825,1.696591,1.384572,-0.585870,0.238318,0.003049,1.116909,-0.130759,-0.140941,1.103021,-0.039442,0.054365,38.154644,-23.135269,-3.598757,0.249418,1.741439,-0.188737,0.000000,0.000000,0.000000,0.000000,0.000000,0.000000
13079144.000000,-2.282628,-1.662546,1.319634,-1.465953,1.696457,1.385678,-0.585913,0.241639,0.004499,1.107066,-0.128692,-0.137390,1.095613,-0.040731,-0.191607,38.055462,-22.940872,-3.523378,0.207303,1.779891,-0.142960,0.000000,0.000000,0.000000,0.000000,0.000000,0.000000
13079145.000000,-2.282380,-1.662544,1.320728,-1.466087,1.696325,1.386772,-0.585940,0.245571,0.003108,1.123770,-0.132382,-0.140810,1.099313,-0.037392,-0.413775,38.055462,-22.694901,-3.348818,0.201810,1.825668,-0.208878,0.000000,0.000000,0.000000,0.000000,0.000000,0.000000
13079146.000000,-2.282132,-1.662544,1.321840,-1.466211,1.696184,1.387885,-0.585979,0.245662,0.002154,1.117073,-0.131164,-0.144516,1.098671,-0.039238,-0.588336,38.055462,-22.548111,-3.325014,0.237516,1.779891,-0.163102,0.000000,0.000000,0.000000,0.000000,0.000000,0.000000
13079147.000000,-2.281882,-1.662539,1.322967,-1.466328,1.696050,1.388993,-0.586011,0.242094,0.003818,1.113282,-0.126036,-0.139975,1.085799,-0.033372,-0.810504,37.956280,-22.623489,-3.348818,0.201810,1.682845,-0.182328,0.000000,0.000000,0.000000,0.000000,0.000000,0.000000
13079148.000000,-2.281642,-1.662534,1.324079,-1.466432,1.695913,1.390106,-0.586051,0.240830,0.003705,1.114962,-0.119914,-0.137414,1.084812,-0.035761,-0.961260,37.908672,-22.694901,-3.598757,0.183500,1.637069,-0.149369,0.000000,0.000000,0.000000,0.000000,0.000000,0.000000
13079149.000000,-2.281409,-1.662530,1.325221,-1.466540,1.695778,1.391216,-0.586080,0.236843,0.003618,1.117888,-0.120861,-0.137966,1.086794,-0.034329,-1.008868,37.861065,-22.964676,-3.745546,0.231107,1.637069,-0.202470,0.000000,0.000000,0.000000,0.000000,0.000000,0.000000
13079150.000000,-2.281176,-1.662533,1.326363,-1.466642,1.695643,1.392304,-0.586117,0.235373,0.001325,1.122586,-0.115438,-0.138313,1.092722,-0.036411,-1.084246,37.908672,-23.258255,-3.920107,0.279630,1.676437,-0.169511,0.000000,0.000000,0.000000,0.000000,0.000000,0.000000
13079151.000000,-2.280950,-1.662531,1.327501,-1.466755,1.695520,1.393384,-0.586150,0.233644,0.001459,1.129349,-0.115511,-0.135532,1.088304,-0.036274,-1.131854,37.884869,-23.750198,-3.920107,0.255826,1.877853,-0.182328,0.000000,0.000000,0.000000,0.000000,0.000000,0.000000
13079152.000000,-2.280718,-1.662536,1.328645,-1.466858,1.695396,1.394454,-0.586182,0.232513,-0.000683,1.127849,-0.111361,-0.134092,1.089955,-0.036157,-1.183428,37.956280,-24.095352,-3.967714,0.243009,2.027084,-0.196061,0.000000,0.000000,0.000000,0.000000,0.000000,0.000000
13079153.000000,-2.280488,-1.662542,1.329770,-1.466963,1.695273,1.395554,-0.586221,0.229835,-0.002208,1.130331,-0.109477,-0.128527,1.088603,-0.038340,-1.282611,38.031658,-24.341324,-3.943910,0.231107,1.949264,-0.149369,0.000000,0.000000,0.000000,0.000000,0.000000,0.000000
13079154.000000,-2.280257,-1.662547,1.330903,-1.467065,1.695151,1.396660,-0.586245,0.228350,-0.003134,1.127310,-0.107440,-0.127374,1.082423,-0.036074,-1.429400,38.103069,-24.388931,-3.943910,0.178007,1.877853,-0.202470,0.000000,0.000000,0.000000,0.000000,0.000000,0.000000
13079155.000000,-2.280026,-1.662549,1.332044,-1.467161,1.695033,1.397741,-0.586285,0.230421,-0.002733,1.123189,-0.105854,-0.126985,1.077887,-0.034251,-1.552386,38.130840,-24.464310,-3.943910,0.129484,1.890670,-0.136552,0.000000,0.000000,0.000000,0.000000,0.000000,0.000000
13079156.000000,-2.279794,-1.662557,1.333139,-1.467265,1.694901,1.398835,-0.586310,0.229985,-0.004044,1.120586,-0.105720,-0.128972,1.073893,-0.033519,-1.726946,38.226055,-24.119156,-3.892336,0.147794,1.962081,-0.175919,0.000000,0.000000,0.000000,0.000000,0.000000,0.000000
13079157.000000,-2.279571,-1.662568,1.334254,-1.467360,1.694763,1.399927,-0.586343,0.226418,-0.006683,1.109686,-0.100567,-0.132498,1.078331,-0.034593,-1.802325,38.396648,-23.873184,-3.920107,0.219205,1.968490,-0.175919,0.000000,0.000000,0.000000,0.000000,0.000000,0.000000
13079158.000000,-2.279356,-1.662577,1.335342,-1.467461,1.694632,1.401006,-0.586372,0.223725,-0.006773,1.099921,-0.098101,-0.135169,1.078545,-0.035155,-1.849932,38.495831,-23.432816,-3.892336,0.297025,1.955673,-0.182328,0.000000,0.000000,0.000000,0.000000,0.000000,0.000000
13079159.000000,-2.279132,-1.662579,1.336473,-1.467552,1.694508,1.402103,-0.586401,0.222910,-0.005070,1.109377,-0.097514,-0.129171,1.080393,-0.031090,-1.949114,38.519634,-23.432816,-3.943910,0.291532,1.949264,-0.182328,0.000000,0.000000,0.000000,0.000000,0.000000,0.000000
13079160.000000,-2.278913,-1.662585,1.337594,-1.467640,1.694391,1.403200,-0.586434,0.217721,-0.004585,1.109691,-0.094221,-0.127321,1.094124,-0.033847,-1.972918,38.571209,-23.309830,-3.991518,0.225614,1.819259,-0.149369,0.000000,0.000000,0.000000,0.000000,0.000000,0.000000
13079161.000000,-2.278700,-1.662592,1.338698,-1.467728,1.694271,1.404310,-0.586457,0.216817,-0.005283,1.107727,-0.091465,-0.123334,1.105513,-0.033262,-2.000689,38.666424,-23.210648,-4.043092,0.213712,1.682845,-0.196061,0.000000,0.000000,0.000000,0.000000,0.000000,0.000000
13079162.000000,-2.278486,-1.662602,1.339826,-1.467817,1.694144,1.405407,-0.586491,0.210318,-0.005841,1.108653,-0.090720,-0.125475,1.099221,-0.035962,-2.072100,38.765606,-23.286026,-4.043092,0.213712,1.656295,-0.155778,0.000000,0.000000,0.000000,0.000000,0.000000,0.000000
13079163.000000,-2.278275,-1.662607,1.340938,-1.467898,1.694035,1.406480,-0.586515,0.209185,-0.005564,1.133217,-0.088450,-0.119243,1.093193,-0.030091,-2.123675,38.837017,-23.381241,-4.118471,0.123990,1.779891,-0.196061,0.000000,0.000000,0.000000,0.000000,0.000000,0.000000
13079164.000000,-2.278073,-1.662615,1.342065,-1.467978,1.693915,1.407576,-0.586548,0.203328,-0.006029,1.132432,-0.086421,-0.119015,1.086655,-0.029797,-2.099871,38.936199,-23.480423,-4.213686,0.154203,1.793624,-0.130143,0.000000,0.000000,0.000000,0.000000,0.000000,0.000000
13079165.000000,-2.277864,-1.662622,1.343199,-1.468049,1.693797,1.408664,-0.586571,0.205009,-0.005782,1.128837,-0.080596,-0.117805,1.107613,-0.030133,-2.199053,39.011578,-23.627213,-4.364442,0.154203,1.767074,-0.169511,0.000000,0.000000,0.000000,0.000000,0.000000,0.000000
13079166.000000,-2.277667,-1.662630,1.344295,-1.468127,1.693671,1.409766,-0.586598,0.201402,-0.008574,1.118822,-0.077861,-0.117673,1.101947,-0.027810,-2.222857,39.082989,-23.555801,-4.439821,0.178007,1.689254,-0.155778,0.000000,0.000000,0.000000,0.000000,0.000000,0.000000
13079167.000000,-2.277462,-1.662636,1.345408,-1.468201,1.693545,1.410859,-0.586618,0.202618,-0.007084,1.113051,-0.075147,-0.118572,1.100269,-0.024091,-2.298235,39.130596,-23.504227,-4.535036,0.231107,1.741439,-0.196061,0.000000,0.000000,0.000000,0.000000,0.000000,0.000000
13079168.000000,-2.277257,-1.662642,1.346517,-1.468279,1.693423,1.411940,-0.586644,0.204503,-0.005563,1.107588,-0.076293,-0.113983,1.098114,-0.022357,-2.397418,39.158367,-23.309830,-4.511232,0.273221,1.786300,-0.208878,0.000000,0.000000,0.000000,0.000000,0.000000,0.000000
13079169.000000,-2.277050,-1.662639,1.347604,-1.468353,1.693300,1.413039,-0.586672,0.202412,-0.005072,1.103005,-0.076898,-0.114683,1.101511,-0.023770,-2.520403,39.082989,-23.087662,-4.487428,0.315336,1.741439,-0.149369,0.000000,0.000000,0.000000,0.000000,0.000000,0.000000
13079170.000000,-2.276847,-1.662639,1.348716,-1.468423,1.693186,1.414139,-0.586692,0.201251,-0.006351,1.101456,-0.077185,-0.114303,1.105405,-0.021254,-2.643389,39.059185,-23.040054,-4.463624,0.320829,1.735030,-0.182328,0.000000,0.000000,0.000000,0.000000,0.000000,0.000000
13079171.000000,-2.276647,-1.662638,1.349820,-1.468496,1.693083,1.415232,-0.586718,0.202419,-0.003651,1.101918,-0.074688,-0.109081,1.104203,-0.021658,-2.718768,39.011578,-23.087662,-4.412050,0.189908,1.643478,-0.155778,0.000000,0.000000,0.000000,0.000000,0.000000,0.000000
13079172.000000,-2.276455,-1.662637,1.350952,-1.468559,1.692970,1.416346,-0.586742,0.198609,-0.004911,1.107949,-0.073636,-0.109423,1.095052,-0.020602,-2.718768,38.960003,-23.409012,-4.463624,0.166105,1.507064,-0.163102,0.000000,0.000000,0.000000,0.000000,0.000000,0.000000
13079173.000000,-2.276267,-1.662633,1.352087,-1.468627,1.692862,1.417429,-0.586766,0.191834,-0.002176,1.114061,-0.071564,-0.104385,1.089054,-0.020147,-2.690997,38.888592,-23.678787,-4.439821,0.123990,1.552840,-0.163102,0.000000,0.000000,0.000000,0.000000,0.000000,0.000000
13079174.000000,-2.276083,-1.662637,1.353215,-1.468688,1.692755,1.418526,-0.586791,0.186765,-0.002994,1.121683,-0.068646,-0.100908,1.090906,-0.020305,-2.643389,38.936199,-24.071548,-4.463624,0.093778,1.649886,-0.149369,0.000000,0.000000,0.000000,0.000000,0.000000,0.000000
13079175.000000,-2.275906,-1.662635,1.354354,-1.468745,1.692637,1.419611,-0.586809,0.184579,-0.001761,1.126121,-0.065584,-0.107054,1.082857,-0.017904,-2.544207,38.912395,-24.388931,-4.535036,0.183500,1.877853,-0.202470,0.000000,0.000000,0.000000,0.000000,0.000000,0.000000
13079176.000000,-2.275730,-1.662637,1.355478,-1.468800,1.692519,1.420678,-0.586835,0.183010,-0.001972,1.124355,-0.063221,-0.110535,1.078864,-0.019964,-2.421221,38.936199,-24.706314,-4.610414,0.237516,2.079269,-0.155778,0.000000,0.000000,0.000000,0.000000,0.000000,0.000000
13079177.000000,-2.275552,-1.662639,1.356603,-1.468857,1.692409,1.421777,-0.586854,0.177079,-0.002053,1.118893,-0.062920,-0.110392,1.080195,-0.018445,-2.345843,38.960003,-24.829300,-4.634218,0.231107,2.104903,-0.188737,0.000000,0.000000,0.000000,0.000000,0.000000,0.000000
13079178.000000,-2.275366,-1.662641,1.357732,-1.468911,1.692299,1.422865,-0.586879,0.178568,-0.001504,1.120459,-0.059425,-0.110622,1.090668,-0.020081,-2.397418,38.960003,-24.928482,-4.661989,0.225614,2.085677,-0.149369,0.000000,0.000000,0.000000,0.000000,0.000000,0.000000
13079179.000000,-2.275197,-1.662640,1.358832,-1.468980,1.692194,1.423965,-0.586892,0.174061,-0.000548,1.114834,-0.064862,-0.108913,1.097433,-0.017480,-2.369647,38.936199,-24.829300,-4.463624,0.171598,2.033492,-0.208878,0.000000,0.000000,0.000000,0.000000,0.000000,0.000000
13079180.000000,-2.275015,-1.662642,1.359948,-1.469046,1.692083,1.425063,-0.586916,0.176625,-0.000442,1.106131,-0.065627,-0.110170,1.089662,-0.019413,-2.468829,38.936199,-24.658707,-4.265260,0.178007,1.988631,-0.169511,0.000000,0.000000,0.000000,0.000000,0.000000,0.000000
13079181.000000,-2.274843,-1.662645,1.361063,-1.469113,1.691976,1.426138,-0.586935,0.179407,-0.000909,1.104226,-0.066416,-0.111877,1.086285,-0.019200,-2.492632,38.960003,-24.412735,-4.043092,0.207303,2.007858,-0.169511,0.000000,0.000000,0.000000,0.000000,0.000000,0.000000
13079182.000000,-2.274673,-1.662647,1.362160,-1.469175,1.691870,1.427226,-0.586953,0.175346,-0.000649,1.100556,-0.065646,-0.106488,1.081287,-0.018663,-2.492632,38.960003,-24.190567,-3.868532,0.189908,2.027084,-0.182328,0.000000,0.000000,0.000000,0.000000,0.000000,0.000000
13079183.000000,-2.274514,-1.662645,1.363281,-1.469228,1.691761,1.428315,-0.586971,0.169436,0.000649,1.097808,-0.065201,-0.103344,1.091540,-0.018463,-2.369647,38.912395,-24.142960,-3.820925,0.189908,1.974899,-0.188737,0.000000,0.000000,0.000000,0.000000,0.000000,0.000000
13079184.000000,-2.274366,-1.662652,1.364383,-1.469272,1.691660,1.429412,-0.586988,0.164321,-0.001262,1.104007,-0.058502,-0.103421,1.090415,-0.014121,-2.199053,38.983807,-24.119156,-3.920107,0.129484,1.909896,-0.182328,0.000000,0.000000,0.000000,0.000000,0.000000,0.000000
13079185.000000,-2.274221,-1.662652,1.365501,-1.469316,1.691553,1.430516,-0.587010,0.158463,0.000254,1.104805,-0.054045,-0.101847,1.088743,-0.016742,-1.949114,38.936199,-24.119156,-4.019289,0.141385,1.825668,-0.142960,0.000000,0.000000,0.000000,0.000000,0.000000,0.000000
13079186.000000,-2.274076,-1.662651,1.366636,-1.469360,1.691443,1.431600,-0.587020,0.152992,0.000713,1.110218,-0.051440,-0.101536,1.086417,-0.010471,-1.750750,38.912395,-24.265945,-4.090700,0.178007,1.800033,-0.196061,0.000000,0.000000,0.000000,0.000000,0.000000,0.000000
13079187.000000,-2.273930,-1.662655,1.367745,-1.469412,1.691335,1.432679,-0.587043,0.150476,-0.000092,1.110255,-0.052904,-0.099447,1.088657,-0.014403,-1.627764,38.936199,-24.313553,-4.019289,0.178007,1.949264,-0.149369,0.000000,0.000000,0.000000,0.000000,0.000000,0.000000
13079188.000000,-2.273785,-1.662661,1.368862,-1.469453,1.691218,1.433775,-0.587059,0.149005,-0.001183,1.103091,-0.048611,-0.100166,1.090518,-0.015463,-1.528582,38.983807,-24.412735,-4.043092,0.237516,1.955673,-0.149369,0.000000,0.000000,0.000000,0.000000,0.000000,0.000000
13079189.000000,-2.273646,-1.662664,1.369961,-1.469500,1.691103,1.434869,-0.587072,0.145329,-0.004605,1.104683,-0.047600,-0.103971,1.090304,-0.015718,-1.453204,39.011578,-24.412735,-3.967714,0.261320,1.812850,-0.163102,0.000000,0.000000,0.000000,0.000000,0.000000,0.000000
13079190.000000,-2.273509,-1.662667,1.371070,-1.469545,1.690995,1.435974,-0.587087,0.142696,-0.002688,1.103205,-0.050013,-0.104881,1.079123,-0.016547,-1.381793,38.983807,-24.341324,-3.892336,0.231107,1.714889,-0.163102,0.000000,0.000000,0.000000,0.000000,0.000000,0.000000
13079191.000000,-2.273366,-1.662665,1.372174,-1.469586,1.690886,1.437058,-0.587097,0.142161,-0.000880,1.095636,-0.047221,-0.102308,1.083301,-0.015831,-1.381793,38.936199,-24.218338,-3.868532,0.237516,1.714889,-0.196061,0.000000,0.000000,0.000000,0.000000,0.000000,0.000000
13079192.000000,-2.273233,-1.662664,1.373256,-1.469622,1.690784,1.438143,-0.587115,0.137392,0.000377,1.092448,-0.044559,-0.102145,1.085630,-0.017789,-1.330218,38.888592,-23.948563,-3.868532,0.171598,1.844894,-0.163102,0.000000,0.000000,0.000000,0.000000,0.000000,0.000000
13079193.000000,-2.273099,-1.662669,1.374352,-1.469666,1.690675,1.439248,-0.587127,0.136433,-0.000419,1.086202,-0.045566,-0.105886,1.084165,-0.017100,-1.282611,38.912395,-23.726395,-3.745546,0.195402,1.844894,-0.188737,0.000000,0.000000,0.000000,0.000000,0.000000,0.000000
13079194.000000,-2.272971,-1.662672,1.375429,-1.469703,1.690563,1.440339,-0.587144,0.136053,-0.000364,1.081117,-0.044030,-0.108385,1.089564,-0.018510,-1.231036,38.912395,-23.504227,-3.721742,0.219205,1.786300,-0.163102,0.000000,0.000000,0.000000,0.000000,0.000000,0.000000
13079195.000000,-2.272847,-1.662665,1.376546,-1.469744,1.690465,1.441437,-0.587155,0.131732,0.002571,1.092962,-0.043902,-0.106591,1.091862,-0.017318,-1.131854,38.789410,-23.678787,-3.646364,0.147794,1.825668,-0.196061,0.000000,0.000000,0.000000,0.000000,0.000000,0.000000
13079196.000000,-2.272723,-1.662657,1.377681,-1.469776,1.690363,1.442522,-0.587171,0.131396,0.005100,1.100796,-0.042542,-0.106933,1.097443,-0.014555,-1.032672,38.642620,-23.996170,-3.622560,0.105680,1.838485,-0.155778,0.000000,0.000000,0.000000,0.000000,0.000000,0.000000
13079197.000000,-2.272603,-1.662657,1.378785,-1.469807,1.690253,1.443628,-0.587181,0.124596,0.002807,1.101828,-0.038479,-0.111334,1.105158,-0.009858,-0.909686,38.666424,-24.218338,-3.598757,0.178007,1.760665,-0.182328,0.000000,0.000000,0.000000,0.000000,0.000000,0.000000
13079198.000000,-2.272488,-1.662659,1.379914,-1.469845,1.690144,1.444726,-0.587201,0.122053,0.001845,1.103772,-0.038483,-0.113318,1.098169,-0.009358,-0.786700,38.666424,-24.634903,-3.448000,0.219205,1.754256,-0.130143,0.000000,0.000000,0.000000,0.000000,0.000000,0.000000
13079199.000000,-2.272369,-1.662656,1.381048,-1.469869,1.690037,1.445801,-0.587207,0.123360,0.001767,1.112855,-0.036616,-0.113910,1.085056,-0.009851,-0.711321,38.642620,-25.003860,-3.499574,0.237516,1.851302,-0.175919,0.000000,0.000000,0.000000,0.000000,0.000000,0.000000
13079200.000000,-2.272255,-1.662657,1.382165,-1.469897,1.689931,1.446882,-0.587218,0.122221,0.001163,1.114089,-0.034688,-0.113534,1.075627,-0.011445,-0.612139,38.642620,-25.297440,-3.448000,0.243009,1.988631,-0.196061,0.000000,0.000000,0.000000,0.000000,0.000000,0.000000
13079201.000000,-2.272140,-1.662665,1.383270,-1.469924,1.689822,1.447961,-0.587235,0.119511,-0.001556,1.106649,-0.033119,-0.114582,1.080104,-0.015385,-0.588336,38.741802,-25.150650,-3.400392,0.273221,2.014266,-0.142960,0.000000,0.000000,0.000000,0.000000,0.000000,0.000000
13079202.000000,-2.272029,-1.662668,1.384373,-1.469953,1.689715,1.449059,-0.587238,0.118504,-0.002160,1.107312,-0.030179,-0.109965,1.083317,-0.009234,-0.588336,38.789410,-25.198257,-3.301210,0.291532,1.930038,-0.202470,0.000000,0.000000,0.000000,0.000000,0.000000,0.000000
13079203.000000,-2.271913,-1.662675,1.385467,-1.469979,1.689618,1.450144,-0.587253,0.114745,-0.003766,1.096301,-0.030264,-0.104893,1.075797,-0.008771,-0.612139,38.888592,-24.904678,-3.225832,0.267728,1.936446,-0.155778,0.000000,0.000000,0.000000,0.000000,0.000000,0.000000
13079204.000000,-2.271794,-1.662677,1.386582,-1.470005,1.689520,1.451217,-0.587263,0.113482,-0.003072,1.097507,-0.028361,-0.096714,1.081798,-0.005766,-0.711321,38.912395,-24.829300,-3.102846,0.249418,1.916305,-0.175919,0.000000,0.000000,0.000000,0.000000,0.000000,0.000000
13079205.000000,-2.271684,-1.662684,1.387658,-1.470032,1.689421,1.452307,-0.587271,0.112912,-0.003722,1.092177,-0.027356,-0.095504,1.090746,-0.003359,-0.711321,38.983807,-24.464310,-2.956056,0.237516,1.877853,-0.202470,0.000000,0.000000,0.000000,0.000000,0.000000,0.000000
13079206.000000,-2.271577,-1.662692,1.388760,-1.470055,1.689318,1.453401,-0.587286,0.109404,-0.004804,1.093056,-0.025512,-0.101175,1.088384,-0.009098,-0.711321,39.082989,-24.313553,-2.856874,0.285123,1.844894,-0.155778,0.000000,0.000000,0.000000,0.000000,0.000000,0.000000
13079207.000000,-2.271476,-1.662694,1.389847,-1.470071,1.689225,1.454481,-0.587293,0.105454,-0.003205,1.092387,-0.021016,-0.097024,1.089435,-0.010437,-0.635943,39.082989,-24.190567,-2.880678,0.225614,1.786300,-0.182328,0.000000,0.000000,0.000000,0.000000,0.000000,0.000000
13079208.000000,-2.271383,-1.662697,1.390948,-1.470084,1.689129,1.455593,-0.587304,0.104247,-0.005194,1.088908,-0.018027,-0.096314,1.081873,-0.008330,-0.489153,39.082989,-24.119156,-2.904482,0.219205,1.578475,-0.169511,0.000000,0.000000,0.000000,0.000000,0.000000,0.000000
13079209.000000,-2.271292,-1.662697,1.392074,-1.470089,1.689032,1.456679,-0.587311,0.099635,-0.005790,1.098923,-0.013630,-0.097167,1.086452,-0.005243,-0.314593,39.035381,-24.313553,-3.027467,0.249418,1.546432,-0.196061,0.000000,0.000000,0.000000,0.000000,0.000000,0.000000
13079210.000000,-2.271199,-1.662701,1.393164,-1.470093,1.688938,1.457775,-0.587323,0.095784,-0.006940,1.093858,-0.008015,-0.095899,1.092178,-0.009502,-0.243182,39.011578,-24.289749,-3.126650,0.243009,1.578475,-0.175919,0.000000,0.000000,0.000000,0.000000,0.000000,0.000000
13079211.000000,-2.271108,-1.662705,1.394269,-1.470095,1.688835,1.458869,-0.587331,0.095828,-0.004585,1.089567,-0.007680,-0.096907,1.083678,-0.011377,-0.167803,38.983807,-24.289749,-3.202028,0.279630,1.702071,-0.188737,0.000000,0.000000,0.000000,0.000000,0.000000,0.000000
13079212.000000,-2.271017,-1.662709,1.395362,-1.470099,1.688731,1.459946,-0.587339,0.092752,-0.003512,1.114276,-0.008143,-0.097756,1.082047,-0.012967,-0.092425,38.983807,-24.365128,-3.249635,0.320829,1.832076,-0.196061,0.000000,0.000000,0.000000,0.000000,0.000000,0.000000
13079213.000000,-2.270922,-1.662713,1.396453,-1.470100,1.688640,1.461046,-0.587344,0.092424,-0.002127,1.104065,-0.005210,-0.098183,1.083112,-0.009054,-0.116229,38.960003,-24.265945,-3.301210,0.237516,1.877853,-0.215287,0.000000,0.000000,0.000000,0.000000,0.000000,0.000000
13079214.000000,-2.270825,-1.662717,1.397550,-1.470098,1.688546,1.462141,-0.587359,0.093474,-0.004180,1.096209,-0.003101,-0.096091,1.088868,-0.010031,-0.191607,38.936199,-24.166763,-3.348818,0.201810,1.838485,-0.130143,0.000000,0.000000,0.000000,0.000000,0.000000,0.000000
