chaoyuefei/paper-gmrm-data/robot_logs/s2_dq_mrm_min_0.50_log_20260314_174230.csv
# time_ms,q_0,q_1,q_2,q_3,q_4,q_5,q_6,dq_0,dq_1,dq_2,dq_3,dq_4,dq_5,dq_6,tau_J_0,tau_J_1,tau_J_2,tau_J_3,tau_J_4,tau_J_5,tau_J_6,O_dP_EE_c_0,O_dP_EE_c_1,O_dP_EE_c_2,O_dP_EE_c_3,O_dP_EE_c_4,O_dP_EE_c_5
12812351.000000,-2.417847,-1.662618,1.040140,-1.352874,1.798088,1.079518,-0.546494,-0.000292,0.000038,-0.000526,0.000198,-0.000591,-0.000042,-0.000998,0.030561,41.629986,-20.977066,-5.749025,0.828947,1.312057,0.048385,0.000000,0.000000,0.000000,0.000000,0.000000,0.000000
12812352.000000,-2.417845,-1.662620,1.040142,-1.352873,1.798089,1.079518,-0.546488,0.000362,-0.000532,0.000206,0.000689,0.000047,-0.000028,0.000793,0.006757,41.653790,-21.000870,-5.772829,0.817045,1.312057,0.009017,0.000000,0.000000,0.000000,0.000000,0.000000,0.000000
12812353.000000,-2.417847,-1.662618,1.040143,-1.352873,1.798091,1.079519,-0.546489,-0.000315,0.000202,0.000694,0.000459,-0.000410,0.000456,-0.000183,0.030561,41.629986,-21.024673,-5.772829,0.828947,1.299239,0.028243,0.000000,0.000000,0.000000,0.000000,0.000000,0.000000
12812354.000000,-2.417846,-1.662620,1.040140,-1.352876,1.798090,1.079518,-0.546486,-0.000767,-0.000422,-0.000651,-0.000900,-0.000070,-0.000171,0.000861,0.054365,41.653790,-20.977066,-5.721254,0.823453,1.312057,0.001693,0.000000,0.000000,0.000000,0.000000,0.000000,0.000000
12812355.000000,-2.417840,-1.662623,1.040144,-1.352876,1.798087,1.079519,-0.546496,0.009471,-0.002333,0.000123,0.001888,-0.009075,-0.000826,-0.010070,0.304304,41.606182,-21.000870,-5.697450,0.817045,1.331283,0.034652,0.000000,0.000000,0.000000,0.000000,0.000000,0.000000
12812356.000000,-2.417832,-1.662625,1.040147,-1.352873,1.798090,1.079513,-0.546505,0.018325,-0.005350,0.002929,0.007609,-0.003296,-0.002386,-0.010193,1.343732,41.360210,-20.977066,-5.550661,0.721830,1.507064,-0.017533,0.000000,0.000000,0.000000,0.000000,0.000000,0.000000
12812357.000000,-2.417798,-1.662622,1.040155,-1.352870,1.798083,1.079508,-0.546529,0.027376,-0.000009,0.007063,0.006012,-0.004810,-0.001390,-0.015030,2.879072,40.896038,-20.905655,-5.276918,0.644010,1.767074,-0.077042,0.000000,0.000000,0.000000,0.000000,0.000000,0.000000
12812358.000000,-2.417752,-1.662623,1.040174,-1.352876,1.798065,1.079529,-0.546574,0.031079,0.000350,0.015527,0.002383,-0.006529,0.009886,-0.026584,4.783369,40.427898,-20.905655,-4.884157,0.584501,1.884261,-0.050492,0.000000,0.000000,0.000000,0.000000,0.000000,0.000000
12812359.000000,-2.417691,-1.662622,1.040193,-1.352888,1.798035,1.079576,-0.546625,0.039869,0.002230,0.018809,-0.002483,-0.015826,0.024917,-0.032346,6.640058,39.868511,-20.782669,-4.511232,0.613798,1.819259,-0.089860,0.000000,0.000000,0.000000,0.000000,0.000000,0.000000
12812360.000000,-2.417603,-1.662622,1.040222,-1.352913,1.797993,1.079660,-0.546699,0.046669,0.004719,0.022286,-0.009471,-0.023835,0.046801,-0.049031,8.274579,39.376568,-20.707291,-4.118471,0.679716,1.584884,-0.050492,0.000000,0.000000,0.000000,0.000000,0.000000,0.000000
12812361.000000,-2.417502,-1.662622,1.040260,-1.352953,1.797940,1.079759,-0.546786,0.060940,0.004979,0.026050,-0.020924,-0.033033,0.065774,-0.058854,9.682965,38.936199,-20.659683,-3.721742,0.703519,1.383468,-0.083451,0.000000,0.000000,0.000000,0.000000,0.000000,0.000000
12812362.000000,-2.417386,-1.662618,1.040305,-1.352999,1.797875,1.079873,-0.546900,0.075741,0.007817,0.034425,-0.030054,-0.048414,0.079397,-0.080817,10.948529,38.519634,-20.584305,-3.424196,0.709928,1.305648,-0.077042,0.000000,0.000000,0.000000,0.000000,0.000000,0.000000
12812363.000000,-2.417255,-1.662617,1.040365,-1.353061,1.797792,1.080000,-0.547037,0.092396,0.005156,0.045326,-0.040015,-0.063287,0.096093,-0.097865,12.063336,38.178448,-20.560501,-3.126650,0.685209,1.312057,-0.070634,0.000000,0.000000,0.000000,0.000000,0.000000,0.000000
12812364.000000,-2.417113,-1.662610,1.040433,-1.353126,1.797704,1.080148,-0.547204,0.107624,0.007019,0.053334,-0.048318,-0.070382,0.109216,-0.119377,13.027387,37.809490,-20.512894,-2.928285,0.535978,1.435653,-0.103593,0.000000,0.000000,0.000000,0.000000,0.000000,0.000000
12812365.000000,-2.416962,-1.662597,1.040516,-1.353211,1.797587,1.080318,-0.547398,0.119180,0.008935,0.062861,-0.058057,-0.083493,0.123221,-0.147476,13.943830,37.420696,-20.512894,-2.733888,0.464567,1.591293,-0.070634,0.000000,0.000000,0.000000,0.000000,0.000000,0.000000
12812366.000000,-2.416801,-1.662582,1.040618,-1.353312,1.797458,1.080520,-0.547620,0.133950,0.010053,0.078386,-0.071824,-0.096934,0.148044,-0.168488,14.733319,37.051739,-20.683487,-2.535524,0.356534,1.630660,-0.116410,0.000000,0.000000,0.000000,0.000000,0.000000,0.000000
12812367.000000,-2.416610,-1.662558,1.040733,-1.353421,1.797306,1.080764,-0.547872,0.151252,0.013067,0.091527,-0.085791,-0.113627,0.177753,-0.194858,15.229230,36.587566,-20.830276,-2.460146,0.297025,1.605026,-0.050492,0.000000,0.000000,0.000000,0.000000,0.000000,0.000000
12812368.000000,-2.416405,-1.662539,1.040863,-1.353555,1.797121,1.081035,-0.548136,0.167306,0.012763,0.104813,-0.101873,-0.138758,0.208157,-0.214806,15.677533,36.218609,-21.000870,-2.285585,0.339139,1.500655,-0.103593,0.000000,0.000000,0.000000,0.000000,0.000000,0.000000
12812369.000000,-2.416182,-1.662518,1.041007,-1.353707,1.796920,1.081328,-0.548432,0.185530,0.013316,0.116478,-0.118486,-0.163316,0.233652,-0.232151,15.971112,35.829815,-21.199234,-2.190370,0.398649,1.429244,-0.097184,0.000000,0.000000,0.000000,0.000000,0.000000,0.000000
12812370.000000,-2.415945,-1.662500,1.041160,-1.353877,1.796686,1.081640,-0.548734,0.201281,0.015204,0.127794,-0.137471,-0.182011,0.251036,-0.256406,16.268660,35.508465,-21.294449,-2.091188,0.476469,1.402694,-0.070634,0.000000,0.000000,0.000000,0.000000,0.000000,0.000000
12812371.000000,-2.415692,-1.662479,1.041326,-1.354059,1.796434,1.081963,-0.549037,0.219024,0.016667,0.141062,-0.149808,-0.199190,0.275373,-0.264029,16.443220,35.191082,-21.393631,-2.063417,0.524076,1.461288,-0.116410,0.000000,0.000000,0.000000,0.000000,0.000000,0.000000
12812372.000000,-2.415426,-1.662465,1.041502,-1.354252,1.796174,1.082319,-0.549348,0.236711,0.013875,0.149639,-0.162294,-0.219033,0.298527,-0.277807,16.665388,35.044292,-21.469009,-2.063417,0.506681,1.494247,-0.077042,0.000000,0.000000,0.000000,0.000000,0.000000,0.000000
12812373.000000,-2.415137,-1.662454,1.041685,-1.354460,1.795896,1.082694,-0.549658,0.252232,0.010418,0.162924,-0.177920,-0.232943,0.327595,-0.288010,16.740767,34.972881,-21.445206,-2.063417,0.470060,1.552840,-0.083451,0.000000,0.000000,0.000000,0.000000,0.000000,0.000000
12812374.000000,-2.414848,-1.662442,1.041880,-1.354694,1.795608,1.083080,-0.549967,0.272509,0.009445,0.173187,-0.193404,-0.255271,0.350753,-0.294290,16.939131,34.849895,-21.469009,-2.063417,0.405057,1.637069,-0.122819,0.000000,0.000000,0.000000,0.000000,0.000000,0.000000
12812375.000000,-2.414524,-1.662443,1.042085,-1.354948,1.795297,1.083498,-0.550283,0.289986,0.003787,0.185733,-0.215166,-0.268020,0.368202,-0.298383,16.887556,34.945110,-21.369827,-1.892824,0.303434,1.714889,-0.064225,0.000000,0.000000,0.000000,0.000000,0.000000,0.000000
12812376.000000,-2.414186,-1.662439,1.042299,-1.355222,1.794963,1.083935,-0.550582,0.307099,0.002313,0.190353,-0.233697,-0.286034,0.390000,-0.292004,16.863752,34.945110,-21.294449,-1.718263,0.303434,1.708480,-0.116410,0.000000,0.000000,0.000000,0.000000,0.000000,0.000000
12812377.000000,-2.413840,-1.662439,1.042527,-1.355515,1.794625,1.084412,-0.550887,0.322236,0.000177,0.199411,-0.254898,-0.304694,0.413982,-0.290417,16.887556,34.996685,-21.246841,-1.519899,0.303434,1.591293,-0.097184,0.000000,0.000000,0.000000,0.000000,0.000000,0.000000
12812378.000000,-2.413476,-1.662443,1.042759,-1.355819,1.794256,1.084908,-0.551179,0.335712,0.001492,0.211740,-0.266157,-0.322152,0.439343,-0.287949,16.887556,35.068096,-21.147659,-1.373109,0.308927,1.546432,-0.077042,0.000000,0.000000,0.000000,0.000000,0.000000,0.000000
12812379.000000,-2.413106,-1.662443,1.043001,-1.356127,1.793858,1.085411,-0.551463,0.348556,0.001169,0.218856,-0.278389,-0.343608,0.462743,-0.283194,16.939131,35.068096,-21.100052,-1.349306,0.393156,1.507064,-0.142960,0.000000,0.000000,0.000000,0.000000,0.000000,0.000000
12812380.000000,-2.412723,-1.662444,1.043253,-1.356448,1.793459,1.085951,-0.551751,0.361201,0.000353,0.231293,-0.291084,-0.363484,0.482745,-0.287085,17.137495,35.091900,-21.024673,-1.297731,0.464567,1.487838,-0.089860,0.000000,0.000000,0.000000,0.000000,0.000000,0.000000
12812381.000000,-2.412324,-1.662446,1.043507,-1.356776,1.793038,1.086494,-0.552023,0.375435,-0.000316,0.242569,-0.299989,-0.384112,0.496954,-0.284489,17.284285,35.119671,-20.877884,-1.373109,0.458158,1.519881,-0.130143,0.000000,0.000000,0.000000,0.000000,0.000000,0.000000
12812382.000000,-2.411924,-1.662449,1.043780,-1.357123,1.792606,1.087068,-0.552300,0.383297,-0.001251,0.251197,-0.320910,-0.396518,0.516209,-0.279249,17.530256,35.167278,-20.782669,-1.349306,0.464567,1.584884,-0.136552,0.000000,0.000000,0.000000,0.000000,0.000000,0.000000
12812383.000000,-2.411511,-1.662448,1.044064,-1.357485,1.792158,1.087668,-0.552578,0.390758,-0.000222,0.261372,-0.330043,-0.410259,0.532415,-0.280728,17.827803,35.143475,-20.707291,-1.297731,0.470060,1.611434,-0.136552,0.000000,0.000000,0.000000,0.000000,0.000000,0.000000
12812384.000000,-2.411085,-1.662444,1.044359,-1.357863,1.791688,1.088293,-0.552842,0.409566,0.001100,0.270942,-0.346530,-0.424932,0.561640,-0.274844,18.026167,35.091900,-20.707291,-1.226320,0.458158,1.565658,-0.142960,0.000000,0.000000,0.000000,0.000000,0.000000,0.000000
12812385.000000,-2.410638,-1.662446,1.044657,-1.358257,1.791213,1.088943,-0.553110,0.423169,0.000115,0.279712,-0.362067,-0.435743,0.585274,-0.276933,18.248335,35.119671,-20.584305,-1.027956,0.440763,1.429244,-0.077042,0.000000,0.000000,0.000000,0.000000,0.000000,0.000000
12812386.000000,-2.410175,-1.662439,1.044971,-1.358669,1.790710,1.089606,-0.553364,0.431236,0.002420,0.291124,-0.377772,-0.458914,0.608230,-0.270701,18.399092,35.020489,-20.560501,-0.877199,0.482877,1.299239,-0.130143,0.000000,0.000000,0.000000,0.000000,0.000000,0.000000
12812387.000000,-2.409699,-1.662432,1.045296,-1.359099,1.790205,1.090285,-0.553621,0.445646,0.003394,0.303092,-0.392168,-0.476508,0.631576,-0.268484,18.474470,34.945110,-20.536697,-0.631227,0.488370,1.227828,-0.122819,0.000000,0.000000,0.000000,0.000000,0.000000,0.000000
12812388.000000,-2.409209,-1.662424,1.045627,-1.359530,1.789679,1.090981,-0.553877,0.459387,0.004503,0.314892,-0.409366,-0.489857,0.650466,-0.266307,18.645063,34.849895,-20.389908,-0.484438,0.512174,1.259872,-0.077042,0.000000,0.000000,0.000000,0.000000,0.000000,0.000000
12812389.000000,-2.408720,-1.662419,1.045967,-1.359977,1.789142,1.091681,-0.554118,0.471089,0.007922,0.319653,-0.419694,-0.502301,0.670278,-0.257927,18.942610,34.774517,-20.338333,-0.432863,0.470060,1.285506,-0.130143,0.000000,0.000000,0.000000,0.000000,0.000000,0.000000
12812390.000000,-2.408211,-1.662408,1.046320,-1.360437,1.788599,1.092409,-0.554368,0.482793,0.008428,0.335609,-0.432359,-0.509473,0.684582,-0.255201,19.240156,34.651531,-20.314529,-0.357485,0.482877,1.299239,-0.116410,0.000000,0.000000,0.000000,0.000000,0.000000,0.000000
12812391.000000,-2.407690,-1.662398,1.046683,-1.360908,1.788027,1.093159,-0.554611,0.492441,0.008048,0.344215,-0.441671,-0.522601,0.718164,-0.250842,19.613081,34.556316,-20.266922,-0.286073,0.494779,1.370651,-0.116410,0.000000,0.000000,0.000000,0.000000,0.000000,0.000000
12812392.000000,-2.407152,-1.662388,1.047063,-1.361403,1.787449,1.093909,-0.554859,0.507015,0.010292,0.351724,-0.455973,-0.550364,0.729875,-0.249259,19.859053,34.480938,-20.338333,-0.186891,0.535978,1.435653,-0.110001,0.000000,0.000000,0.000000,0.000000,0.000000,0.000000
12812393.000000,-2.406595,-1.662370,1.047453,-1.361900,1.786853,1.094701,-0.555106,0.518699,0.011773,0.366419,-0.472099,-0.567686,0.740407,-0.243022,20.057417,34.286541,-20.413712,-0.135317,0.524076,1.416427,-0.122819,0.000000,0.000000,0.000000,0.000000,0.000000,0.000000
12812394.000000,-2.406025,-1.662359,1.047856,-1.362427,1.786242,1.095516,-0.555348,0.536062,0.012278,0.383417,-0.483042,-0.577405,0.766913,-0.238708,20.303389,34.238934,-20.560501,0.059080,0.554288,1.305648,-0.122819,0.000000,0.000000,0.000000,0.000000,0.000000,0.000000
12812395.000000,-2.405448,-1.662347,1.048272,-1.362953,1.785629,1.096352,-0.555593,0.547738,0.013448,0.389238,-0.499191,-0.592118,0.785023,-0.239132,20.454145,34.163555,-20.731094,0.158263,0.512174,1.194869,-0.116410,0.000000,0.000000,0.000000,0.000000,0.000000,0.000000
12812396.000000,-2.404853,-1.662332,1.048704,-1.363499,1.785001,1.097202,-0.555835,0.560489,0.015489,0.404698,-0.517567,-0.597227,0.800603,-0.239690,20.676313,34.040569,-20.905655,0.233641,0.476469,1.194869,-0.110001,0.000000,0.000000,0.000000,0.000000,0.000000,0.000000
12812397.000000,-2.404246,-1.662313,1.049146,-1.364070,1.784353,1.098065,-0.556074,0.574838,0.013905,0.413494,-0.529247,-0.611063,0.820467,-0.240272,20.850874,33.917583,-21.147659,0.356627,0.422452,1.214095,-0.116410,0.000000,0.000000,0.000000,0.000000,0.000000,0.000000
12812398.000000,-2.403624,-1.662303,1.049593,-1.364633,1.783699,1.098957,-0.556318,0.593578,0.010354,0.427539,-0.540319,-0.623412,0.838786,-0.240546,21.096846,33.893780,-21.175430,0.309019,0.428861,1.220504,-0.083451,0.000000,0.000000,0.000000,0.000000,0.000000,0.000000
12812399.000000,-2.402987,-1.662287,1.050055,-1.365222,1.783015,1.099837,-0.556543,0.604883,0.009617,0.445541,-0.554771,-0.635429,0.849119,-0.229370,21.342817,33.794598,-21.223038,0.332823,0.405057,1.377059,-0.155778,0.000000,0.000000,0.000000,0.000000,0.000000,0.000000
12812400.000000,-2.402335,-1.662271,1.050534,-1.365815,1.782331,1.100763,-0.556776,0.618534,0.008935,0.453155,-0.574826,-0.649050,0.864959,-0.231429,21.493574,33.699383,-21.393631,0.432005,0.470060,1.467696,-0.169511,0.000000,0.000000,0.000000,0.000000,0.000000,0.000000
12812401.000000,-2.401660,-1.662251,1.051024,-1.366430,1.781622,1.101722,-0.557018,0.638042,0.009613,0.468046,-0.584634,-0.663255,0.886563,-0.233793,21.715742,33.552593,-21.516617,0.554991,0.535978,1.396285,-0.077042,0.000000,0.000000,0.000000,0.000000,0.000000,0.000000
12812402.000000,-2.400970,-1.662236,1.051519,-1.367063,1.780905,1.102700,-0.557246,0.668410,0.011480,0.474177,-0.594015,-0.675939,0.921130,-0.227647,21.838728,33.477215,-21.738785,0.777159,0.655912,1.220504,-0.155778,0.000000,0.000000,0.000000,0.000000,0.000000,0.000000
12812403.000000,-2.400258,-1.662229,1.052025,-1.367690,1.780196,1.103690,-0.557484,0.681023,0.010572,0.488862,-0.609610,-0.685440,0.935956,-0.234039,21.989485,33.501019,-21.837967,0.951720,0.781339,1.142684,-0.130143,0.000000,0.000000,0.000000,0.000000,0.000000,0.000000
12812404.000000,-2.399532,-1.662219,1.052548,-1.368335,1.779488,1.104684,-0.557713,0.691877,0.010108,0.503471,-0.619671,-0.693913,0.951012,-0.232230,22.211653,33.528790,-22.008560,1.122313,0.871061,1.155502,-0.130143,0.000000,0.000000,0.000000,0.000000,0.000000,0.000000
12812405.000000,-2.398813,-1.662208,1.053062,-1.368995,1.778790,1.105711,-0.557943,0.694443,0.009878,0.505913,-0.629061,-0.693456,0.966583,-0.230396,22.136274,33.552593,-22.008560,1.050902,0.978177,1.279098,-0.122819,0.000000,0.000000,0.000000,0.000000,0.000000,0.000000
12812406.000000,-2.398071,-1.662204,1.053597,-1.369661,1.778087,1.106754,-0.558170,0.692433,0.007072,0.519178,-0.643467,-0.695441,0.985457,-0.230248,20.997663,33.699383,-21.786392,0.606566,0.894864,1.487838,-0.155778,0.000000,0.000000,0.000000,0.000000,0.000000,0.000000
12812407.000000,-2.397341,-1.662194,1.054159,-1.370362,1.777378,1.107812,-0.558394,0.692938,0.004990,0.533151,-0.656556,-0.699445,1.007819,-0.228083,19.140974,33.723186,-21.568192,0.035277,0.859159,1.611434,-0.149369,0.000000,0.000000,0.000000,0.000000,0.000000,0.000000
12812408.000000,-2.396619,-1.662184,1.054736,-1.371050,1.776676,1.108916,-0.558617,0.706704,0.007384,0.543285,-0.664549,-0.697591,1.032806,-0.225898,16.590010,33.576397,-21.000870,-0.877199,0.811552,1.584884,-0.163102,0.000000,0.000000,0.000000,0.000000,0.000000,0.000000
12812409.000000,-2.395892,-1.662179,1.055348,-1.371765,1.775980,1.110035,-0.558842,0.714529,0.004366,0.566136,-0.673827,-0.694906,1.077160,-0.227087,13.820844,33.354229,-20.266922,-1.694460,0.661405,1.637069,-0.136552,0.000000,0.000000,0.000000,0.000000,0.000000,0.000000
12812410.000000,-2.395175,-1.662175,1.055973,-1.372490,1.775306,1.111135,-0.559057,0.722383,0.003472,0.579654,-0.685072,-0.699900,1.090432,-0.225700,11.194501,33.060650,-19.505203,-2.384767,0.482877,1.786300,-0.163102,0.000000,0.000000,0.000000,0.000000,0.000000,0.000000
12812411.000000,-2.394454,-1.662188,1.056619,-1.373192,1.774619,1.112282,-0.559277,0.730782,-0.003416,0.601099,-0.692956,-0.692973,1.109885,-0.227314,8.742719,33.013042,-18.672073,-3.126650,0.410551,1.773483,-0.130143,0.000000,0.000000,0.000000,0.000000,0.000000,0.000000
12812412.000000,-2.393735,-1.662198,1.057270,-1.373889,1.773965,1.113439,-0.559495,0.730152,-0.005317,0.621927,-0.688508,-0.676935,1.129194,-0.226382,6.592451,32.965435,-17.934158,-3.797121,0.189908,1.643478,-0.142960,0.000000,0.000000,0.000000,0.000000,0.000000,0.000000
12812413.000000,-2.393004,-1.662219,1.057924,-1.374577,1.773309,1.114627,-0.559720,0.733234,-0.012657,0.629690,-0.692007,-0.670760,1.144924,-0.228070,4.462018,33.036846,-17.049454,-4.289064,0.088285,1.572067,-0.097184,0.000000,0.000000,0.000000,0.000000,0.000000,0.000000
12812414.000000,-2.392277,-1.662246,1.058591,-1.375264,1.772665,1.115831,-0.559939,0.730417,-0.019936,0.643127,-0.684819,-0.654941,1.159605,-0.221333,2.728315,33.207439,-16.287735,-4.610414,-0.007845,1.572067,-0.110001,0.000000,0.000000,0.000000,0.000000,0.000000,0.000000
12812415.000000,-2.391560,-1.662271,1.059249,-1.375952,1.772005,1.117056,-0.560149,0.730801,-0.023256,0.641145,-0.677216,-0.655019,1.181275,-0.214835,1.244550,33.306622,-15.625198,-4.733400,0.058073,1.416427,-0.169511,0.000000,0.000000,0.000000,0.000000,0.000000,0.000000
12812416.000000,-2.390834,-1.662302,1.059914,-1.376625,1.771368,1.118303,-0.560369,0.725240,-0.025117,0.650966,-0.675574,-0.646059,1.189002,-0.218084,-0.092425,33.382000,-14.867447,-4.808778,0.159696,1.292831,-0.110001,0.000000,0.000000,0.000000,0.000000,0.000000,0.000000
12812417.000000,-2.390105,-1.662325,1.060586,-1.377317,1.770725,1.119553,-0.560577,0.721337,-0.022603,0.660590,-0.677677,-0.637924,1.204299,-0.215019,-1.183428,33.282818,-14.204910,-4.511232,0.267728,1.104232,-0.116410,0.000000,0.000000,0.000000,0.000000,0.000000,0.000000
12812418.000000,-2.389385,-1.662361,1.061255,-1.377994,1.770109,1.120812,-0.560780,0.720488,-0.028869,0.663070,-0.693664,-0.632215,1.209339,-0.211068,-2.099871,33.259014,-13.613785,-4.241457,0.351041,0.941268,-0.175919,0.000000,0.000000,0.000000,0.000000,0.000000,0.000000
12812419.000000,-2.388668,-1.662386,1.061943,-1.378685,1.769473,1.122075,-0.561001,0.717059,-0.027736,0.672048,-0.695676,-0.630783,1.218456,-0.219870,-2.766375,33.112225,-13.173416,-3.745546,0.518583,0.857040,-0.083451,0.000000,0.000000,0.000000,0.000000,0.000000,0.000000
12812420.000000,-2.387957,-1.662416,1.062623,-1.379382,1.768855,1.123292,-0.561201,0.729716,-0.027042,0.675670,-0.690786,-0.623084,1.217172,-0.209486,-3.337664,32.965435,-12.681473,-3.178224,0.518583,0.915633,-0.122819,0.000000,0.000000,0.000000,0.000000,0.000000,0.000000
12812421.000000,-2.387240,-1.662439,1.063320,-1.380056,1.768252,1.124522,-0.561401,0.723083,-0.024190,0.692974,-0.688085,-0.617831,1.211747,-0.209887,-3.829607,32.719463,-12.336319,-2.833071,0.405057,1.025497,-0.175919,0.000000,0.000000,0.000000,0.000000,0.000000,0.000000
12812422.000000,-2.386537,-1.662462,1.064030,-1.380731,1.767645,1.125736,-0.561608,0.711748,-0.025033,0.706749,-0.682744,-0.611362,1.233591,-0.211900,-4.055743,32.449688,-12.165726,-2.583132,0.374845,1.071273,-0.110001,0.000000,0.000000,0.000000,0.000000,0.000000,0.000000
12812423.000000,-2.385839,-1.662473,1.064729,-1.381396,1.767055,1.126960,-0.561807,0.705906,-0.020074,0.699956,-0.680405,-0.605080,1.228028,-0.207307,-4.301714,32.056927,-11.919754,-2.583132,0.255826,1.162826,-0.182328,0.000000,0.000000,0.000000,0.000000,0.000000,0.000000
12812424.000000,-2.385133,-1.662479,1.065448,-1.382047,1.766465,1.128176,-0.562014,0.704805,-0.016149,0.708259,-0.670024,-0.594044,1.218382,-0.210126,-4.547686,31.640362,-11.872147,-2.559328,0.219205,1.285506,-0.175919,0.000000,0.000000,0.000000,0.000000,0.000000,0.000000
12812425.000000,-2.384444,-1.662480,1.066164,-1.382701,1.765861,1.129374,-0.562223,0.700010,-0.009784,0.708005,-0.660152,-0.588048,1.212319,-0.210962,-4.674639,31.199993,-11.725357,-2.583132,0.249418,1.377059,-0.122819,0.000000,0.000000,0.000000,0.000000,0.000000,0.000000
12812426.000000,-2.383747,-1.662475,1.066890,-1.383337,1.765279,1.130591,-0.562426,0.698870,-0.003650,0.705578,-0.648613,-0.579188,1.200723,-0.207206,-4.821429,30.688213,-11.578568,-2.733888,0.291532,1.331283,-0.169511,0.000000,0.000000,0.000000,0.000000,0.000000,0.000000
12812427.000000,-2.383044,-1.662465,1.067637,-1.383978,1.764683,1.131825,-0.562631,0.699355,0.000079,0.719899,-0.641137,-0.578407,1.205643,-0.207865,-4.995989,30.196270,-11.550797,-2.833071,0.386747,1.136276,-0.155778,0.000000,0.000000,0.000000,0.000000,0.000000,0.000000
12812428.000000,-2.382360,-1.662445,1.068375,-1.384605,1.764110,1.133031,-0.562835,0.690865,0.004998,0.723254,-0.634975,-0.583225,1.200500,-0.209017,-5.142779,29.609112,-11.479385,-3.102846,0.327238,0.993453,-0.110001,0.000000,0.000000,0.000000,0.000000,0.000000,0.000000
12812429.000000,-2.381667,-1.662423,1.069130,-1.385227,1.763538,1.134251,-0.563037,0.686239,0.010284,0.739195,-0.628908,-0.577752,1.196511,-0.210183,-5.265765,29.073528,-11.356400,-3.202028,0.291532,0.922042,-0.130143,0.000000,0.000000,0.000000,0.000000,0.000000,0.000000
12812430.000000,-2.380971,-1.662410,1.069865,-1.385849,1.762971,1.135441,-0.563235,0.689687,0.012852,0.747527,-0.621424,-0.568919,1.183609,-0.208011,-5.392718,28.728374,-11.011246,-3.376589,0.267728,0.922042,-0.169511,0.000000,0.000000,0.000000,0.000000,0.000000,0.000000
12812431.000000,-2.380298,-1.662387,1.070620,-1.386462,1.762418,1.136635,-0.563442,0.682461,0.013704,0.747634,-0.618922,-0.569520,1.174491,-0.203687,-5.416522,28.311810,-10.693863,-3.475771,0.171598,1.045638,-0.116410,0.000000,0.000000,0.000000,0.000000,0.000000,0.000000
12812432.000000,-2.379601,-1.662369,1.071386,-1.387080,1.761862,1.137838,-0.563636,0.686712,0.011970,0.757835,-0.619297,-0.559418,1.170226,-0.198489,-5.563311,27.994427,-10.324905,-3.499574,0.064481,1.123458,-0.130143,0.000000,0.000000,0.000000,0.000000,0.000000,0.000000
12812433.000000,-2.378923,-1.662341,1.072151,-1.387688,1.761305,1.139041,-0.563827,0.686219,0.013140,0.757681,-0.615115,-0.558051,1.174930,-0.193568,-5.662493,27.577862,-10.055130,-3.547182,-0.043551,1.123458,-0.175919,0.000000,0.000000,0.000000,0.000000,0.000000,0.000000
12812434.000000,-2.378234,-1.662321,1.072929,-1.388285,1.760749,1.140265,-0.564026,0.682748,0.014358,0.773602,-0.608634,-0.556407,1.177880,-0.197536,-5.761675,27.284283,-9.737747,-3.598757,-0.031649,0.960494,-0.116410,0.000000,0.000000,0.000000,0.000000,0.000000,0.000000
12812435.000000,-2.377539,-1.662307,1.073710,-1.388883,1.760190,1.141495,-0.564216,0.681363,0.015099,0.787271,-0.604612,-0.558343,1.184601,-0.192526,-5.884661,27.137493,-9.416397,-3.670168,-0.001437,0.700484,-0.169511,0.000000,0.000000,0.000000,0.000000,0.000000,0.000000
12812436.000000,-2.376847,-1.662296,1.074493,-1.389479,1.759641,1.142714,-0.564409,0.687020,0.011833,0.784079,-0.605601,-0.553023,1.181171,-0.189412,-6.158404,27.042278,-9.170425,-3.646364,0.058073,0.635482,-0.196061,0.000000,0.000000,0.000000,0.000000,0.000000,0.000000
12812437.000000,-2.376149,-1.662286,1.075298,-1.390078,1.759086,1.143942,-0.564611,0.686268,0.009307,0.799768,-0.599204,-0.555423,1.185568,-0.192379,-6.404376,26.966900,-8.999832,-3.646364,0.166105,0.641891,-0.116410,0.000000,0.000000,0.000000,0.000000,0.000000,0.000000
12812438.000000,-2.375454,-1.662280,1.076100,-1.390671,1.758528,1.145149,-0.564799,0.703140,0.009191,0.801507,-0.594718,-0.549144,1.178842,-0.187828,-6.725726,26.966900,-8.805435,-3.745546,0.195402,0.681258,-0.182328,0.000000,0.000000,0.000000,0.000000,0.000000,0.000000
12812439.000000,-2.374765,-1.662281,1.076928,-1.391251,1.757997,1.146382,-0.565002,0.697776,0.004441,0.805182,-0.591260,-0.542944,1.183526,-0.192258,-6.852679,27.042278,-8.753860,-3.892336,0.178007,0.668441,-0.122819,0.000000,0.000000,0.000000,0.000000,0.000000,0.000000
12812440.000000,-2.374076,-1.662281,1.077760,-1.391826,1.757453,1.147597,-0.565187,0.687169,0.001904,0.818677,-0.586544,-0.541167,1.209993,-0.190501,-6.951861,27.089886,-8.583267,-4.090700,0.135892,0.681258,-0.142960,0.000000,0.000000,0.000000,0.000000,0.000000,0.000000
12812441.000000,-2.373382,-1.662279,1.078603,-1.392392,1.756929,1.148818,-0.565366,0.690443,0.000755,0.828019,-0.577093,-0.534478,1.203764,-0.183285,-7.221636,27.113689,-8.654678,-4.312868,0.046171,0.785628,-0.182328,0.000000,0.000000,0.000000,0.000000,0.000000,0.000000
12812442.000000,-2.372680,-1.662281,1.079463,-1.392955,1.756392,1.150036,-0.565555,0.692483,-0.000578,0.844678,-0.571873,-0.536698,1.188203,-0.188599,-7.519183,27.161297,-8.706253,-4.463624,0.022367,0.947677,-0.149369,0.000000,0.000000,0.000000,0.000000,0.000000,0.000000
12812443.000000,-2.371968,-1.662288,1.080317,-1.393525,1.755856,1.151239,-0.565737,0.699241,-0.002681,0.843369,-0.569258,-0.533998,1.191188,-0.182059,-7.991290,27.260479,-8.706253,-4.487428,0.010465,1.019088,-0.169511,0.000000,0.000000,0.000000,0.000000,0.000000,0.000000
12812444.000000,-2.371269,-1.662291,1.081180,-1.394090,1.755331,1.152461,-0.565919,0.703908,-0.002883,0.840101,-0.567044,-0.531829,1.190124,-0.182827,-8.360248,27.308086,-8.531693,-4.439821,0.105680,0.987045,-0.169511,0.000000,0.000000,0.000000,0.000000,0.000000,0.000000
12812445.000000,-2.370547,-1.662284,1.082070,-1.394656,1.754799,1.153689,-0.566100,0.705521,0.000319,0.856908,-0.565681,-0.530925,1.192067,-0.184700,-8.979144,27.212872,-8.531693,-4.511232,0.154203,0.947677,-0.155778,0.000000,0.000000,0.000000,0.000000,0.000000,0.000000
12812446.000000,-2.369835,-1.662277,1.082952,-1.395231,1.754280,1.154885,-0.566278,0.720535,0.002543,0.857163,-0.568132,-0.530189,1.190786,-0.180685,-9.498858,27.113689,-8.484085,-4.439821,0.112089,0.934859,-0.155778,0.000000,0.000000,0.000000,0.000000,0.000000,0.000000
12812447.000000,-2.369117,-1.662270,1.083852,-1.395781,1.753763,1.156116,-0.566448,0.718939,0.004023,0.876046,-0.561303,-0.528356,1.197123,-0.177601,-9.994769,27.014507,-8.361099,-4.463624,0.081876,0.804855,-0.163102,0.000000,0.000000,0.000000,0.000000,0.000000,0.000000
12812448.000000,-2.368405,-1.662261,1.084740,-1.396331,1.753248,1.157319,-0.566619,0.715796,0.004915,0.888581,-0.552811,-0.521660,1.197080,-0.174130,-10.391498,26.919292,-8.142899,-4.586610,0.052579,0.727035,-0.202470,0.000000,0.000000,0.000000,0.000000,0.000000,0.000000
12812449.000000,-2.367711,-1.662248,1.085654,-1.396872,1.752748,1.158520,-0.566808,0.710773,0.006715,0.890595,-0.561559,-0.517009,1.190351,-0.180959,-10.665240,26.772503,-7.920731,-4.634218,0.010465,0.811263,-0.122819,0.000000,0.000000,0.000000,0.000000,0.000000,0.000000
12812450.000000,-2.366996,-1.662240,1.086595,-1.397404,1.752241,1.159714,-0.566974,0.709148,0.006243,0.912981,-0.552437,-0.512398,1.176614,-0.176405,-11.085773,26.697124,-7.920731,-4.832582,-0.049044,0.999862,-0.169511,0.000000,0.000000,0.000000,0.000000,0.000000,0.000000
12812451.000000,-2.366301,-1.662230,1.087529,-1.397945,1.751742,1.160906,-0.567154,0.705176,0.009620,0.916468,-0.545062,-0.506946,1.183822,-0.173899,-11.331744,26.597942,-7.896927,-4.907960,-0.060946,1.025497,-0.163102,0.000000,0.000000,0.000000,0.000000,0.000000,0.000000
12812452.000000,-2.365596,-1.662221,1.088495,-1.398468,1.751240,1.162121,-0.567331,0.697070,0.007790,0.940886,-0.541560,-0.502741,1.186335,-0.173820,-11.653094,26.550335,-7.992142,-5.054750,-0.060946,0.915633,-0.136552,0.000000,0.000000,0.000000,0.000000,0.000000,0.000000
12812453.000000,-2.364886,-1.662214,1.089470,-1.398989,1.750745,1.163316,-0.567500,0.698549,0.005948,0.955733,-0.531732,-0.494736,1.193920,-0.170974,-11.950641,26.526531,-8.067520,-5.304689,-0.049044,0.843307,-0.182328,0.000000,0.000000,0.000000,0.000000,0.000000,0.000000
12812454.000000,-2.364192,-1.662207,1.090454,-1.399507,1.750263,1.164514,-0.567680,0.695978,0.006594,0.960599,-0.528312,-0.492667,1.187004,-0.173506,-12.149005,26.550335,-8.289688,-5.475282,-0.072848,0.843307,-0.110001,0.000000,0.000000,0.000000,0.000000,0.000000,0.000000
12812455.000000,-2.363482,-1.662205,1.091447,-1.400020,1.749772,1.165714,-0.567843,0.698275,0.002440,0.977761,-0.521301,-0.486542,1.182255,-0.169973,-12.545733,26.649517,-8.337296,-5.697450,-0.091158,0.947677,-0.175919,0.000000,0.000000,0.000000,0.000000,0.000000,0.000000
12812456.000000,-2.362786,-1.662208,1.092441,-1.400534,1.749285,1.166894,-0.568012,0.712041,0.001607,0.979199,-0.515661,-0.483708,1.180515,-0.168888,-12.791705,26.796307,-8.384903,-5.772829,-0.067355,1.031905,-0.196061,0.000000,0.000000,0.000000,0.000000,0.000000,0.000000
12812457.000000,-2.362091,-1.662213,1.093440,-1.401036,1.748805,1.168086,-0.568193,0.701863,-0.002453,0.975706,-0.509415,-0.478860,1.175897,-0.175543,-12.990069,26.966900,-8.261917,-5.947389,-0.109469,1.123458,-0.116410,0.000000,0.000000,0.000000,0.000000,0.000000,0.000000
12812458.000000,-2.361391,-1.662217,1.094451,-1.401545,1.748330,1.169260,-0.568360,0.696441,-0.004162,0.989725,-0.510720,-0.475211,1.199005,-0.178862,-13.240008,27.089886,-8.166702,-5.994997,-0.126864,1.182052,-0.110001,0.000000,0.000000,0.000000,0.000000,0.000000,0.000000
12812459.000000,-2.360701,-1.662221,1.095465,-1.402046,1.747872,1.170455,-0.568525,0.699302,-0.004183,0.993828,-0.506633,-0.476512,1.195076,-0.174139,-13.462176,27.161297,-8.091324,-6.141786,-0.199191,1.104232,-0.155778,0.000000,0.000000,0.000000,0.000000,0.000000,0.000000
12812460.000000,-2.360008,-1.662224,1.096487,-1.402540,1.747395,1.171656,-0.568685,0.693670,-0.003798,1.016894,-0.503705,-0.470091,1.192364,-0.166668,-13.684344,27.212872,-7.797745,-6.268739,-0.211093,0.987045,-0.202470,0.000000,0.000000,0.000000,0.000000,0.000000,0.000000
12812461.000000,-2.359320,-1.662234,1.097502,-1.403033,1.746922,1.172835,-0.568859,0.689439,-0.005261,1.005254,-0.494789,-0.468239,1.194587,-0.170618,-13.807330,27.335857,-7.452591,-6.363954,-0.150668,0.895492,-0.110001,0.000000,0.000000,0.000000,0.000000,0.000000,0.000000
12812462.000000,-2.358642,-1.662239,1.098539,-1.403529,1.746454,1.174027,-0.569012,0.686223,-0.003954,1.003146,-0.496449,-0.470171,1.187299,-0.162082,-14.029498,27.359661,-7.111404,-6.415529,-0.126864,0.836898,-0.202470,0.000000,0.000000,0.000000,0.000000,0.000000,0.000000
12812463.000000,-2.357969,-1.662247,1.099606,-1.404023,1.745981,1.175218,-0.569182,0.677983,-0.004223,1.030410,-0.499220,-0.466278,1.187652,-0.161515,-14.053302,27.431072,-6.988419,-6.538515,-0.085665,0.836898,-0.142960,0.000000,0.000000,0.000000,0.000000,0.000000,0.000000
12812464.000000,-2.357311,-1.662250,1.100657,-1.404506,1.745527,1.176401,-0.569347,0.671218,-0.002753,1.030567,-0.488975,-0.460978,1.190498,-0.156781,-14.029498,27.431072,-6.841629,-6.784486,-0.138766,0.752670,-0.155778,0.000000,0.000000,0.000000,0.000000,0.000000,0.000000
12812465.000000,-2.356652,-1.662256,1.101734,-1.404979,1.745081,1.177611,-0.569504,0.665686,-0.003552,1.052346,-0.482313,-0.456631,1.193441,-0.154157,-13.930316,27.506451,-6.694839,-7.006654,-0.204684,0.576888,-0.188737,0.000000,0.000000,0.000000,0.000000,0.000000,0.000000
12812466.000000,-2.356001,-1.662262,1.102824,-1.405451,1.744627,1.178795,-0.569678,0.660646,-0.004003,1.085442,-0.479536,-0.449957,1.197537,-0.161140,-13.731952,27.577862,-6.813858,-7.205019,-0.216586,0.538436,-0.110001,0.000000,0.000000,0.000000,0.000000,0.000000,0.000000
12812467.000000,-2.355348,-1.662266,1.103929,-1.405923,1.744190,1.179987,-0.569832,0.659893,-0.003199,1.081063,-0.486069,-0.443588,1.196750,-0.158923,-13.783526,27.601665,-6.813858,-7.379579,-0.287997,0.564071,-0.202470,0.000000,0.000000,0.000000,0.000000,0.000000,0.000000
12812468.000000,-2.354698,-1.662266,1.105049,-1.406401,1.743739,1.181189,-0.569990,0.654019,-0.002113,1.097817,-0.487028,-0.445660,1.197022,-0.156977,-13.759723,27.601665,-6.813858,-7.427186,-0.276095,0.609847,-0.188737,0.000000,0.000000,0.000000,0.000000,0.000000,0.000000
12812469.000000,-2.354049,-1.662264,1.106162,-1.406885,1.743292,1.182372,-0.570154,0.653835,0.000276,1.102956,-0.485322,-0.441732,1.194741,-0.158251,-13.882709,27.530254,-6.841629,-7.427186,-0.187289,0.603439,-0.103593,0.000000,0.000000,0.000000,0.000000,0.000000,0.000000
12812470.000000,-2.353391,-1.662265,1.107293,-1.407361,1.742855,1.183584,-0.570300,0.653907,0.000752,1.120965,-0.484319,-0.444439,1.197833,-0.155821,-14.053302,27.506451,-6.813858,-7.427186,-0.180880,0.518295,-0.202470,0.000000,0.000000,0.000000,0.000000,0.000000,0.000000
12812471.000000,-2.352730,-1.662252,1.108434,-1.407828,1.742412,1.184765,-0.570460,0.653895,0.005150,1.130242,-0.474185,-0.440604,1.197894,-0.162020,-14.204059,27.308086,-6.643265,-7.502565,-0.180880,0.544845,-0.130143,0.000000,0.000000,0.000000,0.000000,0.000000,0.000000
12812472.000000,-2.352092,-1.662250,1.109561,-1.408286,1.741982,1.185963,-0.570607,0.650410,0.005110,1.122356,-0.469487,-0.433618,1.195995,-0.157247,-14.227862,27.236675,-6.421097,-7.649354,-0.199191,0.622665,-0.182328,0.000000,0.000000,0.000000,0.000000,0.000000,0.000000
12812473.000000,-2.351444,-1.662238,1.110710,-1.408754,1.741541,1.187166,-0.570756,0.642896,0.007402,1.134606,-0.471804,-0.437387,1.195685,-0.158647,-14.327044,27.066082,-6.226700,-7.677125,-0.228488,0.687667,-0.188737,0.000000,0.000000,0.000000,0.000000,0.000000,0.000000
12812474.000000,-2.350801,-1.662225,1.111868,-1.409215,1.741109,1.188344,-0.570915,0.642592,0.009578,1.136521,-0.467011,-0.433130,1.185474,-0.162677,-14.473834,26.867718,-6.179092,-7.800111,-0.318209,0.792037,-0.130143,0.000000,0.000000,0.000000,0.000000,0.000000,0.000000
12812475.000000,-2.350164,-1.662215,1.113054,-1.409672,1.740696,1.189543,-0.571064,0.634243,0.009822,1.140852,-0.470015,-0.425899,1.180156,-0.157474,-14.473834,26.720928,-6.179092,-7.823915,-0.401522,0.765487,-0.136552,0.000000,0.000000,0.000000,0.000000,0.000000,0.000000
12812476.000000,-2.349516,-1.662200,1.114277,-1.410130,1.740263,1.190728,-0.571204,0.636560,0.016861,1.178691,-0.464654,-0.425292,1.197418,-0.149242,-14.549212,26.550335,-6.472672,-7.875490,-0.450045,0.700484,-0.182328,0.000000,0.000000,0.000000,0.000000,0.000000,0.000000
12812477.000000,-2.348889,-1.662187,1.115503,-1.410585,1.739840,1.191916,-0.571353,0.631612,0.018341,1.188916,-0.459334,-0.429850,1.180258,-0.149475,-14.573016,26.403545,-6.936844,-7.998476,-0.455538,0.706893,-0.175919,0.000000,0.000000,0.000000,0.000000,0.000000,0.000000
12812478.000000,-2.348260,-1.662179,1.116758,-1.411028,1.739417,1.193104,-0.571503,0.625325,0.015205,1.217063,-0.453746,-0.427404,1.169257,-0.150071,-14.549212,26.304363,-7.452591,-8.069887,-0.426241,0.771896,-0.130143,0.000000,0.000000,0.000000,0.000000,0.000000,0.000000
12812479.000000,-2.347622,-1.662174,1.118003,-1.411479,1.738983,1.194261,-0.571646,0.624447,0.012300,1.216892,-0.450483,-0.426638,1.154454,-0.148397,-14.600787,26.232952,-7.845352,-8.169069,-0.360323,0.901900,-0.169511,0.000000,0.000000,0.000000,0.000000,0.000000,0.000000
12812480.000000,-2.347006,-1.662174,1.119275,-1.411916,1.738559,1.195448,-0.571798,0.621343,0.008570,1.230761,-0.444553,-0.427105,1.155164,-0.149616,-14.573016,26.232952,-8.166702,-8.343630,-0.270602,0.928451,-0.136552,0.000000,0.000000,0.000000,0.000000,0.000000,0.000000
12812481.000000,-2.346383,-1.662175,1.120550,-1.412365,1.738146,1.196629,-0.571942,0.620550,0.008045,1.245041,-0.445818,-0.424965,1.148505,-0.145517,-14.501605,26.280560,-8.384903,-8.419008,-0.211093,0.966903,-0.122819,0.000000,0.000000,0.000000,0.000000,0.000000,0.000000
12812482.000000,-2.345765,-1.662183,1.121807,-1.412815,1.737733,1.197792,-0.572078,0.619788,0.003455,1.241630,-0.445060,-0.420658,1.145674,-0.139456,-14.501605,26.649517,-8.730057,-8.419008,-0.252291,1.045638,-0.182328,0.000000,0.000000,0.000000,0.000000,0.000000,0.000000
12812483.000000,-2.345148,-1.662202,1.123053,-1.413264,1.737335,1.198974,-0.572227,0.618491,-0.002999,1.248136,-0.446391,-0.413487,1.152082,-0.144089,-14.251666,27.454876,-9.099014,-8.343630,-0.276095,1.084090,-0.136552,0.000000,0.000000,0.000000,0.000000,0.000000,0.000000
12812484.000000,-2.344526,-1.662226,1.124286,-1.413723,1.736944,1.200150,-0.572362,0.616719,-0.010977,1.251300,-0.454659,-0.403354,1.156694,-0.139290,-13.906512,28.581585,-9.638565,-8.169069,-0.287997,1.077682,-0.182328,0.000000,0.000000,0.000000,0.000000,0.000000,0.000000
12812485.000000,-2.343913,-1.662248,1.125490,-1.414176,1.736556,1.201346,-0.572502,0.616065,-0.012555,1.229574,-0.461194,-0.395265,1.160803,-0.137469,-13.533587,29.855083,-10.372513,-8.022280,-0.330111,1.058456,-0.182328,0.000000,0.000000,0.000000,0.000000,0.000000,0.000000
12812486.000000,-2.343291,-1.662261,1.126710,-1.414634,1.736163,1.202544,-0.572645,0.613153,-0.015534,1.231891,-0.464981,-0.386978,1.169035,-0.138116,-13.140826,31.128582,-11.332596,-7.899293,-0.300814,1.142684,-0.116410,0.000000,0.000000,0.000000,0.000000,0.000000,0.000000
12812487.000000,-2.342691,-1.662269,1.127910,-1.415091,1.735777,1.203726,-0.572775,0.618109,-0.015305,1.222402,-0.459236,-0.382846,1.173816,-0.137390,-12.593341,32.326702,-12.264908,-7.847719,-0.216586,1.162826,-0.188737,0.000000,0.000000,0.000000,0.000000,0.000000,0.000000
12812488.000000,-2.342088,-1.662278,1.129130,-1.415533,1.735384,1.204930,-0.572916,0.609614,-0.013255,1.214434,-0.454640,-0.390149,1.176685,-0.141386,-12.073627,33.453411,-13.244827,-7.970705,-0.103060,1.194869,-0.142960,0.000000,0.000000,0.000000,0.000000,0.000000,0.000000
12812489.000000,-2.341489,-1.662268,1.130374,-1.415983,1.734987,1.206099,-0.573051,0.604831,-0.005263,1.230559,-0.449072,-0.388267,1.170279,-0.139243,-11.506305,34.187359,-14.327896,-8.022280,-0.031649,1.396285,-0.136552,0.000000,0.000000,0.000000,0.000000,0.000000,0.000000
12812490.000000,-2.340902,-1.662268,1.131602,-1.416427,1.734601,1.207290,-0.573179,0.597611,-0.004226,1.230264,-0.445043,-0.383546,1.175013,-0.129891,-11.085773,34.972881,-15.260208,-8.121462,0.052579,1.526290,-0.196061,0.000000,0.000000,0.000000,0.000000,0.000000,0.000000
12812491.000000,-2.340311,-1.662267,1.132848,-1.416880,1.734204,1.208479,-0.573315,0.592471,-0.000210,1.244713,-0.447550,-0.384888,1.170161,-0.131310,-10.736651,35.607647,-16.140945,-8.121462,0.147794,1.630660,-0.175919,0.000000,0.000000,0.000000,0.000000,0.000000,0.000000
12812492.000000,-2.339729,-1.662269,1.134073,-1.417334,1.733816,1.209647,-0.573450,0.587273,-0.002842,1.226157,-0.444315,-0.382065,1.173376,-0.130857,-10.391498,36.194805,-16.755875,-8.169069,0.147794,1.682845,-0.175919,0.000000,0.000000,0.000000,0.000000,0.000000,0.000000
12812493.000000,-2.339142,-1.662268,1.135336,-1.417782,1.733436,1.210833,-0.573584,0.587453,0.000811,1.223330,-0.445493,-0.380833,1.170444,-0.132162,-10.169330,36.658978,-17.517593,-8.097658,0.154203,1.662704,-0.142960,0.000000,0.000000,0.000000,0.000000,0.000000,0.000000
12812494.000000,-2.338558,-1.662276,1.136584,-1.418223,1.733068,1.211996,-0.573708,0.583804,-0.000916,1.236504,-0.445267,-0.380065,1.192163,-0.129178,-9.919391,37.150921,-17.811172,-8.196840,0.064481,1.656295,-0.196061,0.000000,0.000000,0.000000,0.000000,0.000000,0.000000
12812495.000000,-2.337994,-1.662285,1.137823,-1.418664,1.732690,1.213178,-0.573838,0.576919,-0.001239,1.232740,-0.442359,-0.386460,1.184322,-0.125984,-9.598041,37.591290,-18.128555,-8.292055,0.058073,1.578475,-0.163102,0.000000,0.000000,0.000000,0.000000,0.000000,0.000000
12812496.000000,-2.337437,-1.662309,1.139094,-1.419084,1.732312,1.214350,-0.573968,0.568660,-0.007768,1.254893,-0.433890,-0.379079,1.184535,-0.131068,-9.201312,38.154644,-18.596695,-8.518190,0.052579,1.539108,-0.149369,0.000000,0.000000,0.000000,0.000000,0.000000,0.000000
12812497.000000,-2.336878,-1.662335,1.140346,-1.419502,1.731953,1.215495,-0.574092,0.561929,-0.014580,1.267931,-0.427220,-0.370126,1.177392,-0.129106,-8.832355,38.666424,-18.890274,-8.863344,-0.043551,1.611434,-0.202470,0.000000,0.000000,0.000000,0.000000,0.000000,0.000000
12812498.000000,-2.336342,-1.662373,1.141641,-1.419901,1.731577,1.216650,-0.574234,0.551296,-0.022177,1.267193,-0.418581,-0.369914,1.170497,-0.127974,-8.411822,39.281353,-19.505203,-9.283876,0.015958,1.695663,-0.116410,0.000000,0.000000,0.000000,0.000000,0.000000,0.000000
12812499.000000,-2.335803,-1.662416,1.142942,-1.420316,1.731212,1.217805,-0.574356,0.543225,-0.027631,1.290099,-0.416881,-0.362541,1.162345,-0.122366,-7.991290,39.892315,-20.068558,-9.529848,0.040677,1.779891,-0.163102,0.000000,0.000000,0.000000,0.000000,0.000000,0.000000
12812500.000000,-2.335277,-1.662464,1.144234,-1.420724,1.730860,1.218957,-0.574486,0.540655,-0.038018,1.289495,-0.409095,-0.355871,1.162001,-0.119918,-7.542986,40.503277,-20.782669,-9.775820,0.015958,1.721298,-0.149369,0.000000,0.000000,0.000000,0.000000,0.000000,0.000000
12812501.000000,-2.334752,-1.662506,1.145550,-1.421131,1.730496,1.220126,-0.574620,0.528310,-0.037129,1.309238,-0.408665,-0.362133,1.153428,-0.124384,-7.150225,41.019024,-21.445206,-9.926577,0.046171,1.656295,-0.110001,0.000000,0.000000,0.000000,0.000000,0.000000,0.000000
12812502.000000,-2.334228,-1.662551,1.146850,-1.421539,1.730134,1.221261,-0.574743,0.526108,-0.041604,1.312767,-0.402895,-0.355379,1.146882,-0.119469,-6.777300,41.483196,-21.837967,-9.997988,0.034269,1.682845,-0.163102,0.000000,0.000000,0.000000,0.000000,0.000000,0.000000
12812503.000000,-2.333713,-1.662596,1.148136,-1.421947,1.729770,1.222414,-0.574874,0.523550,-0.042116,1.299845,-0.412174,-0.354648,1.140570,-0.119050,-6.432147,41.947369,-22.278336,-9.950380,0.123990,1.741439,-0.122819,0.000000,0.000000,0.000000,0.000000,0.000000,0.000000
12812504.000000,-2.333197,-1.662640,1.149410,-1.422352,1.729408,1.223559,-0.574991,0.514690,-0.042076,1.300358,-0.408412,-0.360052,1.127496,-0.120766,-6.182208,42.387737,-22.230728,-9.898806,0.129484,1.903487,-0.163102,0.000000,0.000000,0.000000,0.000000,0.000000,0.000000
12812505.000000,-2.332700,-1.662681,1.150687,-1.422764,1.729045,1.224695,-0.575113,0.517971,-0.040604,1.287586,-0.409704,-0.358383,1.130842,-0.118055,-5.813250,42.756695,-22.377518,-9.775820,0.105680,1.981307,-0.175919,0.000000,0.000000,0.000000,0.000000,0.000000,0.000000
12812506.000000,-2.332193,-1.662719,1.151971,-1.423162,1.728693,1.225858,-0.575233,0.514196,-0.040769,1.273977,-0.406073,-0.352199,1.129813,-0.120384,-5.515704,43.050274,-22.325943,-9.728212,0.069974,1.942855,-0.188737,0.000000,0.000000,0.000000,0.000000,0.000000,0.000000
12812507.000000,-2.331699,-1.662749,1.153281,-1.423575,1.728344,1.227001,-0.575365,0.500359,-0.038451,1.290119,-0.408669,-0.348528,1.155642,-0.124936,-5.118975,43.220867,-22.548111,-9.553652,0.076383,1.968490,-0.142960,0.000000,0.000000,0.000000,0.000000,0.000000,0.000000
12812508.000000,-2.331214,-1.662776,1.154559,-1.423997,1.727992,1.228155,-0.575486,0.498468,-0.034377,1.285639,-0.407446,-0.350775,1.149827,-0.126181,-4.821429,43.268475,-22.647293,-9.256105,0.064481,1.962081,-0.155778,0.000000,0.000000,0.000000,0.000000,0.000000,0.000000
12812509.000000,-2.330727,-1.662806,1.155855,-1.424409,1.727633,1.229314,-0.575603,0.492712,-0.032961,1.301518,-0.413194,-0.349563,1.145595,-0.126234,-4.476275,43.367657,-22.817886,-9.061708,0.112089,1.942855,-0.182328,0.000000,0.000000,0.000000,0.000000,0.000000,0.000000
12812510.000000,-2.330242,-1.662831,1.157157,-1.424832,1.727273,1.230451,-0.575733,0.486777,-0.029264,1.297565,-0.415306,-0.350626,1.145893,-0.125014,-4.154925,43.343853,-23.286026,-8.787966,0.219205,1.968490,-0.122819,0.000000,0.000000,0.000000,0.000000,0.000000,0.000000
12812511.000000,-2.329776,-1.662855,1.158467,-1.425243,1.726937,1.231600,-0.575848,0.480901,-0.026403,1.289085,-0.420532,-0.351016,1.142756,-0.123652,-3.829607,43.292278,-23.651016,-8.664980,0.189908,2.007858,-0.182328,0.000000,0.000000,0.000000,0.000000,0.000000,0.000000
12812512.000000,-2.329306,-1.662873,1.159785,-1.425662,1.726587,1.232758,-0.575975,0.474018,-0.026140,1.308441,-0.419016,-0.348321,1.166189,-0.123541,-3.508257,43.173260,-24.071548,-8.490419,0.219205,2.014266,-0.116410,0.000000,0.000000,0.000000,0.000000,0.000000,0.000000
12812513.000000,-2.328848,-1.662901,1.161062,-1.426087,1.726246,1.233901,-0.576092,0.465097,-0.026425,1.294215,-0.421726,-0.353922,1.162431,-0.119515,-3.139300,43.197063,-24.218338,-8.292055,0.231107,1.988631,-0.142960,0.000000,0.000000,0.000000,0.000000,0.000000,0.000000
12812514.000000,-2.328388,-1.662927,1.162360,-1.426508,1.725912,1.235055,-0.576198,0.462231,-0.026201,1.302249,-0.421016,-0.346301,1.158355,-0.110708,-2.841753,43.197063,-24.365128,-8.069887,0.261320,1.981307,-0.208878,0.000000,0.000000,0.000000,0.000000,0.000000,0.000000
12812515.000000,-2.327921,-1.662950,1.163634,-1.426943,1.725571,1.236175,-0.576322,0.462133,-0.025393,1.308989,-0.426272,-0.349386,1.155577,-0.114661,-2.591815,43.173260,-24.412735,-7.700929,0.273221,2.144271,-0.122819,0.000000,0.000000,0.000000,0.000000,0.000000,0.000000
12812516.000000,-2.327463,-1.662972,1.164913,-1.427372,1.725239,1.237324,-0.576431,0.461166,-0.024057,1.292378,-0.426011,-0.346183,1.148177,-0.112204,-2.322039,43.121685,-24.341324,-7.403383,0.255826,2.150680,-0.175919,0.000000,0.000000,0.000000,0.000000,0.000000,0.000000
12812517.000000,-2.327010,-1.663002,1.166214,-1.427816,1.724899,1.238496,-0.576541,0.453203,-0.025702,1.305999,-0.434026,-0.341853,1.151369,-0.111783,-2.024493,43.173260,-24.511917,-7.006654,0.327238,1.962081,-0.196061,0.000000,0.000000,0.000000,0.000000,0.000000,0.000000
12812518.000000,-2.326562,-1.663022,1.167493,-1.428262,1.724571,1.239645,-0.576659,0.457951,-0.020501,1.294767,-0.436740,-0.336648,1.150449,-0.108804,-1.726946,43.097881,-24.682510,-6.637697,0.332731,1.832076,-0.155778,0.000000,0.000000,0.000000,0.000000,0.000000,0.000000
12812519.000000,-2.326127,-1.663038,1.168807,-1.428705,1.724241,1.240792,-0.576769,0.452166,-0.019268,1.289992,-0.439641,-0.336891,1.136582,-0.109246,-1.354022,42.998699,-25.126846,-6.340150,0.332731,1.865035,-0.169511,0.000000,0.000000,0.000000,0.000000,0.000000,0.000000
12812520.000000,-2.325693,-1.663065,1.170120,-1.429150,1.723913,1.241918,-0.576877,0.440508,-0.022257,1.301231,-0.439156,-0.333346,1.127993,-0.110110,-0.909686,43.050274,-25.567215,-6.117982,0.369352,2.033492,-0.169511,0.000000,0.000000,0.000000,0.000000,0.000000,0.000000
12812521.000000,-2.325274,-1.663093,1.171422,-1.429600,1.723592,1.243055,-0.576989,0.434486,-0.024095,1.300642,-0.451458,-0.331349,1.124052,-0.110476,-0.512957,43.097881,-26.154373,-5.848207,0.410551,2.163497,-0.175919,0.000000,0.000000,0.000000,0.000000,0.000000,0.000000
12812522.000000,-2.324850,-1.663116,1.172712,-1.430053,1.723272,1.244196,-0.577100,0.429782,-0.024367,1.305368,-0.447114,-0.323815,1.124438,-0.113418,-0.092425,43.097881,-26.352737,-5.574464,0.416959,2.313644,-0.116410,0.000000,0.000000,0.000000,0.000000,0.000000,0.000000
12812523.000000,-2.324428,-1.663140,1.173994,-1.430510,1.722940,1.245319,-0.577202,0.436947,-0.025091,1.290026,-0.447886,-0.323710,1.122852,-0.110210,0.228925,43.121685,-26.598709,-5.376100,0.440763,2.437240,-0.175919,0.000000,0.000000,0.000000,0.000000,0.000000,0.000000
12812524.000000,-2.324004,-1.663166,1.175284,-1.430965,1.722617,1.246464,-0.577312,0.428364,-0.025524,1.280559,-0.449657,-0.318670,1.118916,-0.106928,0.526471,43.145489,-26.697891,-5.030946,0.458158,2.417098,-0.142960,0.000000,0.000000,0.000000,0.000000,0.000000,0.000000
12812525.000000,-2.323585,-1.663186,1.176570,-1.431429,1.722298,1.247597,-0.577411,0.427464,-0.021774,1.292189,-0.450123,-0.313557,1.142871,-0.102477,0.796247,43.121685,-26.670120,-4.685792,0.464567,2.320052,-0.175919,0.000000,0.000000,0.000000,0.000000,0.000000,0.000000
12812526.000000,-2.323167,-1.663208,1.177829,-1.431894,1.721974,1.248743,-0.577510,0.424938,-0.022714,1.281206,-0.454457,-0.317538,1.143211,-0.099568,0.994611,43.121685,-26.523331,-4.340639,0.530485,2.222091,-0.196061,0.000000,0.000000,0.000000,0.000000,0.000000,0.000000
12812527.000000,-2.322747,-1.663229,1.179084,-1.432367,1.721644,1.249898,-0.577620,0.424037,-0.020743,1.279836,-0.463962,-0.320272,1.148652,-0.103710,1.216779,43.145489,-26.182144,-3.844728,0.589994,2.098495,-0.142960,0.000000,0.000000,0.000000,0.000000,0.000000,0.000000
12812528.000000,-2.322337,-1.663256,1.180345,-1.432832,1.721318,1.251024,-0.577716,0.422615,-0.020303,1.268906,-0.465756,-0.317558,1.149381,-0.098704,1.415143,43.220867,-26.205948,-3.523378,0.655912,2.066451,-0.196061,0.000000,0.000000,0.000000,0.000000,0.000000,0.000000
12812529.000000,-2.321932,-1.663280,1.181604,-1.433289,1.721017,1.252170,-0.577819,0.419546,-0.021824,1.257395,-0.459382,-0.306460,1.148911,-0.096822,1.665082,43.244671,-25.983780,-3.301210,0.601896,1.988631,-0.202470,0.000000,0.000000,0.000000,0.000000,0.000000,0.000000
12812530.000000,-2.321516,-1.663300,1.182873,-1.433749,1.720702,1.253327,-0.577927,0.418594,-0.019252,1.266308,-0.459276,-0.309410,1.149393,-0.102263,1.811872,43.244671,-25.936172,-3.154421,0.613798,1.865035,-0.149369,0.000000,0.000000,0.000000,0.000000,0.000000,0.000000
12812531.000000,-2.321116,-1.663327,1.184120,-1.434204,1.720390,1.254454,-0.578022,0.413658,-0.022232,1.256044,-0.453788,-0.310218,1.142598,-0.102169,2.061811,43.320049,-25.912369,-3.126650,0.608304,1.884261,-0.202470,0.000000,0.000000,0.000000,0.000000,0.000000,0.000000
12812532.000000,-2.320713,-1.663347,1.185382,-1.434637,1.720077,1.255591,-0.578130,0.407114,-0.022766,1.267290,-0.447224,-0.308417,1.129204,-0.105132,2.208601,43.320049,-25.936172,-3.225832,0.620206,1.968490,-0.169511,0.000000,0.000000,0.000000,0.000000,0.000000,0.000000
12812533.000000,-2.320303,-1.663364,1.186611,-1.435078,1.719773,1.256708,-0.578229,0.409779,-0.019439,1.270646,-0.441168,-0.306996,1.119191,-0.101429,2.260175,43.292278,-25.813187,-3.225832,0.644010,2.118636,-0.188737,0.000000,0.000000,0.000000,0.000000,0.000000,0.000000
12812534.000000,-2.319897,-1.663381,1.187849,-1.435516,1.719470,1.257861,-0.578332,0.407693,-0.016024,1.252274,-0.439077,-0.305913,1.122880,-0.104375,2.283979,43.220867,-25.642593,-3.178224,0.649503,2.072860,-0.175919,0.000000,0.000000,0.000000,0.000000,0.000000,0.000000
12812535.000000,-2.319484,-1.663395,1.189097,-1.435948,1.719153,1.259038,-0.578431,0.406245,-0.014172,1.260907,-0.433547,-0.308305,1.133196,-0.098984,2.283979,43.173260,-25.642593,-3.154421,0.757535,1.851302,-0.215287,0.000000,0.000000,0.000000,0.000000,0.000000,0.000000
12812536.000000,-2.319071,-1.663392,1.190301,-1.436388,1.718854,1.260194,-0.578535,0.406558,-0.003278,1.236750,-0.434101,-0.306153,1.138217,-0.104125,2.133222,42.851910,-25.345047,-3.055238,0.751127,1.689254,-0.169511,0.000000,0.000000,0.000000,0.000000,0.000000,0.000000
12812537.000000,-2.318658,-1.663398,1.191530,-1.436807,1.718569,1.261359,-0.578630,0.406410,-0.006083,1.225026,-0.426768,-0.297864,1.140990,-0.099987,2.034040,42.705120,-25.198257,-3.027467,0.691617,1.584884,-0.188737,0.000000,0.000000,0.000000,0.000000,0.000000,0.000000
12812538.000000,-2.318238,-1.663399,1.192767,-1.437226,1.718276,1.262506,-0.578727,0.410565,-0.007009,1.237277,-0.421239,-0.292596,1.141943,-0.098860,1.934858,42.510723,-25.174454,-3.102846,0.667814,1.597701,-0.175919,0.000000,0.000000,0.000000,0.000000,0.000000,0.000000
12812539.000000,-2.317836,-1.663406,1.193988,-1.437630,1.717990,1.263657,-0.578829,0.408732,-0.008080,1.232453,-0.421396,-0.293417,1.138322,-0.102602,1.962629,42.463116,-25.249832,-3.202028,0.625699,1.727706,-0.155778,0.000000,0.000000,0.000000,0.000000,0.000000,0.000000
12812540.000000,-2.317431,-1.663409,1.195223,-1.438036,1.717710,1.264803,-0.578924,0.406607,-0.007483,1.242946,-0.411621,-0.292872,1.132856,-0.103403,1.934858,42.363934,-25.396622,-3.301210,0.554288,1.923629,-0.169511,0.000000,0.000000,0.000000,0.000000,0.000000,0.000000
12812541.000000,-2.317032,-1.663407,1.196458,-1.438430,1.717434,1.265930,-0.579029,0.406814,-0.002276,1.238289,-0.401786,-0.287757,1.130040,-0.101495,1.887250,42.193340,-25.789383,-3.475771,0.476469,2.131454,-0.149369,0.000000,0.000000,0.000000,0.000000,0.000000,0.000000
12812542.000000,-2.316629,-1.663414,1.197712,-1.438821,1.717164,1.267085,-0.579121,0.403925,-0.003876,1.234529,-0.393306,-0.286459,1.137228,-0.096886,1.911054,42.117962,-26.229752,-3.598757,0.464567,2.177230,-0.208878,0.000000,0.000000,0.000000,0.000000,0.000000,0.000000
12812543.000000,-2.316223,-1.663419,1.198948,-1.439213,1.716885,1.268223,-0.579224,0.403015,-0.001896,1.243633,-0.385654,-0.286184,1.159313,-0.097538,1.911054,42.046551,-26.400345,-3.622560,0.494779,2.150680,-0.175919,0.000000,0.000000,0.000000,0.000000,0.000000,0.000000
12812544.000000,-2.315815,-1.663424,1.200162,-1.439612,1.716608,1.269364,-0.579323,0.403218,-0.003491,1.228412,-0.387202,-0.279442,1.156447,-0.097081,1.764264,41.971172,-26.574905,-3.499574,0.584501,2.183639,-0.163102,0.000000,0.000000,0.000000,0.000000,0.000000,0.000000
12812545.000000,-2.315413,-1.663428,1.201382,-1.439991,1.716343,1.270502,-0.579413,0.402404,-0.002037,1.235281,-0.383058,-0.276100,1.146132,-0.094222,1.712690,41.923565,-26.547134,-3.448000,0.613798,2.255050,-0.215287,0.000000,0.000000,0.000000,0.000000,0.000000,0.000000
12812546.000000,-2.315010,-1.663437,1.202574,-1.440377,1.716079,1.271628,-0.579515,0.402279,-0.005009,1.214606,-0.381954,-0.269405,1.139396,-0.100876,1.712690,41.923565,-26.328934,-3.376589,0.649503,2.228500,-0.163102,0.000000,0.000000,0.000000,0.000000,0.000000,0.000000
12812547.000000,-2.314608,-1.663441,1.203785,-1.440751,1.715819,1.272764,-0.579607,0.404041,-0.005461,1.202391,-0.378399,-0.266253,1.131528,-0.097450,1.665082,41.848186,-26.154373,-3.348818,0.601896,2.215682,-0.196061,0.000000,0.000000,0.000000,0.000000,0.000000,0.000000
12812548.000000,-2.314217,-1.663454,1.204985,-1.441124,1.715557,1.273922,-0.579705,0.397905,-0.008806,1.207677,-0.381243,-0.257250,1.133483,-0.093789,1.764264,41.899761,-25.761612,-3.348818,0.524076,2.072860,-0.149369,0.000000,0.000000,0.000000,0.000000,0.000000,0.000000
12812549.000000,-2.313832,-1.663464,1.206190,-1.441496,1.715295,1.275052,-0.579797,0.397387,-0.009862,1.202087,-0.373526,-0.257800,1.128444,-0.093487,1.835676,41.899761,-25.714005,-3.376589,0.482877,2.033492,-0.149369,0.000000,0.000000,0.000000,0.000000,0.000000,0.000000
12812550.000000,-2.313447,-1.663466,1.207391,-1.441863,1.715041,1.276191,-0.579877,0.394174,-0.005720,1.190169,-0.374419,-0.252682,1.126119,-0.086491,1.986432,41.824383,-25.491837,-3.376589,0.422452,2.033492,-0.215287,0.000000,0.000000,0.000000,0.000000,0.000000,0.000000
12812551.000000,-2.313057,-1.663476,1.208577,-1.442232,1.714784,1.277320,-0.579972,0.391086,-0.008209,1.199099,-0.369999,-0.251075,1.124214,-0.086357,2.109418,41.848186,-25.368851,-3.424196,0.428861,1.988631,-0.142960,0.000000,0.000000,0.000000,0.000000,0.000000,0.000000
12812552.000000,-2.312677,-1.663478,1.209783,-1.442592,1.714520,1.278468,-0.580057,0.385616,-0.007610,1.194351,-0.365650,-0.257370,1.133882,-0.081806,2.208601,41.776775,-25.297440,-3.424196,0.506681,1.877853,-0.188737,0.000000,0.000000,0.000000,0.000000,0.000000,0.000000
12812553.000000,-2.312307,-1.663480,1.210991,-1.442952,1.714263,1.279621,-0.580146,0.378665,-0.007310,1.201719,-0.360619,-0.258661,1.135076,-0.085474,2.406965,41.701397,-25.297440,-3.499574,0.506681,1.806442,-0.175919,0.000000,0.000000,0.000000,0.000000,0.000000,0.000000
12812554.000000,-2.311931,-1.663476,1.212176,-1.443307,1.714009,1.280749,-0.580235,0.387486,-0.005462,1.197018,-0.353942,-0.255670,1.134639,-0.082583,2.482343,41.554607,-25.321243,-3.570986,0.518583,1.767074,-0.182328,0.000000,0.000000,0.000000,0.000000,0.000000,0.000000
12812555.000000,-2.311558,-1.663477,1.213355,-1.443660,1.713764,1.281890,-0.580326,0.381107,-0.005879,1.183711,-0.352906,-0.252291,1.130589,-0.081555,2.629133,41.483196,-25.099075,-3.622560,0.500272,1.773483,-0.149369,0.000000,0.000000,0.000000,0.000000,0.000000,0.000000
12812556.000000,-2.311182,-1.663480,1.214542,-1.444017,1.713513,1.283017,-0.580406,0.377968,-0.004307,1.198723,-0.350904,-0.256602,1.134899,-0.077721,2.728315,41.459393,-24.880875,-3.547182,0.554288,1.806442,-0.208878,0.000000,0.000000,0.000000,0.000000,0.000000,0.000000
12812557.000000,-2.310813,-1.663473,1.215699,-1.444366,1.713262,1.284145,-0.580494,0.375451,-0.000703,1.184861,-0.350751,-0.257176,1.131949,-0.083079,2.752119,41.336407,-24.559525,-3.448000,0.524076,1.981307,-0.169511,0.000000,0.000000,0.000000,0.000000,0.000000,0.000000
12812558.000000,-2.310440,-1.663459,1.216864,-1.444714,1.713014,1.285287,-0.580574,0.371313,0.003641,1.190703,-0.345735,-0.251990,1.128998,-0.079686,2.779890,41.138042,-24.242142,-3.400392,0.470060,2.047225,-0.188737,0.000000,0.000000,0.000000,0.000000,0.000000,0.000000
12812559.000000,-2.310062,-1.663449,1.218022,-1.445062,1.712765,1.286430,-0.580655,0.379130,0.004813,1.173256,-0.345998,-0.246035,1.135471,-0.077897,2.704511,41.019024,-24.119156,-3.301210,0.476469,1.909896,-0.196061,0.000000,0.000000,0.000000,0.000000,0.000000,0.000000
12812560.000000,-2.309685,-1.663431,1.219204,-1.445405,1.712530,1.287589,-0.580743,0.379908,0.008663,1.164325,-0.345239,-0.244726,1.129522,-0.082298,2.680707,40.773052,-24.119156,-3.249635,0.440763,1.708480,-0.163102,0.000000,0.000000,0.000000,0.000000,0.000000,0.000000
12812561.000000,-2.309307,-1.663418,1.220406,-1.445747,1.712291,1.288741,-0.580820,0.377397,0.008985,1.183972,-0.338898,-0.244028,1.149328,-0.078788,2.605329,40.626263,-24.341324,-3.178224,0.434354,1.624252,-0.208878,0.000000,0.000000,0.000000,0.000000,0.000000,0.000000
12812562.000000,-2.308950,-1.663404,1.221585,-1.446087,1.712048,1.289864,-0.580907,0.372403,0.009813,1.176731,-0.338769,-0.248829,1.132112,-0.079579,2.680707,40.455669,-24.611099,-3.178224,0.464567,1.676437,-0.163102,0.000000,0.000000,0.000000,0.000000,0.000000,0.000000
12812563.000000,-2.308589,-1.663395,1.222782,-1.446416,1.711803,1.290998,-0.580985,0.366668,0.008179,1.197713,-0.337743,-0.249647,1.127105,-0.076430,2.779890,40.380291,-24.952286,-3.225832,0.512174,1.760665,-0.196061,0.000000,0.000000,0.000000,0.000000,0.000000,0.000000
12812564.000000,-2.308219,-1.663392,1.223967,-1.446736,1.711568,1.292120,-0.581065,0.367630,0.005915,1.211759,-0.333887,-0.248653,1.124764,-0.081057,2.779890,40.356487,-25.297440,-3.376589,0.530485,1.825668,-0.182328,0.000000,0.000000,0.000000,0.000000,0.000000,0.000000
12812565.000000,-2.307863,-1.663381,1.225151,-1.447050,1.711339,1.293236,-0.581152,0.362400,0.006749,1.200234,-0.327262,-0.237729,1.119896,-0.081107,2.803693,40.233501,-25.396622,-3.598757,0.512174,1.955673,-0.130143,0.000000,0.000000,0.000000,0.000000,0.000000,0.000000
12812566.000000,-2.307500,-1.663381,1.226346,-1.447375,1.711113,1.294368,-0.581221,0.361025,0.004446,1.207156,-0.324963,-0.233738,1.117653,-0.076801,2.728315,40.233501,-25.543411,-3.598757,0.500272,2.001449,-0.202470,0.000000,0.000000,0.000000,0.000000,0.000000,0.000000
12812567.000000,-2.307140,-1.663377,1.227506,-1.447693,1.710891,1.295479,-0.581304,0.359408,0.003481,1.190153,-0.321683,-0.233374,1.119484,-0.076998,2.704511,40.209698,-25.420425,-3.646364,0.410551,2.027084,-0.182328,0.000000,0.000000,0.000000,0.000000,0.000000,0.000000
12812568.000000,-2.306766,-1.663375,1.228674,-1.448014,1.710660,1.296607,-0.581387,0.363200,0.005018,1.178117,-0.319416,-0.231848,1.119268,-0.084572,2.529951,40.233501,-25.198257,-3.547182,0.410551,2.039901,-0.196061,0.000000,0.000000,0.000000,0.000000,0.000000,0.000000
12812569.000000,-2.306393,-1.663370,1.229823,-1.448335,1.710430,1.297721,-0.581476,0.362085,0.007187,1.183300,-0.318541,-0.226390,1.120874,-0.084552,2.430768,40.209698,-24.928482,-3.376589,0.434354,1.955673,-0.136552,0.000000,0.000000,0.000000,0.000000,0.000000,0.000000
12812570.000000,-2.306031,-1.663371,1.230983,-1.448651,1.710209,1.298863,-0.581557,0.362464,0.004676,1.167082,-0.322169,-0.226654,1.129457,-0.081638,2.307783,40.233501,-24.583328,-3.225832,0.446256,1.779891,-0.142960,0.000000,0.000000,0.000000,0.000000,0.000000,0.000000
12812571.000000,-2.305667,-1.663369,1.232167,-1.448967,1.709984,1.300005,-0.581632,0.360727,0.003448,1.180712,-0.319015,-0.223422,1.128862,-0.082461,2.208601,40.233501,-24.559525,-3.126650,0.494779,1.656295,-0.169511,0.000000,0.000000,0.000000,0.000000,0.000000,0.000000
12812572.000000,-2.305308,-1.663362,1.233309,-1.449266,1.709771,1.301123,-0.581705,0.369489,0.003661,1.165575,-0.312973,-0.221040,1.120805,-0.083465,2.160993,40.185894,-24.242142,-3.178224,0.422452,1.624252,-0.208878,0.000000,0.000000,0.000000,0.000000,0.000000,0.000000
12812573.000000,-2.304940,-1.663364,1.234470,-1.449564,1.709539,1.302255,-0.581786,0.369261,0.000956,1.154226,-0.305844,-0.220656,1.110947,-0.086719,2.034040,40.257305,-24.095352,-3.225832,0.494779,1.624252,-0.175919,0.000000,0.000000,0.000000,0.000000,0.000000,0.000000
12812574.000000,-2.304586,-1.663363,1.235641,-1.449856,1.709317,1.303366,-0.581865,0.363195,0.000220,1.166148,-0.298651,-0.216845,1.105973,-0.089342,2.061811,40.281109,-23.972366,-3.325014,0.500272,1.754256,-0.155778,0.000000,0.000000,0.000000,0.000000,0.000000,0.000000
12812575.000000,-2.304229,-1.663354,1.236794,-1.450143,1.709110,1.304488,-0.581934,0.357527,0.005071,1.162663,-0.296409,-0.215689,1.095966,-0.083016,1.911054,40.209698,-23.996170,-3.475771,0.405057,1.930038,-0.221696,0.000000,0.000000,0.000000,0.000000,0.000000,0.000000
12812576.000000,-2.303863,-1.663348,1.237959,-1.450438,1.708895,1.305633,-0.582020,0.358412,0.005485,1.169869,-0.297585,-0.213646,1.103319,-0.088218,1.712690,40.134319,-24.043777,-3.499574,0.398649,1.962081,-0.136552,0.000000,0.000000,0.000000,0.000000,0.000000,0.000000
12812577.000000,-2.303494,-1.663339,1.239096,-1.450719,1.708685,1.306772,-0.582092,0.362978,0.006140,1.155155,-0.286508,-0.211090,1.111500,-0.084115,1.442914,40.039104,-23.873184,-3.622560,0.369352,1.819259,-0.149369,0.000000,0.000000,0.000000,0.000000,0.000000,0.000000
12812578.000000,-2.303120,-1.663332,1.240256,-1.451012,1.708476,1.307907,-0.582161,0.364369,0.005491,1.146071,-0.288894,-0.210501,1.109214,-0.083535,1.169172,39.987530,-23.849380,-3.570986,0.374845,1.825668,-0.215287,0.000000,0.000000,0.000000,0.000000,0.000000,0.000000
12812579.000000,-2.302737,-1.663314,1.241404,-1.451302,1.708256,1.309037,-0.582241,0.369117,0.011397,1.157778,-0.286486,-0.210347,1.133077,-0.079394,0.748639,39.793133,-23.678787,-3.547182,0.405057,1.909896,-0.149369,0.000000,0.000000,0.000000,0.000000,0.000000,0.000000
12812580.000000,-2.302367,-1.663301,1.242523,-1.451592,1.708043,1.310154,-0.582305,0.370861,0.013412,1.140230,-0.285260,-0.212998,1.132701,-0.071753,0.427289,39.693951,-23.333633,-3.499574,0.410551,1.916305,-0.196061,0.000000,0.000000,0.000000,0.000000,0.000000,0.000000
12812581.000000,-2.301993,-1.663285,1.243666,-1.451871,1.707828,1.311301,-0.582378,0.368818,0.014979,1.149257,-0.282605,-0.213822,1.141478,-0.068743,0.177350,39.598736,-23.135269,-3.523378,0.470060,1.760665,-0.175919,0.000000,0.000000,0.000000,0.000000,0.000000,0.000000
12812582.000000,-2.301618,-1.663269,1.244802,-1.452139,1.707631,1.312419,-0.582445,0.368522,0.016133,1.140768,-0.274047,-0.209898,1.144052,-0.069773,-0.044818,39.499554,-23.111465,-3.670168,0.410551,1.735030,-0.188737,0.000000,0.000000,0.000000,0.000000,0.000000,0.000000
12812583.000000,-2.301248,-1.663257,1.245957,-1.452409,1.707436,1.313550,-0.582515,0.366382,0.015795,1.139017,-0.275089,-0.207135,1.139702,-0.070760,-0.266986,39.451946,-23.210648,-3.670168,0.351041,1.714889,-0.202470,0.000000,0.000000,0.000000,0.000000,0.000000,0.000000
12812584.000000,-2.300879,-1.663242,1.247130,-1.452668,1.707231,1.314676,-0.582584,0.363979,0.013132,1.159347,-0.271103,-0.201364,1.131343,-0.072196,-0.413775,39.376568,-23.456619,-3.868532,0.320829,1.760665,-0.196061,0.000000,0.000000,0.000000,0.000000,0.000000,0.000000
12812585.000000,-2.300522,-1.663234,1.248293,-1.452934,1.707027,1.315785,-0.582654,0.361854,0.008827,1.157447,-0.269724,-0.197818,1.120498,-0.072603,-0.512957,39.400372,-23.849380,-3.868532,0.297025,1.786300,-0.202470,0.000000,0.000000,0.000000,0.000000,0.000000,0.000000
12812586.000000,-2.300160,-1.663224,1.249458,-1.453182,1.706823,1.316898,-0.582726,0.359118,0.009568,1.150228,-0.263327,-0.196771,1.101808,-0.070132,-0.612139,39.400372,-24.095352,-3.967714,0.327238,1.916305,-0.163102,0.000000,0.000000,0.000000,0.000000,0.000000,0.000000
12812587.000000,-2.299800,-1.663215,1.250635,-1.453435,1.706623,1.317993,-0.582792,0.358085,0.010155,1.164546,-0.260585,-0.194384,1.099330,-0.066159,-0.687518,39.400372,-24.365128,-4.090700,0.327238,2.066451,-0.175919,0.000000,0.000000,0.000000,0.000000,0.000000,0.000000
12812588.000000,-2.299453,-1.663210,1.251782,-1.453685,1.706426,1.319119,-0.582861,0.352056,0.005735,1.158597,-0.262592,-0.193888,1.098816,-0.064226,-0.663714,39.475750,-24.488113,-4.142274,0.344633,2.053634,-0.163102,0.000000,0.000000,0.000000,0.000000,0.000000,0.000000
12812589.000000,-2.299098,-1.663201,1.252939,-1.453928,1.706230,1.320247,-0.582926,0.349979,0.007538,1.168728,-0.255445,-0.193393,1.104280,-0.061351,-0.762896,39.475750,-24.583328,-4.213686,0.369352,2.001449,-0.182328,0.000000,0.000000,0.000000,0.000000,0.000000,0.000000
12812590.000000,-2.298750,-1.663197,1.254062,-1.454175,1.706034,1.321352,-0.582993,0.354640,0.004586,1.147070,-0.251024,-0.199847,1.102614,-0.060972,-0.786700,39.523357,-24.341324,-4.241457,0.320829,1.981307,-0.155778,0.000000,0.000000,0.000000,0.000000,0.000000,0.000000
12812591.000000,-2.298397,-1.663189,1.255208,-1.454425,1.705833,1.322459,-0.583052,0.353353,0.005985,1.138362,-0.250939,-0.201950,1.095936,-0.058274,-0.834307,39.547161,-24.142960,-4.142274,0.320829,2.027084,-0.188737,0.000000,0.000000,0.000000,0.000000,0.000000,0.000000
12812592.000000,-2.298041,-1.663185,1.256346,-1.454670,1.705631,1.323561,-0.583115,0.354648,0.005901,1.148626,-0.251436,-0.198350,1.103893,-0.057912,-0.933489,39.622540,-23.774002,-4.118471,0.327238,2.066451,-0.188737,0.000000,0.000000,0.000000,0.000000,0.000000,0.000000
12812593.000000,-2.297704,-1.663171,1.257470,-1.454918,1.705435,1.324677,-0.583181,0.349736,0.010117,1.135739,-0.250466,-0.195924,1.106363,-0.058666,-0.885882,39.523357,-23.480423,-4.043092,0.332731,2.039901,-0.155778,0.000000,0.000000,0.000000,0.000000,0.000000,0.000000
12812594.000000,-2.297362,-1.663159,1.258617,-1.455163,1.705241,1.325812,-0.583239,0.346371,0.008663,1.152812,-0.247599,-0.193462,1.116717,-0.060614,-0.933489,39.475750,-23.309830,-4.043092,0.315336,1.923629,-0.196061,0.000000,0.000000,0.000000,0.000000,0.000000,0.000000
12812595.000000,-2.297034,-1.663148,1.259741,-1.455406,1.705054,1.326922,-0.583307,0.339446,0.007493,1.139567,-0.244801,-0.190092,1.111607,-0.061518,-0.711321,39.428143,-23.135269,-4.043092,0.261320,1.773483,-0.136552,0.000000,0.000000,0.000000,0.000000,0.000000,0.000000
12812596.000000,-2.296712,-1.663134,1.260887,-1.455639,1.704865,1.328044,-0.583359,0.333160,0.009812,1.137606,-0.242906,-0.189900,1.107555,-0.057443,-0.540728,39.376568,-23.163040,-4.066896,0.261320,1.682845,-0.202470,0.000000,0.000000,0.000000,0.000000,0.000000,0.000000
12812597.000000,-2.296384,-1.663117,1.262032,-1.455878,1.704667,1.329141,-0.583423,0.331379,0.010021,1.147738,-0.243812,-0.190712,1.103927,-0.058301,-0.413775,39.253582,-23.063858,-4.118471,0.297025,1.702071,-0.175919,0.000000,0.000000,0.000000,0.000000,0.000000,0.000000
12812598.000000,-2.296078,-1.663100,1.263174,-1.456125,1.704472,1.330262,-0.583487,0.324815,0.013021,1.144960,-0.241995,-0.194597,1.105285,-0.059142,-0.144000,39.130596,-23.210648,-4.019289,0.320829,1.702071,-0.136552,0.000000,0.000000,0.000000,0.000000,0.000000,0.000000
12812599.000000,-2.295765,-1.663085,1.264305,-1.456357,1.704287,1.331385,-0.583536,0.318780,0.010941,1.135891,-0.237478,-0.188830,1.105193,-0.060413,-0.017047,39.059185,-23.111465,-4.043092,0.339139,1.689254,-0.208878,0.000000,0.000000,0.000000,0.000000,0.000000,0.000000
12812600.000000,-2.295449,-1.663070,1.265434,-1.456591,1.704097,1.332480,-0.583596,0.320307,0.012010,1.124273,-0.234205,-0.189848,1.108381,-0.059885,0.105939,39.011578,-23.163040,-4.043092,0.381254,1.754256,-0.196061,0.000000,0.000000,0.000000,0.000000,0.000000,0.000000
12812601.000000,-2.295139,-1.663051,1.266562,-1.456824,1.703922,1.333601,-0.583658,0.316785,0.011478,1.116429,-0.233108,-0.182890,1.107891,-0.059597,0.205121,38.888592,-22.988480,-4.019289,0.332731,1.760665,-0.182328,0.000000,0.000000,0.000000,0.000000,0.000000,0.000000
12812602.000000,-2.294830,-1.663034,1.267691,-1.457065,1.703743,1.334722,-0.583721,0.313761,0.010419,1.133538,-0.234380,-0.183097,1.110678,-0.060310,0.304304,38.789410,-22.794083,-3.892336,0.308927,1.735030,-0.142960,0.000000,0.000000,0.000000,0.000000,0.000000,0.000000
12812603.000000,-2.294531,-1.663021,1.268792,-1.457298,1.703563,1.335832,-0.583772,0.308983,0.011530,1.118115,-0.234416,-0.183835,1.111027,-0.056863,0.403486,38.741802,-22.472733,-3.797121,0.291532,1.721298,-0.202470,0.000000,0.000000,0.000000,0.000000,0.000000,0.000000
12812604.000000,-2.294232,-1.662998,1.269927,-1.457537,1.703379,1.336952,-0.583837,0.304732,0.016054,1.114420,-0.236160,-0.183773,1.119051,-0.057886,0.474897,38.543438,-22.425125,-3.622560,0.255826,1.662704,-0.163102,0.000000,0.000000,0.000000,0.000000,0.000000,0.000000
12812605.000000,-2.293932,-1.662976,1.271068,-1.457771,1.703194,1.338072,-0.583894,0.304473,0.014788,1.134700,-0.231713,-0.179224,1.121293,-0.056747,0.625654,38.396648,-22.448929,-3.523378,0.231107,1.539108,-0.182328,0.000000,0.000000,0.000000,0.000000,0.000000,0.000000
12812606.000000,-2.293641,-1.662957,1.272192,-1.458001,1.703009,1.339199,-0.583955,0.298636,0.016284,1.129238,-0.237216,-0.179498,1.112743,-0.057821,0.748639,38.277630,-22.548111,-3.424196,0.297025,1.442062,-0.149369,0.000000,0.000000,0.000000,0.000000,0.000000,0.000000
12812607.000000,-2.293353,-1.662939,1.273348,-1.458230,1.702826,1.340333,-0.584010,0.291465,0.017522,1.153484,-0.239000,-0.177807,1.112580,-0.056526,0.923200,38.154644,-22.817886,-3.348818,0.320829,1.402694,-0.175919,0.000000,0.000000,0.000000,0.000000,0.000000,0.000000
12812608.000000,-2.293075,-1.662921,1.274491,-1.458463,1.702645,1.341433,-0.584068,0.286093,0.016749,1.149720,-0.235807,-0.176424,1.101690,-0.051643,1.169172,38.103069,-23.163040,-3.325014,0.344633,1.539108,-0.175919,0.000000,0.000000,0.000000,0.000000,0.000000,0.000000
12812609.000000,-2.292796,-1.662908,1.275642,-1.458691,1.702468,1.342541,-0.584127,0.279432,0.015072,1.143259,-0.234415,-0.180172,1.092438,-0.054088,1.367536,38.103069,-23.504227,-3.277406,0.369352,1.786300,-0.130143,0.000000,0.000000,0.000000,0.000000,0.000000,0.000000
12812610.000000,-2.292518,-1.662888,1.276796,-1.458916,1.702291,1.343639,-0.584177,0.277905,0.016430,1.154006,-0.229665,-0.179566,1.113364,-0.052440,1.565900,38.007854,-23.702591,-3.225832,0.315336,1.955673,-0.188737,0.000000,0.000000,0.000000,0.000000,0.000000,0.000000
12812611.000000,-2.292246,-1.662872,1.277935,-1.459145,1.702106,1.344757,-0.584236,0.278008,0.013641,1.148377,-0.230355,-0.182753,1.115775,-0.050389,1.740461,37.932476,-23.849380,-3.154421,0.339139,2.027084,-0.142960,0.000000,0.000000,0.000000,0.000000,0.000000,0.000000
12812612.000000,-2.291964,-1.662854,1.279081,-1.459374,1.701934,1.345885,-0.584281,0.275456,0.015823,1.163380,-0.232568,-0.178074,1.116398,-0.053100,1.811872,37.809490,-23.896988,-3.003664,0.303434,1.988631,-0.215287,0.000000,0.000000,0.000000,0.000000,0.000000,0.000000
12812613.000000,-2.291678,-1.662830,1.280196,-1.459617,1.701759,1.346986,-0.584334,0.278101,0.020938,1.138459,-0.233842,-0.175367,1.117674,-0.053958,1.764264,37.662701,-23.726395,-2.706117,0.285123,1.949264,-0.215287,0.000000,0.000000,0.000000,0.000000,0.000000,0.000000
12812614.000000,-2.291399,-1.662809,1.281334,-1.459849,1.701578,1.348101,-0.584397,0.279015,0.019779,1.135550,-0.236773,-0.172770,1.115983,-0.053449,1.712690,37.591290,-23.603409,-2.460146,0.374845,1.903487,-0.122819,0.000000,0.000000,0.000000,0.000000,0.000000,0.000000
12812615.000000,-2.291126,-1.662799,1.282470,-1.460093,1.701404,1.349217,-0.584441,0.275475,0.016319,1.146791,-0.239456,-0.173354,1.121643,-0.051016,1.740461,37.638897,-23.381241,-2.190370,0.428861,1.865035,-0.202470,0.000000,0.000000,0.000000,0.000000,0.000000,0.000000
12812616.000000,-2.290857,-1.662779,1.283584,-1.460333,1.701236,1.350316,-0.584500,0.275239,0.013624,1.134316,-0.236921,-0.175591,1.120407,-0.054346,1.764264,37.567486,-23.135269,-1.964235,0.422452,1.838485,-0.149369,0.000000,0.000000,0.000000,0.000000,0.000000,0.000000
12812617.000000,-2.290590,-1.662762,1.284727,-1.460551,1.701066,1.351417,-0.584545,0.270756,0.014823,1.127394,-0.229123,-0.173716,1.101360,-0.052295,1.911054,37.492107,-23.087662,-1.992006,0.416959,1.858627,-0.215287,0.000000,0.000000,0.000000,0.000000,0.000000,0.000000
12812618.000000,-2.290327,-1.662748,1.285844,-1.460766,1.700899,1.352527,-0.584605,0.266121,0.014351,1.138110,-0.225952,-0.173200,1.103847,-0.051208,2.061811,37.468304,-22.964676,-2.039613,0.315336,1.735030,-0.149369,0.000000,0.000000,0.000000,0.000000,0.000000,0.000000
12812619.000000,-2.290067,-1.662735,1.286980,-1.460985,1.700731,1.353645,-0.584649,0.264918,0.010472,1.132657,-0.225577,-0.167778,1.097962,-0.050396,2.184797,37.468304,-22.964676,-2.039613,0.315336,1.670028,-0.196061,0.000000,0.000000,0.000000,0.000000,0.000000,0.000000
12812620.000000,-2.289801,-1.662725,1.288122,-1.461196,1.700562,1.354765,-0.584703,0.264197,0.010826,1.144636,-0.220532,-0.169410,1.095518,-0.053764,2.184797,37.468304,-22.917068,-2.114992,0.351041,1.676437,-0.149369,0.000000,0.000000,0.000000,0.000000,0.000000,0.000000
12812621.000000,-2.289540,-1.662718,1.289256,-1.461414,1.700398,1.355860,-0.584749,0.262154,0.009453,1.138476,-0.217389,-0.164763,1.092669,-0.053514,2.160993,37.539715,-23.040054,-2.039613,0.351041,1.741439,-0.169511,0.000000,0.000000,0.000000,0.000000,0.000000,0.000000
12812622.000000,-2.289279,-1.662709,1.290396,-1.461619,1.700232,1.356972,-0.584790,0.261156,0.012554,1.135105,-0.215999,-0.164349,1.094270,-0.048284,2.160993,37.567486,-23.135269,-2.063417,0.434354,1.767074,-0.202470,0.000000,0.000000,0.000000,0.000000,0.000000,0.000000
12812623.000000,-2.289015,-1.662701,1.291529,-1.461833,1.700069,1.358085,-0.584845,0.259757,0.008948,1.143999,-0.212386,-0.156280,1.103819,-0.048415,2.133222,37.591290,-23.087662,-2.039613,0.452665,1.630660,-0.130143,0.000000,0.000000,0.000000,0.000000,0.000000,0.000000
12812624.000000,-2.288746,-1.662691,1.292638,-1.462036,1.699915,1.359209,-0.584880,0.262029,0.006817,1.131683,-0.214600,-0.158811,1.114523,-0.042407,1.962629,37.591290,-22.917068,-2.039613,0.434354,1.507064,-0.215287,0.000000,0.000000,0.000000,0.000000,0.000000,0.000000
12812625.000000,-2.288478,-1.662680,1.293759,-1.462239,1.699755,1.360325,-0.584930,0.263308,0.005740,1.146505,-0.209168,-0.161470,1.115172,-0.047109,1.863447,37.567486,-22.770279,-1.992006,0.434354,1.584884,-0.182328,0.000000,0.000000,0.000000,0.000000,0.000000,0.000000
12812626.000000,-2.288212,-1.662675,1.294849,-1.462439,1.699597,1.361412,-0.584976,0.263263,0.005101,1.122378,-0.204428,-0.157234,1.114984,-0.044104,1.740461,37.662701,-22.448929,-1.964235,0.393156,1.702071,-0.196061,0.000000,0.000000,0.000000,0.000000,0.000000,0.000000
12812627.000000,-2.287944,-1.662663,1.295958,-1.462632,1.699442,1.362521,-0.585026,0.263851,0.007734,1.112765,-0.199231,-0.156449,1.109090,-0.047433,1.542096,37.638897,-22.131546,-2.015810,0.410551,1.779891,-0.182328,0.000000,0.000000,0.000000,0.000000,0.000000,0.000000
12812628.000000,-2.287684,-1.662655,1.297088,-1.462820,1.699290,1.363622,-0.585071,0.261807,0.008360,1.131823,-0.191608,-0.154224,1.124412,-0.045186,1.466718,37.662701,-22.107742,-2.091188,0.398649,1.754256,-0.175919,0.000000,0.000000,0.000000,0.000000,0.000000,0.000000
12812629.000000,-2.287427,-1.662633,1.298213,-1.463010,1.699148,1.364745,-0.585114,0.259075,0.012826,1.128404,-0.191116,-0.155389,1.120021,-0.046361,1.442914,37.515911,-22.353714,-2.091188,0.351041,1.670028,-0.215287,0.000000,0.000000,0.000000,0.000000,0.000000,0.000000
12812630.000000,-2.287160,-1.662621,1.299364,-1.463188,1.699011,1.365866,-0.585166,0.258877,0.012990,1.127092,-0.188934,-0.151689,1.113270,-0.051621,1.292158,37.492107,-22.718704,-2.162599,0.279630,1.624252,-0.142960,0.000000,0.000000,0.000000,0.000000,0.000000,0.000000
12812631.000000,-2.286898,-1.662607,1.300497,-1.463373,1.698862,1.366969,-0.585208,0.259594,0.013259,1.123301,-0.187462,-0.148901,1.118439,-0.046011,1.169172,37.468304,-23.040054,-2.214174,0.327238,1.605026,-0.188737,0.000000,0.000000,0.000000,0.000000,0.000000,0.000000
12812632.000000,-2.286641,-1.662596,1.301646,-1.463556,1.698716,1.368070,-0.585253,0.258783,0.012382,1.130199,-0.185491,-0.146590,1.108365,-0.048911,1.069990,37.492107,-23.456619,-2.190370,0.374845,1.643478,-0.182328,0.000000,0.000000,0.000000,0.000000,0.000000,0.000000
12812633.000000,-2.286389,-1.662589,1.302796,-1.463724,1.698564,1.369168,-0.585292,0.256082,0.011377,1.145534,-0.180522,-0.147967,1.103424,-0.045541,1.046186,37.539715,-23.678787,-2.313356,0.398649,1.806442,-0.196061,0.000000,0.000000,0.000000,0.000000,0.000000,0.000000
12812634.000000,-2.286137,-1.662579,1.303928,-1.463887,1.698413,1.370252,-0.585335,0.246371,0.011717,1.135475,-0.173318,-0.149267,1.098966,-0.039139,0.923200,37.539715,-23.896988,-2.460146,0.416959,1.865035,-0.188737,0.000000,0.000000,0.000000,0.000000,0.000000,0.000000
12812635.000000,-2.285883,-1.662575,1.305062,-1.464043,1.698272,1.371350,-0.585374,0.247268,0.010211,1.123342,-0.171255,-0.148922,1.096957,-0.038819,0.847822,37.615093,-23.996170,-2.606935,0.405057,1.844894,-0.188737,0.000000,0.000000,0.000000,0.000000,0.000000,0.000000
12812636.000000,-2.285626,-1.662574,1.306167,-1.464201,1.698127,1.372432,-0.585414,0.250249,0.008113,1.135917,-0.169085,-0.148718,1.097095,-0.039010,0.748639,37.738079,-23.825577,-2.757692,0.393156,1.832076,-0.175919,0.000000,0.000000,0.000000,0.000000,0.000000,0.000000
12812637.000000,-2.285371,-1.662577,1.307283,-1.464364,1.697986,1.373520,-0.585455,0.249657,0.006155,1.126493,-0.168431,-0.144687,1.089732,-0.039405,0.625654,37.884869,-23.528030,-2.757692,0.393156,1.844894,-0.155778,0.000000,0.000000,0.000000,0.000000,0.000000,0.000000
12812638.000000,-2.285112,-1.662575,1.308408,-1.464526,1.697845,1.374609,-0.585488,0.253472,0.003466,1.137354,-0.165782,-0.140662,1.077238,-0.037023,0.451093,37.956280,-23.309830,-2.706117,0.374845,1.955673,-0.202470,0.000000,0.000000,0.000000,0.000000,0.000000,0.000000
12812639.000000,-2.284859,-1.662577,1.309508,-1.464684,1.697708,1.375698,-0.585535,0.255158,0.000209,1.120478,-0.163503,-0.137277,1.079324,-0.038768,0.328107,38.079266,-22.988480,-2.658510,0.339139,1.903487,-0.155778,0.000000,0.000000,0.000000,0.000000,0.000000,0.000000
12812640.000000,-2.284606,-1.662572,1.310640,-1.464833,1.697576,1.376830,-0.585569,0.252984,0.000164,1.117463,-0.159916,-0.139563,1.095440,-0.036080,0.177350,38.103069,-22.964676,-2.682314,0.303434,1.630660,-0.208878,0.000000,0.000000,0.000000,0.000000,0.000000,0.000000
12812641.000000,-2.284368,-1.662571,1.311764,-1.464978,1.697439,1.377939,-0.585610,0.246727,0.001936,1.133121,-0.151405,-0.139556,1.103208,-0.037506,0.252729,38.178448,-22.794083,-2.805300,0.231107,1.402694,-0.182328,0.000000,0.000000,0.000000,0.000000,0.000000,0.000000
12812642.000000,-2.284127,-1.662567,1.312885,-1.465119,1.697293,1.379058,-0.585652,0.244276,0.001880,1.127917,-0.148707,-0.139848,1.106565,-0.038463,0.252729,38.178448,-22.893265,-2.928285,0.279630,1.312057,-0.155778,0.000000,0.000000,0.000000,0.000000,0.000000,0.000000
12812643.000000,-2.283890,-1.662568,1.314010,-1.465246,1.697144,1.380160,-0.585682,0.236731,0.000026,1.136041,-0.145136,-0.140165,1.100660,-0.036201,0.328107,38.249859,-22.865494,-3.126650,0.339139,1.454879,-0.196061,0.000000,0.000000,0.000000,0.000000,0.000000,0.000000
12812644.000000,-2.283652,-1.662565,1.315123,-1.465373,1.697002,1.381235,-0.585727,0.234707,0.000349,1.127882,-0.140555,-0.139644,1.099431,-0.039017,0.304304,38.249859,-22.865494,-3.277406,0.386747,1.689254,-0.130143,0.000000,0.000000,0.000000,0.000000,0.000000,0.000000
12812645.000000,-2.283414,-1.662564,1.316242,-1.465489,1.696864,1.382340,-0.585755,0.235555,0.000481,1.118289,-0.133783,-0.138383,1.101349,-0.040428,0.276533,38.249859,-22.893265,-3.448000,0.410551,1.806442,-0.188737,0.000000,0.000000,0.000000,0.000000,0.000000,0.000000
12812646.000000,-2.283175,-1.662562,1.317372,-1.465607,1.696731,1.383437,-0.585794,0.231183,0.001064,1.131381,-0.129023,-0.138285,1.125546,-0.040242,0.205121,38.226055,-22.940872,-3.598757,0.339139,1.812850,-0.175919,0.000000,0.000000,0.000000,0.000000,0.000000,0.000000
12812647.000000,-2.282937,-1.662557,1.318480,-1.465733,1.696603,1.384561,-0.585829,0.230261,0.003077,1.126627,-0.125423,-0.134444,1.121139,-0.039745,0.054365,38.130840,-22.964676,-3.622560,0.291532,1.721298,-0.169511,0.000000,0.000000,0.000000,0.000000,0.000000,0.000000
12812648.000000,-2.282694,-1.662552,1.319588,-1.465858,1.696472,1.385671,-0.585870,0.236399,0.003363,1.108229,-0.124240,-0.131694,1.108697,-0.040052,-0.167803,38.079266,-22.817886,-3.570986,0.231107,1.714889,-0.136552,0.000000,0.000000,0.000000,0.000000,0.000000,0.000000
12812649.000000,-2.282443,-1.662552,1.320686,-1.465982,1.696339,1.386763,-0.585898,0.242648,0.002320,1.119090,-0.126865,-0.126681,1.098080,-0.032120,-0.413775,38.079266,-22.671097,-3.475771,0.213712,1.773483,-0.202470,0.000000,0.000000,0.000000,0.000000,0.000000,0.000000
12812650.000000,-2.282202,-1.662546,1.321789,-1.466103,1.696200,1.387872,-0.585935,0.241377,0.003276,1.109953,-0.125274,-0.134747,1.094272,-0.030127,-0.588336,38.007854,-22.448929,-3.400392,0.255826,1.793624,-0.169511,0.000000,0.000000,0.000000,0.000000,0.000000,0.000000
12812651.000000,-2.281953,-1.662538,1.322915,-1.466217,1.696063,1.388993,-0.585969,0.243145,0.005105,1.125829,-0.121670,-0.139415,1.100598,-0.032018,-0.862078,37.884869,-22.524307,-3.424196,0.279630,1.741439,-0.169511,0.000000,0.000000,0.000000,0.000000,0.000000,0.000000
12812652.000000,-2.281725,-1.662538,1.324027,-1.466321,1.695933,1.390095,-0.586003,0.243771,0.003437,1.122629,-0.116064,-0.136068,1.101840,-0.028649,-0.933489,37.884869,-22.595718,-3.570986,0.243009,1.662704,-0.169511,0.000000,0.000000,0.000000,0.000000,0.000000,0.000000
12812653.000000,-2.281490,-1.662532,1.325175,-1.466424,1.695800,1.391203,-0.586039,0.239616,0.007129,1.122724,-0.112145,-0.132078,1.098726,-0.026970,-1.032672,37.809490,-22.988480,-3.721742,0.285123,1.617843,-0.142960,0.000000,0.000000,0.000000,0.000000,0.000000,0.000000
12812654.000000,-2.281258,-1.662532,1.326298,-1.466520,1.695669,1.392293,-0.586061,0.234533,0.004469,1.137833,-0.104905,-0.132592,1.101098,-0.026586,-1.131854,37.833294,-23.309830,-3.920107,0.308927,1.643478,-0.221696,0.000000,0.000000,0.000000,0.000000,0.000000,0.000000
12812655.000000,-2.281036,-1.662533,1.327442,-1.466618,1.695543,1.393377,-0.586102,0.230752,0.002534,1.135775,-0.101104,-0.127322,1.096322,-0.032208,-1.183428,37.861065,-23.702591,-4.043092,0.303434,1.812850,-0.142960,0.000000,0.000000,0.000000,0.000000,0.000000,0.000000
12812656.000000,-2.280809,-1.662535,1.328596,-1.466722,1.695419,1.394460,-0.586131,0.229214,0.001286,1.151797,-0.101809,-0.128199,1.087975,-0.032024,-1.231036,37.884869,-24.119156,-4.043092,0.297025,2.014266,-0.182328,0.000000,0.000000,0.000000,0.000000,0.000000,0.000000
12812657.000000,-2.280580,-1.662547,1.329718,-1.466822,1.695295,1.395533,-0.586161,0.235483,-0.003018,1.136251,-0.102520,-0.127414,1.084310,-0.033348,-1.330218,38.055462,-24.289749,-4.019289,0.255826,2.066451,-0.182328,0.000000,0.000000,0.000000,0.000000,0.000000,0.000000
12812658.000000,-2.280353,-1.662550,1.330855,-1.466921,1.695175,1.396637,-0.586196,0.230824,-0.003039,1.127479,-0.102935,-0.123366,1.082932,-0.035460,-1.429400,38.103069,-24.412735,-3.991518,0.237516,2.001449,-0.155778,0.000000,0.000000,0.000000,0.000000,0.000000,0.000000
12812659.000000,-2.280126,-1.662557,1.331997,-1.467021,1.695056,1.397731,-0.586223,0.229811,-0.003725,1.140184,-0.100376,-0.123619,1.086488,-0.030190,-1.603961,38.178448,-24.488113,-3.943910,0.189908,1.865035,-0.182328,0.000000,0.000000,0.000000,0.000000,0.000000,0.000000
12812660.000000,-2.279896,-1.662563,1.333095,-1.467110,1.694935,1.398831,-0.586257,0.229509,-0.004105,1.132311,-0.094214,-0.120168,1.089752,-0.028832,-1.802325,38.249859,-24.166763,-3.943910,0.159696,1.819259,-0.142960,0.000000,0.000000,0.000000,0.000000,0.000000,0.000000
12812661.000000,-2.279672,-1.662575,1.334205,-1.467211,1.694799,1.399914,-0.586281,0.226324,-0.006784,1.115262,-0.098093,-0.127123,1.076752,-0.024532,-1.925311,38.424419,-23.896988,-3.844728,0.261320,1.909896,-0.188737,0.000000,0.000000,0.000000,0.000000,0.000000,0.000000
12812662.000000,-2.279453,-1.662586,1.335296,-1.467302,1.694664,1.400981,-0.586314,0.220680,-0.007929,1.096478,-0.097777,-0.131537,1.076373,-0.023655,-2.000689,38.571209,-23.504227,-3.868532,0.356534,2.033492,-0.175919,0.000000,0.000000,0.000000,0.000000,0.000000,0.000000
12812663.000000,-2.279242,-1.662589,1.336415,-1.467391,1.694543,1.402075,-0.586341,0.215589,-0.006379,1.101766,-0.093924,-0.126440,1.081755,-0.025749,-2.048296,38.618816,-23.333633,-3.920107,0.351041,2.072860,-0.202470,0.000000,0.000000,0.000000,0.000000,0.000000,0.000000
12812664.000000,-2.279030,-1.662598,1.337539,-1.467477,1.694425,1.403192,-0.586369,0.213789,-0.006557,1.117102,-0.087662,-0.125446,1.117871,-0.024610,-2.048296,38.717999,-23.258255,-3.991518,0.303434,1.897079,-0.188737,0.000000,0.000000,0.000000,0.000000,0.000000,0.000000
12812665.000000,-2.278820,-1.662599,1.338649,-1.467558,1.694308,1.404300,-0.586402,0.210035,-0.004360,1.111973,-0.082515,-0.124955,1.115110,-0.025046,-2.048296,38.717999,-23.234451,-4.090700,0.267728,1.662704,-0.136552,0.000000,0.000000,0.000000,0.000000,0.000000,0.000000
12812666.000000,-2.278609,-1.662610,1.339773,-1.467640,1.694191,1.405395,-0.586426,0.207378,-0.005682,1.109280,-0.083583,-0.124562,1.105096,-0.026560,-2.099871,38.837017,-23.258255,-4.118471,0.207303,1.611434,-0.175919,0.000000,0.000000,0.000000,0.000000,0.000000,0.000000
12812667.000000,-2.278405,-1.662618,1.340890,-1.467726,1.694078,1.406462,-0.586454,0.206741,-0.006102,1.104896,-0.084789,-0.120154,1.091619,-0.028705,-2.123675,38.936199,-23.432816,-4.118471,0.166105,1.747848,-0.188737,0.000000,0.000000,0.000000,0.000000,0.000000,0.000000
12812668.000000,-2.278204,-1.662627,1.342005,-1.467808,1.693955,1.407553,-0.586484,0.205488,-0.006383,1.102442,-0.083341,-0.116393,1.079578,-0.026970,-2.147479,39.035381,-23.357437,-4.090700,0.231107,1.786300,-0.169511,0.000000,0.000000,0.000000,0.000000,0.000000,0.000000
12812669.000000,-2.277999,-1.662634,1.343135,-1.467875,1.693836,1.408658,-0.586514,0.205835,-0.006479,1.121750,-0.077271,-0.120082,1.077186,-0.026414,-2.246661,39.130596,-23.480423,-4.265260,0.231107,1.806442,-0.130143,0.000000,0.000000,0.000000,0.000000,0.000000,0.000000
12812670.000000,-2.277807,-1.662635,1.344239,-1.467941,1.693718,1.409750,-0.586531,0.203247,-0.003760,1.114305,-0.070598,-0.118080,1.079675,-0.021563,-2.246661,39.106792,-23.528030,-4.412050,0.219205,1.714889,-0.202470,0.000000,0.000000,0.000000,0.000000,0.000000,0.000000
12812671.000000,-2.277609,-1.662638,1.345354,-1.468006,1.693596,1.410848,-0.586562,0.200726,-0.002504,1.107265,-0.069414,-0.117647,1.081138,-0.027181,-2.345843,39.106792,-23.504227,-4.535036,0.243009,1.689254,-0.163102,0.000000,0.000000,0.000000,0.000000,0.000000,0.000000
12812672.000000,-2.277413,-1.662641,1.346439,-1.468075,1.693471,1.411933,-0.586585,0.200209,-0.001668,1.114702,-0.066380,-0.117841,1.089290,-0.024377,-2.345843,39.106792,-23.286026,-4.610414,0.285123,1.682845,-0.182328,0.000000,0.000000,0.000000,0.000000,0.000000,0.000000
12812673.000000,-2.277211,-1.662650,1.347533,-1.468149,1.693350,1.413023,-0.586607,0.199736,-0.002317,1.101976,-0.070449,-0.114591,1.088266,-0.026686,-2.468829,39.158367,-23.016251,-4.535036,0.356534,1.714889,-0.208878,0.000000,0.000000,0.000000,0.000000,0.000000,0.000000
12812674.000000,-2.277006,-1.662652,1.348652,-1.468217,1.693233,1.414109,-0.586638,0.199570,-0.001544,1.119690,-0.071937,-0.114575,1.080454,-0.027250,-2.619586,39.158367,-23.016251,-4.535036,0.374845,1.832076,-0.142960,0.000000,0.000000,0.000000,0.000000,0.000000,0.000000
12812675.000000,-2.276816,-1.662646,1.349757,-1.468291,1.693129,1.415198,-0.586650,0.199222,0.001848,1.111846,-0.069622,-0.109148,1.077305,-0.021955,-2.667193,39.035381,-23.063858,-4.412050,0.249418,1.747848,-0.221696,0.000000,0.000000,0.000000,0.000000,0.000000,0.000000
12812676.000000,-2.276625,-1.662647,1.350886,-1.468353,1.693017,1.416323,-0.586680,0.196287,0.001789,1.116038,-0.067833,-0.105265,1.078155,-0.024769,-2.690997,39.011578,-23.357437,-4.412050,0.243009,1.500655,-0.130143,0.000000,0.000000,0.000000,0.000000,0.000000,0.000000
12812677.000000,-2.276441,-1.662643,1.352031,-1.468414,1.692914,1.417414,-0.586702,0.192241,0.002957,1.137765,-0.066948,-0.104319,1.083290,-0.027631,-2.643389,38.936199,-23.750198,-4.388246,0.166105,1.448470,-0.136552,0.000000,0.000000,0.000000,0.000000,0.000000,0.000000
12812678.000000,-2.276263,-1.662640,1.353161,-1.468469,1.692807,1.418512,-0.586720,0.189598,0.003085,1.137267,-0.064005,-0.105660,1.080384,-0.028088,-2.591815,38.888592,-24.190567,-4.463624,0.135892,1.546432,-0.188737,0.000000,0.000000,0.000000,0.000000,0.000000,0.000000
12812679.000000,-2.276090,-1.662642,1.354296,-1.468526,1.692695,1.419585,-0.586744,0.179727,0.001500,1.131889,-0.063274,-0.110563,1.070348,-0.027071,-2.492632,38.912395,-24.488113,-4.487428,0.213712,1.865035,-0.155778,0.000000,0.000000,0.000000,0.000000,0.000000,0.000000
12812680.000000,-2.275918,-1.662647,1.355417,-1.468576,1.692577,1.420644,-0.586760,0.176674,-0.000670,1.122673,-0.058365,-0.114064,1.071577,-0.028282,-2.397418,38.983807,-24.757889,-4.562807,0.297025,2.157089,-0.188737,0.000000,0.000000,0.000000,0.000000,0.000000,0.000000
12812681.000000,-2.275751,-1.662650,1.356541,-1.468624,1.692470,1.421737,-0.586785,0.176108,-0.001653,1.119077,-0.054366,-0.108123,1.074059,-0.026620,-2.246661,39.035381,-24.857071,-4.661989,0.279630,2.215682,-0.169511,0.000000,0.000000,0.000000,0.000000,0.000000,0.000000
12812682.000000,-2.275572,-1.662649,1.357671,-1.468679,1.692356,1.422844,-0.586804,0.177310,0.000104,1.134650,-0.055421,-0.104414,1.104149,-0.024113,-2.298235,38.983807,-24.928482,-4.586610,0.279630,2.163497,-0.182328,0.000000,0.000000,0.000000,0.000000,0.000000,0.000000
12812683.000000,-2.275400,-1.662646,1.358779,-1.468740,1.692254,1.423938,-0.586825,0.177093,0.001183,1.124020,-0.058304,-0.102977,1.101734,-0.023205,-2.298235,38.936199,-24.976089,-4.412050,0.201810,2.033492,-0.169511,0.000000,0.000000,0.000000,0.000000,0.000000,0.000000
12812684.000000,-2.275225,-1.662648,1.359889,-1.468806,1.692144,1.425040,-0.586839,0.175496,0.000232,1.108565,-0.061756,-0.106259,1.092924,-0.020444,-2.397418,38.960003,-24.734085,-4.166078,0.219205,1.916305,-0.208878,0.000000,0.000000,0.000000,0.000000,0.000000,0.000000
12812685.000000,-2.275054,-1.662652,1.360987,-1.468869,1.692032,1.426112,-0.586865,0.173060,-0.000402,1.125782,-0.063308,-0.109947,1.082276,-0.022286,-2.421221,38.983807,-24.488113,-3.943910,0.273221,1.942855,-0.149369,0.000000,0.000000,0.000000,0.000000,0.000000,0.000000
12812686.000000,-2.274889,-1.662655,1.362089,-1.468928,1.691927,1.427191,-0.586876,0.173530,-0.000268,1.112967,-0.062026,-0.115197,1.070884,-0.014875,-2.421221,38.983807,-24.142960,-3.820925,0.267728,2.047225,-0.196061,0.000000,0.000000,0.000000,0.000000,0.000000,0.000000
12812687.000000,-2.274736,-1.662663,1.363213,-1.468981,1.691825,1.428288,-0.586896,0.167427,-0.001942,1.124176,-0.058808,-0.113209,1.076875,-0.016671,-2.298235,39.059185,-24.095352,-3.797121,0.237516,2.033492,-0.175919,0.000000,0.000000,0.000000,0.000000,0.000000,0.000000
12812688.000000,-2.274594,-1.662663,1.364316,-1.469023,1.691722,1.429378,-0.586914,0.160921,-0.003307,1.117303,-0.053191,-0.106660,1.080331,-0.017942,-2.099871,39.011578,-24.019974,-3.920107,0.189908,1.923629,-0.155778,0.000000,0.000000,0.000000,0.000000,0.000000,0.000000
12812689.000000,-2.274450,-1.662664,1.365433,-1.469065,1.691621,1.430480,-0.586929,0.153901,-0.002465,1.109533,-0.047469,-0.107566,1.080027,-0.016851,-1.925311,39.011578,-24.043777,-3.991518,0.166105,1.825668,-0.188737,0.000000,0.000000,0.000000,0.000000,0.000000,0.000000
12812690.000000,-2.274310,-1.662667,1.366562,-1.469103,1.691515,1.431566,-0.586947,0.149778,-0.001839,1.127230,-0.043210,-0.109322,1.085111,-0.013641,-1.750750,39.011578,-24.119156,-4.066896,0.178007,1.767074,-0.163102,0.000000,0.000000,0.000000,0.000000,0.000000,0.000000
12812691.000000,-2.274169,-1.662666,1.367676,-1.469147,1.691407,1.432644,-0.586959,0.147509,-0.000166,1.124835,-0.045427,-0.111198,1.085795,-0.013859,-1.580157,38.960003,-24.265945,-4.043092,0.201810,1.916305,-0.188737,0.000000,0.000000,0.000000,0.000000,0.000000,0.000000
12812692.000000,-2.274024,-1.662668,1.368787,-1.469191,1.691291,1.433736,-0.586979,0.144580,0.000336,1.133915,-0.045847,-0.114426,1.086072,-0.012140,-1.552386,38.936199,-24.289749,-3.943910,0.273221,1.962081,-0.142960,0.000000,0.000000,0.000000,0.000000,0.000000,0.000000
12812693.000000,-2.273881,-1.662671,1.369890,-1.469234,1.691177,1.434827,-0.586997,0.148336,-0.002879,1.121760,-0.045477,-0.114089,1.081715,-0.009235,-1.528582,38.936199,-24.365128,-3.868532,0.279630,1.877853,-0.136552,0.000000,0.000000,0.000000,0.000000,0.000000,0.000000
12812694.000000,-2.273748,-1.662676,1.370993,-1.469279,1.691063,1.435940,-0.587002,0.140562,-0.005883,1.113755,-0.046128,-0.109882,1.083205,-0.004393,-1.429400,38.960003,-24.265945,-3.745546,0.308927,1.714889,-0.202470,0.000000,0.000000,0.000000,0.000000,0.000000,0.000000
12812695.000000,-2.273612,-1.662673,1.372101,-1.469313,1.690955,1.437032,-0.587023,0.137333,-0.003302,1.123315,-0.043091,-0.113642,1.103709,-0.010568,-1.429400,38.912395,-24.218338,-3.769350,0.279630,1.676437,-0.136552,0.000000,0.000000,0.000000,0.000000,0.000000,0.000000
12812696.000000,-2.273483,-1.662674,1.373181,-1.469352,1.690852,1.438123,-0.587031,0.136898,-0.002014,1.110847,-0.039550,-0.111597,1.096798,-0.005885,-1.381793,38.888592,-23.948563,-3.721742,0.249418,1.767074,-0.188737,0.000000,0.000000,0.000000,0.000000,0.000000,0.000000
12812697.000000,-2.273352,-1.662677,1.374274,-1.469388,1.690743,1.439214,-0.587053,0.132181,-0.002177,1.097596,-0.040010,-0.112498,1.092126,-0.010662,-1.330218,38.912395,-23.702591,-3.670168,0.267728,1.858627,-0.149369,0.000000,0.000000,0.000000,0.000000,0.000000,0.000000
12812698.000000,-2.273224,-1.662681,1.375359,-1.469419,1.690636,1.440300,-0.587059,0.129618,-0.002216,1.083951,-0.039154,-0.113127,1.087064,-0.010378,-1.282611,38.936199,-23.603409,-3.670168,0.279630,1.897079,-0.208878,0.000000,0.000000,0.000000,0.000000,0.000000,0.000000
12812699.000000,-2.273105,-1.662673,1.376472,-1.469455,1.690536,1.441400,-0.587076,0.125740,0.001244,1.092229,-0.037740,-0.111667,1.091166,-0.009146,-1.159625,38.813213,-23.678787,-3.570986,0.237516,1.903487,-0.175919,0.000000,0.000000,0.000000,0.000000,0.000000,0.000000
12812700.000000,-2.272984,-1.662674,1.377607,-1.469487,1.690437,1.442509,-0.587086,0.121503,0.001269,1.112923,-0.035320,-0.105035,1.099833,-0.011362,-1.108050,38.789410,-24.019974,-3.523378,0.178007,1.844894,-0.182328,0.000000,0.000000,0.000000,0.000000,0.000000,0.000000
12812701.000000,-2.272868,-1.662670,1.378721,-1.469517,1.690328,1.443604,-0.587099,0.120290,0.003078,1.111756,-0.033645,-0.112296,1.096850,-0.012941,-1.032672,38.690228,-24.388931,-3.475771,0.207303,1.741439,-0.188737,0.000000,0.000000,0.000000,0.000000,0.000000,0.000000
12812702.000000,-2.272759,-1.662667,1.379847,-1.469548,1.690224,1.444697,-0.587115,0.114418,0.002543,1.110441,-0.032924,-0.113393,1.083099,-0.016130,-0.862078,38.666424,-24.734085,-3.400392,0.225614,1.767074,-0.142960,0.000000,0.000000,0.000000,0.000000,0.000000,0.000000
12812703.000000,-2.272645,-1.662670,1.380957,-1.469568,1.690111,1.445766,-0.587120,0.115483,0.000440,1.127943,-0.026379,-0.116038,1.076571,-0.010518,-0.762896,38.717999,-25.027664,-3.448000,0.303434,1.877853,-0.182328,0.000000,0.000000,0.000000,0.000000,0.000000,0.000000
12812704.000000,-2.272533,-1.662672,1.382079,-1.469592,1.690004,1.446849,-0.587135,0.116669,-0.000301,1.126043,-0.027109,-0.115407,1.066040,-0.014375,-0.687518,38.741802,-25.249832,-3.400392,0.315336,1.988631,-0.136552,0.000000,0.000000,0.000000,0.000000,0.000000,0.000000
12812705.000000,-2.272423,-1.662670,1.383198,-1.469610,1.689898,1.447938,-0.587143,0.114798,0.000329,1.135448,-0.025823,-0.114759,1.065468,-0.014841,-0.635943,38.717999,-25.249832,-3.424196,0.320829,2.060043,-0.149369,0.000000,0.000000,0.000000,0.000000,0.000000,0.000000
12812706.000000,-2.272310,-1.662680,1.384295,-1.469633,1.689792,1.449024,-0.587149,0.114199,-0.002586,1.119907,-0.024103,-0.114372,1.076472,-0.014351,-0.612139,38.837017,-25.174454,-3.348818,0.327238,1.962081,-0.188737,0.000000,0.000000,0.000000,0.000000,0.000000,0.000000
12812707.000000,-2.272201,-1.662683,1.385392,-1.469654,1.689693,1.450113,-0.587163,0.110619,-0.002389,1.107851,-0.020200,-0.103254,1.076267,-0.012556,-0.612139,38.864788,-24.952286,-3.249635,0.297025,1.890670,-0.142960,0.000000,0.000000,0.000000,0.000000,0.000000,0.000000
12812708.000000,-2.272091,-1.662687,1.386506,-1.469679,1.689593,1.451186,-0.587167,0.112337,-0.002718,1.122195,-0.022077,-0.105219,1.076819,-0.007374,-0.663714,38.912395,-24.857071,-3.079042,0.291532,1.858627,-0.196061,0.000000,0.000000,0.000000,0.000000,0.000000,0.000000
12812709.000000,-2.271981,-1.662697,1.387578,-1.469703,1.689497,1.452267,-0.587177,0.111805,-0.004698,1.105517,-0.021864,-0.101982,1.075347,-0.005914,-0.762896,39.035381,-24.388931,-2.956056,0.273221,1.865035,-0.188737,0.000000,0.000000,0.000000,0.000000,0.000000,0.000000
12812710.000000,-2.271881,-1.662705,1.388681,-1.469723,1.689390,1.453354,-0.587191,0.106790,-0.004809,1.096752,-0.021960,-0.102635,1.078433,-0.010242,-0.687518,39.106792,-24.265945,-2.833071,0.344633,1.884261,-0.155778,0.000000,0.000000,0.000000,0.000000,0.000000,0.000000
12812711.000000,-2.271783,-1.662706,1.389763,-1.469732,1.689294,1.454434,-0.587195,0.106302,-0.003211,1.086733,-0.017874,-0.103662,1.075233,-0.010503,-0.612139,39.106792,-24.119156,-2.880678,0.303434,1.819259,-0.202470,0.000000,0.000000,0.000000,0.000000,0.000000,0.000000
12812712.000000,-2.271693,-1.662707,1.390871,-1.469737,1.689202,1.455553,-0.587207,0.101314,-0.001587,1.088450,-0.014597,-0.099679,1.080056,-0.012387,-0.465350,39.082989,-24.119156,-2.956056,0.255826,1.584884,-0.208878,0.000000,0.000000,0.000000,0.000000,0.000000,0.000000
12812713.000000,-2.271603,-1.662701,1.391980,-1.469740,1.689102,1.456646,-0.587217,0.098827,-0.001337,1.109945,-0.008550,-0.099210,1.103213,-0.010360,-0.366168,38.960003,-24.095352,-3.055238,0.285123,1.494247,-0.182328,0.000000,0.000000,0.000000,0.000000,0.000000,0.000000
12812714.000000,-2.271515,-1.662708,1.393072,-1.469741,1.689012,1.457749,-0.587231,0.094183,-0.004853,1.101151,-0.004234,-0.097557,1.099428,-0.014163,-0.266986,38.983807,-24.119156,-3.154421,0.285123,1.494247,-0.136552,0.000000,0.000000,0.000000,0.000000,0.000000,0.000000
12812715.000000,-2.271427,-1.662711,1.394180,-1.469744,1.688911,1.458837,-0.587231,0.090793,-0.005744,1.095925,-0.006077,-0.098391,1.095245,-0.007311,-0.191607,38.936199,-24.190567,-3.178224,0.327238,1.649886,-0.221696,0.000000,0.000000,0.000000,0.000000,0.000000,0.000000
12812716.000000,-2.271335,-1.662720,1.395271,-1.469742,1.688810,1.459905,-0.587246,0.090985,-0.006201,1.093048,-0.003126,-0.098585,1.087584,-0.008557,-0.215411,39.011578,-24.242142,-3.249635,0.369352,1.851302,-0.142960,0.000000,0.000000,0.000000,0.000000,0.000000,0.000000
