chaoyuefei/paper-gmrm-data/robot_logs/s2_dq_mrm_min_0.30_log_20260314_172630.csv
# time_ms,q_0,q_1,q_2,q_3,q_4,q_5,q_6,dq_0,dq_1,dq_2,dq_3,dq_4,dq_5,dq_6,tau_J_0,tau_J_1,tau_J_2,tau_J_3,tau_J_4,tau_J_5,tau_J_6,O_dP_EE_c_0,O_dP_EE_c_1,O_dP_EE_c_2,O_dP_EE_c_3,O_dP_EE_c_4,O_dP_EE_c_5
11852545.000000,-2.418275,-1.662622,1.039423,-1.352499,1.798456,1.078672,-0.546417,0.000742,-0.001451,-0.001137,0.000516,0.000377,0.000131,0.000260,-0.068621,41.677593,-20.905655,-5.820436,0.840848,1.344100,0.028243,0.000000,0.000000,0.000000,0.000000,0.000000,0.000000
11852546.000000,-2.418275,-1.662618,1.039424,-1.352502,1.798455,1.078674,-0.546415,0.000495,0.000146,-0.000201,-0.000770,-0.000190,0.000087,0.000885,-0.068621,41.629986,-20.929459,-5.772829,0.852750,1.344100,0.009017,0.000000,0.000000,0.000000,0.000000,0.000000,0.000000
11852547.000000,-2.418280,-1.662618,1.039426,-1.352501,1.798455,1.078675,-0.546422,-0.001433,0.000097,0.000423,0.000044,-0.000126,0.000058,-0.001851,0.006757,41.629986,-20.953262,-5.796632,0.852750,1.344100,0.074935,0.000000,0.000000,0.000000,0.000000,0.000000,0.000000
11852548.000000,-2.418275,-1.662618,1.039426,-1.352499,1.798455,1.078675,-0.546417,0.000808,0.000065,0.000282,0.000586,-0.000084,0.000039,0.000495,-0.068621,41.629986,-20.953262,-5.820436,0.852750,1.344100,0.028243,0.000000,0.000000,0.000000,0.000000,0.000000,0.000000
11852549.000000,-2.418272,-1.662617,1.039426,-1.352498,1.798454,1.078675,-0.546419,0.005488,-0.001247,-0.000369,0.002372,-0.008751,0.008238,-0.003159,0.252729,41.554607,-20.929459,-5.772829,0.828947,1.377059,-0.004716,0.000000,0.000000,0.000000,0.000000,0.000000,0.000000
11852550.000000,-2.418262,-1.662621,1.039432,-1.352498,1.798454,1.078669,-0.546434,0.016086,-0.002300,-0.000803,0.003945,-0.012521,0.008943,-0.005973,1.268354,41.336407,-20.905655,-5.598268,0.733732,1.559249,-0.037675,0.000000,0.000000,0.000000,0.000000,0.000000,0.000000
11852551.000000,-2.418229,-1.662621,1.039441,-1.352494,1.798448,1.078666,-0.546463,0.024778,-0.002029,0.001842,0.000744,-0.015553,0.007943,-0.013052,2.827497,40.919842,-20.877884,-5.352296,0.637601,1.800033,-0.064225,0.000000,0.000000,0.000000,0.000000,0.000000,0.000000
11852552.000000,-2.418179,-1.662618,1.039456,-1.352500,1.798431,1.078689,-0.546509,0.031101,-0.000007,0.006713,-0.001011,-0.015476,0.017871,-0.025008,4.636579,40.404095,-20.830276,-4.983339,0.601896,1.890670,-0.031266,0.000000,0.000000,0.000000,0.000000,0.000000,0.000000
11852553.000000,-2.418116,-1.662624,1.039471,-1.352513,1.798406,1.078739,-0.546558,0.038614,0.002229,0.007985,-0.008831,-0.017452,0.032187,-0.035978,6.493268,39.963726,-20.683487,-4.586610,0.620206,1.800033,-0.089860,0.000000,0.000000,0.000000,0.000000,0.000000,0.000000
11852554.000000,-2.418026,-1.662620,1.039507,-1.352543,1.798369,1.078820,-0.546635,0.049755,0.002742,0.016332,-0.015438,-0.028426,0.051104,-0.052150,8.100019,39.428143,-20.707291,-4.142274,0.649503,1.591293,-0.050492,0.000000,0.000000,0.000000,0.000000,0.000000,0.000000
11852555.000000,-2.417926,-1.662614,1.039544,-1.352583,1.798316,1.078917,-0.546721,0.063017,0.002308,0.020888,-0.025841,-0.032108,0.063784,-0.065734,9.559979,38.912395,-20.659683,-3.721742,0.685209,1.409103,-0.097184,0.000000,0.000000,0.000000,0.000000,0.000000,0.000000
11852556.000000,-2.417804,-1.662610,1.039589,-1.352628,1.798247,1.079033,-0.546839,0.081407,0.002639,0.029756,-0.029208,-0.043760,0.083401,-0.082535,10.750165,38.495831,-20.584305,-3.475771,0.721830,1.318465,-0.089860,0.000000,0.000000,0.000000,0.000000,0.000000,0.000000
11852557.000000,-2.417681,-1.662609,1.039647,-1.352691,1.798173,1.079163,-0.546979,0.092920,0.001732,0.040598,-0.040738,-0.053628,0.103768,-0.106421,11.888776,38.130840,-20.560501,-3.126650,0.649503,1.331283,-0.044083,0.000000,0.000000,0.000000,0.000000,0.000000,0.000000
11852558.000000,-2.417544,-1.662602,1.039714,-1.352762,1.798081,1.079305,-0.547125,0.103432,0.000787,0.048512,-0.052760,-0.064663,0.115725,-0.119744,12.928205,37.785686,-20.512894,-2.904482,0.542386,1.448470,-0.110001,0.000000,0.000000,0.000000,0.000000,0.000000,0.000000
11852559.000000,-2.417395,-1.662589,1.039800,-1.352848,1.797962,1.079477,-0.547299,0.115971,0.004962,0.060346,-0.063923,-0.079162,0.138891,-0.134340,13.868451,37.369122,-20.584305,-2.733888,0.470060,1.572067,-0.044083,0.000000,0.000000,0.000000,0.000000,0.000000,0.000000
11852560.000000,-2.417228,-1.662578,1.039898,-1.352949,1.797825,1.079686,-0.547470,0.128828,0.008256,0.069671,-0.075645,-0.101469,0.166867,-0.147128,14.610333,37.075542,-20.683487,-2.559328,0.369352,1.637069,-0.064225,0.000000,0.000000,0.000000,0.000000,0.000000,0.000000
11852561.000000,-2.417034,-1.662559,1.040010,-1.353064,1.797666,1.079930,-0.547650,0.150219,0.010643,0.082458,-0.089018,-0.119693,0.195009,-0.156462,15.106244,36.658978,-20.782669,-2.460146,0.381254,1.578475,-0.089860,0.000000,0.000000,0.000000,0.000000,0.000000,0.000000
11852562.000000,-2.416834,-1.662539,1.040138,-1.353199,1.797481,1.080204,-0.547842,0.167088,0.011120,0.096384,-0.107162,-0.137956,0.215590,-0.165718,15.550580,36.293987,-20.929459,-2.261781,0.416959,1.494247,-0.056901,0.000000,0.000000,0.000000,0.000000,0.000000,0.000000
11852563.000000,-2.416610,-1.662519,1.040283,-1.353349,1.797278,1.080489,-0.548026,0.186116,0.014772,0.107894,-0.122204,-0.157803,0.233812,-0.166380,15.824323,35.925030,-21.123856,-2.162599,0.470060,1.454879,-0.064225,0.000000,0.000000,0.000000,0.000000,0.000000,0.000000
11852564.000000,-2.416371,-1.662497,1.040441,-1.353514,1.797050,1.080806,-0.548214,0.202803,0.013702,0.124288,-0.133033,-0.178629,0.259687,-0.175868,16.070295,35.583843,-21.270645,-2.091188,0.578092,1.454879,-0.070634,0.000000,0.000000,0.000000,0.000000,0.000000,0.000000
11852565.000000,-2.416121,-1.662482,1.040606,-1.353698,1.796807,1.081146,-0.548398,0.216107,0.013352,0.135675,-0.146851,-0.198251,0.284882,-0.178129,16.296431,35.361675,-21.369827,-2.063417,0.535978,1.467696,-0.110001,0.000000,0.000000,0.000000,0.000000,0.000000,0.000000
11852566.000000,-2.415852,-1.662473,1.040783,-1.353897,1.796543,1.081503,-0.548595,0.231991,0.010394,0.147343,-0.162663,-0.217682,0.307856,-0.181950,16.490828,35.266460,-21.469009,-2.063417,0.494779,1.467696,-0.077042,0.000000,0.000000,0.000000,0.000000,0.000000,0.000000
11852567.000000,-2.415562,-1.662463,1.040968,-1.354115,1.796266,1.081869,-0.548787,0.248643,0.008698,0.157146,-0.182389,-0.237071,0.324963,-0.182190,16.590010,35.167278,-21.469009,-2.015810,0.458158,1.578475,-0.110001,0.000000,0.000000,0.000000,0.000000,0.000000,0.000000
11852568.000000,-2.415266,-1.662458,1.041159,-1.354344,1.795984,1.082253,-0.548978,0.261541,0.008541,0.170966,-0.194172,-0.249336,0.343656,-0.188947,16.689192,35.167278,-21.469009,-1.964235,0.344633,1.695663,-0.097184,0.000000,0.000000,0.000000,0.000000,0.000000,0.000000
11852569.000000,-2.414948,-1.662453,1.041366,-1.354602,1.795671,1.082670,-0.549172,0.276987,0.006204,0.180336,-0.218164,-0.271231,0.367526,-0.188677,16.764570,35.143475,-21.445206,-1.793642,0.320829,1.727706,-0.097184,0.000000,0.000000,0.000000,0.000000,0.000000,0.000000
11852570.000000,-2.414617,-1.662452,1.041574,-1.354875,1.795335,1.083117,-0.549361,0.287097,0.007266,0.186212,-0.236299,-0.291923,0.390849,-0.188437,16.764570,35.143475,-21.346024,-1.619081,0.320829,1.695663,-0.103593,0.000000,0.000000,0.000000,0.000000,0.000000,0.000000
11852571.000000,-2.414266,-1.662456,1.041792,-1.355164,1.794990,1.083583,-0.549554,0.309673,0.003411,0.193681,-0.252347,-0.305324,0.410380,-0.193900,16.764570,35.214886,-21.223038,-1.472292,0.351041,1.624252,-0.083451,0.000000,0.000000,0.000000,0.000000,0.000000,0.000000
11852572.000000,-2.413905,-1.662456,1.042031,-1.355471,1.794627,1.084070,-0.549742,0.325455,0.002452,0.206715,-0.268847,-0.324670,0.432534,-0.190960,16.839949,35.214886,-21.147659,-1.396913,0.405057,1.546432,-0.116410,0.000000,0.000000,0.000000,0.000000,0.000000,0.000000
11852573.000000,-2.413538,-1.662460,1.042271,-1.355779,1.794243,1.084580,-0.549930,0.341532,0.000562,0.216264,-0.280740,-0.348236,0.447362,-0.190629,16.962934,35.266460,-21.052444,-1.349306,0.434354,1.500655,-0.116410,0.000000,0.000000,0.000000,0.000000,0.000000,0.000000
11852574.000000,-2.413156,-1.662461,1.042526,-1.356100,1.793834,1.085115,-0.550123,0.353117,-0.000639,0.226369,-0.294312,-0.363892,0.473033,-0.190844,17.109724,35.314068,-20.977066,-1.349306,0.470060,1.481429,-0.097184,0.000000,0.000000,0.000000,0.000000,0.000000,0.000000
11852575.000000,-2.412769,-1.662462,1.042785,-1.356436,1.793413,1.085670,-0.550305,0.366884,-0.000908,0.243106,-0.306827,-0.377335,0.494325,-0.184431,17.335859,35.337872,-20.929459,-1.273927,0.488370,1.507064,-0.122819,0.000000,0.000000,0.000000,0.000000,0.000000,0.000000
11852576.000000,-2.412363,-1.662461,1.043059,-1.356780,1.792984,1.086233,-0.550484,0.380885,-0.000549,0.252068,-0.313356,-0.401294,0.514177,-0.181175,17.558027,35.337872,-20.929459,-1.321535,0.410551,1.591293,-0.110001,0.000000,0.000000,0.000000,0.000000,0.000000,0.000000
11852577.000000,-2.411940,-1.662461,1.043342,-1.357148,1.792531,1.086826,-0.550658,0.395285,-0.000324,0.260206,-0.323563,-0.418587,0.542853,-0.182009,17.756392,35.337872,-20.877884,-1.297731,0.416959,1.624252,-0.130143,0.000000,0.000000,0.000000,0.000000,0.000000,0.000000
11852578.000000,-2.411514,-1.662463,1.043632,-1.357521,1.792074,1.087444,-0.550831,0.407494,-0.000184,0.273571,-0.339291,-0.443267,0.569423,-0.179502,17.978559,35.337872,-20.854080,-1.198549,0.410551,1.591293,-0.116410,0.000000,0.000000,0.000000,0.000000,0.000000,0.000000
11852579.000000,-2.411067,-1.662461,1.043935,-1.357917,1.791588,1.088096,-0.551000,0.417829,0.001015,0.282006,-0.357881,-0.455594,0.600889,-0.176001,18.176924,35.290264,-20.782669,-1.051759,0.416959,1.507064,-0.142960,0.000000,0.000000,0.000000,0.000000,0.000000,0.000000
11852580.000000,-2.410598,-1.662455,1.044253,-1.358321,1.791085,1.088773,-0.551169,0.431557,0.001901,0.293150,-0.376709,-0.465569,0.620556,-0.169760,18.299910,35.238689,-20.754898,-0.853395,0.470060,1.364242,-0.142960,0.000000,0.000000,0.000000,0.000000,0.000000,0.000000
11852581.000000,-2.410135,-1.662444,1.044573,-1.358753,1.790576,1.089457,-0.551340,0.441531,0.004714,0.298289,-0.393733,-0.479714,0.644855,-0.166490,18.573652,35.091900,-20.731094,-0.631227,0.547880,1.253463,-0.122819,0.000000,0.000000,0.000000,0.000000,0.000000,0.000000
11852582.000000,-2.409645,-1.662442,1.044904,-1.359193,1.790049,1.090156,-0.551505,0.447658,0.006320,0.308309,-0.405232,-0.490381,0.657658,-0.167420,18.474470,35.091900,-20.608109,-0.456667,0.673307,1.234237,-0.116410,0.000000,0.000000,0.000000,0.000000,0.000000,0.000000
11852583.000000,-2.409160,-1.662431,1.045243,-1.359640,1.789525,1.090870,-0.551665,0.452706,0.010440,0.320638,-0.421061,-0.507199,0.670043,-0.171625,17.803999,34.972881,-20.239151,-0.532045,0.745634,1.324874,-0.116410,0.000000,0.000000,0.000000,0.000000,0.000000,0.000000
11852584.000000,-2.408685,-1.662413,1.045612,-1.360104,1.789001,1.091587,-0.551822,0.452835,0.013739,0.339094,-0.432691,-0.507151,0.688602,-0.164687,16.689192,34.703106,-19.822586,-0.853395,0.811552,1.389877,-0.163102,0.000000,0.000000,0.000000,0.000000,0.000000,0.000000
11852585.000000,-2.408200,-1.662398,1.046013,-1.360585,1.788475,1.092335,-0.551986,0.459890,0.014966,0.357978,-0.443393,-0.507123,0.707213,-0.161651,14.860272,34.334148,-19.334610,-1.297731,0.828947,1.429244,-0.155778,0.000000,0.000000,0.000000,0.000000,0.000000,0.000000
11852586.000000,-2.407732,-1.662382,1.046421,-1.361069,1.787965,1.093098,-0.552150,0.466388,0.017110,0.373987,-0.456346,-0.511321,0.724573,-0.159586,12.975812,33.893780,-18.644302,-1.694460,0.685209,1.422836,-0.142960,0.000000,0.000000,0.000000,0.000000,0.000000,0.000000
11852587.000000,-2.407265,-1.662377,1.046866,-1.361563,1.787453,1.093876,-0.552314,0.471861,0.012885,0.394465,-0.463022,-0.506107,0.732482,-0.161375,11.047711,33.552593,-17.934158,-2.063417,0.547880,1.370651,-0.136552,0.000000,0.000000,0.000000,0.000000,0.000000,0.000000
11852588.000000,-2.406813,-1.662375,1.047325,-1.362062,1.786947,1.094672,-0.552478,0.471154,0.009597,0.414386,-0.473911,-0.503902,0.748045,-0.163741,9.314008,33.207439,-17.224014,-2.360964,0.362943,1.234237,-0.130143,0.000000,0.000000,0.000000,0.000000,0.000000,0.000000
11852589.000000,-2.406354,-1.662369,1.047814,-1.362562,1.786457,1.095455,-0.552636,0.476327,0.010608,0.434473,-0.479908,-0.495632,0.766026,-0.160825,7.703290,32.842449,-16.708267,-2.606935,0.195402,1.077682,-0.142960,0.000000,0.000000,0.000000,0.000000,0.000000,0.000000
11852590.000000,-2.405900,-1.662365,1.048306,-1.363054,1.785967,1.096240,-0.552797,0.468063,0.008289,0.448963,-0.477161,-0.489261,0.761667,-0.155273,6.342512,32.473492,-16.045731,-2.904482,0.093778,0.934859,-0.089860,0.000000,0.000000,0.000000,0.000000,0.000000,0.000000
11852591.000000,-2.405460,-1.662371,1.048799,-1.363538,1.785481,1.097005,-0.552945,0.463302,0.003066,0.461011,-0.478454,-0.490366,0.764331,-0.153012,5.303083,32.255291,-15.430801,-3.202028,0.081876,0.876266,-0.116410,0.000000,0.000000,0.000000,0.000000,0.000000,0.000000
11852592.000000,-2.405015,-1.662378,1.049295,-1.364013,1.784987,1.097783,-0.553097,0.455358,-0.000624,0.468411,-0.474226,-0.484919,0.771891,-0.151242,4.362836,32.033123,-14.792068,-3.547182,0.219205,0.843307,-0.155778,0.000000,0.000000,0.000000,0.000000,0.000000,0.000000
11852593.000000,-2.404576,-1.662385,1.049797,-1.364482,1.784495,1.098552,-0.553258,0.456841,-0.003760,0.484734,-0.470023,-0.488650,0.765919,-0.158506,3.620954,31.838726,-14.153336,-3.844728,0.285123,0.869857,-0.089860,0.000000,0.000000,0.000000,0.000000,0.000000,0.000000
11852594.000000,-2.404127,-1.662387,1.050296,-1.364962,1.784023,1.099303,-0.553404,0.454850,-0.004695,0.490417,-0.474637,-0.485464,0.761251,-0.153832,2.879072,31.592754,-13.637589,-3.943910,0.315336,0.915633,-0.163102,0.000000,0.000000,0.000000,0.000000,0.000000,0.000000
11852595.000000,-2.403657,-1.662398,1.050797,-1.365449,1.783548,1.100060,-0.553562,0.455322,-0.008186,0.490109,-0.476490,-0.482571,0.760865,-0.154582,2.061811,31.469769,-13.098038,-3.820925,0.362943,0.974227,-0.116410,0.000000,0.000000,0.000000,0.000000,0.000000,0.000000
11852596.000000,-2.403187,-1.662399,1.051301,-1.365932,1.783078,1.100823,-0.553706,0.461789,-0.005299,0.493296,-0.480150,-0.485427,0.775341,-0.151329,1.343732,31.251568,-12.681473,-3.570986,0.332731,0.941268,-0.175919,0.000000,0.000000,0.000000,0.000000,0.000000,0.000000
11852597.000000,-2.402709,-1.662400,1.051817,-1.366426,1.782615,1.101590,-0.553864,0.466196,-0.006335,0.499798,-0.484570,-0.475064,0.781059,-0.153417,0.550275,31.029400,-12.336319,-3.178224,0.267728,0.857040,-0.155778,0.000000,0.000000,0.000000,0.000000,0.000000,0.000000
11852598.000000,-2.402232,-1.662390,1.052340,-1.366913,1.782157,1.102346,-0.554026,0.470224,-0.004369,0.501039,-0.496049,-0.470290,0.772559,-0.150743,-0.092425,30.688213,-12.094315,-2.856874,0.183500,0.876266,-0.083451,0.000000,0.000000,0.000000,0.000000,0.000000,0.000000
11852599.000000,-2.401765,-1.662375,1.052868,-1.367389,1.781705,1.103094,-0.554167,0.472890,0.000819,0.511571,-0.491087,-0.462859,0.765483,-0.148586,-0.564532,30.319256,-12.018936,-2.682314,0.088285,0.928451,-0.142960,0.000000,0.000000,0.000000,0.000000,0.000000,0.000000
11852600.000000,-2.401294,-1.662363,1.053394,-1.367860,1.781247,1.103847,-0.554323,0.468847,0.006319,0.511681,-0.482678,-0.453180,0.757712,-0.150483,-0.933489,30.001873,-11.820572,-2.706117,0.088285,0.934859,-0.097184,0.000000,0.000000,0.000000,0.000000,0.000000,0.000000
11852601.000000,-2.400835,-1.662343,1.053922,-1.368322,1.780780,1.104601,-0.554472,0.458762,0.012162,0.520601,-0.479837,-0.458970,0.759084,-0.156393,-1.108050,29.609112,-11.673782,-2.757692,0.100187,0.980636,-0.163102,0.000000,0.000000,0.000000,0.000000,0.000000,0.000000
11852602.000000,-2.400371,-1.662321,1.054471,-1.368778,1.780326,1.105338,-0.554636,0.460279,0.016274,0.532233,-0.469288,-0.455968,0.757939,-0.157367,-1.330218,29.220318,-11.626175,-2.880678,0.117582,1.110641,-0.103593,0.000000,0.000000,0.000000,0.000000,0.000000,0.000000
11852603.000000,-2.399891,-1.662297,1.055031,-1.369233,1.779869,1.106079,-0.554782,0.462963,0.019897,0.539862,-0.465063,-0.451494,0.746614,-0.157426,-1.627764,28.803753,-11.550797,-3.027467,0.166105,1.182052,-0.175919,0.000000,0.000000,0.000000,0.000000,0.000000,0.000000
11852604.000000,-2.399427,-1.662275,1.055589,-1.369678,1.779408,1.106835,-0.554939,0.465557,0.021373,0.549517,-0.456071,-0.457259,0.752398,-0.156904,-1.802325,28.434795,-11.503189,-3.154421,0.201810,1.117049,-0.149369,0.000000,0.000000,0.000000,0.000000,0.000000,0.000000
11852605.000000,-2.398946,-1.662259,1.056155,-1.370133,1.778958,1.107609,-0.555102,0.463246,0.018961,0.551911,-0.450820,-0.452923,0.765793,-0.156319,-2.171282,28.216595,-11.308792,-3.202028,0.237516,0.966903,-0.122819,0.000000,0.000000,0.000000,0.000000,0.000000,0.000000
11852606.000000,-2.398468,-1.662239,1.056730,-1.370568,1.778509,1.108376,-0.555256,0.467151,0.017543,0.561028,-0.443323,-0.451660,0.760556,-0.153522,-2.520403,27.994427,-11.233414,-3.277406,0.237516,0.908309,-0.163102,0.000000,0.000000,0.000000,0.000000,0.000000,0.000000
11852607.000000,-2.397989,-1.662223,1.057299,-1.371006,1.778066,1.109125,-0.555413,0.468973,0.014909,0.562473,-0.436824,-0.445737,0.759541,-0.154659,-2.817950,27.847637,-10.939835,-3.400392,0.195402,0.908309,-0.116410,0.000000,0.000000,0.000000,0.000000,0.000000,0.000000
11852608.000000,-2.397494,-1.662216,1.057889,-1.371442,1.777624,1.109881,-0.555563,0.474164,0.009217,0.570303,-0.436322,-0.434925,0.751985,-0.151965,-3.163104,27.871441,-10.646255,-3.475771,0.159696,0.922042,-0.149369,0.000000,0.000000,0.000000,0.000000,0.000000,0.000000
11852609.000000,-2.396997,-1.662206,1.058467,-1.371868,1.777196,1.110631,-0.555714,0.486480,0.010197,0.571474,-0.431689,-0.432168,0.748535,-0.152108,-3.583636,27.823833,-10.277298,-3.598757,0.088285,0.928451,-0.142960,0.000000,0.000000,0.000000,0.000000,0.000000,0.000000
11852610.000000,-2.396502,-1.662204,1.059064,-1.372291,1.776756,1.111381,-0.555866,0.487624,0.005290,0.579724,-0.431092,-0.429873,0.749166,-0.147303,-3.980364,27.895245,-10.007523,-3.697939,0.064481,0.954086,-0.136552,0.000000,0.000000,0.000000,0.000000,0.000000,0.000000
11852611.000000,-2.396008,-1.662200,1.059676,-1.372703,1.776319,1.112138,-0.556016,0.493208,0.002999,0.586015,-0.427335,-0.427289,0.747522,-0.147947,-4.400897,27.923016,-9.809158,-3.844728,0.081876,0.941268,-0.142960,0.000000,0.000000,0.000000,0.000000,0.000000,0.000000
11852612.000000,-2.395509,-1.662197,1.060291,-1.373118,1.775892,1.112887,-0.556165,0.492109,0.000977,0.593219,-0.427184,-0.436123,0.745166,-0.153665,-4.746050,27.970623,-9.709976,-4.019289,0.027860,0.922042,-0.136552,0.000000,0.000000,0.000000,0.000000,0.000000,0.000000
11852613.000000,-2.395005,-1.662201,1.060920,-1.373525,1.775457,1.113637,-0.556317,0.494972,0.000384,0.599234,-0.419534,-0.431013,0.742275,-0.153278,-5.118975,28.117413,-9.563187,-4.241457,0.052579,0.901900,-0.142960,0.000000,0.000000,0.000000,0.000000,0.000000,0.000000
11852614.000000,-2.394514,-1.662202,1.061559,-1.373919,1.775037,1.114399,-0.556461,0.491976,0.001853,0.615008,-0.414886,-0.429985,0.741601,-0.152900,-5.392718,28.192791,-9.590958,-4.439821,0.064481,0.889083,-0.136552,0.000000,0.000000,0.000000,0.000000,0.000000,0.000000
11852615.000000,-2.394006,-1.662207,1.062217,-1.374320,1.774610,1.115146,-0.556601,0.493673,-0.000505,0.629749,-0.407888,-0.427586,0.749988,-0.151119,-5.714068,28.288006,-9.686172,-4.610414,-0.019747,0.934859,-0.169511,0.000000,0.000000,0.000000,0.000000,0.000000,0.000000
11852616.000000,-2.393496,-1.662205,1.062900,-1.374716,1.774187,1.115889,-0.556755,0.499058,0.000585,0.643926,-0.416452,-0.421833,0.743858,-0.153419,-6.059222,28.264202,-9.884537,-4.661989,-0.055453,0.993453,-0.103593,0.000000,0.000000,0.000000,0.000000,0.000000,0.000000
11852617.000000,-2.392988,-1.662205,1.063575,-1.375109,1.773772,1.116645,-0.556892,0.505797,0.000663,0.655830,-0.407627,-0.419905,0.747494,-0.145898,-6.432147,28.264202,-10.007523,-4.784975,-0.072848,0.889083,-0.169511,0.000000,0.000000,0.000000,0.000000,0.000000,0.000000
11852618.000000,-2.392477,-1.662210,1.064273,-1.375503,1.773338,1.117409,-0.557048,0.503441,-0.001116,0.667694,-0.406040,-0.419893,0.754659,-0.148690,-6.753497,28.339581,-10.201920,-4.808778,-0.037142,0.857040,-0.122819,0.000000,0.000000,0.000000,0.000000,0.000000,0.000000
11852619.000000,-2.391965,-1.662215,1.064971,-1.375889,1.772912,1.118151,-0.557194,0.498713,-0.002260,0.677516,-0.401433,-0.425334,0.745673,-0.148227,-7.174029,28.410992,-10.400284,-4.856386,0.004056,1.031905,-0.122819,0.000000,0.000000,0.000000,0.000000,0.000000,0.000000
11852620.000000,-2.391448,-1.662222,1.065682,-1.376279,1.772499,1.118885,-0.557333,0.503178,-0.003155,0.689331,-0.401045,-0.421186,0.747594,-0.151580,-7.519183,28.486370,-10.495499,-4.884157,0.015958,1.136276,-0.175919,0.000000,0.000000,0.000000,0.000000,0.000000,0.000000
11852621.000000,-2.390928,-1.662233,1.066403,-1.376677,1.772066,1.119632,-0.557488,0.508182,-0.005450,0.698938,-0.397861,-0.421626,0.738957,-0.149331,-7.816729,28.633160,-10.495499,-4.907960,0.081876,1.136276,-0.103593,0.000000,0.000000,0.000000,0.000000,0.000000,0.000000
11852622.000000,-2.390415,-1.662247,1.067120,-1.377071,1.771637,1.120374,-0.557626,0.507688,-0.008116,0.705200,-0.397567,-0.426110,0.742790,-0.147249,-8.138080,28.827557,-10.447891,-4.832582,0.135892,1.155502,-0.169511,0.000000,0.000000,0.000000,0.000000,0.000000,0.000000
11852623.000000,-2.389902,-1.662256,1.067855,-1.377472,1.771228,1.121105,-0.557770,0.506297,-0.014475,0.707472,-0.395698,-0.422121,0.745227,-0.144554,-8.388019,28.950542,-10.348709,-4.784975,0.105680,1.240646,-0.136552,0.000000,0.000000,0.000000,0.000000,0.000000,0.000000
11852624.000000,-2.389395,-1.662267,1.068591,-1.377877,1.770801,1.121847,-0.557916,0.505912,-0.016188,0.726897,-0.402021,-0.415350,0.743280,-0.142311,-8.610187,29.073528,-10.324905,-4.586610,0.123990,1.247054,-0.110001,0.000000,0.000000,0.000000,0.000000,0.000000,0.000000
11852625.000000,-2.388888,-1.662284,1.069345,-1.378280,1.770394,1.122591,-0.558051,0.505739,-0.018442,0.733471,-0.403680,-0.409511,0.748927,-0.142211,-8.681598,29.244122,-10.154312,-4.511232,0.100187,1.142684,-0.188737,0.000000,0.000000,0.000000,0.000000,0.000000,0.000000
11852626.000000,-2.388385,-1.662291,1.070104,-1.378682,1.769983,1.123331,-0.558203,0.500385,-0.017306,0.737573,-0.398908,-0.404022,0.744449,-0.147062,-8.681598,29.291729,-9.955948,-4.412050,0.093778,1.025497,-0.110001,0.000000,0.000000,0.000000,0.000000,0.000000,0.000000
11852627.000000,-2.387890,-1.662305,1.070871,-1.379070,1.769572,1.124059,-0.558338,0.497715,-0.015221,0.749469,-0.392019,-0.406500,0.746932,-0.145882,-8.709369,29.414715,-9.832962,-4.463624,0.081876,1.058456,-0.163102,0.000000,0.000000,0.000000,0.000000,0.000000,0.000000
11852628.000000,-2.387397,-1.662311,1.071650,-1.379463,1.769166,1.124793,-0.558478,0.492982,-0.011309,0.754807,-0.390271,-0.402362,0.741465,-0.147785,-8.633990,29.438519,-9.638565,-4.463624,0.058073,1.129867,-0.155778,0.000000,0.000000,0.000000,0.000000,0.000000,0.000000
11852629.000000,-2.386919,-1.662321,1.072434,-1.379849,1.768752,1.125539,-0.558624,0.495775,-0.009757,0.759482,-0.388811,-0.406347,0.735587,-0.149482,-8.511004,29.513897,-9.269608,-4.562807,0.076383,1.104232,-0.130143,0.000000,0.000000,0.000000,0.000000,0.000000,0.000000
11852630.000000,-2.386423,-1.662321,1.073214,-1.380240,1.768343,1.126279,-0.558766,0.494254,-0.007549,0.766149,-0.385779,-0.403269,0.736874,-0.145867,-8.511004,29.414715,-8.999832,-4.562807,0.052579,1.071273,-0.110001,0.000000,0.000000,0.000000,0.000000,0.000000,0.000000
11852631.000000,-2.385938,-1.662320,1.074025,-1.380627,1.767935,1.127037,-0.558900,0.489924,-0.005841,0.776458,-0.384658,-0.400382,0.739949,-0.140272,-8.388019,29.291729,-8.900650,-4.661989,0.040677,1.006271,-0.155778,0.000000,0.000000,0.000000,0.000000,0.000000,0.000000
11852632.000000,-2.385458,-1.662315,1.074831,-1.381012,1.767531,1.127812,-0.559033,0.486885,-0.001106,0.786254,-0.384600,-0.402967,0.749150,-0.141076,-8.360248,29.144939,-8.829239,-4.733400,0.040677,0.857040,-0.182328,0.000000,0.000000,0.000000,0.000000,0.000000,0.000000
11852633.000000,-2.384972,-1.662305,1.075651,-1.381409,1.767130,1.128567,-0.559173,0.486025,0.002929,0.788637,-0.386044,-0.401634,0.760794,-0.146425,-8.288836,29.097332,-8.853043,-4.709596,0.046171,0.765487,-0.136552,0.000000,0.000000,0.000000,0.000000,0.000000,0.000000
11852634.000000,-2.384495,-1.662303,1.076471,-1.381798,1.766734,1.129327,-0.559312,0.487199,0.002706,0.790140,-0.389780,-0.398638,0.759196,-0.141952,-7.991290,29.462322,-9.245804,-4.757204,0.052579,0.843307,-0.155778,0.000000,0.000000,0.000000,0.000000,0.000000,0.000000
11852635.000000,-2.384016,-1.662297,1.077271,-1.382181,1.766353,1.130072,-0.559451,0.485860,0.001847,0.791136,-0.388636,-0.398117,0.756744,-0.145130,-7.594561,30.025677,-9.932144,-4.808778,0.046171,1.019088,-0.130143,0.000000,0.000000,0.000000,0.000000,0.000000,0.000000
11852636.000000,-2.383541,-1.662295,1.078070,-1.382566,1.765966,1.130832,-0.559590,0.483004,-0.001064,0.787871,-0.384484,-0.390259,0.758347,-0.141036,-6.999468,30.858807,-10.840652,-4.856386,0.034269,1.104232,-0.149369,0.000000,0.000000,0.000000,0.000000,0.000000,0.000000
11852637.000000,-2.383067,-1.662279,1.078848,-1.382940,1.765579,1.131618,-0.559728,0.477638,0.003002,0.793308,-0.383298,-0.384003,0.765854,-0.144418,-6.455950,31.616558,-11.796768,-4.983339,0.076383,1.090499,-0.142960,0.000000,0.000000,0.000000,0.000000,0.000000,0.000000
11852638.000000,-2.382579,-1.662257,1.079645,-1.383329,1.765207,1.132385,-0.559865,0.483859,0.007462,0.798148,-0.383539,-0.377430,0.765078,-0.141006,-6.011614,32.326702,-12.951248,-4.907960,0.117582,1.104232,-0.149369,0.000000,0.000000,0.000000,0.000000,0.000000,0.000000
11852639.000000,-2.382080,-1.662231,1.080445,-1.383714,1.764820,1.133143,-0.560005,0.486889,0.013743,0.797161,-0.385918,-0.379824,0.756900,-0.143492,-5.813250,32.937664,-14.105728,-4.884157,0.201810,1.253463,-0.142960,0.000000,0.000000,0.000000,0.000000,0.000000,0.000000
11852640.000000,-2.381599,-1.662202,1.081229,-1.384105,1.764429,1.133894,-0.560141,0.485917,0.017120,0.793597,-0.387784,-0.387564,0.754898,-0.141183,-5.487933,33.477215,-15.014236,-4.709596,0.308927,1.448470,-0.136552,0.000000,0.000000,0.000000,0.000000,0.000000,0.000000
11852641.000000,-2.381106,-1.662176,1.082029,-1.384493,1.764044,1.134662,-0.560272,0.483746,0.019384,0.793111,-0.392094,-0.389848,0.762745,-0.138619,-5.293536,34.016766,-15.847366,-4.634218,0.452665,1.513473,-0.169511,0.000000,0.000000,0.000000,0.000000,0.000000,0.000000
11852642.000000,-2.380623,-1.662141,1.082821,-1.384882,1.763665,1.135416,-0.560410,0.481541,0.026320,0.811299,-0.391080,-0.389241,0.748890,-0.138099,-5.118975,34.334148,-16.509903,-4.511232,0.434354,1.597701,-0.142960,0.000000,0.000000,0.000000,0.000000,0.000000,0.000000
11852643.000000,-2.380144,-1.662105,1.083635,-1.385257,1.763290,1.136153,-0.560536,0.478136,0.025554,0.809571,-0.385330,-0.384156,0.744691,-0.139961,-4.797625,34.603924,-17.224014,-4.586610,0.386747,1.714889,-0.182328,0.000000,0.000000,0.000000,0.000000,0.000000,0.000000
11852644.000000,-2.379660,-1.662086,1.084454,-1.385636,1.762919,1.136904,-0.560673,0.480381,0.020659,0.811884,-0.380321,-0.378031,0.745755,-0.137693,-4.547686,35.044292,-17.711990,-4.709596,0.291532,1.747848,-0.182328,0.000000,0.000000,0.000000,0.000000,0.000000,0.000000
11852645.000000,-2.379194,-1.662068,1.085260,-1.386004,1.762546,1.137650,-0.560807,0.471418,0.017608,0.808899,-0.375103,-0.377895,0.746875,-0.138171,-4.250140,35.460857,-18.080948,-4.784975,0.285123,1.637069,-0.130143,0.000000,0.000000,0.000000,0.000000,0.000000,0.000000
11852646.000000,-2.378720,-1.662053,1.086085,-1.386378,1.762157,1.138381,-0.560935,0.469566,0.016537,0.808583,-0.372879,-0.373452,0.743683,-0.136266,-4.079546,35.829815,-18.449905,-4.884157,0.303434,1.662704,-0.136552,0.000000,0.000000,0.000000,0.000000,0.000000,0.000000
11852647.000000,-2.378254,-1.662052,1.086922,-1.386740,1.761781,1.139102,-0.561070,0.470792,0.009677,0.812767,-0.372976,-0.372588,0.732761,-0.135840,-3.956561,36.317791,-18.914078,-4.983339,0.255826,1.773483,-0.116410,0.000000,0.000000,0.000000,0.000000,0.000000,0.000000
11852648.000000,-2.377785,-1.662055,1.087752,-1.387103,1.761401,1.139823,-0.561191,0.468759,0.003882,0.820798,-0.367307,-0.385115,0.732875,-0.132841,-3.730425,36.833538,-19.283035,-5.153932,0.291532,1.800033,-0.175919,0.000000,0.000000,0.000000,0.000000,0.000000,0.000000
11852649.000000,-2.377318,-1.662063,1.088588,-1.387450,1.761006,1.140565,-0.561322,0.464563,-0.000007,0.818828,-0.356474,-0.389732,0.733295,-0.134396,-3.559832,37.345318,-19.529007,-5.475282,0.356534,1.643478,-0.149369,0.000000,0.000000,0.000000,0.000000,0.000000,0.000000
11852650.000000,-2.376851,-1.662086,1.089429,-1.387792,1.760618,1.141315,-0.561446,0.467952,-0.011508,0.824098,-0.354765,-0.390048,0.737296,-0.131916,-3.508257,37.956280,-19.846390,-5.820436,0.356534,1.552840,-0.175919,0.000000,0.000000,0.000000,0.000000,0.000000,0.000000
11852651.000000,-2.376362,-1.662109,1.090277,-1.388138,1.760239,1.142025,-0.561578,0.472217,-0.015047,0.825988,-0.345269,-0.387162,0.737883,-0.133387,-3.682818,38.495831,-20.092361,-6.094179,0.362943,1.689254,-0.136552,0.000000,0.000000,0.000000,0.000000,0.000000,0.000000
11852652.000000,-2.375880,-1.662138,1.091135,-1.388488,1.759848,1.142742,-0.561709,0.471032,-0.017212,0.831051,-0.348092,-0.389979,0.727102,-0.133392,-3.829607,39.011578,-20.314529,-6.240968,0.386747,1.819259,-0.122819,0.000000,0.000000,0.000000,0.000000,0.000000,0.000000
11852653.000000,-2.375400,-1.662180,1.091967,-1.388825,1.759469,1.143466,-0.561834,0.474872,-0.025252,0.829188,-0.344435,-0.386928,0.728909,-0.128328,-4.027972,39.670147,-20.437515,-6.490907,0.386747,1.838485,-0.163102,0.000000,0.000000,0.000000,0.000000,0.000000,0.000000
11852654.000000,-2.374909,-1.662214,1.092815,-1.389184,1.759088,1.144194,-0.561974,0.477375,-0.027678,0.829338,-0.347860,-0.380528,0.724111,-0.130536,-4.277911,40.185894,-20.560501,-6.463136,0.410551,1.897079,-0.122819,0.000000,0.000000,0.000000,0.000000,0.000000,0.000000
11852655.000000,-2.374427,-1.662251,1.093647,-1.389526,1.758699,1.144931,-0.562099,0.473473,-0.028394,0.829128,-0.346158,-0.383600,0.723964,-0.128845,-4.448504,40.650066,-20.683487,-6.613893,0.386747,1.923629,-0.175919,0.000000,0.000000,0.000000,0.000000,0.000000,0.000000
11852656.000000,-2.373941,-1.662286,1.094492,-1.389872,1.758321,1.145658,-0.562230,0.476566,-0.030573,0.832261,-0.345391,-0.381329,0.728003,-0.129695,-4.674639,41.042828,-20.806473,-6.736879,0.369352,1.916305,-0.175919,0.000000,0.000000,0.000000,0.000000,0.000000,0.000000
11852657.000000,-2.373444,-1.662322,1.095336,-1.390216,1.757944,1.146403,-0.562367,0.479871,-0.032395,0.829868,-0.343948,-0.379937,0.725745,-0.131523,-4.968218,41.431622,-20.877884,-6.911439,0.381254,1.877853,-0.136552,0.000000,0.000000,0.000000,0.000000,0.000000,0.000000
11852659.000000,-2.372477,-1.662395,1.096994,-1.390883,1.757195,1.147876,-0.562630,0.479903,-0.035427,0.827045,-0.340758,-0.374929,0.726981,-0.124964,-5.392718,42.117962,-20.731094,-7.328004,0.398649,1.838485,-0.110001,0.000000,0.000000,0.000000,0.000000,0.000000,0.000000
11852660.000000,-2.372003,-1.662429,1.097830,-1.391210,1.756820,1.148618,-0.562752,0.488028,-0.035565,0.845501,-0.333884,-0.369912,0.725719,-0.124033,-5.515704,42.463116,-20.754898,-7.526369,0.398649,1.916305,-0.175919,0.000000,0.000000,0.000000,0.000000,0.000000,0.000000
11852661.000000,-2.371524,-1.662459,1.098672,-1.391523,1.756462,1.149351,-0.562879,0.486630,-0.030719,0.841613,-0.325694,-0.369642,0.734010,-0.126793,-5.614886,42.728924,-20.754898,-7.847719,0.339139,1.909896,-0.169511,0.000000,0.000000,0.000000,0.000000,0.000000,0.000000
11852662.000000,-2.371037,-1.662492,1.099506,-1.391851,1.756086,1.150095,-0.563009,0.484379,-0.032345,0.836788,-0.322804,-0.369282,0.728809,-0.128307,-5.785479,42.951092,-20.560501,-8.046083,0.356534,1.779891,-0.155778,0.000000,0.000000,0.000000,0.000000,0.000000,0.000000
11852663.000000,-2.370572,-1.662513,1.100334,-1.392164,1.755725,1.150832,-0.563141,0.478627,-0.027445,0.832161,-0.319902,-0.378413,0.737524,-0.131129,-5.785479,43.026470,-20.536697,-8.268251,0.351041,1.682845,-0.103593,0.000000,0.000000,0.000000,0.000000,0.000000,0.000000
11852664.000000,-2.370092,-1.662539,1.101177,-1.392482,1.755375,1.151571,-0.563263,0.476365,-0.027275,0.831403,-0.320562,-0.367655,0.732037,-0.129107,-5.884661,43.097881,-20.560501,-8.466616,0.315336,1.670028,-0.163102,0.000000,0.000000,0.000000,0.000000,0.000000,0.000000
11852665.000000,-2.369610,-1.662559,1.102016,-1.392791,1.755015,1.152306,-0.563390,0.476387,-0.025231,0.832265,-0.323441,-0.365115,0.735662,-0.129089,-6.011614,43.074078,-20.560501,-8.664980,0.308927,1.754256,-0.182328,0.000000,0.000000,0.000000,0.000000,0.000000,0.000000
11852666.000000,-2.369149,-1.662584,1.102840,-1.393096,1.754660,1.153034,-0.563518,0.472198,-0.026252,0.826395,-0.317275,-0.359129,0.739177,-0.131596,-6.035418,43.145489,-20.461319,-8.887148,0.327238,1.779891,-0.136552,0.000000,0.000000,0.000000,0.000000,0.000000,0.000000
11852667.000000,-2.368679,-1.662609,1.103675,-1.393401,1.754307,1.153774,-0.563644,0.468055,-0.026573,0.823359,-0.314256,-0.356947,0.734163,-0.131033,-6.106829,43.197063,-20.485123,-9.160891,0.285123,1.793624,-0.142960,0.000000,0.000000,0.000000,0.000000,0.000000,0.000000
11852668.000000,-2.368216,-1.662629,1.104514,-1.393702,1.753962,1.154511,-0.563765,0.470425,-0.022066,0.827436,-0.306248,-0.354064,0.728434,-0.129978,-6.035418,43.173260,-20.683487,-9.430666,0.219205,1.851302,-0.155778,0.000000,0.000000,0.000000,0.000000,0.000000,0.000000
11852669.000000,-2.367758,-1.662644,1.105358,-1.394000,1.753622,1.155233,-0.563888,0.468905,-0.020816,0.828017,-0.302220,-0.351006,0.726981,-0.131213,-6.035418,43.097881,-20.830276,-9.728212,0.088285,1.865035,-0.163102,0.000000,0.000000,0.000000,0.000000,0.000000,0.000000
11852670.000000,-2.367298,-1.662660,1.106203,-1.394302,1.753272,1.155982,-0.564012,0.468051,-0.020697,0.824741,-0.301239,-0.347044,0.731634,-0.128602,-6.035418,43.050274,-20.953262,-9.974184,0.081876,1.779891,-0.110001,0.000000,0.000000,0.000000,0.000000,0.000000,0.000000
11852671.000000,-2.366855,-1.662674,1.107034,-1.394608,1.752930,1.156717,-0.564126,0.464475,-0.016995,0.824687,-0.298418,-0.342559,0.724595,-0.126636,-5.884661,42.974895,-21.175430,-10.025759,0.117582,1.727706,-0.182328,0.000000,0.000000,0.000000,0.000000,0.000000,0.000000
11852672.000000,-2.366407,-1.662694,1.107875,-1.394904,1.752586,1.157437,-0.564248,0.457667,-0.018842,0.820091,-0.298215,-0.343151,0.718972,-0.128702,-5.737872,42.951092,-21.270645,-10.220156,0.076383,1.832076,-0.169511,0.000000,0.000000,0.000000,0.000000,0.000000,0.000000
11852673.000000,-2.365976,-1.662707,1.108711,-1.395196,1.752242,1.158172,-0.564384,0.440526,-0.015718,0.824489,-0.296722,-0.341906,0.718758,-0.128185,-5.487933,42.875713,-21.516617,-10.370913,0.052579,1.877853,-0.089860,0.000000,0.000000,0.000000,0.000000,0.000000,0.000000
11852674.000000,-2.365552,-1.662720,1.109550,-1.395484,1.751905,1.158899,-0.564499,0.433189,-0.016569,0.823478,-0.294351,-0.341765,0.720435,-0.121716,-5.118975,42.804302,-21.591995,-10.569277,0.058073,1.832076,-0.155778,0.000000,0.000000,0.000000,0.000000,0.000000,0.000000
11852675.000000,-2.365122,-1.662735,1.110396,-1.395777,1.751572,1.159635,-0.564624,0.428780,-0.018416,0.824484,-0.290103,-0.335377,0.722937,-0.121048,-4.797625,42.780499,-21.738785,-10.739870,0.040677,1.838485,-0.110001,0.000000,0.000000,0.000000,0.000000,0.000000,0.000000
11852676.000000,-2.364711,-1.662744,1.111219,-1.396078,1.751233,1.160342,-0.564744,0.421020,-0.015486,0.821302,-0.292376,-0.335592,0.727919,-0.118884,-4.400897,42.705120,-21.687210,-10.668459,0.010465,1.936446,-0.110001,0.000000,0.000000,0.000000,0.000000,0.000000,0.000000
11852677.000000,-2.364300,-1.662760,1.112060,-1.396369,1.750898,1.161072,-0.564862,0.418154,-0.014989,0.822872,-0.289606,-0.331897,0.729965,-0.116598,-4.027972,42.705120,-21.762589,-10.739870,0.010465,1.955673,-0.155778,0.000000,0.000000,0.000000,0.000000,0.000000,0.000000
11852678.000000,-2.363897,-1.662770,1.112910,-1.396671,1.750562,1.161818,-0.564988,0.418527,-0.013624,0.823586,-0.292233,-0.326376,0.730297,-0.117217,-3.682818,42.657513,-21.861771,-10.640688,0.076383,1.865035,-0.116410,0.000000,0.000000,0.000000,0.000000,0.000000,0.000000
11852679.000000,-2.363476,-1.662785,1.113750,-1.396983,1.750238,1.162546,-0.565102,0.422443,-0.016741,0.829509,-0.295977,-0.327881,0.728433,-0.115152,-3.484454,42.657513,-22.056168,-10.446291,0.027860,1.747848,-0.142960,0.000000,0.000000,0.000000,0.000000,0.000000,0.000000
11852680.000000,-2.363076,-1.662797,1.114598,-1.397309,1.749898,1.163285,-0.565217,0.412551,-0.015147,0.831725,-0.306626,-0.325625,0.729256,-0.115396,-3.087725,42.633709,-22.202957,-10.172548,0.022367,1.727706,-0.116410,0.000000,0.000000,0.000000,0.000000,0.000000,0.000000
11852681.000000,-2.362685,-1.662817,1.115453,-1.397634,1.749565,1.164008,-0.565327,0.407238,-0.019964,0.843970,-0.311565,-0.325162,0.732965,-0.113224,-2.742571,42.728924,-22.623489,-9.875002,0.040677,1.747848,-0.155778,0.000000,0.000000,0.000000,0.000000,0.000000,0.000000
11852682.000000,-2.362286,-1.662835,1.116300,-1.397956,1.749235,1.164736,-0.565446,0.404194,-0.019803,0.838839,-0.312375,-0.324940,0.726694,-0.113779,-2.445025,42.804302,-22.770279,-9.652834,0.064481,1.800033,-0.142960,0.000000,0.000000,0.000000,0.000000,0.000000,0.000000
11852683.000000,-2.361892,-1.662856,1.117162,-1.398276,1.748889,1.165456,-0.565562,0.401259,-0.020582,0.847252,-0.320888,-0.334340,0.728189,-0.113306,-2.123675,42.927288,-23.111465,-9.577456,0.100187,1.981307,-0.149369,0.000000,0.000000,0.000000,0.000000,0.000000,0.000000
11852684.000000,-2.361507,-1.662875,1.118014,-1.398612,1.748553,1.166176,-0.565679,0.399144,-0.022485,0.847853,-0.321998,-0.335724,0.722934,-0.114090,-1.802325,42.974895,-23.504227,-9.406862,0.105680,2.066451,-0.130143,0.000000,0.000000,0.000000,0.000000,0.000000,0.000000
11852685.000000,-2.361120,-1.662902,1.118871,-1.398956,1.748212,1.166917,-0.565785,0.391914,-0.026842,0.854378,-0.330167,-0.335632,0.725195,-0.111689,-1.528582,43.145489,-23.849380,-9.208498,0.219205,2.039901,-0.182328,0.000000,0.000000,0.000000,0.000000,0.000000,0.000000
11852686.000000,-2.360736,-1.662928,1.119714,-1.399302,1.747869,1.167647,-0.565899,0.400691,-0.026825,0.855133,-0.338740,-0.338594,0.728430,-0.112563,-1.330218,43.320049,-24.071548,-8.910952,0.303434,2.060043,-0.155778,0.000000,0.000000,0.000000,0.000000,0.000000,0.000000
11852687.000000,-2.360345,-1.662960,1.120561,-1.399653,1.747533,1.168359,-0.566015,0.399054,-0.026546,0.855571,-0.341008,-0.337920,0.727771,-0.108699,-1.183428,43.490643,-24.166763,-8.613405,0.291532,2.104903,-0.136552,0.000000,0.000000,0.000000,0.000000,0.000000,0.000000
11852688.000000,-2.359961,-1.662986,1.121427,-1.400015,1.747181,1.169081,-0.566124,0.393008,-0.024494,0.854427,-0.344141,-0.335668,0.724286,-0.107908,-0.961260,43.585857,-24.436539,-8.268251,0.398649,2.098495,-0.182328,0.000000,0.000000,0.000000,0.000000,0.000000,0.000000
11852689.000000,-2.359586,-1.663017,1.122275,-1.400367,1.746851,1.169788,-0.566240,0.389833,-0.028185,0.858093,-0.347158,-0.330316,0.704642,-0.106069,-0.762896,43.760418,-24.611099,-8.022280,0.369352,2.014266,-0.142960,0.000000,0.000000,0.000000,0.000000,0.000000,0.000000
11852690.000000,-2.359210,-1.663049,1.123117,-1.400726,1.746517,1.170509,-0.566348,0.384920,-0.030092,0.848368,-0.351402,-0.328825,0.709363,-0.106617,-0.512957,43.907207,-24.583328,-7.800111,0.327238,1.962081,-0.169511,0.000000,0.000000,0.000000,0.000000,0.000000,0.000000
11852691.000000,-2.358840,-1.663086,1.123952,-1.401083,1.746173,1.171220,-0.566467,0.388928,-0.033067,0.846217,-0.354418,-0.327460,0.710717,-0.110039,-0.266986,44.125408,-24.583328,-7.625551,0.339139,1.988631,-0.122819,0.000000,0.000000,0.000000,0.000000,0.000000,0.000000
11852692.000000,-2.358472,-1.663115,1.124801,-1.401439,1.745836,1.171921,-0.566574,0.380514,-0.029834,0.843298,-0.354894,-0.331268,0.705092,-0.110178,0.030561,44.248394,-24.611099,-7.526369,0.362943,2.053634,-0.136552,0.000000,0.000000,0.000000,0.000000,0.000000,0.000000
11852693.000000,-2.358102,-1.663146,1.125646,-1.401808,1.745502,1.172627,-0.566682,0.372965,-0.030142,0.839481,-0.357169,-0.330477,0.703175,-0.108958,0.252729,44.347576,-24.464310,-7.355775,0.434354,2.137862,-0.202470,0.000000,0.000000,0.000000,0.000000,0.000000,0.000000
11852694.000000,-2.357735,-1.663173,1.126471,-1.402177,1.745164,1.173339,-0.566804,0.371329,-0.029713,0.833350,-0.357740,-0.338833,0.718828,-0.113648,0.427289,44.418987,-24.289749,-7.105836,0.458158,2.098495,-0.116410,0.000000,0.000000,0.000000,0.000000,0.000000,0.000000
11852695.000000,-2.357361,-1.663203,1.127323,-1.402557,1.744826,1.174074,-0.566909,0.373607,-0.029739,0.833623,-0.363064,-0.341083,0.724152,-0.110115,0.550275,44.494366,-24.388931,-6.883668,0.506681,1.897079,-0.202470,0.000000,0.000000,0.000000,0.000000,0.000000,0.000000
11852696.000000,-2.356984,-1.663223,1.128166,-1.402943,1.744491,1.174805,-0.567023,0.382699,-0.026725,0.842969,-0.366939,-0.341834,0.717714,-0.111982,0.574079,44.442791,-24.388931,-6.538515,0.542386,1.741439,-0.175919,0.000000,0.000000,0.000000,0.000000,0.000000,0.000000
11852697.000000,-2.356599,-1.663250,1.128989,-1.403337,1.744170,1.175513,-0.567138,0.383453,-0.026660,0.837776,-0.376199,-0.339820,0.713677,-0.113977,0.474897,44.470562,-24.289749,-6.193361,0.506681,1.825668,-0.136552,0.000000,0.000000,0.000000,0.000000,0.000000,0.000000
11852698.000000,-2.356220,-1.663269,1.129824,-1.403742,1.743838,1.176238,-0.567253,0.382660,-0.024733,0.828821,-0.381012,-0.332559,0.717307,-0.113841,0.451093,44.418987,-24.289749,-5.796632,0.512174,1.851302,-0.122819,0.000000,0.000000,0.000000,0.000000,0.000000,0.000000
11852699.000000,-2.355847,-1.663292,1.130654,-1.404131,1.743512,1.176951,-0.567357,0.384710,-0.024717,0.827876,-0.386134,-0.331301,0.715621,-0.111088,0.451093,44.418987,-24.341324,-5.598268,0.554288,1.844894,-0.188737,0.000000,0.000000,0.000000,0.000000,0.000000,0.000000
11852700.000000,-2.355471,-1.663308,1.131489,-1.404522,1.743193,1.177669,-0.567468,0.378641,-0.022483,0.827199,-0.384396,-0.326514,0.716388,-0.111782,0.474897,44.323772,-24.436539,-5.475282,0.530485,1.955673,-0.188737,0.000000,0.000000,0.000000,0.000000,0.000000,0.000000
11852701.000000,-2.355090,-1.663323,1.132328,-1.404912,1.742871,1.178380,-0.567580,0.376952,-0.021039,0.826653,-0.393683,-0.324125,0.705604,-0.113907,0.427289,44.224590,-24.488113,-5.253114,0.512174,2.112228,-0.142960,0.000000,0.000000,0.000000,0.000000,0.000000,0.000000
11852702.000000,-2.354714,-1.663336,1.133151,-1.405300,1.742542,1.179094,-0.567681,0.378913,-0.020053,0.827273,-0.389895,-0.325678,0.708865,-0.107244,0.351911,44.125408,-24.611099,-5.177736,0.571683,2.131454,-0.188737,0.000000,0.000000,0.000000,0.000000,0.000000,0.000000
11852703.000000,-2.354338,-1.663353,1.133988,-1.405699,1.742211,1.179823,-0.567794,0.380214,-0.020230,0.825615,-0.393672,-0.322267,0.717387,-0.105094,0.403486,44.053997,-24.734085,-4.955568,0.649503,2.060043,-0.155778,0.000000,0.000000,0.000000,0.000000,0.000000,0.000000
11852704.000000,-2.353953,-1.663364,1.134800,-1.406097,1.741886,1.180556,-0.567902,0.383123,-0.019484,0.820809,-0.393110,-0.317669,0.718942,-0.105906,0.328107,43.954815,-24.757889,-4.757204,0.685209,2.027084,-0.169511,0.000000,0.000000,0.000000,0.000000,0.000000,0.000000
11852705.000000,-2.353577,-1.663368,1.135630,-1.406488,1.741563,1.181273,-0.568009,0.381380,-0.014113,0.818276,-0.391055,-0.323415,0.721384,-0.108643,0.328107,43.784222,-24.805496,-4.610414,0.703519,1.988631,-0.163102,0.000000,0.000000,0.000000,0.000000,0.000000,0.000000
11852706.000000,-2.353202,-1.663376,1.136458,-1.406883,1.741234,1.182000,-0.568116,0.376645,-0.012068,0.813259,-0.391593,-0.322499,0.717621,-0.109002,0.351911,43.685040,-24.880875,-4.535036,0.715421,1.903487,-0.182328,0.000000,0.000000,0.000000,0.000000,0.000000,0.000000
11852707.000000,-2.352835,-1.663382,1.137263,-1.407269,1.740915,1.182716,-0.568225,0.368655,-0.010522,0.811280,-0.388557,-0.321470,0.711518,-0.110558,0.403486,43.585857,-24.757889,-4.463624,0.703519,1.890670,-0.169511,0.000000,0.000000,0.000000,0.000000,0.000000,0.000000
11852708.000000,-2.352462,-1.663383,1.138071,-1.407653,1.740613,1.183431,-0.568337,0.366036,-0.007561,0.801987,-0.382535,-0.313905,0.709431,-0.112266,0.451093,43.415264,-24.611099,-4.535036,0.625699,1.981307,-0.142960,0.000000,0.000000,0.000000,0.000000,0.000000,0.000000
11852709.000000,-2.352090,-1.663378,1.138874,-1.408024,1.740296,1.184149,-0.568438,0.370973,-0.004363,0.800195,-0.375835,-0.314597,0.708012,-0.106361,0.502668,43.197063,-24.488113,-4.610414,0.589994,2.085677,-0.188737,0.000000,0.000000,0.000000,0.000000,0.000000,0.000000
11852710.000000,-2.351721,-1.663374,1.139692,-1.408415,1.739978,1.184867,-0.568547,0.373729,-0.002702,0.802829,-0.378200,-0.311289,0.714805,-0.104616,0.574079,42.998699,-24.511917,-4.511232,0.584501,2.104903,-0.163102,0.000000,0.000000,0.000000,0.000000,0.000000,0.000000
11852711.000000,-2.351342,-1.663369,1.140505,-1.408794,1.739667,1.185600,-0.568651,0.374434,-0.000976,0.801105,-0.375214,-0.307545,0.710121,-0.101300,0.502668,42.780499,-24.412735,-4.487428,0.566190,2.092086,-0.175919,0.000000,0.000000,0.000000,0.000000,0.000000,0.000000
11852712.000000,-2.350969,-1.663359,1.141304,-1.409177,1.739362,1.186333,-0.568753,0.373916,0.003932,0.796416,-0.378787,-0.303448,0.729965,-0.103906,0.427289,42.534527,-24.412735,-4.340639,0.608304,2.007858,-0.182328,0.000000,0.000000,0.000000,0.000000,0.000000,0.000000
11852713.000000,-2.350593,-1.663349,1.142126,-1.409562,1.739046,1.187060,-0.568859,0.374210,0.004767,0.797969,-0.378585,-0.309625,0.727166,-0.102308,0.427289,42.264751,-24.583328,-4.142274,0.655912,1.949264,-0.163102,0.000000,0.000000,0.000000,0.000000,0.000000,0.000000
11852714.000000,-2.350212,-1.663337,1.142927,-1.409934,1.738738,1.187796,-0.568957,0.385780,0.005504,0.799185,-0.379330,-0.312228,0.722588,-0.103528,0.276533,41.994976,-24.682510,-4.066896,0.655912,1.974899,-0.202470,0.000000,0.000000,0.000000,0.000000,0.000000,0.000000
11852715.000000,-2.349847,-1.663330,1.143736,-1.410314,1.738439,1.188513,-0.569066,0.382184,0.004126,0.799288,-0.378371,-0.310126,0.720443,-0.103057,0.351911,41.800579,-24.757889,-3.920107,0.667814,1.995040,-0.155778,0.000000,0.000000,0.000000,0.000000,0.000000,0.000000
11852716.000000,-2.349484,-1.663329,1.144549,-1.410686,1.738151,1.189226,-0.569168,0.373468,0.002887,0.792775,-0.375031,-0.295354,0.712024,-0.103930,0.526471,41.752972,-24.880875,-3.892336,0.644010,2.047225,-0.188737,0.000000,0.000000,0.000000,0.000000,0.000000,0.000000
11852717.000000,-2.349123,-1.663326,1.145354,-1.411049,1.737853,1.189930,-0.569268,0.361717,0.002398,0.796465,-0.370312,-0.296873,0.709597,-0.106267,0.625654,41.701397,-25.051468,-3.967714,0.644010,2.209274,-0.202470,0.000000,0.000000,0.000000,0.000000,0.000000,0.000000
11852718.000000,-2.348768,-1.663328,1.146147,-1.411416,1.737570,1.190619,-0.569371,0.356465,-0.000157,0.790208,-0.366836,-0.290441,0.692564,-0.103831,0.895429,41.752972,-25.003860,-3.892336,0.566190,2.345687,-0.188737,0.000000,0.000000,0.000000,0.000000,0.000000,0.000000
11852719.000000,-2.348412,-1.663331,1.146941,-1.411779,1.737273,1.191333,-0.569477,0.351593,-0.001630,0.787534,-0.372935,-0.285430,0.693118,-0.101535,1.093793,41.800579,-24.880875,-3.892336,0.608304,2.352096,-0.169511,0.000000,0.000000,0.000000,0.000000,0.000000,0.000000
11852720.000000,-2.348064,-1.663341,1.147725,-1.412148,1.736983,1.192042,-0.569579,0.354297,-0.004830,0.787983,-0.369758,-0.287647,0.696353,-0.105447,1.292158,41.947369,-24.829300,-3.797121,0.649503,2.196456,-0.142960,0.000000,0.000000,0.000000,0.000000,0.000000,0.000000
11852721.000000,-2.347708,-1.663339,1.148510,-1.412524,1.736699,1.192767,-0.569675,0.354601,-0.002895,0.780170,-0.371428,-0.290984,0.705997,-0.104925,1.415143,41.923565,-24.658707,-3.646364,0.649503,2.092086,-0.202470,0.000000,0.000000,0.000000,0.000000,0.000000,0.000000
11852722.000000,-2.347356,-1.663348,1.149282,-1.412887,1.736402,1.193498,-0.569783,0.350352,-0.004424,0.778847,-0.369065,-0.288235,0.711845,-0.108532,1.514325,42.022747,-24.464310,-3.523378,0.661405,1.995040,-0.142960,0.000000,0.000000,0.000000,0.000000,0.000000,0.000000
11852723.000000,-2.347010,-1.663350,1.150061,-1.413249,1.736114,1.194211,-0.569881,0.349779,-0.003636,0.783782,-0.365885,-0.288046,0.714074,-0.103583,1.712690,42.046551,-24.218338,-3.448000,0.691617,1.909896,-0.175919,0.000000,0.000000,0.000000,0.000000,0.000000,0.000000
11852724.000000,-2.346668,-1.663345,1.150840,-1.413606,1.735831,1.194938,-0.569980,0.346274,-0.001316,0.781160,-0.364402,-0.286193,0.715488,-0.100638,1.887250,41.994976,-23.948563,-3.475771,0.691617,1.844894,-0.188737,0.000000,0.000000,0.000000,0.000000,0.000000,0.000000
11852725.000000,-2.346326,-1.663348,1.151607,-1.413958,1.735561,1.195655,-0.570081,0.345640,-0.002157,0.779101,-0.361120,-0.283576,0.698335,-0.100312,2.010236,42.046551,-23.678787,-3.475771,0.637601,1.812850,-0.155778,0.000000,0.000000,0.000000,0.000000,0.000000,0.000000
11852726.000000,-2.345990,-1.663341,1.152375,-1.414312,1.735278,1.196375,-0.570174,0.338575,0.000827,0.775003,-0.352567,-0.280239,0.701853,-0.102119,2.260175,41.947369,-23.381241,-3.570986,0.571683,1.838485,-0.188737,0.000000,0.000000,0.000000,0.000000,0.000000,0.000000
11852727.000000,-2.345650,-1.663332,1.153137,-1.414663,1.734983,1.197103,-0.570278,0.345966,0.003387,0.771334,-0.350813,-0.282571,0.710194,-0.102014,2.430768,41.824383,-23.210648,-3.499574,0.601896,1.832076,-0.142960,0.000000,0.000000,0.000000,0.000000,0.000000,0.000000
11852728.000000,-2.345304,-1.663318,1.153910,-1.415022,1.734695,1.197841,-0.570368,0.344195,0.006774,0.766704,-0.352782,-0.283207,0.716003,-0.098865,2.482343,41.629986,-23.111465,-3.424196,0.613798,1.714889,-0.175919,0.000000,0.000000,0.000000,0.000000,0.000000,0.000000
11852729.000000,-2.344956,-1.663306,1.154670,-1.415388,1.734413,1.198578,-0.570464,0.347627,0.008484,0.758891,-0.357231,-0.279706,0.720792,-0.097502,2.454572,41.459393,-22.865494,-3.225832,0.661405,1.656295,-0.196061,0.000000,0.000000,0.000000,0.000000,0.000000,0.000000
11852730.000000,-2.344608,-1.663292,1.155437,-1.415752,1.734126,1.199298,-0.570561,0.344786,0.009722,0.756335,-0.363307,-0.288633,0.727164,-0.096748,2.430768,41.284832,-22.865494,-3.027467,0.715421,1.591293,-0.196061,0.000000,0.000000,0.000000,0.000000,0.000000,0.000000
11852731.000000,-2.344257,-1.663269,1.156210,-1.416102,1.733844,1.200031,-0.570662,0.342925,0.013335,0.756031,-0.357336,-0.282074,0.730757,-0.093216,2.383161,40.991253,-22.893265,-3.102846,0.709928,1.624252,-0.149369,0.000000,0.000000,0.000000,0.000000,0.000000,0.000000
11852732.000000,-2.343906,-1.663247,1.156975,-1.416448,1.733561,1.200767,-0.570754,0.345666,0.015098,0.757584,-0.360520,-0.280949,0.728155,-0.092834,2.359357,40.725445,-22.917068,-3.079042,0.709928,1.578475,-0.163102,0.000000,0.000000,0.000000,0.000000,0.000000,0.000000
11852733.000000,-2.343561,-1.663228,1.157742,-1.416791,1.733295,1.201488,-0.570844,0.345517,0.017840,0.759617,-0.351460,-0.275783,0.723353,-0.091772,2.307783,40.527081,-22.865494,-3.225832,0.679716,1.572067,-0.202470,0.000000,0.000000,0.000000,0.000000,0.000000,0.000000
11852734.000000,-2.343210,-1.663206,1.158513,-1.417139,1.733027,1.202203,-0.570943,0.347642,0.020422,0.757040,-0.344727,-0.271082,0.724321,-0.093515,2.260175,40.308880,-22.841690,-3.249635,0.644010,1.721298,-0.169511,0.000000,0.000000,0.000000,0.000000,0.000000,0.000000
11852735.000000,-2.342863,-1.663193,1.159273,-1.417491,1.732751,1.202908,-0.571036,0.348894,0.016391,0.759602,-0.348481,-0.273035,0.711361,-0.096458,2.208601,40.209698,-22.964676,-3.178224,0.608304,1.949264,-0.202470,0.000000,0.000000,0.000000,0.000000,0.000000,0.000000
11852736.000000,-2.342505,-1.663165,1.160039,-1.417840,1.732487,1.203627,-0.571135,0.352378,0.020179,0.757959,-0.346428,-0.272804,0.713925,-0.101879,2.085615,39.963726,-22.964676,-3.126650,0.566190,1.949264,-0.169511,0.000000,0.000000,0.000000,0.000000,0.000000,0.000000
11852737.000000,-2.342149,-1.663143,1.160810,-1.418178,1.732215,1.204361,-0.571226,0.351123,0.021131,0.755385,-0.345740,-0.270354,0.723261,-0.099251,2.010236,39.793133,-23.016251,-3.079042,0.566190,1.819259,-0.188737,0.000000,0.000000,0.000000,0.000000,0.000000,0.000000
11852738.000000,-2.341795,-1.663116,1.161564,-1.418511,1.731952,1.205086,-0.571318,0.352668,0.023759,0.754279,-0.337647,-0.271516,0.725489,-0.098240,1.811872,39.547161,-22.964676,-3.202028,0.596403,1.735030,-0.182328,0.000000,0.000000,0.000000,0.000000,0.000000,0.000000
11852739.000000,-2.341442,-1.663088,1.162334,-1.418852,1.731692,1.205809,-0.571415,0.349970,0.022819,0.754120,-0.335763,-0.273704,0.732236,-0.102641,1.740461,39.281353,-23.016251,-3.154421,0.578092,1.747848,-0.155778,0.000000,0.000000,0.000000,0.000000,0.000000,0.000000
11852740.000000,-2.341087,-1.663069,1.163082,-1.419174,1.731426,1.206528,-0.571506,0.349755,0.021275,0.756785,-0.329403,-0.265784,0.727616,-0.094252,1.613508,39.182171,-22.865494,-3.325014,0.571683,1.767074,-0.196061,0.000000,0.000000,0.000000,0.000000,0.000000,0.000000
11852741.000000,-2.340728,-1.663055,1.163827,-1.419500,1.731162,1.207238,-0.571602,0.349061,0.021047,0.753707,-0.326482,-0.266668,0.724668,-0.095607,1.542096,39.182171,-22.571915,-3.424196,0.620206,1.800033,-0.169511,0.000000,0.000000,0.000000,0.000000,0.000000,0.000000
11852742.000000,-2.340375,-1.663029,1.164584,-1.419818,1.730909,1.207944,-0.571693,0.345851,0.022233,0.754122,-0.322752,-0.260246,0.709614,-0.089305,1.542096,39.011578,-22.401321,-3.598757,0.601896,1.865035,-0.196061,0.000000,0.000000,0.000000,0.000000,0.000000,0.000000
11852743.000000,-2.340013,-1.663008,1.165336,-1.420132,1.730665,1.208644,-0.571787,0.353861,0.021794,0.753964,-0.320551,-0.253248,0.706431,-0.091138,1.268354,38.888592,-22.353714,-3.769350,0.506681,1.909896,-0.182328,0.000000,0.000000,0.000000,0.000000,0.000000,0.000000
11852744.000000,-2.339659,-1.662986,1.166095,-1.420448,1.730409,1.209363,-0.571883,0.353024,0.020942,0.752027,-0.317267,-0.258614,0.713198,-0.093373,1.216779,38.789410,-22.302139,-3.844728,0.440763,1.812850,-0.142960,0.000000,0.000000,0.000000,0.000000,0.000000,0.000000
11852745.000000,-2.339298,-1.662971,1.166842,-1.420763,1.730149,1.210095,-0.571968,0.361100,0.018714,0.763261,-0.317955,-0.259207,0.714870,-0.091881,1.022382,38.765606,-22.254532,-3.943910,0.405057,1.656295,-0.196061,0.000000,0.000000,0.000000,0.000000,0.000000,0.000000
11852746.000000,-2.338930,-1.662956,1.167600,-1.421080,1.729889,1.210802,-0.572063,0.359754,0.016665,0.761931,-0.317198,-0.262651,0.718386,-0.093494,0.824018,38.765606,-22.254532,-3.967714,0.452665,1.584884,-0.169511,0.000000,0.000000,0.000000,0.000000,0.000000,0.000000
11852747.000000,-2.338565,-1.662942,1.168362,-1.421390,1.729641,1.211494,-0.572151,0.360603,0.015378,0.756368,-0.318343,-0.260733,0.701625,-0.092662,0.649457,38.765606,-22.230728,-4.043092,0.398649,1.735030,-0.188737,0.000000,0.000000,0.000000,0.000000,0.000000,0.000000
11852748.000000,-2.338205,-1.662926,1.169122,-1.421689,1.729382,1.212191,-0.572242,0.361853,0.017083,0.761152,-0.307912,-0.267757,0.712584,-0.094052,0.474897,38.789410,-22.425125,-4.189882,0.393156,1.819259,-0.163102,0.000000,0.000000,0.000000,0.000000,0.000000,0.000000
11852749.000000,-2.337844,-1.662915,1.169880,-1.421990,1.729118,1.212909,-0.572329,0.360554,0.014648,0.756023,-0.303882,-0.268627,0.710570,-0.093112,0.375715,38.837017,-22.448929,-4.289064,0.434354,1.735030,-0.188737,0.000000,0.000000,0.000000,0.000000,0.000000,0.000000
11852750.000000,-2.337488,-1.662912,1.170629,-1.422277,1.728860,1.213623,-0.572422,0.359791,0.010748,0.748550,-0.305956,-0.265865,0.707457,-0.089082,0.304304,38.983807,-22.401321,-4.535036,0.422452,1.714889,-0.175919,0.000000,0.000000,0.000000,0.000000,0.000000,0.000000
11852751.000000,-2.337122,-1.662901,1.171383,-1.422577,1.728608,1.214301,-0.572506,0.360111,0.010300,0.750094,-0.302024,-0.261820,0.704217,-0.085604,0.177350,39.035381,-22.524307,-4.562807,0.446256,1.865035,-0.175919,0.000000,0.000000,0.000000,0.000000,0.000000,0.000000
11852752.000000,-2.336761,-1.662895,1.172141,-1.422862,1.728362,1.214991,-0.572591,0.356272,0.009406,0.748507,-0.295768,-0.250124,0.701447,-0.081719,0.078168,39.106792,-22.595718,-4.709596,0.416959,2.020675,-0.208878,0.000000,0.000000,0.000000,0.000000,0.000000,0.000000
11852753.000000,-2.336404,-1.662896,1.172880,-1.423147,1.728099,1.215708,-0.572684,0.356203,0.005808,0.747349,-0.295630,-0.256925,0.707172,-0.085967,0.006757,39.305157,-22.472733,-4.808778,0.506681,1.923629,-0.163102,0.000000,0.000000,0.000000,0.000000,0.000000,0.000000
11852754.000000,-2.336046,-1.662898,1.173630,-1.423429,1.727846,1.216408,-0.572770,0.351905,0.004018,0.749445,-0.288539,-0.257418,0.705078,-0.082092,-0.017047,39.475750,-22.353714,-4.907960,0.476469,1.819259,-0.196061,0.000000,0.000000,0.000000,0.000000,0.000000,0.000000
11852755.000000,-2.335678,-1.662895,1.174388,-1.423704,1.727594,1.217118,-0.572865,0.354330,0.004484,0.751303,-0.285629,-0.252598,0.704344,-0.081862,-0.144000,39.574932,-22.353714,-5.054750,0.446256,1.812850,-0.155778,0.000000,0.000000,0.000000,0.000000,0.000000,0.000000
11852756.000000,-2.335327,-1.662892,1.175126,-1.423981,1.727349,1.217815,-0.572954,0.354356,0.004874,0.746754,-0.284276,-0.253981,0.699379,-0.080613,-0.191607,39.670147,-22.254532,-5.177736,0.369352,1.779891,-0.142960,0.000000,0.000000,0.000000,0.000000,0.000000,0.000000
11852757.000000,-2.334976,-1.662899,1.175869,-1.424251,1.727111,1.218543,-0.573035,0.352934,0.001710,0.740318,-0.278711,-0.250547,0.711525,-0.081820,-0.191607,39.916119,-22.107742,-5.352296,0.332731,1.624252,-0.196061,0.000000,0.000000,0.000000,0.000000,0.000000,0.000000
11852758.000000,-2.334633,-1.662907,1.176604,-1.424509,1.726865,1.219263,-0.573129,0.351079,-0.002913,0.737118,-0.276961,-0.248875,0.719270,-0.087534,-0.116229,40.134319,-21.933182,-5.574464,0.332731,1.559249,-0.130143,0.000000,0.000000,0.000000,0.000000,0.000000,0.000000
11852759.000000,-2.334282,-1.662907,1.177353,-1.424777,1.726620,1.219969,-0.573207,0.347680,-0.000328,0.737175,-0.274408,-0.241773,0.721619,-0.081746,-0.092425,40.233501,-21.837967,-5.721254,0.297025,1.572067,-0.202470,0.000000,0.000000,0.000000,0.000000,0.000000,0.000000
11852760.000000,-2.333922,-1.662904,1.178099,-1.425039,1.726380,1.220676,-0.573292,0.345971,0.002577,0.737436,-0.271248,-0.236647,0.716196,-0.080648,-0.167803,40.281109,-21.639603,-5.919618,0.273221,1.649886,-0.188737,0.000000,0.000000,0.000000,0.000000,0.000000,0.000000
11852761.000000,-2.333574,-1.662903,1.178832,-1.425291,1.726135,1.221380,-0.573381,0.346573,0.001406,0.734955,-0.266500,-0.236899,0.712872,-0.085722,-0.266986,40.332684,-21.445206,-6.094179,0.339139,1.597701,-0.149369,0.000000,0.000000,0.000000,0.000000,0.000000,0.000000
11852762.000000,-2.333220,-1.662902,1.179574,-1.425556,1.725902,1.222113,-0.573466,0.349645,0.001608,0.733381,-0.264009,-0.234800,0.714033,-0.087435,-0.366168,40.332684,-21.322220,-6.193361,0.351041,1.467696,-0.155778,0.000000,0.000000,0.000000,0.000000,0.000000,0.000000
11852763.000000,-2.332860,-1.662891,1.180330,-1.425819,1.725668,1.222835,-0.573549,0.356494,0.004452,0.748581,-0.261785,-0.234907,0.714414,-0.084360,-0.512957,40.209698,-21.369827,-6.193361,0.285123,1.474105,-0.155778,0.000000,0.000000,0.000000,0.000000,0.000000,0.000000
11852764.000000,-2.332505,-1.662881,1.181072,-1.426078,1.725428,1.223544,-0.573627,0.358832,0.006223,0.748452,-0.258652,-0.232239,0.713527,-0.080649,-0.663714,40.086712,-21.393631,-6.240968,0.261320,1.513473,-0.196061,0.000000,0.000000,0.000000,0.000000,0.000000,0.000000
11852765.000000,-2.332158,-1.662879,1.181824,-1.426344,1.725195,1.224260,-0.573710,0.353316,0.004988,0.747275,-0.260927,-0.233447,0.719000,-0.080402,-0.663714,40.062908,-21.417435,-6.217165,0.219205,1.584884,-0.182328,0.000000,0.000000,0.000000,0.000000,0.000000,0.000000
11852766.000000,-2.331816,-1.662866,1.182570,-1.426608,1.724956,1.224971,-0.573791,0.344699,0.008085,0.748675,-0.260505,-0.231647,0.713666,-0.083716,-0.711321,39.868511,-21.516617,-6.141786,0.249418,1.605026,-0.188737,0.000000,0.000000,0.000000,0.000000,0.000000,0.000000
11852767.000000,-2.331465,-1.662853,1.183325,-1.426864,1.724724,1.225688,-0.573881,0.344186,0.012036,0.751286,-0.260331,-0.230449,0.710465,-0.083360,-0.786700,39.721722,-21.591995,-6.169557,0.243009,1.670028,-0.142960,0.000000,0.000000,0.000000,0.000000,0.000000,0.000000
11852768.000000,-2.331112,-1.662840,1.184092,-1.427125,1.724496,1.226407,-0.573959,0.346283,0.015008,0.753370,-0.266672,-0.233367,0.711127,-0.084474,-0.834307,39.574932,-21.786392,-6.141786,0.225614,1.682845,-0.182328,0.000000,0.000000,0.000000,0.000000,0.000000,0.000000
11852769.000000,-2.330771,-1.662827,1.184845,-1.427391,1.724260,1.227121,-0.574043,0.347071,0.013984,0.753915,-0.267652,-0.237109,0.711786,-0.083011,-0.810504,39.428143,-21.960953,-6.070375,0.243009,1.708480,-0.188737,0.000000,0.000000,0.000000,0.000000,0.000000,0.000000
11852770.000000,-2.330421,-1.662816,1.185608,-1.427653,1.724024,1.227833,-0.574134,0.347800,0.014668,0.753392,-0.263989,-0.237946,0.712874,-0.082673,-0.933489,39.352764,-22.155350,-6.042604,0.255826,1.708480,-0.142960,0.000000,0.000000,0.000000,0.000000,0.000000,0.000000
11852771.000000,-2.330092,-1.662815,1.186359,-1.427917,1.723792,1.228540,-0.574211,0.343758,0.008586,0.752584,-0.265146,-0.235742,0.709255,-0.082670,-0.862078,39.428143,-22.254532,-5.994997,0.267728,1.767074,-0.202470,0.000000,0.000000,0.000000,0.000000,0.000000,0.000000
11852772.000000,-2.329749,-1.662805,1.187121,-1.428181,1.723564,1.229228,-0.574299,0.342526,0.006802,0.754527,-0.264364,-0.233071,0.703908,-0.082307,-0.862078,39.400372,-22.353714,-5.994997,0.273221,1.851302,-0.169511,0.000000,0.000000,0.000000,0.000000,0.000000,0.000000
11852773.000000,-2.329413,-1.662791,1.187885,-1.428458,1.723340,1.229918,-0.574381,0.336586,0.009583,0.752856,-0.264853,-0.228937,0.688835,-0.085422,-0.762896,39.328960,-22.425125,-5.820436,0.225614,1.936446,-0.182328,0.000000,0.000000,0.000000,0.000000,0.000000,0.000000
11852774.000000,-2.329079,-1.662788,1.188635,-1.428726,1.723104,1.230613,-0.574465,0.339343,0.007737,0.749048,-0.269760,-0.233609,0.688034,-0.083932,-0.711321,39.428143,-22.500504,-5.848207,0.189908,1.916305,-0.155778,0.000000,0.000000,0.000000,0.000000,0.000000,0.000000
11852775.000000,-2.328744,-1.662782,1.189390,-1.429002,1.722865,1.231313,-0.574547,0.334977,0.007850,0.743599,-0.271661,-0.237685,0.697799,-0.085233,-0.663714,39.475750,-22.425125,-5.796632,0.213712,1.844894,-0.182328,0.000000,0.000000,0.000000,0.000000,0.000000,0.000000
11852776.000000,-2.328419,-1.662771,1.190141,-1.429282,1.722624,1.232024,-0.574626,0.334709,0.009820,0.743437,-0.273411,-0.239752,0.699856,-0.081573,-0.588336,39.451946,-22.448929,-5.626039,0.237516,1.806442,-0.215287,0.000000,0.000000,0.000000,0.000000,0.000000,0.000000
11852777.000000,-2.328084,-1.662758,1.190897,-1.429573,1.722390,1.232708,-0.574716,0.333359,0.011725,0.744875,-0.278423,-0.236520,0.705768,-0.082928,-0.512957,39.400372,-22.377518,-5.427675,0.243009,1.851302,-0.142960,0.000000,0.000000,0.000000,0.000000,0.000000,0.000000
11852778.000000,-2.327752,-1.662748,1.191666,-1.429865,1.722158,1.233400,-0.574798,0.330785,0.012424,0.751619,-0.284687,-0.235003,0.696623,-0.084319,-0.441546,39.376568,-22.425125,-5.253114,0.285123,1.890670,-0.169511,0.000000,0.000000,0.000000,0.000000,0.000000,0.000000
11852779.000000,-2.327431,-1.662740,1.192417,-1.430153,1.721921,1.234100,-0.574876,0.326369,0.012377,0.753302,-0.283471,-0.241092,0.709766,-0.081607,-0.266986,39.376568,-22.448929,-5.054750,0.297025,1.793624,-0.182328,0.000000,0.000000,0.000000,0.000000,0.000000,0.000000
11852780.000000,-2.327101,-1.662729,1.193177,-1.430447,1.721675,1.234804,-0.574958,0.323554,0.012938,0.753611,-0.287015,-0.243318,0.705923,-0.080336,-0.215411,39.352764,-22.500504,-4.907960,0.332731,1.695663,-0.175919,0.000000,0.000000,0.000000,0.000000,0.000000,0.000000
11852781.000000,-2.326784,-1.662720,1.193954,-1.430744,1.721438,1.235502,-0.575034,0.327687,0.013215,0.773590,-0.292586,-0.239192,0.699374,-0.079113,-0.144000,39.328960,-22.742508,-4.661989,0.339139,1.721298,-0.188737,0.000000,0.000000,0.000000,0.000000,0.000000,0.000000
11852782.000000,-2.326462,-1.662714,1.194714,-1.431035,1.721212,1.236172,-0.575115,0.328144,0.009245,0.769413,-0.291298,-0.234946,0.689414,-0.078244,-0.017047,39.352764,-22.893265,-4.511232,0.308927,1.871444,-0.188737,0.000000,0.000000,0.000000,0.000000,0.000000,0.000000
11852783.000000,-2.326143,-1.662706,1.195486,-1.431345,1.720972,1.236868,-0.575198,0.325002,0.010009,0.765966,-0.297253,-0.230760,0.684328,-0.078085,0.129743,39.352764,-23.111465,-4.189882,0.398649,1.930038,-0.169511,0.000000,0.000000,0.000000,0.000000,0.000000,0.000000
11852784.000000,-2.325825,-1.662707,1.196245,-1.431637,1.720738,1.237561,-0.575278,0.320394,0.007785,0.765257,-0.296931,-0.233132,0.682787,-0.082568,0.228925,39.475750,-23.234451,-4.066896,0.405057,1.968490,-0.155778,0.000000,0.000000,0.000000,0.000000,0.000000,0.000000
11852785.000000,-2.325510,-1.662702,1.197020,-1.431933,1.720502,1.238248,-0.575352,0.316417,0.008669,0.764608,-0.293573,-0.230569,0.684105,-0.078677,0.351911,39.499554,-23.504227,-3.920107,0.393156,1.995040,-0.208878,0.000000,0.000000,0.000000,0.000000,0.000000,0.000000
11852786.000000,-2.325194,-1.662701,1.197802,-1.432231,1.720265,1.238937,-0.575442,0.315040,0.005587,0.764044,-0.298711,-0.229537,0.685931,-0.080843,0.427289,39.547161,-23.750198,-3.797121,0.405057,2.027084,-0.130143,0.000000,0.000000,0.000000,0.000000,0.000000,0.000000
11852787.000000,-2.324883,-1.662703,1.198555,-1.432533,1.720034,1.239634,-0.575512,0.313222,0.002652,0.758734,-0.298246,-0.233915,0.688567,-0.075659,0.526471,39.622540,-23.801773,-3.670168,0.422452,1.923629,-0.229020,0.000000,0.000000,0.000000,0.000000,0.000000,0.000000
11852788.000000,-2.324568,-1.662717,1.199314,-1.432833,1.719796,1.240334,-0.575595,0.312662,-0.002818,0.754844,-0.297308,-0.234577,0.688085,-0.077109,0.574079,39.840740,-23.774002,-3.570986,0.500272,1.871444,-0.188737,0.000000,0.000000,0.000000,0.000000,0.000000,0.000000
11852789.000000,-2.324252,-1.662720,1.200061,-1.433127,1.719561,1.241014,-0.575677,0.313253,-0.002697,0.750533,-0.294574,-0.238607,0.684675,-0.078890,0.601850,39.892315,-23.726395,-3.570986,0.542386,1.981307,-0.142960,0.000000,0.000000,0.000000,0.000000,0.000000,0.000000
11852790.000000,-2.323943,-1.662726,1.200817,-1.433430,1.719333,1.241693,-0.575749,0.312258,-0.002620,0.750675,-0.294502,-0.232024,0.679790,-0.075124,0.673261,39.939922,-23.678787,-3.475771,0.494779,2.085677,-0.215287,0.000000,0.000000,0.000000,0.000000,0.000000,0.000000
11852791.000000,-2.323638,-1.662735,1.201573,-1.433720,1.719101,1.242393,-0.575838,0.310723,-0.003848,0.748403,-0.293006,-0.225907,0.688412,-0.077703,0.796247,40.039104,-23.528030,-3.598757,0.500272,2.001449,-0.149369,0.000000,0.000000,0.000000,0.000000,0.000000,0.000000
11852792.000000,-2.323339,-1.662743,1.202310,-1.434016,1.718871,1.243095,-0.575912,0.305200,-0.004629,0.748093,-0.291805,-0.227599,0.696185,-0.075809,0.970807,40.134319,-23.286026,-3.598757,0.500272,1.871444,-0.182328,0.000000,0.000000,0.000000,0.000000,0.000000,0.000000
11852793.000000,-2.323031,-1.662747,1.203074,-1.434315,1.718656,1.243803,-0.575988,0.302167,-0.004169,0.749744,-0.292199,-0.220810,0.705266,-0.075079,1.069990,40.185894,-23.309830,-3.523378,0.452665,1.819259,-0.196061,0.000000,0.000000,0.000000,0.000000,0.000000,0.000000
11852794.000000,-2.322723,-1.662748,1.203813,-1.434609,1.718438,1.244502,-0.576068,0.305541,-0.002131,0.747714,-0.291559,-0.221322,0.696842,-0.076309,1.093793,40.162090,-23.135269,-3.499574,0.428861,1.858627,-0.169511,0.000000,0.000000,0.000000,0.000000,0.000000,0.000000
11852795.000000,-2.322420,-1.662757,1.204558,-1.434905,1.718212,1.245208,-0.576143,0.304027,-0.004135,0.742812,-0.293351,-0.218575,0.704142,-0.076618,1.216779,40.281109,-22.940872,-3.400392,0.440763,1.812850,-0.155778,0.000000,0.000000,0.000000,0.000000,0.000000,0.000000
11852796.000000,-2.322112,-1.662752,1.205307,-1.435200,1.717987,1.245919,-0.576217,0.301910,-0.001035,0.736413,-0.291112,-0.216849,0.700219,-0.076603,1.169172,40.209698,-22.770279,-3.301210,0.476469,1.721298,-0.142960,0.000000,0.000000,0.000000,0.000000,0.000000,0.000000
11852797.000000,-2.321808,-1.662749,1.206054,-1.435495,1.717770,1.246624,-0.576284,0.303758,0.001112,0.739098,-0.292675,-0.215410,0.702245,-0.075555,1.169172,40.134319,-22.770279,-3.202028,0.494779,1.670028,-0.188737,0.000000,0.000000,0.000000,0.000000,0.000000,0.000000
11852798.000000,-2.321499,-1.662736,1.206806,-1.435782,1.717557,1.247326,-0.576362,0.304657,0.005318,0.739201,-0.291091,-0.211528,0.700551,-0.076794,1.145368,39.939922,-22.770279,-3.178224,0.452665,1.682845,-0.155778,0.000000,0.000000,0.000000,0.000000,0.000000,0.000000
11852799.000000,-2.321194,-1.662733,1.207546,-1.436060,1.717333,1.248034,-0.576430,0.304867,0.004681,0.749659,-0.287747,-0.217650,0.697264,-0.074644,1.121564,39.892315,-22.571915,-3.154421,0.512174,1.676437,-0.202470,0.000000,0.000000,0.000000,0.000000,0.000000,0.000000
11852800.000000,-2.320888,-1.662717,1.208291,-1.436354,1.717121,1.248721,-0.576507,0.302459,0.007777,0.750294,-0.286599,-0.215352,0.700349,-0.071665,1.069990,39.693951,-22.623489,-3.079042,0.535978,1.727706,-0.163102,0.000000,0.000000,0.000000,0.000000,0.000000,0.000000
11852801.000000,-2.320577,-1.662710,1.209044,-1.436641,1.716905,1.249417,-0.576576,0.304335,0.007424,0.746037,-0.284902,-0.217244,0.697822,-0.065766,0.970807,39.598736,-22.671097,-3.027467,0.524076,1.800033,-0.215287,0.000000,0.000000,0.000000,0.000000,0.000000,0.000000
11852802.000000,-2.320269,-1.662697,1.209787,-1.436920,1.716691,1.250118,-0.576650,0.309205,0.008949,0.745902,-0.283382,-0.212801,0.698750,-0.069818,0.847822,39.428143,-22.718704,-3.003664,0.506681,1.800033,-0.175919,0.000000,0.000000,0.000000,0.000000,0.000000,0.000000
11852803.000000,-2.319964,-1.662687,1.210534,-1.437210,1.716483,1.250810,-0.576719,0.306114,0.009407,0.748094,-0.285160,-0.211147,0.696979,-0.070429,0.871625,39.281353,-22.742508,-2.956056,0.494779,1.767074,-0.196061,0.000000,0.000000,0.000000,0.000000,0.000000,0.000000
11852804.000000,-2.319654,-1.662676,1.211291,-1.437492,1.716276,1.251515,-0.576791,0.305887,0.009803,0.750866,-0.288485,-0.205265,0.692380,-0.071670,0.824018,39.130596,-22.917068,-2.904482,0.494779,1.735030,-0.196061,0.000000,0.000000,0.000000,0.000000,0.000000,0.000000
11852805.000000,-2.319346,-1.662666,1.212029,-1.437770,1.716073,1.252201,-0.576864,0.305793,0.009323,0.748363,-0.288978,-0.205665,0.693343,-0.074132,0.772443,39.011578,-23.040054,-2.880678,0.488370,1.754256,-0.155778,0.000000,0.000000,0.000000,0.000000,0.000000,0.000000
11852806.000000,-2.319044,-1.662655,1.212778,-1.438059,1.715871,1.252895,-0.576931,0.303205,0.009652,0.743524,-0.287138,-0.207513,0.688355,-0.072626,0.796247,38.864788,-23.111465,-2.805300,0.434354,1.800033,-0.196061,0.000000,0.000000,0.000000,0.000000,0.000000,0.000000
11852807.000000,-2.318745,-1.662645,1.213507,-1.438330,1.715654,1.253582,-0.577004,0.300778,0.008757,0.738632,-0.279294,-0.208989,0.690456,-0.069144,0.748639,38.765606,-23.063858,-2.880678,0.470060,1.884261,-0.175919,0.000000,0.000000,0.000000,0.000000,0.000000,0.000000
11852808.000000,-2.318448,-1.662636,1.214246,-1.438601,1.715447,1.254261,-0.577079,0.300005,0.011852,0.734876,-0.274024,-0.201916,0.686391,-0.076302,0.796247,38.642620,-22.988480,-2.928285,0.428861,1.942855,-0.149369,0.000000,0.000000,0.000000,0.000000,0.000000,0.000000
11852809.000000,-2.318144,-1.662630,1.214993,-1.438875,1.715239,1.254963,-0.577144,0.299482,0.009278,0.736660,-0.269948,-0.203148,0.692560,-0.069064,0.847822,38.595013,-22.988480,-3.003664,0.428861,1.890670,-0.208878,0.000000,0.000000,0.000000,0.000000,0.000000,0.000000
11852810.000000,-2.317845,-1.662617,1.215719,-1.439141,1.715033,1.255647,-0.577215,0.298120,0.009816,0.734682,-0.264904,-0.206514,0.686816,-0.071537,0.796247,38.448223,-22.841690,-3.027467,0.422452,1.838485,-0.188737,0.000000,0.000000,0.000000,0.000000,0.000000,0.000000
11852811.000000,-2.317551,-1.662607,1.216455,-1.439415,1.714827,1.256339,-0.577285,0.296724,0.009012,0.726351,-0.266034,-0.204127,0.689230,-0.067464,0.871625,38.349041,-22.718704,-2.956056,0.470060,1.825668,-0.196061,0.000000,0.000000,0.000000,0.000000,0.000000,0.000000
11852812.000000,-2.317252,-1.662598,1.217180,-1.439681,1.714619,1.257034,-0.577354,0.301867,0.010290,0.742415,-0.266233,-0.206541,0.687318,-0.064851,0.772443,38.301434,-22.595718,-2.928285,0.512174,1.806442,-0.196061,0.000000,0.000000,0.000000,0.000000,0.000000,0.000000
11852813.000000,-2.316961,-1.662589,1.217920,-1.439947,1.714414,1.257724,-0.577420,0.302103,0.008404,0.738246,-0.266153,-0.205930,0.688815,-0.062377,0.824018,38.249859,-22.548111,-2.904482,0.500272,1.786300,-0.208878,0.000000,0.000000,0.000000,0.000000,0.000000,0.000000
11852814.000000,-2.316664,-1.662582,1.218656,-1.440210,1.714211,1.258427,-0.577494,0.301460,0.008382,0.737985,-0.265579,-0.200256,0.694203,-0.063058,0.847822,38.277630,-22.472733,-2.904482,0.476469,1.670028,-0.149369,0.000000,0.000000,0.000000,0.000000,0.000000,0.000000
11852815.000000,-2.316379,-1.662571,1.219389,-1.440471,1.714019,1.259127,-0.577556,0.295585,0.009214,0.737464,-0.264025,-0.203212,0.698799,-0.059575,0.970807,38.277630,-22.500504,-2.956056,0.410551,1.578475,-0.196061,0.000000,0.000000,0.000000,0.000000,0.000000,0.000000
11852816.000000,-2.316079,-1.662566,1.220134,-1.440732,1.713820,1.259819,-0.577622,0.291987,0.008246,0.737526,-0.263088,-0.198261,0.700819,-0.063350,0.947004,38.349041,-22.623489,-2.979860,0.393156,1.624252,-0.202470,0.000000,0.000000,0.000000,0.000000,0.000000,0.000000
11852817.000000,-2.315792,-1.662560,1.220866,-1.440988,1.713627,1.260508,-0.577694,0.291022,0.005658,0.736656,-0.260242,-0.195575,0.691875,-0.067643,0.970807,38.372845,-22.671097,-2.979860,0.381254,1.708480,-0.182328,0.000000,0.000000,0.000000,0.000000,0.000000,0.000000
11852818.000000,-2.315505,-1.662560,1.221606,-1.441247,1.713424,1.261198,-0.577763,0.289505,0.004702,0.737073,-0.259260,-0.200745,0.692627,-0.068559,1.022382,38.495831,-22.770279,-3.055238,0.440763,1.735030,-0.208878,0.000000,0.000000,0.000000,0.000000,0.000000,0.000000
11852819.000000,-2.315209,-1.662554,1.222351,-1.441508,1.713220,1.261884,-0.577837,0.287881,0.006311,0.736346,-0.260545,-0.199010,0.689486,-0.067109,0.970807,38.519634,-22.893265,-3.055238,0.482877,1.812850,-0.163102,0.000000,0.000000,0.000000,0.000000,0.000000,0.000000
11852820.000000,-2.314913,-1.662556,1.223082,-1.441756,1.713017,1.262589,-0.577905,0.294119,0.005142,0.734332,-0.256294,-0.195978,0.690905,-0.067933,0.994611,38.642620,-23.040054,-3.154421,0.506681,1.838485,-0.182328,0.000000,0.000000,0.000000,0.000000,0.000000,0.000000
11852821.000000,-2.314620,-1.662556,1.223819,-1.442016,1.712824,1.263283,-0.577974,0.292563,0.005083,0.733651,-0.257495,-0.193514,0.690898,-0.069811,0.994611,38.741802,-23.111465,-3.178224,0.512174,1.800033,-0.182328,0.000000,0.000000,0.000000,0.000000,0.000000,0.000000
11852822.000000,-2.314323,-1.662558,1.224561,-1.442277,1.712629,1.263992,-0.578045,0.293727,0.004007,0.733204,-0.255610,-0.190639,0.692669,-0.066782,0.923200,38.888592,-23.163040,-3.202028,0.512174,1.773483,-0.175919,0.000000,0.000000,0.000000,0.000000,0.000000,0.000000
11852823.000000,-2.314033,-1.662565,1.225285,-1.442527,1.712437,1.264683,-0.578111,0.294368,-0.000394,0.733867,-0.250398,-0.191142,0.694074,-0.063392,0.847822,39.059185,-23.111465,-3.249635,0.535978,1.786300,-0.196061,0.000000,0.000000,0.000000,0.000000,0.000000,0.000000
11852824.000000,-2.313746,-1.662566,1.226021,-1.442776,1.712255,1.265381,-0.578183,0.292020,-0.001239,0.733383,-0.249046,-0.187411,0.689720,-0.067753,0.871625,39.130596,-23.087662,-3.325014,0.458158,1.832076,-0.155778,0.000000,0.000000,0.000000,0.000000,0.000000,0.000000
11852825.000000,-2.313460,-1.662570,1.226749,-1.443021,1.712066,1.266085,-0.578249,0.291684,-0.002625,0.730748,-0.247095,-0.186217,0.694026,-0.063716,0.871625,39.229778,-23.135269,-3.448000,0.405057,1.838485,-0.196061,0.000000,0.000000,0.000000,0.000000,0.000000,0.000000
11852826.000000,-2.313172,-1.662578,1.227480,-1.443269,1.711875,1.266782,-0.578322,0.286813,-0.003680,0.728351,-0.246781,-0.186211,0.693489,-0.068454,0.923200,39.328960,-23.040054,-3.523378,0.386747,1.760665,-0.149369,0.000000,0.000000,0.000000,0.000000,0.000000,0.000000
11852827.000000,-2.312876,-1.662580,1.228211,-1.443507,1.711688,1.267488,-0.578383,0.285718,-0.008374,0.723194,-0.245074,-0.187294,0.694745,-0.067719,0.871625,39.328960,-22.940872,-3.670168,0.405057,1.702071,-0.208878,0.000000,0.000000,0.000000,0.000000,0.000000,0.000000
11852828.000000,-2.312587,-1.662579,1.228932,-1.443742,1.711504,1.268169,-0.578454,0.285669,-0.005324,0.722607,-0.241348,-0.195121,0.690856,-0.070949,0.796247,39.305157,-22.817886,-3.797121,0.410551,1.695663,-0.175919,0.000000,0.000000,0.000000,0.000000,0.000000,0.000000
11852829.000000,-2.312303,-1.662583,1.229668,-1.443977,1.711325,1.268858,-0.578518,0.282801,-0.004887,0.719294,-0.235674,-0.193409,0.694906,-0.066320,0.796247,39.352764,-22.794083,-3.892336,0.405057,1.741439,-0.202470,0.000000,0.000000,0.000000,0.000000,0.000000,0.000000
11852830.000000,-2.312016,-1.662587,1.230382,-1.444203,1.711144,1.269561,-0.578585,0.291000,-0.004539,0.731855,-0.232288,-0.187265,0.697380,-0.063765,0.724836,39.400372,-22.571915,-3.967714,0.405057,1.689254,-0.208878,0.000000,0.000000,0.000000,0.000000,0.000000,0.000000
11852831.000000,-2.311728,-1.662589,1.231115,-1.444432,1.710963,1.270258,-0.578652,0.288853,-0.003802,0.727148,-0.228490,-0.187337,0.703044,-0.066704,0.724836,39.428143,-22.500504,-4.090700,0.398649,1.624252,-0.208878,0.000000,0.000000,0.000000,0.000000,0.000000,0.000000
11852832.000000,-2.311431,-1.662587,1.231847,-1.444659,1.710778,1.270951,-0.578718,0.288135,-0.001979,0.726602,-0.226349,-0.186003,0.704304,-0.063947,0.625654,39.400372,-22.448929,-4.189882,0.362943,1.624252,-0.215287,0.000000,0.000000,0.000000,0.000000,0.000000,0.000000
11852833.000000,-2.311139,-1.662582,1.232575,-1.444881,1.710597,1.271632,-0.578787,0.288616,0.000837,0.729476,-0.225686,-0.189302,0.697573,-0.069167,0.474897,39.305157,-22.500504,-4.241457,0.332731,1.662704,-0.175919,0.000000,0.000000,0.000000,0.000000,0.000000,0.000000
11852834.000000,-2.310843,-1.662584,1.233296,-1.445106,1.710412,1.272325,-0.578850,0.286467,-0.000052,0.726088,-0.224660,-0.186234,0.691296,-0.069767,0.328107,39.328960,-22.377518,-4.289064,0.381254,1.708480,-0.202470,0.000000,0.000000,0.000000,0.000000,0.000000,0.000000
11852835.000000,-2.310548,-1.662585,1.234030,-1.445325,1.710227,1.273018,-0.578922,0.287548,-0.000074,0.724292,-0.224590,-0.187862,0.686290,-0.072976,0.153547,39.328960,-22.353714,-4.412050,0.416959,1.735030,-0.155778,0.000000,0.000000,0.000000,0.000000,0.000000,0.000000
11852836.000000,-2.310252,-1.662581,1.234762,-1.445548,1.710053,1.273709,-0.578989,0.291123,0.001034,0.726962,-0.221631,-0.182648,0.685411,-0.073471,-0.017047,39.281353,-22.524307,-4.439821,0.398649,1.714889,-0.155778,0.000000,0.000000,0.000000,0.000000,0.000000,0.000000
11852837.000000,-2.309955,-1.662574,1.235501,-1.445767,1.709885,1.274412,-0.579053,0.292332,0.002430,0.725294,-0.218313,-0.181095,0.689774,-0.068007,-0.144000,39.205975,-22.623489,-4.511232,0.320829,1.630660,-0.182328,0.000000,0.000000,0.000000,0.000000,0.000000,0.000000
11852838.000000,-2.309659,-1.662574,1.236234,-1.445980,1.709704,1.275111,-0.579121,0.294629,0.002160,0.727804,-0.217803,-0.186099,0.692063,-0.074275,-0.314593,39.182171,-22.817886,-4.634218,0.297025,1.611434,-0.175919,0.000000,0.000000,0.000000,0.000000,0.000000,0.000000
11852839.000000,-2.309357,-1.662574,1.236969,-1.446196,1.709523,1.275794,-0.579183,0.297221,0.000871,0.726546,-0.214555,-0.182931,0.692852,-0.074201,-0.512957,39.205975,-22.893265,-4.733400,0.315336,1.670028,-0.188737,0.000000,0.000000,0.000000,0.000000,0.000000,0.000000
11852840.000000,-2.309062,-1.662575,1.237711,-1.446405,1.709342,1.276470,-0.579251,0.298807,0.000571,0.723655,-0.216265,-0.179210,0.682946,-0.074964,-0.612139,39.205975,-23.016251,-4.884157,0.308927,1.825668,-0.175919,0.000000,0.000000,0.000000,0.000000,0.000000,0.000000
11852841.000000,-2.308763,-1.662573,1.238439,-1.446616,1.709168,1.277142,-0.579308,0.298243,0.001487,0.727145,-0.217083,-0.181308,0.677785,-0.069319,-0.862078,39.158367,-23.111465,-4.983339,0.297025,1.949264,-0.202470,0.000000,0.000000,0.000000,0.000000,0.000000,0.000000
11852842.000000,-2.308472,-1.662573,1.239179,-1.446826,1.708996,1.277833,-0.579379,0.292516,0.000986,0.728197,-0.215546,-0.177369,0.676717,-0.072684,-0.909686,39.158367,-23.210648,-5.153932,0.285123,1.897079,-0.149369,0.000000,0.000000,0.000000,0.000000,0.000000,0.000000
11852843.000000,-2.308179,-1.662576,1.239902,-1.447030,1.708821,1.278536,-0.579435,0.292866,-0.000460,0.731847,-0.212303,-0.176243,0.678620,-0.066357,-0.985064,39.205975,-23.234451,-5.304689,0.303434,1.735030,-0.208878,0.000000,0.000000,0.000000,0.000000,0.000000,0.000000
11852844.000000,-2.307876,-1.662573,1.240634,-1.447242,1.708656,1.279212,-0.579503,0.296914,0.000804,0.728955,-0.212842,-0.173159,0.679825,-0.065669,-1.207232,39.158367,-23.258255,-5.328493,0.267728,1.708480,-0.163102,0.000000,0.000000,0.000000,0.000000,0.000000,0.000000
11852845.000000,-2.307578,-1.662574,1.241365,-1.447452,1.708480,1.279889,-0.579568,0.294972,-0.000023,0.729121,-0.214120,-0.166584,0.674906,-0.063988,-1.354022,39.182171,-23.258255,-5.304689,0.243009,1.800033,-0.142960,0.000000,0.000000,0.000000,0.000000,0.000000,0.000000
11852847.000000,-2.306987,-1.662581,1.242805,-1.447862,1.708122,1.281227,-0.579683,0.296174,-0.001962,0.718844,-0.209652,-0.168142,0.674371,-0.058396,-1.651568,39.281353,-22.964676,-5.352296,0.279630,1.916305,-0.196061,0.000000,0.000000,0.000000,0.000000,0.000000,0.000000
11852848.000000,-2.306702,-1.662583,1.243518,-1.448057,1.707948,1.281917,-0.579742,0.298225,-0.001865,0.730260,-0.205339,-0.167889,0.682292,-0.057372,-1.651568,39.305157,-22.817886,-5.451478,0.273221,1.884261,-0.215287,0.000000,0.000000,0.000000,0.000000,0.000000,0.000000
11852849.000000,-2.306414,-1.662585,1.244263,-1.448254,1.707785,1.282603,-0.579808,0.295369,-0.001244,0.732287,-0.202434,-0.165781,0.686303,-0.059785,-1.651568,39.305157,-23.016251,-5.550661,0.207303,1.806442,-0.149369,0.000000,0.000000,0.000000,0.000000,0.000000,0.000000
11852850.000000,-2.306128,-1.662584,1.244993,-1.448459,1.707616,1.283293,-0.579858,0.291513,-0.002732,0.730267,-0.202414,-0.162141,0.690166,-0.056021,-1.580157,39.253582,-22.988480,-5.550661,0.213712,1.760665,-0.221696,0.000000,0.000000,0.000000,0.000000,0.000000,0.000000
11852851.000000,-2.305843,-1.662601,1.245716,-1.448667,1.707447,1.283966,-0.579923,0.288935,-0.007277,0.728490,-0.205782,-0.162316,0.684339,-0.059633,-1.627764,39.475750,-23.016251,-5.399904,0.285123,1.786300,-0.130143,0.000000,0.000000,0.000000,0.000000,0.000000,0.000000
11852852.000000,-2.305556,-1.662608,1.246450,-1.448868,1.707271,1.284647,-0.579978,0.286717,-0.010523,0.730402,-0.200833,-0.164663,0.684404,-0.061716,-1.679339,39.574932,-23.135269,-5.399904,0.315336,1.884261,-0.175919,0.000000,0.000000,0.000000,0.000000,0.000000,0.000000
11852853.000000,-2.305273,-1.662617,1.247194,-1.449068,1.707103,1.285325,-0.580034,0.285634,-0.009652,0.731424,-0.207055,-0.167945,0.679039,-0.059700,-1.603961,39.670147,-23.333633,-5.352296,0.249418,1.974899,-0.196061,0.000000,0.000000,0.000000,0.000000,0.000000,0.000000
11852854.000000,-2.304993,-1.662625,1.247933,-1.449268,1.706932,1.286012,-0.580097,0.285561,-0.008504,0.731599,-0.204217,-0.168583,0.686651,-0.059973,-1.552386,39.745525,-23.651016,-5.399904,0.255826,1.909896,-0.169511,0.000000,0.000000,0.000000,0.000000,0.000000,0.000000
11852855.000000,-2.304715,-1.662640,1.248674,-1.449464,1.706766,1.286709,-0.580153,0.280668,-0.013072,0.730513,-0.197955,-0.167543,0.692156,-0.058013,-1.453204,39.916119,-23.825577,-5.499086,0.225614,1.786300,-0.196061,0.000000,0.000000,0.000000,0.000000,0.000000,0.000000
11852856.000000,-2.304431,-1.662651,1.249404,-1.449661,1.706596,1.287395,-0.580214,0.283343,-0.011472,0.727130,-0.199055,-0.168631,0.688351,-0.058413,-1.480975,40.015301,-23.996170,-5.499086,0.249418,1.806442,-0.169511,0.000000,0.000000,0.000000,0.000000,0.000000,0.000000
11852857.000000,-2.304158,-1.662666,1.250151,-1.449865,1.706428,1.288049,-0.580270,0.281080,-0.014445,0.728687,-0.199901,-0.164819,0.679349,-0.060860,-1.453204,40.162090,-24.218338,-5.475282,0.279630,1.981307,-0.215287,0.000000,0.000000,0.000000,0.000000,0.000000,0.000000
11852858.000000,-2.303885,-1.662685,1.250883,-1.450076,1.706261,1.288714,-0.580333,0.277822,-0.015233,0.721809,-0.204423,-0.164670,0.669362,-0.061526,-1.480975,40.380291,-24.218338,-5.427675,0.279630,2.104903,-0.169511,0.000000,0.000000,0.000000,0.000000,0.000000,0.000000
11852859.000000,-2.303614,-1.662705,1.251608,-1.450278,1.706088,1.289388,-0.580390,0.277006,-0.017682,0.726946,-0.203586,-0.167816,0.662557,-0.059763,-1.453204,40.550884,-24.242142,-5.427675,0.332731,2.066451,-0.182328,0.000000,0.000000,0.000000,0.000000,0.000000,0.000000
11852860.000000,-2.303341,-1.662714,1.252341,-1.450481,1.705917,1.290071,-0.580446,0.275305,-0.016027,0.725676,-0.202627,-0.167097,0.666330,-0.057388,-1.405596,40.578655,-24.242142,-5.427675,0.303434,1.962081,-0.221696,0.000000,0.000000,0.000000,0.000000,0.000000,0.000000
11852861.000000,-2.303077,-1.662728,1.253074,-1.450679,1.705743,1.290754,-0.580512,0.271271,-0.015749,0.729795,-0.201620,-0.166088,0.672774,-0.055254,-1.330218,40.626263,-24.412735,-5.451478,0.255826,1.909896,-0.155778,0.000000,0.000000,0.000000,0.000000,0.000000,0.000000
11852862.000000,-2.302814,-1.662740,1.253794,-1.450887,1.705573,1.291423,-0.580569,0.266648,-0.011827,0.724318,-0.204577,-0.167448,0.671578,-0.055248,-1.183428,40.650066,-24.190567,-5.451478,0.267728,1.890670,-0.163102,0.000000,0.000000,0.000000,0.000000,0.000000,0.000000
11852863.000000,-2.302550,-1.662756,1.254525,-1.451096,1.705396,1.292102,-0.580626,0.264612,-0.013955,0.721956,-0.207415,-0.169769,0.675194,-0.054965,-1.108050,40.749249,-24.142960,-5.427675,0.320829,1.890670,-0.175919,0.000000,0.000000,0.000000,0.000000,0.000000,0.000000
11852864.000000,-2.302296,-1.662768,1.255246,-1.451303,1.705224,1.292763,-0.580677,0.262438,-0.013168,0.721117,-0.207106,-0.168691,0.670445,-0.053378,-0.985064,40.749249,-23.996170,-5.376100,0.344633,1.923629,-0.229020,0.000000,0.000000,0.000000,0.000000,0.000000,0.000000
11852865.000000,-2.302029,-1.662779,1.255982,-1.451505,1.705060,1.293438,-0.580745,0.262260,-0.012187,0.721678,-0.205090,-0.168242,0.675242,-0.057727,-0.961260,40.725445,-23.972366,-5.376100,0.339139,1.955673,-0.136552,0.000000,0.000000,0.000000,0.000000,0.000000,0.000000
11852866.000000,-2.301775,-1.662788,1.256697,-1.451714,1.704900,1.294130,-0.580795,0.264520,-0.010824,0.734143,-0.205143,-0.170695,0.678648,-0.054677,-0.810504,40.673870,-23.801773,-5.328493,0.279630,1.877853,-0.208878,0.000000,0.000000,0.000000,0.000000,0.000000,0.000000
11852867.000000,-2.301512,-1.662795,1.257426,-1.451921,1.704733,1.294818,-0.580860,0.263548,-0.010127,0.728954,-0.204523,-0.175340,0.685115,-0.057967,-0.762896,40.626263,-23.750198,-5.304689,0.273221,1.754256,-0.136552,0.000000,0.000000,0.000000,0.000000,0.000000,0.000000
11852868.000000,-2.301249,-1.662803,1.258157,-1.452136,1.704560,1.295503,-0.580912,0.262864,-0.010106,0.728893,-0.207843,-0.174344,0.688025,-0.056280,-0.711321,40.602459,-23.726395,-5.130128,0.291532,1.727706,-0.163102,0.000000,0.000000,0.000000,0.000000,0.000000,0.000000
11852869.000000,-2.300988,-1.662808,1.258871,-1.452347,1.704399,1.296174,-0.580962,0.264973,-0.008972,0.727464,-0.209943,-0.167902,0.680558,-0.058633,-0.735125,40.527081,-23.627213,-4.955568,0.273221,1.793624,-0.215287,0.000000,0.000000,0.000000,0.000000,0.000000,0.000000
11852870.000000,-2.300726,-1.662810,1.259593,-1.452566,1.704229,1.296866,-0.581024,0.259327,-0.007788,0.727514,-0.211233,-0.165612,0.679171,-0.060714,-0.786700,40.427898,-23.603409,-4.757204,0.339139,1.832076,-0.149369,0.000000,0.000000,0.000000,0.000000,0.000000,0.000000
11852871.000000,-2.300463,-1.662820,1.260321,-1.452778,1.704060,1.297560,-0.581075,0.257809,-0.009236,0.721315,-0.215850,-0.169242,0.677187,-0.057893,-0.810504,40.427898,-23.555801,-4.634218,0.422452,1.779891,-0.196061,0.000000,0.000000,0.000000,0.000000,0.000000,0.000000
11852872.000000,-2.300208,-1.662825,1.261045,-1.452986,1.703907,1.298247,-0.581130,0.258290,-0.008515,0.723483,-0.212996,-0.167111,0.679262,-0.058113,-0.786700,40.356487,-23.678787,-4.562807,0.374845,1.747848,-0.182328,0.000000,0.000000,0.000000,0.000000,0.000000,0.000000
11852873.000000,-2.299942,-1.662827,1.261776,-1.453205,1.703751,1.298935,-0.581184,0.255124,-0.007406,0.722111,-0.213271,-0.166730,0.685782,-0.056846,-0.862078,40.257305,-23.750198,-4.388246,0.351041,1.754256,-0.202470,0.000000,0.000000,0.000000,0.000000,0.000000,0.000000
11852874.000000,-2.299690,-1.662833,1.262498,-1.453422,1.703589,1.299634,-0.581245,0.255982,-0.007993,0.722980,-0.215019,-0.166301,0.684323,-0.058117,-0.810504,40.209698,-23.849380,-4.289064,0.327238,1.747848,-0.169511,0.000000,0.000000,0.000000,0.000000,0.000000,0.000000
11852875.000000,-2.299440,-1.662838,1.263229,-1.453643,1.703424,1.300310,-0.581300,0.248348,-0.008370,0.723077,-0.212833,-0.167692,0.688443,-0.061745,-0.711321,40.162090,-23.920792,-4.189882,0.344633,1.767074,-0.188737,0.000000,0.000000,0.000000,0.000000,0.000000,0.000000
11852876.000000,-2.299176,-1.662841,1.263959,-1.453864,1.703255,1.300984,-0.581356,0.252111,-0.008013,0.721770,-0.215442,-0.163981,0.679199,-0.059656,-0.810504,40.086712,-24.071548,-4.066896,0.369352,1.930038,-0.208878,0.000000,0.000000,0.000000,0.000000,0.000000,0.000000
11852877.000000,-2.298929,-1.662840,1.264677,-1.454080,1.703094,1.301655,-0.581415,0.251460,-0.002941,0.725362,-0.217214,-0.160409,0.669765,-0.060636,-0.786700,39.939922,-24.142960,-3.943910,0.362943,2.020675,-0.163102,0.000000,0.000000,0.000000,0.000000,0.000000,0.000000
11852878.000000,-2.298676,-1.662841,1.265409,-1.454298,1.702930,1.302346,-0.581469,0.249992,-0.003584,0.727297,-0.218326,-0.158337,0.671774,-0.058735,-0.735125,39.840740,-24.265945,-3.943910,0.381254,1.930038,-0.182328,0.000000,0.000000,0.000000,0.000000,0.000000,0.000000
11852879.000000,-2.298421,-1.662841,1.266118,-1.454515,1.702767,1.303048,-0.581528,0.251450,-0.001007,0.720007,-0.217830,-0.157941,0.682693,-0.054045,-0.762896,39.745525,-24.265945,-3.892336,0.416959,1.825668,-0.169511,0.000000,0.000000,0.000000,0.000000,0.000000,0.000000
11852880.000000,-2.298172,-1.662842,1.266835,-1.454734,1.702612,1.303724,-0.581576,0.250572,-0.002674,0.714796,-0.218019,-0.154561,0.679869,-0.052666,-0.711321,39.670147,-24.190567,-3.820925,0.381254,1.871444,-0.221696,0.000000,0.000000,0.000000,0.000000,0.000000,0.000000
11852881.000000,-2.297913,-1.662841,1.267558,-1.454958,1.702452,1.304407,-0.581640,0.251513,-0.004022,0.712504,-0.219449,-0.153820,0.681006,-0.060826,-0.735125,39.598736,-24.190567,-3.697939,0.393156,1.995040,-0.155778,0.000000,0.000000,0.000000,0.000000,0.000000,0.000000
11852882.000000,-2.297662,-1.662837,1.268262,-1.455181,1.702295,1.305078,-0.581687,0.252673,-0.002292,0.708927,-0.218760,-0.157701,0.699388,-0.057228,-0.786700,39.547161,-23.996170,-3.646364,0.386747,2.039901,-0.221696,0.000000,0.000000,0.000000,0.000000,0.000000,0.000000
11852883.000000,-2.297420,-1.662835,1.268969,-1.455404,1.702131,1.305767,-0.581745,0.249759,-0.001584,0.702357,-0.217647,-0.154883,0.698817,-0.055395,-0.687518,39.523357,-23.801773,-3.598757,0.374845,2.007858,-0.142960,0.000000,0.000000,0.000000,0.000000,0.000000,0.000000
11852884.000000,-2.297172,-1.662823,1.269681,-1.455625,1.701971,1.306456,-0.581797,0.251004,0.001919,0.717297,-0.215384,-0.152713,0.701444,-0.054300,-0.711321,39.376568,-23.750198,-3.499574,0.351041,1.949264,-0.175919,0.000000,0.000000,0.000000,0.000000,0.000000,0.000000
11852885.000000,-2.296924,-1.662811,1.270398,-1.455847,1.701820,1.307136,-0.581845,0.250150,0.004368,0.716785,-0.218913,-0.151339,0.696933,-0.048483,-0.663714,39.229778,-23.702591,-3.448000,0.320829,1.844894,-0.221696,0.000000,0.000000,0.000000,0.000000,0.000000,0.000000
11852886.000000,-2.296677,-1.662802,1.271118,-1.456069,1.701662,1.307823,-0.581905,0.246043,0.004974,0.716179,-0.217202,-0.152916,0.693595,-0.052943,-0.635943,39.130596,-23.678787,-3.448000,0.369352,1.786300,-0.155778,0.000000,0.000000,0.000000,0.000000,0.000000,0.000000
11852887.000000,-2.296433,-1.662800,1.271820,-1.456298,1.701510,1.308493,-0.581953,0.246495,0.003679,0.714382,-0.222643,-0.149203,0.692332,-0.047254,-0.588336,39.106792,-23.579605,-3.301210,0.410551,1.786300,-0.202470,0.000000,0.000000,0.000000,0.000000,0.000000,0.000000
11852888.000000,-2.296189,-1.662796,1.272543,-1.456516,1.701355,1.309167,-0.582008,0.246856,0.003421,0.716008,-0.216900,-0.145563,0.684149,-0.045683,-0.540728,39.059185,-23.750198,-3.277406,0.446256,1.909896,-0.182328,0.000000,0.000000,0.000000,0.000000,0.000000,0.000000
11852889.000000,-2.295952,-1.662793,1.273271,-1.456738,1.701209,1.309838,-0.582058,0.242595,0.003285,0.716476,-0.225497,-0.145338,0.675213,-0.047330,-0.441546,39.011578,-23.873184,-3.202028,0.410551,1.988631,-0.208878,0.000000,0.000000,0.000000,0.000000,0.000000,0.000000
11852890.000000,-2.295724,-1.662792,1.273986,-1.456952,1.701064,1.310512,-0.582113,0.239106,0.001552,0.717164,-0.220981,-0.147264,0.677149,-0.045998,-0.314593,39.035381,-24.043777,-3.249635,0.351041,1.981307,-0.182328,0.000000,0.000000,0.000000,0.000000,0.000000,0.000000
11852891.000000,-2.295488,-1.662793,1.274705,-1.457165,1.700905,1.311201,-0.582166,0.239758,0.000416,0.711187,-0.218258,-0.153765,0.683196,-0.048468,-0.215411,39.059185,-24.142960,-3.277406,0.374845,1.916305,-0.182328,0.000000,0.000000,0.000000,0.000000,0.000000,0.000000
11852892.000000,-2.295253,-1.662800,1.275419,-1.457378,1.700756,1.311880,-0.582211,0.238935,-0.002089,0.710508,-0.215737,-0.151962,0.680176,-0.048992,-0.167803,39.158367,-24.341324,-3.202028,0.351041,1.968490,-0.221696,0.000000,0.000000,0.000000,0.000000,0.000000,0.000000
11852893.000000,-2.295018,-1.662805,1.276128,-1.457592,1.700609,1.312542,-0.582265,0.237851,-0.003097,0.708157,-0.214850,-0.148129,0.680966,-0.047907,-0.144000,39.229778,-24.313553,-3.202028,0.386747,2.001449,-0.175919,0.000000,0.000000,0.000000,0.000000,0.000000,0.000000
11852894.000000,-2.294777,-1.662815,1.276847,-1.457804,1.700459,1.313219,-0.582313,0.239284,-0.005524,0.711377,-0.215064,-0.146084,0.675362,-0.044179,-0.167803,39.376568,-24.365128,-3.178224,0.446256,1.988631,-0.202470,0.000000,0.000000,0.000000,0.000000,0.000000,0.000000
11852895.000000,-2.294553,-1.662822,1.277551,-1.458008,1.700313,1.313895,-0.582364,0.237041,-0.006022,0.708904,-0.214631,-0.149130,0.671658,-0.043053,-0.068621,39.475750,-24.341324,-3.178224,0.500272,1.930038,-0.188737,0.000000,0.000000,0.000000,0.000000,0.000000,0.000000
11852896.000000,-2.294329,-1.662827,1.278262,-1.458211,1.700173,1.314569,-0.582407,0.231371,-0.005700,0.701092,-0.213251,-0.142765,0.669676,-0.044608,0.054365,39.547161,-24.265945,-3.202028,0.470060,1.903487,-0.235429,0.000000,0.000000,0.000000,0.000000,0.000000,0.000000
11852897.000000,-2.294109,-1.662836,1.278969,-1.458413,1.700033,1.315248,-0.582464,0.230844,-0.006131,0.717072,-0.211090,-0.139028,0.676952,-0.050735,0.177350,39.646343,-24.289749,-3.301210,0.440763,1.884261,-0.155778,0.000000,0.000000,0.000000,0.000000,0.000000,0.000000
11852898.000000,-2.293884,-1.662846,1.279676,-1.458612,1.699896,1.315920,-0.582505,0.227479,-0.006972,0.713820,-0.206480,-0.134719,0.673408,-0.049847,0.304304,39.769329,-24.142960,-3.400392,0.381254,1.865035,-0.215287,0.000000,0.000000,0.000000,0.000000,0.000000,0.000000
11852899.000000,-2.293658,-1.662853,1.280381,-1.458815,1.699747,1.316599,-0.582561,0.226289,-0.006974,0.706219,-0.205394,-0.139510,0.672374,-0.053873,0.375715,39.868511,-24.019974,-3.400392,0.398649,1.903487,-0.149369,0.000000,0.000000,0.000000,0.000000,0.000000,0.000000
11852900.000000,-2.293440,-1.662854,1.281072,-1.459010,1.699606,1.317267,-0.582606,0.223956,-0.005211,0.705282,-0.204632,-0.141570,0.685746,-0.048775,0.502668,39.892315,-23.825577,-3.400392,0.393156,1.884261,-0.175919,0.000000,0.000000,0.000000,0.000000,0.000000,0.000000
11852901.000000,-2.293216,-1.662851,1.281783,-1.459202,1.699471,1.317956,-0.582648,0.226253,-0.002271,0.706685,-0.197985,-0.137975,0.689384,-0.044264,0.574079,39.840740,-23.774002,-3.499574,0.374845,1.825668,-0.221696,0.000000,0.000000,0.000000,0.000000,0.000000,0.000000
11852902.000000,-2.292995,-1.662846,1.282477,-1.459396,1.699332,1.318653,-0.582707,0.226229,0.000154,0.706885,-0.197881,-0.136622,0.695475,-0.045206,0.601850,39.769329,-23.651016,-3.547182,0.381254,1.708480,-0.155778,0.000000,0.000000,0.000000,0.000000,0.000000,0.000000
11852903.000000,-2.292772,-1.662846,1.283178,-1.459591,1.699195,1.319341,-0.582751,0.226577,0.000101,0.699990,-0.195770,-0.136055,0.694095,-0.041488,0.601850,39.769329,-23.480423,-3.547182,0.393156,1.630660,-0.202470,0.000000,0.000000,0.000000,0.000000,0.000000,0.000000
11852904.000000,-2.292552,-1.662839,1.283882,-1.459780,1.699059,1.320023,-0.582799,0.226332,0.002386,0.695789,-0.192965,-0.135549,0.693525,-0.045240,0.625654,39.670147,-23.381241,-3.598757,0.410551,1.637069,-0.202470,0.000000,0.000000,0.000000,0.000000,0.000000,0.000000
11852905.000000,-2.292325,-1.662837,1.284578,-1.459971,1.698925,1.320706,-0.582846,0.228021,0.002146,0.697571,-0.191580,-0.133529,0.689216,-0.048579,0.574079,39.646343,-23.309830,-3.622560,0.381254,1.708480,-0.182328,0.000000,0.000000,0.000000,0.000000,0.000000,0.000000
11852906.000000,-2.292098,-1.662827,1.285276,-1.460159,1.698793,1.321390,-0.582891,0.228158,0.004864,0.694683,-0.189459,-0.132848,0.686785,-0.045115,0.550275,39.499554,-23.234451,-3.670168,0.381254,1.708480,-0.202470,0.000000,0.000000,0.000000,0.000000,0.000000,0.000000
11852907.000000,-2.291867,-1.662817,1.285978,-1.460352,1.698659,1.322077,-0.582943,0.227059,0.006675,0.695697,-0.194305,-0.131636,0.681635,-0.044758,0.451093,39.352764,-23.135269,-3.598757,0.356534,1.670028,-0.163102,0.000000,0.000000,0.000000,0.000000,0.000000,0.000000
11852908.000000,-2.291640,-1.662810,1.286681,-1.460531,1.698522,1.322757,-0.582978,0.229124,0.012962,0.701110,-0.187947,-0.134110,0.684727,-0.040760,0.351911,39.253582,-23.234451,-3.670168,0.339139,1.702071,-0.221696,0.000000,0.000000,0.000000,0.000000,0.000000,0.000000
11852909.000000,-2.291416,-1.662803,1.287388,-1.460719,1.698389,1.323448,-0.583028,0.225304,0.010827,0.705330,-0.185979,-0.132572,0.684715,-0.041473,0.328107,39.182171,-23.286026,-3.622560,0.315336,1.741439,-0.182328,0.000000,0.000000,0.000000,0.000000,0.000000,0.000000
11852910.000000,-2.291186,-1.662793,1.288084,-1.460899,1.698252,1.324142,-0.583070,0.229470,0.010482,0.703348,-0.182340,-0.128144,0.678776,-0.044148,0.205121,39.059185,-23.333633,-3.670168,0.339139,1.747848,-0.202470,0.000000,0.000000,0.000000,0.000000,0.000000,0.000000
11852911.000000,-2.290968,-1.662788,1.288792,-1.461075,1.698117,1.324814,-0.583117,0.225945,0.009041,0.700421,-0.179437,-0.130314,0.686456,-0.043777,0.177350,38.983807,-23.456619,-3.721742,0.374845,1.779891,-0.169511,0.000000,0.000000,0.000000,0.000000,0.000000,0.000000
11852912.000000,-2.290745,-1.662777,1.289512,-1.461250,1.697991,1.325497,-0.583161,0.226417,0.009679,0.705496,-0.176909,-0.123776,0.678499,-0.041424,0.153547,38.837017,-23.627213,-3.797121,0.339139,1.800033,-0.188737,0.000000,0.000000,0.000000,0.000000,0.000000,0.000000
