chaoyuefei/paper-gmrm-data/robot_logs/s2_dq_mrm_max_0.50_log_20260314_174926.csv
# time_ms,q_0,q_1,q_2,q_3,q_4,q_5,q_6,dq_0,dq_1,dq_2,dq_3,dq_4,dq_5,dq_6,tau_J_0,tau_J_1,tau_J_2,tau_J_3,tau_J_4,tau_J_5,tau_J_6,O_dP_EE_c_0,O_dP_EE_c_1,O_dP_EE_c_2,O_dP_EE_c_3,O_dP_EE_c_4,O_dP_EE_c_5
13228152.000000,2.312752,-0.964727,-1.819539,-1.386095,-0.927552,1.665518,0.447534,0.000658,0.000746,-0.000355,-0.000470,0.000268,0.000741,0.000931,-0.017047,35.508465,19.691574,12.171202,1.008390,1.350509,-0.169511,0.000000,0.000000,0.000000,0.000000,0.000000,0.000000
13228153.000000,2.312747,-0.964728,-1.819539,-1.386091,-0.927557,1.665518,0.447527,-0.001232,-0.000152,-0.000237,0.000801,-0.000262,0.000496,-0.001584,0.054365,35.536236,19.691574,12.123594,1.020292,1.350509,-0.110001,0.000000,0.000000,0.000000,0.000000,0.000000,0.000000
13228154.000000,2.312749,-0.964730,-1.819543,-1.386094,-0.927553,1.665517,0.447532,-0.000264,-0.000658,-0.001272,-0.000023,0.000266,-0.000177,0.000640,0.030561,35.560040,19.739182,12.147398,1.008390,1.364242,-0.155778,0.000000,0.000000,0.000000,0.000000,0.000000,0.000000
13228155.000000,2.312751,-0.964732,-1.819539,-1.386094,-0.927555,1.665518,0.447530,0.000381,-0.000439,0.000266,-0.000015,0.000415,0.000392,-0.000286,0.006757,35.560040,19.691574,12.147398,1.001981,1.350509,-0.136552,0.000000,0.000000,0.000000,0.000000,0.000000,0.000000
13228156.000000,2.312736,-0.964736,-1.819540,-1.386094,-0.927558,1.665516,0.447534,-0.012726,-0.010236,-0.008060,-0.000567,-0.002009,0.000499,0.008355,-0.389971,35.068096,19.104416,12.171202,0.936979,1.344100,-0.116410,0.000000,0.000000,0.000000,0.000000,0.000000,0.000000
13228157.000000,2.312720,-0.964708,-1.819559,-1.386094,-0.927539,1.665514,0.447549,-0.027186,-0.009915,-0.024980,0.000763,-0.000903,0.002232,0.014448,-2.222857,32.842449,17.311203,12.270384,0.535978,1.292831,-0.083451,0.000000,0.000000,0.000000,0.000000,0.000000,0.000000
13228158.000000,2.312713,-0.964657,-1.819633,-1.386089,-0.927521,1.665497,0.447573,-0.022573,0.006983,-0.045610,0.003567,0.004293,-0.005917,0.018654,-5.785479,28.950542,14.561874,12.298155,-0.019747,1.364242,-0.044083,0.000000,0.000000,0.000000,0.000000,0.000000,0.000000
13228159.000000,2.312671,-0.964635,-1.819742,-1.386077,-0.927539,1.665487,0.447619,-0.021793,0.015957,-0.068139,0.006406,-0.002780,-0.006748,0.025310,-9.625812,24.665874,11.197617,12.147398,-0.306307,1.429244,-0.089860,0.000000,0.000000,0.000000,0.000000,0.000000,0.000000
13228160.000000,2.312597,-0.964682,-1.819898,-1.386074,-0.927600,1.665488,0.447672,-0.026526,0.006197,-0.084964,0.007523,-0.021424,-0.005034,0.032237,-13.386798,21.043743,7.837326,12.024412,-0.228488,1.435653,-0.064225,0.000000,0.000000,0.000000,0.000000,0.000000,0.000000
13228161.000000,2.312491,-0.964773,-1.820062,-1.386077,-0.927688,1.665533,0.447739,-0.040738,-0.014964,-0.095587,0.004131,-0.045020,0.010301,0.042407,-16.703447,18.179363,4.572250,11.925230,0.004056,1.188461,-0.044083,0.000000,0.000000,0.000000,0.000000,0.000000,0.000000
13228162.000000,2.312379,-0.964898,-1.820222,-1.386085,-0.927788,1.665625,0.447822,-0.055123,-0.044153,-0.108034,-0.000205,-0.065263,0.041588,0.058489,-19.623369,16.025127,1.676132,11.750669,0.207303,0.635482,-0.004716,0.000000,0.000000,0.000000,0.000000,0.000000,0.000000
13228163.000000,2.312248,-0.965058,-1.820378,-1.386106,-0.927894,1.665763,0.447932,-0.071608,-0.073466,-0.111778,-0.009230,-0.083483,0.079317,0.076578,-22.126726,14.557232,-0.926407,11.679258,0.261320,-0.079545,0.009017,0.000000,0.000000,0.000000,0.000000,0.000000,0.000000
13228164.000000,2.312128,-0.965224,-1.820526,-1.386125,-0.928004,1.665917,0.448075,-0.083233,-0.098937,-0.116346,-0.013162,-0.095324,0.104150,0.100312,-24.526934,13.577312,-3.183792,11.480894,0.147794,-0.626115,-0.017533,0.000000,0.000000,0.000000,0.000000,0.000000,0.000000
13228165.000000,2.311999,-0.965398,-1.820657,-1.386145,-0.928119,1.666061,0.448233,-0.094026,-0.120792,-0.115175,-0.016356,-0.102147,0.122738,0.121197,-26.653399,12.819561,-5.195206,11.135740,-0.043551,-0.781754,0.015426,0.000000,0.000000,0.000000,0.000000,0.000000,0.000000
13228166.000000,2.311865,-0.965557,-1.820790,-1.386176,-0.928244,1.666205,0.448420,-0.095995,-0.127871,-0.114790,-0.023199,-0.108690,0.132588,0.138955,-28.188738,12.034039,-6.571854,10.663633,-0.336520,-0.548295,-0.004716,0.000000,0.000000,0.000000,0.000000,0.000000,0.000000
13228167.000000,2.311714,-0.965699,-1.820908,-1.386243,-0.928372,1.666382,0.448633,-0.106450,-0.131799,-0.109853,-0.040454,-0.113482,0.147118,0.164330,-28.339495,11.375469,-7.281998,10.096312,-0.641390,-0.222367,0.015426,0.000000,0.000000,0.000000,0.000000,0.000000,0.000000
13228168.000000,2.311557,-0.965822,-1.821018,-1.386376,-0.928529,1.666625,0.448871,-0.118680,-0.127333,-0.106369,-0.075370,-0.120876,0.175845,0.192415,-27.173113,10.736736,-7.329605,9.699583,-0.743014,-0.183915,0.015426,0.000000,0.000000,0.000000,0.000000,0.000000,0.000000
13228169.000000,2.311396,-0.965917,-1.821131,-1.386570,-0.928709,1.666917,0.449132,-0.133038,-0.118697,-0.110341,-0.116419,-0.140122,0.213044,0.217166,-24.923662,10.054363,-6.694839,9.354429,-0.718295,-0.345963,-0.037675,0.000000,0.000000,0.000000,0.000000,0.000000,0.000000
13228170.000000,2.311230,-0.965996,-1.821239,-1.386793,-0.928921,1.667228,0.449392,-0.151049,-0.105886,-0.115540,-0.146508,-0.163941,0.243282,0.226673,-21.975969,9.221233,-5.687149,8.711729,-0.551669,-0.431107,0.021835,0.000000,0.000000,0.000000,0.000000,0.000000,0.000000
13228171.000000,2.311047,-0.966065,-1.821352,-1.387039,-0.929139,1.667542,0.449664,-0.170158,-0.097262,-0.118494,-0.179191,-0.186014,0.264907,0.237247,-18.560137,8.435711,-4.461258,7.846861,-0.377719,-0.215958,-0.011124,0.000000,0.000000,0.000000,0.000000,0.000000,0.000000
13228172.000000,2.310879,-0.966128,-1.821469,-1.387332,-0.929369,1.667866,0.449941,-0.176749,-0.085845,-0.127839,-0.213978,-0.204282,0.283305,0.248965,-15.441852,7.701763,-3.231400,7.104979,-0.264193,0.174056,0.021835,0.000000,0.000000,0.000000,0.000000,0.000000,0.000000
13228173.000000,2.310709,-0.966188,-1.821579,-1.387639,-0.929614,1.668219,0.450234,-0.179682,-0.081149,-0.129285,-0.235714,-0.218240,0.300982,0.263762,-12.446551,7.019390,-2.299088,6.315489,-0.145175,0.408431,-0.017533,0.000000,0.000000,0.000000,0.000000,0.000000,0.000000
13228174.000000,2.310534,-0.966267,-1.821701,-1.387952,-0.929852,1.668600,0.450526,-0.181308,-0.083712,-0.133933,-0.254823,-0.228290,0.326750,0.267433,-9.673419,6.626629,-1.465958,5.474425,-0.282504,0.532027,-0.017533,0.000000,0.000000,0.000000,0.000000,0.000000,0.000000
13228175.000000,2.310355,-0.966350,-1.821842,-1.388276,-0.930112,1.669004,0.450817,-0.183562,-0.084831,-0.142132,-0.267258,-0.238080,0.363326,0.270628,-7.122454,6.333050,-0.704239,4.732543,-0.509554,0.576888,-0.011124,0.000000,0.000000,0.000000,0.000000,0.000000,0.000000
13228176.000000,2.310187,-0.966458,-1.821992,-1.388600,-0.930401,1.669429,0.451111,-0.180964,-0.095862,-0.145860,-0.282262,-0.257880,0.383444,0.274484,-5.019793,6.380657,-0.164688,3.867674,-0.551669,0.603439,-0.031266,0.000000,0.000000,0.000000,0.000000,0.000000,0.000000
13228177.000000,2.310018,-0.966594,-1.822161,-1.388916,-0.930708,1.669868,0.451402,-0.176364,-0.115798,-0.157391,-0.283674,-0.273995,0.402061,0.274474,-3.238482,6.698040,0.351059,3.050413,-0.539767,0.694076,0.009017,0.000000,0.000000,0.000000,0.000000,0.000000,0.000000
13228178.000000,2.309854,-0.966753,-1.822342,-1.389230,-0.931029,1.670332,0.451704,-0.170639,-0.132214,-0.163807,-0.288545,-0.298793,0.417658,0.282154,-1.703143,7.138409,0.720016,2.114134,-0.515963,0.687667,-0.004716,0.000000,0.000000,0.000000,0.000000,0.000000,0.000000
13228179.000000,2.309693,-0.966918,-1.822541,-1.389545,-0.931389,1.670828,0.451988,-0.165185,-0.146142,-0.172349,-0.292254,-0.318279,0.443947,0.281702,-0.413775,7.554974,0.965988,1.296873,-0.389620,0.511886,0.009017,0.000000,0.000000,0.000000,0.000000,0.000000,0.000000
13228180.000000,2.309555,-0.967085,-1.822753,-1.389880,-0.931759,1.671364,0.452279,-0.155340,-0.152553,-0.185198,-0.304330,-0.329232,0.470511,0.285618,0.427289,7.824749,1.184189,0.729552,-0.348422,0.226241,0.021835,0.000000,0.000000,0.000000,0.000000,0.000000,0.000000
13228181.000000,2.309418,-0.967255,-1.822976,-1.390210,-0.932134,1.671913,0.452576,-0.145965,-0.157044,-0.194473,-0.315207,-0.346109,0.494587,0.292490,1.093793,7.971539,1.235763,0.059080,-0.336520,-0.008134,-0.011124,0.000000,0.000000,0.000000,0.000000,0.000000,0.000000
13228182.000000,2.309296,-0.967423,-1.823200,-1.390540,-0.932541,1.672471,0.452866,-0.134413,-0.161226,-0.201827,-0.321641,-0.361593,0.515882,0.294340,1.490522,7.995342,1.136581,-0.484438,-0.353915,-0.041093,0.009017,0.000000,0.000000,0.000000,0.000000,0.000000,0.000000
13228183.000000,2.309188,-0.967593,-1.823430,-1.390880,-0.932961,1.673026,0.453161,-0.122966,-0.162249,-0.210465,-0.326106,-0.374764,0.531635,0.292364,1.589704,7.777142,1.013595,-0.976381,-0.360323,0.109054,-0.011124,0.000000,0.000000,0.000000,0.000000,0.000000,0.000000
13228184.000000,2.309083,-0.967756,-1.823677,-1.391230,-0.933391,1.673605,0.453445,-0.115348,-0.161540,-0.219004,-0.335403,-0.390810,0.549323,0.289590,1.542096,7.336773,0.843002,-1.250124,-0.318209,0.291244,0.001693,0.000000,0.000000,0.000000,0.000000,0.000000,0.000000
13228185.000000,2.308980,-0.967911,-1.823931,-1.391601,-0.933832,1.674221,0.453733,-0.108489,-0.155916,-0.230505,-0.344546,-0.398001,0.566611,0.291282,1.514325,6.773418,0.720016,-1.396913,-0.377719,0.316879,0.021835,0.000000,0.000000,0.000000,0.000000,0.000000,0.000000
13228186.000000,2.308881,-0.968068,-1.824196,-1.391973,-0.934280,1.674878,0.454023,-0.107528,-0.155093,-0.242041,-0.351437,-0.408129,0.600821,0.298667,1.466718,6.210064,0.573227,-1.519899,-0.342013,0.115462,-0.017533,0.000000,0.000000,0.000000,0.000000,0.000000,0.000000
13228187.000000,2.308790,-0.968231,-1.824486,-1.392369,-0.934734,1.675554,0.454299,-0.103378,-0.163612,-0.254282,-0.368030,-0.420772,0.621115,0.292026,1.292158,5.646709,0.573227,-1.420717,-0.287997,-0.041093,0.054794,0.000000,0.000000,0.000000,0.000000,0.000000,0.000000
13228188.000000,2.308707,-0.968413,-1.824767,-1.392769,-0.935206,1.676228,0.454581,-0.096230,-0.166691,-0.264198,-0.376356,-0.430193,0.629636,0.290550,1.022382,5.277752,0.474045,-1.420717,-0.234896,-0.020951,0.034652,0.000000,0.000000,0.000000,0.000000,0.000000,0.000000
13228189.000000,2.308628,-0.968604,-1.825048,-1.393176,-0.935682,1.676927,0.454861,-0.091166,-0.171339,-0.267432,-0.385135,-0.442348,0.651124,0.294821,0.748639,5.011944,0.228073,-1.496095,-0.049044,0.037643,0.048385,0.000000,0.000000,0.000000,0.000000,0.000000,0.000000
13228190.000000,2.308559,-0.968806,-1.825355,-1.393591,-0.936148,1.677658,0.455148,-0.084216,-0.177730,-0.280802,-0.393801,-0.448908,0.673950,0.293017,0.451093,5.011944,0.351059,-1.619081,-0.013339,0.115462,0.009017,0.000000,0.000000,0.000000,0.000000,0.000000,0.000000
13228191.000000,2.308489,-0.969033,-1.825658,-1.394028,-0.936607,1.678401,0.455434,-0.077481,-0.191298,-0.283481,-0.403692,-0.449232,0.702998,0.290501,0.351911,5.428509,0.644638,-1.742067,-0.001437,0.102645,0.009017,0.000000,0.000000,0.000000,0.000000,0.000000,0.000000
13228192.000000,2.308412,-0.969271,-1.825946,-1.394472,-0.937076,1.679187,0.455703,-0.074265,-0.207378,-0.280890,-0.419018,-0.448984,0.724406,0.285722,0.601850,6.186260,1.037399,-1.841249,0.117582,0.031234,0.087753,0.000000,0.000000,0.000000,0.000000,0.000000,0.000000
13228193.000000,2.308332,-0.969519,-1.826242,-1.394953,-0.937522,1.680001,0.455989,-0.076524,-0.220727,-0.283153,-0.434265,-0.444555,0.748621,0.287426,1.093793,7.285198,1.898300,-1.742067,0.004056,-0.014542,0.009017,0.000000,0.000000,0.000000,0.000000,0.000000,0.000000
13228194.000000,2.308243,-0.969775,-1.826531,-1.395432,-0.937966,1.680824,0.456268,-0.080803,-0.233380,-0.287193,-0.459128,-0.440810,0.784006,0.281950,1.863447,8.582500,2.929794,-1.694460,-0.025240,-0.073136,0.001693,0.000000,0.000000,0.000000,0.000000,0.000000,0.000000
13228195.000000,2.308156,-0.970021,-1.826806,-1.395932,-0.938414,1.681662,0.456538,-0.084527,-0.239710,-0.288372,-0.467627,-0.445739,0.792421,0.275678,2.704511,9.661602,3.838302,-1.619081,0.052579,-0.020951,0.048385,0.000000,0.000000,0.000000,0.000000,0.000000,0.000000
13228196.000000,2.308064,-0.970265,-1.827094,-1.396464,-0.938851,1.682501,0.456812,-0.089646,-0.239319,-0.291526,-0.483796,-0.445633,0.807367,0.272925,3.545576,10.419353,4.818222,-1.373109,-0.037142,0.050460,0.015426,0.000000,0.000000,0.000000,0.000000,0.000000,0.000000
13228197.000000,2.307961,-0.970517,-1.827381,-1.396995,-0.939279,1.683350,0.457072,-0.094611,-0.244747,-0.293644,-0.502032,-0.441791,0.821246,0.269748,4.462018,11.006512,5.556137,-1.198549,-0.060946,0.134689,0.041976,0.000000,0.000000,0.000000,0.000000,0.000000,0.000000
13228198.000000,2.307855,-0.970764,-1.827678,-1.397543,-0.939719,1.684194,0.457345,-0.099395,-0.247470,-0.301061,-0.512839,-0.445883,0.815982,0.268074,5.326887,11.375469,6.242477,-1.099367,-0.007845,0.226241,0.034652,0.000000,0.000000,0.000000,0.000000,0.000000,0.000000
13228199.000000,2.307755,-0.971020,-1.827987,-1.398116,-0.940153,1.685030,0.457612,-0.101792,-0.251873,-0.308629,-0.545704,-0.442446,0.817590,0.267226,6.021162,11.569866,6.758224,-1.000185,-0.019747,0.245467,0.034652,0.000000,0.000000,0.000000,0.000000,0.000000,0.000000
13228200.000000,2.307645,-0.971294,-1.828304,-1.398684,-0.940601,1.685853,0.457882,-0.107892,-0.258373,-0.308344,-0.560824,-0.442406,0.818820,0.266158,6.739240,11.839642,7.127182,-1.027956,0.052579,0.291244,0.041976,0.000000,0.000000,0.000000,0.000000,0.000000,0.000000
13228201.000000,2.307530,-0.971589,-1.828622,-1.399267,-0.941057,1.686649,0.458156,-0.110862,-0.265119,-0.311816,-0.564242,-0.452488,0.810526,0.262668,7.405744,12.180828,7.492172,-1.198549,0.141385,0.388290,0.001693,0.000000,0.000000,0.000000,0.000000,0.000000,0.000000
13228202.000000,2.307410,-0.971906,-1.828950,-1.399853,-0.941508,1.687464,0.458415,-0.116085,-0.278980,-0.315205,-0.570637,-0.453505,0.810813,0.259973,8.052411,12.621197,7.761948,-1.420717,0.183500,0.369064,0.067611,0.000000,0.000000,0.000000,0.000000,0.000000,0.000000
13228203.000000,2.307291,-0.972240,-1.829277,-1.400448,-0.941962,1.688274,0.458692,-0.115852,-0.297661,-0.320450,-0.574009,-0.453311,0.812996,0.262693,8.643537,13.136944,7.984116,-1.718263,0.225614,0.316879,0.009017,0.000000,0.000000,0.000000,0.000000,0.000000,0.000000
13228204.000000,2.307164,-0.972603,-1.829616,-1.401048,-0.942415,1.689068,0.458953,-0.120006,-0.314497,-0.322090,-0.582967,-0.455410,0.809378,0.268180,9.290204,13.823284,8.206284,-2.063417,0.166105,0.245467,0.081344,0.000000,0.000000,0.000000,0.000000,0.000000,0.000000
13228205.000000,2.307032,-0.972983,-1.829957,-1.401647,-0.942877,1.689865,0.459224,-0.125992,-0.344622,-0.326010,-0.584044,-0.457842,0.800917,0.264362,9.932904,14.533428,8.277695,-2.360964,0.123990,0.232650,0.034652,0.000000,0.000000,0.000000,0.000000,0.000000,0.000000
13228206.000000,2.306894,-0.973386,-1.830300,-1.402270,-0.943340,1.690654,0.459493,-0.133417,-0.359351,-0.328962,-0.585431,-0.455784,0.803070,0.264797,10.428815,15.362591,8.452255,-2.436342,0.100187,0.147506,0.015426,0.000000,0.000000,0.000000,0.000000,0.000000,0.000000
13228207.000000,2.306755,-0.973796,-1.830644,-1.402890,-0.943799,1.691449,0.459756,-0.140440,-0.376090,-0.334691,-0.599729,-0.457791,0.804032,0.267683,10.551801,16.195721,8.547470,-2.114992,0.052579,0.134689,0.061202,0.000000,0.000000,0.000000,0.000000,0.000000,0.000000
13228208.000000,2.306588,-0.974215,-1.830977,-1.403511,-0.944268,1.692245,0.460038,-0.150054,-0.390805,-0.339181,-0.602811,-0.455722,0.795920,0.266913,10.698590,17.128033,8.547470,-1.349306,0.052579,0.239059,-0.004716,0.000000,0.000000,0.000000,0.000000,0.000000,0.000000
13228209.000000,2.306417,-0.974627,-1.831328,-1.404129,-0.944728,1.693030,0.460314,-0.158050,-0.399478,-0.343869,-0.599810,-0.458124,0.800834,0.269555,10.476422,17.861980,8.646652,-0.286073,0.004056,0.316879,0.034652,0.000000,0.000000,0.000000,0.000000,0.000000,0.000000
13228210.000000,2.306244,-0.975053,-1.831693,-1.404735,-0.945197,1.693829,0.460591,-0.165234,-0.405553,-0.346215,-0.600844,-0.460366,0.801364,0.268076,10.032086,18.548321,8.845016,1.098509,-0.025240,0.427657,0.021835,0.000000,0.000000,0.000000,0.000000,0.000000,0.000000
13228211.000000,2.306066,-0.975465,-1.832039,-1.405346,-0.945675,1.694639,0.460867,-0.164875,-0.407197,-0.344990,-0.603028,-0.466733,0.795691,0.266385,9.488568,19.107708,8.892624,2.681456,0.069974,0.544845,0.028243,0.000000,0.000000,0.000000,0.000000,0.000000,0.000000
13228212.000000,2.305884,-0.975879,-1.832405,-1.405951,-0.946140,1.695417,0.461139,-0.167707,-0.408095,-0.350901,-0.616125,-0.465088,0.796546,0.269618,8.917279,19.405254,9.114792,4.165221,0.010465,0.759078,0.054794,0.000000,0.000000,0.000000,0.000000,0.000000,0.000000
13228213.000000,2.305701,-0.976288,-1.832773,-1.406549,-0.946605,1.696208,0.461416,-0.169814,-0.408586,-0.357036,-0.620262,-0.458260,0.789175,0.268211,8.421369,19.623455,9.261581,5.573607,-0.067355,0.934859,0.028243,0.000000,0.000000,0.000000,0.000000,0.000000,0.000000
13228214.000000,2.305535,-0.976707,-1.833137,-1.407147,-0.947088,1.696993,0.461684,-0.167534,-0.411329,-0.360313,-0.611126,-0.480255,0.788883,0.265484,7.754865,19.671062,9.356796,6.708251,0.004056,1.071273,0.074935,0.000000,0.000000,0.000000,0.000000,0.000000,0.000000
13228215.000000,2.305374,-0.977140,-1.833521,-1.407742,-0.947557,1.697783,0.461956,-0.162139,-0.413505,-0.363377,-0.611033,-0.476325,0.790416,0.266842,7.060590,19.817852,9.630539,7.624693,-0.037142,1.142684,0.028243,0.000000,0.000000,0.000000,0.000000,0.000000,0.000000
13228216.000000,2.305214,-0.977581,-1.833898,-1.408343,-0.948029,1.698567,0.462227,-0.163719,-0.424600,-0.370970,-0.608902,-0.474404,0.786351,0.269999,6.564680,19.940838,9.848740,8.267393,-0.037142,1.285506,0.028243,0.000000,0.000000,0.000000,0.000000,0.000000,0.000000
13228217.000000,2.305059,-0.978029,-1.834282,-1.408935,-0.948519,1.699329,0.462496,-0.161717,-0.430879,-0.373188,-0.601022,-0.481730,0.783008,0.273937,6.044965,20.016216,10.070908,8.588743,0.052579,1.422836,0.061202,0.000000,0.000000,0.000000,0.000000,0.000000,0.000000
13228218.000000,2.304924,-0.978481,-1.834684,-1.409518,-0.949007,1.700094,0.462772,-0.150636,-0.437658,-0.381238,-0.594845,-0.480029,0.771648,0.278130,5.426069,19.992413,10.416061,8.711729,0.100187,1.442062,0.009017,0.000000,0.000000,0.000000,0.000000,0.000000,0.000000
13228219.000000,2.304784,-0.978953,-1.835079,-1.410103,-0.949497,1.700868,0.463039,-0.145410,-0.449289,-0.384133,-0.589067,-0.484600,0.763349,0.273220,4.930158,20.087627,10.634262,8.636351,0.159696,1.357833,0.048385,0.000000,0.000000,0.000000,0.000000,0.000000,0.000000
13228221.000000,2.304532,-0.979917,-1.835876,-1.411237,-0.950471,1.702421,0.463577,-0.134420,-0.465452,-0.388918,-0.570077,-0.477349,0.770672,0.269074,3.890729,20.234417,11.150009,8.120604,0.171598,1.214095,0.048385,0.000000,0.000000,0.000000,0.000000,0.000000,0.000000
13228222.000000,2.304416,-0.980418,-1.836277,-1.411812,-0.950963,1.703176,0.463845,-0.126486,-0.472588,-0.390920,-0.561619,-0.484253,0.767515,0.274399,3.398786,20.480389,11.419785,7.898436,0.159696,1.266280,0.001693,0.000000,0.000000,0.000000,0.000000,0.000000,0.000000
13228223.000000,2.304305,-0.980911,-1.836687,-1.412370,-0.951473,1.703945,0.464109,-0.123034,-0.487013,-0.396739,-0.558390,-0.489596,0.768667,0.269800,3.025861,20.674786,11.764938,7.672301,0.273221,1.285506,0.048385,0.000000,0.000000,0.000000,0.000000,0.000000,0.000000
13228224.000000,2.304199,-0.981409,-1.837086,-1.412926,-0.951976,1.704707,0.464373,-0.117117,-0.489893,-0.395683,-0.551421,-0.495867,0.766499,0.268548,2.629133,20.821575,12.133896,7.426329,0.320829,1.285506,0.034652,0.000000,0.000000,0.000000,0.000000,0.000000,0.000000
13228225.000000,2.304107,-0.981911,-1.837499,-1.413487,-0.952472,1.705485,0.464637,-0.108370,-0.484279,-0.398141,-0.563414,-0.493912,0.774726,0.270593,2.184797,21.166729,12.820236,7.426329,0.320829,1.201278,0.001693,0.000000,0.000000,0.000000,0.000000,0.000000,0.000000
13228226.000000,2.304028,-0.982414,-1.837886,-1.414056,-0.952984,1.706260,0.464896,-0.100506,-0.487817,-0.395615,-0.564601,-0.497490,0.770967,0.266331,1.811872,22.118877,13.530380,7.700072,0.482877,1.247054,0.061202,0.000000,0.000000,0.000000,0.000000,0.000000,0.000000
13228227.000000,2.303932,-0.982929,-1.838272,-1.414607,-0.953483,1.707022,0.465173,-0.099699,-0.493862,-0.391194,-0.552559,-0.506619,0.755564,0.268805,1.811872,23.562969,14.486496,7.898436,0.500272,1.389877,-0.017533,0.000000,0.000000,0.000000,0.000000,0.000000,0.000000
13228228.000000,2.303840,-0.983441,-1.838652,-1.415150,-0.953974,1.707802,0.465424,-0.098994,-0.504518,-0.388434,-0.552009,-0.499487,0.764958,0.264117,1.835676,25.058636,15.371201,8.168211,0.440763,1.448470,0.074935,0.000000,0.000000,0.000000,0.000000,0.000000,0.000000
13228229.000000,2.303774,-0.983940,-1.839029,-1.415709,-0.954469,1.708586,0.465687,-0.088179,-0.506373,-0.387134,-0.554784,-0.500503,0.761309,0.258903,1.565900,26.355938,16.303513,8.636351,0.410551,1.494247,0.074935,0.000000,0.000000,0.000000,0.000000,0.000000,0.000000
13228230.000000,2.303713,-0.984437,-1.839405,-1.416269,-0.954962,1.709366,0.465956,-0.078959,-0.506921,-0.385961,-0.563715,-0.500637,0.769083,0.263434,1.268354,27.431072,16.989853,9.084654,0.356534,1.507064,-0.004716,0.000000,0.000000,0.000000,0.000000,0.000000,0.000000
13228231.000000,2.303646,-0.984929,-1.839788,-1.416829,-0.955450,1.710135,0.466219,-0.076519,-0.505242,-0.387458,-0.565352,-0.493775,0.765091,0.263569,1.145368,28.339581,17.604782,9.477415,0.261320,1.643478,-0.004716,0.000000,0.000000,0.000000,0.000000,0.000000,0.000000
13228232.000000,2.303587,-0.985451,-1.840176,-1.417393,-0.955964,1.710886,0.466478,-0.068887,-0.512415,-0.389095,-0.563667,-0.495007,0.759704,0.261824,0.895429,29.343304,18.120529,9.798765,0.315336,1.806442,0.034652,0.000000,0.000000,0.000000,0.000000,0.000000,0.000000
13228233.000000,2.303543,-0.985982,-1.840581,-1.417952,-0.956472,1.711666,0.466729,-0.061290,-0.515258,-0.390520,-0.561703,-0.493509,0.762480,0.256088,0.451093,30.370831,18.636276,10.048704,0.434354,1.812850,0.081344,0.000000,0.000000,0.000000,0.000000,0.000000,0.000000
13228234.000000,2.303500,-0.986520,-1.840973,-1.418524,-0.956991,1.712446,0.467001,-0.054912,-0.522120,-0.391918,-0.559688,-0.501082,0.763490,0.260253,0.078168,31.322979,18.981430,10.270872,0.566190,1.741439,0.015426,0.000000,0.000000,0.000000,0.000000,0.000000,0.000000
13228235.000000,2.303458,-0.987078,-1.841370,-1.419098,-0.957495,1.713215,0.467257,-0.050505,-0.532723,-0.390905,-0.566904,-0.502939,0.768087,0.266327,-0.266986,32.302898,19.223434,10.417662,0.571683,1.676437,0.087753,0.000000,0.000000,0.000000,0.000000,0.000000,0.000000
13228236.000000,2.303424,-0.987643,-1.841775,-1.419652,-0.957997,1.713991,0.467529,-0.046926,-0.552702,-0.393579,-0.558726,-0.498115,0.772986,0.262629,-0.635943,33.207439,19.445602,10.393858,0.554288,1.584884,0.041976,0.000000,0.000000,0.000000,0.000000,0.000000,0.000000
13228237.000000,2.303406,-0.988227,-1.842184,-1.420218,-0.958512,1.714749,0.467799,-0.037032,-0.563101,-0.398880,-0.554061,-0.501526,0.766498,0.258911,-1.183428,34.163555,19.667770,10.318480,0.571683,1.546432,0.028243,0.000000,0.000000,0.000000,0.000000,0.000000,0.000000
13228238.000000,2.303388,-0.988816,-1.842588,-1.420772,-0.959012,1.715514,0.468057,-0.031200,-0.573813,-0.397547,-0.555445,-0.497236,0.770171,0.263802,-1.679339,34.972881,19.814560,10.243101,0.542386,1.605026,0.094161,0.000000,0.000000,0.000000,0.000000,0.000000,0.000000
13228239.000000,2.303365,-0.989410,-1.842986,-1.421320,-0.959505,1.716288,0.468329,-0.028071,-0.578486,-0.399369,-0.549121,-0.493581,0.769531,0.271084,-2.000689,35.754436,19.913742,9.997129,0.398649,1.643478,0.021835,0.000000,0.000000,0.000000,0.000000,0.000000,0.000000
13228240.000000,2.303343,-0.990006,-1.843396,-1.421888,-0.959995,1.717056,0.468588,-0.025943,-0.582935,-0.399861,-0.549725,-0.486411,0.773557,0.267531,-2.298235,36.365398,20.084335,9.949522,0.344633,1.559249,0.067611,0.000000,0.000000,0.000000,0.000000,0.000000,0.000000
13228241.000000,2.303330,-0.990592,-1.843814,-1.422451,-0.960495,1.717832,0.468850,-0.022892,-0.597467,-0.402953,-0.552602,-0.493192,0.774163,0.267661,-2.643389,36.833538,20.254929,9.997129,0.362943,1.448470,0.048385,0.000000,0.000000,0.000000,0.000000,0.000000,0.000000
13228242.000000,2.303304,-0.991184,-1.844223,-1.423016,-0.961008,1.718591,0.469111,-0.022482,-0.589629,-0.403274,-0.551913,-0.499309,0.788809,0.262285,-2.766375,37.150921,20.453293,10.020933,0.410551,1.429244,0.034652,0.000000,0.000000,0.000000,0.000000,0.000000,0.000000
13228243.000000,2.303272,-0.991778,-1.844630,-1.423576,-0.961511,1.719347,0.469364,-0.024789,-0.586394,-0.406375,-0.561221,-0.495079,0.782503,0.258106,-2.766375,37.444500,20.552475,10.096312,0.482877,1.461288,0.034652,0.000000,0.000000,0.000000,0.000000,0.000000,0.000000
13228244.000000,2.303242,-0.992353,-1.845038,-1.424159,-0.962032,1.720094,0.469625,-0.029620,-0.581043,-0.415719,-0.564426,-0.500653,0.770937,0.258542,-2.742571,37.567486,20.723068,10.465269,0.578092,1.565658,0.054794,0.000000,0.000000,0.000000,0.000000,0.000000,0.000000
13228245.000000,2.303201,-0.992928,-1.845449,-1.424737,-0.962533,1.720840,0.469886,-0.032717,-0.570410,-0.416099,-0.567548,-0.509537,0.751742,0.259306,-2.591815,37.515911,20.794479,10.762815,0.596403,1.552840,0.074935,0.000000,0.000000,0.000000,0.000000,0.000000,0.000000
13228246.000000,2.303162,-0.993516,-1.845855,-1.425302,-0.963037,1.721602,0.470154,-0.035063,-0.569908,-0.412263,-0.564579,-0.507209,0.755662,0.262752,-2.421221,37.591290,20.822250,10.984983,0.554288,1.539108,0.009017,0.000000,0.000000,0.000000,0.000000,0.000000,0.000000
13228247.000000,2.303118,-0.994101,-1.846264,-1.425875,-0.963542,1.722352,0.470411,-0.037599,-0.577969,-0.416460,-0.563251,-0.503855,0.753765,0.260766,-2.199053,37.761883,20.992844,11.258726,0.464567,1.578475,0.054794,0.000000,0.000000,0.000000,0.000000,0.000000,0.000000
13228248.000000,2.303075,-0.994704,-1.846661,-1.426448,-0.964042,1.723085,0.470673,-0.037727,-0.577236,-0.409793,-0.572355,-0.499400,0.749163,0.262103,-2.024493,38.103069,20.917465,11.504698,0.428861,1.702071,0.041976,0.000000,0.000000,0.000000,0.000000,0.000000,0.000000
13228249.000000,2.303030,-0.995307,-1.847087,-1.427013,-0.964552,1.723830,0.470938,-0.041820,-0.585955,-0.414856,-0.568126,-0.497999,0.743576,0.265905,-1.826129,38.519634,21.092026,11.726866,0.344633,1.760665,0.048385,0.000000,0.000000,0.000000,0.000000,0.000000,0.000000
13228250.000000,2.302971,-0.995931,-1.847492,-1.427584,-0.965067,1.724551,0.471204,-0.044658,-0.597553,-0.412407,-0.564594,-0.499863,0.718621,0.266061,-1.480975,39.035381,21.139633,12.000608,0.315336,1.806442,0.028243,0.000000,0.000000,0.000000,0.000000,0.000000,0.000000
13228251.000000,2.302912,-0.996550,-1.847902,-1.428140,-0.965588,1.725288,0.471460,-0.046739,-0.607299,-0.409603,-0.564554,-0.505521,0.730633,0.260194,-1.131854,39.499554,21.187241,12.171202,0.398649,1.838485,0.041976,0.000000,0.000000,0.000000,0.000000,0.000000,0.000000
13228252.000000,2.302854,-0.997159,-1.848320,-1.428707,-0.966103,1.726040,0.471716,-0.052890,-0.609904,-0.414835,-0.560016,-0.499476,0.738342,0.255059,-0.834307,39.868511,21.385605,12.421141,0.362943,1.779891,0.067611,0.000000,0.000000,0.000000,0.000000,0.000000,0.000000
13228253.000000,2.302789,-0.997786,-1.848743,-1.429278,-0.966620,1.726776,0.471981,-0.060133,-0.612995,-0.416977,-0.557045,-0.505020,0.739251,0.265852,-0.441546,40.233501,21.508591,12.714720,0.446256,1.702071,0.034652,0.000000,0.000000,0.000000,0.000000,0.000000,0.000000
13228254.000000,2.302717,-0.998398,-1.849171,-1.429830,-0.967156,1.727511,0.472241,-0.066187,-0.628542,-0.417752,-0.555014,-0.508188,0.739039,0.264388,0.006757,40.578655,21.726791,12.865477,0.518583,1.702071,0.061202,0.000000,0.000000,0.000000,0.000000,0.000000,0.000000
13228255.000000,2.302642,-0.999030,-1.849586,-1.430402,-0.967679,1.728234,0.472515,-0.070356,-0.625937,-0.421722,-0.555134,-0.507937,0.718277,0.270259,0.451093,41.114239,21.825974,13.135252,0.512174,1.747848,0.028243,0.000000,0.000000,0.000000,0.000000,0.000000,0.000000
13228256.000000,2.302563,-0.999661,-1.850001,-1.430964,-0.968201,1.728961,0.472777,-0.071137,-0.623475,-0.418265,-0.558958,-0.515012,0.719182,0.267646,0.923200,41.507000,21.825974,13.357420,0.440763,1.838485,0.061202,0.000000,0.000000,0.000000,0.000000,0.000000,0.000000
13228257.000000,2.302488,-1.000271,-1.850423,-1.431533,-0.968724,1.729688,0.473046,-0.075835,-0.621270,-0.419860,-0.563990,-0.509865,0.721628,0.265507,1.315961,41.729168,21.948959,13.555784,0.369352,1.884261,0.081344,0.000000,0.000000,0.000000,0.000000,0.000000,0.000000
13228258.000000,2.302406,-1.000875,-1.850848,-1.432096,-0.969245,1.730420,0.473322,-0.077523,-0.615513,-0.421342,-0.558653,-0.516485,0.717017,0.267830,1.764264,41.701397,22.095749,13.631163,0.297025,1.832076,0.015426,0.000000,0.000000,0.000000,0.000000,0.000000,0.000000
13228259.000000,2.302329,-1.001469,-1.851273,-1.432643,-0.969775,1.731145,0.473590,-0.079101,-0.616020,-0.422522,-0.555055,-0.517863,0.725502,0.269973,2.109418,41.653790,22.270309,13.583555,0.267728,1.916305,0.054794,0.000000,0.000000,0.000000,0.000000,0.000000,0.000000
13228260.000000,2.302251,-1.002075,-1.851697,-1.433190,-0.970313,1.731851,0.473863,-0.080782,-0.609446,-0.424891,-0.550688,-0.523214,0.717217,0.268341,2.454572,41.554607,22.464706,13.484373,0.339139,1.995040,0.048385,0.000000,0.000000,0.000000,0.000000,0.000000,0.000000
13228261.000000,2.302179,-1.002673,-1.852140,-1.433717,-0.970843,1.732579,0.474123,-0.079015,-0.601130,-0.428186,-0.549220,-0.526212,0.725626,0.268394,2.680707,41.336407,22.786057,13.262205,0.386747,2.020675,0.081344,0.000000,0.000000,0.000000,0.000000,0.000000,0.000000
13228262.000000,2.302099,-1.003247,-1.852577,-1.434249,-0.971379,1.733314,0.474400,-0.080020,-0.593868,-0.438332,-0.538439,-0.519276,0.728648,0.274397,2.978254,40.991253,23.127243,13.036070,0.470060,2.020675,0.015426,0.000000,0.000000,0.000000,0.000000,0.000000,0.000000
13228263.000000,2.302027,-1.003838,-1.853016,-1.434773,-0.971918,1.734038,0.474672,-0.078094,-0.586216,-0.440885,-0.535313,-0.534945,0.729748,0.269620,3.172651,40.820660,23.420822,12.742491,0.554288,2.001449,0.074935,0.000000,0.000000,0.000000,0.000000,0.000000,0.000000
13228264.000000,2.301955,-1.004437,-1.853465,-1.435283,-0.972453,1.734771,0.474945,-0.073698,-0.588427,-0.440845,-0.523620,-0.533094,0.729591,0.269885,3.347211,40.697674,23.789780,12.444944,0.578092,1.995040,0.034652,0.000000,0.000000,0.000000,0.000000,0.000000,0.000000
13228265.000000,2.301892,-1.005019,-1.853912,-1.435779,-0.972995,1.735496,0.475221,-0.068616,-0.590068,-0.443523,-0.506380,-0.537175,0.723885,0.268732,3.446393,40.578655,24.111130,11.925230,0.613798,2.066451,0.001693,0.000000,0.000000,0.000000,0.000000,0.000000,0.000000
13228266.000000,2.301829,-1.005602,-1.854359,-1.436264,-0.973528,1.736218,0.475478,-0.063831,-0.584746,-0.441495,-0.504577,-0.534173,0.729674,0.264510,3.497968,40.380291,24.428513,11.381712,0.601896,2.112228,0.081344,0.000000,0.000000,0.000000,0.000000,0.000000,0.000000
13228267.000000,2.301776,-1.006172,-1.854811,-1.436735,-0.974056,1.736947,0.475766,-0.060941,-0.574048,-0.443691,-0.489799,-0.537618,0.728168,0.272793,3.422590,40.110516,24.745895,10.885801,0.506681,2.072860,-0.011124,0.000000,0.000000,0.000000,0.000000,0.000000,0.000000
13228268.000000,2.301717,-1.006759,-1.855256,-1.437205,-0.974607,1.737673,0.476031,-0.058673,-0.575896,-0.444179,-0.479553,-0.536647,0.719222,0.267463,3.446393,39.963726,25.015671,10.441465,0.542386,2.033492,0.048385,0.000000,0.000000,0.000000,0.000000,0.000000,0.000000
13228269.000000,2.301662,-1.007339,-1.855713,-1.437667,-0.975142,1.738399,0.476295,-0.056331,-0.577598,-0.443507,-0.470030,-0.539117,0.726797,0.266401,3.446393,39.693951,25.289413,10.171690,0.547880,2.060043,0.061202,0.000000,0.000000,0.000000,0.000000,0.000000,0.000000
13228270.000000,2.301614,-1.007905,-1.856163,-1.438133,-0.975695,1.739117,0.476564,-0.052916,-0.570766,-0.441435,-0.467147,-0.539711,0.718841,0.267758,3.371015,39.475750,25.582993,9.949522,0.554288,2.072860,-0.004716,0.000000,0.000000,0.000000,0.000000,0.000000,0.000000
13228271.000000,2.301561,-1.008490,-1.856606,-1.438594,-0.976249,1.739829,0.476818,-0.052861,-0.569807,-0.437881,-0.463037,-0.542906,0.723249,0.268142,3.398786,39.376568,25.654404,9.798765,0.721830,2.079269,0.048385,0.000000,0.000000,0.000000,0.000000,0.000000,0.000000
13228272.000000,2.301520,-1.009064,-1.857071,-1.439050,-0.976803,1.740545,0.477091,-0.048934,-0.583080,-0.443287,-0.458745,-0.543444,0.717088,0.268116,3.248029,39.281353,25.924179,9.751158,0.739225,2.118636,0.009017,0.000000,0.000000,0.000000,0.000000,0.000000,0.000000
13228273.000000,2.301476,-1.009634,-1.857520,-1.439499,-0.977360,1.741255,0.477357,-0.048701,-0.578477,-0.444110,-0.456433,-0.544715,0.704014,0.265936,3.200422,39.106792,26.047165,9.651976,0.757535,2.112228,0.028243,0.000000,0.000000,0.000000,0.000000,0.000000,0.000000
13228274.000000,2.301442,-1.010219,-1.857966,-1.439948,-0.977907,1.741967,0.477622,-0.045881,-0.576058,-0.440085,-0.448946,-0.550373,0.715674,0.268193,3.049665,39.130596,26.146347,9.727354,0.769437,2.125045,0.009017,0.000000,0.000000,0.000000,0.000000,0.000000,0.000000
13228275.000000,2.301416,-1.010810,-1.858411,-1.440403,-0.978454,1.742688,0.477879,-0.041540,-0.580042,-0.443091,-0.451373,-0.545640,0.715426,0.259990,2.803693,39.253582,26.316940,9.874144,0.709928,2.144271,0.061202,0.000000,0.000000,0.000000,0.000000,0.000000,0.000000
13228276.000000,2.301390,-1.011397,-1.858857,-1.440851,-0.978998,1.743393,0.478147,-0.036596,-0.582985,-0.444168,-0.449399,-0.561526,0.707625,0.262434,2.605329,39.328960,26.316940,10.020933,0.727323,2.196456,0.015426,0.000000,0.000000,0.000000,0.000000,0.000000,0.000000
13228277.000000,2.301363,-1.011978,-1.859295,-1.441297,-0.979540,1.744103,0.478405,-0.030368,-0.578693,-0.438883,-0.451136,-0.551006,0.702481,0.261738,2.430768,39.352764,26.293137,10.195494,0.673307,2.196456,0.041976,0.000000,0.000000,0.000000,0.000000,0.000000,0.000000
13228278.000000,2.301341,-1.012572,-1.859727,-1.441759,-0.980083,1.744810,0.478666,-0.029093,-0.583850,-0.435876,-0.449306,-0.548181,0.707968,0.256776,2.260175,39.598736,26.293137,10.564451,0.637601,2.190048,0.054794,0.000000,0.000000,0.000000,0.000000,0.000000,0.000000
13228279.000000,2.301324,-1.013159,-1.860152,-1.442216,-0.980636,1.745522,0.478929,-0.023783,-0.580250,-0.431586,-0.459192,-0.548763,0.710477,0.256238,2.034040,39.721722,26.098740,10.786619,0.661405,2.183639,-0.004716,0.000000,0.000000,0.000000,0.000000,0.000000,0.000000
13228280.000000,2.301310,-1.013744,-1.860573,-1.442676,-0.981183,1.746230,0.479177,-0.020618,-0.583581,-0.436571,-0.457285,-0.542301,0.710107,0.255478,1.835676,39.916119,25.924179,11.084166,0.655912,2.235824,0.061202,0.000000,0.000000,0.000000,0.000000,0.000000,0.000000
13228281.000000,2.301308,-1.014335,-1.860997,-1.443143,-0.981731,1.746931,0.479446,-0.014811,-0.580403,-0.432316,-0.460362,-0.554632,0.715830,0.258598,1.490522,40.039104,25.828964,11.282530,0.667814,2.209274,0.041976,0.000000,0.000000,0.000000,0.000000,0.000000,0.000000
13228282.000000,2.301306,-1.014929,-1.861416,-1.443613,-0.982283,1.747647,0.479707,-0.012236,-0.583206,-0.429396,-0.462250,-0.549757,0.718065,0.259495,1.216779,40.086712,25.630600,11.603880,0.715421,2.144271,0.048385,0.000000,0.000000,0.000000,0.000000,0.000000,0.000000
13228283.000000,2.301305,-1.015507,-1.861828,-1.444078,-0.982834,1.748367,0.479975,-0.008181,-0.588104,-0.422266,-0.461327,-0.550735,0.719189,0.261596,0.970807,39.963726,25.436203,11.679258,0.673307,2.104903,0.009017,0.000000,0.000000,0.000000,0.000000,0.000000,0.000000
13228284.000000,2.301312,-1.016075,-1.862242,-1.444558,-0.983377,1.749054,0.480232,-0.003887,-0.575809,-0.415755,-0.469019,-0.554531,0.711257,0.256385,0.673261,39.622540,25.214035,11.925230,0.673307,2.150680,0.034652,0.000000,0.000000,0.000000,0.000000,0.000000,0.000000
13228285.000000,2.301321,-1.016656,-1.862640,-1.445026,-0.983924,1.749772,0.480486,0.002489,-0.577086,-0.405381,-0.467443,-0.555508,0.714204,0.254927,0.375715,39.499554,24.868881,12.024412,0.655912,2.112228,0.081344,0.000000,0.000000,0.000000,0.000000,0.000000,0.000000
13228286.000000,2.301332,-1.017244,-1.863030,-1.445503,-0.984464,1.750470,0.480761,0.006561,-0.579711,-0.399183,-0.467169,-0.545759,0.716733,0.255846,0.105939,39.428143,24.575302,12.198973,0.566190,2.112228,-0.004716,0.000000,0.000000,0.000000,0.000000,0.000000,0.000000
13228287.000000,2.301339,-1.017826,-1.863424,-1.445970,-0.985008,1.751177,0.481010,0.007957,-0.580734,-0.393291,-0.467794,-0.548102,0.716092,0.255298,-0.092425,39.328960,24.281723,12.369566,0.613798,2.125045,0.048385,0.000000,0.000000,0.000000,0.000000,0.000000,0.000000
13228288.000000,2.301343,-1.018397,-1.863810,-1.446449,-0.985558,1.751881,0.481270,0.005783,-0.571906,-0.388749,-0.464804,-0.545699,0.715622,0.253106,-0.266986,39.229778,24.059555,12.544127,0.584501,2.144271,0.028243,0.000000,0.000000,0.000000,0.000000,0.000000,0.000000
13228289.000000,2.301355,-1.018983,-1.864191,-1.446926,-0.986100,1.752588,0.481513,0.008780,-0.574336,-0.381610,-0.465727,-0.543226,0.717490,0.251771,-0.512957,39.158367,23.813583,12.714720,0.637601,2.098495,0.074935,0.000000,0.000000,0.000000,0.000000,0.000000,0.000000
13228290.000000,2.301370,-1.019558,-1.864573,-1.447400,-0.986646,1.753304,0.481772,0.011635,-0.587253,-0.377378,-0.469934,-0.541785,0.716726,0.252664,-0.786700,39.011578,23.619186,12.865477,0.578092,2.020675,0.015426,0.000000,0.000000,0.000000,0.000000,0.000000,0.000000
13228291.000000,2.301382,-1.020122,-1.864946,-1.447880,-0.987205,1.754002,0.482030,0.010724,-0.579194,-0.377094,-0.471893,-0.543562,0.723201,0.255431,-0.933489,38.864788,23.420822,13.012266,0.589994,2.001449,0.009017,0.000000,0.000000,0.000000,0.000000,0.000000,0.000000
13228292.000000,2.301397,-1.020700,-1.865331,-1.448357,-0.987765,1.754711,0.482282,0.013117,-0.573619,-0.377114,-0.474039,-0.549834,0.722723,0.256593,-1.084246,38.765606,23.274033,13.135252,0.613798,2.079269,0.034652,0.000000,0.000000,0.000000,0.000000,0.000000,0.000000
13228293.000000,2.301415,-1.021272,-1.865702,-1.448840,-0.988321,1.755422,0.482541,0.015190,-0.572325,-0.375141,-0.476031,-0.546072,0.718627,0.254178,-1.231036,38.765606,23.127243,13.309813,0.559781,2.144271,0.015426,0.000000,0.000000,0.000000,0.000000,0.000000,0.000000
13228294.000000,2.301430,-1.021845,-1.866075,-1.449314,-0.988874,1.756130,0.482790,0.014171,-0.569625,-0.375841,-0.471480,-0.561157,0.723102,0.254439,-1.254840,38.618816,22.956650,13.357420,0.542386,2.125045,0.074935,0.000000,0.000000,0.000000,0.000000,0.000000,0.000000
13228295.000000,2.301449,-1.022424,-1.866453,-1.449789,-0.989431,1.756841,0.483053,0.014160,-0.564817,-0.373333,-0.468387,-0.559855,0.725471,0.259337,-1.306414,38.543438,22.809860,13.555784,0.488370,2.104903,0.001693,0.000000,0.000000,0.000000,0.000000,0.000000,0.000000
13228296.000000,2.301464,-1.022984,-1.866825,-1.450264,-0.989993,1.757552,0.483303,0.013859,-0.561049,-0.375562,-0.464927,-0.566419,0.714507,0.252651,-1.330218,38.372845,22.686874,13.754148,0.494779,2.118636,0.067611,0.000000,0.000000,0.000000,0.000000,0.000000,0.000000
13228297.000000,2.301473,-1.023558,-1.867197,-1.450735,-0.990557,1.758252,0.483561,0.012650,-0.562195,-0.369405,-0.472127,-0.564033,0.710860,0.252236,-1.306414,38.249859,22.540085,13.853331,0.554288,2.098495,0.067611,0.000000,0.000000,0.000000,0.000000,0.000000,0.000000
13228298.000000,2.301488,-1.024119,-1.867563,-1.451190,-0.991117,1.758949,0.483814,0.014052,-0.560358,-0.379334,-0.472336,-0.558586,0.703285,0.252148,-1.381793,38.103069,22.440903,13.904905,0.554288,2.085677,0.028243,0.000000,0.000000,0.000000,0.000000,0.000000,0.000000
13228299.000000,2.301500,-1.024703,-1.867923,-1.451656,-0.991683,1.759644,0.484059,0.012850,-0.563064,-0.374232,-0.466090,-0.568455,0.705523,0.248649,-1.354022,38.154644,22.218735,14.000120,0.601896,2.060043,0.074935,0.000000,0.000000,0.000000,0.000000,0.000000,0.000000
13228300.000000,2.301511,-1.025290,-1.868291,-1.452110,-0.992250,1.760346,0.484312,0.010854,-0.569771,-0.371491,-0.464955,-0.567347,0.710092,0.249461,-1.282611,38.249859,22.048141,14.075499,0.608304,2.020675,0.034652,0.000000,0.000000,0.000000,0.000000,0.000000,0.000000
13228301.000000,2.301521,-1.025863,-1.868655,-1.452561,-0.992823,1.761049,0.484566,0.009779,-0.571739,-0.367886,-0.461944,-0.563879,0.704125,0.247054,-1.207232,38.372845,21.925156,14.051695,0.554288,1.981307,0.048385,0.000000,0.000000,0.000000,0.000000,0.000000,0.000000
13228302.000000,2.301529,-1.026443,-1.869015,-1.453014,-0.993386,1.761741,0.484820,0.010913,-0.569242,-0.361624,-0.467859,-0.559392,0.711859,0.246160,-1.084246,38.424419,21.802170,14.051695,0.547880,1.968490,0.061202,0.000000,0.000000,0.000000,0.000000,0.000000,0.000000
13228303.000000,2.301539,-1.027015,-1.869375,-1.453451,-0.993955,1.762437,0.485068,0.010605,-0.585103,-0.356787,-0.453623,-0.564037,0.703337,0.245338,-1.032672,38.372845,21.655380,14.027891,0.518583,1.995040,0.081344,0.000000,0.000000,0.000000,0.000000,0.000000,0.000000
13228304.000000,2.301545,-1.027589,-1.869737,-1.453891,-0.994527,1.763122,0.485322,0.009031,-0.582051,-0.359702,-0.446965,-0.563895,0.682851,0.244997,-0.933489,38.325237,21.532394,14.051695,0.506681,2.020675,0.074935,0.000000,0.000000,0.000000,0.000000,0.000000,0.000000
13228305.000000,2.301551,-1.028158,-1.870102,-1.454318,-0.995094,1.763805,0.485577,0.008151,-0.572466,-0.360158,-0.440087,-0.563943,0.682715,0.250218,-0.834307,38.103069,21.385605,14.099302,0.494779,2.014266,0.067611,0.000000,0.000000,0.000000,0.000000,0.000000,0.000000
13228306.000000,2.301557,-1.028715,-1.870462,-1.454743,-0.995664,1.764500,0.485830,0.007548,-0.568658,-0.360929,-0.432045,-0.562086,0.681161,0.247992,-0.735125,37.738079,21.337997,14.027891,0.464567,2.033492,0.074935,0.000000,0.000000,0.000000,0.000000,0.000000,0.000000
13228307.000000,2.301564,-1.029284,-1.870814,-1.455175,-0.996235,1.765193,0.486079,0.007522,-0.567763,-0.361105,-0.424122,-0.569707,0.693157,0.251186,-0.663714,37.492107,21.139633,14.150877,0.518583,1.949264,0.061202,0.000000,0.000000,0.000000,0.000000,0.000000,0.000000
13228308.000000,2.301572,-1.029848,-1.871176,-1.455591,-0.996808,1.765887,0.486328,0.003799,-0.573653,-0.360569,-0.419574,-0.568013,0.692459,0.248819,-0.564532,37.198528,21.040451,14.198484,0.506681,1.923629,0.061202,0.000000,0.000000,0.000000,0.000000,0.000000,0.000000
13228309.000000,2.301574,-1.030413,-1.871531,-1.456008,-0.997389,1.766554,0.486575,0.002325,-0.568605,-0.362812,-0.415244,-0.577368,0.700791,0.251810,-0.389971,37.004131,20.917465,14.250059,0.530485,2.014266,0.074935,0.000000,0.000000,0.000000,0.000000,0.000000,0.000000
13228310.000000,2.301589,-1.030978,-1.871895,-1.456414,-0.997962,1.767242,0.486829,0.008744,-0.566807,-0.361764,-0.418188,-0.575342,0.696749,0.261996,-0.389971,36.781963,20.846054,14.198484,0.554288,2.092086,0.067611,0.000000,0.000000,0.000000,0.000000,0.000000,0.000000
13228311.000000,2.301599,-1.031544,-1.872248,-1.456810,-0.998529,1.767941,0.487082,0.008060,-0.570706,-0.366216,-0.405734,-0.570171,0.704305,0.262188,-0.314593,36.611370,20.794479,14.000120,0.524076,2.053634,0.067611,0.000000,0.000000,0.000000,0.000000,0.000000,0.000000
13228312.000000,2.301611,-1.032108,-1.872606,-1.457211,-0.999095,1.768624,0.487340,0.008962,-0.563862,-0.363362,-0.398178,-0.582072,0.688845,0.258290,-0.290789,36.365398,20.671494,13.853331,0.458158,1.988631,0.061202,0.000000,0.000000,0.000000,0.000000,0.000000,0.000000
13228313.000000,2.301616,-1.032676,-1.872967,-1.457598,-0.999658,1.769321,0.487585,0.010204,-0.562543,-0.360990,-0.391479,-0.574979,0.692139,0.249073,-0.144000,36.071819,20.552475,13.654966,0.381254,1.916305,0.094161,0.000000,0.000000,0.000000,0.000000,0.000000,0.000000
13228314.000000,2.301637,-1.033237,-1.873326,-1.457993,-1.000247,1.770008,0.487842,0.012330,-0.564869,-0.359664,-0.387247,-0.573426,0.689360,0.249379,-0.191607,35.829815,20.429489,13.508177,0.398649,1.916305,0.048385,0.000000,0.000000,0.000000,0.000000,0.000000,0.000000
13228315.000000,2.301651,-1.033809,-1.873682,-1.458376,-1.000816,1.770688,0.488089,0.011402,-0.563656,-0.356890,-0.390993,-0.573771,0.692139,0.251890,-0.144000,35.754436,20.254929,13.286009,0.452665,1.903487,0.081344,0.000000,0.000000,0.000000,0.000000,0.000000,0.000000
13228316.000000,2.301663,-1.034380,-1.874042,-1.458745,-1.001397,1.771371,0.488343,0.010887,-0.564669,-0.358788,-0.384889,-0.570369,0.694385,0.250689,-0.092425,35.730633,20.084335,13.012266,0.452665,1.909896,0.041976,0.000000,0.000000,0.000000,0.000000,0.000000,0.000000
13228317.000000,2.301676,-1.034950,-1.874392,-1.459120,-1.001984,1.772057,0.488591,0.012980,-0.565460,-0.359303,-0.373039,-0.571754,0.694178,0.249000,-0.017047,35.583843,19.885971,12.889280,0.518583,1.871444,0.048385,0.000000,0.000000,0.000000,0.000000,0.000000,0.000000
13228318.000000,2.301692,-1.035515,-1.874759,-1.459486,-1.002561,1.772751,0.488833,0.015045,-0.565123,-0.361288,-0.374252,-0.577716,0.702302,0.246789,0.030561,35.413250,19.766953,12.742491,0.488370,1.812850,0.061202,0.000000,0.000000,0.000000,0.000000,0.000000,0.000000
13228319.000000,2.301709,-1.036082,-1.875118,-1.459853,-1.003147,1.773457,0.489076,0.014090,-0.567292,-0.358208,-0.368906,-0.573648,0.700660,0.249345,0.054365,35.314068,19.691574,12.619505,0.482877,1.695663,0.094161,0.000000,0.000000,0.000000,0.000000,0.000000,0.000000
13228320.000000,2.301726,-1.036660,-1.875475,-1.460207,-1.003724,1.774142,0.489331,0.017260,-0.570033,-0.357753,-0.361860,-0.575795,0.699415,0.257960,0.054365,35.214886,19.568588,12.369566,0.464567,1.689254,0.041976,0.000000,0.000000,0.000000,0.000000,0.000000,0.000000
13228321.000000,2.301745,-1.037217,-1.875836,-1.460556,-1.004304,1.774825,0.489582,0.015370,-0.567685,-0.356853,-0.354571,-0.574919,0.687558,0.258395,0.078168,34.996685,19.421799,12.171202,0.386747,1.793624,0.054794,0.000000,0.000000,0.000000,0.000000,0.000000,0.000000
13228322.000000,2.301759,-1.037784,-1.876187,-1.460902,-1.004889,1.775502,0.489828,0.016015,-0.564179,-0.354935,-0.350973,-0.579644,0.668704,0.252981,0.153547,34.826092,19.223434,11.949034,0.315336,1.871444,0.114303,0.000000,0.000000,0.000000,0.000000,0.000000,0.000000
13228323.000000,2.301781,-1.038357,-1.876549,-1.461240,-1.005466,1.776195,0.490084,0.015329,-0.562803,-0.354806,-0.345213,-0.580661,0.677977,0.253158,0.153547,34.726910,19.104416,11.703062,0.303434,1.832076,0.041976,0.000000,0.000000,0.000000,0.000000,0.000000,0.000000
13228324.000000,2.301797,-1.038922,-1.876909,-1.461576,-1.006048,1.776898,0.490335,0.016236,-0.566916,-0.354914,-0.335174,-0.581395,0.681455,0.252856,0.228925,34.703106,19.104416,11.504698,0.327238,1.767074,0.107894,0.000000,0.000000,0.000000,0.000000,0.000000,0.000000
13228325.000000,2.301813,-1.039488,-1.877269,-1.461908,-1.006629,1.777578,0.490593,0.016390,-0.563022,-0.355560,-0.333668,-0.582845,0.672066,0.257020,0.328107,34.580120,19.005234,11.258726,0.344633,1.708480,0.081344,0.000000,0.000000,0.000000,0.000000,0.000000,0.000000
13228326.000000,2.301834,-1.040050,-1.877638,-1.462230,-1.007221,1.778268,0.490849,0.018280,-0.567300,-0.360182,-0.330224,-0.589022,0.674291,0.254415,0.351911,34.334148,18.953659,11.060362,0.386747,1.630660,0.074935,0.000000,0.000000,0.000000,0.000000,0.000000,0.000000
13228327.000000,2.301856,-1.040614,-1.878006,-1.462546,-1.007825,1.778948,0.491102,0.020354,-0.567613,-0.365789,-0.328361,-0.590549,0.678738,0.250709,0.351911,34.187359,18.981430,10.786619,0.476469,1.552840,0.081344,0.000000,0.000000,0.000000,0.000000,0.000000,0.000000
13228328.000000,2.301875,-1.041180,-1.878372,-1.462855,-1.008405,1.779632,0.491351,0.020311,-0.567698,-0.364163,-0.325865,-0.592891,0.678583,0.249957,0.403486,33.941387,18.953659,10.516844,0.458158,1.552840,0.067611,0.000000,0.000000,0.000000,0.000000,0.000000,0.000000
13228329.000000,2.301901,-1.041735,-1.878735,-1.463156,-1.009003,1.780306,0.491604,0.022209,-0.562018,-0.371775,-0.315027,-0.593207,0.674720,0.251549,0.375715,33.675579,18.953659,10.219297,0.440763,1.649886,0.114303,0.000000,0.000000,0.000000,0.000000,0.000000,0.000000
13228330.000000,2.301931,-1.042303,-1.879102,-1.463464,-1.009589,1.780960,0.491872,0.024713,-0.564232,-0.371983,-0.309805,-0.604174,0.670655,0.251870,0.304304,33.453411,18.906052,10.048704,0.374845,1.727706,0.067611,0.000000,0.000000,0.000000,0.000000,0.000000,0.000000
13228331.000000,2.301955,-1.042889,-1.879477,-1.463758,-1.010187,1.781635,0.492125,0.024248,-0.572208,-0.370027,-0.304544,-0.596032,0.670948,0.253365,0.328107,33.453411,18.906052,9.822569,0.297025,1.754256,0.100570,0.000000,0.000000,0.000000,0.000000,0.000000,0.000000
13228332.000000,2.301984,-1.043458,-1.879843,-1.464052,-1.010782,1.782320,0.492388,0.025059,-0.570827,-0.364397,-0.297811,-0.597169,0.667802,0.252919,0.304304,33.429607,18.858444,9.628172,0.291532,1.682845,0.048385,0.000000,0.000000,0.000000,0.000000,0.000000,0.000000
13228333.000000,2.302016,-1.044037,-1.880229,-1.464345,-1.011376,1.782993,0.492636,0.026212,-0.570871,-0.372326,-0.301159,-0.595033,0.673576,0.250344,0.252729,33.382000,19.076645,9.429808,0.315336,1.597701,0.094161,0.000000,0.000000,0.000000,0.000000,0.000000,0.000000
13228334.000000,2.302043,-1.044618,-1.880605,-1.464626,-1.011979,1.783660,0.492896,0.025052,-0.573932,-0.374517,-0.292702,-0.595912,0.677325,0.250549,0.276533,33.405804,19.128220,9.279051,0.428861,1.552840,0.061202,0.000000,0.000000,0.000000,0.000000,0.000000,0.000000
13228335.000000,2.302072,-1.045201,-1.880988,-1.464911,-1.012594,1.784325,0.493152,0.024426,-0.575290,-0.380925,-0.290028,-0.600500,0.675691,0.249495,0.304304,33.405804,19.251205,9.156065,0.518583,1.526290,0.054794,0.000000,0.000000,0.000000,0.000000,0.000000,0.000000
13228336.000000,2.302107,-1.045791,-1.881373,-1.465187,-1.013182,1.784993,0.493401,0.028935,-0.576599,-0.382880,-0.288423,-0.596238,0.677005,0.252744,0.252729,33.429607,19.298813,9.033079,0.542386,1.494247,0.067611,0.000000,0.000000,0.000000,0.000000,0.000000,0.000000
13228337.000000,2.302145,-1.046381,-1.881751,-1.465468,-1.013793,1.785657,0.493653,0.028830,-0.581423,-0.379242,-0.285719,-0.596094,0.672704,0.250628,0.205121,33.477215,19.346420,9.009275,0.542386,1.507064,0.054794,0.000000,0.000000,0.000000,0.000000,0.000000,0.000000
13228338.000000,2.302183,-1.046993,-1.882136,-1.465749,-1.014384,1.786301,0.493894,0.028955,-0.589394,-0.382117,-0.282759,-0.593462,0.661888,0.250864,0.153547,33.794598,19.374191,8.957701,0.434354,1.565658,0.100570,0.000000,0.000000,0.000000,0.000000,0.000000,0.000000
13228339.000000,2.302213,-1.047582,-1.882520,-1.466031,-1.014994,1.786961,0.494152,0.029168,-0.587891,-0.379988,-0.284230,-0.593884,0.657018,0.255779,0.228925,33.869976,19.322617,9.056883,0.374845,1.605026,0.067611,0.000000,0.000000,0.000000,0.000000,0.000000,0.000000
13228340.000000,2.302248,-1.048195,-1.882905,-1.466308,-1.015597,1.787607,0.494403,0.031250,-0.593225,-0.383857,-0.276243,-0.594677,0.657062,0.251875,0.228925,34.088177,19.397995,9.108458,0.332731,1.662704,0.100570,0.000000,0.000000,0.000000,0.000000,0.000000,0.000000
13228341.000000,2.302287,-1.048804,-1.883295,-1.466585,-1.016200,1.788266,0.494663,0.033565,-0.596784,-0.383457,-0.278221,-0.597633,0.659602,0.252623,0.205121,34.187359,19.497177,9.179869,0.339139,1.630660,0.041976,0.000000,0.000000,0.000000,0.000000,0.000000,0.000000
13228342.000000,2.302316,-1.049400,-1.883670,-1.466869,-1.016806,1.788930,0.494910,0.031409,-0.598656,-0.381175,-0.277769,-0.595849,0.656735,0.248836,0.328107,34.211163,19.469406,9.330626,0.416959,1.617843,0.081344,0.000000,0.000000,0.000000,0.000000,0.000000,0.000000
13228343.000000,2.302356,-1.050015,-1.884060,-1.467152,-1.017401,1.789579,0.495159,0.030605,-0.592173,-0.381849,-0.276659,-0.592400,0.641157,0.243407,0.304304,34.385723,19.544785,9.453611,0.416959,1.617843,0.087753,0.000000,0.000000,0.000000,0.000000,0.000000,0.000000
13228344.000000,2.302386,-1.050644,-1.884449,-1.467431,-1.017999,1.790247,0.495410,0.029408,-0.612282,-0.382654,-0.277573,-0.592512,0.647942,0.243813,0.427289,34.651531,19.520981,9.501219,0.476469,1.526290,0.074935,0.000000,0.000000,0.000000,0.000000,0.000000,0.000000
13228345.000000,2.302421,-1.051277,-1.884840,-1.467719,-1.018600,1.790890,0.495652,0.030380,-0.619061,-0.383353,-0.279392,-0.589382,0.648374,0.242462,0.474897,35.091900,19.616196,9.628172,0.458158,1.507064,0.107894,0.000000,0.000000,0.000000,0.000000,0.000000,0.000000
13228346.000000,2.302458,-1.051907,-1.885225,-1.467989,-1.019187,1.791544,0.495905,0.034476,-0.620009,-0.384062,-0.279467,-0.586383,0.649525,0.246417,0.526471,35.413250,19.616196,9.600401,0.416959,1.546432,0.067611,0.000000,0.000000,0.000000,0.000000,0.000000,0.000000
13228347.000000,2.302493,-1.052529,-1.885603,-1.468273,-1.019790,1.792197,0.496139,0.034193,-0.616871,-0.390183,-0.279650,-0.591148,0.648726,0.244305,0.574079,35.655254,19.520981,9.651976,0.339139,1.552840,0.114303,0.000000,0.000000,0.000000,0.000000,0.000000,0.000000
13228348.000000,2.302539,-1.053167,-1.885999,-1.468552,-1.020384,1.792837,0.496389,0.037171,-0.618507,-0.391281,-0.277055,-0.597772,0.647880,0.246916,0.502668,35.829815,19.568588,9.600401,0.273221,1.605026,0.048385,0.000000,0.000000,0.000000,0.000000,0.000000,0.000000
13228349.000000,2.302586,-1.053802,-1.886394,-1.468820,-1.020988,1.793478,0.496624,0.042015,-0.625236,-0.390087,-0.274614,-0.599693,0.653336,0.248117,0.451093,35.925030,19.544785,9.501219,0.285123,1.662704,0.133529,0.000000,0.000000,0.000000,0.000000,0.000000,0.000000
13228350.000000,2.302629,-1.054421,-1.886785,-1.469098,-1.021587,1.794136,0.496877,0.040535,-0.627036,-0.388108,-0.275404,-0.598554,0.655593,0.250152,0.474897,35.877422,19.592392,9.378233,0.243009,1.676437,0.048385,0.000000,0.000000,0.000000,0.000000,0.000000,0.000000
13228351.000000,2.302667,-1.055045,-1.887185,-1.469384,-1.022193,1.794788,0.497116,0.040594,-0.618111,-0.390843,-0.273510,-0.600999,0.669328,0.246797,0.574079,35.829815,19.592392,9.406004,0.267728,1.611434,0.100570,0.000000,0.000000,0.000000,0.000000,0.000000,0.000000
13228352.000000,2.302713,-1.055655,-1.887591,-1.469653,-1.022800,1.795451,0.497365,0.044074,-0.614959,-0.395272,-0.269371,-0.598403,0.663955,0.241515,0.550275,35.583843,19.643967,9.330626,0.327238,1.487838,0.087753,0.000000,0.000000,0.000000,0.000000,0.000000,0.000000
13228353.000000,2.302756,-1.056282,-1.887993,-1.469934,-1.023415,1.796097,0.497615,0.044570,-0.615382,-0.397504,-0.270822,-0.606136,0.669734,0.243999,0.601850,35.437054,19.667770,9.330626,0.369352,1.454879,0.048385,0.000000,0.000000,0.000000,0.000000,0.000000,0.000000
13228354.000000,2.302796,-1.056902,-1.888396,-1.470209,-1.024013,1.796737,0.497852,0.044356,-0.617682,-0.392490,-0.272588,-0.600959,0.664874,0.240708,0.673261,35.238689,19.715378,9.330626,0.393156,1.526290,0.120712,0.000000,0.000000,0.000000,0.000000,0.000000,0.000000
13228355.000000,2.302840,-1.057516,-1.888791,-1.470482,-1.024632,1.797371,0.498106,0.045376,-0.617743,-0.394696,-0.269738,-0.602453,0.656470,0.238731,0.697065,35.091900,19.715378,9.306822,0.458158,1.624252,0.067611,0.000000,0.000000,0.000000,0.000000,0.000000,0.000000
13228356.000000,2.302885,-1.058130,-1.889199,-1.470754,-1.025223,1.797993,0.498345,0.046127,-0.609680,-0.398137,-0.269528,-0.591133,0.639827,0.241543,0.724836,34.798321,19.790756,9.207640,0.410551,1.670028,0.120712,0.000000,0.000000,0.000000,0.000000,0.000000,0.000000
13228357.000000,2.302931,-1.058749,-1.889616,-1.471024,-1.025831,1.798633,0.498591,0.048823,-0.624682,-0.402597,-0.267739,-0.592099,0.639630,0.243471,0.772443,34.679302,19.937546,9.179869,0.356534,1.617843,0.087753,0.000000,0.000000,0.000000,0.000000,0.000000,0.000000
13228358.000000,2.302976,-1.059366,-1.890021,-1.471293,-1.026448,1.799265,0.498837,0.048041,-0.620496,-0.402599,-0.263365,-0.595755,0.639155,0.244851,0.824018,34.433331,20.084335,9.207640,0.381254,1.565658,0.061202,0.000000,0.000000,0.000000,0.000000,0.000000,0.000000
13228359.000000,2.303023,-1.059990,-1.890438,-1.471556,-1.027050,1.799897,0.499080,0.047797,-0.623054,-0.405608,-0.262390,-0.599226,0.639034,0.250363,0.871625,34.286541,20.278732,9.156065,0.308927,1.584884,0.100570,0.000000,0.000000,0.000000,0.000000,0.000000,0.000000
13228360.000000,2.303069,-1.060612,-1.890847,-1.471823,-1.027666,1.800511,0.499332,0.046770,-0.622917,-0.410279,-0.262646,-0.600292,0.630335,0.250001,0.947004,34.286541,20.401718,9.156065,0.332731,1.727706,0.067611,0.000000,0.000000,0.000000,0.000000,0.000000,0.000000
13228361.000000,2.303111,-1.061240,-1.891260,-1.472089,-1.028281,1.801128,0.499581,0.045301,-0.618661,-0.412358,-0.260158,-0.618195,0.628532,0.245656,1.069990,34.211163,20.477097,9.179869,0.381254,1.838485,0.100570,0.000000,0.000000,0.000000,0.000000,0.000000,0.000000
13228362.000000,2.303153,-1.061877,-1.891681,-1.472356,-1.028893,1.801761,0.499831,0.044785,-0.622901,-0.413163,-0.261737,-0.612546,0.632640,0.247618,1.169172,34.238934,20.647690,9.207640,0.344633,1.793624,0.048385,0.000000,0.000000,0.000000,0.000000,0.000000,0.000000
13228363.000000,2.303191,-1.062516,-1.892091,-1.472626,-1.029524,1.802393,0.500076,0.039815,-0.631718,-0.414389,-0.263465,-0.616471,0.638130,0.245612,1.343732,34.433331,20.723068,9.279051,0.386747,1.754256,0.067611,0.000000,0.000000,0.000000,0.000000,0.000000,0.000000
13228364.000000,2.303234,-1.063148,-1.892519,-1.472889,-1.030137,1.803004,0.500324,0.040223,-0.627129,-0.417586,-0.267414,-0.613050,0.638545,0.246491,1.466718,34.480938,20.917465,9.378233,0.398649,1.760665,0.041976,0.000000,0.000000,0.000000,0.000000,0.000000,0.000000
13228365.000000,2.303279,-1.063766,-1.892941,-1.473157,-1.030767,1.803627,0.500565,0.041732,-0.621094,-0.421836,-0.267634,-0.619651,0.635963,0.244884,1.542096,34.357952,21.016647,9.453611,0.434354,1.760665,0.074935,0.000000,0.000000,0.000000,0.000000,0.000000,0.000000
13228366.000000,2.303320,-1.064401,-1.893363,-1.473420,-1.031385,1.804246,0.500809,0.041420,-0.622413,-0.422075,-0.261764,-0.626955,0.632435,0.244685,1.665082,34.357952,21.139633,9.429808,0.464567,1.714889,0.081344,0.000000,0.000000,0.000000,0.000000,0.000000,0.000000
13228367.000000,2.303365,-1.065045,-1.893781,-1.473678,-1.032026,1.804866,0.501043,0.042343,-0.630837,-0.419135,-0.258376,-0.626978,0.633265,0.238583,1.740461,34.504742,21.139633,9.429808,0.512174,1.735030,0.094161,0.000000,0.000000,0.000000,0.000000,0.000000,0.000000
13228368.000000,2.303410,-1.065666,-1.894204,-1.473946,-1.032641,1.805476,0.501284,0.043319,-0.629058,-0.421177,-0.260871,-0.612256,0.623364,0.240948,1.811872,34.457134,21.286423,9.501219,0.428861,1.832076,0.067611,0.000000,0.000000,0.000000,0.000000,0.000000,0.000000
13228369.000000,2.303455,-1.066295,-1.894624,-1.474214,-1.033261,1.806086,0.501527,0.042965,-0.622638,-0.420314,-0.267614,-0.612510,0.626360,0.244355,1.911054,34.409527,21.215012,9.552794,0.362943,1.877853,0.034652,0.000000,0.000000,0.000000,0.000000,0.000000,0.000000
13228370.000000,2.303502,-1.066915,-1.895044,-1.474470,-1.033894,1.806708,0.501753,0.044395,-0.623115,-0.416950,-0.263387,-0.610454,0.618978,0.236655,1.962629,34.238934,21.262619,9.576597,0.386747,1.838485,0.120712,0.000000,0.000000,0.000000,0.000000,0.000000,0.000000
13228371.000000,2.303550,-1.067545,-1.895451,-1.474729,-1.034541,1.807322,0.501998,0.045282,-0.626687,-0.416917,-0.263170,-0.615314,0.617254,0.237429,2.010236,34.040569,21.163437,9.600401,0.428861,1.819259,0.034652,0.000000,0.000000,0.000000,0.000000,0.000000,0.000000
13228372.000000,2.303600,-1.068165,-1.895869,-1.474985,-1.035165,1.807930,0.502228,0.045778,-0.623111,-0.415848,-0.260073,-0.612802,0.616608,0.237495,2.061811,33.723186,21.187241,9.628172,0.440763,1.865035,0.087753,0.000000,0.000000,0.000000,0.000000,0.000000,0.000000
13228373.000000,2.303650,-1.068788,-1.896283,-1.475240,-1.035806,1.808544,0.502456,0.049561,-0.616682,-0.412243,-0.257806,-0.615200,0.617086,0.237878,2.109418,33.600201,21.187241,9.651976,0.482877,1.942855,0.114303,0.000000,0.000000,0.000000,0.000000,0.000000,0.000000
13228374.000000,2.303708,-1.069428,-1.896685,-1.475489,-1.036440,1.809165,0.502701,0.050599,-0.617362,-0.409716,-0.254790,-0.619947,0.606126,0.245428,2.085615,33.552593,21.064255,9.628172,0.578092,1.851302,0.048385,0.000000,0.000000,0.000000,0.000000,0.000000,0.000000
13228375.000000,2.303767,-1.070079,-1.897103,-1.475739,-1.037077,1.809797,0.502928,0.054718,-0.641948,-0.411876,-0.253606,-0.617753,0.617869,0.238759,2.034040,33.822369,21.092026,9.628172,0.524076,1.727706,0.094161,0.000000,0.000000,0.000000,0.000000,0.000000,0.000000
13228376.000000,2.303826,-1.070732,-1.897504,-1.475981,-1.037705,1.810401,0.503164,0.056798,-0.648770,-0.406797,-0.250337,-0.616888,0.611636,0.236778,2.034040,33.992962,20.969040,9.552794,0.482877,1.714889,0.048385,0.000000,0.000000,0.000000,0.000000,0.000000,0.000000
13228377.000000,2.303892,-1.071382,-1.897907,-1.476220,-1.038332,1.811020,0.503387,0.057877,-0.648104,-0.401656,-0.253171,-0.617075,0.617810,0.232920,1.911054,34.115948,20.822250,9.600401,0.458158,1.747848,0.081344,0.000000,0.000000,0.000000,0.000000,0.000000,0.000000
13228378.000000,2.303962,-1.072030,-1.898303,-1.476460,-1.038950,1.811639,0.503617,0.062314,-0.646556,-0.397988,-0.248773,-0.613513,0.614030,0.232117,1.764264,34.286541,20.770676,9.600401,0.362943,1.786300,0.048385,0.000000,0.000000,0.000000,0.000000,0.000000,0.000000
13228379.000000,2.304030,-1.072682,-1.898701,-1.476697,-1.039580,1.812258,0.503846,0.067234,-0.647532,-0.395918,-0.241313,-0.612245,0.608753,0.229594,1.665082,34.334148,20.623886,9.576597,0.381254,1.793624,0.074935,0.000000,0.000000,0.000000,0.000000,0.000000,0.000000
13228380.000000,2.304108,-1.073339,-1.899092,-1.476927,-1.040196,1.812881,0.504077,0.070467,-0.647466,-0.392824,-0.236396,-0.612522,0.600498,0.228419,1.466718,34.409527,20.401718,9.576597,0.327238,1.819259,0.067611,0.000000,0.000000,0.000000,0.000000,0.000000,0.000000
13228381.000000,2.304185,-1.073989,-1.899494,-1.477168,-1.040823,1.813519,0.504312,0.074416,-0.650073,-0.395426,-0.235911,-0.612130,0.610747,0.232387,1.315961,34.480938,20.377914,9.727354,0.249418,1.773483,0.061202,0.000000,0.000000,0.000000,0.000000,0.000000,0.000000
13228382.000000,2.304265,-1.074638,-1.899882,-1.477407,-1.041440,1.814141,0.504540,0.074023,-0.646717,-0.388607,-0.239118,-0.619436,0.610341,0.233793,1.169172,34.504742,20.159714,9.798765,0.243009,1.727706,0.054794,0.000000,0.000000,0.000000,0.000000,0.000000,0.000000
13228383.000000,2.304345,-1.075289,-1.900272,-1.477649,-1.042074,1.814773,0.504770,0.073869,-0.643720,-0.390146,-0.239027,-0.621367,0.616180,0.231901,1.022382,34.580120,20.036728,9.997129,0.303434,1.689254,0.054794,0.000000,0.000000,0.000000,0.000000,0.000000,0.000000
13228384.000000,2.304429,-1.075941,-1.900665,-1.477877,-1.042692,1.815394,0.504995,0.080699,-0.640465,-0.390183,-0.231982,-0.623589,0.606651,0.233059,0.847822,34.504742,19.885971,10.072508,0.356534,1.637069,0.094161,0.000000,0.000000,0.000000,0.000000,0.000000,0.000000
13228385.000000,2.304512,-1.076605,-1.901060,-1.478105,-1.043328,1.816021,0.505227,0.080710,-0.645680,-0.392612,-0.233887,-0.628474,0.613422,0.233060,0.748639,34.603924,19.715378,10.143919,0.393156,1.689254,0.054794,0.000000,0.000000,0.000000,0.000000,0.000000,0.000000
13228386.000000,2.304597,-1.077265,-1.901454,-1.478343,-1.043964,1.816636,0.505452,0.080841,-0.650922,-0.392396,-0.237877,-0.630843,0.605381,0.229592,0.649457,34.750713,19.691574,10.318480,0.393156,1.735030,0.087753,0.000000,0.000000,0.000000,0.000000,0.000000,0.000000
13228387.000000,2.304689,-1.077928,-1.901846,-1.478575,-1.044583,1.817255,0.505687,0.085833,-0.650238,-0.392249,-0.234961,-0.629241,0.606726,0.226151,0.474897,34.921307,19.568588,10.393858,0.291532,1.682845,0.034652,0.000000,0.000000,0.000000,0.000000,0.000000,0.000000
13228388.000000,2.304775,-1.078580,-1.902248,-1.478799,-1.045208,1.817870,0.505914,0.087841,-0.649497,-0.392103,-0.232348,-0.629347,0.608880,0.224016,0.375715,35.020489,19.544785,10.441465,0.225614,1.662704,0.067611,0.000000,0.000000,0.000000,0.000000,0.000000,0.000000
13228389.000000,2.304873,-1.079251,-1.902633,-1.479029,-1.045846,1.818478,0.506132,0.091806,-0.656546,-0.391088,-0.229754,-0.630940,0.594314,0.222770,0.177350,35.167278,19.374191,10.493040,0.183500,1.656295,0.114303,0.000000,0.000000,0.000000,0.000000,0.000000,0.000000
13228390.000000,2.304969,-1.079911,-1.903026,-1.479252,-1.046478,1.819082,0.506367,0.093738,-0.653462,-0.389357,-0.225512,-0.638524,0.590257,0.228202,0.006757,35.119671,19.322617,10.564451,0.183500,1.695663,0.054794,0.000000,0.000000,0.000000,0.000000,0.000000,0.000000
13228391.000000,2.305058,-1.080564,-1.903411,-1.479475,-1.047116,1.819691,0.506600,0.089637,-0.657772,-0.391476,-0.222516,-0.637462,0.594049,0.226499,-0.044818,35.044292,19.251205,10.639830,0.171598,1.747848,0.074935,0.000000,0.000000,0.000000,0.000000,0.000000,0.000000
13228392.000000,2.305151,-1.081218,-1.903807,-1.479692,-1.047756,1.820286,0.506839,0.090552,-0.651077,-0.394619,-0.218990,-0.645689,0.583682,0.227547,-0.116229,34.873699,19.251205,10.663633,0.243009,1.779891,0.048385,0.000000,0.000000,0.000000,0.000000,0.000000,0.000000
13228393.000000,2.305253,-1.081876,-1.904216,-1.479917,-1.048397,1.820899,0.507065,0.092375,-0.656500,-0.399842,-0.222855,-0.645430,0.597593,0.224889,-0.266986,34.703106,19.374191,10.814390,0.261320,1.760665,0.100570,0.000000,0.000000,0.000000,0.000000,0.000000,0.000000
13228394.000000,2.305346,-1.082523,-1.904609,-1.480133,-1.049053,1.821510,0.507297,0.091681,-0.650723,-0.398442,-0.222776,-0.651912,0.600633,0.225665,-0.314593,34.480938,19.421799,10.861998,0.339139,1.637069,0.087753,0.000000,0.000000,0.000000,0.000000,0.000000,0.000000
13228395.000000,2.305440,-1.083184,-1.905008,-1.480349,-1.049690,1.822117,0.507526,0.093357,-0.651831,-0.399220,-0.223378,-0.640684,0.598935,0.230738,-0.314593,34.357952,19.469406,10.984983,0.362943,1.676437,0.067611,0.000000,0.000000,0.000000,0.000000,0.000000,0.000000
13228398.000000,2.305737,-1.085135,-1.906221,-1.480969,-1.051625,1.823896,0.508216,0.095898,-0.648788,-0.406091,-0.210043,-0.649044,0.589996,0.221858,-0.512957,33.647808,19.766953,10.961180,0.351041,1.832076,0.100570,0.000000,0.000000,0.000000,0.000000,0.000000,0.000000
13228399.000000,2.305828,-1.085799,-1.906620,-1.481171,-1.052269,1.824491,0.508447,0.092375,-0.651155,-0.406308,-0.205391,-0.640989,0.594228,0.218752,-0.441546,33.647808,19.838364,10.961180,0.332731,1.884261,0.034652,0.000000,0.000000,0.000000,0.000000,0.000000,0.000000
13228400.000000,2.305922,-1.086464,-1.907024,-1.481368,-1.052906,1.825068,0.508663,0.089760,-0.650763,-0.401696,-0.207366,-0.637661,0.585202,0.218493,-0.389971,33.624004,19.862167,10.937376,0.243009,1.942855,0.087753,0.000000,0.000000,0.000000,0.000000,0.000000,0.000000
13228401.000000,2.306025,-1.087132,-1.907434,-1.481567,-1.053549,1.825668,0.508900,0.093538,-0.658336,-0.402869,-0.204196,-0.632763,0.590330,0.225850,-0.441546,33.746990,19.913742,10.937376,0.237516,1.890670,0.054794,0.000000,0.000000,0.000000,0.000000,0.000000,0.000000
13228402.000000,2.306120,-1.087807,-1.907840,-1.481759,-1.054212,1.826260,0.509135,0.094161,-0.664237,-0.402101,-0.194878,-0.636947,0.593338,0.226150,-0.389971,33.917583,20.036728,10.814390,0.297025,1.832076,0.048385,0.000000,0.000000,0.000000,0.000000,0.000000,0.000000
13228403.000000,2.306207,-1.088487,-1.908244,-1.481947,-1.054850,1.826846,0.509361,0.091661,-0.665886,-0.402838,-0.191802,-0.638317,0.590171,0.224905,-0.215411,34.115948,20.108139,10.691404,0.308927,1.844894,0.067611,0.000000,0.000000,0.000000,0.000000,0.000000,0.000000
13228404.000000,2.306298,-1.089171,-1.908649,-1.482139,-1.055509,1.827437,0.509599,0.090939,-0.668978,-0.403647,-0.194343,-0.639765,0.590331,0.226586,-0.068621,34.409527,20.159714,10.616026,0.356534,1.858627,0.021835,0.000000,0.000000,0.000000,0.000000,0.000000,0.000000
13228405.000000,2.306392,-1.089852,-1.909057,-1.482339,-1.056152,1.828025,0.509823,0.091775,-0.668130,-0.407208,-0.192824,-0.641274,0.588780,0.226142,0.006757,34.504742,20.207321,10.540648,0.386747,1.819259,0.081344,0.000000,0.000000,0.000000,0.000000,0.000000,0.000000
13228406.000000,2.306485,-1.090525,-1.909459,-1.482524,-1.056798,1.828627,0.510057,0.095367,-0.680303,-0.403440,-0.190838,-0.640625,0.593762,0.228332,0.078168,34.603924,20.108139,10.417662,0.374845,1.721298,0.028243,0.000000,0.000000,0.000000,0.000000,0.000000,0.000000
13228407.000000,2.306569,-1.091210,-1.909863,-1.482711,-1.057437,1.829214,0.510288,0.092944,-0.686378,-0.404932,-0.187193,-0.643346,0.589122,0.227648,0.252729,34.798321,20.183517,10.370054,0.327238,1.662704,0.034652,0.000000,0.000000,0.000000,0.000000,0.000000,0.000000
13228408.000000,2.306661,-1.091895,-1.910262,-1.482898,-1.058073,1.829792,0.510517,0.091128,-0.689063,-0.400297,-0.187459,-0.641519,0.583341,0.227595,0.304304,34.921307,20.060532,10.441465,0.291532,1.767074,0.028243,0.000000,0.000000,0.000000,0.000000,0.000000,0.000000
13228409.000000,2.306748,-1.092564,-1.910658,-1.483076,-1.058715,1.830378,0.510744,0.086530,-0.680032,-0.395569,-0.180602,-0.643043,0.582549,0.224020,0.403486,34.945110,19.961349,10.370054,0.243009,1.832076,0.048385,0.000000,0.000000,0.000000,0.000000,0.000000,0.000000
13228410.000000,2.306841,-1.093243,-1.911059,-1.483251,-1.059349,1.830963,0.510970,0.086753,-0.675775,-0.396507,-0.175343,-0.636127,0.586761,0.223801,0.427289,34.849895,19.913742,10.294676,0.207303,1.851302,0.048385,0.000000,0.000000,0.000000,0.000000,0.000000,0.000000
13228411.000000,2.306936,-1.093913,-1.911452,-1.483418,-1.059994,1.831554,0.511194,0.090766,-0.684804,-0.394775,-0.171812,-0.642570,0.591794,0.228561,0.403486,34.703106,19.766953,10.219297,0.213712,1.806442,0.067611,0.000000,0.000000,0.000000,0.000000,0.000000,0.000000
13228412.000000,2.307021,-1.094591,-1.911847,-1.483583,-1.060640,1.832139,0.511428,0.090731,-0.679812,-0.392368,-0.168722,-0.642110,0.591848,0.227484,0.526471,34.556316,19.691574,10.143919,0.213712,1.806442,0.048385,0.000000,0.000000,0.000000,0.000000,0.000000,0.000000
13228413.000000,2.307118,-1.095280,-1.912246,-1.483749,-1.061277,1.832727,0.511661,0.093040,-0.681332,-0.389642,-0.170940,-0.646608,0.589566,0.228108,0.550275,34.532513,19.616196,10.143919,0.207303,1.806442,0.028243,0.000000,0.000000,0.000000,0.000000,0.000000,0.000000
13228414.000000,2.307213,-1.095965,-1.912637,-1.483900,-1.061920,1.833329,0.511889,0.095372,-0.687868,-0.394559,-0.164083,-0.640355,0.596584,0.225489,0.550275,34.679302,19.497177,9.897947,0.231107,1.779891,0.074935,0.000000,0.000000,0.000000,0.000000,0.000000,0.000000
13228415.000000,2.307312,-1.096669,-1.913036,-1.484047,-1.062560,1.833925,0.512120,0.097029,-0.684635,-0.393001,-0.156637,-0.656874,0.604256,0.226877,0.526471,34.945110,19.469406,9.675779,0.273221,1.662704,0.048385,0.000000,0.000000,0.000000,0.000000,0.000000,0.000000
13228416.000000,2.307414,-1.097376,-1.913445,-1.484189,-1.063199,1.834526,0.512344,0.096300,-0.683648,-0.392588,-0.148941,-0.646653,0.598847,0.225908,0.451093,35.119671,19.469406,9.501219,0.231107,1.630660,0.067611,0.000000,0.000000,0.000000,0.000000,0.000000,0.000000
13228417.000000,2.307513,-1.098072,-1.913846,-1.484328,-1.063848,1.835120,0.512579,0.098029,-0.688239,-0.394946,-0.147169,-0.648521,0.593684,0.229999,0.403486,35.266460,19.445602,9.354429,0.207303,1.637069,0.067611,0.000000,0.000000,0.000000,0.000000,0.000000,0.000000
13228418.000000,2.307614,-1.098780,-1.914256,-1.484463,-1.064470,1.835716,0.512816,0.098158,-0.693175,-0.394727,-0.145078,-0.639234,0.592628,0.236227,0.403486,35.413250,19.497177,9.207640,0.135892,1.597701,0.054794,0.000000,0.000000,0.000000,0.000000,0.000000,0.000000
13228419.000000,2.307716,-1.099491,-1.914664,-1.484596,-1.065122,1.836308,0.513041,0.100029,-0.700636,-0.397089,-0.136676,-0.639354,0.588898,0.232655,0.328107,35.778240,19.520981,9.033079,0.147794,1.584884,0.087753,0.000000,0.000000,0.000000,0.000000,0.000000,0.000000
13228420.000000,2.307819,-1.100211,-1.915066,-1.484734,-1.065771,1.836894,0.513279,0.100454,-0.707494,-0.398436,-0.133679,-0.635247,0.578350,0.233734,0.304304,36.071819,19.520981,9.009275,0.147794,1.591293,0.009017,0.000000,0.000000,0.000000,0.000000,0.000000,0.000000
13228421.000000,2.307922,-1.100916,-1.915475,-1.484868,-1.066415,1.837476,0.513500,0.103479,-0.703571,-0.400179,-0.135661,-0.635923,0.574047,0.230833,0.304304,36.147198,19.592392,9.009275,0.123990,1.617843,0.034652,0.000000,0.000000,0.000000,0.000000,0.000000,0.000000
13228422.000000,2.308022,-1.101612,-1.915883,-1.485007,-1.067074,1.838077,0.513722,0.101684,-0.696294,-0.400046,-0.135894,-0.632882,0.580528,0.227154,0.351911,36.147198,19.691574,9.108458,0.166105,1.559249,0.087753,0.000000,0.000000,0.000000,0.000000,0.000000,0.000000
13228423.000000,2.308130,-1.102316,-1.916299,-1.485138,-1.067729,1.838665,0.513954,0.101988,-0.687338,-0.404727,-0.129894,-0.641667,0.568487,0.235943,0.304304,36.071819,19.885971,9.108458,0.219205,1.448470,0.061202,0.000000,0.000000,0.000000,0.000000,0.000000,0.000000
13228424.000000,2.308231,-1.103023,-1.916722,-1.485272,-1.068389,1.839248,0.514183,0.103533,-0.709329,-0.408363,-0.134590,-0.648344,0.573098,0.233966,0.328107,36.194805,20.084335,9.207640,0.273221,1.494247,0.034652,0.000000,0.000000,0.000000,0.000000,0.000000,0.000000
13228425.000000,2.308333,-1.103739,-1.917141,-1.485403,-1.069055,1.839802,0.514413,0.101585,-0.711364,-0.414013,-0.132363,-0.650793,0.553884,0.232115,0.375715,36.365398,20.278732,9.231443,0.273221,1.727706,0.028243,0.000000,0.000000,0.000000,0.000000,0.000000,0.000000
13228426.000000,2.308436,-1.104456,-1.917563,-1.485537,-1.069706,1.840374,0.514624,0.103105,-0.712071,-0.412341,-0.132010,-0.656952,0.558942,0.230116,0.427289,36.535992,20.401718,9.306822,0.255826,1.819259,0.107894,0.000000,0.000000,0.000000,0.000000,0.000000,0.000000
13228427.000000,2.308542,-1.105154,-1.917982,-1.485668,-1.070367,1.840966,0.514855,0.103063,-0.716205,-0.412940,-0.131086,-0.653472,0.566436,0.232345,0.403486,36.563763,20.576279,9.354429,0.189908,1.721298,0.015426,0.000000,0.000000,0.000000,0.000000,0.000000,0.000000
13228428.000000,2.308645,-1.105871,-1.918412,-1.485797,-1.071025,1.841548,0.515072,0.102118,-0.711556,-0.416828,-0.130439,-0.658901,0.568171,0.228322,0.427289,36.710552,20.770676,9.406004,0.159696,1.597701,0.074935,0.000000,0.000000,0.000000,0.000000,0.000000,0.000000
13228429.000000,2.308755,-1.106593,-1.918852,-1.485917,-1.071687,1.842114,0.515291,0.104194,-0.708367,-0.421079,-0.127364,-0.653582,0.562712,0.225130,0.427289,36.805767,21.016647,9.354429,0.141385,1.682845,0.067611,0.000000,0.000000,0.000000,0.000000,0.000000,0.000000
13228430.000000,2.308862,-1.107307,-1.919282,-1.486037,-1.072361,1.842669,0.515516,0.106029,-0.705239,-0.418941,-0.125818,-0.662552,0.565120,0.220870,0.451093,36.904949,21.163437,9.330626,0.219205,1.838485,0.054794,0.000000,0.000000,0.000000,0.000000,0.000000,0.000000
13228431.000000,2.308978,-1.108024,-1.919711,-1.486152,-1.073024,1.843228,0.515732,0.107809,-0.706550,-0.419672,-0.125697,-0.659051,0.563892,0.223646,0.351911,36.904949,21.310226,9.231443,0.279630,1.890670,0.067611,0.000000,0.000000,0.000000,0.000000,0.000000,0.000000
13228432.000000,2.309086,-1.108732,-1.920146,-1.486272,-1.073700,1.843802,0.515945,0.109604,-0.708390,-0.432122,-0.124483,-0.664550,0.570609,0.220447,0.328107,36.904949,21.508591,9.179869,0.339139,1.786300,0.041976,0.000000,0.000000,0.000000,0.000000,0.000000,0.000000
13228433.000000,2.309197,-1.109451,-1.920582,-1.486388,-1.074352,1.844372,0.516161,0.110014,-0.712699,-0.433081,-0.119965,-0.667692,0.563887,0.219964,0.351911,36.928753,21.655380,9.132261,0.308927,1.708480,0.054794,0.000000,0.000000,0.000000,0.000000,0.000000,0.000000
13228434.000000,2.309307,-1.110168,-1.921027,-1.486505,-1.075026,1.844934,0.516371,0.110002,-0.711488,-0.432981,-0.118597,-0.664975,0.553620,0.215969,0.375715,36.857342,21.901352,9.156065,0.303434,1.721298,0.081344,0.000000,0.000000,0.000000,0.000000,0.000000,0.000000
13228435.000000,2.309411,-1.110875,-1.921453,-1.486618,-1.075694,1.845497,0.516595,0.109093,-0.711406,-0.428990,-0.115879,-0.662315,0.550688,0.213827,0.451093,36.781963,21.972763,9.132261,0.291532,1.800033,0.028243,0.000000,0.000000,0.000000,0.000000,0.000000,0.000000
13228436.000000,2.309526,-1.111597,-1.921889,-1.486725,-1.076366,1.846053,0.516808,0.110575,-0.708853,-0.432740,-0.112501,-0.664061,0.553159,0.212098,0.427289,36.805767,22.071945,9.056883,0.362943,1.819259,0.028243,0.000000,0.000000,0.000000,0.000000,0.000000,0.000000
13228437.000000,2.309632,-1.112309,-1.922337,-1.486830,-1.077025,1.846612,0.517021,0.105974,-0.703872,-0.438580,-0.111182,-0.666410,0.554812,0.209973,0.526471,36.781963,22.270309,9.009275,0.356534,1.916305,0.048385,0.000000,0.000000,0.000000,0.000000,0.000000,0.000000
13228438.000000,2.309744,-1.113024,-1.922767,-1.486941,-1.077690,1.847163,0.517234,0.104011,-0.697069,-0.432893,-0.111203,-0.662093,0.541781,0.208639,0.550275,36.635174,22.317917,9.009275,0.279630,1.974899,0.067611,0.000000,0.000000,0.000000,0.000000,0.000000,0.000000
13228439.000000,2.309852,-1.113754,-1.923202,-1.487053,-1.078348,1.847734,0.517452,0.104139,-0.699790,-0.434279,-0.113269,-0.665191,0.550946,0.215944,0.649457,36.658978,22.365524,9.084654,0.243009,1.903487,0.048385,0.000000,0.000000,0.000000,0.000000,0.000000,0.000000
13228440.000000,2.309957,-1.114479,-1.923636,-1.487162,-1.079008,1.848308,0.517664,0.108052,-0.710145,-0.434350,-0.110303,-0.657290,0.556751,0.207523,0.724836,36.805767,22.464706,9.132261,0.225614,1.786300,0.081344,0.000000,0.000000,0.000000,0.000000,0.000000,0.000000
13228441.000000,2.310061,-1.115217,-1.924070,-1.487266,-1.079668,1.848853,0.517883,0.105856,-0.714438,-0.435166,-0.106875,-0.664421,0.549316,0.215716,0.871625,37.027935,22.464706,9.132261,0.273221,1.844894,0.048385,0.000000,0.000000,0.000000,0.000000,0.000000,0.000000
13228442.000000,2.310158,-1.115948,-1.924507,-1.487372,-1.080338,1.849405,0.518097,0.106546,-0.724163,-0.432033,-0.106106,-0.658929,0.554264,0.214068,1.046186,37.297710,22.563889,9.207640,0.279630,1.930038,0.041976,0.000000,0.000000,0.000000,0.000000,0.000000,0.000000
13228443.000000,2.310265,-1.116676,-1.924926,-1.487482,-1.081016,1.849949,0.518305,0.106610,-0.726329,-0.432387,-0.106840,-0.664918,0.554255,0.216123,1.145368,37.369122,22.512314,9.354429,0.315336,1.936446,0.067611,0.000000,0.000000,0.000000,0.000000,0.000000,0.000000
13228444.000000,2.310366,-1.117417,-1.925352,-1.487584,-1.081678,1.850515,0.518522,0.104234,-0.728370,-0.431323,-0.108590,-0.659949,0.554206,0.219599,1.343732,37.638897,22.440903,9.429808,0.339139,1.897079,0.048385,0.000000,0.000000,0.000000,0.000000,0.000000,0.000000
13228445.000000,2.310469,-1.118140,-1.925780,-1.487680,-1.082346,1.851075,0.518740,0.101798,-0.723886,-0.437782,-0.105838,-0.656886,0.561932,0.217817,1.442914,37.738079,22.464706,9.453611,0.291532,1.851302,0.081344,0.000000,0.000000,0.000000,0.000000,0.000000,0.000000
13228446.000000,2.310576,-1.118875,-1.926198,-1.487785,-1.083003,1.851634,0.518966,0.103571,-0.719661,-0.431742,-0.103226,-0.651222,0.561202,0.217396,1.514325,37.861065,22.317917,9.600401,0.249418,1.851302,0.028243,0.000000,0.000000,0.000000,0.000000,0.000000,0.000000
13228447.000000,2.310681,-1.119594,-1.926616,-1.487883,-1.083671,1.852195,0.519178,0.107949,-0.712919,-0.426138,-0.102437,-0.649545,0.556892,0.216321,1.613508,37.638897,22.119553,9.651976,0.183500,1.844894,0.081344,0.000000,0.000000,0.000000,0.000000,0.000000,0.000000
13228448.000000,2.310789,-1.120310,-1.927033,-1.487978,-1.084333,1.852760,0.519402,0.108487,-0.709863,-0.424783,-0.099844,-0.646964,0.560615,0.215750,1.665082,37.492107,22.024338,9.628172,0.178007,1.858627,0.015426,0.000000,0.000000,0.000000,0.000000,0.000000,0.000000
13228449.000000,2.310895,-1.121022,-1.927453,-1.488065,-1.085001,1.853314,0.519611,0.108880,-0.708536,-0.422199,-0.096696,-0.651345,0.555090,0.212568,1.712690,37.150921,21.901352,9.552794,0.207303,1.909896,0.041976,0.000000,0.000000,0.000000,0.000000,0.000000,0.000000
13228450.000000,2.310999,-1.121729,-1.927858,-1.488158,-1.085666,1.853874,0.519819,0.111318,-0.706247,-0.424046,-0.095049,-0.656366,0.558723,0.213239,1.811872,36.928753,21.726791,9.628172,0.195402,1.949264,0.100570,0.000000,0.000000,0.000000,0.000000,0.000000,0.000000
13228451.000000,2.311106,-1.122453,-1.928274,-1.488251,-1.086337,1.854430,0.520041,0.109689,-0.711993,-0.420114,-0.092941,-0.665701,0.558800,0.214296,1.911054,36.881145,21.631577,9.675779,0.154203,1.936446,0.041976,0.000000,0.000000,0.000000,0.000000,0.000000,0.000000
13228452.000000,2.311221,-1.123188,-1.928691,-1.488331,-1.086998,1.854992,0.520250,0.110931,-0.719072,-0.417560,-0.092020,-0.673595,0.561068,0.216942,1.911054,36.952557,21.556198,9.600401,0.166105,1.916305,0.048385,0.000000,0.000000,0.000000,0.000000,0.000000,0.000000
13228453.000000,2.311331,-1.123919,-1.929101,-1.488411,-1.087669,1.855562,0.520467,0.112448,-0.723024,-0.413212,-0.092203,-0.666945,0.562722,0.215339,1.887250,37.127117,21.508591,9.552794,0.112089,1.825668,0.015426,0.000000,0.000000,0.000000,0.000000,0.000000,0.000000
13228454.000000,2.311438,-1.124642,-1.929510,-1.488485,-1.088346,1.856114,0.520669,0.111878,-0.715893,-0.409669,-0.084168,-0.672651,0.570280,0.211101,1.934858,37.099346,21.457016,9.453611,0.178007,1.760665,0.107894,0.000000,0.000000,0.000000,0.000000,0.000000,0.000000
13228455.000000,2.311548,-1.125361,-1.929934,-1.488562,-1.089020,1.856672,0.520877,0.111812,-0.712674,-0.410435,-0.080347,-0.671063,0.571322,0.207907,1.962629,37.099346,21.532394,9.429808,0.237516,1.767074,0.048385,0.000000,0.000000,0.000000,0.000000,0.000000,0.000000
13228456.000000,2.311660,-1.126098,-1.930345,-1.488632,-1.089706,1.857216,0.521082,0.109380,-0.715746,-0.408716,-0.075963,-0.674923,0.557376,0.205287,1.962629,37.198528,21.532394,9.354429,0.291532,1.735030,0.100570,0.000000,0.000000,0.000000,0.000000,0.000000,0.000000
13228457.000000,2.311777,-1.126841,-1.930769,-1.488702,-1.090375,1.857769,0.521298,0.111433,-0.722279,-0.409003,-0.072889,-0.672283,0.553225,0.207813,1.911054,37.345318,21.655380,9.279051,0.332731,1.773483,0.054794,0.000000,0.000000,0.000000,0.000000,0.000000,0.000000
13228458.000000,2.311895,-1.127562,-1.931181,-1.488782,-1.091055,1.858323,0.521508,0.112791,-0.720731,-0.411967,-0.074670,-0.666697,0.553366,0.211673,1.863447,37.369122,21.726791,9.378233,0.315336,1.773483,0.061202,0.000000,0.000000,0.000000,0.000000,0.000000,0.000000
13228459.000000,2.312013,-1.128280,-1.931596,-1.488854,-1.091708,1.858870,0.521715,0.111885,-0.714022,-0.409347,-0.074615,-0.666666,0.542882,0.213771,1.887250,37.198528,21.726791,9.429808,0.237516,1.812850,0.074935,0.000000,0.000000,0.000000,0.000000,0.000000,0.000000
13228460.000000,2.312135,-1.129010,-1.932020,-1.488927,-1.092392,1.859415,0.521928,0.117536,-0.730797,-0.409554,-0.072075,-0.667953,0.540512,0.213096,1.764264,37.150921,21.825974,9.528990,0.178007,1.871444,0.041976,0.000000,0.000000,0.000000,0.000000,0.000000,0.000000
13228461.000000,2.312258,-1.129734,-1.932433,-1.489000,-1.093072,1.859958,0.522134,0.120427,-0.731249,-0.405759,-0.070398,-0.669676,0.548390,0.205229,1.712690,37.174725,21.877548,9.651976,0.147794,1.923629,0.081344,0.000000,0.000000,0.000000,0.000000,0.000000,0.000000
13228462.000000,2.312382,-1.130468,-1.932860,-1.489062,-1.093751,1.860502,0.522349,0.122288,-0.732502,-0.408885,-0.069156,-0.673615,0.546509,0.214543,1.665082,37.297710,22.095749,9.651976,0.183500,1.974899,0.041976,0.000000,0.000000,0.000000,0.000000,0.000000,0.000000
13228463.000000,2.312505,-1.131183,-1.933276,-1.489130,-1.094434,1.861046,0.522556,0.120787,-0.725555,-0.409781,-0.067846,-0.680747,0.547979,0.210970,1.613508,37.321514,22.218735,9.751158,0.249418,2.007858,0.081344,0.000000,0.000000,0.000000,0.000000,0.000000,0.000000
13228464.000000,2.312634,-1.131911,-1.933701,-1.489199,-1.095111,1.861593,0.522767,0.121092,-0.718661,-0.409432,-0.067322,-0.688805,0.541546,0.210795,1.490522,37.321514,22.317917,9.874144,0.339139,1.949264,0.054794,0.000000,0.000000,0.000000,0.000000,0.000000,0.000000
13228465.000000,2.312758,-1.132636,-1.934131,-1.489265,-1.095791,1.862141,0.522971,0.121454,-0.715982,-0.413632,-0.065767,-0.681023,0.542025,0.209833,1.514325,37.222332,22.464706,9.949522,0.374845,1.806442,0.048385,0.000000,0.000000,0.000000,0.000000,0.000000,0.000000
13228466.000000,2.312894,-1.133363,-1.934549,-1.489322,-1.096458,1.862685,0.523168,0.125111,-0.718067,-0.411948,-0.061919,-0.670796,0.541143,0.202563,1.391340,37.198528,22.540085,9.921751,0.386747,1.786300,0.087753,0.000000,0.000000,0.000000,0.000000,0.000000,0.000000
13228467.000000,2.313028,-1.134087,-1.934964,-1.489376,-1.097123,1.863201,0.523373,0.127707,-0.715515,-0.410047,-0.059277,-0.670703,0.532192,0.206257,1.268354,37.051739,22.488510,9.897947,0.344633,1.923629,0.087753,0.000000,0.000000,0.000000,0.000000,0.000000,0.000000
13228468.000000,2.313165,-1.134813,-1.935383,-1.489428,-1.097788,1.863722,0.523579,0.130704,-0.722844,-0.412720,-0.056249,-0.664725,0.533125,0.207760,1.093793,37.075542,22.540085,9.822569,0.291532,2.085677,0.061202,0.000000,0.000000,0.000000,0.000000,0.000000,0.000000
13228469.000000,2.313306,-1.135547,-1.935800,-1.489480,-1.098458,1.864242,0.523777,0.135419,-0.731119,-0.412744,-0.054851,-0.660054,0.520686,0.201633,0.947004,37.075542,22.540085,9.774961,0.195402,2.157089,0.094161,0.000000,0.000000,0.000000,0.000000,0.000000,0.000000
13228470.000000,2.313444,-1.136282,-1.936210,-1.489525,-1.099112,1.864859,0.524009,0.138104,-0.735027,-0.407669,-0.049300,-0.662543,0.552695,0.213562,0.824018,37.004131,22.464706,9.675779,0.129484,1.350509,-0.182328,0.000000,0.000000,0.000000,0.000000,0.000000,0.000000
13228471.000000,2.313585,-1.136994,-1.936635,-1.489583,-1.099945,1.866054,0.524158,0.140285,-0.727423,-0.411590,-0.050964,-0.714641,0.778058,0.190304,0.697065,36.734356,22.686874,9.822569,1.444181,-4.398088,0.318465,0.000000,0.000000,0.000000,0.000000,0.000000,0.000000
13228472.000000,2.313697,-1.137732,-1.937094,-1.489670,-1.100671,1.866773,0.524420,0.126807,-0.722810,-0.423149,-0.061855,-0.725324,0.769035,0.210655,1.093793,36.710552,23.297836,10.393858,1.809476,-5.203752,-0.215287,0.000000,0.000000,0.000000,0.000000,0.000000,0.000000
13228473.000000,2.313784,-1.138521,-1.937372,-1.489638,-1.101464,1.867415,0.524637,0.111150,-0.740862,-0.370555,-0.030124,-0.745935,0.729152,0.209231,1.764264,37.539715,21.337997,9.306822,2.538236,-4.547318,-0.353532,0.000000,0.000000,0.000000,0.000000,0.000000,0.000000
13228474.000000,2.313965,-1.139364,-1.937651,-1.489529,-1.102277,1.868431,0.524804,0.135692,-0.770138,-0.338325,0.022349,-0.767358,0.814241,0.193574,1.069990,38.983807,19.616196,7.180357,3.183683,-6.946916,0.034652,0.000000,0.000000,0.000000,0.000000,0.000000,0.000000
13228475.000000,2.314199,-1.140190,-1.937999,-1.489456,-1.102998,1.869236,0.524973,0.169314,-0.780613,-0.336177,0.040763,-0.755790,0.806599,0.191477,-0.366168,40.039104,18.929855,5.795775,2.956632,-6.848954,0.390792,0.000000,0.000000,0.000000,0.000000,0.000000,0.000000
13228476.000000,2.314280,-1.140976,-1.938146,-1.489371,-1.103785,1.870040,0.525266,0.139762,-0.780965,-0.269172,0.061444,-0.755224,0.793908,0.221872,0.427289,40.527081,15.692551,4.510375,3.082059,-6.381120,-0.419450,0.000000,0.000000,0.000000,0.000000,0.000000,0.000000
13228477.000000,2.314362,-1.141754,-1.938273,-1.489278,-1.104557,1.870780,0.525380,0.121554,-0.776488,-0.214991,0.073153,-0.761945,0.751448,0.184208,1.292158,40.602459,12.352097,3.371763,3.087553,-5.347489,0.431075,0.000000,0.000000,0.000000,0.000000,0.000000,0.000000
13228478.000000,2.314557,-1.142574,-1.938373,-1.489174,-1.105299,1.871562,0.525555,0.147681,-0.802353,-0.170491,0.086936,-0.740277,0.750400,0.179425,0.502668,41.213421,9.114792,2.308531,2.758878,-4.820146,0.635238,0.000000,0.000000,0.000000,0.000000,0.000000,0.000000
13228479.000000,2.314689,-1.143330,-1.938375,-1.489003,-1.106066,1.872281,0.525800,0.144157,-0.786339,-0.113430,0.114444,-0.739277,0.730945,0.202480,0.649457,41.042828,5.040390,0.507384,2.639860,-4.079484,0.114303,0.000000,0.000000,0.000000,0.000000,0.000000,0.000000
13228480.000000,2.314761,-1.144004,-1.938343,-1.488843,-1.106808,1.872809,0.525972,0.119011,-0.742175,-0.057362,0.131932,-0.742419,0.650360,0.187849,1.641279,39.622540,0.965988,-0.928774,2.490629,-1.913346,0.279098,0.000000,0.000000,0.000000,0.000000,0.000000,0.000000
13228481.000000,2.314854,-1.144617,-1.938298,-1.488736,-1.107442,1.873372,0.526156,0.108425,-0.697920,-0.024701,0.123823,-0.694786,0.612897,0.186132,2.232404,37.539715,-2.644242,-1.297731,1.402982,-0.645341,0.285506,0.000000,0.000000,0.000000,0.000000,0.000000,0.000000
13228482.000000,2.314921,-1.145174,-1.938222,-1.488592,-1.108134,1.873996,0.526353,0.094982,-0.648636,0.007166,0.127859,-0.700524,0.601574,0.185947,3.125043,34.651531,-6.079910,-2.015810,1.169523,-0.613297,0.186630,0.000000,0.000000,0.000000,0.000000,0.000000,0.000000
13228483.000000,2.314962,-1.145696,-1.938118,-1.488432,-1.108796,1.874606,0.526515,0.077538,-0.606369,0.039600,0.138901,-0.682132,0.599762,0.178167,4.339033,31.469769,-9.344986,-2.757692,0.859159,-1.028947,0.384383,0.000000,0.000000,0.000000,0.000000,0.000000,0.000000
13228484.000000,2.314982,-1.146173,-1.937962,-1.488307,-1.109478,1.875154,0.526706,0.055371,-0.559214,0.078366,0.134072,-0.677654,0.588381,0.178205,5.723615,28.165020,-12.804459,-2.781496,0.823453,-1.185502,0.305648,0.000000,0.000000,0.000000,0.000000,0.000000,0.000000
13228485.000000,2.314969,-1.146603,-1.937785,-1.488200,-1.110074,1.875648,0.526874,0.029337,-0.507622,0.108238,0.124988,-0.648007,0.562062,0.172487,7.433515,24.519085,-16.045731,-2.384767,0.327238,-1.230363,0.404525,0.000000,0.000000,0.000000,0.000000,0.000000,0.000000
13228486.000000,2.314954,-1.147010,-1.937578,-1.488084,-1.110645,1.876074,0.527057,0.015723,-0.469899,0.136159,0.123699,-0.620185,0.526931,0.173772,8.941083,21.043743,-19.235428,-2.091188,-0.276095,-0.801896,0.357833,0.000000,0.000000,0.000000,0.000000,0.000000,0.000000
13228487.000000,2.314949,-1.147391,-1.937387,-1.487947,-1.111153,1.876503,0.527256,0.008614,-0.438028,0.151989,0.122656,-0.575635,0.490569,0.182377,10.206647,17.616009,-21.786392,-2.063417,-1.190707,-0.658158,0.225997,0.000000,0.000000,0.000000,0.000000,0.000000,0.000000
13228488.000000,2.314936,-1.147741,-1.937188,-1.487803,-1.111618,1.877022,0.527418,0.001981,-0.408310,0.163047,0.126544,-0.533154,0.501895,0.177719,11.392865,14.188274,-24.119156,-2.214174,-2.284762,-1.425370,0.384383,0.000000,0.000000,0.000000,0.000000,0.000000,0.000000
13228489.000000,2.314941,-1.148033,-1.937024,-1.487678,-1.112074,1.877479,0.527598,0.002549,-0.366526,0.156924,0.123786,-0.499967,0.498711,0.175354,12.210126,10.443157,-25.761612,-2.138796,-3.186556,-1.659745,0.390792,0.000000,0.000000,0.000000,0.000000,0.000000,0.000000
13228490.000000,2.314926,-1.148281,-1.936876,-1.487549,-1.112492,1.877908,0.527788,-0.001975,-0.326388,0.145932,0.126870,-0.474521,0.478823,0.178505,13.201947,6.456036,-27.039078,-2.114992,-4.113070,-1.607560,0.324874,0.000000,0.000000,0.000000,0.000000,0.000000,0.000000
13228491.000000,2.314920,-1.148500,-1.936735,-1.487421,-1.112925,1.878365,0.527972,-0.003365,-0.289748,0.143353,0.130716,-0.461170,0.468627,0.182740,13.943830,2.635540,-28.193558,-2.162599,-4.633090,-1.679887,0.279098,0.000000,0.000000,0.000000,0.000000,0.000000,0.000000
13228492.000000,2.314940,-1.148694,-1.936621,-1.487331,-1.113356,1.878881,0.528144,0.004948,-0.254697,0.130850,0.116483,-0.453671,0.479066,0.179891,14.265180,-1.256367,-28.955276,-1.642885,-4.955355,-2.219132,0.384383,0.000000,0.000000,0.000000,0.000000,0.000000,0.000000
13228493.000000,2.314947,-1.148816,-1.936530,-1.487248,-1.113830,1.879366,0.528350,0.006502,-0.208753,0.113289,0.106802,-0.465175,0.478102,0.189752,14.733319,-5.588642,-29.419449,-1.099367,-4.764010,-2.303361,0.180221,0.000000,0.000000,0.000000,0.000000,0.000000,0.000000
13228494.000000,2.314964,-1.148895,-1.936467,-1.487173,-1.114297,1.879835,0.528534,0.012971,-0.169798,0.095849,0.096141,-0.469177,0.479731,0.185921,15.082440,-10.043903,-29.617813,-0.532045,-4.621188,-2.114762,0.252548,0.000000,0.000000,0.000000,0.000000,0.000000,0.000000
13228495.000000,2.315021,-1.148949,-1.936439,-1.487100,-1.114820,1.880317,0.528746,0.030458,-0.128481,0.069341,0.088243,-0.507930,0.473257,0.192183,14.860272,-14.352375,-29.443253,-0.087709,-4.059054,-1.984757,0.100570,0.000000,0.000000,0.000000,0.000000,0.000000,0.000000
13228496.000000,2.315101,-1.148997,-1.936440,-1.487000,-1.115407,1.880845,0.528947,0.046350,-0.109194,0.040043,0.091129,-0.539887,0.484473,0.192456,14.340558,-18.391071,-29.050491,-0.163088,-3.181063,-2.199906,0.048385,0.000000,0.000000,0.000000,0.000000,0.000000,0.000000
13228497.000000,2.315187,-1.149009,-1.936483,-1.486868,-1.115994,1.881383,0.529121,0.060670,-0.081239,0.011779,0.104716,-0.562640,0.505885,0.187754,13.769269,-22.405964,-28.316544,-0.778017,-2.637240,-2.426957,0.252548,0.000000,0.000000,0.000000,0.000000,0.000000,0.000000
13228498.000000,2.315293,-1.149031,-1.936547,-1.486741,-1.116599,1.881897,0.529334,0.077415,-0.061253,-0.014446,0.115173,-0.585022,0.507035,0.200015,13.027387,-25.805927,-27.554825,-1.349306,-2.314059,-2.349137,0.133529,0.000000,0.000000,0.000000,0.000000,0.000000,0.000000
13228499.000000,2.315413,-1.149054,-1.936615,-1.486596,-1.117203,1.882402,0.529521,0.093802,-0.056143,-0.034239,0.123744,-0.593696,0.506337,0.198204,12.210126,-28.892475,-26.991470,-2.114992,-2.325961,-2.134904,0.225997,0.000000,0.000000,0.000000,0.000000,0.000000,0.000000
13228500.000000,2.315548,-1.149110,-1.936678,-1.486434,-1.117824,1.882903,0.529729,0.106883,-0.057843,-0.042137,0.140205,-0.617047,0.507810,0.203254,11.317487,-31.264912,-26.721695,-3.055238,-2.493502,-1.952714,0.153671,0.000000,0.000000,0.000000,0.000000,0.000000,0.000000
13228501.000000,2.315673,-1.149198,-1.936760,-1.486246,-1.118441,1.883406,0.529927,0.113638,-0.069542,-0.055794,0.159946,-0.614641,0.505153,0.201961,10.674787,-32.954975,-26.400345,-4.213686,-2.911898,-1.751298,0.213180,0.000000,0.000000,0.000000,0.000000,0.000000,0.000000
13228502.000000,2.315808,-1.149308,-1.936843,-1.486060,-1.119101,1.883877,0.530136,0.121640,-0.090805,-0.062029,0.169128,-0.621702,0.490663,0.205099,10.032086,-34.129292,-26.253555,-5.177736,-3.138949,-1.244096,0.153671,0.000000,0.000000,0.000000,0.000000,0.000000,0.000000
13228503.000000,2.315943,-1.149458,-1.936944,-1.485866,-1.119745,1.884349,0.530335,0.124730,-0.117692,-0.073414,0.177034,-0.629116,0.482213,0.207074,9.512372,-34.815632,-26.106766,-6.094179,-3.449313,-0.983170,0.180221,0.000000,0.000000,0.000000,0.000000,0.000000,0.000000
13228504.000000,2.316077,-1.149643,-1.937061,-1.485660,-1.120394,1.884866,0.530525,0.129136,-0.143283,-0.088541,0.188419,-0.626412,0.500327,0.200804,9.064069,-35.033833,-25.959976,-7.058229,-3.724886,-1.165360,0.225997,0.000000,0.000000,0.000000,0.000000,0.000000,0.000000
13228505.000000,2.316225,-1.149865,-1.937185,-1.485434,-1.121069,1.885398,0.530722,0.134041,-0.171775,-0.098355,0.200901,-0.636800,0.504930,0.198879,8.544354,-34.863239,-25.884598,-8.069887,-3.867709,-1.562699,0.186630,0.000000,0.000000,0.000000,0.000000,0.000000,0.000000
13228506.000000,2.316371,-1.150122,-1.937318,-1.485215,-1.121722,1.885931,0.530897,0.141087,-0.205532,-0.106322,0.204121,-0.633432,0.514385,0.190823,8.151593,-34.323689,-25.912369,-8.811769,-3.999545,-1.933488,0.338607,0.000000,0.000000,0.000000,0.000000,0.000000,0.000000
13228507.000000,2.316513,-1.150422,-1.937436,-1.484992,-1.122391,1.886452,0.531111,0.140186,-0.242646,-0.108374,0.209785,-0.636850,0.517671,0.194108,7.901655,-33.442951,-26.277359,-9.383059,-4.094759,-2.036942,0.193038,0.000000,0.000000,0.000000,0.000000,0.000000,0.000000
13228508.000000,2.316652,-1.150764,-1.937551,-1.484771,-1.123038,1.886963,0.531287,0.141373,-0.276360,-0.108512,0.210780,-0.633667,0.510733,0.191074,7.754865,-32.320210,-26.868484,-9.775820,-4.220187,-2.147721,0.331283,0.000000,0.000000,0.000000,0.000000,0.000000,0.000000
13228509.000000,2.316799,-1.151140,-1.937653,-1.484552,-1.123697,1.887459,0.531461,0.144462,-0.316458,-0.103341,0.210082,-0.635287,0.501712,0.184680,7.481122,-30.947529,-27.725418,-10.097170,-4.387728,-1.978348,0.483260,0.000000,0.000000,0.000000,0.000000,0.000000,0.000000
13228510.000000,2.316949,-1.151571,-1.937752,-1.484332,-1.124338,1.887884,0.531645,0.142876,-0.355019,-0.100533,0.213839,-0.639039,0.472271,0.181147,7.258955,-29.356647,-28.733109,-10.295534,-4.621188,-1.237687,0.496993,0.000000,0.000000,0.000000,0.000000,0.000000,0.000000
13228511.000000,2.317087,-1.152025,-1.937821,-1.484130,-1.124967,1.888258,0.531784,0.140640,-0.384468,-0.086792,0.209860,-0.630133,0.435150,0.169065,7.235151,-27.789570,-30.133560,-10.148745,-4.895846,-0.066727,0.839401,0.000000,0.000000,0.000000,0.000000,0.000000,0.000000
13228512.000000,2.317211,-1.152497,-1.937882,-1.483948,-1.125633,1.888622,0.531966,0.133814,-0.416261,-0.077374,0.195685,-0.643672,0.400541,0.172978,7.457319,-26.321674,-31.581619,-9.775820,-4.824435,1.045638,0.767074,0.000000,0.000000,0.000000,0.000000,0.000000,0.000000
13228513.000000,2.317331,-1.153000,-1.937964,-1.483770,-1.126316,1.889031,0.532123,0.126522,-0.439485,-0.076644,0.186497,-0.668681,0.398886,0.167773,7.802473,-24.948994,-32.660721,-9.406862,-4.536959,1.305648,0.911727,0.000000,0.000000,0.000000,0.000000,0.000000,0.000000
13228514.000000,2.317450,-1.153517,-1.938055,-1.483619,-1.127057,1.889470,0.532265,0.122660,-0.463811,-0.081332,0.173902,-0.697722,0.408819,0.158572,8.123822,-23.850056,-33.517654,-8.764162,-3.814608,1.136276,1.070113,0.000000,0.000000,0.000000,0.000000,0.000000,0.000000
13228515.000000,2.317543,-1.154020,-1.938145,-1.483476,-1.127839,1.889884,0.532410,0.113057,-0.469627,-0.081908,0.159958,-0.720659,0.414642,0.153794,8.742719,-23.163715,-34.354752,-8.046083,-2.876193,1.031905,1.168990,0.000000,0.000000,0.000000,0.000000,0.000000,0.000000
13228516.000000,2.317626,-1.154551,-1.938225,-1.483337,-1.128626,1.890281,0.532545,0.103334,-0.485231,-0.076327,0.153640,-0.749417,0.410529,0.145341,9.488568,-22.528950,-35.287064,-7.502565,-2.081515,1.052047,1.280685,0.000000,0.000000,0.000000,0.000000,0.000000,0.000000
13228517.000000,2.317700,-1.155089,-1.938280,-1.483203,-1.129419,1.890678,0.532694,0.093919,-0.501549,-0.071589,0.146294,-0.754773,0.414494,0.147988,10.230451,-21.937824,-36.489151,-7.082033,-1.495577,1.064864,1.241317,0.000000,0.000000,0.000000,0.000000,0.000000,0.000000
13228518.000000,2.317782,-1.155614,-1.938326,-1.483071,-1.130207,1.891072,0.532831,0.090381,-0.501998,-0.063128,0.138741,-0.761658,0.407826,0.141950,10.873151,-21.866413,-37.814224,-6.736879,-1.274020,1.136276,1.313644,0.000000,0.000000,0.000000,0.000000,0.000000,0.000000
13228519.000000,2.317854,-1.156135,-1.938370,-1.482939,-1.130957,1.891472,0.532967,0.081585,-0.503941,-0.054879,0.132979,-0.759383,0.399306,0.137896,11.638837,-22.060810,-39.115494,-6.538515,-1.507479,1.155502,1.327377,0.000000,0.000000,0.000000,0.000000,0.000000,0.000000
13228520.000000,2.317917,-1.156639,-1.938408,-1.482788,-1.131704,1.891879,0.533112,0.074718,-0.504118,-0.050472,0.139805,-0.745124,0.411404,0.141756,12.432294,-22.501179,-40.365189,-6.685304,-1.883761,1.136276,1.294418,0.000000,0.000000,0.000000,0.000000,0.000000,0.000000
13228521.000000,2.317998,-1.157140,-1.938449,-1.482636,-1.132472,1.892314,0.533255,0.078004,-0.497554,-0.045461,0.145470,-0.744475,0.424179,0.144145,12.876630,-23.235126,-41.543472,-6.935243,-2.057711,0.915633,1.294418,0.000000,0.000000,0.000000,0.000000,0.000000,0.000000
13228522.000000,2.318076,-1.157606,-1.938505,-1.482476,-1.133247,1.892789,0.533403,0.076626,-0.484978,-0.050796,0.151359,-0.752031,0.436122,0.146182,13.324933,-24.413410,-42.475784,-7.403383,-2.134615,0.492660,1.288009,0.000000,0.000000,0.000000,0.000000,0.000000,0.000000
