chaoyuefei/paper-gmrm-data/robot_logs/s2_dq_mrm_max_0.30_log_20260314_172932.csv
# time_ms,q_0,q_1,q_2,q_3,q_4,q_5,q_6,dq_0,dq_1,dq_2,dq_3,dq_4,dq_5,dq_6,tau_J_0,tau_J_1,tau_J_2,tau_J_3,tau_J_4,tau_J_5,tau_J_6,O_dP_EE_c_0,O_dP_EE_c_1,O_dP_EE_c_2,O_dP_EE_c_3,O_dP_EE_c_4,O_dP_EE_c_5
12034632.000000,2.313467,-0.961784,-1.822718,-1.385864,-0.923953,1.666930,0.446167,0.000636,0.000370,0.000650,-0.000062,-0.000013,-0.000594,-0.001147,0.228925,35.484661,19.544785,12.171202,1.013883,1.416427,-0.122819,0.000000,0.000000,0.000000,0.000000,0.000000,0.000000
12034633.000000,2.313465,-0.961788,-1.822722,-1.385862,-0.923952,1.666931,0.446169,-0.000133,-0.000960,-0.000681,0.000516,0.000195,0.000113,-0.000019,0.252729,35.536236,19.592392,12.147398,1.008390,1.402694,-0.142960,0.000000,0.000000,0.000000,0.000000,0.000000,0.000000
12034634.000000,2.313465,-0.961783,-1.822720,-1.385862,-0.923956,1.666934,0.446171,-0.000088,0.001124,0.000103,0.000901,-0.000074,-0.000162,0.000462,0.252729,35.460857,19.568588,12.123594,1.013883,1.409103,-0.155778,0.000000,0.000000,0.000000,0.000000,0.000000,0.000000
12034635.000000,2.313463,-0.961784,-1.822722,-1.385864,-0.923957,1.666933,0.446166,-0.000616,0.000192,-0.000488,0.000044,-0.000049,0.000367,-0.001150,0.276533,35.484661,19.592392,12.147398,1.013883,1.396285,-0.116410,0.000000,0.000000,0.000000,0.000000,0.000000,0.000000
12034636.000000,2.313452,-0.961787,-1.822720,-1.385864,-0.923953,1.666933,0.446176,-0.012425,-0.009855,-0.009763,0.001933,-0.001213,0.000482,0.004532,-0.144000,34.972881,19.052841,12.198973,0.918668,1.389877,-0.142960,0.000000,0.000000,0.000000,0.000000,0.000000,0.000000
12034637.000000,2.313436,-0.961754,-1.822731,-1.385864,-0.923941,1.666934,0.446188,-0.032602,-0.009568,-0.024450,0.003484,0.002705,-0.001736,0.011003,-1.949114,32.743267,17.212021,12.246580,0.559781,1.318465,-0.116410,0.000000,0.000000,0.000000,0.000000,0.000000,0.000000
12034638.000000,2.313425,-0.961713,-1.822786,-1.385860,-0.923919,1.666917,0.446210,-0.032167,0.003225,-0.052132,0.002771,0.012655,-0.008174,0.014468,-5.416522,28.898968,14.391281,12.246580,-0.013339,1.370651,-0.044083,0.000000,0.000000,0.000000,0.000000,0.000000,0.000000
12034639.000000,2.313387,-0.961706,-1.822897,-1.385851,-0.923931,1.666899,0.446258,-0.027376,0.003592,-0.067862,0.000046,0.009959,-0.010712,0.025756,-9.427447,24.713482,11.102402,12.072020,-0.342013,1.494247,-0.097184,0.000000,0.000000,0.000000,0.000000,0.000000,0.000000
12034640.000000,2.313313,-0.961758,-1.823039,-1.385840,-0.923996,1.666904,0.446310,-0.032571,-0.006722,-0.081779,0.003582,-0.013495,0.001747,0.038435,-13.140826,21.238140,7.638962,11.778440,-0.216586,1.494247,-0.031266,0.000000,0.000000,0.000000,0.000000,0.000000,0.000000
12034641.000000,2.313215,-0.961855,-1.823188,-1.385854,-0.924076,1.666952,0.446384,-0.041619,-0.025839,-0.089389,-0.006961,-0.038697,0.016092,0.050635,-16.457476,18.326153,4.326279,11.750669,0.004056,1.227828,-0.031266,0.000000,0.000000,0.000000,0.000000,0.000000,0.000000
12034642.000000,2.313110,-0.961975,-1.823351,-1.385869,-0.924176,1.667057,0.446473,-0.044924,-0.045728,-0.097094,-0.014007,-0.056794,0.049303,0.061594,-18.905291,16.171917,1.699936,11.429319,0.249418,0.589706,0.021835,0.000000,0.000000,0.000000,0.000000,0.000000,0.000000
12034643.000000,2.313010,-0.962129,-1.823508,-1.385899,-0.924285,1.667207,0.446584,-0.047102,-0.076168,-0.102066,-0.023498,-0.073055,0.087338,0.076188,-20.119280,15.021404,-0.140885,10.739012,0.458158,-0.196732,0.021835,0.000000,0.000000,0.000000,0.000000,0.000000,0.000000
12034644.000000,2.312933,-0.962304,-1.823641,-1.385954,-0.924394,1.667370,0.446708,-0.049769,-0.103342,-0.104710,-0.037765,-0.083229,0.114217,0.091472,-20.341448,14.581036,-1.291397,9.774961,0.494779,-0.729569,0.015426,0.000000,0.000000,0.000000,0.000000,0.000000,0.000000
12034645.000000,2.312877,-0.962484,-1.823760,-1.386029,-0.924508,1.667526,0.446851,-0.050005,-0.127583,-0.106244,-0.050737,-0.094545,0.132775,0.109447,-19.797930,14.581036,-1.807144,8.441954,0.405057,-0.840348,-0.031266,0.000000,0.000000,0.000000,0.000000,0.000000,0.000000
12034646.000000,2.312824,-0.962640,-1.823861,-1.386117,-0.924610,1.667693,0.446990,-0.054719,-0.138949,-0.103801,-0.060493,-0.094446,0.142106,0.121147,-18.611712,14.434246,-1.957901,6.783629,0.058073,-0.561112,-0.037675,0.000000,0.000000,0.000000,0.000000,0.000000,0.000000
12034647.000000,2.312772,-0.962764,-1.823964,-1.386248,-0.924709,1.667879,0.447131,-0.063042,-0.136461,-0.106076,-0.080814,-0.090026,0.161389,0.123102,-17.048601,14.017681,-1.684158,5.327635,-0.455538,-0.203141,0.001693,0.000000,0.000000,0.000000,0.000000,0.000000,0.000000
12034648.000000,2.312710,-0.962851,-1.824059,-1.386423,-0.924831,1.668113,0.447291,-0.070965,-0.123170,-0.105572,-0.105167,-0.100572,0.179594,0.139103,-15.267291,13.136944,-1.390579,4.264403,-0.826327,0.004684,-0.089860,0.000000,0.000000,0.000000,0.000000,0.000000,0.000000
12034649.000000,2.312624,-0.962907,-1.824162,-1.386635,-0.924987,1.668372,0.447450,-0.087545,-0.102634,-0.113240,-0.139495,-0.118087,0.199783,0.147127,-13.188434,11.792034,-0.950211,3.669310,-0.981967,0.174056,-0.089860,0.000000,0.000000,0.000000,0.000000,0.000000,0.000000
12034650.000000,2.312520,-0.962945,-1.824279,-1.386880,-0.925185,1.668648,0.447604,-0.099281,-0.082577,-0.119723,-0.172083,-0.143157,0.225254,0.145849,-11.034198,10.320171,-0.410660,3.347960,-0.838229,0.336105,-0.017533,0.000000,0.000000,0.000000,0.000000,0.000000,0.000000
12034651.000000,2.312392,-0.962989,-1.824404,-1.387148,-0.925425,1.668962,0.447773,-0.113398,-0.068504,-0.125064,-0.201087,-0.175021,0.252438,0.155097,-8.709369,8.999065,0.057480,3.272581,-0.407931,0.401107,-0.077042,0.000000,0.000000,0.000000,0.000000,0.000000,0.000000
12034652.000000,2.312245,-0.963040,-1.824536,-1.387434,-0.925686,1.669308,0.447930,-0.128909,-0.063931,-0.128661,-0.227723,-0.198821,0.285684,0.151411,-6.380572,7.923931,0.398666,3.470946,0.076383,0.381881,0.001693,0.000000,0.000000,0.000000,0.000000,0.000000,0.000000
12034653.000000,2.312099,-0.963111,-1.824674,-1.387740,-0.925952,1.669670,0.448099,-0.138932,-0.066813,-0.132504,-0.253377,-0.223192,0.311313,0.156505,-4.349322,7.237591,0.668442,3.720885,0.434354,0.316879,0.015426,0.000000,0.000000,0.000000,0.000000,0.000000,0.000000
12034654.000000,2.311948,-0.963194,-1.824810,-1.388039,-0.926191,1.670071,0.448271,-0.144590,-0.073814,-0.137217,-0.272281,-0.232624,0.340790,0.166022,-2.520403,6.797222,0.743820,3.792296,0.470060,0.212508,-0.017533,0.000000,0.000000,0.000000,0.000000,0.000000,0.000000
12034655.000000,2.311822,-0.963309,-1.824950,-1.388331,-0.926423,1.670469,0.448440,-0.135970,-0.088112,-0.131955,-0.280701,-0.228903,0.357077,0.166157,-1.131854,6.920208,0.843002,3.546324,0.213712,0.271102,0.009017,0.000000,0.000000,0.000000,0.000000,0.000000,0.000000
12034656.000000,2.311716,-0.963462,-1.825093,-1.388618,-0.926644,1.670872,0.448618,-0.124416,-0.108275,-0.134955,-0.279971,-0.222139,0.371279,0.166405,0.006757,7.800945,1.235763,3.002806,-0.043551,0.538436,-0.044083,0.000000,0.000000,0.000000,0.000000,0.000000,0.000000
12034657.000000,2.311608,-0.963643,-1.825229,-1.388892,-0.926868,1.671304,0.448793,-0.120031,-0.132733,-0.130502,-0.274566,-0.217743,0.386757,0.167639,1.268354,9.320415,1.874496,2.336302,-0.276095,0.824081,-0.037675,0.000000,0.000000,0.000000,0.000000,0.000000,0.000000
12034658.000000,2.311506,-0.963824,-1.825365,-1.389180,-0.927087,1.671773,0.448967,-0.111024,-0.150252,-0.130504,-0.277192,-0.209520,0.411472,0.167796,2.529951,10.935101,2.830612,1.665831,-0.461947,0.895492,-0.017533,0.000000,0.000000,0.000000,0.000000,0.000000,0.000000
12034659.000000,2.311403,-0.964001,-1.825499,-1.389480,-0.927323,1.672296,0.449139,-0.108889,-0.161354,-0.132868,-0.282598,-0.216472,0.448712,0.172565,3.843122,12.426800,3.933517,1.098509,-0.431735,0.694076,0.001693,0.000000,0.000000,0.000000,0.000000,0.000000,0.000000
12034660.000000,2.311305,-0.964156,-1.825636,-1.389797,-0.927575,1.672850,0.449317,-0.106641,-0.163983,-0.137860,-0.298556,-0.224815,0.482318,0.173572,4.981733,13.454327,5.087997,0.753355,-0.300814,0.349838,-0.044083,0.000000,0.000000,0.000000,0.000000,0.000000,0.000000
12034661.000000,2.311212,-0.964298,-1.825766,-1.390127,-0.927833,1.673405,0.449489,-0.104150,-0.161254,-0.138869,-0.305964,-0.233484,0.502390,0.173283,5.945783,14.017681,6.020309,0.408202,-0.079257,0.096236,-0.037675,0.000000,0.000000,0.000000,0.000000,0.000000,0.000000
12034662.000000,2.311115,-0.964419,-1.825894,-1.390469,-0.928098,1.673946,0.449650,-0.104103,-0.147837,-0.136810,-0.313534,-0.239084,0.510697,0.169501,6.814619,14.041485,6.706650,0.257445,0.147794,0.141097,0.041976,0.000000,0.000000,0.000000,0.000000,0.000000,0.000000
12034663.000000,2.311036,-0.964529,-1.826033,-1.390827,-0.928361,1.674465,0.449831,-0.093539,-0.137096,-0.140661,-0.326705,-0.249221,0.508416,0.177631,7.334333,13.700298,7.345383,0.035277,0.327238,0.304061,-0.044083,0.000000,0.000000,0.000000,0.000000,0.000000,0.000000
12034664.000000,2.310966,-0.964633,-1.826164,-1.391200,-0.928620,1.674999,0.450002,-0.084882,-0.123039,-0.139271,-0.335480,-0.252654,0.511766,0.174741,7.655683,13.037762,7.638962,-0.087709,0.398649,0.440475,-0.004716,0.000000,0.000000,0.000000,0.000000,0.000000,0.000000
12034665.000000,2.310912,-0.964735,-1.826306,-1.391575,-0.928875,1.675522,0.450177,-0.072545,-0.111756,-0.141169,-0.349584,-0.255356,0.520066,0.172827,7.679487,12.256207,7.884933,-0.262270,0.303434,0.518295,0.009017,0.000000,0.000000,0.000000,0.000000,0.000000,0.000000
12034666.000000,2.310860,-0.964861,-1.826457,-1.391962,-0.929130,1.676050,0.450359,-0.066262,-0.113011,-0.142131,-0.356760,-0.256633,0.521711,0.174402,7.631879,11.692852,8.083298,-0.409059,0.135892,0.551253,-0.031266,0.000000,0.000000,0.000000,0.000000,0.000000,0.000000
12034667.000000,2.310817,-0.965007,-1.826611,-1.392342,-0.929385,1.676570,0.450528,-0.055452,-0.120285,-0.144939,-0.361939,-0.252870,0.515863,0.176838,7.405744,11.375469,8.206284,-0.778017,0.027860,0.629073,0.009017,0.000000,0.000000,0.000000,0.000000,0.000000,0.000000
12034668.000000,2.310786,-0.965170,-1.826783,-1.392736,-0.929647,1.677068,0.450708,-0.047808,-0.135143,-0.150475,-0.366199,-0.256055,0.516505,0.176331,7.036787,11.323895,8.476059,-1.099367,0.027860,0.727035,-0.023942,0.000000,0.000000,0.000000,0.000000,0.000000,0.000000
12034669.000000,2.310756,-0.965376,-1.826950,-1.393135,-0.929922,1.677587,0.450874,-0.043547,-0.156131,-0.158603,-0.369451,-0.265434,0.516617,0.171012,6.540876,11.740459,8.670456,-1.420717,0.135892,0.687667,0.021835,0.000000,0.000000,0.000000,0.000000,0.000000,0.000000
12034670.000000,2.310719,-0.965597,-1.827122,-1.393516,-0.930212,1.678106,0.451049,-0.044090,-0.178368,-0.161592,-0.364918,-0.266404,0.515858,0.171578,5.898176,12.379192,8.817245,-1.496095,0.231107,0.557662,-0.004716,0.000000,0.000000,0.000000,0.000000,0.000000,0.000000
12034671.000000,2.310675,-0.965840,-1.827291,-1.393901,-0.930503,1.678630,0.451226,-0.044711,-0.198337,-0.161449,-0.366493,-0.270867,0.524683,0.172134,5.104719,13.307537,8.845016,-1.198549,0.344633,0.401107,-0.017533,0.000000,0.000000,0.000000,0.000000,0.000000,0.000000
12034672.000000,2.310624,-0.966098,-1.827454,-1.394278,-0.930783,1.679153,0.451398,-0.047572,-0.213851,-0.160244,-0.366913,-0.275090,0.523646,0.174879,4.116865,14.458050,8.817245,-0.508241,0.386747,0.291244,0.021835,0.000000,0.000000,0.000000,0.000000,0.000000,0.000000
12034673.000000,2.310571,-0.966367,-1.827616,-1.394646,-0.931062,1.679671,0.451576,-0.048581,-0.230429,-0.155557,-0.368049,-0.277202,0.526207,0.179592,3.025861,15.878338,8.892624,0.408202,0.410551,0.239059,-0.011124,0.000000,0.000000,0.000000,0.000000,0.000000,0.000000
12034674.000000,2.310502,-0.966642,-1.827772,-1.395025,-0.931344,1.680188,0.451743,-0.052798,-0.242047,-0.153167,-0.368409,-0.282422,0.521623,0.176765,2.184797,17.469219,9.162399,1.665831,0.422452,0.369064,0.015426,0.000000,0.000000,0.000000,0.000000,0.000000,0.000000
12034675.000000,2.310418,-0.966917,-1.827917,-1.395401,-0.931619,1.680700,0.451917,-0.059868,-0.251286,-0.149605,-0.373069,-0.276326,0.517910,0.175603,1.641279,19.258465,9.479782,3.149595,0.327238,0.524703,-0.004716,0.000000,0.000000,0.000000,0.000000,0.000000,0.000000
12034676.000000,2.310319,-0.967179,-1.828055,-1.395790,-0.931882,1.681217,0.452079,-0.072041,-0.255628,-0.143142,-0.382403,-0.268646,0.516569,0.172344,1.415143,20.996136,9.924118,4.831725,0.171598,0.648299,0.054794,0.000000,0.000000,0.000000,0.000000,0.000000,0.000000
12034677.000000,2.310219,-0.967429,-1.828191,-1.396196,-0.932133,1.681739,0.452248,-0.079714,-0.253990,-0.140309,-0.393473,-0.261632,0.511121,0.172741,1.292158,22.559246,10.463669,6.585265,0.034269,0.733443,0.048385,0.000000,0.000000,0.000000,0.000000,0.000000,0.000000
12034678.000000,2.310116,-0.967668,-1.828330,-1.396611,-0.932398,1.682253,0.452421,-0.089483,-0.251483,-0.142416,-0.403861,-0.254733,0.510407,0.172619,1.244550,23.931927,11.078598,8.215818,-0.019747,0.901900,0.028243,0.000000,0.000000,0.000000,0.000000,0.000000,0.000000
12034679.000000,2.310012,-0.967914,-1.828475,-1.397032,-0.932666,1.682748,0.452595,-0.094140,-0.249286,-0.144846,-0.411757,-0.262476,0.500390,0.171169,1.244550,25.153851,11.741135,9.628172,-0.001437,1.201278,0.041976,0.000000,0.000000,0.000000,0.000000,0.000000,0.000000
12034680.000000,2.309902,-0.968170,-1.828619,-1.397453,-0.932935,1.683232,0.452765,-0.098353,-0.252950,-0.147656,-0.415689,-0.265489,0.496695,0.170620,1.315961,26.304363,12.328293,10.786619,0.069974,1.539108,0.048385,0.000000,0.000000,0.000000,0.000000,0.000000,0.000000
12034681.000000,2.309796,-0.968430,-1.828786,-1.397876,-0.933208,1.683723,0.452935,-0.101021,-0.257113,-0.156307,-0.416271,-0.264054,0.491339,0.166499,1.391340,27.359661,13.090012,11.679258,0.183500,1.702071,0.061202,0.000000,0.000000,0.000000,0.000000,0.000000,0.000000
12034682.000000,2.309683,-0.968704,-1.828956,-1.398307,-0.933464,1.684222,0.453113,-0.104656,-0.260142,-0.165195,-0.421056,-0.258808,0.493203,0.170105,1.542096,28.410992,13.823959,12.345762,0.219205,1.676437,0.009017,0.000000,0.000000,0.000000,0.000000,0.000000,0.000000
12034683.000000,2.309572,-0.968993,-1.829131,-1.398718,-0.933730,1.684718,0.453277,-0.109702,-0.273741,-0.168449,-0.419981,-0.258980,0.504136,0.163493,1.665082,29.513897,14.415085,12.619505,0.213712,1.578475,0.061202,0.000000,0.000000,0.000000,0.000000,0.000000,0.000000
12034684.000000,2.309451,-0.969297,-1.829315,-1.399134,-0.933996,1.685207,0.453446,-0.113388,-0.282844,-0.176001,-0.413856,-0.264049,0.498254,0.161793,1.934858,30.565228,14.954636,12.643309,0.166105,1.532699,0.048385,0.000000,0.000000,0.000000,0.000000,0.000000,0.000000
12034685.000000,2.309333,-0.969629,-1.829503,-1.399529,-0.934261,1.685675,0.453619,-0.114496,-0.297088,-0.183427,-0.406257,-0.261692,0.488788,0.165122,2.160993,31.791119,15.422775,12.421141,0.159696,1.597701,0.034652,0.000000,0.000000,0.000000,0.000000,0.000000,0.000000
12034686.000000,2.309213,-0.969949,-1.829703,-1.399933,-0.934528,1.686134,0.453785,-0.119306,-0.305444,-0.188079,-0.399368,-0.261043,0.481084,0.163999,2.454572,32.790874,15.863144,12.099791,0.147794,1.702071,0.087753,0.000000,0.000000,0.000000,0.000000,0.000000,0.000000
12034687.000000,2.309086,-0.970278,-1.829901,-1.400335,-0.934789,1.686612,0.453959,-0.120355,-0.310447,-0.192647,-0.393831,-0.264782,0.475724,0.168870,2.752119,33.624004,16.232101,11.726866,0.117582,1.662704,0.015426,0.000000,0.000000,0.000000,0.000000,0.000000,0.000000
12034688.000000,2.308956,-0.970592,-1.830109,-1.400733,-0.935063,1.687107,0.454122,-0.121506,-0.315842,-0.194150,-0.392606,-0.265054,0.485136,0.163014,3.073469,34.139751,16.601059,11.429319,0.064481,1.539108,0.054794,0.000000,0.000000,0.000000,0.000000,0.000000,0.000000
12034689.000000,2.308832,-0.970899,-1.830327,-1.401131,-0.935345,1.687581,0.454287,-0.120551,-0.313747,-0.199885,-0.389531,-0.270791,0.483816,0.160194,3.323408,34.409527,17.017624,11.183348,0.058073,1.474105,0.074935,0.000000,0.000000,0.000000,0.000000,0.000000,0.000000
12034690.000000,2.308712,-0.971209,-1.830561,-1.401507,-0.935629,1.688045,0.454456,-0.118175,-0.305764,-0.209646,-0.382271,-0.273070,0.478327,0.164440,3.497968,34.504742,17.533371,10.814390,0.159696,1.513473,0.041976,0.000000,0.000000,0.000000,0.000000,0.000000,0.000000
12034691.000000,2.308591,-0.971503,-1.830804,-1.401881,-0.935909,1.688504,0.454622,-0.119097,-0.297809,-0.217961,-0.380872,-0.272970,0.472185,0.162567,3.644758,34.457134,18.120529,10.465269,0.249418,1.637069,0.015426,0.000000,0.000000,0.000000,0.000000,0.000000,0.000000
12034692.000000,2.308478,-0.971790,-1.831046,-1.402261,-0.936194,1.688972,0.454783,-0.114319,-0.292461,-0.231755,-0.378347,-0.277383,0.470522,0.163124,3.692365,34.286541,18.660080,10.219297,0.339139,1.695663,0.067611,0.000000,0.000000,0.000000,0.000000,0.000000,0.000000
12034693.000000,2.308371,-0.972065,-1.831289,-1.402644,-0.936479,1.689449,0.454955,-0.112449,-0.285518,-0.238389,-0.380404,-0.277569,0.475219,0.164655,3.668561,33.869976,19.128220,10.243101,0.381254,1.702071,0.081344,0.000000,0.000000,0.000000,0.000000,0.000000,0.000000
12034694.000000,2.308265,-0.972340,-1.831550,-1.403020,-0.936763,1.689922,0.455133,-0.111887,-0.278241,-0.241458,-0.381407,-0.283425,0.475950,0.164828,3.668561,33.647808,19.667770,10.143919,0.374845,1.662704,0.009017,0.000000,0.000000,0.000000,0.000000,0.000000,0.000000
12034695.000000,2.308158,-0.972638,-1.831801,-1.403392,-0.937041,1.690386,0.455295,-0.110734,-0.284203,-0.244329,-0.376295,-0.276304,0.473531,0.164670,3.620954,33.647808,20.084335,10.048704,0.351041,1.682845,0.061202,0.000000,0.000000,0.000000,0.000000,0.000000,0.000000
12034696.000000,2.308052,-0.972932,-1.832063,-1.403766,-0.937334,1.690837,0.455470,-0.107249,-0.287186,-0.249019,-0.376337,-0.280578,0.467473,0.166846,3.597150,33.699383,20.477097,9.997129,0.422452,1.844894,0.028243,0.000000,0.000000,0.000000,0.000000,0.000000,0.000000
12034697.000000,2.307953,-0.973234,-1.832327,-1.404140,-0.937630,1.691289,0.455642,-0.106224,-0.289111,-0.251805,-0.372306,-0.288525,0.463761,0.165761,3.497968,33.893780,20.822250,9.949522,0.470060,2.001449,0.001693,0.000000,0.000000,0.000000,0.000000,0.000000,0.000000
12034698.000000,2.307862,-0.973541,-1.832594,-1.404510,-0.937916,1.691753,0.455803,-0.100332,-0.295825,-0.255144,-0.372298,-0.286642,0.466358,0.165528,3.299604,34.064373,21.215012,9.874144,0.476469,2.020675,0.034652,0.000000,0.000000,0.000000,0.000000,0.000000,0.000000
12034699.000000,2.307773,-0.973845,-1.832854,-1.404887,-0.938209,1.692221,0.455975,-0.096806,-0.300887,-0.255722,-0.372904,-0.282022,0.467762,0.171598,3.125043,34.238934,21.409409,9.822569,0.535978,1.916305,0.015426,0.000000,0.000000,0.000000,0.000000,0.000000,0.000000
12034700.000000,2.307687,-0.974151,-1.833113,-1.405275,-0.938487,1.692694,0.456136,-0.094523,-0.302653,-0.257680,-0.379093,-0.283669,0.463380,0.165722,2.950483,34.357952,21.631577,9.897947,0.506681,1.786300,0.061202,0.000000,0.000000,0.000000,0.000000,0.000000,0.000000
12034701.000000,2.307612,-0.974456,-1.833381,-1.405653,-0.938781,1.693153,0.456305,-0.087418,-0.299733,-0.258902,-0.377195,-0.286017,0.465290,0.163115,2.680707,34.409527,21.825974,9.949522,0.500272,1.793624,0.041976,0.000000,0.000000,0.000000,0.000000,0.000000,0.000000
12034702.000000,2.307545,-0.974770,-1.833639,-1.406039,-0.939079,1.693609,0.456474,-0.079731,-0.299927,-0.256600,-0.378262,-0.293027,0.462633,0.165601,2.307783,34.556316,21.877548,10.020933,0.566190,1.916305,0.028243,0.000000,0.000000,0.000000,0.000000,0.000000,0.000000
12034703.000000,2.307484,-0.975089,-1.833889,-1.406420,-0.939362,1.694070,0.456632,-0.073257,-0.306613,-0.250275,-0.387390,-0.287559,0.457661,0.165789,1.887250,34.726910,21.849777,10.120115,0.547880,1.988631,0.054794,0.000000,0.000000,0.000000,0.000000,0.000000,0.000000
12034704.000000,2.307429,-0.975398,-1.834149,-1.406809,-0.939644,1.694537,0.456796,-0.067689,-0.308448,-0.249067,-0.387729,-0.282757,0.456311,0.166082,1.442914,34.750713,21.849777,10.243101,0.506681,2.014266,0.067611,0.000000,0.000000,0.000000,0.000000,0.000000,0.000000
12034705.000000,2.307377,-0.975697,-1.834395,-1.407209,-0.939934,1.695008,0.456959,-0.062526,-0.302021,-0.249213,-0.389418,-0.287003,0.451084,0.164470,1.046186,34.603924,21.778366,10.441465,0.506681,2.007858,0.048385,0.000000,0.000000,0.000000,0.000000,0.000000,0.000000
12034706.000000,2.307331,-0.975999,-1.834645,-1.407609,-0.940231,1.695487,0.457125,-0.057617,-0.308464,-0.248751,-0.392274,-0.284862,0.463325,0.166645,0.601850,34.433331,21.754562,10.715208,0.488370,1.955673,0.015426,0.000000,0.000000,0.000000,0.000000,0.000000,0.000000
12034707.000000,2.307289,-0.976314,-1.834891,-1.408014,-0.940527,1.695962,0.457286,-0.053835,-0.310108,-0.249974,-0.394678,-0.286503,0.471491,0.166169,0.153547,34.433331,21.655380,10.913572,0.506681,1.916305,0.061202,0.000000,0.000000,0.000000,0.000000,0.000000,0.000000
12034708.000000,2.307250,-0.976618,-1.835131,-1.408418,-0.940819,1.696430,0.457457,-0.048546,-0.306563,-0.245540,-0.396153,-0.286890,0.462967,0.164573,-0.266986,34.385723,21.580002,11.084166,0.554288,1.988631,0.028243,0.000000,0.000000,0.000000,0.000000,0.000000,0.000000
12034709.000000,2.307219,-0.976922,-1.835369,-1.408829,-0.941114,1.696899,0.457619,-0.043596,-0.304167,-0.243244,-0.402193,-0.294132,0.463105,0.165128,-0.735125,34.334148,21.433212,11.306334,0.535978,2.047225,0.048385,0.000000,0.000000,0.000000,0.000000,0.000000,0.000000
12034710.000000,2.307190,-0.977241,-1.835603,-1.409235,-0.941411,1.697378,0.457789,-0.040973,-0.306570,-0.237337,-0.401059,-0.296001,0.467184,0.167112,-1.159625,34.480938,21.215012,11.457090,0.535978,2.007858,0.041976,0.000000,0.000000,0.000000,0.000000,0.000000,0.000000
12034711.000000,2.307159,-0.977565,-1.835826,-1.409647,-0.941708,1.697855,0.457959,-0.037194,-0.314857,-0.233089,-0.405147,-0.294890,0.470845,0.172380,-1.528582,34.627728,20.992844,11.655455,0.535978,1.936446,0.028243,0.000000,0.000000,0.000000,0.000000,0.000000,0.000000
12034712.000000,2.307130,-0.977895,-1.836045,-1.410055,-0.941996,1.698327,0.458128,-0.036235,-0.320915,-0.226633,-0.405482,-0.297280,0.472133,0.171168,-1.826129,34.921307,20.770676,11.750669,0.506681,1.909896,0.048385,0.000000,0.000000,0.000000,0.000000,0.000000,0.000000
12034713.000000,2.307100,-0.978232,-1.836253,-1.410471,-0.942291,1.698798,0.458293,-0.032295,-0.324174,-0.219238,-0.403376,-0.302038,0.462224,0.167851,-2.099871,35.314068,20.552475,11.849852,0.512174,1.897079,0.028243,0.000000,0.000000,0.000000,0.000000,0.000000,0.000000
12034714.000000,2.307080,-0.978573,-1.836461,-1.410878,-0.942592,1.699266,0.458459,-0.030242,-0.328506,-0.213447,-0.405654,-0.302479,0.465119,0.166634,-2.468829,35.655254,20.330307,11.976805,0.524076,1.884261,0.061202,0.000000,0.000000,0.000000,0.000000,0.000000,0.000000
12034715.000000,2.307058,-0.978923,-1.836663,-1.411288,-0.942895,1.699742,0.458635,-0.030430,-0.335551,-0.209287,-0.405290,-0.303863,0.464732,0.168719,-2.766375,36.048016,20.108139,12.048216,0.535978,1.812850,0.041976,0.000000,0.000000,0.000000,0.000000,0.000000,0.000000
12034716.000000,2.307024,-0.979280,-1.836865,-1.411696,-0.943176,1.700215,0.458802,-0.031426,-0.343392,-0.208548,-0.404608,-0.291861,0.468057,0.168898,-2.889361,36.416973,19.985153,12.198973,0.494779,1.754256,0.048385,0.000000,0.000000,0.000000,0.000000,0.000000,0.000000
12034717.000000,2.306998,-0.979627,-1.837066,-1.412114,-0.943461,1.700686,0.458966,-0.033359,-0.342386,-0.206964,-0.403814,-0.291933,0.465032,0.167480,-3.087725,36.635174,19.838364,12.345762,0.446256,1.727706,0.100570,0.000000,0.000000,0.000000,0.000000,0.000000,0.000000
12034718.000000,2.306965,-0.979977,-1.837264,-1.412538,-0.943749,1.701162,0.459139,-0.031004,-0.344766,-0.205996,-0.403937,-0.287197,0.465520,0.171216,-3.163104,36.881145,19.691574,12.667112,0.416959,1.735030,0.034652,0.000000,0.000000,0.000000,0.000000,0.000000,0.000000
12034719.000000,2.306934,-0.980331,-1.837462,-1.412946,-0.944036,1.701637,0.459310,-0.032179,-0.344522,-0.204506,-0.404962,-0.282821,0.474556,0.170626,-3.238482,37.127117,19.643967,12.766294,0.393156,1.786300,0.028243,0.000000,0.000000,0.000000,0.000000,0.000000,0.000000
12034720.000000,2.306900,-0.980683,-1.837662,-1.413357,-0.944320,1.702102,0.459479,-0.033865,-0.345850,-0.203689,-0.404776,-0.283523,0.472272,0.166449,-3.262286,37.297710,19.616196,12.865477,0.356534,1.838485,0.028243,0.000000,0.000000,0.000000,0.000000,0.000000,0.000000
12034721.000000,2.306860,-0.981040,-1.837854,-1.413775,-0.944602,1.702574,0.459641,-0.037088,-0.349697,-0.202307,-0.409774,-0.288856,0.466817,0.163268,-3.186907,37.468304,19.568588,13.111448,0.369352,1.851302,0.048385,0.000000,0.000000,0.000000,0.000000,0.000000,0.000000
12034722.000000,2.306812,-0.981383,-1.838052,-1.414187,-0.944888,1.703042,0.459817,-0.043690,-0.346767,-0.200680,-0.407807,-0.289054,0.462971,0.165269,-3.040118,37.492107,19.520981,13.286009,0.315336,1.871444,0.028243,0.000000,0.000000,0.000000,0.000000,0.000000,0.000000
12034723.000000,2.306771,-0.981736,-1.838252,-1.414602,-0.945177,1.703525,0.459984,-0.044035,-0.347540,-0.204339,-0.411140,-0.287266,0.466922,0.168489,-2.964739,37.686504,19.568588,13.408995,0.339139,1.819259,0.074935,0.000000,0.000000,0.000000,0.000000,0.000000,0.000000
12034724.000000,2.306716,-0.982093,-1.838461,-1.415007,-0.945468,1.704005,0.460161,-0.048165,-0.357781,-0.208837,-0.408327,-0.285331,0.474234,0.169865,-2.718768,37.932476,19.667770,13.555784,0.374845,1.773483,0.041976,0.000000,0.000000,0.000000,0.000000,0.000000,0.000000
12034725.000000,2.306660,-0.982454,-1.838668,-1.415415,-0.945747,1.704471,0.460333,-0.053461,-0.355727,-0.207799,-0.406550,-0.289824,0.471766,0.170238,-2.492632,38.226055,19.715378,13.607359,0.356534,1.825668,0.041976,0.000000,0.000000,0.000000,0.000000,0.000000,0.000000
12034726.000000,2.306598,-0.982822,-1.838872,-1.415812,-0.946033,1.704933,0.460496,-0.054870,-0.358736,-0.209428,-0.405676,-0.293313,0.465585,0.168417,-2.222857,38.472027,19.739182,13.631163,0.362943,1.844894,0.100570,0.000000,0.000000,0.000000,0.000000,0.000000,0.000000
12034727.000000,2.306531,-0.983183,-1.839084,-1.416209,-0.946330,1.705402,0.460673,-0.060004,-0.358826,-0.206511,-0.403617,-0.292029,0.470356,0.171698,-1.901507,38.741802,19.862167,13.583555,0.398649,1.773483,0.028243,0.000000,0.000000,0.000000,0.000000,0.000000,0.000000
12034728.000000,2.306467,-0.983554,-1.839301,-1.416601,-0.946611,1.705874,0.460838,-0.059109,-0.365244,-0.215191,-0.396234,-0.292858,0.471139,0.169622,-1.651568,39.035381,20.036728,13.456602,0.351041,1.760665,0.081344,0.000000,0.000000,0.000000,0.000000,0.000000,0.000000
12034729.000000,2.306394,-0.983930,-1.839510,-1.416989,-0.946896,1.706336,0.461007,-0.062821,-0.370607,-0.213451,-0.398223,-0.289088,0.466063,0.170294,-1.330218,39.328960,20.131943,13.333616,0.327238,1.773483,0.074935,0.000000,0.000000,0.000000,0.000000,0.000000,0.000000
12034730.000000,2.306327,-0.984296,-1.839730,-1.417371,-0.947192,1.706790,0.461182,-0.067803,-0.369412,-0.213377,-0.391421,-0.297137,0.464367,0.171213,-1.060443,39.547161,20.306503,13.111448,0.315336,1.865035,0.048385,0.000000,0.000000,0.000000,0.000000,0.000000,0.000000
12034731.000000,2.306254,-0.984678,-1.839951,-1.417753,-0.947486,1.707251,0.461343,-0.071967,-0.371430,-0.214483,-0.389471,-0.296163,0.460814,0.166453,-0.762896,39.793133,20.524704,12.865477,0.291532,1.871444,0.061202,0.000000,0.000000,0.000000,0.000000,0.000000,0.000000
12034732.000000,2.306172,-0.985037,-1.840176,-1.418128,-0.947790,1.707712,0.461513,-0.073494,-0.363655,-0.214601,-0.388874,-0.294490,0.467499,0.168352,-0.389971,39.868511,20.723068,12.667112,0.327238,1.779891,0.021835,0.000000,0.000000,0.000000,0.000000,0.000000,0.000000
12034733.000000,2.306094,-0.985397,-1.840415,-1.418504,-0.948082,1.708178,0.461671,-0.076039,-0.362590,-0.224210,-0.387524,-0.291653,0.464786,0.163437,-0.092425,39.868511,21.064255,12.444944,0.320829,1.760665,0.074935,0.000000,0.000000,0.000000,0.000000,0.000000,0.000000
12034734.000000,2.305999,-0.985756,-1.840652,-1.418872,-0.948385,1.708644,0.461834,-0.081782,-0.359529,-0.229008,-0.381731,-0.292713,0.461037,0.161692,0.375715,39.892315,21.310226,12.246580,0.339139,1.779891,0.054794,0.000000,0.000000,0.000000,0.000000,0.000000,0.000000
12034735.000000,2.305910,-0.986102,-1.840885,-1.419239,-0.948702,1.709104,0.461997,-0.083667,-0.358018,-0.231398,-0.377775,-0.296929,0.467834,0.160870,0.748639,39.793133,21.532394,12.072020,0.410551,1.800033,0.015426,0.000000,0.000000,0.000000,0.000000,0.000000,0.000000
12034736.000000,2.305818,-0.986454,-1.841125,-1.419606,-0.949010,1.709568,0.462158,-0.084375,-0.355396,-0.236097,-0.371636,-0.297470,0.463182,0.163200,1.093793,39.793133,21.849777,11.901426,0.446256,1.806442,0.021835,0.000000,0.000000,0.000000,0.000000,0.000000,0.000000
12034737.000000,2.305724,-0.986791,-1.841362,-1.419963,-0.949313,1.710018,0.462320,-0.085041,-0.348720,-0.237250,-0.370738,-0.290044,0.458453,0.158956,1.442914,39.693951,22.071945,11.750669,0.416959,1.877853,0.054794,0.000000,0.000000,0.000000,0.000000,0.000000,0.000000
12034738.000000,2.305629,-0.987124,-1.841612,-1.420323,-0.949621,1.710469,0.462482,-0.087981,-0.340978,-0.239696,-0.364852,-0.301392,0.450727,0.157414,1.764264,39.451946,22.365524,11.556273,0.381254,1.930038,0.067611,0.000000,0.000000,0.000000,0.000000,0.000000,0.000000
12034739.000000,2.305541,-0.987463,-1.841856,-1.420673,-0.949937,1.710927,0.462651,-0.087777,-0.335117,-0.244294,-0.367264,-0.306686,0.450650,0.162783,1.986432,39.328960,22.635300,11.429319,0.386747,1.936446,0.021835,0.000000,0.000000,0.000000,0.000000,0.000000,0.000000
12034740.000000,2.305451,-0.987799,-1.842107,-1.421020,-0.950254,1.711382,0.462810,-0.089676,-0.332702,-0.243429,-0.360717,-0.305626,0.452491,0.161521,2.160993,39.158367,22.881271,11.135740,0.422452,1.916305,0.087753,0.000000,0.000000,0.000000,0.000000,0.000000,0.000000
12034741.000000,2.305360,-0.988137,-1.842357,-1.421365,-0.950555,1.711832,0.462975,-0.088688,-0.329786,-0.248205,-0.353718,-0.302581,0.446343,0.160568,2.331586,38.983807,23.127243,10.885801,0.410551,1.962081,0.081344,0.000000,0.000000,0.000000,0.000000,0.000000,0.000000
12034742.000000,2.305274,-0.988464,-1.842616,-1.421700,-0.950879,1.712279,0.463140,-0.086949,-0.338173,-0.250535,-0.350560,-0.307473,0.447716,0.159144,2.454572,38.765606,23.397018,10.564451,0.488370,1.981307,0.061202,0.000000,0.000000,0.000000,0.000000,0.000000,0.000000
12034743.000000,2.305191,-0.988799,-1.842863,-1.422038,-0.951208,1.712727,0.463304,-0.084860,-0.334752,-0.243522,-0.343857,-0.318384,0.448878,0.162788,2.529951,38.571209,23.567612,10.342283,0.554288,1.995040,0.054794,0.000000,0.000000,0.000000,0.000000,0.000000,0.000000
12034744.000000,2.305111,-0.989133,-1.843111,-1.422370,-0.951529,1.713183,0.463479,-0.082601,-0.332503,-0.245777,-0.343637,-0.320888,0.449627,0.166856,2.581525,38.396648,23.765976,10.171690,0.608304,1.974899,0.001693,0.000000,0.000000,0.000000,0.000000,0.000000,0.000000
12034745.000000,2.305027,-0.989472,-1.843365,-1.422699,-0.951843,1.713632,0.463642,-0.081690,-0.332993,-0.245786,-0.338060,-0.320738,0.447035,0.164986,2.652936,38.301434,23.912766,9.921751,0.613798,1.942855,0.054794,0.000000,0.000000,0.000000,0.000000,0.000000,0.000000
12034746.000000,2.304953,-0.989797,-1.843616,-1.423039,-0.952165,1.714092,0.463810,-0.078508,-0.327468,-0.245029,-0.332359,-0.320854,0.447935,0.162381,2.605329,38.103069,24.011948,9.897947,0.620206,1.955673,0.054794,0.000000,0.000000,0.000000,0.000000,0.000000,0.000000
12034747.000000,2.304871,-0.990131,-1.843861,-1.423365,-0.952489,1.714551,0.463975,-0.081568,-0.329356,-0.244000,-0.332365,-0.318761,0.450154,0.165429,2.652936,38.007854,24.083359,9.774961,0.584501,1.936446,0.021835,0.000000,0.000000,0.000000,0.000000,0.000000,0.000000
12034748.000000,2.304799,-0.990461,-1.844115,-1.423701,-0.952811,1.714997,0.464139,-0.078541,-0.328363,-0.243800,-0.332424,-0.320355,0.450322,0.161636,2.605329,37.956280,24.182541,9.798765,0.578092,1.949264,0.034652,0.000000,0.000000,0.000000,0.000000,0.000000,0.000000
12034749.000000,2.304726,-0.990783,-1.844356,-1.424039,-0.953127,1.715450,0.464300,-0.076306,-0.327384,-0.239811,-0.333414,-0.323829,0.448324,0.163984,2.553754,37.809490,24.234116,9.874144,0.578092,2.001449,0.034652,0.000000,0.000000,0.000000,0.000000,0.000000,0.000000
12034750.000000,2.304656,-0.991102,-1.844592,-1.424373,-0.953455,1.715903,0.464465,-0.077620,-0.326636,-0.234417,-0.334893,-0.320029,0.456394,0.164926,2.482343,37.615093,24.182541,9.997129,0.566190,2.001449,0.034652,0.000000,0.000000,0.000000,0.000000,0.000000,0.000000
12034751.000000,2.304590,-0.991420,-1.844822,-1.424717,-0.953773,1.716365,0.464637,-0.075353,-0.318025,-0.232885,-0.335034,-0.316208,0.460605,0.168124,2.406965,37.468304,24.083359,10.243101,0.578092,1.995040,-0.004716,0.000000,0.000000,0.000000,0.000000,0.000000,0.000000
12034752.000000,2.304526,-0.991741,-1.845058,-1.425061,-0.954095,1.716820,0.464796,-0.069460,-0.317072,-0.232547,-0.337278,-0.313940,0.457957,0.162875,2.283979,37.297710,24.134933,10.441465,0.620206,2.014266,0.034652,0.000000,0.000000,0.000000,0.000000,0.000000,0.000000
12034753.000000,2.304469,-0.992049,-1.845288,-1.425408,-0.954417,1.717259,0.464965,-0.063853,-0.315455,-0.228292,-0.339269,-0.315547,0.448282,0.160974,2.109418,37.075542,24.059555,10.663633,0.644010,1.995040,0.015426,0.000000,0.000000,0.000000,0.000000,0.000000,0.000000
12034754.000000,2.304412,-0.992365,-1.845506,-1.425751,-0.954741,1.717701,0.465124,-0.058287,-0.314710,-0.223693,-0.341259,-0.321512,0.446119,0.160993,1.986432,36.904949,23.888962,10.786619,0.649503,2.060043,0.061202,0.000000,0.000000,0.000000,0.000000,0.000000,0.000000
12034755.000000,2.304361,-0.992683,-1.845728,-1.426100,-0.955065,1.718141,0.465299,-0.055642,-0.315339,-0.223701,-0.345370,-0.318868,0.446205,0.164669,1.788068,36.758160,23.718369,11.012754,0.661405,2.118636,0.015426,0.000000,0.000000,0.000000,0.000000,0.000000,0.000000
12034756.000000,2.304317,-0.993004,-1.845945,-1.426445,-0.955382,1.718575,0.465466,-0.052507,-0.315590,-0.218113,-0.345548,-0.323196,0.443374,0.161203,1.542096,36.734356,23.567612,11.159544,0.596403,2.118636,0.034652,0.000000,0.000000,0.000000,0.000000,0.000000,0.000000
12034757.000000,2.304262,-0.993324,-1.846144,-1.426793,-0.955690,1.719021,0.465624,-0.049776,-0.316096,-0.211583,-0.353553,-0.325838,0.447170,0.161771,1.415143,36.611370,23.297836,11.282530,0.554288,2.079269,0.087753,0.000000,0.000000,0.000000,0.000000,0.000000,0.000000
12034758.000000,2.304215,-0.993647,-1.846343,-1.427148,-0.956009,1.719453,0.465799,-0.049656,-0.316358,-0.206376,-0.353955,-0.321724,0.445458,0.166169,1.244550,36.611370,23.028061,11.480894,0.500272,2.047225,0.015426,0.000000,0.000000,0.000000,0.000000,0.000000,0.000000
12034759.000000,2.304173,-0.993972,-1.846540,-1.427506,-0.956322,1.719885,0.465966,-0.048653,-0.319150,-0.207398,-0.357006,-0.320377,0.443316,0.165468,1.022382,36.635174,22.734482,11.679258,0.476469,2.033492,0.054794,0.000000,0.000000,0.000000,0.000000,0.000000,0.000000
12034760.000000,2.304129,-0.994308,-1.846733,-1.427858,-0.956642,1.720320,0.466137,-0.046097,-0.320344,-0.204416,-0.355908,-0.319309,0.439395,0.168241,0.847822,36.734356,22.488510,11.849852,0.506681,2.079269,0.001693,0.000000,0.000000,0.000000,0.000000,0.000000,0.000000
12034761.000000,2.304093,-0.994633,-1.846928,-1.428217,-0.956964,1.720757,0.466300,-0.043413,-0.318889,-0.198349,-0.359477,-0.325082,0.439068,0.167879,0.649457,36.857342,22.218735,12.099791,0.524076,2.060043,0.034652,0.000000,0.000000,0.000000,0.000000,0.000000,0.000000
12034762.000000,2.304054,-0.994964,-1.847118,-1.428578,-0.957282,1.721206,0.466460,-0.042197,-0.322539,-0.198602,-0.362726,-0.318245,0.443996,0.167204,0.474897,36.952557,22.000534,12.345762,0.530485,1.995040,0.074935,0.000000,0.000000,0.000000,0.000000,0.000000,0.000000
12034763.000000,2.304026,-0.995282,-1.847307,-1.428939,-0.957601,1.721647,0.466637,-0.038420,-0.318896,-0.194532,-0.360897,-0.315053,0.441983,0.169965,0.177350,36.904949,21.754562,12.567930,0.554288,1.974899,0.009017,0.000000,0.000000,0.000000,0.000000,0.000000,0.000000
12034764.000000,2.303990,-0.995610,-1.847493,-1.429311,-0.957908,1.722090,0.466796,-0.039589,-0.321475,-0.192483,-0.363741,-0.310948,0.441263,0.163748,0.030561,36.952557,21.532394,12.865477,0.524076,1.942855,0.067611,0.000000,0.000000,0.000000,0.000000,0.000000,0.000000
12034765.000000,2.303955,-0.995935,-1.847670,-1.429668,-0.958218,1.722539,0.466962,-0.036947,-0.320633,-0.187080,-0.363031,-0.311656,0.444694,0.165817,-0.116229,36.857342,21.286423,13.012266,0.488370,1.930038,0.074935,0.000000,0.000000,0.000000,0.000000,0.000000,0.000000
12034766.000000,2.303926,-0.996258,-1.847846,-1.430039,-0.958536,1.722977,0.467137,-0.033511,-0.316625,-0.182603,-0.366295,-0.307226,0.445203,0.167861,-0.314593,36.881145,21.040451,13.186827,0.476469,1.974899,0.041976,0.000000,0.000000,0.000000,0.000000,0.000000,0.000000
12034767.000000,2.303893,-0.996567,-1.848020,-1.430421,-0.958842,1.723422,0.467310,-0.033533,-0.311421,-0.180369,-0.367982,-0.303003,0.435835,0.173374,-0.413775,36.587566,20.822250,13.456602,0.434354,2.001449,0.001693,0.000000,0.000000,0.000000,0.000000,0.000000,0.000000
12034768.000000,2.303861,-0.996881,-1.848198,-1.430790,-0.959149,1.723869,0.467473,-0.033372,-0.312352,-0.175927,-0.370015,-0.301411,0.447515,0.168969,-0.512957,36.440777,20.623886,13.631163,0.398649,1.995040,0.074935,0.000000,0.000000,0.000000,0.000000,0.000000,0.000000
12034769.000000,2.303822,-0.997195,-1.848370,-1.431172,-0.959469,1.724313,0.467645,-0.036577,-0.312751,-0.174544,-0.371362,-0.307471,0.444401,0.170715,-0.465350,36.270184,20.377914,13.829527,0.416959,1.988631,0.048385,0.000000,0.000000,0.000000,0.000000,0.000000,0.000000
12034770.000000,2.303793,-0.997515,-1.848546,-1.431544,-0.959783,1.724752,0.467815,-0.035103,-0.309065,-0.173440,-0.379300,-0.306304,0.440500,0.171359,-0.564532,36.071819,20.254929,13.976316,0.422452,2.007858,0.028243,0.000000,0.000000,0.000000,0.000000,0.000000,0.000000
12034771.000000,2.303765,-0.997828,-1.848717,-1.431919,-0.960098,1.725192,0.467977,-0.030600,-0.303424,-0.173303,-0.376288,-0.309221,0.437532,0.165249,-0.663714,36.000408,20.060532,14.051695,0.446256,2.053634,0.054794,0.000000,0.000000,0.000000,0.000000,0.000000,0.000000
12034772.000000,2.303721,-0.998146,-1.848895,-1.432294,-0.960410,1.725643,0.468140,-0.034927,-0.304826,-0.170775,-0.375060,-0.306751,0.437179,0.166925,-0.564532,35.948833,20.008957,14.150877,0.470060,2.027084,0.028243,0.000000,0.000000,0.000000,0.000000,0.000000,0.000000
12034773.000000,2.303688,-0.998460,-1.849069,-1.432663,-0.960721,1.726101,0.468305,-0.034405,-0.311486,-0.168662,-0.376083,-0.308767,0.449717,0.165985,-0.612139,35.925030,19.961349,14.198484,0.386747,1.930038,0.061202,0.000000,0.000000,0.000000,0.000000,0.000000,0.000000
12034774.000000,2.303650,-0.998782,-1.849237,-1.433032,-0.961039,1.726553,0.468477,-0.035381,-0.314156,-0.168215,-0.369020,-0.306509,0.448829,0.164196,-0.612139,36.000408,19.838364,14.198484,0.369352,1.844894,0.028243,0.000000,0.000000,0.000000,0.000000,0.000000,0.000000
12034775.000000,2.303616,-0.999101,-1.849407,-1.433388,-0.961361,1.726992,0.468634,-0.032391,-0.312894,-0.169661,-0.374486,-0.305652,0.442962,0.155801,-0.635943,35.948833,19.790756,14.051695,0.374845,1.871444,0.067611,0.000000,0.000000,0.000000,0.000000,0.000000,0.000000
12034776.000000,2.303581,-0.999422,-1.849579,-1.433743,-0.961675,1.727415,0.468802,-0.033596,-0.312545,-0.172036,-0.368650,-0.308213,0.440820,0.156536,-0.635943,36.048016,19.691574,13.904905,0.339139,2.001449,0.015426,0.000000,0.000000,0.000000,0.000000,0.000000,0.000000
12034777.000000,2.303544,-0.999741,-1.849754,-1.434096,-0.962004,1.727859,0.468967,-0.031936,-0.315762,-0.175789,-0.364149,-0.316401,0.438371,0.160913,-0.612139,36.071819,19.691574,13.754148,0.356534,2.027084,-0.004716,0.000000,0.000000,0.000000,0.000000,0.000000,0.000000
12034778.000000,2.303509,-1.000043,-1.849925,-1.434442,-0.962333,1.728310,0.469118,-0.033875,-0.310119,-0.170698,-0.358147,-0.318238,0.435524,0.155590,-0.588336,35.829815,19.592392,13.607359,0.386747,1.955673,0.074935,0.000000,0.000000,0.000000,0.000000,0.000000,0.000000
12034779.000000,2.303471,-1.000349,-1.850109,-1.434790,-0.962655,1.728761,0.469284,-0.036103,-0.306790,-0.170757,-0.354441,-0.319148,0.443141,0.162203,-0.540728,35.631451,19.667770,13.508177,0.381254,1.871444,0.015426,0.000000,0.000000,0.000000,0.000000,0.000000,0.000000
12034780.000000,2.303429,-1.000660,-1.850282,-1.435139,-0.962974,1.729211,0.469440,-0.038863,-0.308671,-0.173985,-0.350837,-0.317299,0.442754,0.162574,-0.441546,35.361675,19.616196,13.357420,0.386747,1.793624,0.061202,0.000000,0.000000,0.000000,0.000000,0.000000,0.000000
12034781.000000,2.303385,-1.000968,-1.850464,-1.435472,-0.963313,1.729646,0.469607,-0.038173,-0.305828,-0.174993,-0.344798,-0.319717,0.440743,0.164381,-0.314593,35.143475,19.643967,13.186827,0.434354,1.786300,0.048385,0.000000,0.000000,0.000000,0.000000,0.000000,0.000000
12034782.000000,2.303347,-1.001278,-1.850639,-1.435806,-0.963645,1.730083,0.469775,-0.035658,-0.308404,-0.174690,-0.341489,-0.321268,0.440924,0.161937,-0.266986,34.996685,19.616196,12.964659,0.470060,1.858627,0.041976,0.000000,0.000000,0.000000,0.000000,0.000000,0.000000
12034783.000000,2.303303,-1.001593,-1.850810,-1.436129,-0.963978,1.730528,0.469937,-0.035516,-0.309341,-0.173889,-0.337101,-0.321368,0.439184,0.164063,-0.144000,34.798321,19.568588,12.742491,0.494779,1.865035,0.061202,0.000000,0.000000,0.000000,0.000000,0.000000,0.000000
12034784.000000,2.303259,-1.001908,-1.850989,-1.436458,-0.964299,1.730964,0.470105,-0.038728,-0.310588,-0.174640,-0.336496,-0.326772,0.442908,0.161524,-0.017047,34.750713,19.592392,12.643309,0.381254,1.871444,0.048385,0.000000,0.000000,0.000000,0.000000,0.000000,0.000000
12034785.000000,2.303218,-1.002225,-1.851166,-1.436780,-0.964636,1.731410,0.470269,-0.039209,-0.307786,-0.177115,-0.331291,-0.328456,0.441294,0.163009,0.030561,34.603924,19.544785,12.468748,0.344633,1.838485,0.048385,0.000000,0.000000,0.000000,0.000000,0.000000,0.000000
12034786.000000,2.303179,-1.002537,-1.851348,-1.437086,-0.964979,1.731847,0.470438,-0.035816,-0.307022,-0.176310,-0.323104,-0.331560,0.448243,0.164858,0.054365,34.480938,19.520981,12.246580,0.362943,1.793624,0.028243,0.000000,0.000000,0.000000,0.000000,0.000000,0.000000
12034787.000000,2.303141,-1.002848,-1.851538,-1.437392,-0.965315,1.732282,0.470599,-0.036434,-0.312955,-0.181040,-0.315294,-0.329112,0.443619,0.165163,0.078168,34.357952,19.592392,11.976805,0.356534,1.819259,0.061202,0.000000,0.000000,0.000000,0.000000,0.000000,0.000000
12034788.000000,2.303102,-1.003172,-1.851718,-1.437687,-0.965658,1.732722,0.470773,-0.033720,-0.313905,-0.181576,-0.314925,-0.332793,0.443294,0.169038,0.105939,34.357952,19.544785,11.726866,0.386747,1.877853,-0.004716,0.000000,0.000000,0.000000,0.000000,0.000000,0.000000
12034789.000000,2.303064,-1.003480,-1.851907,-1.437986,-0.966012,1.733164,0.470937,-0.034795,-0.309242,-0.182987,-0.308547,-0.338072,0.443299,0.163327,0.129743,34.262737,19.544785,11.528502,0.482877,1.825668,0.021835,0.000000,0.000000,0.000000,0.000000,0.000000,0.000000
12034790.000000,2.303025,-1.003809,-1.852098,-1.438285,-0.966342,1.733630,0.471102,-0.035587,-0.315141,-0.186180,-0.304064,-0.333238,0.449877,0.163375,0.153547,34.334148,19.616196,11.357908,0.470060,1.702071,0.048385,0.000000,0.000000,0.000000,0.000000,0.000000,0.000000
12034791.000000,2.302983,-1.004121,-1.852275,-1.438578,-0.966680,1.734090,0.471266,-0.037891,-0.317231,-0.184259,-0.299610,-0.334048,0.448485,0.160463,0.228925,34.238934,19.520981,11.258726,0.476469,1.624252,0.048385,0.000000,0.000000,0.000000,0.000000,0.000000,0.000000
12034792.000000,2.302946,-1.004442,-1.852455,-1.438872,-0.967016,1.734528,0.471434,-0.037783,-0.317172,-0.183506,-0.299594,-0.334340,0.444246,0.163202,0.228925,34.262737,19.445602,11.207151,0.446256,1.624252,0.041976,0.000000,0.000000,0.000000,0.000000,0.000000,0.000000
12034793.000000,2.302912,-1.004765,-1.852643,-1.439157,-0.967357,1.734972,0.471598,-0.037149,-0.317619,-0.183575,-0.292489,-0.334674,0.445823,0.162051,0.205121,34.187359,19.520981,11.107969,0.422452,1.735030,0.009017,0.000000,0.000000,0.000000,0.000000,0.000000,0.000000
12034794.000000,2.302881,-1.005073,-1.852821,-1.439433,-0.967698,1.735411,0.471755,-0.035452,-0.312973,-0.181494,-0.285214,-0.335971,0.445636,0.157074,0.129743,34.016766,19.397995,10.937376,0.422452,1.800033,0.061202,0.000000,0.000000,0.000000,0.000000,0.000000,0.000000
12034795.000000,2.302852,-1.005401,-1.853001,-1.439717,-0.968034,1.735862,0.471928,-0.034276,-0.317462,-0.184366,-0.286626,-0.344675,0.449466,0.161694,0.054365,33.941387,19.346420,10.814390,0.374845,1.754256,0.028243,0.000000,0.000000,0.000000,0.000000,0.000000,0.000000
12034796.000000,2.302823,-1.005721,-1.853188,-1.440004,-0.968378,1.736321,0.472097,-0.032923,-0.312987,-0.185536,-0.285522,-0.340971,0.452802,0.163760,-0.044818,33.770794,19.346420,10.838194,0.320829,1.689254,0.021835,0.000000,0.000000,0.000000,0.000000,0.000000,0.000000
12034797.000000,2.302794,-1.006043,-1.853372,-1.440286,-0.968729,1.736765,0.472263,-0.033519,-0.316888,-0.182575,-0.284418,-0.348001,0.445282,0.164129,-0.092425,33.770794,19.322617,10.861998,0.393156,1.637069,0.067611,0.000000,0.000000,0.000000,0.000000,0.000000,0.000000
12034798.000000,2.302767,-1.006367,-1.853558,-1.440563,-0.969068,1.737201,0.472435,-0.029777,-0.320029,-0.184131,-0.281260,-0.341004,0.441174,0.167080,-0.167803,33.675579,19.322617,10.786619,0.422452,1.643478,0.034652,0.000000,0.000000,0.000000,0.000000,0.000000,0.000000
12034799.000000,2.302747,-1.006694,-1.853741,-1.440841,-0.969421,1.737634,0.472611,-0.024930,-0.319544,-0.180311,-0.281362,-0.341435,0.443033,0.167418,-0.342364,33.699383,19.251205,10.814390,0.440763,1.676437,0.028243,0.000000,0.000000,0.000000,0.000000,0.000000,0.000000
12034800.000000,2.302724,-1.007034,-1.853921,-1.441105,-0.969773,1.738066,0.472786,-0.023062,-0.326215,-0.181443,-0.273082,-0.344741,0.434764,0.168854,-0.441546,33.770794,19.199631,10.663633,0.542386,1.714889,0.009017,0.000000,0.000000,0.000000,0.000000,0.000000,0.000000
12034801.000000,2.302707,-1.007381,-1.854105,-1.441377,-0.970107,1.738501,0.472950,-0.020402,-0.330154,-0.184716,-0.276165,-0.338117,0.435228,0.163489,-0.612139,33.941387,19.251205,10.592222,0.482877,1.695663,0.054794,0.000000,0.000000,0.000000,0.000000,0.000000,0.000000
12034802.000000,2.302679,-1.007709,-1.854286,-1.441653,-0.970446,1.738938,0.473130,-0.018514,-0.330919,-0.183524,-0.273069,-0.338432,0.434935,0.166271,-0.635943,34.016766,19.175827,10.564451,0.410551,1.572067,0.015426,0.000000,0.000000,0.000000,0.000000,0.000000,0.000000
12034803.000000,2.302667,-1.008049,-1.854468,-1.441923,-0.970787,1.739363,0.473298,-0.016104,-0.336583,-0.183964,-0.270202,-0.335104,0.430039,0.168930,-0.834307,34.088177,19.128220,10.516844,0.369352,1.539108,0.061202,0.000000,0.000000,0.000000,0.000000,0.000000,0.000000
12034804.000000,2.302651,-1.008380,-1.854653,-1.442189,-0.971130,1.739788,0.473479,-0.015617,-0.334398,-0.182203,-0.269310,-0.332993,0.435270,0.170404,-0.985064,34.115948,19.128220,10.393858,0.351041,1.597701,0.015426,0.000000,0.000000,0.000000,0.000000,0.000000,0.000000
12034805.000000,2.302633,-1.008722,-1.854832,-1.442463,-0.971467,1.740203,0.473652,-0.017081,-0.335934,-0.180848,-0.266530,-0.335618,0.427955,0.170140,-1.060443,34.139751,19.005234,10.318480,0.362943,1.662704,0.021835,0.000000,0.000000,0.000000,0.000000,0.000000,0.000000
12034806.000000,2.302619,-1.009063,-1.855015,-1.442731,-0.971817,1.740626,0.473817,-0.014190,-0.333258,-0.181989,-0.273074,-0.342951,0.423772,0.172716,-1.159625,34.139751,18.953659,10.270872,0.405057,1.676437,0.067611,0.000000,0.000000,0.000000,0.000000,0.000000,0.000000
12034807.000000,2.302599,-1.009395,-1.855209,-1.443012,-0.972162,1.741053,0.473995,-0.016911,-0.333870,-0.183379,-0.273825,-0.337686,0.427917,0.169458,-1.183428,34.115948,18.953659,10.243101,0.434354,1.643478,0.009017,0.000000,0.000000,0.000000,0.000000,0.000000,0.000000
12034808.000000,2.302584,-1.009740,-1.855395,-1.443305,-0.972503,1.741484,0.474157,-0.017814,-0.334722,-0.186848,-0.277525,-0.334265,0.421667,0.166325,-1.254840,34.139751,18.953659,10.370054,0.464567,1.591293,0.074935,0.000000,0.000000,0.000000,0.000000,0.000000,0.000000
12034809.000000,2.302567,-1.010081,-1.855579,-1.443575,-0.972843,1.741911,0.474329,-0.019487,-0.344498,-0.186780,-0.275732,-0.331286,0.421084,0.168550,-1.282611,34.211163,18.929855,10.294676,0.434354,1.559249,0.034652,0.000000,0.000000,0.000000,0.000000,0.000000,0.000000
12034810.000000,2.302552,-1.010437,-1.855765,-1.443853,-0.973184,1.742334,0.474504,-0.019648,-0.346224,-0.183364,-0.277094,-0.332388,0.423182,0.173265,-1.354022,34.357952,18.906052,10.219297,0.410551,1.578475,0.028243,0.000000,0.000000,0.000000,0.000000,0.000000,0.000000
12034811.000000,2.302537,-1.010796,-1.855953,-1.444133,-0.973533,1.742759,0.474674,-0.016930,-0.346055,-0.188497,-0.280668,-0.333454,0.422333,0.167303,-1.405596,34.580120,18.929855,10.219297,0.440763,1.643478,0.054794,0.000000,0.000000,0.000000,0.000000,0.000000,0.000000
12034812.000000,2.302521,-1.011149,-1.856142,-1.444416,-0.973868,1.743187,0.474852,-0.018272,-0.347701,-0.188135,-0.279797,-0.327252,0.426228,0.168771,-1.453204,34.750713,18.929855,10.219297,0.351041,1.624252,0.015426,0.000000,0.000000,0.000000,0.000000,0.000000,0.000000
12034813.000000,2.302502,-1.011507,-1.856333,-1.444706,-0.974209,1.743625,0.475021,-0.020914,-0.347490,-0.188320,-0.279451,-0.333081,0.430110,0.168025,-1.429400,34.897503,18.929855,10.243101,0.291532,1.578475,0.048385,0.000000,0.000000,0.000000,0.000000,0.000000,0.000000
12034814.000000,2.302481,-1.011861,-1.856521,-1.444987,-0.974563,1.744061,0.475193,-0.023265,-0.350613,-0.188299,-0.279540,-0.333732,0.428796,0.169351,-1.381793,35.020489,18.929855,10.270872,0.332731,1.513473,0.021835,0.000000,0.000000,0.000000,0.000000,0.000000,0.000000
12034815.000000,2.302458,-1.012233,-1.856716,-1.445271,-0.974915,1.744480,0.475356,-0.025570,-0.357909,-0.192749,-0.279891,-0.342745,0.425789,0.167977,-1.306414,35.361675,19.005234,10.318480,0.374845,1.494247,0.067611,0.000000,0.000000,0.000000,0.000000,0.000000,0.000000
12034816.000000,2.302428,-1.012589,-1.856912,-1.445563,-0.975259,1.744905,0.475528,-0.029439,-0.352338,-0.193764,-0.281173,-0.347210,0.420273,0.173164,-1.131854,35.536236,19.104416,10.417662,0.393156,1.546432,0.034652,0.000000,0.000000,0.000000,0.000000,0.000000,0.000000
12034817.000000,2.302402,-1.012941,-1.857106,-1.445842,-0.975618,1.745328,0.475697,-0.030297,-0.352720,-0.193556,-0.279997,-0.348417,0.418763,0.171118,-1.032672,35.607647,19.175827,10.417662,0.440763,1.552840,0.048385,0.000000,0.000000,0.000000,0.000000,0.000000,0.000000
12034818.000000,2.302374,-1.013295,-1.857302,-1.446124,-0.975970,1.745756,0.475872,-0.031452,-0.351052,-0.193750,-0.281640,-0.347522,0.419393,0.172093,-0.909686,35.583843,19.251205,10.417662,0.476469,1.513473,0.021835,0.000000,0.000000,0.000000,0.000000,0.000000,0.000000
12034819.000000,2.302344,-1.013655,-1.857496,-1.446413,-0.976312,1.746180,0.476034,-0.032183,-0.353843,-0.194514,-0.285205,-0.343393,0.417678,0.167616,-0.786700,35.583843,19.346420,10.493040,0.440763,1.526290,0.034652,0.000000,0.000000,0.000000,0.000000,0.000000,0.000000
12034820.000000,2.302314,-1.014005,-1.857687,-1.446699,-0.976663,1.746592,0.476199,-0.033382,-0.349594,-0.191588,-0.282812,-0.348678,0.411108,0.167428,-0.635943,35.437054,19.322617,10.493040,0.398649,1.565658,0.041976,0.000000,0.000000,0.000000,0.000000,0.000000,0.000000
12034821.000000,2.302282,-1.014350,-1.857887,-1.446981,-0.977010,1.747001,0.476367,-0.034347,-0.345218,-0.193904,-0.283084,-0.343011,0.413675,0.168783,-0.489153,35.266460,19.469406,10.441465,0.362943,1.630660,0.001693,0.000000,0.000000,0.000000,0.000000,0.000000,0.000000
12034822.000000,2.302245,-1.014701,-1.858086,-1.447266,-0.977364,1.747424,0.476520,-0.035430,-0.347421,-0.192577,-0.284032,-0.346510,0.413109,0.161730,-0.314593,35.143475,19.497177,10.417662,0.362943,1.670028,0.067611,0.000000,0.000000,0.000000,0.000000,0.000000,0.000000
12034823.000000,2.302211,-1.015055,-1.858291,-1.447550,-0.977705,1.747838,0.476687,-0.035840,-0.349192,-0.196466,-0.283897,-0.345010,0.414118,0.161462,-0.144000,35.020489,19.592392,10.370054,0.356534,1.662704,0.021835,0.000000,0.000000,0.000000,0.000000,0.000000,0.000000
12034824.000000,2.302172,-1.015412,-1.858496,-1.447833,-0.978062,1.748253,0.476844,-0.039135,-0.349047,-0.199506,-0.293102,-0.344687,0.413415,0.161691,0.030561,34.826092,19.691574,10.370054,0.386747,1.676437,0.074935,0.000000,0.000000,0.000000,0.000000,0.000000,0.000000
12034825.000000,2.302128,-1.015762,-1.858703,-1.448120,-0.978421,1.748662,0.477016,-0.040372,-0.346112,-0.201108,-0.287819,-0.345680,0.414028,0.163952,0.276533,34.774517,19.790756,10.318480,0.458158,1.682845,0.054794,0.000000,0.000000,0.000000,0.000000,0.000000,0.000000
12034826.000000,2.302090,-1.016130,-1.858904,-1.448407,-0.978764,1.749076,0.477186,-0.038813,-0.352309,-0.204583,-0.284544,-0.344814,0.415150,0.166151,0.427289,34.849895,19.885971,10.294676,0.476469,1.662704,0.009017,0.000000,0.000000,0.000000,0.000000,0.000000,0.000000
12034827.000000,2.302047,-1.016492,-1.859112,-1.448680,-0.979118,1.749488,0.477347,-0.039038,-0.359777,-0.206143,-0.283247,-0.347607,0.411245,0.164754,0.625654,34.972881,20.008957,10.171690,0.482877,1.637069,0.061202,0.000000,0.000000,0.000000,0.000000,0.000000,0.000000
12034828.000000,2.302003,-1.016849,-1.859321,-1.448961,-0.979474,1.749891,0.477514,-0.038947,-0.359518,-0.205186,-0.281729,-0.354814,0.407040,0.162628,0.824018,34.921307,20.060532,10.171690,0.476469,1.649886,0.034652,0.000000,0.000000,0.000000,0.000000,0.000000,0.000000
12034829.000000,2.301962,-1.017207,-1.859529,-1.449244,-0.979816,1.750304,0.477681,-0.037274,-0.355573,-0.204903,-0.278190,-0.348593,0.403725,0.167837,0.947004,34.849895,20.108139,10.195494,0.405057,1.649886,0.028243,0.000000,0.000000,0.000000,0.000000,0.000000,0.000000
12034830.000000,2.301925,-1.017557,-1.859741,-1.449516,-0.980160,1.750702,0.477844,-0.038380,-0.355563,-0.207307,-0.276183,-0.348471,0.406484,0.167897,1.022382,34.873699,20.159714,10.120115,0.327238,1.662704,0.015426,0.000000,0.000000,0.000000,0.000000,0.000000,0.000000
12034831.000000,2.301874,-1.017911,-1.859948,-1.449795,-0.980522,1.751104,0.478004,-0.043100,-0.355656,-0.204168,-0.274333,-0.356760,0.401798,0.166803,1.268354,34.798321,20.108139,10.171690,0.344633,1.721298,0.061202,0.000000,0.000000,0.000000,0.000000,0.000000,0.000000
12034832.000000,2.301836,-1.018259,-1.860161,-1.450058,-0.980880,1.751500,0.478176,-0.039352,-0.351411,-0.207933,-0.270671,-0.356996,0.394062,0.169289,1.343732,34.651531,20.183517,10.120115,0.351041,1.773483,0.015426,0.000000,0.000000,0.000000,0.000000,0.000000,0.000000
12034833.000000,2.301795,-1.018612,-1.860368,-1.450336,-0.981231,1.751895,0.478343,-0.037337,-0.353194,-0.204397,-0.273565,-0.360859,0.398510,0.167507,1.442914,34.580120,20.131943,10.171690,0.369352,1.806442,0.054794,0.000000,0.000000,0.000000,0.000000,0.000000,0.000000
12034834.000000,2.301750,-1.018963,-1.860574,-1.450610,-0.981596,1.752302,0.478513,-0.037029,-0.347261,-0.203409,-0.271840,-0.363452,0.397317,0.169053,1.589704,34.480938,20.131943,10.195494,0.452665,1.812850,0.009017,0.000000,0.000000,0.000000,0.000000,0.000000,0.000000
12034835.000000,2.301706,-1.019310,-1.860792,-1.450879,-0.981958,1.752712,0.478676,-0.035963,-0.346156,-0.205235,-0.267395,-0.355249,0.406290,0.167467,1.712690,34.357952,20.254929,10.219297,0.482877,1.760665,0.048385,0.000000,0.000000,0.000000,0.000000,0.000000,0.000000
12034836.000000,2.301668,-1.019665,-1.861003,-1.451157,-0.982305,1.753124,0.478847,-0.037605,-0.346409,-0.206992,-0.270238,-0.355268,0.405703,0.164980,1.788068,34.286541,20.254929,10.270872,0.458158,1.708480,0.021835,0.000000,0.000000,0.000000,0.000000,0.000000,0.000000
12034837.000000,2.301632,-1.020022,-1.861208,-1.451422,-0.982664,1.753538,0.479012,-0.037646,-0.347387,-0.204247,-0.267374,-0.355609,0.403213,0.162432,1.811872,34.238934,20.207321,10.219297,0.458158,1.708480,0.015426,0.000000,0.000000,0.000000,0.000000,0.000000,0.000000
12034838.000000,2.301593,-1.020375,-1.861422,-1.451687,-0.983030,1.753941,0.479171,-0.037919,-0.347834,-0.206533,-0.265328,-0.353400,0.405531,0.161177,1.835676,34.187359,20.231125,10.171690,0.428861,1.741439,0.081344,0.000000,0.000000,0.000000,0.000000,0.000000,0.000000
12034839.000000,2.301561,-1.020733,-1.861633,-1.451955,-0.983381,1.754343,0.479349,-0.033611,-0.350488,-0.205629,-0.266685,-0.353073,0.404638,0.169222,1.811872,34.286541,20.254929,10.096312,0.386747,1.812850,0.015426,0.000000,0.000000,0.000000,0.000000,0.000000,0.000000
12034840.000000,2.301528,-1.021092,-1.861844,-1.452212,-0.983733,1.754754,0.479515,-0.031026,-0.359672,-0.206174,-0.262897,-0.352759,0.405276,0.166999,1.788068,34.357952,20.207321,9.949522,0.351041,1.877853,0.067611,0.000000,0.000000,0.000000,0.000000,0.000000,0.000000
12034841.000000,2.301493,-1.021452,-1.862054,-1.452480,-0.984090,1.755171,0.479688,-0.032824,-0.355223,-0.207799,-0.260602,-0.352615,0.410325,0.164242,1.788068,34.385723,20.207321,9.973326,0.315336,1.819259,0.061202,0.000000,0.000000,0.000000,0.000000,0.000000,0.000000
12034842.000000,2.301462,-1.021818,-1.862260,-1.452752,-0.984456,1.755592,0.479868,-0.030290,-0.357854,-0.209848,-0.272024,-0.356192,0.415296,0.163807,1.764264,34.409527,20.231125,10.072508,0.362943,1.708480,-0.004716,0.000000,0.000000,0.000000,0.000000,0.000000,0.000000
12034843.000000,2.301435,-1.022176,-1.862474,-1.453019,-0.984819,1.756003,0.480032,-0.030122,-0.356683,-0.212396,-0.270688,-0.359498,0.416482,0.158493,1.688886,34.433331,20.330307,10.096312,0.428861,1.676437,0.041976,0.000000,0.000000,0.000000,0.000000,0.000000,0.000000
12034844.000000,2.301408,-1.022535,-1.862680,-1.453284,-0.985188,1.756413,0.480203,-0.027966,-0.357696,-0.215276,-0.266728,-0.366084,0.410536,0.161129,1.641279,34.433331,20.377914,10.143919,0.494779,1.689254,0.021835,0.000000,0.000000,0.000000,0.000000,0.000000,0.000000
12034845.000000,2.301380,-1.022897,-1.862893,-1.453545,-0.985556,1.756821,0.480364,-0.026045,-0.365344,-0.213659,-0.267353,-0.360598,0.416078,0.161974,1.589704,34.385723,20.477097,10.195494,0.559781,1.695663,0.054794,0.000000,0.000000,0.000000,0.000000,0.000000,0.000000
12034846.000000,2.301358,-1.023251,-1.863104,-1.453808,-0.985916,1.757220,0.480539,-0.023777,-0.363896,-0.213544,-0.264556,-0.363790,0.409774,0.165569,1.490522,34.334148,20.500900,10.270872,0.530485,1.741439,0.009017,0.000000,0.000000,0.000000,0.000000,0.000000,0.000000
12034847.000000,2.301341,-1.023609,-1.863308,-1.454070,-0.986266,1.757632,0.480703,-0.021059,-0.357310,-0.210134,-0.262850,-0.363072,0.406331,0.165223,1.343732,34.211163,20.500900,10.342283,0.470060,1.727706,0.021835,0.000000,0.000000,0.000000,0.000000,0.000000,0.000000
12034848.000000,2.301322,-1.023959,-1.863517,-1.454336,-0.986627,1.758023,0.480871,-0.020315,-0.354599,-0.210239,-0.266930,-0.363253,0.402921,0.161580,1.244550,34.139751,20.500900,10.516844,0.374845,1.760665,0.015426,0.000000,0.000000,0.000000,0.000000,0.000000,0.000000
12034849.000000,2.301312,-1.024322,-1.863725,-1.454603,-0.986988,1.758417,0.481030,-0.017700,-0.353766,-0.207831,-0.267295,-0.361888,0.398129,0.157780,1.046186,34.139751,20.500900,10.592222,0.351041,1.851302,0.061202,0.000000,0.000000,0.000000,0.000000,0.000000,0.000000
12034850.000000,2.301291,-1.024692,-1.863932,-1.454868,-0.987359,1.758807,0.481199,-0.016075,-0.353285,-0.207770,-0.267026,-0.361981,0.390355,0.162810,0.994611,34.262737,20.576279,10.762815,0.381254,1.936446,0.009017,0.000000,0.000000,0.000000,0.000000,0.000000,0.000000
12034851.000000,2.301280,-1.025056,-1.864136,-1.455132,-0.987736,1.759188,0.481356,-0.012265,-0.355004,-0.208133,-0.268205,-0.365251,0.392052,0.162936,0.847822,34.357952,20.552475,10.861998,0.398649,1.949264,0.034652,0.000000,0.000000,0.000000,0.000000,0.000000,0.000000
12034852.000000,2.301262,-1.025421,-1.864340,-1.455411,-0.988109,1.759588,0.481519,-0.011957,-0.355067,-0.209347,-0.271011,-0.367628,0.394278,0.164194,0.796247,34.433331,20.552475,11.060362,0.446256,1.909896,0.021835,0.000000,0.000000,0.000000,0.000000,0.000000,0.000000
12034853.000000,2.301256,-1.025776,-1.864554,-1.455680,-0.988489,1.759989,0.481679,-0.008016,-0.358319,-0.211769,-0.269057,-0.370448,0.405391,0.161123,0.601850,34.480938,20.623886,11.207151,0.524076,1.819259,0.021835,0.000000,0.000000,0.000000,0.000000,0.000000,0.000000
12034854.000000,2.301243,-1.026135,-1.864767,-1.455957,-0.988858,1.760385,0.481843,-0.011325,-0.358469,-0.212034,-0.273507,-0.374264,0.405124,0.161792,0.526471,34.433331,20.623886,11.381712,0.482877,1.760665,0.061202,0.000000,0.000000,0.000000,0.000000,0.000000,0.000000
12034855.000000,2.301241,-1.026500,-1.864967,-1.456234,-0.989230,1.760777,0.482013,-0.008317,-0.360527,-0.209994,-0.275974,-0.371556,0.400001,0.161962,0.351911,34.480938,20.524704,11.480894,0.464567,1.819259,0.009017,0.000000,0.000000,0.000000,0.000000,0.000000,0.000000
12034856.000000,2.301240,-1.026863,-1.865170,-1.456512,-0.989603,1.761158,0.482176,-0.005354,-0.360080,-0.204403,-0.276558,-0.368171,0.395958,0.161670,0.153547,34.433331,20.401718,11.528502,0.458158,1.909896,0.048385,0.000000,0.000000,0.000000,0.000000,0.000000,0.000000
12034857.000000,2.301240,-1.027227,-1.865374,-1.456786,-0.989966,1.761539,0.482341,-0.000926,-0.360252,-0.201807,-0.274194,-0.368916,0.392839,0.162212,-0.017047,34.433331,20.453293,11.580076,0.416959,1.988631,0.067611,0.000000,0.000000,0.000000,0.000000,0.000000,0.000000
12034858.000000,2.301235,-1.027590,-1.865573,-1.457067,-0.990345,1.761937,0.482510,-0.002592,-0.371103,-0.199225,-0.273471,-0.370170,0.397740,0.161033,-0.116229,34.409527,20.354111,11.679258,0.398649,2.020675,0.028243,0.000000,0.000000,0.000000,0.000000,0.000000,0.000000
12034859.000000,2.301228,-1.027957,-1.865772,-1.457348,-0.990717,1.762339,0.482672,-0.004602,-0.368905,-0.198001,-0.274843,-0.372752,0.401067,0.162451,-0.167803,34.385723,20.278732,11.750669,0.416959,1.930038,0.067611,0.000000,0.000000,0.000000,0.000000,0.000000,0.000000
12034860.000000,2.301227,-1.028333,-1.865977,-1.457621,-0.991086,1.762742,0.482841,-0.004010,-0.370533,-0.202266,-0.280717,-0.373592,0.399158,0.167023,-0.290789,34.385723,20.278732,11.802244,0.410551,1.812850,-0.004716,0.000000,0.000000,0.000000,0.000000,0.000000,0.000000
12034861.000000,2.301222,-1.028702,-1.866180,-1.457903,-0.991471,1.763137,0.483004,-0.005128,-0.368618,-0.201030,-0.280473,-0.376860,0.399195,0.164800,-0.366168,34.357952,20.254929,11.849852,0.464567,1.786300,0.048385,0.000000,0.000000,0.000000,0.000000,0.000000,0.000000
12034862.000000,2.301218,-1.029075,-1.866373,-1.458176,-0.991851,1.763526,0.483170,-0.002676,-0.370688,-0.203356,-0.274686,-0.379527,0.395759,0.169689,-0.441546,34.385723,20.131943,11.802244,0.535978,1.851302,0.067611,0.000000,0.000000,0.000000,0.000000,0.000000,0.000000
12034863.000000,2.301215,-1.029451,-1.866577,-1.458451,-0.992227,1.763912,0.483336,-0.003264,-0.376925,-0.200615,-0.276979,-0.377766,0.389519,0.165825,-0.540728,34.409527,20.159714,11.877623,0.530485,1.890670,0.054794,0.000000,0.000000,0.000000,0.000000,0.000000,0.000000
12034864.000000,2.301211,-1.029821,-1.866772,-1.458727,-0.992598,1.764302,0.483498,-0.001889,-0.377325,-0.197659,-0.273991,-0.376580,0.395094,0.161786,-0.588336,34.433331,20.036728,11.901426,0.500272,1.916305,0.067611,0.000000,0.000000,0.000000,0.000000,0.000000,0.000000
12034865.000000,2.301208,-1.030195,-1.866968,-1.458994,-0.992974,1.764707,0.483660,-0.004037,-0.375930,-0.195129,-0.271570,-0.371505,0.400407,0.163717,-0.635943,34.409527,20.008957,11.901426,0.482877,1.890670,0.048385,0.000000,0.000000,0.000000,0.000000,0.000000,0.000000
12034866.000000,2.301199,-1.030566,-1.867162,-1.459265,-0.993339,1.765107,0.483819,-0.006053,-0.374601,-0.192851,-0.270449,-0.365120,0.401879,0.160251,-0.663714,34.480938,19.985153,11.925230,0.393156,1.825668,0.048385,0.000000,0.000000,0.000000,0.000000,0.000000,0.000000
12034867.000000,2.301195,-1.030941,-1.867352,-1.459541,-0.993702,1.765508,0.483984,-0.007032,-0.373513,-0.193371,-0.271541,-0.368293,0.405378,0.159543,-0.711321,34.433331,19.913742,11.925230,0.381254,1.812850,0.015426,0.000000,0.000000,0.000000,0.000000,0.000000,0.000000
12034868.000000,2.301192,-1.031320,-1.867546,-1.459805,-0.994078,1.765902,0.484132,-0.006526,-0.374283,-0.194800,-0.265727,-0.370919,0.395331,0.155015,-0.810504,34.433331,19.885971,11.901426,0.393156,1.884261,0.087753,0.000000,0.000000,0.000000,0.000000,0.000000,0.000000
12034869.000000,2.301187,-1.031693,-1.867740,-1.460067,-0.994460,1.766291,0.484302,-0.007788,-0.372657,-0.194608,-0.264091,-0.373343,0.390701,0.156007,-0.834307,34.334148,19.814560,11.849852,0.440763,1.890670,0.034652,0.000000,0.000000,0.000000,0.000000,0.000000,0.000000
12034870.000000,2.301182,-1.032070,-1.867931,-1.460339,-0.994826,1.766690,0.484465,-0.007996,-0.365898,-0.195409,-0.264293,-0.373042,0.396747,0.161430,-0.885882,34.286541,19.766953,11.849852,0.470060,1.877853,0.067611,0.000000,0.000000,0.000000,0.000000,0.000000,0.000000
12034871.000000,2.301173,-1.032441,-1.868124,-1.460601,-0.995201,1.767087,0.484627,-0.006862,-0.366994,-0.192841,-0.263807,-0.373931,0.404849,0.159593,-0.862078,34.211163,19.715378,11.826048,0.434354,1.865035,0.054794,0.000000,0.000000,0.000000,0.000000,0.000000,0.000000
12034872.000000,2.301164,-1.032822,-1.868311,-1.460860,-0.995579,1.767496,0.484797,-0.005955,-0.369875,-0.188554,-0.262486,-0.377468,0.405950,0.163264,-0.834307,34.211163,19.568588,11.778440,0.398649,1.779891,0.021835,0.000000,0.000000,0.000000,0.000000,0.000000,0.000000
12034873.000000,2.301161,-1.033214,-1.868501,-1.461126,-0.995954,1.767901,0.484949,-0.006565,-0.376638,-0.185849,-0.268234,-0.371656,0.403971,0.157979,-0.885882,34.286541,19.568588,11.802244,0.440763,1.747848,0.094161,0.000000,0.000000,0.000000,0.000000,0.000000,0.000000
12034874.000000,2.301159,-1.033603,-1.868689,-1.461371,-0.996329,1.768293,0.485118,-0.004502,-0.380052,-0.184676,-0.258855,-0.371470,0.400336,0.158252,-0.909686,34.433331,19.497177,11.580076,0.398649,1.786300,0.034652,0.000000,0.000000,0.000000,0.000000,0.000000,0.000000
12034875.000000,2.301154,-1.033999,-1.868877,-1.461620,-0.996712,1.768686,0.485275,-0.004070,-0.383657,-0.188980,-0.257635,-0.377261,0.397168,0.159124,-0.885882,34.679302,19.497177,11.457090,0.410551,1.825668,0.061202,0.000000,0.000000,0.000000,0.000000,0.000000,0.000000
12034876.000000,2.301153,-1.034381,-1.869064,-1.461865,-0.997087,1.769086,0.485440,-0.001984,-0.389974,-0.190923,-0.253291,-0.377123,0.402667,0.158499,-0.933489,34.726910,19.445602,11.306334,0.422452,1.800033,0.028243,0.000000,0.000000,0.000000,0.000000,0.000000,0.000000
12034877.000000,2.301147,-1.034769,-1.869259,-1.462113,-0.997458,1.769495,0.485606,-0.003281,-0.391150,-0.190972,-0.254982,-0.384145,0.405499,0.161794,-0.862078,34.798321,19.469406,11.258726,0.369352,1.676437,0.028243,0.000000,0.000000,0.000000,0.000000,0.000000,0.000000
12034878.000000,2.301142,-1.035163,-1.869447,-1.462345,-0.997833,1.769903,0.485771,-0.004166,-0.391820,-0.189934,-0.252295,-0.382447,0.404777,0.163116,-0.786700,34.873699,19.445602,11.084166,0.369352,1.605026,0.041976,0.000000,0.000000,0.000000,0.000000,0.000000,0.000000
12034879.000000,2.301140,-1.035551,-1.869643,-1.462582,-0.998208,1.770292,0.485933,-0.004146,-0.394397,-0.192252,-0.249981,-0.378459,0.402357,0.158685,-0.735125,35.020489,19.445602,10.961180,0.410551,1.605026,0.067611,0.000000,0.000000,0.000000,0.000000,0.000000,0.000000
12034880.000000,2.301141,-1.035947,-1.869837,-1.462822,-0.998575,1.770683,0.486100,-0.002885,-0.395838,-0.197805,-0.245844,-0.378380,0.393598,0.162737,-0.735125,35.068096,19.497177,10.885801,0.410551,1.662704,0.034652,0.000000,0.000000,0.000000,0.000000,0.000000,0.000000
12034881.000000,2.301139,-1.036347,-1.870029,-1.463060,-0.998959,1.771078,0.486263,-0.002571,-0.396089,-0.194087,-0.241553,-0.375993,0.387972,0.164236,-0.711321,35.167278,19.445602,10.885801,0.440763,1.695663,0.034652,0.000000,0.000000,0.000000,0.000000,0.000000,0.000000
12034882.000000,2.301136,-1.036743,-1.870227,-1.463285,-0.999336,1.771464,0.486417,-0.002896,-0.398049,-0.194848,-0.238978,-0.379629,0.390516,0.157945,-0.663714,35.214886,19.544785,10.786619,0.416959,1.689254,0.114303,0.000000,0.000000,0.000000,0.000000,0.000000,0.000000
12034883.000000,2.301136,-1.037140,-1.870415,-1.463519,-0.999698,1.771868,0.486587,-0.001982,-0.392753,-0.192490,-0.235319,-0.379581,0.393055,0.163456,-0.663714,35.266460,19.520981,10.739012,0.351041,1.649886,0.028243,0.000000,0.000000,0.000000,0.000000,0.000000,0.000000
12034884.000000,2.301138,-1.037525,-1.870611,-1.463742,-1.000082,1.772268,0.486748,-0.000803,-0.390388,-0.192842,-0.234900,-0.382353,0.389617,0.162661,-0.687518,35.214886,19.592392,10.663633,0.308927,1.637069,0.067611,0.000000,0.000000,0.000000,0.000000,0.000000,0.000000
12034885.000000,2.301138,-1.037922,-1.870810,-1.463966,-1.000462,1.772657,0.486915,-0.000564,-0.388584,-0.192703,-0.231612,-0.382219,0.384397,0.163399,-0.687518,35.290264,19.643967,10.616026,0.320829,1.689254,0.094161,0.000000,0.000000,0.000000,0.000000,0.000000,0.000000
12034886.000000,2.301139,-1.038326,-1.871005,-1.464191,-1.000838,1.773054,0.487085,0.000159,-0.391332,-0.192352,-0.230149,-0.374727,0.386583,0.166788,-0.711321,35.413250,19.691574,10.592222,0.351041,1.714889,0.048385,0.000000,0.000000,0.000000,0.000000,0.000000,0.000000
12034887.000000,2.301141,-1.038713,-1.871202,-1.464415,-1.001227,1.773446,0.487248,0.000647,-0.386591,-0.194293,-0.227718,-0.379995,0.384590,0.165664,-0.735125,35.508465,19.715378,10.516844,0.351041,1.721298,0.081344,0.000000,0.000000,0.000000,0.000000,0.000000,0.000000
12034888.000000,2.301143,-1.039109,-1.871399,-1.464644,-1.001611,1.773840,0.487419,0.000419,-0.388473,-0.193896,-0.225664,-0.379846,0.384151,0.171968,-0.735125,35.607647,19.766953,10.564451,0.362943,1.676437,0.021835,0.000000,0.000000,0.000000,0.000000,0.000000,0.000000
12034889.000000,2.301144,-1.039501,-1.871606,-1.464856,-1.001996,1.774247,0.487578,0.000270,-0.387325,-0.194823,-0.221900,-0.379327,0.387743,0.168561,-0.735125,35.706829,19.885971,10.516844,0.386747,1.662704,0.067611,0.000000,0.000000,0.000000,0.000000,0.000000,0.000000
12034890.000000,2.301150,-1.039897,-1.871810,-1.465080,-1.002389,1.774647,0.487739,0.001380,-0.386146,-0.193880,-0.222881,-0.388802,0.390976,0.169199,-0.786700,35.655254,19.937546,10.516844,0.416959,1.630660,0.054794,0.000000,0.000000,0.000000,0.000000,0.000000,0.000000
12034891.000000,2.301151,-1.040292,-1.872009,-1.465297,-1.002781,1.775043,0.487900,0.000915,-0.382952,-0.193795,-0.223487,-0.391470,0.387523,0.172505,-0.786700,35.631451,20.008957,10.493040,0.440763,1.617843,0.067611,0.000000,0.000000,0.000000,0.000000,0.000000,0.000000
12034892.000000,2.301160,-1.040685,-1.872213,-1.465517,-1.003171,1.775428,0.488068,0.006142,-0.387089,-0.193940,-0.221267,-0.388514,0.386997,0.167519,-0.885882,35.607647,20.108139,10.493040,0.458158,1.695663,0.048385,0.000000,0.000000,0.000000,0.000000,0.000000,0.000000
12034893.000000,2.301159,-1.041077,-1.872413,-1.465732,-1.003547,1.775817,0.488234,0.003803,-0.383326,-0.200908,-0.218312,-0.389547,0.383251,0.167783,-0.862078,35.460857,20.131943,10.441465,0.428861,1.727706,0.028243,0.000000,0.000000,0.000000,0.000000,0.000000,0.000000
12034894.000000,2.301169,-1.041469,-1.872619,-1.465945,-1.003932,1.776208,0.488394,0.007683,-0.394767,-0.201183,-0.218752,-0.383775,0.383298,0.162541,-0.933489,35.314068,20.159714,10.370054,0.374845,1.695663,0.054794,0.000000,0.000000,0.000000,0.000000,0.000000,0.000000
12034895.000000,2.301178,-1.041863,-1.872827,-1.466162,-1.004320,1.776592,0.488555,0.007308,-0.391682,-0.201220,-0.214368,-0.382920,0.381608,0.164780,-1.008868,35.214886,20.183517,10.370054,0.393156,1.702071,0.048385,0.000000,0.000000,0.000000,0.000000,0.000000,0.000000
12034896.000000,2.301183,-1.042256,-1.873025,-1.466374,-1.004705,1.776976,0.488717,0.008446,-0.391388,-0.196047,-0.209331,-0.381792,0.379206,0.169139,-1.008868,35.091900,20.108139,10.417662,0.393156,1.721298,0.048385,0.000000,0.000000,0.000000,0.000000,0.000000,0.000000
12034897.000000,2.301189,-1.042650,-1.873239,-1.466584,-1.005095,1.777349,0.488879,0.009427,-0.392191,-0.201531,-0.210421,-0.379738,0.376893,0.165269,-1.008868,35.119671,20.183517,10.417662,0.362943,1.773483,0.021835,0.000000,0.000000,0.000000,0.000000,0.000000,0.000000
12034898.000000,2.301194,-1.043050,-1.873445,-1.466798,-1.005482,1.777729,0.489031,0.009431,-0.395197,-0.202841,-0.207231,-0.376938,0.383224,0.158592,-0.985064,35.167278,20.159714,10.393858,0.422452,1.735030,0.114303,0.000000,0.000000,0.000000,0.000000,0.000000,0.000000
12034899.000000,2.301200,-1.043452,-1.873655,-1.467007,-1.005868,1.778113,0.489200,0.007033,-0.395140,-0.208098,-0.206429,-0.378688,0.379303,0.163919,-0.985064,35.214886,20.278732,10.417662,0.482877,1.676437,0.048385,0.000000,0.000000,0.000000,0.000000,0.000000,0.000000
12034900.000000,2.301202,-1.043842,-1.873855,-1.467215,-1.006252,1.778484,0.489366,0.006213,-0.394215,-0.203998,-0.208155,-0.388922,0.378716,0.163514,-0.885882,35.238689,20.207321,10.417662,0.440763,1.682845,0.081344,0.000000,0.000000,0.000000,0.000000,0.000000,0.000000
12034901.000000,2.301206,-1.044240,-1.874062,-1.467427,-1.006640,1.778849,0.489536,0.006122,-0.392736,-0.206913,-0.210380,-0.387106,0.370232,0.166517,-0.810504,35.266460,20.231125,10.441465,0.386747,1.754256,0.067611,0.000000,0.000000,0.000000,0.000000,0.000000,0.000000
12034902.000000,2.301213,-1.044641,-1.874265,-1.467637,-1.007026,1.779220,0.489702,0.007894,-0.397007,-0.200852,-0.211162,-0.384620,0.371338,0.167104,-0.810504,35.361675,20.183517,10.441465,0.344633,1.779891,0.054794,0.000000,0.000000,0.000000,0.000000,0.000000,0.000000
12034903.000000,2.301220,-1.045048,-1.874469,-1.467846,-1.007419,1.779600,0.489866,0.008591,-0.399432,-0.202863,-0.211402,-0.391009,0.374086,0.167554,-0.786700,35.437054,20.131943,10.441465,0.297025,1.754256,0.081344,0.000000,0.000000,0.000000,0.000000,0.000000,0.000000
12034904.000000,2.301215,-1.045457,-1.874673,-1.468053,-1.007818,1.779969,0.490032,0.005537,-0.402891,-0.202612,-0.210091,-0.392351,0.374374,0.168750,-0.612139,35.560040,20.131943,10.493040,0.303434,1.779891,0.061202,0.000000,0.000000,0.000000,0.000000,0.000000,0.000000
12034905.000000,2.301213,-1.045855,-1.874885,-1.468264,-1.008210,1.780336,0.490199,0.004783,-0.401796,-0.206090,-0.211660,-0.389148,0.373172,0.168305,-0.489153,35.536236,20.183517,10.516844,0.303434,1.838485,0.061202,0.000000,0.000000,0.000000,0.000000,0.000000,0.000000
12034906.000000,2.301211,-1.046265,-1.875090,-1.468481,-1.008604,1.780715,0.490372,0.001806,-0.406230,-0.202064,-0.214175,-0.391886,0.375963,0.172420,-0.389971,35.631451,20.207321,10.592222,0.320829,1.786300,0.041976,0.000000,0.000000,0.000000,0.000000,0.000000,0.000000
12034907.000000,2.301211,-1.046670,-1.875294,-1.468694,-1.009016,1.781091,0.490537,0.004074,-0.402837,-0.202247,-0.214902,-0.396349,0.373474,0.170494,-0.342364,35.683025,20.231125,10.639830,0.428861,1.735030,0.074935,0.000000,0.000000,0.000000,0.000000,0.000000,0.000000
12034908.000000,2.301200,-1.047087,-1.875501,-1.468906,-1.009409,1.781465,0.490705,-0.000566,-0.405071,-0.202303,-0.214498,-0.396713,0.378308,0.165980,-0.167803,35.925030,20.254929,10.663633,0.416959,1.754256,0.074935,0.000000,0.000000,0.000000,0.000000,0.000000,0.000000
12034909.000000,2.301190,-1.047502,-1.875709,-1.469116,-1.009805,1.781847,0.490876,-0.003303,-0.405705,-0.206598,-0.216061,-0.395103,0.376514,0.167980,-0.017047,36.024212,20.330307,10.663633,0.374845,1.779891,0.041976,0.000000,0.000000,0.000000,0.000000,0.000000,0.000000
12034910.000000,2.301186,-1.047914,-1.875912,-1.469338,-1.010208,1.782221,0.491038,-0.002865,-0.408919,-0.200211,-0.215984,-0.396201,0.378181,0.165516,0.030561,36.218609,20.278732,10.691404,0.386747,1.747848,0.094161,0.000000,0.000000,0.000000,0.000000,0.000000,0.000000
12034911.000000,2.301181,-1.048334,-1.876123,-1.469556,-1.010593,1.782606,0.491203,-0.002686,-0.409034,-0.205023,-0.215059,-0.390925,0.380485,0.165702,0.078168,36.365398,20.401718,10.691404,0.369352,1.670028,0.094161,0.000000,0.000000,0.000000,0.000000,0.000000,0.000000
12034912.000000,2.301171,-1.048746,-1.876327,-1.469762,-1.010987,1.782982,0.491365,-0.003857,-0.421269,-0.203830,-0.209985,-0.390838,0.374542,0.167202,0.177350,36.563763,20.401718,10.616026,0.344633,1.682845,0.074935,0.000000,0.000000,0.000000,0.000000,0.000000,0.000000
12034913.000000,2.301164,-1.049162,-1.876540,-1.469978,-1.011382,1.783344,0.491532,-0.006311,-0.419244,-0.203324,-0.212746,-0.397204,0.371689,0.167101,0.205121,36.587566,20.429489,10.564451,0.320829,1.779891,0.087753,0.000000,0.000000,0.000000,0.000000,0.000000,0.000000
12034914.000000,2.301162,-1.049567,-1.876749,-1.470191,-1.011775,1.783712,0.491700,-0.003689,-0.411881,-0.208061,-0.213206,-0.396610,0.367179,0.170816,0.177350,36.512188,20.524704,10.564451,0.362943,1.793624,0.094161,0.000000,0.000000,0.000000,0.000000,0.000000,0.000000
12034915.000000,2.301155,-1.049981,-1.876961,-1.470402,-1.012175,1.784093,0.491873,-0.003764,-0.413010,-0.208349,-0.212684,-0.398486,0.372419,0.167967,0.228925,36.535992,20.647690,10.516844,0.410551,1.721298,0.041976,0.000000,0.000000,0.000000,0.000000,0.000000,0.000000
12034916.000000,2.301138,-1.050387,-1.877169,-1.470616,-1.012569,1.784468,0.492038,-0.007223,-0.411143,-0.209451,-0.213221,-0.396957,0.369892,0.162689,0.427289,36.488384,20.699265,10.540648,0.386747,1.702071,0.074935,0.000000,0.000000,0.000000,0.000000,0.000000,0.000000
12034917.000000,2.301133,-1.050810,-1.877377,-1.470831,-1.012966,1.784833,0.492203,-0.005427,-0.414199,-0.211122,-0.217133,-0.389358,0.365033,0.159251,0.451093,36.587566,20.746872,10.564451,0.405057,1.754256,0.094161,0.000000,0.000000,0.000000,0.000000,0.000000,0.000000
12034918.000000,2.301130,-1.051225,-1.877595,-1.471047,-1.013355,1.785198,0.492374,-0.003659,-0.418196,-0.213831,-0.216796,-0.402566,0.366912,0.159196,0.451093,36.758160,20.869858,10.592222,0.398649,1.793624,0.034652,0.000000,0.000000,0.000000,0.000000,0.000000,0.000000
12034919.000000,2.301122,-1.051639,-1.877811,-1.471254,-1.013755,1.785569,0.492531,-0.004791,-0.414879,-0.216716,-0.209262,-0.399709,0.364170,0.158230,0.550275,36.833538,21.016647,10.564451,0.356534,1.806442,0.100570,0.000000,0.000000,0.000000,0.000000,0.000000,0.000000
12034920.000000,2.301112,-1.052044,-1.878031,-1.471461,-1.014162,1.785927,0.492698,-0.005537,-0.416586,-0.214752,-0.207987,-0.398722,0.369451,0.162029,0.649457,36.928753,21.139633,10.592222,0.356534,1.832076,0.061202,0.000000,0.000000,0.000000,0.000000,0.000000,0.000000
12034921.000000,2.301113,-1.052453,-1.878262,-1.471676,-1.014564,1.786296,0.492868,-0.002595,-0.414417,-0.221995,-0.210731,-0.402258,0.366791,0.164806,0.601850,36.881145,21.361801,10.663633,0.369352,1.838485,0.028243,0.000000,0.000000,0.000000,0.000000,0.000000,0.000000
12034922.000000,2.301110,-1.052858,-1.878482,-1.471886,-1.014965,1.786669,0.493022,-0.005325,-0.411444,-0.223066,-0.212945,-0.401140,0.364785,0.163155,0.625654,36.781963,21.532394,10.739012,0.386747,1.832076,0.094161,0.000000,0.000000,0.000000,0.000000,0.000000,0.000000
12034923.000000,2.301103,-1.053263,-1.878699,-1.472091,-1.015373,1.787035,0.493192,-0.005482,-0.409975,-0.217942,-0.209308,-0.402195,0.363162,0.161806,0.697065,36.682781,21.607773,10.715208,0.446256,1.838485,0.048385,0.000000,0.000000,0.000000,0.000000,0.000000,0.000000
12034924.000000,2.301098,-1.053659,-1.878923,-1.472303,-1.015765,1.787393,0.493349,-0.008338,-0.403317,-0.219914,-0.208781,-0.401262,0.359171,0.160369,0.748639,36.512188,21.778366,10.786619,0.470060,1.903487,0.107894,0.000000,0.000000,0.000000,0.000000,0.000000,0.000000
12034925.000000,2.301096,-1.054060,-1.879143,-1.472515,-1.016165,1.787760,0.493517,-0.005979,-0.410087,-0.218551,-0.211145,-0.400009,0.356881,0.162302,0.748639,36.365398,21.825974,10.838194,0.488370,1.974899,0.067611,0.000000,0.000000,0.000000,0.000000,0.000000,0.000000
12034926.000000,2.301095,-1.054463,-1.879367,-1.472725,-1.016571,1.788118,0.493677,-0.004302,-0.408334,-0.217661,-0.208051,-0.408039,0.356856,0.160633,0.748639,36.218609,21.877548,10.838194,0.500272,2.001449,0.041976,0.000000,0.000000,0.000000,0.000000,0.000000,0.000000
12034927.000000,2.301091,-1.054876,-1.879593,-1.472932,-1.016953,1.788479,0.493832,-0.007008,-0.408021,-0.222194,-0.212164,-0.402121,0.353834,0.161132,0.796247,36.123394,22.000534,10.861998,0.422452,1.968490,0.061202,0.000000,0.000000,0.000000,0.000000,0.000000,0.000000
12034928.000000,2.301091,-1.055271,-1.879812,-1.473136,-1.017356,1.788844,0.493991,-0.005082,-0.404736,-0.220071,-0.208784,-0.404789,0.356587,0.161523,0.796247,36.024212,22.048141,10.838194,0.405057,1.936446,0.081344,0.000000,0.000000,0.000000,0.000000,0.000000,0.000000
12034929.000000,2.301091,-1.055677,-1.880032,-1.473343,-1.017749,1.789206,0.494154,-0.003695,-0.404722,-0.224136,-0.208479,-0.403952,0.355734,0.162505,0.796247,35.925030,22.095749,10.786619,0.428861,1.981307,0.107894,0.000000,0.000000,0.000000,0.000000,0.000000,0.000000
12034930.000000,2.301089,-1.056087,-1.880254,-1.473548,-1.018136,1.789569,0.494327,-0.003344,-0.414720,-0.223455,-0.206299,-0.395939,0.356118,0.166314,0.824018,35.925030,22.194931,10.762815,0.410551,2.001449,0.048385,0.000000,0.000000,0.000000,0.000000,0.000000,0.000000
12034931.000000,2.301091,-1.056489,-1.880467,-1.473756,-1.018534,1.789924,0.494485,0.004358,-0.410647,-0.219311,-0.204970,-0.396894,0.357338,0.165075,0.796247,35.877422,22.147324,10.762815,0.434354,1.995040,0.107894,0.000000,0.000000,0.000000,0.000000,0.000000,0.000000
12034932.000000,2.301089,-1.056898,-1.880678,-1.473965,-1.018936,1.790284,0.494655,0.002636,-0.409503,-0.217722,-0.207867,-0.402329,0.352074,0.167311,0.824018,35.925030,22.147324,10.786619,0.452665,2.007858,0.054794,0.000000,0.000000,0.000000,0.000000,0.000000,0.000000
12034933.000000,2.301093,-1.057301,-1.880893,-1.474173,-1.019338,1.790641,0.494824,0.002691,-0.409879,-0.212911,-0.206328,-0.400895,0.355176,0.168016,0.796247,35.877422,22.147324,10.786619,0.452665,1.974899,0.028243,0.000000,0.000000,0.000000,0.000000,0.000000,0.000000
12034934.000000,2.301093,-1.057702,-1.881104,-1.474377,-1.019741,1.790996,0.494981,0.003850,-0.408673,-0.211081,-0.204107,-0.398043,0.355795,0.161525,0.847822,35.778240,22.071945,10.762815,0.405057,1.974899,0.094161,0.000000,0.000000,0.000000,0.000000,0.000000,0.000000
12034935.000000,2.301093,-1.058101,-1.881316,-1.474577,-1.020151,1.791359,0.495145,0.002980,-0.402433,-0.210803,-0.203500,-0.399766,0.353936,0.164882,0.847822,35.560040,22.024338,10.762815,0.422452,2.039901,0.054794,0.000000,0.000000,0.000000,0.000000,0.000000,0.000000
12034936.000000,2.301103,-1.058494,-1.881529,-1.474780,-1.020547,1.791718,0.495301,0.004618,-0.402706,-0.209901,-0.203665,-0.406397,0.355171,0.158934,0.748639,35.413250,21.972763,10.786619,0.434354,2.047225,0.114303,0.000000,0.000000,0.000000,0.000000,0.000000,0.000000
12034937.000000,2.301104,-1.058898,-1.881732,-1.474985,-1.020960,1.792081,0.495469,0.002755,-0.399477,-0.209394,-0.203806,-0.408329,0.356738,0.163863,0.772443,35.290264,21.901352,10.814390,0.428861,2.020675,0.061202,0.000000,0.000000,0.000000,0.000000,0.000000,0.000000
12034938.000000,2.301104,-1.059301,-1.881937,-1.475185,-1.021377,1.792438,0.495628,0.000805,-0.403406,-0.209266,-0.203696,-0.406614,0.369487,0.160227,0.824018,35.266460,21.849777,10.838194,0.476469,2.014266,0.067611,0.000000,0.000000,0.000000,0.000000,0.000000,0.000000
12034939.000000,2.301109,-1.059710,-1.882137,-1.475385,-1.021784,1.792803,0.495786,0.000667,-0.402942,-0.205797,-0.200315,-0.409118,0.367614,0.157131,0.824018,35.238689,21.778366,10.861998,0.482877,1.988631,0.107894,0.000000,0.000000,0.000000,0.000000,0.000000,0.000000
12034940.000000,2.301115,-1.060129,-1.882327,-1.475582,-1.022192,1.793173,0.495951,0.000543,-0.406319,-0.202563,-0.202166,-0.409521,0.371075,0.157766,0.824018,35.385479,21.532394,10.937376,0.464567,1.955673,0.054794,0.000000,0.000000,0.000000,0.000000,0.000000,0.000000
12034941.000000,2.301121,-1.060542,-1.882533,-1.475780,-1.022599,1.793531,0.496107,0.001085,-0.410717,-0.205032,-0.201939,-0.405902,0.372425,0.154763,0.796247,35.484661,21.508591,10.937376,0.452665,1.962081,0.081344,0.000000,0.000000,0.000000,0.000000,0.000000,0.000000
12034942.000000,2.301131,-1.060962,-1.882724,-1.475972,-1.022991,1.793899,0.496268,0.001336,-0.414374,-0.201009,-0.197231,-0.402671,0.371783,0.153231,0.772443,35.655254,21.361801,10.885801,0.422452,2.001449,0.081344,0.000000,0.000000,0.000000,0.000000,0.000000,0.000000
12034943.000000,2.301143,-1.061369,-1.882919,-1.476167,-1.023395,1.794274,0.496428,0.005982,-0.420537,-0.197271,-0.193289,-0.398670,0.370819,0.157249,0.697065,35.631451,21.310226,10.937376,0.369352,1.949264,0.074935,0.000000,0.000000,0.000000,0.000000,0.000000,0.000000
12034944.000000,2.301150,-1.061783,-1.883111,-1.476354,-1.023802,1.794643,0.496595,0.003086,-0.421132,-0.195615,-0.191667,-0.407078,0.364623,0.160546,0.748639,35.730633,21.187241,10.937376,0.362943,1.903487,0.061202,0.000000,0.000000,0.000000,0.000000,0.000000,0.000000
12034945.000000,2.301165,-1.062203,-1.883301,-1.476533,-1.024194,1.795016,0.496755,0.007307,-0.419902,-0.192646,-0.193163,-0.400095,0.368025,0.164771,0.673261,35.778240,21.115829,10.814390,0.369352,1.871444,0.094161,0.000000,0.000000,0.000000,0.000000,0.000000,0.000000
12034946.000000,2.301175,-1.062624,-1.883490,-1.476722,-1.024604,1.795384,0.496921,0.007510,-0.421098,-0.190983,-0.191530,-0.399832,0.362297,0.162172,0.697065,35.901226,21.092026,10.786619,0.374845,1.832076,0.061202,0.000000,0.000000,0.000000,0.000000,0.000000,0.000000
12034947.000000,2.301184,-1.063047,-1.883674,-1.476913,-1.025009,1.795747,0.497087,0.008606,-0.419671,-0.190934,-0.192268,-0.396542,0.360795,0.159364,0.697065,35.976604,21.016647,10.838194,0.434354,1.838485,0.067611,0.000000,0.000000,0.000000,0.000000,0.000000,0.000000
12034948.000000,2.301194,-1.063460,-1.883858,-1.477094,-1.025401,1.796106,0.497248,0.010000,-0.427135,-0.188313,-0.188154,-0.390245,0.364120,0.160633,0.673261,35.948833,20.917465,10.838194,0.416959,1.858627,0.094161,0.000000,0.000000,0.000000,0.000000,0.000000,0.000000
12034949.000000,2.301207,-1.063875,-1.884045,-1.477277,-1.025803,1.796473,0.497416,0.011821,-0.424262,-0.186404,-0.187747,-0.398208,0.360311,0.160148,0.625654,35.976604,20.822250,10.814390,0.344633,1.793624,0.048385,0.000000,0.000000,0.000000,0.000000,0.000000,0.000000
12034950.000000,2.301220,-1.064291,-1.884222,-1.477457,-1.026202,1.796834,0.497574,0.012736,-0.424628,-0.187819,-0.183207,-0.395273,0.354569,0.159463,0.574079,36.000408,20.699265,10.739012,0.351041,1.786300,0.094161,0.000000,0.000000,0.000000,0.000000,0.000000,0.000000
12034951.000000,2.301248,-1.064705,-1.884410,-1.477638,-1.026601,1.797180,0.497743,0.014553,-0.419706,-0.187695,-0.181794,-0.388934,0.354251,0.159292,0.351911,36.048016,20.671494,10.739012,0.297025,1.819259,0.048385,0.000000,0.000000,0.000000,0.000000,0.000000,0.000000
12034952.000000,2.301254,-1.065116,-1.884594,-1.477814,-1.027003,1.797531,0.497908,0.012195,-0.419021,-0.186537,-0.178177,-0.394498,0.348937,0.159900,0.403486,36.095623,20.600082,10.663633,0.255826,1.871444,0.087753,0.000000,0.000000,0.000000,0.000000,0.000000,0.000000
12034953.000000,2.301275,-1.065528,-1.884779,-1.477981,-1.027414,1.797887,0.498064,0.014862,-0.419034,-0.186466,-0.172518,-0.396133,0.347323,0.156119,0.276533,36.024212,20.552475,10.564451,0.297025,1.865035,0.133529,0.000000,0.000000,0.000000,0.000000,0.000000,0.000000
12034954.000000,2.301297,-1.065934,-1.884968,-1.478162,-1.027814,1.798242,0.498238,0.017759,-0.416979,-0.183611,-0.177459,-0.397065,0.352645,0.161507,0.105939,35.976604,20.552475,10.592222,0.315336,1.800033,0.061202,0.000000,0.000000,0.000000,0.000000,0.000000,0.000000
12034955.000000,2.301315,-1.066347,-1.885152,-1.478333,-1.028222,1.798597,0.498398,0.016722,-0.413159,-0.185574,-0.172222,-0.401302,0.354175,0.160968,0.054365,35.877422,20.576279,10.516844,0.315336,1.779891,0.100570,0.000000,0.000000,0.000000,0.000000,0.000000,0.000000
12034956.000000,2.301332,-1.066744,-1.885328,-1.478502,-1.028637,1.798951,0.498563,0.016185,-0.409162,-0.182870,-0.172276,-0.404841,0.354057,0.160224,0.006757,35.683025,20.429489,10.465269,0.332731,1.812850,0.054794,0.000000,0.000000,0.000000,0.000000,0.000000,0.000000
12034957.000000,2.301357,-1.067150,-1.885523,-1.478673,-1.029049,1.799305,0.498724,0.018276,-0.406613,-0.189407,-0.168994,-0.410601,0.350330,0.157575,-0.144000,35.484661,20.500900,10.417662,0.320829,1.825668,0.067611,0.000000,0.000000,0.000000,0.000000,0.000000,0.000000
12034958.000000,2.301380,-1.067562,-1.885705,-1.478833,-1.029465,1.799662,0.498888,0.019025,-0.408272,-0.186861,-0.170800,-0.412584,0.348995,0.161720,-0.266986,35.314068,20.401718,10.318480,0.351041,1.779891,0.028243,0.000000,0.000000,0.000000,0.000000,0.000000,0.000000
12034959.000000,2.301400,-1.067966,-1.885891,-1.478995,-1.029884,1.800014,0.499048,0.018157,-0.405924,-0.185374,-0.169300,-0.413960,0.349752,0.159967,-0.342364,35.119671,20.330307,10.171690,0.356534,1.825668,0.100570,0.000000,0.000000,0.000000,0.000000,0.000000,0.000000
12034960.000000,2.301420,-1.068369,-1.886083,-1.479166,-1.030291,1.800364,0.499218,0.019942,-0.406378,-0.192802,-0.168398,-0.404210,0.350077,0.162114,-0.366168,34.921307,20.377914,10.171690,0.344633,1.871444,0.081344,0.000000,0.000000,0.000000,0.000000,0.000000,0.000000
12034961.000000,2.301443,-1.068774,-1.886275,-1.479324,-1.030709,1.800728,0.499388,0.019885,-0.410425,-0.191126,-0.162677,-0.410054,0.350943,0.166971,-0.465350,34.826092,20.354111,10.096312,0.327238,1.786300,0.061202,0.000000,0.000000,0.000000,0.000000,0.000000,0.000000
12034962.000000,2.301462,-1.069190,-1.886462,-1.479486,-1.031124,1.801093,0.499549,0.020756,-0.415524,-0.188132,-0.160392,-0.406689,0.359801,0.166906,-0.465350,34.826092,20.254929,10.120115,0.327238,1.727706,0.067611,0.000000,0.000000,0.000000,0.000000,0.000000,0.000000
12034963.000000,2.301480,-1.069597,-1.886652,-1.479638,-1.031540,1.801454,0.499713,0.021541,-0.409975,-0.188951,-0.158042,-0.408810,0.362739,0.166408,-0.465350,34.726910,20.278732,10.096312,0.320829,1.741439,0.074935,0.000000,0.000000,0.000000,0.000000,0.000000,0.000000
12034964.000000,2.301505,-1.070006,-1.886836,-1.479795,-1.031966,1.801808,0.499871,0.020997,-0.413402,-0.189871,-0.155593,-0.415264,0.357283,0.162243,-0.540728,34.798321,20.207321,10.048704,0.315336,1.735030,0.074935,0.000000,0.000000,0.000000,0.000000,0.000000,0.000000
12034965.000000,2.301524,-1.070423,-1.887020,-1.479953,-1.032377,1.802160,0.500036,0.018094,-0.408055,-0.191327,-0.157615,-0.414411,0.352167,0.160715,-0.512957,34.849895,20.183517,10.048704,0.297025,1.760665,0.041976,0.000000,0.000000,0.000000,0.000000,0.000000,0.000000
12034966.000000,2.301546,-1.070845,-1.887213,-1.480105,-1.032790,1.802515,0.500188,0.020366,-0.415060,-0.190140,-0.156182,-0.410069,0.347261,0.156047,-0.540728,34.945110,20.159714,10.048704,0.320829,1.812850,0.100570,0.000000,0.000000,0.000000,0.000000,0.000000,0.000000
12034967.000000,2.301563,-1.071254,-1.887409,-1.480257,-1.033205,1.802872,0.500356,0.017530,-0.414709,-0.187182,-0.153645,-0.423395,0.347711,0.156901,-0.512957,34.945110,20.183517,9.997129,0.332731,1.754256,0.048385,0.000000,0.000000,0.000000,0.000000,0.000000,0.000000
12034968.000000,2.301585,-1.071674,-1.887598,-1.480414,-1.033627,1.803227,0.500510,0.019191,-0.419427,-0.186978,-0.158813,-0.420894,0.346634,0.152870,-0.512957,35.044292,20.159714,10.096312,0.327238,1.714889,0.094161,0.000000,0.000000,0.000000,0.000000,0.000000,0.000000
12034969.000000,2.301603,-1.072091,-1.887790,-1.480572,-1.034052,1.803573,0.500663,0.016533,-0.420385,-0.186687,-0.158055,-0.419928,0.348415,0.151491,-0.465350,35.143475,20.131943,10.143919,0.351041,1.747848,0.114303,0.000000,0.000000,0.000000,0.000000,0.000000,0.000000
12034970.000000,2.301615,-1.072509,-1.887983,-1.480729,-1.034479,1.803932,0.500826,0.012647,-0.421519,-0.189452,-0.159688,-0.420685,0.350751,0.153190,-0.342364,35.143475,20.084335,10.171690,0.308927,1.754256,0.067611,0.000000,0.000000,0.000000,0.000000,0.000000,0.000000
12034971.000000,2.301634,-1.072937,-1.888174,-1.480881,-1.034900,1.804294,0.500977,0.015809,-0.418361,-0.189929,-0.157364,-0.416718,0.354521,0.154721,-0.342364,35.238689,20.108139,10.171690,0.332731,1.702071,0.100570,0.000000,0.000000,0.000000,0.000000,0.000000,0.000000
12034972.000000,2.301652,-1.073362,-1.888366,-1.481038,-1.035321,1.804644,0.501130,0.013656,-0.421427,-0.189768,-0.156639,-0.417276,0.355359,0.150295,-0.290789,35.413250,20.131943,10.219297,0.356534,1.695663,0.074935,0.000000,0.000000,0.000000,0.000000,0.000000,0.000000
12034973.000000,2.301662,-1.073784,-1.888552,-1.481189,-1.035738,1.804994,0.501281,0.010091,-0.418566,-0.188824,-0.155086,-0.415744,0.353185,0.152526,-0.144000,35.437054,20.108139,10.219297,0.327238,1.747848,0.094161,0.000000,0.000000,0.000000,0.000000,0.000000,0.000000
12034974.000000,2.301678,-1.074216,-1.888737,-1.481343,-1.036161,1.805342,0.501437,0.012907,-0.424494,-0.190767,-0.154590,-0.414229,0.354479,0.153371,-0.092425,35.607647,20.060532,10.243101,0.315336,1.754256,0.061202,0.000000,0.000000,0.000000,0.000000,0.000000,0.000000
12034975.000000,2.301698,-1.074650,-1.888933,-1.481492,-1.036582,1.805694,0.501595,0.016731,-0.425696,-0.191276,-0.150331,-0.423459,0.352696,0.152521,-0.116229,35.802044,20.108139,10.120115,0.327238,1.702071,0.074935,0.000000,0.000000,0.000000,0.000000,0.000000,0.000000
12034976.000000,2.301716,-1.075090,-1.889122,-1.481640,-1.037000,1.806047,0.501750,0.018476,-0.430044,-0.191783,-0.151267,-0.415622,0.358856,0.152250,-0.092425,36.000408,20.159714,10.048704,0.297025,1.689254,0.054794,0.000000,0.000000,0.000000,0.000000,0.000000,0.000000
12034977.000000,2.301730,-1.075516,-1.889310,-1.481784,-1.037413,1.806393,0.501903,0.018254,-0.430263,-0.192596,-0.151773,-0.410547,0.353247,0.150452,-0.017047,36.071819,20.131943,9.921751,0.279630,1.708480,0.081344,0.000000,0.000000,0.000000,0.000000,0.000000,0.000000
12034978.000000,2.301746,-1.075954,-1.889505,-1.481937,-1.037820,1.806746,0.502059,0.018942,-0.431917,-0.194418,-0.148800,-0.412074,0.355832,0.153599,0.030561,36.123394,20.254929,9.921751,0.285123,1.670028,0.094161,0.000000,0.000000,0.000000,0.000000,0.000000,0.000000
12034979.000000,2.301767,-1.076381,-1.889699,-1.482081,-1.038241,1.807099,0.502216,0.021138,-0.435591,-0.193714,-0.150520,-0.412426,0.352796,0.153739,0.006757,36.194805,20.306503,9.822569,0.291532,1.637069,0.081344,0.000000,0.000000,0.000000,0.000000,0.000000,0.000000
12034980.000000,2.301781,-1.076824,-1.889890,-1.482233,-1.038655,1.807445,0.502370,0.020421,-0.436276,-0.192723,-0.148950,-0.408896,0.352533,0.153174,0.078168,36.341595,20.330307,9.751158,0.308927,1.676437,0.074935,0.000000,0.000000,0.000000,0.000000,0.000000,0.000000
12034981.000000,2.301802,-1.077262,-1.890086,-1.482387,-1.039071,1.807784,0.502525,0.019364,-0.431990,-0.194826,-0.150635,-0.410952,0.346372,0.156290,0.054365,36.440777,20.477097,9.774961,0.320829,1.741439,0.067611,0.000000,0.000000,0.000000,0.000000,0.000000,0.000000
12034982.000000,2.301819,-1.077699,-1.890282,-1.482537,-1.039490,1.808126,0.502677,0.017129,-0.432603,-0.193991,-0.150504,-0.410550,0.340987,0.153047,0.078168,36.535992,20.552475,9.751158,0.285123,1.721298,0.107894,0.000000,0.000000,0.000000,0.000000,0.000000,0.000000
12034983.000000,2.301836,-1.078134,-1.890488,-1.482687,-1.039909,1.808478,0.502841,0.018626,-0.429438,-0.198175,-0.150714,-0.410870,0.341758,0.154906,0.105939,36.658978,20.671494,9.751158,0.279630,1.695663,0.048385,0.000000,0.000000,0.000000,0.000000,0.000000,0.000000
12034984.000000,2.301861,-1.078568,-1.890692,-1.482833,-1.040315,1.808832,0.502991,0.022147,-0.431700,-0.201122,-0.151514,-0.415273,0.342642,0.152354,0.030561,36.658978,20.794479,9.774961,0.261320,1.656295,0.087753,0.000000,0.000000,0.000000,0.000000,0.000000,0.000000
12034985.000000,2.301877,-1.078995,-1.890895,-1.482983,-1.040731,1.809172,0.503142,0.018487,-0.430417,-0.201265,-0.148074,-0.423313,0.341565,0.146474,0.078168,36.682781,20.846054,9.774961,0.279630,1.662704,0.120712,0.000000,0.000000,0.000000,0.000000,0.000000,0.000000
12034986.000000,2.301898,-1.079429,-1.891102,-1.483133,-1.041156,1.809500,0.503300,0.020015,-0.426948,-0.204027,-0.148923,-0.422336,0.342123,0.148590,0.078168,36.611370,20.992844,9.774961,0.308927,1.741439,0.074935,0.000000,0.000000,0.000000,0.000000,0.000000,0.000000
12034987.000000,2.301921,-1.079852,-1.891309,-1.483279,-1.041582,1.809831,0.503451,0.022708,-0.429747,-0.207265,-0.146947,-0.424912,0.337064,0.148201,0.030561,36.587566,21.064255,9.798765,0.308927,1.819259,0.100570,0.000000,0.000000,0.000000,0.000000,0.000000,0.000000
12034988.000000,2.301942,-1.080290,-1.891512,-1.483432,-1.042005,1.810174,0.503610,0.023853,-0.428383,-0.205905,-0.146267,-0.423872,0.334317,0.150981,0.006757,36.563763,21.092026,9.874144,0.339139,1.793624,0.048385,0.000000,0.000000,0.000000,0.000000,0.000000,0.000000
12034989.000000,2.301965,-1.080721,-1.891722,-1.483577,-1.042427,1.810515,0.503761,0.024408,-0.427822,-0.207239,-0.144596,-0.418767,0.332434,0.157438,-0.017047,36.416973,21.215012,9.897947,0.351041,1.760665,0.074935,0.000000,0.000000,0.000000,0.000000,0.000000,0.000000
12034990.000000,2.301986,-1.081151,-1.891932,-1.483724,-1.042847,1.810846,0.503914,0.023730,-0.430410,-0.207534,-0.147187,-0.420688,0.332890,0.154453,0.006757,36.365398,21.337997,9.949522,0.303434,1.806442,0.100570,0.000000,0.000000,0.000000,0.000000,0.000000,0.000000
12034991.000000,2.302005,-1.081587,-1.892137,-1.483874,-1.043273,1.811181,0.504075,0.019707,-0.430849,-0.209082,-0.145421,-0.418587,0.332040,0.157142,0.054365,36.317791,21.361801,9.973326,0.273221,1.871444,0.100570,0.000000,0.000000,0.000000,0.000000,0.000000,0.000000
12034992.000000,2.302032,-1.082013,-1.892347,-1.484019,-1.043698,1.811520,0.504237,0.023502,-0.429119,-0.210623,-0.143598,-0.416339,0.327868,0.157601,-0.044818,36.270184,21.409409,9.973326,0.255826,1.916305,0.048385,0.000000,0.000000,0.000000,0.000000,0.000000,0.000000
12034993.000000,2.302048,-1.082454,-1.892563,-1.484165,-1.044138,1.811856,0.504393,0.022064,-0.429746,-0.209962,-0.142039,-0.430457,0.331408,0.159517,0.030561,36.293987,21.508591,9.973326,0.285123,1.909896,0.061202,0.000000,0.000000,0.000000,0.000000,0.000000,0.000000
12034994.000000,2.302065,-1.082885,-1.892773,-1.484316,-1.044565,1.812198,0.504548,0.018088,-0.424607,-0.211480,-0.149405,-0.431875,0.338149,0.160734,0.105939,36.242413,21.556198,10.096312,0.291532,1.903487,0.061202,0.000000,0.000000,0.000000,0.000000,0.000000,0.000000
12034995.000000,2.302084,-1.083325,-1.892991,-1.484465,-1.044992,1.812543,0.504700,0.018826,-0.430562,-0.210285,-0.148575,-0.429225,0.340252,0.157368,0.153547,36.317791,21.655380,10.195494,0.320829,1.865035,0.074935,0.000000,0.000000,0.000000,0.000000,0.000000,0.000000
12034996.000000,2.302099,-1.083762,-1.893201,-1.484611,-1.045420,1.812887,0.504853,0.015288,-0.428240,-0.211238,-0.149173,-0.431348,0.341097,0.154732,0.252729,36.293987,21.726791,10.219297,0.344633,1.838485,0.081344,0.000000,0.000000,0.000000,0.000000,0.000000,0.000000
12034997.000000,2.302111,-1.084201,-1.893410,-1.484758,-1.045858,1.813226,0.505010,0.012208,-0.436301,-0.208853,-0.146282,-0.430782,0.340104,0.154948,0.375715,36.218609,21.754562,10.219297,0.332731,1.851302,0.048385,0.000000,0.000000,0.000000,0.000000,0.000000,0.000000
12034998.000000,2.302131,-1.084628,-1.893615,-1.484905,-1.046284,1.813561,0.505161,0.015059,-0.434275,-0.206311,-0.143994,-0.427070,0.337566,0.152053,0.403486,36.095623,21.754562,10.219297,0.344633,1.923629,0.094161,0.000000,0.000000,0.000000,0.000000,0.000000,0.000000
12034999.000000,2.302144,-1.085061,-1.893822,-1.485056,-1.046726,1.813899,0.505323,0.012597,-0.435216,-0.207866,-0.145322,-0.432349,0.335253,0.156605,0.502668,35.948833,21.754562,10.342283,0.320829,1.988631,0.061202,0.000000,0.000000,0.000000,0.000000,0.000000,0.000000
