chaoyuefei/paper-gmrm-data/robot_logs/s2_dq_mrm_max_0.30_log_20260314_172924.csv
# time_ms,q_0,q_1,q_2,q_3,q_4,q_5,q_6,dq_0,dq_1,dq_2,dq_3,dq_4,dq_5,dq_6,tau_J_0,tau_J_1,tau_J_2,tau_J_3,tau_J_4,tau_J_5,tau_J_6,O_dP_EE_c_0,O_dP_EE_c_1,O_dP_EE_c_2,O_dP_EE_c_3,O_dP_EE_c_4,O_dP_EE_c_5
12026452.000000,2.313458,-0.961768,-1.822717,-1.385858,-0.923953,1.666931,0.446172,-0.001191,-0.000115,0.000120,0.000072,-0.000038,-0.000258,0.000921,0.304304,35.508465,19.568588,12.147398,1.013883,1.416427,-0.169511,0.000000,0.000000,0.000000,0.000000,0.000000,0.000000
12026453.000000,2.313462,-0.961767,-1.822717,-1.385855,-0.923952,1.666933,0.446167,0.000412,-0.000076,0.000080,0.001161,0.000178,-0.000172,-0.001115,0.252729,35.508465,19.568588,12.099791,1.008390,1.416427,-0.122819,0.000000,0.000000,0.000000,0.000000,0.000000,0.000000
12026454.000000,2.313461,-0.961769,-1.822717,-1.385856,-0.923954,1.666931,0.446173,0.000832,-0.000701,0.000053,-0.000339,-0.000560,-0.000115,0.001223,0.228925,35.536236,19.568588,12.147398,1.026700,1.416427,-0.175919,0.000000,0.000000,0.000000,0.000000,0.000000,0.000000
12026455.000000,2.313457,-0.961767,-1.822717,-1.385857,-0.923953,1.666930,0.446172,-0.000559,0.000739,0.000035,-0.000226,-0.000136,-0.000076,0.000578,0.276533,35.484661,19.568588,12.147398,1.020292,1.416427,-0.169511,0.000000,0.000000,0.000000,0.000000,0.000000,0.000000
12026456.000000,2.313444,-0.961774,-1.822714,-1.385858,-0.923950,1.666930,0.446167,-0.016302,-0.010716,-0.007627,-0.000708,-0.000487,-0.003525,0.005920,-0.116229,35.020489,18.981430,12.171202,0.906766,1.383468,-0.064225,0.000000,0.000000,0.000000,0.000000,0.000000,0.000000
12026457.000000,2.313437,-0.961743,-1.822724,-1.385862,-0.923937,1.666933,0.446188,-0.031337,-0.010252,-0.025324,-0.000347,0.002883,-0.000334,0.015043,-2.024493,32.790874,17.089035,12.298155,0.554288,1.318465,-0.089860,0.000000,0.000000,0.000000,0.000000,0.000000,0.000000
12026458.000000,2.313419,-0.961696,-1.822791,-1.385860,-0.923919,1.666916,0.446217,-0.031670,0.007188,-0.044448,-0.000530,0.007097,-0.007380,0.021089,-5.416522,28.875164,14.367477,12.321959,0.004056,1.377059,-0.097184,0.000000,0.000000,0.000000,0.000000,0.000000,0.000000
12026459.000000,2.313384,-0.961691,-1.822900,-1.385840,-0.923930,1.666898,0.446252,-0.023307,0.007318,-0.062411,0.001194,0.000522,-0.010109,0.027755,-9.451251,24.788860,11.078598,12.000608,-0.318209,1.500655,-0.037675,0.000000,0.000000,0.000000,0.000000,0.000000,0.000000
12026460.000000,2.313308,-0.961736,-1.823041,-1.385835,-0.923991,1.666901,0.446310,-0.028125,-0.000055,-0.074942,0.001346,-0.020795,-0.006960,0.040631,-13.113055,21.142925,7.638962,11.826048,-0.199191,1.494247,-0.064225,0.000000,0.000000,0.000000,0.000000,0.000000,0.000000
12026461.000000,2.313213,-0.961831,-1.823199,-1.385849,-0.924075,1.666949,0.446380,-0.036962,-0.016822,-0.085214,-0.005256,-0.043700,0.010054,0.048313,-16.481279,18.179363,4.350082,11.802244,0.010465,1.214095,-0.037675,0.000000,0.000000,0.000000,0.000000,0.000000,0.000000
12026462.000000,2.313112,-0.961955,-1.823355,-1.385864,-0.924168,1.667053,0.446472,-0.040391,-0.040585,-0.090909,-0.015233,-0.059484,0.039708,0.059897,-18.980669,16.072735,1.723740,11.457090,0.213712,0.583297,-0.037675,0.000000,0.000000,0.000000,0.000000,0.000000,0.000000
12026463.000000,2.313006,-0.962107,-1.823508,-1.385894,-0.924282,1.667204,0.446579,-0.045175,-0.069284,-0.097119,-0.024967,-0.076317,0.079208,0.076952,-20.119280,14.922222,-0.117081,10.786619,0.446256,-0.177506,-0.011124,0.000000,0.000000,0.000000,0.000000,0.000000,0.000000
12026464.000000,2.312927,-0.962285,-1.823639,-1.385946,-0.924386,1.667367,0.446702,-0.046358,-0.105230,-0.100384,-0.037432,-0.085166,0.107978,0.095559,-20.293840,14.557232,-1.291397,9.774961,0.458158,-0.703934,-0.011124,0.000000,0.000000,0.000000,0.000000,0.000000,0.000000
12026465.000000,2.312873,-0.962469,-1.823752,-1.386014,-0.924500,1.667527,0.446843,-0.046742,-0.126419,-0.098213,-0.048592,-0.093006,0.133139,0.105705,-19.774126,14.581036,-1.882523,8.366575,0.374845,-0.821122,-0.044083,0.000000,0.000000,0.000000,0.000000,0.000000,0.000000
12026466.000000,2.312821,-0.962623,-1.823857,-1.386103,-0.924602,1.667690,0.446980,-0.052254,-0.134457,-0.102902,-0.062866,-0.094519,0.143121,0.115472,-18.583941,14.410442,-1.957901,6.736022,0.027860,-0.554704,-0.004716,0.000000,0.000000,0.000000,0.000000,0.000000,0.000000
12026467.000000,2.312768,-0.962745,-1.823961,-1.386240,-0.924700,1.667881,0.447130,-0.061553,-0.129069,-0.107849,-0.086173,-0.096262,0.155263,0.125790,-17.000994,13.970074,-1.711929,5.299864,-0.461947,-0.229691,-0.044083,0.000000,0.000000,0.000000,0.000000,0.000000,0.000000
12026468.000000,2.312702,-0.962838,-1.824058,-1.386411,-0.924821,1.668113,0.447282,-0.071506,-0.115496,-0.108002,-0.109637,-0.102577,0.175189,0.132007,-15.144305,13.136944,-1.366776,4.236632,-0.838229,-0.020951,-0.050492,0.000000,0.000000,0.000000,0.000000,0.000000,0.000000
12026469.000000,2.312619,-0.962893,-1.824162,-1.386622,-0.924975,1.668367,0.447441,-0.083729,-0.097654,-0.112608,-0.133172,-0.116928,0.200313,0.143093,-13.113055,11.815838,-0.898636,3.593931,-0.975558,0.180465,-0.077042,0.000000,0.000000,0.000000,0.000000,0.000000,0.000000
12026470.000000,2.312513,-0.962939,-1.824280,-1.386868,-0.925174,1.668641,0.447599,-0.097222,-0.079988,-0.122548,-0.168454,-0.142029,0.229730,0.143749,-10.935016,10.395550,-0.359085,3.324156,-0.844637,0.356246,-0.056901,0.000000,0.000000,0.000000,0.000000,0.000000,0.000000
12026471.000000,2.312387,-0.962977,-1.824405,-1.387132,-0.925417,1.668961,0.447761,-0.113933,-0.064353,-0.125983,-0.197301,-0.175404,0.256219,0.148131,-8.657794,8.975262,0.057480,3.224974,-0.414340,0.401107,-0.023942,0.000000,0.000000,0.000000,0.000000,0.000000,0.000000
12026472.000000,2.312241,-0.963025,-1.824538,-1.387422,-0.925678,1.669310,0.447932,-0.128708,-0.061105,-0.130096,-0.224636,-0.205990,0.284070,0.154987,-6.356768,7.872356,0.426437,3.423338,0.081876,0.362655,-0.064225,0.000000,0.000000,0.000000,0.000000,0.000000,0.000000
12026473.000000,2.312097,-0.963087,-1.824674,-1.387727,-0.925942,1.669672,0.448097,-0.138854,-0.058201,-0.132123,-0.251805,-0.226493,0.306118,0.156384,-4.325518,7.043194,0.644638,3.693114,0.428861,0.291244,-0.011124,0.000000,0.000000,0.000000,0.000000,0.000000,0.000000
12026474.000000,2.311948,-0.963176,-1.824806,-1.388031,-0.926181,1.670066,0.448262,-0.144043,-0.069496,-0.137567,-0.269346,-0.233611,0.335331,0.159470,-2.520403,6.674236,0.644638,3.792296,0.470060,0.226241,-0.004716,0.000000,0.000000,0.000000,0.000000,0.000000,0.000000
12026475.000000,2.311820,-0.963294,-1.824952,-1.388326,-0.926411,1.670463,0.448435,-0.139423,-0.087230,-0.137505,-0.282873,-0.230081,0.353234,0.158187,-1.108050,6.896404,0.819198,3.570128,0.219205,0.291244,-0.031266,0.000000,0.000000,0.000000,0.000000,0.000000,0.000000
12026476.000000,2.311712,-0.963450,-1.825089,-1.388603,-0.926638,1.670868,0.448607,-0.127528,-0.108692,-0.131933,-0.279741,-0.218408,0.364499,0.160133,0.054365,7.824749,1.160385,2.951231,-0.060946,0.532027,-0.004716,0.000000,0.000000,0.000000,0.000000,0.000000,0.000000
12026477.000000,2.311610,-0.963629,-1.825222,-1.388886,-0.926860,1.671302,0.448784,-0.121238,-0.134248,-0.131452,-0.274856,-0.218122,0.382023,0.168507,1.268354,9.292645,1.799118,2.336302,-0.270602,0.798446,-0.037675,0.000000,0.000000,0.000000,0.000000,0.000000,0.000000
12026478.000000,2.311507,-0.963816,-1.825363,-1.389173,-0.927078,1.671771,0.448956,-0.112553,-0.156850,-0.132475,-0.278770,-0.217556,0.408316,0.166821,2.553754,11.006512,2.806808,1.717406,-0.491244,0.869857,0.001693,0.000000,0.000000,0.000000,0.000000,0.000000,0.000000
12026479.000000,2.311404,-0.963993,-1.825499,-1.389468,-0.927313,1.672292,0.449129,-0.109486,-0.166252,-0.135456,-0.281154,-0.221675,0.445682,0.173263,3.843122,12.525982,3.957321,1.074705,-0.479342,0.687667,-0.023942,0.000000,0.000000,0.000000,0.000000,0.000000,0.000000
12026480.000000,2.311302,-0.964149,-1.825631,-1.389786,-0.927562,1.672846,0.449305,-0.111298,-0.164851,-0.135509,-0.293236,-0.229689,0.479492,0.172637,5.029340,13.577312,5.064194,0.701781,-0.324618,0.343429,-0.031266,0.000000,0.000000,0.000000,0.000000,0.000000,0.000000
12026481.000000,2.311209,-0.964286,-1.825765,-1.390116,-0.927828,1.673401,0.449478,-0.107655,-0.159180,-0.134853,-0.303667,-0.237544,0.505367,0.166743,5.997358,14.041485,6.044113,0.408202,-0.091158,0.082504,-0.023942,0.000000,0.000000,0.000000,0.000000,0.000000,0.000000
12026482.000000,2.311117,-0.964407,-1.825894,-1.390462,-0.928089,1.673944,0.449645,-0.102226,-0.152378,-0.137553,-0.313307,-0.243566,0.512950,0.166717,6.814619,14.093060,6.758224,0.233641,0.159696,0.141097,-0.004716,0.000000,0.000000,0.000000,0.000000,0.000000,0.000000
12026483.000000,2.311029,-0.964512,-1.826028,-1.390814,-0.928358,1.674461,0.449823,-0.095121,-0.138401,-0.136404,-0.326294,-0.250212,0.509243,0.172678,7.457319,13.652691,7.321579,0.035277,0.356534,0.329696,-0.031266,0.000000,0.000000,0.000000,0.000000,0.000000,0.000000
12026484.000000,2.310963,-0.964615,-1.826165,-1.391187,-0.928614,1.674998,0.449997,-0.081104,-0.127065,-0.137319,-0.338016,-0.253794,0.514946,0.175839,7.703290,12.966351,7.666733,-0.063905,0.393156,0.421249,-0.037675,0.000000,0.000000,0.000000,0.000000,0.000000,0.000000
12026485.000000,2.310903,-0.964725,-1.826311,-1.391570,-0.928872,1.675524,0.450171,-0.074268,-0.116428,-0.141046,-0.348747,-0.257644,0.516650,0.178122,7.778669,12.256207,7.960312,-0.210695,0.320829,0.486251,-0.017533,0.000000,0.000000,0.000000,0.000000,0.000000,0.000000
12026486.000000,2.310857,-0.964842,-1.826456,-1.391947,-0.929127,1.676051,0.450343,-0.065126,-0.110908,-0.140489,-0.355033,-0.252382,0.518113,0.174475,7.631879,11.593670,8.107101,-0.432863,0.154203,0.544845,0.021835,0.000000,0.000000,0.000000,0.000000,0.000000,0.000000
12026487.000000,2.310814,-0.964987,-1.826612,-1.392338,-0.929377,1.676566,0.450523,-0.055429,-0.119716,-0.147381,-0.363792,-0.249905,0.516584,0.175108,7.433515,11.300091,8.253891,-0.706606,-0.001437,0.668441,-0.023942,0.000000,0.000000,0.000000,0.000000,0.000000,0.000000
12026488.000000,2.310786,-0.965158,-1.826779,-1.392724,-0.929642,1.677061,0.450697,-0.047194,-0.134125,-0.150891,-0.376051,-0.255287,0.512510,0.172649,7.036787,11.351665,8.452255,-1.075563,0.027860,0.759078,-0.004716,0.000000,0.000000,0.000000,0.000000,0.000000,0.000000
12026489.000000,2.310759,-0.965356,-1.826951,-1.393120,-0.929923,1.677582,0.450865,-0.042570,-0.156150,-0.154934,-0.376050,-0.261551,0.513867,0.170259,6.517072,11.669048,8.694260,-1.420717,0.129484,0.700484,0.041976,0.000000,0.000000,0.000000,0.000000,0.000000,0.000000
12026490.000000,2.310720,-0.965585,-1.827122,-1.393512,-0.930212,1.678097,0.451044,-0.043982,-0.179183,-0.159082,-0.370769,-0.266681,0.515026,0.176899,5.898176,12.426800,8.845016,-1.448488,0.255826,0.538436,-0.011124,0.000000,0.000000,0.000000,0.000000,0.000000,0.000000
12026491.000000,2.310676,-0.965833,-1.827288,-1.393892,-0.930502,1.678621,0.451221,-0.044671,-0.203032,-0.161532,-0.370515,-0.274269,0.518643,0.179655,5.104719,13.406719,8.845016,-1.174745,0.374845,0.388290,-0.017533,0.000000,0.000000,0.000000,0.000000,0.000000,0.000000
12026492.000000,2.310629,-0.966094,-1.827452,-1.394274,-0.930779,1.679146,0.451393,-0.045535,-0.220626,-0.163422,-0.365889,-0.280013,0.518554,0.176684,4.017683,14.557232,8.845016,-0.484438,0.398649,0.297652,-0.004716,0.000000,0.000000,0.000000,0.000000,0.000000,0.000000
12026493.000000,2.310567,-0.966360,-1.827618,-1.394642,-0.931060,1.679664,0.451563,-0.047173,-0.234488,-0.158700,-0.366472,-0.281247,0.523492,0.173756,3.049665,15.953716,8.940231,0.408202,0.428861,0.226241,0.021835,0.000000,0.000000,0.000000,0.000000,0.000000,0.000000
12026494.000000,2.310502,-0.966636,-1.827774,-1.395013,-0.931342,1.680183,0.451743,-0.050315,-0.245672,-0.154908,-0.367078,-0.280400,0.519772,0.174062,2.160993,17.568401,9.162399,1.642027,0.410551,0.336105,-0.011124,0.000000,0.000000,0.000000,0.000000,0.000000,0.000000
12026495.000000,2.310419,-0.966900,-1.827918,-1.395396,-0.931616,1.680695,0.451909,-0.057501,-0.251397,-0.150520,-0.371555,-0.278099,0.516000,0.173840,1.589704,19.159283,9.455978,3.125792,0.332731,0.511886,-0.004716,0.000000,0.000000,0.000000,0.000000,0.000000,0.000000
12026496.000000,2.310319,-0.967162,-1.828059,-1.395785,-0.931881,1.681208,0.452072,-0.072343,-0.253387,-0.145913,-0.381383,-0.268213,0.514479,0.166149,1.367536,20.773968,9.848740,4.807921,0.166105,0.654708,0.034652,0.000000,0.000000,0.000000,0.000000,0.000000,0.000000
12026497.000000,2.310226,-0.967413,-1.828204,-1.396195,-0.932138,1.681734,0.452240,-0.078285,-0.252037,-0.144207,-0.389492,-0.257925,0.514080,0.167034,1.169172,22.341045,10.463669,6.585265,0.022367,0.759078,0.034652,0.000000,0.000000,0.000000,0.000000,0.000000,0.000000
12026498.000000,2.310119,-0.967656,-1.828334,-1.396609,-0.932402,1.682248,0.452408,-0.087203,-0.251566,-0.139869,-0.397272,-0.259469,0.517823,0.161972,1.192975,23.761333,10.979416,8.192015,-0.001437,0.908309,0.061202,0.000000,0.000000,0.000000,0.000000,0.000000,0.000000
12026499.000000,2.310016,-0.967908,-1.828480,-1.397025,-0.932671,1.682745,0.452591,-0.092466,-0.251975,-0.143307,-0.407951,-0.261225,0.505773,0.166427,1.192975,25.106243,11.665756,9.628172,0.010465,1.214095,-0.004716,0.000000,0.000000,0.000000,0.000000,0.000000,0.000000
12026500.000000,2.309911,-0.968161,-1.828629,-1.397450,-0.932936,1.683237,0.452755,-0.095276,-0.254409,-0.148362,-0.416296,-0.260785,0.502415,0.165104,1.216779,26.280560,12.328293,10.838194,0.093778,1.519881,0.048385,0.000000,0.000000,0.000000,0.000000,0.000000,0.000000
12026501.000000,2.309798,-0.968425,-1.828792,-1.397864,-0.933208,1.683726,0.452932,-0.100558,-0.262332,-0.153632,-0.418646,-0.261535,0.496128,0.161866,1.367536,27.383465,13.066208,11.703062,0.219205,1.682845,0.034652,0.000000,0.000000,0.000000,0.000000,0.000000,0.000000
12026502.000000,2.309686,-0.968701,-1.828965,-1.398288,-0.933465,1.684227,0.453102,-0.108181,-0.264885,-0.160834,-0.418215,-0.262497,0.492776,0.167583,1.542096,28.458599,13.823959,12.298155,0.237516,1.637069,0.034652,0.000000,0.000000,0.000000,0.000000,0.000000,0.000000
12026503.000000,2.309568,-0.968992,-1.829136,-1.398711,-0.933728,1.684723,0.453272,-0.110406,-0.278785,-0.164559,-0.418711,-0.261304,0.503172,0.167530,1.740461,29.585308,14.391281,12.619505,0.201810,1.559249,0.048385,0.000000,0.000000,0.000000,0.000000,0.000000,0.000000
12026504.000000,2.309457,-0.969300,-1.829320,-1.399119,-0.933998,1.685208,0.453443,-0.110204,-0.287435,-0.173492,-0.413339,-0.261067,0.496815,0.173315,1.863447,30.688213,14.954636,12.619505,0.189908,1.532699,0.028243,0.000000,0.000000,0.000000,0.000000,0.000000,0.000000
12026505.000000,2.309335,-0.969627,-1.829512,-1.399524,-0.934261,1.685675,0.453610,-0.113250,-0.299670,-0.180138,-0.405532,-0.260713,0.491405,0.170848,2.133222,31.862530,15.494186,12.444944,0.154203,1.630660,0.067611,0.000000,0.000000,0.000000,0.000000,0.000000,0.000000
12026506.000000,2.309211,-0.969951,-1.829705,-1.399928,-0.934526,1.686138,0.453787,-0.118685,-0.311107,-0.183713,-0.409912,-0.260901,0.484123,0.171740,2.454572,32.890057,15.839340,12.171202,0.135892,1.708480,0.028243,0.000000,0.000000,0.000000,0.000000,0.000000,0.000000
12026507.000000,2.309085,-0.970274,-1.829904,-1.400326,-0.934792,1.686614,0.453955,-0.120825,-0.312586,-0.187352,-0.404294,-0.265949,0.478075,0.169753,2.779890,33.624004,16.208298,11.778440,0.117582,1.662704,0.041976,0.000000,0.000000,0.000000,0.000000,0.000000,0.000000
12026508.000000,2.308953,-0.970589,-1.830113,-1.400729,-0.935065,1.687107,0.454125,-0.122817,-0.312422,-0.191596,-0.396084,-0.263825,0.481699,0.170308,3.148847,34.115948,16.624863,11.457090,0.069974,1.539108,0.021835,0.000000,0.000000,0.000000,0.000000,0.000000,0.000000
12026509.000000,2.308832,-0.970897,-1.830328,-1.401124,-0.935344,1.687581,0.454291,-0.121019,-0.311405,-0.196245,-0.396466,-0.268541,0.481276,0.168963,3.371015,34.409527,16.989853,11.234922,0.076383,1.474105,0.041976,0.000000,0.000000,0.000000,0.000000,0.000000,0.000000
12026510.000000,2.308710,-0.971201,-1.830566,-1.401502,-0.935629,1.688044,0.454452,-0.121513,-0.306014,-0.212591,-0.387727,-0.276019,0.475988,0.168886,3.545576,34.433331,17.533371,10.786619,0.171598,1.526290,0.048385,0.000000,0.000000,0.000000,0.000000,0.000000,0.000000
12026511.000000,2.308590,-0.971498,-1.830804,-1.401880,-0.935910,1.688504,0.454623,-0.121125,-0.299309,-0.220146,-0.385582,-0.276141,0.471175,0.170929,3.668561,34.433331,18.096725,10.465269,0.261320,1.637069,-0.004716,0.000000,0.000000,0.000000,0.000000,0.000000,0.000000
12026512.000000,2.308479,-0.971784,-1.831049,-1.402258,-0.936199,1.688971,0.454785,-0.118124,-0.292371,-0.227902,-0.386970,-0.281807,0.464904,0.167514,3.692365,34.211163,18.636276,10.270872,0.381254,1.702071,0.074935,0.000000,0.000000,0.000000,0.000000,0.000000,0.000000
12026513.000000,2.308367,-0.972065,-1.831292,-1.402637,-0.936476,1.689449,0.454957,-0.115939,-0.290940,-0.233610,-0.379346,-0.277057,0.472553,0.164701,3.720136,33.941387,19.152023,10.171690,0.386747,1.695663,0.041976,0.000000,0.000000,0.000000,0.000000,0.000000,0.000000
12026514.000000,2.308261,-0.972344,-1.831549,-1.403006,-0.936760,1.689921,0.455130,-0.111472,-0.283239,-0.242862,-0.377078,-0.276950,0.473641,0.166266,3.720136,33.746990,19.643967,10.048704,0.356534,1.670028,0.021835,0.000000,0.000000,0.000000,0.000000,0.000000,0.000000
12026515.000000,2.308158,-0.972638,-1.831802,-1.403384,-0.937044,1.690385,0.455293,-0.109144,-0.286762,-0.245118,-0.374551,-0.273447,0.471899,0.166128,3.620954,33.699383,20.036728,10.048704,0.351041,1.689254,0.048385,0.000000,0.000000,0.000000,0.000000,0.000000,0.000000
12026516.000000,2.308056,-0.972936,-1.832066,-1.403765,-0.937332,1.690838,0.455470,-0.107691,-0.293500,-0.251449,-0.375253,-0.278421,0.466781,0.167969,3.521772,33.794598,20.500900,10.020933,0.422452,1.838485,0.021835,0.000000,0.000000,0.000000,0.000000,0.000000,0.000000
12026517.000000,2.307956,-0.973230,-1.832330,-1.404129,-0.937627,1.691293,0.455632,-0.104493,-0.290155,-0.253652,-0.370278,-0.285521,0.459405,0.162305,3.446393,33.869976,20.869858,9.897947,0.482877,1.962081,0.054794,0.000000,0.000000,0.000000,0.000000,0.000000,0.000000
12026518.000000,2.307860,-0.973532,-1.832592,-1.404504,-0.937914,1.691755,0.455804,-0.100852,-0.297063,-0.254895,-0.373041,-0.285233,0.462128,0.166559,3.323408,34.040569,21.187241,9.822569,0.500272,2.001449,-0.011124,0.000000,0.000000,0.000000,0.000000,0.000000,0.000000
12026519.000000,2.307776,-0.973839,-1.832862,-1.404882,-0.938208,1.692222,0.455968,-0.095343,-0.300682,-0.259898,-0.375640,-0.287433,0.463528,0.161382,3.073469,34.187359,21.532394,9.874144,0.571683,1.930038,0.009017,0.000000,0.000000,0.000000,0.000000,0.000000,0.000000
12026520.000000,2.307685,-0.974150,-1.833121,-1.405267,-0.938496,1.692698,0.456129,-0.094779,-0.304951,-0.258929,-0.377898,-0.290038,0.461266,0.164923,2.950483,34.385723,21.679184,9.949522,0.547880,1.786300,0.067611,0.000000,0.000000,0.000000,0.000000,0.000000,0.000000
12026521.000000,2.307611,-0.974458,-1.833384,-1.405655,-0.938777,1.693160,0.456300,-0.086926,-0.305777,-0.259365,-0.379193,-0.290503,0.464749,0.167455,2.652936,34.480938,21.849777,10.020933,0.476469,1.773483,0.034652,0.000000,0.000000,0.000000,0.000000,0.000000,0.000000
12026522.000000,2.307546,-0.974770,-1.833640,-1.406025,-0.939078,1.693613,0.456464,-0.079497,-0.306288,-0.255822,-0.381217,-0.291698,0.456019,0.166598,2.283979,34.580120,21.877548,9.997129,0.566190,1.923629,0.067611,0.000000,0.000000,0.000000,0.000000,0.000000,0.000000
12026523.000000,2.307485,-0.975083,-1.833894,-1.406414,-0.939358,1.694073,0.456635,-0.070126,-0.306415,-0.258941,-0.382031,-0.288818,0.452416,0.170569,1.863447,34.651531,21.901352,10.120115,0.547880,2.007858,-0.017533,0.000000,0.000000,0.000000,0.000000,0.000000,0.000000
12026524.000000,2.307431,-0.975393,-1.834152,-1.406796,-0.939643,1.694538,0.456791,-0.065221,-0.308403,-0.258696,-0.390386,-0.290705,0.457633,0.166662,1.415143,34.679302,21.877548,10.243101,0.506681,2.020675,0.067611,0.000000,0.000000,0.000000,0.000000,0.000000,0.000000
12026525.000000,2.307375,-0.975693,-1.834400,-1.407198,-0.939940,1.695008,0.456960,-0.061359,-0.302814,-0.250805,-0.394692,-0.293570,0.457032,0.164516,1.046186,34.556316,21.778366,10.465269,0.500272,2.014266,0.021835,0.000000,0.000000,0.000000,0.000000,0.000000,0.000000
12026526.000000,2.307332,-0.976000,-1.834648,-1.407606,-0.940232,1.695488,0.457119,-0.052759,-0.303935,-0.247645,-0.399389,-0.290599,0.467837,0.160478,0.574079,34.480938,21.778366,10.762815,0.482877,1.949264,0.034652,0.000000,0.000000,0.000000,0.000000,0.000000,0.000000
12026527.000000,2.307295,-0.976313,-1.834894,-1.408003,-0.940531,1.695967,0.457287,-0.049722,-0.306333,-0.243130,-0.399518,-0.290238,0.475366,0.162135,0.105939,34.457134,21.702988,10.913572,0.535978,1.903487,0.041976,0.000000,0.000000,0.000000,0.000000,0.000000,0.000000
12026528.000000,2.307256,-0.976617,-1.835136,-1.408407,-0.940819,1.696432,0.457454,-0.045355,-0.306937,-0.239291,-0.401688,-0.289431,0.465670,0.164797,-0.314593,34.385723,21.580002,11.060362,0.554288,1.981307,0.021835,0.000000,0.000000,0.000000,0.000000,0.000000,0.000000
12026529.000000,2.307224,-0.976929,-1.835371,-1.408814,-0.941120,1.696900,0.457616,-0.041759,-0.309744,-0.238623,-0.402420,-0.292924,0.469910,0.163278,-0.762896,34.409527,21.409409,11.258726,0.566190,2.039901,0.087753,0.000000,0.000000,0.000000,0.000000,0.000000,0.000000
12026530.000000,2.307196,-0.977249,-1.835602,-1.409227,-0.941422,1.697378,0.457794,-0.039092,-0.310755,-0.234142,-0.399957,-0.290048,0.467180,0.163481,-1.207232,34.556316,21.215012,11.480894,0.566190,2.014266,0.001693,0.000000,0.000000,0.000000,0.000000,0.000000,0.000000
12026531.000000,2.307168,-0.977573,-1.835825,-1.409644,-0.941713,1.697855,0.457960,-0.035184,-0.326744,-0.230821,-0.399758,-0.288054,0.471395,0.164227,-1.580157,34.750713,20.992844,11.655455,0.559781,1.936446,0.021835,0.000000,0.000000,0.000000,0.000000,0.000000,0.000000
12026532.000000,2.307137,-0.977899,-1.836043,-1.410049,-0.941997,1.698329,0.458124,-0.035446,-0.327319,-0.225364,-0.399596,-0.284860,0.473449,0.159193,-1.849932,34.921307,20.770676,11.802244,0.512174,1.890670,0.054794,0.000000,0.000000,0.000000,0.000000,0.000000,0.000000
12026533.000000,2.307106,-0.978242,-1.836254,-1.410459,-0.942296,1.698799,0.458292,-0.034675,-0.330053,-0.218241,-0.399837,-0.289773,0.467582,0.158192,-2.123675,35.337872,20.552475,11.826048,0.524076,1.884261,0.028243,0.000000,0.000000,0.000000,0.000000,0.000000,0.000000
12026534.000000,2.307085,-0.978582,-1.836458,-1.410878,-0.942595,1.699265,0.458460,-0.028737,-0.334991,-0.215517,-0.401111,-0.288624,0.468641,0.160257,-2.492632,35.631451,20.306503,12.024412,0.535978,1.890670,0.048385,0.000000,0.000000,0.000000,0.000000,0.000000,0.000000
12026535.000000,2.307056,-0.978935,-1.836664,-1.411286,-0.942892,1.699740,0.458640,-0.031386,-0.337054,-0.212250,-0.402643,-0.291552,0.476255,0.164259,-2.690997,36.048016,20.159714,12.123594,0.535978,1.838485,0.001693,0.000000,0.000000,0.000000,0.000000,0.000000,0.000000
12026536.000000,2.307029,-0.979287,-1.836864,-1.411697,-0.943174,1.700212,0.458801,-0.029322,-0.343059,-0.210409,-0.400679,-0.287958,0.472281,0.158671,-2.917132,36.341595,20.008957,12.246580,0.488370,1.779891,0.054794,0.000000,0.000000,0.000000,0.000000,0.000000,0.000000
12026537.000000,2.307000,-0.979638,-1.837059,-1.412112,-0.943460,1.700683,0.458972,-0.032869,-0.346220,-0.203871,-0.404353,-0.290031,0.468850,0.156517,-3.063921,36.611370,19.790756,12.421141,0.440763,1.735030,0.054794,0.000000,0.000000,0.000000,0.000000,0.000000,0.000000
12026538.000000,2.306967,-0.979986,-1.837261,-1.412528,-0.943759,1.701157,0.459137,-0.030589,-0.345062,-0.201238,-0.404931,-0.289001,0.468364,0.159019,-3.139300,36.857342,19.667770,12.643309,0.446256,1.735030,0.054794,0.000000,0.000000,0.000000,0.000000,0.000000,0.000000
12026539.000000,2.306935,-0.980341,-1.837460,-1.412941,-0.944042,1.701625,0.459308,-0.031699,-0.344459,-0.198465,-0.405300,-0.287142,0.472961,0.158230,-3.210711,37.127117,19.643967,12.742491,0.428861,1.767074,0.021835,0.000000,0.000000,0.000000,0.000000,0.000000,0.000000
12026540.000000,2.306900,-0.980697,-1.837655,-1.413355,-0.944322,1.702100,0.459473,-0.033800,-0.344908,-0.194942,-0.401908,-0.283725,0.475983,0.159984,-3.210711,37.392925,19.592392,12.940855,0.369352,1.812850,0.041976,0.000000,0.000000,0.000000,0.000000,0.000000,0.000000
12026541.000000,2.306857,-0.981051,-1.837846,-1.413771,-0.944606,1.702570,0.459639,-0.037133,-0.348057,-0.194967,-0.400081,-0.285140,0.469346,0.161595,-3.139300,37.515911,19.544785,13.087645,0.398649,1.838485,0.061202,0.000000,0.000000,0.000000,0.000000,0.000000,0.000000
12026542.000000,2.306816,-0.981398,-1.838045,-1.414183,-0.944890,1.703044,0.459813,-0.039037,-0.347025,-0.199454,-0.409393,-0.287164,0.470402,0.163405,-3.063921,37.615093,19.520981,13.333616,0.332731,1.838485,0.061202,0.000000,0.000000,0.000000,0.000000,0.000000,0.000000
12026543.000000,2.306770,-0.981750,-1.838252,-1.414592,-0.945177,1.703525,0.459992,-0.042368,-0.347455,-0.198666,-0.408782,-0.285973,0.471212,0.170712,-2.917132,37.785686,19.592392,13.432798,0.315336,1.812850,0.034652,0.000000,0.000000,0.000000,0.000000,0.000000,0.000000
12026544.000000,2.306713,-0.982104,-1.838451,-1.415000,-0.945465,1.704003,0.460164,-0.049964,-0.349767,-0.199553,-0.404167,-0.287913,0.476746,0.170781,-2.667193,38.007854,19.592392,13.508177,0.369352,1.793624,0.021835,0.000000,0.000000,0.000000,0.000000,0.000000,0.000000
12026545.000000,2.306659,-0.982462,-1.838659,-1.415407,-0.945747,1.704471,0.460327,-0.054161,-0.351569,-0.201185,-0.405791,-0.285912,0.469708,0.167106,-2.468829,38.249859,19.667770,13.631163,0.362943,1.825668,0.100570,0.000000,0.000000,0.000000,0.000000,0.000000,0.000000
12026546.000000,2.306591,-0.982828,-1.838872,-1.415808,-0.946034,1.704937,0.460504,-0.057223,-0.358406,-0.203560,-0.400704,-0.290396,0.464789,0.170530,-2.123675,38.448223,19.766953,13.654966,0.369352,1.832076,0.028243,0.000000,0.000000,0.000000,0.000000,0.000000,0.000000
12026547.000000,2.306534,-0.983191,-1.839079,-1.416207,-0.946328,1.705402,0.460670,-0.058212,-0.358313,-0.204853,-0.399140,-0.290110,0.469106,0.163529,-1.949114,38.690228,19.862167,13.583555,0.405057,1.779891,0.081344,0.000000,0.000000,0.000000,0.000000,0.000000,0.000000
12026548.000000,2.306463,-0.983557,-1.839291,-1.416596,-0.946615,1.705875,0.460841,-0.063479,-0.364286,-0.206138,-0.394374,-0.286730,0.466059,0.165818,-1.603961,38.960003,19.985153,13.508177,0.369352,1.754256,0.061202,0.000000,0.000000,0.000000,0.000000,0.000000,0.000000
12026549.000000,2.306394,-0.983926,-1.839505,-1.416987,-0.946900,1.706335,0.461014,-0.064796,-0.366382,-0.209020,-0.392096,-0.280812,0.461943,0.169381,-1.330218,39.229778,20.183517,13.357420,0.356534,1.779891,0.021835,0.000000,0.000000,0.000000,0.000000,0.000000,0.000000
12026550.000000,2.306327,-0.984302,-1.839723,-1.417362,-0.947195,1.706790,0.461174,-0.065515,-0.368246,-0.212870,-0.385960,-0.285678,0.456545,0.166201,-1.084246,39.523357,20.330307,13.111448,0.339139,1.865035,0.094161,0.000000,0.000000,0.000000,0.000000,0.000000,0.000000
12026551.000000,2.306247,-0.984683,-1.839950,-1.417738,-0.947493,1.707250,0.461346,-0.069078,-0.371774,-0.214211,-0.383501,-0.289327,0.449829,0.165003,-0.711321,39.769329,20.552475,12.813902,0.327238,1.877853,0.028243,0.000000,0.000000,0.000000,0.000000,0.000000,0.000000
12026552.000000,2.306169,-0.985045,-1.840173,-1.418117,-0.947786,1.707710,0.461506,-0.069829,-0.365296,-0.217549,-0.377793,-0.292074,0.458772,0.164986,-0.389971,39.892315,20.746872,12.591734,0.303434,1.800033,0.054794,0.000000,0.000000,0.000000,0.000000,0.000000,0.000000
12026553.000000,2.306087,-0.985407,-1.840410,-1.418490,-0.948084,1.708177,0.461670,-0.074369,-0.360908,-0.221925,-0.380337,-0.289890,0.463319,0.166163,-0.044818,39.939922,21.040451,12.393370,0.315336,1.773483,0.048385,0.000000,0.000000,0.000000,0.000000,0.000000,0.000000
12026554.000000,2.306000,-0.985763,-1.840643,-1.418863,-0.948386,1.708643,0.461826,-0.078273,-0.357564,-0.223734,-0.374927,-0.295276,0.461688,0.160829,0.328107,39.916119,21.262619,12.198973,0.369352,1.754256,0.087753,0.000000,0.000000,0.000000,0.000000,0.000000,0.000000
12026555.000000,2.305907,-0.986114,-1.840886,-1.419223,-0.948698,1.709105,0.461992,-0.084942,-0.357205,-0.227936,-0.375192,-0.297565,0.463074,0.165392,0.748639,39.868511,21.607773,12.000608,0.386747,1.779891,0.015426,0.000000,0.000000,0.000000,0.000000,0.000000,0.000000
12026556.000000,2.305812,-0.986458,-1.841127,-1.419591,-0.949014,1.709566,0.462153,-0.086771,-0.348503,-0.232104,-0.372865,-0.301391,0.458380,0.164217,1.169172,39.721722,21.877548,11.849852,0.458158,1.819259,0.048385,0.000000,0.000000,0.000000,0.000000,0.000000,0.000000
12026557.000000,2.305717,-0.986793,-1.841365,-1.419959,-0.949317,1.710019,0.462317,-0.086599,-0.343478,-0.235525,-0.373147,-0.301972,0.455641,0.160888,1.514325,39.622540,22.147324,11.778440,0.476469,1.865035,0.048385,0.000000,0.000000,0.000000,0.000000,0.000000,0.000000
12026559.000000,2.305535,-0.987462,-1.841853,-1.420668,-0.949933,1.710926,0.462645,-0.086357,-0.330604,-0.242847,-0.359852,-0.306412,0.452538,0.163606,2.034040,39.229778,22.635300,11.429319,0.422452,1.942855,0.067611,0.000000,0.000000,0.000000,0.000000,0.000000,0.000000
12026560.000000,2.305452,-0.987795,-1.842102,-1.421004,-0.950250,1.711383,0.462814,-0.084093,-0.331746,-0.245465,-0.360609,-0.305945,0.459166,0.162131,2.133222,39.011578,22.857468,11.060362,0.434354,1.909896,0.015426,0.000000,0.000000,0.000000,0.000000,0.000000,0.000000
12026561.000000,2.305361,-0.988131,-1.842366,-1.421348,-0.950562,1.711836,0.462976,-0.084762,-0.328984,-0.252792,-0.354388,-0.304730,0.451548,0.162515,2.307783,38.813213,23.174850,10.838194,0.428861,1.955673,0.054794,0.000000,0.000000,0.000000,0.000000,0.000000,0.000000
12026562.000000,2.305271,-0.988461,-1.842617,-1.421691,-0.950882,1.712278,0.463138,-0.084619,-0.332568,-0.253518,-0.348044,-0.316779,0.445984,0.159867,2.454572,38.666424,23.420822,10.564451,0.506681,1.995040,0.048385,0.000000,0.000000,0.000000,0.000000,0.000000,0.000000
12026563.000000,2.305191,-0.988804,-1.842863,-1.422025,-0.951206,1.712724,0.463306,-0.082891,-0.332428,-0.248127,-0.341711,-0.314575,0.451750,0.161819,2.529951,38.595013,23.567612,10.318480,0.559781,2.027084,0.054794,0.000000,0.000000,0.000000,0.000000,0.000000,0.000000
12026564.000000,2.305109,-0.989141,-1.843117,-1.422358,-0.951529,1.713186,0.463471,-0.081254,-0.332764,-0.249907,-0.340006,-0.318061,0.453149,0.163767,2.581525,38.495831,23.789780,10.096312,0.613798,1.974899,0.054794,0.000000,0.000000,0.000000,0.000000,0.000000,0.000000
12026565.000000,2.305026,-0.989474,-1.843363,-1.422695,-0.951845,1.713634,0.463646,-0.083498,-0.330479,-0.248082,-0.334331,-0.318943,0.454854,0.166997,2.629133,38.349041,23.888962,9.921751,0.632108,1.930038,0.009017,0.000000,0.000000,0.000000,0.000000,0.000000,0.000000
12026566.000000,2.304947,-0.989802,-1.843615,-1.423026,-0.952167,1.714097,0.463803,-0.081393,-0.322748,-0.250666,-0.331277,-0.322430,0.460260,0.164715,2.652936,38.178448,24.035751,9.822569,0.608304,1.909896,0.081344,0.000000,0.000000,0.000000,0.000000,0.000000,0.000000
12026567.000000,2.304869,-0.990131,-1.843859,-1.423365,-0.952487,1.714556,0.463978,-0.078474,-0.333565,-0.247961,-0.332827,-0.322456,0.458882,0.168777,2.629133,38.103069,24.083359,9.798765,0.620206,1.897079,0.009017,0.000000,0.000000,0.000000,0.000000,0.000000,0.000000
12026568.000000,2.304799,-0.990460,-1.844111,-1.423691,-0.952810,1.714997,0.464144,-0.077794,-0.329843,-0.245958,-0.331238,-0.326206,0.455660,0.164402,2.529951,37.984051,24.134933,9.774961,0.608304,1.942855,-0.004716,0.000000,0.000000,0.000000,0.000000,0.000000,0.000000
12026569.000000,2.304724,-0.990786,-1.844357,-1.424035,-0.953131,1.715447,0.464299,-0.073950,-0.324704,-0.244584,-0.337964,-0.324390,0.451473,0.166589,2.529951,37.861065,24.182541,9.949522,0.596403,2.020675,0.067611,0.000000,0.000000,0.000000,0.000000,0.000000,0.000000
12026570.000000,2.304651,-0.991105,-1.844589,-1.424374,-0.953455,1.715905,0.464463,-0.072828,-0.321608,-0.242061,-0.337484,-0.323870,0.459382,0.167287,2.482343,37.662701,24.158737,10.048704,0.596403,2.014266,0.067611,0.000000,0.000000,0.000000,0.000000,0.000000,0.000000
12026571.000000,2.304586,-0.991419,-1.844822,-1.424713,-0.953777,1.716366,0.464629,-0.068127,-0.316070,-0.239221,-0.339727,-0.322265,0.463893,0.167781,2.383161,37.492107,24.111130,10.270872,0.589994,1.988631,0.067611,0.000000,0.000000,0.000000,0.000000,0.000000,0.000000
12026572.000000,2.304521,-0.991741,-1.845056,-1.425062,-0.954096,1.716825,0.464805,-0.064090,-0.319715,-0.235784,-0.343409,-0.318965,0.456904,0.171237,2.260175,37.345318,24.111130,10.493040,0.625699,1.974899,-0.011124,0.000000,0.000000,0.000000,0.000000,0.000000,0.000000
12026573.000000,2.304461,-0.992050,-1.845284,-1.425407,-0.954412,1.717262,0.464963,-0.063869,-0.313349,-0.234733,-0.350401,-0.320565,0.450655,0.168400,2.133222,37.099346,24.035751,10.691404,0.655912,1.995040,0.041976,0.000000,0.000000,0.000000,0.000000,0.000000,0.000000
12026574.000000,2.304408,-0.992364,-1.845509,-1.425749,-0.954742,1.717707,0.465133,-0.059774,-0.313172,-0.229815,-0.350178,-0.325994,0.443987,0.169841,1.962629,36.928753,23.912766,10.838194,0.673307,2.039901,0.015426,0.000000,0.000000,0.000000,0.000000,0.000000,0.000000
12026575.000000,2.304356,-0.992678,-1.845723,-1.426102,-0.955063,1.718145,0.465295,-0.056039,-0.320512,-0.223337,-0.350432,-0.324870,0.443304,0.167888,1.740461,36.758160,23.666794,11.012754,0.679716,2.125045,0.061202,0.000000,0.000000,0.000000,0.000000,0.000000,0.000000
12026576.000000,2.304310,-0.993003,-1.845938,-1.426449,-0.955379,1.718579,0.465467,-0.053350,-0.317474,-0.218307,-0.347901,-0.316736,0.441386,0.164872,1.514325,36.781963,23.543808,11.207151,0.632108,2.125045,0.021835,0.000000,0.000000,0.000000,0.000000,0.000000,0.000000
12026577.000000,2.304255,-0.993322,-1.846143,-1.426801,-0.955687,1.719026,0.465630,-0.053818,-0.318130,-0.216972,-0.346131,-0.323289,0.441135,0.165277,1.391340,36.658978,23.297836,11.306334,0.571683,2.079269,0.041976,0.000000,0.000000,0.000000,0.000000,0.000000,0.000000
12026578.000000,2.304205,-0.993648,-1.846342,-1.427160,-0.956007,1.719460,0.465795,-0.053543,-0.322316,-0.215062,-0.353040,-0.321615,0.436935,0.161141,1.244550,36.710552,23.079636,11.528502,0.530485,2.027084,0.054794,0.000000,0.000000,0.000000,0.000000,0.000000,0.000000
12026579.000000,2.304161,-0.993966,-1.846541,-1.427514,-0.956323,1.719892,0.465969,-0.048889,-0.322605,-0.209180,-0.356100,-0.320469,0.436532,0.159796,1.046186,36.682781,22.809860,11.726866,0.500272,2.014266,0.021835,0.000000,0.000000,0.000000,0.000000,0.000000,0.000000
12026580.000000,2.304122,-0.994298,-1.846732,-1.427870,-0.956636,1.720331,0.466132,-0.045357,-0.326375,-0.204636,-0.353892,-0.321755,0.438883,0.161511,0.847822,36.781963,22.512314,11.877623,0.518583,2.060043,0.041976,0.000000,0.000000,0.000000,0.000000,0.000000,0.000000
12026581.000000,2.304082,-0.994631,-1.846924,-1.428226,-0.956957,1.720763,0.466304,-0.043708,-0.327473,-0.198411,-0.358082,-0.327195,0.432436,0.164614,0.673261,36.952557,22.242538,12.123594,0.547880,2.085677,0.001693,0.000000,0.000000,0.000000,0.000000,0.000000,0.000000
12026582.000000,2.304044,-0.994959,-1.847119,-1.428588,-0.957281,1.721213,0.466464,-0.038317,-0.327893,-0.195538,-0.355930,-0.321224,0.434532,0.164148,0.474897,36.980328,22.024338,12.298155,0.547880,2.020675,0.041976,0.000000,0.000000,0.000000,0.000000,0.000000,0.000000
12026583.000000,2.304011,-0.995281,-1.847305,-1.428959,-0.957594,1.721656,0.466631,-0.037281,-0.327487,-0.195022,-0.358175,-0.321463,0.441097,0.165535,0.252729,36.980328,21.754562,12.619505,0.559781,1.974899,0.041976,0.000000,0.000000,0.000000,0.000000,0.000000,0.000000
12026584.000000,2.303981,-0.995602,-1.847492,-1.429323,-0.957907,1.722104,0.466802,-0.036094,-0.322311,-0.193085,-0.360209,-0.315533,0.441946,0.163068,0.030561,36.928753,21.556198,12.841673,0.542386,1.903487,0.009017,0.000000,0.000000,0.000000,0.000000,0.000000,0.000000
12026585.000000,2.303949,-0.995925,-1.847669,-1.429690,-0.958212,1.722555,0.466959,-0.035694,-0.327476,-0.187438,-0.360267,-0.315359,0.449427,0.168205,-0.167803,36.805767,21.310226,13.036070,0.494779,1.903487,0.067611,0.000000,0.000000,0.000000,0.000000,0.000000,0.000000
12026586.000000,2.303915,-0.996240,-1.847843,-1.430054,-0.958530,1.722990,0.467135,-0.034486,-0.319576,-0.182227,-0.363227,-0.317525,0.446452,0.165525,-0.290789,36.734356,21.016647,13.186827,0.500272,2.007858,0.015426,0.000000,0.000000,0.000000,0.000000,0.000000,0.000000
12026587.000000,2.303886,-0.996556,-1.848024,-1.430433,-0.958842,1.723436,0.467302,-0.032529,-0.320604,-0.183854,-0.367534,-0.312270,0.447585,0.168618,-0.441546,36.563763,20.822250,13.408995,0.464567,2.014266,0.054794,0.000000,0.000000,0.000000,0.000000,0.000000,0.000000
12026588.000000,2.303850,-0.996866,-1.848199,-1.430811,-0.959144,1.723883,0.467477,-0.033449,-0.318474,-0.178726,-0.369834,-0.313419,0.456388,0.170496,-0.489153,36.365398,20.623886,13.607359,0.422452,2.007858,0.009017,0.000000,0.000000,0.000000,0.000000,0.000000,0.000000
12026589.000000,2.303813,-0.997182,-1.848372,-1.431189,-0.959464,1.724333,0.467646,-0.034418,-0.317205,-0.176696,-0.371667,-0.315734,0.452602,0.170506,-0.512957,36.218609,20.401718,13.805723,0.446256,1.968490,0.001693,0.000000,0.000000,0.000000,0.000000,0.000000,0.000000
12026590.000000,2.303781,-0.997501,-1.848542,-1.431567,-0.959775,1.724773,0.467811,-0.034041,-0.314046,-0.174003,-0.371609,-0.316659,0.447073,0.169506,-0.564532,36.071819,20.231125,13.976316,0.428861,1.988631,0.021835,0.000000,0.000000,0.000000,0.000000,0.000000,0.000000
12026591.000000,2.303749,-0.997813,-1.848722,-1.431943,-0.960091,1.725214,0.467972,-0.034072,-0.312324,-0.175827,-0.378891,-0.319430,0.442851,0.163133,-0.612139,35.976604,20.108139,14.099302,0.470060,2.027084,0.061202,0.000000,0.000000,0.000000,0.000000,0.000000,0.000000
12026592.000000,2.303713,-0.998130,-1.848896,-1.432312,-0.960408,1.725669,0.468134,-0.031760,-0.314248,-0.170934,-0.371729,-0.315618,0.441313,0.164880,-0.635943,35.901226,19.985153,14.127073,0.482877,1.995040,0.067611,0.000000,0.000000,0.000000,0.000000,0.000000,0.000000
12026593.000000,2.303677,-0.998451,-1.849064,-1.432691,-0.960718,1.726124,0.468307,-0.033763,-0.320678,-0.170727,-0.370434,-0.320093,0.447184,0.168045,-0.635943,35.976604,19.885971,14.198484,0.434354,1.930038,0.015426,0.000000,0.000000,0.000000,0.000000,0.000000,0.000000
12026594.000000,2.303640,-0.998769,-1.849233,-1.433055,-0.961036,1.726572,0.468468,-0.035501,-0.319918,-0.170221,-0.367680,-0.318343,0.450025,0.161465,-0.612139,36.000408,19.790756,14.174681,0.393156,1.884261,0.067611,0.000000,0.000000,0.000000,0.000000,0.000000,0.000000
12026595.000000,2.303605,-0.999095,-1.849409,-1.433417,-0.961354,1.727014,0.468638,-0.036065,-0.319094,-0.169195,-0.362754,-0.319200,0.445047,0.165455,-0.612139,36.048016,19.790756,14.051695,0.386747,1.884261,0.015426,0.000000,0.000000,0.000000,0.000000,0.000000,0.000000
12026596.000000,2.303566,-0.999411,-1.849583,-1.433777,-0.961670,1.727444,0.468801,-0.033781,-0.318673,-0.170618,-0.357234,-0.319278,0.444446,0.166084,-0.588336,36.071819,19.766953,13.928709,0.374845,1.955673,0.021835,0.000000,0.000000,0.000000,0.000000,0.000000,0.000000
12026597.000000,2.303529,-0.999718,-1.849754,-1.434123,-0.961997,1.727890,0.468961,-0.035824,-0.317322,-0.170278,-0.354405,-0.324713,0.436958,0.166010,-0.540728,35.948833,19.691574,13.730345,0.381254,1.968490,0.048385,0.000000,0.000000,0.000000,0.000000,0.000000,0.000000
12026598.000000,2.303490,-1.000030,-1.849928,-1.434480,-0.962322,1.728334,0.469122,-0.037001,-0.321464,-0.171476,-0.352420,-0.324779,0.432495,0.163667,-0.512957,35.829815,19.667770,13.678770,0.405057,1.949264,0.009017,0.000000,0.000000,0.000000,0.000000,0.000000,0.000000
12026599.000000,2.303453,-1.000334,-1.850107,-1.434820,-0.962647,1.728782,0.469277,-0.038144,-0.314850,-0.170309,-0.348767,-0.323549,0.439672,0.157805,-0.465350,35.607647,19.691574,13.508177,0.398649,1.897079,0.067611,0.000000,0.000000,0.000000,0.000000,0.000000,0.000000
12026600.000000,2.303410,-1.000645,-1.850284,-1.435166,-0.962974,1.729233,0.469440,-0.037426,-0.309522,-0.171062,-0.345733,-0.324551,0.440594,0.162292,-0.342364,35.361675,19.667770,13.333616,0.440763,1.812850,0.028243,0.000000,0.000000,0.000000,0.000000,0.000000,0.000000
12026601.000000,2.303369,-1.000954,-1.850462,-1.435506,-0.963302,1.729666,0.469606,-0.038327,-0.306159,-0.171788,-0.337569,-0.323423,0.439466,0.164308,-0.290789,35.167278,19.643967,13.163023,0.440763,1.793624,0.021835,0.000000,0.000000,0.000000,0.000000,0.000000,0.000000
12026602.000000,2.303330,-1.001262,-1.850640,-1.435839,-0.963639,1.730108,0.469771,-0.039812,-0.304753,-0.173100,-0.334397,-0.323700,0.435974,0.159094,-0.215411,34.996685,19.667770,12.964659,0.482877,1.844894,0.067611,0.000000,0.000000,0.000000,0.000000,0.000000,0.000000
12026603.000000,2.303283,-1.001572,-1.850813,-1.436169,-0.963966,1.730554,0.469932,-0.042011,-0.307645,-0.172618,-0.331621,-0.323709,0.435286,0.161655,-0.068621,34.826092,19.616196,12.790098,0.500272,1.851302,0.074935,0.000000,0.000000,0.000000,0.000000,0.000000,0.000000
12026604.000000,2.303242,-1.001886,-1.850986,-1.436490,-0.964290,1.730988,0.470108,-0.042135,-0.308239,-0.175115,-0.329848,-0.324686,0.438980,0.165520,0.006757,34.726910,19.544785,12.591734,0.422452,1.871444,0.015426,0.000000,0.000000,0.000000,0.000000,0.000000,0.000000
12026605.000000,2.303197,-1.002209,-1.851168,-1.436814,-0.964628,1.731433,0.470276,-0.041918,-0.306810,-0.175410,-0.326200,-0.327021,0.437842,0.165562,0.078168,34.651531,19.544785,12.421141,0.369352,1.844894,0.015426,0.000000,0.000000,0.000000,0.000000,0.000000,0.000000
12026606.000000,2.303156,-1.002521,-1.851349,-1.437121,-0.964964,1.731870,0.470433,-0.040589,-0.306780,-0.174998,-0.317512,-0.330964,0.438593,0.160311,0.105939,34.532513,19.520981,12.147398,0.374845,1.806442,0.054794,0.000000,0.000000,0.000000,0.000000,0.000000,0.000000
12026607.000000,2.303116,-1.002835,-1.851537,-1.437426,-0.965295,1.732305,0.470602,-0.040029,-0.307225,-0.176064,-0.311999,-0.327530,0.436489,0.163764,0.129743,34.480938,19.568588,11.901426,0.362943,1.825668,0.021835,0.000000,0.000000,0.000000,0.000000,0.000000,0.000000
12026608.000000,2.303078,-1.003152,-1.851715,-1.437727,-0.965630,1.732751,0.470764,-0.039599,-0.307322,-0.176480,-0.304830,-0.331304,0.440093,0.169226,0.153547,34.357952,19.497177,11.679258,0.374845,1.832076,0.041976,0.000000,0.000000,0.000000,0.000000,0.000000,0.000000
12026609.000000,2.303039,-1.003469,-1.851903,-1.438022,-0.965983,1.733196,0.470937,-0.039230,-0.307001,-0.180172,-0.308515,-0.337274,0.436204,0.170258,0.177350,34.385723,19.520981,11.504698,0.470060,1.779891,0.009017,0.000000,0.000000,0.000000,0.000000,0.000000,0.000000
12026610.000000,2.303003,-1.003785,-1.852095,-1.438323,-0.966322,1.733656,0.471098,-0.038171,-0.311954,-0.179683,-0.304480,-0.338288,0.443199,0.163769,0.153547,34.262737,19.544785,11.357908,0.482877,1.695663,0.048385,0.000000,0.000000,0.000000,0.000000,0.000000,0.000000
12026611.000000,2.302957,-1.004100,-1.852274,-1.438618,-0.966651,1.734114,0.471264,-0.040470,-0.311544,-0.180691,-0.298812,-0.338483,0.443463,0.161153,0.252729,34.211163,19.497177,11.258726,0.476469,1.624252,0.028243,0.000000,0.000000,0.000000,0.000000,0.000000,0.000000
12026612.000000,2.302923,-1.004412,-1.852459,-1.438904,-0.966999,1.734549,0.471436,-0.038953,-0.314318,-0.179139,-0.293895,-0.338917,0.444422,0.164601,0.228925,34.139751,19.497177,11.107969,0.494779,1.649886,-0.017533,0.000000,0.000000,0.000000,0.000000,0.000000,0.000000
12026613.000000,2.302894,-1.004736,-1.852638,-1.439194,-0.967335,1.734993,0.471588,-0.036366,-0.316104,-0.176646,-0.291429,-0.338123,0.447382,0.158088,0.129743,34.088177,19.421799,11.036558,0.464567,1.727706,0.061202,0.000000,0.000000,0.000000,0.000000,0.000000,0.000000
12026614.000000,2.302859,-1.005046,-1.852822,-1.439478,-0.967672,1.735436,0.471754,-0.036798,-0.310266,-0.182250,-0.285555,-0.337862,0.446976,0.162185,0.129743,33.969158,19.397995,10.913572,0.440763,1.779891,0.028243,0.000000,0.000000,0.000000,0.000000,0.000000,0.000000
12026615.000000,2.302830,-1.005372,-1.853006,-1.439760,-0.968008,1.735892,0.471920,-0.030899,-0.312690,-0.182413,-0.285301,-0.340186,0.450979,0.163971,0.006757,33.893780,19.346420,10.838194,0.369352,1.721298,0.028243,0.000000,0.000000,0.000000,0.000000,0.000000,0.000000
12026616.000000,2.302800,-1.005693,-1.853192,-1.440047,-0.968347,1.736348,0.472088,-0.028313,-0.319419,-0.184821,-0.286325,-0.333899,0.448984,0.164535,-0.044818,33.822369,19.374191,10.838194,0.320829,1.670028,0.048385,0.000000,0.000000,0.000000,0.000000,0.000000,0.000000
12026617.000000,2.302772,-1.006014,-1.853373,-1.440320,-0.968703,1.736785,0.472262,-0.028848,-0.320110,-0.181407,-0.283161,-0.339366,0.441182,0.166184,-0.144000,33.746990,19.322617,10.786619,0.422452,1.649886,0.028243,0.000000,0.000000,0.000000,0.000000,0.000000,0.000000
12026618.000000,2.302747,-1.006346,-1.853562,-1.440604,-0.969044,1.737224,0.472433,-0.028864,-0.321626,-0.180124,-0.281547,-0.340326,0.443457,0.167472,-0.243182,33.723186,19.322617,10.786619,0.440763,1.643478,0.015426,0.000000,0.000000,0.000000,0.000000,0.000000,0.000000
12026619.000000,2.302718,-1.006669,-1.853744,-1.440881,-0.969393,1.737658,0.472603,-0.027348,-0.319291,-0.181160,-0.279419,-0.345861,0.440191,0.172093,-0.290789,33.723186,19.275009,10.739012,0.464567,1.676437,0.028243,0.000000,0.000000,0.000000,0.000000,0.000000,0.000000
12026620.000000,2.302698,-1.007013,-1.853923,-1.441150,-0.969748,1.738089,0.472781,-0.023730,-0.326645,-0.181408,-0.277768,-0.351472,0.433370,0.172397,-0.441546,33.846172,19.223434,10.691404,0.554288,1.695663,0.001693,0.000000,0.000000,0.000000,0.000000,0.000000,0.000000
12026621.000000,2.302679,-1.007348,-1.854109,-1.441424,-0.970082,1.738529,0.472950,-0.021130,-0.323541,-0.181268,-0.273830,-0.346748,0.430312,0.171915,-0.588336,33.846172,19.275009,10.564451,0.512174,1.656295,0.015426,0.000000,0.000000,0.000000,0.000000,0.000000,0.000000
12026622.000000,2.302658,-1.007683,-1.854288,-1.441697,-0.970415,1.738964,0.473121,-0.021097,-0.328188,-0.181450,-0.271883,-0.346222,0.434412,0.174321,-0.663714,34.016766,19.199631,10.564451,0.422452,1.578475,0.048385,0.000000,0.000000,0.000000,0.000000,0.000000,0.000000
12026623.000000,2.302642,-1.008019,-1.854474,-1.441966,-0.970766,1.739390,0.473302,-0.019325,-0.330352,-0.179177,-0.271670,-0.344976,0.429816,0.178408,-0.810504,34.016766,19.152023,10.493040,0.416959,1.552840,0.009017,0.000000,0.000000,0.000000,0.000000,0.000000,0.000000
12026624.000000,2.302627,-1.008354,-1.854659,-1.442244,-0.971104,1.739808,0.473477,-0.017972,-0.329248,-0.178418,-0.271165,-0.343029,0.433129,0.176443,-0.961260,34.139751,19.152023,10.417662,0.393156,1.617843,0.001693,0.000000,0.000000,0.000000,0.000000,0.000000,0.000000
12026625.000000,2.302612,-1.008693,-1.854845,-1.442512,-0.971442,1.740233,0.473642,-0.014077,-0.334653,-0.179456,-0.271311,-0.342329,0.427165,0.176646,-1.108050,34.163555,19.104416,10.342283,0.398649,1.662704,0.067611,0.000000,0.000000,0.000000,0.000000,0.000000,0.000000
12026626.000000,2.302592,-1.009032,-1.855024,-1.442786,-0.971780,1.740656,0.473821,-0.013164,-0.332123,-0.182037,-0.270648,-0.344246,0.423522,0.177041,-1.159625,34.139751,19.029037,10.270872,0.386747,1.670028,0.015426,0.000000,0.000000,0.000000,0.000000,0.000000,0.000000
12026627.000000,2.302573,-1.009366,-1.855216,-1.443068,-0.972127,1.741088,0.473988,-0.016147,-0.334228,-0.183335,-0.280856,-0.344658,0.428552,0.173109,-1.183428,34.187359,19.005234,10.294676,0.422452,1.611434,0.061202,0.000000,0.000000,0.000000,0.000000,0.000000,0.000000
12026628.000000,2.302558,-1.009705,-1.855404,-1.443354,-0.972475,1.741515,0.474160,-0.016774,-0.336476,-0.184227,-0.281066,-0.345304,0.426049,0.173008,-1.282611,34.139751,18.981430,10.342283,0.482877,1.578475,0.041976,0.000000,0.000000,0.000000,0.000000,0.000000,0.000000
12026629.000000,2.302538,-1.010046,-1.855583,-1.443636,-0.972806,1.741938,0.474332,-0.019402,-0.335734,-0.181192,-0.279565,-0.343064,0.423495,0.173412,-1.282611,34.211163,18.929855,10.342283,0.458158,1.578475,0.009017,0.000000,0.000000,0.000000,0.000000,0.000000,0.000000
12026630.000000,2.302522,-1.010406,-1.855770,-1.443916,-0.973154,1.742362,0.474501,-0.020115,-0.344006,-0.179813,-0.278270,-0.346417,0.424754,0.170271,-1.330218,34.385723,18.929855,10.318480,0.458158,1.617843,0.054794,0.000000,0.000000,0.000000,0.000000,0.000000,0.000000
12026631.000000,2.302510,-1.010766,-1.855958,-1.444200,-0.973506,1.742793,0.474681,-0.019178,-0.343560,-0.182145,-0.276291,-0.345665,0.425965,0.172327,-1.429400,34.580120,18.929855,10.270872,0.482877,1.637069,-0.004716,0.000000,0.000000,0.000000,0.000000,0.000000,0.000000
12026632.000000,2.302492,-1.011112,-1.856146,-1.444487,-0.973834,1.743222,0.474850,-0.020337,-0.348122,-0.183657,-0.280426,-0.340132,0.429357,0.165659,-1.453204,34.703106,18.929855,10.294676,0.374845,1.611434,0.028243,0.000000,0.000000,0.000000,0.000000,0.000000,0.000000
12026633.000000,2.302471,-1.011469,-1.856335,-1.444768,-0.974178,1.743662,0.475021,-0.019172,-0.347496,-0.184483,-0.278926,-0.342203,0.428450,0.166157,-1.429400,34.849895,18.929855,10.270872,0.315336,1.546432,0.041976,0.000000,0.000000,0.000000,0.000000,0.000000,0.000000
12026634.000000,2.302448,-1.011822,-1.856523,-1.445054,-0.974527,1.744094,0.475188,-0.019655,-0.356863,-0.185465,-0.277945,-0.343177,0.426594,0.161354,-1.330218,35.044292,18.929855,10.294676,0.339139,1.513473,0.067611,0.000000,0.000000,0.000000,0.000000,0.000000,0.000000
12026635.000000,2.302431,-1.012188,-1.856719,-1.445335,-0.974876,1.744513,0.475361,-0.017712,-0.360294,-0.188505,-0.281769,-0.343465,0.428720,0.160106,-1.330218,35.290264,19.029037,10.342283,0.369352,1.500655,0.021835,0.000000,0.000000,0.000000,0.000000,0.000000,0.000000
12026636.000000,2.302399,-1.012549,-1.856915,-1.445621,-0.975225,1.744937,0.475531,-0.021164,-0.355419,-0.189339,-0.283997,-0.343996,0.426155,0.166603,-1.131854,35.484661,19.076645,10.370054,0.405057,1.584884,0.009017,0.000000,0.000000,0.000000,0.000000,0.000000,0.000000
12026637.000000,2.302369,-1.012903,-1.857110,-1.445910,-0.975582,1.745364,0.475697,-0.021610,-0.358226,-0.191019,-0.283555,-0.349444,0.435751,0.165531,-1.008868,35.583843,19.175827,10.441465,0.452665,1.572067,0.054794,0.000000,0.000000,0.000000,0.000000,0.000000,0.000000
12026638.000000,2.302342,-1.013258,-1.857303,-1.446193,-0.975941,1.745793,0.475869,-0.024358,-0.355452,-0.191367,-0.288042,-0.347946,0.433947,0.167779,-0.909686,35.583843,19.251205,10.441465,0.494779,1.494247,0.021835,0.000000,0.000000,0.000000,0.000000,0.000000,0.000000
12026639.000000,2.302312,-1.013617,-1.857495,-1.446484,-0.976281,1.746217,0.476030,-0.026651,-0.360727,-0.195103,-0.289168,-0.344244,0.432960,0.162173,-0.786700,35.583843,19.322617,10.516844,0.452665,1.519881,0.054794,0.000000,0.000000,0.000000,0.000000,0.000000,0.000000
12026640.000000,2.302278,-1.013969,-1.857694,-1.446763,-0.976629,1.746627,0.476201,-0.029452,-0.358535,-0.194929,-0.289868,-0.346902,0.426639,0.164966,-0.612139,35.460857,19.397995,10.493040,0.422452,1.565658,0.021835,0.000000,0.000000,0.000000,0.000000,0.000000,0.000000
12026641.000000,2.302244,-1.014312,-1.857894,-1.447047,-0.976984,1.747038,0.476367,-0.028397,-0.354776,-0.194434,-0.287992,-0.344810,0.425203,0.161248,-0.441546,35.266460,19.469406,10.441465,0.410551,1.637069,0.034652,0.000000,0.000000,0.000000,0.000000,0.000000,0.000000
12026642.000000,2.302213,-1.014664,-1.858096,-1.447333,-0.977331,1.747459,0.476527,-0.029701,-0.355538,-0.197935,-0.287070,-0.343324,0.422407,0.162789,-0.314593,35.167278,19.568588,10.393858,0.393156,1.662704,0.048385,0.000000,0.000000,0.000000,0.000000,0.000000,0.000000
12026643.000000,2.302174,-1.015011,-1.858298,-1.447620,-0.977679,1.747877,0.476688,-0.032473,-0.347369,-0.196384,-0.285724,-0.342437,0.421594,0.160281,-0.116229,34.972881,19.643967,10.441465,0.405057,1.649886,0.028243,0.000000,0.000000,0.000000,0.000000,0.000000,0.000000
12026644.000000,2.302131,-1.015376,-1.858507,-1.447906,-0.978032,1.748292,0.476846,-0.034682,-0.350256,-0.207267,-0.286778,-0.354420,0.423831,0.156694,0.105939,34.873699,19.739182,10.342283,0.416959,1.662704,0.061202,0.000000,0.000000,0.000000,0.000000,0.000000,0.000000
12026645.000000,2.302091,-1.015727,-1.858709,-1.448194,-0.978384,1.748700,0.477020,-0.035949,-0.346582,-0.203798,-0.292117,-0.352375,0.421149,0.161537,0.304304,34.798321,19.814560,10.342283,0.458158,1.689254,0.015426,0.000000,0.000000,0.000000,0.000000,0.000000,0.000000
12026646.000000,2.302051,-1.016085,-1.858916,-1.448476,-0.978736,1.749108,0.477185,-0.039182,-0.350523,-0.205252,-0.287211,-0.350856,0.415178,0.162352,0.474897,34.774517,19.937546,10.294676,0.506681,1.689254,0.048385,0.000000,0.000000,0.000000,0.000000,0.000000,0.000000
12026647.000000,2.302011,-1.016446,-1.859119,-1.448759,-0.979084,1.749523,0.477353,-0.038735,-0.353639,-0.202240,-0.285642,-0.348974,0.416563,0.165402,0.649457,34.873699,20.008957,10.219297,0.530485,1.656295,0.015426,0.000000,0.000000,0.000000,0.000000,0.000000,0.000000
12026648.000000,2.301968,-1.016806,-1.859323,-1.449038,-0.979435,1.749929,0.477520,-0.038214,-0.357189,-0.204905,-0.282361,-0.345156,0.415858,0.166022,0.824018,34.897503,20.036728,10.171690,0.494779,1.676437,0.015426,0.000000,0.000000,0.000000,0.000000,0.000000,0.000000
12026649.000000,2.301926,-1.017167,-1.859536,-1.449317,-0.979783,1.750339,0.477680,-0.037404,-0.355849,-0.202606,-0.284092,-0.346639,0.415515,0.165301,0.970807,34.897503,20.131943,10.171690,0.440763,1.662704,0.054794,0.000000,0.000000,0.000000,0.000000,0.000000,0.000000
12026650.000000,2.301885,-1.017518,-1.859743,-1.449594,-0.980124,1.750742,0.477841,-0.039029,-0.359393,-0.205428,-0.281239,-0.347289,0.416421,0.166726,1.069990,34.945110,20.159714,10.120115,0.369352,1.643478,0.048385,0.000000,0.000000,0.000000,0.000000,0.000000,0.000000
12026651.000000,2.301838,-1.017874,-1.859950,-1.449866,-0.980482,1.751146,0.478004,-0.041684,-0.358715,-0.202396,-0.280266,-0.348397,0.409818,0.166884,1.244550,34.873699,20.108139,10.120115,0.332731,1.682845,0.061202,0.000000,0.000000,0.000000,0.000000,0.000000,0.000000
12026652.000000,2.301798,-1.018218,-1.860159,-1.450140,-0.980840,1.751539,0.478177,-0.041572,-0.361714,-0.204818,-0.275669,-0.352829,0.399159,0.169569,1.315961,34.750713,20.108139,10.120115,0.369352,1.760665,0.009017,0.000000,0.000000,0.000000,0.000000,0.000000,0.000000
12026653.000000,2.301756,-1.018567,-1.860374,-1.450416,-0.981196,1.751931,0.478344,-0.043029,-0.358199,-0.206041,-0.274489,-0.351230,0.401296,0.167629,1.442914,34.556316,20.207321,10.195494,0.410551,1.825668,0.048385,0.000000,0.000000,0.000000,0.000000,0.000000,0.000000
12026654.000000,2.301713,-1.018923,-1.860579,-1.450689,-0.981562,1.752342,0.478513,-0.041557,-0.352243,-0.202691,-0.272296,-0.355323,0.404314,0.168531,1.589704,34.480938,20.131943,10.219297,0.464567,1.825668,0.015426,0.000000,0.000000,0.000000,0.000000,0.000000,0.000000
12026655.000000,2.301665,-1.019269,-1.860787,-1.450963,-0.981920,1.752756,0.478673,-0.043644,-0.349195,-0.202942,-0.273066,-0.352995,0.417384,0.166512,1.764264,34.357952,20.159714,10.219297,0.506681,1.754256,0.074935,0.000000,0.000000,0.000000,0.000000,0.000000,0.000000
12026656.000000,2.301629,-1.019614,-1.861004,-1.451236,-0.982273,1.753170,0.478848,-0.041278,-0.345982,-0.206790,-0.274325,-0.348628,0.414627,0.168728,1.764264,34.187359,20.231125,10.243101,0.494779,1.682845,0.034652,0.000000,0.000000,0.000000,0.000000,0.000000,0.000000
12026657.000000,2.301590,-1.019963,-1.861213,-1.451508,-0.982622,1.753582,0.479013,-0.040988,-0.345662,-0.208357,-0.270863,-0.350434,0.414043,0.169614,1.811872,34.064373,20.231125,10.243101,0.476469,1.695663,0.015426,0.000000,0.000000,0.000000,0.000000,0.000000,0.000000
12026658.000000,2.301557,-1.020318,-1.861423,-1.451770,-0.982986,1.753984,0.479169,-0.039026,-0.349050,-0.209648,-0.272723,-0.351998,0.407894,0.166084,1.788068,34.088177,20.231125,10.195494,0.458158,1.741439,0.100570,0.000000,0.000000,0.000000,0.000000,0.000000,0.000000
12026659.000000,2.301520,-1.020676,-1.861638,-1.452036,-0.983344,1.754382,0.479353,-0.035655,-0.345035,-0.211109,-0.267323,-0.352384,0.405258,0.175685,1.811872,34.163555,20.254929,10.072508,0.422452,1.844894,0.009017,0.000000,0.000000,0.000000,0.000000,0.000000,0.000000
12026660.000000,2.301488,-1.021040,-1.861847,-1.452303,-0.983692,1.754793,0.479524,-0.031347,-0.350979,-0.214300,-0.264971,-0.352200,0.410339,0.174315,1.764264,34.334148,20.231125,9.997129,0.369352,1.909896,0.001693,0.000000,0.000000,0.000000,0.000000,0.000000,0.000000
12026661.000000,2.301452,-1.021399,-1.862058,-1.452572,-0.984051,1.755212,0.479689,-0.034221,-0.351188,-0.207932,-0.265998,-0.352665,0.410972,0.170432,1.811872,34.357952,20.254929,10.048704,0.351041,1.812850,0.061202,0.000000,0.000000,0.000000,0.000000,0.000000,0.000000
12026662.000000,2.301419,-1.021763,-1.862266,-1.452841,-0.984407,1.755637,0.479865,-0.031266,-0.352462,-0.211167,-0.265259,-0.354802,0.415200,0.171861,1.788068,34.409527,20.254929,10.072508,0.344633,1.714889,0.021835,0.000000,0.000000,0.000000,0.000000,0.000000,0.000000
12026663.000000,2.301390,-1.022123,-1.862475,-1.453105,-0.984773,1.756049,0.480031,-0.031703,-0.353688,-0.210813,-0.261378,-0.359626,0.416952,0.165256,1.740461,34.457134,20.354111,10.048704,0.440763,1.662704,0.054794,0.000000,0.000000,0.000000,0.000000,0.000000,0.000000
12026664.000000,2.301368,-1.022480,-1.862688,-1.453364,-0.985139,1.756456,0.480206,-0.026540,-0.355365,-0.209004,-0.259235,-0.361337,0.410549,0.168604,1.589704,34.457134,20.401718,10.072508,0.506681,1.689254,-0.004716,0.000000,0.000000,0.000000,0.000000,0.000000,0.000000
12026665.000000,2.301341,-1.022839,-1.862897,-1.453631,-0.985509,1.756859,0.480366,-0.025196,-0.363996,-0.208533,-0.258451,-0.363104,0.409697,0.167264,1.542096,34.433331,20.477097,10.143919,0.578092,1.741439,0.034652,0.000000,0.000000,0.000000,0.000000,0.000000,0.000000
12026666.000000,2.301319,-1.023192,-1.863107,-1.453894,-0.985869,1.757265,0.480532,-0.023243,-0.362031,-0.210584,-0.259527,-0.361426,0.410854,0.167216,1.442914,34.334148,20.524704,10.270872,0.578092,1.754256,0.041976,0.000000,0.000000,0.000000,0.000000,0.000000,0.000000
12026667.000000,2.301301,-1.023553,-1.863317,-1.454160,-0.986221,1.757676,0.480695,-0.017127,-0.359758,-0.211144,-0.259537,-0.357856,0.407606,0.167328,1.292158,34.211163,20.524704,10.393858,0.500272,1.727706,0.054794,0.000000,0.000000,0.000000,0.000000,0.000000,0.000000
12026668.000000,2.301276,-1.023900,-1.863520,-1.454429,-0.986575,1.758073,0.480867,-0.019423,-0.352297,-0.210361,-0.262900,-0.354528,0.404468,0.169938,1.268354,34.088177,20.477097,10.516844,0.398649,1.735030,0.001693,0.000000,0.000000,0.000000,0.000000,0.000000,0.000000
12026669.000000,2.301262,-1.024258,-1.863726,-1.454696,-0.986941,1.758465,0.481033,-0.017252,-0.354111,-0.208075,-0.266115,-0.354606,0.403615,0.168929,1.093793,34.040569,20.500900,10.663633,0.381254,1.844894,0.021835,0.000000,0.000000,0.000000,0.000000,0.000000,0.000000
12026670.000000,2.301249,-1.024621,-1.863929,-1.454963,-0.987310,1.758853,0.481192,-0.013155,-0.353762,-0.206279,-0.264009,-0.361640,0.393329,0.163941,0.947004,34.163555,20.500900,10.786619,0.405057,1.949264,0.034652,0.000000,0.000000,0.000000,0.000000,0.000000,0.000000
12026671.000000,2.301237,-1.024993,-1.864136,-1.455231,-0.987678,1.759235,0.481356,-0.014036,-0.359098,-0.206005,-0.269418,-0.365925,0.393311,0.160813,0.824018,34.310345,20.552475,10.913572,0.405057,1.988631,0.021835,0.000000,0.000000,0.000000,0.000000,0.000000,0.000000
12026672.000000,2.301224,-1.025356,-1.864347,-1.455506,-0.988059,1.759634,0.481512,-0.012211,-0.357302,-0.208495,-0.271181,-0.366377,0.391038,0.160546,0.724836,34.334148,20.576279,11.084166,0.458158,1.936446,0.061202,0.000000,0.000000,0.000000,0.000000,0.000000,0.000000
12026673.000000,2.301217,-1.025715,-1.864554,-1.455781,-0.988432,1.760040,0.481678,-0.008787,-0.358057,-0.210191,-0.271591,-0.366215,0.393245,0.164636,0.550275,34.457134,20.600082,11.234922,0.506681,1.800033,0.015426,0.000000,0.000000,0.000000,0.000000,0.000000,0.000000
12026674.000000,2.301207,-1.026072,-1.864760,-1.456064,-0.988804,1.760438,0.481838,-0.008349,-0.357624,-0.209342,-0.277037,-0.368260,0.400959,0.163683,0.451093,34.385723,20.552475,11.457090,0.506681,1.741439,0.067611,0.000000,0.000000,0.000000,0.000000,0.000000,0.000000
12026675.000000,2.301201,-1.026435,-1.864963,-1.456338,-0.989178,1.760830,0.482011,-0.006769,-0.360083,-0.205542,-0.272627,-0.377829,0.392227,0.167175,0.304304,34.409527,20.477097,11.480894,0.512174,1.806442,0.015426,0.000000,0.000000,0.000000,0.000000,0.000000,0.000000
12026676.000000,2.301194,-1.026803,-1.865172,-1.456609,-0.989553,1.761204,0.482177,-0.005559,-0.363143,-0.203408,-0.275130,-0.378217,0.388166,0.163262,0.177350,34.480938,20.429489,11.504698,0.524076,1.942855,0.001693,0.000000,0.000000,0.000000,0.000000,0.000000,0.000000
12026677.000000,2.301196,-1.027165,-1.865373,-1.456886,-0.989919,1.761591,0.482338,-0.003431,-0.355927,-0.198524,-0.275850,-0.371841,0.387738,0.158059,-0.017047,34.457134,20.377914,11.556273,0.482877,2.007858,0.054794,0.000000,0.000000,0.000000,0.000000,0.000000,0.000000
12026678.000000,2.301191,-1.027528,-1.865571,-1.457171,-0.990293,1.761994,0.482510,-0.004671,-0.360658,-0.197688,-0.274537,-0.372013,0.394615,0.162524,-0.092425,34.433331,20.306503,11.655455,0.434354,2.014266,0.015426,0.000000,0.000000,0.000000,0.000000,0.000000,0.000000
12026679.000000,2.301188,-1.027897,-1.865773,-1.457448,-0.990666,1.762400,0.482670,-0.005203,-0.361010,-0.197811,-0.276256,-0.372099,0.399732,0.161456,-0.191607,34.409527,20.278732,11.726866,0.410551,1.897079,0.081344,0.000000,0.000000,0.000000,0.000000,0.000000,0.000000
12026680.000000,2.301185,-1.028270,-1.865979,-1.457728,-0.991039,1.762803,0.482836,-0.004984,-0.367086,-0.201963,-0.276618,-0.369873,0.402171,0.160408,-0.314593,34.357952,20.278732,11.778440,0.428861,1.779891,0.041976,0.000000,0.000000,0.000000,0.000000,0.000000,0.000000
12026681.000000,2.301181,-1.028638,-1.866175,-1.458012,-0.991416,1.763194,0.483006,-0.002114,-0.365669,-0.200107,-0.278140,-0.374293,0.400158,0.163111,-0.413775,34.310345,20.207321,11.849852,0.494779,1.793624,0.028243,0.000000,0.000000,0.000000,0.000000,0.000000,0.000000
12026682.000000,2.301175,-1.029012,-1.866379,-1.458284,-0.991802,1.763582,0.483167,-0.004045,-0.369327,-0.199637,-0.274108,-0.376901,0.391763,0.162075,-0.465350,34.357952,20.183517,11.849852,0.559781,1.865035,0.094161,0.000000,0.000000,0.000000,0.000000,0.000000,0.000000
12026683.000000,2.301169,-1.029380,-1.866574,-1.458556,-0.992173,1.763971,0.483335,-0.002459,-0.368447,-0.195406,-0.273380,-0.373011,0.386815,0.165263,-0.512957,34.357952,20.108139,11.826048,0.578092,1.903487,0.061202,0.000000,0.000000,0.000000,0.000000,0.000000,0.000000
12026684.000000,2.301166,-1.029750,-1.866774,-1.458830,-0.992548,1.764368,0.483499,0.000024,-0.370952,-0.195751,-0.275194,-0.378204,0.389679,0.161270,-0.612139,34.357952,20.060532,11.877623,0.566190,1.903487,0.061202,0.000000,0.000000,0.000000,0.000000,0.000000,0.000000
12026685.000000,2.301158,-1.030133,-1.866972,-1.459105,-0.992923,1.764774,0.483663,-0.003217,-0.371118,-0.193598,-0.273065,-0.370560,0.392466,0.164522,-0.635943,34.433331,20.036728,11.925230,0.488370,1.858627,0.028243,0.000000,0.000000,0.000000,0.000000,0.000000,0.000000
12026686.000000,2.301152,-1.030499,-1.867161,-1.459378,-0.993287,1.765172,0.483819,-0.004633,-0.366733,-0.190728,-0.273722,-0.365411,0.395590,0.163736,-0.687518,34.433331,19.961349,11.925230,0.422452,1.806442,0.081344,0.000000,0.000000,0.000000,0.000000,0.000000,0.000000
12026687.000000,2.301148,-1.030871,-1.867354,-1.459649,-0.993653,1.765575,0.483985,-0.002712,-0.366828,-0.192561,-0.270789,-0.362892,0.400888,0.167430,-0.735125,34.357952,19.937546,11.901426,0.416959,1.800033,0.021835,0.000000,0.000000,0.000000,0.000000,0.000000,0.000000
12026688.000000,2.301145,-1.031251,-1.867548,-1.459917,-0.994025,1.765968,0.484140,-0.004418,-0.368981,-0.193701,-0.267832,-0.363074,0.396415,0.163147,-0.786700,34.457134,19.885971,11.877623,0.428861,1.884261,0.021835,0.000000,0.000000,0.000000,0.000000,0.000000,0.000000
12026689.000000,2.301142,-1.031629,-1.867740,-1.460182,-0.994404,1.766353,0.484299,-0.005813,-0.371323,-0.191578,-0.270049,-0.363926,0.391428,0.162819,-0.834307,34.357952,19.838364,11.877623,0.476469,1.903487,0.061202,0.000000,0.000000,0.000000,0.000000,0.000000,0.000000
12026690.000000,2.301138,-1.032007,-1.867932,-1.460449,-0.994777,1.766753,0.484467,-0.004665,-0.368371,-0.192422,-0.267771,-0.363464,0.396282,0.168812,-0.834307,34.310345,19.766953,11.849852,0.500272,1.909896,0.048385,0.000000,0.000000,0.000000,0.000000,0.000000,0.000000
12026691.000000,2.301130,-1.032382,-1.868122,-1.460716,-0.995149,1.767155,0.484624,-0.004259,-0.369150,-0.190523,-0.266376,-0.370298,0.399245,0.162969,-0.810504,34.262737,19.715378,11.826048,0.464567,1.844894,0.081344,0.000000,0.000000,0.000000,0.000000,0.000000,0.000000
12026692.000000,2.301122,-1.032759,-1.868314,-1.460977,-0.995523,1.767565,0.484797,-0.006660,-0.369783,-0.191148,-0.264735,-0.370122,0.398063,0.166630,-0.786700,34.187359,19.643967,11.778440,0.428861,1.735030,0.021835,0.000000,0.000000,0.000000,0.000000,0.000000,0.000000
12026693.000000,2.301118,-1.033149,-1.868502,-1.461237,-0.995899,1.767967,0.484953,-0.007698,-0.375633,-0.191563,-0.258604,-0.380663,0.401093,0.165897,-0.810504,34.262737,19.592392,11.679258,0.464567,1.747848,0.061202,0.000000,0.000000,0.000000,0.000000,0.000000,0.000000
12026694.000000,2.301119,-1.033536,-1.868690,-1.461490,-0.996274,1.768351,0.485115,-0.004065,-0.378550,-0.193265,-0.261768,-0.379762,0.396843,0.166586,-0.885882,34.357952,19.544785,11.556273,0.458158,1.832076,0.061202,0.000000,0.000000,0.000000,0.000000,0.000000,0.000000
12026695.000000,2.301109,-1.033931,-1.868878,-1.461736,-0.996658,1.768747,0.485275,-0.004439,-0.385644,-0.191077,-0.258529,-0.379854,0.391609,0.162930,-0.834307,34.603924,19.497177,11.381712,0.482877,1.838485,0.054794,0.000000,0.000000,0.000000,0.000000,0.000000,0.000000
12026696.000000,2.301109,-1.034317,-1.869068,-1.461985,-0.997029,1.769154,0.485435,-0.002145,-0.386528,-0.190914,-0.251185,-0.373921,0.399967,0.159100,-0.885882,34.750713,19.497177,11.258726,0.464567,1.779891,0.074935,0.000000,0.000000,0.000000,0.000000,0.000000,0.000000
12026697.000000,2.301106,-1.034706,-1.869261,-1.462230,-0.997399,1.769564,0.485609,-0.005334,-0.385877,-0.190204,-0.250775,-0.376608,0.408515,0.163128,-0.862078,34.873699,19.497177,11.207151,0.398649,1.656295,0.028243,0.000000,0.000000,0.000000,0.000000,0.000000,0.000000
12026698.000000,2.301100,-1.035097,-1.869448,-1.462470,-0.997781,1.769971,0.485772,-0.008521,-0.386297,-0.190724,-0.248628,-0.372685,0.407610,0.163872,-0.810504,34.873699,19.397995,11.107969,0.405057,1.565658,0.048385,0.000000,0.000000,0.000000,0.000000,0.000000,0.000000
12026699.000000,2.301099,-1.035486,-1.869643,-1.462709,-0.998155,1.770359,0.485935,-0.005754,-0.390183,-0.194256,-0.243916,-0.370526,0.403707,0.165018,-0.834307,35.044292,19.421799,10.984983,0.440763,1.591293,0.054794,0.000000,0.000000,0.000000,0.000000,0.000000,0.000000
12026700.000000,2.301096,-1.035882,-1.869842,-1.462945,-0.998524,1.770752,0.486105,-0.004865,-0.393270,-0.197423,-0.241457,-0.371755,0.394749,0.162603,-0.810504,35.091900,19.497177,10.913572,0.440763,1.649886,0.021835,0.000000,0.000000,0.000000,0.000000,0.000000,0.000000
12026701.000000,2.301092,-1.036275,-1.870026,-1.463178,-0.998903,1.771139,0.486264,-0.005361,-0.401579,-0.189086,-0.236119,-0.374327,0.388227,0.163848,-0.735125,35.191082,19.374191,10.838194,0.470060,1.714889,0.034652,0.000000,0.000000,0.000000,0.000000,0.000000,0.000000
12026702.000000,2.301093,-1.036668,-1.870228,-1.463408,-0.999277,1.771530,0.486417,-0.003840,-0.396516,-0.192846,-0.236788,-0.369304,0.391604,0.162484,-0.735125,35.119671,19.544785,10.814390,0.440763,1.689254,0.094161,0.000000,0.000000,0.000000,0.000000,0.000000,0.000000
12026703.000000,2.301093,-1.037063,-1.870419,-1.463644,-0.999650,1.771935,0.486584,-0.002759,-0.392504,-0.194635,-0.237605,-0.369333,0.393343,0.166168,-0.735125,35.167278,19.544785,10.814390,0.386747,1.649886,0.048385,0.000000,0.000000,0.000000,0.000000,0.000000,0.000000
12026704.000000,2.301090,-1.037450,-1.870608,-1.463872,-1.000027,1.772332,0.486753,-0.003102,-0.391469,-0.193478,-0.233141,-0.374844,0.397183,0.168035,-0.687518,35.143475,19.568588,10.739012,0.344633,1.637069,0.015426,0.000000,0.000000,0.000000,0.000000,0.000000,0.000000
12026705.000000,2.301090,-1.037843,-1.870806,-1.464092,-1.000413,1.772723,0.486914,-0.002180,-0.388530,-0.195759,-0.232530,-0.376087,0.395312,0.165076,-0.687518,35.191082,19.616196,10.639830,0.369352,1.689254,0.100570,0.000000,0.000000,0.000000,0.000000,0.000000,0.000000
12026706.000000,2.301090,-1.038241,-1.871004,-1.464323,-1.000786,1.773122,0.487086,-0.001538,-0.392706,-0.195531,-0.229497,-0.373272,0.389259,0.168567,-0.687518,35.337872,19.691574,10.592222,0.398649,1.735030,0.041976,0.000000,0.000000,0.000000,0.000000,0.000000,0.000000
12026707.000000,2.301093,-1.038642,-1.871203,-1.464549,-1.001163,1.773518,0.487244,0.000025,-0.392114,-0.195255,-0.229580,-0.378032,0.387682,0.166665,-0.735125,35.536236,19.766953,10.616026,0.374845,1.714889,0.087753,0.000000,0.000000,0.000000,0.000000,0.000000,0.000000
12026708.000000,2.301090,-1.039037,-1.871402,-1.464767,-1.001554,1.773915,0.487412,-0.001144,-0.392629,-0.193692,-0.224510,-0.384233,0.390552,0.166791,-0.687518,35.631451,19.790756,10.564451,0.398649,1.676437,0.081344,0.000000,0.000000,0.000000,0.000000,0.000000,0.000000
12026709.000000,2.301092,-1.039426,-1.871606,-1.464989,-1.001935,1.774319,0.487579,-0.000241,-0.389393,-0.197528,-0.221455,-0.383657,0.392890,0.168457,-0.711321,35.683025,19.885971,10.540648,0.422452,1.662704,0.054794,0.000000,0.000000,0.000000,0.000000,0.000000,0.000000
12026710.000000,2.301099,-1.039828,-1.871815,-1.465212,-1.002320,1.774721,0.487736,0.001576,-0.394030,-0.201098,-0.219615,-0.385900,0.395581,0.167337,-0.786700,35.754436,20.036728,10.540648,0.422452,1.617843,0.081344,0.000000,0.000000,0.000000,0.000000,0.000000,0.000000
12026711.000000,2.301101,-1.040226,-1.872010,-1.465433,-1.002709,1.775116,0.487902,0.001587,-0.388165,-0.203054,-0.216850,-0.389298,0.390824,0.169433,-0.810504,35.706829,20.060532,10.493040,0.434354,1.605026,0.041976,0.000000,0.000000,0.000000,0.000000,0.000000,0.000000
12026712.000000,2.301109,-1.040607,-1.872208,-1.465644,-1.003104,1.775498,0.488065,0.005802,-0.387655,-0.202583,-0.216934,-0.388595,0.383367,0.168328,-0.885882,35.536236,20.084335,10.441465,0.500272,1.714889,0.067611,0.000000,0.000000,0.000000,0.000000,0.000000,0.000000
12026713.000000,2.301114,-1.041000,-1.872414,-1.465865,-1.003487,1.775889,0.488229,0.007699,-0.386620,-0.202082,-0.216321,-0.384457,0.385877,0.164166,-0.909686,35.385479,20.108139,10.441465,0.476469,1.735030,0.067611,0.000000,0.000000,0.000000,0.000000,0.000000,0.000000
12026714.000000,2.301120,-1.041386,-1.872615,-1.466082,-1.003868,1.776276,0.488388,0.010038,-0.386662,-0.201084,-0.214347,-0.385941,0.380541,0.160203,-0.961260,35.191082,20.084335,10.393858,0.428861,1.702071,0.081344,0.000000,0.000000,0.000000,0.000000,0.000000,0.000000
12026715.000000,2.301127,-1.041780,-1.872824,-1.466296,-1.004259,1.776662,0.488549,0.008402,-0.385678,-0.201744,-0.215066,-0.388250,0.384667,0.161977,-1.008868,35.091900,20.131943,10.417662,0.422452,1.708480,0.087753,0.000000,0.000000,0.000000,0.000000,0.000000,0.000000
12026716.000000,2.301125,-1.042178,-1.873031,-1.466506,-1.004644,1.777048,0.488712,0.004285,-0.390520,-0.201408,-0.210806,-0.385697,0.381969,0.165082,-0.933489,35.091900,20.131943,10.393858,0.416959,1.721298,0.054794,0.000000,0.000000,0.000000,0.000000,0.000000,0.000000
12026717.000000,2.301132,-1.042567,-1.873242,-1.466719,-1.005029,1.777419,0.488871,0.006654,-0.389774,-0.203077,-0.210867,-0.383091,0.375025,0.161394,-0.961260,35.044292,20.207321,10.370054,0.393156,1.760665,0.054794,0.000000,0.000000,0.000000,0.000000,0.000000,0.000000
12026718.000000,2.301139,-1.042971,-1.873443,-1.466929,-1.005427,1.777799,0.489030,0.006036,-0.395270,-0.200930,-0.212185,-0.384181,0.372074,0.162580,-1.008868,35.167278,20.159714,10.393858,0.482877,1.741439,0.074935,0.000000,0.000000,0.000000,0.000000,0.000000,0.000000
12026719.000000,2.301143,-1.043366,-1.873651,-1.467141,-1.005800,1.778181,0.489195,0.003831,-0.402354,-0.205035,-0.209550,-0.382736,0.375093,0.163917,-0.985064,35.214886,20.207321,10.417662,0.488370,1.702071,0.087753,0.000000,0.000000,0.000000,0.000000,0.000000,0.000000
12026720.000000,2.301150,-1.043764,-1.873858,-1.467345,-1.006187,1.778554,0.489371,0.005092,-0.404152,-0.204518,-0.206639,-0.385441,0.375835,0.167329,-0.961260,35.290264,20.231125,10.393858,0.464567,1.702071,0.028243,0.000000,0.000000,0.000000,0.000000,0.000000,0.000000
12026721.000000,2.301151,-1.044170,-1.874057,-1.467561,-1.006578,1.778923,0.489530,0.005361,-0.405768,-0.204049,-0.212008,-0.382457,0.374189,0.169014,-0.885882,35.385479,20.131943,10.417662,0.434354,1.735030,0.094161,0.000000,0.000000,0.000000,0.000000,0.000000,0.000000
12026722.000000,2.301159,-1.044563,-1.874266,-1.467776,-1.006955,1.779299,0.489701,0.003621,-0.404955,-0.204721,-0.213532,-0.379144,0.378558,0.170634,-0.862078,35.385479,20.183517,10.465269,0.369352,1.721298,0.054794,0.000000,0.000000,0.000000,0.000000,0.000000,0.000000
12026723.000000,2.301160,-1.044967,-1.874471,-1.467983,-1.007350,1.779676,0.489866,0.003923,-0.403102,-0.205736,-0.210274,-0.382610,0.373619,0.169571,-0.786700,35.361675,20.159714,10.465269,0.351041,1.721298,0.074935,0.000000,0.000000,0.000000,0.000000,0.000000,0.000000
12026724.000000,2.301161,-1.045373,-1.874675,-1.468192,-1.007745,1.780042,0.490027,0.000314,-0.405380,-0.203895,-0.211140,-0.386491,0.366966,0.168344,-0.663714,35.460857,20.131943,10.493040,0.356534,1.793624,0.107894,0.000000,0.000000,0.000000,0.000000,0.000000,0.000000
12026725.000000,2.301159,-1.045775,-1.874887,-1.468407,-1.008136,1.780413,0.490202,0.000820,-0.404492,-0.205012,-0.209720,-0.383765,0.372460,0.171136,-0.540728,35.484661,20.207321,10.540648,0.339139,1.858627,0.034652,0.000000,0.000000,0.000000,0.000000,0.000000,0.000000
12026726.000000,2.301155,-1.046181,-1.875091,-1.468624,-1.008537,1.780792,0.490365,0.000658,-0.405394,-0.203300,-0.209324,-0.392998,0.375693,0.171738,-0.389971,35.583843,20.183517,10.616026,0.381254,1.793624,0.100570,0.000000,0.000000,0.000000,0.000000,0.000000,0.000000
12026727.000000,2.301153,-1.046581,-1.875298,-1.468840,-1.008937,1.781167,0.490538,-0.001193,-0.403426,-0.204401,-0.211292,-0.396021,0.373433,0.172701,-0.290789,35.560040,20.254929,10.663633,0.434354,1.747848,0.061202,0.000000,0.000000,0.000000,0.000000,0.000000,0.000000
12026728.000000,2.301142,-1.046991,-1.875505,-1.469050,-1.009332,1.781545,0.490709,-0.004919,-0.403845,-0.201638,-0.211593,-0.394440,0.374096,0.167784,-0.092425,35.730633,20.330307,10.663633,0.416959,1.754256,0.034652,0.000000,0.000000,0.000000,0.000000,0.000000,0.000000
12026729.000000,2.301137,-1.047420,-1.875713,-1.469267,-1.009725,1.781925,0.490867,-0.005212,-0.410180,-0.206165,-0.211007,-0.395744,0.373698,0.165738,0.006757,36.071819,20.330307,10.639830,0.434354,1.773483,0.100570,0.000000,0.000000,0.000000,0.000000,0.000000,0.000000
12026730.000000,2.301134,-1.047831,-1.875915,-1.469488,-1.010128,1.782298,0.491035,-0.010639,-0.411980,-0.200865,-0.218451,-0.394932,0.371047,0.167312,0.054365,36.270184,20.306503,10.715208,0.410551,1.754256,0.087753,0.000000,0.000000,0.000000,0.000000,0.000000,0.000000
12026731.000000,2.301128,-1.048249,-1.876126,-1.469702,-1.010524,1.782679,0.491199,-0.007960,-0.413850,-0.202256,-0.215732,-0.390157,0.374730,0.162164,0.078168,36.389202,20.377914,10.663633,0.405057,1.702071,0.114303,0.000000,0.000000,0.000000,0.000000,0.000000,0.000000
12026732.000000,2.301124,-1.048660,-1.876335,-1.469910,-1.010910,1.783055,0.491371,-0.005539,-0.414222,-0.203510,-0.211999,-0.390981,0.374833,0.166558,0.078168,36.563763,20.453293,10.540648,0.381254,1.714889,0.048385,0.000000,0.000000,0.000000,0.000000,0.000000,0.000000
12026733.000000,2.301114,-1.049069,-1.876545,-1.470122,-1.011305,1.783424,0.491534,-0.008691,-0.411871,-0.202903,-0.211421,-0.386372,0.370202,0.165695,0.153547,36.488384,20.477097,10.493040,0.356534,1.741439,0.081344,0.000000,0.000000,0.000000,0.000000,0.000000,0.000000
12026734.000000,2.301108,-1.049488,-1.876752,-1.470342,-1.011706,1.783792,0.491701,-0.009224,-0.411722,-0.202826,-0.213276,-0.390847,0.370371,0.162933,0.153547,36.587566,20.500900,10.540648,0.393156,1.760665,0.054794,0.000000,0.000000,0.000000,0.000000,0.000000,0.000000
12026735.000000,2.301096,-1.049893,-1.876964,-1.470553,-1.012097,1.784170,0.491867,-0.009012,-0.407339,-0.204977,-0.209842,-0.398796,0.374038,0.163232,0.252729,36.512188,20.623886,10.516844,0.440763,1.714889,0.087753,0.000000,0.000000,0.000000,0.000000,0.000000,0.000000
12026736.000000,2.301084,-1.050305,-1.877169,-1.470772,-1.012498,1.784547,0.492035,-0.009292,-0.405669,-0.203686,-0.215657,-0.396742,0.370209,0.164499,0.375715,36.535992,20.647690,10.592222,0.422452,1.714889,0.094161,0.000000,0.000000,0.000000,0.000000,0.000000,0.000000
12026737.000000,2.301079,-1.050714,-1.877379,-1.470987,-1.012894,1.784914,0.492205,-0.007150,-0.408484,-0.207474,-0.215113,-0.392944,0.365768,0.167549,0.403486,36.563763,20.723068,10.616026,0.446256,1.754256,0.048385,0.000000,0.000000,0.000000,0.000000,0.000000,0.000000
12026738.000000,2.301072,-1.051124,-1.877599,-1.471203,-1.013281,1.785278,0.492367,-0.006109,-0.409088,-0.206365,-0.213191,-0.392778,0.361949,0.165919,0.451093,36.658978,20.893661,10.691404,0.416959,1.812850,0.087753,0.000000,0.000000,0.000000,0.000000,0.000000,0.000000
12026739.000000,2.301062,-1.051551,-1.877818,-1.471404,-1.013685,1.785649,0.492534,-0.009299,-0.413827,-0.210341,-0.211354,-0.397570,0.360261,0.167636,0.526471,36.833538,21.016647,10.616026,0.381254,1.819259,0.041976,0.000000,0.000000,0.000000,0.000000,0.000000,0.000000
12026740.000000,2.301055,-1.051959,-1.878033,-1.471613,-1.014086,1.786004,0.492694,-0.008365,-0.414212,-0.213417,-0.211097,-0.397523,0.361937,0.162750,0.601850,36.980328,21.139633,10.592222,0.381254,1.844894,0.054794,0.000000,0.000000,0.000000,0.000000,0.000000,0.000000
12026741.000000,2.301054,-1.052365,-1.878259,-1.471829,-1.014484,1.786378,0.492855,-0.005230,-0.411680,-0.219605,-0.214613,-0.396038,0.370674,0.157594,0.574079,36.904949,21.310226,10.715208,0.369352,1.851302,0.107894,0.000000,0.000000,0.000000,0.000000,0.000000,0.000000
12026742.000000,2.301051,-1.052765,-1.878479,-1.472040,-1.014884,1.786754,0.493026,-0.003713,-0.405993,-0.222557,-0.211154,-0.397223,0.373046,0.163304,0.574079,36.758160,21.457016,10.739012,0.386747,1.838485,0.041976,0.000000,0.000000,0.000000,0.000000,0.000000,0.000000
12026743.000000,2.301039,-1.053164,-1.878700,-1.472244,-1.015296,1.787123,0.493183,-0.005522,-0.404481,-0.219904,-0.213523,-0.401022,0.375109,0.157908,0.697065,36.587566,21.607773,10.739012,0.482877,1.825668,0.094161,0.000000,0.000000,0.000000,0.000000,0.000000,0.000000
12026744.000000,2.301038,-1.053564,-1.878925,-1.472462,-1.015698,1.787481,0.493346,-0.003809,-0.400247,-0.223920,-0.215138,-0.401824,0.373081,0.156286,0.697065,36.440777,21.754562,10.814390,0.542386,1.890670,0.094161,0.000000,0.000000,0.000000,0.000000,0.000000,0.000000
12026745.000000,2.301034,-1.053968,-1.879147,-1.472679,-1.016093,1.787846,0.493506,-0.003285,-0.401650,-0.225424,-0.215532,-0.399496,0.366417,0.159648,0.724836,36.341595,21.825974,10.861998,0.524076,1.974899,0.094161,0.000000,0.000000,0.000000,0.000000,0.000000,0.000000
12026746.000000,2.301031,-1.054375,-1.879368,-1.472883,-1.016495,1.788201,0.493668,-0.002818,-0.401037,-0.222526,-0.214170,-0.398353,0.368601,0.161902,0.748639,36.270184,21.877548,10.838194,0.535978,2.001449,0.094161,0.000000,0.000000,0.000000,0.000000,0.000000,0.000000
12026747.000000,2.301028,-1.054784,-1.879596,-1.473089,-1.016876,1.788570,0.493825,-0.003046,-0.401050,-0.224498,-0.209837,-0.390767,0.368268,0.158398,0.796247,36.123394,22.000534,10.814390,0.458158,1.942855,0.114303,0.000000,0.000000,0.000000,0.000000,0.000000,0.000000
12026748.000000,2.301027,-1.055182,-1.879810,-1.473304,-1.017276,1.788935,0.493993,-0.001514,-0.397348,-0.220326,-0.213130,-0.395598,0.368095,0.158405,0.772443,36.048016,21.972763,10.838194,0.416959,1.897079,0.061202,0.000000,0.000000,0.000000,0.000000,0.000000,0.000000
12026749.000000,2.301027,-1.055585,-1.880034,-1.473506,-1.017676,1.789292,0.494161,-0.001597,-0.399050,-0.219716,-0.208156,-0.396317,0.362367,0.160692,0.796247,35.925030,22.048141,10.762815,0.440763,1.981307,0.074935,0.000000,0.000000,0.000000,0.000000,0.000000,0.000000
12026750.000000,2.301027,-1.055985,-1.880252,-1.473716,-1.018060,1.789649,0.494320,-0.001087,-0.397923,-0.217175,-0.209201,-0.392635,0.355299,0.160879,0.796247,35.901226,22.147324,10.762815,0.464567,2.027084,0.127120,0.000000,0.000000,0.000000,0.000000,0.000000,0.000000
12026751.000000,2.301024,-1.056394,-1.880469,-1.473919,-1.018461,1.790013,0.494495,-0.001948,-0.400453,-0.216398,-0.206052,-0.397887,0.362603,0.165645,0.847822,35.853619,22.171127,10.715208,0.452665,1.995040,0.048385,0.000000,0.000000,0.000000,0.000000,0.000000,0.000000
12026752.000000,2.301022,-1.056795,-1.880679,-1.474132,-1.018868,1.790375,0.494660,-0.001868,-0.396748,-0.216933,-0.208327,-0.399225,0.361968,0.161702,0.871625,35.778240,22.095749,10.739012,0.500272,1.968490,0.048385,0.000000,0.000000,0.000000,0.000000,0.000000,0.000000
12026753.000000,2.301031,-1.057199,-1.880898,-1.474347,-1.019258,1.790729,0.494821,0.001065,-0.396642,-0.218196,-0.208174,-0.398468,0.357051,0.162922,0.772443,35.754436,22.194931,10.814390,0.500272,1.968490,0.067611,0.000000,0.000000,0.000000,0.000000,0.000000,0.000000
12026754.000000,2.301026,-1.057600,-1.881105,-1.474541,-1.019666,1.791082,0.494985,-0.001061,-0.395133,-0.213531,-0.200898,-0.400193,0.356413,0.160277,0.847822,35.655254,22.071945,10.715208,0.470060,2.001449,0.054794,0.000000,0.000000,0.000000,0.000000,0.000000,0.000000
12026755.000000,2.301030,-1.058001,-1.881319,-1.474745,-1.020068,1.791443,0.495142,-0.000156,-0.398181,-0.213662,-0.201191,-0.399402,0.354407,0.156591,0.824018,35.536236,22.071945,10.739012,0.470060,2.072860,0.087753,0.000000,0.000000,0.000000,0.000000,0.000000,0.000000
12026756.000000,2.301037,-1.058402,-1.881529,-1.474949,-1.020466,1.791802,0.495307,0.001655,-0.394764,-0.211290,-0.202157,-0.393691,0.356198,0.160780,0.748639,35.460857,21.972763,10.786619,0.458158,2.072860,0.054794,0.000000,0.000000,0.000000,0.000000,0.000000,0.000000
12026757.000000,2.301041,-1.058805,-1.881740,-1.475153,-1.020877,1.792170,0.495468,0.004949,-0.391752,-0.207777,-0.202372,-0.399734,0.354552,0.161647,0.724836,35.290264,21.925156,10.814390,0.458158,1.995040,0.067611,0.000000,0.000000,0.000000,0.000000,0.000000,0.000000
12026758.000000,2.301037,-1.059204,-1.881943,-1.475353,-1.021282,1.792530,0.495627,0.004307,-0.394012,-0.205141,-0.202411,-0.398894,0.356185,0.158349,0.824018,35.238689,21.877548,10.838194,0.452665,1.988631,0.081344,0.000000,0.000000,0.000000,0.000000,0.000000,0.000000
12026759.000000,2.301042,-1.059619,-1.882141,-1.475556,-1.021696,1.792892,0.495790,0.003980,-0.400575,-0.200905,-0.201664,-0.399824,0.356468,0.156655,0.796247,35.266460,21.754562,10.961180,0.512174,2.001449,0.067611,0.000000,0.000000,0.000000,0.000000,0.000000,0.000000
12026760.000000,2.301045,-1.060035,-1.882336,-1.475755,-1.022104,1.793260,0.495951,0.002347,-0.401864,-0.203018,-0.204009,-0.404121,0.357078,0.159444,0.824018,35.413250,21.607773,10.961180,0.518583,1.988631,0.081344,0.000000,0.000000,0.000000,0.000000,0.000000,0.000000
12026761.000000,2.301049,-1.060447,-1.882535,-1.475950,-1.022509,1.793621,0.496112,0.001823,-0.405941,-0.197114,-0.204548,-0.401433,0.362228,0.157568,0.824018,35.460857,21.484787,10.937376,0.500272,1.995040,0.067611,0.000000,0.000000,0.000000,0.000000,0.000000,0.000000
12026762.000000,2.301058,-1.060855,-1.882727,-1.476141,-1.022909,1.793991,0.496267,0.002615,-0.404748,-0.192052,-0.197330,-0.393638,0.365834,0.154402,0.772443,35.484661,21.337997,10.937376,0.458158,1.995040,0.107894,0.000000,0.000000,0.000000,0.000000,0.000000,0.000000
12026763.000000,2.301065,-1.061269,-1.882924,-1.476336,-1.023307,1.794370,0.496435,0.004374,-0.408611,-0.190676,-0.192807,-0.398147,0.371918,0.155808,0.796247,35.560040,21.286423,10.984983,0.416959,1.916305,0.048385,0.000000,0.000000,0.000000,0.000000,0.000000,0.000000
12026764.000000,2.301079,-1.061682,-1.883117,-1.476522,-1.023712,1.794737,0.496597,0.008243,-0.406863,-0.191687,-0.190469,-0.396014,0.370108,0.157423,0.724836,35.683025,21.215012,10.937376,0.381254,1.871444,0.081344,0.000000,0.000000,0.000000,0.000000,0.000000,0.000000
12026765.000000,2.301087,-1.062106,-1.883307,-1.476712,-1.024116,1.795110,0.496762,0.008755,-0.410839,-0.190502,-0.185236,-0.392426,0.370936,0.161012,0.748639,35.802044,21.092026,10.885801,0.398649,1.877853,0.067611,0.000000,0.000000,0.000000,0.000000,0.000000,0.000000
12026766.000000,2.301102,-1.062528,-1.883498,-1.476897,-1.024518,1.795475,0.496922,0.007725,-0.412306,-0.194312,-0.184638,-0.399436,0.368998,0.157118,0.697065,35.976604,21.115829,10.814390,0.422452,1.844894,0.100570,0.000000,0.000000,0.000000,0.000000,0.000000,0.000000
12026767.000000,2.301110,-1.062949,-1.883681,-1.477079,-1.024925,1.795835,0.497092,0.008699,-0.411262,-0.186855,-0.185742,-0.398818,0.362264,0.161757,0.697065,36.000408,20.992844,10.814390,0.440763,1.838485,0.061202,0.000000,0.000000,0.000000,0.000000,0.000000,0.000000
12026768.000000,2.301124,-1.063355,-1.883861,-1.477266,-1.025317,1.796200,0.497257,0.011365,-0.415759,-0.185438,-0.189484,-0.394377,0.365730,0.163840,0.625654,36.000408,20.893661,10.814390,0.458158,1.851302,0.054794,0.000000,0.000000,0.000000,0.000000,0.000000,0.000000
12026769.000000,2.301139,-1.063771,-1.884047,-1.477449,-1.025710,1.796566,0.497415,0.010089,-0.414285,-0.184246,-0.187554,-0.392027,0.362067,0.158133,0.550275,35.948833,20.794479,10.739012,0.381254,1.786300,0.107894,0.000000,0.000000,0.000000,0.000000,0.000000,0.000000
12026770.000000,2.301154,-1.064185,-1.884230,-1.477633,-1.026118,1.796927,0.497580,0.012101,-0.411027,-0.186253,-0.187783,-0.397839,0.356348,0.163037,0.474897,35.948833,20.671494,10.739012,0.374845,1.767074,0.054794,0.000000,0.000000,0.000000,0.000000,0.000000,0.000000
12026771.000000,2.301170,-1.064594,-1.884416,-1.477812,-1.026517,1.797273,0.497739,0.010413,-0.410145,-0.186782,-0.183997,-0.397779,0.354577,0.157669,0.403486,35.925030,20.647690,10.691404,0.374845,1.832076,0.114303,0.000000,0.000000,0.000000,0.000000,0.000000,0.000000
12026772.000000,2.301190,-1.065007,-1.884604,-1.477985,-1.026915,1.797625,0.497909,0.013435,-0.409327,-0.187200,-0.180890,-0.393864,0.349353,0.156997,0.276533,36.000408,20.647690,10.639830,0.291532,1.877853,0.087753,0.000000,0.000000,0.000000,0.000000,0.000000,0.000000
12026773.000000,2.301203,-1.065426,-1.884782,-1.478152,-1.027321,1.797981,0.498076,0.012935,-0.411362,-0.181191,-0.175444,-0.396387,0.351784,0.161310,0.252729,36.024212,20.500900,10.465269,0.332731,1.877853,0.061202,0.000000,0.000000,0.000000,0.000000,0.000000,0.000000
12026774.000000,2.301228,-1.065830,-1.884972,-1.478337,-1.027726,1.798330,0.498232,0.017027,-0.410901,-0.184657,-0.178509,-0.396513,0.350342,0.155816,0.054365,35.976604,20.552475,10.564451,0.327238,1.844894,0.127120,0.000000,0.000000,0.000000,0.000000,0.000000,0.000000
12026775.000000,2.301243,-1.066242,-1.885154,-1.478510,-1.028130,1.798697,0.498405,0.016297,-0.408277,-0.184619,-0.176223,-0.400873,0.354951,0.166362,0.006757,35.877422,20.500900,10.493040,0.303434,1.767074,0.041976,0.000000,0.000000,0.000000,0.000000,0.000000,0.000000
12026776.000000,2.301254,-1.066642,-1.885336,-1.478679,-1.028540,1.799051,0.498563,0.014200,-0.406926,-0.181698,-0.174476,-0.405498,0.356368,0.166230,0.030561,35.730633,20.453293,10.417662,0.327238,1.754256,0.061202,0.000000,0.000000,0.000000,0.000000,0.000000,0.000000
12026777.000000,2.301280,-1.067052,-1.885528,-1.478848,-1.028957,1.799402,0.498722,0.018293,-0.404689,-0.186875,-0.175000,-0.404667,0.350131,0.161246,-0.167803,35.560040,20.477097,10.417662,0.386747,1.806442,0.081344,0.000000,0.000000,0.000000,0.000000,0.000000,0.000000
12026778.000000,2.301308,-1.067457,-1.885715,-1.479017,-1.029365,1.799756,0.498881,0.023509,-0.405588,-0.188323,-0.169368,-0.419143,0.356140,0.162101,-0.342364,35.314068,20.429489,10.318480,0.386747,1.819259,0.114303,0.000000,0.000000,0.000000,0.000000,0.000000,0.000000
12026779.000000,2.301323,-1.067860,-1.885896,-1.479177,-1.029786,1.800109,0.499054,0.020193,-0.402916,-0.183133,-0.167820,-0.414542,0.355377,0.166014,-0.342364,35.068096,20.330307,10.219297,0.416959,1.865035,0.054794,0.000000,0.000000,0.000000,0.000000,0.000000,0.000000
12026780.000000,2.301343,-1.068264,-1.886093,-1.479341,-1.030200,1.800468,0.499218,0.021333,-0.402810,-0.186296,-0.167000,-0.404039,0.355891,0.165916,-0.366168,34.921307,20.401718,10.219297,0.393156,1.871444,0.081344,0.000000,0.000000,0.000000,0.000000,0.000000,0.000000
12026781.000000,2.301367,-1.068672,-1.886278,-1.479503,-1.030611,1.800831,0.499382,0.020667,-0.411866,-0.185492,-0.162497,-0.410658,0.356002,0.166587,-0.441546,34.849895,20.330307,10.195494,0.362943,1.773483,0.087753,0.000000,0.000000,0.000000,0.000000,0.000000,0.000000
12026782.000000,2.301385,-1.069079,-1.886468,-1.479657,-1.031029,1.801202,0.499551,0.018722,-0.412506,-0.184878,-0.157972,-0.411299,0.358815,0.168062,-0.465350,34.798321,20.278732,10.120115,0.356534,1.714889,0.061202,0.000000,0.000000,0.000000,0.000000,0.000000,0.000000
12026783.000000,2.301407,-1.069490,-1.886660,-1.479818,-1.031448,1.801555,0.499710,0.020916,-0.408742,-0.186496,-0.159360,-0.416531,0.355277,0.161932,-0.512957,34.726910,20.306503,10.120115,0.332731,1.779891,0.107894,0.000000,0.000000,0.000000,0.000000,0.000000,0.000000
12026784.000000,2.301428,-1.069901,-1.886845,-1.479975,-1.031864,1.801910,0.499877,0.019327,-0.411424,-0.185854,-0.159475,-0.421444,0.352102,0.161448,-0.540728,34.873699,20.254929,10.072508,0.344633,1.767074,0.048385,0.000000,0.000000,0.000000,0.000000,0.000000,0.000000
12026785.000000,2.301447,-1.070319,-1.887031,-1.480131,-1.032286,1.802265,0.500036,0.017254,-0.411957,-0.184646,-0.160765,-0.420076,0.357528,0.157324,-0.540728,34.921307,20.183517,10.072508,0.362943,1.793624,0.081344,0.000000,0.000000,0.000000,0.000000,0.000000,0.000000
12026786.000000,2.301466,-1.070731,-1.887222,-1.480289,-1.032693,1.802623,0.500197,0.018033,-0.414747,-0.189166,-0.158664,-0.414006,0.357575,0.156544,-0.512957,34.996685,20.183517,10.096312,0.351041,1.806442,0.061202,0.000000,0.000000,0.000000,0.000000,0.000000,0.000000
12026787.000000,2.301492,-1.071154,-1.887418,-1.480440,-1.033112,1.802979,0.500357,0.021580,-0.415470,-0.189499,-0.156202,-0.419775,0.360231,0.153899,-0.588336,35.091900,20.207321,10.072508,0.369352,1.747848,0.081344,0.000000,0.000000,0.000000,0.000000,0.000000,0.000000
12026788.000000,2.301504,-1.071573,-1.887614,-1.480602,-1.033540,1.803334,0.500510,0.019914,-0.416912,-0.189820,-0.159656,-0.419115,0.361073,0.151367,-0.489153,35.167278,20.231125,10.143919,0.374845,1.702071,0.107894,0.000000,0.000000,0.000000,0.000000,0.000000,0.000000
12026789.000000,2.301522,-1.071985,-1.887800,-1.480759,-1.033954,1.803682,0.500675,0.020005,-0.413935,-0.187821,-0.154893,-0.418415,0.366036,0.158411,-0.441546,35.119671,20.159714,10.171690,0.374845,1.747848,0.041976,0.000000,0.000000,0.000000,0.000000,0.000000,0.000000
12026790.000000,2.301538,-1.072398,-1.887992,-1.480914,-1.034376,1.804039,0.500829,0.020282,-0.416084,-0.189660,-0.154206,-0.419632,0.359344,0.153924,-0.389971,35.091900,20.108139,10.195494,0.320829,1.754256,0.107894,0.000000,0.000000,0.000000,0.000000,0.000000,0.000000
12026791.000000,2.301558,-1.072817,-1.888182,-1.481064,-1.034800,1.804399,0.500988,0.017813,-0.415202,-0.189586,-0.151639,-0.420832,0.356214,0.155230,-0.366168,35.044292,20.108139,10.143919,0.374845,1.708480,0.054794,0.000000,0.000000,0.000000,0.000000,0.000000,0.000000
12026792.000000,2.301575,-1.073242,-1.888370,-1.481224,-1.035217,1.804746,0.501140,0.018440,-0.422990,-0.188946,-0.156555,-0.419557,0.350430,0.153336,-0.314593,35.238689,20.084335,10.270872,0.374845,1.754256,0.061202,0.000000,0.000000,0.000000,0.000000,0.000000,0.000000
12026793.000000,2.301582,-1.073669,-1.888559,-1.481376,-1.035644,1.805094,0.501285,0.012883,-0.420980,-0.185854,-0.156239,-0.422464,0.351438,0.154840,-0.144000,35.314068,20.084335,10.195494,0.344633,1.779891,0.107894,0.000000,0.000000,0.000000,0.000000,0.000000,0.000000
12026794.000000,2.301598,-1.074097,-1.888740,-1.481535,-1.036061,1.805450,0.501441,0.011984,-0.427343,-0.184846,-0.157762,-0.420750,0.349842,0.154108,-0.092425,35.508465,20.008957,10.195494,0.339139,1.754256,0.100570,0.000000,0.000000,0.000000,0.000000,0.000000,0.000000
12026795.000000,2.301621,-1.074539,-1.888934,-1.481680,-1.036485,1.805796,0.501596,0.016736,-0.430031,-0.186627,-0.152516,-0.419414,0.348618,0.157034,-0.144000,35.778240,20.060532,10.048704,0.362943,1.714889,0.120712,0.000000,0.000000,0.000000,0.000000,0.000000,0.000000
12026796.000000,2.301634,-1.074979,-1.889126,-1.481831,-1.036899,1.806157,0.501758,0.013761,-0.434392,-0.193174,-0.150377,-0.429114,0.352164,0.153235,-0.068621,36.024212,20.108139,9.973326,0.327238,1.670028,0.054794,0.000000,0.000000,0.000000,0.000000,0.000000,0.000000
12026797.000000,2.301648,-1.075408,-1.889316,-1.481977,-1.037316,1.806507,0.501910,0.014961,-0.430483,-0.193056,-0.151175,-0.425517,0.350054,0.150697,0.006757,36.095623,20.159714,9.897947,0.327238,1.637069,0.100570,0.000000,0.000000,0.000000,0.000000,0.000000,0.000000
12026798.000000,2.301667,-1.075844,-1.889511,-1.482133,-1.037727,1.806851,0.502071,0.014831,-0.432976,-0.193317,-0.154556,-0.417797,0.346548,0.151685,0.006757,36.171001,20.231125,9.897947,0.327238,1.649886,0.074935,0.000000,0.000000,0.000000,0.000000,0.000000,0.000000
12026799.000000,2.301687,-1.076269,-1.889704,-1.482288,-1.038145,1.807202,0.502221,0.017633,-0.434062,-0.190034,-0.151960,-0.423014,0.354148,0.149626,0.006757,36.171001,20.278732,9.822569,0.351041,1.656295,0.120712,0.000000,0.000000,0.000000,0.000000,0.000000,0.000000
12026800.000000,2.301700,-1.076704,-1.889898,-1.482435,-1.038559,1.807543,0.502377,0.015320,-0.435970,-0.187742,-0.149790,-0.419849,0.353621,0.151322,0.054365,36.218609,20.354111,9.727354,0.327238,1.708480,0.074935,0.000000,0.000000,0.000000,0.000000,0.000000,0.000000
12026801.000000,2.301719,-1.077144,-1.890092,-1.482588,-1.038970,1.807887,0.502528,0.017453,-0.432791,-0.189405,-0.150179,-0.418302,0.352672,0.150820,0.078168,36.341595,20.429489,9.727354,0.303434,1.754256,0.081344,0.000000,0.000000,0.000000,0.000000,0.000000,0.000000
12026802.000000,2.301739,-1.077581,-1.890287,-1.482746,-1.039389,1.808230,0.502684,0.016268,-0.434482,-0.190925,-0.152669,-0.418075,0.355455,0.149517,0.078168,36.488384,20.524704,9.822569,0.308927,1.727706,0.114303,0.000000,0.000000,0.000000,0.000000,0.000000,0.000000
12026803.000000,2.301754,-1.078021,-1.890489,-1.482889,-1.039805,1.808587,0.502849,0.014897,-0.429195,-0.194955,-0.151158,-0.416071,0.352707,0.152075,0.105939,36.682781,20.623886,9.774961,0.291532,1.695663,0.054794,0.000000,0.000000,0.000000,0.000000,0.000000,0.000000
12026804.000000,2.301771,-1.078450,-1.890692,-1.483036,-1.040206,1.808942,0.503000,0.017038,-0.439240,-0.196404,-0.147093,-0.415271,0.351032,0.146529,0.129743,36.734356,20.770676,9.751158,0.261320,1.656295,0.067611,0.000000,0.000000,0.000000,0.000000,0.000000,0.000000
12026805.000000,2.301795,-1.078881,-1.890901,-1.483186,-1.040635,1.809278,0.503154,0.017719,-0.435159,-0.199754,-0.151864,-0.417690,0.342776,0.146475,0.054365,36.758160,20.893661,9.774961,0.315336,1.670028,0.087753,0.000000,0.000000,0.000000,0.000000,0.000000,0.000000
12026806.000000,2.301813,-1.079314,-1.891109,-1.483333,-1.041063,1.809612,0.503305,0.018381,-0.431290,-0.198587,-0.147882,-0.418289,0.344310,0.151293,0.105939,36.710552,20.992844,9.751158,0.344633,1.714889,0.087753,0.000000,0.000000,0.000000,0.000000,0.000000,0.000000
12026807.000000,2.301837,-1.079736,-1.891316,-1.483486,-1.041476,1.809947,0.503457,0.021387,-0.428543,-0.203409,-0.150926,-0.417300,0.347820,0.150799,0.054365,36.635174,21.064255,9.850340,0.339139,1.793624,0.094161,0.000000,0.000000,0.000000,0.000000,0.000000,0.000000
12026808.000000,2.301860,-1.080173,-1.891524,-1.483635,-1.041905,1.810287,0.503615,0.019524,-0.430336,-0.200886,-0.152449,-0.417212,0.341724,0.152388,0.030561,36.611370,21.163437,9.921751,0.374845,1.779891,0.048385,0.000000,0.000000,0.000000,0.000000,0.000000,0.000000
12026809.000000,2.301880,-1.080604,-1.891729,-1.483785,-1.042326,1.810626,0.503764,0.020824,-0.425720,-0.206600,-0.152085,-0.428522,0.337448,0.150465,0.030561,36.488384,21.215012,9.949522,0.386747,1.754256,0.087753,0.000000,0.000000,0.000000,0.000000,0.000000,0.000000
12026810.000000,2.301899,-1.081033,-1.891941,-1.483933,-1.042741,1.810960,0.503927,0.020978,-0.426650,-0.207568,-0.151498,-0.424420,0.340206,0.151288,0.054365,36.341595,21.337997,9.949522,0.356534,1.825668,0.061202,0.000000,0.000000,0.000000,0.000000,0.000000,0.000000
12026811.000000,2.301920,-1.081464,-1.892151,-1.484083,-1.043168,1.811299,0.504082,0.019037,-0.427250,-0.209306,-0.152081,-0.420112,0.332180,0.154516,0.054365,36.270184,21.385605,9.997129,0.297025,1.903487,0.094161,0.000000,0.000000,0.000000,0.000000,0.000000,0.000000
12026812.000000,2.301943,-1.081899,-1.892357,-1.484229,-1.043593,1.811639,0.504243,0.017879,-0.427988,-0.207408,-0.147915,-0.423927,0.333486,0.155534,0.030561,36.270184,21.409409,9.973326,0.297025,1.923629,0.041976,0.000000,0.000000,0.000000,0.000000,0.000000,0.000000
12026813.000000,2.301963,-1.082337,-1.892575,-1.484379,-1.044024,1.811977,0.504399,0.019141,-0.435720,-0.207805,-0.144040,-0.426657,0.336627,0.157356,0.054365,36.317791,21.532394,10.048704,0.308927,1.897079,0.074935,0.000000,0.000000,0.000000,0.000000,0.000000,0.000000
12026814.000000,2.301977,-1.082774,-1.892792,-1.484525,-1.044451,1.812325,0.504551,0.017808,-0.433955,-0.212756,-0.142480,-0.428591,0.337890,0.155199,0.177350,36.317791,21.631577,10.072508,0.303434,1.871444,0.087753,0.000000,0.000000,0.000000,0.000000,0.000000,0.000000
12026815.000000,2.301992,-1.083207,-1.893002,-1.484676,-1.044882,1.812663,0.504709,0.017628,-0.439365,-0.213128,-0.145516,-0.431472,0.334748,0.154775,0.276533,36.341595,21.655380,10.120115,0.339139,1.851302,0.067611,0.000000,0.000000,0.000000,0.000000,0.000000,0.000000
12026816.000000,2.302012,-1.083645,-1.893217,-1.484825,-1.045317,1.813003,0.504861,0.019926,-0.434898,-0.211799,-0.144807,-0.438161,0.332006,0.152647,0.276533,36.317791,21.754562,10.171690,0.381254,1.832076,0.094161,0.000000,0.000000,0.000000,0.000000,0.000000,0.000000
12026817.000000,2.302025,-1.084088,-1.893423,-1.484977,-1.045750,1.813347,0.505018,0.015243,-0.444215,-0.209387,-0.147607,-0.442531,0.333193,0.154729,0.403486,36.293987,21.778366,10.243101,0.398649,1.858627,0.028243,0.000000,0.000000,0.000000,0.000000,0.000000,0.000000
12026818.000000,2.302042,-1.084508,-1.893630,-1.485119,-1.046180,1.813681,0.505168,0.017075,-0.432978,-0.204606,-0.145080,-0.435085,0.332334,0.155914,0.451093,36.095623,21.825974,10.243101,0.386747,1.930038,0.081344,0.000000,0.000000,0.000000,0.000000,0.000000,0.000000
12026819.000000,2.302056,-1.084942,-1.893841,-1.485268,-1.046621,1.814020,0.505324,0.014691,-0.428410,-0.206465,-0.144226,-0.434399,0.332091,0.160063,0.526471,35.948833,21.825974,10.294676,0.362943,1.974899,0.061202,0.000000,0.000000,0.000000,0.000000,0.000000,0.000000
12026820.000000,2.302076,-1.085366,-1.894043,-1.485411,-1.047047,1.814352,0.505486,0.017440,-0.425839,-0.203199,-0.144569,-0.432490,0.334207,0.159425,0.550275,35.802044,21.754562,10.243101,0.303434,1.981307,0.015426,0.000000,0.000000,0.000000,0.000000,0.000000,0.000000
