chaoyuefei/paper-gmrm-data/robot_logs/s2_dq_gmrm_xz_max_0.30_log_20260314_183238.csv
# time_ms,q_0,q_1,q_2,q_3,q_4,q_5,q_6,dq_0,dq_1,dq_2,dq_3,dq_4,dq_5,dq_6,tau_J_0,tau_J_1,tau_J_2,tau_J_3,tau_J_4,tau_J_5,tau_J_6,O_dP_EE_c_0,O_dP_EE_c_1,O_dP_EE_c_2,O_dP_EE_c_3,O_dP_EE_c_4,O_dP_EE_c_5
15823048.000000,-0.344860,0.543939,0.451231,-1.426807,-0.241982,1.915998,0.131413,0.000688,0.000479,-0.000680,-0.000714,-0.000040,-0.000048,0.000624,0.427289,-38.144184,5.726730,19.316282,0.273221,2.014266,0.054794,0.000000,0.000000,0.000000,0.000000,0.000000,0.000000
15823049.000000,-0.344862,0.543937,0.451231,-1.426804,-0.241982,1.915996,0.131412,0.000459,-0.000238,-0.000454,0.000638,0.000177,-0.000269,0.000179,0.427289,-38.120380,5.726730,19.268675,0.267728,2.020675,0.061202,0.000000,0.000000,0.000000,0.000000,0.000000,0.000000
15823050.000000,-0.344865,0.543939,0.451233,-1.426804,-0.241981,1.915999,0.131412,-0.001457,0.000398,0.000254,0.000425,0.000355,-0.000180,0.000119,0.502668,-38.144184,5.702927,19.268675,0.261320,2.020675,0.061202,0.000000,0.000000,0.000000,0.000000,0.000000,0.000000
15823051.000000,-0.344865,0.543939,0.451233,-1.426804,-0.241983,1.916000,0.131415,-0.000322,0.000266,0.000170,0.000283,-0.000441,-0.000120,0.001063,0.474897,-38.144184,5.702927,19.268675,0.279630,2.020675,0.034652,0.000000,0.000000,0.000000,0.000000,0.000000,0.000000
15823052.000000,-0.344881,0.543946,0.451235,-1.426806,-0.241982,1.916001,0.131415,-0.015516,0.012382,-0.010183,-0.006524,-0.001473,0.001378,-0.000512,0.054365,-37.604633,5.064194,19.018736,0.183500,1.981307,0.067611,0.000000,0.000000,0.000000,0.000000,0.000000,0.000000
15823053.000000,-0.344896,0.543932,0.451209,-1.426811,-0.241968,1.916000,0.131434,-0.021725,0.017889,-0.021353,-0.013244,-0.002217,0.003055,0.007762,-1.429400,-35.378986,3.592331,18.007078,-0.174471,1.923629,0.100570,0.000000,0.000000,0.000000,0.000000,0.000000,0.000000
15823054.000000,-0.344905,0.543944,0.451142,-1.426831,-0.241966,1.916002,0.131472,-0.012072,0.019659,-0.033111,-0.022174,-0.002967,0.004444,0.015816,-3.631243,-32.074238,1.775314,16.277342,-0.557162,1.858627,0.087753,0.000000,0.000000,0.000000,0.000000,0.000000,0.000000
15823055.000000,-0.344913,0.543985,0.451048,-1.426858,-0.242019,1.916002,0.131523,-0.002946,0.019906,-0.044086,-0.022330,-0.018016,0.001539,0.027294,-5.785479,-28.523518,-0.212296,13.777952,-0.569064,1.897079,0.054794,0.000000,0.000000,0.000000,0.000000,0.000000,0.000000
15823056.000000,-0.344931,0.544068,0.450923,-1.426928,-0.242084,1.916004,0.131572,0.001239,0.027997,-0.061451,-0.032937,-0.032224,0.001894,0.031654,-7.495379,-25.417133,-1.906326,11.429319,-0.611178,2.007858,0.133529,0.000000,0.000000,0.000000,0.000000,0.000000,0.000000
15823057.000000,-0.344957,0.544164,0.450794,-1.427009,-0.242179,1.916072,0.131639,0.002407,0.038954,-0.072770,-0.041721,-0.053751,0.023510,0.044820,-8.483233,-22.747150,-3.013199,9.179869,-0.479342,1.670028,0.081344,0.000000,0.000000,0.000000,0.000000,0.000000,0.000000
15823058.000000,-0.344978,0.544289,0.450682,-1.427090,-0.242308,1.916218,0.131695,0.000246,0.064299,-0.075372,-0.046724,-0.080197,0.071096,0.049059,-8.756976,-20.838886,-3.675736,6.958189,-0.168978,0.824081,0.160079,0.000000,0.000000,0.000000,0.000000,0.000000,0.000000
15823059.000000,-0.344998,0.544410,0.450585,-1.427200,-0.242427,1.916385,0.131757,-0.004872,0.082002,-0.076805,-0.061843,-0.092744,0.107295,0.053052,-8.388019,-19.271809,-3.747147,5.327635,-0.037142,0.076095,0.225997,0.000000,0.000000,0.000000,0.000000,0.000000,0.000000
15823060.000000,-0.345018,0.544524,0.450517,-1.427306,-0.242546,1.916551,0.131836,-0.011468,0.086948,-0.070475,-0.070175,-0.098078,0.131229,0.060697,-7.519183,-17.827717,-3.524979,3.867674,-0.007845,-0.274552,0.180221,0.000000,0.000000,0.000000,0.000000,0.000000,0.000000
15823061.000000,-0.345029,0.544625,0.450479,-1.427421,-0.242660,1.916722,0.131908,-0.014075,0.090854,-0.056554,-0.081317,-0.103428,0.143220,0.063929,-6.503558,-16.578022,-3.207596,2.780638,-0.072848,-0.190324,0.193038,0.000000,0.000000,0.000000,0.000000,0.000000,0.000000
15823062.000000,-0.345012,0.544711,0.450444,-1.427536,-0.242765,1.916915,0.131996,-0.007829,0.090259,-0.052120,-0.091716,-0.099545,0.157190,0.069212,-5.761675,-15.233112,-2.568863,1.963377,-0.240389,0.050460,0.107894,0.000000,0.000000,0.000000,0.000000,0.000000,0.000000
15823063.000000,-0.345018,0.544772,0.450419,-1.427687,-0.242860,1.917147,0.132070,-0.011912,0.081053,-0.047815,-0.111038,-0.093829,0.180123,0.068437,-4.722247,-13.666035,-1.906326,1.717406,-0.497653,0.258285,0.160079,0.000000,0.000000,0.000000,0.000000,0.000000,0.000000
15823064.000000,-0.345025,0.544810,0.450395,-1.427865,-0.242949,1.917407,0.132158,-0.013879,0.068354,-0.046530,-0.135493,-0.091146,0.205002,0.073329,-3.682818,-11.852985,-1.243790,1.963377,-0.730197,0.408431,0.074935,0.000000,0.000000,0.000000,0.000000,0.000000,0.000000
15823065.000000,-0.345031,0.544842,0.450358,-1.428064,-0.243052,1.917687,0.132233,-0.015317,0.054487,-0.047168,-0.157267,-0.088889,0.231542,0.076117,-2.742571,-10.115314,-0.482071,2.459288,-0.724703,0.589706,0.120712,0.000000,0.000000,0.000000,0.000000,0.000000,0.000000
15823066.000000,-0.345042,0.544885,0.450310,-1.428270,-0.243173,1.917983,0.132325,-0.017559,0.052728,-0.050027,-0.174493,-0.098574,0.245924,0.078056,-1.873736,-8.722797,0.275680,2.951231,-0.521456,0.811263,0.054794,0.000000,0.000000,0.000000,0.000000,0.000000,0.000000
15823067.000000,-0.345069,0.544940,0.450257,-1.428481,-0.243293,1.918313,0.132397,-0.021943,0.056446,-0.053316,-0.192824,-0.106384,0.269990,0.070202,-0.885882,-7.572285,0.965988,3.324156,-0.282504,0.901900,0.114303,0.000000,0.000000,0.000000,0.000000,0.000000,0.000000
15823068.000000,-0.345106,0.545022,0.450209,-1.428709,-0.243406,1.918657,0.132475,-0.031288,0.067473,-0.052429,-0.205926,-0.107724,0.286324,0.070568,0.105939,-6.810566,1.382553,3.593931,-0.145175,0.954086,0.140853,0.000000,0.000000,0.000000,0.000000,0.000000,0.000000
15823069.000000,-0.345139,0.545125,0.450169,-1.428942,-0.243515,1.919035,0.132559,-0.034037,0.080144,-0.048074,-0.221992,-0.108877,0.316383,0.077103,0.923200,-6.421772,1.628525,3.768492,-0.126864,0.908309,0.120712,0.000000,0.000000,0.000000,0.000000,0.000000,0.000000
15823070.000000,-0.345162,0.545250,0.450135,-1.429173,-0.243608,1.919453,0.132640,-0.028680,0.097524,-0.042001,-0.222779,-0.105095,0.351505,0.074407,1.415143,-6.322590,1.723740,3.669310,-0.240389,0.700484,0.153671,0.000000,0.000000,0.000000,0.000000,0.000000,0.000000
15823071.000000,-0.345178,0.545391,0.450107,-1.429414,-0.243691,1.919882,0.132729,-0.022148,0.113968,-0.035780,-0.228532,-0.099654,0.374608,0.076938,1.764264,-6.421772,1.723740,3.371763,-0.438143,0.505477,0.087753,0.000000,0.000000,0.000000,0.000000,0.000000,0.000000
15823072.000000,-0.345203,0.545534,0.450070,-1.429659,-0.243779,1.920320,0.132807,-0.022262,0.124622,-0.036183,-0.232586,-0.100576,0.393109,0.075892,2.160993,-6.516987,1.775314,3.026610,-0.629489,0.518295,0.100570,0.000000,0.000000,0.000000,0.000000,0.000000,0.000000
15823073.000000,-0.345218,0.545670,0.450033,-1.429917,-0.243884,1.920767,0.132886,-0.018700,0.128492,-0.034118,-0.237046,-0.104299,0.403625,0.075201,2.383161,-6.346394,1.846725,2.729063,-0.641390,0.629073,0.114303,0.000000,0.000000,0.000000,0.000000,0.000000,0.000000
15823074.000000,-0.345224,0.545789,0.449987,-1.430198,-0.244004,1.921228,0.132971,-0.013134,0.127060,-0.038329,-0.250341,-0.106208,0.421542,0.076409,2.454572,-5.858418,2.021286,2.558470,-0.539767,0.648299,0.074935,0.000000,0.000000,0.000000,0.000000,0.000000,0.000000
15823075.000000,-0.345236,0.545905,0.449937,-1.430498,-0.244126,1.921724,0.133044,-0.014071,0.121468,-0.040765,-0.268384,-0.113326,0.446251,0.074165,2.581525,-5.172077,2.168075,2.606077,-0.401522,0.648299,0.127120,0.000000,0.000000,0.000000,0.000000,0.000000,0.000000
15823076.000000,-0.345248,0.546013,0.449893,-1.430809,-0.244252,1.922258,0.133125,-0.011395,0.116590,-0.042748,-0.281339,-0.118483,0.479981,0.078950,2.680707,-4.315144,2.191879,2.657652,-0.252291,0.466109,0.120712,0.000000,0.000000,0.000000,0.000000,0.000000,0.000000
15823077.000000,-0.345262,0.546129,0.449852,-1.431131,-0.244376,1.922820,0.133204,-0.011641,0.115696,-0.039786,-0.294626,-0.121445,0.511558,0.081832,2.728315,-3.628803,2.144272,2.729063,-0.121371,0.316879,0.133529,0.000000,0.000000,0.000000,0.000000,0.000000,0.000000
15823078.000000,-0.345273,0.546259,0.449819,-1.431456,-0.244491,1.923375,0.133293,-0.011516,0.117934,-0.037496,-0.304529,-0.117978,0.520359,0.081757,2.752119,-3.065449,1.945907,2.681456,-0.138766,0.408431,0.094161,0.000000,0.000000,0.000000,0.000000,0.000000,0.000000
15823079.000000,-0.345279,0.546415,0.449783,-1.431782,-0.244601,1.923927,0.133377,-0.007448,0.128527,-0.035371,-0.310078,-0.113254,0.531207,0.084808,2.728315,-3.017842,1.846725,2.530699,-0.216586,0.674850,0.087753,0.000000,0.000000,0.000000,0.000000,0.000000,0.000000
15823080.000000,-0.345271,0.546589,0.449749,-1.432095,-0.244703,1.924519,0.133453,-0.001777,0.138849,-0.035876,-0.308739,-0.108610,0.547762,0.084586,2.581525,-3.656574,1.822922,2.407713,-0.342013,0.863448,0.133529,0.000000,0.000000,0.000000,0.000000,0.000000,0.000000
15823081.000000,-0.345270,0.546770,0.449725,-1.432412,-0.244801,1.925158,0.133542,0.004886,0.150854,-0.031503,-0.308613,-0.109180,0.572583,0.084710,2.581525,-4.830891,1.874496,2.483092,-0.497653,0.857040,0.067611,0.000000,0.000000,0.000000,0.000000,0.000000,0.000000
15823082.000000,-0.345275,0.546958,0.449701,-1.432742,-0.244895,1.925826,0.133618,0.002798,0.163409,-0.027128,-0.312499,-0.100287,0.606085,0.080300,2.752119,-6.397968,2.021286,2.852049,-0.658785,0.616256,0.120712,0.000000,0.000000,0.000000,0.000000,0.000000,0.000000
15823083.000000,-0.345275,0.547144,0.449677,-1.433079,-0.245011,1.926533,0.133696,0.002053,0.175107,-0.025209,-0.316457,-0.108114,0.637338,0.080080,2.902875,-8.036457,2.239486,3.300352,-0.563571,0.226241,0.094161,0.000000,0.000000,0.000000,0.000000,0.000000,0.000000
15823084.000000,-0.345268,0.547323,0.449646,-1.433431,-0.245140,1.927222,0.133776,0.000931,0.182133,-0.029536,-0.331704,-0.116592,0.643934,0.077777,2.950483,-9.528156,2.584640,3.768492,-0.372225,0.017501,0.120712,0.000000,0.000000,0.000000,0.000000,0.000000,0.000000
15823085.000000,-0.345266,0.547499,0.449616,-1.433780,-0.245276,1.927900,0.133849,0.001974,0.185044,-0.033156,-0.338270,-0.124182,0.649744,0.076573,3.049665,-10.825459,2.830612,4.042235,-0.138766,0.082504,0.140853,0.000000,0.000000,0.000000,0.000000,0.000000,0.000000
15823086.000000,-0.345259,0.547678,0.449590,-1.434146,-0.245409,1.928570,0.133930,0.003074,0.183374,-0.032920,-0.345286,-0.126223,0.652213,0.077123,3.002058,-12.098957,2.953598,4.434996,0.015958,0.193282,0.120712,0.000000,0.000000,0.000000,0.000000,0.000000,0.000000
15823087.000000,-0.345243,0.547846,0.449555,-1.434516,-0.245535,1.929242,0.134008,0.006362,0.176344,-0.033945,-0.349403,-0.124127,0.655095,0.080420,2.704511,-13.396259,3.124191,5.006285,0.076383,0.304061,0.147262,0.000000,0.000000,0.000000,0.000000,0.000000,0.000000
15823088.000000,-0.345231,0.548014,0.449527,-1.434892,-0.245640,1.929928,0.134094,0.007895,0.169725,-0.031340,-0.350715,-0.116976,0.664899,0.086069,2.283979,-14.915730,3.147995,5.942564,-0.019747,0.440475,0.081344,0.000000,0.000000,0.000000,0.000000,0.000000,0.000000
15823089.000000,-0.345221,0.548185,0.449506,-1.435273,-0.245734,1.930611,0.134165,0.008366,0.168899,-0.027346,-0.359187,-0.108221,0.681221,0.081223,1.863447,-16.629597,3.076584,7.255736,-0.216586,0.511886,0.133529,0.000000,0.000000,0.000000,0.000000,0.000000,0.000000
15823090.000000,-0.345229,0.548361,0.449473,-1.435638,-0.245839,1.931293,0.134248,0.005662,0.172994,-0.030519,-0.361263,-0.110536,0.684224,0.086414,1.688886,-18.438679,3.124191,8.564939,-0.306307,0.700484,0.081344,0.000000,0.000000,0.000000,0.000000,0.000000,0.000000
15823091.000000,-0.345234,0.548538,0.449432,-1.436014,-0.245959,1.931959,0.134320,0.001231,0.178593,-0.036009,-0.368645,-0.114409,0.671049,0.081089,1.490522,-20.251728,3.294784,10.048704,-0.234896,1.052047,0.147262,0.000000,0.000000,0.000000,0.000000,0.000000,0.000000
15823092.000000,-0.345243,0.548728,0.449393,-1.436383,-0.246080,1.932614,0.134398,-0.000615,0.186646,-0.037803,-0.371972,-0.118863,0.667641,0.079802,1.367536,-22.112385,3.370163,11.334105,-0.109469,1.377059,0.147262,0.000000,0.000000,0.000000,0.000000,0.000000,0.000000
15823093.000000,-0.345255,0.548934,0.449352,-1.436758,-0.246199,1.933284,0.134479,-0.003464,0.194648,-0.039594,-0.373063,-0.115710,0.664241,0.083783,1.315961,-23.945271,3.469345,12.567930,-0.025240,1.454879,0.140853,0.000000,0.000000,0.000000,0.000000,0.000000,0.000000
15823094.000000,-0.345261,0.549154,0.449300,-1.437137,-0.246320,1.933970,0.134568,-0.006866,0.202712,-0.045850,-0.373065,-0.117141,0.662400,0.082777,1.192975,-25.734516,3.639938,13.654966,0.046171,1.389877,0.100570,0.000000,0.000000,0.000000,0.000000,0.000000,0.000000
15823095.000000,-0.345257,0.549387,0.449251,-1.437507,-0.246444,1.934641,0.134646,-0.005967,0.215415,-0.046054,-0.375017,-0.116589,0.668039,0.080052,0.923200,-27.543598,3.762924,14.396849,0.069974,1.253463,0.107894,0.000000,0.000000,0.000000,0.000000,0.000000,0.000000
15823096.000000,-0.345256,0.549631,0.449194,-1.437885,-0.246559,1.935294,0.134723,-0.004590,0.226119,-0.050953,-0.374096,-0.118486,0.660090,0.077635,0.748639,-29.281269,3.957321,14.991941,0.027860,1.279098,0.140853,0.000000,0.000000,0.000000,0.000000,0.000000,0.000000
15823097.000000,-0.345257,0.549867,0.449134,-1.438264,-0.246686,1.935909,0.134809,-0.000406,0.227921,-0.054554,-0.375029,-0.118132,0.640571,0.078330,0.574079,-30.606342,4.155685,15.360899,0.064481,1.416427,0.100570,0.000000,0.000000,0.000000,0.000000,0.000000,0.000000
15823098.000000,-0.345258,0.550119,0.449063,-1.438659,-0.246810,1.936539,0.134887,-0.002162,0.236141,-0.062189,-0.380615,-0.117535,0.636614,0.075448,0.474897,-31.903645,4.425461,15.757627,0.088285,1.526290,0.133529,0.000000,0.000000,0.000000,0.000000,0.000000,0.000000
15823099.000000,-0.345273,0.550353,0.448996,-1.439059,-0.246933,1.937174,0.134973,-0.006876,0.234268,-0.066371,-0.383404,-0.122034,0.632291,0.076674,0.526471,-32.709003,4.647629,16.102781,0.117582,1.559249,0.087753,0.000000,0.000000,0.000000,0.000000,0.000000,0.000000
15823100.000000,-0.345283,0.550576,0.448923,-1.439477,-0.247061,1.937801,0.135049,-0.008758,0.229079,-0.069640,-0.389807,-0.125795,0.628389,0.079024,0.526471,-33.296162,4.865829,16.570921,0.154203,1.487838,0.140853,0.000000,0.000000,0.000000,0.000000,0.000000,0.000000
15823101.000000,-0.345304,0.550803,0.448849,-1.439906,-0.247184,1.938421,0.135135,-0.009772,0.224313,-0.070812,-0.398963,-0.126984,0.625888,0.083963,0.649457,-33.811909,5.040390,17.090635,0.147794,1.500655,0.100570,0.000000,0.000000,0.000000,0.000000,0.000000,0.000000
15823102.000000,-0.345323,0.551034,0.448770,-1.440336,-0.247311,1.939028,0.135217,-0.012728,0.224281,-0.075321,-0.404004,-0.128581,0.622333,0.080324,0.748639,-34.276081,5.234787,17.411985,0.166105,1.591293,0.127120,0.000000,0.000000,0.000000,0.000000,0.000000,0.000000
15823103.000000,-0.345344,0.551279,0.448686,-1.440765,-0.247437,1.939626,0.135293,-0.015906,0.229277,-0.076301,-0.409712,-0.130074,0.612459,0.078101,0.895429,-34.791828,5.456955,17.784910,0.183500,1.767074,0.153671,0.000000,0.000000,0.000000,0.000000,0.000000,0.000000
15823104.000000,-0.345356,0.551521,0.448599,-1.441194,-0.247566,1.940222,0.135380,-0.012155,0.229202,-0.080737,-0.408916,-0.129776,0.606509,0.079779,0.923200,-35.256001,5.702927,17.983274,0.166105,1.903487,0.094161,0.000000,0.000000,0.000000,0.000000,0.000000,0.000000
15823105.000000,-0.345364,0.551766,0.448515,-1.441625,-0.247694,1.940809,0.135458,-0.013798,0.233934,-0.079041,-0.422702,-0.128560,0.604609,0.080806,0.871625,-35.767780,5.873520,18.304625,0.117582,1.968490,0.153671,0.000000,0.000000,0.000000,0.000000,0.000000,0.000000
15823106.000000,-0.345376,0.552013,0.448426,-1.442070,-0.247823,1.941415,0.135546,-0.013391,0.236690,-0.081526,-0.428111,-0.123396,0.601404,0.084650,0.871625,-36.136738,6.067917,18.574400,0.076383,1.923629,0.107894,0.000000,0.000000,0.000000,0.000000,0.000000,0.000000
15823107.000000,-0.345396,0.552276,0.448335,-1.442513,-0.247959,1.942014,0.135628,-0.015386,0.242104,-0.082303,-0.428306,-0.121622,0.605689,0.081133,0.970807,-36.652485,6.218674,18.820372,0.093778,1.838485,0.133529,0.000000,0.000000,0.000000,0.000000,0.000000,0.000000
15823108.000000,-0.345405,0.552539,0.448239,-1.442951,-0.248096,1.942610,0.135718,-0.013860,0.243908,-0.087278,-0.429810,-0.126745,0.598714,0.085301,0.947004,-37.164265,6.436874,18.971128,0.178007,1.897079,0.094161,0.000000,0.000000,0.000000,0.000000,0.000000,0.000000
15823109.000000,-0.345413,0.552797,0.448147,-1.443387,-0.248233,1.943198,0.135799,-0.012881,0.245560,-0.089768,-0.431405,-0.131686,0.597115,0.085765,0.923200,-37.557026,6.583664,19.018736,0.279630,1.981307,0.140853,0.000000,0.000000,0.000000,0.000000,0.000000,0.000000
15823110.000000,-0.345423,0.553053,0.448050,-1.443846,-0.248369,1.943796,0.135893,-0.012728,0.248013,-0.092479,-0.438279,-0.132586,0.599705,0.089835,0.923200,-37.850605,6.758224,19.268675,0.315336,1.981307,0.074935,0.000000,0.000000,0.000000,0.000000,0.000000,0.000000
15823111.000000,-0.345432,0.553304,0.447957,-1.444297,-0.248499,1.944408,0.135978,-0.010081,0.245692,-0.092617,-0.445679,-0.132187,0.602409,0.085708,0.947004,-37.973591,6.853439,19.490843,0.315336,1.930038,0.087753,0.000000,0.000000,0.000000,0.000000,0.000000,0.000000
15823112.000000,-0.345436,0.553559,0.447867,-1.444758,-0.248621,1.945023,0.136057,-0.008340,0.248701,-0.094393,-0.447302,-0.134102,0.604466,0.085378,0.847822,-38.120380,6.881210,19.713011,0.249418,1.890670,0.147262,0.000000,0.000000,0.000000,0.000000,0.000000,0.000000
15823113.000000,-0.345443,0.553813,0.447775,-1.445203,-0.248751,1.945614,0.136150,-0.008321,0.247634,-0.093307,-0.447615,-0.137707,0.602372,0.089165,0.796247,-38.243366,6.928818,19.713011,0.225614,1.942855,0.094161,0.000000,0.000000,0.000000,0.000000,0.000000,0.000000
15823114.000000,-0.345452,0.554076,0.447693,-1.445655,-0.248876,1.946214,0.136230,-0.006443,0.246609,-0.089666,-0.446297,-0.134473,0.602259,0.089364,0.796247,-38.362385,6.853439,19.760618,0.171598,2.066451,0.120712,0.000000,0.000000,0.000000,0.000000,0.000000,0.000000
15823115.000000,-0.345462,0.554324,0.447617,-1.446101,-0.249007,1.946808,0.136318,-0.005617,0.244902,-0.086171,-0.442889,-0.133283,0.595119,0.091293,0.824018,-38.413960,6.734421,19.713011,0.154203,2.131454,0.094161,0.000000,0.000000,0.000000,0.000000,0.000000,0.000000
15823116.000000,-0.345458,0.554578,0.447537,-1.446548,-0.249137,1.947426,0.136401,-0.003299,0.246116,-0.080020,-0.440219,-0.134278,0.600366,0.091027,0.649457,-38.437763,6.706650,19.784422,0.183500,2.060043,0.120712,0.000000,0.000000,0.000000,0.000000,0.000000,0.000000
15823117.000000,-0.345461,0.554838,0.447454,-1.447002,-0.249270,1.948036,0.136490,-0.003618,0.244836,-0.078425,-0.442658,-0.130495,0.604333,0.092761,0.550275,-38.485371,6.682846,19.812193,0.219205,1.988631,0.094161,0.000000,0.000000,0.000000,0.000000,0.000000,0.000000
15823118.000000,-0.345456,0.555082,0.447376,-1.447437,-0.249398,1.948642,0.136574,0.000934,0.241751,-0.076445,-0.436822,-0.126857,0.603930,0.091817,0.375715,-38.437763,6.611435,19.736814,0.237516,1.995040,0.114303,0.000000,0.000000,0.000000,0.000000,0.000000,0.000000
15823119.000000,-0.345452,0.555344,0.447302,-1.447878,-0.249523,1.949251,0.136655,0.003503,0.245511,-0.074685,-0.434443,-0.128193,0.602276,0.087075,0.228925,-38.536945,6.536057,19.613829,0.237516,2.014266,0.133529,0.000000,0.000000,0.000000,0.000000,0.000000,0.000000
15823120.000000,-0.345442,0.555605,0.447228,-1.448315,-0.249649,1.949858,0.136743,0.007674,0.250984,-0.073289,-0.435381,-0.124652,0.607768,0.084830,-0.017047,-38.584553,6.460678,19.463072,0.249418,2.007858,0.107894,0.000000,0.000000,0.000000,0.000000,0.000000,0.000000
15823121.000000,-0.345431,0.555866,0.447164,-1.448754,-0.249772,1.950474,0.136826,0.010652,0.249236,-0.067056,-0.434587,-0.121128,0.612705,0.082735,-0.266986,-38.659931,6.290085,19.363890,0.231107,1.995040,0.100570,0.000000,0.000000,0.000000,0.000000,0.000000,0.000000
15823122.000000,-0.345417,0.556123,0.447100,-1.449188,-0.249890,1.951103,0.136913,0.011508,0.250345,-0.065866,-0.432057,-0.117037,0.615991,0.085113,-0.465350,-38.707539,6.119492,19.217100,0.171598,1.974899,0.114303,0.000000,0.000000,0.000000,0.000000,0.000000,0.000000
15823123.000000,-0.345404,0.556390,0.447037,-1.449613,-0.250013,1.951732,0.137000,0.013474,0.254961,-0.064350,-0.438664,-0.115760,0.614062,0.086441,-0.588336,-38.901936,5.921127,19.094114,0.159696,1.909896,0.140853,0.000000,0.000000,0.000000,0.000000,0.000000,0.000000
15823124.000000,-0.345393,0.556654,0.446973,-1.450037,-0.250140,1.952367,0.137090,0.013364,0.254717,-0.059642,-0.432355,-0.119711,0.617000,0.089885,-0.635943,-38.977314,5.825912,18.919554,0.147794,1.851302,0.094161,0.000000,0.000000,0.000000,0.000000,0.000000,0.000000
15823125.000000,-0.345373,0.556913,0.446914,-1.450463,-0.250272,1.952988,0.137173,0.015402,0.264168,-0.058249,-0.427152,-0.123630,0.634430,0.083961,-0.762896,-39.100300,5.702927,18.871946,0.171598,1.825668,0.147262,0.000000,0.000000,0.000000,0.000000,0.000000,0.000000
15823126.000000,-0.345360,0.557175,0.446850,-1.450876,-0.250399,1.953620,0.137268,0.013969,0.264375,-0.059859,-0.425404,-0.126344,0.641473,0.092612,-0.762896,-39.147907,5.679123,18.772764,0.183500,1.819259,0.074935,0.000000,0.000000,0.000000,0.000000,0.000000,0.000000
15823127.000000,-0.345343,0.557442,0.446791,-1.451288,-0.250528,1.954252,0.137348,0.015456,0.262675,-0.058859,-0.420483,-0.124376,0.637277,0.086743,-0.862078,-39.247089,5.579941,18.673582,0.219205,1.793624,0.107894,0.000000,0.000000,0.000000,0.000000,0.000000,0.000000
15823128.000000,-0.345330,0.557704,0.446735,-1.451693,-0.250651,1.954873,0.137431,0.015832,0.259861,-0.057477,-0.418229,-0.120745,0.629359,0.082017,-0.933489,-39.393879,5.456955,18.451414,0.201810,1.779891,0.160079,0.000000,0.000000,0.000000,0.000000,0.000000,0.000000
15823129.000000,-0.345307,0.557976,0.446684,-1.452090,-0.250769,1.955498,0.137520,0.018565,0.263760,-0.058611,-0.414457,-0.121376,0.628963,0.087271,-1.108050,-39.564472,5.286362,18.304625,0.141385,1.721298,0.107894,0.000000,0.000000,0.000000,0.000000,0.000000,0.000000
15823130.000000,-0.345289,0.558252,0.446637,-1.452499,-0.250892,1.956128,0.137606,0.018181,0.266718,-0.055811,-0.413025,-0.118764,0.628792,0.083128,-1.183428,-39.711262,5.087997,18.253050,0.123990,1.695663,0.133529,0.000000,0.000000,0.000000,0.000000,0.000000,0.000000
15823131.000000,-0.345266,0.558512,0.446580,-1.452888,-0.251013,1.956748,0.137697,0.019632,0.266892,-0.054799,-0.406699,-0.122480,0.627486,0.086046,-1.330218,-39.782673,5.064194,18.078489,0.123990,1.682845,0.100570,0.000000,0.000000,0.000000,0.000000,0.000000,0.000000
15823132.000000,-0.345256,0.558783,0.446533,-1.453288,-0.251130,1.957373,0.137778,0.017212,0.266680,-0.054232,-0.404249,-0.119202,0.625052,0.081586,-1.330218,-39.858051,4.917404,17.983274,0.093778,1.682845,0.147262,0.000000,0.000000,0.000000,0.000000,0.000000,0.000000
15823133.000000,-0.345245,0.559051,0.446479,-1.453693,-0.251260,1.957980,0.137868,0.015047,0.264810,-0.053325,-0.402800,-0.123725,0.617783,0.080974,-1.306414,-39.834248,4.893600,18.054686,0.129484,1.721298,0.114303,0.000000,0.000000,0.000000,0.000000,0.000000,0.000000
15823134.000000,-0.345231,0.559319,0.446425,-1.454080,-0.251388,1.958606,0.137949,0.014739,0.262313,-0.051935,-0.398899,-0.121779,0.613494,0.082526,-1.330218,-39.881855,4.842026,18.007078,0.147794,1.741439,0.133529,0.000000,0.000000,0.000000,0.000000,0.000000,0.000000
15823135.000000,-0.345217,0.559597,0.446366,-1.454472,-0.251514,1.959238,0.138040,0.011394,0.265319,-0.052607,-0.393799,-0.123984,0.614025,0.081369,-1.354022,-40.004841,4.865829,18.054686,0.135892,1.676437,0.114303,0.000000,0.000000,0.000000,0.000000,0.000000,0.000000
15823136.000000,-0.345217,0.559871,0.446314,-1.454854,-0.251643,1.959856,0.138129,0.008032,0.266229,-0.054533,-0.393448,-0.126068,0.612417,0.084342,-1.207232,-40.076252,4.818222,18.078489,0.135892,1.643478,0.120712,0.000000,0.000000,0.000000,0.000000,0.000000,0.000000
15823137.000000,-0.345213,0.560148,0.446260,-1.455242,-0.251765,1.960470,0.138216,0.006446,0.267309,-0.053739,-0.391948,-0.122506,0.612916,0.086678,-1.084246,-40.199238,4.818222,18.054686,0.123990,1.670028,0.127120,0.000000,0.000000,0.000000,0.000000,0.000000,0.000000
15823138.000000,-0.345213,0.560420,0.446209,-1.455630,-0.251886,1.961085,0.138307,0.004748,0.270324,-0.051464,-0.393218,-0.123882,0.619321,0.083681,-0.933489,-40.250813,4.742844,18.130064,0.100187,1.695663,0.120712,0.000000,0.000000,0.000000,0.000000,0.000000,0.000000
15823139.000000,-0.345207,0.560712,0.446150,-1.456012,-0.252010,1.961708,0.138390,0.006103,0.277032,-0.052660,-0.390835,-0.125089,0.625478,0.084782,-0.885882,-40.492817,4.794418,18.205442,0.093778,1.689254,0.160079,0.000000,0.000000,0.000000,0.000000,0.000000,0.000000
15823140.000000,-0.345208,0.560998,0.446087,-1.456402,-0.252138,1.962330,0.138485,0.004625,0.275370,-0.058231,-0.389502,-0.130702,0.624884,0.088894,-0.735125,-40.738789,4.917404,18.328428,0.064481,1.689254,0.114303,0.000000,0.000000,0.000000,0.000000,0.000000,0.000000
15823141.000000,-0.345204,0.561278,0.446025,-1.456797,-0.252259,1.962939,0.138571,0.004284,0.276109,-0.060361,-0.397717,-0.125780,0.622980,0.088457,-0.612139,-40.933186,4.965012,18.399839,0.046171,1.735030,0.153671,0.000000,0.000000,0.000000,0.000000,0.000000,0.000000
15823142.000000,-0.345207,0.561567,0.445955,-1.457185,-0.252384,1.963554,0.138664,0.000412,0.280183,-0.064754,-0.394141,-0.127600,0.619577,0.086628,-0.465350,-41.179157,5.135605,18.499022,0.046171,1.800033,0.107894,0.000000,0.000000,0.000000,0.000000,0.000000,0.000000
15823143.000000,-0.345204,0.561849,0.445879,-1.457577,-0.252520,1.964168,0.138751,0.001831,0.282980,-0.068386,-0.389990,-0.130703,0.631812,0.087957,-0.366168,-41.325947,5.333969,18.550596,0.100187,1.773483,0.107894,0.000000,0.000000,0.000000,0.000000,0.000000,0.000000
15823144.000000,-0.345211,0.562128,0.445809,-1.457975,-0.252653,1.964792,0.138831,0.000494,0.282571,-0.068827,-0.390952,-0.125976,0.626798,0.082629,-0.167803,-41.425129,5.433151,18.748960,0.093778,1.727706,0.166488,0.000000,0.000000,0.000000,0.000000,0.000000,0.000000
15823145.000000,-0.345217,0.562406,0.445728,-1.458379,-0.252794,1.965411,0.138925,-0.002882,0.279999,-0.075011,-0.392327,-0.129946,0.626559,0.082670,0.006757,-41.425129,5.651352,18.871946,0.159696,1.695663,0.120712,0.000000,0.000000,0.000000,0.000000,0.000000,0.000000
15823146.000000,-0.345222,0.562686,0.445647,-1.458777,-0.252933,1.966022,0.139010,-0.005259,0.278991,-0.075244,-0.389090,-0.136463,0.630535,0.084193,0.177350,-41.571918,5.825912,18.919554,0.201810,1.689254,0.140853,0.000000,0.000000,0.000000,0.000000,0.000000,0.000000
15823147.000000,-0.345232,0.562968,0.445561,-1.459172,-0.253066,1.966629,0.139101,-0.008305,0.278883,-0.079538,-0.389753,-0.135770,0.618980,0.088063,0.403486,-41.643330,6.044113,18.971128,0.219205,1.800033,0.107894,0.000000,0.000000,0.000000,0.000000,0.000000,0.000000
15823148.000000,-0.345235,0.563257,0.445477,-1.459562,-0.253198,1.967240,0.139182,-0.008603,0.280051,-0.081144,-0.385486,-0.133251,0.614678,0.087585,0.550275,-41.742512,6.190903,18.971128,0.183500,1.838485,0.153671,0.000000,0.000000,0.000000,0.000000,0.000000,0.000000
15823149.000000,-0.345242,0.563543,0.445388,-1.459958,-0.253330,1.967843,0.139278,-0.008337,0.280342,-0.082341,-0.390352,-0.130841,0.612668,0.091629,0.673261,-41.960712,6.341660,19.018736,0.123990,1.825668,0.094161,0.000000,0.000000,0.000000,0.000000,0.000000,0.000000
15823150.000000,-0.345254,0.563827,0.445294,-1.460360,-0.253454,1.968458,0.139360,-0.008877,0.281716,-0.085764,-0.392059,-0.128712,0.613728,0.090181,0.824018,-41.988483,6.583664,19.117918,0.052579,1.832076,0.147262,0.000000,0.000000,0.000000,0.000000,0.000000,0.000000
15823151.000000,-0.345264,0.564114,0.445206,-1.460761,-0.253588,1.969063,0.139455,-0.014375,0.284277,-0.087997,-0.395056,-0.125190,0.611604,0.092669,0.923200,-42.036091,6.706650,19.169493,0.058073,1.832076,0.100570,0.000000,0.000000,0.000000,0.000000,0.000000,0.000000
15823152.000000,-0.345276,0.564397,0.445114,-1.461157,-0.253724,1.969670,0.139541,-0.012311,0.282697,-0.090509,-0.394279,-0.127650,0.607385,0.090635,1.022382,-42.083698,6.853439,19.217100,0.069974,1.897079,0.140853,0.000000,0.000000,0.000000,0.000000,0.000000,0.000000
15823153.000000,-0.345292,0.564680,0.445018,-1.461554,-0.253873,1.970275,0.139635,-0.011390,0.283997,-0.090491,-0.395064,-0.136554,0.603210,0.092776,1.145368,-42.083698,7.051804,19.217100,0.147794,1.974899,0.107894,0.000000,0.000000,0.000000,0.000000,0.000000,0.000000
15823154.000000,-0.345301,0.564960,0.444925,-1.461957,-0.254023,1.970886,0.139722,-0.010952,0.284552,-0.090887,-0.404052,-0.141476,0.603000,0.087531,1.145368,-42.059895,7.127182,19.363890,0.183500,1.968490,0.120712,0.000000,0.000000,0.000000,0.000000,0.000000,0.000000
15823155.000000,-0.345315,0.565237,0.444832,-1.462356,-0.254163,1.971511,0.139802,-0.011401,0.282301,-0.088477,-0.403806,-0.139625,0.609151,0.088073,1.169172,-42.083698,7.222397,19.391661,0.201810,1.884261,0.153671,0.000000,0.000000,0.000000,0.000000,0.000000,0.000000
15823156.000000,-0.345323,0.565508,0.444735,-1.462764,-0.254298,1.972122,0.139896,-0.011311,0.280901,-0.090738,-0.403584,-0.132391,0.610424,0.086514,1.169172,-41.960712,7.345383,19.562254,0.195402,1.825668,0.100570,0.000000,0.000000,0.000000,0.000000,0.000000,0.000000
15823157.000000,-0.345326,0.565794,0.444634,-1.463158,-0.254434,1.972730,0.139977,-0.007682,0.279993,-0.093359,-0.403486,-0.135741,0.612322,0.086202,1.145368,-41.960712,7.515976,19.590025,0.183500,1.851302,0.160079,0.000000,0.000000,0.000000,0.000000,0.000000,0.000000
15823158.000000,-0.345333,0.566075,0.444534,-1.463557,-0.254569,1.973346,0.140075,-0.009339,0.277253,-0.094168,-0.399292,-0.139296,0.607997,0.086333,1.169172,-42.012287,7.638962,19.613829,0.178007,1.903487,0.087753,0.000000,0.000000,0.000000,0.000000,0.000000,0.000000
15823159.000000,-0.345334,0.566341,0.444434,-1.463961,-0.254704,1.973940,0.140160,-0.008869,0.277948,-0.093642,-0.408686,-0.136565,0.598490,0.087342,1.121564,-41.913105,7.714340,19.713011,0.154203,1.968490,0.107894,0.000000,0.000000,0.000000,0.000000,0.000000,0.000000
15823160.000000,-0.345340,0.566620,0.444344,-1.464359,-0.254842,1.974540,0.140240,-0.009733,0.276518,-0.091258,-0.403015,-0.136462,0.593383,0.081995,1.121564,-41.889301,7.690536,19.835997,0.178007,1.995040,0.166488,0.000000,0.000000,0.000000,0.000000,0.000000,0.000000
15823161.000000,-0.345342,0.566888,0.444249,-1.464765,-0.254980,1.975128,0.140337,-0.006657,0.279074,-0.091039,-0.406114,-0.139745,0.606699,0.082730,1.093793,-41.790119,7.738144,20.034361,0.178007,1.988631,0.100570,0.000000,0.000000,0.000000,0.000000,0.000000,0.000000
15823162.000000,-0.345346,0.567162,0.444160,-1.465163,-0.255121,1.975730,0.140420,-0.007661,0.276907,-0.091479,-0.403522,-0.142437,0.605356,0.082790,1.069990,-41.718708,7.690536,20.133543,0.171598,2.014266,0.140853,0.000000,0.000000,0.000000,0.000000,0.000000,0.000000
15823163.000000,-0.345348,0.567443,0.444065,-1.465570,-0.255268,1.976327,0.140512,-0.005275,0.274084,-0.091083,-0.408069,-0.142425,0.599179,0.087463,1.046186,-41.718708,7.714340,20.379515,0.237516,2.047225,0.087753,0.000000,0.000000,0.000000,0.000000,0.000000,0.000000
15823164.000000,-0.345341,0.567715,0.443976,-1.465975,-0.255410,1.976915,0.140597,-0.000533,0.275206,-0.088538,-0.405345,-0.144887,0.595142,0.087315,0.895429,-41.718708,7.638962,20.502501,0.255826,2.072860,0.133529,0.000000,0.000000,0.000000,0.000000,0.000000,0.000000
15823165.000000,-0.345337,0.567992,0.443890,-1.466375,-0.255548,1.977504,0.140692,0.000908,0.273499,-0.086745,-0.404542,-0.141290,0.591035,0.090586,0.824018,-41.643330,7.567551,20.677061,0.249418,2.112228,0.094161,0.000000,0.000000,0.000000,0.000000,0.000000,0.000000
15823166.000000,-0.345331,0.568272,0.443805,-1.466786,-0.255688,1.978100,0.140777,0.002620,0.270880,-0.085555,-0.407184,-0.139124,0.593729,0.088903,0.724836,-41.619526,7.492172,20.899229,0.255826,2.144271,0.147262,0.000000,0.000000,0.000000,0.000000,0.000000,0.000000
15823167.000000,-0.345322,0.568537,0.443718,-1.467180,-0.255824,1.978690,0.140874,0.003838,0.269163,-0.084802,-0.401446,-0.136280,0.591827,0.087666,0.625654,-41.472736,7.420761,21.022215,0.225614,2.150680,0.094161,0.000000,0.000000,0.000000,0.000000,0.000000,0.000000
15823168.000000,-0.345311,0.568815,0.443633,-1.467587,-0.255965,1.979285,0.140958,0.007314,0.272315,-0.084542,-0.399236,-0.136248,0.592684,0.088064,0.550275,-41.401325,7.345383,21.220579,0.249418,2.183639,0.127120,0.000000,0.000000,0.000000,0.000000,0.000000,0.000000
15823169.000000,-0.345302,0.569084,0.443556,-1.467993,-0.256100,1.979863,0.141051,0.005568,0.267789,-0.082735,-0.397986,-0.139165,0.585549,0.090156,0.526471,-41.278339,7.222397,21.442747,0.237516,2.202865,0.100570,0.000000,0.000000,0.000000,0.000000,0.000000,0.000000
15823170.000000,-0.345291,0.569362,0.443481,-1.468399,-0.256241,1.980463,0.141137,0.007510,0.270980,-0.079379,-0.400236,-0.142436,0.591279,0.085870,0.502668,-41.302143,7.127182,21.664915,0.243009,2.196456,0.114303,0.000000,0.000000,0.000000,0.000000,0.000000,0.000000
15823171.000000,-0.345272,0.569638,0.443406,-1.468807,-0.256394,1.981060,0.141219,0.007664,0.272124,-0.079808,-0.397692,-0.140782,0.584655,0.086419,0.403486,-41.278339,7.028000,21.887083,0.267728,2.215682,0.153671,0.000000,0.000000,0.000000,0.000000,0.000000,0.000000
15823172.000000,-0.345257,0.569909,0.443333,-1.469207,-0.256544,1.981645,0.141319,0.007682,0.270288,-0.079777,-0.405121,-0.139183,0.583424,0.090780,0.304304,-41.278339,6.905014,22.061644,0.285123,2.261459,0.094161,0.000000,0.000000,0.000000,0.000000,0.000000,0.000000
15823173.000000,-0.345245,0.570174,0.443262,-1.469606,-0.256683,1.982229,0.141401,0.009681,0.265790,-0.080134,-0.401788,-0.137344,0.580453,0.089182,0.252729,-41.179157,6.805832,22.133055,0.285123,2.307235,0.147262,0.000000,0.000000,0.000000,0.000000,0.000000,0.000000
15823174.000000,-0.345230,0.570435,0.443199,-1.470020,-0.256826,1.982826,0.141497,0.011111,0.265383,-0.074936,-0.407753,-0.140789,0.586942,0.087153,0.205121,-41.032368,6.611435,22.307615,0.291532,2.300826,0.100570,0.000000,0.000000,0.000000,0.000000,0.000000,0.000000
15823175.000000,-0.345211,0.570705,0.443130,-1.470421,-0.256969,1.983418,0.141582,0.014049,0.266717,-0.074257,-0.404926,-0.146987,0.581218,0.087334,0.078168,-40.956989,6.559860,22.406797,0.285123,2.326461,0.120712,0.000000,0.000000,0.000000,0.000000,0.000000,0.000000
15823176.000000,-0.345192,0.570971,0.443069,-1.470828,-0.257112,1.984030,0.141666,0.016061,0.267713,-0.071765,-0.404428,-0.147688,0.579850,0.088301,-0.044818,-40.885578,6.413071,22.478209,0.279630,2.261459,0.140853,0.000000,0.000000,0.000000,0.000000,0.000000,0.000000
15823177.000000,-0.345180,0.571229,0.443010,-1.471227,-0.257255,1.984614,0.141762,0.014557,0.266529,-0.069375,-0.399020,-0.143531,0.579945,0.091647,-0.044818,-40.714985,6.242477,22.430601,0.273221,2.293502,0.087753,0.000000,0.000000,0.000000,0.000000,0.000000,0.000000
15823178.000000,-0.345168,0.571502,0.442952,-1.471622,-0.257399,1.985211,0.141856,0.014190,0.265902,-0.068481,-0.400771,-0.145524,0.579728,0.090975,-0.068621,-40.714985,6.095688,22.355223,0.273221,2.307235,0.087753,0.000000,0.000000,0.000000,0.000000,0.000000,0.000000
15823179.000000,-0.345153,0.571765,0.442892,-1.472015,-0.257548,1.985804,0.141944,0.018380,0.268332,-0.062929,-0.394346,-0.146600,0.588257,0.090883,-0.144000,-40.615803,6.020309,22.232237,0.267728,2.280685,0.094161,0.000000,0.000000,0.000000,0.000000,0.000000,0.000000
15823180.000000,-0.345135,0.572029,0.442833,-1.472401,-0.257705,1.986408,0.142031,0.018854,0.267911,-0.062165,-0.393531,-0.143247,0.595351,0.089211,-0.243182,-40.492817,5.948898,22.109251,0.273221,2.202865,0.147262,0.000000,0.000000,0.000000,0.000000,0.000000,0.000000
15823181.000000,-0.345130,0.572288,0.442784,-1.472786,-0.257853,1.987008,0.142125,0.015096,0.262037,-0.056271,-0.389191,-0.145455,0.593219,0.091991,-0.167803,-40.274616,5.798141,21.962461,0.279630,2.163497,0.107894,0.000000,0.000000,0.000000,0.000000,0.000000,0.000000
15823182.000000,-0.345114,0.572551,0.442730,-1.473171,-0.258003,1.987593,0.142210,0.015382,0.265227,-0.056870,-0.389600,-0.147245,0.594942,0.090725,-0.215411,-40.223042,5.726730,21.811705,0.297025,2.190048,0.153671,0.000000,0.000000,0.000000,0.000000,0.000000,0.000000
15823183.000000,-0.345103,0.572812,0.442672,-1.473545,-0.258149,1.988192,0.142302,0.013336,0.264830,-0.058420,-0.383373,-0.148253,0.596956,0.088724,-0.167803,-40.076252,5.702927,21.641111,0.297025,2.215682,0.107894,0.000000,0.000000,0.000000,0.000000,0.000000,0.000000
15823184.000000,-0.345092,0.573074,0.442617,-1.473920,-0.258293,1.988794,0.142390,0.009972,0.261501,-0.058433,-0.381499,-0.143210,0.599266,0.088642,-0.167803,-39.905659,5.627548,21.514158,0.267728,2.222091,0.133529,0.000000,0.000000,0.000000,0.000000,0.000000,0.000000
15823185.000000,-0.345074,0.573332,0.442566,-1.474282,-0.258432,1.989392,0.142484,0.011661,0.259981,-0.057777,-0.375461,-0.143542,0.596738,0.091316,-0.215411,-39.782673,5.528366,21.268187,0.219205,2.190048,0.100570,0.000000,0.000000,0.000000,0.000000,0.000000,0.000000
15823186.000000,-0.345063,0.573598,0.442511,-1.474646,-0.258568,1.990000,0.142573,0.008640,0.262482,-0.058480,-0.375288,-0.143940,0.602185,0.086727,-0.215411,-39.711262,5.480759,21.069822,0.171598,2.183639,0.114303,0.000000,0.000000,0.000000,0.000000,0.000000,0.000000
15823187.000000,-0.345052,0.573861,0.442453,-1.475012,-0.258712,1.990606,0.142662,0.008970,0.258605,-0.059903,-0.368487,-0.140208,0.598344,0.086596,-0.191607,-39.635883,5.480759,20.847654,0.147794,2.177230,0.160079,0.000000,0.000000,0.000000,0.000000,0.000000,0.000000
15823188.000000,-0.345043,0.574125,0.442394,-1.475363,-0.258858,1.991225,0.142759,0.008775,0.260525,-0.061535,-0.360261,-0.143961,0.602612,0.090310,-0.144000,-39.635883,5.504562,20.625486,0.166105,2.104903,0.094161,0.000000,0.000000,0.000000,0.000000,0.000000,0.000000
15823189.000000,-0.345037,0.574385,0.442331,-1.475712,-0.259006,1.991848,0.142843,0.004354,0.258808,-0.063178,-0.356162,-0.142528,0.605339,0.084536,-0.044818,-39.512897,5.556137,20.379515,0.201810,2.039901,0.147262,0.000000,0.000000,0.000000,0.000000,0.000000,0.000000
15823190.000000,-0.345026,0.574643,0.442267,-1.476062,-0.259146,1.992460,0.142940,0.006003,0.258411,-0.064382,-0.358202,-0.145272,0.605877,0.092910,-0.017047,-39.417683,5.603745,20.280333,0.219205,2.001449,0.094161,0.000000,0.000000,0.000000,0.000000,0.000000,0.000000
15823191.000000,-0.345024,0.574897,0.442205,-1.476414,-0.259287,1.993081,0.143031,0.005014,0.256889,-0.065002,-0.357317,-0.142883,0.605853,0.093180,0.105939,-39.294697,5.651352,20.133543,0.243009,1.949264,0.094161,0.000000,0.000000,0.000000,0.000000,0.000000,0.000000
15823192.000000,-0.345017,0.575160,0.442138,-1.476754,-0.259426,1.993690,0.143119,0.005646,0.262669,-0.066223,-0.349432,-0.139818,0.608252,0.090925,0.177350,-39.247089,5.726730,19.958982,0.243009,1.903487,0.153671,0.000000,0.000000,0.000000,0.000000,0.000000,0.000000
15823193.000000,-0.345010,0.575422,0.442073,-1.477091,-0.259563,1.994295,0.143210,0.002870,0.263168,-0.065930,-0.349003,-0.137292,0.606215,0.091705,0.252729,-39.100300,5.774338,19.859800,0.225614,1.923629,0.160079,0.000000,0.000000,0.000000,0.000000,0.000000,0.000000
15823194.000000,-0.345005,0.575688,0.442009,-1.477419,-0.259697,1.994901,0.143312,0.003966,0.261864,-0.065532,-0.342267,-0.133326,0.607764,0.090178,0.328107,-39.147907,5.798141,19.661436,0.154203,1.974899,0.094161,0.000000,0.000000,0.000000,0.000000,0.000000,0.000000
15823195.000000,-0.345002,0.575950,0.441943,-1.477750,-0.259833,1.995502,0.143406,0.001076,0.261623,-0.062157,-0.336829,-0.130943,0.606158,0.090483,0.427289,-39.100300,5.825912,19.562254,0.093778,1.995040,0.107894,0.000000,0.000000,0.000000,0.000000,0.000000,0.000000
15823196.000000,-0.344997,0.576214,0.441874,-1.478074,-0.259981,1.996110,0.143492,0.002031,0.259561,-0.060756,-0.331050,-0.131937,0.607219,0.089970,0.526471,-39.001118,5.897324,19.391661,0.100187,1.930038,0.140853,0.000000,0.000000,0.000000,0.000000,0.000000,0.000000
15823197.000000,-0.344995,0.576475,0.441801,-1.478395,-0.260128,1.996709,0.143591,0.002323,0.258855,-0.066379,-0.326885,-0.136565,0.607076,0.091751,0.649457,-38.901936,5.996506,19.240904,0.093778,1.909896,0.114303,0.000000,0.000000,0.000000,0.000000,0.000000,0.000000
15823198.000000,-0.344991,0.576731,0.441727,-1.478709,-0.260282,1.997305,0.143684,0.003716,0.256483,-0.069662,-0.326722,-0.137465,0.610158,0.091476,0.724836,-38.731342,6.044113,19.070311,0.141385,1.930038,0.120712,0.000000,0.000000,0.000000,0.000000,0.000000,0.000000
15823199.000000,-0.344990,0.576999,0.441650,-1.479028,-0.260427,1.997918,0.143782,0.003580,0.258834,-0.073107,-0.322343,-0.137012,0.608681,0.093020,0.847822,-38.608356,6.143295,18.971128,0.166105,1.890670,0.094161,0.000000,0.000000,0.000000,0.000000,0.000000,0.000000
15823200.000000,-0.344987,0.577253,0.441576,-1.479339,-0.260581,1.998514,0.143867,0.000960,0.257388,-0.074390,-0.317343,-0.142873,0.605188,0.091005,0.947004,-38.461567,6.190903,18.820372,0.237516,1.832076,0.153671,0.000000,0.000000,0.000000,0.000000,0.000000,0.000000
15823201.000000,-0.344981,0.577507,0.441498,-1.479646,-0.260722,1.999117,0.143965,0.003318,0.254439,-0.076073,-0.313060,-0.137516,0.604673,0.093975,0.994611,-38.243366,6.266281,18.625975,0.171598,1.825668,0.100570,0.000000,0.000000,0.000000,0.000000,0.000000,0.000000
15823202.000000,-0.344978,0.577780,0.441423,-1.479958,-0.260865,1.999717,0.144053,0.001212,0.257727,-0.075782,-0.311843,-0.139121,0.599492,0.092870,1.069990,-38.243366,6.266281,18.550596,0.123990,1.825668,0.127120,0.000000,0.000000,0.000000,0.000000,0.000000,0.000000
15823203.000000,-0.344966,0.578038,0.441345,-1.480251,-0.261006,2.000314,0.144144,0.005018,0.258813,-0.075998,-0.308005,-0.136107,0.599836,0.092089,1.046186,-38.191792,6.290085,18.328428,0.081876,1.844894,0.153671,0.000000,0.000000,0.000000,0.000000,0.000000,0.000000
15823204.000000,-0.344959,0.578305,0.441261,-1.480558,-0.261150,2.000915,0.144242,0.006020,0.261866,-0.078282,-0.306690,-0.139009,0.595941,0.094752,1.093793,-38.144184,6.389267,18.304625,0.052579,1.832076,0.100570,0.000000,0.000000,0.000000,0.000000,0.000000,0.000000
15823205.000000,-0.344955,0.578566,0.441183,-1.480857,-0.261305,2.001513,0.144335,0.003579,0.259428,-0.077662,-0.300840,-0.143058,0.598317,0.092260,1.145368,-37.997395,6.413071,18.229246,0.081876,1.819259,0.147262,0.000000,0.000000,0.000000,0.000000,0.000000,0.000000
15823206.000000,-0.344951,0.578826,0.441103,-1.481160,-0.261455,2.002114,0.144435,0.004461,0.256171,-0.074871,-0.301524,-0.145474,0.599903,0.094067,1.216779,-37.922016,6.460678,18.229246,0.088285,1.819259,0.114303,0.000000,0.000000,0.000000,0.000000,0.000000,0.000000
15823207.000000,-0.344942,0.579092,0.441026,-1.481456,-0.261604,2.002720,0.144528,0.006804,0.260656,-0.074189,-0.299546,-0.143314,0.603777,0.092535,1.216779,-37.874409,6.436874,18.153868,0.117582,1.877853,0.147262,0.000000,0.000000,0.000000,0.000000,0.000000,0.000000
15823208.000000,-0.344932,0.579352,0.440941,-1.481752,-0.261757,2.003322,0.144624,0.004671,0.262314,-0.079366,-0.305637,-0.148197,0.606631,0.093316,1.244550,-37.751423,6.512253,18.177671,0.195402,1.806442,0.140853,0.000000,0.000000,0.000000,0.000000,0.000000,0.000000
15823209.000000,-0.344918,0.579617,0.440858,-1.482050,-0.261900,2.003931,0.144716,0.008045,0.262180,-0.079283,-0.303728,-0.142490,0.604395,0.088352,1.192975,-37.727619,6.559860,18.130064,0.154203,1.793624,0.147262,0.000000,0.000000,0.000000,0.000000,0.000000,0.000000
15823210.000000,-0.344901,0.579884,0.440779,-1.482345,-0.262047,2.004528,0.144817,0.011551,0.268790,-0.079967,-0.298106,-0.144125,0.615760,0.091295,1.093793,-37.656208,6.512253,18.054686,0.147794,1.779891,0.094161,0.000000,0.000000,0.000000,0.000000,0.000000,0.000000
15823211.000000,-0.344885,0.580158,0.440700,-1.482631,-0.262184,2.005136,0.144911,0.013321,0.268085,-0.080931,-0.298859,-0.143045,0.613176,0.096097,1.022382,-37.656208,6.488449,17.907896,0.069974,1.773483,0.107894,0.000000,0.000000,0.000000,0.000000,0.000000,0.000000
15823212.000000,-0.344867,0.580441,0.440627,-1.482920,-0.262333,2.005736,0.145005,0.015196,0.270433,-0.080438,-0.294530,-0.144864,0.604885,0.095183,0.923200,-37.802998,6.389267,17.685728,0.058073,1.793624,0.120712,0.000000,0.000000,0.000000,0.000000,0.000000,0.000000
15823213.000000,-0.344851,0.580716,0.440546,-1.483216,-0.262485,2.006333,0.145106,0.016489,0.272978,-0.081400,-0.290946,-0.145363,0.601251,0.094931,0.824018,-37.850605,6.341660,17.562742,0.027860,1.760665,0.107894,0.000000,0.000000,0.000000,0.000000,0.000000,0.000000
15823214.000000,-0.344833,0.580995,0.440465,-1.483503,-0.262643,2.006932,0.145199,0.016764,0.272619,-0.080371,-0.290814,-0.144585,0.598265,0.094561,0.748639,-37.826801,6.341660,17.411985,0.088285,1.714889,0.114303,0.000000,0.000000,0.000000,0.000000,0.000000,0.000000
15823215.000000,-0.344819,0.581270,0.440388,-1.483795,-0.262800,2.007539,0.145296,0.012693,0.269955,-0.078006,-0.288721,-0.147616,0.602974,0.094770,0.724836,-37.802998,6.290085,17.340574,0.129484,1.637069,0.094161,0.000000,0.000000,0.000000,0.000000,0.000000,0.000000
15823216.000000,-0.344801,0.581547,0.440312,-1.484077,-0.262953,2.008135,0.145385,0.014105,0.274636,-0.077180,-0.289681,-0.149418,0.598397,0.092164,0.649457,-37.802998,6.266281,17.213621,0.154203,1.630660,0.160079,0.000000,0.000000,0.000000,0.000000,0.000000,0.000000
15823217.000000,-0.344789,0.581827,0.440238,-1.484373,-0.263103,2.008741,0.145487,0.013374,0.272319,-0.075855,-0.288791,-0.150092,0.593273,0.094515,0.649457,-37.703815,6.218674,17.142210,0.166105,1.643478,0.100570,0.000000,0.000000,0.000000,0.000000,0.000000,0.000000
15823218.000000,-0.344766,0.582102,0.440165,-1.484666,-0.263252,2.009330,0.145583,0.016946,0.271684,-0.074157,-0.288353,-0.153639,0.594596,0.093262,0.474897,-37.751423,6.143295,17.090635,0.141385,1.676437,0.127120,0.000000,0.000000,0.000000,0.000000,0.000000,0.000000
15823219.000000,-0.344743,0.582386,0.440094,-1.484942,-0.263392,2.009934,0.145678,0.018249,0.274627,-0.069289,-0.285584,-0.150943,0.595241,0.092914,0.351911,-37.826801,6.044113,16.943846,0.081876,1.727706,0.147262,0.000000,0.000000,0.000000,0.000000,0.000000,0.000000
15823220.000000,-0.344726,0.582677,0.440018,-1.485238,-0.263535,2.010543,0.145783,0.016766,0.277165,-0.070303,-0.286742,-0.148509,0.594495,0.095222,0.328107,-37.922016,5.996506,16.967649,0.010465,1.695663,0.094161,0.000000,0.000000,0.000000,0.000000,0.000000,0.000000
15823221.000000,-0.344701,0.582954,0.439948,-1.485524,-0.263685,2.011149,0.145874,0.020733,0.278569,-0.067065,-0.283454,-0.147612,0.593654,0.092995,0.228925,-37.997395,5.921127,16.920042,-0.043551,1.656295,0.147262,0.000000,0.000000,0.000000,0.000000,0.000000,0.000000
15823222.000000,-0.344679,0.583239,0.439877,-1.485812,-0.263841,2.011746,0.145973,0.019968,0.278235,-0.068782,-0.287812,-0.150497,0.589252,0.094386,0.153547,-38.045002,5.873520,16.892271,-0.001437,1.682845,0.120712,0.000000,0.000000,0.000000,0.000000,0.000000,0.000000
15823223.000000,-0.344664,0.583530,0.439804,-1.486108,-0.263990,2.012348,0.146066,0.019540,0.279796,-0.067592,-0.287748,-0.146895,0.588828,0.093199,0.205121,-38.144184,5.873520,16.868467,0.027860,1.662704,0.147262,0.000000,0.000000,0.000000,0.000000,0.000000,0.000000
15823224.000000,-0.344640,0.583819,0.439732,-1.486395,-0.264142,2.012945,0.146168,0.022487,0.281414,-0.069281,-0.287621,-0.154246,0.584334,0.094531,0.129743,-38.267170,5.849716,16.844664,0.093778,1.649886,0.100570,0.000000,0.000000,0.000000,0.000000,0.000000,0.000000
15823225.000000,-0.344619,0.584116,0.439658,-1.486686,-0.264292,2.013553,0.146255,0.020262,0.286124,-0.067907,-0.291416,-0.150569,0.583241,0.091364,0.105939,-38.413960,5.849716,16.868467,0.147794,1.565658,0.173812,0.000000,0.000000,0.000000,0.000000,0.000000,0.000000
15823226.000000,-0.344602,0.584412,0.439588,-1.486975,-0.264436,2.014142,0.146357,0.018030,0.289356,-0.065623,-0.298202,-0.144420,0.584297,0.094585,0.105939,-38.536945,5.798141,16.844664,0.112089,1.539108,0.094161,0.000000,0.000000,0.000000,0.000000,0.000000,0.000000
15823227.000000,-0.344582,0.584709,0.439524,-1.487268,-0.264577,2.014737,0.146446,0.017181,0.293560,-0.063454,-0.299200,-0.140220,0.587421,0.093170,0.078168,-38.632160,5.726730,16.844664,0.081876,1.565658,0.114303,0.000000,0.000000,0.000000,0.000000,0.000000,0.000000
15823228.000000,-0.344565,0.584996,0.439457,-1.487561,-0.264722,2.015321,0.146539,0.015237,0.297613,-0.065073,-0.297679,-0.140919,0.601153,0.092251,0.105939,-38.560749,5.651352,16.769285,0.034269,1.584884,0.133529,0.000000,0.000000,0.000000,0.000000,0.000000,0.000000
15823229.000000,-0.344542,0.585292,0.439388,-1.487858,-0.264870,2.015904,0.146632,0.018312,0.291603,-0.067054,-0.296229,-0.137300,0.599272,0.088615,0.078168,-38.536945,5.627548,16.793089,-0.007845,1.656295,0.120712,0.000000,0.000000,0.000000,0.000000,0.000000,0.000000
15823230.000000,-0.344527,0.585583,0.439320,-1.488148,-0.265023,2.016493,0.146728,0.018180,0.290895,-0.067766,-0.290517,-0.140751,0.594827,0.090293,0.153547,-38.413960,5.556137,16.769285,-0.013339,1.676437,0.114303,0.000000,0.000000,0.000000,0.000000,0.000000,0.000000
15823231.000000,-0.344511,0.585869,0.439244,-1.488455,-0.265176,2.017075,0.146825,0.018725,0.290359,-0.071069,-0.293403,-0.143345,0.592509,0.091778,0.205121,-38.267170,5.603745,16.892271,-0.013339,1.689254,0.094161,0.000000,0.000000,0.000000,0.000000,0.000000,0.000000
15823232.000000,-0.344499,0.586158,0.439172,-1.488746,-0.265326,2.017667,0.146915,0.014363,0.288217,-0.071903,-0.291490,-0.141836,0.591177,0.089387,0.328107,-38.191792,5.579941,16.868467,0.015958,1.670028,0.147262,0.000000,0.000000,0.000000,0.000000,0.000000,0.000000
15823233.000000,-0.344483,0.586450,0.439098,-1.489049,-0.265480,2.018259,0.147011,0.013666,0.286110,-0.074025,-0.296164,-0.146282,0.591555,0.091679,0.351911,-38.068806,5.627548,16.991453,0.069974,1.630660,0.114303,0.000000,0.000000,0.000000,0.000000,0.000000,0.000000
15823234.000000,-0.344463,0.586743,0.439019,-1.489350,-0.265634,2.018836,0.147101,0.013084,0.289244,-0.075547,-0.298955,-0.152841,0.589355,0.091598,0.375715,-38.021198,5.679123,17.066832,0.088285,1.649886,0.133529,0.000000,0.000000,0.000000,0.000000,0.000000,0.000000
15823235.000000,-0.344451,0.587044,0.438947,-1.489656,-0.265783,2.019419,0.147191,0.014035,0.289399,-0.077959,-0.301644,-0.147331,0.592378,0.087321,0.474897,-38.167988,5.651352,17.166014,0.081876,1.643478,0.140853,0.000000,0.000000,0.000000,0.000000,0.000000,0.000000
15823236.000000,-0.344433,0.587336,0.438868,-1.489959,-0.265935,2.019998,0.147285,0.014019,0.290000,-0.075258,-0.302755,-0.146775,0.591280,0.089805,0.474897,-38.191792,5.702927,17.241392,0.052579,1.637069,0.114303,0.000000,0.000000,0.000000,0.000000,0.000000,0.000000
15823237.000000,-0.344417,0.587638,0.438788,-1.490256,-0.266084,2.020575,0.147377,0.016381,0.291939,-0.073761,-0.302113,-0.150953,0.589432,0.086463,0.502668,-38.290974,5.774338,17.241392,0.004056,1.656295,0.107894,0.000000,0.000000,0.000000,0.000000,0.000000,0.000000
15823238.000000,-0.344405,0.587933,0.438716,-1.490562,-0.266247,2.021158,0.147469,0.016459,0.290867,-0.073629,-0.301479,-0.156194,0.582060,0.092230,0.601850,-38.290974,5.750534,17.388182,0.010465,1.714889,0.127120,0.000000,0.000000,0.000000,0.000000,0.000000,0.000000
15823239.000000,-0.344395,0.588223,0.438637,-1.490864,-0.266407,2.021727,0.147559,0.013582,0.289166,-0.075720,-0.309895,-0.155123,0.581955,0.092096,0.697065,-38.243366,5.825912,17.435789,0.010465,1.754256,0.147262,0.000000,0.000000,0.000000,0.000000,0.000000,0.000000
15823240.000000,-0.344384,0.588518,0.438555,-1.491180,-0.266565,2.022314,0.147660,0.011956,0.284765,-0.077832,-0.308230,-0.154919,0.582753,0.094688,0.772443,-38.215595,5.921127,17.610350,0.027860,1.754256,0.094161,0.000000,0.000000,0.000000,0.000000,0.000000,0.000000
15823241.000000,-0.344372,0.588800,0.438473,-1.491490,-0.266729,2.022894,0.147744,0.010198,0.283146,-0.078004,-0.306187,-0.155929,0.586065,0.091552,0.871625,-38.096577,5.972702,17.757139,0.088285,1.695663,0.166488,0.000000,0.000000,0.000000,0.000000,0.000000,0.000000
15823242.000000,-0.344361,0.589087,0.438385,-1.491806,-0.266885,2.023476,0.147844,0.009465,0.287862,-0.080696,-0.312786,-0.155109,0.580441,0.090590,0.947004,-37.949787,6.095688,17.983274,0.100187,1.714889,0.087753,0.000000,0.000000,0.000000,0.000000,0.000000,0.000000
15823243.000000,-0.344348,0.589385,0.438303,-1.492117,-0.267046,2.024053,0.147940,0.012761,0.285921,-0.082601,-0.311329,-0.154357,0.574664,0.090542,0.994611,-37.973591,6.119492,18.106260,0.112089,1.779891,0.100570,0.000000,0.000000,0.000000,0.000000,0.000000,0.000000
15823244.000000,-0.344339,0.589679,0.438224,-1.492427,-0.267208,2.024630,0.148036,0.013851,0.289767,-0.080569,-0.317803,-0.157890,0.571407,0.090246,1.093793,-37.949787,6.119492,18.205442,0.105680,1.825668,0.133529,0.000000,0.000000,0.000000,0.000000,0.000000,0.000000
15823245.000000,-0.344326,0.589978,0.438135,-1.492741,-0.267372,2.025213,0.148136,0.012804,0.287859,-0.084587,-0.315652,-0.160274,0.564757,0.095714,1.145368,-37.898212,6.218674,18.328428,0.088285,1.825668,0.107894,0.000000,0.000000,0.000000,0.000000,0.000000,0.000000
15823246.000000,-0.344313,0.590274,0.438046,-1.493056,-0.267539,2.025790,0.148230,0.013138,0.294116,-0.086180,-0.317484,-0.162684,0.576924,0.094150,1.145368,-37.949787,6.266281,18.475218,0.093778,1.806442,0.133529,0.000000,0.000000,0.000000,0.000000,0.000000,0.000000
15823247.000000,-0.344296,0.590574,0.437954,-1.493366,-0.267705,2.026365,0.148330,0.013805,0.296623,-0.091764,-0.316302,-0.165063,0.573409,0.099764,1.121564,-37.973591,6.389267,18.625975,0.105680,1.838485,0.094161,0.000000,0.000000,0.000000,0.000000,0.000000,0.000000
15823248.000000,-0.344282,0.590879,0.437866,-1.493682,-0.267869,2.026943,0.148422,0.016235,0.297963,-0.088988,-0.312682,-0.162913,0.574528,0.101612,1.145368,-37.997395,6.460678,18.796568,0.141385,1.884261,0.133529,0.000000,0.000000,0.000000,0.000000,0.000000,0.000000
15823249.000000,-0.344269,0.591176,0.437783,-1.493995,-0.268036,2.027505,0.148523,0.014307,0.300099,-0.088284,-0.309499,-0.165894,0.566009,0.099964,1.192975,-38.045002,6.460678,18.947325,0.183500,1.936446,0.114303,0.000000,0.000000,0.000000,0.000000,0.000000,0.000000
15823250.000000,-0.344253,0.591480,0.437690,-1.494305,-0.268192,2.028082,0.148618,0.014009,0.297473,-0.090655,-0.311523,-0.161962,0.566410,0.102822,1.192975,-38.068806,6.559860,19.018736,0.183500,1.930038,0.127120,0.000000,0.000000,0.000000,0.000000,0.000000,0.000000
15823251.000000,-0.344235,0.591779,0.437603,-1.494624,-0.268348,2.028659,0.148722,0.014348,0.294339,-0.090126,-0.308128,-0.162050,0.566028,0.101652,1.169172,-38.021198,6.583664,19.169493,0.135892,1.942855,0.087753,0.000000,0.000000,0.000000,0.000000,0.000000,0.000000
15823252.000000,-0.344219,0.592080,0.437518,-1.494923,-0.268511,2.029230,0.148815,0.013911,0.294802,-0.088186,-0.305764,-0.158702,0.570777,0.102974,1.169172,-38.096577,6.536057,19.169493,0.117582,1.936446,0.127120,0.000000,0.000000,0.000000,0.000000,0.000000,0.000000
15823253.000000,-0.344196,0.592379,0.437428,-1.495240,-0.268668,2.029811,0.148914,0.015386,0.294490,-0.086040,-0.307037,-0.159536,0.567696,0.101360,1.093793,-38.045002,6.583664,19.292479,0.058073,1.955673,0.100570,0.000000,0.000000,0.000000,0.000000,0.000000,0.000000
15823254.000000,-0.344181,0.592672,0.437339,-1.495554,-0.268840,2.030383,0.149010,0.013849,0.292623,-0.086921,-0.309846,-0.160307,0.571780,0.099351,1.121564,-38.021198,6.611435,19.363890,0.135892,1.974899,0.100570,0.000000,0.000000,0.000000,0.000000,0.000000,0.000000
15823255.000000,-0.344163,0.592968,0.437254,-1.495860,-0.269000,2.030964,0.149100,0.013487,0.292730,-0.085806,-0.312886,-0.158964,0.575689,0.096118,1.121564,-37.922016,6.559860,19.340086,0.159696,1.981307,0.153671,0.000000,0.000000,0.000000,0.000000,0.000000,0.000000
15823256.000000,-0.344139,0.593271,0.437161,-1.496176,-0.269160,2.031540,0.149209,0.018180,0.292784,-0.084892,-0.312351,-0.162473,0.573166,0.097932,1.046186,-37.826801,6.611435,19.340086,0.183500,1.988631,0.094161,0.000000,0.000000,0.000000,0.000000,0.000000,0.000000
15823257.000000,-0.344121,0.593564,0.437076,-1.496487,-0.269325,2.032116,0.149301,0.016053,0.291110,-0.084889,-0.315489,-0.160787,0.573590,0.094793,1.069990,-37.775227,6.583664,19.391661,0.219205,1.930038,0.153671,0.000000,0.000000,0.000000,0.000000,0.000000,0.000000
15823258.000000,-0.344097,0.593869,0.436988,-1.496798,-0.269480,2.032688,0.149408,0.016878,0.295418,-0.083807,-0.314257,-0.162480,0.571822,0.100339,0.994611,-37.727619,6.635239,19.363890,0.207303,1.890670,0.087753,0.000000,0.000000,0.000000,0.000000,0.000000,0.000000
15823259.000000,-0.344076,0.594174,0.436904,-1.497109,-0.269639,2.033248,0.149508,0.015565,0.296672,-0.083424,-0.309597,-0.158757,0.563814,0.098394,0.994611,-37.703815,6.583664,19.292479,0.189908,1.942855,0.087753,0.000000,0.000000,0.000000,0.000000,0.000000,0.000000
15823260.000000,-0.344051,0.594480,0.436826,-1.497415,-0.269799,2.033807,0.149599,0.019482,0.297614,-0.081996,-0.309736,-0.160075,0.557561,0.094638,0.923200,-37.680012,6.488449,19.240904,0.171598,2.007858,0.140853,0.000000,0.000000,0.000000,0.000000,0.000000,0.000000
15823261.000000,-0.344024,0.594795,0.436740,-1.497724,-0.269963,2.034374,0.149702,0.022451,0.298780,-0.083105,-0.308275,-0.160896,0.554326,0.096836,0.847822,-37.680012,6.460678,19.141722,0.123990,2.027084,0.081344,0.000000,0.000000,0.000000,0.000000,0.000000,0.000000
15823262.000000,-0.344002,0.595095,0.436659,-1.498031,-0.270122,2.034940,0.149796,0.022742,0.295414,-0.083430,-0.305886,-0.157937,0.559620,0.094159,0.847822,-37.628437,6.413071,19.094114,0.105680,1.974899,0.133529,0.000000,0.000000,0.000000,0.000000,0.000000,0.000000
15823263.000000,-0.343976,0.595400,0.436575,-1.498331,-0.270286,2.035514,0.149897,0.024341,0.297144,-0.084290,-0.303673,-0.157880,0.567493,0.095334,0.796247,-37.656208,6.389267,19.042540,0.141385,1.909896,0.094161,0.000000,0.000000,0.000000,0.000000,0.000000,0.000000
15823264.000000,-0.343951,0.595707,0.436496,-1.498631,-0.270442,2.036075,0.149993,0.027403,0.304064,-0.083629,-0.301876,-0.159677,0.562722,0.093480,0.796247,-37.580830,6.313889,18.994932,0.117582,1.897079,0.127120,0.000000,0.000000,0.000000,0.000000,0.000000,0.000000
15823265.000000,-0.343925,0.596008,0.436414,-1.498925,-0.270607,2.036650,0.150094,0.027805,0.304098,-0.080789,-0.298060,-0.161164,0.568996,0.099249,0.748639,-37.604633,6.266281,18.947325,0.207303,1.877853,0.087753,0.000000,0.000000,0.000000,0.000000,0.000000,0.000000
15823266.000000,-0.343895,0.596320,0.436331,-1.499227,-0.270758,2.037221,0.150182,0.028721,0.304865,-0.079698,-0.298417,-0.157607,0.566713,0.096206,0.673261,-37.680012,6.242477,18.919554,0.183500,1.909896,0.133529,0.000000,0.000000,0.000000,0.000000,0.000000,0.000000
15823267.000000,-0.343874,0.596620,0.436253,-1.499523,-0.270911,2.037787,0.150280,0.026912,0.301654,-0.077021,-0.294780,-0.159031,0.571443,0.095144,0.697065,-37.580830,6.167099,18.848143,0.147794,1.909896,0.140853,0.000000,0.000000,0.000000,0.000000,0.000000,0.000000
15823268.000000,-0.343845,0.596927,0.436183,-1.499811,-0.271070,2.038365,0.150378,0.027320,0.298757,-0.077349,-0.293074,-0.156480,0.575545,0.099099,0.649457,-37.604633,6.044113,18.820372,0.129484,1.884261,0.127120,0.000000,0.000000,0.000000,0.000000,0.000000,0.000000
15823269.000000,-0.343818,0.597235,0.436101,-1.500110,-0.271224,2.038936,0.150479,0.027115,0.302166,-0.079890,-0.291861,-0.157390,0.578341,0.103202,0.625654,-37.580830,6.020309,18.820372,0.058073,1.890670,0.107894,0.000000,0.000000,0.000000,0.000000,0.000000,0.000000
15823270.000000,-0.343789,0.597534,0.436025,-1.500399,-0.271382,2.039501,0.150582,0.027596,0.300324,-0.080782,-0.289904,-0.151836,0.577742,0.105489,0.574079,-37.509418,5.948898,18.748960,0.069974,1.949264,0.114303,0.000000,0.000000,0.000000,0.000000,0.000000,0.000000
15823271.000000,-0.343759,0.597846,0.435948,-1.500688,-0.271538,2.040077,0.150678,0.028465,0.300582,-0.078577,-0.287669,-0.152504,0.574625,0.101075,0.502668,-37.533222,5.897324,18.649778,0.088285,1.930038,0.140853,0.000000,0.000000,0.000000,0.000000,0.000000,0.000000
15823272.000000,-0.343737,0.598158,0.435868,-1.500987,-0.271692,2.040651,0.150782,0.026177,0.303915,-0.078258,-0.287994,-0.152027,0.578479,0.100522,0.550275,-37.533222,5.897324,18.649778,0.088285,1.903487,0.100570,0.000000,0.000000,0.000000,0.000000,0.000000,0.000000
15823273.000000,-0.343709,0.598470,0.435795,-1.501276,-0.271851,2.041237,0.150868,0.025849,0.307094,-0.076151,-0.284905,-0.153700,0.573660,0.095484,0.550275,-37.557026,5.825912,18.625975,0.135892,1.825668,0.173812,0.000000,0.000000,0.000000,0.000000,0.000000,0.000000
15823274.000000,-0.343674,0.598779,0.435718,-1.501563,-0.272004,2.041822,0.150976,0.027913,0.303991,-0.075888,-0.281975,-0.157761,0.572377,0.103285,0.451093,-37.481647,5.798141,18.598204,0.135892,1.800033,0.087753,0.000000,0.000000,0.000000,0.000000,0.000000,0.000000
15823275.000000,-0.343645,0.599093,0.435638,-1.501839,-0.272167,2.042392,0.151075,0.030016,0.306869,-0.078681,-0.285625,-0.155751,0.566446,0.100260,0.451093,-37.481647,5.774338,18.475218,0.129484,1.786300,0.094161,0.000000,0.000000,0.000000,0.000000,0.000000,0.000000
15823276.000000,-0.343613,0.599415,0.435568,-1.502118,-0.272331,2.042966,0.151166,0.032896,0.310907,-0.078635,-0.281383,-0.159011,0.562445,0.096813,0.403486,-37.604633,5.651352,18.376036,0.117582,1.858627,0.147262,0.000000,0.000000,0.000000,0.000000,0.000000,0.000000
15823277.000000,-0.343582,0.599734,0.435490,-1.502397,-0.272495,2.043539,0.151268,0.030771,0.315990,-0.077566,-0.280734,-0.160140,0.559337,0.097767,0.403486,-37.656208,5.627548,18.253050,0.081876,1.844894,0.100570,0.000000,0.000000,0.000000,0.000000,0.000000,0.000000
15823278.000000,-0.343551,0.600060,0.435417,-1.502675,-0.272654,2.044126,0.151359,0.029883,0.316118,-0.077174,-0.280390,-0.162205,0.568289,0.095069,0.375715,-37.826801,5.603745,18.253050,0.064481,1.779891,0.147262,0.000000,0.000000,0.000000,0.000000,0.000000,0.000000
15823279.000000,-0.343518,0.600377,0.435340,-1.502952,-0.272818,2.044711,0.151461,0.029107,0.315714,-0.076431,-0.275971,-0.163565,0.569128,0.096674,0.351911,-37.850605,5.579941,18.253050,0.046171,1.741439,0.094161,0.000000,0.000000,0.000000,0.000000,0.000000,0.000000
15823280.000000,-0.343485,0.600695,0.435257,-1.503226,-0.272982,2.045286,0.151558,0.032087,0.315497,-0.077719,-0.275218,-0.160763,0.578233,0.094928,0.304304,-37.874409,5.627548,18.205442,0.052579,1.727706,0.107894,0.000000,0.000000,0.000000,0.000000,0.000000,0.000000
15823281.000000,-0.343456,0.601019,0.435179,-1.503491,-0.273151,2.045859,0.151655,0.030035,0.316000,-0.077191,-0.274512,-0.165038,0.576317,0.098222,0.304304,-37.949787,5.627548,18.153868,0.100187,1.773483,0.107894,0.000000,0.000000,0.000000,0.000000,0.000000,0.000000
15823282.000000,-0.343423,0.601335,0.435100,-1.503755,-0.273315,2.046435,0.151749,0.029382,0.320456,-0.076868,-0.269180,-0.161772,0.588003,0.100066,0.276533,-37.850605,5.627548,18.054686,0.112089,1.800033,0.153671,0.000000,0.000000,0.000000,0.000000,0.000000,0.000000
15823283.000000,-0.343393,0.601653,0.435019,-1.504021,-0.273482,2.047007,0.151853,0.030691,0.319474,-0.077141,-0.270287,-0.167644,0.587038,0.104186,0.304304,-37.874409,5.651352,18.007078,0.088285,1.812850,0.120712,0.000000,0.000000,0.000000,0.000000,0.000000,0.000000
15823284.000000,-0.343363,0.601976,0.434941,-1.504283,-0.273651,2.047586,0.151957,0.029258,0.321072,-0.079550,-0.266004,-0.168688,0.586296,0.102568,0.304304,-37.898212,5.627548,17.884092,0.100187,1.806442,0.094161,0.000000,0.000000,0.000000,0.000000,0.000000,0.000000
15823285.000000,-0.343332,0.602293,0.434857,-1.504548,-0.273817,2.048165,0.152050,0.031268,0.323915,-0.082845,-0.262934,-0.163380,0.582419,0.098466,0.304304,-37.826801,5.679123,17.884092,0.081876,1.779891,0.133529,0.000000,0.000000,0.000000,0.000000,0.000000,0.000000
15823286.000000,-0.343298,0.602612,0.434774,-1.504803,-0.273980,2.048743,0.152153,0.032626,0.320758,-0.082092,-0.263741,-0.164483,0.582670,0.098733,0.304304,-37.802998,5.726730,17.757139,0.064481,1.779891,0.100570,0.000000,0.000000,0.000000,0.000000,0.000000,0.000000
15823287.000000,-0.343270,0.602938,0.434692,-1.505062,-0.274143,2.049333,0.152249,0.030184,0.321739,-0.080267,-0.259008,-0.165912,0.582990,0.095598,0.328107,-37.775227,5.726730,17.685728,0.058073,1.779891,0.140853,0.000000,0.000000,0.000000,0.000000,0.000000,0.000000
15823288.000000,-0.343237,0.603255,0.434610,-1.505314,-0.274307,2.049903,0.152359,0.032601,0.319109,-0.080164,-0.258384,-0.167487,0.582489,0.096753,0.304304,-37.727619,5.774338,17.586546,0.069974,1.806442,0.087753,0.000000,0.000000,0.000000,0.000000,0.000000,0.000000
15823289.000000,-0.343210,0.603583,0.434527,-1.505569,-0.274465,2.050488,0.152450,0.029028,0.320981,-0.082542,-0.261657,-0.167523,0.577508,0.098291,0.375715,-37.751423,5.798141,17.511168,0.052579,1.806442,0.153671,0.000000,0.000000,0.000000,0.000000,0.000000,0.000000
15823290.000000,-0.343178,0.603917,0.434445,-1.505829,-0.274633,2.051063,0.152557,0.031268,0.326013,-0.084502,-0.259042,-0.167844,0.572446,0.104271,0.375715,-37.898212,5.825912,17.487364,0.046171,1.741439,0.087753,0.000000,0.000000,0.000000,0.000000,0.000000,0.000000
15823291.000000,-0.343144,0.604249,0.434361,-1.506075,-0.274805,2.051649,0.152654,0.030361,0.328499,-0.085821,-0.255696,-0.169794,0.567063,0.101695,0.351911,-37.997395,5.849716,17.411985,0.081876,1.714889,0.087753,0.000000,0.000000,0.000000,0.000000,0.000000,0.000000
15823292.000000,-0.343118,0.604588,0.434279,-1.506321,-0.274973,2.052225,0.152748,0.027871,0.333887,-0.085319,-0.250743,-0.169817,0.562547,0.102127,0.403486,-38.120380,5.798141,17.388182,0.081876,1.702071,0.140853,0.000000,0.000000,0.000000,0.000000,0.000000,0.000000
15823293.000000,-0.343087,0.604920,0.434189,-1.506571,-0.275141,2.052796,0.152854,0.027216,0.330752,-0.085223,-0.254059,-0.165172,0.563788,0.102249,0.403486,-38.215595,5.897324,17.435789,0.081876,1.682845,0.087753,0.000000,0.000000,0.000000,0.000000,0.000000,0.000000
15823294.000000,-0.343057,0.605248,0.434107,-1.506809,-0.275304,2.053366,0.152957,0.029339,0.329189,-0.082051,-0.248220,-0.162322,0.562060,0.104667,0.427289,-38.243366,5.873520,17.340574,0.100187,1.708480,0.094161,0.000000,0.000000,0.000000,0.000000,0.000000,0.000000
15823295.000000,-0.343025,0.605578,0.434020,-1.507056,-0.275466,2.053926,0.153059,0.028395,0.335692,-0.087101,-0.246932,-0.158046,0.573784,0.101696,0.427289,-38.243366,5.897324,17.388182,0.069974,1.721298,0.094161,0.000000,0.000000,0.000000,0.000000,0.000000,0.000000
15823296.000000,-0.342993,0.605913,0.433931,-1.507295,-0.275630,2.054493,0.153155,0.027633,0.337371,-0.088661,-0.246530,-0.160901,0.571396,0.098362,0.427289,-38.290974,5.948898,17.312803,0.064481,1.727706,0.133529,0.000000,0.000000,0.000000,0.000000,0.000000,0.000000
15823297.000000,-0.342963,0.606246,0.433843,-1.507541,-0.275790,2.055055,0.153261,0.027071,0.335681,-0.088975,-0.245025,-0.161198,0.568957,0.098997,0.427289,-38.215595,5.972702,17.340574,0.010465,1.767074,0.094161,0.000000,0.000000,0.000000,0.000000,0.000000,0.000000
15823298.000000,-0.342934,0.606576,0.433760,-1.507787,-0.275965,2.055611,0.153356,0.029123,0.332831,-0.088106,-0.242073,-0.163781,0.567420,0.095967,0.451093,-38.191792,5.948898,17.411985,0.022367,1.800033,0.140853,0.000000,0.000000,0.000000,0.000000,0.000000,0.000000
15823299.000000,-0.342904,0.606920,0.433673,-1.508026,-0.276137,2.056166,0.153461,0.030532,0.332953,-0.088641,-0.242279,-0.166454,0.564551,0.097193,0.474897,-38.290974,5.972702,17.463560,0.046171,1.844894,0.100570,0.000000,0.000000,0.000000,0.000000,0.000000,0.000000
15823300.000000,-0.342871,0.607265,0.433585,-1.508266,-0.276301,2.056733,0.153560,0.028650,0.333086,-0.089205,-0.236261,-0.166680,0.569821,0.100041,0.502668,-38.362385,5.996506,17.411985,0.034269,1.844894,0.114303,0.000000,0.000000,0.000000,0.000000,0.000000,0.000000
15823301.000000,-0.342837,0.607602,0.433500,-1.508508,-0.276470,2.057293,0.153663,0.028535,0.338777,-0.087712,-0.237446,-0.163381,0.569901,0.103222,0.474897,-38.413960,5.948898,17.435789,0.046171,1.812850,0.100570,0.000000,0.000000,0.000000,0.000000,0.000000,0.000000
15823302.000000,-0.342807,0.607945,0.433412,-1.508748,-0.276637,2.057861,0.153757,0.030237,0.341113,-0.089211,-0.240287,-0.160023,0.568940,0.100004,0.502668,-38.413960,5.996506,17.411985,0.040677,1.793624,0.127120,0.000000,0.000000,0.000000,0.000000,0.000000,0.000000
15823303.000000,-0.342773,0.608286,0.433321,-1.508996,-0.276803,2.058417,0.153856,0.029639,0.339067,-0.089862,-0.242389,-0.161777,0.564722,0.098086,0.474897,-38.485371,6.044113,17.388182,0.027860,1.767074,0.133529,0.000000,0.000000,0.000000,0.000000,0.000000,0.000000
15823304.000000,-0.342740,0.608632,0.433234,-1.509235,-0.276965,2.058985,0.153960,0.034091,0.341441,-0.089281,-0.240479,-0.164142,0.561660,0.102867,0.502668,-38.608356,6.044113,17.340574,0.034269,1.735030,0.074935,0.000000,0.000000,0.000000,0.000000,0.000000,0.000000
15823305.000000,-0.342703,0.608982,0.433142,-1.509472,-0.277134,2.059550,0.154050,0.036774,0.339147,-0.089382,-0.238562,-0.164775,0.557697,0.097491,0.427289,-38.683735,6.067917,17.289000,0.010465,1.741439,0.153671,0.000000,0.000000,0.000000,0.000000,0.000000,0.000000
15823306.000000,-0.342669,0.609319,0.433054,-1.509713,-0.277316,2.060111,0.154156,0.037365,0.342124,-0.085320,-0.238297,-0.168322,0.565285,0.098822,0.403486,-38.683735,6.044113,17.265196,0.069974,1.727706,0.100570,0.000000,0.000000,0.000000,0.000000,0.000000,0.000000
15823307.000000,-0.342638,0.609670,0.432966,-1.509958,-0.277484,2.060674,0.154258,0.036771,0.342593,-0.082831,-0.238733,-0.163878,0.558614,0.098171,0.427289,-38.778950,6.044113,17.265196,0.069974,1.754256,0.087753,0.000000,0.000000,0.000000,0.000000,0.000000,0.000000
15823308.000000,-0.342602,0.610008,0.432881,-1.510202,-0.277653,2.061235,0.154355,0.037478,0.339302,-0.082874,-0.238258,-0.170225,0.560893,0.099925,0.403486,-38.830524,5.996506,17.241392,0.088285,1.741439,0.120712,0.000000,0.000000,0.000000,0.000000,0.000000,0.000000
15823309.000000,-0.342570,0.610348,0.432793,-1.510448,-0.277821,2.061811,0.154454,0.034306,0.337844,-0.083735,-0.243519,-0.173794,0.563906,0.097735,0.403486,-38.778950,5.972702,17.312803,0.088285,1.689254,0.140853,0.000000,0.000000,0.000000,0.000000,0.000000,0.000000
15823310.000000,-0.342529,0.610692,0.432704,-1.510699,-0.277987,2.062376,0.154560,0.037426,0.335783,-0.085102,-0.242905,-0.172132,0.563760,0.098717,0.304304,-38.806721,5.972702,17.364378,0.069974,1.708480,0.094161,0.000000,0.000000,0.000000,0.000000,0.000000,0.000000
15823311.000000,-0.342494,0.611034,0.432612,-1.510946,-0.278151,2.062941,0.154660,0.037216,0.339787,-0.083311,-0.248318,-0.170527,0.564076,0.097143,0.304304,-38.806721,5.996506,17.435789,0.040677,1.721298,0.094161,0.000000,0.000000,0.000000,0.000000,0.000000,0.000000
15823312.000000,-0.342457,0.611380,0.432525,-1.511191,-0.278318,2.063505,0.154753,0.037817,0.339988,-0.084006,-0.247398,-0.170106,0.568003,0.094470,0.276533,-38.731342,5.972702,17.511168,0.027860,1.735030,0.133529,0.000000,0.000000,0.000000,0.000000,0.000000,0.000000
15823313.000000,-0.342418,0.611715,0.432437,-1.511431,-0.278493,2.064060,0.154861,0.038174,0.345954,-0.084410,-0.242438,-0.170303,0.577198,0.096014,0.252729,-38.659931,5.948898,17.411985,0.040677,1.773483,0.087753,0.000000,0.000000,0.000000,0.000000,0.000000,0.000000
15823314.000000,-0.342380,0.612060,0.432343,-1.511667,-0.278666,2.064616,0.154953,0.038424,0.345318,-0.091115,-0.240429,-0.171301,0.569562,0.093330,0.228925,-38.560749,5.948898,17.364378,0.064481,1.779891,0.147262,0.000000,0.000000,0.000000,0.000000,0.000000,0.000000
15823315.000000,-0.342345,0.612407,0.432256,-1.511907,-0.278836,2.065185,0.155059,0.038107,0.344458,-0.086049,-0.239898,-0.176283,0.564327,0.095703,0.228925,-38.584553,5.897324,17.364378,0.076383,1.760665,0.094161,0.000000,0.000000,0.000000,0.000000,0.000000,0.000000
15823316.000000,-0.342306,0.612751,0.432169,-1.512152,-0.279008,2.065739,0.155158,0.035266,0.346038,-0.082440,-0.241814,-0.174805,0.557098,0.095054,0.205121,-38.560749,5.849716,17.312803,0.088285,1.721298,0.100570,0.000000,0.000000,0.000000,0.000000,0.000000,0.000000
15823317.000000,-0.342268,0.613105,0.432078,-1.512398,-0.279174,2.066302,0.155258,0.036222,0.343054,-0.085164,-0.241754,-0.172694,0.558718,0.094561,0.177350,-38.659931,5.897324,17.340574,0.064481,1.721298,0.107894,0.000000,0.000000,0.000000,0.000000,0.000000,0.000000
15823318.000000,-0.342229,0.613458,0.431989,-1.512638,-0.279342,2.066864,0.155361,0.037003,0.344555,-0.085742,-0.239823,-0.170981,0.555430,0.094001,0.153547,-38.755146,5.873520,17.312803,0.034269,1.727706,0.114303,0.000000,0.000000,0.000000,0.000000,0.000000,0.000000
15823319.000000,-0.342194,0.613806,0.431897,-1.512879,-0.279516,2.067419,0.155462,0.036468,0.344750,-0.087036,-0.241432,-0.175170,0.557467,0.092880,0.177350,-38.830524,5.897324,17.388182,0.022367,1.747848,0.147262,0.000000,0.000000,0.000000,0.000000,0.000000,0.000000
15823320.000000,-0.342161,0.614157,0.431809,-1.513123,-0.279699,2.067985,0.155572,0.036094,0.345489,-0.087019,-0.241957,-0.179607,0.558413,0.095680,0.205121,-38.953510,5.873520,17.435789,0.046171,1.754256,0.081344,0.000000,0.000000,0.000000,0.000000,0.000000,0.000000
15823321.000000,-0.342125,0.614502,0.431718,-1.513376,-0.279880,2.068540,0.155670,0.035937,0.350099,-0.087757,-0.244027,-0.181612,0.559331,0.093192,0.228925,-38.953510,5.897324,17.562742,0.046171,1.767074,0.133529,0.000000,0.000000,0.000000,0.000000,0.000000,0.000000
15823322.000000,-0.342089,0.614850,0.431634,-1.513629,-0.280059,2.069106,0.155777,0.035924,0.348113,-0.086459,-0.247151,-0.179804,0.560920,0.095330,0.252729,-39.001118,5.825912,17.757139,0.076383,1.786300,0.087753,0.000000,0.000000,0.000000,0.000000,0.000000,0.000000
15823323.000000,-0.342053,0.615197,0.431540,-1.513882,-0.280241,2.069673,0.155876,0.033287,0.344985,-0.087627,-0.245630,-0.182656,0.562802,0.092873,0.252729,-38.977314,5.849716,17.832518,0.093778,1.786300,0.140853,0.000000,0.000000,0.000000,0.000000,0.000000,0.000000
15823324.000000,-0.342017,0.615546,0.431448,-1.514135,-0.280420,2.070234,0.155982,0.033796,0.344030,-0.088096,-0.246845,-0.179670,0.562818,0.093060,0.276533,-39.001118,5.849716,17.983274,0.100187,1.806442,0.133529,0.000000,0.000000,0.000000,0.000000,0.000000,0.000000
15823325.000000,-0.341981,0.615895,0.431353,-1.514386,-0.280599,2.070794,0.156083,0.034206,0.344839,-0.092976,-0.243900,-0.177641,0.563586,0.097925,0.304304,-39.001118,5.921127,18.106260,0.112089,1.786300,0.140853,0.000000,0.000000,0.000000,0.000000,0.000000,0.000000
15823326.000000,-0.341946,0.616243,0.431265,-1.514637,-0.280776,2.071349,0.156194,0.034651,0.345919,-0.091407,-0.246092,-0.178617,0.558872,0.103569,0.328107,-38.977314,5.921127,18.153868,0.076383,1.806442,0.081344,0.000000,0.000000,0.000000,0.000000,0.000000,0.000000
15823327.000000,-0.341909,0.616595,0.431176,-1.514885,-0.280957,2.071903,0.156294,0.035554,0.345283,-0.093652,-0.244996,-0.184883,0.554102,0.100638,0.328107,-39.024921,5.921127,18.205442,0.076383,1.851302,0.094161,0.000000,0.000000,0.000000,0.000000,0.000000,0.000000
15823328.000000,-0.341874,0.616949,0.431083,-1.515135,-0.281139,2.072462,0.156397,0.035587,0.346708,-0.092415,-0.244301,-0.182033,0.552170,0.098201,0.351911,-39.024921,5.921127,18.276854,0.100187,1.865035,0.107894,0.000000,0.000000,0.000000,0.000000,0.000000,0.000000
15823329.000000,-0.341839,0.617301,0.430986,-1.515382,-0.281317,2.073007,0.156504,0.036143,0.346798,-0.092511,-0.249097,-0.183519,0.551210,0.101646,0.351911,-39.100300,5.972702,18.352232,0.100187,1.865035,0.094161,0.000000,0.000000,0.000000,0.000000,0.000000,0.000000
15823330.000000,-0.341811,0.617655,0.430904,-1.515633,-0.281495,2.073559,0.156601,0.031124,0.346867,-0.088446,-0.249075,-0.180753,0.550030,0.102954,0.451093,-39.100300,5.849716,18.352232,0.112089,1.838485,0.133529,0.000000,0.000000,0.000000,0.000000,0.000000,0.000000
15823331.000000,-0.341779,0.618016,0.430803,-1.515886,-0.281675,2.074103,0.156713,0.031222,0.354549,-0.090745,-0.247713,-0.178427,0.556781,0.102040,0.526471,-39.195515,5.948898,18.427610,0.129484,1.812850,0.094161,0.000000,0.000000,0.000000,0.000000,0.000000,0.000000
15823332.000000,-0.341737,0.618371,0.430710,-1.516131,-0.281853,2.074650,0.156819,0.034879,0.359505,-0.090262,-0.244336,-0.176487,0.559213,0.102962,0.451093,-39.318501,5.948898,18.526793,0.135892,1.819259,0.100570,0.000000,0.000000,0.000000,0.000000,0.000000,0.000000
15823333.000000,-0.341706,0.618727,0.430613,-1.516380,-0.282030,2.075195,0.156924,0.034470,0.356783,-0.090267,-0.246053,-0.174587,0.554272,0.101754,0.502668,-39.318501,5.972702,18.550596,0.129484,1.865035,0.074935,0.000000,0.000000,0.000000,0.000000,0.000000,0.000000
15823334.000000,-0.341675,0.619070,0.430515,-1.516633,-0.282212,2.075728,0.157020,0.033702,0.354831,-0.091366,-0.246974,-0.177336,0.552080,0.097897,0.574079,-39.294697,6.044113,18.673582,0.117582,1.884261,0.120712,0.000000,0.000000,0.000000,0.000000,0.000000,0.000000
15823335.000000,-0.341638,0.619424,0.430416,-1.516878,-0.282390,2.076274,0.157116,0.034700,0.352341,-0.092155,-0.246327,-0.175985,0.543862,0.096402,0.574079,-39.247089,6.119492,18.748960,0.129484,1.936446,0.140853,0.000000,0.000000,0.000000,0.000000,0.000000,0.000000
15823336.000000,-0.341606,0.619778,0.430325,-1.517134,-0.282563,2.076823,0.157227,0.031240,0.352393,-0.093121,-0.246959,-0.174485,0.540473,0.098151,0.625654,-39.247089,6.067917,18.895750,0.129484,1.936446,0.067611,0.000000,0.000000,0.000000,0.000000,0.000000,0.000000
15823337.000000,-0.341569,0.620124,0.430223,-1.517383,-0.282739,2.077368,0.157320,0.033558,0.348538,-0.094114,-0.246046,-0.178025,0.542646,0.099237,0.601850,-39.100300,6.167099,18.971128,0.123990,1.923629,0.140853,0.000000,0.000000,0.000000,0.000000,0.000000,0.000000
15823338.000000,-0.341535,0.620469,0.430125,-1.517631,-0.282911,2.077915,0.157423,0.034143,0.341759,-0.096360,-0.242870,-0.176543,0.538696,0.098847,0.625654,-38.925739,6.190903,19.070311,0.135892,1.916305,0.120712,0.000000,0.000000,0.000000,0.000000,0.000000,0.000000
15823339.000000,-0.341502,0.620821,0.430028,-1.517877,-0.283085,2.078445,0.157526,0.034531,0.347411,-0.098273,-0.242037,-0.175418,0.539011,0.098354,0.649457,-38.901936,6.242477,19.117918,0.159696,1.974899,0.100570,0.000000,0.000000,0.000000,0.000000,0.000000,0.000000
15823340.000000,-0.341468,0.621179,0.429927,-1.518121,-0.283257,2.078985,0.157627,0.034885,0.350143,-0.099923,-0.241346,-0.173585,0.538563,0.102956,0.673261,-38.830524,6.290085,19.141722,0.147794,2.060043,0.074935,0.000000,0.000000,0.000000,0.000000,0.000000,0.000000
15823341.000000,-0.341431,0.621532,0.429823,-1.518366,-0.283435,2.079535,0.157724,0.036264,0.350864,-0.101629,-0.240514,-0.172686,0.546911,0.103343,0.649457,-38.830524,6.365463,19.169493,0.147794,2.039901,0.127120,0.000000,0.000000,0.000000,0.000000,0.000000,0.000000
15823342.000000,-0.341396,0.621888,0.429725,-1.518605,-0.283617,2.080083,0.157837,0.036570,0.354999,-0.098030,-0.239912,-0.173207,0.549036,0.107793,0.649457,-38.854328,6.365463,19.169493,0.178007,1.995040,0.074935,0.000000,0.000000,0.000000,0.000000,0.000000,0.000000
15823343.000000,-0.341363,0.622240,0.429624,-1.518853,-0.283782,2.080634,0.157938,0.036322,0.350904,-0.099583,-0.244227,-0.166715,0.553207,0.108395,0.673261,-38.878132,6.413071,19.240904,0.154203,1.949264,0.094161,0.000000,0.000000,0.000000,0.000000,0.000000,0.000000
15823344.000000,-0.341333,0.622594,0.429532,-1.519089,-0.283956,2.081177,0.158044,0.034952,0.352278,-0.098478,-0.240463,-0.163568,0.547663,0.103815,0.748639,-38.925739,6.365463,19.169493,0.178007,1.942855,0.107894,0.000000,0.000000,0.000000,0.000000,0.000000,0.000000
15823345.000000,-0.341294,0.622957,0.429428,-1.519330,-0.284122,2.081724,0.158152,0.036364,0.351154,-0.097547,-0.239789,-0.168045,0.542061,0.102982,0.724836,-39.024921,6.436874,19.292479,0.154203,1.962081,0.067611,0.000000,0.000000,0.000000,0.000000,0.000000,0.000000
15823346.000000,-0.341256,0.623312,0.429326,-1.519556,-0.284293,2.082279,0.158253,0.037488,0.353962,-0.096636,-0.234481,-0.173275,0.541912,0.103198,0.697065,-39.024921,6.488449,19.240904,0.154203,2.007858,0.127120,0.000000,0.000000,0.000000,0.000000,0.000000,0.000000
15823347.000000,-0.341222,0.623665,0.429231,-1.519792,-0.284466,2.082822,0.158362,0.036211,0.349739,-0.093122,-0.238824,-0.176244,0.538100,0.101776,0.748639,-39.001118,6.436874,19.316282,0.129484,2.020675,0.100570,0.000000,0.000000,0.000000,0.000000,0.000000,0.000000
15823348.000000,-0.341183,0.624025,0.429128,-1.520026,-0.284644,2.083375,0.158467,0.034758,0.351276,-0.096208,-0.236527,-0.174421,0.539916,0.098984,0.697065,-39.072529,6.488449,19.363890,0.117582,2.007858,0.114303,0.000000,0.000000,0.000000,0.000000,0.000000,0.000000
15823349.000000,-0.341143,0.624387,0.429025,-1.520260,-0.284825,2.083922,0.158580,0.032852,0.360456,-0.100187,-0.235603,-0.178823,0.549719,0.099324,0.673261,-39.024921,6.488449,19.463072,0.141385,1.962081,0.067611,0.000000,0.000000,0.000000,0.000000,0.000000,0.000000
15823350.000000,-0.341098,0.624741,0.428926,-1.520493,-0.285008,2.084469,0.158683,0.033174,0.355888,-0.097678,-0.237499,-0.178129,0.548113,0.105250,0.574079,-39.048725,6.488449,19.514647,0.183500,1.981307,0.107894,0.000000,0.000000,0.000000,0.000000,0.000000,0.000000
15823351.000000,-0.341064,0.625103,0.428827,-1.520722,-0.285186,2.085023,0.158784,0.032872,0.360224,-0.098358,-0.233416,-0.177277,0.542853,0.101063,0.625654,-39.024921,6.488449,19.490843,0.219205,1.974899,0.147262,0.000000,0.000000,0.000000,0.000000,0.000000,0.000000
15823352.000000,-0.341027,0.625457,0.428732,-1.520949,-0.285365,2.085560,0.158901,0.036475,0.354987,-0.097533,-0.228949,-0.175979,0.543587,0.106242,0.649457,-39.024921,6.436874,19.514647,0.243009,1.995040,0.074935,0.000000,0.000000,0.000000,0.000000,0.000000,0.000000
15823353.000000,-0.340984,0.625820,0.428633,-1.521168,-0.285532,2.086105,0.159011,0.035259,0.354306,-0.098372,-0.227731,-0.177833,0.542450,0.112576,0.574079,-39.048725,6.436874,19.490843,0.213712,2.039901,0.074935,0.000000,0.000000,0.000000,0.000000,0.000000,0.000000
15823354.000000,-0.340942,0.626197,0.428532,-1.521382,-0.285706,2.086654,0.159121,0.039965,0.358000,-0.096803,-0.225748,-0.178202,0.543013,0.111475,0.526471,-39.219318,6.460678,19.316282,0.147794,2.060043,0.100570,0.000000,0.000000,0.000000,0.000000,0.000000,0.000000
15823355.000000,-0.340900,0.626572,0.428438,-1.521597,-0.285883,2.087203,0.159227,0.040339,0.365388,-0.096067,-0.224245,-0.179395,0.544372,0.110220,0.474897,-39.489094,6.389267,19.240904,0.100187,2.053634,0.147262,0.000000,0.000000,0.000000,0.000000,0.000000,0.000000
15823356.000000,-0.340865,0.626945,0.428339,-1.521810,-0.286056,2.087753,0.159347,0.041356,0.362749,-0.097507,-0.221495,-0.175314,0.545078,0.109510,0.526471,-39.588276,6.389267,19.094114,0.046171,2.027084,0.061202,0.000000,0.000000,0.000000,0.000000,0.000000,0.000000
15823357.000000,-0.340821,0.627311,0.428240,-1.522035,-0.286234,2.088307,0.159452,0.041571,0.365980,-0.098247,-0.226964,-0.175295,0.552826,0.108114,0.474897,-39.735065,6.389267,19.117918,0.081876,1.955673,0.114303,0.000000,0.000000,0.000000,0.000000,0.000000,0.000000
15823358.000000,-0.340778,0.627687,0.428145,-1.522248,-0.286413,2.088863,0.159564,0.044126,0.366516,-0.095408,-0.223737,-0.176027,0.556280,0.111035,0.451093,-39.810444,6.365463,18.971128,0.129484,1.955673,0.067611,0.000000,0.000000,0.000000,0.000000,0.000000,0.000000
15823359.000000,-0.340738,0.628065,0.428050,-1.522468,-0.286589,2.089425,0.159669,0.041814,0.369452,-0.093122,-0.220671,-0.175528,0.559146,0.109471,0.474897,-39.981037,6.341660,18.947325,0.159696,1.936446,0.107894,0.000000,0.000000,0.000000,0.000000,0.000000,0.000000
15823360.000000,-0.340695,0.628432,0.427956,-1.522675,-0.286768,2.089979,0.159773,0.041212,0.370865,-0.094683,-0.219253,-0.179916,0.557227,0.108936,0.451093,-39.981037,6.313889,18.871946,0.189908,1.903487,0.133529,0.000000,0.000000,0.000000,0.000000,0.000000,0.000000
15823361.000000,-0.340652,0.628800,0.427860,-1.522889,-0.286944,2.090527,0.159889,0.040813,0.367488,-0.096333,-0.216908,-0.180564,0.557106,0.111006,0.427289,-39.957233,6.313889,18.820372,0.147794,1.936446,0.067611,0.000000,0.000000,0.000000,0.000000,0.000000,0.000000
15823362.000000,-0.340600,0.629164,0.427762,-1.523102,-0.287128,2.091078,0.159986,0.043485,0.376096,-0.094489,-0.214080,-0.185976,0.554978,0.104211,0.276533,-39.929462,6.313889,18.721189,0.117582,1.936446,0.127120,0.000000,0.000000,0.000000,0.000000,0.000000,0.000000
15823363.000000,-0.340555,0.629531,0.427669,-1.523312,-0.287307,2.091626,0.160092,0.042737,0.367657,-0.095075,-0.213502,-0.181531,0.552338,0.102288,0.228925,-39.834248,6.266281,18.673582,0.100187,1.962081,0.114303,0.000000,0.000000,0.000000,0.000000,0.000000,0.000000
15823364.000000,-0.340513,0.629905,0.427573,-1.523521,-0.287486,2.092179,0.160203,0.040565,0.369537,-0.096542,-0.212241,-0.177909,0.550938,0.106477,0.252729,-39.810444,6.242477,18.625975,0.076383,1.974899,0.067611,0.000000,0.000000,0.000000,0.000000,0.000000,0.000000
15823365.000000,-0.340464,0.630277,0.427474,-1.523727,-0.287672,2.092719,0.160307,0.041889,0.368450,-0.097707,-0.213275,-0.172614,0.546454,0.105713,0.153547,-39.810444,6.242477,18.499022,0.112089,1.949264,0.107894,0.000000,0.000000,0.000000,0.000000,0.000000,0.000000
15823366.000000,-0.340418,0.630651,0.427376,-1.523932,-0.287851,2.093265,0.160414,0.046525,0.371458,-0.094849,-0.212700,-0.177586,0.546001,0.109998,0.153547,-39.881855,6.218674,18.451414,0.135892,1.949264,0.127120,0.000000,0.000000,0.000000,0.000000,0.000000,0.000000
15823367.000000,-0.340373,0.631039,0.427277,-1.524131,-0.288028,2.093805,0.160522,0.047257,0.375751,-0.096233,-0.207501,-0.175725,0.543160,0.110970,0.153547,-40.004841,6.218674,18.352232,0.141385,1.916305,0.114303,0.000000,0.000000,0.000000,0.000000,0.000000,0.000000
15823368.000000,-0.340326,0.631409,0.427181,-1.524326,-0.288211,2.094358,0.160634,0.047795,0.374372,-0.095148,-0.202166,-0.178885,0.550391,0.112150,0.153547,-40.076252,6.242477,18.304625,0.135892,1.890670,0.061202,0.000000,0.000000,0.000000,0.000000,0.000000,0.000000
15823369.000000,-0.340282,0.631786,0.427085,-1.524522,-0.288390,2.094906,0.160734,0.047772,0.377964,-0.092790,-0.199198,-0.175490,0.544708,0.110267,0.177350,-40.104023,6.218674,18.177671,0.105680,1.884261,0.114303,0.000000,0.000000,0.000000,0.000000,0.000000,0.000000
15823370.000000,-0.340228,0.632152,0.426988,-1.524724,-0.288571,2.095443,0.160843,0.047509,0.377586,-0.094049,-0.200349,-0.173238,0.545506,0.112245,0.078168,-40.104023,6.190903,18.177671,0.088285,1.884261,0.081344,0.000000,0.000000,0.000000,0.000000,0.000000,0.000000
15823371.000000,-0.340179,0.632524,0.426892,-1.524922,-0.288752,2.095992,0.160944,0.048788,0.378360,-0.095829,-0.201415,-0.177984,0.545779,0.106240,0.030561,-40.028645,6.190903,18.205442,0.105680,1.897079,0.120712,0.000000,0.000000,0.000000,0.000000,0.000000,0.000000
15823372.000000,-0.340132,0.632895,0.426795,-1.525117,-0.288929,2.096538,0.161054,0.045746,0.371962,-0.096830,-0.197466,-0.174892,0.541667,0.109327,0.030561,-39.905659,6.167099,18.177671,0.076383,1.903487,0.081344,0.000000,0.000000,0.000000,0.000000,0.000000,0.000000
15823373.000000,-0.340088,0.633267,0.426696,-1.525312,-0.289108,2.097085,0.161158,0.046013,0.372336,-0.097427,-0.198470,-0.174883,0.543069,0.105024,0.054365,-39.858051,6.143295,18.177671,0.105680,1.903487,0.094161,0.000000,0.000000,0.000000,0.000000,0.000000,0.000000
15823374.000000,-0.340039,0.633639,0.426596,-1.525510,-0.289289,2.097629,0.161260,0.045002,0.367437,-0.095904,-0.195596,-0.179770,0.534469,0.107047,0.006757,-39.758869,6.167099,18.153868,0.141385,1.897079,0.094161,0.000000,0.000000,0.000000,0.000000,0.000000,0.000000
15823375.000000,-0.339995,0.634005,0.426501,-1.525712,-0.289470,2.098173,0.161369,0.044433,0.368057,-0.092745,-0.195737,-0.176381,0.539466,0.108721,0.078168,-39.659687,6.119492,18.229246,0.123990,1.858627,0.081344,0.000000,0.000000,0.000000,0.000000,0.000000,0.000000
15823376.000000,-0.339945,0.634383,0.426405,-1.525896,-0.289655,2.098723,0.161471,0.043361,0.366050,-0.095410,-0.192254,-0.180086,0.542641,0.108329,0.054365,-39.588276,6.143295,18.153868,0.141385,1.832076,0.120712,0.000000,0.000000,0.000000,0.000000,0.000000,0.000000
15823377.000000,-0.339901,0.634759,0.426306,-1.526090,-0.289835,2.099269,0.161587,0.043906,0.369156,-0.097347,-0.192967,-0.177904,0.538021,0.112058,0.105939,-39.588276,6.167099,18.106260,0.147794,1.865035,0.054794,0.000000,0.000000,0.000000,0.000000,0.000000,0.000000
15823378.000000,-0.339855,0.635136,0.426210,-1.526273,-0.290012,2.099801,0.161691,0.041783,0.372009,-0.097075,-0.193589,-0.180264,0.533983,0.109739,0.129743,-39.612080,6.119492,17.955503,0.135892,1.916305,0.107894,0.000000,0.000000,0.000000,0.000000,0.000000,0.000000
15823379.000000,-0.339807,0.635506,0.426114,-1.526460,-0.290188,2.100342,0.161796,0.041444,0.369936,-0.094952,-0.193686,-0.177377,0.536432,0.105236,0.105939,-39.612080,6.119492,17.856321,0.123990,1.884261,0.127120,0.000000,0.000000,0.000000,0.000000,0.000000,0.000000
15823380.000000,-0.339763,0.635877,0.426017,-1.526646,-0.290357,2.100889,0.161907,0.042515,0.378318,-0.093077,-0.189776,-0.173663,0.552587,0.103671,0.153547,-39.588276,6.119492,17.733335,0.081876,1.825668,0.081344,0.000000,0.000000,0.000000,0.000000,0.000000,0.000000
15823381.000000,-0.339719,0.636243,0.425925,-1.526830,-0.290530,2.101436,0.162014,0.043300,0.373890,-0.093861,-0.191252,-0.176522,0.553164,0.106479,0.205121,-39.540668,6.067917,17.634153,0.046171,1.773483,0.067611,0.000000,0.000000,0.000000,0.000000,0.000000,0.000000
15823382.000000,-0.339675,0.636614,0.425825,-1.527019,-0.290709,2.101991,0.162115,0.041515,0.372340,-0.095826,-0.188494,-0.174873,0.551316,0.101574,0.228925,-39.441486,6.067917,17.534971,0.040677,1.767074,0.114303,0.000000,0.000000,0.000000,0.000000,0.000000,0.000000
15823383.000000,-0.339628,0.636986,0.425723,-1.527208,-0.290898,2.102527,0.162224,0.040601,0.370713,-0.097798,-0.189048,-0.174963,0.544071,0.103453,0.228925,-39.441486,6.095688,17.534971,0.076383,1.800033,0.133529,0.000000,0.000000,0.000000,0.000000,0.000000,0.000000
15823384.000000,-0.339584,0.637356,0.425631,-1.527388,-0.291078,2.103074,0.162341,0.041711,0.372330,-0.097847,-0.185502,-0.174860,0.542571,0.107495,0.276533,-39.318501,6.067917,17.511168,0.105680,1.832076,0.054794,0.000000,0.000000,0.000000,0.000000,0.000000,0.000000
15823385.000000,-0.339539,0.637728,0.425531,-1.527561,-0.291256,2.103618,0.162437,0.042752,0.370471,-0.096528,-0.177717,-0.174016,0.545248,0.106296,0.328107,-39.171711,6.119492,17.411985,0.117582,1.806442,0.114303,0.000000,0.000000,0.000000,0.000000,0.000000,0.000000
15823386.000000,-0.339497,0.638089,0.425432,-1.527741,-0.291432,2.104175,0.162543,0.040499,0.368124,-0.098076,-0.180216,-0.172568,0.552398,0.104361,0.375715,-38.977314,6.143295,17.388182,0.105680,1.754256,0.074935,0.000000,0.000000,0.000000,0.000000,0.000000,0.000000
15823387.000000,-0.339450,0.638461,0.425337,-1.527914,-0.291604,2.104721,0.162649,0.040610,0.364302,-0.101797,-0.179705,-0.175967,0.550128,0.105896,0.351911,-38.854328,6.143295,17.265196,0.088285,1.747848,0.087753,0.000000,0.000000,0.000000,0.000000,0.000000,0.000000
15823388.000000,-0.339408,0.638832,0.425244,-1.528089,-0.291784,2.105255,0.162759,0.041269,0.370480,-0.100663,-0.176747,-0.178029,0.548606,0.107204,0.427289,-38.806721,6.119492,17.166014,0.064481,1.767074,0.081344,0.000000,0.000000,0.000000,0.000000,0.000000,0.000000
15823389.000000,-0.339361,0.639210,0.425155,-1.528253,-0.291969,2.105796,0.162866,0.040613,0.368752,-0.098948,-0.173751,-0.179616,0.551116,0.108673,0.427289,-38.778950,6.044113,17.019224,0.027860,1.812850,0.081344,0.000000,0.000000,0.000000,0.000000,0.000000,0.000000
15823390.000000,-0.339319,0.639593,0.425056,-1.528419,-0.292161,2.106340,0.162972,0.042618,0.373459,-0.099923,-0.172176,-0.182416,0.549372,0.104281,0.451093,-38.878132,6.044113,16.920042,0.034269,1.832076,0.100570,0.000000,0.000000,0.000000,0.000000,0.000000,0.000000
15823391.000000,-0.339269,0.639967,0.424950,-1.528586,-0.292346,2.106886,0.163084,0.048809,0.375049,-0.099967,-0.171953,-0.184483,0.545877,0.107077,0.403486,-38.901936,6.167099,16.844664,0.040677,1.779891,0.087753,0.000000,0.000000,0.000000,0.000000,0.000000,0.000000
15823392.000000,-0.339231,0.640345,0.424852,-1.528760,-0.292526,2.107435,0.163184,0.043687,0.376898,-0.100425,-0.171474,-0.180899,0.538178,0.102092,0.502668,-39.001118,6.167099,16.892271,0.040677,1.708480,0.120712,0.000000,0.000000,0.000000,0.000000,0.000000,0.000000
15823393.000000,-0.339187,0.640722,0.424759,-1.528930,-0.292711,2.107980,0.163299,0.041219,0.377979,-0.099599,-0.169544,-0.178948,0.541288,0.102361,0.550275,-39.048725,6.143295,16.892271,0.069974,1.682845,0.054794,0.000000,0.000000,0.000000,0.000000,0.000000,0.000000
15823394.000000,-0.339143,0.641099,0.424662,-1.529094,-0.292892,2.108529,0.163399,0.043086,0.376166,-0.097324,-0.169447,-0.181173,0.542238,0.102771,0.574079,-39.124104,6.167099,16.943846,0.093778,1.702071,0.114303,0.000000,0.000000,0.000000,0.000000,0.000000,0.000000
15823395.000000,-0.339098,0.641485,0.424558,-1.529263,-0.293083,2.109084,0.163508,0.041940,0.378013,-0.099330,-0.167703,-0.182927,0.547804,0.101965,0.574079,-39.219318,6.218674,16.943846,0.093778,1.721298,0.081344,0.000000,0.000000,0.000000,0.000000,0.000000,0.000000
15823396.000000,-0.339052,0.641853,0.424459,-1.529435,-0.293275,2.109630,0.163615,0.041408,0.376561,-0.099141,-0.173651,-0.183694,0.547300,0.100216,0.550275,-39.171711,6.190903,17.019224,0.076383,1.735030,0.074935,0.000000,0.000000,0.000000,0.000000,0.000000,0.000000
15823397.000000,-0.339001,0.642240,0.424363,-1.529608,-0.293460,2.110174,0.163719,0.044779,0.380690,-0.098983,-0.173212,-0.179888,0.547653,0.104182,0.502668,-39.247089,6.167099,17.114439,0.064481,1.695663,0.054794,0.000000,0.000000,0.000000,0.000000,0.000000,0.000000
15823398.000000,-0.338958,0.642623,0.424264,-1.529777,-0.293646,2.110708,0.163820,0.042399,0.383235,-0.102495,-0.173562,-0.181340,0.553262,0.103450,0.526471,-39.247089,6.167099,17.114439,0.052579,1.708480,0.114303,0.000000,0.000000,0.000000,0.000000,0.000000,0.000000
15823399.000000,-0.338914,0.643008,0.424159,-1.529946,-0.293831,2.111240,0.163929,0.040100,0.384398,-0.105814,-0.173320,-0.184008,0.541473,0.104959,0.574079,-39.366108,6.218674,17.213621,0.069974,1.741439,0.120712,0.000000,0.000000,0.000000,0.000000,0.000000,0.000000
15823400.000000,-0.338868,0.643386,0.424056,-1.530112,-0.294014,2.111777,0.164039,0.042729,0.377116,-0.102745,-0.172130,-0.185246,0.532411,0.108369,0.574079,-39.294697,6.266281,17.166014,0.069974,1.767074,0.087753,0.000000,0.000000,0.000000,0.000000,0.000000,0.000000
15823401.000000,-0.338822,0.643773,0.423953,-1.530289,-0.294197,2.112297,0.164147,0.041969,0.384394,-0.102609,-0.170946,-0.186072,0.526557,0.108364,0.550275,-39.465290,6.290085,17.213621,0.076383,1.786300,0.100570,0.000000,0.000000,0.000000,0.000000,0.000000,0.000000
15823402.000000,-0.338776,0.644160,0.423852,-1.530458,-0.294387,2.112821,0.164256,0.042559,0.382189,-0.102945,-0.169555,-0.187259,0.525000,0.110334,0.601850,-39.489094,6.313889,17.241392,0.088285,1.825668,0.081344,0.000000,0.000000,0.000000,0.000000,0.000000,0.000000
15823403.000000,-0.338732,0.644552,0.423748,-1.530629,-0.294580,2.113356,0.164362,0.044039,0.387501,-0.102171,-0.168646,-0.187296,0.533350,0.109308,0.625654,-39.635883,6.313889,17.289000,0.076383,1.760665,0.107894,0.000000,0.000000,0.000000,0.000000,0.000000,0.000000
15823404.000000,-0.338684,0.644938,0.423643,-1.530792,-0.294771,2.113886,0.164473,0.045646,0.386291,-0.103052,-0.167143,-0.183629,0.535139,0.110525,0.625654,-39.711262,6.341660,17.289000,0.093778,1.682845,0.067611,0.000000,0.000000,0.000000,0.000000,0.000000,0.000000
15823405.000000,-0.338637,0.645322,0.423539,-1.530965,-0.294955,2.114417,0.164575,0.043783,0.383700,-0.102845,-0.170578,-0.185934,0.531842,0.104201,0.625654,-39.758869,6.365463,17.340574,0.117582,1.695663,0.127120,0.000000,0.000000,0.000000,0.000000,0.000000,0.000000
15823406.000000,-0.338594,0.645710,0.423439,-1.531144,-0.295135,2.114924,0.164692,0.041130,0.386054,-0.098296,-0.173222,-0.180843,0.528257,0.108490,0.673261,-39.810444,6.341660,17.411985,0.100187,1.773483,0.067611,0.000000,0.000000,0.000000,0.000000,0.000000,0.000000
15823407.000000,-0.338545,0.646096,0.423331,-1.531310,-0.295311,2.115453,0.164800,0.044114,0.383354,-0.100026,-0.170518,-0.181788,0.527049,0.109899,0.649457,-39.810444,6.389267,17.411985,0.076383,1.806442,0.061202,0.000000,0.000000,0.000000,0.000000,0.000000,0.000000
15823408.000000,-0.338499,0.646484,0.423222,-1.531484,-0.295494,2.115984,0.164901,0.045086,0.385322,-0.101544,-0.169225,-0.178502,0.528049,0.103032,0.673261,-39.711262,6.436874,17.463560,0.064481,1.793624,0.127120,0.000000,0.000000,0.000000,0.000000,0.000000,0.000000
15823409.000000,-0.338455,0.646859,0.423116,-1.531657,-0.295683,2.116513,0.165016,0.045742,0.380127,-0.102371,-0.172932,-0.181327,0.533425,0.107380,0.697065,-39.564472,6.488449,17.562742,0.064481,1.786300,0.081344,0.000000,0.000000,0.000000,0.000000,0.000000,0.000000
15823410.000000,-0.338415,0.647251,0.423017,-1.531838,-0.295865,2.117036,0.165129,0.044644,0.382920,-0.101201,-0.173089,-0.183225,0.530381,0.114490,0.796247,-39.489094,6.460678,17.685728,0.064481,1.793624,0.054794,0.000000,0.000000,0.000000,0.000000,0.000000,0.000000
15823411.000000,-0.338369,0.647628,0.422910,-1.532015,-0.296053,2.117547,0.165240,0.045058,0.379632,-0.102038,-0.174814,-0.185495,0.527973,0.112351,0.847822,-39.393879,6.512253,17.757139,0.093778,1.844894,0.081344,0.000000,0.000000,0.000000,0.000000,0.000000,0.000000
15823412.000000,-0.338324,0.648016,0.422803,-1.532189,-0.296241,2.118068,0.165351,0.045520,0.381728,-0.099689,-0.173340,-0.191607,0.525158,0.111357,0.895429,-39.366108,6.536057,17.832518,0.141385,1.930038,0.114303,0.000000,0.000000,0.000000,0.000000,0.000000,0.000000
15823413.000000,-0.338278,0.648409,0.422695,-1.532357,-0.296425,2.118604,0.165466,0.047017,0.382653,-0.100866,-0.170675,-0.190985,0.523289,0.113137,0.895429,-39.441486,6.583664,17.856321,0.147794,1.890670,0.081344,0.000000,0.000000,0.000000,0.000000,0.000000,0.000000
15823414.000000,-0.338232,0.648798,0.422585,-1.532525,-0.296605,2.119138,0.165575,0.044758,0.383630,-0.101252,-0.172541,-0.187465,0.527841,0.112154,0.895429,-39.540668,6.611435,17.931700,0.076383,1.806442,0.094161,0.000000,0.000000,0.000000,0.000000,0.000000,0.000000
15823415.000000,-0.338187,0.649189,0.422479,-1.532699,-0.296791,2.119662,0.165689,0.045268,0.378889,-0.104106,-0.174753,-0.190966,0.522521,0.113394,0.923200,-39.588276,6.611435,18.007078,0.027860,1.806442,0.067611,0.000000,0.000000,0.000000,0.000000,0.000000,0.000000
15823416.000000,-0.338141,0.649585,0.422369,-1.532876,-0.296987,2.120178,0.165795,0.046084,0.390618,-0.103417,-0.172961,-0.195820,0.533102,0.111011,0.947004,-39.687458,6.635239,18.078489,0.046171,1.865035,0.107894,0.000000,0.000000,0.000000,0.000000,0.000000,0.000000
15823417.000000,-0.338104,0.649971,0.422260,-1.533041,-0.297183,2.120703,0.165905,0.040652,0.386869,-0.106851,-0.170281,-0.195409,0.530231,0.112246,1.093793,-39.687458,6.706650,18.078489,0.076383,1.909896,0.074935,0.000000,0.000000,0.000000,0.000000,0.000000,0.000000
15823418.000000,-0.338060,0.650366,0.422150,-1.533213,-0.297378,2.121235,0.166009,0.042184,0.388578,-0.110489,-0.170025,-0.200590,0.530317,0.111748,1.145368,-39.758869,6.782028,18.153868,0.129484,1.897079,0.094161,0.000000,0.000000,0.000000,0.000000,0.000000,0.000000
