chaoyuefei/paper-gmrm-data/robot_logs/s2_dq_gmrm_xz_max_0.50_log_20260314_175059.csv
# time_ms,q_0,q_1,q_2,q_3,q_4,q_5,q_6,dq_0,dq_1,dq_2,dq_3,dq_4,dq_5,dq_6,tau_J_0,tau_J_1,tau_J_2,tau_J_3,tau_J_4,tau_J_5,tau_J_6,O_dP_EE_c_0,O_dP_EE_c_1,O_dP_EE_c_2,O_dP_EE_c_3,O_dP_EE_c_4,O_dP_EE_c_5
13321041.000000,-0.258962,0.525634,0.336246,-1.429375,-0.177847,1.925871,0.097035,0.000602,0.000739,-0.000174,-0.000535,-0.000087,0.000234,-0.000580,-0.044818,-39.072529,4.647629,19.562254,0.984586,1.324874,-0.142960,0.000000,0.000000,0.000000,0.000000,0.000000,0.000000
13321042.000000,-0.258962,0.525631,0.336247,-1.429375,-0.177847,1.925870,0.097038,0.000401,-0.000621,0.000533,-0.000357,0.000383,-0.000319,0.000360,-0.044818,-39.024921,4.619858,19.562254,0.972684,1.337692,-0.163102,0.000000,0.000000,0.000000,0.000000,0.000000,0.000000
13321043.000000,-0.258965,0.525634,0.336247,-1.429375,-0.177845,1.925870,0.097037,-0.000939,0.000700,-0.000294,-0.000238,0.000255,0.000025,-0.000032,0.006757,-39.072529,4.647629,19.562254,0.972684,1.331283,-0.155778,0.000000,0.000000,0.000000,0.000000,0.000000,0.000000
13321044.000000,-0.258962,0.525633,0.336244,-1.429377,-0.177849,1.925870,0.097033,0.000581,-0.000090,-0.000753,-0.000808,-0.000271,-0.000221,-0.001242,-0.044818,-39.048725,4.671432,19.590025,0.984586,1.337692,-0.122819,0.000000,0.000000,0.000000,0.000000,0.000000,0.000000
13321045.000000,-0.258987,0.525632,0.336242,-1.429374,-0.177849,1.925870,0.097038,-0.020987,0.007982,-0.013841,-0.004942,-0.012135,0.001040,0.003525,-0.465350,-38.461567,4.032700,19.240904,0.925077,1.305648,-0.110001,0.000000,0.000000,0.000000,0.000000,0.000000,0.000000
13321046.000000,-0.259012,0.525625,0.336223,-1.429378,-0.177828,1.925867,0.097061,-0.039943,0.020409,-0.034973,-0.015326,-0.004512,0.000930,0.013611,-2.568011,-36.406513,2.045089,18.229246,0.542386,1.299239,-0.149369,0.000000,0.000000,0.000000,0.000000,0.000000,0.000000
13321047.000000,-0.259040,0.525645,0.336140,-1.429400,-0.177808,1.925862,0.097085,-0.032847,0.027700,-0.049835,-0.024025,0.003592,0.000620,0.021865,-6.134600,-33.248554,-0.751846,16.523314,0.064481,1.299239,-0.083451,0.000000,0.000000,0.000000,0.000000,0.000000,0.000000
13321048.000000,-0.259094,0.525700,0.336013,-1.429423,-0.177826,1.925861,0.097131,-0.017716,0.025722,-0.058313,-0.027898,-0.003991,0.008851,0.031849,-9.550433,-29.820820,-3.330582,14.051695,-0.072848,1.324874,-0.116410,0.000000,0.000000,0.000000,0.000000,0.000000,0.000000
13321049.000000,-0.259170,0.525775,0.335870,-1.429489,-0.177888,1.925861,0.097184,-0.018145,0.030209,-0.063859,-0.036635,-0.027438,0.007015,0.038212,-11.553912,-26.785847,-5.219009,11.679258,0.154203,1.442062,-0.116410,0.000000,0.000000,0.000000,0.000000,0.000000,0.000000
13321050.000000,-0.259258,0.525869,0.335752,-1.429590,-0.177968,1.925919,0.097238,-0.028117,0.038287,-0.062041,-0.053192,-0.051554,0.031273,0.041075,-12.149005,-24.167439,-6.302078,9.651976,0.476469,1.129867,-0.070634,0.000000,0.000000,0.000000,0.000000,0.000000,0.000000
13321051.000000,-0.259325,0.525969,0.335651,-1.429704,-0.178057,1.926057,0.097294,-0.034227,0.052096,-0.065789,-0.065659,-0.070431,0.070557,0.046033,-12.002215,-21.937824,-6.421097,7.747679,0.715421,0.226241,0.028243,0.000000,0.000000,0.000000,0.000000,0.000000,0.000000
13321052.000000,-0.259372,0.526076,0.335597,-1.429812,-0.178147,1.926232,0.097369,-0.034401,0.064548,-0.060347,-0.074919,-0.076750,0.108248,0.054331,-11.355548,-20.275532,-6.226700,5.843382,0.757535,-0.723161,0.015426,0.000000,0.000000,0.000000,0.000000,0.000000,0.000000
13321053.000000,-0.259413,0.526177,0.335571,-1.429915,-0.178223,1.926374,0.097441,-0.041300,0.076059,-0.052325,-0.079714,-0.075394,0.121165,0.063630,-10.145526,-18.708454,-5.687149,4.089842,0.500272,-1.049088,0.048385,0.000000,0.000000,0.000000,0.000000,0.000000,0.000000
13321054.000000,-0.259434,0.526281,0.335562,-1.430025,-0.178304,1.926488,0.097531,-0.039497,0.086791,-0.042583,-0.087968,-0.074896,0.119230,0.069264,-8.955340,-17.339741,-4.925430,2.681456,0.105680,-0.658158,-0.017533,0.000000,0.000000,0.000000,0.000000,0.000000,0.000000
13321055.000000,-0.259438,0.526369,0.335567,-1.430152,-0.178399,1.926621,0.097627,-0.035043,0.087572,-0.034682,-0.099205,-0.078596,0.122045,0.078902,-7.939715,-15.844074,-4.116104,1.665831,-0.216586,-0.066727,-0.110001,0.000000,0.000000,0.000000,0.000000,0.000000,0.000000
13321056.000000,-0.259448,0.526421,0.335563,-1.430291,-0.178494,1.926799,0.097709,-0.031667,0.075314,-0.030735,-0.110709,-0.083372,0.135839,0.079929,-6.876482,-14.058796,-3.159989,1.098509,-0.497653,0.284835,-0.023942,0.000000,0.000000,0.000000,0.000000,0.000000,0.000000
13321057.000000,-0.259477,0.526446,0.335554,-1.430485,-0.178603,1.927041,0.097815,-0.035534,0.062857,-0.030987,-0.136826,-0.087068,0.173772,0.087295,-5.638690,-12.027546,-2.152298,1.372252,-0.646884,0.277511,-0.122819,0.000000,0.000000,0.000000,0.000000,0.000000,0.000000
13321058.000000,-0.259507,0.526466,0.335526,-1.430697,-0.178749,1.927316,0.097915,-0.039026,0.047655,-0.034847,-0.164713,-0.103484,0.211232,0.089097,-4.476275,-9.996296,-1.073197,2.014952,-0.431735,0.115462,-0.130143,0.000000,0.000000,0.000000,0.000000,0.000000,0.000000
13321059.000000,-0.259549,0.526498,0.335491,-1.430926,-0.178926,1.927593,0.098011,-0.040573,0.045284,-0.041772,-0.191299,-0.128191,0.231924,0.092688,-3.337664,-8.353840,-0.065506,2.705260,0.027860,0.167648,-0.070634,0.000000,0.000000,0.000000,0.000000,0.000000,0.000000
13321060.000000,-0.259610,0.526559,0.335451,-1.431154,-0.179108,1.927875,0.098111,-0.050709,0.048993,-0.045656,-0.200972,-0.152076,0.239407,0.091401,-2.072100,-7.203327,0.767624,3.173399,0.422452,0.434066,-0.023942,0.000000,0.000000,0.000000,0.000000,0.000000,0.000000
13321061.000000,-0.259677,0.526644,0.335420,-1.431372,-0.179279,1.928188,0.098214,-0.059768,0.061868,-0.040684,-0.210344,-0.162242,0.260321,0.095240,-0.862078,-6.544758,1.259567,3.347960,0.625699,0.570480,0.021835,0.000000,0.000000,0.000000,0.000000,0.000000,0.000000
13321062.000000,-0.259728,0.526757,0.335394,-1.431604,-0.179423,1.928529,0.098335,-0.057855,0.076438,-0.035676,-0.215775,-0.156003,0.280075,0.103037,-0.017047,-6.298786,1.529343,3.470946,0.470060,0.583297,-0.077042,0.000000,0.000000,0.000000,0.000000,0.000000,0.000000
13321063.000000,-0.259759,0.526876,0.335390,-1.431837,-0.179543,1.928913,0.098441,-0.046439,0.091885,-0.024177,-0.220439,-0.144539,0.318092,0.098656,0.375715,-6.076618,1.430160,3.324156,0.088285,0.486251,-0.017533,0.000000,0.000000,0.000000,0.000000,0.000000,0.000000
13321064.000000,-0.259796,0.527019,0.335376,-1.432075,-0.179661,1.929312,0.098559,-0.041217,0.112983,-0.019231,-0.225842,-0.131609,0.344430,0.104265,0.724836,-6.076618,1.430160,3.101988,-0.318209,0.434066,-0.050492,0.000000,0.000000,0.000000,0.000000,0.000000,0.000000
13321065.000000,-0.259833,0.527159,0.335357,-1.432314,-0.179781,1.929720,0.098678,-0.040800,0.123417,-0.020507,-0.226449,-0.126949,0.362377,0.107677,1.046186,-6.005207,1.481735,2.729063,-0.616671,0.524703,-0.083451,0.000000,0.000000,0.000000,0.000000,0.000000,0.000000
13321066.000000,-0.259875,0.527293,0.335331,-1.432581,-0.179932,1.930145,0.098792,-0.038111,0.126033,-0.021634,-0.238915,-0.131521,0.379922,0.108456,1.367536,-5.735432,1.652328,2.558470,-0.580966,0.662032,-0.077042,0.000000,0.000000,0.000000,0.000000,0.000000,0.000000
13321067.000000,-0.259915,0.527405,0.335302,-1.432871,-0.180116,1.930606,0.098908,-0.036458,0.120865,-0.022931,-0.252593,-0.144464,0.407385,0.112353,1.688886,-5.172077,1.846725,2.558470,-0.258700,0.674850,-0.023942,0.000000,0.000000,0.000000,0.000000,0.000000,0.000000
13321068.000000,-0.259946,0.527505,0.335265,-1.433186,-0.180308,1.931109,0.099029,-0.032084,0.114031,-0.028742,-0.267489,-0.162929,0.439278,0.117620,1.863447,-4.338947,2.116501,2.780638,0.100187,0.499068,-0.031266,0.000000,0.000000,0.000000,0.000000,0.000000,0.000000
13321069.000000,-0.259986,0.527609,0.335239,-1.433513,-0.180497,1.931644,0.099154,-0.034647,0.109222,-0.027832,-0.287197,-0.169983,0.469561,0.120676,2.133222,-3.482014,2.168075,2.979002,0.405057,0.271102,-0.023942,0.000000,0.000000,0.000000,0.000000,0.000000,0.000000
13321070.000000,-0.260015,0.527724,0.335219,-1.433843,-0.180669,1.932193,0.099267,-0.032753,0.113709,-0.023932,-0.299142,-0.170527,0.490608,0.116582,2.232404,-2.799641,2.068893,2.979002,0.476469,0.167648,0.034652,0.000000,0.000000,0.000000,0.000000,0.000000,0.000000
13321071.000000,-0.260037,0.527862,0.335206,-1.434166,-0.180818,1.932744,0.099397,-0.029391,0.117089,-0.019298,-0.306796,-0.162052,0.504728,0.123142,2.232404,-2.383076,1.874496,2.756834,0.291532,0.271102,-0.031266,0.000000,0.000000,0.000000,0.000000,0.000000,0.000000
13321072.000000,-0.260047,0.528013,0.335199,-1.434488,-0.180962,1.933291,0.099518,-0.026567,0.128032,-0.016660,-0.306899,-0.152985,0.513542,0.125278,2.061811,-2.212483,1.553146,2.260924,0.010465,0.576888,-0.031266,0.000000,0.000000,0.000000,0.000000,0.000000,0.000000
13321073.000000,-0.260051,0.528180,0.335187,-1.434820,-0.181093,1.933861,0.099635,-0.018924,0.141358,-0.016838,-0.311642,-0.143744,0.524764,0.126327,1.764264,-2.160908,1.307175,1.792784,-0.365817,0.895492,-0.004716,0.000000,0.000000,0.000000,0.000000,0.000000,0.000000
13321074.000000,-0.260065,0.528363,0.335170,-1.435155,-0.181230,1.934480,0.099761,-0.017988,0.153000,-0.015956,-0.315569,-0.142018,0.549663,0.124799,1.641279,-2.160908,1.136581,1.320677,-0.629489,0.798446,-0.056901,0.000000,0.000000,0.000000,0.000000,0.000000,0.000000
13321075.000000,-0.260081,0.528558,0.335152,-1.435500,-0.181396,1.935145,0.099871,-0.018529,0.167449,-0.013177,-0.320439,-0.145252,0.584494,0.119557,1.565900,-2.212483,1.013595,0.927916,-0.641390,0.459701,0.001693,0.000000,0.000000,0.000000,0.000000,0.000000,0.000000
13321076.000000,-0.260099,0.528764,0.335130,-1.435853,-0.181580,1.935803,0.099990,-0.020047,0.175105,-0.012857,-0.335482,-0.155164,0.617758,0.118058,1.542096,-2.307698,0.965988,0.554991,-0.443636,0.219833,0.001693,0.000000,0.000000,0.000000,0.000000,0.000000,0.000000
13321077.000000,-0.260116,0.528974,0.335103,-1.436215,-0.181777,1.936496,0.100108,-0.017895,0.184848,-0.017730,-0.340682,-0.166910,0.638361,0.116637,1.514325,-2.430683,1.013595,0.233641,-0.103060,0.044051,0.009017,0.000000,0.000000,0.000000,0.000000,0.000000,0.000000
13321078.000000,-0.260128,0.529208,0.335081,-1.436575,-0.181969,1.937209,0.100225,-0.015282,0.200301,-0.015107,-0.345449,-0.181519,0.659322,0.114894,1.442914,-2.652851,0.942184,-0.286073,0.171598,-0.066727,0.034652,0.000000,0.000000,0.000000,0.000000,0.000000,0.000000
13321079.000000,-0.260140,0.529443,0.335065,-1.436940,-0.182138,1.937934,0.100343,-0.015758,0.210096,-0.014500,-0.349404,-0.182930,0.681510,0.118191,1.343732,-2.724262,0.791427,-0.706606,0.201810,-0.177506,0.054794,0.000000,0.000000,0.000000,0.000000,0.000000,0.000000
13321080.000000,-0.260135,0.529676,0.335050,-1.437328,-0.182290,1.938690,0.100463,-0.011548,0.216762,-0.014390,-0.361397,-0.170783,0.705259,0.117680,1.046186,-2.724262,0.644638,-1.000185,0.004056,-0.261735,0.021835,0.000000,0.000000,0.000000,0.000000,0.000000,0.000000
13321081.000000,-0.260127,0.529911,0.335029,-1.437731,-0.182434,1.939459,0.100584,-0.004472,0.221672,-0.015538,-0.373226,-0.168036,0.714975,0.118625,0.697065,-2.601277,0.549423,-1.174745,-0.282504,-0.236100,-0.023942,0.000000,0.000000,0.000000,0.000000,0.000000,0.000000
13321082.000000,-0.260120,0.530159,0.335008,-1.438138,-0.182587,1.940219,0.100696,-0.001999,0.233024,-0.016876,-0.381187,-0.164741,0.725674,0.115071,0.451093,-2.430683,0.474045,-1.349306,-0.527865,-0.014542,0.028243,0.000000,0.000000,0.000000,0.000000,0.000000,0.000000
13321083.000000,-0.260129,0.530413,0.334983,-1.438562,-0.182759,1.941007,0.100814,-0.002814,0.238452,-0.018353,-0.392698,-0.165137,0.747974,0.116340,0.451093,-2.331501,0.426437,-1.396913,-0.580966,0.167648,-0.017533,0.000000,0.000000,0.000000,0.000000,0.000000,0.000000
13321084.000000,-0.260152,0.530671,0.334955,-1.439008,-0.182933,1.941815,0.100921,-0.006514,0.244632,-0.021404,-0.407361,-0.165695,0.757853,0.112903,0.601850,-2.184712,0.450241,-1.321535,-0.497653,0.212508,0.048385,0.000000,0.000000,0.000000,0.000000,0.000000,0.000000
13321085.000000,-0.260174,0.530946,0.334920,-1.439474,-0.183115,1.942667,0.101039,-0.012352,0.252582,-0.024927,-0.426136,-0.168114,0.778855,0.113305,0.772443,-2.160908,0.549423,-1.150941,-0.336520,0.134689,0.048385,0.000000,0.000000,0.000000,0.000000,0.000000,0.000000
13321086.000000,-0.260198,0.531232,0.334890,-1.439962,-0.183299,1.943549,0.101153,-0.019478,0.259807,-0.028655,-0.442556,-0.174271,0.808035,0.109810,0.947004,-2.212483,0.573227,-0.877199,-0.150668,-0.073136,0.015426,0.000000,0.000000,0.000000,0.000000,0.000000,0.000000
13321087.000000,-0.260221,0.531541,0.334854,-1.440452,-0.183474,1.944443,0.101260,-0.020286,0.277153,-0.032602,-0.462113,-0.175403,0.831510,0.108353,1.069990,-2.454487,0.644638,-0.678835,-0.067355,-0.307511,0.067611,0.000000,0.000000,0.000000,0.000000,0.000000,0.000000
13321088.000000,-0.260243,0.531867,0.334821,-1.440951,-0.183641,1.945351,0.101383,-0.020704,0.294695,-0.034209,-0.467867,-0.170539,0.847486,0.111397,1.192975,-2.823445,0.668442,-0.655031,-0.133273,-0.320329,0.021835,0.000000,0.000000,0.000000,0.000000,0.000000,0.000000
13321089.000000,-0.260258,0.532199,0.334791,-1.441458,-0.183809,1.946243,0.101497,-0.018621,0.307632,-0.031125,-0.478855,-0.172049,0.877098,0.116904,1.216779,-3.188435,0.644638,-0.678835,-0.204684,-0.138139,0.034652,0.000000,0.000000,0.000000,0.000000,0.000000,0.000000
13321090.000000,-0.260274,0.532535,0.334755,-1.441990,-0.183975,1.947180,0.101610,-0.017879,0.318483,-0.032854,-0.496370,-0.170519,0.892438,0.115225,1.268354,-3.509785,0.644638,-0.706606,-0.353915,0.011092,0.054794,0.000000,0.000000,0.000000,0.000000,0.000000,0.000000
13321091.000000,-0.260296,0.532873,0.334714,-1.442559,-0.184140,1.948133,0.101730,-0.019028,0.322392,-0.035763,-0.515269,-0.162047,0.903667,0.116219,1.391340,-3.656574,0.720016,-0.508241,-0.461947,0.037643,0.015426,0.000000,0.000000,0.000000,0.000000,0.000000,0.000000
13321092.000000,-0.260330,0.533210,0.334668,-1.443138,-0.184308,1.949113,0.101836,-0.026458,0.327259,-0.038980,-0.536391,-0.163886,0.921590,0.112146,1.665082,-3.656574,0.843002,-0.262270,-0.479342,-0.041093,0.094161,0.000000,0.000000,0.000000,0.000000,0.000000,0.000000
13321093.000000,-0.260364,0.533548,0.334619,-1.443745,-0.184488,1.950113,0.101955,-0.029085,0.332733,-0.041185,-0.558130,-0.163432,0.940390,0.114231,1.962629,-3.533589,0.965988,0.011473,-0.407931,-0.085954,0.061202,0.000000,0.000000,0.000000,0.000000,0.000000,0.000000
13321094.000000,-0.260404,0.533894,0.334567,-1.444361,-0.184669,1.951125,0.102075,-0.034439,0.333432,-0.046173,-0.584831,-0.165459,0.978318,0.110937,2.283979,-3.410603,1.088974,0.309019,-0.270602,-0.001725,0.015426,0.000000,0.000000,0.000000,0.000000,0.000000,0.000000
13321095.000000,-0.260438,0.534250,0.334511,-1.444998,-0.184853,1.952139,0.102181,-0.032775,0.349456,-0.050636,-0.599808,-0.169488,0.987473,0.113113,2.506147,-3.335224,1.259567,0.531187,-0.180880,0.154830,0.094161,0.000000,0.000000,0.000000,0.000000,0.000000,0.000000
13321096.000000,-0.260481,0.534613,0.334452,-1.445657,-0.185033,1.953184,0.102297,-0.035911,0.353321,-0.053852,-0.614214,-0.173801,1.003326,0.114507,2.779890,-3.212239,1.430160,0.677977,-0.174471,0.167648,0.061202,0.000000,0.000000,0.000000,0.000000,0.000000,0.000000
13321097.000000,-0.260521,0.534991,0.334397,-1.446305,-0.185207,1.954237,0.102414,-0.040176,0.356672,-0.053958,-0.624719,-0.173441,1.020886,0.115407,3.002058,-3.287617,1.505539,0.729552,-0.270602,0.076095,0.034652,0.000000,0.000000,0.000000,0.000000,0.000000,0.000000
13321098.000000,-0.260551,0.535373,0.334342,-1.446971,-0.185378,1.955297,0.102533,-0.035377,0.357848,-0.051666,-0.630614,-0.169472,1.026150,0.119231,3.002058,-3.922383,1.604721,1.122313,-0.342013,0.017501,0.021835,0.000000,0.000000,0.000000,0.000000,0.000000,0.000000
13321099.000000,-0.260588,0.535768,0.334291,-1.447634,-0.185546,1.956379,0.102643,-0.034981,0.362920,-0.049785,-0.632466,-0.172171,1.038116,0.115678,3.002058,-5.489460,1.699936,1.939574,-0.377719,-0.001725,0.074935,0.000000,0.000000,0.000000,0.000000,0.000000,0.000000
13321100.000000,-0.260634,0.536163,0.334241,-1.448278,-0.185717,1.957444,0.102763,-0.036836,0.374419,-0.049653,-0.629088,-0.168792,1.043721,0.116221,3.073469,-7.695271,1.846725,3.272581,-0.330111,0.096236,0.061202,0.000000,0.000000,0.000000,0.000000,0.000000,0.000000
13321101.000000,-0.260686,0.536534,0.334183,-1.448916,-0.185902,1.958525,0.102879,-0.042598,0.375354,-0.052213,-0.629615,-0.170104,1.047278,0.115358,3.200422,-10.020100,2.116501,4.978514,-0.168978,0.264693,0.067611,0.000000,0.000000,0.000000,0.000000,0.000000,0.000000
13321102.000000,-0.260723,0.536892,0.334124,-1.449545,-0.186085,1.959599,0.102997,-0.038104,0.368711,-0.055556,-0.632333,-0.176719,1.054355,0.114410,3.073469,-12.368732,2.437851,6.981993,0.022367,0.401107,0.074935,0.000000,0.000000,0.000000,0.000000,0.000000,0.000000
13321103.000000,-0.260760,0.537231,0.334062,-1.450183,-0.186266,1.960662,0.103118,-0.038131,0.365457,-0.060383,-0.640619,-0.178067,1.053457,0.114825,2.950483,-14.475361,2.755234,9.179869,0.135892,0.713302,0.054794,0.000000,0.000000,0.000000,0.000000,0.000000,0.000000
13321104.000000,-0.260791,0.537574,0.334003,-1.450811,-0.186443,1.961731,0.103231,-0.036181,0.361275,-0.058397,-0.637005,-0.174664,1.057487,0.116823,2.728315,-16.407429,2.977401,11.183348,0.123990,1.031905,0.114303,0.000000,0.000000,0.000000,0.000000,0.000000,0.000000
13321105.000000,-0.260815,0.537936,0.333942,-1.451422,-0.186618,1.962786,0.103359,-0.031344,0.363225,-0.057587,-0.633221,-0.173266,1.058508,0.118614,2.482343,-18.315693,3.223373,12.742491,0.135892,1.175643,0.041976,0.000000,0.000000,0.000000,0.000000,0.000000,0.000000
13321106.000000,-0.260836,0.538294,0.333879,-1.452035,-0.186797,1.963834,0.103475,-0.026929,0.362736,-0.055684,-0.629236,-0.176215,1.046263,0.116604,2.184797,-20.104939,3.417770,14.027891,0.129484,1.454879,0.054794,0.000000,0.000000,0.000000,0.000000,0.000000,0.000000
13321107.000000,-0.260856,0.538667,0.333820,-1.452646,-0.186967,1.964849,0.103596,-0.024329,0.368308,-0.055624,-0.625753,-0.171738,1.051853,0.121664,1.911054,-21.767231,3.540756,15.063353,0.058073,1.773483,0.028243,0.000000,0.000000,0.000000,0.000000,0.000000,0.000000
13321108.000000,-0.260866,0.539053,0.333753,-1.453264,-0.187148,1.965902,0.103718,-0.017774,0.378192,-0.060675,-0.622855,-0.171137,1.048929,0.119151,1.565900,-23.358112,3.715317,15.781431,0.058073,1.806442,0.034652,0.000000,0.000000,0.000000,0.000000,0.000000,0.000000
13321109.000000,-0.260881,0.539457,0.333675,-1.453875,-0.187336,1.966948,0.103838,-0.015977,0.385873,-0.066406,-0.616753,-0.177558,1.038486,0.116438,1.343732,-24.948994,3.985092,16.150389,0.112089,1.767074,0.074935,0.000000,0.000000,0.000000,0.000000,0.000000,0.000000
13321110.000000,-0.260897,0.539883,0.333600,-1.454467,-0.187530,1.967979,0.103970,-0.015130,0.396506,-0.072502,-0.608354,-0.186980,1.043478,0.116912,1.145368,-26.539875,4.203293,16.277342,0.166105,1.662704,0.034652,0.000000,0.000000,0.000000,0.000000,0.000000,0.000000
13321111.000000,-0.260908,0.540316,0.333520,-1.455067,-0.187734,1.969020,0.104092,-0.014356,0.405155,-0.072884,-0.600816,-0.189869,1.038631,0.119521,0.947004,-27.936359,4.377853,16.201963,0.255826,1.559249,0.061202,0.000000,0.000000,0.000000,0.000000,0.000000,0.000000
13321112.000000,-0.260905,0.540766,0.333448,-1.455658,-0.187939,1.970051,0.104213,-0.009587,0.421211,-0.074216,-0.612800,-0.196755,1.053604,0.122253,0.574079,-29.356647,4.449265,16.102781,0.339139,1.494247,0.074935,0.000000,0.000000,0.000000,0.000000,0.000000,0.000000
13321113.000000,-0.260906,0.541218,0.333371,-1.456259,-0.188139,1.971072,0.104335,-0.006175,0.437093,-0.073324,-0.611047,-0.194247,1.041296,0.122910,0.328107,-30.578571,4.572250,16.055174,0.344633,1.448470,0.120712,0.000000,0.000000,0.000000,0.000000,0.000000,0.000000
13321114.000000,-0.260896,0.541680,0.333295,-1.456861,-0.188338,1.972109,0.104467,-0.003757,0.444352,-0.071089,-0.598906,-0.196561,1.031478,0.127853,-0.044818,-31.756855,4.619858,15.955992,0.332731,1.377059,0.054794,0.000000,0.000000,0.000000,0.000000,0.000000,0.000000
13321115.000000,-0.260882,0.542151,0.333222,-1.457460,-0.188524,1.973130,0.104590,0.000919,0.451207,-0.075348,-0.598943,-0.191476,1.031407,0.123056,-0.413775,-32.709003,4.647629,15.928221,0.255826,1.396285,0.074935,0.000000,0.000000,0.000000,0.000000,0.000000,0.000000
13321116.000000,-0.260863,0.542605,0.333160,-1.458082,-0.188723,1.974148,0.104717,0.005575,0.452874,-0.071766,-0.606918,-0.192856,1.022750,0.121529,-0.834307,-33.466755,4.500839,16.102781,0.195402,1.494247,0.054794,0.000000,0.000000,0.000000,0.000000,0.000000,0.000000
13321117.000000,-0.260844,0.543074,0.333090,-1.458703,-0.188928,1.975168,0.104841,0.010270,0.459834,-0.068381,-0.610193,-0.199774,1.022326,0.125445,-1.183428,-34.204670,4.449265,16.301146,0.183500,1.578475,0.028243,0.000000,0.000000,0.000000,0.000000,0.000000,0.000000
13321118.000000,-0.260829,0.543552,0.333019,-1.459312,-0.189133,1.976173,0.104964,0.011947,0.471852,-0.070595,-0.608779,-0.202436,1.014477,0.125406,-1.453204,-35.010029,4.449265,16.471739,0.201810,1.637069,0.067611,0.000000,0.000000,0.000000,0.000000,0.000000,0.000000
13321119.000000,-0.260818,0.544031,0.332953,-1.459933,-0.189338,1.977187,0.105093,0.011141,0.474202,-0.069431,-0.612707,-0.201050,1.004162,0.123835,-1.627764,-35.696369,4.350082,16.622496,0.261320,1.611434,0.028243,0.000000,0.000000,0.000000,0.000000,0.000000,0.000000
13321120.000000,-0.260815,0.544523,0.332893,-1.460558,-0.189539,1.978197,0.105214,0.007953,0.490333,-0.065291,-0.619598,-0.200112,1.003081,0.122072,-1.679339,-36.505695,4.227097,16.920042,0.327238,1.597701,0.127120,0.000000,0.000000,0.000000,0.000000,0.000000,0.000000
13321121.000000,-0.260808,0.545023,0.332835,-1.461184,-0.189738,1.979211,0.105345,0.013029,0.492083,-0.061102,-0.625707,-0.197600,1.001553,0.121771,-1.750750,-37.334858,4.056503,17.114439,0.356534,1.624252,0.087753,0.000000,0.000000,0.000000,0.000000,0.000000,0.000000
13321122.000000,-0.260799,0.545554,0.332777,-1.461819,-0.189935,1.980230,0.105474,0.012625,0.506573,-0.061824,-0.624030,-0.198918,1.009813,0.125631,-1.778521,-38.461567,3.909714,17.340574,0.332731,1.624252,0.054794,0.000000,0.000000,0.000000,0.000000,0.000000,0.000000
13321123.000000,-0.260796,0.546092,0.332720,-1.462434,-0.190130,1.981244,0.105596,0.010194,0.508671,-0.059442,-0.619066,-0.192924,1.016185,0.124805,-1.703143,-39.465290,3.762924,17.388182,0.249418,1.513473,0.107894,0.000000,0.000000,0.000000,0.000000,0.000000,0.000000
13321124.000000,-0.260788,0.546622,0.332671,-1.463068,-0.190325,1.982257,0.105725,0.009935,0.517394,-0.055723,-0.623606,-0.189135,1.004840,0.127743,-1.679339,-40.274616,3.540756,17.562742,0.183500,1.494247,0.081344,0.000000,0.000000,0.000000,0.000000,0.000000,0.000000
13321125.000000,-0.260777,0.547154,0.332619,-1.463696,-0.190518,1.983268,0.105849,0.010981,0.517568,-0.055249,-0.639634,-0.193394,1.020717,0.124532,-1.703143,-40.984760,3.417770,17.832518,0.166105,1.474105,0.087753,0.000000,0.000000,0.000000,0.000000,0.000000,0.000000
13321126.000000,-0.260777,0.547682,0.332568,-1.464328,-0.190710,1.984284,0.105977,0.008918,0.521287,-0.056047,-0.635455,-0.192260,1.018820,0.127388,-1.603961,-41.520344,3.322555,18.078489,0.159696,1.507064,0.061202,0.000000,0.000000,0.000000,0.000000,0.000000,0.000000
13321127.000000,-0.260775,0.548214,0.332516,-1.464968,-0.190904,1.985303,0.106098,0.005020,0.521651,-0.057216,-0.634447,-0.193395,1.010646,0.122559,-1.528582,-42.059895,3.270981,18.304625,0.207303,1.552840,0.094161,0.000000,0.000000,0.000000,0.000000,0.000000,0.000000
13321128.000000,-0.260780,0.548737,0.332459,-1.465607,-0.191099,1.986309,0.106229,-0.000665,0.512380,-0.056624,-0.638104,-0.194434,1.008522,0.125638,-1.330218,-42.377277,3.294784,18.697386,0.267728,1.552840,0.067611,0.000000,0.000000,0.000000,0.000000,0.000000,0.000000
13321129.000000,-0.260791,0.549252,0.332408,-1.466259,-0.191298,1.987319,0.106354,-0.005169,0.514685,-0.057415,-0.640868,-0.193106,1.007974,0.126359,-1.108050,-42.599445,3.247177,19.141722,0.291532,1.578475,0.100570,0.000000,0.000000,0.000000,0.000000,0.000000,0.000000
13321130.000000,-0.260799,0.549777,0.332355,-1.466911,-0.191502,1.988323,0.106484,-0.007733,0.517673,-0.054947,-0.639552,-0.193019,0.997821,0.123407,-0.909686,-42.869221,3.199569,19.562254,0.327238,1.676437,0.094161,0.000000,0.000000,0.000000,0.000000,0.000000,0.000000
13321131.000000,-0.260805,0.550312,0.332296,-1.467555,-0.191698,1.989318,0.106611,-0.008324,0.528629,-0.055251,-0.639188,-0.191115,0.995218,0.121060,-0.762896,-43.186604,3.247177,20.006590,0.315336,1.754256,0.087753,0.000000,0.000000,0.000000,0.000000,0.000000,0.000000
13321132.000000,-0.260819,0.550842,0.332238,-1.468205,-0.191887,1.990316,0.106738,-0.010547,0.531338,-0.057832,-0.638988,-0.192257,0.993294,0.123309,-0.540728,-43.527790,3.270981,20.379515,0.243009,1.909896,0.100570,0.000000,0.000000,0.000000,0.000000,0.000000,0.000000
13321133.000000,-0.260835,0.551381,0.332179,-1.468837,-0.192075,1.991300,0.106868,-0.011523,0.527952,-0.056571,-0.637729,-0.189472,0.990832,0.127362,-0.342364,-43.821369,3.294784,20.649290,0.189908,2.020675,0.061202,0.000000,0.000000,0.000000,0.000000,0.000000,0.000000
13321134.000000,-0.260841,0.551908,0.332115,-1.469474,-0.192262,1.992303,0.106990,-0.011959,0.526834,-0.060828,-0.632892,-0.187213,1.002445,0.121784,-0.290789,-43.995930,3.393966,20.899229,0.141385,2.047225,0.114303,0.000000,0.000000,0.000000,0.000000,0.000000,0.000000
13321135.000000,-0.260854,0.552445,0.332043,-1.470118,-0.192451,1.993304,0.107121,-0.013033,0.527239,-0.062004,-0.632018,-0.194358,0.994844,0.122397,-0.215411,-44.237934,3.564560,21.097593,0.093778,2.104903,0.041976,0.000000,0.000000,0.000000,0.000000,0.000000,0.000000
13321136.000000,-0.260871,0.552986,0.331972,-1.470757,-0.192656,1.994288,0.107241,-0.015712,0.535717,-0.064950,-0.636121,-0.199655,0.991714,0.123001,-0.068621,-44.507710,3.687546,21.343565,0.141385,2.104903,0.107894,0.000000,0.000000,0.000000,0.000000,0.000000,0.000000
13321137.000000,-0.260881,0.553513,0.331886,-1.471397,-0.192860,1.995299,0.107362,-0.011595,0.535085,-0.070758,-0.637380,-0.199841,0.994682,0.125299,-0.044818,-44.654499,3.985092,21.442747,0.225614,2.027084,0.120712,0.000000,0.000000,0.000000,0.000000,0.000000,0.000000
13321138.000000,-0.260897,0.554043,0.331795,-1.472020,-0.193063,1.996283,0.107495,-0.013730,0.535656,-0.078561,-0.629345,-0.200391,0.992236,0.128996,0.054365,-44.729877,4.302475,21.490355,0.320829,1.988631,0.067611,0.000000,0.000000,0.000000,0.000000,0.000000,0.000000
13321139.000000,-0.260910,0.554572,0.331705,-1.472653,-0.193269,1.997274,0.107618,-0.014649,0.531121,-0.082283,-0.625590,-0.199452,0.998508,0.127914,0.129743,-44.801289,4.548447,21.514158,0.393156,1.995040,0.114303,0.000000,0.000000,0.000000,0.000000,0.000000,0.000000
13321140.000000,-0.260919,0.555111,0.331619,-1.473284,-0.193465,1.998276,0.107747,-0.013623,0.534526,-0.083941,-0.621356,-0.195823,0.996105,0.131078,0.129743,-44.900471,4.742844,21.466551,0.381254,1.930038,0.061202,0.000000,0.000000,0.000000,0.000000,0.000000,0.000000
13321141.000000,-0.260933,0.555632,0.331524,-1.473890,-0.193666,1.999256,0.107868,-0.014784,0.528115,-0.090029,-0.618575,-0.201382,0.987960,0.130297,0.205121,-44.753681,5.012619,21.268187,0.332731,1.909896,0.087753,0.000000,0.000000,0.000000,0.000000,0.000000,0.000000
13321142.000000,-0.260937,0.556151,0.331427,-1.474497,-0.193873,2.000240,0.107994,-0.009505,0.523837,-0.090656,-0.611507,-0.200452,0.983404,0.131429,0.153547,-44.583088,5.258591,21.046019,0.279630,2.020675,0.067611,0.000000,0.000000,0.000000,0.000000,0.000000,0.000000
13321143.000000,-0.260941,0.556673,0.331321,-1.475090,-0.194076,2.001213,0.108117,-0.008318,0.520715,-0.094970,-0.612488,-0.200799,0.998344,0.126098,0.078168,-44.460102,5.528366,20.748472,0.237516,2.066451,0.087753,0.000000,0.000000,0.000000,0.000000,0.000000,0.000000
13321144.000000,-0.260948,0.557179,0.331218,-1.475686,-0.194284,2.002207,0.108246,-0.010088,0.515009,-0.096220,-0.604148,-0.201676,0.999126,0.124274,0.105939,-44.261738,5.702927,20.454893,0.213712,2.060043,0.048385,0.000000,0.000000,0.000000,0.000000,0.000000,0.000000
13321145.000000,-0.260959,0.557702,0.331118,-1.476282,-0.194492,2.003209,0.108361,-0.009213,0.512951,-0.099331,-0.603961,-0.203563,0.998995,0.124525,0.177350,-44.142719,5.849716,20.256529,0.219205,2.039901,0.100570,0.000000,0.000000,0.000000,0.000000,0.000000,0.000000
13321146.000000,-0.260965,0.558213,0.331011,-1.476848,-0.194702,2.004215,0.108489,-0.010547,0.508318,-0.103095,-0.591423,-0.205939,0.996903,0.122959,0.205121,-43.920551,6.044113,19.935179,0.255826,1.851302,0.061202,0.000000,0.000000,0.000000,0.000000,0.000000,0.000000
13321147.000000,-0.260966,0.558724,0.330899,-1.477421,-0.194923,2.005249,0.108611,-0.010246,0.509038,-0.108533,-0.582959,-0.213213,1.003985,0.127963,0.177350,-43.849140,6.218674,19.685240,0.327238,1.624252,0.087753,0.000000,0.000000,0.000000,0.000000,0.000000,0.000000
13321148.000000,-0.260979,0.559250,0.330789,-1.477986,-0.195146,2.006251,0.108740,-0.010603,0.512016,-0.109348,-0.573089,-0.218047,1.000279,0.129570,0.304304,-43.797565,6.365463,19.363890,0.374845,1.670028,0.074935,0.000000,0.000000,0.000000,0.000000,0.000000,0.000000
13321149.000000,-0.260987,0.559774,0.330685,-1.478536,-0.195364,2.007245,0.108869,-0.009342,0.521056,-0.107943,-0.568464,-0.220060,0.998899,0.130336,0.375715,-43.726154,6.436874,19.169493,0.386747,1.702071,0.067611,0.000000,0.000000,0.000000,0.000000,0.000000,0.000000
13321150.000000,-0.260990,0.560288,0.330577,-1.479082,-0.195582,2.008257,0.108994,-0.007329,0.515145,-0.107682,-0.555847,-0.217230,1.001733,0.128969,0.403486,-43.650776,6.536057,18.919554,0.405057,1.682845,0.114303,0.000000,0.000000,0.000000,0.000000,0.000000,0.000000
13321151.000000,-0.260994,0.560814,0.330479,-1.479618,-0.195790,2.009254,0.109129,-0.005782,0.516152,-0.104143,-0.548748,-0.212908,0.996408,0.131736,0.427289,-43.555561,6.488449,18.721189,0.362943,1.670028,0.054794,0.000000,0.000000,0.000000,0.000000,0.000000,0.000000
13321152.000000,-0.260993,0.561327,0.330374,-1.480154,-0.195989,2.010266,0.109253,-0.003552,0.515372,-0.103155,-0.545423,-0.207163,0.990945,0.129647,0.403486,-43.503986,6.488449,18.598204,0.255826,1.702071,0.107894,0.000000,0.000000,0.000000,0.000000,0.000000,0.000000
13321153.000000,-0.260995,0.561855,0.330278,-1.480689,-0.196202,2.011281,0.109383,-0.003672,0.511849,-0.099956,-0.540534,-0.209390,0.991808,0.131000,0.451093,-43.626972,6.389267,18.526793,0.213712,1.735030,0.100570,0.000000,0.000000,0.000000,0.000000,0.000000,0.000000
13321154.000000,-0.260994,0.562389,0.330183,-1.481223,-0.196411,2.012281,0.109517,-0.002591,0.518301,-0.098456,-0.537668,-0.207554,0.991834,0.127747,0.451093,-43.726154,6.313889,18.625975,0.171598,1.806442,0.061202,0.000000,0.000000,0.000000,0.000000,0.000000,0.000000
13321155.000000,-0.261001,0.562917,0.330087,-1.481758,-0.196618,2.013294,0.109645,-0.004155,0.521306,-0.094768,-0.532971,-0.208182,0.986886,0.129367,0.550275,-43.896748,6.266281,18.796568,0.189908,1.806442,0.041976,0.000000,0.000000,0.000000,0.000000,0.000000,0.000000
13321156.000000,-0.261004,0.563458,0.329990,-1.482297,-0.196829,2.014297,0.109766,-0.004613,0.523190,-0.096610,-0.537201,-0.210793,0.998545,0.122702,0.625654,-44.114948,6.266281,19.169493,0.261320,1.721298,0.107894,0.000000,0.000000,0.000000,0.000000,0.000000,0.000000
13321157.000000,-0.261007,0.563998,0.329897,-1.482850,-0.197040,2.015301,0.109902,-0.004249,0.529999,-0.094058,-0.541070,-0.206939,0.988316,0.130087,0.673261,-44.384724,6.242477,19.590025,0.315336,1.735030,0.107894,0.000000,0.000000,0.000000,0.000000,0.000000,0.000000
13321158.000000,-0.261008,0.564532,0.329815,-1.483408,-0.197252,2.016299,0.110039,-0.004085,0.527113,-0.089178,-0.544014,-0.208179,0.987251,0.132366,0.724836,-44.460102,6.095688,20.058165,0.351041,1.832076,0.061202,0.000000,0.000000,0.000000,0.000000,0.000000,0.000000
13321159.000000,-0.261005,0.565084,0.329731,-1.483948,-0.197469,2.017274,0.110166,-0.002107,0.530797,-0.087595,-0.547514,-0.213252,0.984798,0.129836,0.697065,-44.678303,6.020309,20.304136,0.374845,1.981307,0.114303,0.000000,0.000000,0.000000,0.000000,0.000000,0.000000
13321160.000000,-0.261008,0.565628,0.329650,-1.484492,-0.197678,2.018257,0.110294,-0.002637,0.537444,-0.085068,-0.546993,-0.214008,0.977677,0.122641,0.748639,-44.900471,5.873520,20.478697,0.327238,2.098495,0.107894,0.000000,0.000000,0.000000,0.000000,0.000000,0.000000
13321161.000000,-0.261001,0.566174,0.329576,-1.485043,-0.197880,2.019241,0.110426,0.000543,0.535910,-0.082417,-0.556132,-0.208749,0.993820,0.126747,0.649457,-45.047260,5.702927,20.847654,0.237516,2.177230,0.081344,0.000000,0.000000,0.000000,0.000000,0.000000,0.000000
13321162.000000,-0.260992,0.566715,0.329496,-1.485597,-0.198086,2.020226,0.110555,0.005811,0.538976,-0.079843,-0.553822,-0.210189,0.992412,0.123236,0.550275,-45.170246,5.627548,21.121397,0.154203,2.020675,0.081344,0.000000,0.000000,0.000000,0.000000,0.000000,0.000000
13321163.000000,-0.260991,0.567266,0.329417,-1.486160,-0.198294,2.021213,0.110684,0.003569,0.542564,-0.080716,-0.558968,-0.209579,0.985210,0.125436,0.574079,-45.364643,5.556137,21.442747,0.147794,1.955673,0.081344,0.000000,0.000000,0.000000,0.000000,0.000000,0.000000
13321164.000000,-0.260984,0.567816,0.329337,-1.486713,-0.198512,2.022181,0.110812,0.006264,0.540557,-0.079282,-0.556893,-0.212822,0.982351,0.126262,0.550275,-45.487629,5.528366,21.740294,0.243009,2.001449,0.094161,0.000000,0.000000,0.000000,0.000000,0.000000,0.000000
13321165.000000,-0.260982,0.568368,0.329253,-1.487274,-0.198741,2.023148,0.110943,0.007168,0.542363,-0.079458,-0.555620,-0.220009,0.973861,0.129564,0.574079,-45.610615,5.556137,21.962461,0.362943,2.085677,0.054794,0.000000,0.000000,0.000000,0.000000,0.000000,0.000000
13321166.000000,-0.260969,0.568907,0.329172,-1.487838,-0.198969,2.024122,0.111065,0.010132,0.541381,-0.081993,-0.558616,-0.224217,0.971908,0.131558,0.502668,-45.535236,5.556137,22.156858,0.476469,2.169906,0.140853,0.000000,0.000000,0.000000,0.000000,0.000000,0.000000
13321167.000000,-0.260958,0.569434,0.329096,-1.488388,-0.199190,2.025088,0.111205,0.011164,0.539304,-0.079901,-0.555936,-0.224595,0.965786,0.129290,0.474897,-45.194050,5.528366,22.283812,0.494779,2.150680,0.081344,0.000000,0.000000,0.000000,0.000000,0.000000,0.000000
13321168.000000,-0.260942,0.569956,0.329022,-1.488950,-0.199406,2.026079,0.111338,0.013674,0.533997,-0.077153,-0.553910,-0.218127,0.967953,0.126542,0.375715,-44.924274,5.456955,22.454405,0.452665,2.014266,0.087753,0.000000,0.000000,0.000000,0.000000,0.000000,0.000000
13321169.000000,-0.260922,0.570483,0.328951,-1.489493,-0.199615,2.027049,0.111469,0.015950,0.530099,-0.074722,-0.552684,-0.211641,0.970821,0.122285,0.252729,-44.702106,5.357773,22.454405,0.356534,2.001449,0.114303,0.000000,0.000000,0.000000,0.000000,0.000000,0.000000
13321170.000000,-0.260898,0.571004,0.328874,-1.490039,-0.199832,2.028010,0.111605,0.019864,0.525789,-0.074963,-0.544062,-0.212634,0.965025,0.125401,0.030561,-44.507710,5.333969,22.505980,0.291532,2.092086,0.100570,0.000000,0.000000,0.000000,0.000000,0.000000,0.000000
13321171.000000,-0.260880,0.571535,0.328794,-1.490585,-0.200060,2.028972,0.111741,0.019638,0.525852,-0.075381,-0.539285,-0.216417,0.961752,0.133459,-0.068621,-44.337116,5.333969,22.478209,0.291532,2.267867,0.054794,0.000000,0.000000,0.000000,0.000000,0.000000,0.000000
13321172.000000,-0.260864,0.572072,0.328716,-1.491123,-0.200287,2.029918,0.111872,0.018333,0.529581,-0.075926,-0.544045,-0.221445,0.951983,0.131841,-0.116229,-44.289509,5.333969,22.529783,0.356534,2.430831,0.074935,0.000000,0.000000,0.000000,0.000000,0.000000,0.000000
13321173.000000,-0.260846,0.572593,0.328635,-1.491675,-0.200512,2.030897,0.111997,0.018112,0.521601,-0.076355,-0.540330,-0.223585,0.954315,0.134752,-0.191607,-44.067341,5.357773,22.728148,0.398649,2.404281,0.127120,0.000000,0.000000,0.000000,0.000000,0.000000,0.000000
13321174.000000,-0.260825,0.573108,0.328552,-1.492210,-0.200730,2.031873,0.112137,0.019112,0.516616,-0.080534,-0.536733,-0.224272,0.961475,0.132013,-0.314593,-43.674580,5.405380,22.851133,0.405057,2.267867,0.061202,0.000000,0.000000,0.000000,0.000000,0.000000,0.000000
13321175.000000,-0.260798,0.573632,0.328475,-1.492751,-0.200954,2.032862,0.112261,0.020984,0.521536,-0.077575,-0.538103,-0.225297,0.971597,0.129686,-0.489153,-43.579365,5.333969,23.025694,0.422452,2.125045,0.120712,0.000000,0.000000,0.000000,0.000000,0.000000,0.000000
13321176.000000,-0.260777,0.574175,0.328395,-1.493277,-0.201187,2.033831,0.112400,0.020550,0.524791,-0.080488,-0.531222,-0.229725,0.967847,0.136830,-0.588336,-43.603168,5.333969,22.997923,0.410551,2.125045,0.074935,0.000000,0.000000,0.000000,0.000000,0.000000,0.000000
13321177.000000,-0.260761,0.574727,0.328324,-1.493794,-0.201422,2.034776,0.112539,0.018443,0.531373,-0.076984,-0.524834,-0.230229,0.956350,0.136605,-0.612139,-43.702351,5.234787,23.025694,0.446256,2.255050,0.054794,0.000000,0.000000,0.000000,0.000000,0.000000,0.000000
13321178.000000,-0.260739,0.575259,0.328252,-1.494313,-0.201663,2.035732,0.112672,0.020828,0.537646,-0.074930,-0.520939,-0.230749,0.952230,0.134591,-0.663714,-43.726154,5.135605,23.148680,0.506681,2.365829,0.074935,0.000000,0.000000,0.000000,0.000000,0.000000,0.000000
13321179.000000,-0.260712,0.575800,0.328172,-1.494825,-0.201887,2.036702,0.112806,0.024305,0.531328,-0.075446,-0.515495,-0.228062,0.954505,0.133648,-0.786700,-43.749958,5.135605,23.247862,0.476469,2.378646,0.081344,0.000000,0.000000,0.000000,0.000000,0.000000,0.000000
13321180.000000,-0.260693,0.576338,0.328099,-1.495341,-0.202117,2.037670,0.112944,0.020844,0.544859,-0.074218,-0.515779,-0.230997,0.961054,0.134341,-0.786700,-43.821369,5.064194,23.418455,0.446256,2.255050,0.074935,0.000000,0.000000,0.000000,0.000000,0.000000,0.000000
13321181.000000,-0.260671,0.576872,0.328022,-1.495857,-0.202351,2.038634,0.113079,0.018416,0.543995,-0.074144,-0.511913,-0.233372,0.951528,0.134967,-0.786700,-43.726154,5.040390,23.569212,0.416959,2.215682,0.048385,0.000000,0.000000,0.000000,0.000000,0.000000,0.000000
13321182.000000,-0.260660,0.577413,0.327953,-1.496360,-0.202588,2.039576,0.113209,0.017005,0.536962,-0.068709,-0.509436,-0.237176,0.946100,0.131575,-0.663714,-43.626972,4.917404,23.569212,0.434354,2.313644,0.107894,0.000000,0.000000,0.000000,0.000000,0.000000,0.000000
13321183.000000,-0.260639,0.577944,0.327877,-1.496857,-0.202832,2.040540,0.113347,0.019683,0.540393,-0.069603,-0.501770,-0.236685,0.948229,0.132019,-0.687518,-43.456379,4.865829,23.470030,0.506681,2.339278,0.081344,0.000000,0.000000,0.000000,0.000000,0.000000,0.000000
13321184.000000,-0.260625,0.578483,0.327799,-1.497355,-0.203065,2.041503,0.113478,0.018731,0.540588,-0.071184,-0.499059,-0.242298,0.950000,0.131859,-0.588336,-43.357197,4.842026,23.319273,0.518583,2.378646,0.087753,0.000000,0.000000,0.000000,0.000000,0.000000,0.000000
13321185.000000,-0.260612,0.579028,0.327732,-1.497846,-0.203292,2.042452,0.113614,0.014998,0.545637,-0.069114,-0.495196,-0.237715,0.946653,0.130869,-0.489153,-43.285786,4.695236,23.220091,0.512174,2.410690,0.114303,0.000000,0.000000,0.000000,0.000000,0.000000,0.000000
13321186.000000,-0.260594,0.579564,0.327658,-1.498334,-0.203518,2.043435,0.113756,0.016773,0.546189,-0.072402,-0.487522,-0.237091,0.950033,0.132232,-0.441546,-43.210407,4.619858,23.097105,0.458158,2.228500,0.087753,0.000000,0.000000,0.000000,0.000000,0.000000,0.000000
13321187.000000,-0.260577,0.580096,0.327584,-1.498809,-0.203740,2.044411,0.113897,0.017983,0.544056,-0.075721,-0.484984,-0.231706,0.953710,0.132440,-0.389971,-43.063618,4.572250,22.926512,0.381254,2.053634,0.074935,0.000000,0.000000,0.000000,0.000000,0.000000,0.000000
13321188.000000,-0.260565,0.580629,0.327510,-1.499283,-0.203970,2.045382,0.114039,0.017586,0.533654,-0.075360,-0.482590,-0.231085,0.956754,0.137015,-0.290789,-42.916828,4.524643,22.728148,0.405057,2.020675,0.074935,0.000000,0.000000,0.000000,0.000000,0.000000,0.000000
13321189.000000,-0.260556,0.581174,0.327430,-1.499758,-0.204201,2.046351,0.114173,0.016404,0.539395,-0.076360,-0.474554,-0.230693,0.953964,0.135016,-0.144000,-42.817646,4.548447,22.529783,0.422452,2.104903,0.100570,0.000000,0.000000,0.000000,0.000000,0.000000,0.000000
13321190.000000,-0.260544,0.581704,0.327361,-1.500209,-0.204425,2.047298,0.114317,0.016881,0.533397,-0.074330,-0.468841,-0.230488,0.951832,0.141249,-0.044818,-42.524067,4.449265,22.208433,0.452665,2.209274,0.048385,0.000000,0.000000,0.000000,0.000000,0.000000,0.000000
13321191.000000,-0.260537,0.582217,0.327283,-1.500665,-0.204650,2.048265,0.114446,0.012862,0.522574,-0.071708,-0.459859,-0.229333,0.949629,0.136349,0.105939,-42.059895,4.449265,21.962461,0.464567,2.280685,0.114303,0.000000,0.000000,0.000000,0.000000,0.000000,0.000000
13321192.000000,-0.260529,0.582744,0.327207,-1.501111,-0.204875,2.049243,0.114586,0.010007,0.521911,-0.072337,-0.455775,-0.231274,0.979438,0.137326,0.252729,-41.694904,4.425461,21.664915,0.410551,2.177230,0.061202,0.000000,0.000000,0.000000,0.000000,0.000000,0.000000
13321193.000000,-0.260516,0.583259,0.327132,-1.501554,-0.205094,2.050235,0.114724,0.010857,0.520963,-0.072183,-0.447099,-0.222765,0.984872,0.141299,0.276533,-41.373554,4.377853,21.391172,0.339139,2.047225,0.054794,0.000000,0.000000,0.000000,0.000000,0.000000,0.000000
13321194.000000,-0.260504,0.583775,0.327053,-1.501999,-0.205311,2.051225,0.114854,0.010054,0.511871,-0.073940,-0.446223,-0.221046,0.985955,0.136948,0.351911,-40.984760,4.401657,21.220579,0.261320,1.968490,0.107894,0.000000,0.000000,0.000000,0.000000,0.000000,0.000000
13321195.000000,-0.260489,0.584295,0.326970,-1.502413,-0.205530,2.052186,0.115001,0.010651,0.512621,-0.075017,-0.436853,-0.222819,0.977375,0.142139,0.375715,-40.639606,4.425461,20.823851,0.261320,2.020675,0.054794,0.000000,0.000000,0.000000,0.000000,0.000000,0.000000
13321196.000000,-0.260478,0.584807,0.326888,-1.502839,-0.205752,2.053155,0.115133,0.012872,0.511219,-0.079739,-0.429769,-0.224924,0.973725,0.135073,0.451093,-40.346027,4.473068,20.577879,0.303434,2.092086,0.094161,0.000000,0.000000,0.000000,0.000000,0.000000,0.000000
13321197.000000,-0.260465,0.585316,0.326799,-1.503250,-0.205980,2.054134,0.115272,0.015121,0.504617,-0.083587,-0.433026,-0.227306,0.970530,0.135562,0.502668,-39.858051,4.548447,20.379515,0.356534,2.104903,0.081344,0.000000,0.000000,0.000000,0.000000,0.000000,0.000000
13321198.000000,-0.260453,0.585817,0.326713,-1.503661,-0.206210,2.055102,0.115415,0.016887,0.516759,-0.087343,-0.425419,-0.226500,0.971074,0.135781,0.550275,-39.342304,4.647629,20.181150,0.344633,2.027084,0.048385,0.000000,0.000000,0.000000,0.000000,0.000000,0.000000
13321199.000000,-0.260433,0.586314,0.326626,-1.504067,-0.206437,2.056079,0.115545,0.020429,0.510770,-0.088160,-0.421331,-0.221777,0.969240,0.137651,0.502668,-38.731342,4.695236,19.935179,0.344633,1.955673,0.100570,0.000000,0.000000,0.000000,0.000000,0.000000,0.000000
13321200.000000,-0.260410,0.586827,0.326542,-1.504452,-0.206654,2.057030,0.115687,0.023517,0.503862,-0.089021,-0.409738,-0.220942,0.962513,0.142247,0.427289,-38.290974,4.742844,19.590025,0.291532,1.968490,0.061202,0.000000,0.000000,0.000000,0.000000,0.000000,0.000000
13321201.000000,-0.260393,0.587340,0.326458,-1.504831,-0.206871,2.057991,0.115824,0.020720,0.507460,-0.087335,-0.400489,-0.219550,0.958887,0.139357,0.427289,-38.068806,4.695236,19.217100,0.225614,2.047225,0.074935,0.000000,0.000000,0.000000,0.000000,0.000000,0.000000
13321202.000000,-0.260371,0.587866,0.326372,-1.505213,-0.207097,2.058963,0.115967,0.022946,0.512681,-0.087651,-0.396025,-0.224158,0.955602,0.138639,0.375715,-38.021198,4.695236,18.919554,0.207303,2.014266,0.041976,0.000000,0.000000,0.000000,0.000000,0.000000,0.000000
13321203.000000,-0.260347,0.588394,0.326281,-1.505590,-0.207326,2.059935,0.116102,0.021859,0.522584,-0.086878,-0.391654,-0.229614,0.961982,0.134404,0.304304,-37.922016,4.794418,18.721189,0.207303,1.865035,0.100570,0.000000,0.000000,0.000000,0.000000,0.000000,0.000000
13321204.000000,-0.260326,0.588907,0.326189,-1.505973,-0.207555,2.060910,0.116249,0.022453,0.520905,-0.087503,-0.387010,-0.224402,0.962501,0.132091,0.304304,-37.751423,4.818222,18.625975,0.219205,1.767074,0.067611,0.000000,0.000000,0.000000,0.000000,0.000000,0.000000
13321205.000000,-0.260303,0.589427,0.326093,-1.506343,-0.207788,2.061874,0.116396,0.024186,0.520266,-0.089758,-0.384289,-0.227662,0.954848,0.132202,0.252729,-37.628437,4.917404,18.550596,0.291532,1.682845,0.067611,0.000000,0.000000,0.000000,0.000000,0.000000,0.000000
13321206.000000,-0.260281,0.589946,0.325999,-1.506710,-0.208024,2.062844,0.116541,0.024227,0.521476,-0.093236,-0.378139,-0.230264,0.955139,0.132110,0.252729,-37.434040,4.941208,18.451414,0.386747,1.708480,0.067611,0.000000,0.000000,0.000000,0.000000,0.000000,0.000000
13321207.000000,-0.260259,0.590474,0.325905,-1.507078,-0.208254,2.063805,0.116683,0.024304,0.521336,-0.092165,-0.371976,-0.233853,0.952558,0.131643,0.252729,-37.334858,4.965012,18.427610,0.393156,1.793624,0.087753,0.000000,0.000000,0.000000,0.000000,0.000000,0.000000
13321208.000000,-0.260230,0.591004,0.325818,-1.507436,-0.208486,2.064765,0.116833,0.023627,0.524858,-0.090137,-0.368084,-0.235160,0.961739,0.137234,0.153547,-37.239643,4.917404,18.304625,0.362943,1.754256,0.061202,0.000000,0.000000,0.000000,0.000000,0.000000,0.000000
13321209.000000,-0.260200,0.591536,0.325731,-1.507798,-0.208720,2.065723,0.116977,0.025533,0.526241,-0.090236,-0.364609,-0.234399,0.950532,0.141314,0.078168,-37.239643,4.818222,18.328428,0.291532,1.754256,0.041976,0.000000,0.000000,0.000000,0.000000,0.000000,0.000000
13321210.000000,-0.260168,0.592075,0.325641,-1.508147,-0.208948,2.066672,0.117111,0.027389,0.527239,-0.091315,-0.367397,-0.229445,0.965913,0.136979,-0.017047,-37.311054,4.770615,18.253050,0.207303,1.779891,0.094161,0.000000,0.000000,0.000000,0.000000,0.000000,0.000000
13321211.000000,-0.260141,0.592611,0.325554,-1.508502,-0.209183,2.067636,0.117257,0.026455,0.530016,-0.089540,-0.363475,-0.233517,0.959791,0.141741,-0.017047,-37.410236,4.719040,18.229246,0.207303,1.800033,0.061202,0.000000,0.000000,0.000000,0.000000,0.000000,0.000000
13321212.000000,-0.260112,0.593173,0.325467,-1.508849,-0.209418,2.068589,0.117397,0.023373,0.541171,-0.087621,-0.360535,-0.232754,0.956025,0.142795,-0.044818,-37.656208,4.647629,18.078489,0.231107,1.871444,0.094161,0.000000,0.000000,0.000000,0.000000,0.000000,0.000000
13321213.000000,-0.260084,0.593730,0.325385,-1.509198,-0.209654,2.069531,0.117540,0.023592,0.542842,-0.084593,-0.356641,-0.235635,0.955320,0.140546,-0.044818,-37.775227,4.500839,17.983274,0.219205,1.942855,0.094161,0.000000,0.000000,0.000000,0.000000,0.000000,0.000000
13321214.000000,-0.260056,0.594268,0.325292,-1.509548,-0.209900,2.070494,0.117688,0.023988,0.539501,-0.086228,-0.354258,-0.238820,0.948492,0.144511,-0.044818,-37.680012,4.500839,17.931700,0.255826,1.884261,0.034652,0.000000,0.000000,0.000000,0.000000,0.000000,0.000000
13321215.000000,-0.260029,0.594827,0.325203,-1.509885,-0.210140,2.071476,0.117827,0.023448,0.540110,-0.082661,-0.350209,-0.241413,0.953330,0.139991,-0.017047,-37.628437,4.449265,17.757139,0.285123,1.721298,0.067611,0.000000,0.000000,0.000000,0.000000,0.000000,0.000000
13321216.000000,-0.260004,0.595389,0.325115,-1.510237,-0.210378,2.072435,0.117969,0.022743,0.557213,-0.081435,-0.347754,-0.236776,0.953614,0.137425,0.030561,-37.826801,4.449265,17.733335,0.273221,1.624252,0.081344,0.000000,0.000000,0.000000,0.000000,0.000000,0.000000
13321217.000000,-0.259978,0.595960,0.325033,-1.510580,-0.210614,2.073385,0.118108,0.025476,0.560727,-0.081473,-0.343828,-0.235083,0.953118,0.135982,0.078168,-38.045002,4.377853,17.511168,0.303434,1.637069,0.094161,0.000000,0.000000,0.000000,0.000000,0.000000,0.000000
13321218.000000,-0.259952,0.596540,0.324952,-1.510922,-0.210845,2.074317,0.118252,0.024925,0.564998,-0.082857,-0.341620,-0.236155,0.948345,0.136433,0.105939,-38.243366,4.302475,17.435789,0.273221,1.682845,0.048385,0.000000,0.000000,0.000000,0.000000,0.000000,0.000000
13321219.000000,-0.259928,0.597109,0.324868,-1.511258,-0.211084,2.075273,0.118386,0.023454,0.565675,-0.082707,-0.341125,-0.236110,0.942545,0.137102,0.177350,-38.437763,4.227097,17.265196,0.225614,1.670028,0.127120,0.000000,0.000000,0.000000,0.000000,0.000000,0.000000
13321220.000000,-0.259897,0.597689,0.324783,-1.511593,-0.211316,2.076233,0.118534,0.024103,0.566190,-0.083289,-0.334957,-0.236070,0.943874,0.138662,0.177350,-38.659931,4.179489,17.114439,0.195402,1.624252,0.054794,0.000000,0.000000,0.000000,0.000000,0.000000,0.000000
13321221.000000,-0.259870,0.598277,0.324692,-1.511930,-0.211549,2.077177,0.118680,0.023745,0.576644,-0.085901,-0.337372,-0.232224,0.950064,0.141682,0.205121,-38.830524,4.227097,17.114439,0.154203,1.572067,0.054794,0.000000,0.000000,0.000000,0.000000,0.000000,0.000000
13321222.000000,-0.259842,0.598844,0.324601,-1.512265,-0.211784,2.078121,0.118822,0.023321,0.578142,-0.089530,-0.333858,-0.231270,0.946679,0.143161,0.252729,-38.806721,4.227097,16.943846,0.171598,1.552840,0.074935,0.000000,0.000000,0.000000,0.000000,0.000000,0.000000
13321223.000000,-0.259814,0.599434,0.324509,-1.512600,-0.212017,2.079045,0.118971,0.022759,0.579485,-0.093044,-0.332436,-0.235555,0.933081,0.140795,0.304304,-38.953510,4.254868,16.920042,0.189908,1.617843,0.061202,0.000000,0.000000,0.000000,0.000000,0.000000,0.000000
13321224.000000,-0.259789,0.600027,0.324413,-1.512923,-0.212265,2.079997,0.119113,0.025056,0.581230,-0.093948,-0.329533,-0.239118,0.932645,0.136510,0.375715,-39.219318,4.326279,16.697874,0.231107,1.559249,0.114303,0.000000,0.000000,0.000000,0.000000,0.000000,0.000000
13321225.000000,-0.259756,0.600628,0.324318,-1.513262,-0.212501,2.080942,0.119267,0.029086,0.587322,-0.092830,-0.332605,-0.240193,0.933096,0.142557,0.351911,-39.441486,4.350082,16.670103,0.219205,1.591293,0.067611,0.000000,0.000000,0.000000,0.000000,0.000000,0.000000
13321226.000000,-0.259731,0.601228,0.324226,-1.513593,-0.212731,2.081880,0.119414,0.029035,0.587487,-0.095243,-0.334430,-0.235608,0.941055,0.139962,0.451093,-39.612080,4.377853,16.646299,0.195402,1.572067,0.054794,0.000000,0.000000,0.000000,0.000000,0.000000,0.000000
13321227.000000,-0.259705,0.601818,0.324131,-1.513934,-0.212963,2.082833,0.119554,0.030355,0.586871,-0.094318,-0.332924,-0.232054,0.934330,0.141334,0.526471,-39.735065,4.425461,16.670103,0.178007,1.467696,0.087753,0.000000,0.000000,0.000000,0.000000,0.000000,0.000000
13321228.000000,-0.259675,0.602421,0.324028,-1.514260,-0.213198,2.083779,0.119703,0.029347,0.588250,-0.095789,-0.335341,-0.230598,0.958552,0.144213,0.526471,-39.858051,4.548447,16.646299,0.178007,1.357833,0.074935,0.000000,0.000000,0.000000,0.000000,0.000000,0.000000
13321229.000000,-0.259645,0.603016,0.323923,-1.514590,-0.213437,2.084717,0.119853,0.031183,0.592754,-0.095877,-0.336353,-0.237426,0.945992,0.145448,0.550275,-39.929462,4.647629,16.622496,0.135892,1.442062,0.087753,0.000000,0.000000,0.000000,0.000000,0.000000,0.000000
13321230.000000,-0.259617,0.603613,0.323823,-1.514921,-0.213684,2.085654,0.120007,0.029333,0.594259,-0.093855,-0.331579,-0.239929,0.941353,0.148281,0.574079,-39.929462,4.671432,16.646299,0.154203,1.519881,0.048385,0.000000,0.000000,0.000000,0.000000,0.000000,0.000000
13321231.000000,-0.259588,0.604222,0.323712,-1.515241,-0.213930,2.086566,0.120151,0.027287,0.594062,-0.102343,-0.331945,-0.238371,0.932973,0.142375,0.625654,-40.004841,4.842026,16.570921,0.201810,1.637069,0.087753,0.000000,0.000000,0.000000,0.000000,0.000000,0.000000
13321232.000000,-0.259559,0.604823,0.323602,-1.515577,-0.214170,2.087501,0.120302,0.029548,0.596843,-0.107255,-0.332046,-0.239012,0.923290,0.149032,0.649457,-40.052448,4.941208,16.622496,0.195402,1.695663,0.067611,0.000000,0.000000,0.000000,0.000000,0.000000,0.000000
13321233.000000,-0.259531,0.605425,0.323492,-1.515898,-0.214411,2.088452,0.120446,0.027552,0.597145,-0.103555,-0.325246,-0.244116,0.931348,0.149868,0.697065,-40.076252,5.012619,16.646299,0.207303,1.624252,0.081344,0.000000,0.000000,0.000000,0.000000,0.000000,0.000000
13321234.000000,-0.259494,0.606016,0.323382,-1.516229,-0.214660,2.089398,0.120596,0.031997,0.608941,-0.105475,-0.327388,-0.246455,0.943350,0.146349,0.625654,-40.004841,5.135605,16.721678,0.147794,1.494247,0.054794,0.000000,0.000000,0.000000,0.000000,0.000000,0.000000
13321235.000000,-0.259467,0.606622,0.323275,-1.516562,-0.214914,2.090331,0.120740,0.031945,0.603568,-0.104700,-0.328997,-0.245631,0.935155,0.142147,0.697065,-39.981037,5.187180,16.820860,0.135892,1.526290,0.067611,0.000000,0.000000,0.000000,0.000000,0.000000,0.000000
13321236.000000,-0.259433,0.607239,0.323164,-1.516874,-0.215165,2.091248,0.120885,0.030361,0.606381,-0.102249,-0.326644,-0.248001,0.929708,0.143406,0.697065,-40.004841,5.234787,16.745481,0.195402,1.605026,0.087753,0.000000,0.000000,0.000000,0.000000,0.000000,0.000000
13321237.000000,-0.259403,0.607838,0.323044,-1.517204,-0.215409,2.092170,0.121042,0.031280,0.603306,-0.108632,-0.328621,-0.246468,0.923100,0.143492,0.724836,-39.905659,5.405380,16.820860,0.189908,1.727706,0.015426,0.000000,0.000000,0.000000,0.000000,0.000000,0.000000
13321238.000000,-0.259370,0.608430,0.322928,-1.517531,-0.215659,2.093100,0.121183,0.036133,0.595982,-0.111281,-0.327463,-0.247804,0.927726,0.147418,0.724836,-39.635883,5.480759,16.920042,0.237516,1.741439,0.081344,0.000000,0.000000,0.000000,0.000000,0.000000,0.000000
13321239.000000,-0.259340,0.609026,0.322812,-1.517853,-0.215912,2.094014,0.121337,0.035328,0.600762,-0.112993,-0.326363,-0.251287,0.928432,0.148976,0.772443,-39.366108,5.556137,17.019224,0.231107,1.714889,0.054794,0.000000,0.000000,0.000000,0.000000,0.000000,0.000000
13321240.000000,-0.259305,0.609624,0.322691,-1.518182,-0.216163,2.094938,0.121481,0.033125,0.604381,-0.117635,-0.325157,-0.248136,0.915656,0.148391,0.772443,-39.195515,5.651352,17.142210,0.201810,1.714889,0.081344,0.000000,0.000000,0.000000,0.000000,0.000000,0.000000
13321241.000000,-0.259270,0.610226,0.322579,-1.518502,-0.216413,2.095849,0.121628,0.031225,0.600559,-0.115417,-0.327395,-0.248434,0.917303,0.148730,0.772443,-39.072529,5.651352,17.241392,0.225614,1.721298,0.087753,0.000000,0.000000,0.000000,0.000000,0.000000,0.000000
13321242.000000,-0.259235,0.610822,0.322466,-1.518837,-0.216661,2.096761,0.121782,0.029776,0.600341,-0.114527,-0.327115,-0.248158,0.916479,0.151057,0.772443,-39.001118,5.627548,17.388182,0.249418,1.800033,0.041976,0.000000,0.000000,0.000000,0.000000,0.000000,0.000000
13321243.000000,-0.259203,0.611429,0.322351,-1.519166,-0.216913,2.097673,0.121919,0.027443,0.599871,-0.110805,-0.326494,-0.247315,0.912369,0.144434,0.824018,-38.925739,5.627548,17.534971,0.255826,1.819259,0.087753,0.000000,0.000000,0.000000,0.000000,0.000000,0.000000
13321244.000000,-0.259170,0.612026,0.322235,-1.519487,-0.217167,2.098586,0.122072,0.026494,0.597346,-0.111841,-0.329614,-0.246858,0.914383,0.147951,0.847822,-38.608356,5.651352,17.685728,0.261320,1.721298,0.028243,0.000000,0.000000,0.000000,0.000000,0.000000,0.000000
13321245.000000,-0.259138,0.612611,0.322118,-1.519816,-0.217423,2.099500,0.122213,0.025746,0.595438,-0.111868,-0.328161,-0.246674,0.905190,0.143921,0.871625,-38.290974,5.651352,17.856321,0.285123,1.727706,0.061202,0.000000,0.000000,0.000000,0.000000,0.000000,0.000000
13321246.000000,-0.259102,0.613205,0.322004,-1.520131,-0.217670,2.100389,0.122367,0.028845,0.588307,-0.115282,-0.330269,-0.245851,0.924747,0.146770,0.871625,-38.045002,5.627548,17.931700,0.279630,1.819259,0.028243,0.000000,0.000000,0.000000,0.000000,0.000000,0.000000
13321247.000000,-0.259064,0.613810,0.321888,-1.520454,-0.217914,2.101293,0.122515,0.031816,0.591895,-0.114251,-0.329019,-0.245230,0.917546,0.142311,0.847822,-38.120380,5.603745,17.955503,0.267728,1.877853,0.041976,0.000000,0.000000,0.000000,0.000000,0.000000,0.000000
13321248.000000,-0.259030,0.614429,0.321781,-1.520775,-0.218161,2.102205,0.122659,0.029032,0.599919,-0.111046,-0.325662,-0.248205,0.907346,0.144339,0.895429,-38.191792,5.480759,18.007078,0.225614,1.923629,0.048385,0.000000,0.000000,0.000000,0.000000,0.000000,0.000000
13321249.000000,-0.258994,0.615044,0.321673,-1.521092,-0.218414,2.103113,0.122804,0.031298,0.605201,-0.110765,-0.325444,-0.246533,0.909888,0.145382,0.895429,-38.243366,5.433151,18.130064,0.195402,1.844894,0.074935,0.000000,0.000000,0.000000,0.000000,0.000000,0.000000
13321250.000000,-0.258957,0.615655,0.321565,-1.521409,-0.218673,2.104042,0.122956,0.032983,0.606921,-0.110752,-0.322498,-0.247151,0.921924,0.147202,0.895429,-38.338581,5.381577,18.153868,0.231107,1.708480,0.041976,0.000000,0.000000,0.000000,0.000000,0.000000,0.000000
13321251.000000,-0.258922,0.616271,0.321456,-1.521724,-0.218929,2.104955,0.123104,0.029865,0.605250,-0.110493,-0.321968,-0.256089,0.913168,0.147790,0.947004,-38.362385,5.333969,18.229246,0.273221,1.695663,0.048385,0.000000,0.000000,0.000000,0.000000,0.000000,0.000000
13321252.000000,-0.258887,0.616887,0.321358,-1.522048,-0.219183,2.105855,0.123246,0.030865,0.620951,-0.105579,-0.325107,-0.254779,0.908241,0.147201,0.994611,-38.267170,5.210983,18.328428,0.315336,1.767074,0.081344,0.000000,0.000000,0.000000,0.000000,0.000000,0.000000
13321253.000000,-0.258848,0.617495,0.321247,-1.522361,-0.219446,2.106759,0.123394,0.033903,0.621937,-0.107685,-0.319832,-0.262710,0.901789,0.149923,0.947004,-38.243366,5.210983,18.253050,0.351041,1.851302,0.041976,0.000000,0.000000,0.000000,0.000000,0.000000,0.000000
13321254.000000,-0.258805,0.618109,0.321137,-1.522671,-0.219703,2.107650,0.123540,0.039244,0.617366,-0.106907,-0.318814,-0.257476,0.905125,0.148449,0.895429,-38.167988,5.187180,18.276854,0.332731,1.923629,0.081344,0.000000,0.000000,0.000000,0.000000,0.000000,0.000000
13321255.000000,-0.258759,0.618718,0.321029,-1.522991,-0.219955,2.108558,0.123696,0.041142,0.610245,-0.105037,-0.318456,-0.251458,0.902693,0.150369,0.796247,-38.144184,5.163376,18.304625,0.267728,1.995040,0.048385,0.000000,0.000000,0.000000,0.000000,0.000000,0.000000
13321256.000000,-0.258715,0.619353,0.320928,-1.523309,-0.220197,2.109489,0.123839,0.044169,0.617245,-0.103285,-0.315448,-0.247832,0.906397,0.148950,0.748639,-38.267170,5.111801,18.352232,0.201810,1.916305,0.087753,0.000000,0.000000,0.000000,0.000000,0.000000,0.000000
13321257.000000,-0.258675,0.619987,0.320828,-1.523621,-0.220442,2.110404,0.123990,0.044890,0.623235,-0.101207,-0.318381,-0.246329,0.910280,0.149666,0.772443,-38.390156,5.040390,18.352232,0.166105,1.800033,0.087753,0.000000,0.000000,0.000000,0.000000,0.000000,0.000000
13321258.000000,-0.258630,0.620601,0.320726,-1.523940,-0.220703,2.111315,0.124142,0.044108,0.623257,-0.099400,-0.314094,-0.251472,0.911117,0.151939,0.724836,-38.338581,4.965012,18.376036,0.189908,1.825668,0.034652,0.000000,0.000000,0.000000,0.000000,0.000000,0.000000
13321259.000000,-0.258581,0.621228,0.320622,-1.524234,-0.220972,2.112203,0.124284,0.043475,0.618776,-0.102141,-0.308796,-0.257957,0.899737,0.144841,0.673261,-38.290974,4.941208,18.276854,0.279630,1.844894,0.087753,0.000000,0.000000,0.000000,0.000000,0.000000,0.000000
13321260.000000,-0.258536,0.621857,0.320515,-1.524538,-0.221234,2.113105,0.124433,0.045504,0.621882,-0.103658,-0.305445,-0.260083,0.894727,0.147885,0.649457,-38.314777,4.988815,18.205442,0.308927,1.890670,0.048385,0.000000,0.000000,0.000000,0.000000,0.000000,0.000000
13321261.000000,-0.258489,0.622494,0.320408,-1.524839,-0.221493,2.114016,0.124578,0.047633,0.624936,-0.102885,-0.303269,-0.260750,0.893316,0.147975,0.601850,-38.390156,4.988815,18.130064,0.303434,1.877853,0.074935,0.000000,0.000000,0.000000,0.000000,0.000000,0.000000
13321262.000000,-0.258435,0.623133,0.320302,-1.525131,-0.221748,2.114914,0.124732,0.047318,0.630156,-0.102323,-0.302065,-0.260347,0.895504,0.149342,0.502668,-38.461567,4.988815,18.078489,0.273221,1.779891,0.048385,0.000000,0.000000,0.000000,0.000000,0.000000,0.000000
13321263.000000,-0.258383,0.623774,0.320192,-1.525432,-0.222013,2.115822,0.124882,0.050012,0.633795,-0.102990,-0.298280,-0.263858,0.893596,0.148636,0.403486,-38.659931,5.040390,18.054686,0.237516,1.708480,0.074935,0.000000,0.000000,0.000000,0.000000,0.000000,0.000000
13321264.000000,-0.258328,0.624430,0.320093,-1.525722,-0.222277,2.116735,0.125036,0.051387,0.635465,-0.101401,-0.302946,-0.264563,0.910578,0.145912,0.328107,-38.878132,4.988815,18.007078,0.255826,1.689254,0.034652,0.000000,0.000000,0.000000,0.000000,0.000000,0.000000
13321265.000000,-0.258281,0.625067,0.319990,-1.526013,-0.222540,2.117621,0.125185,0.051278,0.650258,-0.103907,-0.300267,-0.259571,0.907361,0.145811,0.304304,-38.854328,4.965012,18.030882,0.255826,1.735030,0.067611,0.000000,0.000000,0.000000,0.000000,0.000000,0.000000
13321266.000000,-0.258227,0.625704,0.319884,-1.526304,-0.222803,2.118518,0.125339,0.052135,0.648500,-0.102484,-0.293486,-0.262380,0.904406,0.148339,0.252729,-38.778950,4.941208,18.007078,0.308927,1.773483,0.034652,0.000000,0.000000,0.000000,0.000000,0.000000,0.000000
13321267.000000,-0.258179,0.626360,0.319778,-1.526594,-0.223070,2.119409,0.125489,0.050797,0.648467,-0.105871,-0.293747,-0.265596,0.900727,0.147801,0.276533,-38.878132,4.965012,18.054686,0.386747,1.754256,0.054794,0.000000,0.000000,0.000000,0.000000,0.000000,0.000000
13321268.000000,-0.258126,0.627000,0.319673,-1.526892,-0.223330,2.120305,0.125638,0.051196,0.643942,-0.104521,-0.298977,-0.260402,0.895205,0.152294,0.252729,-38.901936,4.941208,18.205442,0.285123,1.786300,0.054794,0.000000,0.000000,0.000000,0.000000,0.000000,0.000000
13321269.000000,-0.258067,0.627655,0.319561,-1.527191,-0.223592,2.121217,0.125793,0.052512,0.640215,-0.107302,-0.298819,-0.264146,0.903568,0.157754,0.177350,-38.977314,4.965012,18.304625,0.273221,1.773483,0.034652,0.000000,0.000000,0.000000,0.000000,0.000000,0.000000
13321270.000000,-0.258012,0.628316,0.319454,-1.527480,-0.223862,2.122104,0.125943,0.053036,0.646969,-0.109008,-0.295797,-0.260618,0.895131,0.153704,0.129743,-39.124104,4.965012,18.427610,0.303434,1.754256,0.087753,0.000000,0.000000,0.000000,0.000000,0.000000,0.000000
13321271.000000,-0.257960,0.628961,0.319344,-1.527770,-0.224122,2.123009,0.126102,0.051498,0.648398,-0.106772,-0.295491,-0.260816,0.895483,0.159509,0.153547,-39.147907,4.965012,18.526793,0.291532,1.760665,0.041976,0.000000,0.000000,0.000000,0.000000,0.000000,0.000000
13321272.000000,-0.257908,0.629602,0.319236,-1.528053,-0.224391,2.123898,0.126254,0.050508,0.643524,-0.108800,-0.291348,-0.268264,0.892884,0.155438,0.177350,-38.977314,4.941208,18.574400,0.344633,1.773483,0.087753,0.000000,0.000000,0.000000,0.000000,0.000000,0.000000
13321273.000000,-0.257858,0.630238,0.319127,-1.528335,-0.224669,2.124791,0.126414,0.049752,0.636512,-0.109365,-0.284707,-0.269597,0.895642,0.155254,0.205121,-38.830524,4.917404,18.598204,0.422452,1.779891,0.067611,0.000000,0.000000,0.000000,0.000000,0.000000,0.000000
13321274.000000,-0.257806,0.630901,0.319015,-1.528622,-0.224937,2.125685,0.126570,0.049370,0.640835,-0.110029,-0.286674,-0.268592,0.891399,0.159060,0.228925,-38.830524,4.893600,18.649778,0.440763,1.825668,0.061202,0.000000,0.000000,0.000000,0.000000,0.000000,0.000000
13321275.000000,-0.257754,0.631554,0.318910,-1.528898,-0.225191,2.126569,0.126721,0.052203,0.641403,-0.109139,-0.284039,-0.264909,0.888071,0.155709,0.252729,-38.707539,4.818222,18.649778,0.381254,1.884261,0.087753,0.000000,0.000000,0.000000,0.000000,0.000000,0.000000
13321276.000000,-0.257699,0.632201,0.318796,-1.529162,-0.225439,2.127469,0.126873,0.055019,0.647916,-0.110775,-0.275980,-0.261361,0.896433,0.150575,0.252729,-38.707539,4.818222,18.550596,0.303434,1.865035,0.067611,0.000000,0.000000,0.000000,0.000000,0.000000,0.000000
13321277.000000,-0.257645,0.632853,0.318684,-1.529434,-0.225691,2.128356,0.127026,0.053267,0.642703,-0.111550,-0.282756,-0.263890,0.910886,0.151849,0.276533,-38.608356,4.842026,18.625975,0.219205,1.897079,0.067611,0.000000,0.000000,0.000000,0.000000,0.000000,0.000000
13321278.000000,-0.257596,0.633500,0.318578,-1.529698,-0.225956,2.129250,0.127179,0.050421,0.640923,-0.110810,-0.273684,-0.265222,0.898452,0.156335,0.375715,-38.536945,4.770615,18.574400,0.243009,1.930038,0.067611,0.000000,0.000000,0.000000,0.000000,0.000000,0.000000
13321279.000000,-0.257544,0.634144,0.318472,-1.529959,-0.226222,2.130155,0.127332,0.050075,0.636607,-0.110290,-0.270414,-0.262196,0.895663,0.150261,0.403486,-38.215595,4.719040,18.526793,0.291532,1.916305,0.067611,0.000000,0.000000,0.000000,0.000000,0.000000,0.000000
13321280.000000,-0.257501,0.634795,0.318362,-1.530213,-0.226483,2.131042,0.127484,0.046376,0.638195,-0.109296,-0.266605,-0.260436,0.894002,0.151741,0.574079,-37.949787,4.770615,18.427610,0.362943,1.903487,0.021835,0.000000,0.000000,0.000000,0.000000,0.000000,0.000000
13321281.000000,-0.257453,0.635429,0.318257,-1.530476,-0.226744,2.131927,0.127632,0.046635,0.637232,-0.108454,-0.266472,-0.266694,0.882826,0.155736,0.625654,-37.703815,4.695236,18.451414,0.405057,1.858627,0.054794,0.000000,0.000000,0.000000,0.000000,0.000000,0.000000
13321282.000000,-0.257401,0.636072,0.318147,-1.530716,-0.227001,2.132825,0.127780,0.047863,0.632770,-0.109517,-0.256947,-0.262987,0.884982,0.154010,0.625654,-37.481647,4.671432,18.328428,0.332731,1.825668,0.067611,0.000000,0.000000,0.000000,0.000000,0.000000,0.000000
13321283.000000,-0.257348,0.636718,0.318039,-1.530960,-0.227264,2.133700,0.127932,0.049188,0.647148,-0.110043,-0.254022,-0.261984,0.883508,0.149749,0.625654,-37.434040,4.647629,18.253050,0.297025,1.865035,0.034652,0.000000,0.000000,0.000000,0.000000,0.000000,0.000000
13321284.000000,-0.257296,0.637363,0.317923,-1.531201,-0.227522,2.134570,0.128076,0.049080,0.643149,-0.112344,-0.247423,-0.260892,0.878912,0.144718,0.649457,-37.164265,4.695236,18.130064,0.261320,1.968490,0.048385,0.000000,0.000000,0.000000,0.000000,0.000000,0.000000
13321285.000000,-0.257236,0.638010,0.317807,-1.531431,-0.227769,2.135439,0.128227,0.051353,0.645449,-0.113740,-0.242432,-0.259744,0.875519,0.151126,0.574079,-36.846882,4.742844,17.983274,0.207303,2.001449,0.048385,0.000000,0.000000,0.000000,0.000000,0.000000,0.000000
13321286.000000,-0.257192,0.638631,0.317691,-1.531666,-0.228036,2.136329,0.128377,0.047569,0.637221,-0.115174,-0.240180,-0.261666,0.874694,0.150139,0.724836,-36.358906,4.794418,17.907896,0.237516,1.955673,0.074935,0.000000,0.000000,0.000000,0.000000,0.000000,0.000000
13321287.000000,-0.257138,0.639272,0.317583,-1.531895,-0.228301,2.137215,0.128535,0.048478,0.637959,-0.112784,-0.237001,-0.265891,0.879434,0.156722,0.724836,-36.065327,4.719040,17.757139,0.249418,1.897079,0.028243,0.000000,0.000000,0.000000,0.000000,0.000000,0.000000
13321288.000000,-0.257082,0.639931,0.317476,-1.532116,-0.228569,2.138096,0.128680,0.050059,0.641056,-0.108883,-0.229018,-0.265781,0.879131,0.153148,0.673261,-36.065327,4.671432,17.634153,0.261320,1.819259,0.074935,0.000000,0.000000,0.000000,0.000000,0.000000,0.000000
13321289.000000,-0.257032,0.640597,0.317360,-1.532330,-0.228840,2.138980,0.128830,0.048380,0.646752,-0.107399,-0.222715,-0.267144,0.869868,0.152148,0.748639,-36.259724,4.695236,17.511168,0.320829,1.800033,0.094161,0.000000,0.000000,0.000000,0.000000,0.000000,0.000000
13321290.000000,-0.256977,0.641278,0.317246,-1.532535,-0.229099,2.139854,0.128989,0.049000,0.660544,-0.107105,-0.217791,-0.266638,0.874076,0.153748,0.748639,-36.553303,4.719040,17.364378,0.332731,1.779891,0.041976,0.000000,0.000000,0.000000,0.000000,0.000000,0.000000
13321291.000000,-0.256920,0.641939,0.317130,-1.532741,-0.229360,2.140742,0.129146,0.049466,0.661988,-0.112270,-0.213994,-0.264238,0.878102,0.153205,0.748639,-36.700092,4.742844,17.213621,0.297025,1.754256,0.034652,0.000000,0.000000,0.000000,0.000000,0.000000,0.000000
13321292.000000,-0.256857,0.642607,0.317006,-1.532951,-0.229626,2.141633,0.129291,0.052582,0.663340,-0.111071,-0.210589,-0.258943,0.872598,0.150447,0.625654,-36.747700,4.818222,17.166014,0.285123,1.682845,0.094161,0.000000,0.000000,0.000000,0.000000,0.000000,0.000000
13321293.000000,-0.256802,0.643278,0.316887,-1.533148,-0.229883,2.142523,0.129446,0.051325,0.660014,-0.113753,-0.207732,-0.258609,0.882923,0.156916,0.649457,-36.747700,4.917404,17.114439,0.243009,1.617843,0.067611,0.000000,0.000000,0.000000,0.000000,0.000000,0.000000
13321294.000000,-0.256746,0.643947,0.316777,-1.533341,-0.230146,2.143409,0.129605,0.053645,0.660612,-0.112203,-0.202745,-0.260364,0.880812,0.156141,0.673261,-36.846882,4.865829,16.967649,0.267728,1.643478,0.048385,0.000000,0.000000,0.000000,0.000000,0.000000,0.000000
13321295.000000,-0.256690,0.644629,0.316666,-1.533532,-0.230403,2.144266,0.129758,0.052198,0.665880,-0.114369,-0.202542,-0.261695,0.866178,0.158169,0.697065,-36.969868,4.842026,16.868467,0.279630,1.708480,0.087753,0.000000,0.000000,0.000000,0.000000,0.000000,0.000000
13321296.000000,-0.256632,0.645307,0.316546,-1.533720,-0.230671,2.145147,0.129916,0.056032,0.674419,-0.115696,-0.197924,-0.264499,0.863780,0.158445,0.649457,-37.211872,4.893600,16.793089,0.339139,1.786300,0.028243,0.000000,0.000000,0.000000,0.000000,0.000000,0.000000
13321297.000000,-0.256569,0.645997,0.316436,-1.533907,-0.230932,2.146040,0.130063,0.058794,0.679293,-0.113033,-0.191763,-0.262521,0.870143,0.156064,0.601850,-37.410236,4.818222,16.745481,0.297025,1.767074,0.054794,0.000000,0.000000,0.000000,0.000000,0.000000,0.000000
13321298.000000,-0.256508,0.646682,0.316313,-1.534092,-0.231184,2.146909,0.130212,0.060864,0.681765,-0.114934,-0.192066,-0.259732,0.875075,0.153474,0.550275,-37.434040,4.893600,16.769285,0.213712,1.760665,0.081344,0.000000,0.000000,0.000000,0.000000,0.000000,0.000000
13321299.000000,-0.256441,0.647363,0.316191,-1.534272,-0.231436,2.147797,0.130363,0.063468,0.678049,-0.114962,-0.188399,-0.258808,0.867080,0.154366,0.451093,-37.481647,4.917404,16.646299,0.171598,1.760665,0.041976,0.000000,0.000000,0.000000,0.000000,0.000000,0.000000
13321300.000000,-0.256377,0.648065,0.316073,-1.534447,-0.231692,2.148670,0.130507,0.063498,0.677748,-0.115297,-0.183667,-0.267684,0.868058,0.147199,0.427289,-37.680012,4.941208,16.547117,0.159696,1.773483,0.081344,0.000000,0.000000,0.000000,0.000000,0.000000,0.000000
13321301.000000,-0.256314,0.648772,0.315956,-1.534619,-0.231958,2.149550,0.130659,0.063665,0.703250,-0.115325,-0.178316,-0.268537,0.872122,0.149657,0.403486,-38.021198,4.965012,16.376524,0.195402,1.793624,0.048385,0.000000,0.000000,0.000000,0.000000,0.000000,0.000000
13321302.000000,-0.256253,0.649491,0.315837,-1.534793,-0.232220,2.150443,0.130805,0.063509,0.708199,-0.119568,-0.175838,-0.263081,0.871994,0.147951,0.403486,-38.413960,4.917404,16.277342,0.213712,1.721298,0.100570,0.000000,0.000000,0.000000,0.000000,0.000000,0.000000
13321303.000000,-0.256192,0.650226,0.315714,-1.534964,-0.232477,2.151321,0.130963,0.063233,0.712451,-0.121784,-0.173602,-0.259814,0.869086,0.150170,0.403486,-39.001118,4.941208,16.150389,0.249418,1.630660,0.054794,0.000000,0.000000,0.000000,0.000000,0.000000,0.000000
13321304.000000,-0.256129,0.650941,0.315594,-1.535140,-0.232726,2.152206,0.131114,0.062517,0.715500,-0.119385,-0.173259,-0.252803,0.870037,0.149561,0.427289,-39.318501,4.917404,16.078978,0.178007,1.559249,0.074935,0.000000,0.000000,0.000000,0.000000,0.000000,0.000000
13321305.000000,-0.256059,0.651666,0.315469,-1.535316,-0.232990,2.153092,0.131258,0.064232,0.715678,-0.118427,-0.174295,-0.262196,0.876703,0.149418,0.351911,-39.588276,4.941208,16.055174,0.147794,1.474105,0.100570,0.000000,0.000000,0.000000,0.000000,0.000000,0.000000
13321306.000000,-0.255995,0.652403,0.315347,-1.535484,-0.233256,2.153954,0.131416,0.063787,0.715842,-0.117655,-0.174675,-0.263278,0.869139,0.150972,0.351911,-39.929462,4.941208,16.027403,0.159696,1.467696,0.061202,0.000000,0.000000,0.000000,0.000000,0.000000,0.000000
13321307.000000,-0.255931,0.653130,0.315222,-1.535661,-0.233524,2.154823,0.131566,0.063462,0.714143,-0.117461,-0.174113,-0.263503,0.862205,0.150384,0.351911,-40.223042,4.988815,16.126585,0.166105,1.584884,0.074935,0.000000,0.000000,0.000000,0.000000,0.000000,0.000000
13321308.000000,-0.255869,0.653873,0.315099,-1.535839,-0.233791,2.155683,0.131719,0.058834,0.719494,-0.120231,-0.177566,-0.264237,0.865987,0.150652,0.403486,-40.568195,5.012619,16.249571,0.183500,1.637069,0.067611,0.000000,0.000000,0.000000,0.000000,0.000000,0.000000
13321309.000000,-0.255804,0.654598,0.314973,-1.536021,-0.234064,2.156547,0.131871,0.059920,0.726661,-0.121567,-0.180554,-0.269218,0.858495,0.151915,0.403486,-40.738789,5.012619,16.400328,0.201810,1.605026,0.048385,0.000000,0.000000,0.000000,0.000000,0.000000,0.000000
13321310.000000,-0.255736,0.655314,0.314846,-1.536207,-0.234343,2.157418,0.132022,0.061416,0.723217,-0.123220,-0.180502,-0.272850,0.858794,0.151303,0.375715,-40.663410,5.040390,16.598692,0.207303,1.643478,0.054794,0.000000,0.000000,0.000000,0.000000,0.000000,0.000000
13321311.000000,-0.255671,0.656046,0.314723,-1.536385,-0.234614,2.158271,0.132171,0.061804,0.723744,-0.123128,-0.182166,-0.269928,0.855880,0.148304,0.375715,-40.691181,5.012619,16.745481,0.195402,1.649886,0.120712,0.000000,0.000000,0.000000,0.000000,0.000000,0.000000
13321312.000000,-0.255601,0.656771,0.314592,-1.536562,-0.234887,2.159126,0.132336,0.066315,0.727444,-0.121699,-0.178374,-0.263508,0.850227,0.152618,0.328107,-40.810200,5.040390,16.820860,0.201810,1.695663,0.028243,0.000000,0.000000,0.000000,0.000000,0.000000,0.000000
13321313.000000,-0.255538,0.657510,0.314465,-1.536739,-0.235149,2.159971,0.132490,0.067318,0.725942,-0.123310,-0.181015,-0.262963,0.860453,0.151827,0.375715,-40.956989,5.064194,16.892271,0.189908,1.793624,0.054794,0.000000,0.000000,0.000000,0.000000,0.000000,0.000000
13321314.000000,-0.255475,0.658239,0.314336,-1.536924,-0.235426,2.160831,0.132643,0.065170,0.722374,-0.124846,-0.180341,-0.268101,0.856878,0.150019,0.427289,-41.079975,5.087997,17.066832,0.195402,1.819259,0.094161,0.000000,0.000000,0.000000,0.000000,0.000000,0.000000
13321315.000000,-0.255406,0.658981,0.314199,-1.537098,-0.235705,2.161709,0.132801,0.065278,0.720448,-0.127256,-0.179005,-0.266175,0.858894,0.151353,0.403486,-41.226765,5.187180,17.090635,0.178007,1.689254,0.067611,0.000000,0.000000,0.000000,0.000000,0.000000,0.000000
13321316.000000,-0.255335,0.659732,0.314068,-1.537269,-0.235983,2.162567,0.132953,0.068612,0.722365,-0.129693,-0.176506,-0.266358,0.855565,0.150198,0.375715,-41.401325,5.187180,17.166014,0.195402,1.584884,0.087753,0.000000,0.000000,0.000000,0.000000,0.000000,0.000000
13321317.000000,-0.255272,0.660462,0.313934,-1.537439,-0.236269,2.163418,0.133106,0.068515,0.725318,-0.132710,-0.176212,-0.269266,0.849479,0.152211,0.451093,-41.373554,5.234787,17.189817,0.308927,1.643478,0.061202,0.000000,0.000000,0.000000,0.000000,0.000000,0.000000
13321318.000000,-0.255208,0.661198,0.313801,-1.537612,-0.236547,2.164272,0.133260,0.065378,0.725225,-0.131428,-0.176459,-0.277774,0.853474,0.154981,0.526471,-41.278339,5.234787,17.213621,0.374845,1.682845,0.100570,0.000000,0.000000,0.000000,0.000000,0.000000,0.000000
13321319.000000,-0.255138,0.661926,0.313663,-1.537780,-0.236826,2.165111,0.133426,0.065705,0.742289,-0.131186,-0.176695,-0.282462,0.845586,0.156416,0.502668,-41.202961,5.286362,17.241392,0.351041,1.741439,0.034652,0.000000,0.000000,0.000000,0.000000,0.000000,0.000000
13321320.000000,-0.255067,0.662652,0.313530,-1.537947,-0.237102,2.165968,0.133575,0.069498,0.734788,-0.133719,-0.173534,-0.280844,0.844394,0.157662,0.451093,-41.032368,5.333969,17.265196,0.315336,1.741439,0.087753,0.000000,0.000000,0.000000,0.000000,0.000000,0.000000
13321321.000000,-0.254995,0.663381,0.313398,-1.538115,-0.237363,2.166816,0.133734,0.068980,0.728640,-0.132156,-0.169288,-0.273144,0.851146,0.160434,0.403486,-40.861774,5.357773,17.340574,0.219205,1.714889,0.100570,0.000000,0.000000,0.000000,0.000000,0.000000,0.000000
13321322.000000,-0.254928,0.664086,0.313268,-1.538286,-0.237623,2.167676,0.133894,0.066763,0.723691,-0.129668,-0.170497,-0.267559,0.850662,0.159635,0.427289,-40.492817,5.310165,17.463560,0.135892,1.714889,0.061202,0.000000,0.000000,0.000000,0.000000,0.000000,0.000000
13321323.000000,-0.254862,0.664792,0.313129,-1.538460,-0.237907,2.168524,0.134049,0.067799,0.711938,-0.130446,-0.170887,-0.274546,0.846486,0.157591,0.474897,-40.052448,5.381577,17.562742,0.207303,1.806442,0.054794,0.000000,0.000000,0.000000,0.000000,0.000000,0.000000
13321324.000000,-0.254792,0.665500,0.312995,-1.538615,-0.238186,2.169358,0.134198,0.069399,0.704042,-0.131670,-0.163790,-0.273806,0.841904,0.149232,0.474897,-39.588276,5.357773,17.487364,0.261320,1.942855,0.100570,0.000000,0.000000,0.000000,0.000000,0.000000,0.000000
13321325.000000,-0.254722,0.666214,0.312856,-1.538772,-0.238462,2.170206,0.134349,0.067862,0.705004,-0.130556,-0.160037,-0.271506,0.841896,0.145895,0.474897,-39.441486,5.381577,17.487364,0.279630,1.974899,0.087753,0.000000,0.000000,0.000000,0.000000,0.000000,0.000000
13321326.000000,-0.254654,0.666948,0.312723,-1.538934,-0.238730,2.171041,0.134510,0.069724,0.705659,-0.132090,-0.163116,-0.269837,0.841524,0.148776,0.474897,-39.489094,5.357773,17.586546,0.291532,1.936446,0.041976,0.000000,0.000000,0.000000,0.000000,0.000000,0.000000
13321327.000000,-0.254581,0.667677,0.312586,-1.539094,-0.238996,2.171895,0.134660,0.072334,0.714072,-0.133082,-0.160961,-0.266226,0.845964,0.146621,0.427289,-39.564472,5.333969,17.634153,0.243009,1.858627,0.107894,0.000000,0.000000,0.000000,0.000000,0.000000,0.000000
13321328.000000,-0.254509,0.668425,0.312449,-1.539254,-0.239274,2.172752,0.134821,0.073568,0.726918,-0.134320,-0.158803,-0.265641,0.855026,0.149746,0.403486,-39.810444,5.310165,17.661924,0.237516,1.773483,0.054794,0.000000,0.000000,0.000000,0.000000,0.000000,0.000000
13321329.000000,-0.254439,0.669175,0.312307,-1.539400,-0.239550,2.173583,0.134977,0.073374,0.734772,-0.137095,-0.154312,-0.266572,0.844242,0.151023,0.427289,-40.004841,5.381577,17.562742,0.267728,1.754256,0.034652,0.000000,0.000000,0.000000,0.000000,0.000000,0.000000
13321330.000000,-0.254369,0.669897,0.312166,-1.539555,-0.239819,2.174420,0.135124,0.073301,0.735712,-0.140817,-0.153696,-0.265163,0.839601,0.148623,0.451093,-40.004841,5.405380,17.586546,0.267728,1.858627,0.094161,0.000000,0.000000,0.000000,0.000000,0.000000,0.000000
13321331.000000,-0.254306,0.670638,0.312035,-1.539711,-0.240083,2.175249,0.135280,0.068301,0.736203,-0.138598,-0.157743,-0.265076,0.858186,0.150248,0.550275,-40.052448,5.333969,17.685728,0.279630,1.916305,0.067611,0.000000,0.000000,0.000000,0.000000,0.000000,0.000000
13321332.000000,-0.254237,0.671367,0.311900,-1.539863,-0.240355,2.176081,0.135427,0.066607,0.732549,-0.139071,-0.156422,-0.268115,0.845749,0.149339,0.574079,-40.104023,5.333969,17.709532,0.243009,1.936446,0.094161,0.000000,0.000000,0.000000,0.000000,0.000000,0.000000
13321333.000000,-0.254170,0.672119,0.311764,-1.540018,-0.240630,2.176930,0.135585,0.064703,0.734621,-0.136178,-0.159859,-0.265129,0.847374,0.151992,0.625654,-40.274616,5.357773,17.784910,0.195402,1.890670,0.048385,0.000000,0.000000,0.000000,0.000000,0.000000,0.000000
13321334.000000,-0.254102,0.672858,0.311635,-1.540177,-0.240908,2.177766,0.135736,0.067067,0.724306,-0.132527,-0.160194,-0.270403,0.850412,0.154250,0.649457,-40.223042,5.310165,17.907896,0.213712,1.825668,0.094161,0.000000,0.000000,0.000000,0.000000,0.000000,0.000000
13321335.000000,-0.254037,0.673600,0.311498,-1.540328,-0.241185,2.178598,0.135902,0.068120,0.723534,-0.135136,-0.155836,-0.268264,0.842415,0.159099,0.697065,-40.274616,5.357773,17.983274,0.213712,1.851302,0.041976,0.000000,0.000000,0.000000,0.000000,0.000000,0.000000
13321336.000000,-0.253965,0.674338,0.311367,-1.540475,-0.241462,2.179435,0.136053,0.067116,0.720034,-0.134490,-0.149578,-0.280580,0.838259,0.155228,0.697065,-40.151630,5.286362,18.054686,0.237516,1.909896,0.087753,0.000000,0.000000,0.000000,0.000000,0.000000,0.000000
13321337.000000,-0.253898,0.675081,0.311225,-1.540605,-0.241753,2.180261,0.136208,0.068728,0.745309,-0.134757,-0.141026,-0.283505,0.839771,0.153619,0.724836,-40.223042,5.381577,17.955503,0.303434,1.955673,0.114303,0.000000,0.000000,0.000000,0.000000,0.000000,0.000000
13321338.000000,-0.253827,0.675841,0.311089,-1.540739,-0.242038,2.181094,0.136371,0.071399,0.751619,-0.133327,-0.138753,-0.283488,0.830528,0.159448,0.697065,-40.397602,5.433151,17.907896,0.320829,1.962081,0.067611,0.000000,0.000000,0.000000,0.000000,0.000000,0.000000
13321339.000000,-0.253758,0.676621,0.310954,-1.540875,-0.242307,2.181935,0.136530,0.071742,0.760433,-0.135032,-0.135036,-0.280698,0.833154,0.157236,0.724836,-40.810200,5.456955,17.884092,0.255826,1.890670,0.061202,0.000000,0.000000,0.000000,0.000000,0.000000,0.000000
13321340.000000,-0.253686,0.677383,0.310822,-1.541010,-0.242582,2.182786,0.136683,0.075902,0.764214,-0.132726,-0.133502,-0.275110,0.836292,0.154236,0.724836,-41.079975,5.433151,17.907896,0.231107,1.800033,0.100570,0.000000,0.000000,0.000000,0.000000,0.000000,0.000000
13321341.000000,-0.253615,0.678151,0.310684,-1.541138,-0.242860,2.183630,0.136838,0.075199,0.764735,-0.134635,-0.131194,-0.275181,0.841422,0.153993,0.748639,-41.302143,5.456955,17.884092,0.178007,1.727706,0.100570,0.000000,0.000000,0.000000,0.000000,0.000000,0.000000
13321342.000000,-0.253540,0.678941,0.310546,-1.541262,-0.243142,2.184461,0.137004,0.075439,0.772347,-0.140419,-0.129193,-0.279157,0.836914,0.159493,0.724836,-41.667133,5.504562,17.856321,0.225614,1.767074,0.048385,0.000000,0.000000,0.000000,0.000000,0.000000,0.000000
13321343.000000,-0.253473,0.679711,0.310405,-1.541389,-0.243429,2.185286,0.137158,0.070672,0.772228,-0.140170,-0.126275,-0.276429,0.829292,0.158987,0.796247,-41.936909,5.528366,17.907896,0.273221,1.871444,0.127120,0.000000,0.000000,0.000000,0.000000,0.000000,0.000000
13321344.000000,-0.253399,0.680498,0.310268,-1.541515,-0.243701,2.186108,0.137325,0.073051,0.775169,-0.140924,-0.128984,-0.273009,0.832134,0.159430,0.748639,-42.258259,5.556137,18.030882,0.273221,1.936446,0.061202,0.000000,0.000000,0.000000,0.000000,0.000000,0.000000
13321345.000000,-0.253320,0.681254,0.310127,-1.541650,-0.243983,2.186948,0.137486,0.079185,0.766151,-0.141238,-0.131985,-0.275980,0.831155,0.157441,0.649457,-42.305866,5.603745,18.205442,0.297025,1.955673,0.067611,0.000000,0.000000,0.000000,0.000000,0.000000,0.000000
13321346.000000,-0.253243,0.682018,0.309979,-1.541794,-0.244269,2.187805,0.137643,0.079406,0.756299,-0.143115,-0.134252,-0.276945,0.829834,0.154968,0.601850,-42.206684,5.726730,18.526793,0.279630,1.858627,0.087753,0.000000,0.000000,0.000000,0.000000,0.000000,0.000000
13321347.000000,-0.253170,0.682775,0.309841,-1.541925,-0.244542,2.188636,0.137801,0.075082,0.749499,-0.141594,-0.132518,-0.273005,0.836819,0.153346,0.601850,-41.988483,5.726730,18.721189,0.255826,1.806442,0.094161,0.000000,0.000000,0.000000,0.000000,0.000000,0.000000
13321348.000000,-0.253091,0.683530,0.309700,-1.542055,-0.244820,2.189458,0.137957,0.076314,0.747736,-0.141475,-0.133723,-0.271985,0.822941,0.152936,0.550275,-41.841694,5.750534,18.895750,0.297025,1.949264,0.087753,0.000000,0.000000,0.000000,0.000000,0.000000,0.000000
13321349.000000,-0.253015,0.684304,0.309559,-1.542174,-0.245096,2.190261,0.138121,0.073200,0.745039,-0.140089,-0.132007,-0.276410,0.813969,0.159001,0.526471,-41.865498,5.726730,18.971128,0.344633,2.125045,0.054794,0.000000,0.000000,0.000000,0.000000,0.000000,0.000000
13321350.000000,-0.252932,0.685063,0.309416,-1.542296,-0.245376,2.191080,0.138278,0.079299,0.748803,-0.139928,-0.125022,-0.280853,0.812212,0.155314,0.427289,-41.813923,5.726730,19.042540,0.303434,2.169906,0.094161,0.000000,0.000000,0.000000,0.000000,0.000000,0.000000
13321351.000000,-0.252849,0.685839,0.309274,-1.542413,-0.245654,2.191911,0.138447,0.080350,0.753382,-0.138734,-0.119428,-0.274529,0.810273,0.161002,0.328107,-41.813923,5.702927,19.094114,0.249418,2.072860,0.041976,0.000000,0.000000,0.000000,0.000000,0.000000,0.000000
13321352.000000,-0.252766,0.686612,0.309123,-1.542529,-0.245930,2.192733,0.138602,0.079338,0.757608,-0.141046,-0.117842,-0.272087,0.815543,0.156569,0.304304,-41.742512,5.798141,19.117918,0.249418,1.942855,0.081344,0.000000,0.000000,0.000000,0.000000,0.000000,0.000000
13321353.000000,-0.252684,0.687364,0.308981,-1.542643,-0.246205,2.193554,0.138760,0.078738,0.760155,-0.142901,-0.114958,-0.274261,0.817873,0.159147,0.276533,-41.496540,5.774338,19.070311,0.249418,1.930038,0.120712,0.000000,0.000000,0.000000,0.000000,0.000000,0.000000
13321354.000000,-0.252604,0.688124,0.308837,-1.542754,-0.246489,2.194369,0.138921,0.078075,0.759382,-0.141947,-0.111169,-0.282271,0.813807,0.157961,0.252729,-41.302143,5.774338,19.070311,0.320829,1.995040,0.100570,0.000000,0.000000,0.000000,0.000000,0.000000,0.000000
13321355.000000,-0.252525,0.688895,0.308694,-1.542849,-0.246779,2.195172,0.139080,0.079851,0.763792,-0.145261,-0.108198,-0.279307,0.807015,0.156710,0.252729,-41.226765,5.798141,18.919554,0.369352,2.039901,0.100570,0.000000,0.000000,0.000000,0.000000,0.000000,0.000000
13321356.000000,-0.252445,0.689650,0.308558,-1.542945,-0.247063,2.195982,0.139233,0.078660,0.765882,-0.144257,-0.103922,-0.276437,0.810488,0.154547,0.252729,-41.107746,5.702927,18.820372,0.410551,2.060043,0.120712,0.000000,0.000000,0.000000,0.000000,0.000000,0.000000
13321357.000000,-0.252363,0.690402,0.308425,-1.543050,-0.247330,2.196788,0.139394,0.078135,0.757123,-0.140741,-0.101405,-0.271370,0.807940,0.154277,0.252729,-40.762592,5.603745,18.871946,0.362943,2.020675,0.114303,0.000000,0.000000,0.000000,0.000000,0.000000,0.000000
13321358.000000,-0.252281,0.691125,0.308284,-1.543150,-0.247599,2.197620,0.139565,0.078013,0.749995,-0.143002,-0.102576,-0.271243,0.814884,0.161117,0.228925,-40.175434,5.556137,18.919554,0.297025,1.851302,0.034652,0.000000,0.000000,0.000000,0.000000,0.000000,0.000000
13321359.000000,-0.252201,0.691861,0.308146,-1.543236,-0.247888,2.198433,0.139714,0.080333,0.747029,-0.144062,-0.099329,-0.268857,0.816055,0.160513,0.228925,-39.659687,5.504562,18.796568,0.279630,1.897079,0.100570,0.000000,0.000000,0.000000,0.000000,0.000000,0.000000
13321360.000000,-0.252121,0.692620,0.308010,-1.543322,-0.248170,2.199222,0.139877,0.078561,0.750088,-0.142373,-0.094924,-0.272434,0.803139,0.158713,0.252729,-39.489094,5.456955,18.721189,0.279630,2.079269,0.074935,0.000000,0.000000,0.000000,0.000000,0.000000,0.000000
13321361.000000,-0.252043,0.693380,0.307874,-1.543398,-0.248450,2.200029,0.140036,0.079698,0.751386,-0.140241,-0.088833,-0.273412,0.795182,0.159053,0.328107,-39.564472,5.405380,18.526793,0.255826,2.190048,0.054794,0.000000,0.000000,0.000000,0.000000,0.000000,0.000000
13321362.000000,-0.251957,0.694145,0.307739,-1.543485,-0.248729,2.200842,0.140195,0.083031,0.749062,-0.141351,-0.086550,-0.276714,0.804022,0.156550,0.276533,-39.588276,5.357773,18.550596,0.279630,2.079269,0.067611,0.000000,0.000000,0.000000,0.000000,0.000000,0.000000
13321363.000000,-0.251873,0.694909,0.307600,-1.543564,-0.249014,2.201684,0.140353,0.084320,0.749553,-0.139813,-0.084678,-0.278559,0.808967,0.159413,0.276533,-39.687458,5.310165,18.574400,0.291532,1.851302,0.074935,0.000000,0.000000,0.000000,0.000000,0.000000,0.000000
13321364.000000,-0.251794,0.695675,0.307464,-1.543637,-0.249301,2.202515,0.140505,0.080902,0.746736,-0.138075,-0.082022,-0.276279,0.809652,0.156114,0.328107,-39.659687,5.234787,18.550596,0.327238,1.708480,0.107894,0.000000,0.000000,0.000000,0.000000,0.000000,0.000000
13321365.000000,-0.251713,0.696456,0.307328,-1.543701,-0.249587,2.203323,0.140669,0.079163,0.750702,-0.138003,-0.077690,-0.276414,0.808869,0.156300,0.351911,-39.782673,5.210983,18.427610,0.416959,1.714889,0.074935,0.000000,0.000000,0.000000,0.000000,0.000000,0.000000
13321366.000000,-0.251640,0.697230,0.307195,-1.543755,-0.249863,2.204122,0.140829,0.075552,0.759566,-0.136646,-0.069485,-0.272679,0.799202,0.158923,0.474897,-39.981037,5.111801,18.229246,0.428861,1.930038,0.094161,0.000000,0.000000,0.000000,0.000000,0.000000,0.000000
13321367.000000,-0.251555,0.698011,0.307058,-1.543815,-0.250140,2.204929,0.140993,0.079972,0.765709,-0.133870,-0.066959,-0.272642,0.796992,0.153930,0.427289,-40.127827,5.087997,18.177671,0.369352,2.079269,0.048385,0.000000,0.000000,0.000000,0.000000,0.000000,0.000000
13321368.000000,-0.251474,0.698784,0.306930,-1.543866,-0.250420,2.205753,0.141147,0.079062,0.785473,-0.130693,-0.059757,-0.268305,0.805244,0.151641,0.427289,-40.223042,5.012619,18.030882,0.315336,1.968490,0.087753,0.000000,0.000000,0.000000,0.000000,0.000000,0.000000
13321369.000000,-0.251388,0.699557,0.306795,-1.543927,-0.250684,2.206596,0.141303,0.079472,0.784087,-0.129104,-0.058606,-0.266369,0.810640,0.150995,0.375715,-40.127827,4.988815,18.054686,0.166105,1.819259,0.114303,0.000000,0.000000,0.000000,0.000000,0.000000,0.000000
13321370.000000,-0.251314,0.700323,0.306668,-1.543976,-0.250960,2.207409,0.141461,0.078711,0.773258,-0.124330,-0.058385,-0.266355,0.810645,0.150742,0.502668,-39.881855,4.941208,17.983274,0.166105,1.819259,0.114303,0.000000,0.000000,0.000000,0.000000,0.000000,0.000000
13321371.000000,-0.251236,0.701102,0.306538,-1.544014,-0.251244,2.208219,0.141623,0.079604,0.778079,-0.126360,-0.052023,-0.268804,0.805650,0.153161,0.574079,-40.004841,4.865829,17.784910,0.255826,1.936446,0.054794,0.000000,0.000000,0.000000,0.000000,0.000000,0.000000
13321372.000000,-0.251158,0.701895,0.306394,-1.544054,-0.251582,2.209307,0.141804,0.080199,0.781112,-0.131140,-0.046183,-0.299297,0.893001,0.161705,0.649457,-40.199238,4.917404,17.661924,0.781339,-0.378922,-0.196061,0.000000,0.000000,0.000000,0.000000,0.000000,0.000000
13321373.000000,-0.251073,0.702694,0.306249,-1.544094,-0.252083,2.210438,0.142030,0.082646,0.786498,-0.136493,-0.045556,-0.370199,0.979569,0.183879,0.625654,-40.445210,5.064194,17.562742,2.723173,-2.941483,-0.756364,0.000000,0.000000,0.000000,0.000000,0.000000,0.000000
13321374.000000,-0.251002,0.703473,0.306132,-1.544083,-0.252317,2.211595,0.142048,0.080419,0.785337,-0.130962,-0.027007,-0.323330,1.045868,0.130744,0.796247,-40.516621,4.794418,16.820860,1.994413,-5.125932,0.522628,0.000000,0.000000,0.000000,0.000000,0.000000,0.000000
13321375.000000,-0.250892,0.704309,0.306028,-1.543978,-0.252708,2.212606,0.142311,0.091849,0.801285,-0.122829,0.017158,-0.352241,1.038929,0.172163,0.403486,-41.226765,4.350082,14.864988,2.609647,-5.529679,-0.393815,0.000000,0.000000,0.000000,0.000000,0.000000,0.000000
13321376.000000,-0.250730,0.705117,0.305771,-1.543812,-0.253078,2.213603,0.142479,0.119656,0.802144,-0.166234,0.069056,-0.353674,1.014924,0.166364,-0.711321,-41.571918,6.095688,12.246580,2.723173,-5.190934,-0.413041,0.000000,0.000000,0.000000,0.000000,0.000000,0.000000
13321377.000000,-0.250712,0.705861,0.305685,-1.543651,-0.253414,2.214666,0.142604,0.085407,0.783379,-0.140178,0.101180,-0.341498,1.020011,0.155015,0.304304,-40.861774,5.258591,10.048704,2.436613,-5.119523,-0.089860,0.000000,0.000000,0.000000,0.000000,0.000000,0.000000
13321378.000000,-0.250675,0.706603,0.305651,-1.543502,-0.253691,2.215693,0.142704,0.065886,0.762093,-0.102956,0.117177,-0.308887,1.010602,0.132266,1.046186,-40.004841,3.687546,8.390379,1.725248,-4.742326,0.496993,0.000000,0.000000,0.000000,0.000000,0.000000,0.000000
13321379.000000,-0.250506,0.707274,0.305462,-1.543238,-0.254093,2.216747,0.142907,0.101530,0.731008,-0.126147,0.169336,-0.337335,1.008739,0.155135,-0.167803,-38.437763,4.449265,5.422850,2.143644,-4.514359,0.061202,0.000000,0.000000,0.000000,0.000000,0.000000,0.000000
13321380.000000,-0.250489,0.707850,0.305440,-1.543016,-0.254508,2.217641,0.143104,0.073542,0.672260,-0.092764,0.186665,-0.359590,0.984021,0.166491,0.824018,-35.450397,2.902023,3.423338,2.741483,-3.168534,-0.274796,0.000000,0.000000,0.000000,0.000000,0.000000,0.000000
13321381.000000,-0.250531,0.708362,0.305514,-1.542803,-0.254752,2.218563,0.143230,0.032924,0.611822,-0.035875,0.196483,-0.314939,0.956794,0.153707,2.629133,-31.927448,0.105087,1.963377,1.857084,-2.244767,0.081344,0.000000,0.000000,0.000000,0.000000,0.000000,0.000000
13321382.000000,-0.250361,0.708817,0.305388,-1.542543,-0.255011,2.219516,0.143420,0.077848,0.549639,-0.065471,0.215945,-0.294250,0.940479,0.168834,1.343732,-27.765766,0.351059,0.309019,1.229032,-2.017716,-0.208878,0.000000,0.000000,0.000000,0.000000,0.000000,0.000000
13321383.000000,-0.250211,0.709178,0.305289,-1.542322,-0.255381,2.220252,0.143584,0.105009,0.478218,-0.077509,0.213523,-0.316762,0.860165,0.164310,0.304304,-22.647968,0.426437,-0.456667,1.707853,-0.359696,-0.235429,0.000000,0.000000,0.000000,0.000000,0.000000,0.000000
13321384.000000,-0.250187,0.709479,0.305259,-1.542099,-0.255663,2.220893,0.143715,0.079887,0.416727,-0.065368,0.214791,-0.300459,0.774588,0.158795,1.121564,-17.240559,-0.482071,-0.877199,1.504606,1.662704,0.041976,0.000000,0.000000,0.000000,0.000000,0.000000,0.000000
13321385.000000,-0.250135,0.709771,0.305182,-1.541837,-0.255913,2.221672,0.143912,0.070422,0.366788,-0.071958,0.225292,-0.280116,0.771842,0.173954,1.490522,-12.122761,-0.605057,-1.742067,1.175931,1.682845,-0.261979,0.000000,0.000000,0.000000,0.000000,0.000000,0.000000
13321386.000000,-0.250066,0.710038,0.305129,-1.541578,-0.256274,2.222370,0.144066,0.069924,0.341153,-0.069381,0.234685,-0.312255,0.744432,0.165770,1.641279,-7.254902,-1.021622,-2.384767,1.982511,1.995040,-0.215287,0.000000,0.000000,0.000000,0.000000,0.000000,0.000000
13321387.000000,-0.250013,0.710242,0.305083,-1.541355,-0.256577,2.222940,0.144185,0.064198,0.292888,-0.062527,0.227042,-0.309450,0.685028,0.148391,1.986432,-2.037922,-1.489761,-2.384767,2.143644,3.035079,0.147262,0.000000,0.000000,0.000000,0.000000,0.000000,0.000000
13321388.000000,-0.249986,0.710458,0.305065,-1.541092,-0.256765,2.223580,0.144382,0.052117,0.266063,-0.047817,0.237586,-0.266911,0.674910,0.165215,2.680707,2.536358,-2.275284,-2.856874,1.342557,2.957259,-0.149369,0.000000,0.000000,0.000000,0.000000,0.000000,0.000000
13321389.000000,-0.249979,0.710664,0.305093,-1.540817,-0.257013,2.224250,0.144560,0.039443,0.248638,-0.022744,0.246459,-0.259256,0.679680,0.170231,3.569379,6.575054,-3.647965,-3.499574,1.128324,2.332870,-0.241837,0.000000,0.000000,0.000000,0.000000,0.000000,0.000000
13321390.000000,-0.249940,0.710807,0.305054,-1.540567,-0.257219,2.224820,0.144688,0.040168,0.211670,-0.027062,0.246527,-0.246183,0.647313,0.154115,3.918500,11.300091,-3.969315,-3.721742,0.698026,2.599288,0.048385,0.000000,0.000000,0.000000,0.000000,0.000000,0.000000
13321391.000000,-0.249875,0.710908,0.304975,-1.540320,-0.257372,2.225303,0.144875,0.049953,0.173136,-0.044855,0.246705,-0.216004,0.599645,0.162275,3.866926,16.124310,-3.624161,-3.920107,-0.174471,3.496505,-0.169511,0.000000,0.000000,0.000000,0.000000,0.000000,0.000000
13321392.000000,-0.249824,0.710999,0.304930,-1.540070,-0.257571,2.225853,0.145046,0.048264,0.148341,-0.044046,0.243634,-0.209738,0.587116,0.163013,4.017683,20.650982,-3.794754,-4.118471,-0.521456,3.808700,-0.274796,0.000000,0.000000,0.000000,0.000000,0.000000,0.000000
13321393.000000,-0.249802,0.711040,0.304882,-1.539841,-0.257773,2.226393,0.145192,0.041531,0.114264,-0.044991,0.238933,-0.208530,0.576860,0.159440,4.537397,25.399822,-3.893936,-4.166078,-0.646884,4.036666,-0.130143,0.000000,0.000000,0.000000,0.000000,0.000000,0.000000
13321394.000000,-0.249780,0.711049,0.304840,-1.539647,-0.257968,2.227001,0.145358,0.036760,0.084270,-0.046171,0.221873,-0.202527,0.591413,0.159546,5.057111,30.247845,-4.092300,-3.769350,-0.748507,3.770248,-0.188737,0.000000,0.000000,0.000000,0.000000,0.000000,0.000000
13321395.000000,-0.249743,0.711041,0.304794,-1.539457,-0.258156,2.227698,0.145512,0.037368,0.052158,-0.047023,0.209424,-0.199591,0.628844,0.159276,5.279279,34.996685,-4.286697,-3.325014,-0.796115,2.743026,-0.116410,0.000000,0.000000,0.000000,0.000000,0.000000,0.000000
13321396.000000,-0.249690,0.711059,0.304744,-1.539252,-0.258364,2.228417,0.145685,0.042081,0.042694,-0.049547,0.205584,-0.200920,0.667005,0.163978,5.303083,38.983807,-4.409683,-3.348818,-0.604769,1.735030,-0.182328,0.000000,0.000000,0.000000,0.000000,0.000000,0.000000
13321397.000000,-0.249647,0.711102,0.304704,-1.539029,-0.258541,2.229132,0.145825,0.043450,0.044840,-0.042641,0.209653,-0.192736,0.682862,0.149407,5.402265,42.240948,-4.754837,-3.697939,-0.748507,1.110641,0.028243,0.000000,0.000000,0.000000,0.000000,0.000000,0.000000
13321398.000000,-0.249594,0.711180,0.304651,-1.538786,-0.258750,2.229852,0.145998,0.046214,0.056766,-0.045861,0.224079,-0.196177,0.712367,0.158132,5.402265,44.664959,-4.901627,-4.463624,-0.646884,0.798446,-0.056901,0.000000,0.000000,0.000000,0.000000,0.000000,0.000000
13321399.000000,-0.249503,0.711292,0.304554,-1.538492,-0.258969,2.230599,0.146156,0.064416,0.082201,-0.062322,0.246532,-0.198409,0.724696,0.155644,4.834943,46.402630,-4.433487,-5.872011,-0.539767,0.616256,-0.037675,0.000000,0.000000,0.000000,0.000000,0.000000,0.000000
13321400.000000,-0.249410,0.711439,0.304472,-1.538180,-0.259191,2.231403,0.146291,0.075700,0.108049,-0.070176,0.265714,-0.207905,0.740856,0.147822,4.311262,47.699932,-4.239090,-7.478761,-0.461947,0.277511,0.147262,0.000000,0.000000,0.000000,0.000000,0.000000,0.000000
13321401.000000,-0.249332,0.711611,0.304399,-1.537863,-0.259415,2.232236,0.146455,0.076847,0.132212,-0.074789,0.285102,-0.213232,0.767280,0.152963,4.065290,48.656048,-4.215286,-9.109316,-0.431735,-0.171098,0.054794,0.000000,0.000000,0.000000,0.000000,0.000000,0.000000
13321402.000000,-0.249264,0.711801,0.304330,-1.537522,-0.259652,2.233113,0.146611,0.073040,0.156179,-0.068550,0.306196,-0.222579,0.801662,0.158006,4.017683,49.243206,-4.338272,-10.815248,-0.372225,-0.684708,0.009017,0.000000,0.000000,0.000000,0.000000,0.000000,0.000000
13321403.000000,-0.249204,0.712021,0.304281,-1.537155,-0.259898,2.234012,0.146751,0.067100,0.175650,-0.058991,0.326554,-0.235781,0.821381,0.153171,4.116865,49.632000,-4.826248,-12.596560,-0.372225,-1.133317,0.087753,0.000000,0.000000,0.000000,0.000000,0.000000,0.000000
13321404.000000,-0.249135,0.712266,0.304223,-1.536775,-0.260151,2.234915,0.146908,0.069390,0.207453,-0.056693,0.347265,-0.237592,0.844962,0.154337,4.089094,49.830364,-5.147598,-14.373903,-0.503146,-1.451920,0.041976,0.000000,0.000000,0.000000,0.000000,0.000000,0.000000
13321405.000000,-0.249063,0.712513,0.304147,-1.536380,-0.260394,2.235832,0.147060,0.071671,0.222937,-0.063342,0.361737,-0.236062,0.866455,0.151045,4.041486,50.100140,-5.246780,-16.032228,-0.724703,-1.666154,-0.004716,0.000000,0.000000,0.000000,0.000000,0.000000,0.000000
13321406.000000,-0.248994,0.712791,0.304078,-1.535984,-0.260637,2.236733,0.147197,0.070468,0.242909,-0.064459,0.374919,-0.239819,0.874874,0.143395,4.116865,50.219158,-5.417374,-17.365236,-0.958163,-1.718339,0.061202,0.000000,0.000000,0.000000,0.000000,0.000000,0.000000
13321407.000000,-0.248908,0.713100,0.303984,-1.535560,-0.260888,2.237653,0.147340,0.073082,0.265693,-0.071714,0.392012,-0.240798,0.879804,0.138941,3.918500,50.123943,-5.270584,-18.849001,-1.112887,-1.705521,0.107894,0.000000,0.000000,0.000000,0.000000,0.000000,0.000000
13321408.000000,-0.248810,0.713459,0.303886,-1.535118,-0.261162,2.238570,0.147481,0.080359,0.295961,-0.079837,0.405396,-0.248008,0.881371,0.137413,3.620954,49.536785,-5.123795,-20.356569,-1.119296,-1.613969,0.107894,0.000000,0.000000,0.000000,0.000000,0.000000,0.000000
13321409.000000,-0.248725,0.713857,0.303798,-1.534684,-0.261449,2.239480,0.147630,0.084292,0.331192,-0.081476,0.412690,-0.259256,0.891431,0.142865,3.497968,48.751263,-5.147598,-21.590395,-0.945345,-1.607560,0.061202,0.000000,0.000000,0.000000,0.000000,0.000000,0.000000
13321410.000000,-0.248648,0.714276,0.303720,-1.534240,-0.261717,2.240414,0.147770,0.084598,0.357686,-0.080996,0.418319,-0.264680,0.890969,0.143869,3.497968,47.771343,-5.365799,-22.729006,-0.945345,-1.822709,0.087753,0.000000,0.000000,0.000000,0.000000,0.000000,0.000000
13321411.000000,-0.248558,0.714760,0.303643,-1.533795,-0.261987,2.241364,0.147920,0.084604,0.398803,-0.078634,0.426164,-0.266271,0.907952,0.146687,3.371015,46.303448,-5.564163,-23.693056,-0.897738,-2.317094,0.061202,0.000000,0.000000,0.000000,0.000000,0.000000,0.000000
