chaoyuefei/paper-gmrm-data/robot_logs/s2_dq_mrm_min_0.30_log_20260314_172243.csv
# time_ms,q_0,q_1,q_2,q_3,q_4,q_5,q_6,dq_0,dq_1,dq_2,dq_3,dq_4,dq_5,dq_6,tau_J_0,tau_J_1,tau_J_2,tau_J_3,tau_J_4,tau_J_5,tau_J_6,O_dP_EE_c_0,O_dP_EE_c_1,O_dP_EE_c_2,O_dP_EE_c_3,O_dP_EE_c_4,O_dP_EE_c_5
11627853.000000,-2.418219,-1.662546,1.039279,-1.352473,1.798400,1.078704,-0.546143,0.000666,-0.000481,-0.000818,-0.000548,-0.000697,-0.000167,-0.000921,-0.167803,41.554607,-20.631912,-5.772829,0.954374,1.299239,-0.149369,0.000000,0.000000,0.000000,0.000000,0.000000,0.000000
11627854.000000,-2.418225,-1.662548,1.039279,-1.352472,1.798403,1.078705,-0.546144,-0.001319,-0.000878,-0.000545,0.000191,0.000417,0.000126,-0.001089,-0.092425,41.578411,-20.631912,-5.796632,0.930570,1.292831,-0.136552,0.000000,0.000000,0.000000,0.000000,0.000000,0.000000
11627855.000000,-2.418219,-1.662546,1.039279,-1.352473,1.798403,1.078704,-0.546143,0.000884,-0.000028,-0.000364,-0.000429,0.000481,-0.000153,-0.000251,-0.167803,41.554607,-20.631912,-5.772829,0.925077,1.299239,-0.149369,0.000000,0.000000,0.000000,0.000000,0.000000,0.000000
11627856.000000,-2.418223,-1.662543,1.039282,-1.352470,1.798401,1.078704,-0.546139,-0.000617,0.001095,0.000964,0.000827,-0.000561,-0.000102,0.001291,-0.116229,41.507000,-20.683487,-5.820436,0.948881,1.299239,-0.188737,0.000000,0.000000,0.000000,0.000000,0.000000,0.000000
11627857.000000,-2.418222,-1.662545,1.039282,-1.352474,1.798403,1.078704,-0.546148,0.004479,-0.001883,0.000643,-0.002325,0.001423,-0.001255,-0.004911,0.205121,41.483196,-20.683487,-5.697450,0.900358,1.331283,-0.163102,0.000000,0.000000,0.000000,0.000000,0.000000,0.000000
11627858.000000,-2.418209,-1.662549,1.039282,-1.352471,1.798407,1.078698,-0.546158,0.012247,-0.001994,-0.001892,0.001799,0.004679,0.001780,-0.010480,1.192975,41.237225,-20.584305,-5.574464,0.799650,1.513473,-0.235429,0.000000,0.000000,0.000000,0.000000,0.000000,0.000000
11627859.000000,-2.418180,-1.662550,1.039296,-1.352465,1.798405,1.078694,-0.546202,0.024521,0.001516,0.003016,-0.000336,0.004020,0.002194,-0.024432,2.752119,40.820660,-20.631912,-5.352296,0.649503,1.760665,-0.175919,0.000000,0.000000,0.000000,0.000000,0.000000,0.000000
11627860.000000,-2.418133,-1.662550,1.039311,-1.352470,1.798394,1.078711,-0.546256,0.030193,0.002410,0.004295,-0.003980,0.000238,0.007857,-0.040658,4.585004,40.308880,-20.584305,-5.030946,0.578092,1.877853,-0.208878,0.000000,0.000000,0.000000,0.000000,0.000000,0.000000
11627861.000000,-2.418070,-1.662551,1.039327,-1.352488,1.798368,1.078756,-0.546330,0.035385,0.002687,0.010374,-0.011743,-0.011233,0.018440,-0.048681,6.465497,39.793133,-20.485123,-4.610414,0.613798,1.825668,-0.235429,0.000000,0.000000,0.000000,0.000000,0.000000,0.000000
11627862.000000,-2.417978,-1.662551,1.039352,-1.352514,1.798335,1.078834,-0.546434,0.048903,0.005341,0.014543,-0.022845,-0.018982,0.036385,-0.066911,8.000836,39.281353,-20.362137,-4.213686,0.637601,1.611434,-0.188737,0.000000,0.000000,0.000000,0.000000,0.000000,0.000000
11627863.000000,-2.417875,-1.662546,1.039396,-1.352554,1.798290,1.078930,-0.546547,0.062014,0.004193,0.025057,-0.030431,-0.024052,0.056068,-0.079737,9.413190,38.765606,-20.413712,-3.844728,0.644010,1.461288,-0.274796,0.000000,0.000000,0.000000,0.000000,0.000000,0.000000
11627864.000000,-2.417757,-1.662546,1.039439,-1.352604,1.798224,1.079041,-0.546691,0.076115,0.003383,0.032334,-0.038320,-0.038798,0.072190,-0.102849,10.674787,38.372845,-20.314529,-3.499574,0.691617,1.389877,-0.241837,0.000000,0.000000,0.000000,0.000000,0.000000,0.000000
11627865.000000,-2.417630,-1.662542,1.039495,-1.352669,1.798151,1.079172,-0.546854,0.092516,0.005932,0.041489,-0.050659,-0.051165,0.095515,-0.119687,11.789594,37.984051,-20.239151,-3.154421,0.655912,1.377059,-0.202470,0.000000,0.000000,0.000000,0.000000,0.000000,0.000000
11627866.000000,-2.417492,-1.662538,1.039562,-1.352737,1.798065,1.079314,-0.547028,0.105454,0.006229,0.048233,-0.056395,-0.062007,0.114941,-0.134875,12.829022,37.662701,-20.167740,-2.956056,0.530485,1.467696,-0.254655,0.000000,0.000000,0.000000,0.000000,0.000000,0.000000
11627867.000000,-2.417342,-1.662528,1.039650,-1.352821,1.797950,1.079487,-0.547220,0.119053,0.004747,0.060235,-0.065989,-0.077596,0.133506,-0.149722,13.721662,37.297710,-20.239151,-2.805300,0.470060,1.578475,-0.221696,0.000000,0.000000,0.000000,0.000000,0.000000,0.000000
11627868.000000,-2.417172,-1.662515,1.039753,-1.352920,1.797820,1.079696,-0.547416,0.132112,0.006802,0.070197,-0.076009,-0.093216,0.160641,-0.163865,14.439740,36.928753,-20.362137,-2.682314,0.381254,1.605026,-0.229020,0.000000,0.000000,0.000000,0.000000,0.000000,0.000000
11627869.000000,-2.416984,-1.662495,1.039864,-1.353041,1.797663,1.079933,-0.547621,0.148524,0.009500,0.083174,-0.091324,-0.112344,0.183049,-0.176755,14.983258,36.512188,-20.461319,-2.511720,0.362943,1.572067,-0.215287,0.000000,0.000000,0.000000,0.000000,0.000000,0.000000
11627870.000000,-2.416784,-1.662480,1.039992,-1.353184,1.797479,1.080203,-0.547823,0.162384,0.009174,0.096128,-0.107839,-0.138996,0.210276,-0.185508,15.427594,36.194805,-20.584305,-2.261781,0.422452,1.513473,-0.215287,0.000000,0.000000,0.000000,0.000000,0.000000,0.000000
11627871.000000,-2.416558,-1.662460,1.040134,-1.353328,1.797278,1.080490,-0.548022,0.187142,0.012725,0.115215,-0.118008,-0.162732,0.234432,-0.190816,15.677533,35.853619,-20.731094,-2.237978,0.464567,1.474105,-0.208878,0.000000,0.000000,0.000000,0.000000,0.000000,0.000000
11627872.000000,-2.416327,-1.662449,1.040294,-1.353497,1.797053,1.080804,-0.548225,0.202938,0.009937,0.131258,-0.134231,-0.181442,0.264018,-0.192319,15.971112,35.607647,-20.929459,-2.114992,0.547880,1.481429,-0.155778,0.000000,0.000000,0.000000,0.000000,0.000000,0.000000
11627873.000000,-2.416075,-1.662432,1.040466,-1.353680,1.796809,1.081140,-0.548417,0.218031,0.011891,0.144339,-0.148207,-0.210544,0.283055,-0.188850,16.221052,35.337872,-21.052444,-2.063417,0.571683,1.474105,-0.221696,0.000000,0.000000,0.000000,0.000000,0.000000,0.000000
11627874.000000,-2.415800,-1.662418,1.040639,-1.353883,1.796545,1.081501,-0.548617,0.234855,0.011135,0.152474,-0.165070,-0.226767,0.306345,-0.189557,16.344038,35.167278,-21.100052,-2.015810,0.524076,1.474105,-0.202470,0.000000,0.000000,0.000000,0.000000,0.000000,0.000000
11627875.000000,-2.415520,-1.662405,1.040829,-1.354104,1.796262,1.081873,-0.548816,0.249776,0.009713,0.162431,-0.181807,-0.240325,0.325182,-0.194989,16.490828,35.044292,-21.175430,-1.940431,0.512174,1.559249,-0.182328,0.000000,0.000000,0.000000,0.000000,0.000000,0.000000
11627876.000000,-2.415214,-1.662403,1.041026,-1.354337,1.795976,1.082259,-0.549011,0.265867,0.008655,0.169541,-0.194828,-0.252475,0.343406,-0.193511,16.542402,35.068096,-21.223038,-1.841249,0.416959,1.676437,-0.196061,0.000000,0.000000,0.000000,0.000000,0.000000,0.000000
11627877.000000,-2.414891,-1.662401,1.041224,-1.354600,1.795664,1.082676,-0.549204,0.286448,0.008176,0.181029,-0.215753,-0.268162,0.359309,-0.191692,16.542402,35.091900,-21.123856,-1.642885,0.381254,1.714889,-0.175919,0.000000,0.000000,0.000000,0.000000,0.000000,0.000000
11627878.000000,-2.414565,-1.662404,1.041440,-1.354871,1.795326,1.083116,-0.549390,0.301722,0.004448,0.190376,-0.240901,-0.291348,0.395248,-0.190565,16.617781,35.143475,-21.076248,-1.519899,0.381254,1.695663,-0.188737,0.000000,0.000000,0.000000,0.000000,0.000000,0.000000
11627879.000000,-2.414215,-1.662403,1.041663,-1.355159,1.794978,1.083586,-0.549581,0.316249,0.003118,0.201919,-0.255099,-0.308813,0.417014,-0.191016,16.665388,35.143475,-21.052444,-1.396913,0.393156,1.624252,-0.188737,0.000000,0.000000,0.000000,0.000000,0.000000,0.000000
11627880.000000,-2.413858,-1.662403,1.041895,-1.355470,1.794612,1.084075,-0.549768,0.330678,0.002193,0.211969,-0.271221,-0.322470,0.436624,-0.183064,16.716963,35.143475,-20.953262,-1.297731,0.434354,1.572067,-0.169511,0.000000,0.000000,0.000000,0.000000,0.000000,0.000000
11627881.000000,-2.413486,-1.662401,1.042144,-1.355783,1.794224,1.084581,-0.549951,0.342695,0.002104,0.220065,-0.283145,-0.347634,0.460333,-0.178225,16.839949,35.119671,-20.877884,-1.226320,0.482877,1.539108,-0.202470,0.000000,0.000000,0.000000,0.000000,0.000000,0.000000
11627882.000000,-2.413109,-1.662408,1.042395,-1.356101,1.793820,1.085115,-0.550136,0.353032,-0.000203,0.229208,-0.295926,-0.364943,0.480755,-0.177444,17.062117,35.191082,-20.782669,-1.250124,0.500272,1.526290,-0.188737,0.000000,0.000000,0.000000,0.000000,0.000000,0.000000
11627883.000000,-2.412723,-1.662410,1.042660,-1.356441,1.793396,1.085674,-0.550314,0.365896,-0.001201,0.236257,-0.306240,-0.378168,0.507338,-0.174947,17.308088,35.238689,-20.731094,-1.273927,0.518583,1.507064,-0.202470,0.000000,0.000000,0.000000,0.000000,0.000000,0.000000
11627884.000000,-2.412320,-1.662412,1.042932,-1.356791,1.792964,1.086237,-0.550490,0.375586,-0.001414,0.253207,-0.319917,-0.395032,0.523991,-0.173032,17.558027,35.266460,-20.683487,-1.174745,0.464567,1.572067,-0.188737,0.000000,0.000000,0.000000,0.000000,0.000000,0.000000
11627885.000000,-2.411905,-1.662406,1.043219,-1.357154,1.792514,1.086834,-0.550661,0.388697,0.000848,0.265972,-0.332699,-0.408117,0.551538,-0.168702,17.728621,35.191082,-20.707291,-1.198549,0.446256,1.584884,-0.155778,0.000000,0.000000,0.000000,0.000000,0.000000,0.000000
11627886.000000,-2.411477,-1.662405,1.043515,-1.357525,1.792054,1.087452,-0.550823,0.403773,0.001142,0.274275,-0.345259,-0.423817,0.574896,-0.167110,17.978559,35.167278,-20.683487,-1.127138,0.434354,1.559249,-0.202470,0.000000,0.000000,0.000000,0.000000,0.000000,0.000000
11627887.000000,-2.411033,-1.662399,1.043814,-1.357922,1.791568,1.088102,-0.550995,0.414282,0.002540,0.281884,-0.363368,-0.436345,0.602210,-0.164761,18.224531,35.091900,-20.584305,-0.976381,0.434354,1.494247,-0.163102,0.000000,0.000000,0.000000,0.000000,0.000000,0.000000
11627888.000000,-2.410572,-1.662393,1.044137,-1.358335,1.791075,1.088777,-0.551159,0.428761,0.003932,0.290265,-0.376726,-0.450730,0.620771,-0.168406,18.347517,34.996685,-20.608109,-0.805788,0.452665,1.370651,-0.136552,0.000000,0.000000,0.000000,0.000000,0.000000,0.000000
11627889.000000,-2.410099,-1.662384,1.044459,-1.358763,1.790564,1.089458,-0.551316,0.439283,0.008118,0.300541,-0.395273,-0.468235,0.643199,-0.166238,18.545881,34.897503,-20.512894,-0.532045,0.524076,1.259872,-0.215287,0.000000,0.000000,0.000000,0.000000,0.000000,0.000000
11627890.000000,-2.409620,-1.662377,1.044791,-1.359195,1.790042,1.090156,-0.551484,0.450763,0.006796,0.315369,-0.405838,-0.481529,0.655209,-0.165116,18.498274,34.849895,-20.461319,-0.484438,0.637601,1.234237,-0.149369,0.000000,0.000000,0.000000,0.000000,0.000000,0.000000
11627891.000000,-2.409133,-1.662364,1.045132,-1.359645,1.789528,1.090862,-0.551637,0.453562,0.007610,0.324933,-0.422980,-0.507010,0.671744,-0.159596,17.879377,34.726910,-20.092361,-0.508241,0.715421,1.312057,-0.202470,0.000000,0.000000,0.000000,0.000000,0.000000,0.000000
11627892.000000,-2.408652,-1.662354,1.045500,-1.360112,1.789001,1.091584,-0.551794,0.454896,0.009216,0.341835,-0.433893,-0.514330,0.688048,-0.157180,16.689192,34.556316,-19.675797,-0.754213,0.781339,1.416427,-0.221696,0.000000,0.000000,0.000000,0.000000,0.000000,0.000000
11627893.000000,-2.408183,-1.662340,1.045903,-1.360598,1.788473,1.092338,-0.551957,0.460013,0.008545,0.362605,-0.445238,-0.519134,0.703330,-0.157471,14.983258,34.187359,-19.211624,-1.150941,0.835355,1.461288,-0.175919,0.000000,0.000000,0.000000,0.000000,0.000000,0.000000
11627894.000000,-2.407713,-1.662327,1.046320,-1.361081,1.787963,1.093101,-0.552116,0.461478,0.008657,0.378985,-0.453633,-0.515049,0.722295,-0.154695,13.102765,33.770794,-18.473709,-1.595277,0.673307,1.442062,-0.202470,0.000000,0.000000,0.000000,0.000000,0.000000,0.000000
11627895.000000,-2.407251,-1.662316,1.046762,-1.361574,1.787451,1.093884,-0.552273,0.472954,0.011514,0.399502,-0.459592,-0.507700,0.732747,-0.153460,11.194501,33.354229,-17.787369,-2.015810,0.530485,1.337692,-0.215287,0.000000,0.000000,0.000000,0.000000,0.000000,0.000000
11627896.000000,-2.406789,-1.662313,1.047233,-1.362074,1.786944,1.094670,-0.552436,0.476045,0.011693,0.414940,-0.478843,-0.506847,0.762213,-0.153182,9.389386,33.013042,-17.124832,-2.285585,0.344633,1.182052,-0.208878,0.000000,0.000000,0.000000,0.000000,0.000000,0.000000
11627897.000000,-2.406336,-1.662313,1.047715,-1.362574,1.786456,1.095461,-0.552600,0.471672,0.010998,0.433981,-0.483349,-0.502737,0.769042,-0.157811,7.830244,32.695660,-16.585281,-2.559328,0.195402,1.031905,-0.196061,0.000000,0.000000,0.000000,0.000000,0.000000,0.000000
11627898.000000,-2.405891,-1.662315,1.048208,-1.363066,1.785965,1.096242,-0.552761,0.467321,0.007437,0.449021,-0.479269,-0.502130,0.766488,-0.154703,6.493268,32.378277,-15.946548,-2.856874,0.129484,0.954086,-0.149369,0.000000,0.000000,0.000000,0.000000,0.000000,0.000000
11627899.000000,-2.405444,-1.662320,1.048706,-1.363553,1.785478,1.097010,-0.552905,0.461897,0.002434,0.460341,-0.480772,-0.498985,0.759439,-0.155652,5.378461,32.156109,-15.307816,-3.126650,0.088285,0.901900,-0.215287,0.000000,0.000000,0.000000,0.000000,0.000000,0.000000
11627900.000000,-2.404998,-1.662329,1.049204,-1.364027,1.784986,1.097789,-0.553066,0.453893,-0.001602,0.467631,-0.476705,-0.492541,0.764041,-0.156328,4.438215,31.961712,-14.744461,-3.475771,0.195402,0.811263,-0.169511,0.000000,0.000000,0.000000,0.000000,0.000000,0.000000
11627901.000000,-2.404557,-1.662331,1.049701,-1.364507,1.784496,1.098548,-0.553223,0.449563,0.000058,0.472389,-0.473431,-0.495673,0.761021,-0.156365,3.644758,31.715740,-14.081924,-3.721742,0.291532,0.830489,-0.149369,0.000000,0.000000,0.000000,0.000000,0.000000,0.000000
11627902.000000,-2.404105,-1.662342,1.050201,-1.364976,1.784020,1.099309,-0.553368,0.445355,-0.001619,0.486940,-0.474737,-0.490693,0.756493,-0.152777,2.879072,31.592754,-13.566177,-3.920107,0.315336,0.889083,-0.221696,0.000000,0.000000,0.000000,0.000000,0.000000,0.000000
11627903.000000,-2.403647,-1.662348,1.050705,-1.365463,1.783548,1.100065,-0.553524,0.447782,-0.001061,0.490409,-0.476429,-0.486462,0.750045,-0.154178,2.109418,31.398357,-12.998856,-3.769350,0.351041,0.993453,-0.175919,0.000000,0.000000,0.000000,0.000000,0.000000,0.000000
11627904.000000,-2.403176,-1.662351,1.051216,-1.365944,1.783077,1.100822,-0.553678,0.451963,-0.000645,0.495025,-0.479390,-0.477478,0.751403,-0.152971,1.343732,31.199993,-12.534683,-3.547182,0.339139,0.999862,-0.188737,0.000000,0.000000,0.000000,0.000000,0.000000,0.000000
11627906.000000,-2.402218,-1.662344,1.052256,-1.366938,1.782157,1.102355,-0.553992,0.462521,0.001529,0.503921,-0.482187,-0.469259,0.751546,-0.155435,-0.116229,30.640606,-12.042740,-2.805300,0.159696,0.836898,-0.142960,0.000000,0.000000,0.000000,0.000000,0.000000,0.000000
11627907.000000,-2.401746,-1.662332,1.052790,-1.367410,1.781703,1.103105,-0.554132,0.466795,0.007745,0.515302,-0.481747,-0.463721,0.746730,-0.146060,-0.564532,30.295452,-11.919754,-2.606935,0.100187,0.843307,-0.229020,0.000000,0.000000,0.000000,0.000000,0.000000,0.000000
11627908.000000,-2.401279,-1.662316,1.053311,-1.367880,1.781250,1.103851,-0.554290,0.475105,0.009546,0.514844,-0.478919,-0.454810,0.744747,-0.149495,-0.961260,29.930462,-11.701553,-2.606935,0.064481,0.876266,-0.175919,0.000000,0.000000,0.000000,0.000000,0.000000,0.000000
11627909.000000,-2.400813,-1.662302,1.053844,-1.368339,1.780788,1.104588,-0.554449,0.471335,0.012861,0.520832,-0.475706,-0.467121,0.737845,-0.150900,-1.183428,29.609112,-11.526993,-2.706117,0.088285,1.006271,-0.149369,0.000000,0.000000,0.000000,0.000000,0.000000,0.000000
11627910.000000,-2.400348,-1.662281,1.054386,-1.368795,1.780327,1.105329,-0.554598,0.470911,0.016903,0.534028,-0.466219,-0.465308,0.740467,-0.153719,-1.354022,29.220318,-11.431778,-2.856874,0.123990,1.162826,-0.221696,0.000000,0.000000,0.000000,0.000000,0.000000,0.000000
11627911.000000,-2.399879,-1.662258,1.054951,-1.369247,1.779876,1.106071,-0.554757,0.472460,0.017260,0.543453,-0.458062,-0.462262,0.736464,-0.158193,-1.580157,28.803753,-11.479385,-3.055238,0.141385,1.240646,-0.215287,0.000000,0.000000,0.000000,0.000000,0.000000,0.000000
11627912.000000,-2.399406,-1.662239,1.055515,-1.369691,1.779414,1.106833,-0.554923,0.471310,0.016266,0.549734,-0.450740,-0.463023,0.745707,-0.164007,-1.726946,28.434795,-11.356400,-3.202028,0.219205,1.129867,-0.149369,0.000000,0.000000,0.000000,0.000000,0.000000,0.000000
11627913.000000,-2.398923,-1.662215,1.056074,-1.370140,1.778963,1.107612,-0.555082,0.472803,0.018039,0.553590,-0.445567,-0.455154,0.758129,-0.163362,-2.048296,28.093609,-11.185806,-3.301210,0.219205,0.934859,-0.169511,0.000000,0.000000,0.000000,0.000000,0.000000,0.000000
11627914.000000,-2.398440,-1.662201,1.056657,-1.370581,1.778509,1.108370,-0.555233,0.474422,0.015427,0.563563,-0.445935,-0.459256,0.769474,-0.159257,-2.397418,27.923016,-11.110428,-3.277406,0.213712,0.850631,-0.208878,0.000000,0.000000,0.000000,0.000000,0.000000,0.000000
11627915.000000,-2.397954,-1.662192,1.057227,-1.371021,1.778062,1.109127,-0.555388,0.474264,0.014217,0.566278,-0.443382,-0.456949,0.768358,-0.157394,-2.742571,27.871441,-10.916031,-3.348818,0.201810,0.876266,-0.208878,0.000000,0.000000,0.000000,0.000000,0.000000,0.000000
11627916.000000,-2.397465,-1.662183,1.057810,-1.371463,1.777618,1.109879,-0.555544,0.478590,0.009967,0.568925,-0.442473,-0.449453,0.761326,-0.157113,-3.111529,27.847637,-10.618484,-3.348818,0.178007,0.941268,-0.182328,0.000000,0.000000,0.000000,0.000000,0.000000,0.000000
11627917.000000,-2.396968,-1.662176,1.058399,-1.371889,1.777185,1.110629,-0.555691,0.485844,0.007151,0.572917,-0.436795,-0.448061,0.754577,-0.149539,-3.536028,27.823833,-10.253494,-3.448000,0.112089,0.947677,-0.215287,0.000000,0.000000,0.000000,0.000000,0.000000,0.000000
11627918.000000,-2.396471,-1.662172,1.058987,-1.372307,1.776744,1.111381,-0.555843,0.486947,0.004172,0.579014,-0.430025,-0.444075,0.753184,-0.146843,-3.881182,27.847637,-9.983719,-3.646364,0.088285,0.947677,-0.188737,0.000000,0.000000,0.000000,0.000000,0.000000,0.000000
11627919.000000,-2.395976,-1.662164,1.059593,-1.372723,1.776309,1.112137,-0.555996,0.493344,0.006499,0.581712,-0.424994,-0.436727,0.748367,-0.148119,-4.250140,27.823833,-9.686172,-3.868532,0.081876,0.947677,-0.182328,0.000000,0.000000,0.000000,0.000000,0.000000,0.000000
11627920.000000,-2.395477,-1.662167,1.060210,-1.373131,1.775872,1.112883,-0.556144,0.492838,0.002257,0.605526,-0.422392,-0.435865,0.744855,-0.147597,-4.646868,27.923016,-9.614761,-4.043092,0.064481,0.960494,-0.221696,0.000000,0.000000,0.000000,0.000000,0.000000,0.000000
11627921.000000,-2.394978,-1.662170,1.060841,-1.373543,1.775437,1.113633,-0.556296,0.495518,-0.000539,0.612773,-0.414073,-0.435152,0.741412,-0.142240,-5.019793,28.018230,-9.515579,-4.189882,0.076383,0.941268,-0.175919,0.000000,0.000000,0.000000,0.000000,0.000000,0.000000
11627922.000000,-2.394480,-1.662172,1.061492,-1.373939,1.775012,1.114381,-0.556440,0.494247,-0.001428,0.623105,-0.411880,-0.430843,0.744830,-0.144809,-5.317339,28.069805,-9.515579,-4.340639,0.093778,0.934859,-0.188737,0.000000,0.000000,0.000000,0.000000,0.000000,0.000000
11627923.000000,-2.393969,-1.662173,1.062146,-1.374337,1.774584,1.115136,-0.556579,0.495419,-0.001963,0.634854,-0.406438,-0.429468,0.746452,-0.141122,-5.662493,28.117413,-9.662369,-4.511232,0.034269,0.960494,-0.229020,0.000000,0.000000,0.000000,0.000000,0.000000,0.000000
11627924.000000,-2.393462,-1.662176,1.062828,-1.374740,1.774158,1.115888,-0.556732,0.497514,-0.001788,0.646554,-0.404504,-0.428611,0.738711,-0.146664,-6.035418,28.141216,-9.860733,-4.586610,-0.025240,0.980636,-0.182328,0.000000,0.000000,0.000000,0.000000,0.000000,0.000000
11627925.000000,-2.392952,-1.662178,1.063517,-1.375129,1.773746,1.116650,-0.556880,0.497039,-0.001691,0.655496,-0.398923,-0.427897,0.747664,-0.148120,-6.380572,28.165020,-10.031326,-4.709596,-0.091158,0.843307,-0.182328,0.000000,0.000000,0.000000,0.000000,0.000000,0.000000
11627926.000000,-2.392445,-1.662191,1.064201,-1.375518,1.773312,1.117412,-0.557029,0.500436,-0.004517,0.665738,-0.394399,-0.425360,0.753496,-0.150121,-6.725726,28.311810,-10.130508,-4.808778,-0.060946,0.798446,-0.149369,0.000000,0.000000,0.000000,0.000000,0.000000,0.000000
11627927.000000,-2.391932,-1.662193,1.064912,-1.375907,1.772882,1.118137,-0.557170,0.500334,-0.004185,0.676086,-0.393669,-0.431701,0.739923,-0.143489,-7.051043,28.363384,-10.372513,-4.832582,-0.013339,1.025497,-0.202470,0.000000,0.000000,0.000000,0.000000,0.000000,0.000000
11627928.000000,-2.391412,-1.662205,1.065610,-1.376297,1.772467,1.118872,-0.557316,0.503017,-0.006199,0.685374,-0.395421,-0.428231,0.736452,-0.145368,-7.372393,28.510174,-10.372513,-4.884157,0.004056,1.214095,-0.221696,0.000000,0.000000,0.000000,0.000000,0.000000,0.000000
11627929.000000,-2.390895,-1.662218,1.066329,-1.376701,1.772025,1.119622,-0.557470,0.510500,-0.008105,0.691639,-0.395332,-0.433490,0.730329,-0.144935,-7.769122,28.680767,-10.348709,-4.832582,0.123990,1.240646,-0.149369,0.000000,0.000000,0.000000,0.000000,0.000000,0.000000
11627930.000000,-2.390384,-1.662228,1.067058,-1.377090,1.771601,1.120373,-0.557609,0.507531,-0.008823,0.696223,-0.394079,-0.425962,0.734872,-0.143954,-7.991290,28.827557,-10.301102,-4.832582,0.178007,1.175643,-0.221696,0.000000,0.000000,0.000000,0.000000,0.000000,0.000000
11627931.000000,-2.389867,-1.662241,1.067789,-1.377494,1.771184,1.121113,-0.557751,0.507628,-0.008749,0.702732,-0.395378,-0.421379,0.733184,-0.146418,-8.261065,28.950542,-10.225723,-4.709596,0.147794,1.169235,-0.188737,0.000000,0.000000,0.000000,0.000000,0.000000,0.000000
11627932.000000,-2.389359,-1.662256,1.068542,-1.377895,1.770760,1.121847,-0.557894,0.505972,-0.009815,0.710522,-0.400006,-0.414586,0.734589,-0.147503,-8.459430,29.121136,-10.225723,-4.586610,0.147794,1.155502,-0.182328,0.000000,0.000000,0.000000,0.000000,0.000000,0.000000
11627933.000000,-2.388849,-1.662270,1.069289,-1.378304,1.770347,1.122592,-0.558034,0.502253,-0.013816,0.722123,-0.400522,-0.413525,0.731846,-0.147746,-8.582416,29.291729,-10.102737,-4.439821,0.112089,1.110641,-0.215287,0.000000,0.000000,0.000000,0.000000,0.000000,0.000000
11627934.000000,-2.388356,-1.662281,1.070043,-1.378708,1.769933,1.123335,-0.558183,0.501335,-0.011800,0.727917,-0.399929,-0.413435,0.729727,-0.151064,-8.582416,29.390911,-9.884537,-4.312868,0.117582,1.039230,-0.169511,0.000000,0.000000,0.000000,0.000000,0.000000,0.000000
11627935.000000,-2.387857,-1.662290,1.070813,-1.379095,1.769520,1.124063,-0.558319,0.497962,-0.009183,0.737434,-0.394539,-0.408296,0.733540,-0.143655,-8.610187,29.438519,-9.614761,-4.412050,0.093778,1.096908,-0.235429,0.000000,0.000000,0.000000,0.000000,0.000000,0.000000
11627936.000000,-2.387366,-1.662298,1.071588,-1.379487,1.769113,1.124802,-0.558461,0.495007,-0.006830,0.745750,-0.389019,-0.403391,0.735952,-0.141411,-8.459430,29.462322,-9.491776,-4.439821,0.034269,1.136276,-0.221696,0.000000,0.000000,0.000000,0.000000,0.000000,0.000000
11627937.000000,-2.386882,-1.662301,1.072375,-1.379882,1.768696,1.125557,-0.558607,0.492325,-0.003554,0.753240,-0.386963,-0.407054,0.734029,-0.147499,-8.411822,29.414715,-9.222000,-4.535036,0.046171,1.058456,-0.163102,0.000000,0.000000,0.000000,0.000000,0.000000,0.000000
11627938.000000,-2.386391,-1.662303,1.073162,-1.380267,1.768288,1.126300,-0.558745,0.491755,-0.000784,0.777344,-0.384114,-0.409020,0.740588,-0.146166,-8.360248,29.343304,-9.047440,-4.562807,0.027860,1.006271,-0.229020,0.000000,0.000000,0.000000,0.000000,0.000000,0.000000
11627939.000000,-2.385910,-1.662303,1.073963,-1.380659,1.767872,1.127052,-0.558890,0.489551,-0.000880,0.782524,-0.383969,-0.407623,0.736953,-0.145695,-8.288836,29.220318,-8.829239,-4.610414,0.088285,0.999862,-0.169511,0.000000,0.000000,0.000000,0.000000,0.000000,0.000000
11627940.000000,-2.385416,-1.662299,1.074782,-1.381041,1.767469,1.127808,-0.559030,0.488068,-0.000516,0.788069,-0.380774,-0.406725,0.738726,-0.143408,-8.360248,29.073528,-8.706253,-4.685792,0.135892,0.934859,-0.155778,0.000000,0.000000,0.000000,0.000000,0.000000,0.000000
11627941.000000,-2.384932,-1.662288,1.075598,-1.381438,1.767065,1.128575,-0.559158,0.486656,0.004089,0.791467,-0.384143,-0.403701,0.744729,-0.138190,-8.261065,28.998150,-8.777664,-4.661989,0.129484,0.850631,-0.229020,0.000000,0.000000,0.000000,0.000000,0.000000,0.000000
11627942.000000,-2.384456,-1.662285,1.076420,-1.381827,1.766672,1.129348,-0.559301,0.488093,0.007886,0.788350,-0.378019,-0.399596,0.751845,-0.142985,-8.015094,29.315533,-9.198196,-4.709596,0.069974,0.824081,-0.208878,0.000000,0.000000,0.000000,0.000000,0.000000,0.000000
11627943.000000,-2.383975,-1.662283,1.077234,-1.382210,1.766291,1.130104,-0.559442,0.480549,0.007625,0.787735,-0.379475,-0.397378,0.753698,-0.140296,-7.570757,29.930462,-9.832962,-4.784975,0.022367,0.901900,-0.202470,0.000000,0.000000,0.000000,0.000000,0.000000,0.000000
11627944.000000,-2.383506,-1.662278,1.078031,-1.382594,1.765905,1.130864,-0.559583,0.487168,0.007499,0.786740,-0.376876,-0.391589,0.752126,-0.140209,-7.023272,30.712017,-10.765274,-4.856386,0.010465,1.019088,-0.149369,0.000000,0.000000,0.000000,0.000000,0.000000,0.000000
11627945.000000,-2.383027,-1.662272,1.078821,-1.382974,1.765520,1.131619,-0.559717,0.479528,0.006950,0.787082,-0.383488,-0.388170,0.765994,-0.141520,-6.432147,31.568951,-11.725357,-4.907960,0.010465,1.175643,-0.215287,0.000000,0.000000,0.000000,0.000000,0.000000,0.000000
11627946.000000,-2.382531,-1.662254,1.079610,-1.383363,1.765143,1.132391,-0.559861,0.479195,0.009700,0.789661,-0.384176,-0.389055,0.764809,-0.141162,-6.083025,32.326702,-12.879837,-4.832582,0.100187,1.259872,-0.182328,0.000000,0.000000,0.000000,0.000000,0.000000,0.000000
11627947.000000,-2.382047,-1.662222,1.080399,-1.383741,1.764752,1.133159,-0.559997,0.478823,0.013420,0.790746,-0.383591,-0.389807,0.759319,-0.142618,-5.737872,32.890057,-13.935135,-4.907960,0.213712,1.324874,-0.208878,0.000000,0.000000,0.000000,0.000000,0.000000,0.000000
11627948.000000,-2.381552,-1.662194,1.081197,-1.384129,1.764372,1.133925,-0.560132,0.480778,0.016766,0.790817,-0.385817,-0.390151,0.767481,-0.135129,-5.515704,33.429607,-14.839676,-4.757204,0.308927,1.350509,-0.221696,0.000000,0.000000,0.000000,0.000000,0.000000,0.000000
11627949.000000,-2.381057,-1.662166,1.081990,-1.384517,1.763981,1.134698,-0.560270,0.483156,0.017073,0.793883,-0.387947,-0.386363,0.767013,-0.135339,-5.293536,33.917583,-15.724380,-4.685792,0.446256,1.364242,-0.188737,0.000000,0.000000,0.000000,0.000000,0.000000,0.000000
11627950.000000,-2.380577,-1.662135,1.082799,-1.384905,1.763597,1.135447,-0.560396,0.481172,0.020665,0.797425,-0.385974,-0.388201,0.763721,-0.138626,-5.067400,34.262737,-16.462296,-4.661989,0.446256,1.519881,-0.235429,0.000000,0.000000,0.000000,0.000000,0.000000,0.000000
11627951.000000,-2.380094,-1.662108,1.083597,-1.385282,1.763221,1.136175,-0.560534,0.477539,0.021665,0.798673,-0.383750,-0.383607,0.752862,-0.138554,-4.797625,34.651531,-17.073257,-4.661989,0.410551,1.754256,-0.196061,0.000000,0.000000,0.000000,0.000000,0.000000,0.000000
11627952.000000,-2.379610,-1.662082,1.084412,-1.385666,1.762846,1.136923,-0.560670,0.481045,0.022791,0.802608,-0.380857,-0.379012,0.750493,-0.137643,-4.623065,35.020489,-17.541397,-4.685792,0.344633,1.825668,-0.175919,0.000000,0.000000,0.000000,0.000000,0.000000,0.000000
11627953.000000,-2.379143,-1.662067,1.085233,-1.386039,1.762474,1.137672,-0.560797,0.473968,0.018682,0.802025,-0.379119,-0.384569,0.746958,-0.133648,-4.277911,35.460857,-17.934158,-4.733400,0.243009,1.727706,-0.241837,0.000000,0.000000,0.000000,0.000000,0.000000,0.000000
11627954.000000,-2.378662,-1.662052,1.086058,-1.386413,1.762087,1.138415,-0.560937,0.475578,0.016796,0.811898,-0.372256,-0.382362,0.742896,-0.141858,-4.103350,35.853619,-18.326920,-4.884157,0.219205,1.741439,-0.155778,0.000000,0.000000,0.000000,0.000000,0.000000,0.000000
11627955.000000,-2.378194,-1.662042,1.086900,-1.386780,1.761701,1.139153,-0.561063,0.474956,0.012589,0.812191,-0.366371,-0.374458,0.735061,-0.137850,-3.904986,36.218609,-18.767288,-5.078554,0.159696,1.760665,-0.196061,0.000000,0.000000,0.000000,0.000000,0.000000,0.000000
11627956.000000,-2.377717,-1.662047,1.087730,-1.387135,1.761314,1.139898,-0.561192,0.472991,0.005393,0.834155,-0.361150,-0.378267,0.738198,-0.134381,-3.758196,36.758160,-19.064835,-5.304689,0.225614,1.682845,-0.229020,0.000000,0.000000,0.000000,0.000000,0.000000,0.000000
11627957.000000,-2.377254,-1.662062,1.088561,-1.387491,1.760901,1.140644,-0.561330,0.472112,-0.003925,0.824552,-0.354038,-0.379797,0.739939,-0.133225,-3.607440,37.345318,-19.235428,-5.526857,0.410551,1.572067,-0.155778,0.000000,0.000000,0.000000,0.000000,0.000000,0.000000
11627958.000000,-2.376779,-1.662079,1.089419,-1.387837,1.760512,1.141381,-0.561456,0.474423,-0.009078,0.827316,-0.350975,-0.380833,0.739376,-0.131944,-3.583636,37.861065,-19.576614,-5.820436,0.464567,1.539108,-0.196061,0.000000,0.000000,0.000000,0.000000,0.000000,0.000000
11627959.000000,-2.376291,-1.662105,1.090266,-1.388177,1.760126,1.142113,-0.561584,0.478619,-0.017615,0.827913,-0.344730,-0.379738,0.735133,-0.131625,-3.706622,38.448223,-19.945572,-6.169557,0.464567,1.617843,-0.208878,0.000000,0.000000,0.000000,0.000000,0.000000,0.000000
11627960.000000,-2.375820,-1.662136,1.091119,-1.388528,1.759730,1.142844,-0.561713,0.474483,-0.023292,0.830857,-0.347120,-0.378866,0.725226,-0.132405,-3.782000,39.011578,-20.191544,-6.340150,0.476469,1.624252,-0.215287,0.000000,0.000000,0.000000,0.000000,0.000000,0.000000
11627961.000000,-2.375337,-1.662181,1.091965,-1.388872,1.759351,1.143571,-0.561848,0.474722,-0.030268,0.825554,-0.346231,-0.377190,0.726849,-0.134184,-3.928790,39.693951,-20.314529,-6.490907,0.440763,1.656295,-0.188737,0.000000,0.000000,0.000000,0.000000,0.000000,0.000000
11627962.000000,-2.374850,-1.662218,1.092805,-1.389226,1.758971,1.144290,-0.561980,0.483368,-0.037494,0.829038,-0.347782,-0.375128,0.724733,-0.129502,-4.178729,40.209698,-20.485123,-6.514711,0.405057,1.858627,-0.208878,0.000000,0.000000,0.000000,0.000000,0.000000,0.000000
11627963.000000,-2.374364,-1.662255,1.093652,-1.389577,1.758589,1.144995,-0.562113,0.484505,-0.038862,0.827541,-0.353809,-0.379545,0.734255,-0.126464,-4.325518,40.673870,-20.659683,-6.538515,0.362943,2.085677,-0.182328,0.000000,0.000000,0.000000,0.000000,0.000000,0.000000
11627964.000000,-2.373869,-1.662294,1.094485,-1.389925,1.758207,1.145729,-0.562246,0.488540,-0.039515,0.828263,-0.349246,-0.384214,0.737236,-0.128075,-4.623065,41.114239,-20.731094,-6.613893,0.369352,2.033492,-0.188737,0.000000,0.000000,0.000000,0.000000,0.000000,0.000000
11627965.000000,-2.373387,-1.662331,1.095323,-1.390266,1.757834,1.146484,-0.562373,0.490167,-0.039189,0.825482,-0.348096,-0.378544,0.739139,-0.127909,-4.845232,41.507000,-20.782669,-6.836061,0.393156,1.858627,-0.221696,0.000000,0.000000,0.000000,0.000000,0.000000,0.000000
11627966.000000,-2.372900,-1.662366,1.096167,-1.390607,1.757454,1.147223,-0.562510,0.483040,-0.037817,0.826169,-0.346797,-0.380063,0.737023,-0.130976,-5.043597,41.848186,-20.806473,-6.982851,0.434354,1.754256,-0.182328,0.000000,0.000000,0.000000,0.000000,0.000000,0.000000
11627967.000000,-2.372412,-1.662404,1.096997,-1.390938,1.757075,1.147951,-0.562637,0.480053,-0.038231,0.827490,-0.344210,-0.379541,0.731781,-0.133899,-5.293536,42.240948,-20.830276,-7.304201,0.446256,1.819259,-0.215287,0.000000,0.000000,0.000000,0.000000,0.000000,0.000000
11627968.000000,-2.371935,-1.662434,1.097839,-1.391277,1.756699,1.148684,-0.562760,0.480639,-0.036299,0.827160,-0.342008,-0.375301,0.729865,-0.131894,-5.416522,42.534527,-20.754898,-7.403383,0.476469,1.909896,-0.254655,0.000000,0.000000,0.000000,0.000000,0.000000,0.000000
11627969.000000,-2.371456,-1.662469,1.098670,-1.391593,1.756335,1.149412,-0.562897,0.479448,-0.034963,0.843655,-0.335436,-0.375259,0.726518,-0.134910,-5.487933,42.828106,-20.707291,-7.700929,0.458158,1.903487,-0.175919,0.000000,0.000000,0.000000,0.000000,0.000000,0.000000
11627970.000000,-2.370976,-1.662499,1.099501,-1.391916,1.755968,1.150151,-0.563020,0.479763,-0.033107,0.838602,-0.331305,-0.368717,0.723031,-0.128657,-5.686297,43.074078,-20.512894,-7.946901,0.416959,1.779891,-0.196061,0.000000,0.000000,0.000000,0.000000,0.000000,0.000000
11627971.000000,-2.370500,-1.662520,1.100352,-1.392224,1.755617,1.150876,-0.563149,0.477954,-0.030453,0.838835,-0.324450,-0.363369,0.726261,-0.124264,-5.813250,43.121685,-20.608109,-8.268251,0.332731,1.767074,-0.196061,0.000000,0.000000,0.000000,0.000000,0.000000,0.000000
11627972.000000,-2.370024,-1.662542,1.101188,-1.392548,1.755264,1.151616,-0.563271,0.474949,-0.026007,0.837987,-0.322786,-0.361316,0.729743,-0.124038,-5.860857,43.173260,-20.683487,-8.442812,0.297025,1.708480,-0.254655,0.000000,0.000000,0.000000,0.000000,0.000000,0.000000
11627973.000000,-2.369548,-1.662563,1.102014,-1.392863,1.754906,1.152352,-0.563401,0.473556,-0.021819,0.827679,-0.317273,-0.355287,0.730590,-0.128628,-6.059222,43.173260,-20.560501,-8.641176,0.261320,1.721298,-0.188737,0.000000,0.000000,0.000000,0.000000,0.000000,0.000000
11627974.000000,-2.369079,-1.662585,1.102849,-1.393172,1.754544,1.153073,-0.563529,0.469853,-0.018889,0.839225,-0.317429,-0.354939,0.728986,-0.129671,-6.106829,43.173260,-20.437515,-8.787966,0.339139,1.779891,-0.188737,0.000000,0.000000,0.000000,0.000000,0.000000,0.000000
11627975.000000,-2.368620,-1.662607,1.103682,-1.393479,1.754198,1.153800,-0.563650,0.475630,-0.019924,0.832851,-0.310187,-0.348399,0.720084,-0.131653,-6.158404,43.173260,-20.560501,-9.085512,0.285123,1.877853,-0.229020,0.000000,0.000000,0.000000,0.000000,0.000000,0.000000
11627976.000000,-2.368155,-1.662622,1.104534,-1.393785,1.753857,1.154521,-0.563774,0.472114,-0.019242,0.832075,-0.308075,-0.355800,0.716479,-0.133567,-6.134600,43.097881,-20.782669,-9.283876,0.207303,1.949264,-0.202470,0.000000,0.000000,0.000000,0.000000,0.000000,0.000000
11627977.000000,-2.367688,-1.662639,1.105359,-1.394081,1.753508,1.155260,-0.563895,0.467599,-0.019043,0.828169,-0.305634,-0.350831,0.719884,-0.133204,-6.134600,43.026470,-20.806473,-9.652834,0.166105,1.858627,-0.202470,0.000000,0.000000,0.000000,0.000000,0.000000,0.000000
11627978.000000,-2.367242,-1.662655,1.106203,-1.394384,1.753153,1.156014,-0.564016,0.461092,-0.016345,0.824071,-0.303287,-0.349632,0.724116,-0.128887,-6.011614,42.974895,-20.953262,-9.898806,0.201810,1.714889,-0.196061,0.000000,0.000000,0.000000,0.000000,0.000000,0.000000
11627979.000000,-2.366788,-1.662674,1.107047,-1.394680,1.752815,1.156740,-0.564133,0.455858,-0.018875,0.823036,-0.301206,-0.346397,0.725072,-0.128468,-5.936236,42.974895,-21.147659,-10.049562,0.171598,1.741439,-0.221696,0.000000,0.000000,0.000000,0.000000,0.000000,0.000000
11627980.000000,-2.366334,-1.662686,1.107885,-1.394976,1.752472,1.157451,-0.564255,0.459547,-0.015629,0.825627,-0.297520,-0.346968,0.714011,-0.124496,-5.837054,42.903484,-21.346024,-10.247927,0.112089,1.930038,-0.229020,0.000000,0.000000,0.000000,0.000000,0.000000,0.000000
11627981.000000,-2.365906,-1.662700,1.108724,-1.395272,1.752128,1.158174,-0.564386,0.448485,-0.016418,0.823081,-0.302283,-0.341027,0.729364,-0.125120,-5.539507,42.828106,-21.469009,-10.347109,0.117582,1.930038,-0.163102,0.000000,0.000000,0.000000,0.000000,0.000000,0.000000
11627982.000000,-2.365482,-1.662720,1.109554,-1.395560,1.751796,1.158921,-0.564502,0.437984,-0.019937,0.822556,-0.301224,-0.334976,0.734937,-0.120590,-5.166583,42.875713,-21.540421,-10.569277,0.088285,1.806442,-0.215287,0.000000,0.000000,0.000000,0.000000,0.000000,0.000000
11627983.000000,-2.365061,-1.662726,1.110395,-1.395851,1.751461,1.159659,-0.564626,0.431067,-0.014921,0.826901,-0.295685,-0.333840,0.730191,-0.120085,-4.797625,42.728924,-21.687210,-10.716066,0.027860,1.793624,-0.182328,0.000000,0.000000,0.000000,0.000000,0.000000,0.000000
11627984.000000,-2.364639,-1.662740,1.111238,-1.396143,1.751131,1.160366,-0.564750,0.426970,-0.014045,0.827062,-0.294489,-0.329574,0.726571,-0.118806,-4.476275,42.705120,-21.738785,-10.739870,-0.013339,1.923629,-0.175919,0.000000,0.000000,0.000000,0.000000,0.000000,0.000000
11627985.000000,-2.364225,-1.662755,1.112062,-1.396436,1.750793,1.161097,-0.564872,0.420305,-0.013409,0.823493,-0.295633,-0.328758,0.722045,-0.122260,-4.103350,42.681316,-21.714981,-10.791445,0.010465,1.942855,-0.196061,0.000000,0.000000,0.000000,0.000000,0.000000,0.000000
11627986.000000,-2.363819,-1.662771,1.112905,-1.396754,1.750455,1.161843,-0.564992,0.417865,-0.013580,0.824037,-0.304402,-0.331195,0.724816,-0.126269,-3.730425,42.681316,-21.762589,-10.517702,0.123990,1.851302,-0.175919,0.000000,0.000000,0.000000,0.000000,0.000000,0.000000
11627987.000000,-2.363406,-1.662787,1.113742,-1.397053,1.750130,1.162565,-0.565108,0.414050,-0.013509,0.846517,-0.302226,-0.335445,0.724216,-0.121634,-3.436846,42.681316,-21.960953,-10.446291,0.058073,1.793624,-0.208878,0.000000,0.000000,0.000000,0.000000,0.000000,0.000000
11627988.000000,-2.363003,-1.662795,1.114594,-1.397380,1.749795,1.163307,-0.565226,0.409557,-0.014899,0.846772,-0.312161,-0.336113,0.725909,-0.121289,-3.163104,42.609905,-22.202957,-10.124941,0.064481,1.773483,-0.163102,0.000000,0.000000,0.000000,0.000000,0.000000,0.000000
11627989.000000,-2.362608,-1.662817,1.115458,-1.397699,1.749465,1.164034,-0.565340,0.404670,-0.017339,0.852408,-0.314837,-0.332860,0.729529,-0.118079,-2.817950,42.728924,-22.571915,-9.875002,0.076383,1.735030,-0.196061,0.000000,0.000000,0.000000,0.000000,0.000000,0.000000
11627990.000000,-2.362213,-1.662837,1.116299,-1.398020,1.749132,1.164763,-0.565455,0.400117,-0.018381,0.852260,-0.318652,-0.330727,0.724171,-0.117298,-2.445025,42.828106,-22.742508,-9.676638,0.100187,1.773483,-0.202470,0.000000,0.000000,0.000000,0.000000,0.000000,0.000000
11627991.000000,-2.361822,-1.662862,1.117153,-1.398350,1.748782,1.165482,-0.565576,0.400243,-0.020134,0.853501,-0.319970,-0.335220,0.719335,-0.118173,-2.123675,42.974895,-23.040054,-9.529848,0.159696,1.962081,-0.155778,0.000000,0.000000,0.000000,0.000000,0.000000,0.000000
11627992.000000,-2.361431,-1.662884,1.118011,-1.398677,1.748448,1.166192,-0.565683,0.397911,-0.023176,0.850760,-0.320623,-0.337147,0.712462,-0.114316,-1.826129,43.074078,-23.357437,-9.406862,0.178007,2.137862,-0.229020,0.000000,0.000000,0.000000,0.000000,0.000000,0.000000
11627993.000000,-2.361045,-1.662909,1.118866,-1.399015,1.748112,1.166928,-0.565797,0.405819,-0.023032,0.856789,-0.327476,-0.334966,0.713259,-0.111114,-1.603961,43.197063,-23.774002,-9.256105,0.249418,2.125045,-0.208878,0.000000,0.000000,0.000000,0.000000,0.000000,0.000000
11627994.000000,-2.360656,-1.662937,1.119721,-1.399350,1.747776,1.167657,-0.565908,0.401599,-0.023865,0.856197,-0.331222,-0.345300,0.717645,-0.112276,-1.381793,43.367657,-24.019974,-9.061708,0.303434,2.027084,-0.208878,0.000000,0.000000,0.000000,0.000000,0.000000,0.000000
11627995.000000,-2.360265,-1.662965,1.120559,-1.399700,1.747434,1.168386,-0.566022,0.398673,-0.023677,0.856795,-0.336546,-0.343271,0.718284,-0.112884,-1.207232,43.514446,-24.119156,-8.740358,0.291532,1.995040,-0.202470,0.000000,0.000000,0.000000,0.000000,0.000000,0.000000
11627996.000000,-2.359883,-1.662998,1.121420,-1.400061,1.747079,1.169107,-0.566135,0.393879,-0.027200,0.853568,-0.338524,-0.346559,0.711550,-0.113738,-1.032672,43.685040,-24.365128,-8.367434,0.416959,2.020675,-0.188737,0.000000,0.000000,0.000000,0.000000,0.000000,0.000000
11627997.000000,-2.359501,-1.663028,1.122275,-1.400416,1.746750,1.169800,-0.566243,0.392251,-0.029224,0.854606,-0.345454,-0.339292,0.700538,-0.111832,-0.862078,43.831829,-24.464310,-8.022280,0.405057,2.098495,-0.235429,0.000000,0.000000,0.000000,0.000000,0.000000,0.000000
11627998.000000,-2.359120,-1.663058,1.123109,-1.400773,1.746412,1.170520,-0.566356,0.393060,-0.030789,0.846759,-0.348673,-0.336873,0.699243,-0.110118,-0.635943,43.978619,-24.464310,-7.847719,0.351041,2.072860,-0.196061,0.000000,0.000000,0.000000,0.000000,0.000000,0.000000
11627999.000000,-2.358750,-1.663091,1.123949,-1.401128,1.746067,1.171235,-0.566464,0.386977,-0.032470,0.841244,-0.349374,-0.334041,0.721524,-0.110234,-0.366168,44.149212,-24.388931,-7.677125,0.381254,1.981307,-0.215287,0.000000,0.000000,0.000000,0.000000,0.000000,0.000000
11628000.000000,-2.358383,-1.663121,1.124791,-1.401485,1.745738,1.171951,-0.566569,0.380188,-0.031672,0.842729,-0.351663,-0.329768,0.715513,-0.109862,-0.017047,44.224590,-24.488113,-7.554140,0.362943,1.968490,-0.254655,0.000000,0.000000,0.000000,0.000000,0.000000,0.000000
11628001.000000,-2.358016,-1.663151,1.125630,-1.401859,1.745405,1.172658,-0.566687,0.376948,-0.031674,0.839110,-0.356832,-0.328728,0.716289,-0.114930,0.153547,44.323772,-24.365128,-7.280397,0.410551,2.060043,-0.188737,0.000000,0.000000,0.000000,0.000000,0.000000,0.000000
11628002.000000,-2.357644,-1.663182,1.126464,-1.402224,1.745063,1.173364,-0.566799,0.377171,-0.034806,0.831002,-0.359306,-0.334331,0.714561,-0.119645,0.328107,44.418987,-24.142960,-7.082033,0.494779,2.118636,-0.196061,0.000000,0.000000,0.000000,0.000000,0.000000,0.000000
11628003.000000,-2.357267,-1.663207,1.127295,-1.402612,1.744720,1.174093,-0.566906,0.375932,-0.029152,0.830252,-0.366778,-0.338155,0.714318,-0.117578,0.427289,44.442791,-24.119156,-6.760683,0.566190,1.981307,-0.235429,0.000000,0.000000,0.000000,0.000000,0.000000,0.000000
11628004.000000,-2.356889,-1.663232,1.128138,-1.402996,1.744384,1.174822,-0.567019,0.377133,-0.028373,0.827155,-0.368300,-0.334672,0.714669,-0.115798,0.427289,44.470562,-24.190567,-6.490907,0.601896,1.844894,-0.248246,0.000000,0.000000,0.000000,0.000000,0.000000,0.000000
11628005.000000,-2.356509,-1.663253,1.128969,-1.403378,1.744064,1.175538,-0.567134,0.375196,-0.022994,0.845235,-0.374379,-0.333171,0.715114,-0.116842,0.375715,44.418987,-24.218338,-6.268739,0.530485,1.832076,-0.215287,0.000000,0.000000,0.000000,0.000000,0.000000,0.000000
11628006.000000,-2.356135,-1.663277,1.129801,-1.403773,1.743733,1.176265,-0.567249,0.377057,-0.023971,0.834394,-0.379802,-0.328744,0.723857,-0.117366,0.328107,44.442791,-24.218338,-5.971193,0.512174,1.800033,-0.175919,0.000000,0.000000,0.000000,0.000000,0.000000,0.000000
11628007.000000,-2.355755,-1.663298,1.130644,-1.404164,1.743400,1.176979,-0.567356,0.377138,-0.023740,0.834208,-0.386899,-0.330444,0.716759,-0.113852,0.328107,44.418987,-24.289749,-5.721254,0.613798,1.800033,-0.235429,0.000000,0.000000,0.000000,0.000000,0.000000,0.000000
11628008.000000,-2.355373,-1.663310,1.131462,-1.404560,1.743086,1.177685,-0.567469,0.380227,-0.020501,0.826976,-0.385326,-0.321564,0.713441,-0.110276,0.328107,44.272198,-24.289749,-5.499086,0.571683,1.988631,-0.221696,0.000000,0.000000,0.000000,0.000000,0.000000,0.000000
11628009.000000,-2.354997,-1.663329,1.132295,-1.404954,1.742761,1.178395,-0.567578,0.380739,-0.020758,0.822738,-0.389010,-0.325656,0.708282,-0.107074,0.276533,44.224590,-24.313553,-5.328493,0.554288,2.150680,-0.202470,0.000000,0.000000,0.000000,0.000000,0.000000,0.000000
11628010.000000,-2.354624,-1.663341,1.133139,-1.405342,1.742432,1.179117,-0.567681,0.379856,-0.019174,0.837125,-0.388518,-0.327002,0.706910,-0.107856,0.304304,44.101604,-24.535721,-5.177736,0.608304,2.125045,-0.229020,0.000000,0.000000,0.000000,0.000000,0.000000,0.000000
11628011.000000,-2.354250,-1.663354,1.133958,-1.405735,1.742103,1.179850,-0.567788,0.387115,-0.015624,0.832243,-0.391230,-0.326484,0.718318,-0.109368,0.276533,44.002422,-24.559525,-5.007143,0.649503,1.968490,-0.221696,0.000000,0.000000,0.000000,0.000000,0.000000,0.000000
11628012.000000,-2.353870,-1.663361,1.134786,-1.406132,1.741786,1.180567,-0.567895,0.384074,-0.012040,0.824592,-0.391407,-0.332911,0.721472,-0.110017,0.276533,43.855633,-24.634903,-4.808778,0.661405,1.981307,-0.235429,0.000000,0.000000,0.000000,0.000000,0.000000,0.000000
11628013.000000,-2.353491,-1.663363,1.135601,-1.406523,1.741450,1.181286,-0.568008,0.381651,-0.008253,0.822069,-0.390053,-0.336623,0.722266,-0.112543,0.328107,43.661236,-24.634903,-4.661989,0.715421,2.033492,-0.208878,0.000000,0.000000,0.000000,0.000000,0.000000,0.000000
11628014.000000,-2.353115,-1.663374,1.136423,-1.406917,1.741120,1.182007,-0.568114,0.378953,-0.005855,0.818349,-0.387530,-0.333536,0.717605,-0.112679,0.252729,43.613628,-24.706314,-4.586610,0.745634,1.974899,-0.215287,0.000000,0.000000,0.000000,0.000000,0.000000,0.000000
11628015.000000,-2.352744,-1.663377,1.137239,-1.407300,1.740801,1.182729,-0.568227,0.373072,-0.004736,0.807678,-0.384889,-0.330707,0.719219,-0.109230,0.328107,43.466839,-24.559525,-4.562807,0.763029,1.909896,-0.182328,0.000000,0.000000,0.000000,0.000000,0.000000,0.000000
11628016.000000,-2.352370,-1.663375,1.138037,-1.407689,1.740495,1.183446,-0.568327,0.373259,-0.003190,0.799718,-0.381734,-0.325387,0.714574,-0.103210,0.375715,43.292278,-24.412735,-4.562807,0.698026,1.968490,-0.241837,0.000000,0.000000,0.000000,0.000000,0.000000,0.000000
11628017.000000,-2.351997,-1.663372,1.138855,-1.408059,1.740177,1.184154,-0.568433,0.374163,-0.001705,0.797808,-0.384898,-0.322308,0.722008,-0.105921,0.403486,43.097881,-24.365128,-4.634218,0.644010,2.053634,-0.241837,0.000000,0.000000,0.000000,0.000000,0.000000,0.000000
11628018.000000,-2.351626,-1.663366,1.139663,-1.408440,1.739861,1.184879,-0.568545,0.370608,0.003004,0.796742,-0.382768,-0.322011,0.724529,-0.104744,0.451093,42.875713,-24.388931,-4.634218,0.637601,2.085677,-0.208878,0.000000,0.000000,0.000000,0.000000,0.000000,0.000000
11628019.000000,-2.351255,-1.663360,1.140468,-1.408832,1.739551,1.185617,-0.568644,0.372821,0.003260,0.795594,-0.382169,-0.315570,0.722640,-0.105324,0.427289,42.657513,-24.265945,-4.439821,0.613798,2.060043,-0.248246,0.000000,0.000000,0.000000,0.000000,0.000000,0.000000
11628020.000000,-2.350872,-1.663351,1.141278,-1.409217,1.739248,1.186346,-0.568759,0.373539,0.004581,0.795076,-0.384646,-0.312560,0.724011,-0.109819,0.304304,42.387737,-24.289749,-4.265260,0.613798,1.988631,-0.188737,0.000000,0.000000,0.000000,0.000000,0.000000,0.000000
11628021.000000,-2.350495,-1.663338,1.142089,-1.409597,1.738934,1.187073,-0.568863,0.374095,0.006432,0.800674,-0.381718,-0.316799,0.716659,-0.106839,0.328107,42.070354,-24.412735,-4.142274,0.667814,1.974899,-0.175919,0.000000,0.000000,0.000000,0.000000,0.000000,0.000000
11628022.000000,-2.350120,-1.663336,1.142909,-1.409979,1.738621,1.187807,-0.568962,0.376334,0.004244,0.798167,-0.383980,-0.314744,0.719374,-0.103276,0.252729,41.899761,-24.634903,-3.991518,0.715421,2.033492,-0.202470,0.000000,0.000000,0.000000,0.000000,0.000000,0.000000
11628023.000000,-2.349748,-1.663325,1.143702,-1.410347,1.738330,1.188521,-0.569062,0.372180,0.007069,0.812109,-0.379200,-0.310177,0.716794,-0.104402,0.252729,41.677593,-24.583328,-3.967714,0.685209,2.060043,-0.235429,0.000000,0.000000,0.000000,0.000000,0.000000,0.000000
11628024.000000,-2.349389,-1.663324,1.144514,-1.410720,1.738037,1.189243,-0.569167,0.369441,0.005665,0.807131,-0.378759,-0.302841,0.710658,-0.101996,0.403486,41.606182,-24.757889,-3.920107,0.685209,2.053634,-0.235429,0.000000,0.000000,0.000000,0.000000,0.000000,0.000000
11628025.000000,-2.349028,-1.663323,1.145327,-1.411082,1.737742,1.189939,-0.569278,0.367966,0.003239,0.804526,-0.373897,-0.303342,0.707534,-0.106867,0.550275,41.606182,-24.857071,-3.967714,0.703519,2.183639,-0.182328,0.000000,0.000000,0.000000,0.000000,0.000000,0.000000
11628026.000000,-2.348668,-1.663324,1.146117,-1.411448,1.737451,1.190639,-0.569373,0.361965,0.006817,0.801287,-0.369654,-0.296971,0.696323,-0.106171,0.772443,41.653790,-24.880875,-3.920107,0.667814,2.300826,-0.248246,0.000000,0.000000,0.000000,0.000000,0.000000,0.000000
11628027.000000,-2.348316,-1.663328,1.146903,-1.411822,1.737156,1.191346,-0.569477,0.358501,0.002436,0.795190,-0.369455,-0.294152,0.694809,-0.108797,0.923200,41.752972,-24.682510,-3.868532,0.679716,2.358505,-0.229020,0.000000,0.000000,0.000000,0.000000,0.000000,0.000000
11628028.000000,-2.347961,-1.663338,1.147697,-1.412187,1.736870,1.192065,-0.569582,0.356015,-0.001094,0.789620,-0.367295,-0.293536,0.698203,-0.104927,1.093793,41.875957,-24.611099,-3.769350,0.733732,2.177230,-0.221696,0.000000,0.000000,0.000000,0.000000,0.000000,0.000000
11628029.000000,-2.347608,-1.663340,1.148472,-1.412562,1.736585,1.192795,-0.569681,0.360495,-0.001167,0.786955,-0.368521,-0.292751,0.705856,-0.102543,1.216779,41.899761,-24.488113,-3.646364,0.673307,2.047225,-0.241837,0.000000,0.000000,0.000000,0.000000,0.000000,0.000000
11628030.000000,-2.347252,-1.663344,1.149251,-1.412923,1.736291,1.193510,-0.569784,0.359526,-0.007459,0.781343,-0.366332,-0.290062,0.711004,-0.101230,1.343732,41.923565,-24.265945,-3.547182,0.661405,1.955673,-0.229020,0.000000,0.000000,0.000000,0.000000,0.000000,0.000000
11628031.000000,-2.346903,-1.663347,1.150019,-1.413280,1.736005,1.194224,-0.569887,0.356988,-0.005980,0.785021,-0.364998,-0.293697,0.706748,-0.099370,1.514325,41.947369,-23.996170,-3.570986,0.679716,1.955673,-0.235429,0.000000,0.000000,0.000000,0.000000,0.000000,0.000000
11628032.000000,-2.346569,-1.663347,1.150796,-1.413641,1.735724,1.194954,-0.569988,0.354555,-0.004325,0.784472,-0.361395,-0.291334,0.710799,-0.103887,1.740461,41.947369,-23.750198,-3.570986,0.691617,1.897079,-0.215287,0.000000,0.000000,0.000000,0.000000,0.000000,0.000000
11628033.000000,-2.346225,-1.663345,1.151569,-1.413991,1.735447,1.195671,-0.570087,0.349685,-0.003137,0.779812,-0.362277,-0.293767,0.713342,-0.107564,1.934858,41.947369,-23.432816,-3.570986,0.679716,1.851302,-0.196061,0.000000,0.000000,0.000000,0.000000,0.000000,0.000000
11628034.000000,-2.345877,-1.663339,1.152332,-1.414347,1.735156,1.196399,-0.570180,0.350072,-0.000611,0.776506,-0.357866,-0.289573,0.717553,-0.103355,2.034040,41.875957,-23.210648,-3.622560,0.644010,1.825668,-0.221696,0.000000,0.000000,0.000000,0.000000,0.000000,0.000000
11628035.000000,-2.345535,-1.663330,1.153100,-1.414701,1.734862,1.197136,-0.570274,0.348643,0.002327,0.771688,-0.353392,-0.288666,0.737679,-0.100390,2.160993,41.752972,-23.016251,-3.499574,0.661405,1.773483,-0.241837,0.000000,0.000000,0.000000,0.000000,0.000000,0.000000
11628036.000000,-2.345187,-1.663320,1.153861,-1.415059,1.734576,1.197875,-0.570373,0.345825,0.004878,0.766142,-0.354309,-0.289325,0.740783,-0.099546,2.184797,41.606182,-22.917068,-3.448000,0.709928,1.662704,-0.235429,0.000000,0.000000,0.000000,0.000000,0.000000,0.000000
11628037.000000,-2.344841,-1.663306,1.154622,-1.415429,1.734295,1.198612,-0.570475,0.348046,0.007812,0.759869,-0.358006,-0.288051,0.735385,-0.096085,2.184797,41.407818,-22.742508,-3.225832,0.733732,1.605026,-0.196061,0.000000,0.000000,0.000000,0.000000,0.000000,0.000000
11628038.000000,-2.344486,-1.663289,1.155392,-1.415779,1.734013,1.199329,-0.570567,0.351507,0.010252,0.756423,-0.356631,-0.286859,0.730304,-0.094341,2.109418,41.189617,-22.623489,-3.202028,0.739225,1.605026,-0.235429,0.000000,0.000000,0.000000,0.000000,0.000000,0.000000
11628039.000000,-2.344134,-1.663270,1.156155,-1.416139,1.733729,1.200059,-0.570664,0.351223,0.011986,0.757766,-0.356752,-0.286496,0.727111,-0.099654,2.133222,40.967449,-22.647293,-3.126650,0.751127,1.670028,-0.221696,0.000000,0.000000,0.000000,0.000000,0.000000,0.000000
11628040.000000,-2.343787,-1.663252,1.156927,-1.416484,1.733451,1.200795,-0.570757,0.352137,0.013061,0.758453,-0.350555,-0.284229,0.721115,-0.097771,2.109418,40.749249,-22.623489,-3.202028,0.709928,1.630660,-0.248246,0.000000,0.000000,0.000000,0.000000,0.000000,0.000000
11628041.000000,-2.343435,-1.663227,1.157682,-1.416830,1.733186,1.201517,-0.570850,0.347929,0.018278,0.771257,-0.349119,-0.277913,0.720106,-0.096919,1.986432,40.479473,-22.571915,-3.277406,0.667814,1.611434,-0.248246,0.000000,0.000000,0.000000,0.000000,0.000000,0.000000
11628042.000000,-2.343090,-1.663207,1.158462,-1.417174,1.732913,1.202238,-0.570949,0.345582,0.017080,0.773165,-0.344976,-0.273485,0.722737,-0.097810,1.986432,40.281109,-22.694901,-3.325014,0.649503,1.714889,-0.208878,0.000000,0.000000,0.000000,0.000000,0.000000,0.000000
11628043.000000,-2.342738,-1.663187,1.159227,-1.417529,1.732644,1.202934,-0.571037,0.344932,0.018625,0.768904,-0.346125,-0.273736,0.710983,-0.094432,1.934858,40.110516,-22.742508,-3.225832,0.625699,1.871444,-0.274796,0.000000,0.000000,0.000000,0.000000,0.000000,0.000000
11628044.000000,-2.342380,-1.663166,1.159989,-1.417872,1.732367,1.203660,-0.571141,0.348269,0.016805,0.766776,-0.344431,-0.273332,0.712132,-0.097831,1.863447,39.939922,-22.817886,-3.225832,0.673307,1.877853,-0.202470,0.000000,0.000000,0.000000,0.000000,0.000000,0.000000
11628045.000000,-2.342024,-1.663143,1.160749,-1.418224,1.732102,1.204383,-0.571234,0.349340,0.022292,0.760568,-0.349626,-0.264761,0.714641,-0.097189,1.712690,39.745525,-22.770279,-3.102846,0.632108,1.838485,-0.202470,0.000000,0.000000,0.000000,0.000000,0.000000,0.000000
11628046.000000,-2.341671,-1.663117,1.161519,-1.418547,1.731840,1.205115,-0.571318,0.350056,0.023527,0.761996,-0.339854,-0.265856,0.718764,-0.094203,1.613508,39.547161,-22.770279,-3.277406,0.655912,1.754256,-0.268388,0.000000,0.000000,0.000000,0.000000,0.000000,0.000000
11628047.000000,-2.341321,-1.663085,1.162275,-1.418879,1.731570,1.205839,-0.571414,0.358285,0.027083,0.762507,-0.334918,-0.269166,0.716491,-0.098381,1.565900,39.229778,-22.742508,-3.325014,0.637601,1.747848,-0.254655,0.000000,0.000000,0.000000,0.000000,0.000000,0.000000
11628048.000000,-2.340965,-1.663066,1.163036,-1.419199,1.731311,1.206547,-0.571510,0.354360,0.024437,0.763426,-0.328681,-0.261794,0.716104,-0.099259,1.490522,39.130596,-22.671097,-3.523378,0.596403,1.767074,-0.215287,0.000000,0.000000,0.000000,0.000000,0.000000,0.000000
11628049.000000,-2.340603,-1.663043,1.163771,-1.419530,1.731051,1.207262,-0.571600,0.353450,0.023707,0.757292,-0.328773,-0.258864,0.714223,-0.096668,1.391340,38.983807,-22.377518,-3.523378,0.625699,1.812850,-0.261979,0.000000,0.000000,0.000000,0.000000,0.000000,0.000000
11628050.000000,-2.340253,-1.663025,1.164528,-1.419853,1.730795,1.207967,-0.571695,0.354462,0.024335,0.757126,-0.328961,-0.255553,0.705854,-0.097125,1.315961,38.936199,-22.254532,-3.646364,0.632108,1.909896,-0.268388,0.000000,0.000000,0.000000,0.000000,0.000000,0.000000
11628051.000000,-2.339887,-1.663003,1.165284,-1.420169,1.730547,1.208667,-0.571793,0.360877,0.023413,0.749834,-0.326940,-0.255898,0.702601,-0.098301,1.093793,38.813213,-22.107742,-3.745546,0.578092,1.955673,-0.215287,0.000000,0.000000,0.000000,0.000000,0.000000,0.000000
11628052.000000,-2.339522,-1.662983,1.166038,-1.420484,1.730290,1.209387,-0.571888,0.360953,0.022058,0.748335,-0.324123,-0.254617,0.705357,-0.099306,0.970807,38.717999,-22.107742,-3.868532,0.482877,1.819259,-0.182328,0.000000,0.000000,0.000000,0.000000,0.000000,0.000000
11628053.000000,-2.339165,-1.662963,1.166792,-1.420798,1.730032,1.210125,-0.571971,0.366231,0.020787,0.743025,-0.328639,-0.256559,0.711012,-0.094958,0.824018,38.642620,-22.008560,-3.991518,0.458158,1.611434,-0.261979,0.000000,0.000000,0.000000,0.000000,0.000000,0.000000
11628054.000000,-2.338801,-1.662947,1.167541,-1.421117,1.729769,1.210838,-0.572068,0.365018,0.021194,0.746391,-0.328756,-0.256343,0.710900,-0.097572,0.649457,38.642620,-22.008560,-3.991518,0.512174,1.507064,-0.202470,0.000000,0.000000,0.000000,0.000000,0.000000,0.000000
11628055.000000,-2.338447,-1.662931,1.168308,-1.421425,1.729521,1.211524,-0.572156,0.360731,0.021822,0.746734,-0.325186,-0.251097,0.699329,-0.095549,0.526471,38.642620,-22.079971,-4.118471,0.452665,1.689254,-0.235429,0.000000,0.000000,0.000000,0.000000,0.000000,0.000000
11628056.000000,-2.338086,-1.662919,1.169073,-1.421728,1.729262,1.212212,-0.572251,0.360359,0.018714,0.750321,-0.317870,-0.255203,0.698102,-0.097044,0.427289,38.666424,-22.179153,-4.213686,0.464567,1.844894,-0.202470,0.000000,0.000000,0.000000,0.000000,0.000000,0.000000
11628057.000000,-2.337723,-1.662913,1.169822,-1.422024,1.728993,1.212924,-0.572340,0.360158,0.014050,0.748640,-0.310387,-0.254259,0.699024,-0.091704,0.328107,38.789410,-22.202957,-4.388246,0.500272,1.812850,-0.215287,0.000000,0.000000,0.000000,0.000000,0.000000,0.000000
11628058.000000,-2.337370,-1.662904,1.170579,-1.422321,1.728737,1.213644,-0.572425,0.360918,0.014692,0.746932,-0.308320,-0.251242,0.701388,-0.087076,0.304304,38.888592,-22.302139,-4.562807,0.482877,1.741439,-0.241837,0.000000,0.000000,0.000000,0.000000,0.000000,0.000000
11628059.000000,-2.337006,-1.662895,1.171330,-1.422615,1.728490,1.214331,-0.572517,0.360225,0.012693,0.765435,-0.303526,-0.249331,0.702400,-0.090107,0.177350,38.960003,-22.401321,-4.610414,0.470060,1.812850,-0.196061,0.000000,0.000000,0.000000,0.000000,0.000000,0.000000
11628060.000000,-2.336647,-1.662889,1.172089,-1.422897,1.728239,1.215024,-0.572599,0.361307,0.010806,0.763181,-0.296664,-0.248490,0.694578,-0.090353,0.006757,39.059185,-22.448929,-4.757204,0.482877,1.942855,-0.241837,0.000000,0.000000,0.000000,0.000000,0.000000,0.000000
11628061.000000,-2.336295,-1.662890,1.172834,-1.423191,1.727980,1.215726,-0.572686,0.360538,0.007704,0.757831,-0.296126,-0.258214,0.697837,-0.091589,0.030561,39.229778,-22.254532,-4.733400,0.547880,1.890670,-0.261979,0.000000,0.000000,0.000000,0.000000,0.000000,0.000000
11628062.000000,-2.335929,-1.662890,1.173572,-1.423469,1.727722,1.216432,-0.572779,0.360638,0.002398,0.754803,-0.290915,-0.255079,0.690762,-0.094601,-0.092425,39.400372,-22.131546,-4.907960,0.559781,1.819259,-0.208878,0.000000,0.000000,0.000000,0.000000,0.000000,0.000000
11628063.000000,-2.335576,-1.662886,1.174330,-1.423754,1.727468,1.217145,-0.572867,0.354831,0.000218,0.754866,-0.290415,-0.250719,0.692390,-0.094892,-0.092425,39.499554,-22.179153,-4.931764,0.518583,1.812850,-0.196061,0.000000,0.000000,0.000000,0.000000,0.000000,0.000000
11628064.000000,-2.335223,-1.662887,1.175083,-1.424026,1.727232,1.217851,-0.572949,0.350865,0.000475,0.746445,-0.282933,-0.246585,0.696337,-0.092332,-0.144000,39.646343,-22.107742,-5.130128,0.434354,1.735030,-0.261979,0.000000,0.000000,0.000000,0.000000,0.000000,0.000000
11628065.000000,-2.334878,-1.662895,1.175816,-1.424301,1.726985,1.218576,-0.573039,0.352568,-0.000956,0.738286,-0.279286,-0.241128,0.699185,-0.089002,-0.116229,39.868511,-21.933182,-5.229311,0.422452,1.617843,-0.241837,0.000000,0.000000,0.000000,0.000000,0.000000,0.000000
11628066.000000,-2.334529,-1.662901,1.176560,-1.424563,1.726737,1.219281,-0.573130,0.350543,-0.004892,0.733111,-0.282575,-0.241298,0.719098,-0.087154,-0.044818,40.086712,-21.738785,-5.427675,0.386747,1.584884,-0.202470,0.000000,0.000000,0.000000,0.000000,0.000000,0.000000
11628067.000000,-2.334171,-1.662901,1.177300,-1.424828,1.726490,1.219992,-0.573212,0.351983,-0.004945,0.736376,-0.277643,-0.237899,0.711432,-0.082756,-0.116229,40.185894,-21.615799,-5.626039,0.386747,1.624252,-0.241837,0.000000,0.000000,0.000000,0.000000,0.000000,0.000000
11628068.000000,-2.333826,-1.662894,1.178046,-1.425092,1.726248,1.220707,-0.573300,0.349488,0.000460,0.734552,-0.274485,-0.239491,0.710563,-0.087953,-0.116229,40.185894,-21.469009,-5.796632,0.381254,1.656295,-0.196061,0.000000,0.000000,0.000000,0.000000,0.000000,0.000000
11628069.000000,-2.333476,-1.662893,1.178791,-1.425346,1.726009,1.221416,-0.573383,0.348440,-0.000176,0.735564,-0.271014,-0.238317,0.705191,-0.083689,-0.215411,40.233501,-21.294449,-6.018800,0.428861,1.572067,-0.221696,0.000000,0.000000,0.000000,0.000000,0.000000,0.000000
11628070.000000,-2.333124,-1.662893,1.179528,-1.425611,1.725775,1.222153,-0.573468,0.347861,-0.000200,0.736734,-0.267784,-0.234927,0.712392,-0.086315,-0.290789,40.257305,-21.246841,-6.117982,0.422452,1.409103,-0.229020,0.000000,0.000000,0.000000,0.000000,0.000000,0.000000
11628071.000000,-2.332772,-1.662884,1.180278,-1.425873,1.725536,1.222874,-0.573555,0.348275,0.003099,0.736544,-0.264570,-0.235635,0.707274,-0.089897,-0.413775,40.134319,-21.246841,-6.141786,0.374845,1.422836,-0.188737,0.000000,0.000000,0.000000,0.000000,0.000000,0.000000
11628072.000000,-2.332420,-1.662876,1.181016,-1.426139,1.725299,1.223583,-0.573631,0.351431,0.005116,0.740446,-0.266381,-0.236664,0.711152,-0.084178,-0.489153,40.015301,-21.199234,-6.094179,0.332731,1.494247,-0.248246,0.000000,0.000000,0.000000,0.000000,0.000000,0.000000
11628073.000000,-2.332071,-1.662868,1.181763,-1.426406,1.725060,1.224297,-0.573714,0.349929,0.005374,0.743480,-0.265811,-0.233495,0.712011,-0.083528,-0.588336,39.939922,-21.147659,-6.094179,0.327238,1.591293,-0.235429,0.000000,0.000000,0.000000,0.000000,0.000000,0.000000
11628074.000000,-2.331726,-1.662859,1.182524,-1.426665,1.724828,1.225005,-0.573798,0.348119,0.006609,0.749409,-0.265113,-0.232530,0.707945,-0.087505,-0.635943,39.816936,-21.270645,-6.117982,0.339139,1.617843,-0.215287,0.000000,0.000000,0.000000,0.000000,0.000000,0.000000
11628075.000000,-2.331371,-1.662842,1.183276,-1.426921,1.724605,1.225727,-0.573881,0.347837,0.010179,0.748303,-0.263923,-0.228688,0.708831,-0.084054,-0.735125,39.574932,-21.445206,-6.169557,0.273221,1.630660,-0.229020,0.000000,0.000000,0.000000,0.000000,0.000000,0.000000
11628076.000000,-2.331029,-1.662833,1.184037,-1.427194,1.724368,1.226447,-0.573965,0.345253,0.009191,0.747999,-0.263441,-0.233632,0.711117,-0.082368,-0.735125,39.475750,-21.615799,-6.070375,0.279630,1.630660,-0.215287,0.000000,0.000000,0.000000,0.000000,0.000000,0.000000
11628077.000000,-2.330681,-1.662819,1.184801,-1.427455,1.724131,1.227153,-0.574046,0.343162,0.009067,0.763989,-0.264642,-0.233423,0.708841,-0.084071,-0.762896,39.352764,-21.786392,-6.042604,0.320829,1.721298,-0.248246,0.000000,0.000000,0.000000,0.000000,0.000000,0.000000
11628078.000000,-2.330337,-1.662808,1.185553,-1.427723,1.723899,1.227856,-0.574136,0.348796,0.010907,0.760010,-0.263023,-0.231774,0.701438,-0.083224,-0.885882,39.281353,-21.909378,-5.947389,0.332731,1.800033,-0.215287,0.000000,0.000000,0.000000,0.000000,0.000000,0.000000
11628079.000000,-2.329998,-1.662800,1.186321,-1.427991,1.723668,1.228550,-0.574220,0.346486,0.010743,0.761837,-0.265654,-0.238795,0.699289,-0.080605,-0.909686,39.281353,-22.107742,-5.848207,0.339139,1.832076,-0.229020,0.000000,0.000000,0.000000,0.000000,0.000000,0.000000
11628080.000000,-2.329657,-1.662792,1.187074,-1.428261,1.723441,1.229257,-0.574303,0.344066,0.010262,0.759159,-0.269285,-0.235682,0.699853,-0.079705,-0.885882,39.305157,-22.230728,-5.796632,0.339139,1.812850,-0.229020,0.000000,0.000000,0.000000,0.000000,0.000000,0.000000
11628081.000000,-2.329330,-1.662783,1.187841,-1.428525,1.723207,1.229959,-0.574388,0.339752,0.010652,0.759479,-0.267077,-0.231791,0.694411,-0.083169,-0.762896,39.305157,-22.377518,-5.820436,0.297025,1.812850,-0.235429,0.000000,0.000000,0.000000,0.000000,0.000000,0.000000
11628082.000000,-2.328994,-1.662775,1.188604,-1.428797,1.722970,1.230649,-0.574474,0.335758,0.007282,0.752607,-0.272610,-0.234772,0.689247,-0.087471,-0.687518,39.328960,-22.425125,-5.820436,0.279630,1.851302,-0.202470,0.000000,0.000000,0.000000,0.000000,0.000000,0.000000
11628083.000000,-2.328662,-1.662768,1.189348,-1.429077,1.722731,1.231345,-0.574553,0.340980,0.008443,0.751001,-0.275264,-0.233047,0.689229,-0.087640,-0.663714,39.328960,-22.353714,-5.721254,0.297025,1.871444,-0.229020,0.000000,0.000000,0.000000,0.000000,0.000000,0.000000
11628084.000000,-2.328332,-1.662764,1.190099,-1.429356,1.722487,1.232034,-0.574637,0.335622,0.005183,0.746090,-0.280272,-0.233530,0.699835,-0.084246,-0.588336,39.376568,-22.202957,-5.574464,0.351041,1.903487,-0.241837,0.000000,0.000000,0.000000,0.000000,0.000000,0.000000
11628085.000000,-2.327996,-1.662752,1.190849,-1.429641,1.722253,1.232728,-0.574723,0.335687,0.005070,0.751430,-0.281731,-0.231934,0.698850,-0.083723,-0.512957,39.328960,-22.202957,-5.451478,0.362943,1.909896,-0.208878,0.000000,0.000000,0.000000,0.000000,0.000000,0.000000
11628086.000000,-2.327671,-1.662740,1.191610,-1.429936,1.722021,1.233428,-0.574800,0.334137,0.005519,0.755292,-0.285374,-0.234007,0.693861,-0.084823,-0.389971,39.253582,-22.202957,-5.205507,0.339139,1.890670,-0.254655,0.000000,0.000000,0.000000,0.000000,0.000000,0.000000
11628087.000000,-2.327343,-1.662734,1.192382,-1.430226,1.721780,1.234131,-0.574888,0.327283,0.005920,0.760453,-0.287562,-0.237834,0.700435,-0.089340,-0.290789,39.305157,-22.353714,-4.983339,0.369352,1.741439,-0.196061,0.000000,0.000000,0.000000,0.000000,0.000000,0.000000
11628088.000000,-2.327015,-1.662727,1.193135,-1.430517,1.721541,1.234839,-0.574960,0.323432,0.007008,0.760342,-0.289467,-0.236005,0.697355,-0.083775,-0.243182,39.328960,-22.425125,-4.856386,0.398649,1.624252,-0.254655,0.000000,0.000000,0.000000,0.000000,0.000000,0.000000
11628089.000000,-2.326697,-1.662718,1.193905,-1.430812,1.721303,1.235534,-0.575039,0.323684,0.005847,0.758176,-0.291331,-0.238649,0.689518,-0.082297,-0.144000,39.305157,-22.623489,-4.610414,0.416959,1.714889,-0.261979,0.000000,0.000000,0.000000,0.000000,0.000000,0.000000
11628090.000000,-2.326372,-1.662711,1.194663,-1.431108,1.721073,1.236196,-0.575125,0.322451,0.006854,0.773033,-0.294498,-0.236048,0.678053,-0.083614,-0.068621,39.328960,-22.718704,-4.412050,0.428861,1.930038,-0.188737,0.000000,0.000000,0.000000,0.000000,0.000000,0.000000
11628091.000000,-2.326059,-1.662705,1.195435,-1.431409,1.720840,1.236896,-0.575198,0.317563,0.007773,0.769570,-0.292015,-0.238813,0.681653,-0.083744,0.078168,39.352764,-22.940872,-4.265260,0.458158,1.942855,-0.254655,0.000000,0.000000,0.000000,0.000000,0.000000,0.000000
11628092.000000,-2.325747,-1.662707,1.196207,-1.431705,1.720605,1.237586,-0.575285,0.313051,0.003019,0.764753,-0.291429,-0.240035,0.687298,-0.083936,0.252729,39.475750,-23.087662,-4.090700,0.452665,1.916305,-0.202470,0.000000,0.000000,0.000000,0.000000,0.000000,0.000000
11628093.000000,-2.325430,-1.662704,1.196977,-1.432006,1.720364,1.238281,-0.575368,0.311602,0.004585,0.767859,-0.297160,-0.237486,0.689339,-0.081328,0.351911,39.523357,-23.357437,-3.920107,0.470060,1.930038,-0.215287,0.000000,0.000000,0.000000,0.000000,0.000000,0.000000
11628094.000000,-2.325113,-1.662705,1.197754,-1.432305,1.720130,1.238965,-0.575444,0.316018,0.005121,0.766986,-0.296625,-0.235224,0.691531,-0.078998,0.351911,39.598736,-23.579605,-3.820925,0.482877,2.053634,-0.248246,0.000000,0.000000,0.000000,0.000000,0.000000,0.000000
11628095.000000,-2.324805,-1.662707,1.198518,-1.432605,1.719898,1.239655,-0.575520,0.314740,0.003062,0.774951,-0.297515,-0.234423,0.685633,-0.077228,0.526471,39.646343,-23.627213,-3.670168,0.518583,2.001449,-0.261979,0.000000,0.000000,0.000000,0.000000,0.000000,0.000000
11628096.000000,-2.324489,-1.662715,1.199267,-1.432900,1.719658,1.240361,-0.575598,0.319917,-0.000264,0.767315,-0.298318,-0.235661,0.686108,-0.078168,0.526471,39.769329,-23.579605,-3.622560,0.620206,1.897079,-0.254655,0.000000,0.000000,0.000000,0.000000,0.000000,0.000000
11628097.000000,-2.324173,-1.662720,1.200030,-1.433197,1.719428,1.241037,-0.575684,0.318300,-0.000861,0.762830,-0.297420,-0.236200,0.683357,-0.084481,0.550275,39.816936,-23.603409,-3.547182,0.613798,1.916305,-0.196061,0.000000,0.000000,0.000000,0.000000,0.000000,0.000000
11628098.000000,-2.323866,-1.662725,1.200781,-1.433499,1.719195,1.241729,-0.575761,0.310686,-0.007798,0.763338,-0.297792,-0.232300,0.683731,-0.081761,0.697065,39.868511,-23.579605,-3.424196,0.584501,1.981307,-0.208878,0.000000,0.000000,0.000000,0.000000,0.000000,0.000000
11628099.000000,-2.323562,-1.662735,1.201529,-1.433790,1.718962,1.242430,-0.575839,0.309537,-0.008270,0.758750,-0.295155,-0.226388,0.688617,-0.080410,0.796247,39.987530,-23.381241,-3.547182,0.596403,1.942855,-0.202470,0.000000,0.000000,0.000000,0.000000,0.000000,0.000000
11628100.000000,-2.323262,-1.662746,1.202276,-1.434084,1.718741,1.243127,-0.575911,0.309176,-0.009162,0.754434,-0.293717,-0.225474,0.688496,-0.076578,0.994611,40.134319,-23.111465,-3.547182,0.566190,1.877853,-0.274796,0.000000,0.000000,0.000000,0.000000,0.000000,0.000000
11628101.000000,-2.322955,-1.662751,1.203028,-1.434374,1.718521,1.243829,-0.575987,0.306027,-0.006919,0.754268,-0.288159,-0.220270,0.693279,-0.076588,1.121564,40.162090,-23.063858,-3.570986,0.547880,1.877853,-0.261979,0.000000,0.000000,0.000000,0.000000,0.000000,0.000000
11628102.000000,-2.322644,-1.662753,1.203779,-1.434672,1.718302,1.244519,-0.576070,0.309228,-0.005291,0.749776,-0.298212,-0.220364,0.703107,-0.078767,1.093793,40.185894,-22.940872,-3.475771,0.500272,1.916305,-0.196061,0.000000,0.000000,0.000000,0.000000,0.000000,0.000000
11628103.000000,-2.322341,-1.662755,1.204520,-1.434971,1.718080,1.245235,-0.576135,0.307857,-0.004175,0.745466,-0.296201,-0.221069,0.710046,-0.075153,1.192975,40.209698,-22.817886,-3.325014,0.476469,1.812850,-0.268388,0.000000,0.000000,0.000000,0.000000,0.000000,0.000000
11628104.000000,-2.322041,-1.662750,1.205264,-1.435261,1.717851,1.245958,-0.576215,0.307150,-0.004261,0.742078,-0.294409,-0.224626,0.706785,-0.073318,1.192975,40.134319,-22.671097,-3.301210,0.542386,1.649886,-0.202470,0.000000,0.000000,0.000000,0.000000,0.000000,0.000000
11628105.000000,-2.321733,-1.662747,1.206023,-1.435559,1.717634,1.246661,-0.576285,0.306158,-0.002043,0.739012,-0.296267,-0.221010,0.710117,-0.072906,1.169172,40.086712,-22.671097,-3.154421,0.559781,1.605026,-0.221696,0.000000,0.000000,0.000000,0.000000,0.000000,0.000000
11628106.000000,-2.321423,-1.662735,1.206762,-1.435848,1.717421,1.247357,-0.576358,0.305848,0.002392,0.739609,-0.295202,-0.216942,0.703204,-0.073417,1.145368,39.916119,-22.623489,-3.102846,0.542386,1.662704,-0.241837,0.000000,0.000000,0.000000,0.000000,0.000000,0.000000
11628107.000000,-2.321111,-1.662730,1.207506,-1.436133,1.717201,1.248063,-0.576436,0.310973,0.003737,0.736465,-0.290762,-0.216956,0.699691,-0.070881,1.022382,39.816936,-22.524307,-3.079042,0.608304,1.702071,-0.196061,0.000000,0.000000,0.000000,0.000000,0.000000,0.000000
11628108.000000,-2.320809,-1.662720,1.208248,-1.436420,1.716985,1.248751,-0.576502,0.308852,0.005235,0.753010,-0.291190,-0.219842,0.701428,-0.068938,1.046186,39.693951,-22.548111,-3.027467,0.620206,1.760665,-0.281205,0.000000,0.000000,0.000000,0.000000,0.000000,0.000000
11628109.000000,-2.320501,-1.662706,1.209000,-1.436704,1.716768,1.249443,-0.576580,0.307244,0.007938,0.751419,-0.287334,-0.215714,0.692909,-0.073530,0.895429,39.499554,-22.595718,-3.003664,0.608304,1.806442,-0.208878,0.000000,0.000000,0.000000,0.000000,0.000000,0.000000
11628110.000000,-2.320194,-1.662692,1.209758,-1.436985,1.716560,1.250138,-0.576653,0.309748,0.009764,0.753489,-0.285767,-0.213000,0.694994,-0.069323,0.847822,39.305157,-22.671097,-2.956056,0.584501,1.793624,-0.215287,0.000000,0.000000,0.000000,0.000000,0.000000,0.000000
11628111.000000,-2.319885,-1.662687,1.210498,-1.437267,1.716358,1.250831,-0.576720,0.308071,0.014501,0.757902,-0.282916,-0.209955,0.690498,-0.064251,0.824018,39.229778,-22.718704,-2.979860,0.535978,1.800033,-0.268388,0.000000,0.000000,0.000000,0.000000,0.000000,0.000000
11628112.000000,-2.319575,-1.662680,1.211249,-1.437556,1.716148,1.251536,-0.576790,0.305131,0.012469,0.754359,-0.283737,-0.210390,0.687777,-0.067768,0.724836,39.130596,-22.817886,-2.880678,0.566190,1.793624,-0.261979,0.000000,0.000000,0.000000,0.000000,0.000000,0.000000
11628113.000000,-2.319272,-1.662665,1.212004,-1.437839,1.715947,1.252220,-0.576858,0.300144,0.012664,0.748747,-0.286820,-0.209210,0.684816,-0.065551,0.724836,38.960003,-22.988480,-2.805300,0.547880,1.812850,-0.254655,0.000000,0.000000,0.000000,0.000000,0.000000,0.000000
11628114.000000,-2.318965,-1.662654,1.212739,-1.438119,1.715740,1.252917,-0.576935,0.306818,0.012147,0.742864,-0.280245,-0.211677,0.686118,-0.066136,0.649457,38.813213,-22.988480,-2.805300,0.506681,1.825668,-0.196061,0.000000,0.000000,0.000000,0.000000,0.000000,0.000000
11628115.000000,-2.318666,-1.662647,1.213481,-1.438384,1.715526,1.253598,-0.577000,0.305100,0.013147,0.740335,-0.274895,-0.207542,0.684209,-0.061051,0.649457,38.741802,-22.964676,-2.928285,0.535978,1.844894,-0.261979,0.000000,0.000000,0.000000,0.000000,0.000000,0.000000
11628116.000000,-2.318364,-1.662639,1.214217,-1.438659,1.715318,1.254287,-0.577077,0.302622,0.011502,0.736741,-0.274811,-0.206342,0.681968,-0.062282,0.697065,38.642620,-22.940872,-2.956056,0.500272,1.865035,-0.208878,0.000000,0.000000,0.000000,0.000000,0.000000,0.000000
11628117.000000,-2.318070,-1.662634,1.214956,-1.438932,1.715108,1.254984,-0.577147,0.300278,0.009094,0.735343,-0.270441,-0.207462,0.685765,-0.064770,0.796247,38.595013,-22.865494,-3.027467,0.524076,1.858627,-0.229020,0.000000,0.000000,0.000000,0.000000,0.000000,0.000000
11628118.000000,-2.317763,-1.662620,1.215695,-1.439198,1.714906,1.255666,-0.577213,0.298782,0.009731,0.730389,-0.271249,-0.207370,0.684673,-0.066961,0.724836,38.448223,-22.742508,-3.079042,0.512174,1.844894,-0.248246,0.000000,0.000000,0.000000,0.000000,0.000000,0.000000
11628119.000000,-2.317474,-1.662610,1.216419,-1.439470,1.714700,1.256359,-0.577285,0.299683,0.012033,0.726851,-0.271126,-0.208739,0.677102,-0.069554,0.772443,38.349041,-22.595718,-3.003664,0.547880,1.838485,-0.215287,0.000000,0.000000,0.000000,0.000000,0.000000,0.000000
11628120.000000,-2.317178,-1.662604,1.217152,-1.439739,1.714488,1.257041,-0.577349,0.297959,0.009522,0.725430,-0.270885,-0.209855,0.684178,-0.064471,0.748639,38.301434,-22.448929,-2.956056,0.584501,1.812850,-0.274796,0.000000,0.000000,0.000000,0.000000,0.000000,0.000000
11628121.000000,-2.316880,-1.662595,1.217883,-1.440006,1.714285,1.257742,-0.577421,0.294515,0.007844,0.728414,-0.270073,-0.208165,0.684387,-0.064271,0.772443,38.249859,-22.377518,-2.904482,0.554288,1.767074,-0.235429,0.000000,0.000000,0.000000,0.000000,0.000000,0.000000
11628122.000000,-2.316588,-1.662583,1.218622,-1.440268,1.714084,1.258449,-0.577489,0.296242,0.006560,0.732112,-0.268198,-0.201925,0.686120,-0.063419,0.796247,38.202251,-22.377518,-2.904482,0.530485,1.662704,-0.229020,0.000000,0.000000,0.000000,0.000000,0.000000,0.000000
11628123.000000,-2.316295,-1.662578,1.219363,-1.440534,1.713890,1.259146,-0.577563,0.293131,0.006588,0.734005,-0.264648,-0.197224,0.686513,-0.067490,0.847822,38.249859,-22.377518,-2.880678,0.488370,1.584884,-0.196061,0.000000,0.000000,0.000000,0.000000,0.000000,0.000000
11628124.000000,-2.316001,-1.662573,1.220094,-1.440798,1.713693,1.259842,-0.577630,0.291484,0.006270,0.731419,-0.264972,-0.195294,0.686279,-0.069347,0.895429,38.325237,-22.448929,-2.856874,0.488370,1.617843,-0.215287,0.000000,0.000000,0.000000,0.000000,0.000000,0.000000
11628125.000000,-2.315711,-1.662571,1.220836,-1.441050,1.713495,1.260533,-0.577697,0.291490,0.005530,0.730531,-0.258186,-0.194205,0.681529,-0.069826,0.895429,38.424419,-22.524307,-3.003664,0.494779,1.695663,-0.241837,0.000000,0.000000,0.000000,0.000000,0.000000,0.000000
11628126.000000,-2.315420,-1.662570,1.221569,-1.441309,1.713291,1.261220,-0.577769,0.291355,0.005315,0.744468,-0.256269,-0.194478,0.679710,-0.071528,0.923200,38.519634,-22.647293,-3.027467,0.535978,1.721298,-0.241837,0.000000,0.000000,0.000000,0.000000,0.000000,0.000000
11628127.000000,-2.315132,-1.662566,1.222313,-1.441563,1.713086,1.261905,-0.577837,0.290206,0.005832,0.743407,-0.252414,-0.198643,0.674918,-0.071315,0.947004,38.595013,-22.794083,-3.126650,0.571683,1.800033,-0.274796,0.000000,0.000000,0.000000,0.000000,0.000000,0.000000
11628128.000000,-2.314839,-1.662568,1.223055,-1.441815,1.712890,1.262599,-0.577913,0.289231,0.004922,0.738438,-0.251142,-0.197627,0.679679,-0.074911,0.970807,38.717999,-22.917068,-3.178224,0.613798,1.838485,-0.208878,0.000000,0.000000,0.000000,0.000000,0.000000,0.000000
11628129.000000,-2.314534,-1.662570,1.223781,-1.442070,1.712694,1.263299,-0.577981,0.295147,0.004542,0.736889,-0.252457,-0.194531,0.689641,-0.069337,0.847822,38.837017,-22.964676,-3.277406,0.596403,1.825668,-0.235429,0.000000,0.000000,0.000000,0.000000,0.000000,0.000000
11628130.000000,-2.314248,-1.662570,1.224526,-1.442329,1.712500,1.264008,-0.578047,0.290537,0.001641,0.736163,-0.254687,-0.192720,0.697507,-0.065747,0.847822,38.936199,-23.087662,-3.325014,0.589994,1.800033,-0.254655,0.000000,0.000000,0.000000,0.000000,0.000000,0.000000
11628131.000000,-2.313950,-1.662574,1.225262,-1.442576,1.712313,1.264710,-0.578118,0.292254,-0.001082,0.736392,-0.250079,-0.191288,0.703018,-0.068886,0.724836,39.059185,-23.040054,-3.376589,0.578092,1.773483,-0.221696,0.000000,0.000000,0.000000,0.000000,0.000000,0.000000
11628132.000000,-2.313665,-1.662578,1.225990,-1.442833,1.712126,1.265409,-0.578181,0.297489,-0.002516,0.738561,-0.250636,-0.187849,0.698578,-0.065019,0.772443,39.158367,-22.988480,-3.376589,0.506681,1.800033,-0.261979,0.000000,0.000000,0.000000,0.000000,0.000000,0.000000
11628133.000000,-2.313375,-1.662583,1.226731,-1.443076,1.711937,1.266105,-0.578256,0.295461,-0.003511,0.734108,-0.253164,-0.187369,0.689875,-0.065279,0.772443,39.253582,-23.087662,-3.499574,0.482877,1.793624,-0.215287,0.000000,0.000000,0.000000,0.000000,0.000000,0.000000
11628134.000000,-2.313083,-1.662583,1.227449,-1.443323,1.711750,1.266803,-0.578320,0.293777,-0.001488,0.728801,-0.249037,-0.187139,0.683530,-0.066447,0.772443,39.229778,-22.940872,-3.547182,0.464567,1.760665,-0.254655,0.000000,0.000000,0.000000,0.000000,0.000000,0.000000
11628135.000000,-2.312797,-1.662589,1.228177,-1.443562,1.711558,1.267510,-0.578392,0.291890,-0.002534,0.722631,-0.242817,-0.188800,0.682379,-0.064528,0.796247,39.305157,-22.841690,-3.721742,0.506681,1.741439,-0.241837,0.000000,0.000000,0.000000,0.000000,0.000000,0.000000
11628136.000000,-2.312508,-1.662585,1.228910,-1.443799,1.711373,1.268194,-0.578463,0.292570,0.000797,0.721105,-0.240185,-0.189027,0.681904,-0.063373,0.772443,39.205975,-22.718704,-3.820925,0.512174,1.721298,-0.221696,0.000000,0.000000,0.000000,0.000000,0.000000,0.000000
11628137.000000,-2.312223,-1.662589,1.229639,-1.444036,1.711194,1.268891,-0.578523,0.291525,-0.000458,0.723001,-0.235890,-0.182593,0.683936,-0.064912,0.772443,39.253582,-22.694901,-3.868532,0.476469,1.727706,-0.261979,0.000000,0.000000,0.000000,0.000000,0.000000,0.000000
11628138.000000,-2.311940,-1.662593,1.230366,-1.444262,1.711009,1.269583,-0.578596,0.290987,-0.001418,0.718002,-0.239142,-0.184978,0.708599,-0.069953,0.772443,39.305157,-22.500504,-3.991518,0.500272,1.676437,-0.202470,0.000000,0.000000,0.000000,0.000000,0.000000,0.000000
11628139.000000,-2.311646,-1.662596,1.231083,-1.444499,1.710826,1.270282,-0.578657,0.288711,-0.001989,0.715013,-0.239754,-0.185387,0.702128,-0.069273,0.724836,39.352764,-22.377518,-3.991518,0.482877,1.637069,-0.254655,0.000000,0.000000,0.000000,0.000000,0.000000,0.000000
11628140.000000,-2.311361,-1.662594,1.231815,-1.444730,1.710635,1.270979,-0.578723,0.289976,-0.000717,0.722225,-0.238422,-0.186166,0.699494,-0.071945,0.673261,39.328960,-22.377518,-4.043092,0.488370,1.649886,-0.229020,0.000000,0.000000,0.000000,0.000000,0.000000,0.000000
11628141.000000,-2.311063,-1.662591,1.232551,-1.444950,1.710457,1.271658,-0.578789,0.290420,0.000675,0.727567,-0.234163,-0.186174,0.692807,-0.068058,0.502668,39.281353,-22.377518,-4.118471,0.464567,1.689254,-0.229020,0.000000,0.000000,0.000000,0.000000,0.000000,0.000000
11628142.000000,-2.310769,-1.662597,1.233265,-1.445176,1.710273,1.272357,-0.578852,0.292787,-0.000634,0.722687,-0.230863,-0.187715,0.687576,-0.069206,0.375715,39.328960,-22.278336,-4.189882,0.482877,1.708480,-0.261979,0.000000,0.000000,0.000000,0.000000,0.000000,0.000000
11628143.000000,-2.310480,-1.662596,1.233994,-1.445398,1.710089,1.273055,-0.578922,0.292566,0.000156,0.718268,-0.227267,-0.183938,0.686683,-0.067160,0.252729,39.305157,-22.230728,-4.312868,0.500272,1.670028,-0.235429,0.000000,0.000000,0.000000,0.000000,0.000000,0.000000
11628144.000000,-2.310179,-1.662592,1.234730,-1.445614,1.709916,1.273745,-0.578988,0.295507,0.001327,0.735403,-0.222122,-0.179473,0.684620,-0.064146,0.030561,39.253582,-22.472733,-4.412050,0.470060,1.656295,-0.248246,0.000000,0.000000,0.000000,0.000000,0.000000,0.000000
11628145.000000,-2.309886,-1.662591,1.235465,-1.445827,1.709745,1.274438,-0.579061,0.300235,0.001454,0.734540,-0.220289,-0.178473,0.686322,-0.068913,-0.092425,39.229778,-22.524307,-4.535036,0.386747,1.649886,-0.196061,0.000000,0.000000,0.000000,0.000000,0.000000,0.000000
11628146.000000,-2.309585,-1.662587,1.236210,-1.446043,1.709563,1.275125,-0.579120,0.301155,0.002092,0.729641,-0.220020,-0.176328,0.687679,-0.069390,-0.290789,39.182171,-22.671097,-4.634218,0.398649,1.689254,-0.235429,0.000000,0.000000,0.000000,0.000000,0.000000,0.000000
11628147.000000,-2.309286,-1.662584,1.236933,-1.446260,1.709382,1.275814,-0.579186,0.300940,0.001959,0.729752,-0.217009,-0.180519,0.688381,-0.070981,-0.465350,39.158367,-22.694901,-4.733400,0.416959,1.735030,-0.235429,0.000000,0.000000,0.000000,0.000000,0.000000,0.000000
11628148.000000,-2.308996,-1.662585,1.237674,-1.446473,1.709203,1.276501,-0.579250,0.299208,0.001311,0.728161,-0.213642,-0.172381,0.682810,-0.067411,-0.564532,39.158367,-22.841690,-4.856386,0.393156,1.806442,-0.235429,0.000000,0.000000,0.000000,0.000000,0.000000,0.000000
11628149.000000,-2.308696,-1.662582,1.238420,-1.446675,1.709028,1.277179,-0.579313,0.299317,0.002084,0.732467,-0.213791,-0.171767,0.680779,-0.064862,-0.735125,39.106792,-23.016251,-5.030946,0.393156,1.838485,-0.229020,0.000000,0.000000,0.000000,0.000000,0.000000,0.000000
11628150.000000,-2.308410,-1.662584,1.239153,-1.446885,1.708858,1.277865,-0.579378,0.301608,0.000836,0.736363,-0.210672,-0.169853,0.670094,-0.064171,-0.786700,39.130596,-23.111465,-5.177736,0.362943,1.825668,-0.208878,0.000000,0.000000,0.000000,0.000000,0.000000,0.000000
11628151.000000,-2.308108,-1.662587,1.239888,-1.447096,1.708684,1.278549,-0.579435,0.298743,-0.000647,0.734089,-0.212219,-0.170529,0.675309,-0.060114,-0.961260,39.182171,-23.186844,-5.253114,0.374845,1.754256,-0.261979,0.000000,0.000000,0.000000,0.000000,0.000000,0.000000
11628152.000000,-2.307808,-1.662584,1.240607,-1.447309,1.708512,1.279226,-0.579506,0.298819,0.000777,0.730688,-0.209599,-0.170157,0.668803,-0.061568,-1.131854,39.130596,-23.135269,-5.276918,0.369352,1.800033,-0.208878,0.000000,0.000000,0.000000,0.000000,0.000000,0.000000
11628153.000000,-2.307516,-1.662584,1.241332,-1.447518,1.708335,1.279907,-0.579567,0.296235,0.000519,0.725620,-0.210549,-0.168948,0.668538,-0.061284,-1.282611,39.130596,-23.087662,-5.304689,0.344633,1.858627,-0.202470,0.000000,0.000000,0.000000,0.000000,0.000000,0.000000
11628154.000000,-2.307220,-1.662586,1.242063,-1.447724,1.708155,1.280575,-0.579626,0.290241,-0.000303,0.724178,-0.211906,-0.170281,0.670522,-0.058292,-1.429400,39.158367,-22.988480,-5.304689,0.369352,1.871444,-0.254655,0.000000,0.000000,0.000000,0.000000,0.000000,0.000000
11628155.000000,-2.306926,-1.662589,1.242777,-1.447928,1.707978,1.281258,-0.579686,0.291312,-0.001315,0.722505,-0.208191,-0.170912,0.672137,-0.062016,-1.504779,39.205975,-22.865494,-5.352296,0.386747,1.851302,-0.254655,0.000000,0.000000,0.000000,0.000000,0.000000,0.000000
11628156.000000,-2.306636,-1.662591,1.243507,-1.448129,1.707808,1.281949,-0.579745,0.291206,-0.000876,0.720996,-0.203799,-0.169722,0.694009,-0.061252,-1.552386,39.205975,-22.794083,-5.352296,0.362943,1.819259,-0.248246,0.000000,0.000000,0.000000,0.000000,0.000000,0.000000
11628157.000000,-2.306347,-1.662593,1.244231,-1.448335,1.707646,1.282628,-0.579806,0.290078,-0.001697,0.721406,-0.203203,-0.172974,0.686410,-0.061456,-1.580157,39.253582,-22.841690,-5.352296,0.320829,1.793624,-0.221696,0.000000,0.000000,0.000000,0.000000,0.000000,0.000000
11628158.000000,-2.306068,-1.662598,1.244966,-1.448538,1.707478,1.283311,-0.579861,0.285468,-0.002338,0.728728,-0.201270,-0.167608,0.682565,-0.056242,-1.528582,39.305157,-22.917068,-5.399904,0.332731,1.812850,-0.215287,0.000000,0.000000,0.000000,0.000000,0.000000,0.000000
11628159.000000,-2.305778,-1.662607,1.245699,-1.448741,1.707307,1.283985,-0.579920,0.284179,-0.004435,0.726218,-0.202535,-0.169027,0.675965,-0.057214,-1.580157,39.428143,-22.940872,-5.352296,0.356534,1.838485,-0.188737,0.000000,0.000000,0.000000,0.000000,0.000000,0.000000
11628160.000000,-2.305500,-1.662615,1.246423,-1.448945,1.707134,1.284676,-0.579981,0.283419,-0.004627,0.729211,-0.203608,-0.174563,0.674786,-0.057423,-1.504779,39.499554,-23.040054,-5.304689,0.374845,1.871444,-0.188737,0.000000,0.000000,0.000000,0.000000,0.000000,0.000000
11628161.000000,-2.305219,-1.662625,1.247167,-1.449148,1.706963,1.285358,-0.580032,0.282396,-0.005405,0.728565,-0.202806,-0.172184,0.669811,-0.060333,-1.528582,39.598736,-23.258255,-5.304689,0.344633,1.903487,-0.248246,0.000000,0.000000,0.000000,0.000000,0.000000,0.000000
11628162.000000,-2.304936,-1.662638,1.247915,-1.449345,1.706794,1.286040,-0.580099,0.280910,-0.007593,0.742985,-0.200816,-0.167537,0.673468,-0.061554,-1.504779,39.769329,-23.528030,-5.376100,0.356534,1.877853,-0.196061,0.000000,0.000000,0.000000,0.000000,0.000000,0.000000
11628163.000000,-2.304663,-1.662645,1.248651,-1.449545,1.706624,1.286728,-0.580151,0.279032,-0.006733,0.739517,-0.200140,-0.168768,0.674459,-0.057793,-1.453204,39.840740,-23.726395,-5.399904,0.381254,1.838485,-0.261979,0.000000,0.000000,0.000000,0.000000,0.000000,0.000000
11628164.000000,-2.304382,-1.662660,1.249389,-1.449742,1.706457,1.287398,-0.580217,0.276272,-0.011209,0.732690,-0.197370,-0.169244,0.673929,-0.060758,-1.504779,39.987530,-23.896988,-5.399904,0.405057,1.877853,-0.182328,0.000000,0.000000,0.000000,0.000000,0.000000,0.000000
11628165.000000,-2.304103,-1.662677,1.250123,-1.449944,1.706292,1.288071,-0.580272,0.276724,-0.011830,0.731720,-0.198559,-0.168685,0.676569,-0.058056,-1.528582,40.162090,-24.071548,-5.399904,0.386747,1.962081,-0.235429,0.000000,0.000000,0.000000,0.000000,0.000000,0.000000
11628166.000000,-2.303837,-1.662696,1.250860,-1.450148,1.706125,1.288746,-0.580331,0.275400,-0.015810,0.728452,-0.201678,-0.173301,0.674790,-0.058011,-1.480975,40.356487,-24.166763,-5.427675,0.381254,2.020675,-0.235429,0.000000,0.000000,0.000000,0.000000,0.000000,0.000000
11628167.000000,-2.303567,-1.662709,1.251596,-1.450354,1.705949,1.289417,-0.580393,0.270214,-0.016451,0.724970,-0.206580,-0.173598,0.677374,-0.058856,-1.405596,40.455669,-24.190567,-5.352296,0.405057,1.988631,-0.196061,0.000000,0.000000,0.000000,0.000000,0.000000,0.000000
11628168.000000,-2.303298,-1.662722,1.252324,-1.450551,1.705775,1.290093,-0.580444,0.271204,-0.013216,0.725996,-0.200569,-0.171800,0.667816,-0.056394,-1.354022,40.527081,-24.218338,-5.399904,0.381254,1.968490,-0.261979,0.000000,0.000000,0.000000,0.000000,0.000000,0.000000
11628169.000000,-2.303029,-1.662737,1.253061,-1.450754,1.705601,1.290763,-0.580510,0.271573,-0.011007,0.729368,-0.207131,-0.166785,0.665698,-0.059021,-1.306414,40.602459,-24.289749,-5.352296,0.386747,1.981307,-0.208878,0.000000,0.000000,0.000000,0.000000,0.000000,0.000000
11628170.000000,-2.302760,-1.662752,1.253775,-1.450956,1.705429,1.291442,-0.580565,0.267890,-0.008777,0.725747,-0.203810,-0.168072,0.665289,-0.057301,-1.231036,40.650066,-24.166763,-5.427675,0.405057,1.949264,-0.241837,0.000000,0.000000,0.000000,0.000000,0.000000,0.000000
11628171.000000,-2.302503,-1.662764,1.254502,-1.451165,1.705252,1.292128,-0.580626,0.264741,-0.009833,0.720743,-0.204362,-0.169786,0.669722,-0.058268,-1.131854,40.673870,-24.071548,-5.376100,0.452665,1.903487,-0.215287,0.000000,0.000000,0.000000,0.000000,0.000000,0.000000
11628172.000000,-2.302249,-1.662773,1.255236,-1.451367,1.705082,1.292797,-0.580684,0.262115,-0.010180,0.719633,-0.204209,-0.171052,0.673214,-0.058050,-0.985064,40.673870,-23.948563,-5.352296,0.488370,1.871444,-0.215287,0.000000,0.000000,0.000000,0.000000,0.000000,0.000000
11628173.000000,-2.301983,-1.662784,1.255961,-1.451572,1.704923,1.293473,-0.580741,0.262211,-0.009976,0.718554,-0.207160,-0.167918,0.667221,-0.057512,-0.933489,40.650066,-23.920792,-5.328493,0.416959,1.897079,-0.221696,0.000000,0.000000,0.000000,0.000000,0.000000,0.000000
11628174.000000,-2.301726,-1.662794,1.256683,-1.451785,1.704754,1.294162,-0.580797,0.260722,-0.010477,0.713925,-0.207436,-0.167782,0.677307,-0.056918,-0.834307,40.650066,-23.678787,-5.253114,0.398649,1.844894,-0.235429,0.000000,0.000000,0.000000,0.000000,0.000000,0.000000
11628175.000000,-2.301462,-1.662807,1.257402,-1.451990,1.704581,1.294847,-0.580856,0.261848,-0.012064,0.726136,-0.209986,-0.168801,0.675709,-0.057328,-0.810504,40.697674,-23.651016,-5.205507,0.410551,1.760665,-0.221696,0.000000,0.000000,0.000000,0.000000,0.000000,0.000000
11628176.000000,-2.301207,-1.662808,1.258129,-1.452204,1.704416,1.295532,-0.580910,0.260974,-0.009279,0.723188,-0.211185,-0.163647,0.680052,-0.057137,-0.735125,40.578655,-23.627213,-5.030946,0.398649,1.754256,-0.221696,0.000000,0.000000,0.000000,0.000000,0.000000,0.000000
11628177.000000,-2.300942,-1.662811,1.258862,-1.452411,1.704258,1.296201,-0.580963,0.263228,-0.007940,0.724242,-0.211644,-0.160572,0.672239,-0.056069,-0.786700,40.479473,-23.627213,-4.884157,0.398649,1.819259,-0.248246,0.000000,0.000000,0.000000,0.000000,0.000000,0.000000
11628178.000000,-2.300684,-1.662816,1.259572,-1.452630,1.704089,1.296891,-0.581024,0.259490,-0.006950,0.723925,-0.212555,-0.160997,0.677179,-0.057828,-0.762896,40.380291,-23.555801,-4.709596,0.470060,1.838485,-0.215287,0.000000,0.000000,0.000000,0.000000,0.000000,0.000000
11628179.000000,-2.300423,-1.662826,1.260296,-1.452844,1.703929,1.297589,-0.581075,0.263639,-0.006151,0.719653,-0.211977,-0.158883,0.680871,-0.056294,-0.810504,40.404095,-23.528030,-4.586610,0.482877,1.747848,-0.248246,0.000000,0.000000,0.000000,0.000000,0.000000,0.000000
11628180.000000,-2.300161,-1.662826,1.261031,-1.453053,1.703773,1.298278,-0.581133,0.260624,-0.005115,0.730357,-0.210918,-0.161956,0.681365,-0.062040,-0.834307,40.281109,-23.651016,-4.487428,0.488370,1.721298,-0.229020,0.000000,0.000000,0.000000,0.000000,0.000000,0.000000
11628181.000000,-2.299908,-1.662830,1.261754,-1.453267,1.703619,1.298960,-0.581192,0.262350,-0.003102,0.731358,-0.214103,-0.156516,0.681100,-0.057446,-0.810504,40.233501,-23.702591,-4.340639,0.428861,1.779891,-0.188737,0.000000,0.000000,0.000000,0.000000,0.000000,0.000000
11628182.000000,-2.299653,-1.662835,1.262484,-1.453487,1.703455,1.299644,-0.581241,0.258597,-0.004732,0.728807,-0.216316,-0.159995,0.680610,-0.059519,-0.762896,40.185894,-23.801773,-4.213686,0.446256,1.779891,-0.254655,0.000000,0.000000,0.000000,0.000000,0.000000,0.000000
11628183.000000,-2.299395,-1.662843,1.263203,-1.453703,1.703283,1.300328,-0.581302,0.257094,-0.005717,0.727041,-0.213459,-0.164482,0.685062,-0.060442,-0.786700,40.134319,-23.849380,-4.142274,0.500272,1.779891,-0.215287,0.000000,0.000000,0.000000,0.000000,0.000000,0.000000
11628184.000000,-2.299144,-1.662841,1.263928,-1.453922,1.703115,1.301006,-0.581353,0.255513,-0.001170,0.722925,-0.212573,-0.165747,0.673947,-0.058116,-0.786700,39.987530,-23.948563,-4.019289,0.506681,1.909896,-0.248246,0.000000,0.000000,0.000000,0.000000,0.000000,0.000000
11628185.000000,-2.298891,-1.662843,1.264662,-1.454133,1.702957,1.301678,-0.581409,0.253580,0.000296,0.726493,-0.213582,-0.160833,0.677130,-0.052818,-0.762896,39.916119,-24.071548,-3.967714,0.476469,1.988631,-0.254655,0.000000,0.000000,0.000000,0.000000,0.000000,0.000000
11628186.000000,-2.298636,-1.662846,1.265382,-1.454348,1.702792,1.302367,-0.581468,0.252248,-0.002831,0.725069,-0.213005,-0.165159,0.674327,-0.055961,-0.735125,39.892315,-24.142960,-3.943910,0.530485,1.916305,-0.202470,0.000000,0.000000,0.000000,0.000000,0.000000,0.000000
11628187.000000,-2.298387,-1.662843,1.266103,-1.454561,1.702631,1.303051,-0.581524,0.251042,0.000394,0.720530,-0.215993,-0.161193,0.691341,-0.055704,-0.687518,39.769329,-24.166763,-3.892336,0.524076,1.884261,-0.208878,0.000000,0.000000,0.000000,0.000000,0.000000,0.000000
11628188.000000,-2.298128,-1.662845,1.266815,-1.454779,1.702481,1.303736,-0.581579,0.252960,0.000372,0.714970,-0.216934,-0.156602,0.686555,-0.056600,-0.786700,39.745525,-24.119156,-3.820925,0.470060,1.930038,-0.196061,0.000000,0.000000,0.000000,0.000000,0.000000,0.000000
11628189.000000,-2.297876,-1.662841,1.267533,-1.455004,1.702322,1.304427,-0.581629,0.252817,0.001676,0.712036,-0.221238,-0.159262,0.681525,-0.054282,-0.810504,39.670147,-24.119156,-3.721742,0.458158,1.988631,-0.254655,0.000000,0.000000,0.000000,0.000000,0.000000,0.000000
11628190.000000,-2.297625,-1.662835,1.268248,-1.455225,1.702157,1.305101,-0.581687,0.252780,0.003093,0.711960,-0.220773,-0.157927,0.686578,-0.056694,-0.834307,39.574932,-23.948563,-3.646364,0.476469,1.974899,-0.215287,0.000000,0.000000,0.000000,0.000000,0.000000,0.000000
11628191.000000,-2.297373,-1.662825,1.268947,-1.455447,1.701991,1.305791,-0.581736,0.250074,0.004751,0.705180,-0.219569,-0.157477,0.684037,-0.054968,-0.862078,39.451946,-23.750198,-3.598757,0.512174,1.955673,-0.254655,0.000000,0.000000,0.000000,0.000000,0.000000,0.000000
11628192.000000,-2.297129,-1.662819,1.269665,-1.455667,1.701835,1.306479,-0.581796,0.248365,0.004789,0.705665,-0.217716,-0.155705,0.683714,-0.053214,-0.786700,39.376568,-23.702591,-3.475771,0.506681,1.942855,-0.196061,0.000000,0.000000,0.000000,0.000000,0.000000,0.000000
11628193.000000,-2.296879,-1.662808,1.270371,-1.455890,1.701688,1.307156,-0.581843,0.244870,0.006520,0.718575,-0.220636,-0.152833,0.679807,-0.051912,-0.762896,39.229778,-23.627213,-3.424196,0.464567,1.877853,-0.248246,0.000000,0.000000,0.000000,0.000000,0.000000,0.000000
11628194.000000,-2.296640,-1.662797,1.271088,-1.456113,1.701529,1.307838,-0.581895,0.242846,0.007144,0.721673,-0.222247,-0.154413,0.684226,-0.053157,-0.711321,39.106792,-23.627213,-3.376589,0.518583,1.832076,-0.248246,0.000000,0.000000,0.000000,0.000000,0.000000,0.000000
11628195.000000,-2.296395,-1.662790,1.271810,-1.456335,1.701378,1.308510,-0.581950,0.240250,0.006930,0.716965,-0.221536,-0.154284,0.678554,-0.054735,-0.635943,39.011578,-23.627213,-3.301210,0.530485,1.812850,-0.229020,0.000000,0.000000,0.000000,0.000000,0.000000,0.000000
11628196.000000,-2.296153,-1.662787,1.272519,-1.456558,1.701230,1.309185,-0.582002,0.238585,0.004575,0.715440,-0.218903,-0.148577,0.674148,-0.055374,-0.564532,39.011578,-23.702591,-3.178224,0.524076,1.916305,-0.235429,0.000000,0.000000,0.000000,0.000000,0.000000,0.000000
11628197.000000,-2.295913,-1.662785,1.273239,-1.456781,1.701075,1.309858,-0.582054,0.238827,0.003666,0.710250,-0.220676,-0.148828,0.673291,-0.052042,-0.564532,38.983807,-23.801773,-3.154421,0.518583,1.974899,-0.215287,0.000000,0.000000,0.000000,0.000000,0.000000,0.000000
11628198.000000,-2.295680,-1.662784,1.273965,-1.456993,1.700929,1.310535,-0.582105,0.236763,0.002419,0.723187,-0.221275,-0.147870,0.674549,-0.052113,-0.441546,38.983807,-23.948563,-3.178224,0.476469,1.974899,-0.248246,0.000000,0.000000,0.000000,0.000000,0.000000,0.000000
11628199.000000,-2.295448,-1.662788,1.274675,-1.457204,1.700775,1.311221,-0.582156,0.237067,0.000387,0.719341,-0.218391,-0.144201,0.675847,-0.054554,-0.342364,39.035381,-24.019974,-3.202028,0.488370,1.923629,-0.215287,0.000000,0.000000,0.000000,0.000000,0.000000,0.000000
11628200.000000,-2.295211,-1.662791,1.275389,-1.457411,1.700629,1.311887,-0.582203,0.236268,-0.001426,0.710467,-0.217266,-0.147005,0.670450,-0.053916,-0.290789,39.106792,-24.142960,-3.202028,0.512174,1.962081,-0.248246,0.000000,0.000000,0.000000,0.000000,0.000000,0.000000
11628201.000000,-2.294974,-1.662794,1.276100,-1.457617,1.700482,1.312553,-0.582251,0.233131,-0.002168,0.717158,-0.214552,-0.149213,0.671002,-0.050042,-0.266986,39.158367,-24.265945,-3.277406,0.542386,2.007858,-0.254655,0.000000,0.000000,0.000000,0.000000,0.000000,0.000000
11628202.000000,-2.294745,-1.662808,1.276817,-1.457828,1.700336,1.313239,-0.582308,0.229905,-0.005444,0.713864,-0.215067,-0.145182,0.674185,-0.048838,-0.191607,39.328960,-24.289749,-3.249635,0.559781,1.962081,-0.208878,0.000000,0.000000,0.000000,0.000000,0.000000,0.000000
11628203.000000,-2.294516,-1.662813,1.277529,-1.458034,1.700192,1.313912,-0.582355,0.230230,-0.005306,0.712779,-0.212368,-0.143247,0.676776,-0.045334,-0.116229,39.400372,-24.242142,-3.225832,0.596403,1.916305,-0.221696,0.000000,0.000000,0.000000,0.000000,0.000000,0.000000
11628204.000000,-2.294286,-1.662820,1.278237,-1.458231,1.700054,1.314581,-0.582404,0.228407,-0.005862,0.709784,-0.210529,-0.143306,0.671080,-0.049036,-0.068621,39.499554,-24.218338,-3.301210,0.554288,1.923629,-0.221696,0.000000,0.000000,0.000000,0.000000,0.000000,0.000000
11628205.000000,-2.294065,-1.662827,1.278945,-1.458431,1.699914,1.315247,-0.582448,0.225342,-0.006231,0.705004,-0.211633,-0.139442,0.682839,-0.045013,0.054365,39.598736,-24.142960,-3.376589,0.524076,1.936446,-0.254655,0.000000,0.000000,0.000000,0.000000,0.000000,0.000000
11628206.000000,-2.293838,-1.662838,1.279644,-1.458632,1.699777,1.315926,-0.582499,0.223350,-0.007590,0.701019,-0.208713,-0.135369,0.678737,-0.047917,0.153547,39.745525,-23.996170,-3.400392,0.458158,1.884261,-0.261979,0.000000,0.000000,0.000000,0.000000,0.000000,0.000000
11628207.000000,-2.293618,-1.662838,1.280347,-1.458831,1.699631,1.316613,-0.582550,0.221675,-0.005062,0.695706,-0.205680,-0.140104,0.674274,-0.050915,0.276533,39.745525,-23.873184,-3.448000,0.482877,1.858627,-0.241837,0.000000,0.000000,0.000000,0.000000,0.000000,0.000000
11628208.000000,-2.293395,-1.662843,1.281051,-1.459020,1.699494,1.317285,-0.582602,0.221382,-0.004490,0.694516,-0.200335,-0.138119,0.677277,-0.049023,0.351911,39.793133,-23.726395,-3.499574,0.476469,1.806442,-0.208878,0.000000,0.000000,0.000000,0.000000,0.000000,0.000000
11628209.000000,-2.293177,-1.662840,1.281757,-1.459217,1.699356,1.317970,-0.582650,0.222436,-0.002437,0.701397,-0.200182,-0.142440,0.677486,-0.045458,0.502668,39.769329,-23.750198,-3.523378,0.500272,1.779891,-0.235429,0.000000,0.000000,0.000000,0.000000,0.000000,0.000000
11628210.000000,-2.292951,-1.662837,1.282452,-1.459408,1.699220,1.318667,-0.582691,0.222572,0.000137,0.698184,-0.195941,-0.139270,0.684158,-0.041990,0.474897,39.693951,-23.504227,-3.598757,0.482877,1.727706,-0.281205,0.000000,0.000000,0.000000,0.000000,0.000000,0.000000
11628211.000000,-2.292729,-1.662828,1.283140,-1.459600,1.699081,1.319348,-0.582752,0.222639,0.002318,0.707361,-0.193949,-0.139696,0.683141,-0.049391,0.502668,39.598736,-23.309830,-3.622560,0.542386,1.695663,-0.182328,0.000000,0.000000,0.000000,0.000000,0.000000,0.000000
11628212.000000,-2.292510,-1.662824,1.283840,-1.459791,1.698947,1.320033,-0.582790,0.223662,0.002752,0.702085,-0.193075,-0.136819,0.685310,-0.044464,0.502668,39.547161,-23.234451,-3.598757,0.524076,1.676437,-0.248246,0.000000,0.000000,0.000000,0.000000,0.000000,0.000000
11628213.000000,-2.292286,-1.662821,1.284548,-1.459984,1.698823,1.320707,-0.582838,0.225135,0.003504,0.701406,-0.192811,-0.133049,0.681777,-0.047594,0.502668,39.475750,-23.186844,-3.570986,0.452665,1.714889,-0.248246,0.000000,0.000000,0.000000,0.000000,0.000000,0.000000
11628214.000000,-2.292054,-1.662814,1.285242,-1.460172,1.698686,1.321402,-0.582886,0.227216,0.004099,0.696389,-0.190646,-0.133103,0.682440,-0.046642,0.427289,39.400372,-23.186844,-3.622560,0.452665,1.670028,-0.215287,0.000000,0.000000,0.000000,0.000000,0.000000,0.000000
11628215.000000,-2.291832,-1.662805,1.285939,-1.460364,1.698548,1.322090,-0.582930,0.224458,0.005517,0.694194,-0.190694,-0.137528,0.681519,-0.043360,0.403486,39.281353,-23.063858,-3.598757,0.452665,1.656295,-0.241837,0.000000,0.000000,0.000000,0.000000,0.000000,0.000000
11628216.000000,-2.291599,-1.662802,1.286649,-1.460546,1.698412,1.322769,-0.582978,0.227999,0.004884,0.698668,-0.189996,-0.136448,0.682951,-0.043340,0.252729,39.229778,-23.111465,-3.598757,0.452665,1.721298,-0.208878,0.000000,0.000000,0.000000,0.000000,0.000000,0.000000
11628217.000000,-2.291379,-1.662788,1.287346,-1.460731,1.698278,1.323455,-0.583019,0.228164,0.007803,0.701817,-0.189451,-0.140142,0.681873,-0.040175,0.228925,39.035381,-23.186844,-3.598757,0.452665,1.800033,-0.254655,0.000000,0.000000,0.000000,0.000000,0.000000,0.000000
11628218.000000,-2.291155,-1.662784,1.288052,-1.460910,1.698143,1.324142,-0.583066,0.225214,0.005759,0.695809,-0.184953,-0.139600,0.683080,-0.040521,0.177350,39.011578,-23.234451,-3.646364,0.482877,1.760665,-0.235429,0.000000,0.000000,0.000000,0.000000,0.000000,0.000000
11628219.000000,-2.290935,-1.662778,1.288748,-1.461083,1.698012,1.324832,-0.583115,0.222516,0.005602,0.699836,-0.181205,-0.137991,0.683570,-0.045568,0.153547,38.936199,-23.309830,-3.721742,0.494779,1.708480,-0.208878,0.000000,0.000000,0.000000,0.000000,0.000000,0.000000
