chaoyuefei/paper-gmrm-data/robot_logs/s2_dq_gmrm_xz_min_0.30_log_20260314_173222.csv
# time_ms,q_0,q_1,q_2,q_3,q_4,q_5,q_6,dq_0,dq_1,dq_2,dq_3,dq_4,dq_5,dq_6,tau_J_0,tau_J_1,tau_J_2,tau_J_3,tau_J_4,tau_J_5,tau_J_6,O_dP_EE_c_0,O_dP_EE_c_1,O_dP_EE_c_2,O_dP_EE_c_3,O_dP_EE_c_4,O_dP_EE_c_5
12204507.000000,-2.415959,-1.662598,1.042310,-1.355829,1.795770,1.080867,-0.548499,0.000614,0.001061,-0.000359,-0.000276,0.000361,-0.000257,-0.001499,-0.044818,41.530804,-20.977066,-5.697450,0.852750,1.344100,0.041976,0.000000,0.000000,0.000000,0.000000,0.000000,0.000000
12204508.000000,-2.415957,-1.662602,1.042313,-1.355830,1.795769,1.080867,-0.548501,0.000409,-0.000406,0.000873,-0.000741,0.000003,0.000066,-0.001712,-0.044818,41.578411,-21.024673,-5.673646,0.859159,1.337692,0.061202,0.000000,0.000000,0.000000,0.000000,0.000000,0.000000
12204509.000000,-2.415960,-1.662602,1.042312,-1.355828,1.795766,1.080870,-0.548496,-0.000934,-0.000271,0.000025,0.000620,-0.000201,0.000044,0.000317,0.006757,41.578411,-21.000870,-5.721254,0.864652,1.337692,0.021835,0.000000,0.000000,0.000000,0.000000,0.000000,0.000000
12204510.000000,-2.415958,-1.662600,1.042312,-1.355829,1.795768,1.080868,-0.548498,-0.000066,0.000376,0.000016,-0.000144,0.000069,0.000029,-0.000263,-0.017047,41.554607,-21.000870,-5.697450,0.859159,1.337692,0.034652,0.000000,0.000000,0.000000,0.000000,0.000000,0.000000
12204511.000000,-2.415955,-1.662602,1.042314,-1.355829,1.795768,1.080868,-0.548497,0.005300,-0.001243,0.000011,0.001404,-0.008589,-0.001676,-0.002422,0.304304,41.483196,-21.000870,-5.626039,0.840848,1.383468,-0.031266,0.000000,0.000000,0.000000,0.000000,0.000000,0.000000
12204512.000000,-2.415942,-1.662605,1.042314,-1.355824,1.795771,1.080865,-0.548514,0.013277,-0.005919,0.001512,0.005114,-0.006872,0.002178,-0.006556,1.268354,41.284832,-20.929459,-5.526857,0.721830,1.546432,-0.037675,0.000000,0.000000,0.000000,0.000000,0.000000,0.000000
12204513.000000,-2.415917,-1.662609,1.042331,-1.355825,1.795765,1.080863,-0.548546,0.020603,-0.005228,0.006100,0.003351,-0.006798,0.002842,-0.017870,2.902875,40.896038,-21.000870,-5.229311,0.625699,1.786300,-0.037675,0.000000,0.000000,0.000000,0.000000,0.000000,0.000000
12204514.000000,-2.415870,-1.662608,1.042344,-1.355829,1.795745,1.080883,-0.548584,0.026978,-0.003107,0.008007,-0.001129,-0.014572,0.009495,-0.026278,4.759565,40.404095,-20.877884,-4.907960,0.613798,1.871444,-0.077042,0.000000,0.000000,0.000000,0.000000,0.000000,0.000000
12204515.000000,-2.415806,-1.662602,1.042365,-1.355840,1.795721,1.080934,-0.548645,0.034185,-0.002149,0.013930,-0.007778,-0.016272,0.025116,-0.037663,6.592451,39.793133,-20.806473,-4.562807,0.620206,1.793624,-0.056901,0.000000,0.000000,0.000000,0.000000,0.000000,0.000000
12204516.000000,-2.415723,-1.662609,1.042393,-1.355869,1.795683,1.081013,-0.548722,0.044199,-0.003674,0.018854,-0.014792,-0.023699,0.042426,-0.053354,8.274579,39.376568,-20.754898,-4.118471,0.661405,1.552840,-0.064225,0.000000,0.000000,0.000000,0.000000,0.000000,0.000000
12204517.000000,-2.415624,-1.662602,1.042430,-1.355908,1.795631,1.081111,-0.548824,0.058079,-0.001303,0.023275,-0.024354,-0.034101,0.061118,-0.069384,9.734540,38.813213,-20.731094,-3.745546,0.715421,1.377059,-0.037675,0.000000,0.000000,0.000000,0.000000,0.000000,0.000000
12204518.000000,-2.415500,-1.662599,1.042474,-1.355959,1.795564,1.081218,-0.548945,0.074897,-0.002709,0.031622,-0.033707,-0.044842,0.075229,-0.085944,10.896955,38.372845,-20.659683,-3.400392,0.721830,1.312057,-0.050492,0.000000,0.000000,0.000000,0.000000,0.000000,0.000000
12204519.000000,-2.415373,-1.662600,1.042530,-1.356023,1.795482,1.081345,-0.549080,0.088006,0.000708,0.037849,-0.046896,-0.055807,0.093040,-0.105488,12.035565,38.007854,-20.584305,-3.055238,0.685209,1.324874,-0.089860,0.000000,0.000000,0.000000,0.000000,0.000000,0.000000
12204520.000000,-2.415234,-1.662592,1.042594,-1.356092,1.795385,1.081494,-0.549242,0.104407,0.001100,0.045975,-0.053544,-0.067390,0.113403,-0.123824,13.003583,37.615093,-20.512894,-2.856874,0.608304,1.409103,-0.031266,0.000000,0.000000,0.000000,0.000000,0.000000,0.000000
12204521.000000,-2.415075,-1.662580,1.042673,-1.356178,1.795272,1.081654,-0.549404,0.119496,0.004508,0.056129,-0.061920,-0.086115,0.126499,-0.133973,13.793073,37.222332,-20.485123,-2.658510,0.506681,1.565658,-0.077042,0.000000,0.000000,0.000000,0.000000,0.000000,0.000000
12204522.000000,-2.414911,-1.662567,1.042772,-1.356276,1.795137,1.081849,-0.549575,0.135002,0.005269,0.070413,-0.073603,-0.099545,0.149010,-0.146910,14.534955,36.904949,-20.608109,-2.511720,0.422452,1.637069,-0.103593,0.000000,0.000000,0.000000,0.000000,0.000000,0.000000
12204523.000000,-2.414727,-1.662546,1.042881,-1.356390,1.794982,1.082088,-0.549763,0.149784,0.010938,0.085496,-0.085775,-0.121010,0.178874,-0.159178,15.130048,36.512188,-20.659683,-2.360964,0.386747,1.624252,-0.050492,0.000000,0.000000,0.000000,0.000000,0.000000,0.000000
12204524.000000,-2.414523,-1.662531,1.043014,-1.356530,1.794791,1.082348,-0.549943,0.169156,0.013395,0.100495,-0.102992,-0.140395,0.203533,-0.165843,15.602155,36.194805,-20.877884,-2.138796,0.440763,1.546432,-0.070634,0.000000,0.000000,0.000000,0.000000,0.000000,0.000000
12204525.000000,-2.414301,-1.662508,1.043150,-1.356678,1.794587,1.082640,-0.550132,0.187793,0.014099,0.115653,-0.116620,-0.167269,0.231065,-0.170605,15.871930,35.802044,-21.000870,-2.015810,0.488370,1.454879,-0.103593,0.000000,0.000000,0.000000,0.000000,0.000000,0.000000
12204526.000000,-2.414063,-1.662488,1.043311,-1.356844,1.794356,1.082946,-0.550329,0.202937,0.015271,0.129458,-0.129290,-0.190910,0.254871,-0.177713,16.145674,35.508465,-21.246841,-1.916628,0.559781,1.416427,-0.056901,0.000000,0.000000,0.000000,0.000000,0.000000,0.000000
12204527.000000,-2.413813,-1.662470,1.043468,-1.357023,1.794097,1.083284,-0.550514,0.223744,0.015745,0.137729,-0.146393,-0.209808,0.285362,-0.180568,16.344038,35.238689,-21.270645,-1.916628,0.584501,1.409103,-0.056901,0.000000,0.000000,0.000000,0.000000,0.000000,0.000000
12204528.000000,-2.413541,-1.662456,1.043642,-1.357221,1.793834,1.083641,-0.550695,0.236366,0.013927,0.147793,-0.157093,-0.221210,0.305520,-0.180381,16.467024,35.068096,-21.322220,-1.892824,0.571683,1.481429,-0.103593,0.000000,0.000000,0.000000,0.000000,0.000000,0.000000
12204529.000000,-2.413255,-1.662445,1.043823,-1.357429,1.793551,1.084009,-0.550888,0.252021,0.011092,0.159536,-0.170303,-0.239822,0.320843,-0.184644,16.566206,34.972881,-21.270645,-1.916628,0.542386,1.559249,-0.050492,0.000000,0.000000,0.000000,0.000000,0.000000,0.000000
12204530.000000,-2.412954,-1.662432,1.044010,-1.357654,1.793261,1.084402,-0.551069,0.267819,0.012989,0.171272,-0.189129,-0.258224,0.344979,-0.185380,16.617781,34.849895,-21.199234,-1.841249,0.452665,1.662704,-0.070634,0.000000,0.000000,0.000000,0.000000,0.000000,0.000000
12204531.000000,-2.412634,-1.662429,1.044217,-1.357901,1.792945,1.084818,-0.551252,0.281545,0.008676,0.181787,-0.204906,-0.277347,0.365115,-0.183982,16.665388,34.849895,-21.199234,-1.793642,0.351041,1.741439,-0.130143,0.000000,0.000000,0.000000,0.000000,0.000000,0.000000
12204532.000000,-2.412291,-1.662428,1.044428,-1.358167,1.792610,1.085267,-0.551436,0.308787,0.005796,0.187559,-0.223650,-0.296364,0.384342,-0.186566,16.590010,34.849895,-21.100052,-1.619081,0.315336,1.708480,-0.103593,0.000000,0.000000,0.000000,0.000000,0.000000,0.000000
12204533.000000,-2.411939,-1.662428,1.044645,-1.358449,1.792270,1.085742,-0.551616,0.321442,0.002760,0.198278,-0.239992,-0.312832,0.412652,-0.182112,16.518599,34.897503,-21.000870,-1.472292,0.315336,1.676437,-0.116410,0.000000,0.000000,0.000000,0.000000,0.000000,0.000000
12204534.000000,-2.411572,-1.662425,1.044883,-1.358744,1.791899,1.086240,-0.551797,0.335426,0.003517,0.211374,-0.255378,-0.338925,0.440474,-0.187818,16.490828,34.826092,-21.000870,-1.448488,0.369352,1.597701,-0.097184,0.000000,0.000000,0.000000,0.000000,0.000000,0.000000
12204535.000000,-2.411200,-1.662425,1.045122,-1.359053,1.791505,1.086760,-0.551982,0.346651,0.001793,0.223389,-0.272669,-0.355496,0.464191,-0.188325,16.590010,34.849895,-20.929459,-1.321535,0.428861,1.519881,-0.089860,0.000000,0.000000,0.000000,0.000000,0.000000,0.000000
12204536.000000,-2.410817,-1.662424,1.045377,-1.359364,1.791108,1.087298,-0.552166,0.353109,0.001199,0.234673,-0.286865,-0.367329,0.497462,-0.187259,16.764570,34.849895,-20.830276,-1.373109,0.476469,1.467696,-0.116410,0.000000,0.000000,0.000000,0.000000,0.000000,0.000000
12204537.000000,-2.410416,-1.662424,1.045641,-1.359690,1.790692,1.087862,-0.552351,0.361775,0.000803,0.246312,-0.298091,-0.389627,0.519181,-0.184666,16.939131,34.849895,-20.731094,-1.448488,0.518583,1.467696,-0.070634,0.000000,0.000000,0.000000,0.000000,0.000000,0.000000
12204538.000000,-2.410021,-1.662425,1.045909,-1.360032,1.790271,1.088449,-0.552533,0.369439,-0.000576,0.256132,-0.309057,-0.399301,0.534272,-0.184724,17.208906,34.897503,-20.659683,-1.547670,0.482877,1.494247,-0.089860,0.000000,0.000000,0.000000,0.000000,0.000000,0.000000
12204539.000000,-2.409598,-1.662419,1.046199,-1.360406,1.789831,1.089041,-0.552713,0.385583,0.001288,0.261302,-0.325776,-0.415676,0.551258,-0.180324,17.407270,34.826092,-20.659683,-1.420717,0.470060,1.507064,-0.122819,0.000000,0.000000,0.000000,0.000000,0.000000,0.000000
12204540.000000,-2.409167,-1.662424,1.046480,-1.360783,1.789375,1.089662,-0.552889,0.399297,-0.000811,0.269251,-0.342559,-0.430149,0.568674,-0.179236,17.581831,34.897503,-20.536697,-1.250124,0.393156,1.494247,-0.089860,0.000000,0.000000,0.000000,0.000000,0.000000,0.000000
12204541.000000,-2.408718,-1.662424,1.046778,-1.361190,1.788909,1.090305,-0.553060,0.414331,-0.000540,0.279314,-0.360960,-0.444344,0.595082,-0.176350,17.827803,34.897503,-20.461319,-0.952577,0.351041,1.422836,-0.103593,0.000000,0.000000,0.000000,0.000000,0.000000,0.000000
12204542.000000,-2.408253,-1.662417,1.047093,-1.361598,1.788425,1.090960,-0.553232,0.432227,0.001961,0.291113,-0.370817,-0.458671,0.614434,-0.171713,18.026167,34.798321,-20.437515,-0.829591,0.362943,1.344100,-0.110001,0.000000,0.000000,0.000000,0.000000,0.000000,0.000000
12204543.000000,-2.407788,-1.662413,1.047412,-1.362025,1.787925,1.091629,-0.553404,0.442600,0.001865,0.297588,-0.390507,-0.480266,0.635402,-0.171087,18.375288,34.774517,-20.437515,-0.555849,0.422452,1.318465,-0.116410,0.000000,0.000000,0.000000,0.000000,0.000000,0.000000
12204544.000000,-2.407297,-1.662398,1.047739,-1.362460,1.787410,1.092311,-0.553578,0.449449,0.007286,0.308661,-0.399604,-0.490666,0.651061,-0.168565,18.347517,34.651531,-20.338333,-0.484438,0.559781,1.318465,-0.077042,0.000000,0.000000,0.000000,0.000000,0.000000,0.000000
12204545.000000,-2.406819,-1.662386,1.048068,-1.362916,1.786885,1.093029,-0.553743,0.452987,0.006792,0.314597,-0.418832,-0.501061,0.672864,-0.167659,17.780195,34.580120,-20.044754,-0.484438,0.679716,1.299239,-0.110001,0.000000,0.000000,0.000000,0.000000,0.000000,0.000000
12204546.000000,-2.406336,-1.662373,1.048435,-1.363383,1.786363,1.093757,-0.553912,0.454477,0.007603,0.339643,-0.433819,-0.506817,0.686382,-0.164664,16.467024,34.457134,-19.727371,-0.853395,0.793241,1.357833,-0.097184,0.000000,0.000000,0.000000,0.000000,0.000000,0.000000
12204547.000000,-2.405853,-1.662357,1.048828,-1.363877,1.785833,1.094497,-0.554066,0.461727,0.002156,0.357671,-0.444476,-0.518413,0.700373,-0.158840,14.661908,34.187359,-19.259232,-1.297731,0.871061,1.442062,-0.163102,0.000000,0.000000,0.000000,0.000000,0.000000,0.000000
12204548.000000,-2.405398,-1.662345,1.049239,-1.364375,1.785318,1.095267,-0.554227,0.466244,0.002984,0.378062,-0.457545,-0.517387,0.722336,-0.162935,12.805219,33.822369,-18.620499,-1.694460,0.745634,1.448470,-0.149369,0.000000,0.000000,0.000000,0.000000,0.000000,0.000000
12204549.000000,-2.404935,-1.662335,1.049677,-1.364873,1.784822,1.096041,-0.554396,0.465100,0.004364,0.395095,-0.463118,-0.512438,0.733588,-0.166725,10.896955,33.405804,-17.934158,-2.237978,0.608304,1.370651,-0.110001,0.000000,0.000000,0.000000,0.000000,0.000000,0.000000
12204550.000000,-2.404483,-1.662332,1.050157,-1.365378,1.784325,1.096827,-0.554556,0.465575,0.003345,0.421609,-0.483099,-0.501924,0.749166,-0.161378,9.163251,33.060650,-17.370804,-2.583132,0.351041,1.220504,-0.149369,0.000000,0.000000,0.000000,0.000000,0.000000,0.000000
12204551.000000,-2.404036,-1.662330,1.050644,-1.365887,1.783841,1.097619,-0.554723,0.462331,0.005578,0.441528,-0.490252,-0.492307,0.759751,-0.160814,7.679487,32.719463,-16.803482,-2.856874,0.141385,1.090499,-0.110001,0.000000,0.000000,0.000000,0.000000,0.000000,0.000000
12204552.000000,-2.403585,-1.662335,1.051141,-1.366382,1.783344,1.098398,-0.554888,0.459429,0.001194,0.452083,-0.487691,-0.498553,0.763182,-0.163362,6.366315,32.497295,-16.240128,-3.202028,0.040677,0.960494,-0.089860,0.000000,0.000000,0.000000,0.000000,0.000000,0.000000
12204553.000000,-2.403142,-1.662341,1.051633,-1.366876,1.782850,1.099181,-0.555051,0.458517,0.001155,0.461906,-0.488587,-0.491627,0.767079,-0.158886,5.279279,32.279095,-15.553787,-3.424196,0.004056,0.863448,-0.122819,0.000000,0.000000,0.000000,0.000000,0.000000,0.000000
12204554.000000,-2.402692,-1.662351,1.052140,-1.367349,1.782365,1.099939,-0.555219,0.455962,-0.000281,0.472201,-0.480729,-0.492580,0.772652,-0.159086,4.311262,32.132305,-14.990433,-3.820925,0.112089,0.876266,-0.083451,0.000000,0.000000,0.000000,0.000000,0.000000,0.000000
12204555.000000,-2.402243,-1.662355,1.052641,-1.367811,1.781866,1.100710,-0.555377,0.453864,0.001179,0.476298,-0.476957,-0.492948,0.766722,-0.160991,3.521772,31.886333,-14.423111,-4.189882,0.273221,0.901900,-0.103593,0.000000,0.000000,0.000000,0.000000,0.000000,0.000000
12204556.000000,-2.401789,-1.662363,1.053140,-1.368287,1.781391,1.101479,-0.555531,0.453285,-0.003300,0.484087,-0.478853,-0.484145,0.763088,-0.161400,2.728315,31.739544,-13.907364,-4.340639,0.320829,0.901900,-0.149369,0.000000,0.000000,0.000000,0.000000,0.000000,0.000000
12204557.000000,-2.401326,-1.662375,1.053641,-1.368761,1.780909,1.102241,-0.555699,0.457616,-0.006846,0.488033,-0.472772,-0.491352,0.767244,-0.161991,1.986432,31.616558,-13.367813,-4.364442,0.374845,0.869857,-0.089860,0.000000,0.000000,0.000000,0.000000,0.000000,0.000000
12204558.000000,-2.400870,-1.662381,1.054137,-1.369243,1.780430,1.103005,-0.555851,0.455073,-0.004787,0.491218,-0.474913,-0.488390,0.761962,-0.161585,1.391340,31.422161,-12.927444,-4.118471,0.351041,0.895492,-0.155778,0.000000,0.000000,0.000000,0.000000,0.000000,0.000000
12204559.000000,-2.400394,-1.662385,1.054651,-1.369730,1.779974,1.103763,-0.556011,0.460854,-0.003262,0.496143,-0.480050,-0.472803,0.755737,-0.161046,0.649457,31.227764,-12.582291,-3.797121,0.273221,0.895492,-0.116410,0.000000,0.000000,0.000000,0.000000,0.000000,0.000000
12204560.000000,-2.399917,-1.662381,1.055168,-1.370227,1.779514,1.104509,-0.556171,0.461607,0.000042,0.501384,-0.483827,-0.467945,0.753951,-0.161301,0.054365,30.934185,-12.213333,-3.348818,0.171598,0.941268,-0.089860,0.000000,0.000000,0.000000,0.000000,0.000000,0.000000
12204561.000000,-2.399444,-1.662367,1.055682,-1.370696,1.779066,1.105270,-0.556325,0.461325,0.004781,0.505258,-0.483337,-0.472225,0.757765,-0.157407,-0.489153,30.541424,-11.971329,-3.126650,0.064481,0.941268,-0.122819,0.000000,0.000000,0.000000,0.000000,0.000000,0.000000
12204562.000000,-2.398977,-1.662361,1.056217,-1.371163,1.778613,1.106018,-0.556477,0.457173,0.005089,0.511628,-0.475863,-0.474506,0.753085,-0.156018,-0.885882,30.271648,-11.820572,-3.027467,0.052579,0.922042,-0.155778,0.000000,0.000000,0.000000,0.000000,0.000000,0.000000
12204563.000000,-2.398516,-1.662346,1.056753,-1.371614,1.778152,1.106773,-0.556631,0.465604,0.007793,0.530350,-0.470894,-0.464841,0.751762,-0.156185,-1.159625,29.902691,-11.701553,-3.102846,0.052579,0.974227,-0.122819,0.000000,0.000000,0.000000,0.000000,0.000000,0.000000
12204564.000000,-2.398048,-1.662327,1.057289,-1.372064,1.777703,1.107532,-0.556783,0.462034,0.009997,0.532288,-0.460765,-0.460179,0.749763,-0.155527,-1.405596,29.513897,-11.479385,-3.202028,0.123990,1.052047,-0.122819,0.000000,0.000000,0.000000,0.000000,0.000000,0.000000
12204565.000000,-2.397572,-1.662309,1.057845,-1.372516,1.777246,1.108284,-0.556934,0.466350,0.010331,0.539529,-0.453579,-0.457231,0.750608,-0.153698,-1.651568,29.168743,-11.380203,-3.301210,0.231107,1.077682,-0.142960,0.000000,0.000000,0.000000,0.000000,0.000000,0.000000
12204566.000000,-2.397106,-1.662289,1.058402,-1.372956,1.776790,1.109042,-0.557091,0.466174,0.011707,0.547321,-0.447790,-0.453741,0.751685,-0.153364,-1.873736,28.779949,-11.233414,-3.424196,0.303434,1.058456,-0.142960,0.000000,0.000000,0.000000,0.000000,0.000000,0.000000
12204567.000000,-2.396618,-1.662274,1.058963,-1.373398,1.776349,1.109797,-0.557246,0.469482,0.012459,0.548524,-0.448148,-0.451763,0.751858,-0.149602,-2.270464,28.533978,-11.039017,-3.570986,0.339139,0.966903,-0.136552,0.000000,0.000000,0.000000,0.000000,0.000000,0.000000
12204568.000000,-2.396128,-1.662257,1.059550,-1.373835,1.775911,1.110571,-0.557400,0.475356,0.013235,0.558757,-0.453020,-0.448941,0.753027,-0.150017,-2.643389,28.288006,-10.963638,-3.598757,0.291532,0.830489,-0.136552,0.000000,0.000000,0.000000,0.000000,0.000000,0.000000
12204569.000000,-2.395642,-1.662242,1.060137,-1.374276,1.775484,1.111324,-0.557556,0.481315,0.012752,0.567316,-0.446290,-0.441516,0.752879,-0.149779,-3.087725,28.093609,-10.939835,-3.646364,0.189908,0.824081,-0.142960,0.000000,0.000000,0.000000,0.000000,0.000000,0.000000
12204570.000000,-2.395145,-1.662235,1.060728,-1.374725,1.775060,1.112068,-0.557705,0.484508,0.011881,0.575461,-0.447224,-0.438847,0.747158,-0.150751,-3.536028,28.069805,-10.793045,-3.547182,0.069974,0.863448,-0.130143,0.000000,0.000000,0.000000,0.000000,0.000000,0.000000
12204571.000000,-2.394659,-1.662233,1.061321,-1.375156,1.774632,1.112815,-0.557855,0.482219,0.010333,0.579393,-0.441956,-0.435282,0.740200,-0.151269,-3.881182,28.093609,-10.618484,-3.570986,-0.067355,0.934859,-0.116410,0.000000,0.000000,0.000000,0.000000,0.000000,0.000000
12204572.000000,-2.394163,-1.662231,1.061930,-1.375589,1.774205,1.113544,-0.558005,0.486060,0.006530,0.586771,-0.438598,-0.436068,0.754924,-0.146982,-4.178729,28.117413,-10.495499,-3.547182,-0.079257,1.039230,-0.130143,0.000000,0.000000,0.000000,0.000000,0.000000,0.000000
12204573.000000,-2.393661,-1.662228,1.062562,-1.376017,1.773783,1.114292,-0.558153,0.491288,0.005059,0.601184,-0.435173,-0.434734,0.753014,-0.151935,-4.575457,28.093609,-10.495499,-3.598757,-0.097567,1.104232,-0.149369,0.000000,0.000000,0.000000,0.000000,0.000000,0.000000
12204574.000000,-2.393158,-1.662226,1.063192,-1.376434,1.773352,1.115049,-0.558305,0.498972,0.003484,0.611861,-0.433148,-0.436975,0.752994,-0.151675,-4.995989,28.093609,-10.495499,-3.745546,-0.049044,1.096908,-0.149369,0.000000,0.000000,0.000000,0.000000,0.000000,0.000000
12204575.000000,-2.392651,-1.662225,1.063831,-1.376859,1.772905,1.115783,-0.558456,0.502187,0.002406,0.618135,-0.429871,-0.439514,0.744239,-0.148614,-5.364947,28.093609,-10.471695,-3.820925,0.129484,1.104232,-0.136552,0.000000,0.000000,0.000000,0.000000,0.000000,0.000000
12204576.000000,-2.392149,-1.662230,1.064483,-1.377277,1.772475,1.116532,-0.558602,0.502114,0.000553,0.630520,-0.428460,-0.441532,0.741968,-0.148365,-5.737872,28.141216,-10.594681,-3.892336,0.195402,1.084090,-0.163102,0.000000,0.000000,0.000000,0.000000,0.000000,0.000000
12204577.000000,-2.391638,-1.662239,1.065151,-1.377705,1.772046,1.117276,-0.558757,0.504937,-0.002461,0.640644,-0.426381,-0.442157,0.735213,-0.146147,-6.083025,28.264202,-10.765274,-3.868532,0.225614,1.110641,-0.142960,0.000000,0.000000,0.000000,0.000000,0.000000,0.000000
12204578.000000,-2.391134,-1.662246,1.065825,-1.378124,1.771616,1.118012,-0.558906,0.500823,-0.004482,0.648062,-0.424183,-0.434656,0.733446,-0.145077,-6.305193,28.387188,-10.816849,-3.991518,0.231107,1.162826,-0.116410,0.000000,0.000000,0.000000,0.000000,0.000000,0.000000
12204579.000000,-2.390637,-1.662261,1.066502,-1.378524,1.771208,1.118766,-0.559048,0.497281,-0.007509,0.659174,-0.415427,-0.431077,0.739418,-0.140893,-6.479754,28.581585,-10.816849,-4.166078,0.135892,1.117049,-0.142960,0.000000,0.000000,0.000000,0.000000,0.000000,0.000000
12204580.000000,-2.390134,-1.662274,1.067191,-1.378936,1.770786,1.119510,-0.559195,0.500291,-0.008977,0.664857,-0.413270,-0.428026,0.741053,-0.140435,-6.678118,28.752178,-10.765274,-4.241457,0.093778,1.064864,-0.142960,0.000000,0.000000,0.000000,0.000000,0.000000,0.000000
12204581.000000,-2.389634,-1.662286,1.067883,-1.379338,1.770366,1.120255,-0.559346,0.505342,-0.010053,0.689135,-0.406599,-0.418798,0.742295,-0.144136,-6.801104,28.926739,-10.693863,-4.312868,0.058073,1.123458,-0.116410,0.000000,0.000000,0.000000,0.000000,0.000000,0.000000
12204582.000000,-2.389129,-1.662297,1.068592,-1.379753,1.769964,1.120995,-0.559492,0.506842,-0.009475,0.695383,-0.409331,-0.417058,0.739569,-0.144770,-7.074847,29.045757,-10.646255,-4.312868,-0.007845,1.169235,-0.136552,0.000000,0.000000,0.000000,0.000000,0.000000,0.000000
12204583.000000,-2.388627,-1.662312,1.069311,-1.380164,1.769539,1.121746,-0.559638,0.501484,-0.010391,0.698879,-0.408758,-0.409863,0.746815,-0.142163,-7.245440,29.220318,-10.471695,-4.289064,0.058073,1.084090,-0.136552,0.000000,0.000000,0.000000,0.000000,0.000000,0.000000
12204584.000000,-2.388121,-1.662328,1.070015,-1.380570,1.769117,1.122501,-0.559788,0.506406,-0.012025,0.701108,-0.411105,-0.408912,0.750827,-0.145847,-7.495379,29.438519,-10.201920,-4.265260,0.129484,0.993453,-0.110001,0.000000,0.000000,0.000000,0.000000,0.000000,0.000000
12204585.000000,-2.387610,-1.662334,1.070736,-1.380976,1.768706,1.123233,-0.559931,0.506217,-0.009219,0.701835,-0.404660,-0.413641,0.743611,-0.146188,-7.741351,29.490093,-9.908340,-4.289064,0.166105,0.960494,-0.155778,0.000000,0.000000,0.000000,0.000000,0.000000,0.000000
12204586.000000,-2.387098,-1.662334,1.071477,-1.381376,1.768283,1.123972,-0.560084,0.507092,-0.004936,0.708697,-0.412266,-0.408444,0.738984,-0.145228,-7.991290,29.438519,-9.709976,-4.388246,0.171598,1.031905,-0.089860,0.000000,0.000000,0.000000,0.000000,0.000000,0.000000
12204587.000000,-2.386599,-1.662335,1.072203,-1.381778,1.767877,1.124718,-0.560216,0.505138,-0.002731,0.716336,-0.408363,-0.399866,0.742761,-0.138702,-8.138080,29.414715,-9.344986,-4.463624,0.141385,1.045638,-0.169511,0.000000,0.000000,0.000000,0.000000,0.000000,0.000000
12204588.000000,-2.386099,-1.662340,1.072958,-1.382176,1.767466,1.125468,-0.560360,0.501734,-0.002376,0.724196,-0.404108,-0.405506,0.744090,-0.139952,-8.237262,29.438519,-9.146622,-4.586610,0.105680,0.974227,-0.130143,0.000000,0.000000,0.000000,0.000000,0.000000,0.000000
12204589.000000,-2.385601,-1.662334,1.073709,-1.382562,1.767054,1.126212,-0.560501,0.500109,-0.001867,0.739008,-0.401010,-0.402589,0.744346,-0.137221,-8.336444,29.315533,-8.976028,-4.733400,0.064481,1.012679,-0.149369,0.000000,0.000000,0.000000,0.000000,0.000000,0.000000
12204590.000000,-2.385100,-1.662328,1.074484,-1.382960,1.766664,1.126951,-0.560645,0.500511,0.002483,0.748895,-0.404058,-0.398621,0.754644,-0.137672,-8.511004,29.144939,-8.900650,-4.757204,-0.025240,1.071273,-0.136552,0.000000,0.000000,0.000000,0.000000,0.000000,0.000000
12204591.000000,-2.384599,-1.662321,1.075276,-1.383354,1.766264,1.127723,-0.560787,0.495859,0.004336,0.763867,-0.397390,-0.401521,0.759567,-0.136550,-8.610187,29.021954,-8.876846,-4.784975,-0.043551,0.960494,-0.130143,0.000000,0.000000,0.000000,0.000000,0.000000,0.000000
12204592.000000,-2.384117,-1.662315,1.076067,-1.383730,1.765858,1.128491,-0.560926,0.492235,0.005620,0.774142,-0.396421,-0.396665,0.762655,-0.135520,-8.558612,28.898968,-8.829239,-4.907960,-0.013339,0.811263,-0.130143,0.000000,0.000000,0.000000,0.000000,0.000000,0.000000
12204593.000000,-2.383627,-1.662302,1.076884,-1.384112,1.765468,1.129245,-0.561066,0.487349,0.008183,0.789527,-0.389027,-0.392476,0.762490,-0.136252,-8.582416,28.704571,-8.924454,-5.007143,-0.067355,0.765487,-0.122819,0.000000,0.000000,0.000000,0.000000,0.000000,0.000000
12204594.000000,-2.383142,-1.662293,1.077700,-1.384482,1.765073,1.129996,-0.561207,0.496362,0.013244,0.813454,-0.386308,-0.390616,0.761180,-0.140456,-8.558612,28.633160,-9.023636,-5.153932,-0.060946,0.857040,-0.110001,0.000000,0.000000,0.000000,0.000000,0.000000,0.000000
12204595.000000,-2.382662,-1.662277,1.078531,-1.384862,1.764678,1.130738,-0.561342,0.493468,0.015692,0.816574,-0.382631,-0.389123,0.754375,-0.138193,-8.360248,28.633160,-9.344986,-5.253114,-0.019747,0.980636,-0.142960,0.000000,0.000000,0.000000,0.000000,0.000000,0.000000
12204596.000000,-2.382183,-1.662269,1.079348,-1.385240,1.764292,1.131487,-0.561478,0.482437,0.015255,0.810811,-0.380340,-0.387538,0.757171,-0.133287,-8.038898,28.998150,-9.761551,-5.328493,-0.019747,1.052047,-0.142960,0.000000,0.000000,0.000000,0.000000,0.000000,0.000000
12204597.000000,-2.381709,-1.662265,1.080149,-1.385608,1.763922,1.132251,-0.561617,0.479182,0.016338,0.805582,-0.377490,-0.381708,0.762779,-0.133483,-7.642169,29.609112,-10.570877,-5.451478,-0.031649,1.104232,-0.130143,0.000000,0.000000,0.000000,0.000000,0.000000,0.000000
12204598.000000,-2.381221,-1.662252,1.080946,-1.385988,1.763537,1.133002,-0.561760,0.477729,0.012831,0.798933,-0.378603,-0.388162,0.755279,-0.135305,-7.197833,30.319256,-11.503189,-5.399904,-0.007845,1.142684,-0.122819,0.000000,0.000000,0.000000,0.000000,0.000000,0.000000
12204599.000000,-2.380732,-1.662243,1.081730,-1.386376,1.763160,1.133770,-0.561896,0.487070,0.010783,0.796779,-0.382212,-0.382231,0.763830,-0.137979,-6.725726,31.176189,-12.558487,-5.253114,0.052579,1.182052,-0.155778,0.000000,0.000000,0.000000,0.000000,0.000000,0.000000
12204600.000000,-2.380250,-1.662223,1.082511,-1.386775,1.762787,1.134541,-0.562046,0.485365,0.011703,0.793229,-0.385296,-0.375785,0.764721,-0.142582,-6.281390,31.961712,-13.419388,-4.931764,0.166105,1.253463,-0.116410,0.000000,0.000000,0.000000,0.000000,0.000000,0.000000
12204601.000000,-2.379755,-1.662199,1.083293,-1.387171,1.762407,1.135292,-0.562190,0.483497,0.015358,0.782020,-0.387644,-0.380906,0.754649,-0.140662,-5.960040,32.644085,-14.252518,-4.733400,0.207303,1.344100,-0.097184,0.000000,0.000000,0.000000,0.000000,0.000000,0.000000
12204602.000000,-2.379273,-1.662170,1.084071,-1.387559,1.762022,1.136045,-0.562333,0.480410,0.020981,0.789815,-0.388873,-0.380722,0.749995,-0.143337,-5.539507,33.207439,-15.061844,-4.535036,0.243009,1.448470,-0.097184,0.000000,0.000000,0.000000,0.000000,0.000000,0.000000
12204603.000000,-2.378791,-1.662141,1.084862,-1.387951,1.761642,1.136789,-0.562467,0.481591,0.022972,0.789196,-0.388713,-0.382206,0.744052,-0.138589,-5.142779,33.723186,-15.748184,-4.487428,0.273221,1.532699,-0.182328,0.000000,0.000000,0.000000,0.000000,0.000000,0.000000
12204604.000000,-2.378315,-1.662114,1.085660,-1.388339,1.761253,1.137552,-0.562613,0.480442,0.022907,0.796957,-0.395600,-0.386445,0.746721,-0.139211,-4.746050,34.163555,-16.339310,-4.364442,0.315336,1.565658,-0.130143,0.000000,0.000000,0.000000,0.000000,0.000000,0.000000
12204605.000000,-2.377843,-1.662089,1.086459,-1.388727,1.760866,1.138299,-0.562747,0.477319,0.022563,0.802405,-0.393634,-0.379030,0.749788,-0.141239,-4.400897,34.603924,-16.926468,-4.364442,0.344633,1.676437,-0.149369,0.000000,0.000000,0.000000,0.000000,0.000000,0.000000
12204606.000000,-2.377366,-1.662065,1.087277,-1.389115,1.760474,1.139037,-0.562882,0.473778,0.023867,0.808245,-0.387928,-0.387257,0.745213,-0.143483,-4.202532,34.972881,-17.517593,-4.412050,0.369352,1.747848,-0.175919,0.000000,0.000000,0.000000,0.000000,0.000000,0.000000
12204607.000000,-2.376899,-1.662047,1.088097,-1.389509,1.760083,1.139790,-0.563021,0.470084,0.023598,0.811404,-0.389915,-0.388011,0.742140,-0.141765,-3.928790,35.385479,-18.104752,-4.364442,0.416959,1.754256,-0.149369,0.000000,0.000000,0.000000,0.000000,0.000000,0.000000
12204608.000000,-2.376420,-1.662035,1.088929,-1.389891,1.759696,1.140546,-0.563164,0.473529,0.019918,0.815976,-0.384710,-0.380276,0.740865,-0.141632,-3.782000,35.802044,-18.644302,-4.562807,0.410551,1.637069,-0.130143,0.000000,0.000000,0.000000,0.000000,0.000000,0.000000
12204609.000000,-2.375943,-1.662036,1.089779,-1.390272,1.759313,1.141297,-0.563295,0.470127,0.011614,0.825316,-0.381788,-0.377036,0.743367,-0.132527,-3.659014,36.317791,-19.160049,-4.757204,0.369352,1.539108,-0.182328,0.000000,0.000000,0.000000,0.000000,0.000000,0.000000
12204610.000000,-2.375479,-1.662045,1.090623,-1.390635,1.758938,1.142038,-0.563437,0.467145,0.004507,0.830431,-0.375495,-0.370406,0.743881,-0.139902,-3.536028,36.881145,-19.727371,-5.130128,0.332731,1.572067,-0.116410,0.000000,0.000000,0.000000,0.000000,0.000000,0.000000
12204611.000000,-2.375013,-1.662066,1.091466,-1.391006,1.758542,1.142758,-0.563568,0.463231,-0.002815,0.826008,-0.376509,-0.380348,0.739246,-0.137887,-3.385272,37.539715,-19.997147,-5.399904,0.344633,1.643478,-0.149369,0.000000,0.000000,0.000000,0.000000,0.000000,0.000000
12204612.000000,-2.374547,-1.662090,1.092301,-1.391371,1.758154,1.143482,-0.563700,0.459805,-0.010115,0.844983,-0.373210,-0.382116,0.738820,-0.135756,-3.286089,38.154644,-20.266922,-5.598268,0.381254,1.767074,-0.169511,0.000000,0.000000,0.000000,0.000000,0.000000,0.000000
12204613.000000,-2.374078,-1.662124,1.093147,-1.391722,1.757777,1.144209,-0.563836,0.458083,-0.019092,0.840969,-0.368240,-0.377384,0.728612,-0.137610,-3.262286,38.789410,-20.461319,-5.919618,0.405057,1.903487,-0.122819,0.000000,0.000000,0.000000,0.000000,0.000000,0.000000
12204614.000000,-2.373594,-1.662156,1.093988,-1.392087,1.757387,1.144937,-0.563964,0.463595,-0.020422,0.837926,-0.365393,-0.383060,0.726503,-0.131997,-3.409075,39.328960,-20.560501,-6.070375,0.440763,1.916305,-0.142960,0.000000,0.000000,0.000000,0.000000,0.000000,0.000000
12204615.000000,-2.373122,-1.662194,1.094813,-1.392434,1.756997,1.145678,-0.564096,0.466398,-0.024575,0.835781,-0.358564,-0.384856,0.730903,-0.133062,-3.508257,39.868511,-20.560501,-6.292543,0.488370,1.838485,-0.116410,0.000000,0.000000,0.000000,0.000000,0.000000,0.000000
12204616.000000,-2.372642,-1.662233,1.095645,-1.392794,1.756622,1.146415,-0.564228,0.466729,-0.026553,0.831501,-0.355046,-0.384520,0.736198,-0.129493,-3.706622,40.356487,-20.536697,-6.391725,0.494779,1.741439,-0.122819,0.000000,0.000000,0.000000,0.000000,0.000000,0.000000
12204617.000000,-2.372156,-1.662271,1.096478,-1.393142,1.756244,1.147153,-0.564356,0.472056,-0.028183,0.828366,-0.353189,-0.381374,0.735607,-0.129117,-3.956561,40.844463,-20.437515,-6.490907,0.470060,1.767074,-0.149369,0.000000,0.000000,0.000000,0.000000,0.000000,0.000000
12204618.000000,-2.371679,-1.662309,1.097304,-1.393482,1.755874,1.147886,-0.564493,0.470420,-0.031417,0.834279,-0.351452,-0.375487,0.734014,-0.126491,-4.154925,41.284832,-20.413712,-6.736879,0.446256,1.819259,-0.110001,0.000000,0.000000,0.000000,0.000000,0.000000,0.000000
12204619.000000,-2.371199,-1.662341,1.098143,-1.393829,1.755503,1.148627,-0.564614,0.470998,-0.031351,0.834709,-0.346207,-0.374714,0.736515,-0.129452,-4.301714,41.606182,-20.389908,-6.883668,0.452665,1.773483,-0.196061,0.000000,0.000000,0.000000,0.000000,0.000000,0.000000
12204620.000000,-2.370726,-1.662373,1.098970,-1.394157,1.755140,1.149369,-0.564751,0.473293,-0.030873,0.837824,-0.345087,-0.374111,0.736627,-0.132888,-4.500079,41.899761,-20.389908,-7.181215,0.393156,1.727706,-0.136552,0.000000,0.000000,0.000000,0.000000,0.000000,0.000000
12204621.000000,-2.370246,-1.662398,1.099804,-1.394495,1.754778,1.150095,-0.564884,0.476998,-0.029143,0.837346,-0.342113,-0.370478,0.742871,-0.129736,-4.674639,42.117962,-20.290726,-7.427186,0.356534,1.689254,-0.130143,0.000000,0.000000,0.000000,0.000000,0.000000,0.000000
12204622.000000,-2.369757,-1.662424,1.100652,-1.394816,1.754417,1.150834,-0.565006,0.479640,-0.030774,0.845777,-0.343199,-0.365324,0.740941,-0.129040,-4.944415,42.316326,-20.437515,-7.724733,0.315336,1.695663,-0.182328,0.000000,0.000000,0.000000,0.000000,0.000000,0.000000
12204623.000000,-2.369281,-1.662449,1.101483,-1.395144,1.754069,1.151573,-0.565135,0.480596,-0.031778,0.847410,-0.336037,-0.358359,0.739561,-0.121581,-5.194354,42.486919,-20.512894,-7.923097,0.285123,1.689254,-0.149369,0.000000,0.000000,0.000000,0.000000,0.000000,0.000000
12204624.000000,-2.368801,-1.662470,1.102321,-1.395470,1.753704,1.152301,-0.565264,0.476238,-0.028305,0.845009,-0.330363,-0.367584,0.738732,-0.122697,-5.416522,42.609905,-20.560501,-8.121462,0.327238,1.695663,-0.110001,0.000000,0.000000,0.000000,0.000000,0.000000,0.000000
12204625.000000,-2.368326,-1.662492,1.103148,-1.395787,1.753342,1.153034,-0.565379,0.474108,-0.027890,0.845121,-0.329555,-0.366365,0.740301,-0.122530,-5.638690,42.681316,-20.608109,-8.319826,0.351041,1.714889,-0.175919,0.000000,0.000000,0.000000,0.000000,0.000000,0.000000
12204626.000000,-2.367842,-1.662508,1.103996,-1.396103,1.752993,1.153765,-0.565504,0.472773,-0.023246,0.845258,-0.325148,-0.357131,0.731873,-0.122992,-5.860857,42.681316,-20.754898,-8.518190,0.369352,1.800033,-0.155778,0.000000,0.000000,0.000000,0.000000,0.000000,0.000000
12204627.000000,-2.367363,-1.662532,1.104846,-1.396412,1.752641,1.154486,-0.565633,0.470312,-0.024904,0.845256,-0.319231,-0.361360,0.725750,-0.126713,-6.035418,42.756695,-20.905655,-8.712587,0.369352,1.871444,-0.116410,0.000000,0.000000,0.000000,0.000000,0.000000,0.000000
12204628.000000,-2.366885,-1.662552,1.105673,-1.396706,1.752298,1.155217,-0.565754,0.473167,-0.024840,0.845373,-0.310850,-0.355234,0.724435,-0.123077,-6.257586,42.780499,-20.929459,-9.061708,0.303434,1.825668,-0.122819,0.000000,0.000000,0.000000,0.000000,0.000000,0.000000
12204629.000000,-2.366410,-1.662573,1.106515,-1.397012,1.751947,1.155944,-0.565877,0.470483,-0.024976,0.841676,-0.307850,-0.354047,0.728288,-0.126620,-6.332964,42.804302,-21.123856,-9.256105,0.308927,1.806442,-0.122819,0.000000,0.000000,0.000000,0.000000,0.000000,0.000000
12204630.000000,-2.365946,-1.662596,1.107349,-1.397307,1.751608,1.156666,-0.565992,0.476677,-0.025711,0.860116,-0.308869,-0.347352,0.721836,-0.126043,-6.404376,42.851910,-21.322220,-9.482241,0.237516,1.909896,-0.175919,0.000000,0.000000,0.000000,0.000000,0.000000,0.000000
12204631.000000,-2.365481,-1.662616,1.108189,-1.397606,1.751273,1.157379,-0.566123,0.469563,-0.022802,0.854082,-0.306540,-0.348505,0.716490,-0.129935,-6.404376,42.875713,-21.417435,-9.704409,0.141385,2.033492,-0.110001,0.000000,0.000000,0.000000,0.000000,0.000000,0.000000
12204632.000000,-2.365028,-1.662641,1.109030,-1.397907,1.750928,1.158105,-0.566243,0.459496,-0.021773,0.852225,-0.300783,-0.349035,0.719806,-0.121745,-6.206011,42.951092,-21.492813,-9.827394,0.171598,1.968490,-0.116410,0.000000,0.000000,0.000000,0.000000,0.000000,0.000000
12204633.000000,-2.364579,-1.662662,1.109858,-1.398192,1.750598,1.158842,-0.566362,0.454568,-0.019720,0.845363,-0.297651,-0.340729,0.721911,-0.118900,-6.059222,42.974895,-21.568192,-10.172548,0.093778,1.865035,-0.136552,0.000000,0.000000,0.000000,0.000000,0.000000,0.000000
12204634.000000,-2.364137,-1.662674,1.110699,-1.398481,1.750274,1.159566,-0.566483,0.447853,-0.017871,0.839062,-0.292704,-0.340401,0.726645,-0.120041,-5.813250,42.851910,-21.663406,-10.470095,0.040677,1.838485,-0.122819,0.000000,0.000000,0.000000,0.000000,0.000000,0.000000
12204635.000000,-2.363695,-1.662692,1.111534,-1.398760,1.749940,1.160286,-0.566598,0.453419,-0.016517,0.831962,-0.289572,-0.334576,0.727304,-0.116925,-5.563311,42.851910,-21.615799,-10.767641,-0.007845,1.890670,-0.163102,0.000000,0.000000,0.000000,0.000000,0.000000,0.000000
12204636.000000,-2.363266,-1.662709,1.112364,-1.399052,1.749608,1.161022,-0.566725,0.447023,-0.018139,0.832558,-0.287153,-0.332121,0.730526,-0.117089,-5.265765,42.828106,-21.663406,-10.938234,-0.001437,1.871444,-0.130143,0.000000,0.000000,0.000000,0.000000,0.000000,0.000000
12204637.000000,-2.362842,-1.662724,1.113201,-1.399348,1.749279,1.161749,-0.566844,0.437559,-0.019347,0.828570,-0.288715,-0.333833,0.728472,-0.120729,-4.920611,42.804302,-21.714981,-10.962038,0.040677,1.844894,-0.149369,0.000000,0.000000,0.000000,0.000000,0.000000,0.000000
12204638.000000,-2.362422,-1.662739,1.114032,-1.399642,1.748947,1.162473,-0.566969,0.433693,-0.016661,0.827479,-0.296654,-0.334854,0.715646,-0.119657,-4.674639,42.756695,-21.786392,-10.938234,-0.013339,1.819259,-0.130143,0.000000,0.000000,0.000000,0.000000,0.000000,0.000000
12204639.000000,-2.362003,-1.662754,1.114881,-1.399948,1.748616,1.163197,-0.567091,0.428604,-0.018327,0.830350,-0.298219,-0.333072,0.734322,-0.124090,-4.349322,42.728924,-22.008560,-10.791445,-0.007845,1.838485,-0.122819,0.000000,0.000000,0.000000,0.000000,0.000000,0.000000
12204640.000000,-2.361583,-1.662772,1.115743,-1.400247,1.748288,1.163933,-0.567214,0.423550,-0.017731,0.833887,-0.299135,-0.334592,0.736773,-0.121118,-4.079546,42.756695,-22.325943,-10.668459,-0.001437,1.793624,-0.130143,0.000000,0.000000,0.000000,0.000000,0.000000,0.000000
12204641.000000,-2.361180,-1.662792,1.116573,-1.400559,1.747974,1.164665,-0.567331,0.418795,-0.020613,0.832275,-0.307004,-0.330398,0.735574,-0.117576,-3.758196,42.804302,-22.448929,-10.493898,-0.019747,1.800033,-0.169511,0.000000,0.000000,0.000000,0.000000,0.000000,0.000000
12204642.000000,-2.360774,-1.662813,1.117428,-1.400881,1.747633,1.165378,-0.567459,0.412208,-0.020940,0.836186,-0.310415,-0.335655,0.732199,-0.120972,-3.484454,42.903484,-22.742508,-10.271730,0.027860,1.923629,-0.097184,0.000000,0.000000,0.000000,0.000000,0.000000,0.000000
12204643.000000,-2.360370,-1.662837,1.118269,-1.401204,1.747292,1.166101,-0.567571,0.410094,-0.020875,0.839482,-0.315280,-0.337982,0.718288,-0.116237,-3.286089,42.998699,-23.111465,-9.950380,0.069974,2.053634,-0.169511,0.000000,0.000000,0.000000,0.000000,0.000000,0.000000
12204644.000000,-2.359973,-1.662864,1.119120,-1.401534,1.746960,1.166839,-0.567685,0.404438,-0.021786,0.842290,-0.319404,-0.330383,0.718278,-0.116999,-2.940936,43.145489,-23.381241,-9.704409,0.129484,2.085677,-0.188737,0.000000,0.000000,0.000000,0.000000,0.000000,0.000000
12204645.000000,-2.359572,-1.662894,1.119970,-1.401871,1.746624,1.167559,-0.567805,0.397514,-0.023513,0.838573,-0.323626,-0.330414,0.719688,-0.122260,-2.742571,43.343853,-23.555801,-9.430666,0.213712,2.053634,-0.155778,0.000000,0.000000,0.000000,0.000000,0.000000,0.000000
12204646.000000,-2.359185,-1.662928,1.120814,-1.402205,1.746287,1.168297,-0.567922,0.392789,-0.024479,0.843005,-0.328220,-0.330988,0.720924,-0.124248,-2.421221,43.538250,-23.750198,-9.208498,0.261320,1.988631,-0.169511,0.000000,0.000000,0.000000,0.000000,0.000000,0.000000
12204647.000000,-2.358799,-1.662961,1.121660,-1.402557,1.745941,1.169012,-0.568044,0.387702,-0.028260,0.840380,-0.332304,-0.338777,0.723989,-0.119922,-2.072100,43.732647,-23.873184,-8.934755,0.362943,2.007858,-0.142960,0.000000,0.000000,0.000000,0.000000,0.000000,0.000000
12204648.000000,-2.358421,-1.662991,1.122496,-1.402902,1.745609,1.169719,-0.568157,0.391552,-0.029316,0.854043,-0.335159,-0.333530,0.716088,-0.117064,-1.703143,43.855633,-23.972366,-8.688784,0.362943,2.047225,-0.175919,0.000000,0.000000,0.000000,0.000000,0.000000,0.000000
12204649.000000,-2.358040,-1.663025,1.123333,-1.403266,1.745286,1.170443,-0.568277,0.386580,-0.031375,0.847365,-0.341917,-0.334430,0.713571,-0.117457,-1.429400,44.026226,-23.972366,-8.391237,0.320829,2.014266,-0.136552,0.000000,0.000000,0.000000,0.000000,0.000000,0.000000
12204650.000000,-2.357671,-1.663061,1.124182,-1.403631,1.744947,1.171160,-0.568390,0.378653,-0.033470,0.846087,-0.345152,-0.337544,0.713617,-0.117721,-0.985064,44.224590,-24.019974,-8.169069,0.339139,1.916305,-0.155778,0.000000,0.000000,0.000000,0.000000,0.000000,0.000000
12204651.000000,-2.357302,-1.663090,1.125023,-1.403993,1.744606,1.171884,-0.568503,0.375392,-0.032089,0.848672,-0.350897,-0.333904,0.710302,-0.110402,-0.635943,44.296001,-24.166763,-7.946901,0.356534,1.865035,-0.196061,0.000000,0.000000,0.000000,0.000000,0.000000,0.000000
12204652.000000,-2.356926,-1.663121,1.125858,-1.404363,1.744289,1.172582,-0.568625,0.374819,-0.031251,0.841793,-0.354464,-0.329326,0.713886,-0.110502,-0.389971,44.371380,-23.996170,-7.724733,0.297025,1.936446,-0.142960,0.000000,0.000000,0.000000,0.000000,0.000000,0.000000
12204653.000000,-2.356551,-1.663148,1.126702,-1.404734,1.743948,1.173297,-0.568740,0.372363,-0.029653,0.838763,-0.357722,-0.333575,0.713239,-0.111925,-0.167803,44.395184,-24.019974,-7.427186,0.351041,1.988631,-0.122819,0.000000,0.000000,0.000000,0.000000,0.000000,0.000000
12204654.000000,-2.356189,-1.663169,1.127534,-1.405108,1.743613,1.174037,-0.568845,0.370312,-0.026228,0.837287,-0.358893,-0.333236,0.718841,-0.109952,0.054365,44.323772,-24.043777,-7.256593,0.440763,1.871444,-0.175919,0.000000,0.000000,0.000000,0.000000,0.000000,0.000000
12204655.000000,-2.355811,-1.663191,1.128377,-1.405493,1.743283,1.174748,-0.568957,0.371076,-0.024590,0.837349,-0.364019,-0.329549,0.711017,-0.112588,0.129743,44.272198,-24.166763,-6.911439,0.476469,1.812850,-0.163102,0.000000,0.000000,0.000000,0.000000,0.000000,0.000000
12204656.000000,-2.355439,-1.663211,1.129202,-1.405877,1.742957,1.175462,-0.569076,0.374991,-0.023505,0.834178,-0.368319,-0.329532,0.707640,-0.110007,0.205121,44.224590,-24.119156,-6.685304,0.500272,1.903487,-0.116410,0.000000,0.000000,0.000000,0.000000,0.000000,0.000000
12204657.000000,-2.355069,-1.663226,1.130043,-1.406263,1.742628,1.176178,-0.569178,0.372568,-0.021696,0.833386,-0.367641,-0.333096,0.728862,-0.109354,0.375715,44.125408,-24.242142,-6.439332,0.506681,1.923629,-0.196061,0.000000,0.000000,0.000000,0.000000,0.000000,0.000000
12204658.000000,-2.354691,-1.663247,1.130894,-1.406651,1.742295,1.176900,-0.569292,0.375320,-0.019126,0.833297,-0.374170,-0.330477,0.721666,-0.111743,0.351911,44.101604,-24.436539,-6.217165,0.535978,1.916305,-0.196061,0.000000,0.000000,0.000000,0.000000,0.000000,0.000000
12204659.000000,-2.354322,-1.663259,1.131720,-1.407047,1.741976,1.177617,-0.569405,0.374626,-0.014806,0.831183,-0.378570,-0.326570,0.716995,-0.112701,0.427289,43.978619,-24.511917,-5.994997,0.494779,2.001449,-0.182328,0.000000,0.000000,0.000000,0.000000,0.000000,0.000000
12204660.000000,-2.353943,-1.663270,1.132558,-1.407454,1.741656,1.178324,-0.569522,0.374295,-0.011706,0.827788,-0.386673,-0.330187,0.714672,-0.111592,0.451093,43.855633,-24.583328,-5.697450,0.446256,2.072860,-0.149369,0.000000,0.000000,0.000000,0.000000,0.000000,0.000000
12204661.000000,-2.353571,-1.663284,1.133396,-1.407840,1.741315,1.179050,-0.569630,0.374609,-0.014046,0.832529,-0.387685,-0.330002,0.710117,-0.110759,0.474897,43.784222,-24.904678,-5.626039,0.500272,2.060043,-0.182328,0.000000,0.000000,0.000000,0.000000,0.000000,0.000000
12204662.000000,-2.353198,-1.663296,1.134228,-1.408236,1.740987,1.179777,-0.569742,0.367372,-0.011837,0.828027,-0.394342,-0.323703,0.714677,-0.108545,0.550275,43.685040,-24.904678,-5.451478,0.542386,2.001449,-0.196061,0.000000,0.000000,0.000000,0.000000,0.000000,0.000000
12204663.000000,-2.352815,-1.663306,1.135057,-1.408631,1.740667,1.180495,-0.569855,0.368577,-0.013274,0.824539,-0.389475,-0.320289,0.719703,-0.106607,0.474897,43.585857,-24.880875,-5.304689,0.559781,2.014266,-0.155778,0.000000,0.000000,0.000000,0.000000,0.000000,0.000000
12204664.000000,-2.352444,-1.663314,1.135880,-1.409017,1.740342,1.181217,-0.569961,0.367773,-0.011403,0.819645,-0.390873,-0.324349,0.722245,-0.106970,0.474897,43.490643,-24.880875,-5.205507,0.625699,2.020675,-0.188737,0.000000,0.000000,0.000000,0.000000,0.000000,0.000000
12204665.000000,-2.352069,-1.663324,1.136707,-1.409405,1.740013,1.181929,-0.570066,0.367955,-0.010384,0.815951,-0.387124,-0.321726,0.718043,-0.105484,0.526471,43.415264,-24.928482,-5.153932,0.655912,1.981307,-0.202470,0.000000,0.000000,0.000000,0.000000,0.000000,0.000000
12204666.000000,-2.351700,-1.663332,1.137513,-1.409785,1.739687,1.182654,-0.570172,0.376551,-0.010222,0.826818,-0.386545,-0.322115,0.719187,-0.108531,0.574079,43.367657,-24.781693,-5.054750,0.679716,1.949264,-0.175919,0.000000,0.000000,0.000000,0.000000,0.000000,0.000000
12204667.000000,-2.351324,-1.663332,1.138322,-1.410174,1.739377,1.183378,-0.570277,0.377716,-0.004663,0.816889,-0.386064,-0.315956,0.712967,-0.104785,0.526471,43.220867,-24.583328,-4.955568,0.661405,1.968490,-0.175919,0.000000,0.000000,0.000000,0.000000,0.000000,0.000000
12204668.000000,-2.350948,-1.663337,1.139147,-1.410563,1.739058,1.184091,-0.570380,0.377100,-0.004918,0.812290,-0.383929,-0.313757,0.712333,-0.106404,0.526471,43.121685,-24.535721,-4.808778,0.667814,2.014266,-0.188737,0.000000,0.000000,0.000000,0.000000,0.000000,0.000000
12204669.000000,-2.350574,-1.663339,1.139954,-1.410948,1.738742,1.184813,-0.570488,0.377812,-0.004546,0.811558,-0.384240,-0.309364,0.715463,-0.107904,0.502668,42.998699,-24.535721,-4.709596,0.632108,2.047225,-0.196061,0.000000,0.000000,0.000000,0.000000,0.000000,0.000000
12204670.000000,-2.350190,-1.663339,1.140766,-1.411331,1.738439,1.185541,-0.570600,0.379894,-0.003320,0.804789,-0.378331,-0.308148,0.717699,-0.104253,0.375715,42.828106,-24.436539,-4.562807,0.620206,2.014266,-0.149369,0.000000,0.000000,0.000000,0.000000,0.000000,0.000000
12204671.000000,-2.349814,-1.663337,1.141588,-1.411710,1.738144,1.186286,-0.570704,0.379581,0.000752,0.808461,-0.386347,-0.299603,0.726611,-0.102090,0.351911,42.657513,-24.559525,-4.487428,0.571683,1.909896,-0.136552,0.000000,0.000000,0.000000,0.000000,0.000000,0.000000
12204672.000000,-2.349442,-1.663340,1.142394,-1.412102,1.737839,1.187007,-0.570803,0.375943,0.001496,0.805460,-0.385377,-0.302809,0.721971,-0.103055,0.328107,42.582134,-24.611099,-4.289064,0.637601,1.968490,-0.188737,0.000000,0.000000,0.000000,0.000000,0.000000,0.000000
12204673.000000,-2.349068,-1.663338,1.143221,-1.412489,1.737536,1.187722,-0.570909,0.372155,0.000686,0.807283,-0.387378,-0.301122,0.716818,-0.103582,0.328107,42.435345,-24.880875,-4.213686,0.655912,2.085677,-0.175919,0.000000,0.000000,0.000000,0.000000,0.000000,0.000000
12204674.000000,-2.348701,-1.663339,1.144022,-1.412868,1.737239,1.188442,-0.571017,0.368057,0.002545,0.803966,-0.386447,-0.300976,0.714213,-0.106859,0.403486,42.316326,-24.928482,-4.118471,0.644010,2.131454,-0.155778,0.000000,0.000000,0.000000,0.000000,0.000000,0.000000
12204675.000000,-2.348333,-1.663340,1.144834,-1.413249,1.736944,1.189173,-0.571118,0.363257,0.000447,0.803930,-0.384262,-0.299651,0.727484,-0.106847,0.451093,42.217144,-25.051468,-4.043092,0.709928,2.066451,-0.196061,0.000000,0.000000,0.000000,0.000000,0.000000,0.000000
12204676.000000,-2.347972,-1.663349,1.145652,-1.413634,1.736648,1.189880,-0.571219,0.359740,-0.003513,0.802838,-0.382684,-0.298984,0.723459,-0.104660,0.625654,42.217144,-25.150650,-3.892336,0.698026,2.112228,-0.202470,0.000000,0.000000,0.000000,0.000000,0.000000,0.000000
12204677.000000,-2.347607,-1.663353,1.146442,-1.414008,1.736354,1.190585,-0.571326,0.364235,-0.001976,0.800203,-0.382720,-0.298568,0.714231,-0.103792,0.649457,42.169537,-25.150650,-3.820925,0.667814,2.183639,-0.155778,0.000000,0.000000,0.000000,0.000000,0.000000,0.000000
12204678.000000,-2.347245,-1.663356,1.147240,-1.414388,1.736054,1.191281,-0.571424,0.360448,-0.000672,0.797456,-0.379057,-0.298316,0.703394,-0.101520,0.796247,42.117962,-25.051468,-3.745546,0.715421,2.255050,-0.208878,0.000000,0.000000,0.000000,0.000000,0.000000,0.000000
12204679.000000,-2.346899,-1.663360,1.148019,-1.414764,1.735769,1.191989,-0.571528,0.363409,-0.000312,0.807586,-0.381824,-0.288493,0.698137,-0.105403,1.022382,42.094158,-24.928482,-3.598757,0.679716,2.228500,-0.188737,0.000000,0.000000,0.000000,0.000000,0.000000,0.000000
12204680.000000,-2.346548,-1.663365,1.148806,-1.415138,1.735489,1.192710,-0.571634,0.361672,-0.000524,0.803755,-0.376924,-0.283763,0.700284,-0.103143,1.145368,42.094158,-24.757889,-3.598757,0.625699,2.196456,-0.169511,0.000000,0.000000,0.000000,0.000000,0.000000,0.000000
12204681.000000,-2.346202,-1.663370,1.149593,-1.415516,1.735194,1.193422,-0.571735,0.353425,-0.001143,0.793934,-0.376047,-0.292190,0.707508,-0.105364,1.415143,42.117962,-24.583328,-3.499574,0.613798,2.104903,-0.175919,0.000000,0.000000,0.000000,0.000000,0.000000,0.000000
12204682.000000,-2.345860,-1.663373,1.150370,-1.415880,1.734902,1.194140,-0.571833,0.349225,-0.004085,0.790236,-0.373569,-0.290684,0.706079,-0.101663,1.613508,42.117962,-24.388931,-3.598757,0.601896,2.039901,-0.202470,0.000000,0.000000,0.000000,0.000000,0.000000,0.000000
12204683.000000,-2.345518,-1.663367,1.151155,-1.416256,1.734606,1.194855,-0.571937,0.344100,-0.001448,0.783015,-0.372668,-0.293673,0.715831,-0.098703,1.887250,42.046551,-24.190567,-3.523378,0.685209,1.962081,-0.175919,0.000000,0.000000,0.000000,0.000000,0.000000,0.000000
12204684.000000,-2.345181,-1.663363,1.151915,-1.416624,1.734321,1.195582,-0.572044,0.343966,-0.000055,0.774888,-0.374278,-0.291633,0.709300,-0.104328,2.085615,41.994976,-23.825577,-3.499574,0.721830,1.884261,-0.122819,0.000000,0.000000,0.000000,0.000000,0.000000,0.000000
12204685.000000,-2.344836,-1.663358,1.152691,-1.416990,1.734032,1.196318,-0.572136,0.343449,0.001411,0.769619,-0.370705,-0.290549,0.714322,-0.098487,2.232404,41.923565,-23.627213,-3.547182,0.757535,1.786300,-0.202470,0.000000,0.000000,0.000000,0.000000,0.000000,0.000000
12204686.000000,-2.344491,-1.663350,1.153478,-1.417368,1.733746,1.197035,-0.572233,0.343055,0.003651,0.768310,-0.374648,-0.288020,0.716457,-0.102398,2.383161,41.800579,-23.579605,-3.448000,0.745634,1.735030,-0.229020,0.000000,0.000000,0.000000,0.000000,0.000000,0.000000
12204687.000000,-2.344154,-1.663336,1.154240,-1.417737,1.733469,1.197775,-0.572340,0.343675,0.006856,0.766109,-0.374622,-0.279804,0.716142,-0.103760,2.506147,41.606182,-23.432816,-3.348818,0.685209,1.695663,-0.142960,0.000000,0.000000,0.000000,0.000000,0.000000,0.000000
12204688.000000,-2.343804,-1.663325,1.155007,-1.418110,1.733203,1.198501,-0.572439,0.342932,0.013682,0.761866,-0.375628,-0.275593,0.721582,-0.099106,2.506147,41.483196,-23.234451,-3.154421,0.649503,1.682845,-0.155778,0.000000,0.000000,0.000000,0.000000,0.000000,0.000000
12204689.000000,-2.343466,-1.663310,1.155785,-1.418471,1.732926,1.199225,-0.572532,0.340142,0.014219,0.766595,-0.368655,-0.276643,0.714819,-0.093214,2.605329,41.284832,-23.186844,-3.102846,0.632108,1.714889,-0.155778,0.000000,0.000000,0.000000,0.000000,0.000000,0.000000
12204690.000000,-2.343127,-1.663293,1.156553,-1.418837,1.732654,1.199959,-0.572622,0.339580,0.014926,0.771614,-0.363171,-0.271523,0.718563,-0.091911,2.652936,41.066631,-23.210648,-3.003664,0.632108,1.747848,-0.202470,0.000000,0.000000,0.000000,0.000000,0.000000,0.000000
12204691.000000,-2.342782,-1.663275,1.157329,-1.419203,1.732382,1.200681,-0.572721,0.341774,0.015961,0.772837,-0.360301,-0.276660,0.719111,-0.096705,2.680707,40.820660,-23.210648,-2.979860,0.625699,1.721298,-0.202470,0.000000,0.000000,0.000000,0.000000,0.000000,0.000000
12204692.000000,-2.342440,-1.663255,1.158085,-1.419556,1.732105,1.201416,-0.572824,0.344253,0.015938,0.769706,-0.358081,-0.276626,0.720737,-0.098184,2.704511,40.602459,-23.135269,-2.979860,0.691617,1.637069,-0.149369,0.000000,0.000000,0.000000,0.000000,0.000000,0.000000
12204693.000000,-2.342092,-1.663236,1.158861,-1.419913,1.731826,1.202133,-0.572913,0.343764,0.019013,0.765569,-0.358937,-0.278090,0.735064,-0.094547,2.680707,40.380291,-23.234451,-2.979860,0.805143,1.727706,-0.215287,0.000000,0.000000,0.000000,0.000000,0.000000,0.000000
12204694.000000,-2.341747,-1.663215,1.159633,-1.420267,1.731557,1.202836,-0.573007,0.347046,0.021314,0.763649,-0.356306,-0.276934,0.725679,-0.094964,2.629133,40.162090,-23.286026,-3.027467,0.763029,1.871444,-0.235429,0.000000,0.000000,0.000000,0.000000,0.000000,0.000000
12204695.000000,-2.341396,-1.663199,1.160386,-1.420616,1.731292,1.203558,-0.573112,0.350841,0.021315,0.759761,-0.355238,-0.273131,0.722770,-0.098126,2.529951,40.015301,-23.210648,-3.027467,0.745634,1.871444,-0.149369,0.000000,0.000000,0.000000,0.000000,0.000000,0.000000
12204696.000000,-2.341053,-1.663180,1.161153,-1.420961,1.731033,1.204276,-0.573200,0.346999,0.021284,0.756851,-0.350552,-0.270628,0.719707,-0.093001,2.553754,39.868511,-23.186844,-3.178224,0.691617,1.800033,-0.196061,0.000000,0.000000,0.000000,0.000000,0.000000,0.000000
12204697.000000,-2.340701,-1.663156,1.161914,-1.421298,1.730786,1.205008,-0.573297,0.354576,0.022171,0.771583,-0.343715,-0.265649,0.723680,-0.094150,2.454572,39.693951,-23.210648,-3.249635,0.566190,1.779891,-0.175919,0.000000,0.000000,0.000000,0.000000,0.000000,0.000000
12204698.000000,-2.340347,-1.663134,1.162675,-1.421640,1.730529,1.205724,-0.573391,0.353443,0.022744,0.765442,-0.345219,-0.269392,0.718192,-0.094532,2.331586,39.523357,-23.135269,-3.301210,0.512174,1.865035,-0.163102,0.000000,0.000000,0.000000,0.000000,0.000000,0.000000
12204699.000000,-2.339990,-1.663112,1.163438,-1.421980,1.730262,1.206442,-0.573484,0.353817,0.020032,0.759749,-0.340211,-0.262748,0.714538,-0.089263,2.160993,39.352764,-22.988480,-3.348818,0.494779,1.832076,-0.175919,0.000000,0.000000,0.000000,0.000000,0.000000,0.000000
12204700.000000,-2.339643,-1.663090,1.164182,-1.422314,1.729997,1.207170,-0.573574,0.353444,0.020591,0.755045,-0.340529,-0.261897,0.721109,-0.086078,2.133222,39.205975,-22.794083,-3.348818,0.542386,1.767074,-0.169511,0.000000,0.000000,0.000000,0.000000,0.000000,0.000000
12204701.000000,-2.339279,-1.663070,1.164937,-1.422647,1.729733,1.207876,-0.573663,0.354367,0.021080,0.750039,-0.338955,-0.260861,0.714914,-0.086945,1.887250,39.059185,-22.595718,-3.376589,0.589994,1.779891,-0.202470,0.000000,0.000000,0.000000,0.000000,0.000000,0.000000
12204702.000000,-2.338918,-1.663042,1.165690,-1.422965,1.729481,1.208588,-0.573753,0.357627,0.022589,0.749067,-0.334613,-0.258719,0.710977,-0.089184,1.740461,38.864788,-22.571915,-3.448000,0.524076,1.779891,-0.196061,0.000000,0.000000,0.000000,0.000000,0.000000,0.000000
12204703.000000,-2.338566,-1.663023,1.166453,-1.423283,1.729216,1.209310,-0.573848,0.355943,0.020843,0.750324,-0.329555,-0.259504,0.711138,-0.091922,1.565900,38.789410,-22.548111,-3.598757,0.524076,1.702071,-0.155778,0.000000,0.000000,0.000000,0.000000,0.000000,0.000000
12204704.000000,-2.338203,-1.663007,1.167214,-1.423601,1.728945,1.210026,-0.573934,0.357541,0.018539,0.749631,-0.324178,-0.262999,0.714483,-0.095753,1.391340,38.765606,-22.500504,-3.697939,0.584501,1.656295,-0.196061,0.000000,0.000000,0.000000,0.000000,0.000000,0.000000
12204705.000000,-2.337851,-1.662993,1.167969,-1.423918,1.728690,1.210727,-0.574031,0.354109,0.016045,0.751609,-0.325583,-0.262352,0.715519,-0.096468,1.315961,38.789410,-22.500504,-3.697939,0.535978,1.735030,-0.169511,0.000000,0.000000,0.000000,0.000000,0.000000,0.000000
12204706.000000,-2.337482,-1.662978,1.168735,-1.424232,1.728438,1.211409,-0.574126,0.358355,0.014301,0.754755,-0.320610,-0.257614,0.700914,-0.094548,1.069990,38.813213,-22.595718,-3.769350,0.524076,1.897079,-0.149369,0.000000,0.000000,0.000000,0.000000,0.000000,0.000000
12204707.000000,-2.337118,-1.662968,1.169502,-1.424536,1.728186,1.212121,-0.574215,0.356126,0.012505,0.757865,-0.319438,-0.253714,0.705770,-0.092681,0.923200,38.864788,-22.718704,-3.844728,0.512174,1.897079,-0.196061,0.000000,0.000000,0.000000,0.000000,0.000000,0.000000
12204708.000000,-2.336760,-1.662960,1.170252,-1.424843,1.727935,1.212844,-0.574314,0.355047,0.010712,0.752032,-0.315852,-0.252153,0.705309,-0.094652,0.748639,38.936199,-22.794083,-3.967714,0.458158,1.727706,-0.163102,0.000000,0.000000,0.000000,0.000000,0.000000,0.000000
12204709.000000,-2.336392,-1.662951,1.171010,-1.425148,1.727668,1.213551,-0.574405,0.357266,0.010142,0.749263,-0.310748,-0.255740,0.705079,-0.093852,0.550275,38.983807,-22.865494,-4.066896,0.535978,1.682845,-0.182328,0.000000,0.000000,0.000000,0.000000,0.000000,0.000000
12204710.000000,-2.336033,-1.662948,1.171759,-1.425436,1.727413,1.214235,-0.574493,0.357722,0.008063,0.748352,-0.307252,-0.256596,0.701324,-0.088303,0.427289,39.106792,-22.917068,-4.289064,0.500272,1.825668,-0.208878,0.000000,0.000000,0.000000,0.000000,0.000000,0.000000
12204711.000000,-2.335665,-1.662949,1.172509,-1.425734,1.727162,1.214930,-0.574591,0.358757,0.005466,0.745300,-0.302316,-0.251126,0.694286,-0.090775,0.276533,39.281353,-22.841690,-4.463624,0.518583,1.988631,-0.182328,0.000000,0.000000,0.000000,0.000000,0.000000,0.000000
12204712.000000,-2.335295,-1.662952,1.173255,-1.426022,1.726904,1.215630,-0.574685,0.357777,0.003292,0.738038,-0.295612,-0.258216,0.698507,-0.092683,0.078168,39.475750,-22.595718,-4.661989,0.589994,1.936446,-0.163102,0.000000,0.000000,0.000000,0.000000,0.000000,0.000000
12204713.000000,-2.334940,-1.662951,1.173997,-1.426306,1.726659,1.216342,-0.574779,0.357694,0.003614,0.737452,-0.295238,-0.253860,0.696878,-0.089087,-0.017047,39.598736,-22.500504,-4.784975,0.524076,1.838485,-0.142960,0.000000,0.000000,0.000000,0.000000,0.000000,0.000000
12204714.000000,-2.334574,-1.662950,1.174752,-1.426594,1.726414,1.217042,-0.574863,0.357901,0.003679,0.737614,-0.288809,-0.249186,0.698529,-0.083453,-0.144000,39.721722,-22.472733,-4.884157,0.452665,1.819259,-0.202470,0.000000,0.000000,0.000000,0.000000,0.000000,0.000000
12204715.000000,-2.334213,-1.662946,1.175486,-1.426866,1.726175,1.217751,-0.574955,0.357310,0.000715,0.748212,-0.279625,-0.241025,0.695423,-0.086597,-0.290789,39.840740,-22.353714,-5.054750,0.374845,1.760665,-0.196061,0.000000,0.000000,0.000000,0.000000,0.000000,0.000000
12204716.000000,-2.333853,-1.662952,1.176221,-1.427148,1.725938,1.218477,-0.575053,0.356559,-0.003379,0.744170,-0.280731,-0.238877,0.699692,-0.086186,-0.342364,40.039104,-22.079971,-5.153932,0.381254,1.676437,-0.130143,0.000000,0.000000,0.000000,0.000000,0.000000,0.000000
12204717.000000,-2.333491,-1.662953,1.176967,-1.427419,1.725694,1.219180,-0.575134,0.352004,-0.005098,0.740389,-0.276507,-0.241392,0.705351,-0.085643,-0.512957,40.185894,-21.909378,-5.328493,0.405057,1.637069,-0.196061,0.000000,0.000000,0.000000,0.000000,0.000000,0.000000
12204718.000000,-2.333134,-1.662949,1.177704,-1.427682,1.725458,1.219903,-0.575226,0.352928,-0.000797,0.744597,-0.267816,-0.236682,0.703960,-0.093403,-0.588336,40.233501,-21.762589,-5.475282,0.362943,1.597701,-0.175919,0.000000,0.000000,0.000000,0.000000,0.000000,0.000000
12204719.000000,-2.332771,-1.662944,1.178453,-1.427953,1.725214,1.220608,-0.575327,0.353402,0.002005,0.745176,-0.266872,-0.241340,0.706865,-0.095954,-0.687518,40.281109,-21.687210,-5.626039,0.374845,1.605026,-0.116410,0.000000,0.000000,0.000000,0.000000,0.000000,0.000000
12204720.000000,-2.332411,-1.662944,1.179184,-1.428209,1.724970,1.221327,-0.575411,0.358199,0.000280,0.743484,-0.265803,-0.238798,0.707005,-0.092801,-0.762896,40.356487,-21.568192,-5.820436,0.405057,1.539108,-0.188737,0.000000,0.000000,0.000000,0.000000,0.000000,0.000000
12204721.000000,-2.332060,-1.662942,1.179926,-1.428472,1.724737,1.222053,-0.575503,0.352661,0.003183,0.738882,-0.262824,-0.241172,0.711424,-0.093433,-0.762896,40.380291,-21.492813,-5.971193,0.428861,1.487838,-0.182328,0.000000,0.000000,0.000000,0.000000,0.000000,0.000000
12204722.000000,-2.331708,-1.662931,1.180670,-1.428742,1.724495,1.222754,-0.575597,0.350138,0.005092,0.731838,-0.265035,-0.245696,0.705946,-0.095250,-0.834307,40.281109,-21.445206,-6.070375,0.470060,1.539108,-0.130143,0.000000,0.000000,0.000000,0.000000,0.000000,0.000000
12204723.000000,-2.331357,-1.662926,1.181411,-1.429008,1.724260,1.223467,-0.575680,0.351582,0.004438,0.735626,-0.264081,-0.243291,0.704762,-0.092712,-0.885882,40.257305,-21.445206,-6.141786,0.410551,1.611434,-0.188737,0.000000,0.000000,0.000000,0.000000,0.000000,0.000000
12204724.000000,-2.330996,-1.662917,1.182162,-1.429280,1.724030,1.224179,-0.575770,0.350850,0.006758,0.739717,-0.262254,-0.242394,0.727044,-0.088565,-1.008868,40.110516,-21.516617,-6.094179,0.351041,1.624252,-0.196061,0.000000,0.000000,0.000000,0.000000,0.000000,0.000000
12204725.000000,-2.330633,-1.662907,1.182920,-1.429553,1.723800,1.224907,-0.575860,0.351099,0.007656,0.743255,-0.271654,-0.236304,0.721659,-0.086183,-1.159625,39.987530,-21.615799,-6.070375,0.297025,1.578475,-0.175919,0.000000,0.000000,0.000000,0.000000,0.000000,0.000000
12204726.000000,-2.330283,-1.662894,1.183665,-1.429828,1.723579,1.225631,-0.575954,0.349496,0.009300,0.739406,-0.271044,-0.224795,0.720289,-0.089880,-1.231036,39.816936,-21.714981,-6.018800,0.225614,1.584884,-0.136552,0.000000,0.000000,0.000000,0.000000,0.000000,0.000000
12204727.000000,-2.329931,-1.662885,1.184422,-1.430096,1.723354,1.226331,-0.576043,0.351068,0.011751,0.741946,-0.268631,-0.226372,0.712093,-0.086420,-1.330218,39.721722,-21.861771,-6.042604,0.213712,1.676437,-0.130143,0.000000,0.000000,0.000000,0.000000,0.000000,0.000000
12204728.000000,-2.329589,-1.662870,1.185177,-1.430364,1.723116,1.227043,-0.576122,0.349793,0.012854,0.747280,-0.270929,-0.233625,0.713481,-0.085861,-1.282611,39.523357,-22.079971,-6.042604,0.237516,1.779891,-0.196061,0.000000,0.000000,0.000000,0.000000,0.000000,0.000000
12204729.000000,-2.329247,-1.662864,1.185935,-1.430636,1.722882,1.227755,-0.576210,0.347509,0.012574,0.751049,-0.269933,-0.230846,0.713650,-0.089641,-1.183428,39.499554,-22.179153,-5.994997,0.255826,1.819259,-0.149369,0.000000,0.000000,0.000000,0.000000,0.000000,0.000000
12204730.000000,-2.328898,-1.662850,1.186693,-1.430894,1.722641,1.228452,-0.576294,0.345130,0.014791,0.753032,-0.262449,-0.233390,0.705214,-0.081416,-1.159625,39.376568,-22.254532,-6.117982,0.320829,1.838485,-0.163102,0.000000,0.000000,0.000000,0.000000,0.000000,0.000000
12204731.000000,-2.328573,-1.662837,1.187445,-1.431169,1.722404,1.229157,-0.576373,0.339207,0.012700,0.755492,-0.265165,-0.234942,0.706890,-0.078693,-0.961260,39.281353,-22.377518,-6.018800,0.369352,1.851302,-0.196061,0.000000,0.000000,0.000000,0.000000,0.000000,0.000000
12204732.000000,-2.328230,-1.662823,1.188201,-1.431439,1.722172,1.229842,-0.576463,0.338362,0.016353,0.751430,-0.265065,-0.238807,0.699560,-0.079538,-0.933489,39.229778,-22.425125,-5.994997,0.356534,1.890670,-0.155778,0.000000,0.000000,0.000000,0.000000,0.000000,0.000000
12204733.000000,-2.327895,-1.662820,1.188944,-1.431708,1.721933,1.230546,-0.576545,0.346744,0.010002,0.763458,-0.264045,-0.239771,0.696638,-0.078271,-0.810504,39.305157,-22.425125,-5.895814,0.344633,1.844894,-0.163102,0.000000,0.000000,0.000000,0.000000,0.000000,0.000000
12204734.000000,-2.327567,-1.662808,1.189693,-1.431989,1.721695,1.231250,-0.576628,0.343872,0.007872,0.755061,-0.273282,-0.240231,0.690350,-0.081642,-0.612139,39.281353,-22.302139,-5.772829,0.320829,1.779891,-0.175919,0.000000,0.000000,0.000000,0.000000,0.000000,0.000000
12204735.000000,-2.327230,-1.662794,1.190454,-1.432272,1.721463,1.231944,-0.576710,0.338239,0.007497,0.752553,-0.273423,-0.231467,0.691549,-0.080825,-0.540728,39.205975,-22.325943,-5.649843,0.308927,1.793624,-0.155778,0.000000,0.000000,0.000000,0.000000,0.000000,0.000000
12204736.000000,-2.326906,-1.662785,1.191205,-1.432554,1.721236,1.232638,-0.576788,0.333989,0.011563,0.755985,-0.275267,-0.230499,0.690217,-0.078507,-0.441546,39.205975,-22.325943,-5.451478,0.273221,1.832076,-0.182328,0.000000,0.000000,0.000000,0.000000,0.000000,0.000000
12204737.000000,-2.326575,-1.662774,1.191959,-1.432836,1.721016,1.233325,-0.576870,0.331012,0.009055,0.751877,-0.276278,-0.229582,0.690835,-0.078055,-0.389971,39.182171,-22.302139,-5.376100,0.237516,1.865035,-0.175919,0.000000,0.000000,0.000000,0.000000,0.000000,0.000000
12204738.000000,-2.326250,-1.662768,1.192722,-1.433120,1.720782,1.234031,-0.576948,0.326217,0.005516,0.754334,-0.275472,-0.235283,0.691212,-0.082200,-0.215411,39.229778,-22.353714,-5.253114,0.291532,1.779891,-0.175919,0.000000,0.000000,0.000000,0.000000,0.000000,0.000000
12204739.000000,-2.325922,-1.662751,1.193472,-1.433408,1.720547,1.234735,-0.577027,0.329170,0.009579,0.752739,-0.278046,-0.235055,0.689312,-0.083575,-0.167803,39.130596,-22.425125,-5.130128,0.332731,1.754256,-0.215287,0.000000,0.000000,0.000000,0.000000,0.000000,0.000000
12204740.000000,-2.325600,-1.662744,1.194239,-1.433710,1.720310,1.235422,-0.577115,0.325736,0.010142,0.752431,-0.284213,-0.236316,0.690087,-0.084251,-0.044818,39.130596,-22.595718,-4.955568,0.374845,1.793624,-0.136552,0.000000,0.000000,0.000000,0.000000,0.000000,0.000000
12204741.000000,-2.325281,-1.662735,1.195003,-1.434005,1.720076,1.236110,-0.577192,0.322927,0.007471,0.758508,-0.288804,-0.234936,0.683118,-0.080716,-0.017047,39.130596,-22.841690,-4.784975,0.398649,1.871444,-0.169511,0.000000,0.000000,0.000000,0.000000,0.000000,0.000000
12204742.000000,-2.324956,-1.662733,1.195765,-1.434303,1.719843,1.236806,-0.577269,0.319871,0.006363,0.759196,-0.289174,-0.234957,0.698731,-0.081560,0.030561,39.229778,-22.964676,-4.586610,0.446256,1.844894,-0.182328,0.000000,0.000000,0.000000,0.000000,0.000000,0.000000
12204743.000000,-2.324632,-1.662725,1.196542,-1.434597,1.719614,1.237498,-0.577350,0.319417,0.007397,0.764476,-0.293862,-0.233991,0.698413,-0.081260,0.129743,39.253582,-23.234451,-4.487428,0.452665,1.858627,-0.149369,0.000000,0.000000,0.000000,0.000000,0.000000,0.000000
12204744.000000,-2.324312,-1.662726,1.197301,-1.434895,1.719388,1.238197,-0.577423,0.319929,0.002806,0.763167,-0.295301,-0.228363,0.694927,-0.078903,0.205121,39.376568,-23.432816,-4.340639,0.416959,1.936446,-0.175919,0.000000,0.000000,0.000000,0.000000,0.000000,0.000000
12204745.000000,-2.323991,-1.662722,1.198068,-1.435189,1.719155,1.238878,-0.577499,0.320385,0.000671,0.756882,-0.294750,-0.229443,0.688744,-0.077757,0.252729,39.451946,-23.603409,-4.241457,0.410551,2.020675,-0.188737,0.000000,0.000000,0.000000,0.000000,0.000000,0.000000
12204746.000000,-2.323685,-1.662726,1.198823,-1.435483,1.718920,1.239577,-0.577585,0.316140,0.001043,0.754917,-0.295136,-0.226504,0.687786,-0.079231,0.375715,39.574932,-23.726395,-4.142274,0.476469,1.968490,-0.136552,0.000000,0.000000,0.000000,0.000000,0.000000,0.000000
12204747.000000,-2.323370,-1.662733,1.199576,-1.435776,1.718695,1.240282,-0.577658,0.317153,-0.002168,0.748839,-0.294727,-0.223315,0.691952,-0.081162,0.474897,39.721722,-23.627213,-4.066896,0.500272,1.930038,-0.175919,0.000000,0.000000,0.000000,0.000000,0.000000,0.000000
12204748.000000,-2.323052,-1.662735,1.200340,-1.436071,1.718470,1.240956,-0.577737,0.314439,-0.002130,0.750348,-0.291971,-0.224529,0.682195,-0.079387,0.574079,39.769329,-23.651016,-3.967714,0.530485,1.995040,-0.188737,0.000000,0.000000,0.000000,0.000000,0.000000,0.000000
12204749.000000,-2.322742,-1.662741,1.201086,-1.436364,1.718246,1.241644,-0.577822,0.312605,-0.003419,0.752795,-0.292563,-0.225063,0.678741,-0.079756,0.673261,39.868511,-23.555801,-3.892336,0.500272,2.039901,-0.155778,0.000000,0.000000,0.000000,0.000000,0.000000,0.000000
12204750.000000,-2.322429,-1.662748,1.201843,-1.436662,1.718011,1.242337,-0.577898,0.311033,-0.003709,0.750767,-0.290824,-0.227545,0.684567,-0.077166,0.748639,39.939922,-23.504227,-3.745546,0.524076,1.909896,-0.196061,0.000000,0.000000,0.000000,0.000000,0.000000,0.000000
12204751.000000,-2.322131,-1.662758,1.202576,-1.436947,1.717784,1.243047,-0.577984,0.313379,-0.004612,0.759994,-0.289743,-0.226534,0.687808,-0.079301,0.895429,40.039104,-23.210648,-3.745546,0.518583,1.786300,-0.130143,0.000000,0.000000,0.000000,0.000000,0.000000,0.000000
12204752.000000,-2.321826,-1.662762,1.203337,-1.437246,1.717565,1.243750,-0.578053,0.308555,-0.004053,0.755461,-0.290267,-0.220379,0.691049,-0.075379,0.994611,40.086712,-23.186844,-3.697939,0.482877,1.779891,-0.202470,0.000000,0.000000,0.000000,0.000000,0.000000,0.000000
12204753.000000,-2.321515,-1.662762,1.204087,-1.437547,1.717350,1.244435,-0.578133,0.305680,-0.002600,0.751204,-0.292735,-0.216040,0.693542,-0.076105,1.046186,40.086712,-22.988480,-3.570986,0.458158,1.884261,-0.175919,0.000000,0.000000,0.000000,0.000000,0.000000,0.000000
12204754.000000,-2.321211,-1.662768,1.204827,-1.437838,1.717123,1.245149,-0.578215,0.304043,-0.006693,0.749216,-0.292582,-0.216466,0.694948,-0.076762,1.093793,40.162090,-22.841690,-3.523378,0.518583,1.838485,-0.155778,0.000000,0.000000,0.000000,0.000000,0.000000,0.000000
12204755.000000,-2.320907,-1.662769,1.205572,-1.438138,1.716902,1.245861,-0.578291,0.298358,-0.005234,0.750613,-0.293374,-0.220050,0.701173,-0.079269,1.169172,40.185894,-22.694901,-3.400392,0.524076,1.702071,-0.202470,0.000000,0.000000,0.000000,0.000000,0.000000,0.000000
12204756.000000,-2.320598,-1.662759,1.206330,-1.438428,1.716683,1.246569,-0.578372,0.300437,-0.000217,0.754093,-0.290577,-0.217424,0.700176,-0.079415,1.121564,40.039104,-22.742508,-3.325014,0.542386,1.695663,-0.175919,0.000000,0.000000,0.000000,0.000000,0.000000,0.000000
12204757.000000,-2.320292,-1.662753,1.207073,-1.438726,1.716472,1.247270,-0.578452,0.302175,0.002611,0.753164,-0.295558,-0.211497,0.694058,-0.079304,1.069990,39.916119,-22.817886,-3.225832,0.524076,1.714889,-0.149369,0.000000,0.000000,0.000000,0.000000,0.000000,0.000000
12204758.000000,-2.319989,-1.662748,1.207822,-1.439029,1.716253,1.247971,-0.578522,0.303657,0.003413,0.745695,-0.296826,-0.214405,0.696397,-0.080057,1.121564,39.840740,-22.794083,-3.079042,0.589994,1.689254,-0.215287,0.000000,0.000000,0.000000,0.000000,0.000000,0.000000
12204759.000000,-2.319686,-1.662742,1.208561,-1.439321,1.716038,1.248669,-0.578601,0.303188,0.004434,0.742015,-0.297601,-0.214940,0.695521,-0.080016,1.121564,39.745525,-22.817886,-2.956056,0.625699,1.695663,-0.188737,0.000000,0.000000,0.000000,0.000000,0.000000,0.000000
12204760.000000,-2.319373,-1.662733,1.209312,-1.439618,1.715834,1.249350,-0.578681,0.304589,0.005225,0.742588,-0.297210,-0.213735,0.700374,-0.080038,1.046186,39.646343,-22.841690,-2.833071,0.559781,1.747848,-0.163102,0.000000,0.000000,0.000000,0.000000,0.000000,0.000000
12204761.000000,-2.319066,-1.662722,1.210071,-1.439907,1.715617,1.250044,-0.578750,0.304171,0.006879,0.744912,-0.293378,-0.215377,0.697266,-0.072697,1.022382,39.499554,-22.964676,-2.757692,0.530485,1.819259,-0.202470,0.000000,0.000000,0.000000,0.000000,0.000000,0.000000
12204762.000000,-2.318763,-1.662708,1.210818,-1.440195,1.715406,1.250735,-0.578831,0.304759,0.009104,0.745746,-0.292468,-0.206263,0.690660,-0.075475,0.970807,39.305157,-23.063858,-2.733888,0.530485,1.871444,-0.155778,0.000000,0.000000,0.000000,0.000000,0.000000,0.000000
12204763.000000,-2.318458,-1.662697,1.211561,-1.440490,1.715199,1.251426,-0.578911,0.304307,0.009482,0.740887,-0.291938,-0.207126,0.693308,-0.080436,0.923200,39.158367,-23.087662,-2.682314,0.500272,1.865035,-0.149369,0.000000,0.000000,0.000000,0.000000,0.000000,0.000000
12204764.000000,-2.318156,-1.662685,1.212302,-1.440781,1.714979,1.252115,-0.578981,0.302849,0.010388,0.757374,-0.293066,-0.209549,0.684265,-0.082475,0.947004,38.983807,-23.186844,-2.583132,0.554288,1.871444,-0.188737,0.000000,0.000000,0.000000,0.000000,0.000000,0.000000
12204765.000000,-2.317849,-1.662669,1.213049,-1.441066,1.714773,1.252817,-0.579062,0.303548,0.011461,0.755537,-0.291617,-0.215876,0.682619,-0.082124,0.895429,38.789410,-23.163040,-2.583132,0.584501,1.877853,-0.149369,0.000000,0.000000,0.000000,0.000000,0.000000,0.000000
12204766.000000,-2.317553,-1.662662,1.213801,-1.441360,1.714560,1.253491,-0.579134,0.301268,0.009951,0.756456,-0.291382,-0.218407,0.685671,-0.083688,0.970807,38.690228,-23.234451,-2.559328,0.596403,1.916305,-0.188737,0.000000,0.000000,0.000000,0.000000,0.000000,0.000000
12204767.000000,-2.317257,-1.662647,1.214532,-1.441645,1.714347,1.254186,-0.579215,0.298681,0.010618,0.752421,-0.287485,-0.216607,0.683424,-0.083281,0.947004,38.519634,-23.135269,-2.559328,0.620206,1.897079,-0.149369,0.000000,0.000000,0.000000,0.000000,0.000000,0.000000
12204768.000000,-2.316963,-1.662641,1.215271,-1.441921,1.714145,1.254878,-0.579282,0.299315,0.008187,0.746922,-0.284426,-0.212478,0.695497,-0.079280,1.046186,38.472027,-23.063858,-2.682314,0.566190,1.806442,-0.202470,0.000000,0.000000,0.000000,0.000000,0.000000,0.000000
12204769.000000,-2.316668,-1.662630,1.216008,-1.442206,1.713947,1.255572,-0.579355,0.302787,0.008888,0.753230,-0.285054,-0.204674,0.692542,-0.078747,1.121564,38.325237,-22.893265,-2.706117,0.518583,1.779891,-0.196061,0.000000,0.000000,0.000000,0.000000,0.000000,0.000000
12204770.000000,-2.316377,-1.662620,1.216736,-1.442490,1.713747,1.256257,-0.579436,0.301041,0.010826,0.745369,-0.285164,-0.203288,0.690637,-0.079581,1.192975,38.249859,-22.817886,-2.757692,0.500272,1.851302,-0.149369,0.000000,0.000000,0.000000,0.000000,0.000000,0.000000
12204771.000000,-2.316083,-1.662610,1.217467,-1.442777,1.713556,1.256937,-0.579504,0.296299,0.009704,0.740050,-0.287948,-0.202769,0.687246,-0.076741,1.268354,38.154644,-22.623489,-2.706117,0.458158,1.865035,-0.196061,0.000000,0.000000,0.000000,0.000000,0.000000,0.000000
12204772.000000,-2.315790,-1.662598,1.218194,-1.443051,1.713352,1.257638,-0.579576,0.298583,0.011045,0.739488,-0.283440,-0.204890,0.681538,-0.076542,1.244550,38.103069,-22.548111,-2.781496,0.470060,1.806442,-0.196061,0.000000,0.000000,0.000000,0.000000,0.000000,0.000000
12204773.000000,-2.315499,-1.662589,1.218931,-1.443332,1.713150,1.258337,-0.579655,0.295686,0.007124,0.738696,-0.281590,-0.207782,0.682240,-0.078736,1.268354,38.130840,-22.500504,-2.781496,0.506681,1.649886,-0.130143,0.000000,0.000000,0.000000,0.000000,0.000000,0.000000
12204774.000000,-2.315208,-1.662583,1.219674,-1.443605,1.712949,1.259045,-0.579715,0.292488,0.007113,0.733227,-0.285005,-0.202609,0.683501,-0.074848,1.343732,38.178448,-22.524307,-2.781496,0.506681,1.584884,-0.208878,0.000000,0.000000,0.000000,0.000000,0.000000,0.000000
12204775.000000,-2.314912,-1.662571,1.220412,-1.443877,1.712755,1.259739,-0.579788,0.296074,0.008927,0.735797,-0.278678,-0.197109,0.684705,-0.070800,1.292158,38.154644,-22.671097,-2.833071,0.530485,1.637069,-0.196061,0.000000,0.000000,0.000000,0.000000,0.000000,0.000000
12204776.000000,-2.314616,-1.662566,1.221154,-1.444152,1.712562,1.260433,-0.579863,0.293935,0.004913,0.738308,-0.272531,-0.201700,0.683774,-0.074241,1.292158,38.226055,-22.770279,-2.805300,0.547880,1.630660,-0.136552,0.000000,0.000000,0.000000,0.000000,0.000000,0.000000
12204777.000000,-2.314328,-1.662566,1.221882,-1.444418,1.712365,1.261135,-0.579922,0.295388,0.000873,0.737188,-0.270475,-0.199990,0.690810,-0.066982,1.315961,38.349041,-22.841690,-2.805300,0.589994,1.617843,-0.208878,0.000000,0.000000,0.000000,0.000000,0.000000,0.000000
12204778.000000,-2.314037,-1.662568,1.222619,-1.444682,1.712174,1.261826,-0.579997,0.293840,-0.002496,0.731688,-0.264011,-0.196691,0.683528,-0.071712,1.315961,38.495831,-22.964676,-2.856874,0.584501,1.735030,-0.142960,0.000000,0.000000,0.000000,0.000000,0.000000,0.000000
12204779.000000,-2.313748,-1.662566,1.223365,-1.444943,1.711986,1.262508,-0.580060,0.295197,-0.003717,0.733340,-0.259738,-0.195831,0.681157,-0.070333,1.343732,38.595013,-23.186844,-2.904482,0.494779,1.909896,-0.202470,0.000000,0.000000,0.000000,0.000000,0.000000,0.000000
12204780.000000,-2.313461,-1.662569,1.224095,-1.445200,1.711796,1.263203,-0.580134,0.293093,-0.003130,0.733180,-0.259855,-0.192833,0.679972,-0.073569,1.367536,38.765606,-23.258255,-2.956056,0.482877,1.923629,-0.155778,0.000000,0.000000,0.000000,0.000000,0.000000,0.000000
12204781.000000,-2.313174,-1.662570,1.224831,-1.445455,1.711604,1.263907,-0.580204,0.289819,-0.001564,0.727396,-0.254683,-0.194804,0.689090,-0.069337,1.442914,38.888592,-23.258255,-3.079042,0.524076,1.819259,-0.155778,0.000000,0.000000,0.000000,0.000000,0.000000,0.000000
12204782.000000,-2.312882,-1.662574,1.225554,-1.445711,1.711418,1.264609,-0.580270,0.296373,-0.003362,0.738618,-0.254503,-0.192685,0.691425,-0.069823,1.367536,39.011578,-23.163040,-3.079042,0.512174,1.806442,-0.182328,0.000000,0.000000,0.000000,0.000000,0.000000,0.000000
12204783.000000,-2.312587,-1.662576,1.226300,-1.445961,1.711232,1.265318,-0.580345,0.293715,-0.003493,0.734959,-0.252458,-0.193218,0.693035,-0.067934,1.268354,39.082989,-23.258255,-3.154421,0.530485,1.812850,-0.142960,0.000000,0.000000,0.000000,0.000000,0.000000,0.000000
12204784.000000,-2.312300,-1.662576,1.227032,-1.446211,1.711050,1.266014,-0.580411,0.289792,-0.003129,0.733523,-0.246790,-0.191361,0.695219,-0.064912,1.244550,39.130596,-23.135269,-3.277406,0.518583,1.793624,-0.163102,0.000000,0.000000,0.000000,0.000000,0.000000,0.000000
12204785.000000,-2.312016,-1.662580,1.227753,-1.446460,1.710862,1.266725,-0.580477,0.292584,-0.003057,0.729441,-0.250153,-0.190617,0.695240,-0.067110,1.244550,39.182171,-23.040054,-3.348818,0.512174,1.643478,-0.175919,0.000000,0.000000,0.000000,0.000000,0.000000,0.000000
12204786.000000,-2.311728,-1.662582,1.228476,-1.446699,1.710672,1.267415,-0.580546,0.290532,-0.008742,0.727790,-0.246297,-0.190869,0.696684,-0.069702,1.268354,39.205975,-22.865494,-3.523378,0.512174,1.630660,-0.163102,0.000000,0.000000,0.000000,0.000000,0.000000,0.000000
12204787.000000,-2.311433,-1.662581,1.229217,-1.446933,1.710489,1.268104,-0.580607,0.296023,-0.005666,0.732098,-0.243031,-0.183393,0.691316,-0.064476,1.192975,39.182171,-22.893265,-3.745546,0.458158,1.670028,-0.215287,0.000000,0.000000,0.000000,0.000000,0.000000,0.000000
12204788.000000,-2.311144,-1.662579,1.229931,-1.447181,1.710307,1.268792,-0.580681,0.295541,-0.002867,0.723151,-0.242648,-0.182132,0.684472,-0.069355,1.121564,39.130596,-22.694901,-3.769350,0.440763,1.779891,-0.155778,0.000000,0.000000,0.000000,0.000000,0.000000,0.000000
12204789.000000,-2.310858,-1.662578,1.230655,-1.447412,1.710120,1.269481,-0.580746,0.291583,-0.002133,0.719047,-0.238015,-0.182281,0.689897,-0.069772,1.069990,39.130596,-22.472733,-3.967714,0.482877,1.741439,-0.175919,0.000000,0.000000,0.000000,0.000000,0.000000,0.000000
12204790.000000,-2.310572,-1.662579,1.231373,-1.447645,1.709937,1.270184,-0.580810,0.292930,-0.002238,0.717009,-0.237731,-0.184117,0.688893,-0.065514,0.970807,39.158367,-22.401321,-4.019289,0.488370,1.662704,-0.202470,0.000000,0.000000,0.000000,0.000000,0.000000,0.000000
12204791.000000,-2.310275,-1.662575,1.232108,-1.447880,1.709768,1.270865,-0.580881,0.291861,0.000703,0.721860,-0.234552,-0.182996,0.700576,-0.064613,0.796247,39.059185,-22.448929,-4.043092,0.393156,1.670028,-0.169511,0.000000,0.000000,0.000000,0.000000,0.000000,0.000000
12204792.000000,-2.309974,-1.662568,1.232840,-1.448109,1.709585,1.271561,-0.580948,0.294688,0.002695,0.720547,-0.237426,-0.182664,0.700345,-0.062664,0.625654,38.960003,-22.448929,-4.066896,0.351041,1.656295,-0.169511,0.000000,0.000000,0.000000,0.000000,0.000000,0.000000
12204793.000000,-2.309676,-1.662568,1.233559,-1.448332,1.709401,1.272269,-0.581015,0.296453,0.001727,0.722618,-0.233241,-0.177922,0.700641,-0.062256,0.451093,38.960003,-22.425125,-4.142274,0.386747,1.624252,-0.136552,0.000000,0.000000,0.000000,0.000000,0.000000,0.000000
12204794.000000,-2.309375,-1.662569,1.234287,-1.448561,1.709217,1.272949,-0.581072,0.295497,0.001098,0.720170,-0.231414,-0.177694,0.689135,-0.057665,0.228925,38.960003,-22.425125,-4.166078,0.434354,1.670028,-0.221696,0.000000,0.000000,0.000000,0.000000,0.000000,0.000000
12204795.000000,-2.309084,-1.662562,1.235018,-1.448780,1.709035,1.273638,-0.581140,0.292265,0.002920,0.729099,-0.228744,-0.175801,0.688099,-0.063706,0.105939,38.864788,-22.571915,-4.241457,0.440763,1.727706,-0.182328,0.000000,0.000000,0.000000,0.000000,0.000000,0.000000
12204796.000000,-2.308788,-1.662556,1.235756,-1.448992,1.708867,1.274335,-0.581207,0.291237,0.003123,0.731101,-0.221232,-0.171996,0.701792,-0.062621,-0.044818,38.813213,-22.694901,-4.412050,0.381254,1.708480,-0.169511,0.000000,0.000000,0.000000,0.000000,0.000000,0.000000
12204797.000000,-2.308495,-1.662561,1.236492,-1.449207,1.708688,1.275026,-0.581269,0.288172,0.000854,0.729442,-0.220729,-0.172766,0.696622,-0.059548,-0.116229,38.864788,-22.794083,-4.511232,0.422452,1.689254,-0.208878,0.000000,0.000000,0.000000,0.000000,0.000000,0.000000
12204798.000000,-2.308194,-1.662561,1.237225,-1.449413,1.708510,1.275714,-0.581342,0.291813,-0.000004,0.729026,-0.215570,-0.179157,0.694526,-0.065401,-0.290789,38.888592,-22.964676,-4.685792,0.440763,1.727706,-0.163102,0.000000,0.000000,0.000000,0.000000,0.000000,0.000000
12204799.000000,-2.307891,-1.662568,1.237965,-1.449625,1.708337,1.276381,-0.581415,0.294560,-0.001686,0.727855,-0.212890,-0.174453,0.685985,-0.068796,-0.489153,38.960003,-23.111465,-4.808778,0.374845,1.858627,-0.136552,0.000000,0.000000,0.000000,0.000000,0.000000,0.000000
12204800.000000,-2.307598,-1.662570,1.238691,-1.449830,1.708157,1.277063,-0.581476,0.300213,-0.001690,0.739992,-0.208462,-0.172822,0.686468,-0.063448,-0.635943,38.983807,-23.186844,-4.907960,0.362943,1.936446,-0.196061,0.000000,0.000000,0.000000,0.000000,0.000000,0.000000
12204801.000000,-2.307298,-1.662575,1.239423,-1.450037,1.707987,1.277758,-0.581550,0.298311,-0.002897,0.730174,-0.210297,-0.171868,0.679367,-0.063647,-0.862078,39.059185,-23.210648,-5.054750,0.344633,1.838485,-0.142960,0.000000,0.000000,0.000000,0.000000,0.000000,0.000000
12204802.000000,-2.306997,-1.662579,1.240158,-1.450245,1.707809,1.278452,-0.581612,0.298027,-0.003050,0.726175,-0.209566,-0.176691,0.684360,-0.060676,-1.008868,39.106792,-23.210648,-5.153932,0.362943,1.702071,-0.188737,0.000000,0.000000,0.000000,0.000000,0.000000,0.000000
12204803.000000,-2.306699,-1.662581,1.240882,-1.450449,1.707649,1.279135,-0.581679,0.297923,-0.002594,0.726005,-0.205934,-0.172794,0.677834,-0.065714,-1.131854,39.130596,-23.234451,-5.253114,0.297025,1.676437,-0.155778,0.000000,0.000000,0.000000,0.000000,0.000000,0.000000
12204804.000000,-2.306406,-1.662582,1.241610,-1.450646,1.707480,1.279804,-0.581744,0.292750,-0.002382,0.727166,-0.202165,-0.168412,0.674994,-0.063869,-1.183428,39.158367,-23.186844,-5.376100,0.308927,1.754256,-0.142960,0.000000,0.000000,0.000000,0.000000,0.000000,0.000000
12204805.000000,-2.306106,-1.662589,1.242337,-1.450850,1.707305,1.280472,-0.581803,0.290230,-0.003818,0.719959,-0.204677,-0.170028,0.667823,-0.059756,-1.282611,39.253582,-23.040054,-5.427675,0.351041,1.851302,-0.202470,0.000000,0.000000,0.000000,0.000000,0.000000,0.000000
12204806.000000,-2.305816,-1.662598,1.243043,-1.451049,1.707132,1.281152,-0.581874,0.290996,-0.004867,0.713379,-0.200978,-0.162760,0.668955,-0.066165,-1.354022,39.352764,-22.841690,-5.574464,0.362943,1.916305,-0.136552,0.000000,0.000000,0.000000,0.000000,0.000000,0.000000
12204807.000000,-2.305528,-1.662594,1.243774,-1.451250,1.706963,1.281826,-0.581937,0.287407,-0.001575,0.714276,-0.200017,-0.162983,0.672276,-0.067302,-1.405596,39.281353,-22.841690,-5.649843,0.327238,1.909896,-0.155778,0.000000,0.000000,0.000000,0.000000,0.000000,0.000000
12204808.000000,-2.305238,-1.662598,1.244493,-1.451450,1.706802,1.282525,-0.582003,0.288318,-0.004659,0.711503,-0.200314,-0.162180,0.673426,-0.065338,-1.453204,39.305157,-22.865494,-5.673646,0.255826,1.773483,-0.136552,0.000000,0.000000,0.000000,0.000000,0.000000,0.000000
12204809.000000,-2.304941,-1.662599,1.245224,-1.451657,1.706639,1.283210,-0.582066,0.290595,-0.003361,0.713545,-0.200749,-0.159421,0.692699,-0.063074,-1.552386,39.305157,-22.893265,-5.673646,0.237516,1.695663,-0.136552,0.000000,0.000000,0.000000,0.000000,0.000000,0.000000
12204810.000000,-2.304644,-1.662608,1.245959,-1.451862,1.706470,1.283895,-0.582130,0.289274,-0.005308,0.717395,-0.207456,-0.162967,0.688063,-0.060973,-1.679339,39.428143,-23.016251,-5.626039,0.255826,1.721298,-0.149369,0.000000,0.000000,0.000000,0.000000,0.000000,0.000000
12204811.000000,-2.304350,-1.662609,1.246685,-1.452067,1.706307,1.284581,-0.582194,0.291820,-0.004239,0.716666,-0.210508,-0.165475,0.686200,-0.060150,-1.826129,39.451946,-23.135269,-5.574464,0.273221,1.819259,-0.142960,0.000000,0.000000,0.000000,0.000000,0.000000,0.000000
12204812.000000,-2.304061,-1.662622,1.247430,-1.452267,1.706146,1.285251,-0.582248,0.288707,-0.009468,0.719852,-0.205479,-0.161908,0.676263,-0.062353,-1.901507,39.598736,-23.357437,-5.550661,0.255826,1.930038,-0.188737,0.000000,0.000000,0.000000,0.000000,0.000000,0.000000
12204813.000000,-2.303783,-1.662628,1.248164,-1.452463,1.705977,1.285943,-0.582314,0.288397,-0.008322,0.741095,-0.202771,-0.168951,0.676396,-0.062510,-1.901507,39.670147,-23.627213,-5.626039,0.261320,1.923629,-0.149369,0.000000,0.000000,0.000000,0.000000,0.000000,0.000000
12204814.000000,-2.303495,-1.662640,1.248905,-1.452666,1.705801,1.286634,-0.582369,0.286218,-0.009236,0.738559,-0.199756,-0.169549,0.679339,-0.058297,-1.949114,39.816936,-23.825577,-5.598268,0.267728,1.884261,-0.188737,0.000000,0.000000,0.000000,0.000000,0.000000,0.000000
12204815.000000,-2.303212,-1.662659,1.249650,-1.452861,1.705624,1.287315,-0.582427,0.282313,-0.010988,0.738370,-0.196034,-0.176321,0.679908,-0.056988,-1.901507,40.015301,-24.071548,-5.649843,0.332731,1.877853,-0.215287,0.000000,0.000000,0.000000,0.000000,0.000000,0.000000
12204816.000000,-2.302931,-1.662678,1.250381,-1.453061,1.705454,1.287980,-0.582498,0.283755,-0.015831,0.729383,-0.196066,-0.172782,0.674820,-0.060274,-1.901507,40.233501,-24.190567,-5.574464,0.374845,1.988631,-0.130143,0.000000,0.000000,0.000000,0.000000,0.000000,0.000000
12204817.000000,-2.302650,-1.662696,1.251116,-1.453264,1.705277,1.288638,-0.582555,0.278225,-0.018022,0.727066,-0.200880,-0.175560,0.673891,-0.057241,-1.901507,40.404095,-24.289749,-5.550661,0.434354,2.066451,-0.182328,0.000000,0.000000,0.000000,0.000000,0.000000,0.000000
12204818.000000,-2.302373,-1.662711,1.251855,-1.453469,1.705106,1.289314,-0.582615,0.282810,-0.018595,0.737404,-0.201969,-0.174312,0.675744,-0.057711,-1.925311,40.527081,-24.313553,-5.499086,0.452665,2.066451,-0.169511,0.000000,0.000000,0.000000,0.000000,0.000000,0.000000
12204819.000000,-2.302101,-1.662735,1.252578,-1.453677,1.704948,1.289993,-0.582677,0.278500,-0.020967,0.731425,-0.204007,-0.170810,0.669998,-0.063421,-1.826129,40.725445,-24.341324,-5.399904,0.398649,2.007858,-0.130143,0.000000,0.000000,0.000000,0.000000,0.000000,0.000000
12204820.000000,-2.301828,-1.662755,1.253310,-1.453876,1.704783,1.290669,-0.582731,0.275599,-0.020710,0.726748,-0.199431,-0.168837,0.676139,-0.064745,-1.726946,40.844463,-24.341324,-5.427675,0.351041,1.909896,-0.196061,0.000000,0.000000,0.000000,0.000000,0.000000,0.000000
12204821.000000,-2.301558,-1.662771,1.254037,-1.454070,1.704613,1.291349,-0.582795,0.273888,-0.022843,0.728971,-0.201267,-0.168601,0.668920,-0.064572,-1.627764,40.919842,-24.365128,-5.499086,0.303434,1.838485,-0.149369,0.000000,0.000000,0.000000,0.000000,0.000000,0.000000
12204822.000000,-2.301293,-1.662788,1.254760,-1.454282,1.704444,1.292020,-0.582852,0.271175,-0.021882,0.726218,-0.200183,-0.170793,0.671174,-0.061266,-1.480975,41.019024,-24.166763,-5.399904,0.320829,1.851302,-0.182328,0.000000,0.000000,0.000000,0.000000,0.000000,0.000000
12204823.000000,-2.301021,-1.662800,1.255493,-1.454486,1.704277,1.292684,-0.582915,0.265655,-0.018894,0.727184,-0.200844,-0.172658,0.666335,-0.061622,-1.429400,41.019024,-24.043777,-5.376100,0.381254,1.916305,-0.142960,0.000000,0.000000,0.000000,0.000000,0.000000,0.000000
12204824.000000,-2.300760,-1.662809,1.256211,-1.454692,1.704117,1.293357,-0.582967,0.259988,-0.015525,0.721289,-0.201308,-0.169292,0.662723,-0.054544,-1.330218,40.967449,-23.948563,-5.352296,0.381254,1.981307,-0.169511,0.000000,0.000000,0.000000,0.000000,0.000000,0.000000
12204825.000000,-2.300497,-1.662816,1.256934,-1.454902,1.703950,1.294036,-0.583022,0.260011,-0.016663,0.712454,-0.205532,-0.171110,0.675940,-0.054411,-1.282611,40.919842,-23.774002,-5.304689,0.428861,1.884261,-0.182328,0.000000,0.000000,0.000000,0.000000,0.000000,0.000000
12204826.000000,-2.300238,-1.662819,1.257655,-1.455115,1.703791,1.294735,-0.583079,0.255720,-0.012749,0.712440,-0.205517,-0.169437,0.676378,-0.060681,-1.183428,40.796856,-23.750198,-5.253114,0.398649,1.735030,-0.155778,0.000000,0.000000,0.000000,0.000000,0.000000,0.000000
12204827.000000,-2.299971,-1.662821,1.258385,-1.455336,1.703641,1.295406,-0.583133,0.258210,-0.010061,0.713425,-0.207401,-0.162020,0.690451,-0.053888,-1.183428,40.673870,-23.774002,-5.106325,0.315336,1.741439,-0.182328,0.000000,0.000000,0.000000,0.000000,0.000000,0.000000
12204828.000000,-2.299703,-1.662831,1.259112,-1.455547,1.703473,1.296086,-0.583192,0.260369,-0.011096,0.711172,-0.207906,-0.163618,0.685023,-0.050630,-1.207232,40.673870,-23.750198,-5.007143,0.308927,1.812850,-0.163102,0.000000,0.000000,0.000000,0.000000,0.000000,0.000000
12204829.000000,-2.299442,-1.662836,1.259822,-1.455772,1.703305,1.296778,-0.583250,0.261592,-0.009489,0.708795,-0.213545,-0.162124,0.682062,-0.052395,-1.207232,40.578655,-23.627213,-4.808778,0.344633,1.844894,-0.155778,0.000000,0.000000,0.000000,0.000000,0.000000,0.000000
12204830.000000,-2.299177,-1.662834,1.260552,-1.455992,1.703136,1.297457,-0.583300,0.259817,-0.003389,0.711445,-0.214526,-0.161811,0.676657,-0.051926,-1.254840,40.404095,-23.702591,-4.733400,0.386747,1.844894,-0.196061,0.000000,0.000000,0.000000,0.000000,0.000000,0.000000
12204831.000000,-2.298919,-1.662833,1.261272,-1.456214,1.702974,1.298148,-0.583360,0.257968,-0.000241,0.729890,-0.217821,-0.164587,0.682037,-0.054453,-1.254840,40.281109,-23.750198,-4.562807,0.410551,1.838485,-0.163102,0.000000,0.000000,0.000000,0.000000,0.000000,0.000000
12204832.000000,-2.298654,-1.662828,1.262011,-1.456431,1.702814,1.298840,-0.583414,0.259717,0.000594,0.731922,-0.214102,-0.162186,0.683508,-0.050328,-1.254840,40.086712,-23.920792,-4.511232,0.422452,1.793624,-0.163102,0.000000,0.000000,0.000000,0.000000,0.000000,0.000000
12204833.000000,-2.298392,-1.662836,1.262742,-1.456659,1.702652,1.299534,-0.583465,0.259815,-0.003397,0.726825,-0.220262,-0.164924,0.685268,-0.051207,-1.207232,40.086712,-24.019974,-4.364442,0.452665,1.714889,-0.182328,0.000000,0.000000,0.000000,0.000000,0.000000,0.000000
12204834.000000,-2.298135,-1.662840,1.263456,-1.456878,1.702494,1.300211,-0.583523,0.260541,-0.001407,0.719483,-0.222250,-0.161453,0.685393,-0.053556,-1.183428,40.015301,-24.019974,-4.312868,0.476469,1.767074,-0.163102,0.000000,0.000000,0.000000,0.000000,0.000000,0.000000
12204835.000000,-2.297876,-1.662843,1.264187,-1.457109,1.702334,1.300871,-0.583578,0.256348,-0.000342,0.722201,-0.223289,-0.157495,0.677065,-0.059240,-1.131854,39.963726,-24.218338,-4.142274,0.446256,1.962081,-0.155778,0.000000,0.000000,0.000000,0.000000,0.000000,0.000000
12204836.000000,-2.297619,-1.662851,1.264921,-1.457324,1.702168,1.301544,-0.583627,0.258894,-0.004405,0.736015,-0.221473,-0.158901,0.678275,-0.057316,-1.084246,39.987530,-24.313553,-4.090700,0.410551,2.092086,-0.188737,0.000000,0.000000,0.000000,0.000000,0.000000,0.000000
12204837.000000,-2.297373,-1.662853,1.265636,-1.457550,1.702008,1.302238,-0.583688,0.255454,-0.001316,0.727194,-0.224151,-0.156453,0.673202,-0.058615,-1.008868,39.892315,-24.341324,-4.019289,0.398649,2.014266,-0.149369,0.000000,0.000000,0.000000,0.000000,0.000000,0.000000
12204838.000000,-2.297123,-1.662853,1.266353,-1.457769,1.701849,1.302921,-0.583736,0.254732,0.000431,0.725021,-0.224893,-0.157244,0.678768,-0.056835,-0.885882,39.816936,-24.242142,-3.991518,0.422452,1.923629,-0.196061,0.000000,0.000000,0.000000,0.000000,0.000000,0.000000
12204839.000000,-2.296879,-1.662849,1.267072,-1.457987,1.701696,1.303605,-0.583800,0.249484,0.003380,0.725598,-0.222938,-0.154971,0.672733,-0.059280,-0.810504,39.670147,-24.289749,-3.943910,0.381254,1.930038,-0.130143,0.000000,0.000000,0.000000,0.000000,0.000000,0.000000
12204840.000000,-2.296625,-1.662846,1.267786,-1.458214,1.701536,1.304286,-0.583848,0.250042,0.004224,0.723468,-0.226440,-0.157270,0.674398,-0.055520,-0.810504,39.574932,-24.218338,-3.797121,0.452665,1.942855,-0.208878,0.000000,0.000000,0.000000,0.000000,0.000000,0.000000
12204841.000000,-2.296375,-1.662847,1.268493,-1.458438,1.701380,1.304971,-0.583906,0.249232,0.002624,0.716331,-0.226670,-0.157634,0.675943,-0.057230,-0.735125,39.574932,-23.972366,-3.769350,0.512174,1.936446,-0.175919,0.000000,0.000000,0.000000,0.000000,0.000000,0.000000
12204842.000000,-2.296133,-1.662841,1.269190,-1.458672,1.701231,1.305664,-0.583963,0.245174,0.003926,0.706953,-0.227868,-0.152791,0.678074,-0.057250,-0.663714,39.475750,-23.750198,-3.570986,0.512174,1.916305,-0.169511,0.000000,0.000000,0.000000,0.000000,0.000000,0.000000
12204843.000000,-2.295887,-1.662832,1.269905,-1.458896,1.701081,1.306340,-0.584019,0.240314,0.005386,0.706383,-0.225470,-0.151737,0.683657,-0.056625,-0.663714,39.352764,-23.627213,-3.499574,0.470060,1.909896,-0.182328,0.000000,0.000000,0.000000,0.000000,0.000000,0.000000
12204844.000000,-2.295649,-1.662823,1.270629,-1.459117,1.700934,1.307030,-0.584075,0.238948,0.005830,0.717944,-0.226425,-0.148286,0.683708,-0.052608,-0.612139,39.253582,-23.702591,-3.448000,0.374845,1.838485,-0.163102,0.000000,0.000000,0.000000,0.000000,0.000000,0.000000
12204845.000000,-2.295406,-1.662816,1.271334,-1.459346,1.700781,1.307706,-0.584127,0.236665,0.006053,0.712041,-0.227337,-0.143938,0.699177,-0.052768,-0.512957,39.158367,-23.627213,-3.376589,0.362943,1.793624,-0.182328,0.000000,0.000000,0.000000,0.000000,0.000000,0.000000
12204846.000000,-2.295166,-1.662808,1.272048,-1.459567,1.700629,1.308387,-0.584181,0.238129,0.005753,0.707392,-0.227517,-0.146837,0.693300,-0.054226,-0.413775,39.082989,-23.627213,-3.348818,0.398649,1.819259,-0.169511,0.000000,0.000000,0.000000,0.000000,0.000000,0.000000
12204847.000000,-2.294932,-1.662803,1.272761,-1.459790,1.700482,1.309058,-0.584233,0.237456,0.006121,0.711954,-0.228522,-0.149719,0.683509,-0.054560,-0.366168,38.983807,-23.750198,-3.277406,0.446256,1.974899,-0.175919,0.000000,0.000000,0.000000,0.000000,0.000000,0.000000
12204848.000000,-2.294690,-1.662799,1.273478,-1.460014,1.700336,1.309723,-0.584289,0.237316,0.004612,0.710535,-0.227549,-0.146649,0.671548,-0.055192,-0.342364,38.960003,-23.825577,-3.277406,0.470060,2.027084,-0.175919,0.000000,0.000000,0.000000,0.000000,0.000000,0.000000
12204849.000000,-2.294459,-1.662796,1.274200,-1.460230,1.700193,1.310414,-0.584341,0.232926,0.004169,0.723520,-0.223321,-0.143028,0.671478,-0.055074,-0.266986,38.912395,-24.019974,-3.301210,0.470060,1.955673,-0.188737,0.000000,0.000000,0.000000,0.000000,0.000000,0.000000
12204850.000000,-2.294226,-1.662794,1.274911,-1.460444,1.700058,1.311104,-0.584399,0.231130,0.003322,0.719524,-0.219556,-0.139272,0.677362,-0.057083,-0.243182,38.888592,-24.142960,-3.348818,0.446256,1.858627,-0.142960,0.000000,0.000000,0.000000,0.000000,0.000000,0.000000
12204851.000000,-2.293995,-1.662800,1.275636,-1.460666,1.699912,1.311775,-0.584443,0.233999,-0.000673,0.718518,-0.221194,-0.142402,0.677149,-0.054628,-0.144000,39.011578,-24.388931,-3.225832,0.458158,1.877853,-0.202470,0.000000,0.000000,0.000000,0.000000,0.000000,0.000000
12204852.000000,-2.293764,-1.662804,1.276338,-1.460879,1.699769,1.312440,-0.584497,0.233650,-0.002127,0.708686,-0.219639,-0.144243,0.668380,-0.051675,-0.068621,39.082989,-24.388931,-3.202028,0.446256,1.968490,-0.175919,0.000000,0.000000,0.000000,0.000000,0.000000,0.000000
12204853.000000,-2.293536,-1.662813,1.277052,-1.461092,1.699623,1.313108,-0.584553,0.228763,-0.004301,0.702000,-0.215087,-0.145480,0.664815,-0.049482,0.054365,39.205975,-24.388931,-3.178224,0.434354,2.014266,-0.142960,0.000000,0.000000,0.000000,0.000000,0.000000,0.000000
12204854.000000,-2.293312,-1.662820,1.277764,-1.461298,1.699476,1.313785,-0.584600,0.234202,-0.005192,0.716285,-0.208840,-0.144115,0.673469,-0.045643,0.153547,39.305157,-24.289749,-3.154421,0.488370,2.020675,-0.169511,0.000000,0.000000,0.000000,0.000000,0.000000,0.000000
12204855.000000,-2.293089,-1.662825,1.278471,-1.461500,1.699342,1.314467,-0.584654,0.232331,-0.005135,0.711539,-0.205247,-0.139854,0.672727,-0.044353,0.304304,39.376568,-24.265945,-3.225832,0.458158,1.974899,-0.149369,0.000000,0.000000,0.000000,0.000000,0.000000,0.000000
12204856.000000,-2.292863,-1.662825,1.279180,-1.461702,1.699209,1.315137,-0.584698,0.228219,-0.003426,0.708163,-0.205114,-0.133531,0.671969,-0.045651,0.427289,39.376568,-24.242142,-3.325014,0.440763,1.909896,-0.196061,0.000000,0.000000,0.000000,0.000000,0.000000,0.000000
12204857.000000,-2.292646,-1.662832,1.279876,-1.461905,1.699073,1.315821,-0.584753,0.226560,-0.004606,0.695198,-0.203985,-0.132746,0.671947,-0.044968,0.502668,39.475750,-24.095352,-3.348818,0.428861,1.800033,-0.163102,0.000000,0.000000,0.000000,0.000000,0.000000,0.000000
12204858.000000,-2.292423,-1.662840,1.280581,-1.462105,1.698939,1.316496,-0.584799,0.225022,-0.005949,0.691600,-0.202410,-0.138261,0.674494,-0.042249,0.574079,39.598736,-24.019974,-3.376589,0.440763,1.793624,-0.188737,0.000000,0.000000,0.000000,0.000000,0.000000,0.000000
12204859.000000,-2.292203,-1.662844,1.281282,-1.462307,1.698802,1.317167,-0.584846,0.220058,-0.005081,0.689539,-0.209871,-0.137795,0.664819,-0.045386,0.697065,39.646343,-23.774002,-3.277406,0.476469,1.832076,-0.202470,0.000000,0.000000,0.000000,0.000000,0.000000,0.000000
12204860.000000,-2.291984,-1.662842,1.281983,-1.462507,1.698668,1.317851,-0.584901,0.219785,-0.002274,0.687538,-0.207050,-0.139966,0.668198,-0.050629,0.796247,39.598736,-23.726395,-3.301210,0.446256,1.844894,-0.136552,0.000000,0.000000,0.000000,0.000000,0.000000,0.000000
12204861.000000,-2.291765,-1.662838,1.282677,-1.462701,1.698535,1.318539,-0.584946,0.217185,0.000246,0.685807,-0.204427,-0.141905,0.679640,-0.044889,0.847822,39.523357,-23.480423,-3.348818,0.393156,1.735030,-0.196061,0.000000,0.000000,0.000000,0.000000,0.000000,0.000000
12204862.000000,-2.291543,-1.662835,1.283376,-1.462887,1.698393,1.319242,-0.584998,0.220595,0.001277,0.699306,-0.198389,-0.141098,0.677936,-0.044213,0.824018,39.475750,-23.432816,-3.448000,0.428861,1.611434,-0.169511,0.000000,0.000000,0.000000,0.000000,0.000000,0.000000
12204863.000000,-2.291327,-1.662826,1.284075,-1.463083,1.698258,1.319930,-0.585048,0.220658,0.003171,0.693896,-0.199428,-0.140563,0.693054,-0.048016,0.895429,39.376568,-23.357437,-3.424196,0.422452,1.597701,-0.149369,0.000000,0.000000,0.000000,0.000000,0.000000,0.000000
12204864.000000,-2.291105,-1.662823,1.284778,-1.463275,1.698127,1.320601,-0.585090,0.219756,0.002671,0.689173,-0.195847,-0.138062,0.685969,-0.043434,0.871625,39.352764,-23.286026,-3.475771,0.416959,1.702071,-0.202470,0.000000,0.000000,0.000000,0.000000,0.000000,0.000000
12204865.000000,-2.290883,-1.662818,1.285465,-1.463472,1.697989,1.321288,-0.585145,0.223776,0.003451,0.686961,-0.196704,-0.138244,0.682283,-0.047844,0.796247,39.281353,-23.210648,-3.376589,0.482877,1.741439,-0.175919,0.000000,0.000000,0.000000,0.000000,0.000000,0.000000
12204866.000000,-2.290660,-1.662813,1.286162,-1.463664,1.697858,1.321964,-0.585195,0.223934,0.004064,0.688271,-0.194384,-0.136482,0.682267,-0.049578,0.796247,39.205975,-23.087662,-3.376589,0.464567,1.727706,-0.188737,0.000000,0.000000,0.000000,0.000000,0.000000,0.000000
12204867.000000,-2.290433,-1.662806,1.286874,-1.463849,1.697729,1.322651,-0.585247,0.231822,0.005029,0.703168,-0.189809,-0.133786,0.680972,-0.047383,0.697065,39.106792,-23.210648,-3.376589,0.422452,1.735030,-0.169511,0.000000,0.000000,0.000000,0.000000,0.000000,0.000000
12204868.000000,-2.290214,-1.662794,1.287572,-1.464035,1.697606,1.323351,-0.585295,0.224493,0.007343,0.703275,-0.189010,-0.130883,0.682235,-0.044584,0.673261,38.936199,-23.286026,-3.400392,0.351041,1.702071,-0.175919,0.000000,0.000000,0.000000,0.000000,0.000000,0.000000
12204869.000000,-2.289985,-1.662785,1.288281,-1.464224,1.697474,1.324044,-0.585342,0.227327,0.010383,0.702239,-0.184707,-0.135690,0.684065,-0.042590,0.574079,38.837017,-23.381241,-3.448000,0.344633,1.637069,-0.182328,0.000000,0.000000,0.000000,0.000000,0.000000,0.000000
12204870.000000,-2.289761,-1.662779,1.288981,-1.464406,1.697335,1.324726,-0.585392,0.225630,0.008857,0.700938,-0.184769,-0.137041,0.685081,-0.041831,0.502668,38.765606,-23.528030,-3.499574,0.393156,1.662704,-0.163102,0.000000,0.000000,0.000000,0.000000,0.000000,0.000000
12204871.000000,-2.289542,-1.662770,1.289692,-1.464589,1.697197,1.325386,-0.585435,0.225678,0.011478,0.700147,-0.181931,-0.135968,0.678233,-0.044977,0.474897,38.666424,-23.651016,-3.523378,0.398649,1.806442,-0.175919,0.000000,0.000000,0.000000,0.000000,0.000000,0.000000
12204872.000000,-2.289319,-1.662760,1.290404,-1.464767,1.697061,1.326061,-0.585482,0.229122,0.010932,0.713734,-0.179718,-0.136205,0.681234,-0.047754,0.403486,38.543438,-23.801773,-3.570986,0.434354,1.877853,-0.182328,0.000000,0.000000,0.000000,0.000000,0.000000,0.000000
