chaoyuefei/paper-gmrm-data/robot_logs/s2_dq_gmrm_xz_min_0.30_log_20260314_173154.csv
# time_ms,q_0,q_1,q_2,q_3,q_4,q_5,q_6,dq_0,dq_1,dq_2,dq_3,dq_4,dq_5,dq_6,tau_J_0,tau_J_1,tau_J_2,tau_J_3,tau_J_4,tau_J_5,tau_J_6,O_dP_EE_c_0,O_dP_EE_c_1,O_dP_EE_c_2,O_dP_EE_c_3,O_dP_EE_c_4,O_dP_EE_c_5
12176101.000000,-2.415953,-1.662596,1.042301,-1.355837,1.795757,1.080862,-0.548493,0.000054,0.000516,0.000878,-0.000312,-0.000617,0.000046,0.001356,-0.044818,41.530804,-21.024673,-5.697450,0.888456,1.344100,-0.011124,0.000000,0.000000,0.000000,0.000000,0.000000,0.000000
12176102.000000,-2.415955,-1.662597,1.042296,-1.355836,1.795760,1.080862,-0.548494,-0.000613,-0.000213,-0.001082,0.000348,0.000674,0.000268,0.000429,-0.017047,41.554607,-20.953262,-5.721254,0.859159,1.337692,0.001693,0.000000,0.000000,0.000000,0.000000,0.000000,0.000000
12176103.000000,-2.415951,-1.662599,1.042301,-1.355837,1.795759,1.080866,-0.548498,0.000797,-0.000699,0.000951,-0.000324,0.000008,0.000416,-0.000934,-0.068621,41.578411,-21.024673,-5.697450,0.871061,1.331283,0.034652,0.000000,0.000000,0.000000,0.000000,0.000000,0.000000
12176104.000000,-2.415953,-1.662594,1.042303,-1.355836,1.795758,1.080862,-0.548494,-0.000025,0.001205,0.001285,0.000340,-0.000198,-0.000197,0.000835,-0.044818,41.507000,-21.052444,-5.721254,0.876554,1.344100,-0.004716,0.000000,0.000000,0.000000,0.000000,0.000000,0.000000
12176105.000000,-2.415950,-1.662600,1.042299,-1.355838,1.795759,1.080861,-0.548502,0.008176,-0.003044,-0.000905,-0.002000,-0.008211,-0.001352,-0.004901,0.276533,41.530804,-20.977066,-5.626039,0.840848,1.377059,0.015426,0.000000,0.000000,0.000000,0.000000,0.000000,0.000000
12176106.000000,-2.415938,-1.662603,1.042301,-1.355835,1.795762,1.080858,-0.548510,0.018014,-0.006696,0.001459,0.001337,-0.007651,-0.002748,-0.006212,1.268354,41.312603,-20.929459,-5.475282,0.745634,1.552840,-0.044083,0.000000,0.000000,0.000000,0.000000,0.000000,0.000000
12176107.000000,-2.415908,-1.662603,1.042312,-1.355829,1.795757,1.080858,-0.548540,0.023164,-0.005122,0.003733,0.003208,-0.006153,-0.000379,-0.012760,2.827497,40.896038,-20.905655,-5.276918,0.620206,1.779891,-0.083451,0.000000,0.000000,0.000000,0.000000,0.000000,0.000000
12176108.000000,-2.415866,-1.662603,1.042329,-1.355837,1.795743,1.080879,-0.548588,0.033326,-0.001740,0.008641,0.000140,-0.008572,0.006959,-0.020959,4.707990,40.356487,-20.877884,-4.884157,0.578092,1.865035,-0.037675,0.000000,0.000000,0.000000,0.000000,0.000000,0.000000
12176109.000000,-2.415805,-1.662599,1.042349,-1.355850,1.795715,1.080929,-0.548644,0.040325,0.000897,0.014287,-0.004921,-0.017029,0.022779,-0.033354,6.616254,39.793133,-20.806473,-4.487428,0.601896,1.800033,-0.070634,0.000000,0.000000,0.000000,0.000000,0.000000,0.000000
12176110.000000,-2.415713,-1.662602,1.042380,-1.355880,1.795676,1.081009,-0.548723,0.054662,-0.000264,0.022055,-0.013066,-0.028917,0.044612,-0.049582,8.199201,39.328960,-20.754898,-4.019289,0.649503,1.578475,-0.050492,0.000000,0.000000,0.000000,0.000000,0.000000,0.000000
12176111.000000,-2.415615,-1.662597,1.042418,-1.355918,1.795626,1.081106,-0.548820,0.066013,0.003778,0.031416,-0.022769,-0.036907,0.063356,-0.065758,9.659162,38.789410,-20.707291,-3.646364,0.679716,1.389877,-0.044083,0.000000,0.000000,0.000000,0.000000,0.000000,0.000000
12176112.000000,-2.415497,-1.662598,1.042461,-1.355968,1.795558,1.081214,-0.548937,0.079926,0.006185,0.037193,-0.028767,-0.047964,0.076992,-0.085350,10.896955,38.396648,-20.608109,-3.325014,0.715421,1.337692,-0.083451,0.000000,0.000000,0.000000,0.000000,0.000000,0.000000
12176113.000000,-2.415370,-1.662593,1.042518,-1.356028,1.795477,1.081345,-0.549084,0.090993,0.005582,0.043456,-0.038887,-0.062599,0.090320,-0.102059,12.063336,37.984051,-20.584305,-3.027467,0.679716,1.324874,-0.044083,0.000000,0.000000,0.000000,0.000000,0.000000,0.000000
12176114.000000,-2.415231,-1.662592,1.042580,-1.356093,1.795380,1.081493,-0.549232,0.106521,0.006031,0.049389,-0.050129,-0.076230,0.106075,-0.117328,13.027387,37.662701,-20.485123,-2.856874,0.578092,1.416427,-0.089860,0.000000,0.000000,0.000000,0.000000,0.000000,0.000000
12176115.000000,-2.415082,-1.662575,1.042662,-1.356182,1.795266,1.081660,-0.549399,0.119276,0.009922,0.060004,-0.060703,-0.092540,0.126690,-0.135661,13.943830,37.198528,-20.512894,-2.606935,0.506681,1.539108,-0.083451,0.000000,0.000000,0.000000,0.000000,0.000000,0.000000
12176116.000000,-2.414910,-1.662561,1.042758,-1.356282,1.795133,1.081859,-0.549579,0.137899,0.010404,0.072165,-0.072516,-0.103749,0.148624,-0.149637,14.562726,36.833538,-20.584305,-2.460146,0.410551,1.617843,-0.056901,0.000000,0.000000,0.000000,0.000000,0.000000,0.000000
12176117.000000,-2.414728,-1.662544,1.042875,-1.356393,1.794975,1.082091,-0.549761,0.150899,0.010494,0.085677,-0.087516,-0.120297,0.173157,-0.158472,15.181623,36.488384,-20.731094,-2.337160,0.398649,1.611434,-0.070634,0.000000,0.000000,0.000000,0.000000,0.000000,0.000000
12176118.000000,-2.414518,-1.662525,1.043004,-1.356529,1.794792,1.082356,-0.549950,0.171589,0.010464,0.099678,-0.102808,-0.138576,0.203340,-0.170829,15.578351,36.147198,-20.905655,-2.162599,0.416959,1.539108,-0.037675,0.000000,0.000000,0.000000,0.000000,0.000000,0.000000
12176119.000000,-2.414298,-1.662507,1.043141,-1.356680,1.794591,1.082649,-0.550140,0.188790,0.013770,0.111637,-0.122387,-0.161822,0.230774,-0.179046,15.871930,35.802044,-21.024673,-2.015810,0.446256,1.454879,-0.064225,0.000000,0.000000,0.000000,0.000000,0.000000,0.000000
12176120.000000,-2.414060,-1.662487,1.043298,-1.356847,1.794358,1.082954,-0.550327,0.203845,0.013038,0.125005,-0.137552,-0.186474,0.253943,-0.180281,16.145674,35.460857,-21.199234,-1.892824,0.542386,1.429244,-0.083451,0.000000,0.000000,0.000000,0.000000,0.000000,0.000000
12176121.000000,-2.413808,-1.662471,1.043462,-1.357029,1.794104,1.083292,-0.550516,0.228274,0.013462,0.136795,-0.152467,-0.210294,0.279198,-0.188804,16.320234,35.214886,-21.322220,-1.892824,0.554288,1.422836,-0.044083,0.000000,0.000000,0.000000,0.000000,0.000000,0.000000
12176122.000000,-2.413536,-1.662456,1.043629,-1.357224,1.793840,1.083643,-0.550694,0.239247,0.012785,0.147945,-0.164293,-0.228468,0.309416,-0.181092,16.443220,35.020489,-21.294449,-1.892824,0.559781,1.461288,-0.116410,0.000000,0.000000,0.000000,0.000000,0.000000,0.000000
12176123.000000,-2.413250,-1.662442,1.043813,-1.357429,1.793556,1.084010,-0.550887,0.253727,0.010847,0.157807,-0.174395,-0.246086,0.322697,-0.184126,16.542402,34.897503,-21.294449,-1.964235,0.542386,1.552840,-0.089860,0.000000,0.000000,0.000000,0.000000,0.000000,0.000000
12176124.000000,-2.412949,-1.662435,1.044003,-1.357658,1.793262,1.084406,-0.551076,0.272224,0.007930,0.167409,-0.191313,-0.261438,0.347065,-0.186887,16.590010,34.849895,-21.246841,-1.916628,0.458158,1.649886,-0.050492,0.000000,0.000000,0.000000,0.000000,0.000000,0.000000
12176125.000000,-2.412629,-1.662428,1.044204,-1.357906,1.792952,1.084820,-0.551257,0.288013,0.005532,0.175947,-0.209163,-0.282301,0.370630,-0.185338,16.641584,34.826092,-21.123856,-1.793642,0.356534,1.735030,-0.097184,0.000000,0.000000,0.000000,0.000000,0.000000,0.000000
12176126.000000,-2.412289,-1.662430,1.044415,-1.358175,1.792618,1.085268,-0.551440,0.312036,0.005480,0.187916,-0.228751,-0.295201,0.387043,-0.181565,16.518599,34.873699,-21.076248,-1.642885,0.320829,1.702071,-0.097184,0.000000,0.000000,0.000000,0.000000,0.000000,0.000000
12176127.000000,-2.411938,-1.662429,1.044633,-1.358457,1.792278,1.085745,-0.551624,0.322377,0.003183,0.194388,-0.247271,-0.313378,0.414847,-0.183998,16.518599,34.897503,-20.953262,-1.472292,0.303434,1.649886,-0.083451,0.000000,0.000000,0.000000,0.000000,0.000000,0.000000
12176128.000000,-2.411572,-1.662428,1.044865,-1.358755,1.791906,1.086238,-0.551806,0.332291,0.002187,0.210395,-0.261297,-0.331844,0.435752,-0.184958,16.518599,34.897503,-20.929459,-1.420717,0.351041,1.584884,-0.089860,0.000000,0.000000,0.000000,0.000000,0.000000,0.000000
12176129.000000,-2.411199,-1.662426,1.045107,-1.359061,1.791516,1.086759,-0.551990,0.345047,0.002063,0.219928,-0.274731,-0.349828,0.460145,-0.186656,16.590010,34.873699,-20.877884,-1.396913,0.398649,1.526290,-0.077042,0.000000,0.000000,0.000000,0.000000,0.000000,0.000000
12176130.000000,-2.410816,-1.662424,1.045366,-1.359372,1.791120,1.087301,-0.552167,0.354518,0.001969,0.228960,-0.290020,-0.363460,0.488997,-0.185324,16.788374,34.849895,-20.782669,-1.420717,0.452665,1.461288,-0.116410,0.000000,0.000000,0.000000,0.000000,0.000000,0.000000
12176131.000000,-2.410415,-1.662426,1.045623,-1.359705,1.790697,1.087861,-0.552347,0.367147,0.000783,0.238310,-0.300178,-0.383099,0.506665,-0.185554,16.939131,34.873699,-20.659683,-1.472292,0.530485,1.481429,-0.136552,0.000000,0.000000,0.000000,0.000000,0.000000,0.000000
12176132.000000,-2.410015,-1.662427,1.045888,-1.360044,1.790266,1.088453,-0.552535,0.375048,-0.000014,0.248136,-0.308847,-0.394225,0.525342,-0.182613,17.137495,34.897503,-20.512894,-1.519899,0.494779,1.494247,-0.083451,0.000000,0.000000,0.000000,0.000000,0.000000,0.000000
12176133.000000,-2.409593,-1.662426,1.046179,-1.360417,1.789836,1.089045,-0.552715,0.383536,0.000563,0.258635,-0.326445,-0.402005,0.545330,-0.178728,17.335859,34.873699,-20.485123,-1.373109,0.440763,1.481429,-0.103593,0.000000,0.000000,0.000000,0.000000,0.000000,0.000000
12176134.000000,-2.409163,-1.662420,1.046466,-1.360799,1.789375,1.089667,-0.552885,0.397113,0.002150,0.268743,-0.342026,-0.421805,0.568946,-0.170900,17.530256,34.798321,-20.437515,-1.250124,0.405057,1.454879,-0.130143,0.000000,0.000000,0.000000,0.000000,0.000000,0.000000
12176135.000000,-2.408710,-1.662420,1.046771,-1.361196,1.788908,1.090300,-0.553061,0.414055,0.000792,0.279432,-0.362059,-0.433052,0.593759,-0.170621,17.704817,34.826092,-20.413712,-1.027956,0.362943,1.383468,-0.097184,0.000000,0.000000,0.000000,0.000000,0.000000,0.000000
12176136.000000,-2.408252,-1.662415,1.047075,-1.361607,1.788426,1.090958,-0.553233,0.426698,0.004342,0.289181,-0.375572,-0.447369,0.610450,-0.173818,18.002363,34.798321,-20.290726,-0.805788,0.356534,1.357833,-0.103593,0.000000,0.000000,0.000000,0.000000,0.000000,0.000000
12176137.000000,-2.407782,-1.662409,1.047403,-1.362037,1.787920,1.091630,-0.553401,0.442671,0.007998,0.298603,-0.401620,-0.459860,0.632297,-0.172321,18.323713,34.726910,-20.389908,-0.508241,0.410551,1.331283,-0.116410,0.000000,0.000000,0.000000,0.000000,0.000000,0.000000
12176138.000000,-2.407296,-1.662399,1.047729,-1.362471,1.787417,1.092317,-0.553572,0.450224,0.010073,0.308357,-0.407995,-0.471203,0.649193,-0.172615,18.347517,34.679302,-20.215347,-0.456667,0.506681,1.299239,-0.089860,0.000000,0.000000,0.000000,0.000000,0.000000,0.000000
12176139.000000,-2.406811,-1.662384,1.048068,-1.362934,1.786893,1.093035,-0.553733,0.458650,0.013349,0.322178,-0.426610,-0.484595,0.669232,-0.170266,17.704817,34.556316,-20.044754,-0.484438,0.637601,1.285506,-0.122819,0.000000,0.000000,0.000000,0.000000,0.000000,0.000000
12176140.000000,-2.406335,-1.662375,1.048433,-1.363403,1.786374,1.093750,-0.553902,0.456850,0.011384,0.337356,-0.445329,-0.501492,0.692974,-0.169694,16.467024,34.480938,-19.699600,-0.754213,0.763029,1.344100,-0.136552,0.000000,0.000000,0.000000,0.000000,0.000000,0.000000
12176141.000000,-2.405853,-1.662353,1.048820,-1.363886,1.785845,1.094500,-0.554067,0.460483,0.009878,0.356462,-0.452196,-0.510093,0.710052,-0.170912,14.661908,34.139751,-19.235428,-1.321535,0.840848,1.422836,-0.110001,0.000000,0.000000,0.000000,0.000000,0.000000,0.000000
12176142.000000,-2.405390,-1.662341,1.049238,-1.364394,1.785321,1.095271,-0.554219,0.466581,0.008768,0.375128,-0.467085,-0.506708,0.728937,-0.168275,12.729840,33.770794,-18.644302,-1.694460,0.774930,1.448470,-0.175919,0.000000,0.000000,0.000000,0.000000,0.000000,0.000000
12176143.000000,-2.404935,-1.662330,1.049677,-1.364885,1.784825,1.096042,-0.554384,0.466387,0.012236,0.394129,-0.474145,-0.501024,0.737676,-0.164774,10.896955,33.330425,-17.981766,-2.237978,0.620206,1.396285,-0.149369,0.000000,0.000000,0.000000,0.000000,0.000000,0.000000
12176144.000000,-2.404478,-1.662326,1.050145,-1.365397,1.784326,1.096828,-0.554548,0.473779,0.009682,0.414351,-0.477827,-0.493867,0.744125,-0.161894,9.163251,32.965435,-17.418411,-2.583132,0.386747,1.285506,-0.136552,0.000000,0.000000,0.000000,0.000000,0.000000,0.000000
12176145.000000,-2.404035,-1.662323,1.050638,-1.365897,1.783844,1.097617,-0.554711,0.468666,0.006664,0.435164,-0.484928,-0.492221,0.751435,-0.159354,7.679487,32.644085,-16.878860,-2.904482,0.159696,1.136276,-0.130143,0.000000,0.000000,0.000000,0.000000,0.000000,0.000000
12176146.000000,-2.403585,-1.662329,1.051125,-1.366397,1.783348,1.098401,-0.554883,0.460781,0.001903,0.460326,-0.484994,-0.493885,0.757359,-0.164046,6.366315,32.425884,-16.287735,-3.178224,0.046171,0.966903,-0.077042,0.000000,0.000000,0.000000,0.000000,0.000000,0.000000
12176147.000000,-2.403136,-1.662336,1.051627,-1.366892,1.782857,1.099188,-0.555045,0.461109,-0.002023,0.469520,-0.484186,-0.486787,0.764432,-0.164562,5.227705,32.231487,-15.676773,-3.475771,-0.019747,0.811263,-0.103593,0.000000,0.000000,0.000000,0.000000,0.000000,0.000000
12176148.000000,-2.402684,-1.662341,1.052136,-1.367365,1.782371,1.099947,-0.555208,0.458366,-0.004714,0.479514,-0.483779,-0.483402,0.759688,-0.165449,4.239851,32.033123,-15.085648,-3.769350,0.093778,0.836898,-0.103593,0.000000,0.000000,0.000000,0.000000,0.000000,0.000000
12176149.000000,-2.402234,-1.662352,1.052624,-1.367834,1.781874,1.100709,-0.555366,0.455822,-0.005312,0.480319,-0.474481,-0.485656,0.759341,-0.169453,3.446393,31.910137,-14.446915,-4.142274,0.243009,0.922042,-0.116410,0.000000,0.000000,0.000000,0.000000,0.000000,0.000000
12176150.000000,-2.401788,-1.662363,1.053128,-1.368304,1.781389,1.101476,-0.555523,0.457448,-0.008193,0.485348,-0.482445,-0.480017,0.760238,-0.168848,2.752119,31.763348,-13.883560,-4.312868,0.320829,0.960494,-0.136552,0.000000,0.000000,0.000000,0.000000,0.000000,0.000000
12176151.000000,-2.401328,-1.662371,1.053630,-1.368767,1.780911,1.102236,-0.555685,0.456207,-0.009544,0.486938,-0.473568,-0.485529,0.760086,-0.169450,2.061811,31.592754,-13.344009,-4.439821,0.405057,0.922042,-0.130143,0.000000,0.000000,0.000000,0.000000,0.000000,0.000000
12176152.000000,-2.400867,-1.662376,1.054131,-1.369259,1.780433,1.102999,-0.555843,0.456211,-0.010500,0.494630,-0.475728,-0.480221,0.752196,-0.163984,1.391340,31.422161,-12.951248,-4.166078,0.393156,0.922042,-0.142960,0.000000,0.000000,0.000000,0.000000,0.000000,0.000000
12176153.000000,-2.400390,-1.662381,1.054637,-1.369739,1.779982,1.103746,-0.556000,0.461935,-0.007521,0.494319,-0.478281,-0.469002,0.748925,-0.160060,0.673261,31.227764,-12.510880,-3.820925,0.285123,0.895492,-0.155778,0.000000,0.000000,0.000000,0.000000,0.000000,0.000000
12176154.000000,-2.399913,-1.662377,1.055152,-1.370233,1.779512,1.104505,-0.556163,0.462270,-0.002880,0.505830,-0.483321,-0.467491,0.750344,-0.164083,0.078168,30.934185,-12.241104,-3.400392,0.219205,0.895492,-0.089860,0.000000,0.000000,0.000000,0.000000,0.000000,0.000000
12176155.000000,-2.399442,-1.662373,1.055673,-1.370704,1.779060,1.105269,-0.556321,0.465108,0.000250,0.509239,-0.490725,-0.458951,0.759903,-0.164844,-0.465350,30.640606,-12.018936,-3.126650,0.093778,0.901900,-0.103593,0.000000,0.000000,0.000000,0.000000,0.000000,0.000000
12176156.000000,-2.398974,-1.662364,1.056201,-1.371173,1.778616,1.106020,-0.556472,0.460733,0.002556,0.512899,-0.486093,-0.456476,0.754410,-0.158408,-0.885882,30.343060,-11.749161,-2.979860,0.046171,0.889083,-0.149369,0.000000,0.000000,0.000000,0.000000,0.000000,0.000000
12176157.000000,-2.398508,-1.662347,1.056737,-1.371634,1.778155,1.106771,-0.556621,0.470094,0.006342,0.525360,-0.481132,-0.451183,0.749108,-0.152576,-1.231036,29.954266,-11.626175,-3.027467,0.058073,0.980636,-0.136552,0.000000,0.000000,0.000000,0.000000,0.000000,0.000000
12176158.000000,-2.398049,-1.662327,1.057276,-1.372077,1.777708,1.107531,-0.556777,0.462275,0.012166,0.529107,-0.466585,-0.456214,0.761879,-0.152332,-1.354022,29.561504,-11.455582,-3.178224,0.112089,1.058456,-0.130143,0.000000,0.000000,0.000000,0.000000,0.000000,0.000000
12176159.000000,-2.397571,-1.662312,1.057825,-1.372523,1.777253,1.108284,-0.556929,0.463640,0.011863,0.537631,-0.458067,-0.454684,0.754517,-0.150468,-1.627764,29.220318,-11.356400,-3.348818,0.213712,1.071273,-0.175919,0.000000,0.000000,0.000000,0.000000,0.000000,0.000000
12176160.000000,-2.397105,-1.662293,1.058386,-1.372967,1.776796,1.109044,-0.557087,0.467745,0.012398,0.548328,-0.450797,-0.451906,0.758387,-0.151994,-1.873736,28.851360,-11.185806,-3.475771,0.285123,1.071273,-0.142960,0.000000,0.000000,0.000000,0.000000,0.000000,0.000000
12176161.000000,-2.396619,-1.662274,1.058954,-1.373406,1.776357,1.109793,-0.557241,0.469492,0.015250,0.550537,-0.444982,-0.449064,0.755089,-0.151489,-2.222857,28.510174,-11.062820,-3.622560,0.339139,1.006271,-0.142960,0.000000,0.000000,0.000000,0.000000,0.000000,0.000000
12176162.000000,-2.396129,-1.662262,1.059529,-1.373847,1.775910,1.110568,-0.557395,0.478957,0.014059,0.556081,-0.440304,-0.447977,0.754483,-0.151601,-2.619586,28.311810,-10.963638,-3.622560,0.320829,0.863448,-0.136552,0.000000,0.000000,0.000000,0.000000,0.000000,0.000000
12176163.000000,-2.395639,-1.662246,1.060124,-1.374290,1.775476,1.111330,-0.557553,0.483563,0.013359,0.567152,-0.441775,-0.440151,0.756530,-0.156602,-3.063921,28.117413,-10.939835,-3.570986,0.213712,0.798446,-0.122819,0.000000,0.000000,0.000000,0.000000,0.000000,0.000000
12176164.000000,-2.395144,-1.662242,1.060716,-1.374728,1.775056,1.112078,-0.557706,0.486104,0.009043,0.576110,-0.444008,-0.434462,0.754984,-0.154666,-3.508257,28.093609,-10.765274,-3.598757,0.093778,0.785628,-0.136552,0.000000,0.000000,0.000000,0.000000,0.000000,0.000000
12176165.000000,-2.394658,-1.662238,1.061313,-1.375171,1.774630,1.112830,-0.557856,0.483741,0.008431,0.584088,-0.437804,-0.429106,0.745481,-0.154873,-3.857378,28.117413,-10.646255,-3.570986,-0.049044,0.863448,-0.110001,0.000000,0.000000,0.000000,0.000000,0.000000,0.000000
12176166.000000,-2.394158,-1.662235,1.061926,-1.375597,1.774211,1.113554,-0.558006,0.487985,0.005657,0.587676,-0.434514,-0.427846,0.737943,-0.152757,-4.202532,28.117413,-10.570877,-3.598757,-0.133273,0.999862,-0.130143,0.000000,0.000000,0.000000,0.000000,0.000000,0.000000
12176167.000000,-2.393658,-1.662228,1.062544,-1.376021,1.773786,1.114294,-0.558154,0.492364,0.004912,0.600268,-0.426481,-0.425364,0.737424,-0.151942,-4.575457,28.069805,-10.495499,-3.697939,-0.126864,1.129867,-0.142960,0.000000,0.000000,0.000000,0.000000,0.000000,0.000000
12176168.000000,-2.393153,-1.662230,1.063182,-1.376438,1.773341,1.115047,-0.558310,0.496891,0.005357,0.614007,-0.437734,-0.431006,0.740746,-0.152418,-5.019793,28.117413,-10.495499,-3.797121,-0.043551,1.162826,-0.110001,0.000000,0.000000,0.000000,0.000000,0.000000,0.000000
12176169.000000,-2.392645,-1.662231,1.063821,-1.376861,1.772901,1.115780,-0.558457,0.496382,0.002738,0.618172,-0.433441,-0.433011,0.739512,-0.150269,-5.364947,28.165020,-10.471695,-3.892336,0.112089,1.175643,-0.155778,0.000000,0.000000,0.000000,0.000000,0.000000,0.000000
12176170.000000,-2.392145,-1.662234,1.064474,-1.377289,1.772470,1.116528,-0.558609,0.495279,0.001386,0.630390,-0.429222,-0.431044,0.734104,-0.156795,-5.737872,28.192791,-10.570877,-3.892336,0.219205,1.136276,-0.116410,0.000000,0.000000,0.000000,0.000000,0.000000,0.000000
12176171.000000,-2.391638,-1.662243,1.065145,-1.377711,1.772038,1.117264,-0.558755,0.496028,-0.001703,0.638755,-0.426678,-0.428185,0.739872,-0.147917,-6.059222,28.311810,-10.741470,-3.868532,0.261320,1.110641,-0.155778,0.000000,0.000000,0.000000,0.000000,0.000000,0.000000
12176172.000000,-2.391132,-1.662250,1.065812,-1.378129,1.771610,1.118019,-0.558905,0.494701,-0.003337,0.647866,-0.424044,-0.423798,0.739069,-0.145414,-6.305193,28.410992,-10.840652,-3.967714,0.243009,1.090499,-0.122819,0.000000,0.000000,0.000000,0.000000,0.000000,0.000000
12176173.000000,-2.390633,-1.662264,1.066498,-1.378537,1.771190,1.118773,-0.559050,0.496470,-0.006683,0.662763,-0.416555,-0.423090,0.744242,-0.141007,-6.503558,28.605389,-10.864456,-4.066896,0.171598,1.052047,-0.149369,0.000000,0.000000,0.000000,0.000000,0.000000,0.000000
12176174.000000,-2.390134,-1.662276,1.067194,-1.378947,1.770777,1.119513,-0.559196,0.497806,-0.007823,0.672914,-0.417111,-0.418615,0.736649,-0.143617,-6.654315,28.752178,-10.840652,-4.166078,0.100187,1.071273,-0.142960,0.000000,0.000000,0.000000,0.000000,0.000000,0.000000
12176175.000000,-2.389642,-1.662291,1.067887,-1.379354,1.770363,1.120255,-0.559348,0.504062,-0.009806,0.675955,-0.411043,-0.411319,0.731438,-0.146554,-6.777300,28.950542,-10.765274,-4.265260,0.064481,1.155502,-0.103593,0.000000,0.000000,0.000000,0.000000,0.000000,0.000000
12176176.000000,-2.389133,-1.662303,1.068593,-1.379763,1.769961,1.120996,-0.559491,0.501939,-0.012991,0.682288,-0.412099,-0.416526,0.745530,-0.141111,-7.023272,29.097332,-10.670059,-4.289064,-0.013339,1.201278,-0.149369,0.000000,0.000000,0.000000,0.000000,0.000000,0.000000
12176177.000000,-2.388625,-1.662316,1.069300,-1.380174,1.769538,1.121744,-0.559641,0.499419,-0.016166,0.690463,-0.407722,-0.419010,0.746151,-0.144276,-7.245440,29.267925,-10.495499,-4.241457,0.058073,1.117049,-0.136552,0.000000,0.000000,0.000000,0.000000,0.000000,0.000000
12176178.000000,-2.388125,-1.662327,1.070010,-1.380583,1.769115,1.122501,-0.559790,0.500107,-0.014098,0.691795,-0.405788,-0.420277,0.750211,-0.147273,-7.420001,29.390911,-10.225723,-4.265260,0.112089,1.025497,-0.103593,0.000000,0.000000,0.000000,0.000000,0.000000,0.000000
12176179.000000,-2.387609,-1.662337,1.070736,-1.380988,1.768701,1.123236,-0.559931,0.506091,-0.011402,0.698619,-0.408168,-0.421204,0.742953,-0.145536,-7.717547,29.462322,-9.932144,-4.265260,0.171598,0.974227,-0.163102,0.000000,0.000000,0.000000,0.000000,0.000000,0.000000
12176180.000000,-2.387102,-1.662336,1.071467,-1.381395,1.768281,1.123973,-0.560074,0.502046,-0.006181,0.707168,-0.407214,-0.418858,0.738550,-0.142807,-7.915911,29.390911,-9.761551,-4.340639,0.178007,1.006271,-0.149369,0.000000,0.000000,0.000000,0.000000,0.000000,0.000000
12176181.000000,-2.386604,-1.662343,1.072205,-1.381790,1.767870,1.124721,-0.560223,0.501486,-0.005422,0.714288,-0.403417,-0.417307,0.742404,-0.141892,-8.062701,29.438519,-9.440201,-4.463624,0.166105,1.019088,-0.103593,0.000000,0.000000,0.000000,0.000000,0.000000,0.000000
12176182.000000,-2.386100,-1.662346,1.072953,-1.382192,1.767461,1.125468,-0.560356,0.500021,-0.003755,0.723940,-0.402582,-0.415725,0.741930,-0.136883,-8.213458,29.438519,-9.099014,-4.511232,0.141385,0.966903,-0.169511,0.000000,0.000000,0.000000,0.000000,0.000000,0.000000
12176183.000000,-2.385603,-1.662345,1.073710,-1.382587,1.767053,1.126211,-0.560497,0.502498,-0.000381,0.737285,-0.396949,-0.408001,0.740950,-0.141153,-8.336444,29.343304,-8.999832,-4.634218,0.076383,1.025497,-0.155778,0.000000,0.000000,0.000000,0.000000,0.000000,0.000000
12176184.000000,-2.385109,-1.662335,1.074488,-1.382973,1.766663,1.126949,-0.560642,0.499626,0.004307,0.746985,-0.395328,-0.401591,0.733610,-0.145427,-8.388019,29.144939,-8.924454,-4.784975,-0.025240,1.058456,-0.103593,0.000000,0.000000,0.000000,0.000000,0.000000,0.000000
12176185.000000,-2.384607,-1.662330,1.075267,-1.383362,1.766265,1.127721,-0.560773,0.499909,0.003089,0.763189,-0.389625,-0.404086,0.738368,-0.143404,-8.534808,28.998150,-8.924454,-4.832582,-0.055453,0.941268,-0.169511,0.000000,0.000000,0.000000,0.000000,0.000000,0.000000
12176186.000000,-2.384124,-1.662324,1.076063,-1.383741,1.765859,1.128488,-0.560915,0.493797,0.005185,0.771680,-0.394779,-0.402647,0.746185,-0.146299,-8.459430,28.851360,-8.829239,-4.931764,-0.049044,0.824081,-0.149369,0.000000,0.000000,0.000000,0.000000,0.000000,0.000000
12176187.000000,-2.383641,-1.662311,1.076881,-1.384122,1.765469,1.129244,-0.561063,0.487193,0.007774,0.784759,-0.389336,-0.400778,0.747884,-0.144932,-8.411822,28.656963,-8.876846,-5.007143,-0.060946,0.804855,-0.089860,0.000000,0.000000,0.000000,0.000000,0.000000,0.000000
12176188.000000,-2.383152,-1.662297,1.077699,-1.384504,1.765077,1.129993,-0.561199,0.492134,0.008443,0.793069,-0.387338,-0.394333,0.743356,-0.147683,-8.459430,28.510174,-8.999832,-5.106325,-0.067355,0.895492,-0.130143,0.000000,0.000000,0.000000,0.000000,0.000000,0.000000
12176189.000000,-2.382670,-1.662286,1.078527,-1.384879,1.764690,1.130728,-0.561336,0.494490,0.013222,0.799132,-0.382635,-0.395293,0.739032,-0.142932,-8.288836,28.581585,-9.317215,-5.229311,-0.055453,0.954086,-0.149369,0.000000,0.000000,0.000000,0.000000,0.000000,0.000000
12176190.000000,-2.382189,-1.662279,1.079334,-1.385253,1.764300,1.131490,-0.561472,0.486364,0.013395,0.795311,-0.379291,-0.387042,0.746571,-0.140241,-7.991290,28.950542,-9.785355,-5.304689,-0.037142,0.980636,-0.149369,0.000000,0.000000,0.000000,0.000000,0.000000,0.000000
12176191.000000,-2.381714,-1.662277,1.080141,-1.385622,1.763925,1.132258,-0.561614,0.482532,0.009494,0.793644,-0.383499,-0.384006,0.751342,-0.144107,-7.618365,29.660686,-10.594681,-5.427675,-0.037142,1.025497,-0.116410,0.000000,0.000000,0.000000,0.000000,0.000000,0.000000
12176192.000000,-2.381227,-1.662263,1.080944,-1.386005,1.763544,1.133004,-0.561750,0.480940,0.008677,0.791013,-0.380535,-0.383287,0.743883,-0.144408,-7.197833,30.343060,-11.526993,-5.376100,-0.013339,1.123458,-0.142960,0.000000,0.000000,0.000000,0.000000,0.000000,0.000000
12176193.000000,-2.380745,-1.662252,1.081720,-1.386397,1.763163,1.133765,-0.561892,0.483565,0.010715,0.787907,-0.382952,-0.379552,0.745326,-0.141625,-6.753497,31.199993,-12.459305,-5.229311,0.069974,1.253463,-0.136552,0.000000,0.000000,0.000000,0.000000,0.000000,0.000000
12176194.000000,-2.380261,-1.662232,1.082500,-1.386790,1.762795,1.134533,-0.562037,0.482067,0.011768,0.785382,-0.385183,-0.383501,0.764866,-0.139850,-6.257586,31.985516,-13.344009,-4.931764,0.135892,1.331283,-0.122819,0.000000,0.000000,0.000000,0.000000,0.000000,0.000000
12176195.000000,-2.379765,-1.662211,1.083274,-1.387185,1.762413,1.135293,-0.562179,0.480881,0.010680,0.782949,-0.386705,-0.383526,0.761303,-0.137445,-5.912432,32.743267,-14.276321,-4.757204,0.195402,1.364242,-0.136552,0.000000,0.000000,0.000000,0.000000,0.000000,0.000000
12176196.000000,-2.379287,-1.662176,1.084061,-1.387581,1.762027,1.136049,-0.562321,0.478137,0.016185,0.783892,-0.388758,-0.382903,0.755985,-0.140243,-5.464129,33.235210,-15.085648,-4.535036,0.237516,1.429244,-0.155778,0.000000,0.000000,0.000000,0.000000,0.000000,0.000000
12176197.000000,-2.378795,-1.662152,1.084859,-1.387974,1.761652,1.136794,-0.562467,0.480110,0.019053,0.786050,-0.391562,-0.380909,0.749047,-0.143450,-5.218157,33.770794,-15.823563,-4.388246,0.231107,1.494247,-0.136552,0.000000,0.000000,0.000000,0.000000,0.000000,0.000000
12176198.000000,-2.378315,-1.662124,1.085648,-1.388365,1.761257,1.137555,-0.562600,0.478863,0.019872,0.794498,-0.387862,-0.383091,0.748250,-0.134371,-4.821429,34.211163,-16.438492,-4.312868,0.327238,1.539108,-0.175919,0.000000,0.000000,0.000000,0.000000,0.000000,0.000000
12176199.000000,-2.377840,-1.662101,1.086454,-1.388752,1.760862,1.138298,-0.562741,0.476521,0.019302,0.798226,-0.391846,-0.382779,0.746051,-0.134634,-4.523882,34.679302,-16.978043,-4.265260,0.369352,1.656295,-0.155778,0.000000,0.000000,0.000000,0.000000,0.000000,0.000000
12176200.000000,-2.377368,-1.662072,1.087273,-1.389139,1.760475,1.139034,-0.562879,0.474334,0.018880,0.802988,-0.392274,-0.381604,0.739624,-0.134135,-4.250140,35.020489,-17.541397,-4.340639,0.381254,1.767074,-0.155778,0.000000,0.000000,0.000000,0.000000,0.000000,0.000000
12176201.000000,-2.376900,-1.662056,1.088097,-1.389533,1.760084,1.139787,-0.563018,0.473698,0.015866,0.807972,-0.393274,-0.380325,0.736989,-0.139371,-3.980364,35.460857,-18.128555,-4.388246,0.410551,1.773483,-0.130143,0.000000,0.000000,0.000000,0.000000,0.000000,0.000000
12176202.000000,-2.376418,-1.662040,1.088933,-1.389904,1.759702,1.140530,-0.563158,0.474449,0.015302,0.816668,-0.386019,-0.377576,0.736062,-0.136764,-3.881182,35.829815,-18.719681,-4.661989,0.362943,1.662704,-0.142960,0.000000,0.000000,0.000000,0.000000,0.000000,0.000000
12176203.000000,-2.375947,-1.662041,1.089766,-1.390284,1.759317,1.141291,-0.563289,0.471415,0.008187,0.821855,-0.385296,-0.376415,0.744450,-0.133982,-3.659014,36.341595,-19.183853,-4.856386,0.332731,1.552840,-0.188737,0.000000,0.000000,0.000000,0.000000,0.000000,0.000000
12176204.000000,-2.375481,-1.662050,1.090613,-1.390650,1.758936,1.142030,-0.563432,0.468938,0.001937,0.825089,-0.387210,-0.375754,0.744580,-0.140466,-3.559832,36.904949,-19.651993,-5.153932,0.297025,1.605026,-0.116410,0.000000,0.000000,0.000000,0.000000,0.000000,0.000000
12176205.000000,-2.375010,-1.662069,1.091468,-1.391022,1.758541,1.142748,-0.563565,0.468431,-0.004301,0.829415,-0.383168,-0.382665,0.729514,-0.136464,-3.436846,37.539715,-20.044754,-5.399904,0.339139,1.689254,-0.163102,0.000000,0.000000,0.000000,0.000000,0.000000,0.000000
12176206.000000,-2.374544,-1.662093,1.092304,-1.391397,1.758155,1.143476,-0.563698,0.461722,-0.011316,0.830498,-0.379177,-0.381488,0.726260,-0.135887,-3.361468,38.154644,-20.314529,-5.550661,0.362943,1.779891,-0.155778,0.000000,0.000000,0.000000,0.000000,0.000000,0.000000
12176207.000000,-2.374077,-1.662124,1.093142,-1.391749,1.757777,1.144198,-0.563835,0.461069,-0.015757,0.824940,-0.370319,-0.377507,0.733097,-0.135110,-3.286089,38.741802,-20.389908,-5.820436,0.410551,1.812850,-0.122819,0.000000,0.000000,0.000000,0.000000,0.000000,0.000000
12176208.000000,-2.373597,-1.662163,1.093975,-1.392105,1.757387,1.144940,-0.563957,0.467636,-0.023323,0.825610,-0.363734,-0.383025,0.733942,-0.131338,-3.361468,39.376568,-20.560501,-6.070375,0.434354,1.800033,-0.202470,0.000000,0.000000,0.000000,0.000000,0.000000,0.000000
12176209.000000,-2.373122,-1.662195,1.094811,-1.392456,1.756997,1.145678,-0.564093,0.470401,-0.025534,0.824776,-0.359863,-0.383335,0.738634,-0.133671,-3.508257,39.868511,-20.560501,-6.292543,0.482877,1.806442,-0.149369,0.000000,0.000000,0.000000,0.000000,0.000000,0.000000
12176210.000000,-2.372642,-1.662236,1.095651,-1.392806,1.756626,1.146401,-0.564221,0.471635,-0.028966,0.826581,-0.354223,-0.377373,0.735824,-0.132777,-3.706622,40.427898,-20.608109,-6.490907,0.488370,1.858627,-0.155778,0.000000,0.000000,0.000000,0.000000,0.000000,0.000000
12176211.000000,-2.372158,-1.662274,1.096469,-1.393161,1.756246,1.147140,-0.564349,0.481449,-0.029405,0.823664,-0.350755,-0.375144,0.733658,-0.134305,-3.956561,40.896038,-20.461319,-6.514711,0.458158,1.884261,-0.202470,0.000000,0.000000,0.000000,0.000000,0.000000,0.000000
12176212.000000,-2.371687,-1.662307,1.097304,-1.393501,1.755873,1.147868,-0.564487,0.475845,-0.030669,0.826462,-0.347187,-0.382588,0.736612,-0.136377,-4.079546,41.261028,-20.437515,-6.713075,0.452665,1.838485,-0.136552,0.000000,0.000000,0.000000,0.000000,0.000000,0.000000
12176213.000000,-2.371201,-1.662343,1.098133,-1.393846,1.755506,1.148614,-0.564613,0.477813,-0.031356,0.847041,-0.345204,-0.375592,0.738466,-0.134170,-4.325518,41.606182,-20.413712,-6.883668,0.428861,1.779891,-0.169511,0.000000,0.000000,0.000000,0.000000,0.000000,0.000000
12176214.000000,-2.370725,-1.662370,1.098969,-1.394178,1.755152,1.149365,-0.564749,0.478406,-0.029260,0.848937,-0.340487,-0.367276,0.744061,-0.135022,-4.523882,41.824383,-20.389908,-7.205019,0.315336,1.702071,-0.136552,0.000000,0.000000,0.000000,0.000000,0.000000,0.000000
12176215.000000,-2.370244,-1.662400,1.099810,-1.394511,1.754783,1.150096,-0.564881,0.477373,-0.029319,0.847097,-0.338952,-0.366424,0.739486,-0.134128,-4.698443,42.094158,-20.389908,-7.454957,0.344633,1.630660,-0.130143,0.000000,0.000000,0.000000,0.000000,0.000000,0.000000
12176216.000000,-2.369754,-1.662423,1.100640,-1.394841,1.754421,1.150833,-0.565001,0.480300,-0.027750,0.846928,-0.331333,-0.363344,0.737320,-0.126650,-4.995989,42.288555,-20.413712,-7.677125,0.327238,1.630660,-0.188737,0.000000,0.000000,0.000000,0.000000,0.000000,0.000000
12176217.000000,-2.369281,-1.662451,1.101481,-1.395159,1.754066,1.151567,-0.565131,0.479759,-0.030025,0.846127,-0.327759,-0.361034,0.729206,-0.129908,-5.194354,42.486919,-20.485123,-7.970705,0.297025,1.714889,-0.142960,0.000000,0.000000,0.000000,0.000000,0.000000,0.000000
12176218.000000,-2.368803,-1.662470,1.102320,-1.395484,1.753708,1.152291,-0.565255,0.474969,-0.025308,0.846062,-0.324449,-0.364770,0.727906,-0.125271,-5.392718,42.534527,-20.512894,-8.169069,0.285123,1.773483,-0.155778,0.000000,0.000000,0.000000,0.000000,0.000000,0.000000
12176219.000000,-2.368328,-1.662494,1.103153,-1.395804,1.753347,1.153025,-0.565377,0.473145,-0.026952,0.840763,-0.321804,-0.363591,0.727908,-0.126188,-5.614886,42.657513,-20.608109,-8.367434,0.303434,1.767074,-0.175919,0.000000,0.000000,0.000000,0.000000,0.000000,0.000000
12176220.000000,-2.367845,-1.662515,1.103993,-1.396115,1.753001,1.153757,-0.565506,0.474515,-0.023970,0.841883,-0.319560,-0.358365,0.725561,-0.124274,-5.813250,42.728924,-20.659683,-8.565798,0.327238,1.747848,-0.136552,0.000000,0.000000,0.000000,0.000000,0.000000,0.000000
12176221.000000,-2.367361,-1.662533,1.104832,-1.396420,1.752647,1.154484,-0.565623,0.476775,-0.020478,0.844436,-0.314338,-0.359298,0.720412,-0.123879,-6.059222,42.728924,-20.877884,-8.764162,0.351041,1.819259,-0.175919,0.000000,0.000000,0.000000,0.000000,0.000000,0.000000
12176222.000000,-2.366886,-1.662554,1.105671,-1.396727,1.752300,1.155208,-0.565750,0.482802,-0.021851,0.844923,-0.319049,-0.352038,0.718150,-0.122546,-6.233782,42.756695,-20.929459,-8.934755,0.291532,1.851302,-0.142960,0.000000,0.000000,0.000000,0.000000,0.000000,0.000000
12176223.000000,-2.366410,-1.662576,1.106515,-1.397027,1.751957,1.155935,-0.565872,0.478437,-0.023453,0.844111,-0.309880,-0.348505,0.722193,-0.125042,-6.332964,42.804302,-21.100052,-9.184694,0.279630,1.865035,-0.136552,0.000000,0.000000,0.000000,0.000000,0.000000,0.000000
12176224.000000,-2.365953,-1.662602,1.107349,-1.397327,1.751615,1.156666,-0.565990,0.470249,-0.025818,0.844643,-0.306544,-0.345114,0.723663,-0.120053,-6.305193,42.903484,-21.294449,-9.430666,0.255826,1.871444,-0.182328,0.000000,0.000000,0.000000,0.000000,0.000000,0.000000
12176225.000000,-2.365490,-1.662620,1.108186,-1.397621,1.751278,1.157380,-0.566119,0.461302,-0.024753,0.837095,-0.304754,-0.345194,0.734414,-0.124487,-6.281390,42.875713,-21.369827,-9.652834,0.154203,1.930038,-0.142960,0.000000,0.000000,0.000000,0.000000,0.000000,0.000000
12176226.000000,-2.365024,-1.662641,1.109019,-1.397914,1.750936,1.158109,-0.566242,0.458638,-0.025440,0.842422,-0.299678,-0.343599,0.734139,-0.122157,-6.257586,42.903484,-21.540421,-9.875002,0.141385,1.930038,-0.130143,0.000000,0.000000,0.000000,0.000000,0.000000,0.000000
12176227.000000,-2.364583,-1.662660,1.109853,-1.398205,1.750608,1.158841,-0.566353,0.447787,-0.021386,0.836418,-0.300178,-0.340894,0.730318,-0.117935,-6.011614,42.875713,-21.568192,-10.196352,0.081876,1.897079,-0.182328,0.000000,0.000000,0.000000,0.000000,0.000000,0.000000
12176228.000000,-2.364141,-1.662678,1.110697,-1.398488,1.750284,1.159565,-0.566475,0.442846,-0.021732,0.839765,-0.295144,-0.338418,0.726081,-0.116912,-5.761675,42.851910,-21.663406,-10.493898,0.010465,1.909896,-0.155778,0.000000,0.000000,0.000000,0.000000,0.000000,0.000000
12176229.000000,-2.363697,-1.662699,1.111514,-1.398779,1.749947,1.160285,-0.566591,0.446188,-0.020644,0.832086,-0.292477,-0.332548,0.720904,-0.115942,-5.563311,42.903484,-21.591995,-10.716066,-0.025240,1.949264,-0.155778,0.000000,0.000000,0.000000,0.000000,0.000000,0.000000
12176230.000000,-2.363274,-1.662711,1.112357,-1.399068,1.749611,1.161025,-0.566722,0.439998,-0.016156,0.831068,-0.287219,-0.338861,0.736222,-0.117172,-5.194354,42.804302,-21.639603,-10.839052,0.015958,1.897079,-0.103593,0.000000,0.000000,0.000000,0.000000,0.000000,0.000000
12176231.000000,-2.362843,-1.662728,1.113186,-1.399363,1.749290,1.161755,-0.566840,0.434690,-0.018037,0.844283,-0.287104,-0.333532,0.733260,-0.118315,-4.944415,42.780499,-21.738785,-10.914431,-0.007845,1.838485,-0.169511,0.000000,0.000000,0.000000,0.000000,0.000000,0.000000
12176232.000000,-2.362426,-1.662743,1.114030,-1.399659,1.748955,1.162481,-0.566960,0.431308,-0.016130,0.843302,-0.292033,-0.333705,0.725248,-0.122433,-4.674639,42.756695,-21.837967,-10.914431,-0.043551,1.760665,-0.155778,0.000000,0.000000,0.000000,0.000000,0.000000,0.000000
12176233.000000,-2.362010,-1.662756,1.114879,-1.399960,1.748623,1.163208,-0.567089,0.426153,-0.011579,0.840099,-0.294794,-0.331474,0.723335,-0.122375,-4.325518,42.728924,-22.032364,-10.791445,-0.025240,1.741439,-0.089860,0.000000,0.000000,0.000000,0.000000,0.000000,0.000000
12176234.000000,-2.361591,-1.662775,1.115723,-1.400264,1.748294,1.163938,-0.567201,0.421167,-0.015774,0.843556,-0.296440,-0.329139,0.724541,-0.116784,-4.027972,42.756695,-22.302139,-10.640688,-0.007845,1.773483,-0.175919,0.000000,0.000000,0.000000,0.000000,0.000000,0.000000
12176235.000000,-2.361182,-1.662798,1.116567,-1.400576,1.747972,1.164660,-0.567323,0.418460,-0.020302,0.835171,-0.302066,-0.326721,0.722971,-0.115893,-3.782000,42.851910,-22.448929,-10.446291,-0.019747,1.877853,-0.182328,0.000000,0.000000,0.000000,0.000000,0.000000,0.000000
12176236.000000,-2.360778,-1.662818,1.117422,-1.400896,1.747639,1.165371,-0.567455,0.411227,-0.019327,0.836749,-0.306201,-0.330745,0.720709,-0.119049,-3.484454,42.903484,-22.718704,-10.247927,-0.001437,2.027084,-0.083451,0.000000,0.000000,0.000000,0.000000,0.000000,0.000000
12176237.000000,-2.360376,-1.662841,1.118262,-1.401218,1.747303,1.166102,-0.567563,0.407897,-0.019666,0.836066,-0.313421,-0.329165,0.717127,-0.114439,-3.238482,42.998699,-23.063858,-9.997988,0.040677,2.060043,-0.163102,0.000000,0.000000,0.000000,0.000000,0.000000,0.000000
12176238.000000,-2.359981,-1.662869,1.119116,-1.401545,1.746971,1.166829,-0.567682,0.395967,-0.021685,0.839377,-0.318617,-0.324783,0.718419,-0.113821,-2.865557,43.173260,-23.381241,-9.752016,0.105680,2.033492,-0.169511,0.000000,0.000000,0.000000,0.000000,0.000000,0.000000
12176239.000000,-2.359580,-1.662897,1.119954,-1.401886,1.746638,1.167554,-0.567805,0.391962,-0.022306,0.836833,-0.323913,-0.330965,0.717360,-0.120155,-2.667193,43.320049,-23.555801,-9.406862,0.178007,2.047225,-0.110001,0.000000,0.000000,0.000000,0.000000,0.000000,0.000000
12176240.000000,-2.359187,-1.662932,1.120802,-1.402222,1.746290,1.168288,-0.567917,0.391732,-0.027630,0.836951,-0.338772,-0.335348,0.716836,-0.115380,-2.468829,43.538250,-23.678787,-9.184694,0.255826,2.060043,-0.169511,0.000000,0.000000,0.000000,0.000000,0.000000,0.000000
12176241.000000,-2.358803,-1.662961,1.121661,-1.402575,1.745946,1.169004,-0.568040,0.382851,-0.026577,0.840090,-0.341847,-0.339383,0.717218,-0.116233,-2.099871,43.685040,-23.948563,-8.863344,0.356534,2.047225,-0.136552,0.000000,0.000000,0.000000,0.000000,0.000000,0.000000
12176242.000000,-2.358426,-1.662998,1.122495,-1.402927,1.745617,1.169724,-0.568150,0.387856,-0.030547,0.840380,-0.339051,-0.333515,0.708236,-0.113538,-1.726946,43.907207,-23.972366,-8.613405,0.356534,1.995040,-0.188737,0.000000,0.000000,0.000000,0.000000,0.000000,0.000000
12176243.000000,-2.358046,-1.663035,1.123333,-1.403283,1.745296,1.170437,-0.568277,0.382304,-0.033240,0.833474,-0.343589,-0.332999,0.722220,-0.115769,-1.405596,44.125408,-24.019974,-8.367434,0.308927,1.949264,-0.122819,0.000000,0.000000,0.000000,0.000000,0.000000,0.000000
12176244.000000,-2.357680,-1.663065,1.124169,-1.403646,1.744956,1.171154,-0.568391,0.374025,-0.028766,0.833778,-0.345781,-0.334605,0.716022,-0.119030,-0.909686,44.200787,-24.071548,-8.145266,0.315336,1.930038,-0.142960,0.000000,0.000000,0.000000,0.000000,0.000000,0.000000
12176245.000000,-2.357307,-1.663099,1.125016,-1.404014,1.744620,1.171875,-0.568501,0.372956,-0.029901,0.834388,-0.354605,-0.331187,0.710927,-0.115903,-0.612139,44.323772,-24.166763,-7.923097,0.315336,1.930038,-0.188737,0.000000,0.000000,0.000000,0.000000,0.000000,0.000000
12176246.000000,-2.356935,-1.663127,1.125853,-1.404376,1.744297,1.172578,-0.568623,0.372848,-0.029620,0.828913,-0.356258,-0.327584,0.709394,-0.117667,-0.314593,44.395184,-23.996170,-7.748537,0.285123,2.001449,-0.122819,0.000000,0.000000,0.000000,0.000000,0.000000,0.000000
12176247.000000,-2.356556,-1.663152,1.126682,-1.404755,1.743959,1.173301,-0.568735,0.372595,-0.027258,0.829007,-0.364107,-0.336451,0.705370,-0.116133,-0.167803,44.371380,-23.972366,-7.403383,0.327238,1.995040,-0.130143,0.000000,0.000000,0.000000,0.000000,0.000000,0.000000
12176248.000000,-2.356195,-1.663174,1.127533,-1.405124,1.743622,1.174040,-0.568843,0.369945,-0.025785,0.833961,-0.367310,-0.343063,0.713844,-0.113750,0.054365,44.347576,-24.119156,-7.205019,0.410551,1.851302,-0.175919,0.000000,0.000000,0.000000,0.000000,0.000000,0.000000
12176249.000000,-2.355819,-1.663196,1.128359,-1.405506,1.743294,1.174754,-0.568959,0.373448,-0.024244,0.829579,-0.372309,-0.338575,0.706884,-0.114997,0.153547,44.296001,-24.142960,-6.911439,0.452665,1.793624,-0.142960,0.000000,0.000000,0.000000,0.000000,0.000000,0.000000
12176250.000000,-2.355445,-1.663216,1.129195,-1.405899,1.742969,1.175470,-0.569066,0.374215,-0.022767,0.825754,-0.378134,-0.334406,0.709493,-0.108826,0.205121,44.224590,-24.095352,-6.637697,0.476469,1.871444,-0.169511,0.000000,0.000000,0.000000,0.000000,0.000000,0.000000
12176251.000000,-2.355075,-1.663234,1.130035,-1.406284,1.742638,1.176184,-0.569181,0.372493,-0.021864,0.825274,-0.379138,-0.336517,0.714128,-0.110021,0.328107,44.149212,-24.166763,-6.391725,0.506681,1.884261,-0.163102,0.000000,0.000000,0.000000,0.000000,0.000000,0.000000
12176252.000000,-2.354700,-1.663250,1.130877,-1.406675,1.742302,1.176912,-0.569293,0.373425,-0.017981,0.829291,-0.381572,-0.337539,0.713956,-0.106601,0.375715,44.077801,-24.388931,-6.169557,0.530485,1.871444,-0.149369,0.000000,0.000000,0.000000,0.000000,0.000000,0.000000
12176253.000000,-2.354330,-1.663268,1.131710,-1.407064,1.741981,1.177631,-0.569403,0.373104,-0.018791,0.829276,-0.383682,-0.335460,0.710291,-0.102029,0.451093,44.026226,-24.436539,-5.971193,0.470060,1.981307,-0.188737,0.000000,0.000000,0.000000,0.000000,0.000000,0.000000
12176254.000000,-2.353951,-1.663276,1.132552,-1.407464,1.741660,1.178334,-0.569523,0.373157,-0.013559,0.828611,-0.389194,-0.330983,0.703309,-0.107762,0.474897,43.855633,-24.535721,-5.749025,0.440763,2.079269,-0.110001,0.000000,0.000000,0.000000,0.000000,0.000000,0.000000
12176255.000000,-2.353580,-1.663290,1.133381,-1.407856,1.741322,1.179056,-0.569631,0.372686,-0.015219,0.829619,-0.386696,-0.334605,0.700407,-0.108022,0.550275,43.784222,-24.706314,-5.673646,0.500272,2.092086,-0.136552,0.000000,0.000000,0.000000,0.000000,0.000000,0.000000
12176256.000000,-2.353204,-1.663301,1.134220,-1.408251,1.740996,1.179778,-0.569736,0.368195,-0.012198,0.827696,-0.391805,-0.331498,0.726480,-0.106359,0.526471,43.661236,-24.829300,-5.451478,0.512174,1.995040,-0.208878,0.000000,0.000000,0.000000,0.000000,0.000000,0.000000
12176257.000000,-2.352820,-1.663313,1.135038,-1.408643,1.740674,1.180503,-0.569852,0.372192,-0.011772,0.822200,-0.391831,-0.325126,0.724561,-0.104489,0.451093,43.613628,-24.857071,-5.352296,0.535978,1.974899,-0.169511,0.000000,0.000000,0.000000,0.000000,0.000000,0.000000
12176258.000000,-2.352451,-1.663320,1.135869,-1.409031,1.740345,1.181232,-0.569960,0.374409,-0.009475,0.819311,-0.403409,-0.326713,0.722621,-0.106667,0.474897,43.490643,-24.928482,-5.229311,0.613798,1.955673,-0.169511,0.000000,0.000000,0.000000,0.000000,0.000000,0.000000
12176259.000000,-2.352073,-1.663328,1.136696,-1.409420,1.740020,1.181941,-0.570061,0.373629,-0.009067,0.819079,-0.398277,-0.326248,0.715375,-0.106886,0.502668,43.415264,-24.928482,-5.130128,0.649503,1.949264,-0.208878,0.000000,0.000000,0.000000,0.000000,0.000000,0.000000
12176260.000000,-2.351702,-1.663335,1.137502,-1.409808,1.739694,1.182660,-0.570171,0.379349,-0.008226,0.809238,-0.394332,-0.324531,0.713057,-0.113182,0.474897,43.320049,-24.781693,-5.030946,0.667814,1.981307,-0.175919,0.000000,0.000000,0.000000,0.000000,0.000000,0.000000
12176261.000000,-2.351327,-1.663337,1.138310,-1.410193,1.739384,1.183366,-0.570279,0.378632,-0.006995,0.802364,-0.392068,-0.325076,0.722486,-0.109362,0.474897,43.197063,-24.583328,-4.907960,0.644010,2.020675,-0.149369,0.000000,0.000000,0.000000,0.000000,0.000000,0.000000
12176262.000000,-2.350953,-1.663343,1.139124,-1.410570,1.739066,1.184091,-0.570382,0.374077,-0.007124,0.800648,-0.387347,-0.328541,0.719583,-0.109334,0.502668,43.121685,-24.559525,-4.907960,0.644010,2.027084,-0.175919,0.000000,0.000000,0.000000,0.000000,0.000000,0.000000
12176263.000000,-2.350577,-1.663344,1.139940,-1.410958,1.738749,1.184821,-0.570483,0.375640,-0.005056,0.801368,-0.383425,-0.320596,0.722318,-0.104460,0.451093,42.951092,-24.511917,-4.808778,0.613798,2.033492,-0.208878,0.000000,0.000000,0.000000,0.000000,0.000000,0.000000
12176264.000000,-2.350191,-1.663344,1.140757,-1.411338,1.738446,1.185546,-0.570596,0.378069,-0.004220,0.798755,-0.378436,-0.314640,0.725301,-0.103441,0.328107,42.804302,-24.464310,-4.661989,0.571683,2.014266,-0.149369,0.000000,0.000000,0.000000,0.000000,0.000000,0.000000
12176265.000000,-2.349814,-1.663338,1.141564,-1.411730,1.738147,1.186281,-0.570693,0.387743,-0.002509,0.803099,-0.380555,-0.306602,0.721737,-0.099683,0.304304,42.609905,-24.535721,-4.487428,0.578092,1.974899,-0.188737,0.000000,0.000000,0.000000,0.000000,0.000000,0.000000
12176266.000000,-2.349445,-1.663342,1.142385,-1.412113,1.737845,1.187003,-0.570799,0.380602,-0.004103,0.802507,-0.379044,-0.307365,0.708705,-0.103319,0.328107,42.534527,-24.658707,-4.340639,0.620206,2.001449,-0.182328,0.000000,0.000000,0.000000,0.000000,0.000000,0.000000
12176267.000000,-2.349069,-1.663343,1.143196,-1.412499,1.737545,1.187728,-0.570907,0.375851,-0.003981,0.805437,-0.379553,-0.305538,0.713027,-0.107160,0.304304,42.411541,-24.857071,-4.265260,0.613798,2.033492,-0.149369,0.000000,0.000000,0.000000,0.000000,0.000000,0.000000
12176268.000000,-2.348702,-1.663344,1.144016,-1.412889,1.737246,1.188452,-0.571007,0.371725,-0.003873,0.808615,-0.379215,-0.304335,0.712308,-0.102206,0.375715,42.288555,-25.003860,-4.090700,0.620206,2.039901,-0.196061,0.000000,0.000000,0.000000,0.000000,0.000000,0.000000
12176269.000000,-2.348336,-1.663350,1.144827,-1.413266,1.736955,1.189165,-0.571117,0.364669,-0.002516,0.808169,-0.382391,-0.299909,0.711664,-0.101449,0.451093,42.240948,-25.075272,-4.043092,0.649503,2.060043,-0.163102,0.000000,0.000000,0.000000,0.000000,0.000000,0.000000
12176270.000000,-2.347972,-1.663350,1.145630,-1.413645,1.736658,1.189871,-0.571215,0.362294,-0.000793,0.805699,-0.377670,-0.300728,0.708967,-0.098517,0.574079,42.169537,-25.150650,-3.991518,0.673307,2.163497,-0.196061,0.000000,0.000000,0.000000,0.000000,0.000000,0.000000
12176271.000000,-2.347613,-1.663358,1.146427,-1.414024,1.736362,1.190578,-0.571320,0.360329,-0.004852,0.800099,-0.387329,-0.295070,0.698009,-0.097792,0.697065,42.193340,-25.099075,-3.868532,0.649503,2.261459,-0.188737,0.000000,0.000000,0.000000,0.000000,0.000000,0.000000
12176272.000000,-2.347247,-1.663364,1.147228,-1.414409,1.736066,1.191278,-0.571426,0.362128,-0.004498,0.796282,-0.388166,-0.298160,0.700870,-0.102900,0.772443,42.217144,-25.003860,-3.697939,0.685209,2.287093,-0.155778,0.000000,0.000000,0.000000,0.000000,0.000000,0.000000
12176273.000000,-2.346900,-1.663369,1.148012,-1.414789,1.735778,1.191992,-0.571520,0.355112,-0.004086,0.793644,-0.384254,-0.293431,0.697734,-0.098346,0.970807,42.240948,-24.928482,-3.570986,0.679716,2.202865,-0.221696,0.000000,0.000000,0.000000,0.000000,0.000000,0.000000
12176274.000000,-2.346552,-1.663372,1.148802,-1.415156,1.735502,1.192705,-0.571630,0.351114,-0.003121,0.789279,-0.378205,-0.288923,0.704183,-0.104209,1.145368,42.240948,-24.781693,-3.598757,0.625699,2.157089,-0.163102,0.000000,0.000000,0.000000,0.000000,0.000000,0.000000
12176275.000000,-2.346202,-1.663374,1.149576,-1.415532,1.735205,1.193421,-0.571735,0.349673,-0.001822,0.783599,-0.373323,-0.291936,0.708902,-0.105773,1.367536,42.217144,-24.611099,-3.475771,0.613798,2.085677,-0.163102,0.000000,0.000000,0.000000,0.000000,0.000000,0.000000
12176276.000000,-2.345861,-1.663375,1.150358,-1.415902,1.734910,1.194139,-0.571834,0.345786,-0.001438,0.781262,-0.377549,-0.294811,0.706983,-0.106004,1.589704,42.217144,-24.365128,-3.475771,0.620206,2.039901,-0.196061,0.000000,0.000000,0.000000,0.000000,0.000000,0.000000
12176277.000000,-2.345519,-1.663376,1.151147,-1.416271,1.734615,1.194859,-0.571938,0.342112,-0.000570,0.777899,-0.370011,-0.289622,0.716490,-0.104307,1.887250,42.193340,-24.190567,-3.499574,0.691617,1.955673,-0.163102,0.000000,0.000000,0.000000,0.000000,0.000000,0.000000
12176278.000000,-2.345183,-1.663370,1.151910,-1.416646,1.734329,1.195582,-0.572035,0.344845,0.001814,0.772144,-0.371248,-0.288225,0.706827,-0.100381,2.109418,42.094158,-23.849380,-3.499574,0.715421,1.890670,-0.202470,0.000000,0.000000,0.000000,0.000000,0.000000,0.000000
12176279.000000,-2.344836,-1.663361,1.152688,-1.417008,1.734042,1.196317,-0.572136,0.345371,0.000814,0.769429,-0.368293,-0.294651,0.727314,-0.098911,2.208601,41.971172,-23.678787,-3.547182,0.721830,1.793624,-0.196061,0.000000,0.000000,0.000000,0.000000,0.000000,0.000000
12176280.000000,-2.344494,-1.663355,1.153458,-1.417386,1.733756,1.197039,-0.572241,0.341391,0.002434,0.768382,-0.369712,-0.292374,0.725578,-0.099107,2.383161,41.875957,-23.579605,-3.424196,0.739225,1.727706,-0.163102,0.000000,0.000000,0.000000,0.000000,0.000000,0.000000
12176281.000000,-2.344156,-1.663339,1.154230,-1.417759,1.733477,1.197778,-0.572334,0.341959,0.006011,0.761993,-0.366861,-0.287178,0.728343,-0.096405,2.529951,41.677593,-23.409012,-3.348818,0.667814,1.676437,-0.202470,0.000000,0.000000,0.000000,0.000000,0.000000,0.000000
12176282.000000,-2.343806,-1.663329,1.155000,-1.418128,1.733206,1.198501,-0.572437,0.341640,0.006696,0.760280,-0.370531,-0.276512,0.732806,-0.093624,2.529951,41.554607,-23.234451,-3.154421,0.661405,1.689254,-0.136552,0.000000,0.000000,0.000000,0.000000,0.000000,0.000000
12176283.000000,-2.343468,-1.663314,1.155767,-1.418494,1.732933,1.199224,-0.572531,0.339179,0.009426,0.762085,-0.366154,-0.277119,0.720787,-0.096371,2.629133,41.336407,-23.186844,-3.079042,0.644010,1.727706,-0.163102,0.000000,0.000000,0.000000,0.000000,0.000000,0.000000
12176284.000000,-2.343127,-1.663294,1.156544,-1.418850,1.732654,1.199959,-0.572620,0.336131,0.011932,0.766564,-0.360153,-0.273508,0.719509,-0.093811,2.652936,41.090435,-23.186844,-3.027467,0.625699,1.747848,-0.221696,0.000000,0.000000,0.000000,0.000000,0.000000,0.000000
12176285.000000,-2.342782,-1.663274,1.157306,-1.419212,1.732385,1.200687,-0.572725,0.335935,0.013629,0.769922,-0.355114,-0.271143,0.721432,-0.101784,2.680707,40.844463,-23.135269,-3.003664,0.625699,1.670028,-0.142960,0.000000,0.000000,0.000000,0.000000,0.000000,0.000000
12176286.000000,-2.342446,-1.663257,1.158077,-1.419570,1.732110,1.201422,-0.572821,0.341317,0.013573,0.772559,-0.350076,-0.266570,0.720392,-0.098871,2.779890,40.650066,-23.111465,-3.027467,0.679716,1.611434,-0.169511,0.000000,0.000000,0.000000,0.000000,0.000000,0.000000
12176287.000000,-2.342094,-1.663237,1.158850,-1.419918,1.731836,1.202131,-0.572918,0.339467,0.017369,0.765493,-0.348989,-0.268606,0.725080,-0.097765,2.704511,40.427898,-23.163040,-3.079042,0.757535,1.702071,-0.163102,0.000000,0.000000,0.000000,0.000000,0.000000,0.000000
12176288.000000,-2.341743,-1.663215,1.159612,-1.420275,1.731560,1.202836,-0.573010,0.344821,0.019941,0.765000,-0.349464,-0.268226,0.710948,-0.099350,2.605329,40.209698,-23.234451,-3.055238,0.781339,1.884261,-0.208878,0.000000,0.000000,0.000000,0.000000,0.000000,0.000000
12176289.000000,-2.341399,-1.663197,1.160380,-1.420619,1.731296,1.203558,-0.573108,0.347379,0.020988,0.758977,-0.355654,-0.264868,0.706795,-0.099036,2.581525,40.039104,-23.234451,-3.126650,0.727323,1.903487,-0.188737,0.000000,0.000000,0.000000,0.000000,0.000000,0.000000
12176290.000000,-2.341055,-1.663177,1.161149,-1.420967,1.731036,1.204276,-0.573202,0.341333,0.021749,0.755534,-0.349673,-0.262662,0.703234,-0.098338,2.581525,39.868511,-23.234451,-3.202028,0.673307,1.819259,-0.175919,0.000000,0.000000,0.000000,0.000000,0.000000,0.000000
12176291.000000,-2.340703,-1.663148,1.161911,-1.421309,1.730789,1.205011,-0.573292,0.350333,0.024106,0.755817,-0.346234,-0.254038,0.710756,-0.095919,2.482343,39.622540,-23.234451,-3.249635,0.571683,1.779891,-0.215287,0.000000,0.000000,0.000000,0.000000,0.000000,0.000000
12176292.000000,-2.340349,-1.663124,1.162680,-1.421647,1.730538,1.205718,-0.573390,0.346791,0.024587,0.754665,-0.343112,-0.257987,0.727843,-0.097169,2.359357,39.428143,-23.286026,-3.325014,0.470060,1.844894,-0.169511,0.000000,0.000000,0.000000,0.000000,0.000000,0.000000
12176293.000000,-2.339988,-1.663098,1.163422,-1.421989,1.730268,1.206441,-0.573486,0.349830,0.021891,0.752350,-0.338652,-0.265126,0.721149,-0.096982,2.133222,39.229778,-23.040054,-3.325014,0.476469,1.819259,-0.155778,0.000000,0.000000,0.000000,0.000000,0.000000,0.000000
12176294.000000,-2.339636,-1.663079,1.164179,-1.422327,1.730000,1.207168,-0.573573,0.348698,0.021165,0.750276,-0.345474,-0.262301,0.724605,-0.094519,2.034040,39.106792,-22.893265,-3.348818,0.530485,1.806442,-0.202470,0.000000,0.000000,0.000000,0.000000,0.000000,0.000000
12176295.000000,-2.339279,-1.663059,1.164935,-1.422654,1.729737,1.207871,-0.573668,0.353140,0.017725,0.749389,-0.339913,-0.259282,0.716927,-0.095243,1.887250,38.983807,-22.647293,-3.400392,0.559781,1.832076,-0.169511,0.000000,0.000000,0.000000,0.000000,0.000000,0.000000
12176296.000000,-2.338921,-1.663034,1.165691,-1.422975,1.729481,1.208585,-0.573753,0.363640,0.015803,0.751934,-0.331018,-0.254179,0.709399,-0.094014,1.712690,38.837017,-22.647293,-3.499574,0.530485,1.838485,-0.196061,0.000000,0.000000,0.000000,0.000000,0.000000,0.000000
12176297.000000,-2.338567,-1.663014,1.166451,-1.423290,1.729218,1.209309,-0.573845,0.359884,0.016466,0.749877,-0.327379,-0.263524,0.725122,-0.094608,1.565900,38.741802,-22.571915,-3.622560,0.506681,1.714889,-0.182328,0.000000,0.000000,0.000000,0.000000,0.000000,0.000000
12176298.000000,-2.338207,-1.662995,1.167196,-1.423608,1.728952,1.210026,-0.573942,0.357576,0.015824,0.753285,-0.319387,-0.259604,0.725973,-0.095487,1.442914,38.690228,-22.472733,-3.697939,0.524076,1.630660,-0.155778,0.000000,0.000000,0.000000,0.000000,0.000000,0.000000
12176299.000000,-2.337848,-1.662985,1.167962,-1.423928,1.728689,1.210727,-0.574030,0.359528,0.012650,0.759309,-0.320580,-0.261556,0.718587,-0.093901,1.268354,38.765606,-22.524307,-3.745546,0.542386,1.721298,-0.188737,0.000000,0.000000,0.000000,0.000000,0.000000,0.000000
12176300.000000,-2.337482,-1.662972,1.168730,-1.424241,1.728443,1.211409,-0.574125,0.363555,0.011282,0.760307,-0.315780,-0.254864,0.706868,-0.094011,1.093793,38.813213,-22.595718,-3.769350,0.476469,1.890670,-0.182328,0.000000,0.000000,0.000000,0.000000,0.000000,0.000000
12176301.000000,-2.337118,-1.662960,1.169489,-1.424552,1.728189,1.212120,-0.574217,0.362612,0.010968,0.762944,-0.311178,-0.257309,0.703972,-0.093920,0.970807,38.837017,-22.770279,-3.797121,0.482877,1.884261,-0.188737,0.000000,0.000000,0.000000,0.000000,0.000000,0.000000
12176302.000000,-2.336760,-1.662954,1.170238,-1.424851,1.727925,1.212841,-0.574313,0.362919,0.009100,0.752080,-0.308824,-0.259321,0.703169,-0.095017,0.772443,38.936199,-22.742508,-3.943910,0.482877,1.747848,-0.149369,0.000000,0.000000,0.000000,0.000000,0.000000,0.000000
12176303.000000,-2.336395,-1.662951,1.170999,-1.425151,1.727668,1.213546,-0.574404,0.358948,0.006625,0.770015,-0.303410,-0.261569,0.698645,-0.093531,0.601850,39.082989,-22.817886,-4.118471,0.512174,1.689254,-0.182328,0.000000,0.000000,0.000000,0.000000,0.000000,0.000000
12176304.000000,-2.336033,-1.662945,1.171753,-1.425445,1.727414,1.214238,-0.574494,0.360116,0.006335,0.764160,-0.302202,-0.256214,0.696358,-0.092999,0.427289,39.182171,-22.893265,-4.312868,0.482877,1.819259,-0.202470,0.000000,0.000000,0.000000,0.000000,0.000000,0.000000
12176305.000000,-2.335666,-1.662943,1.172506,-1.425737,1.727163,1.214920,-0.574591,0.358772,0.005506,0.758795,-0.295127,-0.255503,0.691447,-0.094262,0.328107,39.305157,-22.817886,-4.511232,0.535978,1.968490,-0.175919,0.000000,0.000000,0.000000,0.000000,0.000000,0.000000
12176306.000000,-2.335296,-1.662943,1.173236,-1.426028,1.726907,1.215627,-0.574681,0.360728,0.003964,0.749002,-0.291168,-0.254330,0.699384,-0.097655,0.129743,39.475750,-22.548111,-4.634218,0.578092,1.930038,-0.196061,0.000000,0.000000,0.000000,0.000000,0.000000,0.000000
12176307.000000,-2.334942,-1.662943,1.173988,-1.426311,1.726651,1.216337,-0.574775,0.362874,0.003406,0.746018,-0.295570,-0.250433,0.701294,-0.097712,0.030561,39.622540,-22.472733,-4.784975,0.542386,1.871444,-0.175919,0.000000,0.000000,0.000000,0.000000,0.000000,0.000000
12176308.000000,-2.334576,-1.662944,1.174745,-1.426600,1.726414,1.217037,-0.574866,0.364676,0.003598,0.745221,-0.293007,-0.246251,0.705306,-0.096875,-0.116229,39.745525,-22.448929,-4.856386,0.464567,1.858627,-0.175919,0.000000,0.000000,0.000000,0.000000,0.000000,0.000000
12176309.000000,-2.334214,-1.662942,1.175478,-1.426876,1.726179,1.217751,-0.574952,0.367157,0.004466,0.741607,-0.284750,-0.242382,0.701243,-0.095613,-0.266986,39.840740,-22.302139,-5.054750,0.369352,1.754256,-0.196061,0.000000,0.000000,0.000000,0.000000,0.000000,0.000000
12176310.000000,-2.333850,-1.662946,1.176217,-1.427151,1.725942,1.218482,-0.575044,0.364860,-0.000611,0.735803,-0.283976,-0.243165,0.719529,-0.091298,-0.366168,40.039104,-22.079971,-5.177736,0.356534,1.597701,-0.175919,0.000000,0.000000,0.000000,0.000000,0.000000,0.000000
12176311.000000,-2.333488,-1.662949,1.176957,-1.427429,1.725702,1.219191,-0.575138,0.357723,-0.003052,0.739152,-0.280189,-0.244522,0.719075,-0.093084,-0.512957,40.185894,-21.984756,-5.276918,0.369352,1.559249,-0.149369,0.000000,0.000000,0.000000,0.000000,0.000000,0.000000
12176312.000000,-2.333131,-1.662946,1.177702,-1.427697,1.725462,1.219903,-0.575223,0.357853,-0.002556,0.740308,-0.280330,-0.248708,0.715712,-0.091263,-0.588336,40.233501,-21.837967,-5.451478,0.339139,1.605026,-0.196061,0.000000,0.000000,0.000000,0.000000,0.000000,0.000000
12176313.000000,-2.332776,-1.662943,1.178443,-1.427967,1.725216,1.220601,-0.575317,0.355678,0.001232,0.737188,-0.277265,-0.245270,0.713475,-0.092828,-0.612139,40.257305,-21.639603,-5.574464,0.386747,1.670028,-0.175919,0.000000,0.000000,0.000000,0.000000,0.000000,0.000000
12176314.000000,-2.332420,-1.662941,1.179174,-1.428224,1.724971,1.221320,-0.575410,0.363539,0.003354,0.736818,-0.271186,-0.246526,0.705719,-0.094054,-0.687518,40.308880,-21.516617,-5.848207,0.434354,1.605026,-0.155778,0.000000,0.000000,0.000000,0.000000,0.000000,0.000000
12176315.000000,-2.332067,-1.662935,1.179917,-1.428481,1.724739,1.222042,-0.575497,0.360105,0.003588,0.732726,-0.269516,-0.248912,0.723191,-0.087847,-0.687518,40.281109,-21.469009,-6.018800,0.422452,1.474105,-0.196061,0.000000,0.000000,0.000000,0.000000,0.000000,0.000000
12176316.000000,-2.331712,-1.662927,1.180647,-1.428756,1.724505,1.222755,-0.575589,0.355940,0.005147,0.731091,-0.268304,-0.247686,0.715217,-0.085362,-0.762896,40.185894,-21.369827,-6.042604,0.416959,1.487838,-0.182328,0.000000,0.000000,0.000000,0.000000,0.000000,0.000000
12176317.000000,-2.331353,-1.662921,1.181401,-1.429028,1.724268,1.223472,-0.575674,0.358263,0.005033,0.736190,-0.270015,-0.245592,0.710533,-0.081693,-0.909686,40.134319,-21.417435,-6.094179,0.381254,1.584884,-0.215287,0.000000,0.000000,0.000000,0.000000,0.000000,0.000000
12176318.000000,-2.330993,-1.662916,1.182157,-1.429295,1.724038,1.224174,-0.575772,0.355140,0.004765,0.737239,-0.269112,-0.239692,0.714511,-0.087675,-1.008868,40.086712,-21.516617,-6.094179,0.344633,1.643478,-0.136552,0.000000,0.000000,0.000000,0.000000,0.000000,0.000000
12176319.000000,-2.330636,-1.662913,1.182895,-1.429572,1.723806,1.224901,-0.575858,0.356791,0.004513,0.738161,-0.268952,-0.238842,0.709712,-0.083869,-1.084246,40.039104,-21.492813,-6.042604,0.291532,1.630660,-0.149369,0.000000,0.000000,0.000000,0.000000,0.000000,0.000000
12176320.000000,-2.330282,-1.662892,1.183652,-1.429846,1.723584,1.225631,-0.575943,0.352222,0.009486,0.738308,-0.272739,-0.233712,0.712217,-0.084747,-1.231036,39.769329,-21.639603,-5.971193,0.231107,1.605026,-0.196061,0.000000,0.000000,0.000000,0.000000,0.000000,0.000000
12176321.000000,-2.329936,-1.662879,1.184400,-1.430109,1.723361,1.226338,-0.576038,0.350112,0.009883,0.739587,-0.265725,-0.235531,0.707564,-0.089708,-1.231036,39.622540,-21.786392,-6.042604,0.195402,1.624252,-0.130143,0.000000,0.000000,0.000000,0.000000,0.000000,0.000000
12176322.000000,-2.329592,-1.662868,1.185164,-1.430378,1.723124,1.227053,-0.576117,0.349463,0.012153,0.748672,-0.267935,-0.238426,0.704913,-0.083583,-1.207232,39.523357,-22.008560,-6.070375,0.207303,1.714889,-0.196061,0.000000,0.000000,0.000000,0.000000,0.000000,0.000000
12176323.000000,-2.329249,-1.662856,1.185923,-1.430643,1.722888,1.227746,-0.576200,0.344884,0.013826,0.751390,-0.264166,-0.237039,0.705277,-0.086165,-1.131854,39.428143,-22.107742,-6.070375,0.243009,1.800033,-0.196061,0.000000,0.000000,0.000000,0.000000,0.000000,0.000000
12176324.000000,-2.328904,-1.662847,1.186669,-1.430913,1.722644,1.228447,-0.576289,0.342269,0.014092,0.753283,-0.261624,-0.233348,0.705342,-0.089994,-1.060443,39.376568,-22.155350,-6.018800,0.339139,1.877853,-0.136552,0.000000,0.000000,0.000000,0.000000,0.000000,0.000000
12176325.000000,-2.328570,-1.662835,1.187428,-1.431183,1.722403,1.229151,-0.576368,0.337334,0.014440,0.755487,-0.271193,-0.233314,0.706282,-0.089042,-1.008868,39.328960,-22.278336,-5.971193,0.393156,1.930038,-0.188737,0.000000,0.000000,0.000000,0.000000,0.000000,0.000000
12176326.000000,-2.328233,-1.662821,1.188192,-1.431450,1.722178,1.229846,-0.576461,0.337455,0.015314,0.754726,-0.272473,-0.224472,0.701532,-0.092514,-0.885882,39.253582,-22.401321,-5.971193,0.339139,1.890670,-0.130143,0.000000,0.000000,0.000000,0.000000,0.000000,0.000000
12176327.000000,-2.327899,-1.662809,1.188934,-1.431725,1.721942,1.230560,-0.576542,0.333435,0.014193,0.751005,-0.272445,-0.224073,0.704627,-0.092352,-0.762896,39.253582,-22.401321,-5.872011,0.327238,1.760665,-0.142960,0.000000,0.000000,0.000000,0.000000,0.000000,0.000000
12176328.000000,-2.327568,-1.662801,1.189694,-1.432005,1.721707,1.231253,-0.576621,0.330569,0.012870,0.748108,-0.276037,-0.228291,0.697596,-0.090693,-0.564532,39.281353,-22.448929,-5.749025,0.297025,1.682845,-0.196061,0.000000,0.000000,0.000000,0.000000,0.000000,0.000000
12176329.000000,-2.327229,-1.662789,1.190435,-1.432287,1.721471,1.231948,-0.576712,0.331912,0.013886,0.744724,-0.278078,-0.227891,0.693715,-0.089762,-0.512957,39.229778,-22.377518,-5.626039,0.291532,1.767074,-0.122819,0.000000,0.000000,0.000000,0.000000,0.000000,0.000000
12176330.000000,-2.326908,-1.662779,1.191190,-1.432575,1.721237,1.232635,-0.576788,0.329772,0.010776,0.746125,-0.278721,-0.228029,0.689778,-0.084129,-0.389971,39.205975,-22.302139,-5.427675,0.308927,1.897079,-0.175919,0.000000,0.000000,0.000000,0.000000,0.000000,0.000000
12176331.000000,-2.326574,-1.662764,1.191947,-1.432855,1.721018,1.233320,-0.576868,0.331580,0.015244,0.748151,-0.282273,-0.225679,0.689230,-0.080848,-0.366168,39.158367,-22.278336,-5.352296,0.255826,1.974899,-0.196061,0.000000,0.000000,0.000000,0.000000,0.000000,0.000000
12176332.000000,-2.326248,-1.662757,1.192699,-1.433143,1.720785,1.234034,-0.576948,0.336004,0.013253,0.748233,-0.282016,-0.230974,0.701369,-0.080441,-0.266986,39.205975,-22.325943,-5.253114,0.273221,1.800033,-0.175919,0.000000,0.000000,0.000000,0.000000,0.000000,0.000000
12176333.000000,-2.325924,-1.662749,1.193460,-1.433428,1.720546,1.234743,-0.577032,0.335354,0.009892,0.747760,-0.280389,-0.238551,0.698234,-0.080283,-0.116229,39.205975,-22.448929,-5.106325,0.297025,1.702071,-0.149369,0.000000,0.000000,0.000000,0.000000,0.000000,0.000000
12176334.000000,-2.325594,-1.662736,1.194230,-1.433724,1.720312,1.235431,-0.577110,0.332971,0.012758,0.771745,-0.287740,-0.236914,0.696109,-0.082883,-0.092425,39.106792,-22.770279,-4.983339,0.332731,1.721298,-0.169511,0.000000,0.000000,0.000000,0.000000,0.000000,0.000000
12176335.000000,-2.325275,-1.662729,1.194993,-1.434035,1.720075,1.236114,-0.577190,0.328156,0.008797,0.771442,-0.294598,-0.236295,0.684726,-0.080398,-0.068621,39.130596,-22.841690,-4.685792,0.398649,1.871444,-0.188737,0.000000,0.000000,0.000000,0.000000,0.000000,0.000000
12176336.000000,-2.324948,-1.662725,1.195761,-1.434320,1.719841,1.236798,-0.577272,0.324455,0.007905,0.773270,-0.293301,-0.241176,0.686187,-0.080271,-0.044818,39.205975,-23.016251,-4.634218,0.470060,1.923629,-0.155778,0.000000,0.000000,0.000000,0.000000,0.000000,0.000000
12176337.000000,-2.324627,-1.662720,1.196521,-1.434624,1.719611,1.237496,-0.577348,0.323974,0.004248,0.772165,-0.298258,-0.237241,0.684243,-0.078766,0.105939,39.281353,-23.186844,-4.439821,0.476469,1.916305,-0.163102,0.000000,0.000000,0.000000,0.000000,0.000000,0.000000
12176338.000000,-2.324305,-1.662715,1.197295,-1.434912,1.719385,1.238195,-0.577422,0.324708,0.006042,0.769105,-0.296325,-0.230773,0.682050,-0.076846,0.129743,39.305157,-23.456619,-4.388246,0.381254,1.942855,-0.188737,0.000000,0.000000,0.000000,0.000000,0.000000,0.000000
12176339.000000,-2.323987,-1.662718,1.198054,-1.435202,1.719159,1.238881,-0.577501,0.319395,0.000722,0.766293,-0.295720,-0.229213,0.690224,-0.077477,0.228925,39.475750,-23.651016,-4.312868,0.362943,1.955673,-0.169511,0.000000,0.000000,0.000000,0.000000,0.000000,0.000000
12176340.000000,-2.323679,-1.662716,1.198813,-1.435496,1.718925,1.239580,-0.577580,0.312990,-0.000676,0.761315,-0.294593,-0.230905,0.682333,-0.076777,0.328107,39.547161,-23.702591,-4.265260,0.428861,1.923629,-0.175919,0.000000,0.000000,0.000000,0.000000,0.000000,0.000000
12176341.000000,-2.323364,-1.662723,1.199571,-1.435785,1.718696,1.240262,-0.577659,0.314613,-0.004149,0.756208,-0.294539,-0.231382,0.683825,-0.075518,0.427289,39.721722,-23.627213,-4.189882,0.482877,1.988631,-0.196061,0.000000,0.000000,0.000000,0.000000,0.000000,0.000000
12176342.000000,-2.323046,-1.662730,1.200322,-1.436085,1.718467,1.240942,-0.577743,0.312708,-0.005261,0.756308,-0.297217,-0.231672,0.674741,-0.081785,0.526471,39.840740,-23.627213,-3.967714,0.530485,2.079269,-0.142960,0.000000,0.000000,0.000000,0.000000,0.000000,0.000000
12176343.000000,-2.322736,-1.662735,1.201080,-1.436377,1.718242,1.241640,-0.577813,0.314348,-0.004497,0.754703,-0.300778,-0.228545,0.676137,-0.077915,0.625654,39.892315,-23.579605,-3.892336,0.494779,2.066451,-0.202470,0.000000,0.000000,0.000000,0.000000,0.000000,0.000000
12176344.000000,-2.322427,-1.662743,1.201833,-1.436679,1.718010,1.242340,-0.577896,0.310988,-0.010710,0.748268,-0.297877,-0.229207,0.679406,-0.073393,0.772443,39.963726,-23.432816,-3.721742,0.524076,1.877853,-0.182328,0.000000,0.000000,0.000000,0.000000,0.000000,0.000000
12176345.000000,-2.322126,-1.662750,1.202572,-1.436966,1.717786,1.243049,-0.577971,0.311522,-0.008742,0.745499,-0.293521,-0.226841,0.686942,-0.078021,0.871625,40.015301,-23.234451,-3.769350,0.500272,1.741439,-0.202470,0.000000,0.000000,0.000000,0.000000,0.000000,0.000000
12176346.000000,-2.321824,-1.662751,1.203327,-1.437261,1.717568,1.243738,-0.578054,0.306039,-0.006124,0.744903,-0.293755,-0.224958,0.707286,-0.079315,1.022382,40.015301,-23.135269,-3.697939,0.452665,1.760665,-0.149369,0.000000,0.000000,0.000000,0.000000,0.000000,0.000000
12176347.000000,-2.321515,-1.662760,1.204073,-1.437561,1.717348,1.244429,-0.578132,0.306815,-0.006532,0.745894,-0.291714,-0.221511,0.704006,-0.078533,1.093793,40.110516,-23.040054,-3.570986,0.476469,1.897079,-0.142960,0.000000,0.000000,0.000000,0.000000,0.000000,0.000000
12176348.000000,-2.321209,-1.662762,1.204814,-1.437857,1.717123,1.245144,-0.578204,0.308535,-0.005728,0.743156,-0.295345,-0.219666,0.707964,-0.075117,1.121564,40.162090,-22.794083,-3.499574,0.524076,1.871444,-0.208878,0.000000,0.000000,0.000000,0.000000,0.000000,0.000000
12176349.000000,-2.320904,-1.662763,1.205564,-1.438152,1.716901,1.245851,-0.578286,0.304043,-0.004501,0.745569,-0.292646,-0.221789,0.709786,-0.076476,1.145368,40.185894,-22.718704,-3.400392,0.535978,1.754256,-0.175919,0.000000,0.000000,0.000000,0.000000,0.000000,0.000000
12176350.000000,-2.320598,-1.662758,1.206310,-1.438444,1.716681,1.246564,-0.578363,0.305305,-0.000774,0.745948,-0.288883,-0.222281,0.702049,-0.076289,1.093793,40.086712,-22.742508,-3.348818,0.530485,1.702071,-0.175919,0.000000,0.000000,0.000000,0.000000,0.000000,0.000000
12176351.000000,-2.320291,-1.662749,1.207062,-1.438737,1.716471,1.247271,-0.578440,0.308472,0.002847,0.741652,-0.293329,-0.220640,0.697165,-0.079311,1.046186,39.939922,-22.794083,-3.277406,0.494779,1.662704,-0.202470,0.000000,0.000000,0.000000,0.000000,0.000000,0.000000
12176352.000000,-2.319983,-1.662746,1.207800,-1.439037,1.716255,1.247969,-0.578522,0.306866,0.002959,0.752905,-0.295220,-0.219654,0.696974,-0.079931,1.069990,39.892315,-22.770279,-3.126650,0.559781,1.656295,-0.163102,0.000000,0.000000,0.000000,0.000000,0.000000,0.000000
12176353.000000,-2.319678,-1.662740,1.208545,-1.439334,1.716040,1.248667,-0.578595,0.305931,0.003696,0.746820,-0.292905,-0.218017,0.693532,-0.077275,1.046186,39.816936,-22.742508,-3.003664,0.608304,1.702071,-0.202470,0.000000,0.000000,0.000000,0.000000,0.000000,0.000000
12176354.000000,-2.319366,-1.662730,1.209303,-1.439630,1.715836,1.249348,-0.578672,0.308770,0.005868,0.746699,-0.294848,-0.217761,0.690082,-0.076996,0.994611,39.670147,-22.794083,-2.856874,0.542386,1.819259,-0.196061,0.000000,0.000000,0.000000,0.000000,0.000000,0.000000
12176355.000000,-2.319058,-1.662716,1.210053,-1.439924,1.715620,1.250044,-0.578751,0.308085,0.007880,0.748605,-0.294522,-0.209779,0.691053,-0.077870,0.947004,39.499554,-22.917068,-2.757692,0.530485,1.832076,-0.149369,0.000000,0.000000,0.000000,0.000000,0.000000,0.000000
12176356.000000,-2.318757,-1.662698,1.210808,-1.440210,1.715405,1.250747,-0.578822,0.308851,0.010991,0.749087,-0.290963,-0.203369,0.689102,-0.075403,0.895429,39.253582,-23.016251,-2.682314,0.494779,1.800033,-0.196061,0.000000,0.000000,0.000000,0.000000,0.000000,0.000000
12176357.000000,-2.318455,-1.662691,1.211556,-1.440496,1.715194,1.251439,-0.578902,0.302413,0.009542,0.742445,-0.288706,-0.200109,0.687324,-0.075835,0.923200,39.158367,-23.087662,-2.733888,0.500272,1.786300,-0.188737,0.000000,0.000000,0.000000,0.000000,0.000000,0.000000
12176358.000000,-2.318151,-1.662679,1.212297,-1.440795,1.714982,1.252126,-0.578980,0.301902,0.016069,0.741188,-0.288935,-0.203159,0.681834,-0.076082,0.923200,39.011578,-23.186844,-2.583132,0.535978,1.844894,-0.182328,0.000000,0.000000,0.000000,0.000000,0.000000,0.000000
12176359.000000,-2.317846,-1.662664,1.213042,-1.441078,1.714775,1.252807,-0.579057,0.298880,0.015870,0.738775,-0.289103,-0.205376,0.678651,-0.075545,0.923200,38.813213,-23.163040,-2.559328,0.566190,1.909896,-0.188737,0.000000,0.000000,0.000000,0.000000,0.000000,0.000000
12176360.000000,-2.317545,-1.662655,1.213775,-1.441368,1.714558,1.253497,-0.579132,0.299620,0.016885,0.741928,-0.284783,-0.207886,0.682371,-0.075631,0.923200,38.690228,-23.135269,-2.559328,0.620206,1.936446,-0.175919,0.000000,0.000000,0.000000,0.000000,0.000000,0.000000
12176361.000000,-2.317255,-1.662643,1.214523,-1.441655,1.714343,1.254193,-0.579204,0.296087,0.015234,0.745079,-0.290311,-0.207588,0.681921,-0.074659,0.970807,38.543438,-23.135269,-2.559328,0.625699,1.916305,-0.202470,0.000000,0.000000,0.000000,0.000000,0.000000,0.000000
12176362.000000,-2.316956,-1.662633,1.215265,-1.441936,1.714148,1.254884,-0.579282,0.295830,0.012792,0.742949,-0.288198,-0.199338,0.689862,-0.076353,0.994611,38.448223,-23.087662,-2.634706,0.530485,1.812850,-0.163102,0.000000,0.000000,0.000000,0.000000,0.000000,0.000000
12176363.000000,-2.316669,-1.662620,1.215993,-1.442224,1.713942,1.255579,-0.579356,0.302115,0.015418,0.734289,-0.287880,-0.200912,0.687473,-0.076643,1.121564,38.301434,-22.988480,-2.658510,0.524076,1.760665,-0.149369,0.000000,0.000000,0.000000,0.000000,0.000000,0.000000
12176364.000000,-2.316370,-1.662611,1.216724,-1.442508,1.713745,1.256254,-0.579426,0.301960,0.011977,0.728091,-0.285125,-0.201029,0.696867,-0.074503,1.121564,38.249859,-22.817886,-2.658510,0.506681,1.838485,-0.196061,0.000000,0.000000,0.000000,0.000000,0.000000,0.000000
12176365.000000,-2.316073,-1.662600,1.217448,-1.442787,1.713553,1.256939,-0.579505,0.296972,0.013632,0.728397,-0.284718,-0.195909,0.686331,-0.076800,1.192975,38.154644,-22.647293,-2.706117,0.452665,1.865035,-0.142960,0.000000,0.000000,0.000000,0.000000,0.000000,0.000000
12176366.000000,-2.315781,-1.662589,1.218184,-1.443068,1.713345,1.257643,-0.579570,0.296410,0.013980,0.727711,-0.281044,-0.200817,0.689893,-0.073984,1.192975,38.103069,-22.571915,-2.781496,0.500272,1.825668,-0.208878,0.000000,0.000000,0.000000,0.000000,0.000000,0.000000
12176367.000000,-2.315491,-1.662582,1.218924,-1.443344,1.713145,1.258339,-0.579644,0.293620,0.012619,0.727345,-0.280293,-0.198101,0.692754,-0.074875,1.216779,38.130840,-22.524307,-2.781496,0.506681,1.682845,-0.188737,0.000000,0.000000,0.000000,0.000000,0.000000,0.000000
12176368.000000,-2.315200,-1.662570,1.219656,-1.443622,1.712946,1.259050,-0.579717,0.290398,0.012323,0.726183,-0.278421,-0.195869,0.695642,-0.076522,1.315961,38.130840,-22.548111,-2.805300,0.518583,1.578475,-0.149369,0.000000,0.000000,0.000000,0.000000,0.000000,0.000000
12176369.000000,-2.314907,-1.662560,1.220405,-1.443894,1.712745,1.259746,-0.579781,0.290410,0.012350,0.732999,-0.274996,-0.195557,0.693082,-0.073728,1.315961,38.130840,-22.718704,-2.805300,0.559781,1.617843,-0.215287,0.000000,0.000000,0.000000,0.000000,0.000000,0.000000
12176370.000000,-2.314608,-1.662559,1.221134,-1.444164,1.712557,1.260437,-0.579858,0.290894,0.009525,0.733139,-0.272300,-0.192928,0.692973,-0.071554,1.268354,38.249859,-22.742508,-2.805300,0.542386,1.637069,-0.163102,0.000000,0.000000,0.000000,0.000000,0.000000,0.000000
12176371.000000,-2.314320,-1.662554,1.221868,-1.444435,1.712362,1.261137,-0.579926,0.290519,0.005529,0.736680,-0.273327,-0.192795,0.692575,-0.068506,1.268354,38.325237,-22.794083,-2.805300,0.571683,1.643478,-0.142960,0.000000,0.000000,0.000000,0.000000,0.000000,0.000000
12176372.000000,-2.314030,-1.662552,1.222611,-1.444698,1.712175,1.261810,-0.579988,0.290024,0.002722,0.731287,-0.270461,-0.191065,0.684169,-0.062941,1.268354,38.396648,-22.940872,-2.833071,0.559781,1.773483,-0.208878,0.000000,0.000000,0.000000,0.000000,0.000000,0.000000
12176373.000000,-2.313741,-1.662553,1.223345,-1.444956,1.711987,1.262503,-0.580057,0.288643,0.002064,0.731666,-0.262954,-0.192099,0.683485,-0.066501,1.315961,38.543438,-23.135269,-2.928285,0.482877,1.884261,-0.202470,0.000000,0.000000,0.000000,0.000000,0.000000,0.000000
12176374.000000,-2.313454,-1.662556,1.224088,-1.445213,1.711791,1.263203,-0.580128,0.288985,-0.001397,0.735231,-0.262970,-0.192224,0.681907,-0.068930,1.315961,38.690228,-23.234451,-2.956056,0.500272,1.903487,-0.196061,0.000000,0.000000,0.000000,0.000000,0.000000,0.000000
12176375.000000,-2.313165,-1.662560,1.224822,-1.445469,1.711603,1.263908,-0.580194,0.283842,-0.004520,0.732345,-0.258254,-0.192172,0.689215,-0.069893,1.367536,38.864788,-23.186844,-3.055238,0.518583,1.838485,-0.215287,0.000000,0.000000,0.000000,0.000000,0.000000,0.000000
12176376.000000,-2.312875,-1.662558,1.225550,-1.445728,1.711416,1.264607,-0.580265,0.286144,-0.003755,0.730077,-0.256527,-0.190986,0.689290,-0.072377,1.315961,38.912395,-23.135269,-3.079042,0.524076,1.838485,-0.188737,0.000000,0.000000,0.000000,0.000000,0.000000,0.000000
12176377.000000,-2.312579,-1.662561,1.226293,-1.445978,1.711226,1.265307,-0.580332,0.289823,-0.004545,0.727781,-0.254585,-0.186765,0.693203,-0.068349,1.192975,39.011578,-23.234451,-3.126650,0.554288,1.800033,-0.188737,0.000000,0.000000,0.000000,0.000000,0.000000,0.000000
12176378.000000,-2.312297,-1.662563,1.227010,-1.446226,1.711049,1.266014,-0.580404,0.284775,-0.004492,0.727749,-0.250225,-0.184733,0.696614,-0.067091,1.244550,39.082989,-23.087662,-3.277406,0.488370,1.727706,-0.142960,0.000000,0.000000,0.000000,0.000000,0.000000,0.000000
12176379.000000,-2.312010,-1.662576,1.227743,-1.446472,1.710858,1.266724,-0.580471,0.283686,-0.006828,0.729967,-0.253505,-0.186775,0.695227,-0.063355,1.216779,39.253582,-23.016251,-3.376589,0.512174,1.630660,-0.169511,0.000000,0.000000,0.000000,0.000000,0.000000,0.000000
12176380.000000,-2.311719,-1.662573,1.228475,-1.446710,1.710668,1.267407,-0.580537,0.284214,-0.003321,0.731305,-0.249225,-0.187018,0.692777,-0.065350,1.216779,39.205975,-22.917068,-3.547182,0.506681,1.695663,-0.196061,0.000000,0.000000,0.000000,0.000000,0.000000,0.000000
12176381.000000,-2.311433,-1.662573,1.229194,-1.446957,1.710479,1.268095,-0.580609,0.290542,-0.001569,0.728700,-0.247694,-0.182350,0.685508,-0.065057,1.192975,39.182171,-22.794083,-3.646364,0.506681,1.747848,-0.149369,0.000000,0.000000,0.000000,0.000000,0.000000,0.000000
12176382.000000,-2.311146,-1.662574,1.229923,-1.447191,1.710299,1.268790,-0.580671,0.287706,-0.000980,0.722759,-0.241887,-0.185974,0.696453,-0.061145,1.145368,39.182171,-22.718704,-3.820925,0.470060,1.800033,-0.196061,0.000000,0.000000,0.000000,0.000000,0.000000,0.000000
12176383.000000,-2.310852,-1.662573,1.230633,-1.447425,1.710116,1.269481,-0.580740,0.287055,-0.000047,0.719504,-0.231948,-0.186837,0.695109,-0.065373,1.046186,39.158367,-22.448929,-3.967714,0.476469,1.708480,-0.182328,0.000000,0.000000,0.000000,0.000000,0.000000,0.000000
12176384.000000,-2.310568,-1.662571,1.231367,-1.447660,1.709938,1.270187,-0.580810,0.286248,0.000656,0.720626,-0.233369,-0.181920,0.692947,-0.068435,0.970807,39.130596,-22.472733,-4.019289,0.458158,1.624252,-0.155778,0.000000,0.000000,0.000000,0.000000,0.000000,0.000000
12176385.000000,-2.310271,-1.662569,1.232105,-1.447894,1.709763,1.270871,-0.580873,0.288591,0.001022,0.721490,-0.232286,-0.181549,0.693049,-0.063814,0.796247,39.106792,-22.524307,-4.019289,0.405057,1.643478,-0.196061,0.000000,0.000000,0.000000,0.000000,0.000000,0.000000
12176386.000000,-2.309970,-1.662566,1.232824,-1.448130,1.709582,1.271564,-0.580943,0.291927,0.001816,0.716867,-0.231824,-0.177463,0.686752,-0.069029,0.649457,39.059185,-22.472733,-3.967714,0.374845,1.670028,-0.136552,0.000000,0.000000,0.000000,0.000000,0.000000,0.000000
12176387.000000,-2.309675,-1.662563,1.233548,-1.448352,1.709394,1.272264,-0.581004,0.294668,0.002340,0.717087,-0.232078,-0.177327,0.687747,-0.063635,0.474897,39.011578,-22.377518,-4.043092,0.416959,1.676437,-0.188737,0.000000,0.000000,0.000000,0.000000,0.000000,0.000000
12176388.000000,-2.309376,-1.662561,1.234270,-1.448578,1.709214,1.272944,-0.581067,0.293876,0.002221,0.733188,-0.229116,-0.181221,0.679219,-0.061056,0.276533,38.983807,-22.401321,-4.118471,0.446256,1.721298,-0.215287,0.000000,0.000000,0.000000,0.000000,0.000000,0.000000
12176389.000000,-2.309084,-1.662557,1.235009,-1.448790,1.709036,1.273639,-0.581135,0.294622,0.002603,0.735923,-0.224242,-0.182199,0.676957,-0.060292,0.153547,38.936199,-22.548111,-4.312868,0.434354,1.721298,-0.208878,0.000000,0.000000,0.000000,0.000000,0.000000,0.000000
12176390.000000,-2.308786,-1.662549,1.235754,-1.449004,1.708864,1.274329,-0.581204,0.300057,0.004619,0.734008,-0.220099,-0.177659,0.684631,-0.060146,-0.017047,38.813213,-22.694901,-4.412050,0.398649,1.649886,-0.188737,0.000000,0.000000,0.000000,0.000000,0.000000,0.000000
12176391.000000,-2.308489,-1.662552,1.236484,-1.449218,1.708688,1.275022,-0.581273,0.300063,0.001321,0.733860,-0.218389,-0.176808,0.686546,-0.064883,-0.167803,38.888592,-22.865494,-4.562807,0.428861,1.682845,-0.149369,0.000000,0.000000,0.000000,0.000000,0.000000,0.000000
12176392.000000,-2.308196,-1.662553,1.237213,-1.449425,1.708508,1.275705,-0.581334,0.295874,0.000884,0.731848,-0.211401,-0.180183,0.685690,-0.061014,-0.243182,38.888592,-22.865494,-4.709596,0.434354,1.767074,-0.196061,0.000000,0.000000,0.000000,0.000000,0.000000,0.000000
12176393.000000,-2.307893,-1.662559,1.237956,-1.449636,1.708334,1.276372,-0.581405,0.295065,-0.001078,0.732495,-0.210173,-0.176257,0.679435,-0.060426,-0.465350,38.960003,-23.040054,-4.808778,0.398649,1.903487,-0.182328,0.000000,0.000000,0.000000,0.000000,0.000000,0.000000
12176394.000000,-2.307592,-1.662565,1.238684,-1.449847,1.708156,1.277066,-0.581476,0.298430,-0.001923,0.732700,-0.207442,-0.173337,0.678204,-0.060556,-0.711321,39.011578,-23.111465,-4.856386,0.369352,1.897079,-0.155778,0.000000,0.000000,0.000000,0.000000,0.000000,0.000000
12176395.000000,-2.307295,-1.662569,1.239422,-1.450048,1.707985,1.277757,-0.581540,0.295053,-0.002394,0.728977,-0.208070,-0.176099,0.679740,-0.058329,-0.862078,39.059185,-23.210648,-5.054750,0.332731,1.760665,-0.182328,0.000000,0.000000,0.000000,0.000000,0.000000,0.000000
12176396.000000,-2.306999,-1.662567,1.240145,-1.450255,1.707812,1.278456,-0.581605,0.294634,-0.001595,0.726845,-0.207353,-0.174642,0.683524,-0.058240,-0.961260,39.059185,-23.234451,-5.153932,0.327238,1.637069,-0.175919,0.000000,0.000000,0.000000,0.000000,0.000000,0.000000
12176397.000000,-2.306699,-1.662571,1.240872,-1.450451,1.707645,1.279134,-0.581675,0.299238,-0.002733,0.726297,-0.207420,-0.172682,0.674632,-0.063744,-1.131854,39.130596,-23.186844,-5.328493,0.303434,1.702071,-0.142960,0.000000,0.000000,0.000000,0.000000,0.000000,0.000000
12176398.000000,-2.306406,-1.662575,1.241599,-1.450652,1.707474,1.279797,-0.581737,0.293879,-0.002471,0.728159,-0.204326,-0.169470,0.670451,-0.060382,-1.207232,39.158367,-23.087662,-5.427675,0.356534,1.844894,-0.182328,0.000000,0.000000,0.000000,0.000000,0.000000,0.000000
12176399.000000,-2.306113,-1.662579,1.242308,-1.450857,1.707303,1.280463,-0.581803,0.298242,-0.002760,0.724866,-0.205023,-0.169420,0.667255,-0.064771,-1.282611,39.205975,-22.917068,-5.526857,0.362943,1.949264,-0.169511,0.000000,0.000000,0.000000,0.000000,0.000000,0.000000
12176400.000000,-2.305824,-1.662585,1.243030,-1.451058,1.707127,1.281148,-0.581866,0.292649,-0.003603,0.719661,-0.203551,-0.174682,0.680493,-0.062039,-1.306414,39.281353,-22.817886,-5.574464,0.405057,1.955673,-0.188737,0.000000,0.000000,0.000000,0.000000,0.000000,0.000000
12176401.000000,-2.305527,-1.662583,1.243749,-1.451258,1.706961,1.281833,-0.581934,0.293734,-0.001195,0.722106,-0.200989,-0.170019,0.684711,-0.062009,-1.429400,39.229778,-22.770279,-5.673646,0.320829,1.844894,-0.155778,0.000000,0.000000,0.000000,0.000000,0.000000,0.000000
12176402.000000,-2.305233,-1.662582,1.244485,-1.451463,1.706798,1.282534,-0.581993,0.288096,-0.000240,0.722724,-0.202211,-0.167562,0.688011,-0.059399,-1.528582,39.205975,-22.940872,-5.649843,0.249418,1.695663,-0.188737,0.000000,0.000000,0.000000,0.000000,0.000000,0.000000
12176403.000000,-2.304939,-1.662586,1.245220,-1.451667,1.706632,1.283219,-0.582059,0.288571,-0.001273,0.722211,-0.202318,-0.168771,0.687391,-0.058727,-1.580157,39.253582,-22.964676,-5.649843,0.255826,1.643478,-0.182328,0.000000,0.000000,0.000000,0.000000,0.000000,0.000000
12176404.000000,-2.304644,-1.662591,1.245939,-1.451871,1.706463,1.283895,-0.582124,0.290803,-0.002612,0.718513,-0.199311,-0.169675,0.675146,-0.064428,-1.679339,39.328960,-22.988480,-5.626039,0.273221,1.767074,-0.142960,0.000000,0.000000,0.000000,0.000000,0.000000,0.000000
12176405.000000,-2.304353,-1.662596,1.246680,-1.452072,1.706297,1.284576,-0.582179,0.289547,-0.006590,0.721390,-0.200546,-0.170552,0.675874,-0.065078,-1.778521,39.400372,-23.186844,-5.598268,0.291532,1.903487,-0.196061,0.000000,0.000000,0.000000,0.000000,0.000000,0.000000
12176406.000000,-2.304066,-1.662607,1.247426,-1.452273,1.706137,1.285250,-0.582246,0.286371,-0.007535,0.728375,-0.200856,-0.169076,0.670057,-0.067884,-1.826129,39.523357,-23.409012,-5.598268,0.255826,1.955673,-0.182328,0.000000,0.000000,0.000000,0.000000,0.000000,0.000000
12176407.000000,-2.303785,-1.662618,1.248158,-1.452473,1.705968,1.285947,-0.582309,0.287520,-0.008099,0.736514,-0.199464,-0.173683,0.672847,-0.070777,-1.873736,39.646343,-23.627213,-5.649843,0.249418,1.884261,-0.155778,0.000000,0.000000,0.000000,0.000000,0.000000,0.000000
12176408.000000,-2.303500,-1.662630,1.248897,-1.452669,1.705794,1.286627,-0.582362,0.284283,-0.011479,0.736896,-0.195819,-0.173879,0.675782,-0.065306,-1.873736,39.769329,-23.774002,-5.697450,0.279630,1.838485,-0.202470,0.000000,0.000000,0.000000,0.000000,0.000000,0.000000
12176409.000000,-2.303214,-1.662649,1.249626,-1.452866,1.705613,1.287304,-0.582426,0.285484,-0.013123,0.736632,-0.196931,-0.175361,0.669289,-0.068292,-1.873736,39.987530,-23.996170,-5.697450,0.351041,1.903487,-0.182328,0.000000,0.000000,0.000000,0.000000,0.000000,0.000000
12176410.000000,-2.302931,-1.662667,1.250365,-1.453068,1.705433,1.287967,-0.582484,0.287393,-0.014220,0.733860,-0.197870,-0.176314,0.670593,-0.064975,-1.925311,40.209698,-24.119156,-5.574464,0.422452,2.053634,-0.188737,0.000000,0.000000,0.000000,0.000000,0.000000,0.000000
12176411.000000,-2.302647,-1.662692,1.251107,-1.453276,1.705261,1.288631,-0.582543,0.284337,-0.018725,0.732467,-0.200930,-0.171323,0.671165,-0.062162,-1.949114,40.455669,-24.265945,-5.475282,0.470060,2.112228,-0.208878,0.000000,0.000000,0.000000,0.000000,0.000000,0.000000
12176412.000000,-2.302375,-1.662709,1.251832,-1.453486,1.705095,1.289314,-0.582606,0.281174,-0.019479,0.731113,-0.205587,-0.165417,0.674814,-0.062365,-1.901507,40.602459,-24.265945,-5.399904,0.464567,2.027084,-0.169511,0.000000,0.000000,0.000000,0.000000,0.000000,0.000000
12176413.000000,-2.302103,-1.662725,1.252572,-1.453687,1.704935,1.289992,-0.582663,0.277750,-0.018403,0.728747,-0.204215,-0.163979,0.671029,-0.059560,-1.826129,40.673870,-24.388931,-5.399904,0.398649,1.916305,-0.202470,0.000000,0.000000,0.000000,0.000000,0.000000,0.000000
12176414.000000,-2.301827,-1.662747,1.253296,-1.453886,1.704772,1.290672,-0.582723,0.278807,-0.016959,0.728487,-0.199880,-0.167716,0.673539,-0.059151,-1.750750,40.844463,-24.388931,-5.399904,0.327238,1.877853,-0.196061,0.000000,0.000000,0.000000,0.000000,0.000000,0.000000
12176415.000000,-2.301560,-1.662764,1.254021,-1.454086,1.704602,1.291347,-0.582785,0.274910,-0.013595,0.725053,-0.205110,-0.167727,0.664507,-0.060075,-1.603961,40.919842,-24.242142,-5.399904,0.308927,1.884261,-0.155778,0.000000,0.000000,0.000000,0.000000,0.000000,0.000000
12176416.000000,-2.301294,-1.662783,1.254751,-1.454292,1.704428,1.292014,-0.582844,0.268043,-0.015507,0.726899,-0.200674,-0.166224,0.665432,-0.063236,-1.429400,41.042828,-24.119156,-5.399904,0.374845,1.936446,-0.169511,0.000000,0.000000,0.000000,0.000000,0.000000,0.000000
12176417.000000,-2.301028,-1.662798,1.255473,-1.454502,1.704259,1.292681,-0.582904,0.274541,-0.015035,0.728450,-0.201610,-0.163948,0.660995,-0.062032,-1.381793,41.090435,-23.996170,-5.352296,0.422452,1.981307,-0.155778,0.000000,0.000000,0.000000,0.000000,0.000000,0.000000
12176418.000000,-2.300759,-1.662804,1.256201,-1.454703,1.704097,1.293349,-0.582958,0.271478,-0.011549,0.723182,-0.201364,-0.163845,0.675781,-0.054421,-1.354022,40.991253,-23.920792,-5.352296,0.410551,1.981307,-0.196061,0.000000,0.000000,0.000000,0.000000,0.000000,0.000000
12176419.000000,-2.300497,-1.662812,1.256920,-1.454914,1.703933,1.294041,-0.583014,0.268097,-0.009972,0.734397,-0.205946,-0.161826,0.681829,-0.055583,-1.282611,40.919842,-23.825577,-5.276918,0.446256,1.844894,-0.182328,0.000000,0.000000,0.000000,0.000000,0.000000,0.000000
12176420.000000,-2.300231,-1.662819,1.257643,-1.455132,1.703778,1.294744,-0.583074,0.267417,-0.009545,0.725541,-0.206118,-0.157911,0.690523,-0.057196,-1.282611,40.872234,-23.726395,-5.205507,0.416959,1.682845,-0.149369,0.000000,0.000000,0.000000,0.000000,0.000000,0.000000
12176421.000000,-2.299967,-1.662822,1.258380,-1.455349,1.703623,1.295412,-0.583126,0.266565,-0.007994,0.725053,-0.207695,-0.158481,0.689746,-0.055087,-1.231036,40.773052,-23.774002,-5.078554,0.356534,1.727706,-0.196061,0.000000,0.000000,0.000000,0.000000,0.000000,0.000000
12176422.000000,-2.299696,-1.662828,1.259094,-1.455563,1.703457,1.296086,-0.583186,0.267507,-0.007635,0.718985,-0.207468,-0.160210,0.681231,-0.056997,-1.282611,40.697674,-23.726395,-4.983339,0.332731,1.851302,-0.142960,0.000000,0.000000,0.000000,0.000000,0.000000,0.000000
12176423.000000,-2.299442,-1.662828,1.259818,-1.455783,1.703287,1.296776,-0.583242,0.263730,-0.003262,0.716819,-0.215742,-0.159656,0.683661,-0.056604,-1.159625,40.578655,-23.678787,-4.808778,0.374845,1.903487,-0.149369,0.000000,0.000000,0.000000,0.000000,0.000000,0.000000
12176424.000000,-2.299177,-1.662834,1.260550,-1.456004,1.703121,1.297462,-0.583294,0.262347,-0.004741,0.721460,-0.217004,-0.163959,0.679937,-0.059598,-1.207232,40.527081,-23.702591,-4.709596,0.422452,1.844894,-0.196061,0.000000,0.000000,0.000000,0.000000,0.000000,0.000000
12176425.000000,-2.298923,-1.662833,1.261271,-1.456228,1.702961,1.298153,-0.583352,0.262380,0.000037,0.728513,-0.215792,-0.159486,0.678358,-0.060329,-1.183428,40.356487,-23.774002,-4.562807,0.405057,1.838485,-0.155778,0.000000,0.000000,0.000000,0.000000,0.000000,0.000000
12176426.000000,-2.298660,-1.662833,1.262006,-1.456443,1.702801,1.298837,-0.583402,0.259086,-0.000859,0.728602,-0.213137,-0.158686,0.680515,-0.058019,-1.159625,40.233501,-23.920792,-4.487428,0.440763,1.773483,-0.188737,0.000000,0.000000,0.000000,0.000000,0.000000,0.000000
12176427.000000,-2.298394,-1.662836,1.262723,-1.456669,1.702638,1.299534,-0.583457,0.260937,-0.003328,0.724844,-0.215218,-0.162908,0.682089,-0.061800,-1.183428,40.185894,-23.996170,-4.364442,0.482877,1.708480,-0.196061,0.000000,0.000000,0.000000,0.000000,0.000000,0.000000
12176428.000000,-2.298137,-1.662836,1.263452,-1.456898,1.702477,1.300208,-0.583508,0.259490,-0.003200,0.720826,-0.223813,-0.165416,0.677718,-0.059635,-1.159625,40.062908,-24.043777,-4.166078,0.512174,1.786300,-0.221696,0.000000,0.000000,0.000000,0.000000,0.000000,0.000000
12176429.000000,-2.297874,-1.662837,1.264182,-1.457118,1.702320,1.300870,-0.583566,0.257217,-0.003160,0.719695,-0.221604,-0.160325,0.671247,-0.055458,-1.183428,39.939922,-24.166763,-4.118471,0.476469,1.968490,-0.182328,0.000000,0.000000,0.000000,0.000000,0.000000,0.000000
12176430.000000,-2.297628,-1.662843,1.264901,-1.457340,1.702158,1.301551,-0.583622,0.257941,-0.008713,0.720968,-0.220536,-0.159880,0.673537,-0.056716,-1.084246,39.916119,-24.242142,-4.043092,0.410551,2.053634,-0.155778,0.000000,0.000000,0.000000,0.000000,0.000000,0.000000
12176431.000000,-2.297380,-1.662845,1.265629,-1.457556,1.701996,1.302234,-0.583672,0.254380,-0.004681,0.719616,-0.217880,-0.157981,0.688650,-0.054772,-0.985064,39.816936,-24.313553,-4.066896,0.416959,1.974899,-0.202470,0.000000,0.000000,0.000000,0.000000,0.000000,0.000000
12176432.000000,-2.297131,-1.662845,1.266334,-1.457780,1.701836,1.302922,-0.583733,0.250064,-0.001787,0.716939,-0.218405,-0.156475,0.687537,-0.056532,-0.834307,39.721722,-24.218338,-3.967714,0.422452,1.923629,-0.169511,0.000000,0.000000,0.000000,0.000000,0.000000,0.000000
12176433.000000,-2.296880,-1.662843,1.267061,-1.458001,1.701682,1.303603,-0.583787,0.250365,0.001015,0.718274,-0.217865,-0.154889,0.678416,-0.051557,-0.810504,39.598736,-24.265945,-3.920107,0.410551,1.974899,-0.175919,0.000000,0.000000,0.000000,0.000000,0.000000,0.000000
12176434.000000,-2.296629,-1.662842,1.267778,-1.458221,1.701527,1.304283,-0.583840,0.246951,0.001937,0.719443,-0.218926,-0.155250,0.682622,-0.047066,-0.786700,39.523357,-24.190567,-3.820925,0.446256,2.001449,-0.202470,0.000000,0.000000,0.000000,0.000000,0.000000,0.000000
12176435.000000,-2.296384,-1.662840,1.268471,-1.458450,1.701368,1.304969,-0.583898,0.246594,0.002027,0.708867,-0.218686,-0.156904,0.677381,-0.050956,-0.711321,39.475750,-23.896988,-3.745546,0.530485,1.962081,-0.163102,0.000000,0.000000,0.000000,0.000000,0.000000,0.000000
12176436.000000,-2.296143,-1.662839,1.269180,-1.458677,1.701216,1.305668,-0.583952,0.241836,0.001625,0.703993,-0.222938,-0.158852,0.680453,-0.051614,-0.588336,39.451946,-23.774002,-3.622560,0.530485,1.890670,-0.182328,0.000000,0.000000,0.000000,0.000000,0.000000,0.000000
12176437.000000,-2.295889,-1.662827,1.269893,-1.458901,1.701073,1.306344,-0.584008,0.243356,0.004305,0.721234,-0.219285,-0.158124,0.684495,-0.052404,-0.687518,39.305157,-23.726395,-3.523378,0.446256,1.877853,-0.196061,0.000000,0.000000,0.000000,0.000000,0.000000,0.000000
12176438.000000,-2.295655,-1.662821,1.270613,-1.459124,1.700922,1.307032,-0.584068,0.239343,0.010129,0.718371,-0.220893,-0.159080,0.678638,-0.050771,-0.564532,39.253582,-23.750198,-3.499574,0.398649,1.819259,-0.142960,0.000000,0.000000,0.000000,0.000000,0.000000,0.000000
12176439.000000,-2.295413,-1.662813,1.271322,-1.459349,1.700771,1.307705,-0.584118,0.237576,0.009378,0.711250,-0.223090,-0.157088,0.682993,-0.050508,-0.489153,39.158367,-23.579605,-3.448000,0.393156,1.832076,-0.175919,0.000000,0.000000,0.000000,0.000000,0.000000,0.000000
12176440.000000,-2.295172,-1.662811,1.272027,-1.459569,1.700618,1.308384,-0.584168,0.236466,0.006551,0.706799,-0.223127,-0.151990,0.675149,-0.051056,-0.389971,39.158367,-23.555801,-3.448000,0.422452,1.858627,-0.202470,0.000000,0.000000,0.000000,0.000000,0.000000,0.000000
12176441.000000,-2.294935,-1.662802,1.272750,-1.459793,1.700468,1.309059,-0.584224,0.237019,0.008025,0.715787,-0.222930,-0.153089,0.670473,-0.053829,-0.366168,39.011578,-23.702591,-3.348818,0.458158,2.001449,-0.169511,0.000000,0.000000,0.000000,0.000000,0.000000,0.000000
12176442.000000,-2.294697,-1.662793,1.273481,-1.460021,1.700326,1.309728,-0.584275,0.235546,0.007838,0.714588,-0.225129,-0.153018,0.668212,-0.052395,-0.290789,38.912395,-23.896988,-3.277406,0.470060,1.995040,-0.215287,0.000000,0.000000,0.000000,0.000000,0.000000,0.000000
12176443.000000,-2.294460,-1.662794,1.274187,-1.460244,1.700183,1.310421,-0.584336,0.236565,0.004794,0.711647,-0.222377,-0.147313,0.668213,-0.051297,-0.290789,38.936199,-24.019974,-3.249635,0.470060,1.903487,-0.149369,0.000000,0.000000,0.000000,0.000000,0.000000,0.000000
12176444.000000,-2.294231,-1.662792,1.274910,-1.460460,1.700039,1.311100,-0.584386,0.232417,0.003848,0.713554,-0.217487,-0.144862,0.668221,-0.051142,-0.215411,38.912395,-24.218338,-3.225832,0.506681,1.838485,-0.182328,0.000000,0.000000,0.000000,0.000000,0.000000,0.000000
12176445.000000,-2.294001,-1.662797,1.275612,-1.460676,1.699895,1.311775,-0.584441,0.233649,0.000316,0.712369,-0.216885,-0.145330,0.667841,-0.052935,-0.068621,39.011578,-24.289749,-3.178224,0.482877,1.916305,-0.163102,0.000000,0.000000,0.000000,0.000000,0.000000,0.000000
12176446.000000,-2.293771,-1.662801,1.276327,-1.460889,1.699748,1.312444,-0.584490,0.230522,-0.001407,0.714738,-0.220862,-0.146762,0.667111,-0.052398,0.006757,39.082989,-24.341324,-3.178224,0.482877,2.007858,-0.196061,0.000000,0.000000,0.000000,0.000000,0.000000,0.000000
12176447.000000,-2.293540,-1.662810,1.277044,-1.461099,1.699606,1.313113,-0.584542,0.229096,-0.003775,0.708487,-0.218880,-0.142914,0.670247,-0.048784,0.078168,39.205975,-24.341324,-3.178224,0.476469,2.014266,-0.196061,0.000000,0.000000,0.000000,0.000000,0.000000,0.000000
12176448.000000,-2.293318,-1.662815,1.277751,-1.461308,1.699466,1.313796,-0.584597,0.232120,-0.004250,0.713259,-0.213450,-0.139724,0.673042,-0.047839,0.153547,39.281353,-24.341324,-3.202028,0.476469,1.962081,-0.149369,0.000000,0.000000,0.000000,0.000000,0.000000,0.000000
12176449.000000,-2.293088,-1.662823,1.278464,-1.461511,1.699330,1.314476,-0.584642,0.231082,-0.005595,0.711810,-0.209895,-0.141591,0.681244,-0.047698,0.276533,39.400372,-24.313553,-3.225832,0.476469,1.930038,-0.208878,0.000000,0.000000,0.000000,0.000000,0.000000,0.000000
12176450.000000,-2.292868,-1.662828,1.279164,-1.461721,1.699193,1.315140,-0.584696,0.226035,-0.005476,0.708900,-0.210457,-0.139059,0.680381,-0.047015,0.451093,39.475750,-24.265945,-3.225832,0.470060,1.923629,-0.163102,0.000000,0.000000,0.000000,0.000000,0.000000,0.000000
12176451.000000,-2.292643,-1.662835,1.279868,-1.461922,1.699056,1.315823,-0.584752,0.226648,-0.012192,0.704244,-0.206793,-0.137957,0.677173,-0.045858,0.451093,39.574932,-24.095352,-3.277406,0.482877,1.858627,-0.130143,0.000000,0.000000,0.000000,0.000000,0.000000,0.000000
12176452.000000,-2.292428,-1.662840,1.280572,-1.462119,1.698921,1.316496,-0.584791,0.222995,-0.010308,0.699298,-0.204985,-0.136615,0.677976,-0.045029,0.601850,39.646343,-23.996170,-3.301210,0.488370,1.844894,-0.215287,0.000000,0.000000,0.000000,0.000000,0.000000,0.000000
12176453.000000,-2.292208,-1.662842,1.281265,-1.462321,1.698788,1.317173,-0.584845,0.221618,-0.007811,0.696746,-0.204398,-0.134674,0.672699,-0.045278,0.724836,39.670147,-23.801773,-3.277406,0.476469,1.825668,-0.163102,0.000000,0.000000,0.000000,0.000000,0.000000,0.000000
12176454.000000,-2.291987,-1.662842,1.281975,-1.462513,1.698659,1.317864,-0.584892,0.218522,-0.005494,0.697587,-0.201192,-0.132396,0.675154,-0.042885,0.796247,39.670147,-23.774002,-3.376589,0.428861,1.773483,-0.175919,0.000000,0.000000,0.000000,0.000000,0.000000,0.000000
12176455.000000,-2.291765,-1.662840,1.282669,-1.462713,1.698519,1.318548,-0.584941,0.217503,-0.003321,0.711199,-0.202093,-0.132252,0.682551,-0.045620,0.796247,39.646343,-23.627213,-3.348818,0.422452,1.702071,-0.196061,0.000000,0.000000,0.000000,0.000000,0.000000,0.000000
12176456.000000,-2.291551,-1.662837,1.283366,-1.462902,1.698379,1.319241,-0.584993,0.220908,-0.001262,0.705236,-0.197126,-0.133464,0.681326,-0.049495,0.895429,39.598736,-23.409012,-3.424196,0.458158,1.662704,-0.169511,0.000000,0.000000,0.000000,0.000000,0.000000,0.000000
12176457.000000,-2.291327,-1.662832,1.284067,-1.463090,1.698240,1.319910,-0.585039,0.221664,0.001358,0.702917,-0.191611,-0.129520,0.683695,-0.050388,0.847822,39.499554,-23.309830,-3.448000,0.494779,1.708480,-0.188737,0.000000,0.000000,0.000000,0.000000,0.000000,0.000000
12176458.000000,-2.291106,-1.662822,1.284759,-1.463291,1.698108,1.320590,-0.585095,0.219998,0.003691,0.699952,-0.195408,-0.129129,0.679735,-0.053159,0.847822,39.376568,-23.258255,-3.376589,0.470060,1.773483,-0.142960,0.000000,0.000000,0.000000,0.000000,0.000000,0.000000
12176459.000000,-2.290889,-1.662820,1.285457,-1.463480,1.697972,1.321294,-0.585139,0.222828,0.003506,0.695993,-0.193169,-0.130358,0.682493,-0.052166,0.796247,39.328960,-23.186844,-3.400392,0.482877,1.676437,-0.188737,0.000000,0.000000,0.000000,0.000000,0.000000,0.000000
12176460.000000,-2.290664,-1.662814,1.286167,-1.463675,1.697843,1.321978,-0.585192,0.222940,0.004050,0.699137,-0.193286,-0.134884,0.679758,-0.048862,0.796247,39.253582,-23.186844,-3.348818,0.464567,1.591293,-0.182328,0.000000,0.000000,0.000000,0.000000,0.000000,0.000000
12176461.000000,-2.290441,-1.662801,1.286866,-1.463862,1.697716,1.322659,-0.585241,0.224844,0.006652,0.697270,-0.192055,-0.132981,0.673955,-0.047096,0.748639,39.082989,-23.309830,-3.348818,0.440763,1.689254,-0.155778,0.000000,0.000000,0.000000,0.000000,0.000000,0.000000
12176462.000000,-2.290213,-1.662794,1.287569,-1.464051,1.697591,1.323334,-0.585288,0.224212,0.006726,0.698171,-0.191158,-0.131132,0.672138,-0.048321,0.649457,38.983807,-23.309830,-3.348818,0.398649,1.773483,-0.182328,0.000000,0.000000,0.000000,0.000000,0.000000,0.000000
12176463.000000,-2.289991,-1.662783,1.288272,-1.464238,1.697459,1.324028,-0.585337,0.222260,0.007247,0.703365,-0.189098,-0.131228,0.673525,-0.050075,0.625654,38.864788,-23.432816,-3.400392,0.393156,1.779891,-0.182328,0.000000,0.000000,0.000000,0.000000,0.000000,0.000000
12176464.000000,-2.289769,-1.662772,1.288973,-1.464418,1.697319,1.324717,-0.585385,0.221998,0.008249,0.701667,-0.191675,-0.132521,0.675716,-0.046983,0.574079,38.717999,-23.480423,-3.499574,0.416959,1.747848,-0.182328,0.000000,0.000000,0.000000,0.000000,0.000000,0.000000
12176465.000000,-2.289545,-1.662767,1.289689,-1.464599,1.697185,1.325390,-0.585432,0.221075,0.010424,0.702379,-0.186275,-0.131995,0.675572,-0.044095,0.502668,38.642620,-23.627213,-3.570986,0.405057,1.773483,-0.188737,0.000000,0.000000,0.000000,0.000000,0.000000,0.000000
12176466.000000,-2.289327,-1.662754,1.290393,-1.464775,1.697052,1.326067,-0.585482,0.217282,0.010639,0.700376,-0.184635,-0.131394,0.674097,-0.044024,0.451093,38.495831,-23.801773,-3.670168,0.398649,1.793624,-0.149369,0.000000,0.000000,0.000000,0.000000,0.000000,0.000000
