chaoyuefei/paper-gmrm-data/robot_logs/s2_dq_mrm_max_0.50_log_20260314_174912.csv
# time_ms,q_0,q_1,q_2,q_3,q_4,q_5,q_6,dq_0,dq_1,dq_2,dq_3,dq_4,dq_5,dq_6,tau_J_0,tau_J_1,tau_J_2,tau_J_3,tau_J_4,tau_J_5,tau_J_6,O_dP_EE_c_0,O_dP_EE_c_1,O_dP_EE_c_2,O_dP_EE_c_3,O_dP_EE_c_4,O_dP_EE_c_5
13214518.000000,2.312747,-0.964745,-1.819539,-1.386091,-0.927557,1.665502,0.447534,-0.000862,0.000259,-0.000267,-0.000716,0.000137,0.000373,0.001383,0.054365,35.508465,19.691574,12.171202,1.008390,1.370651,-0.169511,0.000000,0.000000,0.000000,0.000000,0.000000,0.000000
13214519.000000,2.312747,-0.964747,-1.819539,-1.386093,-0.927556,1.665502,0.447527,-0.000574,-0.000477,-0.000178,-0.000477,0.000532,0.000249,-0.001282,0.054365,35.536236,19.691574,12.171202,0.996488,1.370651,-0.110001,0.000000,0.000000,0.000000,0.000000,0.000000,0.000000
13214520.000000,2.312752,-0.964747,-1.819538,-1.386091,-0.927557,1.665504,0.447533,0.001287,-0.000318,0.000438,0.000239,-0.000086,-0.000071,0.001112,-0.017047,35.536236,19.667770,12.147398,1.008390,1.377059,-0.163102,0.000000,0.000000,0.000000,0.000000,0.000000,0.000000
13214521.000000,2.312751,-0.964749,-1.819536,-1.386093,-0.927557,1.665501,0.447529,0.000301,-0.000769,0.000849,-0.000398,-0.000057,-0.000285,-0.000479,0.006757,35.560040,19.643967,12.171202,1.008390,1.383468,-0.130143,0.000000,0.000000,0.000000,0.000000,0.000000,0.000000
13214522.000000,2.312736,-0.964749,-1.819542,-1.386093,-0.927553,1.665504,0.447531,-0.016419,-0.010028,-0.012517,-0.000915,-0.005825,0.001031,-0.000828,-0.366168,35.020489,19.128220,12.198973,0.913175,1.350509,-0.116410,0.000000,0.000000,0.000000,0.000000,0.000000,0.000000
13214523.000000,2.312720,-0.964721,-1.819557,-1.386095,-0.927540,1.665500,0.447549,-0.031145,-0.009496,-0.030202,-0.000218,-0.005431,-0.002131,0.009123,-2.270464,32.767071,17.287399,12.321959,0.554288,1.299239,-0.122819,0.000000,0.000000,0.000000,0.000000,0.000000,0.000000
13214524.000000,2.312713,-0.964669,-1.819628,-1.386086,-0.927521,1.665483,0.447571,-0.027073,0.004696,-0.052065,0.003715,0.006397,-0.004222,0.013409,-5.761675,28.950542,14.486496,12.298155,-0.019747,1.364242,-0.044083,0.000000,0.000000,0.000000,0.000000,0.000000,0.000000
13214525.000000,2.312669,-0.964657,-1.819751,-1.386075,-0.927535,1.665463,0.447614,-0.023419,0.010217,-0.081047,0.005903,-0.000005,-0.007687,0.024456,-9.649615,24.741253,11.320602,12.171202,-0.342013,1.487838,-0.044083,0.000000,0.000000,0.000000,0.000000,0.000000,0.000000
13214526.000000,2.312595,-0.964708,-1.819891,-1.386065,-0.927602,1.665468,0.447668,-0.028356,0.002298,-0.092900,0.005680,-0.026706,-0.005108,0.038211,-13.410602,21.214336,7.761948,11.976805,-0.204684,1.481429,-0.064225,0.000000,0.000000,0.000000,0.000000,0.000000,0.000000
13214527.000000,2.312494,-0.964793,-1.820056,-1.386073,-0.927689,1.665517,0.447736,-0.042334,-0.016118,-0.099200,-0.001130,-0.047271,0.011513,0.045956,-16.727251,18.278545,4.500839,11.925230,-0.013339,1.201278,-0.023942,0.000000,0.000000,0.000000,0.000000,0.000000,0.000000
13214528.000000,2.312379,-0.964918,-1.820228,-1.386087,-0.927783,1.665616,0.447823,-0.055780,-0.042593,-0.111700,-0.005724,-0.065655,0.043707,0.062834,-19.651140,16.025127,1.775314,11.849852,0.154203,0.616256,-0.017533,0.000000,0.000000,0.000000,0.000000,0.000000,0.000000
13214529.000000,2.312254,-0.965071,-1.820377,-1.386102,-0.927894,1.665762,0.447932,-0.072860,-0.072804,-0.114742,-0.010032,-0.085967,0.082639,0.079379,-22.150530,14.533428,-0.926407,11.679258,0.261320,-0.157365,0.009017,0.000000,0.000000,0.000000,0.000000,0.000000,0.000000
13214530.000000,2.312128,-0.965232,-1.820531,-1.386123,-0.928000,1.665907,0.448075,-0.080999,-0.096445,-0.117116,-0.012997,-0.091290,0.109374,0.103075,-24.550737,13.478130,-3.108414,11.480894,0.112089,-0.651749,-0.017533,0.000000,0.000000,0.000000,0.000000,0.000000,0.000000
13214531.000000,2.311997,-0.965406,-1.820655,-1.386146,-0.928117,1.666053,0.448228,-0.093249,-0.123011,-0.117368,-0.019028,-0.099613,0.120531,0.122892,-26.653399,12.744183,-5.171402,11.183348,-0.067355,-0.781754,0.028243,0.000000,0.000000,0.000000,0.000000,0.000000,0.000000
13214532.000000,2.311867,-0.965566,-1.820786,-1.386179,-0.928242,1.666200,0.448418,-0.098783,-0.131098,-0.112858,-0.025904,-0.103342,0.125096,0.144719,-28.188738,12.010235,-6.571854,10.691404,-0.324618,-0.528153,0.009017,0.000000,0.000000,0.000000,0.000000,0.000000,0.000000
13214533.000000,2.311714,-0.965715,-1.820907,-1.386245,-0.928370,1.666382,0.448631,-0.104527,-0.132697,-0.112120,-0.046295,-0.112798,0.143861,0.169240,-28.363298,11.423077,-7.258194,10.096312,-0.641390,-0.255326,0.028243,0.000000,0.000000,0.000000,0.000000,0.000000,0.000000
13214534.000000,2.311555,-0.965832,-1.821019,-1.386379,-0.928521,1.666625,0.448873,-0.115591,-0.127386,-0.111813,-0.080696,-0.124580,0.172375,0.194427,-27.149309,10.736736,-7.281998,9.699583,-0.754916,-0.229691,-0.004716,0.000000,0.000000,0.000000,0.000000,0.000000,0.000000
13214535.000000,2.311394,-0.965931,-1.821132,-1.386577,-0.928701,1.666915,0.449129,-0.131048,-0.119517,-0.113914,-0.124800,-0.142422,0.209922,0.211843,-24.872087,10.054363,-6.667068,9.354429,-0.743014,-0.372514,-0.017533,0.000000,0.000000,0.000000,0.000000,0.000000,0.000000
13214536.000000,2.311226,-0.966012,-1.821242,-1.386796,-0.928906,1.667232,0.449390,-0.150016,-0.107709,-0.118783,-0.155632,-0.160662,0.244714,0.223812,-21.900591,9.268841,-5.635574,8.687925,-0.587374,-0.443925,0.015426,0.000000,0.000000,0.000000,0.000000,0.000000,0.000000
13214537.000000,2.311043,-0.966080,-1.821357,-1.387051,-0.929129,1.667549,0.449663,-0.168048,-0.095591,-0.124580,-0.185725,-0.184565,0.269315,0.240356,-18.536333,8.487286,-4.385880,7.898436,-0.384127,-0.215958,-0.011124,0.000000,0.000000,0.000000,0.000000,0.000000,0.000000
13214538.000000,2.310875,-0.966139,-1.821471,-1.387335,-0.929360,1.667868,0.449945,-0.179752,-0.083583,-0.127946,-0.212340,-0.199265,0.283194,0.249992,-15.366473,7.725567,-3.207596,7.104979,-0.252291,0.154830,0.015426,0.000000,0.000000,0.000000,0.000000,0.000000,0.000000
13214539.000000,2.310711,-0.966211,-1.821579,-1.387640,-0.929601,1.668222,0.450233,-0.179424,-0.080544,-0.129117,-0.235720,-0.208065,0.302731,0.264657,-12.470355,7.213787,-2.299088,6.339293,-0.174471,0.408431,-0.023942,0.000000,0.000000,0.000000,0.000000,0.000000,0.000000
13214540.000000,2.310534,-0.966276,-1.821706,-1.387955,-0.929844,1.668601,0.450524,-0.185181,-0.076492,-0.135590,-0.257064,-0.225933,0.329495,0.271420,-9.673419,6.650433,-1.390579,5.549803,-0.287997,0.499068,0.021835,0.000000,0.000000,0.000000,0.000000,0.000000,0.000000
13214541.000000,2.310354,-0.966361,-1.821847,-1.388278,-0.930100,1.669012,0.450812,-0.190069,-0.082622,-0.143359,-0.273206,-0.236488,0.350335,0.273077,-7.098650,6.356853,-0.628861,4.780150,-0.509554,0.557662,0.015426,0.000000,0.000000,0.000000,0.000000,0.000000,0.000000
13214542.000000,2.310186,-0.966462,-1.821997,-1.388607,-0.930392,1.669440,0.451111,-0.184766,-0.089698,-0.149401,-0.283875,-0.256124,0.370674,0.281810,-5.043597,6.333050,-0.117081,3.966856,-0.563571,0.603439,-0.031266,0.000000,0.000000,0.000000,0.000000,0.000000,0.000000
13214543.000000,2.310018,-0.966605,-1.822168,-1.388920,-0.930702,1.669869,0.451403,-0.179713,-0.107335,-0.159441,-0.287522,-0.268742,0.388097,0.284655,-3.210711,6.749615,0.374863,3.101988,-0.539767,0.720626,0.028243,0.000000,0.000000,0.000000,0.000000,0.000000,0.000000
13214544.000000,2.309852,-0.966757,-1.822355,-1.389235,-0.931024,1.670335,0.451699,-0.173018,-0.127138,-0.173466,-0.293127,-0.287266,0.408928,0.284765,-1.679339,7.138409,0.819198,2.185545,-0.521456,0.727035,0.015426,0.000000,0.000000,0.000000,0.000000,0.000000,0.000000
13214545.000000,2.309690,-0.966920,-1.822551,-1.389562,-0.931383,1.670826,0.451986,-0.167606,-0.141939,-0.178387,-0.297534,-0.307788,0.433467,0.282930,-0.366168,7.531170,1.013595,1.443663,-0.431735,0.524703,0.041976,0.000000,0.000000,0.000000,0.000000,0.000000,0.000000
13214546.000000,2.309550,-0.967088,-1.822758,-1.389882,-0.931750,1.671362,0.452284,-0.156922,-0.152707,-0.191143,-0.305570,-0.334582,0.468867,0.285073,0.474897,7.800945,1.160385,0.729552,-0.365817,0.212508,-0.011124,0.000000,0.000000,0.000000,0.000000,0.000000,0.000000
13214547.000000,2.309419,-0.967258,-1.822986,-1.390217,-0.932127,1.671916,0.452567,-0.148162,-0.158897,-0.203686,-0.310800,-0.350992,0.490821,0.287305,1.069990,7.995342,1.283371,0.158263,-0.324618,-0.020951,0.041976,0.000000,0.000000,0.000000,0.000000,0.000000,0.000000
13214548.000000,2.309294,-0.967430,-1.823212,-1.390547,-0.932535,1.672468,0.452868,-0.138948,-0.165667,-0.211870,-0.318781,-0.366215,0.513862,0.288120,1.490522,8.023113,1.184189,-0.385256,-0.324618,-0.033768,-0.017533,0.000000,0.000000,0.000000,0.000000,0.000000,0.000000
13214549.000000,2.309181,-0.967596,-1.823445,-1.390885,-0.932954,1.673028,0.453154,-0.127667,-0.165570,-0.218729,-0.322988,-0.383347,0.523942,0.286656,1.641279,7.800945,1.088974,-0.928774,-0.312716,0.141097,-0.011124,0.000000,0.000000,0.000000,0.000000,0.000000,0.000000
13214550.000000,2.309080,-0.967758,-1.823689,-1.391240,-0.933383,1.673609,0.453439,-0.118342,-0.164605,-0.224534,-0.332737,-0.394633,0.542978,0.283824,1.565900,7.384380,0.890610,-1.250124,-0.318209,0.304061,0.034652,0.000000,0.000000,0.000000,0.000000,0.000000,0.000000
13214551.000000,2.308983,-0.967913,-1.823942,-1.391610,-0.933830,1.674222,0.453739,-0.108603,-0.156873,-0.231528,-0.343932,-0.414448,0.568968,0.286137,1.442914,6.773418,0.767624,-1.349306,-0.348422,0.297652,-0.031266,0.000000,0.000000,0.000000,0.000000,0.000000,0.000000
13214552.000000,2.308881,-0.968067,-1.824210,-1.391984,-0.934276,1.674885,0.454012,-0.107792,-0.156587,-0.240484,-0.354621,-0.419811,0.598312,0.282228,1.442914,6.210064,0.644638,-1.448488,-0.330111,0.102645,0.054794,0.000000,0.000000,0.000000,0.000000,0.000000,0.000000
13214553.000000,2.308790,-0.968232,-1.824495,-1.392377,-0.934731,1.675551,0.454299,-0.100895,-0.156676,-0.251929,-0.371220,-0.433093,0.618388,0.282576,1.268354,5.646709,0.597031,-1.448488,-0.300814,-0.027360,0.041976,0.000000,0.000000,0.000000,0.000000,0.000000,0.000000
13214554.000000,2.308702,-0.968413,-1.824772,-1.392777,-0.935201,1.676232,0.454580,-0.095023,-0.162026,-0.258073,-0.380968,-0.441105,0.641766,0.284008,1.046186,5.277752,0.450241,-1.420717,-0.216586,0.004684,0.009017,0.000000,0.000000,0.000000,0.000000,0.000000,0.000000
13214555.000000,2.308627,-0.968606,-1.825055,-1.393189,-0.935679,1.676936,0.454858,-0.086588,-0.169247,-0.263293,-0.388244,-0.449136,0.658527,0.281704,0.748639,5.059551,0.204269,-1.496095,-0.055453,0.056869,0.067611,0.000000,0.000000,0.000000,0.000000,0.000000,0.000000
13214556.000000,2.308558,-0.968809,-1.825367,-1.393604,-0.936150,1.677657,0.455148,-0.080673,-0.178370,-0.275961,-0.397438,-0.451092,0.681623,0.284509,0.451093,5.035748,0.426437,-1.547670,-0.013339,0.102645,0.001693,0.000000,0.000000,0.000000,0.000000,0.000000,0.000000
13214557.000000,2.308487,-0.969033,-1.825667,-1.394035,-0.936614,1.678413,0.455425,-0.078570,-0.191604,-0.281125,-0.403864,-0.447594,0.704183,0.282020,0.375715,5.428509,0.644638,-1.742067,0.027860,0.076095,0.061202,0.000000,0.000000,0.000000,0.000000,0.000000,0.000000
13214558.000000,2.308408,-0.969273,-1.825953,-1.394482,-0.937081,1.679186,0.455709,-0.078608,-0.203138,-0.282676,-0.419076,-0.445957,0.738633,0.278786,0.649457,6.210064,1.037399,-1.793642,0.117582,0.011092,0.021835,0.000000,0.000000,0.000000,0.000000,0.000000,0.000000
13214559.000000,2.308332,-0.969523,-1.826254,-1.394961,-0.937525,1.679994,0.455987,-0.076106,-0.217669,-0.289245,-0.435880,-0.444195,0.758416,0.280974,1.121564,7.312969,1.969711,-1.718263,0.040677,-0.020951,-0.004716,0.000000,0.000000,0.000000,0.000000,0.000000,0.000000
13214560.000000,2.308244,-0.969774,-1.826536,-1.395449,-0.937974,1.680823,0.456266,-0.080432,-0.230307,-0.289267,-0.449665,-0.440772,0.780511,0.281029,1.887250,8.558697,2.902023,-1.694460,0.022367,-0.027360,0.009017,0.000000,0.000000,0.000000,0.000000,0.000000,0.000000
13214561.000000,2.308155,-0.970018,-1.826810,-1.395947,-0.938425,1.681652,0.456543,-0.087294,-0.239100,-0.288152,-0.466770,-0.440950,0.795925,0.275108,2.728315,9.586224,3.810531,-1.694460,0.081876,0.023910,0.028243,0.000000,0.000000,0.000000,0.000000,0.000000,0.000000
13214562.000000,2.308066,-0.970261,-1.827097,-1.396475,-0.938849,1.682509,0.456812,-0.090625,-0.247477,-0.291510,-0.485874,-0.433957,0.811839,0.268184,3.521772,10.347942,4.794418,-1.396913,-0.055453,0.050460,0.021835,0.000000,0.000000,0.000000,0.000000,0.000000,0.000000
13214563.000000,2.307961,-0.970513,-1.827383,-1.397011,-0.939279,1.683365,0.457078,-0.096013,-0.249276,-0.293676,-0.501065,-0.427487,0.824684,0.268039,4.462018,10.982708,5.528366,-1.250124,-0.085665,0.109054,0.015426,0.000000,0.000000,0.000000,0.000000,0.000000,0.000000
13214564.000000,2.307857,-0.970760,-1.827676,-1.397549,-0.939714,1.684191,0.457341,-0.099847,-0.247082,-0.299736,-0.511863,-0.441461,0.818235,0.270208,5.303083,11.323895,6.167099,-1.198549,-0.060946,0.206100,0.061202,0.000000,0.000000,0.000000,0.000000,0.000000,0.000000
13214565.000000,2.307757,-0.971021,-1.827990,-1.398125,-0.940160,1.685034,0.457612,-0.099355,-0.251613,-0.304015,-0.528424,-0.442142,0.818785,0.274786,5.997358,11.617474,6.782028,-1.000185,0.004056,0.245467,0.028243,0.000000,0.000000,0.000000,0.000000,0.000000,0.000000
13214566.000000,2.307644,-0.971301,-1.828306,-1.398692,-0.940609,1.685848,0.457886,-0.103807,-0.258425,-0.302019,-0.542095,-0.443043,0.820359,0.271740,6.763044,11.915020,7.150986,-1.051759,0.088285,0.297652,0.034652,0.000000,0.000000,0.000000,0.000000,0.000000,0.000000
13214567.000000,2.307526,-0.971587,-1.828623,-1.399275,-0.941058,1.686655,0.458154,-0.108483,-0.263787,-0.306090,-0.548518,-0.447954,0.805852,0.264333,7.457319,12.180828,7.468369,-1.198549,0.166105,0.381881,0.001693,0.000000,0.000000,0.000000,0.000000,0.000000,0.000000
13214568.000000,2.307407,-0.971902,-1.828951,-1.399868,-0.941518,1.687473,0.458418,-0.114666,-0.280824,-0.311509,-0.554347,-0.445010,0.804382,0.266968,8.123822,12.597393,7.761948,-1.420717,0.219205,0.362655,0.054794,0.000000,0.000000,0.000000,0.000000,0.000000,0.000000
13214569.000000,2.307290,-0.972243,-1.829278,-1.400455,-0.941972,1.688273,0.458688,-0.114071,-0.298999,-0.318076,-0.568577,-0.449137,0.808918,0.265479,8.695111,13.136944,7.984116,-1.718263,0.243009,0.297652,0.081344,0.000000,0.000000,0.000000,0.000000,0.000000,0.000000
13214570.000000,2.307169,-0.972598,-1.829617,-1.401053,-0.942423,1.689073,0.458964,-0.113353,-0.315434,-0.323006,-0.577419,-0.446353,0.800632,0.268742,9.238629,13.771709,8.182480,-2.091188,0.154203,0.245467,-0.004716,0.000000,0.000000,0.000000,0.000000,0.000000,0.000000
13214571.000000,2.307032,-0.972983,-1.829956,-1.401664,-0.942884,1.689864,0.459224,-0.119627,-0.338760,-0.323704,-0.592713,-0.446013,0.799436,0.264443,9.932904,14.509624,8.253891,-2.360964,0.129484,0.232650,0.061202,0.000000,0.000000,0.000000,0.000000,0.000000,0.000000
13214572.000000,2.306896,-0.973383,-1.830299,-1.402276,-0.943339,1.690658,0.459494,-0.125193,-0.353921,-0.327101,-0.594565,-0.451555,0.804079,0.266071,10.401044,15.291180,8.424484,-2.460146,0.100187,0.193282,0.021835,0.000000,0.000000,0.000000,0.000000,0.000000,0.000000
13214573.000000,2.306750,-0.973791,-1.830641,-1.402905,-0.943803,1.691458,0.459767,-0.134705,-0.373224,-0.334173,-0.595969,-0.455092,0.797376,0.270148,10.674787,16.148113,8.547470,-2.114992,0.058073,0.174056,0.028243,0.000000,0.000000,0.000000,0.000000,0.000000,0.000000
13214574.000000,2.306588,-0.974209,-1.830973,-1.403521,-0.944272,1.692243,0.460041,-0.143156,-0.383926,-0.338186,-0.603746,-0.455373,0.793552,0.273721,10.726361,17.028851,8.523666,-1.349306,0.081876,0.245467,0.021835,0.000000,0.000000,0.000000,0.000000,0.000000,0.000000
13214575.000000,2.306414,-0.974620,-1.831327,-1.404134,-0.944733,1.693036,0.460314,-0.150923,-0.396176,-0.340709,-0.601692,-0.461779,0.793612,0.270511,10.527997,17.810406,8.646652,-0.262270,0.010465,0.316879,0.048385,0.000000,0.000000,0.000000,0.000000,0.000000,0.000000
13214576.000000,2.306248,-0.975041,-1.831686,-1.404750,-0.945205,1.693823,0.460591,-0.154268,-0.401893,-0.342871,-0.603503,-0.458656,0.808217,0.269359,10.032086,18.449139,8.793442,1.150084,0.010465,0.440475,0.028243,0.000000,0.000000,0.000000,0.000000,0.000000,0.000000
13214577.000000,2.306068,-0.975460,-1.832036,-1.405347,-0.945671,1.694627,0.460862,-0.158881,-0.404054,-0.346330,-0.610192,-0.464610,0.805695,0.270583,9.460797,18.988689,8.868820,2.606077,0.081876,0.551253,0.048385,0.000000,0.000000,0.000000,0.000000,0.000000,0.000000
13214578.000000,2.305886,-0.975869,-1.832401,-1.405950,-0.946140,1.695419,0.461144,-0.165090,-0.407179,-0.351187,-0.608378,-0.464085,0.799007,0.274218,8.941083,19.306072,9.063217,4.113646,0.022367,0.765487,0.034652,0.000000,0.000000,0.000000,0.000000,0.000000,0.000000
13214579.000000,2.305705,-0.976282,-1.832765,-1.406559,-0.946609,1.696202,0.461421,-0.165444,-0.403975,-0.353997,-0.621107,-0.459242,0.792414,0.270799,8.349957,19.524273,9.210007,5.549803,-0.031649,0.934859,0.041976,0.000000,0.000000,0.000000,0.000000,0.000000,0.000000
13214580.000000,2.305540,-0.976705,-1.833134,-1.407151,-0.947081,1.696999,0.461683,-0.163731,-0.418377,-0.359899,-0.614145,-0.463825,0.787497,0.271677,7.655683,19.698833,9.384567,6.684447,0.004056,1.090499,0.107894,0.000000,0.000000,0.000000,0.000000,0.000000,0.000000
13214581.000000,2.305380,-0.977136,-1.833513,-1.407757,-0.947552,1.697793,0.461958,-0.161625,-0.419722,-0.361602,-0.609656,-0.463107,0.789026,0.268309,7.036787,19.869427,9.602768,7.624693,-0.037142,1.129867,0.041976,0.000000,0.000000,0.000000,0.000000,0.000000,0.000000
13214582.000000,2.305216,-0.977582,-1.833885,-1.408350,-0.948019,1.698565,0.462228,-0.158974,-0.425937,-0.365183,-0.607162,-0.467452,0.781008,0.272530,6.517072,19.992413,9.777328,8.267393,-0.025240,1.272689,0.034652,0.000000,0.000000,0.000000,0.000000,0.000000,0.000000
13214583.000000,2.305061,-0.978030,-1.834274,-1.408937,-0.948511,1.699337,0.462498,-0.160459,-0.434707,-0.369907,-0.593645,-0.475495,0.774209,0.269965,6.044965,20.139202,10.023300,8.564939,0.046171,1.402694,0.048385,0.000000,0.000000,0.000000,0.000000,0.000000,0.000000
13214584.000000,2.304925,-0.978488,-1.834675,-1.409522,-0.948999,1.700093,0.462772,-0.149710,-0.439422,-0.378402,-0.589596,-0.475148,0.764583,0.268444,5.426069,20.087627,10.364487,8.735533,0.081876,1.442062,0.034652,0.000000,0.000000,0.000000,0.000000,0.000000,0.000000
13214585.000000,2.304784,-0.978952,-1.835068,-1.410107,-0.949486,1.700876,0.463038,-0.144680,-0.447390,-0.381228,-0.583947,-0.481544,0.767229,0.266393,4.930158,20.163006,10.562851,8.711729,0.159696,1.337692,0.067611,0.000000,0.000000,0.000000,0.000000,0.000000,0.000000
13214586.000000,2.304663,-0.979422,-1.835469,-1.410682,-0.949981,1.701655,0.463310,-0.135692,-0.450299,-0.388109,-0.578051,-0.483467,0.770899,0.271710,4.339033,20.111431,10.856430,8.465757,0.189908,1.299239,0.041976,0.000000,0.000000,0.000000,0.000000,0.000000,0.000000
13214587.000000,2.304534,-0.979919,-1.835866,-1.411244,-0.950472,1.702414,0.463580,-0.132614,-0.459603,-0.389707,-0.572619,-0.479083,0.764196,0.274002,3.918500,20.258221,11.102402,8.168211,0.171598,1.253463,0.054794,0.000000,0.000000,0.000000,0.000000,0.000000,0.000000
13214588.000000,2.304416,-0.980405,-1.836271,-1.411817,-0.950962,1.703183,0.463854,-0.128025,-0.463895,-0.395386,-0.567825,-0.486397,0.760160,0.274203,3.446393,20.381207,11.395981,7.946043,0.171598,1.272689,-0.011124,0.000000,0.000000,0.000000,0.000000,0.000000,0.000000
13214589.000000,2.304314,-0.980904,-1.836682,-1.412381,-0.951470,1.703942,0.464115,-0.120155,-0.468861,-0.397041,-0.573004,-0.494753,0.762947,0.269057,3.002058,20.726360,11.864120,7.700072,0.279630,1.305648,0.048385,0.000000,0.000000,0.000000,0.000000,0.000000,0.000000
13214590.000000,2.304208,-0.981406,-1.837078,-1.412933,-0.951969,1.704713,0.464370,-0.114729,-0.476614,-0.395685,-0.563007,-0.496941,0.761186,0.267777,2.728315,21.408733,12.498886,7.577086,0.381254,1.312057,0.054794,0.000000,0.000000,0.000000,0.000000,0.000000,0.000000
13214591.000000,2.304104,-0.981906,-1.837466,-1.413492,-0.952471,1.705501,0.464633,-0.110142,-0.478126,-0.392697,-0.558348,-0.495067,0.762837,0.271462,2.581525,22.341045,13.236801,7.600890,0.386747,1.227828,0.061202,0.000000,0.000000,0.000000,0.000000,0.000000,0.000000
13214592.000000,2.304013,-0.982395,-1.837853,-1.414048,-0.952975,1.706270,0.464899,-0.101354,-0.483459,-0.398983,-0.561399,-0.495474,0.766483,0.270138,2.359357,23.269390,14.022324,7.898436,0.452665,1.214095,0.048385,0.000000,0.000000,0.000000,0.000000,0.000000,0.000000
13214593.000000,2.303930,-0.982886,-1.838239,-1.414601,-0.953469,1.707043,0.465163,-0.097790,-0.489308,-0.397223,-0.555823,-0.496255,0.762271,0.269006,2.133222,24.273113,14.879257,8.168211,0.393156,1.331283,0.041976,0.000000,0.000000,0.000000,0.000000,0.000000,0.000000
13214594.000000,2.303852,-0.983389,-1.838632,-1.415151,-0.953963,1.707819,0.465425,-0.091032,-0.498526,-0.398066,-0.550046,-0.492854,0.766609,0.266663,1.887250,25.376019,15.716354,8.366575,0.374845,1.429244,0.061202,0.000000,0.000000,0.000000,0.000000,0.000000,0.000000
13214595.000000,2.303789,-0.983891,-1.839013,-1.415698,-0.954458,1.708570,0.465690,-0.079709,-0.500304,-0.395857,-0.549459,-0.497009,0.752683,0.275755,1.514325,26.280560,16.426498,8.687925,0.381254,1.624252,0.015426,0.000000,0.000000,0.000000,0.000000,0.000000,0.000000
13214596.000000,2.303725,-0.984381,-1.839399,-1.416263,-0.954961,1.709340,0.465951,-0.077282,-0.502290,-0.394054,-0.550241,-0.493643,0.753741,0.266442,1.244550,27.089886,17.017624,9.179869,0.339139,1.760665,0.061202,0.000000,0.000000,0.000000,0.000000,0.000000,0.000000
13214597.000000,2.303662,-0.984876,-1.839787,-1.416828,-0.955462,1.710098,0.466216,-0.073248,-0.499830,-0.391027,-0.558205,-0.492872,0.758340,0.262244,1.022382,27.776226,17.505600,9.552794,0.344633,1.812850,0.028243,0.000000,0.000000,0.000000,0.000000,0.000000,0.000000
13214598.000000,2.303614,-0.985391,-1.840182,-1.417386,-0.955972,1.710873,0.466473,-0.065364,-0.515094,-0.395229,-0.562430,-0.499619,0.764215,0.256256,0.601850,28.704571,17.997543,9.850340,0.410551,1.760665,0.074935,0.000000,0.000000,0.000000,0.000000,0.000000,0.000000
13214599.000000,2.303569,-0.985933,-1.840586,-1.417948,-0.956489,1.711664,0.466739,-0.057900,-0.517993,-0.394533,-0.559357,-0.499722,0.762264,0.256477,0.228925,29.855083,18.465683,10.020933,0.506681,1.637069,0.021835,0.000000,0.000000,0.000000,0.000000,0.000000,0.000000
13214600.000000,2.303524,-0.986499,-1.840981,-1.418505,-0.957004,1.712420,0.466996,-0.053480,-0.532113,-0.392488,-0.559108,-0.520788,0.761326,0.256405,-0.092425,31.128582,18.830673,10.120115,0.601896,1.624252,0.074935,0.000000,0.000000,0.000000,0.000000,0.000000,0.000000
13214601.000000,2.303485,-0.987059,-1.841386,-1.419065,-0.957518,1.713184,0.467259,-0.049087,-0.545399,-0.390383,-0.558837,-0.513547,0.756239,0.262977,-0.441546,32.255291,19.152023,10.143919,0.637601,1.695663,0.081344,0.000000,0.000000,0.000000,0.000000,0.000000,0.000000
13214602.000000,2.303462,-0.987642,-1.841790,-1.419616,-0.958022,1.713953,0.467532,-0.039712,-0.556679,-0.392868,-0.556261,-0.508742,0.764195,0.260476,-0.933489,33.330425,19.374191,10.120115,0.566190,1.605026,0.021835,0.000000,0.000000,0.000000,0.000000,0.000000,0.000000
13214603.000000,2.303444,-0.988227,-1.842194,-1.420177,-0.958527,1.714728,0.467790,-0.033134,-0.565093,-0.394559,-0.556290,-0.502407,0.761807,0.252558,-1.429400,34.238934,19.568588,10.096312,0.518583,1.481429,0.081344,0.000000,0.000000,0.000000,0.000000,0.000000,0.000000
13214604.000000,2.303424,-0.988806,-1.842602,-1.420734,-0.959025,1.715499,0.468059,-0.030490,-0.567344,-0.396038,-0.555428,-0.496106,0.763178,0.257381,-1.826129,34.972881,19.790756,9.973326,0.452665,1.519881,0.034652,0.000000,0.000000,0.000000,0.000000,0.000000,0.000000
13214605.000000,2.303402,-0.989402,-1.843000,-1.421287,-0.959526,1.716256,0.468323,-0.027420,-0.573744,-0.398030,-0.552406,-0.495193,0.762162,0.262811,-2.123675,35.655254,19.885971,9.949522,0.339139,1.624252,0.061202,0.000000,0.000000,0.000000,0.000000,0.000000,0.000000
13214606.000000,2.303386,-0.989980,-1.843403,-1.421849,-0.960026,1.717030,0.468591,-0.023867,-0.574281,-0.397272,-0.551147,-0.495474,0.761662,0.260843,-2.468829,36.095623,19.985153,9.921751,0.369352,1.572067,0.001693,0.000000,0.000000,0.000000,0.000000,0.000000,0.000000
13214607.000000,2.303365,-0.990565,-1.843822,-1.422419,-0.960533,1.717790,0.468847,-0.025020,-0.576968,-0.402667,-0.556679,-0.496220,0.762477,0.258540,-2.667193,36.488384,20.207321,10.020933,0.452665,1.519881,0.067611,0.000000,0.000000,0.000000,0.000000,0.000000,0.000000
13214608.000000,2.303341,-0.991153,-1.844233,-1.422979,-0.961039,1.718558,0.469106,-0.024217,-0.574224,-0.404170,-0.555596,-0.502041,0.761558,0.256221,-2.790179,36.758160,20.453293,10.143919,0.518583,1.507064,0.048385,0.000000,0.000000,0.000000,0.000000,0.000000,0.000000
13214609.000000,2.303300,-0.991735,-1.844636,-1.423552,-0.961546,1.719322,0.469365,-0.032651,-0.575882,-0.402741,-0.558482,-0.500654,0.760133,0.258384,-2.643389,37.027935,20.500900,10.342283,0.566190,1.500655,0.041976,0.000000,0.000000,0.000000,0.000000,0.000000,0.000000
13214610.000000,2.303274,-0.992313,-1.845043,-1.424127,-0.962060,1.720064,0.469623,-0.030148,-0.575946,-0.411735,-0.568373,-0.501892,0.757929,0.258709,-2.690997,37.127117,20.623886,10.715208,0.554288,1.539108,0.074935,0.000000,0.000000,0.000000,0.000000,0.000000,0.000000
13214611.000000,2.303239,-0.992894,-1.845451,-1.424696,-0.962561,1.720820,0.469881,-0.028518,-0.576022,-0.412544,-0.565764,-0.503418,0.752280,0.259810,-2.591815,37.297710,20.671494,10.961180,0.547880,1.526290,0.094161,0.000000,0.000000,0.000000,0.000000,0.000000,0.000000
13214612.000000,2.303196,-0.993486,-1.845858,-1.425265,-0.963067,1.721575,0.470155,-0.035496,-0.576242,-0.407863,-0.561861,-0.507769,0.746638,0.263381,-2.397418,37.468304,20.746872,11.107969,0.524076,1.565658,0.015426,0.000000,0.000000,0.000000,0.000000,0.000000,0.000000
13214613.000000,2.303157,-0.994086,-1.846264,-1.425832,-0.963565,1.722299,0.470410,-0.036170,-0.585081,-0.412625,-0.569966,-0.502032,0.739903,0.267365,-2.246661,37.738079,20.893661,11.381712,0.434354,1.695663,0.041976,0.000000,0.000000,0.000000,0.000000,0.000000,0.000000
13214614.000000,2.303109,-0.994677,-1.846663,-1.426403,-0.964072,1.723042,0.470671,-0.039164,-0.583192,-0.410827,-0.566780,-0.503425,0.739687,0.261333,-1.972918,38.055462,20.846054,11.655455,0.416959,1.800033,0.054794,0.000000,0.000000,0.000000,0.000000,0.000000,0.000000
13214615.000000,2.303062,-0.995293,-1.847081,-1.426969,-0.964588,1.723784,0.470941,-0.043336,-0.587571,-0.414273,-0.563431,-0.503016,0.740621,0.258241,-1.750750,38.519634,20.969040,11.877623,0.374845,1.760665,0.015426,0.000000,0.000000,0.000000,0.000000,0.000000,0.000000
13214616.000000,2.303013,-0.995914,-1.847490,-1.427528,-0.965092,1.724524,0.471196,-0.043823,-0.610433,-0.413616,-0.558653,-0.498702,0.735695,0.258729,-1.504779,39.130596,21.092026,11.976805,0.327238,1.741439,0.041976,0.000000,0.000000,0.000000,0.000000,0.000000,0.000000
13214617.000000,2.302957,-0.996535,-1.847898,-1.428089,-0.965616,1.725261,0.471459,-0.048607,-0.615408,-0.412717,-0.555502,-0.507452,0.730152,0.256491,-1.183428,39.646343,21.115829,12.123594,0.381254,1.773483,0.034652,0.000000,0.000000,0.000000,0.000000,0.000000,0.000000
13214618.000000,2.302889,-0.997158,-1.848312,-1.428648,-0.966136,1.725997,0.471711,-0.051846,-0.612848,-0.419106,-0.552818,-0.513508,0.737694,0.256968,-0.735125,40.062908,21.262619,12.345762,0.369352,1.747848,0.074935,0.000000,0.000000,0.000000,0.000000,0.000000,0.000000
13214619.000000,2.302827,-0.997779,-1.848734,-1.429207,-0.966655,1.726745,0.471977,-0.055125,-0.616887,-0.420434,-0.554587,-0.519413,0.738671,0.261688,-0.366168,40.427898,21.385605,12.544127,0.434354,1.670028,0.001693,0.000000,0.000000,0.000000,0.000000,0.000000,0.000000
13214620.000000,2.302757,-0.998398,-1.849161,-1.429762,-0.967190,1.727477,0.472236,-0.061347,-0.614200,-0.422339,-0.565103,-0.519058,0.738374,0.258522,0.030561,40.697674,21.556198,12.813902,0.512174,1.649886,0.087753,0.000000,0.000000,0.000000,0.000000,0.000000,0.000000
13214621.000000,2.302680,-0.999018,-1.849573,-1.430328,-0.967706,1.728203,0.472499,-0.064357,-0.613730,-0.422123,-0.562310,-0.516173,0.730762,0.264064,0.502668,40.991253,21.655380,13.063841,0.506681,1.727706,0.074935,0.000000,0.000000,0.000000,0.000000,0.000000,0.000000
13214622.000000,2.302605,-0.999640,-1.849990,-1.430899,-0.968233,1.728930,0.472775,-0.066002,-0.613588,-0.419412,-0.565047,-0.519550,0.726521,0.266375,0.947004,41.312603,21.679184,13.333616,0.416959,1.877853,0.021835,0.000000,0.000000,0.000000,0.000000,0.000000,0.000000
13214623.000000,2.302532,-1.000257,-1.850412,-1.431455,-0.968765,1.729648,0.473042,-0.067552,-0.613157,-0.431254,-0.572067,-0.519948,0.728961,0.264216,1.292158,41.530804,21.825974,13.508177,0.374845,1.903487,0.061202,0.000000,0.000000,0.000000,0.000000,0.000000,0.000000
13214624.000000,2.302457,-1.000854,-1.850836,-1.432011,-0.969290,1.730389,0.473312,-0.069772,-0.612672,-0.427492,-0.562044,-0.520334,0.728130,0.269098,1.665082,41.530804,22.000534,13.508177,0.327238,1.825668,0.061202,0.000000,0.000000,0.000000,0.000000,0.000000,0.000000
13214625.000000,2.302383,-1.001458,-1.851266,-1.432563,-0.969814,1.731108,0.473586,-0.073862,-0.602691,-0.426116,-0.558630,-0.513950,0.743250,0.268103,2.010236,41.507000,22.242538,13.508177,0.261320,1.871444,0.041976,0.000000,0.000000,0.000000,0.000000,0.000000,0.000000
13214626.000000,2.302301,-1.002059,-1.851690,-1.433097,-0.970350,1.731824,0.473849,-0.078649,-0.598548,-0.430309,-0.550690,-0.528054,0.729832,0.266054,2.430768,41.336407,22.440903,13.385191,0.405057,1.942855,0.074935,0.000000,0.000000,0.000000,0.000000,0.000000,0.000000
13214627.000000,2.302236,-1.002654,-1.852134,-1.433633,-0.970885,1.732549,0.474121,-0.072673,-0.600112,-0.432640,-0.546316,-0.527294,0.728609,0.267247,2.581525,41.189617,22.786057,13.210630,0.386747,2.014266,0.034652,0.000000,0.000000,0.000000,0.000000,0.000000,0.000000
13214628.000000,2.302161,-1.003238,-1.852572,-1.434146,-0.971422,1.733270,0.474391,-0.071889,-0.596295,-0.438978,-0.537526,-0.530168,0.731378,0.265725,2.851301,40.872234,23.028061,12.889280,0.476469,2.007858,0.048385,0.000000,0.000000,0.000000,0.000000,0.000000,0.000000
13214629.000000,2.302088,-1.003819,-1.853008,-1.434666,-0.971965,1.733999,0.474663,-0.069242,-0.588279,-0.441609,-0.530608,-0.533432,0.727224,0.265260,3.049665,40.673870,23.325607,12.667112,0.584501,2.014266,0.054794,0.000000,0.000000,0.000000,0.000000,0.000000,0.000000
13214630.000000,2.302017,-1.004422,-1.853454,-1.435182,-0.972492,1.734730,0.474941,-0.070186,-0.589166,-0.446413,-0.520550,-0.528950,0.733131,0.266271,3.224226,40.626263,23.642990,12.345762,0.542386,2.053634,0.009017,0.000000,0.000000,0.000000,0.000000,0.000000,0.000000
13214631.000000,2.301956,-1.005013,-1.853901,-1.435667,-0.973030,1.735449,0.475207,-0.065396,-0.587427,-0.448271,-0.508017,-0.539292,0.732857,0.264562,3.299604,40.479473,23.988144,11.802244,0.571683,2.098495,0.041976,0.000000,0.000000,0.000000,0.000000,0.000000,0.000000
13214632.000000,2.301902,-1.005585,-1.854349,-1.436145,-0.973573,1.736182,0.475479,-0.060412,-0.587656,-0.445782,-0.492292,-0.537569,0.728339,0.270225,3.299604,40.257305,24.329330,11.282530,0.601896,2.079269,0.015426,0.000000,0.000000,0.000000,0.000000,0.000000,0.000000
13214633.000000,2.301843,-1.006170,-1.854806,-1.436626,-0.974103,1.736904,0.475755,-0.057618,-0.577786,-0.448183,-0.491627,-0.535379,0.724318,0.272979,3.323408,40.062908,24.698288,10.861998,0.500272,1.995040,0.009017,0.000000,0.000000,0.000000,0.000000,0.000000,0.000000
13214634.000000,2.301781,-1.006742,-1.855250,-1.437083,-0.974647,1.737633,0.476024,-0.057679,-0.576887,-0.447228,-0.479508,-0.535904,0.726834,0.271255,3.422590,39.816936,24.968063,10.393858,0.554288,2.001449,-0.004716,0.000000,0.000000,0.000000,0.000000,0.000000,0.000000
13214635.000000,2.301732,-1.007315,-1.855711,-1.437551,-0.975192,1.738355,0.476286,-0.054187,-0.576597,-0.446349,-0.474885,-0.538949,0.726296,0.267301,3.371015,39.475750,25.261642,10.143919,0.596403,2.072860,0.074935,0.000000,0.000000,0.000000,0.000000,0.000000,0.000000
13214636.000000,2.301682,-1.007896,-1.856158,-1.438011,-0.975749,1.739065,0.476556,-0.054612,-0.571279,-0.445367,-0.473777,-0.540633,0.719452,0.268977,3.323408,39.328960,25.507614,9.973326,0.596403,2.092086,0.015426,0.000000,0.000000,0.000000,0.000000,0.000000,0.000000
13214637.000000,2.301632,-1.008471,-1.856602,-1.438471,-0.976300,1.739785,0.476820,-0.055700,-0.571563,-0.441556,-0.463197,-0.537086,0.716916,0.268976,3.299604,39.182171,25.606796,9.850340,0.715421,2.098495,-0.017533,0.000000,0.000000,0.000000,0.000000,0.000000,0.000000
13214638.000000,2.301590,-1.009044,-1.857065,-1.438923,-0.976857,1.740486,0.477082,-0.051886,-0.572749,-0.445883,-0.467173,-0.538438,0.705849,0.264797,3.200422,38.983807,25.876572,9.774961,0.727323,2.150680,0.048385,0.000000,0.000000,0.000000,0.000000,0.000000,0.000000
13214639.000000,2.301554,-1.009628,-1.857514,-1.439370,-0.977399,1.741205,0.477348,-0.044711,-0.575260,-0.445863,-0.456880,-0.535215,0.705390,0.264119,3.049665,38.960003,25.999557,9.727354,0.715421,2.137862,0.009017,0.000000,0.000000,0.000000,0.000000,0.000000,0.000000
13214640.000000,2.301521,-1.010206,-1.857959,-1.439822,-0.977963,1.741920,0.477615,-0.043171,-0.575069,-0.444404,-0.453263,-0.543883,0.708923,0.264422,2.902875,39.011578,26.098740,9.727354,0.763029,2.144271,0.001693,0.000000,0.000000,0.000000,0.000000,0.000000,0.000000
13214641.000000,2.301495,-1.010800,-1.858409,-1.440268,-0.978511,1.742629,0.477878,-0.037866,-0.577389,-0.453813,-0.450385,-0.542430,0.710509,0.259102,2.704511,39.106792,26.293137,9.850340,0.709928,2.163497,0.015426,0.000000,0.000000,0.000000,0.000000,0.000000,0.000000
13214642.000000,2.301463,-1.011382,-1.858856,-1.440715,-0.979054,1.743341,0.478138,-0.036430,-0.580919,-0.452936,-0.447683,-0.548345,0.713854,0.260339,2.605329,39.229778,26.316940,9.997129,0.715421,2.209274,0.021835,0.000000,0.000000,0.000000,0.000000,0.000000,0.000000
13214643.000000,2.301435,-1.011969,-1.859292,-1.441172,-0.979603,1.744045,0.478404,-0.034532,-0.579841,-0.447604,-0.452529,-0.542136,0.722571,0.260659,2.482343,39.352764,26.245529,10.270872,0.721830,2.163497,0.028243,0.000000,0.000000,0.000000,0.000000,0.000000,0.000000
13214644.000000,2.301415,-1.012575,-1.859718,-1.441622,-0.980139,1.744762,0.478662,-0.027682,-0.585565,-0.444162,-0.452044,-0.541962,0.722601,0.261774,2.260175,39.622540,26.193954,10.540648,0.685209,2.118636,0.028243,0.000000,0.000000,0.000000,0.000000,0.000000,0.000000
13214645.000000,2.301397,-1.013162,-1.860147,-1.442084,-0.980693,1.745473,0.478922,-0.023907,-0.590914,-0.436343,-0.455928,-0.542171,0.719660,0.258839,2.085615,39.816936,26.074936,10.913572,0.655912,2.144271,0.009017,0.000000,0.000000,0.000000,0.000000,0.000000,0.000000
13214646.000000,2.301383,-1.013758,-1.860573,-1.442533,-0.981244,1.746167,0.479177,-0.020577,-0.591091,-0.429642,-0.455554,-0.539050,0.716195,0.253891,1.887250,40.039104,25.876572,11.107969,0.661405,2.235824,0.048385,0.000000,0.000000,0.000000,0.000000,0.000000,0.000000
13214647.000000,2.301387,-1.014347,-1.860990,-1.443001,-0.981794,1.746874,0.479445,-0.013243,-0.599739,-0.426516,-0.458455,-0.537379,0.720657,0.258561,1.490522,40.185894,25.753586,11.405516,0.679716,2.242233,-0.004716,0.000000,0.000000,0.000000,0.000000,0.000000,0.000000
13214648.000000,2.301385,-1.014930,-1.861410,-1.443469,-0.982341,1.747593,0.479701,-0.011079,-0.594645,-0.419773,-0.456743,-0.533963,0.722433,0.257562,1.216779,40.086712,25.582993,11.580076,0.679716,2.183639,0.081344,0.000000,0.000000,0.000000,0.000000,0.000000,0.000000
13214649.000000,2.301387,-1.015517,-1.861816,-1.443932,-0.982883,1.748296,0.479965,-0.006528,-0.592309,-0.416149,-0.455772,-0.551372,0.722971,0.260430,0.947004,39.916119,25.313217,11.750669,0.644010,2.137862,0.061202,0.000000,0.000000,0.000000,0.000000,0.000000,0.000000
13214650.000000,2.301390,-1.016085,-1.862228,-1.444401,-0.983432,1.748998,0.480230,-0.003557,-0.583080,-0.410706,-0.453426,-0.549904,0.705865,0.260443,0.697065,39.646343,25.067245,11.901426,0.632108,2.137862,0.015426,0.000000,0.000000,0.000000,0.000000,0.000000,0.000000
13214651.000000,2.301401,-1.016670,-1.862631,-1.444881,-0.983985,1.749703,0.480489,0.000061,-0.577687,-0.403377,-0.465137,-0.554409,0.705470,0.259998,0.375715,39.475750,24.797470,12.099791,0.649503,2.098495,0.041976,0.000000,0.000000,0.000000,0.000000,0.000000,0.000000
13214652.000000,2.301409,-1.017259,-1.863020,-1.445346,-0.984525,1.750411,0.480751,0.000558,-0.579625,-0.396700,-0.467098,-0.546561,0.708663,0.261792,0.153547,39.352764,24.476120,12.222776,0.613798,2.085677,0.028243,0.000000,0.000000,0.000000,0.000000,0.000000,0.000000
13214653.000000,2.301418,-1.017834,-1.863412,-1.445825,-0.985072,1.751118,0.481007,0.004096,-0.581707,-0.391716,-0.466777,-0.546177,0.704221,0.256666,-0.068621,39.281353,24.182541,12.421141,0.625699,2.131454,0.054794,0.000000,0.000000,0.000000,0.000000,0.000000,0.000000
13214654.000000,2.301430,-1.018412,-1.863800,-1.446298,-0.985627,1.751811,0.481267,0.008029,-0.572424,-0.387541,-0.473563,-0.546517,0.702477,0.255476,-0.342364,39.182171,23.960373,12.643309,0.644010,2.137862,0.015426,0.000000,0.000000,0.000000,0.000000,0.000000,0.000000
13214655.000000,2.301443,-1.018994,-1.864181,-1.446772,-0.986165,1.752526,0.481515,0.010835,-0.576957,-0.383970,-0.469541,-0.546438,0.701918,0.252862,-0.612139,39.130596,23.718369,12.790098,0.637601,2.098495,0.015426,0.000000,0.000000,0.000000,0.000000,0.000000,0.000000
13214656.000000,2.301453,-1.019573,-1.864568,-1.447242,-0.986714,1.753235,0.481768,0.010685,-0.579943,-0.384023,-0.480161,-0.542737,0.703577,0.259986,-0.786700,39.082989,23.595383,12.913084,0.559781,2.027084,0.015426,0.000000,0.000000,0.000000,0.000000,0.000000,0.000000
13214657.000000,2.301468,-1.020149,-1.864941,-1.447710,-0.987264,1.753937,0.482016,0.011297,-0.577806,-0.381611,-0.471122,-0.544798,0.693379,0.259499,-0.985064,38.960003,23.373215,12.964659,0.589994,2.007858,0.061202,0.000000,0.000000,0.000000,0.000000,0.000000,0.000000
13214658.000000,2.301491,-1.020723,-1.865326,-1.448195,-0.987824,1.754645,0.482277,0.015666,-0.575672,-0.380199,-0.472309,-0.547909,0.695545,0.262128,-1.207232,38.837017,23.202621,13.111448,0.542386,2.104903,0.028243,0.000000,0.000000,0.000000,0.000000,0.000000,0.000000
13214659.000000,2.301507,-1.021296,-1.865700,-1.448670,-0.988384,1.755344,0.482531,0.015260,-0.573436,-0.384837,-0.472493,-0.551464,0.695268,0.261540,-1.282611,38.717999,23.079636,13.286009,0.518583,2.144271,0.061202,0.000000,0.000000,0.000000,0.000000,0.000000,0.000000
13214660.000000,2.301524,-1.021865,-1.866069,-1.449139,-0.988949,1.756061,0.482789,0.014828,-0.576306,-0.378333,-0.466255,-0.562143,0.691286,0.259446,-1.330218,38.595013,22.833664,13.309813,0.578092,2.112228,0.015426,0.000000,0.000000,0.000000,0.000000,0.000000,0.000000
13214661.000000,2.301543,-1.022433,-1.866450,-1.449618,-0.989501,1.756760,0.483044,0.015409,-0.567557,-0.380338,-0.470571,-0.554441,0.712642,0.254669,-1.405596,38.424419,22.758286,13.508177,0.506681,2.104903,0.028243,0.000000,0.000000,0.000000,0.000000,0.000000,0.000000
13214662.000000,2.301559,-1.023006,-1.866824,-1.450091,-0.990056,1.757469,0.483295,0.012013,-0.567139,-0.380354,-0.470599,-0.557798,0.704852,0.250795,-1.453204,38.249859,22.611496,13.730345,0.518583,2.104903,0.034652,0.000000,0.000000,0.000000,0.000000,0.000000,0.000000
13214663.000000,2.301570,-1.023576,-1.867197,-1.450559,-0.990630,1.758178,0.483550,0.011768,-0.572667,-0.377067,-0.467876,-0.557864,0.703517,0.249082,-1.453204,38.178448,22.488510,13.877134,0.596403,2.079269,0.048385,0.000000,0.000000,0.000000,0.000000,0.000000,0.000000
13214664.000000,2.301587,-1.024146,-1.867565,-1.451010,-0.991192,1.758867,0.483806,0.013289,-0.571040,-0.374763,-0.462090,-0.558659,0.694105,0.252601,-1.528582,38.055462,22.341721,13.952513,0.566190,2.053634,0.034652,0.000000,0.000000,0.000000,0.000000,0.000000,0.000000
13214665.000000,2.301600,-1.024716,-1.867934,-1.451473,-0.991762,1.759568,0.484052,0.012858,-0.584497,-0.371351,-0.455654,-0.561917,0.694970,0.256055,-1.528582,37.984051,22.270309,14.027891,0.608304,2.053634,0.021835,0.000000,0.000000,0.000000,0.000000,0.000000,0.000000
13214666.000000,2.301613,-1.025303,-1.868296,-1.451929,-0.992328,1.760267,0.484298,0.011878,-0.586555,-0.367800,-0.449929,-0.560461,0.694675,0.254957,-1.504779,38.103069,22.048141,14.099302,0.578092,2.072860,0.094161,0.000000,0.000000,0.000000,0.000000,0.000000,0.000000
13214667.000000,2.301620,-1.025888,-1.868662,-1.452378,-0.992899,1.760957,0.484561,0.008936,-0.584924,-0.366416,-0.448187,-0.569625,0.692393,0.255637,-1.381793,38.249859,21.972763,14.127073,0.506681,2.039901,0.015426,0.000000,0.000000,0.000000,0.000000,0.000000,0.000000
13214668.000000,2.301625,-1.026467,-1.869017,-1.452820,-0.993460,1.761654,0.484807,0.009529,-0.583628,-0.361704,-0.442695,-0.563971,0.698710,0.250246,-1.231036,38.396648,21.754562,14.027891,0.506681,2.001449,0.087753,0.000000,0.000000,0.000000,0.000000,0.000000,0.000000
13214669.000000,2.301634,-1.027049,-1.869379,-1.453269,-0.994032,1.762342,0.485065,0.011567,-0.578167,-0.360708,-0.446304,-0.563130,0.698025,0.251106,-1.131854,38.396648,21.631577,14.051695,0.494779,2.001449,0.028243,0.000000,0.000000,0.000000,0.000000,0.000000,0.000000
13214670.000000,2.301643,-1.027629,-1.869742,-1.453702,-0.994595,1.763039,0.485306,0.009536,-0.577718,-0.365783,-0.444889,-0.564427,0.698569,0.247989,-1.008868,38.349041,21.508591,14.051695,0.506681,1.988631,0.074935,0.000000,0.000000,0.000000,0.000000,0.000000,0.000000
13214671.000000,2.301648,-1.028193,-1.870110,-1.454132,-0.995179,1.763724,0.485563,0.006908,-0.570716,-0.363317,-0.437518,-0.573905,0.688676,0.248281,-0.834307,38.178448,21.409409,14.051695,0.530485,2.001449,0.054794,0.000000,0.000000,0.000000,0.000000,0.000000,0.000000
13214672.000000,2.301655,-1.028763,-1.870468,-1.454547,-0.995753,1.764408,0.485817,0.006593,-0.567802,-0.362406,-0.433173,-0.570718,0.685853,0.250917,-0.735125,37.861065,21.337997,13.976316,0.512174,2.014266,0.087753,0.000000,0.000000,0.000000,0.000000,0.000000,0.000000
13214674.000000,2.301674,-1.029880,-1.871187,-1.455392,-0.996895,1.765793,0.486318,0.007000,-0.566586,-0.363823,-0.435308,-0.570335,0.682355,0.248641,-0.564532,37.150921,21.064255,14.174681,0.512174,1.897079,0.061202,0.000000,0.000000,0.000000,0.000000,0.000000,0.000000
13214675.000000,2.301681,-1.030457,-1.871541,-1.455801,-0.997466,1.766468,0.486564,0.008982,-0.568352,-0.363911,-0.424120,-0.573484,0.678318,0.248124,-0.441546,37.004131,20.893661,14.150877,0.500272,1.988631,0.061202,0.000000,0.000000,0.000000,0.000000,0.000000,0.000000
13214676.000000,2.301690,-1.031015,-1.871909,-1.456209,-0.998045,1.767154,0.486817,0.008637,-0.566800,-0.363817,-0.419873,-0.572355,0.678641,0.246931,-0.366168,36.758160,20.869858,14.099302,0.518583,2.125045,0.074935,0.000000,0.000000,0.000000,0.000000,0.000000,0.000000
13214677.000000,2.301704,-1.031595,-1.872263,-1.456616,-0.998615,1.767838,0.487072,0.009754,-0.574260,-0.367765,-0.418435,-0.574038,0.685450,0.246739,-0.342364,36.682781,20.822250,14.027891,0.488370,2.092086,0.067611,0.000000,0.000000,0.000000,0.000000,0.000000,0.000000
13214678.000000,2.301714,-1.032156,-1.872617,-1.457005,-0.999182,1.768533,0.487328,0.009242,-0.566565,-0.363074,-0.410196,-0.570960,0.681325,0.252099,-0.266986,36.512188,20.647690,13.853331,0.452665,1.995040,0.048385,0.000000,0.000000,0.000000,0.000000,0.000000,0.000000
13214679.000000,2.301725,-1.032720,-1.872985,-1.457394,-0.999750,1.769230,0.487574,0.008643,-0.560692,-0.363441,-0.401358,-0.566620,0.683854,0.248230,-0.191607,36.218609,20.623886,13.607359,0.398649,1.916305,0.094161,0.000000,0.000000,0.000000,0.000000,0.000000,0.000000
13214680.000000,2.301737,-1.033288,-1.873337,-1.457780,-1.000324,1.769912,0.487825,0.008178,-0.563592,-0.359569,-0.398452,-0.566769,0.678444,0.252524,-0.116229,35.948833,20.429489,13.432798,0.393156,1.903487,0.054794,0.000000,0.000000,0.000000,0.000000,0.000000,0.000000
13214681.000000,2.301753,-1.033852,-1.873695,-1.458160,-1.000901,1.770600,0.488078,0.009059,-0.563442,-0.358181,-0.390046,-0.569685,0.679234,0.255111,-0.092425,35.853619,20.306503,13.163023,0.470060,1.865035,0.067611,0.000000,0.000000,0.000000,0.000000,0.000000,0.000000
13214682.000000,2.301765,-1.034427,-1.874051,-1.458537,-1.001487,1.771272,0.488332,0.009301,-0.562810,-0.355907,-0.388123,-0.573358,0.675024,0.257564,-0.044818,35.778240,20.108139,13.036070,0.470060,1.858627,0.048385,0.000000,0.000000,0.000000,0.000000,0.000000,0.000000
13214683.000000,2.301778,-1.034984,-1.874400,-1.458911,-1.002064,1.771966,0.488576,0.009361,-0.572184,-0.353095,-0.381364,-0.573955,0.680708,0.253765,0.006757,35.560040,19.862167,12.889280,0.535978,1.858627,0.067611,0.000000,0.000000,0.000000,0.000000,0.000000,0.000000
13214684.000000,2.301791,-1.035555,-1.874768,-1.459278,-1.002646,1.772659,0.488821,0.008949,-0.573340,-0.357691,-0.374811,-0.572659,0.685621,0.251561,0.078168,35.484661,19.790756,12.742491,0.470060,1.844894,0.067611,0.000000,0.000000,0.000000,0.000000,0.000000,0.000000
13214685.000000,2.301806,-1.036125,-1.875123,-1.459640,-1.003230,1.773350,0.489073,0.012136,-0.568058,-0.356735,-0.370758,-0.577075,0.687832,0.251363,0.129743,35.314068,19.643967,12.544127,0.482877,1.760665,0.034652,0.000000,0.000000,0.000000,0.000000,0.000000,0.000000
13214686.000000,2.301823,-1.036700,-1.875481,-1.459990,-1.003806,1.774042,0.489316,0.012421,-0.573582,-0.360375,-0.360586,-0.575964,0.694087,0.247823,0.129743,35.238689,19.544785,12.298155,0.410551,1.747848,0.087753,0.000000,0.000000,0.000000,0.000000,0.000000,0.000000
13214687.000000,2.301842,-1.037268,-1.875843,-1.460338,-1.004382,1.774727,0.489573,0.012256,-0.573596,-0.359293,-0.354304,-0.569944,0.689173,0.248345,0.153547,35.020489,19.421799,12.072020,0.327238,1.767074,0.048385,0.000000,0.000000,0.000000,0.000000,0.000000,0.000000
13214688.000000,2.301858,-1.037832,-1.876197,-1.460686,-1.004963,1.775416,0.489816,0.014725,-0.568088,-0.357355,-0.347466,-0.573816,0.685324,0.246369,0.205121,34.798321,19.251205,11.877623,0.320829,1.819259,0.081344,0.000000,0.000000,0.000000,0.000000,0.000000,0.000000
13214689.000000,2.301877,-1.038401,-1.876558,-1.461030,-1.005541,1.776105,0.490070,0.014555,-0.567888,-0.356008,-0.344630,-0.570957,0.679080,0.247856,0.205121,34.750713,19.104416,11.655455,0.303434,1.819259,0.061202,0.000000,0.000000,0.000000,0.000000,0.000000,0.000000
13214690.000000,2.301895,-1.038974,-1.876919,-1.461364,-1.006132,1.776794,0.490324,0.016257,-0.570250,-0.355312,-0.340001,-0.580613,0.681155,0.250796,0.252729,34.726910,19.076645,11.457090,0.339139,1.773483,0.087753,0.000000,0.000000,0.000000,0.000000,0.000000,0.000000
13214691.000000,2.301914,-1.039533,-1.877277,-1.461692,-1.006713,1.777485,0.490583,0.017512,-0.571127,-0.357961,-0.333591,-0.583359,0.677292,0.255654,0.304304,34.627728,18.929855,11.234922,0.386747,1.714889,0.048385,0.000000,0.000000,0.000000,0.000000,0.000000,0.000000
13214692.000000,2.301938,-1.040098,-1.877650,-1.462012,-1.007308,1.778169,0.490834,0.020345,-0.566103,-0.361585,-0.335464,-0.588236,0.681781,0.250294,0.276533,34.433331,18.981430,11.012754,0.416959,1.611434,0.107894,0.000000,0.000000,0.000000,0.000000,0.000000,0.000000
13214693.000000,2.301958,-1.040664,-1.878016,-1.462330,-1.007897,1.778854,0.491087,0.021010,-0.563870,-0.362213,-0.327580,-0.582900,0.687310,0.254525,0.304304,34.163555,18.953659,10.786619,0.440763,1.572067,0.094161,0.000000,0.000000,0.000000,0.000000,0.000000,0.000000
13214694.000000,2.301983,-1.041227,-1.878386,-1.462648,-1.008489,1.779544,0.491341,0.021984,-0.570223,-0.362209,-0.322318,-0.592513,0.680822,0.253472,0.304304,33.941387,18.953659,10.540648,0.434354,1.552840,0.061202,0.000000,0.000000,0.000000,0.000000,0.000000,0.000000
13214695.000000,2.302006,-1.041791,-1.878753,-1.462956,-1.009088,1.780204,0.491595,0.019063,-0.560329,-0.369455,-0.317937,-0.593432,0.676420,0.254470,0.328107,33.699383,18.929855,10.270872,0.398649,1.670028,0.107894,0.000000,0.000000,0.000000,0.000000,0.000000,0.000000
13214696.000000,2.302030,-1.042352,-1.879122,-1.463254,-1.009676,1.780873,0.491853,0.023216,-0.561282,-0.368860,-0.312973,-0.593825,0.667999,0.254189,0.351911,33.477215,18.953659,10.048704,0.344633,1.754256,0.061202,0.000000,0.000000,0.000000,0.000000,0.000000,0.000000
13214697.000000,2.302056,-1.042928,-1.879495,-1.463558,-1.010273,1.781537,0.492110,0.023641,-0.564347,-0.367086,-0.311222,-0.592777,0.666079,0.250519,0.351911,33.354229,18.929855,9.897947,0.285123,1.779891,0.087753,0.000000,0.000000,0.000000,0.000000,0.000000,0.000000
13214698.000000,2.302083,-1.043503,-1.879863,-1.463846,-1.010859,1.782216,0.492366,0.027330,-0.567620,-0.369039,-0.305024,-0.606648,0.663467,0.250717,0.351911,33.282818,18.906052,9.675779,0.291532,1.702071,0.054794,0.000000,0.000000,0.000000,0.000000,0.000000,0.000000
13214699.000000,2.302112,-1.044085,-1.880243,-1.464134,-1.011458,1.782901,0.492619,0.027116,-0.571282,-0.367736,-0.297591,-0.602073,0.661123,0.249174,0.351911,33.405804,19.052841,9.429808,0.308927,1.597701,0.061202,0.000000,0.000000,0.000000,0.000000,0.000000,0.000000
13214700.000000,2.302144,-1.044679,-1.880623,-1.464418,-1.012068,1.783559,0.492876,0.027827,-0.577374,-0.368637,-0.292664,-0.607160,0.657795,0.252275,0.304304,33.477215,19.128220,9.255247,0.434354,1.552840,0.067611,0.000000,0.000000,0.000000,0.000000,0.000000,0.000000
13214701.000000,2.302173,-1.045260,-1.881004,-1.464703,-1.012668,1.784234,0.493131,0.029630,-0.582739,-0.372454,-0.287205,-0.607539,0.659858,0.251925,0.328107,33.528790,19.223434,9.179869,0.482877,1.519881,0.041976,0.000000,0.000000,0.000000,0.000000,0.000000,0.000000
13214702.000000,2.302212,-1.045848,-1.881396,-1.464980,-1.013268,1.784903,0.493381,0.034163,-0.579623,-0.377986,-0.284230,-0.606780,0.661696,0.249296,0.228925,33.576397,19.322617,8.985472,0.535978,1.481429,0.067611,0.000000,0.000000,0.000000,0.000000,0.000000,0.000000
13214703.000000,2.302247,-1.046444,-1.881775,-1.465255,-1.013880,1.785556,0.493629,0.032257,-0.581352,-0.378548,-0.286821,-0.603854,0.660329,0.241851,0.205121,33.552593,19.374191,8.886290,0.494779,1.513473,0.120712,0.000000,0.000000,0.000000,0.000000,0.000000,0.000000
13214704.000000,2.302284,-1.047039,-1.882154,-1.465538,-1.014474,1.786210,0.493882,0.033618,-0.588215,-0.379810,-0.282488,-0.600595,0.656923,0.246014,0.177350,33.723186,19.322617,8.933897,0.422452,1.565658,0.041976,0.000000,0.000000,0.000000,0.000000,0.000000,0.000000
13214705.000000,2.302313,-1.047644,-1.882544,-1.465826,-1.015086,1.786860,0.494133,0.030169,-0.595327,-0.382368,-0.289069,-0.598404,0.656535,0.245187,0.228925,33.893780,19.346420,9.009275,0.381254,1.605026,0.067611,0.000000,0.000000,0.000000,0.000000,0.000000,0.000000
13214706.000000,2.302351,-1.048257,-1.882928,-1.466108,-1.015674,1.787516,0.494378,0.032516,-0.596597,-0.384734,-0.289110,-0.597960,0.656159,0.243431,0.205121,34.115948,19.374191,9.132261,0.320829,1.662704,0.120712,0.000000,0.000000,0.000000,0.000000,0.000000,0.000000
13214707.000000,2.302378,-1.048861,-1.883317,-1.466389,-1.016281,1.788175,0.494642,0.027778,-0.600955,-0.379689,-0.288489,-0.599006,0.653300,0.246846,0.328107,34.262737,19.421799,9.255247,0.315336,1.662704,0.048385,0.000000,0.000000,0.000000,0.000000,0.000000,0.000000
13214708.000000,2.302416,-1.049469,-1.883691,-1.466666,-1.016893,1.788834,0.494891,0.029833,-0.604334,-0.376241,-0.287172,-0.603937,0.658320,0.244519,0.351911,34.310345,19.397995,9.330626,0.405057,1.584884,0.100570,0.000000,0.000000,0.000000,0.000000,0.000000,0.000000
13214709.000000,2.302446,-1.050072,-1.884086,-1.466950,-1.017487,1.789487,0.495141,0.029641,-0.599710,-0.382878,-0.284096,-0.599291,0.656743,0.246329,0.451093,34.409527,19.544785,9.477415,0.410551,1.605026,0.061202,0.000000,0.000000,0.000000,0.000000,0.000000,0.000000
13214710.000000,2.302480,-1.050695,-1.884480,-1.467226,-1.018088,1.790143,0.495387,0.027672,-0.605508,-0.385353,-0.279836,-0.597657,0.670606,0.244127,0.502668,34.627728,19.592392,9.528990,0.494779,1.546432,0.100570,0.000000,0.000000,0.000000,0.000000,0.000000,0.000000
13214711.000000,2.302515,-1.051338,-1.884867,-1.467509,-1.018677,1.790793,0.495638,0.029286,-0.614159,-0.385014,-0.283093,-0.592470,0.659770,0.239782,0.550275,35.044292,19.667770,9.600401,0.458158,1.526290,0.087753,0.000000,0.000000,0.000000,0.000000,0.000000,0.000000
13214712.000000,2.302550,-1.051967,-1.885254,-1.467795,-1.019274,1.791450,0.495882,0.029873,-0.624331,-0.382187,-0.282543,-0.588838,0.653175,0.241566,0.625654,35.484661,19.667770,9.675779,0.422452,1.559249,0.081344,0.000000,0.000000,0.000000,0.000000,0.000000,0.000000
13214713.000000,2.302591,-1.052596,-1.885640,-1.468072,-1.019876,1.792092,0.496125,0.032903,-0.621616,-0.388352,-0.280108,-0.589174,0.649516,0.238101,0.601850,35.706829,19.592392,9.651976,0.332731,1.591293,0.087753,0.000000,0.000000,0.000000,0.000000,0.000000,0.000000
13214714.000000,2.302638,-1.053222,-1.886028,-1.468343,-1.020455,1.792742,0.496368,0.039643,-0.622269,-0.391126,-0.276767,-0.584471,0.645676,0.236630,0.502668,35.853619,19.568588,9.552794,0.225614,1.611434,0.048385,0.000000,0.000000,0.000000,0.000000,0.000000,0.000000
13214715.000000,2.302680,-1.053855,-1.886425,-1.468618,-1.021065,1.793385,0.496604,0.039272,-0.628583,-0.386950,-0.275650,-0.588741,0.643550,0.235407,0.502668,35.948833,19.568588,9.501219,0.231107,1.670028,0.127120,0.000000,0.000000,0.000000,0.000000,0.000000,0.000000
13214716.000000,2.302720,-1.054485,-1.886816,-1.468885,-1.021664,1.794036,0.496856,0.037825,-0.629370,-0.388067,-0.273856,-0.604388,0.648151,0.240407,0.550275,35.901226,19.592392,9.406004,0.255826,1.670028,0.067611,0.000000,0.000000,0.000000,0.000000,0.000000,0.000000
13214717.000000,2.302764,-1.055099,-1.887218,-1.469161,-1.022278,1.794691,0.497099,0.037806,-0.622814,-0.389120,-0.274909,-0.601783,0.652182,0.240490,0.550275,35.778240,19.643967,9.306822,0.315336,1.605026,0.107894,0.000000,0.000000,0.000000,0.000000,0.000000,0.000000
13214718.000000,2.302809,-1.055718,-1.887625,-1.469440,-1.022883,1.795348,0.497348,0.037756,-0.615587,-0.390854,-0.276199,-0.598249,0.653538,0.241635,0.550275,35.583843,19.715378,9.330626,0.344633,1.494247,0.107894,0.000000,0.000000,0.000000,0.000000,0.000000,0.000000
13214719.000000,2.302848,-1.056337,-1.888026,-1.469714,-1.023488,1.795998,0.497590,0.036199,-0.619110,-0.390981,-0.275767,-0.601202,0.651738,0.237823,0.625654,35.413250,19.739182,9.330626,0.381254,1.461288,0.114303,0.000000,0.000000,0.000000,0.000000,0.000000,0.000000
13214720.000000,2.302888,-1.056957,-1.888428,-1.469989,-1.024092,1.796641,0.497846,0.038076,-0.618558,-0.390207,-0.274422,-0.591295,0.642035,0.241698,0.697065,35.266460,19.766953,9.255247,0.398649,1.526290,0.061202,0.000000,0.000000,0.000000,0.000000,0.000000,0.000000
13214721.000000,2.302929,-1.057582,-1.888827,-1.470268,-1.024710,1.797264,0.498087,0.039402,-0.624455,-0.393463,-0.277502,-0.594546,0.638342,0.240418,0.772443,35.143475,19.790756,9.255247,0.410551,1.637069,0.114303,0.000000,0.000000,0.000000,0.000000,0.000000,0.000000
13214722.000000,2.302981,-1.058186,-1.889234,-1.470535,-1.025301,1.797898,0.498338,0.043109,-0.613791,-0.396595,-0.275615,-0.590332,0.632961,0.244052,0.748639,34.849895,19.838364,9.207640,0.374845,1.656295,0.054794,0.000000,0.000000,0.000000,0.000000,0.000000,0.000000
13214723.000000,2.303024,-1.058806,-1.889651,-1.470807,-1.025911,1.798524,0.498580,0.043798,-0.612761,-0.401031,-0.277051,-0.591194,0.636362,0.243024,0.796247,34.603924,19.985153,9.132261,0.339139,1.643478,0.081344,0.000000,0.000000,0.000000,0.000000,0.000000,0.000000
13214724.000000,2.303074,-1.059429,-1.890059,-1.471076,-1.026512,1.799158,0.498819,0.045667,-0.615614,-0.404946,-0.270951,-0.590105,0.633588,0.243080,0.796247,34.357952,20.159714,9.132261,0.339139,1.637069,0.100570,0.000000,0.000000,0.000000,0.000000,0.000000,0.000000
13214725.000000,2.303115,-1.060050,-1.890472,-1.471341,-1.027129,1.799796,0.499074,0.044491,-0.619750,-0.409468,-0.269353,-0.597124,0.636321,0.245793,0.895429,34.334148,20.306503,9.132261,0.320829,1.624252,0.061202,0.000000,0.000000,0.000000,0.000000,0.000000,0.000000
13214726.000000,2.303160,-1.060667,-1.890887,-1.471606,-1.027739,1.800408,0.499321,0.044530,-0.611410,-0.422245,-0.268405,-0.593790,0.625554,0.243963,0.970807,34.163555,20.524704,9.132261,0.303434,1.702071,0.107894,0.000000,0.000000,0.000000,0.000000,0.000000,0.000000
13214727.000000,2.303203,-1.061285,-1.891303,-1.471874,-1.028360,1.801028,0.499579,0.044382,-0.612069,-0.417950,-0.268093,-0.603429,0.624752,0.247060,1.046186,34.088177,20.600082,9.179869,0.369352,1.812850,0.041976,0.000000,0.000000,0.000000,0.000000,0.000000,0.000000
13214728.000000,2.303247,-1.061923,-1.891715,-1.472139,-1.028976,1.801665,0.499818,0.044024,-0.619783,-0.415022,-0.267688,-0.602043,0.641220,0.243399,1.145368,34.187359,20.671494,9.207640,0.369352,1.773483,0.107894,0.000000,0.000000,0.000000,0.000000,0.000000,0.000000
13214729.000000,2.303286,-1.062572,-1.892131,-1.472409,-1.029594,1.802283,0.500070,0.045074,-0.630562,-0.416751,-0.267047,-0.606907,0.637791,0.252972,1.315961,34.385723,20.770676,9.306822,0.369352,1.760665,0.041976,0.000000,0.000000,0.000000,0.000000,0.000000,0.000000
13214730.000000,2.303328,-1.063199,-1.892558,-1.472676,-1.030214,1.802904,0.500318,0.044139,-0.629449,-0.418897,-0.263552,-0.606219,0.627701,0.250749,1.442914,34.480938,20.945236,9.354429,0.381254,1.793624,0.048385,0.000000,0.000000,0.000000,0.000000,0.000000,0.000000
13214731.000000,2.303370,-1.063832,-1.892990,-1.472940,-1.030852,1.803519,0.500557,0.043798,-0.624875,-0.420495,-0.265385,-0.612271,0.627089,0.247105,1.565900,34.480938,21.092026,9.429808,0.446256,1.779891,0.107894,0.000000,0.000000,0.000000,0.000000,0.000000,0.000000
13214732.000000,2.303416,-1.064466,-1.893405,-1.473197,-1.031466,1.804148,0.500802,0.044435,-0.639809,-0.416328,-0.266523,-0.609554,0.627051,0.249287,1.641279,34.556316,21.139633,9.378233,0.428861,1.727706,0.041976,0.000000,0.000000,0.000000,0.000000,0.000000,0.000000
13214733.000000,2.303456,-1.065104,-1.893827,-1.473463,-1.032103,1.804771,0.501032,0.043729,-0.642655,-0.415891,-0.266440,-0.611997,0.626058,0.240083,1.764264,34.679302,21.187241,9.429808,0.452665,1.727706,0.127120,0.000000,0.000000,0.000000,0.000000,0.000000,0.000000
13214734.000000,2.303502,-1.065735,-1.894246,-1.473725,-1.032711,1.805374,0.501273,0.043443,-0.636159,-0.416654,-0.264989,-0.618426,0.621847,0.244440,1.863447,34.580120,21.262619,9.528990,0.398649,1.825668,0.054794,0.000000,0.000000,0.000000,0.000000,0.000000,0.000000
13214735.000000,2.303550,-1.066354,-1.894666,-1.473989,-1.033340,1.805997,0.501507,0.045089,-0.629369,-0.414483,-0.262669,-0.621878,0.619895,0.239607,1.887250,34.480938,21.238815,9.528990,0.339139,1.858627,0.061202,0.000000,0.000000,0.000000,0.000000,0.000000,0.000000
13214736.000000,2.303593,-1.066984,-1.895080,-1.474253,-1.033980,1.806611,0.501744,0.044365,-0.624214,-0.410011,-0.261405,-0.623865,0.617299,0.235593,1.986432,34.286541,21.187241,9.600401,0.398649,1.838485,0.067611,0.000000,0.000000,0.000000,0.000000,0.000000,0.000000
13214737.000000,2.303645,-1.067615,-1.895494,-1.474511,-1.034617,1.807229,0.501978,0.045894,-0.624384,-0.411913,-0.257807,-0.620408,0.623936,0.235694,2.010236,34.064373,21.215012,9.600401,0.428861,1.844894,0.081344,0.000000,0.000000,0.000000,0.000000,0.000000,0.000000
13214738.000000,2.303696,-1.068235,-1.895912,-1.474772,-1.035248,1.807843,0.502218,0.045469,-0.628124,-0.412209,-0.256828,-0.620475,0.617719,0.230184,2.085615,33.846172,21.238815,9.628172,0.440763,1.884261,0.041976,0.000000,0.000000,0.000000,0.000000,0.000000,0.000000
13214739.000000,2.303749,-1.068865,-1.896324,-1.475034,-1.035892,1.808454,0.502446,0.046538,-0.624387,-0.412079,-0.259759,-0.621457,0.619249,0.227583,2.109418,33.675579,21.215012,9.699583,0.464567,1.897079,0.081344,0.000000,0.000000,0.000000,0.000000,0.000000,0.000000
13214740.000000,2.303806,-1.069489,-1.896731,-1.475279,-1.036524,1.809078,0.502678,0.051186,-0.618244,-0.408172,-0.252056,-0.628266,0.617246,0.228340,2.109418,33.600201,21.139633,9.628172,0.518583,1.832076,0.061202,0.000000,0.000000,0.000000,0.000000,0.000000,0.000000
13214741.000000,2.303862,-1.070140,-1.897151,-1.475522,-1.037158,1.809697,0.502911,0.052354,-0.628216,-0.411332,-0.254634,-0.623874,0.622587,0.227208,2.061811,33.746990,21.215012,9.576597,0.494779,1.727706,0.094161,0.000000,0.000000,0.000000,0.000000,0.000000,0.000000
13214742.000000,2.303921,-1.070799,-1.897544,-1.475767,-1.037775,1.810307,0.503138,0.052868,-0.637555,-0.404112,-0.250173,-0.621936,0.616583,0.226210,2.010236,33.969158,21.016647,9.552794,0.452665,1.773483,0.120712,0.000000,0.000000,0.000000,0.000000,0.000000,0.000000
13214743.000000,2.303984,-1.071454,-1.897948,-1.476013,-1.038404,1.810928,0.503375,0.057067,-0.648963,-0.399567,-0.247750,-0.620084,0.616433,0.229199,1.934858,34.262737,20.869858,9.576597,0.398649,1.800033,0.048385,0.000000,0.000000,0.000000,0.000000,0.000000,0.000000
13214744.000000,2.304052,-1.072105,-1.898343,-1.476244,-1.039030,1.811542,0.503600,0.061145,-0.644954,-0.405812,-0.242154,-0.618014,0.613518,0.226641,1.811872,34.385723,20.794479,9.552794,0.327238,1.800033,0.094161,0.000000,0.000000,0.000000,0.000000,0.000000,0.000000
13214745.000000,2.304126,-1.072750,-1.898739,-1.476485,-1.039657,1.812171,0.503833,0.068231,-0.645595,-0.401929,-0.242921,-0.619650,0.615548,0.233419,1.641279,34.457134,20.647690,9.576597,0.332731,1.773483,0.041976,0.000000,0.000000,0.000000,0.000000,0.000000,0.000000
13214746.000000,2.304202,-1.073400,-1.899135,-1.476724,-1.040274,1.812786,0.504065,0.073489,-0.647379,-0.398659,-0.240011,-0.621443,0.613245,0.229955,1.466718,34.457134,20.477097,9.628172,0.267728,1.767074,0.074935,0.000000,0.000000,0.000000,0.000000,0.000000,0.000000
13214747.000000,2.304280,-1.074057,-1.899531,-1.476958,-1.040895,1.813418,0.504294,0.073272,-0.649164,-0.397609,-0.238784,-0.622089,0.616950,0.232936,1.315961,34.480938,20.354111,9.727354,0.273221,1.747848,0.067611,0.000000,0.000000,0.000000,0.000000,0.000000,0.000000
13214748.000000,2.304357,-1.074704,-1.899921,-1.477196,-1.041519,1.814052,0.504528,0.073035,-0.652812,-0.395042,-0.240215,-0.621858,0.618435,0.231860,1.192975,34.580120,20.207321,9.822569,0.261320,1.727706,0.054794,0.000000,0.000000,0.000000,0.000000,0.000000,0.000000
13214749.000000,2.304440,-1.075358,-1.900323,-1.477434,-1.042153,1.814674,0.504755,0.077424,-0.646612,-0.395767,-0.242422,-0.623907,0.624930,0.228693,0.994611,34.627728,20.131943,9.921751,0.315336,1.714889,0.094161,0.000000,0.000000,0.000000,0.000000,0.000000,0.000000
13214750.000000,2.304521,-1.076003,-1.900712,-1.477672,-1.042773,1.815305,0.504981,0.078299,-0.658118,-0.394607,-0.241886,-0.630293,0.621093,0.228876,0.895429,34.532513,19.985153,10.096312,0.362943,1.662704,0.081344,0.000000,0.000000,0.000000,0.000000,0.000000,0.000000
13214751.000000,2.304604,-1.076660,-1.901106,-1.477905,-1.043402,1.815936,0.505210,0.082063,-0.657711,-0.388803,-0.237165,-0.625221,0.626197,0.228311,0.796247,34.556316,19.790756,10.219297,0.327238,1.649886,0.094161,0.000000,0.000000,0.000000,0.000000,0.000000,0.000000
13214752.000000,2.304693,-1.077330,-1.901495,-1.478136,-1.044040,1.816543,0.505443,0.082852,-0.663439,-0.390463,-0.239139,-0.633670,0.618340,0.228723,0.649457,34.703106,19.691574,10.318480,0.315336,1.708480,0.074935,0.000000,0.000000,0.000000,0.000000,0.000000,0.000000
13214753.000000,2.304781,-1.077986,-1.901886,-1.478369,-1.044657,1.817156,0.505677,0.085185,-0.661736,-0.390657,-0.234010,-0.627694,0.612002,0.229352,0.550275,34.873699,19.544785,10.417662,0.243009,1.735030,0.041976,0.000000,0.000000,0.000000,0.000000,0.000000,0.000000
13214754.000000,2.304872,-1.078650,-1.902282,-1.478597,-1.045283,1.817764,0.505904,0.089266,-0.655589,-0.389223,-0.238047,-0.632679,0.610418,0.228353,0.375715,34.996685,19.469406,10.493040,0.171598,1.735030,0.041976,0.000000,0.000000,0.000000,0.000000,0.000000,0.000000
13214755.000000,2.304964,-1.079317,-1.902672,-1.478819,-1.045910,1.818382,0.506124,0.091598,-0.653394,-0.387340,-0.233750,-0.629588,0.609996,0.224867,0.228925,35.068096,19.346420,10.516844,0.147794,1.708480,0.067611,0.000000,0.000000,0.000000,0.000000,0.000000,0.000000
13214756.000000,2.305062,-1.079976,-1.903066,-1.479048,-1.046550,1.819000,0.506355,0.094554,-0.654457,-0.387864,-0.231961,-0.632462,0.611358,0.225571,0.030561,35.119671,19.346420,10.540648,0.166105,1.643478,0.061202,0.000000,0.000000,0.000000,0.000000,0.000000,0.000000
13214757.000000,2.305155,-1.080636,-1.903452,-1.479273,-1.047190,1.819599,0.506590,0.093636,-0.654234,-0.387711,-0.233852,-0.625399,0.609065,0.229950,-0.044818,35.044292,19.298813,10.564451,0.159696,1.649886,0.074935,0.000000,0.000000,0.000000,0.000000,0.000000,0.000000
13214758.000000,2.305249,-1.081276,-1.903849,-1.479493,-1.047832,1.820200,0.506823,0.093027,-0.654989,-0.391814,-0.229796,-0.632341,0.604860,0.234309,-0.116229,34.798321,19.298813,10.639830,0.243009,1.695663,0.067611,0.000000,0.000000,0.000000,0.000000,0.000000,0.000000
13214759.000000,2.305347,-1.081928,-1.904251,-1.479711,-1.048482,1.820797,0.507057,0.094632,-0.651131,-0.395197,-0.233473,-0.630888,0.617423,0.232017,-0.266986,34.603924,19.322617,10.762815,0.308927,1.760665,0.067611,0.000000,0.000000,0.000000,0.000000,0.000000,0.000000
13214760.000000,2.305440,-1.082591,-1.904651,-1.479923,-1.049121,1.821411,0.507282,0.094934,-0.647363,-0.393858,-0.227735,-0.637653,0.612012,0.230491,-0.266986,34.504742,19.445602,10.739012,0.315336,1.708480,0.074935,0.000000,0.000000,0.000000,0.000000,0.000000,0.000000
13214761.000000,2.305536,-1.083243,-1.905051,-1.480142,-1.049763,1.822019,0.507513,0.096683,-0.649691,-0.395983,-0.224097,-0.635209,0.613728,0.230615,-0.314593,34.357952,19.497177,10.885801,0.351041,1.735030,0.048385,0.000000,0.000000,0.000000,0.000000,0.000000,0.000000
13214762.000000,2.305634,-1.083898,-1.905447,-1.480354,-1.050404,1.822606,0.507743,0.095308,-0.648245,-0.402557,-0.219773,-0.632520,0.604684,0.228830,-0.366168,34.115948,19.544785,10.961180,0.261320,1.800033,0.074935,0.000000,0.000000,0.000000,0.000000,0.000000,0.000000
13214763.000000,2.305730,-1.084541,-1.905855,-1.480556,-1.051045,1.823213,0.507975,0.093057,-0.648978,-0.404248,-0.215045,-0.625938,0.605108,0.229891,-0.366168,33.893780,19.643967,10.885801,0.279630,1.767074,0.034652,0.000000,0.000000,0.000000,0.000000,0.000000,0.000000
13214764.000000,2.305831,-1.085191,-1.906260,-1.480767,-1.051695,1.823801,0.508194,0.097224,-0.646048,-0.402421,-0.212652,-0.628915,0.599745,0.225043,-0.465350,33.647808,19.739182,10.937376,0.279630,1.800033,0.127120,0.000000,0.000000,0.000000,0.000000,0.000000,0.000000
13214765.000000,2.305927,-1.085860,-1.906656,-1.480966,-1.052334,1.824392,0.508428,0.096312,-0.645076,-0.402643,-0.210015,-0.639618,0.599658,0.232584,-0.413775,33.576397,19.766953,10.937376,0.339139,1.851302,0.034652,0.000000,0.000000,0.000000,0.000000,0.000000,0.000000
13214766.000000,2.306016,-1.086521,-1.907061,-1.481159,-1.052983,1.824975,0.508647,0.095502,-0.648981,-0.403322,-0.199385,-0.637486,0.591645,0.229138,-0.342364,33.600201,19.838364,10.861998,0.285123,1.955673,0.087753,0.000000,0.000000,0.000000,0.000000,0.000000,0.000000
13214767.000000,2.306116,-1.087190,-1.907471,-1.481363,-1.053634,1.825565,0.508879,0.097533,-0.650402,-0.406916,-0.202928,-0.638792,0.597228,0.232989,-0.366168,33.624004,19.885971,10.937376,0.291532,1.909896,0.081344,0.000000,0.000000,0.000000,0.000000,0.000000,0.000000
13214768.000000,2.306211,-1.087853,-1.907875,-1.481553,-1.054279,1.826170,0.509108,0.097841,-0.672839,-0.401435,-0.197436,-0.639567,0.598594,0.231005,-0.342364,33.746990,19.985153,10.861998,0.297025,1.786300,0.094161,0.000000,0.000000,0.000000,0.000000,0.000000,0.000000
13214769.000000,2.306300,-1.088543,-1.908281,-1.481739,-1.054924,1.826762,0.509348,0.095615,-0.679043,-0.402152,-0.190404,-0.637666,0.599486,0.227993,-0.215411,34.064373,20.060532,10.786619,0.279630,1.800033,0.034652,0.000000,0.000000,0.000000,0.000000,0.000000,0.000000
13214770.000000,2.306394,-1.089234,-1.908685,-1.481925,-1.055584,1.827339,0.509581,0.094769,-0.676212,-0.398792,-0.189703,-0.658243,0.593449,0.228233,-0.116229,34.262737,20.084335,10.762815,0.308927,1.865035,0.015426,0.000000,0.000000,0.000000,0.000000,0.000000,0.000000
13214771.000000,2.306490,-1.089911,-1.909095,-1.482108,-1.056230,1.827926,0.509801,0.095125,-0.675710,-0.399678,-0.186096,-0.659267,0.594670,0.225271,-0.068621,34.385723,20.108139,10.691404,0.332731,1.877853,0.081344,0.000000,0.000000,0.000000,0.000000,0.000000,0.000000
13214772.000000,2.306582,-1.090602,-1.909499,-1.482287,-1.056879,1.828516,0.510038,0.095763,-0.676266,-0.395172,-0.189069,-0.649002,0.595126,0.227621,-0.017047,34.556316,20.036728,10.564451,0.332731,1.812850,0.015426,0.000000,0.000000,0.000000,0.000000,0.000000,0.000000
13214773.000000,2.306676,-1.091288,-1.909899,-1.482470,-1.057510,1.829110,0.510260,0.096078,-0.680233,-0.397568,-0.184658,-0.649848,0.591393,0.222317,0.030561,34.703106,20.060532,10.516844,0.291532,1.721298,0.081344,0.000000,0.000000,0.000000,0.000000,0.000000,0.000000
13214774.000000,2.306764,-1.091958,-1.910301,-1.482663,-1.058157,1.829700,0.510496,0.093821,-0.683167,-0.399685,-0.185638,-0.646337,0.589545,0.225586,0.177350,34.726910,20.008957,10.639830,0.267728,1.727706,0.028243,0.000000,0.000000,0.000000,0.000000,0.000000,0.000000
13214775.000000,2.306858,-1.092644,-1.910696,-1.482834,-1.058805,1.830275,0.510720,0.094615,-0.682913,-0.408159,-0.181554,-0.653009,0.587205,0.229578,0.228925,34.826092,19.913742,10.540648,0.243009,1.754256,0.054794,0.000000,0.000000,0.000000,0.000000,0.000000,0.000000
13214776.000000,2.306948,-1.093315,-1.911093,-1.482998,-1.059445,1.830861,0.510944,0.091652,-0.677872,-0.404893,-0.177243,-0.645547,0.583514,0.229361,0.304304,34.798321,19.838364,10.417662,0.249418,1.806442,0.041976,0.000000,0.000000,0.000000,0.000000,0.000000,0.000000
13214777.000000,2.307041,-1.093998,-1.911489,-1.483165,-1.060091,1.831436,0.511167,0.090074,-0.675654,-0.401798,-0.171158,-0.642698,0.589967,0.226708,0.351911,34.679302,19.715378,10.318480,0.237516,1.825668,0.081344,0.000000,0.000000,0.000000,0.000000,0.000000,0.000000
13214778.000000,2.307140,-1.094684,-1.911876,-1.483326,-1.060724,1.832027,0.511392,0.091983,-0.677495,-0.395892,-0.170072,-0.641629,0.588739,0.231099,0.375715,34.556316,19.568588,10.195494,0.225614,1.838485,0.094161,0.000000,0.000000,0.000000,0.000000,0.000000,0.000000
13214779.000000,2.307231,-1.095356,-1.912279,-1.483482,-1.061370,1.832614,0.511630,0.092664,-0.679466,-0.397498,-0.165967,-0.640595,0.583187,0.232985,0.451093,34.457134,19.568588,10.072508,0.195402,1.838485,0.015426,0.000000,0.000000,0.000000,0.000000,0.000000,0.000000
13214780.000000,2.307328,-1.096046,-1.912666,-1.483629,-1.062010,1.833207,0.511854,0.091313,-0.687120,-0.400249,-0.158843,-0.635620,0.586835,0.228480,0.474897,34.532513,19.445602,9.897947,0.183500,1.773483,0.087753,0.000000,0.000000,0.000000,0.000000,0.000000,0.000000
13214781.000000,2.307429,-1.096745,-1.913073,-1.483768,-1.062649,1.833811,0.512084,0.091300,-0.693423,-0.399086,-0.153764,-0.637504,0.585382,0.228625,0.451093,34.873699,19.497177,9.628172,0.183500,1.656295,0.074935,0.000000,0.000000,0.000000,0.000000,0.000000,0.000000
13214782.000000,2.307529,-1.097456,-1.913476,-1.483912,-1.063293,1.834415,0.512309,0.094514,-0.693584,-0.398732,-0.147564,-0.631898,0.591009,0.226496,0.427289,35.167278,19.445602,9.477415,0.178007,1.624252,0.107894,0.000000,0.000000,0.000000,0.000000,0.000000,0.000000
13214783.000000,2.307630,-1.098165,-1.913875,-1.484053,-1.063935,1.834996,0.512550,0.093134,-0.696052,-0.395577,-0.147238,-0.644948,0.588570,0.238316,0.403486,35.314068,19.397995,9.378233,0.195402,1.643478,0.009017,0.000000,0.000000,0.000000,0.000000,0.000000,0.000000
13214784.000000,2.307731,-1.098869,-1.914283,-1.484181,-1.064570,1.835595,0.512775,0.095515,-0.699280,-0.394354,-0.138401,-0.633335,0.586870,0.236953,0.375715,35.508465,19.421799,9.207640,0.166105,1.624252,0.087753,0.000000,0.000000,0.000000,0.000000,0.000000,0.000000
13214785.000000,2.307838,-1.099587,-1.914690,-1.484315,-1.065225,1.836184,0.513012,0.098126,-0.702036,-0.394357,-0.138587,-0.635437,0.588197,0.236418,0.304304,35.802044,19.469406,9.132261,0.183500,1.572067,0.028243,0.000000,0.000000,0.000000,0.000000,0.000000,0.000000
13214786.000000,2.307945,-1.100296,-1.915091,-1.484441,-1.065864,1.836776,0.513239,0.099893,-0.710865,-0.396155,-0.134594,-0.639710,0.587295,0.233717,0.252729,36.048016,19.469406,9.056883,0.141385,1.559249,0.034652,0.000000,0.000000,0.000000,0.000000,0.000000,0.000000
13214787.000000,2.308046,-1.101005,-1.915504,-1.484571,-1.066522,1.837366,0.513463,0.102569,-0.710786,-0.396767,-0.134687,-0.643115,0.576483,0.231930,0.276533,36.171001,19.592392,9.009275,0.135892,1.584884,0.048385,0.000000,0.000000,0.000000,0.000000,0.000000,0.000000
13214788.000000,2.308153,-1.101707,-1.915914,-1.484700,-1.067180,1.837945,0.513693,0.099077,-0.702846,-0.398118,-0.133006,-0.643150,0.579127,0.230822,0.252729,36.123394,19.739182,9.009275,0.147794,1.572067,0.041976,0.000000,0.000000,0.000000,0.000000,0.000000,0.000000
13214789.000000,2.308260,-1.102409,-1.916329,-1.484830,-1.067836,1.838538,0.513918,0.105036,-0.697257,-0.400206,-0.131793,-0.649311,0.581772,0.233320,0.252729,36.123394,19.937546,9.056883,0.195402,1.507064,0.081344,0.000000,0.000000,0.000000,0.000000,0.000000,0.000000
13214790.000000,2.308357,-1.103129,-1.916750,-1.484956,-1.068502,1.839114,0.514153,0.101724,-0.702686,-0.404052,-0.131545,-0.657334,0.587311,0.237809,0.351911,36.270184,20.108139,9.132261,0.237516,1.500655,0.034652,0.000000,0.000000,0.000000,0.000000,0.000000,0.000000
13214791.000000,2.308464,-1.103850,-1.917166,-1.485083,-1.069154,1.839678,0.514372,0.101397,-0.706942,-0.406910,-0.130212,-0.652740,0.579550,0.231153,0.351911,36.440777,20.278732,9.179869,0.237516,1.695663,0.074935,0.000000,0.000000,0.000000,0.000000,0.000000,0.000000
13214792.000000,2.308565,-1.104557,-1.917593,-1.485212,-1.069816,1.840248,0.514598,0.099724,-0.712396,-0.407617,-0.128155,-0.658929,0.577813,0.226853,0.427289,36.587566,20.429489,9.279051,0.243009,1.800033,0.034652,0.000000,0.000000,0.000000,0.000000,0.000000,0.000000
13214793.000000,2.308674,-1.105271,-1.918009,-1.485337,-1.070479,1.840828,0.514817,0.103587,-0.714039,-0.415117,-0.129836,-0.656579,0.577823,0.230709,0.403486,36.682781,20.552475,9.330626,0.171598,1.747848,0.054794,0.000000,0.000000,0.000000,0.000000,0.000000,0.000000
13214794.000000,2.308787,-1.105975,-1.918439,-1.485459,-1.071139,1.841409,0.515036,0.106895,-0.715490,-0.418585,-0.128253,-0.657930,0.578076,0.223609,0.375715,36.734356,20.746872,9.330626,0.159696,1.637069,0.094161,0.000000,0.000000,0.000000,0.000000,0.000000,0.000000
13214795.000000,2.308892,-1.106696,-1.918879,-1.485579,-1.071803,1.841973,0.515261,0.107078,-0.718852,-0.421725,-0.123608,-0.658068,0.585609,0.221598,0.427289,36.857342,20.969040,9.306822,0.183500,1.656295,0.034652,0.000000,0.000000,0.000000,0.000000,0.000000,0.000000
13214796.000000,2.309006,-1.107413,-1.919309,-1.485694,-1.072464,1.842525,0.515478,0.107274,-0.712292,-0.420542,-0.120353,-0.663891,0.576253,0.218082,0.351911,36.857342,21.163437,9.279051,0.201810,1.779891,0.034652,0.000000,0.000000,0.000000,0.000000,0.000000,0.000000
13214797.000000,2.309117,-1.108122,-1.919747,-1.485812,-1.073137,1.843089,0.515691,0.109063,-0.705754,-0.422356,-0.117950,-0.664955,0.570624,0.218247,0.328107,36.805767,21.385605,9.279051,0.261320,1.858627,0.087753,0.000000,0.000000,0.000000,0.000000,0.000000,0.000000
13214798.000000,2.309230,-1.108846,-1.920183,-1.485918,-1.073817,1.843649,0.515906,0.109849,-0.705157,-0.429352,-0.112079,-0.660910,0.566947,0.216044,0.328107,36.857342,21.532394,9.207640,0.320829,1.812850,0.081344,0.000000,0.000000,0.000000,0.000000,0.000000,0.000000
13214799.000000,2.309344,-1.109568,-1.920617,-1.486030,-1.074472,1.844219,0.516122,0.111239,-0.726019,-0.431106,-0.108851,-0.659409,0.567631,0.215454,0.304304,37.004131,21.679184,9.207640,0.291532,1.773483,0.041976,0.000000,0.000000,0.000000,0.000000,0.000000,0.000000
13214800.000000,2.309450,-1.110280,-1.921058,-1.486145,-1.075144,1.844785,0.516334,0.110654,-0.723946,-0.433693,-0.111133,-0.657327,0.563469,0.211449,0.351911,36.881145,21.877548,9.255247,0.279630,1.767074,0.087753,0.000000,0.000000,0.000000,0.000000,0.000000,0.000000
13214801.000000,2.309559,-1.110997,-1.921486,-1.486252,-1.075803,1.845339,0.516556,0.108843,-0.723260,-0.433332,-0.109855,-0.672763,0.562609,0.218418,0.451093,36.781963,21.972763,9.179869,0.273221,1.812850,0.009017,0.000000,0.000000,0.000000,0.000000,0.000000,0.000000
13214802.000000,2.309674,-1.111713,-1.921922,-1.486358,-1.076481,1.845902,0.516766,0.110074,-0.729693,-0.433455,-0.109438,-0.666960,0.562352,0.212972,0.451093,36.805767,22.095749,9.132261,0.344633,1.819259,0.081344,0.000000,0.000000,0.000000,0.000000,0.000000,0.000000
13214803.000000,2.309788,-1.112431,-1.922369,-1.486464,-1.077152,1.846452,0.516985,0.111416,-0.720722,-0.438144,-0.105527,-0.670076,0.565707,0.212331,0.427289,36.734356,22.270309,9.108458,0.374845,1.890670,0.061202,0.000000,0.000000,0.000000,0.000000,0.000000,0.000000
13214804.000000,2.309899,-1.113151,-1.922800,-1.486562,-1.077807,1.847009,0.517196,0.110914,-0.712102,-0.439561,-0.102725,-0.664179,0.559542,0.211708,0.474897,36.635174,22.341721,9.033079,0.297025,1.949264,0.048385,0.000000,0.000000,0.000000,0.000000,0.000000,0.000000
13214805.000000,2.310002,-1.113865,-1.923232,-1.486676,-1.078475,1.847572,0.517408,0.107622,-0.707053,-0.435024,-0.105334,-0.665695,0.563556,0.210936,0.649457,36.611370,22.341721,9.156065,0.267728,1.909896,0.061202,0.000000,0.000000,0.000000,0.000000,0.000000,0.000000
13214806.000000,2.310108,-1.114601,-1.923664,-1.486778,-1.079136,1.848139,0.517627,0.106382,-0.709734,-0.434820,-0.105405,-0.658323,0.563122,0.211460,0.772443,36.781963,22.440903,9.207640,0.231107,1.819259,0.028243,0.000000,0.000000,0.000000,0.000000,0.000000,0.000000
13214807.000000,2.310211,-1.115337,-1.924100,-1.486881,-1.079794,1.848690,0.517831,0.107179,-0.717732,-0.435437,-0.104608,-0.662069,0.557016,0.207475,0.923200,37.051739,22.440903,9.255247,0.189908,1.838485,0.107894,0.000000,0.000000,0.000000,0.000000,0.000000,0.000000
13214808.000000,2.310316,-1.116073,-1.924532,-1.486976,-1.080467,1.849229,0.518055,0.106243,-0.721505,-0.431102,-0.104873,-0.658523,0.550161,0.215452,1.046186,37.222332,22.488510,9.207640,0.255826,1.955673,0.015426,0.000000,0.000000,0.000000,0.000000,0.000000,0.000000
13214809.000000,2.310417,-1.116812,-1.924959,-1.487082,-1.081134,1.849780,0.518262,0.107105,-0.728186,-0.431258,-0.105594,-0.654952,0.550294,0.209014,1.244550,37.420696,22.540085,9.306822,0.291532,1.955673,0.061202,0.000000,0.000000,0.000000,0.000000,0.000000,0.000000
13214810.000000,2.310523,-1.117543,-1.925380,-1.487186,-1.081805,1.850347,0.518469,0.104214,-0.732707,-0.426255,-0.102630,-0.652288,0.552114,0.211789,1.343732,37.615093,22.417099,9.378233,0.315336,1.903487,0.107894,0.000000,0.000000,0.000000,0.000000,0.000000,0.000000
13214811.000000,2.310625,-1.118276,-1.925808,-1.487283,-1.082482,1.850905,0.518697,0.100545,-0.732344,-0.437214,-0.099272,-0.652615,0.553539,0.218173,1.490522,37.738079,22.440903,9.406004,0.291532,1.844894,0.041976,0.000000,0.000000,0.000000,0.000000,0.000000,0.000000
13214812.000000,2.310734,-1.118989,-1.926225,-1.487385,-1.083142,1.851470,0.518912,0.105739,-0.723717,-0.428207,-0.099482,-0.658019,0.556781,0.215067,1.565900,37.686504,22.294113,9.552794,0.255826,1.806442,0.054794,0.000000,0.000000,0.000000,0.000000,0.000000,0.000000
13214813.000000,2.310845,-1.119710,-1.926643,-1.487479,-1.083810,1.852023,0.519133,0.107779,-0.719008,-0.423664,-0.096740,-0.650953,0.565125,0.217840,1.589704,37.567486,22.095749,9.576597,0.219205,1.819259,0.048385,0.000000,0.000000,0.000000,0.000000,0.000000,0.000000
13214814.000000,2.310948,-1.120432,-1.927060,-1.487563,-1.084466,1.852582,0.519345,0.103649,-0.716579,-0.423102,-0.093172,-0.653525,0.564438,0.221923,1.688886,37.321514,22.000534,9.528990,0.219205,1.844894,0.094161,0.000000,0.000000,0.000000,0.000000,0.000000,0.000000
13214815.000000,2.311056,-1.121155,-1.927478,-1.487656,-1.085136,1.853137,0.519562,0.104600,-0.718269,-0.417394,-0.092724,-0.655013,0.556667,0.220040,1.764264,37.222332,21.849777,9.576597,0.201810,1.930038,0.054794,0.000000,0.000000,0.000000,0.000000,0.000000,0.000000
13214816.000000,2.311165,-1.121875,-1.927894,-1.487742,-1.085807,1.853687,0.519773,0.105691,-0.712159,-0.411233,-0.092615,-0.659497,0.558890,0.220290,1.835676,37.004131,21.726791,9.628172,0.166105,1.949264,0.087753,0.000000,0.000000,0.000000,0.000000,0.000000,0.000000
13214817.000000,2.311269,-1.122589,-1.928303,-1.487824,-1.086463,1.854255,0.519993,0.102032,-0.727262,-0.410686,-0.092422,-0.653982,0.561747,0.219992,1.962629,36.904949,21.631577,9.576597,0.141385,1.923629,0.015426,0.000000,0.000000,0.000000,0.000000,0.000000,0.000000
13214818.000000,2.311381,-1.123315,-1.928714,-1.487907,-1.087131,1.854811,0.520199,0.105927,-0.728053,-0.405782,-0.090122,-0.656525,0.558520,0.214759,1.934858,36.881145,21.508591,9.528990,0.088285,1.916305,0.061202,0.000000,0.000000,0.000000,0.000000,0.000000,0.000000
13214819.000000,2.311489,-1.124054,-1.929119,-1.487981,-1.087805,1.855370,0.520409,0.106731,-0.732566,-0.402956,-0.087847,-0.667880,0.557734,0.212607,1.986432,37.004131,21.385605,9.453611,0.100187,1.865035,0.074935,0.000000,0.000000,0.000000,0.000000,0.000000,0.000000
13214820.000000,2.311604,-1.124785,-1.929538,-1.488059,-1.088483,1.855931,0.520617,0.111508,-0.736856,-0.405497,-0.084779,-0.669298,0.552384,0.206775,1.962629,37.174725,21.484787,9.453611,0.195402,1.779891,0.074935,0.000000,0.000000,0.000000,0.000000,0.000000,0.000000
13214821.000000,2.311711,-1.125517,-1.929962,-1.488130,-1.089158,1.856486,0.520821,0.107740,-0.729448,-0.406689,-0.078986,-0.662988,0.552045,0.207087,2.010236,37.246136,21.556198,9.429808,0.237516,1.747848,0.067611,0.000000,0.000000,0.000000,0.000000,0.000000,0.000000
13214822.000000,2.311826,-1.126250,-1.930370,-1.488192,-1.089837,1.857044,0.521027,0.112897,-0.726617,-0.407974,-0.072790,-0.664902,0.548442,0.212362,1.986432,37.246136,21.532394,9.330626,0.308927,1.682845,0.061202,0.000000,0.000000,0.000000,0.000000,0.000000,0.000000
13214823.000000,2.311948,-1.126982,-1.930794,-1.488262,-1.090518,1.857596,0.521234,0.114672,-0.723674,-0.405669,-0.070375,-0.664835,0.546938,0.211237,1.911054,37.369122,21.655380,9.330626,0.369352,1.708480,0.081344,0.000000,0.000000,0.000000,0.000000,0.000000,0.000000
13214824.000000,2.312069,-1.127713,-1.931208,-1.488329,-1.091193,1.858137,0.521448,0.115002,-0.723967,-0.407528,-0.069822,-0.665876,0.544694,0.211961,1.863447,37.369122,21.778366,9.378233,0.315336,1.786300,0.041976,0.000000,0.000000,0.000000,0.000000,0.000000,0.000000
13214825.000000,2.312187,-1.128430,-1.931623,-1.488400,-1.091851,1.858678,0.521651,0.114281,-0.722152,-0.408315,-0.072859,-0.674718,0.546105,0.209148,1.863447,37.246136,21.754562,9.477415,0.219205,1.865035,0.087753,0.000000,0.000000,0.000000,0.000000,0.000000,0.000000
13214826.000000,2.312312,-1.129160,-1.932050,-1.488463,-1.092534,1.859214,0.521862,0.119313,-0.724273,-0.410580,-0.068091,-0.672088,0.539542,0.209056,1.764264,37.222332,21.925156,9.528990,0.159696,1.942855,0.074935,0.000000,0.000000,0.000000,0.000000,0.000000,0.000000
13214827.000000,2.312438,-1.129894,-1.932461,-1.488528,-1.093203,1.859757,0.522071,0.122523,-0.725965,-0.405723,-0.064755,-0.677145,0.541451,0.207562,1.665082,37.222332,21.948959,9.600401,0.117582,1.968490,0.034652,0.000000,0.000000,0.000000,0.000000,0.000000,0.000000
13214828.000000,2.312557,-1.130613,-1.932884,-1.488591,-1.093889,1.860309,0.522276,0.120286,-0.727059,-0.410990,-0.064637,-0.670715,0.548123,0.206318,1.641279,37.222332,22.119553,9.628172,0.183500,1.974899,0.067611,0.000000,0.000000,0.000000,0.000000,0.000000,0.000000
13214829.000000,2.312678,-1.131337,-1.933306,-1.488658,-1.094575,1.860840,0.522488,0.117383,-0.729525,-0.420027,-0.066657,-0.674780,0.542994,0.211114,1.665082,37.198528,22.317917,9.751158,0.243009,1.995040,0.081344,0.000000,0.000000,0.000000,0.000000,0.000000,0.000000
13214830.000000,2.312808,-1.132051,-1.933723,-1.488723,-1.095253,1.861391,0.522692,0.120725,-0.725600,-0.417889,-0.067505,-0.670517,0.545453,0.210241,1.613508,37.150921,22.317917,9.850340,0.356534,1.936446,0.087753,0.000000,0.000000,0.000000,0.000000,0.000000,0.000000
13214831.000000,2.312943,-1.132782,-1.934154,-1.488784,-1.095936,1.861939,0.522902,0.125187,-0.721688,-0.416850,-0.063806,-0.668786,0.539188,0.210813,1.466718,37.174725,22.464706,9.897947,0.434354,1.865035,0.048385,0.000000,0.000000,0.000000,0.000000,0.000000,0.000000
13214832.000000,2.313075,-1.133519,-1.934573,-1.488843,-1.096594,1.862474,0.523099,0.127015,-0.720951,-0.418169,-0.064371,-0.665419,0.542576,0.211280,1.367536,37.174725,22.563889,9.949522,0.416959,1.832076,0.107894,0.000000,0.000000,0.000000,0.000000,0.000000,0.000000
13214833.000000,2.313209,-1.134238,-1.934993,-1.488899,-1.097264,1.862999,0.523304,0.128331,-0.720752,-0.415451,-0.063792,-0.664956,0.534961,0.207923,1.268354,37.051739,22.540085,9.973326,0.320829,1.916305,0.048385,0.000000,0.000000,0.000000,0.000000,0.000000,0.000000
13214834.000000,2.313351,-1.134971,-1.935415,-1.488943,-1.097934,1.863514,0.523505,0.131887,-0.721188,-0.419011,-0.057885,-0.666248,0.534728,0.206991,1.069990,37.004131,22.587692,9.874144,0.261320,2.027084,0.067611,0.000000,0.000000,0.000000,0.000000,0.000000,0.000000
13214835.000000,2.313491,-1.135698,-1.935826,-1.488990,-1.098594,1.864035,0.523711,0.132724,-0.724186,-0.417003,-0.055192,-0.661627,0.524834,0.208401,0.923200,37.004131,22.563889,9.850340,0.171598,2.137862,0.034652,0.000000,0.000000,0.000000,0.000000,0.000000,0.000000
13214836.000000,2.313630,-1.136432,-1.936239,-1.489025,-1.099265,1.864641,0.523936,0.138918,-0.727393,-0.411826,-0.046728,-0.667430,0.552885,0.215629,0.824018,36.928753,22.540085,9.675779,0.112089,1.422836,-0.175919,0.000000,0.000000,0.000000,0.000000,0.000000,0.000000
13214837.000000,2.313775,-1.137157,-1.936663,-1.489079,-1.100091,1.865821,0.524089,0.139948,-0.728399,-0.417736,-0.047707,-0.728567,0.770770,0.194754,0.724836,36.682781,22.758286,9.822569,1.402982,-4.280900,0.318465,0.000000,0.000000,0.000000,0.000000,0.000000,0.000000
13214838.000000,2.313888,-1.137894,-1.937122,-1.489161,-1.100820,1.866546,0.524354,0.133703,-0.737129,-0.430605,-0.062113,-0.735318,0.759852,0.220775,1.046186,36.734356,23.373215,10.417662,1.772855,-5.145158,-0.261979,0.000000,0.000000,0.000000,0.000000,0.000000,0.000000
13214839.000000,2.313972,-1.138686,-1.937400,-1.489130,-1.101608,1.867178,0.524566,0.115331,-0.755272,-0.378943,-0.030581,-0.752202,0.719564,0.218561,1.764264,37.468304,21.385605,9.378233,2.484220,-4.488725,-0.334306,0.000000,0.000000,0.000000,0.000000,0.000000,0.000000
13214840.000000,2.314159,-1.139533,-1.937679,-1.489023,-1.102402,1.868188,0.524721,0.136450,-0.785042,-0.343951,0.017576,-0.768173,0.818372,0.194503,1.022382,38.912395,19.643967,7.327147,3.022550,-6.745500,0.087753,0.000000,0.000000,0.000000,0.000000,0.000000,0.000000
13214841.000000,2.314388,-1.140349,-1.938015,-1.488931,-1.103147,1.868955,0.524900,0.169103,-0.793485,-0.334558,0.045945,-0.765043,0.790584,0.189382,-0.366168,40.015301,18.830673,5.720397,2.920927,-6.361894,0.351424,0.000000,0.000000,0.000000,0.000000,0.000000,0.000000
13214842.000000,2.314481,-1.141148,-1.938166,-1.488854,-1.103938,1.869743,0.525196,0.143892,-0.789808,-0.268105,0.061524,-0.766558,0.781797,0.226031,0.375715,40.550884,15.593369,4.557982,3.112272,-5.913285,-0.478959,0.000000,0.000000,0.000000,0.000000,0.000000,0.000000
13214843.000000,2.314555,-1.141916,-1.938290,-1.488769,-1.104703,1.870504,0.525305,0.118026,-0.777930,-0.211402,0.071873,-0.767105,0.769515,0.187427,1.391340,40.578655,12.252914,3.570128,3.028043,-5.125932,0.390792,0.000000,0.000000,0.000000,0.000000,0.000000,0.000000
13214844.000000,2.314749,-1.142727,-1.938398,-1.488664,-1.105444,1.871261,0.525493,0.145735,-0.784681,-0.170605,0.084793,-0.757784,0.769923,0.185426,0.625654,41.066631,9.138596,2.506895,2.681974,-4.586686,0.489669,0.000000,0.000000,0.000000,0.000000,0.000000,0.000000
13214845.000000,2.314888,-1.143498,-1.938414,-1.488488,-1.106200,1.871993,0.525727,0.142540,-0.774835,-0.114119,0.113806,-0.753278,0.745612,0.199661,0.649457,40.919842,5.234787,0.630369,2.580350,-3.955888,0.074935,0.000000,0.000000,0.000000,0.000000,0.000000,0.000000
13214846.000000,2.314961,-1.144174,-1.938382,-1.488326,-1.106954,1.872526,0.525898,0.119175,-0.741683,-0.058311,0.129871,-0.754785,0.670543,0.189959,1.589704,39.622540,1.184189,-0.805788,2.460416,-1.913346,0.252548,0.000000,0.000000,0.000000,0.000000,0.000000,0.000000
13214847.000000,2.315042,-1.144792,-1.938337,-1.488212,-1.107588,1.873076,0.526079,0.107732,-0.694027,-0.024363,0.126127,-0.702036,0.620294,0.182829,2.359357,37.444500,-2.445877,-1.226320,1.408475,-0.645341,0.318465,0.000000,0.000000,0.000000,0.000000,0.000000,0.000000
13214848.000000,2.315105,-1.145345,-1.938268,-1.488066,-1.108274,1.873699,0.526281,0.094833,-0.659054,0.008384,0.135365,-0.688553,0.617614,0.190864,3.347211,34.603924,-5.786331,-1.892824,1.098112,-0.580338,0.153671,0.000000,0.000000,0.000000,0.000000,0.000000,0.000000
13214849.000000,2.315147,-1.145866,-1.938154,-1.487902,-1.108938,1.874296,0.526432,0.075116,-0.612209,0.044356,0.143307,-0.676225,0.614627,0.178097,4.537397,31.445965,-9.198196,-2.559328,0.774930,-0.898942,0.470443,0.000000,0.000000,0.000000,0.000000,0.000000,0.000000
13214850.000000,2.315170,-1.146351,-1.937998,-1.487770,-1.109608,1.874828,0.526628,0.057893,-0.569142,0.079228,0.136316,-0.684670,0.590538,0.182039,5.874372,28.069805,-12.681473,-2.658510,0.757535,-0.983170,0.331283,0.000000,0.000000,0.000000,0.000000,0.000000,0.000000
13214851.000000,2.315153,-1.146786,-1.937824,-1.487661,-1.110192,1.875325,0.526792,0.030819,-0.525780,0.108339,0.124422,-0.652538,0.563298,0.178311,7.604108,24.542889,-15.894974,-2.313356,0.123990,-1.016129,0.483260,0.000000,0.000000,0.000000,0.000000,0.000000,0.000000
13214852.000000,2.315140,-1.147192,-1.937612,-1.487548,-1.110762,1.875725,0.526978,0.013466,-0.475339,0.138543,0.118763,-0.620916,0.516032,0.179960,9.139447,21.019939,-19.183853,-1.992006,-0.479342,-0.431107,0.390792,0.000000,0.000000,0.000000,0.000000,0.000000,0.000000
13214853.000000,2.315134,-1.147569,-1.937413,-1.487423,-1.111269,1.876151,0.527164,0.004920,-0.439932,0.155856,0.117916,-0.589096,0.491732,0.180589,10.377240,17.616009,-21.837967,-1.793642,-1.339938,-0.248917,0.312057,0.000000,0.000000,0.000000,0.000000,0.000000,0.000000
13214854.000000,2.315122,-1.147931,-1.937218,-1.487274,-1.111740,1.876682,0.527337,-0.000120,-0.415996,0.160806,0.126498,-0.547750,0.509556,0.175200,11.539655,14.311260,-24.095352,-1.940431,-2.415682,-1.185502,0.377975,0.000000,0.000000,0.000000,0.000000,0.000000,0.000000
13214855.000000,2.315117,-1.148226,-1.937060,-1.487142,-1.112191,1.877160,0.527511,-0.002496,-0.374445,0.153365,0.128283,-0.514476,0.505267,0.172763,12.483869,10.542339,-25.666397,-1.892824,-3.354098,-1.737565,0.410934,0.000000,0.000000,0.000000,0.000000,0.000000,0.000000
13214856.000000,2.315107,-1.148468,-1.936917,-1.487020,-1.112624,1.877594,0.527694,-0.004094,-0.328722,0.145322,0.123669,-0.483080,0.487844,0.173961,13.396344,6.479839,-26.892288,-1.742067,-4.106661,-1.718339,0.365157,0.000000,0.000000,0.000000,0.000000,0.000000,0.000000
13214857.000000,2.315103,-1.148703,-1.936768,-1.486889,-1.113061,1.878041,0.527885,-0.004243,-0.299368,0.146013,0.126493,-0.465670,0.483816,0.179179,14.114423,2.734722,-28.169754,-1.769838,-4.548861,-1.757706,0.305648,0.000000,0.000000,0.000000,0.000000,0.000000,0.000000
13214858.000000,2.315118,-1.148895,-1.936649,-1.486791,-1.113488,1.878540,0.528051,0.001663,-0.261792,0.134376,0.117755,-0.456058,0.493558,0.173291,14.534955,-1.180989,-29.002884,-1.396913,-4.890353,-2.134904,0.398116,0.000000,0.000000,0.000000,0.000000,0.000000,0.000000
13214859.000000,2.315136,-1.149023,-1.936553,-1.486707,-1.113966,1.879026,0.528251,0.010590,-0.223191,0.117197,0.104505,-0.466581,0.491338,0.188998,14.860272,-5.418049,-29.542435,-0.853395,-4.716403,-2.141312,0.219589,0.000000,0.000000,0.000000,0.000000,0.000000,0.000000
13214860.000000,2.315158,-1.149096,-1.936484,-1.486632,-1.114426,1.879499,0.528438,0.014631,-0.172666,0.099278,0.092505,-0.467685,0.484620,0.188132,15.130048,-10.043903,-29.788406,-0.309877,-4.687106,-2.004899,0.225997,0.000000,0.000000,0.000000,0.000000,0.000000,0.000000
13214861.000000,2.315217,-1.149156,-1.936454,-1.486559,-1.114951,1.879994,0.528642,0.029095,-0.139695,0.072395,0.087420,-0.494477,0.487613,0.192491,14.884076,-14.276997,-29.641617,0.186034,-4.178988,-1.952714,0.107894,0.000000,0.000000,0.000000,0.000000,0.000000,0.000000
13214862.000000,2.315290,-1.149200,-1.936453,-1.486450,-1.115540,1.880530,0.528844,0.046136,-0.109055,0.045130,0.092857,-0.528918,0.514575,0.198203,14.439740,-18.367268,-29.248856,0.059080,-3.306490,-2.219132,0.034652,0.000000,0.000000,0.000000,0.000000,0.000000,0.000000
13214863.000000,2.315385,-1.149218,-1.936494,-1.486310,-1.116122,1.881076,0.529015,0.065999,-0.079373,0.015336,0.110902,-0.559835,0.522849,0.188471,13.769269,-22.330585,-28.510941,-0.631227,-2.762667,-2.485551,0.258956,0.000000,0.000000,0.000000,0.000000,0.000000,0.000000
13214864.000000,2.315491,-1.149237,-1.936553,-1.486176,-1.116752,1.881598,0.529233,0.081605,-0.064109,-0.011890,0.123325,-0.591087,0.517893,0.195053,13.027387,-25.857502,-27.753189,-1.297731,-2.254550,-2.355546,0.094161,0.000000,0.000000,0.000000,0.000000,0.000000,0.000000
13214865.000000,2.315610,-1.149278,-1.936619,-1.486036,-1.117372,1.882088,0.529419,0.093209,-0.058554,-0.031998,0.128861,-0.601117,0.508779,0.192875,12.233930,-28.793293,-27.209671,-1.992006,-2.195040,-2.043351,0.225997,0.000000,0.000000,0.000000,0.000000,0.000000,0.000000
13214866.000000,2.315738,-1.149334,-1.936685,-1.485870,-1.117997,1.882606,0.529625,0.103773,-0.057259,-0.042176,0.144487,-0.608559,0.507518,0.194835,11.468244,-31.141926,-26.868484,-2.928285,-2.320467,-1.887711,0.153671,0.000000,0.000000,0.000000,0.000000,0.000000,0.000000
13214867.000000,2.315868,-1.149414,-1.936762,-1.485679,-1.118630,1.883129,0.529826,0.109850,-0.069938,-0.054559,0.159738,-0.618075,0.506678,0.191961,10.750165,-32.931171,-26.598709,-4.066896,-2.708651,-1.822709,0.180221,0.000000,0.000000,0.000000,0.000000,0.000000,0.000000
13214868.000000,2.316013,-1.149533,-1.936850,-1.485485,-1.119268,1.883600,0.530025,0.121572,-0.093068,-0.066557,0.174259,-0.631052,0.496042,0.191737,9.980512,-34.153095,-26.352737,-5.106325,-3.049227,-1.367692,0.173812,0.000000,0.000000,0.000000,0.000000,0.000000,0.000000
13214869.000000,2.316142,-1.149678,-1.936949,-1.485282,-1.119919,1.884074,0.530231,0.123472,-0.112167,-0.077264,0.184403,-0.633967,0.482161,0.196565,9.512372,-34.914814,-26.182144,-6.018800,-3.443820,-0.990495,0.153671,0.000000,0.000000,0.000000,0.000000,0.000000,0.000000
13214870.000000,2.316289,-1.149860,-1.937064,-1.485059,-1.120573,1.884575,0.530423,0.129765,-0.137217,-0.088296,0.195804,-0.625826,0.485716,0.192229,8.968854,-35.208393,-26.031387,-7.082033,-3.760592,-1.074723,0.213180,0.000000,0.000000,0.000000,0.000000,0.000000,0.000000
13214871.000000,2.316441,-1.150072,-1.937194,-1.484829,-1.121240,1.885112,0.530611,0.136960,-0.167279,-0.102736,0.207142,-0.635105,0.503124,0.190610,8.472943,-35.061604,-25.884598,-8.046083,-3.933627,-1.464738,0.239730,0.000000,0.000000,0.000000,0.000000,0.000000,0.000000
13214872.000000,2.316592,-1.150336,-1.937331,-1.484597,-1.121905,1.885655,0.530805,0.138950,-0.206235,-0.114339,0.215028,-0.637373,0.515332,0.194856,8.000836,-34.498249,-25.836990,-8.811769,-4.070956,-1.887711,0.246139,0.000000,0.000000,0.000000,0.000000,0.000000,0.000000
13214873.000000,2.316732,-1.150633,-1.937453,-1.484369,-1.122581,1.886172,0.531003,0.140539,-0.237730,-0.115693,0.221183,-0.642233,0.519780,0.198987,7.778669,-33.712727,-26.130569,-9.307680,-4.131381,-2.082719,0.225997,0.000000,0.000000,0.000000,0.000000,0.000000,0.000000
13214874.000000,2.316877,-1.150967,-1.937564,-1.484140,-1.123233,1.886694,0.531183,0.141515,-0.270540,-0.109645,0.223165,-0.649186,0.517517,0.193295,7.580305,-32.586018,-26.769302,-9.676638,-4.226595,-2.166947,0.318465,0.000000,0.000000,0.000000,0.000000,0.000000,0.000000
13214875.000000,2.317017,-1.151354,-1.937672,-1.483913,-1.123900,1.887184,0.531357,0.140860,-0.314990,-0.108437,0.224759,-0.649200,0.509840,0.186282,7.481122,-31.169697,-27.578629,-9.974184,-4.292513,-2.043351,0.476852,0.000000,0.000000,0.000000,0.000000,0.000000,0.000000
13214876.000000,2.317172,-1.151785,-1.937773,-1.483687,-1.124542,1.887613,0.531532,0.144741,-0.351950,-0.104734,0.224779,-0.650610,0.480322,0.179858,7.211347,-29.551044,-28.562515,-10.220156,-4.483859,-1.256913,0.562911,0.000000,0.000000,0.000000,0.000000,0.000000,0.000000
13214877.000000,2.317313,-1.152232,-1.937847,-1.483474,-1.125173,1.887988,0.531685,0.142175,-0.386530,-0.087331,0.218636,-0.637810,0.436103,0.169600,7.183576,-27.960163,-29.935196,-10.196352,-4.794222,-0.066727,0.806442,0.000000,0.000000,0.000000,0.000000,0.000000,0.000000
13214878.000000,2.317444,-1.152718,-1.937910,-1.483285,-1.125839,1.888350,0.531850,0.135226,-0.418859,-0.079631,0.204123,-0.645374,0.406728,0.168765,7.381940,-26.420856,-31.383255,-9.827394,-4.788729,0.987045,0.865951,0.000000,0.000000,0.000000,0.000000,0.000000,0.000000
13214879.000000,2.317570,-1.153212,-1.937994,-1.483105,-1.126509,1.888769,0.532003,0.133053,-0.448133,-0.077622,0.194217,-0.653122,0.403808,0.161034,7.631879,-25.071980,-32.490128,-9.406862,-4.579073,1.272689,0.984054,0.000000,0.000000,0.000000,0.000000,0.000000,0.000000
13214880.000000,2.317685,-1.153728,-1.938092,-1.482937,-1.127241,1.889202,0.532155,0.126401,-0.469288,-0.082662,0.183805,-0.676173,0.420032,0.156304,7.977033,-24.020649,-33.323257,-8.863344,-3.963839,1.117049,1.063705,0.000000,0.000000,0.000000,0.000000,0.000000,0.000000
13214881.000000,2.317784,-1.154250,-1.938178,-1.482791,-1.128012,1.889613,0.532288,0.116792,-0.487930,-0.084346,0.170264,-0.707619,0.425997,0.149684,8.544354,-23.163715,-34.231766,-8.169069,-2.954012,1.019088,1.241317,0.000000,0.000000,0.000000,0.000000,0.000000,0.000000
13214882.000000,2.317862,-1.154780,-1.938262,-1.482645,-1.128809,1.890014,0.532427,0.104682,-0.499056,-0.081938,0.158805,-0.735808,0.419708,0.144088,9.361615,-22.453571,-35.140274,-7.526369,-2.129122,1.031905,1.307235,0.000000,0.000000,0.000000,0.000000,0.000000,0.000000
13214883.000000,2.317945,-1.155324,-1.938321,-1.482497,-1.129607,1.890404,0.532578,0.098067,-0.511670,-0.076346,0.155297,-0.762315,0.411678,0.143987,10.131269,-21.937824,-36.318558,-7.181215,-1.495577,0.999862,1.255050,0.000000,0.000000,0.000000,0.000000,0.000000,0.000000
13214884.000000,2.318030,-1.155851,-1.938370,-1.482368,-1.130382,1.890801,0.532707,0.093204,-0.525697,-0.067959,0.147496,-0.768206,0.410521,0.137694,10.773969,-21.719624,-37.592056,-6.784486,-1.268527,1.058456,1.360336,0.000000,0.000000,0.000000,0.000000,0.000000,0.000000
13214885.000000,2.318101,-1.156378,-1.938416,-1.482226,-1.131135,1.891204,0.532847,0.083853,-0.522936,-0.058747,0.146820,-0.757725,0.407046,0.136646,11.539655,-21.842609,-38.869522,-6.637697,-1.549593,1.084090,1.360336,0.000000,0.000000,0.000000,0.000000,0.000000,0.000000
13214886.000000,2.318164,-1.156897,-1.938450,-1.482080,-1.131864,1.891607,0.532986,0.075708,-0.521441,-0.050034,0.147875,-0.762939,0.402282,0.141760,12.356915,-22.259174,-40.242203,-6.685304,-1.967989,1.039230,1.333785,0.000000,0.000000,0.000000,0.000000,0.000000,0.000000
