chaoyuefei/paper-gmrm-data/robot_logs/s2_dq_gmrm_xz_min_0.30_log_20260314_173130.csv
# time_ms,q_0,q_1,q_2,q_3,q_4,q_5,q_6,dq_0,dq_1,dq_2,dq_3,dq_4,dq_5,dq_6,tau_J_0,tau_J_1,tau_J_2,tau_J_3,tau_J_4,tau_J_5,tau_J_6,O_dP_EE_c_0,O_dP_EE_c_1,O_dP_EE_c_2,O_dP_EE_c_3,O_dP_EE_c_4,O_dP_EE_c_5
12152090.000000,-2.415953,-1.662600,1.042302,-1.355825,1.795751,1.080861,-0.548502,-0.000049,-0.000034,0.001224,-0.000284,-0.000479,0.000164,-0.001958,-0.044818,41.554607,-21.000870,-5.697450,0.894864,1.344100,0.074935,0.000000,0.000000,0.000000,0.000000,0.000000,0.000000
12152091.000000,-2.415953,-1.662599,1.042302,-1.355821,1.795753,1.080861,-0.548498,-0.000033,0.000534,0.000885,0.001017,0.000359,0.000109,0.000187,-0.044818,41.530804,-21.000870,-5.749025,0.876554,1.344100,0.034652,0.000000,0.000000,0.000000,0.000000,0.000000,0.000000
12152092.000000,-2.415953,-1.662602,1.042302,-1.355823,1.795754,1.080861,-0.548495,-0.000022,-0.000758,0.000641,0.000029,0.000443,-0.000165,0.001074,-0.044818,41.578411,-21.000870,-5.721254,0.871061,1.350509,0.009017,0.000000,0.000000,0.000000,0.000000,0.000000,0.000000
12152093.000000,-2.415953,-1.662599,1.042302,-1.355825,1.795755,1.080861,-0.548499,-0.000015,0.000608,0.000466,-0.000538,0.000533,-0.000110,-0.000505,-0.044818,41.530804,-21.000870,-5.697450,0.864652,1.350509,0.041976,0.000000,0.000000,0.000000,0.000000,0.000000,0.000000
12152094.000000,-2.415949,-1.662600,1.042301,-1.355825,1.795754,1.080863,-0.548495,0.009353,-0.001541,-0.000774,0.001260,0.001237,0.008100,0.002105,0.228925,41.483196,-20.953262,-5.626039,0.840848,1.383468,-0.023942,0.000000,0.000000,0.000000,0.000000,0.000000,0.000000
12152095.000000,-2.415939,-1.662606,1.042308,-1.355820,1.795753,1.080859,-0.548509,0.017209,-0.006762,0.003238,0.004358,-0.000161,0.009307,-0.006995,1.268354,41.312603,-20.977066,-5.499086,0.751127,1.552840,-0.050492,0.000000,0.000000,0.000000,0.000000,0.000000,0.000000
12152096.000000,-2.415910,-1.662609,1.042315,-1.355819,1.795753,1.080856,-0.548541,0.027991,-0.005172,0.007033,0.003469,-0.004647,0.008844,-0.015087,2.827497,40.896038,-20.905655,-5.229311,0.632108,1.773483,-0.044083,0.000000,0.000000,0.000000,0.000000,0.000000,0.000000
12152097.000000,-2.415868,-1.662609,1.042330,-1.355824,1.795737,1.080877,-0.548581,0.031595,-0.002522,0.010556,0.001503,-0.007024,0.013246,-0.023891,4.735761,40.380291,-20.854080,-4.884157,0.596403,1.877853,-0.089860,0.000000,0.000000,0.000000,0.000000,0.000000,0.000000
12152098.000000,-2.415802,-1.662612,1.042353,-1.355840,1.795708,1.080929,-0.548648,0.037799,0.001507,0.015934,-0.003354,-0.015351,0.023629,-0.039334,6.564680,39.892315,-20.782669,-4.511232,0.620206,1.793624,-0.023942,0.000000,0.000000,0.000000,0.000000,0.000000,0.000000
12152099.000000,-2.415719,-1.662605,1.042382,-1.355866,1.795671,1.081013,-0.548718,0.047389,0.003786,0.023657,-0.016383,-0.025962,0.045533,-0.051545,8.223004,39.281353,-20.731094,-4.118471,0.649503,1.565658,-0.064225,0.000000,0.000000,0.000000,0.000000,0.000000,0.000000
12152100.000000,-2.415613,-1.662605,1.042418,-1.355906,1.795624,1.081107,-0.548817,0.061607,0.001263,0.028918,-0.026587,-0.036898,0.063796,-0.065796,9.635358,38.837017,-20.659683,-3.697939,0.655912,1.389877,-0.089860,0.000000,0.000000,0.000000,0.000000,0.000000,0.000000
12152101.000000,-2.415498,-1.662603,1.042464,-1.355957,1.795554,1.081215,-0.548943,0.077978,0.001786,0.032801,-0.038559,-0.051602,0.077619,-0.088168,10.920758,38.424419,-20.584305,-3.348818,0.715421,1.324874,-0.037675,0.000000,0.000000,0.000000,0.000000,0.000000,0.000000
12152102.000000,-2.415372,-1.662597,1.042520,-1.356016,1.795478,1.081344,-0.549081,0.094513,0.002880,0.042899,-0.043315,-0.062240,0.091346,-0.102275,12.035565,37.984051,-20.560501,-3.055238,0.661405,1.305648,-0.077042,0.000000,0.000000,0.000000,0.000000,0.000000,0.000000
12152103.000000,-2.415234,-1.662592,1.042583,-1.356087,1.795380,1.081492,-0.549233,0.107490,0.005225,0.049613,-0.051514,-0.077222,0.112248,-0.114088,13.074994,37.615093,-20.485123,-2.833071,0.578092,1.389877,-0.083451,0.000000,0.000000,0.000000,0.000000,0.000000,0.000000
12152104.000000,-2.415079,-1.662581,1.042662,-1.356175,1.795262,1.081660,-0.549398,0.122604,0.006960,0.055765,-0.063554,-0.090243,0.130965,-0.127739,13.868451,37.246136,-20.461319,-2.634706,0.512174,1.526290,-0.089860,0.000000,0.000000,0.000000,0.000000,0.000000,0.000000
12152105.000000,-2.414906,-1.662565,1.042762,-1.356274,1.795130,1.081855,-0.549581,0.139449,0.008812,0.069574,-0.074931,-0.102813,0.147184,-0.144511,14.534955,36.857342,-20.560501,-2.483949,0.405057,1.617843,-0.037675,0.000000,0.000000,0.000000,0.000000,0.000000,0.000000
12152106.000000,-2.414722,-1.662548,1.042879,-1.356387,1.794973,1.082089,-0.549757,0.150192,0.012927,0.084354,-0.086018,-0.119608,0.176218,-0.154050,15.106244,36.488384,-20.731094,-2.360964,0.374845,1.624252,-0.077042,0.000000,0.000000,0.000000,0.000000,0.000000,0.000000
12152107.000000,-2.414523,-1.662531,1.043004,-1.356523,1.794786,1.082351,-0.549944,0.166379,0.015416,0.096771,-0.102112,-0.139537,0.206354,-0.167222,15.578351,36.147198,-20.830276,-2.190370,0.428861,1.546432,-0.083451,0.000000,0.000000,0.000000,0.000000,0.000000,0.000000
12152108.000000,-2.414297,-1.662508,1.043144,-1.356672,1.794586,1.082642,-0.550138,0.184259,0.018577,0.110164,-0.116246,-0.157367,0.234256,-0.173339,15.871930,35.754436,-20.977066,-2.063417,0.452665,1.442062,-0.050492,0.000000,0.000000,0.000000,0.000000,0.000000,0.000000
12152109.000000,-2.414059,-1.662489,1.043302,-1.356841,1.794353,1.082949,-0.550323,0.202308,0.019143,0.127577,-0.133391,-0.186142,0.256023,-0.176085,16.098066,35.437054,-21.199234,-1.916628,0.542386,1.422836,-0.077042,0.000000,0.000000,0.000000,0.000000,0.000000,0.000000
12152110.000000,-2.413806,-1.662469,1.043463,-1.357023,1.794097,1.083280,-0.550514,0.217181,0.018574,0.137947,-0.150703,-0.204780,0.284929,-0.175661,16.320234,35.167278,-21.294449,-1.869020,0.571683,1.454879,-0.044083,0.000000,0.000000,0.000000,0.000000,0.000000,0.000000
12152111.000000,-2.413535,-1.662453,1.043630,-1.357220,1.793832,1.083636,-0.550699,0.234160,0.016555,0.146091,-0.162113,-0.227072,0.306496,-0.177997,16.467024,34.972881,-21.270645,-1.892824,0.584501,1.494247,-0.064225,0.000000,0.000000,0.000000,0.000000,0.000000,0.000000
12152112.000000,-2.413254,-1.662446,1.043816,-1.357430,1.793545,1.084012,-0.550882,0.250324,0.011962,0.159289,-0.173631,-0.242738,0.326796,-0.179217,16.590010,34.921307,-21.270645,-1.940431,0.566190,1.552840,-0.103593,0.000000,0.000000,0.000000,0.000000,0.000000,0.000000
12152113.000000,-2.412943,-1.662434,1.044007,-1.357657,1.793256,1.084403,-0.551070,0.265654,0.009992,0.172059,-0.189083,-0.259752,0.351100,-0.177978,16.566206,34.826092,-21.246841,-1.841249,0.458158,1.630660,-0.064225,0.000000,0.000000,0.000000,0.000000,0.000000,0.000000
12152114.000000,-2.412625,-1.662429,1.044214,-1.357905,1.792944,1.084823,-0.551251,0.289516,0.007153,0.181177,-0.205360,-0.273104,0.373156,-0.178885,16.566206,34.798321,-21.223038,-1.769838,0.351041,1.714889,-0.110001,0.000000,0.000000,0.000000,0.000000,0.000000,0.000000
12152115.000000,-2.412288,-1.662432,1.044421,-1.358172,1.792606,1.085259,-0.551437,0.305896,0.002330,0.190109,-0.223263,-0.290598,0.388216,-0.181045,16.566206,34.897503,-21.123856,-1.619081,0.351041,1.735030,-0.116410,0.000000,0.000000,0.000000,0.000000,0.000000,0.000000
12152116.000000,-2.411932,-1.662427,1.044640,-1.358453,1.792269,1.085737,-0.551620,0.321444,0.002021,0.196445,-0.242274,-0.303678,0.416567,-0.179173,16.542402,34.873699,-21.000870,-1.496095,0.327238,1.676437,-0.089860,0.000000,0.000000,0.000000,0.000000,0.000000,0.000000
12152117.000000,-2.411563,-1.662424,1.044874,-1.358756,1.791896,1.086236,-0.551798,0.338854,0.001838,0.206077,-0.261743,-0.328724,0.446855,-0.176754,16.490828,34.849895,-20.953262,-1.396913,0.362943,1.617843,-0.089860,0.000000,0.000000,0.000000,0.000000,0.000000,0.000000
12152118.000000,-2.411192,-1.662424,1.045114,-1.359058,1.791505,1.086750,-0.551984,0.349174,0.001175,0.216682,-0.274826,-0.347442,0.470291,-0.179700,16.590010,34.849895,-20.905655,-1.373109,0.416959,1.546432,-0.077042,0.000000,0.000000,0.000000,0.000000,0.000000,0.000000
12152119.000000,-2.410805,-1.662429,1.045368,-1.359374,1.791109,1.087296,-0.552167,0.359649,-0.000924,0.225459,-0.286382,-0.361437,0.495425,-0.184525,16.716963,34.921307,-20.782669,-1.396913,0.464567,1.487838,-0.103593,0.000000,0.000000,0.000000,0.000000,0.000000,0.000000
12152120.000000,-2.410416,-1.662427,1.045633,-1.359702,1.790684,1.087850,-0.552346,0.365925,-0.000088,0.237139,-0.301598,-0.384573,0.517962,-0.180277,16.939131,34.897503,-20.707291,-1.448488,0.535978,1.487838,-0.116410,0.000000,0.000000,0.000000,0.000000,0.000000,0.000000
12152121.000000,-2.410009,-1.662429,1.045901,-1.360046,1.790261,1.088435,-0.552533,0.374009,-0.000636,0.248960,-0.313089,-0.394238,0.533694,-0.178440,17.137495,34.921307,-20.631912,-1.496095,0.494779,1.513473,-0.089860,0.000000,0.000000,0.000000,0.000000,0.000000,0.000000
12152122.000000,-2.409593,-1.662422,1.046190,-1.360421,1.789823,1.089036,-0.552711,0.387167,0.004326,0.258959,-0.329218,-0.410616,0.556428,-0.180218,17.335859,34.849895,-20.631912,-1.349306,0.452665,1.513473,-0.110001,0.000000,0.000000,0.000000,0.000000,0.000000,0.000000
12152123.000000,-2.409159,-1.662427,1.046478,-1.360797,1.789362,1.089651,-0.552886,0.400068,0.002017,0.268199,-0.340623,-0.426099,0.574164,-0.177239,17.530256,34.897503,-20.560501,-1.226320,0.405057,1.494247,-0.110001,0.000000,0.000000,0.000000,0.000000,0.000000,0.000000
12152124.000000,-2.408709,-1.662423,1.046775,-1.361197,1.788896,1.090294,-0.553063,0.414570,0.002086,0.277470,-0.360093,-0.435101,0.593858,-0.176625,17.780195,34.873699,-20.461319,-1.027956,0.374845,1.402694,-0.077042,0.000000,0.000000,0.000000,0.000000,0.000000,0.000000
12152125.000000,-2.408256,-1.662414,1.047094,-1.361613,1.788414,1.090946,-0.553231,0.429261,0.003849,0.287008,-0.376881,-0.451404,0.612888,-0.173147,18.026167,34.774517,-20.461319,-0.754213,0.374845,1.344100,-0.122819,0.000000,0.000000,0.000000,0.000000,0.000000,0.000000
12152126.000000,-2.407783,-1.662409,1.047407,-1.362038,1.787906,1.091614,-0.553408,0.440921,0.006370,0.296330,-0.394188,-0.464950,0.629878,-0.173284,18.347517,34.750713,-20.413712,-0.532045,0.416959,1.324874,-0.083451,0.000000,0.000000,0.000000,0.000000,0.000000,0.000000
12152127.000000,-2.407300,-1.662402,1.047738,-1.362478,1.787400,1.092310,-0.553573,0.445721,0.008765,0.304818,-0.402996,-0.478326,0.651339,-0.171986,18.347517,34.703106,-20.338333,-0.409059,0.535978,1.312057,-0.089860,0.000000,0.000000,0.000000,0.000000,0.000000,0.000000
12152128.000000,-2.406814,-1.662388,1.048066,-1.362929,1.786878,1.093021,-0.553735,0.445312,0.011838,0.316048,-0.418693,-0.490581,0.667878,-0.169390,17.756392,34.603924,-20.020950,-0.508241,0.644010,1.312057,-0.142960,0.000000,0.000000,0.000000,0.000000,0.000000,0.000000
12152129.000000,-2.406331,-1.662375,1.048435,-1.363404,1.786354,1.093750,-0.553912,0.447502,0.011415,0.335446,-0.436245,-0.501868,0.683089,-0.171669,16.467024,34.480938,-19.751175,-0.778017,0.781339,1.344100,-0.083451,0.000000,0.000000,0.000000,0.000000,0.000000,0.000000
12152130.000000,-2.405859,-1.662361,1.048826,-1.363896,1.785829,1.094503,-0.554062,0.452657,0.014406,0.353698,-0.451801,-0.511227,0.699099,-0.168058,14.709516,34.211163,-19.235428,-1.250124,0.840848,1.422836,-0.163102,0.000000,0.000000,0.000000,0.000000,0.000000,0.000000
12152131.000000,-2.405389,-1.662344,1.049240,-1.364387,1.785306,1.095261,-0.554223,0.461576,0.016541,0.375712,-0.467642,-0.509926,0.722404,-0.163113,12.729840,33.794598,-18.644302,-1.718263,0.781339,1.454879,-0.175919,0.000000,0.000000,0.000000,0.000000,0.000000,0.000000
12152132.000000,-2.404940,-1.662338,1.049684,-1.364889,1.784810,1.096044,-0.554389,0.459178,0.013649,0.393459,-0.473945,-0.504579,0.732674,-0.169694,10.948529,33.405804,-18.005569,-2.214174,0.596403,1.383468,-0.142960,0.000000,0.000000,0.000000,0.000000,0.000000,0.000000
12152133.000000,-2.404485,-1.662331,1.050147,-1.365392,1.784312,1.096822,-0.554555,0.458916,0.014033,0.427195,-0.480608,-0.499374,0.747825,-0.170708,9.191022,33.036846,-17.343033,-2.606935,0.374845,1.253463,-0.110001,0.000000,0.000000,0.000000,0.000000,0.000000,0.000000
12152134.000000,-2.404032,-1.662332,1.050643,-1.365899,1.783829,1.097609,-0.554723,0.458062,0.012423,0.447040,-0.488289,-0.502699,0.759347,-0.166028,7.679487,32.743267,-16.855057,-2.880678,0.159696,1.117049,-0.097184,0.000000,0.000000,0.000000,0.000000,0.000000,0.000000
12152135.000000,-2.403586,-1.662332,1.051135,-1.366394,1.783337,1.098403,-0.554881,0.452001,0.011778,0.454985,-0.485189,-0.503186,0.769241,-0.165875,6.366315,32.425884,-16.216324,-3.225832,0.040677,0.947677,-0.122819,0.000000,0.000000,0.000000,0.000000,0.000000,0.000000
12152136.000000,-2.403134,-1.662340,1.051633,-1.366893,1.782847,1.099178,-0.555050,0.451480,0.007952,0.465866,-0.485196,-0.496556,0.774695,-0.167632,5.227705,32.255291,-15.625198,-3.376589,-0.025240,0.811263,-0.089860,0.000000,0.000000,0.000000,0.000000,0.000000,0.000000
12152137.000000,-2.402685,-1.662350,1.052140,-1.367368,1.782362,1.099943,-0.555213,0.447474,0.005358,0.473282,-0.479253,-0.493812,0.756701,-0.166842,4.287458,32.084698,-15.038040,-3.721742,0.088285,0.843307,-0.097184,0.000000,0.000000,0.000000,0.000000,0.000000,0.000000
12152138.000000,-2.402236,-1.662358,1.052644,-1.367829,1.781862,1.100700,-0.555369,0.452931,0.000495,0.478421,-0.474712,-0.492548,0.771700,-0.161266,3.422590,31.910137,-14.522293,-4.118471,0.243009,0.934859,-0.136552,0.000000,0.000000,0.000000,0.000000,0.000000,0.000000
12152139.000000,-2.401784,-1.662366,1.053145,-1.368300,1.781388,1.101460,-0.555531,0.450269,-0.002501,0.481458,-0.475291,-0.487474,0.766465,-0.159663,2.704511,31.715740,-13.982742,-4.340639,0.291532,0.966903,-0.103593,0.000000,0.000000,0.000000,0.000000,0.000000,0.000000
12152140.000000,-2.401330,-1.662373,1.053642,-1.368774,1.780906,1.102234,-0.555685,0.455155,-0.002711,0.482014,-0.470756,-0.488945,0.764566,-0.155587,2.034040,31.568951,-13.419388,-4.364442,0.356534,0.922042,-0.149369,0.000000,0.000000,0.000000,0.000000,0.000000,0.000000
12152141.000000,-2.400867,-1.662384,1.054145,-1.369247,1.780427,1.102989,-0.555849,0.451538,-0.005921,0.484753,-0.474229,-0.486206,0.762023,-0.159932,1.415143,31.422161,-13.050430,-4.213686,0.356534,0.928451,-0.122819,0.000000,0.000000,0.000000,0.000000,0.000000,0.000000
12152142.000000,-2.400392,-1.662384,1.054656,-1.369737,1.779974,1.103744,-0.556005,0.457223,-0.002751,0.488960,-0.481082,-0.476921,0.755235,-0.161527,0.724836,31.176189,-12.657669,-3.844728,0.267728,0.908309,-0.149369,0.000000,0.000000,0.000000,0.000000,0.000000,0.000000
12152143.000000,-2.399920,-1.662386,1.055170,-1.370235,1.779509,1.104489,-0.556161,0.460409,-0.003790,0.494670,-0.484523,-0.471507,0.754126,-0.159213,0.105939,30.934185,-12.241104,-3.400392,0.189908,0.947677,-0.142960,0.000000,0.000000,0.000000,0.000000,0.000000,0.000000
12152144.000000,-2.399442,-1.662380,1.055684,-1.370712,1.779052,1.105255,-0.556325,0.460692,-0.000363,0.500229,-0.486829,-0.462195,0.760507,-0.158532,-0.465350,30.640606,-11.995132,-3.055238,0.093778,0.908309,-0.089860,0.000000,0.000000,0.000000,0.000000,0.000000,0.000000
12152145.000000,-2.398978,-1.662365,1.056215,-1.371177,1.778606,1.106020,-0.556467,0.458543,0.003781,0.503255,-0.480499,-0.462177,0.759556,-0.153322,-0.885882,30.271648,-11.796768,-2.979860,0.058073,0.876266,-0.169511,0.000000,0.000000,0.000000,0.000000,0.000000,0.000000
12152146.000000,-2.398507,-1.662350,1.056750,-1.371627,1.778146,1.106760,-0.556627,0.458484,0.006647,0.518413,-0.473466,-0.458221,0.755357,-0.154994,-1.231036,29.902691,-11.701553,-3.079042,0.058073,0.960494,-0.110001,0.000000,0.000000,0.000000,0.000000,0.000000,0.000000
12152147.000000,-2.398041,-1.662332,1.057286,-1.372076,1.777703,1.107514,-0.556779,0.457015,0.008661,0.519900,-0.464734,-0.452377,0.756991,-0.157632,-1.429400,29.537701,-11.479385,-3.202028,0.076383,1.052047,-0.149369,0.000000,0.000000,0.000000,0.000000,0.000000,0.000000
12152148.000000,-2.397578,-1.662316,1.057840,-1.372525,1.777246,1.108281,-0.556934,0.458017,0.011994,0.524570,-0.455522,-0.456642,0.756115,-0.156264,-1.603961,29.220318,-11.281021,-3.348818,0.213712,1.077682,-0.142960,0.000000,0.000000,0.000000,0.000000,0.000000,0.000000
12152149.000000,-2.397102,-1.662297,1.058395,-1.372965,1.776784,1.109030,-0.557085,0.464096,0.015724,0.536145,-0.446578,-0.457944,0.766144,-0.158381,-1.901507,28.851360,-11.134232,-3.448000,0.320829,1.077682,-0.163102,0.000000,0.000000,0.000000,0.000000,0.000000,0.000000
12152150.000000,-2.396617,-1.662282,1.058958,-1.373407,1.776347,1.109793,-0.557242,0.468772,0.012934,0.539299,-0.439565,-0.451188,0.760325,-0.157510,-2.222857,28.581585,-10.963638,-3.622560,0.344633,0.999862,-0.136552,0.000000,0.000000,0.000000,0.000000,0.000000,0.000000
12152151.000000,-2.396127,-1.662261,1.059546,-1.373845,1.775903,1.110564,-0.557401,0.477063,0.015274,0.564556,-0.447594,-0.447611,0.766149,-0.156423,-2.690997,28.264202,-10.939835,-3.598757,0.303434,0.811263,-0.116410,0.000000,0.000000,0.000000,0.000000,0.000000,0.000000
12152152.000000,-2.395638,-1.662255,1.060131,-1.374296,1.775478,1.111321,-0.557553,0.477633,0.011273,0.570889,-0.447813,-0.449663,0.764944,-0.149202,-3.087725,28.192791,-10.888260,-3.523378,0.189908,0.759078,-0.136552,0.000000,0.000000,0.000000,0.000000,0.000000,0.000000
12152153.000000,-2.395147,-1.662248,1.060725,-1.374735,1.775055,1.112076,-0.557703,0.483545,0.008287,0.576390,-0.441878,-0.436831,0.759959,-0.144854,-3.559832,28.141216,-10.793045,-3.547182,0.069974,0.798446,-0.136552,0.000000,0.000000,0.000000,0.000000,0.000000,0.000000
12152154.000000,-2.394653,-1.662240,1.061311,-1.375166,1.774626,1.112813,-0.557854,0.484021,0.006312,0.581435,-0.437355,-0.435504,0.750225,-0.146582,-3.928790,28.093609,-10.547073,-3.598757,-0.049044,0.895492,-0.122819,0.000000,0.000000,0.000000,0.000000,0.000000,0.000000
12152155.000000,-2.394158,-1.662236,1.061926,-1.375598,1.774201,1.113547,-0.558006,0.483866,0.003964,0.588543,-0.434192,-0.429421,0.735080,-0.147560,-4.202532,28.093609,-10.495499,-3.598757,-0.091158,1.052047,-0.122819,0.000000,0.000000,0.000000,0.000000,0.000000,0.000000
12152156.000000,-2.393666,-1.662233,1.062557,-1.376017,1.773781,1.114283,-0.558153,0.485473,0.005517,0.599066,-0.430449,-0.424637,0.747550,-0.142632,-4.547686,28.093609,-10.471695,-3.697939,-0.121371,1.136276,-0.149369,0.000000,0.000000,0.000000,0.000000,0.000000,0.000000
12152157.000000,-2.393153,-1.662231,1.063185,-1.376443,1.773338,1.115038,-0.558307,0.492114,0.003238,0.609325,-0.431607,-0.429235,0.755558,-0.145134,-5.019793,28.117413,-10.447891,-3.769350,-0.055453,1.123458,-0.130143,0.000000,0.000000,0.000000,0.000000,0.000000,0.000000
12152158.000000,-2.392652,-1.662232,1.063826,-1.376868,1.772901,1.115788,-0.558456,0.498780,0.001690,0.616763,-0.427880,-0.431108,0.745660,-0.145934,-5.392718,28.141216,-10.471695,-3.868532,0.093778,1.117049,-0.142960,0.000000,0.000000,0.000000,0.000000,0.000000,0.000000
12152159.000000,-2.392148,-1.662237,1.064481,-1.377291,1.772464,1.116528,-0.558605,0.496435,-0.000571,0.629582,-0.428078,-0.430127,0.745259,-0.147261,-5.737872,28.216595,-10.618484,-3.868532,0.207303,1.084090,-0.136552,0.000000,0.000000,0.000000,0.000000,0.000000,0.000000
12152160.000000,-2.391635,-1.662240,1.065144,-1.377716,1.772035,1.117273,-0.558757,0.497574,-0.001445,0.635057,-0.424528,-0.426528,0.741150,-0.143185,-6.083025,28.264202,-10.741470,-3.892336,0.237516,1.104232,-0.142960,0.000000,0.000000,0.000000,0.000000,0.000000,0.000000
12152161.000000,-2.391141,-1.662251,1.065825,-1.378139,1.771608,1.118010,-0.558907,0.495612,-0.003803,0.651019,-0.424895,-0.423131,0.739479,-0.146232,-6.281390,28.387188,-10.840652,-3.920107,0.243009,1.136276,-0.110001,0.000000,0.000000,0.000000,0.000000,0.000000,0.000000
12152164.000000,-2.389643,-1.662286,1.067885,-1.379356,1.770363,1.120255,-0.559347,0.499703,-0.008396,0.676473,-0.411059,-0.414066,0.735766,-0.148896,-6.753497,28.851360,-10.765274,-4.241457,0.027860,1.110641,-0.110001,0.000000,0.000000,0.000000,0.000000,0.000000,0.000000
12152165.000000,-2.389131,-1.662297,1.068597,-1.379766,1.769957,1.120990,-0.559490,0.497889,-0.009019,0.679075,-0.414198,-0.412466,0.732788,-0.147255,-7.023272,28.998150,-10.741470,-4.312868,-0.019747,1.182052,-0.163102,0.000000,0.000000,0.000000,0.000000,0.000000,0.000000
12152166.000000,-2.388634,-1.662310,1.069312,-1.380184,1.769536,1.121745,-0.559641,0.495790,-0.009438,0.682067,-0.410810,-0.415104,0.735021,-0.150471,-7.197833,29.144939,-10.495499,-4.213686,0.034269,1.136276,-0.103593,0.000000,0.000000,0.000000,0.000000,0.000000,0.000000
12152167.000000,-2.388123,-1.662322,1.070013,-1.380587,1.769112,1.122491,-0.559788,0.497500,-0.009162,0.687235,-0.411893,-0.418497,0.737684,-0.149541,-7.443804,29.267925,-10.178116,-4.213686,0.129484,1.071273,-0.116410,0.000000,0.000000,0.000000,0.000000,0.000000,0.000000
12152168.000000,-2.387608,-1.662329,1.070738,-1.380995,1.768697,1.123234,-0.559927,0.502727,-0.011594,0.694542,-0.408541,-0.422444,0.738386,-0.147261,-7.669940,29.367107,-9.932144,-4.241457,0.154203,0.999862,-0.163102,0.000000,0.000000,0.000000,0.000000,0.000000,0.000000
12152169.000000,-2.387106,-1.662332,1.071476,-1.381398,1.768282,1.123970,-0.560080,0.502187,-0.007990,0.718058,-0.419190,-0.413811,0.737098,-0.145250,-7.840533,29.367107,-9.761551,-4.289064,0.112089,1.012679,-0.116410,0.000000,0.000000,0.000000,0.000000,0.000000,0.000000
12152170.000000,-2.386599,-1.662337,1.072207,-1.381794,1.767871,1.124719,-0.560221,0.499868,-0.006079,0.725782,-0.409334,-0.409483,0.738083,-0.140266,-7.939715,29.390911,-9.515579,-4.412050,0.117582,0.974227,-0.155778,0.000000,0.000000,0.000000,0.000000,0.000000,0.000000
12152171.000000,-2.386103,-1.662341,1.072950,-1.382196,1.767457,1.125473,-0.560361,0.497164,-0.007931,0.728451,-0.409057,-0.410061,0.737994,-0.137973,-8.015094,29.414715,-9.198196,-4.487428,0.100187,0.960494,-0.163102,0.000000,0.000000,0.000000,0.000000,0.000000,0.000000
12152172.000000,-2.385598,-1.662336,1.073700,-1.382588,1.767042,1.126206,-0.560510,0.497405,-0.005959,0.739005,-0.403599,-0.404331,0.739241,-0.138275,-8.114276,29.291729,-9.047440,-4.535036,0.058073,1.052047,-0.110001,0.000000,0.000000,0.000000,0.000000,0.000000,0.000000
12152173.000000,-2.385095,-1.662328,1.074475,-1.382984,1.766648,1.126951,-0.560647,0.497468,-0.004694,0.746783,-0.403953,-0.400048,0.734543,-0.134565,-8.213458,29.168743,-8.952225,-4.634218,-0.007845,1.123458,-0.163102,0.000000,0.000000,0.000000,0.000000,0.000000,0.000000
12152174.000000,-2.384600,-1.662322,1.075266,-1.383369,1.766246,1.127730,-0.560793,0.495439,-0.000916,0.762165,-0.394795,-0.402472,0.759793,-0.135621,-8.360248,29.045757,-8.952225,-4.784975,-0.043551,0.974227,-0.116410,0.000000,0.000000,0.000000,0.000000,0.000000,0.000000
12152175.000000,-2.384109,-1.662311,1.076055,-1.383752,1.765835,1.128493,-0.560933,0.491591,0.003439,0.771285,-0.391623,-0.402056,0.765355,-0.139208,-8.312640,28.851360,-8.876846,-4.884157,-0.031649,0.792037,-0.110001,0.000000,0.000000,0.000000,0.000000,0.000000,0.000000
12152176.000000,-2.383631,-1.662299,1.076872,-1.384137,1.765439,1.129256,-0.561072,0.484589,0.006467,0.786802,-0.386479,-0.400245,0.763416,-0.141933,-8.288836,28.656963,-8.976028,-4.955568,-0.055453,0.752670,-0.116410,0.000000,0.000000,0.000000,0.000000,0.000000,0.000000
12152177.000000,-2.383141,-1.662285,1.077695,-1.384514,1.765046,1.129996,-0.561208,0.489498,0.008022,0.798249,-0.388774,-0.398358,0.756685,-0.137299,-8.288836,28.486370,-9.122818,-5.054750,-0.072848,0.857040,-0.169511,0.000000,0.000000,0.000000,0.000000,0.000000,0.000000
12152178.000000,-2.382645,-1.662278,1.078529,-1.384896,1.764645,1.130733,-0.561350,0.492504,0.009127,0.805951,-0.384881,-0.400314,0.745757,-0.136795,-8.261065,28.581585,-9.392593,-5.130128,-0.013339,0.999862,-0.149369,0.000000,0.000000,0.000000,0.000000,0.000000,0.000000
12152179.000000,-2.382172,-1.662272,1.079352,-1.385271,1.764255,1.131495,-0.561492,0.486649,0.007765,0.804712,-0.383315,-0.399358,0.751633,-0.137373,-8.015094,28.926739,-9.785355,-5.276918,-0.007845,1.052047,-0.103593,0.000000,0.000000,0.000000,0.000000,0.000000,0.000000
12152180.000000,-2.381694,-1.662266,1.080154,-1.385642,1.763879,1.132254,-0.561623,0.484181,0.005445,0.799877,-0.379756,-0.391687,0.757556,-0.133363,-7.618365,29.490093,-10.547073,-5.399904,-0.072848,1.045638,-0.163102,0.000000,0.000000,0.000000,0.000000,0.000000,0.000000
12152181.000000,-2.381218,-1.662257,1.080954,-1.386024,1.763500,1.133014,-0.561768,0.494044,0.003580,0.795307,-0.379308,-0.388359,0.754698,-0.135333,-7.098650,30.247845,-11.404007,-5.376100,-0.079257,1.077682,-0.103593,0.000000,0.000000,0.000000,0.000000,0.000000,0.000000
12152182.000000,-2.380724,-1.662247,1.081740,-1.386407,1.763118,1.133774,-0.561909,0.489997,0.006583,0.792704,-0.380507,-0.388410,0.757004,-0.137694,-6.701922,31.128582,-12.411697,-5.328493,0.004056,1.162826,-0.142960,0.000000,0.000000,0.000000,0.000000,0.000000,0.000000
12152183.000000,-2.380236,-1.662226,1.082522,-1.386806,1.762740,1.134535,-0.562057,0.487101,0.008585,0.789533,-0.383577,-0.386217,0.758059,-0.141920,-6.233782,31.910137,-13.268631,-5.030946,0.129484,1.279098,-0.116410,0.000000,0.000000,0.000000,0.000000,0.000000,0.000000
12152184.000000,-2.379749,-1.662204,1.083306,-1.387200,1.762353,1.135301,-0.562197,0.485311,0.012462,0.784266,-0.384947,-0.390383,0.759324,-0.143725,-5.860857,32.620281,-14.153336,-4.884157,0.189908,1.370651,-0.122819,0.000000,0.000000,0.000000,0.000000,0.000000,0.000000
12152185.000000,-2.379257,-1.662179,1.084084,-1.387598,1.761962,1.136044,-0.562338,0.480430,0.014525,0.787392,-0.386698,-0.389989,0.755585,-0.143627,-5.487933,33.235210,-14.938858,-4.562807,0.267728,1.467696,-0.163102,0.000000,0.000000,0.000000,0.000000,0.000000,0.000000
12152186.000000,-2.378775,-1.662148,1.084872,-1.387996,1.761586,1.136807,-0.562482,0.481685,0.019630,0.785092,-0.388500,-0.381896,0.749739,-0.145419,-5.194354,33.699383,-15.577591,-4.439821,0.261320,1.494247,-0.142960,0.000000,0.000000,0.000000,0.000000,0.000000,0.000000
12152187.000000,-2.378293,-1.662121,1.085677,-1.388384,1.761188,1.137566,-0.562625,0.480934,0.023049,0.805851,-0.394295,-0.387192,0.752811,-0.142023,-4.821429,34.163555,-16.263931,-4.340639,0.327238,1.474105,-0.142960,0.000000,0.000000,0.000000,0.000000,0.000000,0.000000
12152188.000000,-2.377811,-1.662094,1.086480,-1.388777,1.760798,1.138311,-0.562760,0.476435,0.023085,0.809320,-0.396193,-0.385794,0.749854,-0.137738,-4.476275,34.580120,-16.878860,-4.312868,0.362943,1.584884,-0.188737,0.000000,0.000000,0.000000,0.000000,0.000000,0.000000
12152189.000000,-2.377326,-1.662071,1.087293,-1.389170,1.760408,1.139058,-0.562904,0.485414,0.023501,0.811990,-0.389616,-0.383708,0.741519,-0.142586,-4.277911,34.972881,-17.418411,-4.340639,0.356534,1.735030,-0.149369,0.000000,0.000000,0.000000,0.000000,0.000000,0.000000
12152190.000000,-2.376853,-1.662053,1.088114,-1.389563,1.760005,1.139798,-0.563039,0.482559,0.020088,0.814156,-0.392940,-0.388908,0.739059,-0.138428,-4.027972,35.385479,-18.005569,-4.340639,0.428861,1.800033,-0.182328,0.000000,0.000000,0.000000,0.000000,0.000000,0.000000
12152191.000000,-2.376370,-1.662041,1.088951,-1.389947,1.759623,1.140552,-0.563187,0.483529,0.013511,0.820973,-0.387091,-0.384298,0.741200,-0.138606,-3.904986,35.829815,-18.596695,-4.535036,0.374845,1.708480,-0.136552,0.000000,0.000000,0.000000,0.000000,0.000000,0.000000
12152192.000000,-2.375903,-1.662034,1.089805,-1.390324,1.759237,1.141305,-0.563317,0.476625,0.008676,0.829764,-0.387014,-0.381342,0.760481,-0.135851,-3.730425,36.270184,-19.160049,-4.733400,0.327238,1.565658,-0.163102,0.000000,0.000000,0.000000,0.000000,0.000000,0.000000
12152193.000000,-2.375436,-1.662038,1.090645,-1.390694,1.758847,1.142054,-0.563455,0.472393,0.003425,0.832249,-0.380228,-0.388900,0.759363,-0.134609,-3.536028,36.781963,-19.675797,-5.078554,0.308927,1.552840,-0.163102,0.000000,0.000000,0.000000,0.000000,0.000000,0.000000
12152194.000000,-2.374970,-1.662058,1.091499,-1.391071,1.758455,1.142784,-0.563594,0.471747,-0.003198,0.832328,-0.377616,-0.387096,0.745575,-0.135049,-3.385272,37.420696,-20.068558,-5.304689,0.327238,1.624252,-0.130143,0.000000,0.000000,0.000000,0.000000,0.000000,0.000000
12152195.000000,-2.374495,-1.662085,1.092330,-1.391433,1.758067,1.143498,-0.563724,0.473248,-0.011690,0.833183,-0.372291,-0.386498,0.737149,-0.137594,-3.309893,38.079266,-20.266922,-5.574464,0.381254,1.786300,-0.163102,0.000000,0.000000,0.000000,0.000000,0.000000,0.000000
12152196.000000,-2.374020,-1.662117,1.093171,-1.391795,1.757683,1.144221,-0.563860,0.472299,-0.017221,0.830023,-0.369752,-0.387069,0.732917,-0.136671,-3.309893,38.717999,-20.389908,-5.796632,0.446256,1.897079,-0.149369,0.000000,0.000000,0.000000,0.000000,0.000000,0.000000
12152197.000000,-2.373545,-1.662153,1.094020,-1.392157,1.757290,1.144962,-0.563986,0.473473,-0.023744,0.831188,-0.368294,-0.385585,0.734413,-0.130045,-3.385272,39.328960,-20.560501,-5.994997,0.464567,1.897079,-0.169511,0.000000,0.000000,0.000000,0.000000,0.000000,0.000000
12152198.000000,-2.373063,-1.662180,1.094849,-1.392505,1.756899,1.145694,-0.564115,0.471186,-0.024052,0.829113,-0.363355,-0.384756,0.738428,-0.129279,-3.536028,39.745525,-20.560501,-6.240968,0.482877,1.819259,-0.196061,0.000000,0.000000,0.000000,0.000000,0.000000,0.000000
12152199.000000,-2.372589,-1.662220,1.095688,-1.392862,1.756522,1.146439,-0.564252,0.480553,-0.026865,0.829871,-0.359985,-0.383585,0.738580,-0.132329,-3.706622,40.257305,-20.584305,-6.415529,0.494779,1.767074,-0.136552,0.000000,0.000000,0.000000,0.000000,0.000000,0.000000
12152200.000000,-2.372102,-1.662263,1.096505,-1.393210,1.756140,1.147169,-0.564383,0.481656,-0.032842,0.840443,-0.354520,-0.379363,0.737786,-0.130390,-3.980364,40.796856,-20.461319,-6.490907,0.446256,1.786300,-0.182328,0.000000,0.000000,0.000000,0.000000,0.000000,0.000000
12152201.000000,-2.371621,-1.662297,1.097342,-1.393555,1.755764,1.147897,-0.564518,0.479379,-0.033850,0.842529,-0.352718,-0.379897,0.731312,-0.136777,-4.103350,41.189617,-20.413712,-6.713075,0.452665,1.838485,-0.149369,0.000000,0.000000,0.000000,0.000000,0.000000,0.000000
12152202.000000,-2.371142,-1.662331,1.098189,-1.393907,1.755399,1.148644,-0.564648,0.479412,-0.033808,0.842694,-0.351231,-0.369237,0.733594,-0.139938,-4.277911,41.530804,-20.437515,-6.812257,0.428861,1.825668,-0.155778,0.000000,0.000000,0.000000,0.000000,0.000000,0.000000
12152203.000000,-2.370659,-1.662362,1.099007,-1.394238,1.755032,1.149383,-0.564778,0.477864,-0.029107,0.841800,-0.347541,-0.364358,0.741986,-0.131857,-4.500079,41.800579,-20.290726,-7.133607,0.351041,1.754256,-0.182328,0.000000,0.000000,0.000000,0.000000,0.000000,0.000000
12152204.000000,-2.370174,-1.662386,1.099850,-1.394572,1.754664,1.150129,-0.564916,0.477684,-0.027303,0.837223,-0.342127,-0.363319,0.739928,-0.138285,-4.674639,41.994976,-20.314529,-7.427186,0.356534,1.605026,-0.116410,0.000000,0.000000,0.000000,0.000000,0.000000,0.000000
12152205.000000,-2.369692,-1.662414,1.100701,-1.394899,1.754305,1.150861,-0.565033,0.479307,-0.026863,0.858955,-0.338042,-0.356051,0.754415,-0.133322,-4.920611,42.217144,-20.461319,-7.649354,0.297025,1.578475,-0.202470,0.000000,0.000000,0.000000,0.000000,0.000000,0.000000
12152206.000000,-2.369213,-1.662437,1.101528,-1.395223,1.753952,1.151592,-0.565162,0.475923,-0.028173,0.848786,-0.330314,-0.352633,0.747182,-0.129499,-5.142779,42.363934,-20.485123,-7.923097,0.273221,1.649886,-0.169511,0.000000,0.000000,0.000000,0.000000,0.000000,0.000000
12152207.000000,-2.368735,-1.662463,1.102369,-1.395550,1.753581,1.152323,-0.565292,0.481066,-0.027376,0.847161,-0.325805,-0.357431,0.740129,-0.127432,-5.293536,42.558331,-20.560501,-8.121462,0.332731,1.773483,-0.116410,0.000000,0.000000,0.000000,0.000000,0.000000,0.000000
12152208.000000,-2.368257,-1.662485,1.103196,-1.395869,1.753216,1.153044,-0.565409,0.484251,-0.028447,0.840639,-0.326329,-0.358068,0.743924,-0.125519,-5.515704,42.681316,-20.608109,-8.319826,0.339139,1.800033,-0.188737,0.000000,0.000000,0.000000,0.000000,0.000000,0.000000
12152209.000000,-2.367777,-1.662507,1.104044,-1.396187,1.752870,1.153779,-0.565537,0.485326,-0.028198,0.843859,-0.321056,-0.342273,0.735646,-0.128467,-5.662493,42.756695,-20.782669,-8.466616,0.344633,1.812850,-0.155778,0.000000,0.000000,0.000000,0.000000,0.000000,0.000000
12152210.000000,-2.367298,-1.662523,1.104896,-1.396491,1.752513,1.154502,-0.565659,0.485494,-0.023430,0.844038,-0.317090,-0.346830,0.731156,-0.128307,-5.912432,42.756695,-20.953262,-8.764162,0.339139,1.838485,-0.182328,0.000000,0.000000,0.000000,0.000000,0.000000,0.000000
12152211.000000,-2.366812,-1.662547,1.105727,-1.396796,1.752162,1.155232,-0.565784,0.487702,-0.021240,0.844946,-0.312575,-0.344981,0.725886,-0.130135,-6.158404,42.804302,-21.024673,-8.986330,0.297025,1.786300,-0.149369,0.000000,0.000000,0.000000,0.000000,0.000000,0.000000
12152212.000000,-2.366339,-1.662568,1.106570,-1.397102,1.751816,1.155967,-0.565908,0.486358,-0.019284,0.836669,-0.306472,-0.344968,0.725993,-0.125698,-6.257586,42.828106,-21.223038,-9.160891,0.303434,1.825668,-0.149369,0.000000,0.000000,0.000000,0.000000,0.000000,0.000000
12152213.000000,-2.365870,-1.662591,1.107403,-1.397403,1.751471,1.156680,-0.566028,0.478595,-0.021665,0.837075,-0.307566,-0.346557,0.724395,-0.121054,-6.332964,42.875713,-21.346024,-9.383059,0.243009,1.942855,-0.188737,0.000000,0.000000,0.000000,0.000000,0.000000,0.000000
12152214.000000,-2.365404,-1.662610,1.108243,-1.397706,1.751130,1.157399,-0.566160,0.473566,-0.022197,0.832706,-0.303556,-0.338294,0.715308,-0.121768,-6.281390,42.875713,-21.417435,-9.553652,0.183500,2.020675,-0.116410,0.000000,0.000000,0.000000,0.000000,0.000000,0.000000
12152215.000000,-2.364949,-1.662634,1.109088,-1.397996,1.750785,1.158137,-0.566277,0.469246,-0.024519,0.832868,-0.297464,-0.340276,0.718964,-0.117997,-6.182208,42.951092,-21.516617,-9.851198,0.178007,1.962081,-0.155778,0.000000,0.000000,0.000000,0.000000,0.000000,0.000000
12152216.000000,-2.364498,-1.662652,1.109918,-1.398283,1.750460,1.158868,-0.566396,0.458717,-0.023865,0.829860,-0.295267,-0.337756,0.717759,-0.115973,-5.960040,42.927288,-21.591995,-10.196352,0.081876,1.871444,-0.169511,0.000000,0.000000,0.000000,0.000000,0.000000,0.000000
12152217.000000,-2.364058,-1.662671,1.110761,-1.398576,1.750130,1.159601,-0.566520,0.463249,-0.020923,0.828720,-0.291362,-0.341210,0.716653,-0.125049,-5.761675,42.927288,-21.663406,-10.470095,-0.001437,1.858627,-0.136552,0.000000,0.000000,0.000000,0.000000,0.000000,0.000000
12152218.000000,-2.363617,-1.662689,1.111579,-1.398865,1.749792,1.160315,-0.566642,0.458884,-0.021372,0.836897,-0.290532,-0.341200,0.719836,-0.126196,-5.515704,42.903484,-21.568192,-10.692263,-0.019747,1.916305,-0.149369,0.000000,0.000000,0.000000,0.000000,0.000000,0.000000
12152219.000000,-2.363186,-1.662704,1.112422,-1.399158,1.749458,1.161045,-0.566766,0.449278,-0.020974,0.833058,-0.288320,-0.346241,0.724916,-0.127805,-5.142779,42.851910,-21.615799,-10.839052,0.015958,1.903487,-0.142960,0.000000,0.000000,0.000000,0.000000,0.000000,0.000000
12152220.000000,-2.362751,-1.662723,1.113269,-1.399452,1.749125,1.161790,-0.566888,0.447615,-0.019425,0.830310,-0.288480,-0.344382,0.725649,-0.123069,-4.920611,42.875713,-21.714981,-10.890627,0.004056,1.844894,-0.169511,0.000000,0.000000,0.000000,0.000000,0.000000,0.000000
12152221.000000,-2.362325,-1.662733,1.114101,-1.399749,1.748784,1.162512,-0.567020,0.439502,-0.018022,0.831103,-0.292580,-0.343500,0.726372,-0.122913,-4.722247,42.756695,-21.786392,-10.890627,-0.025240,1.767074,-0.103593,0.000000,0.000000,0.000000,0.000000,0.000000,0.000000
12152222.000000,-2.361912,-1.662750,1.114950,-1.400053,1.748454,1.163253,-0.567136,0.428847,-0.016279,0.831521,-0.294529,-0.338663,0.724490,-0.118767,-4.325518,42.728924,-22.032364,-10.791445,-0.013339,1.721298,-0.149369,0.000000,0.000000,0.000000,0.000000,0.000000,0.000000
12152223.000000,-2.361494,-1.662771,1.115811,-1.400356,1.748128,1.163976,-0.567259,0.422087,-0.016802,0.836341,-0.300804,-0.335365,0.741393,-0.120841,-4.079546,42.780499,-22.302139,-10.616884,-0.025240,1.735030,-0.182328,0.000000,0.000000,0.000000,0.000000,0.000000,0.000000
12152224.000000,-2.361085,-1.662787,1.116651,-1.400676,1.747799,1.164699,-0.567390,0.413283,-0.015678,0.832316,-0.305939,-0.338743,0.731807,-0.117044,-3.758196,42.780499,-22.524307,-10.394716,-0.001437,1.832076,-0.103593,0.000000,0.000000,0.000000,0.000000,0.000000,0.000000
12152225.000000,-2.360681,-1.662812,1.117499,-1.400994,1.747458,1.165413,-0.567505,0.408741,-0.017889,0.833856,-0.310801,-0.334989,0.730328,-0.113971,-3.484454,42.903484,-22.742508,-10.220156,0.015958,2.039901,-0.155778,0.000000,0.000000,0.000000,0.000000,0.000000,0.000000
12152226.000000,-2.360271,-1.662834,1.118338,-1.401313,1.747119,1.166130,-0.567626,0.406136,-0.018592,0.836420,-0.313913,-0.334724,0.725594,-0.114162,-3.238482,42.998699,-23.063858,-9.974184,0.069974,2.112228,-0.142960,0.000000,0.000000,0.000000,0.000000,0.000000,0.000000
12152227.000000,-2.359868,-1.662861,1.119195,-1.401644,1.746791,1.166869,-0.567745,0.401764,-0.020096,0.840527,-0.318539,-0.333283,0.724132,-0.114700,-2.917132,43.145489,-23.381241,-9.728212,0.123990,2.085677,-0.122819,0.000000,0.000000,0.000000,0.000000,0.000000,0.000000
12152228.000000,-2.359470,-1.662891,1.120046,-1.401981,1.746448,1.167606,-0.567861,0.399590,-0.024988,0.840266,-0.322248,-0.336384,0.726301,-0.117692,-2.742571,43.320049,-23.579605,-9.482241,0.166105,2.007858,-0.155778,0.000000,0.000000,0.000000,0.000000,0.000000,0.000000
12152229.000000,-2.359074,-1.662925,1.120892,-1.402326,1.746098,1.168334,-0.567986,0.397859,-0.029346,0.847306,-0.332404,-0.337307,0.726156,-0.117246,-2.468829,43.538250,-23.774002,-9.184694,0.261320,1.955673,-0.130143,0.000000,0.000000,0.000000,0.000000,0.000000,0.000000
12152230.000000,-2.358691,-1.662953,1.121742,-1.402678,1.745756,1.169053,-0.568097,0.399593,-0.027066,0.843569,-0.336221,-0.336635,0.720059,-0.118662,-2.123675,43.661236,-23.948563,-8.887148,0.369352,2.027084,-0.188737,0.000000,0.000000,0.000000,0.000000,0.000000,0.000000
12152231.000000,-2.358303,-1.662991,1.122577,-1.403031,1.745425,1.169751,-0.568218,0.394883,-0.031449,0.839570,-0.342480,-0.333437,0.708691,-0.117903,-1.802325,43.907207,-23.972366,-8.589602,0.374845,2.066451,-0.175919,0.000000,0.000000,0.000000,0.000000,0.000000,0.000000
12152232.000000,-2.357927,-1.663027,1.123413,-1.403397,1.745097,1.170475,-0.568343,0.385998,-0.032732,0.835130,-0.350406,-0.333969,0.712935,-0.118623,-1.381793,44.077801,-23.948563,-8.292055,0.320829,2.027084,-0.122819,0.000000,0.000000,0.000000,0.000000,0.000000,0.000000
12152233.000000,-2.357559,-1.663061,1.124266,-1.403753,1.744757,1.171203,-0.568450,0.381784,-0.030137,0.838278,-0.348925,-0.336007,0.717761,-0.114888,-0.933489,44.224590,-24.043777,-8.169069,0.339139,1.923629,-0.182328,0.000000,0.000000,0.000000,0.000000,0.000000,0.000000
12152234.000000,-2.357186,-1.663088,1.125101,-1.404117,1.744427,1.171919,-0.568571,0.379787,-0.029522,0.837382,-0.353244,-0.327202,0.714197,-0.115426,-0.564532,44.296001,-24.095352,-7.970705,0.279630,1.884261,-0.149369,0.000000,0.000000,0.000000,0.000000,0.000000,0.000000
12152235.000000,-2.356812,-1.663117,1.125940,-1.404491,1.744095,1.172631,-0.568682,0.376759,-0.028256,0.833490,-0.354122,-0.331565,0.715500,-0.113376,-0.342364,44.323772,-23.996170,-7.700929,0.303434,1.955673,-0.169511,0.000000,0.000000,0.000000,0.000000,0.000000,0.000000
12152236.000000,-2.356433,-1.663139,1.126770,-1.404867,1.743751,1.173341,-0.568800,0.372776,-0.029375,0.846485,-0.362425,-0.332128,0.710474,-0.114685,-0.191607,44.296001,-23.996170,-7.403383,0.362943,1.981307,-0.130143,0.000000,0.000000,0.000000,0.000000,0.000000,0.000000
12152237.000000,-2.356064,-1.663164,1.127614,-1.405248,1.743415,1.174073,-0.568908,0.367743,-0.027860,0.844031,-0.364296,-0.327250,0.712285,-0.111816,0.030561,44.296001,-24.071548,-7.157411,0.452665,1.871444,-0.196061,0.000000,0.000000,0.000000,0.000000,0.000000,0.000000
12152238.000000,-2.355690,-1.663187,1.128456,-1.405630,1.743086,1.174794,-0.569023,0.368770,-0.026461,0.836974,-0.371054,-0.327199,0.710076,-0.113185,0.153547,44.272198,-24.095352,-6.935243,0.506681,1.825668,-0.169511,0.000000,0.000000,0.000000,0.000000,0.000000,0.000000
12152239.000000,-2.355307,-1.663202,1.129289,-1.406023,1.742755,1.175504,-0.569141,0.371649,-0.023092,0.833176,-0.379244,-0.325169,0.713901,-0.109899,0.177350,44.149212,-24.142960,-6.590089,0.476469,1.903487,-0.130143,0.000000,0.000000,0.000000,0.000000,0.000000,0.000000
12152240.000000,-2.354933,-1.663223,1.130138,-1.406406,1.742421,1.176234,-0.569248,0.369339,-0.023174,0.835410,-0.380159,-0.324643,0.719385,-0.112807,0.328107,44.125408,-24.341324,-6.439332,0.494779,1.884261,-0.196061,0.000000,0.000000,0.000000,0.000000,0.000000,0.000000
12152241.000000,-2.354558,-1.663239,1.130981,-1.406799,1.742086,1.176950,-0.569365,0.371649,-0.017833,0.831771,-0.384589,-0.325083,0.729164,-0.113692,0.351911,44.002422,-24.412735,-6.193361,0.530485,1.884261,-0.175919,0.000000,0.000000,0.000000,0.000000,0.000000,0.000000
12152242.000000,-2.354183,-1.663255,1.131811,-1.407193,1.741762,1.177667,-0.569481,0.370748,-0.018348,0.832449,-0.386288,-0.323233,0.727851,-0.114416,0.451093,43.931011,-24.511917,-5.994997,0.464567,1.981307,-0.142960,0.000000,0.000000,0.000000,0.000000,0.000000,0.000000
12152243.000000,-2.353808,-1.663268,1.132656,-1.407596,1.741431,1.178380,-0.569592,0.375123,-0.018016,0.830244,-0.386492,-0.321726,0.721843,-0.112989,0.502668,43.831829,-24.682510,-5.796632,0.440763,2.092086,-0.169511,0.000000,0.000000,0.000000,0.000000,0.000000,0.000000
12152244.000000,-2.353428,-1.663284,1.133490,-1.407985,1.741090,1.179096,-0.569707,0.373485,-0.016119,0.831315,-0.383987,-0.321235,0.716995,-0.113114,0.526471,43.784222,-24.880875,-5.626039,0.518583,2.079269,-0.163102,0.000000,0.000000,0.000000,0.000000,0.000000,0.000000
12152245.000000,-2.353048,-1.663294,1.134323,-1.408382,1.740771,1.179825,-0.569818,0.375923,-0.013315,0.828269,-0.384231,-0.316909,0.719311,-0.107981,0.502668,43.685040,-24.928482,-5.499086,0.530485,2.001449,-0.175919,0.000000,0.000000,0.000000,0.000000,0.000000,0.000000
12152246.000000,-2.352671,-1.663299,1.135151,-1.408786,1.740443,1.180556,-0.569931,0.377842,-0.009507,0.825255,-0.384692,-0.319353,0.719492,-0.105220,0.451093,43.514446,-24.829300,-5.229311,0.566190,1.988631,-0.155778,0.000000,0.000000,0.000000,0.000000,0.000000,0.000000
12152247.000000,-2.352299,-1.663311,1.135979,-1.409171,1.740103,1.181272,-0.570041,0.372999,-0.013093,0.822956,-0.385442,-0.319805,0.724518,-0.106883,0.502668,43.466839,-24.952286,-5.205507,0.644010,1.962081,-0.155778,0.000000,0.000000,0.000000,0.000000,0.000000,0.000000
12152248.000000,-2.351927,-1.663323,1.136803,-1.409560,1.739777,1.181992,-0.570137,0.377223,-0.012862,0.817945,-0.383734,-0.325116,0.717950,-0.106688,0.550275,43.439068,-24.904678,-5.130128,0.661405,1.930038,-0.202470,0.000000,0.000000,0.000000,0.000000,0.000000,0.000000
12152249.000000,-2.351549,-1.663326,1.137606,-1.409946,1.739451,1.182704,-0.570251,0.375133,-0.012954,0.812876,-0.390790,-0.321795,0.716590,-0.110729,0.526471,43.292278,-24.706314,-5.007143,0.691617,1.962081,-0.136552,0.000000,0.000000,0.000000,0.000000,0.000000,0.000000
12152250.000000,-2.351171,-1.663332,1.138421,-1.410333,1.739140,1.183422,-0.570359,0.376202,-0.011063,0.807760,-0.388510,-0.326086,0.715196,-0.110722,0.502668,43.197063,-24.583328,-4.931764,0.655912,2.014266,-0.149369,0.000000,0.000000,0.000000,0.000000,0.000000,0.000000
12152251.000000,-2.350801,-1.663338,1.139245,-1.410726,1.738818,1.184150,-0.570459,0.375004,-0.010265,0.805477,-0.391347,-0.320037,0.714948,-0.109075,0.574079,43.121685,-24.511917,-4.784975,0.649503,2.039901,-0.208878,0.000000,0.000000,0.000000,0.000000,0.000000,0.000000
12152252.000000,-2.350415,-1.663339,1.140061,-1.411106,1.738501,1.184867,-0.570570,0.376588,-0.008507,0.810590,-0.385989,-0.316888,0.721029,-0.111617,0.502668,42.998699,-24.583328,-4.709596,0.637601,2.027084,-0.163102,0.000000,0.000000,0.000000,0.000000,0.000000,0.000000
12152253.000000,-2.350029,-1.663340,1.140870,-1.411491,1.738206,1.185601,-0.570673,0.377712,-0.004087,0.804445,-0.385285,-0.311568,0.720100,-0.110667,0.351911,42.875713,-24.464310,-4.586610,0.584501,2.001449,-0.182328,0.000000,0.000000,0.000000,0.000000,0.000000,0.000000
12152254.000000,-2.349658,-1.663339,1.141680,-1.411879,1.737903,1.186333,-0.570783,0.376466,-0.000260,0.821479,-0.391643,-0.310533,0.722002,-0.107973,0.375715,42.728924,-24.583328,-4.388246,0.566190,1.923629,-0.142960,0.000000,0.000000,0.000000,0.000000,0.000000,0.000000
12152256.000000,-2.348905,-1.663338,1.143328,-1.412657,1.737285,1.187785,-0.570988,0.377544,-0.000944,0.817070,-0.388591,-0.307877,0.714805,-0.108769,0.328107,42.435345,-24.928482,-4.166078,0.655912,2.060043,-0.196061,0.000000,0.000000,0.000000,0.000000,0.000000,0.000000
12152257.000000,-2.348529,-1.663339,1.144129,-1.413035,1.736988,1.188500,-0.571099,0.376090,0.000729,0.810645,-0.383805,-0.303751,0.719036,-0.111296,0.375715,42.340130,-24.952286,-4.090700,0.655912,2.104903,-0.149369,0.000000,0.000000,0.000000,0.000000,0.000000,0.000000
12152258.000000,-2.348162,-1.663342,1.144946,-1.413419,1.736691,1.189223,-0.571198,0.370431,-0.002012,0.809100,-0.378882,-0.305474,0.714336,-0.104929,0.451093,42.288555,-25.150650,-4.043092,0.715421,2.072860,-0.202470,0.000000,0.000000,0.000000,0.000000,0.000000,0.000000
12152259.000000,-2.347802,-1.663351,1.145759,-1.413809,1.736390,1.189927,-0.571298,0.365794,-0.005376,0.804670,-0.382056,-0.302815,0.717097,-0.102571,0.601850,42.288555,-25.174454,-3.868532,0.673307,2.150680,-0.196061,0.000000,0.000000,0.000000,0.000000,0.000000,0.000000
12152260.000000,-2.347431,-1.663358,1.146550,-1.414189,1.736086,1.190632,-0.571405,0.364261,-0.007446,0.799821,-0.385714,-0.301168,0.704744,-0.106169,0.649457,42.288555,-25.126846,-3.769350,0.691617,2.235824,-0.163102,0.000000,0.000000,0.000000,0.000000,0.000000,0.000000
12152261.000000,-2.347077,-1.663361,1.147347,-1.414568,1.735797,1.191342,-0.571508,0.359544,-0.007825,0.789924,-0.377411,-0.300982,0.700730,-0.107013,0.871625,42.240948,-25.003860,-3.697939,0.679716,2.300826,-0.182328,0.000000,0.000000,0.000000,0.000000,0.000000,0.000000
12152262.000000,-2.346719,-1.663359,1.148133,-1.414946,1.735509,1.192048,-0.571608,0.354893,-0.003256,0.788412,-0.383150,-0.297043,0.704318,-0.106703,1.022382,42.117962,-24.904678,-3.570986,0.649503,2.209274,-0.229020,0.000000,0.000000,0.000000,0.000000,0.000000,0.000000
12152263.000000,-2.346367,-1.663365,1.148926,-1.415324,1.735215,1.192768,-0.571718,0.352945,-0.005894,0.786020,-0.379319,-0.298138,0.704205,-0.109839,1.268354,42.117962,-24.757889,-3.499574,0.644010,2.157089,-0.188737,0.000000,0.000000,0.000000,0.000000,0.000000,0.000000
12152264.000000,-2.346019,-1.663368,1.149713,-1.415699,1.734916,1.193491,-0.571825,0.349518,-0.004141,0.782629,-0.378563,-0.298621,0.715154,-0.107609,1.466718,42.094158,-24.535721,-3.499574,0.632108,2.079269,-0.142960,0.000000,0.000000,0.000000,0.000000,0.000000,0.000000
12152265.000000,-2.345669,-1.663369,1.150493,-1.416066,1.734617,1.194200,-0.571922,0.348421,-0.004701,0.784816,-0.376659,-0.299143,0.712230,-0.101381,1.688886,42.022747,-24.341324,-3.547182,0.673307,2.039901,-0.208878,0.000000,0.000000,0.000000,0.000000,0.000000,0.000000
12152266.000000,-2.345327,-1.663364,1.151278,-1.416441,1.734326,1.194923,-0.572030,0.351467,-0.001499,0.781715,-0.376610,-0.297648,0.715090,-0.101677,1.962629,41.923565,-24.166763,-3.523378,0.739225,1.962081,-0.155778,0.000000,0.000000,0.000000,0.000000,0.000000,0.000000
12152267.000000,-2.344983,-1.663362,1.152038,-1.416810,1.734034,1.195644,-0.572130,0.349275,-0.000956,0.773867,-0.373259,-0.295743,0.710560,-0.099426,2.109418,41.899761,-23.801773,-3.523378,0.733732,1.844894,-0.163102,0.000000,0.000000,0.000000,0.000000,0.000000,0.000000
12152268.000000,-2.344635,-1.663357,1.152818,-1.417178,1.733744,1.196378,-0.572228,0.347596,0.000740,0.773013,-0.370643,-0.294466,0.719927,-0.097060,2.260175,41.824383,-23.651016,-3.547182,0.763029,1.760665,-0.188737,0.000000,0.000000,0.000000,0.000000,0.000000,0.000000
12152269.000000,-2.344299,-1.663345,1.153599,-1.417558,1.733461,1.197110,-0.572327,0.342152,0.003638,0.771592,-0.368156,-0.289003,0.724709,-0.096895,2.454572,41.677593,-23.504227,-3.448000,0.698026,1.747848,-0.175919,0.000000,0.000000,0.000000,0.000000,0.000000,0.000000
12152270.000000,-2.343947,-1.663336,1.154366,-1.417927,1.733186,1.197841,-0.572424,0.341305,0.005086,0.769148,-0.367099,-0.284285,0.723974,-0.099687,2.506147,41.554607,-23.409012,-3.325014,0.661405,1.708480,-0.202470,0.000000,0.000000,0.000000,0.000000,0.000000,0.000000
12152271.000000,-2.343600,-1.663323,1.155132,-1.418308,1.732912,1.198574,-0.572525,0.340635,0.006662,0.762162,-0.373632,-0.282889,0.729239,-0.103771,2.553754,41.407818,-23.186844,-3.102846,0.625699,1.721298,-0.169511,0.000000,0.000000,0.000000,0.000000,0.000000,0.000000
12152272.000000,-2.343259,-1.663307,1.155907,-1.418666,1.732631,1.199294,-0.572620,0.343248,0.009423,0.774209,-0.375118,-0.281233,0.722407,-0.105788,2.605329,41.189617,-23.111465,-3.102846,0.625699,1.695663,-0.175919,0.000000,0.000000,0.000000,0.000000,0.000000,0.000000
12152273.000000,-2.342913,-1.663291,1.156682,-1.419036,1.732351,1.200025,-0.572716,0.343985,0.011388,0.774490,-0.374154,-0.281349,0.724554,-0.101781,2.680707,40.967449,-23.186844,-3.003664,0.661405,1.727706,-0.202470,0.000000,0.000000,0.000000,0.000000,0.000000,0.000000
12152274.000000,-2.342570,-1.663272,1.157454,-1.419396,1.732080,1.200762,-0.572818,0.349236,0.013184,0.771082,-0.366772,-0.272270,0.729653,-0.101382,2.680707,40.725445,-23.135269,-3.055238,0.661405,1.676437,-0.163102,0.000000,0.000000,0.000000,0.000000,0.000000,0.000000
12152275.000000,-2.342220,-1.663257,1.158224,-1.419751,1.731795,1.201489,-0.572916,0.346852,0.012172,0.775051,-0.363998,-0.281178,0.724168,-0.103728,2.704511,40.578655,-23.186844,-3.003664,0.769437,1.611434,-0.169511,0.000000,0.000000,0.000000,0.000000,0.000000,0.000000
12152276.000000,-2.341873,-1.663239,1.158997,-1.420107,1.731518,1.202203,-0.573013,0.345456,0.015771,0.774843,-0.359205,-0.278175,0.721732,-0.100115,2.704511,40.380291,-23.286026,-3.055238,0.811552,1.708480,-0.202470,0.000000,0.000000,0.000000,0.000000,0.000000,0.000000
12152277.000000,-2.341524,-1.663221,1.159772,-1.420466,1.731251,1.202900,-0.573104,0.344925,0.014174,0.777311,-0.357834,-0.272199,0.705250,-0.097658,2.629133,40.233501,-23.333633,-3.055238,0.751127,1.871444,-0.229020,0.000000,0.000000,0.000000,0.000000,0.000000,0.000000
12152278.000000,-2.341174,-1.663202,1.160527,-1.420816,1.730983,1.203627,-0.573210,0.343774,0.013609,0.772194,-0.355540,-0.266862,0.708748,-0.100099,2.605329,40.062908,-23.234451,-3.102846,0.703519,1.877853,-0.136552,0.000000,0.000000,0.000000,0.000000,0.000000,0.000000
12152279.000000,-2.340822,-1.663178,1.161293,-1.421162,1.730733,1.204351,-0.573303,0.347424,0.016914,0.765364,-0.347943,-0.262994,0.707738,-0.097669,2.529951,39.868511,-23.210648,-3.225832,0.613798,1.825668,-0.155778,0.000000,0.000000,0.000000,0.000000,0.000000,0.000000
12152280.000000,-2.340471,-1.663157,1.162053,-1.421501,1.730469,1.205076,-0.573391,0.348390,0.018239,0.762768,-0.350831,-0.263139,0.711275,-0.098624,2.482343,39.721722,-23.210648,-3.301210,0.535978,1.800033,-0.229020,0.000000,0.000000,0.000000,0.000000,0.000000,0.000000
12152281.000000,-2.340111,-1.663130,1.162819,-1.421842,1.730203,1.205794,-0.573498,0.350695,0.021600,0.759597,-0.343689,-0.262854,0.710521,-0.101282,2.283979,39.475750,-23.163040,-3.376589,0.506681,1.851302,-0.130143,0.000000,0.000000,0.000000,0.000000,0.000000,0.000000
12152282.000000,-2.339764,-1.663110,1.163579,-1.422193,1.729932,1.206518,-0.573582,0.348195,0.021112,0.753942,-0.345589,-0.264367,0.709467,-0.096709,2.260175,39.352764,-22.964676,-3.277406,0.524076,1.812850,-0.202470,0.000000,0.000000,0.000000,0.000000,0.000000,0.000000
12152283.000000,-2.339399,-1.663088,1.164325,-1.422528,1.729663,1.207239,-0.573677,0.350417,0.025014,0.749601,-0.343063,-0.265491,0.713034,-0.095912,2.034040,39.182171,-22.742508,-3.325014,0.584501,1.773483,-0.202470,0.000000,0.000000,0.000000,0.000000,0.000000,0.000000
12152284.000000,-2.339041,-1.663060,1.165089,-1.422862,1.729398,1.207954,-0.573772,0.353494,0.028634,0.747966,-0.338874,-0.266053,0.703277,-0.097486,1.911054,38.983807,-22.647293,-3.325014,0.601896,1.773483,-0.149369,0.000000,0.000000,0.000000,0.000000,0.000000,0.000000
12152285.000000,-2.338680,-1.663040,1.165842,-1.423179,1.729133,1.208662,-0.573859,0.352522,0.022651,0.763567,-0.331971,-0.265375,0.706863,-0.094264,1.764264,38.888592,-22.571915,-3.499574,0.530485,1.773483,-0.208878,0.000000,0.000000,0.000000,0.000000,0.000000,0.000000
12152286.000000,-2.338323,-1.663020,1.166603,-1.423496,1.728863,1.209384,-0.573960,0.354568,0.021445,0.762696,-0.324277,-0.269321,0.712728,-0.100890,1.641279,38.789410,-22.500504,-3.670168,0.559781,1.682845,-0.155778,0.000000,0.000000,0.000000,0.000000,0.000000,0.000000
12152287.000000,-2.337967,-1.663005,1.167365,-1.423819,1.728602,1.210106,-0.574055,0.355567,0.018472,0.760331,-0.325021,-0.268022,0.714055,-0.098839,1.542096,38.789410,-22.472733,-3.697939,0.554288,1.670028,-0.163102,0.000000,0.000000,0.000000,0.000000,0.000000,0.000000
12152288.000000,-2.337601,-1.662989,1.168119,-1.424130,1.728346,1.210798,-0.574145,0.358209,0.016616,0.756650,-0.319638,-0.264155,0.710977,-0.100074,1.343732,38.789410,-22.472733,-3.844728,0.524076,1.767074,-0.215287,0.000000,0.000000,0.000000,0.000000,0.000000,0.000000
12152289.000000,-2.337229,-1.662979,1.168893,-1.424455,1.728088,1.211493,-0.574250,0.361414,0.014158,0.759133,-0.317433,-0.263774,0.702521,-0.105777,1.121564,38.837017,-22.671097,-3.745546,0.506681,1.884261,-0.136552,0.000000,0.000000,0.000000,0.000000,0.000000,0.000000
12152290.000000,-2.336868,-1.662968,1.169668,-1.424759,1.727827,1.212203,-0.574338,0.358893,0.013007,0.761555,-0.316567,-0.262299,0.704078,-0.100019,0.947004,38.864788,-22.841690,-3.892336,0.470060,1.844894,-0.208878,0.000000,0.000000,0.000000,0.000000,0.000000,0.000000
12152291.000000,-2.336497,-1.662961,1.170419,-1.425068,1.727562,1.212925,-0.574431,0.362442,0.010077,0.761027,-0.313920,-0.262970,0.709073,-0.098708,0.748639,38.983807,-22.917068,-3.991518,0.506681,1.689254,-0.202470,0.000000,0.000000,0.000000,0.000000,0.000000,0.000000
12152292.000000,-2.336133,-1.662955,1.171175,-1.425369,1.727299,1.213633,-0.574529,0.362590,0.011650,0.761033,-0.307653,-0.259745,0.709752,-0.098678,0.601850,39.082989,-22.917068,-4.142274,0.535978,1.721298,-0.175919,0.000000,0.000000,0.000000,0.000000,0.000000,0.000000
12152293.000000,-2.335760,-1.662951,1.171918,-1.425666,1.727048,1.214312,-0.574624,0.366247,0.009917,0.757301,-0.305259,-0.258375,0.705560,-0.101775,0.427289,39.182171,-22.841690,-4.340639,0.518583,1.884261,-0.182328,0.000000,0.000000,0.000000,0.000000,0.000000,0.000000
12152294.000000,-2.335391,-1.662949,1.172675,-1.425965,1.726787,1.215008,-0.574715,0.363578,0.008140,0.752254,-0.299750,-0.256698,0.694192,-0.099632,0.276533,39.305157,-22.817886,-4.439821,0.559781,1.995040,-0.188737,0.000000,0.000000,0.000000,0.000000,0.000000,0.000000
12152295.000000,-2.335029,-1.662948,1.173422,-1.426257,1.726532,1.215720,-0.574809,0.367827,0.003187,0.740609,-0.297811,-0.253763,0.697901,-0.093277,0.078168,39.451946,-22.571915,-4.586610,0.559781,1.936446,-0.196061,0.000000,0.000000,0.000000,0.000000,0.000000,0.000000
12152296.000000,-2.334664,-1.662951,1.174175,-1.426542,1.726284,1.216420,-0.574905,0.364614,-0.000970,0.745713,-0.292022,-0.248434,0.697226,-0.094434,-0.017047,39.622540,-22.623489,-4.784975,0.506681,1.844894,-0.163102,0.000000,0.000000,0.000000,0.000000,0.000000,0.000000
12152297.000000,-2.334298,-1.662949,1.174923,-1.426827,1.726045,1.217135,-0.574989,0.365081,0.000754,0.739291,-0.288726,-0.240097,0.702389,-0.088067,-0.191607,39.721722,-22.472733,-4.907960,0.422452,1.819259,-0.202470,0.000000,0.000000,0.000000,0.000000,0.000000,0.000000
12152298.000000,-2.333928,-1.662951,1.175658,-1.427107,1.725803,1.217838,-0.575083,0.363181,-0.000228,0.739219,-0.287482,-0.239264,0.698570,-0.090867,-0.314593,39.916119,-22.302139,-5.007143,0.393156,1.773483,-0.169511,0.000000,0.000000,0.000000,0.000000,0.000000,0.000000
12152299.000000,-2.333562,-1.662954,1.176403,-1.427392,1.725555,1.218557,-0.575179,0.359249,-0.002762,0.739059,-0.283811,-0.244380,0.701517,-0.093296,-0.441546,40.062908,-22.107742,-5.078554,0.393156,1.676437,-0.122819,0.000000,0.000000,0.000000,0.000000,0.000000,0.000000
12152300.000000,-2.333206,-1.662951,1.177151,-1.427664,1.725307,1.219278,-0.575264,0.358629,-0.003544,0.735900,-0.274865,-0.239826,0.707073,-0.090141,-0.512957,40.162090,-21.933182,-5.276918,0.386747,1.630660,-0.208878,0.000000,0.000000,0.000000,0.000000,0.000000,0.000000
12152301.000000,-2.332841,-1.662948,1.177889,-1.427931,1.725060,1.219987,-0.575360,0.358056,-0.002456,0.738188,-0.274599,-0.236326,0.710876,-0.092526,-0.612139,40.185894,-21.810196,-5.475282,0.393156,1.591293,-0.169511,0.000000,0.000000,0.000000,0.000000,0.000000,0.000000
12152302.000000,-2.332485,-1.662945,1.178637,-1.428197,1.724819,1.220702,-0.575451,0.358389,-0.002404,0.732626,-0.273739,-0.239600,0.710923,-0.092162,-0.687518,40.233501,-21.714981,-5.697450,0.416959,1.584884,-0.175919,0.000000,0.000000,0.000000,0.000000,0.000000,0.000000
12152303.000000,-2.332127,-1.662941,1.179379,-1.428455,1.724576,1.221410,-0.575538,0.352959,-0.001899,0.748218,-0.269501,-0.241749,0.709413,-0.091349,-0.687518,40.257305,-21.516617,-5.895814,0.476469,1.532699,-0.208878,0.000000,0.000000,0.000000,0.000000,0.000000,0.000000
12152304.000000,-2.331766,-1.662943,1.180112,-1.428731,1.724334,1.222135,-0.575635,0.351200,-0.003391,0.748283,-0.273085,-0.244734,0.712496,-0.094151,-0.786700,40.356487,-21.417435,-5.994997,0.446256,1.507064,-0.155778,0.000000,0.000000,0.000000,0.000000,0.000000,0.000000
12152305.000000,-2.331407,-1.662933,1.180858,-1.429007,1.724094,1.222847,-0.575723,0.350808,0.000206,0.746107,-0.276729,-0.239042,0.710948,-0.092856,-0.909686,40.257305,-21.393631,-6.042604,0.410551,1.584884,-0.188737,0.000000,0.000000,0.000000,0.000000,0.000000,0.000000
12152306.000000,-2.331047,-1.662927,1.181601,-1.429284,1.723858,1.223556,-0.575819,0.352189,0.001918,0.746605,-0.276137,-0.238776,0.711629,-0.094861,-0.985064,40.185894,-21.445206,-5.971193,0.393156,1.624252,-0.142960,0.000000,0.000000,0.000000,0.000000,0.000000,0.000000
12152307.000000,-2.330678,-1.662917,1.182351,-1.429557,1.723631,1.224279,-0.575908,0.359128,0.006734,0.745584,-0.274871,-0.237580,0.716377,-0.093355,-1.159625,40.086712,-21.492813,-6.018800,0.308927,1.630660,-0.163102,0.000000,0.000000,0.000000,0.000000,0.000000,0.000000
12152308.000000,-2.330323,-1.662906,1.183112,-1.429837,1.723406,1.224998,-0.575997,0.358606,0.008239,0.747148,-0.275506,-0.237015,0.725492,-0.088335,-1.231036,39.939922,-21.615799,-5.895814,0.243009,1.552840,-0.175919,0.000000,0.000000,0.000000,0.000000,0.000000,0.000000
12152309.000000,-2.329970,-1.662897,1.183857,-1.430103,1.723170,1.225723,-0.576088,0.357506,0.011751,0.747684,-0.270894,-0.238080,0.723091,-0.090381,-1.306414,39.816936,-21.714981,-5.971193,0.231107,1.565658,-0.155778,0.000000,0.000000,0.000000,0.000000,0.000000,0.000000
12152310.000000,-2.329616,-1.662883,1.184617,-1.430379,1.722930,1.226431,-0.576173,0.360551,0.012265,0.743764,-0.275064,-0.245575,0.716909,-0.090791,-1.282611,39.646343,-21.837967,-5.971193,0.243009,1.682845,-0.169511,0.000000,0.000000,0.000000,0.000000,0.000000,0.000000
12152311.000000,-2.329273,-1.662872,1.185370,-1.430646,1.722685,1.227130,-0.576260,0.356300,0.011383,0.744383,-0.274432,-0.246177,0.710956,-0.087117,-1.207232,39.523357,-22.056168,-6.018800,0.297025,1.865035,-0.163102,0.000000,0.000000,0.000000,0.000000,0.000000,0.000000
12152312.000000,-2.328921,-1.662863,1.186127,-1.430910,1.722448,1.227839,-0.576344,0.351909,0.012113,0.744946,-0.270060,-0.247213,0.712142,-0.088144,-1.207232,39.475750,-22.131546,-6.094179,0.327238,1.877853,-0.182328,0.000000,0.000000,0.000000,0.000000,0.000000,0.000000
12152313.000000,-2.328586,-1.662850,1.186891,-1.431185,1.722207,1.228553,-0.576432,0.344809,0.010844,0.745703,-0.272675,-0.249047,0.710740,-0.090154,-1.108050,39.376568,-22.254532,-6.070375,0.386747,1.832076,-0.169511,0.000000,0.000000,0.000000,0.000000,0.000000,0.000000
12152314.000000,-2.328245,-1.662840,1.187644,-1.431453,1.721966,1.229255,-0.576518,0.343872,0.011154,0.752666,-0.271436,-0.247045,0.713420,-0.085978,-1.008868,39.352764,-22.353714,-6.042604,0.393156,1.812850,-0.175919,0.000000,0.000000,0.000000,0.000000,0.000000,0.000000
12152315.000000,-2.327904,-1.662825,1.188404,-1.431734,1.721726,1.229950,-0.576599,0.350990,0.012220,0.752484,-0.272839,-0.240401,0.703213,-0.082894,-0.909686,39.305157,-22.425125,-5.872011,0.356534,1.832076,-0.188737,0.000000,0.000000,0.000000,0.000000,0.000000,0.000000
12152316.000000,-2.327566,-1.662813,1.189151,-1.432009,1.721489,1.230642,-0.576687,0.348211,0.012525,0.752249,-0.274991,-0.234658,0.702880,-0.086729,-0.762896,39.281353,-22.425125,-5.820436,0.320829,1.832076,-0.163102,0.000000,0.000000,0.000000,0.000000,0.000000,0.000000
12152317.000000,-2.327232,-1.662805,1.189900,-1.432291,1.721256,1.231341,-0.576769,0.345107,0.011682,0.749130,-0.277782,-0.236395,0.697880,-0.088058,-0.588336,39.305157,-22.302139,-5.697450,0.315336,1.819259,-0.175919,0.000000,0.000000,0.000000,0.000000,0.000000,0.000000
12152318.000000,-2.326901,-1.662796,1.190658,-1.432576,1.721030,1.232053,-0.576851,0.340580,0.012223,0.749402,-0.277812,-0.232484,0.699033,-0.085056,-0.540728,39.281353,-22.278336,-5.550661,0.273221,1.793624,-0.169511,0.000000,0.000000,0.000000,0.000000,0.000000,0.000000
12152319.000000,-2.326564,-1.662780,1.191408,-1.432858,1.720802,1.232739,-0.576937,0.338452,0.014394,0.747564,-0.281503,-0.228594,0.698091,-0.088536,-0.465350,39.182171,-22.278336,-5.475282,0.219205,1.825668,-0.130143,0.000000,0.000000,0.000000,0.000000,0.000000,0.000000
12152320.000000,-2.326241,-1.662769,1.192168,-1.433145,1.720563,1.233436,-0.577012,0.332696,0.014230,0.746127,-0.281596,-0.235044,0.696168,-0.087132,-0.290789,39.158367,-22.325943,-5.376100,0.261320,1.851302,-0.188737,0.000000,0.000000,0.000000,0.000000,0.000000,0.000000
12152321.000000,-2.325906,-1.662758,1.192931,-1.433428,1.720323,1.234134,-0.577099,0.330433,0.010432,0.759806,-0.286841,-0.229508,0.704239,-0.084971,-0.215411,39.158367,-22.353714,-5.276918,0.303434,1.779891,-0.169511,0.000000,0.000000,0.000000,0.000000,0.000000,0.000000
12152322.000000,-2.325573,-1.662751,1.193682,-1.433725,1.720088,1.234832,-0.577177,0.332256,0.010131,0.756894,-0.292801,-0.230233,0.698809,-0.085842,-0.191607,39.182171,-22.425125,-5.153932,0.362943,1.767074,-0.208878,0.000000,0.000000,0.000000,0.000000,0.000000,0.000000
12152323.000000,-2.325252,-1.662733,1.194454,-1.434027,1.719852,1.235535,-0.577267,0.327234,0.013586,0.756515,-0.292067,-0.230195,0.702200,-0.086052,-0.144000,39.059185,-22.623489,-4.983339,0.393156,1.793624,-0.136552,0.000000,0.000000,0.000000,0.000000,0.000000,0.000000
12152324.000000,-2.324920,-1.662726,1.195223,-1.434321,1.719622,1.236215,-0.577340,0.327781,0.009909,0.759786,-0.291727,-0.232142,0.694327,-0.085837,-0.144000,39.059185,-22.940872,-4.808778,0.386747,1.871444,-0.188737,0.000000,0.000000,0.000000,0.000000,0.000000,0.000000
12152325.000000,-2.324594,-1.662724,1.195991,-1.434625,1.719382,1.236925,-0.577424,0.324891,0.004925,0.757246,-0.294626,-0.237229,0.695664,-0.084549,0.006757,39.158367,-23.111465,-4.610414,0.440763,1.832076,-0.155778,0.000000,0.000000,0.000000,0.000000,0.000000,0.000000
12152326.000000,-2.324267,-1.662724,1.196764,-1.434907,1.719146,1.237612,-0.577494,0.325758,0.000886,0.757098,-0.289389,-0.234064,0.700579,-0.080687,0.006757,39.281353,-23.309830,-4.610414,0.428861,1.877853,-0.196061,0.000000,0.000000,0.000000,0.000000,0.000000,0.000000
12152327.000000,-2.323943,-1.662721,1.197529,-1.435207,1.718912,1.238303,-0.577573,0.321020,0.001875,0.763245,-0.289810,-0.230891,0.696969,-0.079286,0.078168,39.376568,-23.504227,-4.412050,0.410551,1.968490,-0.196061,0.000000,0.000000,0.000000,0.000000,0.000000,0.000000
12152328.000000,-2.323629,-1.662722,1.198301,-1.435507,1.718685,1.238991,-0.577657,0.322670,0.001890,0.765413,-0.290868,-0.230379,0.693841,-0.080372,0.228925,39.499554,-23.678787,-4.312868,0.428861,2.072860,-0.142960,0.000000,0.000000,0.000000,0.000000,0.000000,0.000000
12152329.000000,-2.323311,-1.662726,1.199049,-1.435796,1.718454,1.239685,-0.577734,0.318420,-0.000969,0.763817,-0.290754,-0.228914,0.689634,-0.081376,0.304304,39.622540,-23.651016,-4.265260,0.446256,1.981307,-0.202470,0.000000,0.000000,0.000000,0.000000,0.000000,0.000000
12152330.000000,-2.322994,-1.662734,1.199808,-1.436093,1.718219,1.240387,-0.577821,0.314708,-0.004151,0.760587,-0.296245,-0.229996,0.688521,-0.081737,0.451093,39.793133,-23.651016,-4.118471,0.494779,1.916305,-0.155778,0.000000,0.000000,0.000000,0.000000,0.000000,0.000000
12152331.000000,-2.322675,-1.662735,1.200569,-1.436393,1.717982,1.241074,-0.577903,0.316720,-0.002959,0.755509,-0.293112,-0.229284,0.685034,-0.081307,0.474897,39.816936,-23.627213,-4.019289,0.500272,1.955673,-0.122819,0.000000,0.000000,0.000000,0.000000,0.000000,0.000000
12152332.000000,-2.322362,-1.662741,1.201316,-1.436694,1.717750,1.241760,-0.577976,0.312561,-0.004020,0.753804,-0.293525,-0.227597,0.687049,-0.081377,0.625654,39.916119,-23.555801,-3.797121,0.500272,2.001449,-0.196061,0.000000,0.000000,0.000000,0.000000,0.000000,0.000000
12152333.000000,-2.322062,-1.662747,1.202060,-1.436988,1.717520,1.242462,-0.578060,0.314767,-0.003588,0.745968,-0.293992,-0.228744,0.691087,-0.082163,0.772443,39.963726,-23.286026,-3.797121,0.547880,1.923629,-0.136552,0.000000,0.000000,0.000000,0.000000,0.000000,0.000000
12152334.000000,-2.321752,-1.662756,1.202810,-1.437287,1.717293,1.243161,-0.578132,0.316565,-0.007729,0.743140,-0.294248,-0.218994,0.697736,-0.082361,0.871625,40.062908,-23.186844,-3.721742,0.566190,1.806442,-0.208878,0.000000,0.000000,0.000000,0.000000,0.000000,0.000000
12152335.000000,-2.321440,-1.662761,1.203566,-1.437579,1.717078,1.243862,-0.578215,0.313348,-0.006415,0.744320,-0.292323,-0.218006,0.702419,-0.081196,0.994611,40.110516,-23.111465,-3.721742,0.506681,1.806442,-0.196061,0.000000,0.000000,0.000000,0.000000,0.000000,0.000000
12152336.000000,-2.321128,-1.662760,1.204317,-1.437881,1.716848,1.244567,-0.578294,0.315597,-0.003275,0.742316,-0.293546,-0.215278,0.694884,-0.079117,0.947004,40.062908,-22.917068,-3.622560,0.500272,1.851302,-0.215287,0.000000,0.000000,0.000000,0.000000,0.000000,0.000000
12152337.000000,-2.320828,-1.662760,1.205060,-1.438174,1.716620,1.245274,-0.578379,0.311213,-0.002824,0.737198,-0.293803,-0.218625,0.703076,-0.080206,1.121564,40.086712,-22.817886,-3.547182,0.535978,1.786300,-0.155778,0.000000,0.000000,0.000000,0.000000,0.000000,0.000000
12152338.000000,-2.320516,-1.662762,1.205811,-1.438471,1.716405,1.245990,-0.578453,0.307934,-0.001945,0.732478,-0.294261,-0.215856,0.703886,-0.081103,1.069990,40.086712,-22.742508,-3.448000,0.535978,1.702071,-0.208878,0.000000,0.000000,0.000000,0.000000,0.000000,0.000000
12152339.000000,-2.320211,-1.662753,1.206568,-1.438774,1.716185,1.246689,-0.578534,0.310096,0.000976,0.751102,-0.303602,-0.214001,0.702321,-0.080699,1.069990,39.987530,-22.794083,-3.301210,0.547880,1.695663,-0.182328,0.000000,0.000000,0.000000,0.000000,0.000000,0.000000
12152340.000000,-2.319903,-1.662748,1.207307,-1.439076,1.715975,1.247391,-0.578615,0.309444,0.002843,0.751085,-0.302109,-0.211736,0.701176,-0.080442,1.145368,39.892315,-22.742508,-3.178224,0.542386,1.708480,-0.149369,0.000000,0.000000,0.000000,0.000000,0.000000,0.000000
12152341.000000,-2.319592,-1.662733,1.208060,-1.439373,1.715750,1.248100,-0.578685,0.309801,0.006509,0.751676,-0.300222,-0.215926,0.702490,-0.076767,1.069990,39.693951,-22.770279,-3.079042,0.559781,1.662704,-0.208878,0.000000,0.000000,0.000000,0.000000,0.000000,0.000000
12152342.000000,-2.319283,-1.662736,1.208803,-1.439674,1.715527,1.248788,-0.578768,0.304634,0.003670,0.753716,-0.297378,-0.213389,0.698970,-0.078368,1.069990,39.721722,-22.817886,-2.928285,0.566190,1.721298,-0.155778,0.000000,0.000000,0.000000,0.000000,0.000000,0.000000
12152343.000000,-2.318972,-1.662721,1.209555,-1.439967,1.715313,1.249486,-0.578850,0.302324,0.007072,0.749828,-0.296048,-0.210940,0.691657,-0.078300,1.022382,39.523357,-22.841690,-2.856874,0.535978,1.754256,-0.136552,0.000000,0.000000,0.000000,0.000000,0.000000,0.000000
12152344.000000,-2.318667,-1.662712,1.210314,-1.440266,1.715095,1.250170,-0.578924,0.306208,0.007580,0.747870,-0.296777,-0.210894,0.691688,-0.074920,0.994611,39.400372,-22.964676,-2.733888,0.554288,1.812850,-0.202470,0.000000,0.000000,0.000000,0.000000,0.000000,0.000000
12152345.000000,-2.318358,-1.662701,1.211057,-1.440559,1.714879,1.250856,-0.579006,0.307561,0.008479,0.741609,-0.294553,-0.215061,0.686206,-0.071705,0.970807,39.253582,-23.040054,-2.706117,0.578092,1.884261,-0.163102,0.000000,0.000000,0.000000,0.000000,0.000000,0.000000
12152346.000000,-2.318053,-1.662687,1.211808,-1.440854,1.714668,1.251561,-0.579079,0.303001,0.010193,0.738594,-0.294068,-0.217921,0.689256,-0.075896,0.970807,39.059185,-23.135269,-2.634706,0.578092,1.877853,-0.202470,0.000000,0.000000,0.000000,0.000000,0.000000,0.000000
12152347.000000,-2.317742,-1.662673,1.212551,-1.441146,1.714448,1.252245,-0.579159,0.304677,0.010781,0.741263,-0.297207,-0.215237,0.688733,-0.076824,0.895429,38.888592,-23.234451,-2.559328,0.596403,1.858627,-0.175919,0.000000,0.000000,0.000000,0.000000,0.000000,0.000000
12152348.000000,-2.317439,-1.662662,1.213301,-1.441443,1.714234,1.252941,-0.579238,0.303165,0.010618,0.741873,-0.295985,-0.213633,0.691819,-0.077110,0.895429,38.741802,-23.286026,-2.511720,0.608304,1.844894,-0.155778,0.000000,0.000000,0.000000,0.000000,0.000000,0.000000
12152349.000000,-2.317146,-1.662650,1.214050,-1.441737,1.714023,1.253629,-0.579307,0.298396,0.010510,0.737179,-0.296948,-0.207010,0.691822,-0.074170,0.947004,38.595013,-23.258255,-2.511720,0.596403,1.897079,-0.221696,0.000000,0.000000,0.000000,0.000000,0.000000,0.000000
12152350.000000,-2.316846,-1.662645,1.214784,-1.442022,1.713822,1.254309,-0.579387,0.298108,0.008211,0.736908,-0.296191,-0.204894,0.693197,-0.076614,0.970807,38.543438,-23.186844,-2.583132,0.542386,1.916305,-0.163102,0.000000,0.000000,0.000000,0.000000,0.000000,0.000000
12152351.000000,-2.316556,-1.662632,1.215524,-1.442316,1.713617,1.255005,-0.579455,0.302957,0.008256,0.736793,-0.293678,-0.206082,0.694375,-0.074741,1.145368,38.424419,-23.087662,-2.583132,0.554288,1.871444,-0.202470,0.000000,0.000000,0.000000,0.000000,0.000000,0.000000
12152352.000000,-2.316256,-1.662623,1.216251,-1.442593,1.713415,1.255687,-0.579535,0.300627,0.007266,0.751330,-0.287358,-0.200456,0.687185,-0.076392,1.169172,38.349041,-22.917068,-2.682314,0.524076,1.838485,-0.163102,0.000000,0.000000,0.000000,0.000000,0.000000,0.000000
12152353.000000,-2.315955,-1.662613,1.216982,-1.442882,1.713210,1.256379,-0.579613,0.297789,0.009660,0.744352,-0.287721,-0.198609,0.684405,-0.076536,1.169172,38.277630,-22.718704,-2.682314,0.512174,1.865035,-0.149369,0.000000,0.000000,0.000000,0.000000,0.000000,0.000000
12152354.000000,-2.315664,-1.662598,1.217724,-1.443164,1.713002,1.257077,-0.579681,0.294310,0.012641,0.741721,-0.286653,-0.201627,0.685608,-0.075373,1.244550,38.154644,-22.623489,-2.757692,0.530485,1.812850,-0.169511,0.000000,0.000000,0.000000,0.000000,0.000000,0.000000
12152355.000000,-2.315368,-1.662591,1.218454,-1.443447,1.712800,1.257773,-0.579756,0.293118,0.011372,0.735132,-0.285403,-0.199740,0.687908,-0.075466,1.244550,38.178448,-22.571915,-2.706117,0.554288,1.714889,-0.163102,0.000000,0.000000,0.000000,0.000000,0.000000,0.000000
12152356.000000,-2.315070,-1.662584,1.219192,-1.443728,1.712602,1.258484,-0.579819,0.294765,0.007617,0.730673,-0.284921,-0.201692,0.698123,-0.072851,1.268354,38.202251,-22.500504,-2.757692,0.554288,1.591293,-0.221696,0.000000,0.000000,0.000000,0.000000,0.000000,0.000000
12152357.000000,-2.314778,-1.662571,1.219936,-1.444009,1.712405,1.259172,-0.579895,0.292929,0.006637,0.732307,-0.289434,-0.203634,0.697059,-0.071579,1.315961,38.154644,-22.571915,-2.682314,0.559781,1.611434,-0.149369,0.000000,0.000000,0.000000,0.000000,0.000000,0.000000
12152358.000000,-2.314479,-1.662565,1.220674,-1.444283,1.712215,1.259868,-0.579958,0.291840,0.006902,0.733276,-0.285757,-0.203089,0.700100,-0.070858,1.315961,38.202251,-22.647293,-2.682314,0.524076,1.670028,-0.188737,0.000000,0.000000,0.000000,0.000000,0.000000,0.000000
12152359.000000,-2.314187,-1.662560,1.221420,-1.444554,1.712016,1.260571,-0.580025,0.291465,0.006462,0.731763,-0.281281,-0.204240,0.700895,-0.071038,1.315961,38.277630,-22.817886,-2.757692,0.524076,1.649886,-0.215287,0.000000,0.000000,0.000000,0.000000,0.000000,0.000000
12152360.000000,-2.313898,-1.662559,1.222147,-1.444817,1.711817,1.261260,-0.580104,0.290232,0.005343,0.732430,-0.278846,-0.205544,0.694437,-0.069878,1.343732,38.396648,-22.893265,-2.833071,0.547880,1.695663,-0.149369,0.000000,0.000000,0.000000,0.000000,0.000000,0.000000
12152361.000000,-2.313604,-1.662559,1.222890,-1.445084,1.711628,1.261945,-0.580171,0.292506,0.001993,0.734290,-0.275110,-0.205403,0.681048,-0.069632,1.391340,38.495831,-23.063858,-2.833071,0.535978,1.812850,-0.188737,0.000000,0.000000,0.000000,0.000000,0.000000,0.000000
12152362.000000,-2.313313,-1.662553,1.223636,-1.445347,1.711437,1.262644,-0.580242,0.294793,0.003958,0.734700,-0.270018,-0.201041,0.681888,-0.065893,1.415143,38.543438,-23.186844,-2.956056,0.530485,1.923629,-0.202470,0.000000,0.000000,0.000000,0.000000,0.000000,0.000000
12152363.000000,-2.313018,-1.662556,1.224367,-1.445609,1.711243,1.263336,-0.580316,0.293748,0.002925,0.736967,-0.264169,-0.199264,0.688254,-0.070043,1.391340,38.690228,-23.234451,-3.003664,0.554288,1.890670,-0.149369,0.000000,0.000000,0.000000,0.000000,0.000000,0.000000
12152364.000000,-2.312725,-1.662562,1.225102,-1.445865,1.711057,1.264051,-0.580381,0.294817,-0.000715,0.732283,-0.256589,-0.196954,0.694948,-0.069003,1.315961,38.837017,-23.210648,-3.055238,0.559781,1.773483,-0.208878,0.000000,0.000000,0.000000,0.000000,0.000000,0.000000
12152365.000000,-2.312434,-1.662565,1.225832,-1.446124,1.710862,1.264747,-0.580453,0.293387,-0.002777,0.728154,-0.261316,-0.198706,0.700954,-0.067135,1.292158,38.960003,-23.210648,-3.079042,0.547880,1.760665,-0.175919,0.000000,0.000000,0.000000,0.000000,0.000000,0.000000
12152366.000000,-2.312143,-1.662566,1.226569,-1.446374,1.710670,1.265446,-0.580523,0.292199,-0.003183,0.725014,-0.258154,-0.190316,0.698143,-0.069091,1.292158,39.035381,-23.210648,-3.249635,0.512174,1.806442,-0.175919,0.000000,0.000000,0.000000,0.000000,0.000000,0.000000
12152367.000000,-2.311857,-1.662570,1.227303,-1.446624,1.710480,1.266155,-0.580589,0.291582,-0.003468,0.725450,-0.254713,-0.189750,0.694690,-0.065184,1.292158,39.106792,-23.063858,-3.348818,0.506681,1.767074,-0.196061,0.000000,0.000000,0.000000,0.000000,0.000000,0.000000
12152368.000000,-2.311563,-1.662575,1.228022,-1.446867,1.710289,1.266854,-0.580663,0.289745,-0.003832,0.723717,-0.249789,-0.189594,0.689694,-0.063967,1.292158,39.182171,-22.940872,-3.547182,0.506681,1.676437,-0.169511,0.000000,0.000000,0.000000,0.000000,0.000000,0.000000
12152369.000000,-2.311270,-1.662575,1.228748,-1.447117,1.710098,1.267554,-0.580728,0.291514,-0.001816,0.720094,-0.248638,-0.190225,0.690597,-0.065080,1.216779,39.158367,-22.794083,-3.622560,0.530485,1.670028,-0.202470,0.000000,0.000000,0.000000,0.000000,0.000000,0.000000
12152370.000000,-2.310983,-1.662574,1.229474,-1.447356,1.709916,1.268234,-0.580800,0.291062,-0.006201,0.733671,-0.243571,-0.182628,0.690021,-0.064696,1.216779,39.106792,-22.742508,-3.769350,0.476469,1.735030,-0.155778,0.000000,0.000000,0.000000,0.000000,0.000000,0.000000
12152371.000000,-2.310691,-1.662575,1.230207,-1.447594,1.709735,1.268929,-0.580872,0.289582,-0.004559,0.730478,-0.240234,-0.187051,0.692111,-0.062761,1.121564,39.106792,-22.647293,-3.868532,0.458158,1.741439,-0.149369,0.000000,0.000000,0.000000,0.000000,0.000000,0.000000
12152372.000000,-2.310395,-1.662572,1.230929,-1.447836,1.709542,1.269633,-0.580936,0.294794,-0.002801,0.726857,-0.236936,-0.192662,0.697215,-0.064618,1.022382,39.082989,-22.377518,-3.892336,0.464567,1.656295,-0.182328,0.000000,0.000000,0.000000,0.000000,0.000000,0.000000
12152373.000000,-2.310100,-1.662573,1.231656,-1.448068,1.709353,1.270322,-0.581004,0.295013,-0.002664,0.729616,-0.232567,-0.196060,0.693339,-0.067379,0.923200,39.106792,-22.448929,-3.991518,0.458158,1.630660,-0.175919,0.000000,0.000000,0.000000,0.000000,0.000000,0.000000
12152374.000000,-2.309796,-1.662561,1.232390,-1.448299,1.709178,1.271013,-0.581069,0.294973,0.002035,0.726011,-0.230526,-0.187644,0.691539,-0.068087,0.724836,38.936199,-22.472733,-4.019289,0.405057,1.662704,-0.202470,0.000000,0.000000,0.000000,0.000000,0.000000,0.000000
12152375.000000,-2.309499,-1.662560,1.233118,-1.448531,1.708995,1.271699,-0.581139,0.293385,0.001222,0.723192,-0.232438,-0.188480,0.699398,-0.070910,0.574079,38.936199,-22.448929,-4.043092,0.416959,1.656295,-0.175919,0.000000,0.000000,0.000000,0.000000,0.000000,0.000000
12152376.000000,-2.309203,-1.662560,1.233838,-1.448761,1.708806,1.272399,-0.581203,0.293853,0.000714,0.723121,-0.229956,-0.191420,0.693574,-0.070890,0.451093,38.936199,-22.377518,-4.090700,0.482877,1.676437,-0.202470,0.000000,0.000000,0.000000,0.000000,0.000000,0.000000
12152377.000000,-2.308904,-1.662558,1.234576,-1.448983,1.708629,1.273090,-0.581274,0.294349,0.002071,0.723099,-0.223493,-0.189884,0.688018,-0.072229,0.228925,38.864788,-22.500504,-4.189882,0.464567,1.727706,-0.196061,0.000000,0.000000,0.000000,0.000000,0.000000,0.000000
12152378.000000,-2.308609,-1.662554,1.235302,-1.449196,1.708449,1.273774,-0.581344,0.294576,0.001973,0.722949,-0.220670,-0.183487,0.684455,-0.073737,0.129743,38.837017,-22.548111,-4.364442,0.422452,1.773483,-0.175919,0.000000,0.000000,0.000000,0.000000,0.000000,0.000000
12152379.000000,-2.308307,-1.662556,1.236045,-1.449414,1.708266,1.274477,-0.581414,0.296204,0.000623,0.722054,-0.215903,-0.180248,0.693623,-0.069175,-0.017047,38.864788,-22.742508,-4.511232,0.422452,1.721298,-0.182328,0.000000,0.000000,0.000000,0.000000,0.000000,0.000000
12152380.000000,-2.308006,-1.662555,1.236786,-1.449631,1.708085,1.275175,-0.581482,0.298736,0.000384,0.725927,-0.216404,-0.182220,0.695767,-0.065802,-0.215411,38.864788,-22.865494,-4.634218,0.410551,1.695663,-0.188737,0.000000,0.000000,0.000000,0.000000,0.000000,0.000000
12152381.000000,-2.307702,-1.662560,1.237522,-1.449841,1.707901,1.275858,-0.581547,0.296386,-0.001439,0.730456,-0.214249,-0.180800,0.695531,-0.067259,-0.413775,38.936199,-23.040054,-4.709596,0.428861,1.721298,-0.208878,0.000000,0.000000,0.000000,0.000000,0.000000,0.000000
12152382.000000,-2.307399,-1.662560,1.238256,-1.450056,1.707724,1.276534,-0.581622,0.299630,-0.000977,0.729408,-0.214812,-0.183283,0.686823,-0.071751,-0.663714,38.936199,-23.111465,-4.832582,0.440763,1.832076,-0.142960,0.000000,0.000000,0.000000,0.000000,0.000000,0.000000
12152383.000000,-2.307099,-1.662567,1.238984,-1.450267,1.707556,1.277216,-0.581684,0.299505,-0.002985,0.727775,-0.212438,-0.181379,0.684136,-0.061625,-0.810504,39.035381,-23.186844,-4.955568,0.362943,1.871444,-0.182328,0.000000,0.000000,0.000000,0.000000,0.000000,0.000000
12152384.000000,-2.306801,-1.662570,1.239718,-1.450472,1.707381,1.277906,-0.581752,0.300185,-0.002000,0.726137,-0.208982,-0.179129,0.680526,-0.060375,-0.862078,39.035381,-23.258255,-5.130128,0.369352,1.812850,-0.182328,0.000000,0.000000,0.000000,0.000000,0.000000,0.000000
12152385.000000,-2.306504,-1.662574,1.240455,-1.450672,1.707206,1.278600,-0.581815,0.298593,-0.002455,0.722445,-0.206165,-0.175656,0.683009,-0.063850,-0.933489,39.082989,-23.234451,-5.328493,0.332731,1.754256,-0.188737,0.000000,0.000000,0.000000,0.000000,0.000000,0.000000
12152386.000000,-2.306200,-1.662576,1.241171,-1.450877,1.707030,1.279274,-0.581880,0.301706,-0.002199,0.723383,-0.209124,-0.178304,0.681519,-0.066314,-1.084246,39.106792,-23.186844,-5.451478,0.308927,1.773483,-0.196061,0.000000,0.000000,0.000000,0.000000,0.000000,0.000000
12152387.000000,-2.305906,-1.662579,1.241899,-1.451086,1.706855,1.279955,-0.581950,0.300273,-0.002677,0.720180,-0.206422,-0.177997,0.677914,-0.069135,-1.183428,39.158367,-23.087662,-5.499086,0.344633,1.819259,-0.169511,0.000000,0.000000,0.000000,0.000000,0.000000,0.000000
12152388.000000,-2.305609,-1.662583,1.242611,-1.451291,1.706676,1.280616,-0.582012,0.296115,-0.002901,0.730243,-0.205180,-0.177820,0.680695,-0.064254,-1.282611,39.205975,-22.917068,-5.526857,0.405057,1.897079,-0.215287,0.000000,0.000000,0.000000,0.000000,0.000000,0.000000
12152389.000000,-2.305309,-1.662588,1.243336,-1.451499,1.706511,1.281296,-0.582081,0.298989,-0.003050,0.727386,-0.206680,-0.175017,0.675820,-0.064010,-1.381793,39.253582,-22.794083,-5.550661,0.369352,1.903487,-0.169511,0.000000,0.000000,0.000000,0.000000,0.000000,0.000000
12152390.000000,-2.305015,-1.662587,1.244072,-1.451706,1.706344,1.281995,-0.582143,0.297816,-0.001478,0.731457,-0.207125,-0.172294,0.686234,-0.062133,-1.453204,39.229778,-22.794083,-5.626039,0.332731,1.786300,-0.169511,0.000000,0.000000,0.000000,0.000000,0.000000,0.000000
12152391.000000,-2.304721,-1.662591,1.244802,-1.451908,1.706185,1.282688,-0.582206,0.295758,-0.002193,0.736778,-0.204844,-0.164580,0.685353,-0.064246,-1.480975,39.281353,-22.917068,-5.673646,0.237516,1.643478,-0.196061,0.000000,0.000000,0.000000,0.000000,0.000000,0.000000
12152392.000000,-2.304419,-1.662595,1.245533,-1.452117,1.706016,1.283375,-0.582273,0.297274,-0.002020,0.731778,-0.206252,-0.165446,0.685137,-0.068302,-1.627764,39.305157,-22.964676,-5.574464,0.213712,1.682845,-0.163102,0.000000,0.000000,0.000000,0.000000,0.000000,0.000000
12152393.000000,-2.304128,-1.662602,1.246268,-1.452322,1.705834,1.284041,-0.582334,0.297152,-0.003575,0.731461,-0.209234,-0.168200,0.688630,-0.069255,-1.726946,39.400372,-23.087662,-5.526857,0.249418,1.825668,-0.182328,0.000000,0.000000,0.000000,0.000000,0.000000,0.000000
12152394.000000,-2.303836,-1.662611,1.247000,-1.452520,1.705656,1.284725,-0.582398,0.296612,-0.005261,0.733045,-0.208752,-0.170451,0.687193,-0.066382,-1.826129,39.523357,-23.210648,-5.574464,0.279630,1.942855,-0.169511,0.000000,0.000000,0.000000,0.000000,0.000000,0.000000
12152395.000000,-2.303548,-1.662622,1.247739,-1.452720,1.705481,1.285410,-0.582456,0.292773,-0.009375,0.730728,-0.202061,-0.173117,0.689750,-0.063688,-1.901507,39.646343,-23.381241,-5.626039,0.351041,1.974899,-0.175919,0.000000,0.000000,0.000000,0.000000,0.000000,0.000000
12152396.000000,-2.303257,-1.662630,1.248475,-1.452920,1.705305,1.286094,-0.582516,0.292438,-0.008820,0.733177,-0.202884,-0.173285,0.689138,-0.066056,-1.925311,39.745525,-23.651016,-5.598268,0.374845,1.942855,-0.188737,0.000000,0.000000,0.000000,0.000000,0.000000,0.000000
12152397.000000,-2.302968,-1.662642,1.249216,-1.453117,1.705132,1.286787,-0.582581,0.288510,-0.012662,0.733465,-0.200837,-0.172937,0.689227,-0.064577,-1.925311,39.892315,-23.873184,-5.649843,0.398649,1.858627,-0.163102,0.000000,0.000000,0.000000,0.000000,0.000000,0.000000
12152398.000000,-2.302685,-1.662663,1.249966,-1.453331,1.704962,1.287475,-0.582639,0.288885,-0.017010,0.740775,-0.206979,-0.172410,0.683192,-0.065805,-1.925311,40.110516,-24.142960,-5.550661,0.416959,1.832076,-0.202470,0.000000,0.000000,0.000000,0.000000,0.000000,0.000000
12152399.000000,-2.302397,-1.662681,1.250693,-1.453537,1.704790,1.288136,-0.582700,0.286293,-0.019162,0.738271,-0.210022,-0.176811,0.678225,-0.063176,-1.972918,40.281109,-24.190567,-5.475282,0.422452,1.942855,-0.208878,0.000000,0.000000,0.000000,0.000000,0.000000,0.000000
12152400.000000,-2.302122,-1.662706,1.251426,-1.453744,1.704613,1.288797,-0.582767,0.290600,-0.022953,0.733850,-0.208508,-0.175588,0.669053,-0.063017,-1.925311,40.550884,-24.242142,-5.427675,0.440763,2.060043,-0.169511,0.000000,0.000000,0.000000,0.000000,0.000000,0.000000
12152401.000000,-2.301843,-1.662726,1.252157,-1.453942,1.704442,1.289464,-0.582824,0.288281,-0.023333,0.734089,-0.206417,-0.172537,0.666560,-0.060591,-1.849932,40.725445,-24.341324,-5.427675,0.410551,2.085677,-0.188737,0.000000,0.000000,0.000000,0.000000,0.000000,0.000000
12152402.000000,-2.301563,-1.662740,1.252892,-1.454145,1.704279,1.290143,-0.582886,0.282331,-0.020233,0.729383,-0.206591,-0.161945,0.664253,-0.059885,-1.726946,40.749249,-24.388931,-5.475282,0.356534,2.007858,-0.182328,0.000000,0.000000,0.000000,0.000000,0.000000,0.000000
12152403.000000,-2.301293,-1.662757,1.253624,-1.454347,1.704112,1.290833,-0.582942,0.278709,-0.022291,0.725690,-0.200414,-0.163868,0.667471,-0.058214,-1.627764,40.820660,-24.265945,-5.550661,0.344633,1.923629,-0.202470,0.000000,0.000000,0.000000,0.000000,0.000000,0.000000
12152404.000000,-2.301022,-1.662773,1.254348,-1.454550,1.703944,1.291502,-0.583005,0.274547,-0.020997,0.722992,-0.200903,-0.162802,0.668527,-0.059227,-1.504779,40.896038,-24.242142,-5.550661,0.374845,1.851302,-0.163102,0.000000,0.000000,0.000000,0.000000,0.000000,0.000000
12152405.000000,-2.300750,-1.662790,1.255077,-1.454764,1.703779,1.292180,-0.583055,0.270858,-0.019886,0.722246,-0.203090,-0.161223,0.669331,-0.056936,-1.429400,40.967449,-24.071548,-5.451478,0.410551,1.877853,-0.196061,0.000000,0.000000,0.000000,0.000000,0.000000,0.000000
12152406.000000,-2.300481,-1.662797,1.255809,-1.454975,1.703609,1.292837,-0.583114,0.269248,-0.016451,0.733201,-0.211403,-0.163578,0.669602,-0.057565,-1.405596,40.919842,-23.972366,-5.427675,0.428861,1.942855,-0.175919,0.000000,0.000000,0.000000,0.000000,0.000000,0.000000
12152407.000000,-2.300209,-1.662812,1.256528,-1.455196,1.703443,1.293516,-0.583174,0.270569,-0.016778,0.728675,-0.211062,-0.164847,0.672538,-0.056954,-1.381793,40.991253,-23.825577,-5.304689,0.405057,1.942855,-0.182328,0.000000,0.000000,0.000000,0.000000,0.000000,0.000000
12152408.000000,-2.299942,-1.662813,1.257257,-1.455409,1.703266,1.294214,-0.583231,0.273353,-0.012544,0.725861,-0.212045,-0.167181,0.683575,-0.056391,-1.282611,40.872234,-23.726395,-5.276918,0.434354,1.806442,-0.196061,0.000000,0.000000,0.000000,0.000000,0.000000,0.000000
12152409.000000,-2.299675,-1.662814,1.257979,-1.455619,1.703103,1.294899,-0.583292,0.274133,-0.009172,0.727796,-0.210386,-0.165774,0.680864,-0.057313,-1.254840,40.725445,-23.750198,-5.229311,0.369352,1.721298,-0.169511,0.000000,0.000000,0.000000,0.000000,0.000000,0.000000
12152410.000000,-2.299409,-1.662818,1.258713,-1.455846,1.702942,1.295578,-0.583346,0.271767,-0.007480,0.728645,-0.214841,-0.165513,0.677113,-0.055826,-1.231036,40.602459,-23.801773,-5.054750,0.327238,1.773483,-0.202470,0.000000,0.000000,0.000000,0.000000,0.000000,0.000000
12152411.000000,-2.299141,-1.662818,1.259433,-1.456064,1.702773,1.296250,-0.583403,0.271645,-0.003174,0.720052,-0.214018,-0.164108,0.689947,-0.057018,-1.282611,40.479473,-23.702591,-4.931764,0.381254,1.838485,-0.175919,0.000000,0.000000,0.000000,0.000000,0.000000,0.000000
12152412.000000,-2.298879,-1.662825,1.260145,-1.456293,1.702600,1.296938,-0.583458,0.268176,-0.002358,0.717086,-0.217430,-0.169246,0.685806,-0.056276,-1.231036,40.455669,-23.603409,-4.733400,0.470060,1.884261,-0.188737,0.000000,0.000000,0.000000,0.000000,0.000000,0.000000
12152413.000000,-2.298614,-1.662828,1.260878,-1.456516,1.702441,1.297625,-0.583514,0.267663,-0.002508,0.715297,-0.221217,-0.168865,0.684007,-0.051125,-1.231036,40.332684,-23.702591,-4.610414,0.458158,1.890670,-0.202470,0.000000,0.000000,0.000000,0.000000,0.000000,0.000000
12152414.000000,-2.298342,-1.662828,1.261607,-1.456740,1.702280,1.298312,-0.583575,0.268653,0.000488,0.721724,-0.222238,-0.167679,0.684455,-0.053743,-1.306414,40.209698,-23.849380,-4.463624,0.416959,1.858627,-0.169511,0.000000,0.000000,0.000000,0.000000,0.000000,0.000000
12152415.000000,-2.298077,-1.662827,1.262341,-1.456969,1.702112,1.299011,-0.583625,0.266482,-0.002966,0.719601,-0.225350,-0.168916,0.691422,-0.052887,-1.254840,40.062908,-23.972366,-4.312868,0.428861,1.760665,-0.208878,0.000000,0.000000,0.000000,0.000000,0.000000,0.000000
12152416.000000,-2.297813,-1.662832,1.263074,-1.457192,1.701940,1.299706,-0.583685,0.263546,-0.005630,0.719756,-0.219739,-0.165988,0.690362,-0.050642,-1.282611,40.039104,-24.043777,-4.265260,0.470060,1.708480,-0.169511,0.000000,0.000000,0.000000,0.000000,0.000000,0.000000
12152417.000000,-2.297553,-1.662843,1.263794,-1.457415,1.701775,1.300375,-0.583740,0.259152,-0.008435,0.720823,-0.219535,-0.164597,0.687859,-0.051161,-1.254840,40.062908,-24.142960,-4.166078,0.506681,1.812850,-0.188737,0.000000,0.000000,0.000000,0.000000,0.000000,0.000000
12152418.000000,-2.297304,-1.662843,1.264522,-1.457640,1.701616,1.301037,-0.583798,0.259757,-0.007468,0.722860,-0.215380,-0.160979,0.676570,-0.052478,-1.159625,39.963726,-24.265945,-4.118471,0.506681,2.033492,-0.188737,0.000000,0.000000,0.000000,0.000000,0.000000,0.000000
12152419.000000,-2.297051,-1.662846,1.265240,-1.457855,1.701456,1.301715,-0.583857,0.256699,-0.008045,0.722617,-0.213472,-0.158256,0.676581,-0.053952,-1.008868,39.916119,-24.341324,-4.166078,0.512174,2.079269,-0.175919,0.000000,0.000000,0.000000,0.000000,0.000000,0.000000
12152420.000000,-2.296797,-1.662848,1.265956,-1.458078,1.701305,1.302405,-0.583911,0.256257,-0.004618,0.718312,-0.211603,-0.156403,0.677671,-0.053370,-0.885882,39.840740,-24.265945,-4.090700,0.482877,1.974899,-0.208878,0.000000,0.000000,0.000000,0.000000,0.000000,0.000000
12152421.000000,-2.296548,-1.662851,1.266688,-1.458304,1.701148,1.303102,-0.583970,0.253998,-0.002729,0.718373,-0.214768,-0.158337,0.684779,-0.054936,-0.810504,39.793133,-24.313553,-4.090700,0.446256,1.936446,-0.188737,0.000000,0.000000,0.000000,0.000000,0.000000,0.000000
12152422.000000,-2.296292,-1.662845,1.267398,-1.458536,1.700991,1.303781,-0.584028,0.251246,0.001042,0.713675,-0.221459,-0.155803,0.684135,-0.055144,-0.762896,39.646343,-24.265945,-3.920107,0.405057,1.930038,-0.188737,0.000000,0.000000,0.000000,0.000000,0.000000,0.000000
12152423.000000,-2.296043,-1.662845,1.268117,-1.458771,1.700832,1.304470,-0.584081,0.250236,0.001379,0.710322,-0.222470,-0.155503,0.686102,-0.054966,-0.687518,39.598736,-24.142960,-3.745546,0.422452,1.936446,-0.196061,0.000000,0.000000,0.000000,0.000000,0.000000,0.000000
12152424.000000,-2.295800,-1.662846,1.268824,-1.458996,1.700669,1.305149,-0.584139,0.246835,-0.002016,0.714962,-0.222769,-0.157570,0.690102,-0.055893,-0.635943,39.574932,-23.896988,-3.622560,0.506681,1.916305,-0.182328,0.000000,0.000000,0.000000,0.000000,0.000000,0.000000
12152425.000000,-2.295548,-1.662835,1.269530,-1.459227,1.700518,1.305835,-0.584194,0.250614,0.001584,0.718876,-0.224058,-0.157002,0.683111,-0.050267,-0.612139,39.428143,-23.750198,-3.547182,0.506681,1.916305,-0.208878,0.000000,0.000000,0.000000,0.000000,0.000000,0.000000
12152426.000000,-2.295303,-1.662822,1.270248,-1.459453,1.700372,1.306526,-0.584251,0.254289,0.004760,0.719633,-0.224291,-0.154678,0.682893,-0.052797,-0.564532,39.253582,-23.678787,-3.523378,0.482877,1.897079,-0.182328,0.000000,0.000000,0.000000,0.000000,0.000000,0.000000
12152427.000000,-2.295061,-1.662814,1.270957,-1.459677,1.700222,1.307204,-0.584299,0.248392,0.005116,0.716771,-0.221549,-0.153703,0.680004,-0.051829,-0.465350,39.158367,-23.702591,-3.499574,0.458158,1.825668,-0.229020,0.000000,0.000000,0.000000,0.000000,0.000000,0.000000
12152428.000000,-2.294816,-1.662805,1.271668,-1.459902,1.700079,1.307885,-0.584361,0.249302,0.004960,0.707106,-0.219432,-0.153051,0.678108,-0.055342,-0.441546,39.082989,-23.579605,-3.475771,0.458158,1.825668,-0.169511,0.000000,0.000000,0.000000,0.000000,0.000000,0.000000
12152429.000000,-2.294578,-1.662801,1.272391,-1.460136,1.699927,1.308564,-0.584412,0.245964,0.004261,0.709777,-0.220238,-0.154247,0.667217,-0.054263,-0.389971,39.035381,-23.702591,-3.376589,0.500272,1.871444,-0.202470,0.000000,0.000000,0.000000,0.000000,0.000000,0.000000
12152430.000000,-2.294342,-1.662799,1.273107,-1.460366,1.699781,1.309231,-0.584471,0.241737,0.003277,0.710916,-0.220761,-0.152776,0.661339,-0.055648,-0.290789,39.011578,-23.801773,-3.249635,0.458158,2.001449,-0.175919,0.000000,0.000000,0.000000,0.000000,0.000000,0.000000
12152431.000000,-2.294109,-1.662797,1.273832,-1.460586,1.699632,1.309910,-0.584527,0.240284,0.002744,0.708504,-0.216031,-0.152308,0.665569,-0.056434,-0.243182,38.983807,-23.996170,-3.202028,0.458158,1.995040,-0.155778,0.000000,0.000000,0.000000,0.000000,0.000000,0.000000
12152432.000000,-2.293868,-1.662790,1.274540,-1.460806,1.699484,1.310594,-0.584574,0.239180,0.003989,0.708043,-0.216266,-0.147659,0.678201,-0.054350,-0.191607,38.888592,-24.043777,-3.154421,0.470060,1.897079,-0.208878,0.000000,0.000000,0.000000,0.000000,0.000000,0.000000
12152433.000000,-2.293633,-1.662793,1.275263,-1.461022,1.699346,1.311287,-0.584632,0.236475,0.000938,0.711315,-0.213486,-0.143969,0.685205,-0.052020,-0.068621,38.960003,-24.265945,-3.202028,0.476469,1.825668,-0.163102,0.000000,0.000000,0.000000,0.000000,0.000000,0.000000
12152434.000000,-2.293406,-1.662798,1.275982,-1.461247,1.699202,1.311958,-0.584679,0.234181,-0.001176,0.711890,-0.215822,-0.146247,0.675431,-0.052104,0.078168,39.035381,-24.388931,-3.102846,0.488370,1.923629,-0.188737,0.000000,0.000000,0.000000,0.000000,0.000000,0.000000
12152435.000000,-2.293165,-1.662806,1.276692,-1.461451,1.699060,1.312616,-0.584726,0.238631,-0.003689,0.709672,-0.213245,-0.144958,0.673360,-0.051587,0.078168,39.158367,-24.412735,-3.178224,0.512174,2.014266,-0.229020,0.000000,0.000000,0.000000,0.000000,0.000000,0.000000
12152436.000000,-2.292942,-1.662816,1.277400,-1.461669,1.698920,1.313290,-0.584784,0.232510,-0.005914,0.704443,-0.213753,-0.141697,0.668693,-0.055420,0.228925,39.305157,-24.341324,-3.154421,0.512174,2.033492,-0.155778,0.000000,0.000000,0.000000,0.000000,0.000000,0.000000
12152437.000000,-2.292711,-1.662820,1.278107,-1.461875,1.698779,1.313959,-0.584827,0.230366,-0.005073,0.720256,-0.208917,-0.144394,0.671334,-0.052821,0.252729,39.352764,-24.289749,-3.225832,0.530485,2.039901,-0.229020,0.000000,0.000000,0.000000,0.000000,0.000000,0.000000
12152438.000000,-2.292490,-1.662828,1.278818,-1.462084,1.698644,1.314634,-0.584886,0.226043,-0.006271,0.715135,-0.206715,-0.144690,0.662312,-0.051352,0.403486,39.475750,-24.242142,-3.225832,0.470060,1.974899,-0.169511,0.000000,0.000000,0.000000,0.000000,0.000000,0.000000
12152439.000000,-2.292264,-1.662827,1.279532,-1.462292,1.698505,1.315323,-0.584930,0.227672,-0.003633,0.714214,-0.210490,-0.143859,0.666600,-0.050855,0.502668,39.451946,-24.190567,-3.154421,0.398649,1.865035,-0.215287,0.000000,0.000000,0.000000,0.000000,0.000000,0.000000
12152440.000000,-2.292040,-1.662832,1.280232,-1.462494,1.698354,1.316001,-0.584987,0.227205,-0.004099,0.710022,-0.206670,-0.144563,0.667899,-0.053853,0.625654,39.523357,-24.119156,-3.225832,0.458158,1.786300,-0.169511,0.000000,0.000000,0.000000,0.000000,0.000000,0.000000
12152441.000000,-2.291816,-1.662835,1.280935,-1.462695,1.698212,1.316683,-0.585037,0.226022,-0.003944,0.710046,-0.203538,-0.141979,0.668820,-0.053402,0.697065,39.574932,-23.948563,-3.277406,0.470060,1.800033,-0.188737,0.000000,0.000000,0.000000,0.000000,0.000000,0.000000
12152442.000000,-2.291593,-1.662839,1.281642,-1.462894,1.698070,1.317348,-0.585087,0.225075,-0.003190,0.708804,-0.207750,-0.141277,0.671046,-0.049515,0.772443,39.598736,-23.801773,-3.301210,0.518583,1.832076,-0.188737,0.000000,0.000000,0.000000,0.000000,0.000000,0.000000
12152443.000000,-2.291370,-1.662836,1.282335,-1.463092,1.697931,1.318033,-0.585140,0.224272,-0.000923,0.704783,-0.204457,-0.140488,0.673867,-0.051629,0.824018,39.547161,-23.651016,-3.348818,0.524076,1.812850,-0.175919,0.000000,0.000000,0.000000,0.000000,0.000000,0.000000
12152444.000000,-2.291155,-1.662828,1.283038,-1.463286,1.697794,1.318737,-0.585187,0.219935,0.002167,0.699345,-0.200740,-0.141537,0.679346,-0.051092,0.895429,39.428143,-23.456619,-3.475771,0.482877,1.702071,-0.221696,0.000000,0.000000,0.000000,0.000000,0.000000,0.000000
12152445.000000,-2.290934,-1.662829,1.283731,-1.463484,1.697662,1.319416,-0.585241,0.219038,0.000329,0.696540,-0.201165,-0.143265,0.675748,-0.049512,0.895429,39.475750,-23.381241,-3.475771,0.464567,1.662704,-0.175919,0.000000,0.000000,0.000000,0.000000,0.000000,0.000000
12152446.000000,-2.290709,-1.662818,1.284437,-1.463687,1.697528,1.320097,-0.585292,0.220474,0.003652,0.696734,-0.200006,-0.139648,0.678820,-0.050703,0.923200,39.328960,-23.309830,-3.376589,0.440763,1.695663,-0.188737,0.000000,0.000000,0.000000,0.000000,0.000000,0.000000
12152447.000000,-2.290483,-1.662813,1.285138,-1.463884,1.697389,1.320783,-0.585335,0.223408,0.004197,0.695041,-0.198444,-0.137150,0.672492,-0.050179,0.871625,39.253582,-23.258255,-3.325014,0.416959,1.747848,-0.241837,0.000000,0.000000,0.000000,0.000000,0.000000,0.000000
12152448.000000,-2.290254,-1.662811,1.285829,-1.464083,1.697239,1.321473,-0.585393,0.222469,0.003354,0.698776,-0.200576,-0.144061,0.671502,-0.054956,0.796247,39.229778,-23.163040,-3.249635,0.476469,1.695663,-0.155778,0.000000,0.000000,0.000000,0.000000,0.000000,0.000000
12152449.000000,-2.290031,-1.662802,1.286534,-1.464274,1.697101,1.322157,-0.585437,0.224528,0.005112,0.699631,-0.195762,-0.145959,0.667886,-0.053911,0.748639,39.106792,-23.186844,-3.301210,0.482877,1.682845,-0.188737,0.000000,0.000000,0.000000,0.000000,0.000000,0.000000
12152450.000000,-2.289803,-1.662791,1.287228,-1.464469,1.696969,1.322843,-0.585485,0.226308,0.007398,0.699293,-0.197685,-0.141312,0.675595,-0.049856,0.697065,38.936199,-23.234451,-3.277406,0.458158,1.695663,-0.188737,0.000000,0.000000,0.000000,0.000000,0.000000,0.000000
12152451.000000,-2.289573,-1.662780,1.287942,-1.464652,1.696834,1.323534,-0.585538,0.225102,0.010838,0.699590,-0.191618,-0.140544,0.685815,-0.047276,0.601850,38.813213,-23.357437,-3.400392,0.458158,1.708480,-0.175919,0.000000,0.000000,0.000000,0.000000,0.000000,0.000000
12152452.000000,-2.289355,-1.662777,1.288649,-1.464841,1.696697,1.324231,-0.585581,0.222069,0.008034,0.699218,-0.192671,-0.139483,0.686109,-0.043856,0.601850,38.789410,-23.432816,-3.475771,0.482877,1.682845,-0.202470,0.000000,0.000000,0.000000,0.000000,0.000000,0.000000
12152453.000000,-2.289132,-1.662772,1.289348,-1.465026,1.696563,1.324902,-0.585635,0.226356,0.007216,0.698129,-0.190290,-0.137891,0.686008,-0.043786,0.574079,38.717999,-23.480423,-3.547182,0.452665,1.779891,-0.163102,0.000000,0.000000,0.000000,0.000000,0.000000,0.000000
12152454.000000,-2.288913,-1.662765,1.290065,-1.465215,1.696436,1.325570,-0.585678,0.222805,0.006716,0.699974,-0.189800,-0.134637,0.678870,-0.045643,0.601850,38.642620,-23.702591,-3.547182,0.405057,1.897079,-0.188737,0.000000,0.000000,0.000000,0.000000,0.000000,0.000000
12152455.000000,-2.288681,-1.662757,1.290770,-1.465403,1.696305,1.326243,-0.585728,0.222436,0.006254,0.719119,-0.188251,-0.133248,0.679936,-0.044634,0.502668,38.571209,-23.873184,-3.475771,0.381254,1.884261,-0.163102,0.000000,0.000000,0.000000,0.000000,0.000000,0.000000
12152456.000000,-2.288459,-1.662748,1.291480,-1.465576,1.696171,1.326922,-0.585777,0.217910,0.006012,0.716479,-0.182532,-0.130274,0.675679,-0.048048,0.502668,38.495831,-23.948563,-3.570986,0.381254,1.760665,-0.149369,0.000000,0.000000,0.000000,0.000000,0.000000,0.000000
12152457.000000,-2.288231,-1.662742,1.292186,-1.465756,1.696029,1.327598,-0.585825,0.222299,0.008350,0.708316,-0.182734,-0.132556,0.673770,-0.045373,0.403486,38.448223,-23.948563,-3.622560,0.428861,1.721298,-0.149369,0.000000,0.000000,0.000000,0.000000,0.000000,0.000000
12152458.000000,-2.288005,-1.662735,1.292880,-1.465929,1.695889,1.328252,-0.585866,0.223541,0.006432,0.705280,-0.179578,-0.133710,0.667005,-0.042145,0.328107,38.424419,-23.873184,-3.697939,0.434354,1.819259,-0.182328,0.000000,0.000000,0.000000,0.000000,0.000000,0.000000
