chaoyuefei/paper-gmrm-data/robot_logs/s2_dq_gmrm_xz_max_0.50_log_20260314_175047.csv
# time_ms,q_0,q_1,q_2,q_3,q_4,q_5,q_6,dq_0,dq_1,dq_2,dq_3,dq_4,dq_5,dq_6,tau_J_0,tau_J_1,tau_J_2,tau_J_3,tau_J_4,tau_J_5,tau_J_6,O_dP_EE_c_0,O_dP_EE_c_1,O_dP_EE_c_2,O_dP_EE_c_3,O_dP_EE_c_4,O_dP_EE_c_5
13309573.000000,-0.258955,0.525643,0.336264,-1.429373,-0.177850,1.925872,0.097037,0.000538,-0.000938,0.000080,-0.000117,-0.000249,-0.000283,0.000614,-0.044818,-39.001118,4.647629,19.538450,0.990079,1.318465,-0.155778,0.000000,0.000000,0.000000,0.000000,0.000000,0.000000
13309574.000000,-0.258954,0.525644,0.336264,-1.429373,-0.177850,1.925873,0.097032,0.000915,-0.000068,0.000053,-0.000078,0.000038,0.000049,-0.001049,-0.068621,-39.024921,4.647629,19.538450,0.984586,1.312057,-0.116410,0.000000,0.000000,0.000000,0.000000,0.000000,0.000000
13309575.000000,-0.258957,0.525644,0.336266,-1.429375,-0.177850,1.925873,0.097040,-0.000596,-0.000602,0.000685,-0.000609,-0.000178,0.000270,0.001742,-0.017047,-39.001118,4.619858,19.562254,0.990079,1.305648,-0.182328,0.000000,0.000000,0.000000,0.000000,0.000000,0.000000
13309576.000000,-0.258957,0.525650,0.336264,-1.429370,-0.177849,1.925873,0.097036,-0.000398,0.001269,-0.000193,0.001265,0.000322,-0.000057,-0.000059,-0.017047,-39.072529,4.647629,19.490843,0.978177,1.312057,-0.149369,0.000000,0.000000,0.000000,0.000000,0.000000,0.000000
13309577.000000,-0.258977,0.525643,0.336266,-1.429375,-0.177847,1.925876,0.097036,-0.023606,0.004294,-0.011662,-0.006460,-0.006341,-0.008408,-0.002243,-0.465350,-38.413960,3.957321,19.268675,0.900358,1.285506,-0.089860,0.000000,0.000000,0.000000,0.000000,0.000000,0.000000
13309578.000000,-0.259004,0.525634,0.336247,-1.429377,-0.177828,1.925871,0.097056,-0.045164,0.014262,-0.032040,-0.012938,-0.005539,-0.010569,0.009686,-2.544207,-36.283527,1.945907,18.253050,0.535978,1.272689,-0.136552,0.000000,0.000000,0.000000,0.000000,0.000000,0.000000
13309579.000000,-0.259029,0.525659,0.336160,-1.429395,-0.177809,1.925864,0.097087,-0.036307,0.020336,-0.052064,-0.021266,0.002378,-0.008493,0.015670,-6.182208,-33.125568,-0.803421,16.523314,0.069974,1.285506,-0.110001,0.000000,0.000000,0.000000,0.000000,0.000000,0.000000
13309580.000000,-0.259077,0.525722,0.336027,-1.429418,-0.177829,1.925860,0.097124,-0.023350,0.024300,-0.067049,-0.027100,-0.005527,-0.008087,0.024030,-9.598041,-29.872395,-3.330582,14.027891,-0.049044,1.331283,-0.056901,0.000000,0.000000,0.000000,0.000000,0.000000,0.000000
13309581.000000,-0.259160,0.525794,0.335887,-1.429484,-0.177888,1.925861,0.097185,-0.018201,0.027387,-0.071289,-0.035620,-0.023106,-0.000654,0.039821,-11.605487,-26.785847,-5.294388,11.655455,0.159696,1.448470,-0.130143,0.000000,0.000000,0.000000,0.000000,0.000000,0.000000
13309582.000000,-0.259247,0.525884,0.335768,-1.429590,-0.177961,1.925916,0.097235,-0.028426,0.036656,-0.070627,-0.050318,-0.041607,0.016204,0.039911,-12.248187,-24.167439,-6.373489,9.699583,0.416959,1.136276,-0.023942,0.000000,0.000000,0.000000,0.000000,0.000000,0.000000
13309583.000000,-0.259306,0.525983,0.335665,-1.429697,-0.178059,1.926061,0.097300,-0.034031,0.045346,-0.070655,-0.064538,-0.061413,0.060097,0.048509,-12.125201,-22.013203,-6.421097,7.700072,0.733732,0.206100,-0.011124,0.000000,0.000000,0.000000,0.000000,0.000000,0.000000
13309584.000000,-0.259355,0.526087,0.335610,-1.429806,-0.178154,1.926236,0.097363,-0.038472,0.061510,-0.059989,-0.070856,-0.076637,0.105790,0.052245,-11.307940,-20.299335,-6.127518,5.795775,0.828947,-0.756120,0.074935,0.000000,0.000000,0.000000,0.000000,0.000000,0.000000
13309585.000000,-0.259404,0.526190,0.335587,-1.429919,-0.178226,1.926383,0.097442,-0.042816,0.073059,-0.051285,-0.078900,-0.072238,0.123461,0.059678,-10.018573,-18.756062,-5.611771,4.137450,0.494779,-1.068314,0.041976,0.000000,0.000000,0.000000,0.000000,0.000000,0.000000
13309586.000000,-0.259425,0.526293,0.335583,-1.430027,-0.178303,1.926497,0.097524,-0.042868,0.083153,-0.040837,-0.086485,-0.072005,0.126165,0.065294,-8.856158,-17.339741,-4.901627,2.705260,0.088285,-0.697526,-0.004716,0.000000,0.000000,0.000000,0.000000,0.000000,0.000000
13309587.000000,-0.259428,0.526379,0.335589,-1.430148,-0.178395,1.926627,0.097621,-0.034072,0.087534,-0.032351,-0.092685,-0.075961,0.122391,0.076002,-7.915911,-15.867878,-4.139908,1.618224,-0.228488,-0.098771,-0.103593,0.000000,0.000000,0.000000,0.000000,0.000000,0.000000
13309588.000000,-0.259438,0.526438,0.335584,-1.430292,-0.178488,1.926800,0.097710,-0.029898,0.080511,-0.029208,-0.107389,-0.080117,0.133497,0.083120,-6.900286,-14.205585,-3.183792,1.122313,-0.545260,0.310470,-0.070634,0.000000,0.000000,0.000000,0.000000,0.000000,0.000000
13309589.000000,-0.259463,0.526460,0.335572,-1.430475,-0.178601,1.927040,0.097807,-0.032770,0.058605,-0.029431,-0.134712,-0.090991,0.171438,0.086818,-5.737872,-12.098957,-2.199906,1.273070,-0.658785,0.297652,-0.097184,0.000000,0.000000,0.000000,0.000000,0.000000,0.000000
13309590.000000,-0.259500,0.526474,0.335545,-1.430703,-0.178750,1.927319,0.097912,-0.037753,0.044170,-0.033577,-0.165131,-0.107258,0.207029,0.094763,-4.547686,-10.043903,-1.144608,2.086363,-0.419833,0.115462,-0.149369,0.000000,0.000000,0.000000,0.000000,0.000000,0.000000
13309591.000000,-0.259544,0.526505,0.335502,-1.430928,-0.178928,1.927598,0.098003,-0.044569,0.038672,-0.043164,-0.187843,-0.135549,0.233264,0.090271,-3.337664,-8.330036,-0.041702,2.756834,0.046171,0.167648,-0.037675,0.000000,0.000000,0.000000,0.000000,0.000000,0.000000
13309592.000000,-0.259607,0.526567,0.335462,-1.431153,-0.179108,1.927883,0.098102,-0.050991,0.045471,-0.047792,-0.199937,-0.152302,0.247485,0.094245,-2.024493,-7.227131,0.843002,3.173399,0.446256,0.381881,0.009017,0.000000,0.000000,0.000000,0.000000,0.000000,0.000000
13309593.000000,-0.259675,0.526654,0.335436,-1.431377,-0.179282,1.928194,0.098217,-0.056234,0.060538,-0.040347,-0.213025,-0.162650,0.264452,0.101156,-0.834307,-6.616169,1.259567,3.423338,0.661405,0.551253,-0.044083,0.000000,0.000000,0.000000,0.000000,0.000000,0.000000
13309594.000000,-0.259722,0.526761,0.335417,-1.431601,-0.179421,1.928532,0.098323,-0.052736,0.076075,-0.036729,-0.214919,-0.155527,0.282277,0.103182,-0.092425,-6.274982,1.453964,3.423338,0.482877,0.597030,-0.017533,0.000000,0.000000,0.000000,0.000000,0.000000,0.000000
13309595.000000,-0.259754,0.526886,0.335404,-1.431839,-0.179541,1.928914,0.098439,-0.043413,0.095514,-0.026333,-0.221527,-0.143403,0.320358,0.106472,0.328107,-6.199604,1.406357,3.347960,0.081876,0.492660,-0.044083,0.000000,0.000000,0.000000,0.000000,0.000000,0.000000
13309596.000000,-0.259788,0.527021,0.335391,-1.432071,-0.179655,1.929323,0.098548,-0.038402,0.110904,-0.022805,-0.224809,-0.129139,0.351541,0.107397,0.649457,-6.104389,1.358749,3.050413,-0.365817,0.394698,-0.023942,0.000000,0.000000,0.000000,0.000000,0.000000,0.000000
13309597.000000,-0.259823,0.527165,0.335370,-1.432314,-0.179782,1.929721,0.098673,-0.037600,0.122434,-0.023749,-0.229895,-0.126355,0.367994,0.112607,0.923200,-6.052814,1.430160,2.729063,-0.634982,0.505477,-0.122819,0.000000,0.000000,0.000000,0.000000,0.000000,0.000000
13309598.000000,-0.259866,0.527296,0.335347,-1.432583,-0.179931,1.930151,0.098785,-0.036354,0.124657,-0.022240,-0.240304,-0.130847,0.388418,0.115238,1.268354,-5.759235,1.529343,2.506895,-0.604769,0.662032,-0.070634,0.000000,0.000000,0.000000,0.000000,0.000000,0.000000
13309599.000000,-0.259907,0.527404,0.335314,-1.432875,-0.180115,1.930616,0.098901,-0.038852,0.121181,-0.024731,-0.258304,-0.149040,0.408419,0.118478,1.613508,-5.124470,1.775314,2.582274,-0.270602,0.694076,-0.044083,0.000000,0.000000,0.000000,0.000000,0.000000,0.000000
13309600.000000,-0.259943,0.527504,0.335271,-1.433193,-0.180306,1.931113,0.099026,-0.039489,0.115885,-0.031219,-0.277875,-0.163752,0.440871,0.122095,1.863447,-4.338947,2.092697,2.828245,0.117582,0.505477,-0.056901,0.000000,0.000000,0.000000,0.000000,0.000000,0.000000
13309601.000000,-0.259976,0.527611,0.335241,-1.433526,-0.180496,1.931654,0.099142,-0.038404,0.114643,-0.030682,-0.296815,-0.174573,0.469698,0.121127,2.061811,-3.509785,2.191879,3.125792,0.405057,0.277511,0.015426,0.000000,0.000000,0.000000,0.000000,0.000000,0.000000
13309602.000000,-0.260009,0.527728,0.335227,-1.433851,-0.180671,1.932197,0.099266,-0.037164,0.117668,-0.023636,-0.305374,-0.175054,0.491975,0.125163,2.232404,-2.823445,1.997482,3.078184,0.500272,0.167648,-0.011124,0.000000,0.000000,0.000000,0.000000,0.000000,0.000000
13309603.000000,-0.260022,0.527870,0.335211,-1.434179,-0.180819,1.932750,0.099386,-0.029730,0.125007,-0.022187,-0.313924,-0.164737,0.509526,0.121264,2.109418,-2.478291,1.799118,2.828245,0.297025,0.284835,0.015426,0.000000,0.000000,0.000000,0.000000,0.000000,0.000000
13309604.000000,-0.260036,0.528020,0.335200,-1.434499,-0.180957,1.933299,0.099514,-0.021207,0.132943,-0.016229,-0.315327,-0.152788,0.515719,0.121627,1.962629,-2.283894,1.505539,2.336302,-0.037142,0.609847,-0.044083,0.000000,0.000000,0.000000,0.000000,0.000000,0.000000
13309605.000000,-0.260040,0.528187,0.335188,-1.434825,-0.181088,1.933861,0.099634,-0.016207,0.149760,-0.013339,-0.315531,-0.139474,0.527641,0.123932,1.688886,-2.212483,1.259567,1.816588,-0.384127,0.901900,-0.044083,0.000000,0.000000,0.000000,0.000000,0.000000,0.000000
13309606.000000,-0.260050,0.528363,0.335171,-1.435159,-0.181229,1.934489,0.099751,-0.015397,0.159329,-0.013791,-0.320814,-0.144117,0.550088,0.120025,1.542096,-2.137104,1.112778,1.320677,-0.634982,0.804855,-0.011124,0.000000,0.000000,0.000000,0.000000,0.000000,0.000000
13309607.000000,-0.260068,0.528560,0.335152,-1.435512,-0.181393,1.935157,0.099875,-0.014537,0.168997,-0.015125,-0.326898,-0.151104,0.596217,0.119642,1.514325,-2.184712,1.013595,1.023131,-0.665194,0.466109,-0.050492,0.000000,0.000000,0.000000,0.000000,0.000000,0.000000
13309608.000000,-0.260091,0.528763,0.335128,-1.435869,-0.181578,1.935817,0.099985,-0.015093,0.179584,-0.017781,-0.331959,-0.165843,0.611166,0.120409,1.542096,-2.260090,0.989792,0.630369,-0.426241,0.212508,0.009017,0.000000,0.000000,0.000000,0.000000,0.000000,0.000000
13309609.000000,-0.260105,0.528982,0.335101,-1.436223,-0.181774,1.936507,0.100102,-0.013468,0.194238,-0.020760,-0.336091,-0.178835,0.637203,0.118104,1.490522,-2.506062,1.013595,0.233641,-0.091158,0.044051,0.028243,0.000000,0.000000,0.000000,0.000000,0.000000,0.000000
13309610.000000,-0.260124,0.529207,0.335080,-1.436586,-0.181970,1.937206,0.100223,-0.017256,0.204126,-0.020495,-0.339696,-0.186038,0.659841,0.122025,1.490522,-2.601277,0.942184,-0.234499,0.189908,-0.066727,0.015426,0.000000,0.000000,0.000000,0.000000,0.000000,0.000000
13309611.000000,-0.260131,0.529440,0.335061,-1.436955,-0.182140,1.937944,0.100343,-0.012845,0.214831,-0.022290,-0.354237,-0.176753,0.680690,0.120120,1.343732,-2.700459,0.819198,-0.555849,0.219205,-0.183915,0.009017,0.000000,0.000000,0.000000,0.000000,0.000000,0.000000
13309612.000000,-0.260125,0.529673,0.335047,-1.437341,-0.182293,1.938697,0.100460,-0.005642,0.216838,-0.019329,-0.359276,-0.170266,0.705042,0.123407,1.022382,-2.700459,0.644638,-0.928774,0.004056,-0.248917,0.001693,0.000000,0.000000,0.000000,0.000000,0.000000,0.000000
13309613.000000,-0.260118,0.529910,0.335026,-1.437739,-0.182433,1.939456,0.100577,-0.000573,0.223390,-0.019217,-0.366496,-0.158724,0.715816,0.124511,0.697065,-2.625080,0.549423,-1.150941,-0.300814,-0.236100,0.021835,0.000000,0.000000,0.000000,0.000000,0.000000,0.000000
13309614.000000,-0.260116,0.530156,0.335004,-1.438154,-0.182587,1.940223,0.100696,-0.000263,0.229017,-0.019002,-0.381371,-0.153679,0.718659,0.123671,0.502668,-2.430683,0.450241,-1.250124,-0.527865,0.004684,-0.031266,0.000000,0.000000,0.000000,0.000000,0.000000,0.000000
13309615.000000,-0.260120,0.530414,0.334979,-1.438570,-0.182757,1.940997,0.100802,-0.003305,0.235986,-0.020520,-0.389542,-0.156357,0.735247,0.122890,0.451093,-2.331501,0.426437,-1.420717,-0.599276,0.193282,0.041976,0.000000,0.000000,0.000000,0.000000,0.000000,0.000000
13309616.000000,-0.260137,0.530671,0.334946,-1.439028,-0.182937,1.941814,0.100921,-0.008827,0.243748,-0.023816,-0.406469,-0.164850,0.754249,0.121847,0.550275,-2.212483,0.497848,-1.297731,-0.491244,0.226241,0.009017,0.000000,0.000000,0.000000,0.000000,0.000000,0.000000
13309617.000000,-0.260164,0.530946,0.334912,-1.439490,-0.183124,1.942669,0.101035,-0.014778,0.253837,-0.026071,-0.427117,-0.173233,0.781682,0.120460,0.748639,-2.160908,0.573227,-1.075563,-0.294406,0.141097,-0.011124,0.000000,0.000000,0.000000,0.000000,0.000000,0.000000
13309618.000000,-0.260188,0.531227,0.334880,-1.439973,-0.183299,1.943544,0.101138,-0.017302,0.265650,-0.029473,-0.444613,-0.176787,0.816717,0.114752,0.871625,-2.212483,0.597031,-0.829591,-0.162570,-0.098771,0.087753,0.000000,0.000000,0.000000,0.000000,0.000000,0.000000
13309619.000000,-0.260218,0.531532,0.334850,-1.440461,-0.183477,1.944448,0.101258,-0.020443,0.279455,-0.031426,-0.462427,-0.178600,0.839793,0.120397,1.069990,-2.406880,0.597031,-0.678835,-0.049044,-0.320329,0.034652,0.000000,0.000000,0.000000,0.000000,0.000000,0.000000
13309620.000000,-0.260237,0.531863,0.334814,-1.440957,-0.183643,1.945338,0.101372,-0.019044,0.293414,-0.031406,-0.470592,-0.173296,0.859409,0.118146,1.121564,-2.771870,0.668442,-0.706606,-0.109469,-0.307511,0.048385,0.000000,0.000000,0.000000,0.000000,0.000000,0.000000
13309621.000000,-0.260255,0.532195,0.334780,-1.441474,-0.183807,1.946243,0.101489,-0.016011,0.306950,-0.032829,-0.480824,-0.172541,0.871894,0.116661,1.216779,-3.164631,0.668442,-0.730409,-0.222994,-0.112504,0.054794,0.000000,0.000000,0.000000,0.000000,0.000000,0.000000
13309622.000000,-0.260270,0.532538,0.334744,-1.442003,-0.183976,1.947181,0.101609,-0.018404,0.315641,-0.030794,-0.499216,-0.171507,0.893305,0.116883,1.244550,-3.533589,0.668442,-0.706606,-0.348422,0.031234,0.021835,0.000000,0.000000,0.000000,0.000000,0.000000,0.000000
13309623.000000,-0.260292,0.532877,0.334703,-1.442570,-0.184141,1.948125,0.101721,-0.019186,0.324604,-0.034176,-0.519110,-0.170437,0.910829,0.109780,1.343732,-3.680378,0.743820,-0.508241,-0.479342,0.037643,0.054794,0.000000,0.000000,0.000000,0.000000,0.000000,0.000000
13309624.000000,-0.260326,0.533207,0.334660,-1.443145,-0.184309,1.949114,0.101837,-0.024031,0.326220,-0.036614,-0.534638,-0.169838,0.929697,0.110858,1.641279,-3.656574,0.819198,-0.309877,-0.509554,-0.047501,0.048385,0.000000,0.000000,0.000000,0.000000,0.000000,0.000000
13309625.000000,-0.260358,0.533551,0.334609,-1.443755,-0.184490,1.950118,0.101946,-0.025987,0.332265,-0.039907,-0.558484,-0.173943,0.966312,0.110830,1.887250,-3.557392,0.965988,0.011473,-0.407931,-0.106095,0.067611,0.000000,0.000000,0.000000,0.000000,0.000000,0.000000
13309626.000000,-0.260398,0.533890,0.334554,-1.444382,-0.184673,1.951114,0.102061,-0.029656,0.333395,-0.045756,-0.576362,-0.178071,0.975045,0.110348,2.232404,-3.410603,1.136581,0.356627,-0.270602,-0.008134,0.087753,0.000000,0.000000,0.000000,0.000000,0.000000,0.000000
13309627.000000,-0.260437,0.534247,0.334501,-1.445014,-0.184857,1.952136,0.102175,-0.034107,0.341817,-0.049101,-0.593994,-0.179458,0.988262,0.111648,2.529951,-3.311421,1.259567,0.606566,-0.157076,0.167648,0.074935,0.000000,0.000000,0.000000,0.000000,0.000000,0.000000
13309628.000000,-0.260476,0.534607,0.334441,-1.445663,-0.185039,1.953173,0.102289,-0.036983,0.343561,-0.052675,-0.607462,-0.181263,1.011633,0.112050,2.779890,-3.140827,1.430160,0.677977,-0.150668,0.147506,0.074935,0.000000,0.000000,0.000000,0.000000,0.000000,0.000000
13309629.000000,-0.260512,0.534985,0.334385,-1.446313,-0.185207,1.954237,0.102403,-0.037352,0.352639,-0.053635,-0.634304,-0.177899,1.020455,0.113109,2.950483,-3.287617,1.529343,0.753355,-0.276095,0.063277,0.054794,0.000000,0.000000,0.000000,0.000000,0.000000,0.000000
13309630.000000,-0.260545,0.535373,0.334332,-1.446983,-0.185376,1.955299,0.102515,-0.034933,0.354921,-0.053747,-0.638696,-0.172383,1.020919,0.111436,3.002058,-3.950154,1.604721,1.197691,-0.365817,0.023910,0.100570,0.000000,0.000000,0.000000,0.000000,0.000000,0.000000
13309631.000000,-0.260578,0.535765,0.334280,-1.447640,-0.185545,1.956367,0.102644,-0.033857,0.361938,-0.051338,-0.632216,-0.171096,1.034604,0.119759,2.978254,-5.541035,1.699936,1.915770,-0.389620,0.023910,0.009017,0.000000,0.000000,0.000000,0.000000,0.000000,0.000000
13309632.000000,-0.260630,0.536159,0.334225,-1.448284,-0.185718,1.957441,0.102759,-0.037599,0.369882,-0.055132,-0.631015,-0.172177,1.042781,0.117245,3.125043,-7.766682,1.898300,3.224974,-0.353915,0.121871,0.028243,0.000000,0.000000,0.000000,0.000000,0.000000,0.000000
13309633.000000,-0.260677,0.536539,0.334172,-1.448926,-0.185902,1.958509,0.102870,-0.042707,0.376842,-0.054466,-0.631709,-0.178058,1.050432,0.113759,3.172651,-10.166889,2.092697,4.978514,-0.180880,0.271102,0.094161,0.000000,0.000000,0.000000,0.000000,0.000000,0.000000
13309634.000000,-0.260717,0.536887,0.334110,-1.449563,-0.186081,1.959597,0.102993,-0.042379,0.372479,-0.061140,-0.630276,-0.177896,1.052253,0.115049,3.101240,-12.392536,2.461654,6.981993,0.010465,0.401107,0.061202,0.000000,0.000000,0.000000,0.000000,0.000000,0.000000
13309635.000000,-0.260755,0.537231,0.334047,-1.450196,-0.186261,1.960668,0.103105,-0.037435,0.368005,-0.064492,-0.638685,-0.178821,1.052498,0.113129,2.950483,-14.499165,2.779037,9.179869,0.129484,0.681258,0.100570,0.000000,0.000000,0.000000,0.000000,0.000000,0.000000
13309636.000000,-0.260789,0.537571,0.333992,-1.450823,-0.186438,1.961716,0.103228,-0.038085,0.367831,-0.063512,-0.635896,-0.176337,1.051007,0.114226,2.779890,-16.407429,2.953598,11.234922,0.154203,1.025497,0.067611,0.000000,0.000000,0.000000,0.000000,0.000000,0.000000
13309637.000000,-0.260811,0.537926,0.333927,-1.451434,-0.186618,1.962784,0.103348,-0.034589,0.367367,-0.061998,-0.632344,-0.173972,1.050141,0.118226,2.482343,-18.244282,3.223373,12.813902,0.154203,1.182052,0.061202,0.000000,0.000000,0.000000,0.000000,0.000000,0.000000
13309638.000000,-0.260832,0.538292,0.333862,-1.452043,-0.186794,1.963814,0.103465,-0.029803,0.370206,-0.065851,-0.627937,-0.175211,1.041825,0.115668,2.208601,-20.081135,3.445541,14.051695,0.105680,1.487838,0.081344,0.000000,0.000000,0.000000,0.000000,0.000000,0.000000
13309639.000000,-0.260850,0.538656,0.333799,-1.452662,-0.186968,1.964844,0.103592,-0.025884,0.370055,-0.067158,-0.626358,-0.172154,1.025989,0.117260,1.911054,-21.672016,3.592331,15.039549,0.064481,1.800033,0.021835,0.000000,0.000000,0.000000,0.000000,0.000000,0.000000
13309640.000000,-0.260863,0.539045,0.333736,-1.453275,-0.187144,1.965900,0.103707,-0.023174,0.375520,-0.067737,-0.623074,-0.174113,1.033950,0.120288,1.613508,-23.235126,3.715317,15.757627,0.022367,1.819259,0.034652,0.000000,0.000000,0.000000,0.000000,0.000000,0.000000
13309641.000000,-0.260873,0.539446,0.333661,-1.453884,-0.187329,1.966935,0.103830,-0.022242,0.382570,-0.067965,-0.616051,-0.178981,1.028852,0.118350,1.315961,-24.754597,3.957321,16.150389,0.081876,1.773483,0.021835,0.000000,0.000000,0.000000,0.000000,0.000000,0.000000
13309642.000000,-0.260889,0.539868,0.333583,-1.454471,-0.187530,1.967977,0.103946,-0.019963,0.399971,-0.070696,-0.602654,-0.189285,1.030018,0.114482,1.121564,-26.369282,4.179489,16.225767,0.171598,1.637069,0.094161,0.000000,0.000000,0.000000,0.000000,0.000000,0.000000
13309643.000000,-0.260896,0.540312,0.333504,-1.455069,-0.187735,1.969021,0.104080,-0.016770,0.409540,-0.072025,-0.596556,-0.191323,1.057315,0.116492,0.871625,-27.864948,4.377853,16.126585,0.243009,1.539108,0.034652,0.000000,0.000000,0.000000,0.000000,0.000000,0.000000
13309644.000000,-0.260909,0.540757,0.333425,-1.455676,-0.187941,1.970035,0.104203,-0.016707,0.422263,-0.071589,-0.592345,-0.194064,1.044372,0.114435,0.724836,-29.281269,4.524643,16.102781,0.351041,1.487838,0.061202,0.000000,0.000000,0.000000,0.000000,0.000000,0.000000
13309645.000000,-0.260903,0.541213,0.333354,-1.456271,-0.188145,1.971068,0.104321,-0.008178,0.431129,-0.072532,-0.596491,-0.198125,1.032296,0.111786,0.351911,-30.530964,4.572250,16.078978,0.398649,1.461288,0.120712,0.000000,0.000000,0.000000,0.000000,0.000000,0.000000
13309646.000000,-0.260894,0.541677,0.333279,-1.456866,-0.188339,1.972098,0.104457,-0.002729,0.439168,-0.073412,-0.583814,-0.197590,1.027809,0.119701,0.006757,-31.681477,4.619858,15.955992,0.339139,1.350509,0.048385,0.000000,0.000000,0.000000,0.000000,0.000000,0.000000
13309647.000000,-0.260876,0.542135,0.333210,-1.457467,-0.188527,1.973131,0.104578,0.002916,0.445669,-0.072706,-0.598378,-0.191764,1.029184,0.121313,-0.413775,-32.562214,4.596054,15.979795,0.249418,1.350509,0.087753,0.000000,0.000000,0.000000,0.000000,0.000000,0.000000
13309648.000000,-0.260860,0.542591,0.333144,-1.458080,-0.188726,1.974149,0.104703,0.005293,0.444378,-0.070682,-0.600252,-0.193610,1.025557,0.125075,-0.762896,-33.296162,4.500839,16.027403,0.207303,1.494247,0.061202,0.000000,0.000000,0.000000,0.000000,0.000000,0.000000
13309649.000000,-0.260839,0.543054,0.333074,-1.458704,-0.188925,1.975148,0.104828,0.011264,0.452156,-0.070541,-0.607752,-0.195420,1.019296,0.122028,-1.159625,-34.057880,4.449265,16.225767,0.154203,1.624252,0.054794,0.000000,0.000000,0.000000,0.000000,0.000000,0.000000
13309650.000000,-0.260824,0.543529,0.333004,-1.459314,-0.189133,1.976163,0.104952,0.012104,0.455467,-0.070621,-0.608596,-0.195997,1.015030,0.124517,-1.405596,-34.839436,4.401657,16.471739,0.207303,1.682845,0.054794,0.000000,0.000000,0.000000,0.000000,0.000000,0.000000
13309651.000000,-0.260812,0.544023,0.332931,-1.459937,-0.189337,1.977167,0.105082,0.011283,0.466099,-0.069251,-0.609667,-0.195987,1.007711,0.127197,-1.580157,-35.672565,4.425461,16.646299,0.255826,1.662704,0.034652,0.000000,0.000000,0.000000,0.000000,0.000000,0.000000
13309652.000000,-0.260808,0.544502,0.332873,-1.460571,-0.189537,1.978197,0.105207,0.008541,0.471337,-0.066820,-0.611247,-0.195742,1.014414,0.125909,-1.651568,-36.382710,4.254868,16.943846,0.303434,1.584884,0.100570,0.000000,0.000000,0.000000,0.000000,0.000000,0.000000
13309653.000000,-0.260800,0.545014,0.332813,-1.461191,-0.189740,1.979218,0.105337,0.006968,0.480164,-0.066451,-0.615830,-0.195599,1.014899,0.123832,-1.726946,-37.334858,4.131882,17.166014,0.369352,1.584884,0.074935,0.000000,0.000000,0.000000,0.000000,0.000000,0.000000
13309654.000000,-0.260799,0.545545,0.332756,-1.461822,-0.189933,1.980217,0.105461,0.003165,0.506859,-0.065723,-0.614355,-0.197157,1.014291,0.120533,-1.679339,-38.437763,3.985092,17.364378,0.344633,1.611434,0.087753,0.000000,0.000000,0.000000,0.000000,0.000000,0.000000
13309655.000000,-0.260791,0.546081,0.332706,-1.462433,-0.190129,1.981241,0.105588,0.004964,0.512183,-0.062991,-0.610627,-0.197124,1.016414,0.123790,-1.679339,-39.489094,3.739120,17.364378,0.279630,1.526290,0.061202,0.000000,0.000000,0.000000,0.000000,0.000000,0.000000
13309656.000000,-0.260784,0.546617,0.332656,-1.463071,-0.190319,1.982238,0.105713,0.005835,0.520150,-0.055347,-0.616611,-0.195935,1.025060,0.124628,-1.651568,-40.322224,3.516952,17.610350,0.178007,1.519881,0.094161,0.000000,0.000000,0.000000,0.000000,0.000000,0.000000
13309657.000000,-0.260771,0.547134,0.332601,-1.463702,-0.190513,1.983267,0.105838,0.009035,0.518419,-0.056221,-0.619401,-0.193776,1.020833,0.126338,-1.703143,-40.933186,3.445541,17.784910,0.159696,1.461288,0.094161,0.000000,0.000000,0.000000,0.000000,0.000000,0.000000
13309658.000000,-0.260768,0.547673,0.332550,-1.464329,-0.190707,1.984294,0.105967,0.004789,0.522626,-0.053201,-0.620673,-0.187212,1.018190,0.129116,-1.627764,-41.520344,3.346359,18.054686,0.147794,1.474105,0.061202,0.000000,0.000000,0.000000,0.000000,0.000000,0.000000
13309659.000000,-0.260772,0.548197,0.332502,-1.464971,-0.190904,1.985298,0.106083,0.000155,0.520633,-0.049747,-0.623873,-0.193503,1.012043,0.127712,-1.480975,-41.960712,3.199569,18.352232,0.207303,1.532699,0.114303,0.000000,0.000000,0.000000,0.000000,0.000000,0.000000
13309660.000000,-0.260776,0.548715,0.332447,-1.465605,-0.191096,1.986311,0.106216,0.000046,0.515085,-0.050639,-0.628088,-0.198373,1.010093,0.129916,-1.330218,-42.353474,3.199569,18.673582,0.243009,1.572067,0.081344,0.000000,0.000000,0.000000,0.000000,0.000000,0.000000
13309661.000000,-0.260784,0.549248,0.332391,-1.466259,-0.191300,1.987324,0.106340,-0.004122,0.519312,-0.054642,-0.638219,-0.202710,1.031313,0.129446,-1.131854,-42.722431,3.223373,19.169493,0.308927,1.630660,0.107894,0.000000,0.000000,0.000000,0.000000,0.000000,0.000000
13309662.000000,-0.260793,0.549762,0.332334,-1.466908,-0.191497,1.988318,0.106474,-0.004519,0.517574,-0.053876,-0.636268,-0.199110,1.011689,0.130693,-0.909686,-42.940632,3.223373,19.562254,0.315336,1.702071,0.087753,0.000000,0.000000,0.000000,0.000000,0.000000,0.000000
13309663.000000,-0.260803,0.550300,0.332279,-1.467556,-0.191691,1.989327,0.106601,-0.006567,0.520141,-0.053127,-0.639897,-0.195035,1.007040,0.131055,-0.735125,-43.309589,3.223373,20.034361,0.291532,1.721298,0.087753,0.000000,0.000000,0.000000,0.000000,0.000000,0.000000
13309664.000000,-0.260817,0.550827,0.332217,-1.468199,-0.191884,1.990317,0.106726,-0.009735,0.521156,-0.057224,-0.637262,-0.192350,1.005530,0.129525,-0.489153,-43.503986,3.294784,20.327940,0.261320,1.851302,0.120712,0.000000,0.000000,0.000000,0.000000,0.000000,0.000000
13309665.000000,-0.260824,0.551358,0.332155,-1.468836,-0.192069,1.991312,0.106858,-0.007955,0.520961,-0.057195,-0.652546,-0.188559,0.999503,0.132207,-0.413775,-43.773762,3.370163,20.649290,0.183500,1.981307,0.067611,0.000000,0.000000,0.000000,0.000000,0.000000,0.000000
13309666.000000,-0.260839,0.551894,0.332092,-1.469468,-0.192256,1.992315,0.106979,-0.007957,0.521511,-0.060122,-0.641928,-0.186509,1.002012,0.130849,-0.290789,-43.968159,3.445541,20.823851,0.135892,2.053634,0.100570,0.000000,0.000000,0.000000,0.000000,0.000000,0.000000
13309667.000000,-0.260851,0.552422,0.332018,-1.470116,-0.192450,1.993299,0.107111,-0.010287,0.526557,-0.064572,-0.638116,-0.185740,0.994492,0.132175,-0.215411,-44.190327,3.616134,21.069822,0.093778,2.125045,0.067611,0.000000,0.000000,0.000000,0.000000,0.000000,0.000000
13309668.000000,-0.260865,0.552960,0.331945,-1.470753,-0.192650,1.994296,0.107227,-0.011820,0.521703,-0.067117,-0.636046,-0.187863,0.985217,0.130024,-0.144000,-44.436298,3.762924,21.291990,0.123990,2.112228,0.120712,0.000000,0.000000,0.000000,0.000000,0.000000,0.000000
13309669.000000,-0.260877,0.553504,0.331867,-1.471391,-0.192858,1.995295,0.107358,-0.010022,0.527591,-0.069791,-0.636808,-0.191560,0.988517,0.131892,-0.068621,-44.678303,3.957321,21.391172,0.219205,2.001449,0.087753,0.000000,0.000000,0.000000,0.000000,0.000000,0.000000
13309670.000000,-0.260889,0.554029,0.331782,-1.472030,-0.193060,1.996292,0.107487,-0.011310,0.529391,-0.073017,-0.630111,-0.194708,0.988619,0.133141,-0.017047,-44.801289,4.203293,21.514158,0.327238,1.949264,0.054794,0.000000,0.000000,0.000000,0.000000,0.000000,0.000000
13309671.000000,-0.260905,0.554560,0.331690,-1.472650,-0.193267,1.997288,0.107611,-0.013372,0.523128,-0.076954,-0.624484,-0.199775,0.994491,0.131320,0.078168,-44.777485,4.524643,21.466551,0.410551,1.968490,0.094161,0.000000,0.000000,0.000000,0.000000,0.000000,0.000000
13309672.000000,-0.260917,0.555100,0.331595,-1.473282,-0.193462,1.998265,0.107740,-0.013643,0.535185,-0.081513,-0.619901,-0.195689,0.990905,0.132247,0.105939,-44.876667,4.794418,21.466551,0.393156,1.974899,0.067611,0.000000,0.000000,0.000000,0.000000,0.000000,0.000000
13309673.000000,-0.260926,0.555617,0.331501,-1.473889,-0.193669,1.999258,0.107860,-0.010403,0.530887,-0.087542,-0.617174,-0.202061,0.981869,0.129768,0.129743,-44.801289,5.040390,21.291990,0.369352,1.930038,0.114303,0.000000,0.000000,0.000000,0.000000,0.000000,0.000000
13309674.000000,-0.260931,0.556139,0.331404,-1.474498,-0.193870,2.000242,0.107989,-0.006292,0.523979,-0.088023,-0.612040,-0.199036,0.997645,0.127070,0.078168,-44.583088,5.258591,21.097593,0.261320,2.072860,0.067611,0.000000,0.000000,0.000000,0.000000,0.000000,0.000000
13309675.000000,-0.260937,0.556651,0.331303,-1.475098,-0.194075,2.001224,0.108113,-0.004060,0.520621,-0.091932,-0.601824,-0.200204,0.988630,0.122939,0.054365,-44.384724,5.504562,20.748472,0.231107,2.072860,0.081344,0.000000,0.000000,0.000000,0.000000,0.000000,0.000000
13309676.000000,-0.260945,0.557169,0.331199,-1.475686,-0.194280,2.002222,0.108232,-0.006740,0.516459,-0.097240,-0.596911,-0.200828,0.996293,0.124490,0.078168,-44.261738,5.702927,20.478697,0.207303,2.047225,0.100570,0.000000,0.000000,0.000000,0.000000,0.000000,0.000000
13309677.000000,-0.260955,0.557687,0.331091,-1.476283,-0.194485,2.003207,0.108361,-0.009327,0.514430,-0.098108,-0.593109,-0.202183,0.993683,0.127889,0.129743,-44.043537,5.897324,20.280333,0.195402,2.007858,0.054794,0.000000,0.000000,0.000000,0.000000,0.000000,0.000000
13309678.000000,-0.260965,0.558199,0.330986,-1.476852,-0.194701,2.004221,0.108481,-0.008618,0.515881,-0.098265,-0.592816,-0.206920,0.990159,0.122713,0.205121,-43.920551,6.067917,19.982786,0.285123,1.838485,0.094161,0.000000,0.000000,0.000000,0.000000,0.000000,0.000000
13309679.000000,-0.260972,0.558713,0.330874,-1.477421,-0.194921,2.005251,0.108606,-0.007336,0.510135,-0.099559,-0.579846,-0.209310,0.998358,0.126509,0.252729,-43.821369,6.290085,19.685240,0.356534,1.682845,0.054794,0.000000,0.000000,0.000000,0.000000,0.000000,0.000000
13309680.000000,-0.260980,0.559235,0.330768,-1.477989,-0.195143,2.006240,0.108730,-0.007012,0.517330,-0.100319,-0.571124,-0.214679,0.996617,0.126542,0.328107,-43.773762,6.365463,19.415464,0.393156,1.708480,0.081344,0.000000,0.000000,0.000000,0.000000,0.000000,0.000000
13309681.000000,-0.260985,0.559753,0.330663,-1.478539,-0.195360,2.007249,0.108862,-0.006057,0.517548,-0.101043,-0.566498,-0.212224,0.998642,0.124277,0.375715,-43.650776,6.436874,19.217100,0.393156,1.708480,0.048385,0.000000,0.000000,0.000000,0.000000,0.000000,0.000000
13309682.000000,-0.260987,0.560275,0.330555,-1.479083,-0.195576,2.008249,0.108985,-0.004239,0.509819,-0.102259,-0.550891,-0.214638,1.004430,0.123960,0.375715,-43.579365,6.536057,18.947325,0.369352,1.656295,0.107894,0.000000,0.000000,0.000000,0.000000,0.000000,0.000000
13309683.000000,-0.260990,0.560797,0.330454,-1.479628,-0.195780,2.009257,0.109113,-0.003627,0.517043,-0.100565,-0.541569,-0.210534,1.001972,0.121125,0.403486,-43.527790,6.512253,18.721189,0.308927,1.662704,0.114303,0.000000,0.000000,0.000000,0.000000,0.000000,0.000000
13309684.000000,-0.260992,0.561316,0.330357,-1.480158,-0.195987,2.010270,0.109247,-0.003088,0.518279,-0.097755,-0.539571,-0.207160,0.993964,0.125383,0.427289,-43.480183,6.413071,18.598204,0.249418,1.727706,0.074935,0.000000,0.000000,0.000000,0.000000,0.000000,0.000000
13309685.000000,-0.260994,0.561836,0.330258,-1.480689,-0.196194,2.011276,0.109376,-0.002700,0.523193,-0.097737,-0.530807,-0.210377,0.994727,0.126506,0.451093,-43.555561,6.389267,18.475218,0.201810,1.747848,0.081344,0.000000,0.000000,0.000000,0.000000,0.000000,0.000000
13309686.000000,-0.260997,0.562373,0.330167,-1.481221,-0.196408,2.012287,0.109509,-0.003070,0.531474,-0.095559,-0.533361,-0.209767,0.991628,0.129151,0.502668,-43.726154,6.266281,18.574400,0.195402,1.800033,0.048385,0.000000,0.000000,0.000000,0.000000,0.000000,0.000000
13309687.000000,-0.260999,0.562909,0.330069,-1.481760,-0.196619,2.013289,0.109633,-0.003208,0.533354,-0.093040,-0.531835,-0.210128,0.999434,0.127995,0.550275,-43.849140,6.242477,18.820372,0.219205,1.779891,0.094161,0.000000,0.000000,0.000000,0.000000,0.000000,0.000000
13309688.000000,-0.260999,0.563441,0.329973,-1.482306,-0.196826,2.014303,0.109765,0.002908,0.529887,-0.095557,-0.532178,-0.210394,1.007289,0.129739,0.601850,-44.043537,6.266281,19.169493,0.243009,1.702071,0.074935,0.000000,0.000000,0.000000,0.000000,0.000000,0.000000
13309689.000000,-0.261005,0.563985,0.329881,-1.482850,-0.197039,2.015308,0.109891,0.000209,0.533654,-0.092600,-0.540253,-0.211757,0.993698,0.129103,0.697065,-44.289509,6.218674,19.590025,0.315336,1.735030,0.107894,0.000000,0.000000,0.000000,0.000000,0.000000,0.000000
13309690.000000,-0.261007,0.564526,0.329798,-1.483399,-0.197250,2.016290,0.110025,-0.000138,0.530857,-0.085467,-0.536646,-0.215711,0.986213,0.130449,0.724836,-44.408527,6.095688,19.958982,0.362943,1.851302,0.087753,0.000000,0.000000,0.000000,0.000000,0.000000,0.000000
13309691.000000,-0.261007,0.565068,0.329716,-1.483940,-0.197463,2.017279,0.110164,0.000188,0.533605,-0.083494,-0.538821,-0.216997,0.981925,0.131366,0.724836,-44.583088,5.972702,20.232725,0.332731,2.001449,0.074935,0.000000,0.000000,0.000000,0.000000,0.000000,0.000000
13309692.000000,-0.261005,0.565616,0.329635,-1.484487,-0.197676,2.018267,0.110287,0.000985,0.539049,-0.078866,-0.542710,-0.208718,0.996233,0.129606,0.697065,-44.801289,5.849716,20.454893,0.308927,2.085677,0.127120,0.000000,0.000000,0.000000,0.000000,0.000000,0.000000
13309693.000000,-0.261001,0.566158,0.329556,-1.485043,-0.197880,2.019237,0.110424,0.001927,0.539861,-0.078357,-0.542295,-0.210270,0.990379,0.132522,0.649457,-44.999653,5.726730,20.800047,0.231107,2.157089,0.054794,0.000000,0.000000,0.000000,0.000000,0.000000,0.000000
13309694.000000,-0.260996,0.566707,0.329484,-1.485594,-0.198083,2.020236,0.110548,0.002517,0.541796,-0.074156,-0.544456,-0.206697,0.983812,0.131565,0.601850,-45.146442,5.556137,21.121397,0.159696,1.988631,0.074935,0.000000,0.000000,0.000000,0.000000,0.000000,0.000000
13309695.000000,-0.260989,0.567255,0.329402,-1.486153,-0.198298,2.021209,0.110677,0.002973,0.543197,-0.074463,-0.550875,-0.208590,0.980648,0.131843,0.550275,-45.265461,5.528366,21.418943,0.195402,1.930038,0.067611,0.000000,0.000000,0.000000,0.000000,0.000000,0.000000
13309696.000000,-0.260986,0.567799,0.329321,-1.486705,-0.198515,2.022184,0.110808,0.005188,0.541225,-0.078396,-0.558838,-0.215926,0.976077,0.131130,0.550275,-45.388447,5.528366,21.688719,0.273221,2.007858,0.081344,0.000000,0.000000,0.000000,0.000000,0.000000,0.000000
13309697.000000,-0.260979,0.568357,0.329242,-1.487264,-0.198742,2.023155,0.110937,0.004327,0.546148,-0.076731,-0.558096,-0.221581,0.972785,0.136808,0.526471,-45.535236,5.480759,21.934690,0.374845,2.112228,0.061202,0.000000,0.000000,0.000000,0.000000,0.000000,0.000000
13309698.000000,-0.260970,0.568883,0.329160,-1.487826,-0.198967,2.024111,0.111063,0.006736,0.543278,-0.077353,-0.561839,-0.221641,0.971784,0.133320,0.502668,-45.364643,5.504562,22.109251,0.482877,2.183639,0.114303,0.000000,0.000000,0.000000,0.000000,0.000000,0.000000
13309699.000000,-0.260953,0.569409,0.329082,-1.488377,-0.199188,2.025092,0.111199,0.006685,0.532134,-0.077001,-0.555363,-0.221949,0.965131,0.133855,0.427289,-45.047260,5.504562,22.256041,0.482877,2.118636,0.094161,0.000000,0.000000,0.000000,0.000000,0.000000,0.000000
13309700.000000,-0.260939,0.569946,0.329009,-1.488935,-0.199405,2.026070,0.111340,0.009141,0.533302,-0.074284,-0.552702,-0.220432,0.964198,0.134065,0.375715,-44.852863,5.405380,22.382994,0.422452,1.981307,0.061202,0.000000,0.000000,0.000000,0.000000,0.000000,0.000000
13309701.000000,-0.260919,0.570466,0.328937,-1.489488,-0.199612,2.027052,0.111469,0.010033,0.530752,-0.073688,-0.555077,-0.219030,0.962826,0.131551,0.228925,-44.630695,5.357773,22.406797,0.344633,1.995040,0.114303,0.000000,0.000000,0.000000,0.000000,0.000000,0.000000
13309702.000000,-0.260896,0.570998,0.328860,-1.490031,-0.199832,2.028015,0.111608,0.014825,0.526555,-0.076387,-0.549130,-0.218854,0.962375,0.134189,0.030561,-44.483906,5.310165,22.478209,0.303434,2.112228,0.048385,0.000000,0.000000,0.000000,0.000000,0.000000,0.000000
13309703.000000,-0.260879,0.571520,0.328780,-1.490574,-0.200058,2.028961,0.111735,0.015317,0.534860,-0.080065,-0.542083,-0.221019,0.964911,0.131245,-0.044818,-44.261738,5.333969,22.478209,0.303434,2.280685,0.100570,0.000000,0.000000,0.000000,0.000000,0.000000,0.000000
13309704.000000,-0.260862,0.572050,0.328700,-1.491114,-0.200289,2.029918,0.111865,0.014596,0.534188,-0.080190,-0.543460,-0.225599,0.952751,0.130515,-0.068621,-44.142719,5.381577,22.577391,0.386747,2.423507,0.107894,0.000000,0.000000,0.000000,0.000000,0.000000,0.000000
13309705.000000,-0.260842,0.572582,0.328621,-1.491658,-0.200516,2.030884,0.112000,0.015920,0.526865,-0.078833,-0.538349,-0.226355,0.956132,0.127050,-0.167803,-43.995930,5.381577,22.676573,0.410551,2.404281,0.087753,0.000000,0.000000,0.000000,0.000000,0.000000,0.000000
13309706.000000,-0.260822,0.573098,0.328541,-1.492206,-0.200733,2.031872,0.112131,0.016896,0.523485,-0.081110,-0.535891,-0.221051,0.967922,0.128248,-0.266986,-43.674580,5.381577,22.851133,0.398649,2.274276,0.087753,0.000000,0.000000,0.000000,0.000000,0.000000,0.000000
13309707.000000,-0.260799,0.573625,0.328459,-1.492732,-0.200957,2.032866,0.112264,0.018708,0.524676,-0.079604,-0.534649,-0.221980,0.972286,0.130531,-0.413775,-43.527790,5.381577,22.926512,0.405057,2.112228,0.054794,0.000000,0.000000,0.000000,0.000000,0.000000,0.000000
13309708.000000,-0.260775,0.574168,0.328384,-1.493264,-0.201185,2.033823,0.112394,0.016366,0.523818,-0.076834,-0.528484,-0.230923,0.974749,0.128344,-0.540728,-43.527790,5.310165,22.950315,0.405057,2.098495,0.114303,0.000000,0.000000,0.000000,0.000000,0.000000,0.000000
13309709.000000,-0.260757,0.574712,0.328312,-1.493780,-0.201422,2.034776,0.112534,0.019559,0.531924,-0.076925,-0.522463,-0.231402,0.953586,0.135887,-0.612139,-43.650776,5.187180,22.997923,0.452665,2.248641,0.067611,0.000000,0.000000,0.000000,0.000000,0.000000,0.000000
13309710.000000,-0.260738,0.575255,0.328237,-1.494295,-0.201660,2.035737,0.112666,0.020846,0.535786,-0.076769,-0.518770,-0.230990,0.946460,0.133743,-0.635943,-43.749958,5.187180,23.073301,0.488370,2.378646,0.087753,0.000000,0.000000,0.000000,0.000000,0.000000,0.000000
13309711.000000,-0.260714,0.575794,0.328163,-1.494819,-0.201891,2.036693,0.112802,0.023129,0.533089,-0.077548,-0.516883,-0.229467,0.949820,0.133827,-0.711321,-43.849140,5.111801,23.196287,0.482877,2.391464,0.067611,0.000000,0.000000,0.000000,0.000000,0.000000,0.000000
13309712.000000,-0.260691,0.576333,0.328086,-1.495333,-0.202122,2.037672,0.112938,0.024464,0.533464,-0.079855,-0.517126,-0.228265,0.955618,0.132628,-0.762896,-43.797565,5.087997,23.394651,0.488370,2.267867,0.087753,0.000000,0.000000,0.000000,0.000000,0.000000,0.000000
13309713.000000,-0.260672,0.576865,0.328009,-1.495846,-0.202353,2.038629,0.113075,0.024184,0.532412,-0.080861,-0.511873,-0.229239,0.955736,0.133196,-0.762896,-43.674580,5.040390,23.541441,0.405057,2.190048,0.067611,0.000000,0.000000,0.000000,0.000000,0.000000,0.000000
13309714.000000,-0.260658,0.577396,0.327938,-1.496361,-0.202588,2.039583,0.113208,0.019254,0.529351,-0.077411,-0.519389,-0.229020,0.952666,0.137074,-0.687518,-43.579365,4.941208,23.593016,0.416959,2.280685,0.081344,0.000000,0.000000,0.000000,0.000000,0.000000,0.000000
13309715.000000,-0.260639,0.577936,0.327865,-1.496852,-0.202832,2.040550,0.113341,0.020106,0.531376,-0.078567,-0.511992,-0.231331,0.952974,0.136382,-0.663714,-43.432575,4.865829,23.493834,0.506681,2.345687,0.067611,0.000000,0.000000,0.000000,0.000000,0.000000,0.000000
13309716.000000,-0.260624,0.578471,0.327784,-1.497348,-0.203063,2.041500,0.113476,0.015918,0.532896,-0.077567,-0.505795,-0.229640,0.957494,0.130129,-0.564532,-43.381001,4.842026,23.370848,0.500272,2.404281,0.074935,0.000000,0.000000,0.000000,0.000000,0.000000,0.000000
13309717.000000,-0.260607,0.579016,0.327713,-1.497834,-0.203290,2.042463,0.113610,0.014073,0.531319,-0.078103,-0.498431,-0.228687,0.960252,0.132181,-0.512957,-43.333393,4.742844,23.220091,0.500272,2.423507,0.114303,0.000000,0.000000,0.000000,0.000000,0.000000,0.000000
13309718.000000,-0.260591,0.579560,0.327640,-1.498325,-0.203522,2.043431,0.113758,0.012796,0.535721,-0.075388,-0.491323,-0.231429,0.962751,0.135197,-0.465350,-43.258015,4.647629,23.148680,0.464567,2.242233,0.034652,0.000000,0.000000,0.000000,0.000000,0.000000,0.000000
13309719.000000,-0.260575,0.580087,0.327566,-1.498810,-0.203745,2.044420,0.113889,0.011282,0.534092,-0.074676,-0.488197,-0.222552,0.969352,0.131795,-0.389971,-43.111225,4.596054,22.997923,0.386747,2.053634,0.100570,0.000000,0.000000,0.000000,0.000000,0.000000,0.000000
13309720.000000,-0.260567,0.580628,0.327494,-1.499284,-0.203974,2.045398,0.114023,0.008471,0.532777,-0.070399,-0.485487,-0.228359,0.963852,0.135960,-0.243182,-42.992207,4.524643,22.851133,0.398649,2.020675,0.120712,0.000000,0.000000,0.000000,0.000000,0.000000,0.000000
13309721.000000,-0.260561,0.581165,0.327415,-1.499749,-0.204201,2.046349,0.114168,0.009024,0.547924,-0.072126,-0.475414,-0.224876,0.964263,0.137230,-0.068621,-42.869221,4.524643,22.529783,0.440763,2.112228,0.054794,0.000000,0.000000,0.000000,0.000000,0.000000,0.000000
13309722.000000,-0.260549,0.581689,0.327338,-1.500203,-0.204429,2.047303,0.114301,0.011416,0.541791,-0.076313,-0.470449,-0.226382,0.955993,0.137780,0.030561,-42.524067,4.524643,22.256041,0.470060,2.248641,0.107894,0.000000,0.000000,0.000000,0.000000,0.000000,0.000000
13309723.000000,-0.260539,0.582219,0.327266,-1.500651,-0.204658,2.048254,0.114446,0.009988,0.530865,-0.077467,-0.458389,-0.226362,0.964854,0.138414,0.129743,-42.159077,4.449265,21.887083,0.476469,2.287093,0.054794,0.000000,0.000000,0.000000,0.000000,0.000000,0.000000
13309724.000000,-0.260526,0.582736,0.327191,-1.501109,-0.204880,2.049243,0.114579,0.009473,0.528582,-0.073527,-0.452542,-0.223908,0.968477,0.140411,0.205121,-41.766315,4.425461,21.641111,0.410551,2.177230,0.081344,0.000000,0.000000,0.000000,0.000000,0.000000,0.000000
13309725.000000,-0.260514,0.583257,0.327112,-1.501553,-0.205098,2.050245,0.114717,0.009680,0.524222,-0.074164,-0.446365,-0.215423,0.976780,0.139568,0.252729,-41.401325,4.425461,21.442747,0.303434,2.020675,0.048385,0.000000,0.000000,0.000000,0.000000,0.000000,0.000000
13309726.000000,-0.260502,0.583770,0.327031,-1.501988,-0.205321,2.051220,0.114849,0.009092,0.513079,-0.072014,-0.438138,-0.216032,0.979699,0.135548,0.328107,-40.933186,4.449265,21.145201,0.267728,1.949264,0.100570,0.000000,0.000000,0.000000,0.000000,0.000000,0.000000
13309727.000000,-0.260489,0.584289,0.326952,-1.502411,-0.205541,2.052189,0.114994,0.012436,0.516481,-0.073422,-0.436244,-0.220234,0.969581,0.136989,0.375715,-40.691181,4.473068,20.847654,0.303434,2.020675,0.041976,0.000000,0.000000,0.000000,0.000000,0.000000,0.000000
13309728.000000,-0.260479,0.584795,0.326864,-1.502832,-0.205760,2.053159,0.115129,0.013602,0.509191,-0.076024,-0.431399,-0.217957,0.959074,0.134447,0.474897,-40.223042,4.572250,20.554075,0.332731,2.125045,0.074935,0.000000,0.000000,0.000000,0.000000,0.000000,0.000000
13309729.000000,-0.260465,0.585298,0.326782,-1.503254,-0.205989,2.054123,0.115262,0.016140,0.504261,-0.079386,-0.424922,-0.221203,0.958905,0.132451,0.502668,-39.735065,4.596054,20.403318,0.362943,2.137862,0.100570,0.000000,0.000000,0.000000,0.000000,0.000000,0.000000
13309730.000000,-0.260451,0.585806,0.326698,-1.503660,-0.206216,2.055104,0.115404,0.018231,0.504031,-0.079382,-0.418904,-0.221487,0.960852,0.133960,0.526471,-39.219318,4.647629,20.204954,0.351041,2.047225,0.061202,0.000000,0.000000,0.000000,0.000000,0.000000,0.000000
13309731.000000,-0.260430,0.586316,0.326612,-1.504058,-0.206442,2.056068,0.115540,0.018860,0.505292,-0.079173,-0.410678,-0.221400,0.965012,0.132484,0.451093,-38.778950,4.695236,19.883604,0.315336,1.955673,0.087753,0.000000,0.000000,0.000000,0.000000,0.000000,0.000000
13309732.000000,-0.260412,0.586821,0.326526,-1.504446,-0.206658,2.057030,0.115680,0.017350,0.500721,-0.079100,-0.412900,-0.220028,0.958453,0.132754,0.451093,-38.362385,4.742844,19.590025,0.243009,1.968490,0.074935,0.000000,0.000000,0.000000,0.000000,0.000000,0.000000
13309733.000000,-0.260393,0.587346,0.326443,-1.504825,-0.206882,2.057994,0.115815,0.019856,0.509346,-0.080406,-0.402760,-0.221210,0.951218,0.127394,0.427289,-38.215595,4.719040,19.217100,0.243009,2.047225,0.087753,0.000000,0.000000,0.000000,0.000000,0.000000,0.000000
13309734.000000,-0.260371,0.587860,0.326353,-1.505207,-0.207103,2.058956,0.115959,0.022329,0.510275,-0.080250,-0.393474,-0.226873,0.950764,0.134234,0.375715,-38.096577,4.770615,18.919554,0.231107,2.001449,0.054794,0.000000,0.000000,0.000000,0.000000,0.000000,0.000000
13309735.000000,-0.260352,0.588380,0.326264,-1.505587,-0.207336,2.059943,0.116097,0.022918,0.511690,-0.083079,-0.390594,-0.232585,0.952771,0.132943,0.375715,-37.898212,4.818222,18.772764,0.255826,1.825668,0.074935,0.000000,0.000000,0.000000,0.000000,0.000000,0.000000
13309736.000000,-0.260329,0.588899,0.326174,-1.505970,-0.207564,2.060899,0.116239,0.020780,0.513101,-0.084441,-0.388865,-0.231496,0.957015,0.130937,0.351911,-37.727619,4.842026,18.673582,0.267728,1.767074,0.107894,0.000000,0.000000,0.000000,0.000000,0.000000,0.000000
13309737.000000,-0.260303,0.589412,0.326077,-1.506348,-0.207796,2.061872,0.116394,0.024133,0.511479,-0.086793,-0.382691,-0.231886,0.951301,0.133872,0.252729,-37.557026,4.917404,18.625975,0.315336,1.689254,0.041976,0.000000,0.000000,0.000000,0.000000,0.000000,0.000000
13309738.000000,-0.260283,0.589941,0.325983,-1.506713,-0.208029,2.062847,0.116529,0.020404,0.511838,-0.087338,-0.379904,-0.232435,0.950555,0.131157,0.276533,-37.386433,4.941208,18.526793,0.386747,1.735030,0.100570,0.000000,0.000000,0.000000,0.000000,0.000000,0.000000
13309739.000000,-0.260257,0.590470,0.325896,-1.507075,-0.208254,2.063791,0.116683,0.022557,0.523962,-0.086079,-0.370267,-0.233755,0.949243,0.138359,0.228925,-37.287251,4.893600,18.427610,0.381254,1.844894,0.034652,0.000000,0.000000,0.000000,0.000000,0.000000,0.000000
13309740.000000,-0.260224,0.590993,0.325806,-1.507438,-0.208487,2.064765,0.116821,0.022782,0.521402,-0.085836,-0.371131,-0.234534,0.951987,0.138339,0.105939,-37.239643,4.865829,18.376036,0.332731,1.793624,0.094161,0.000000,0.000000,0.000000,0.000000,0.000000,0.000000
13309741.000000,-0.260194,0.591531,0.325718,-1.507797,-0.208716,2.065730,0.116967,0.024713,0.525823,-0.088708,-0.362473,-0.229111,0.967602,0.138568,0.030561,-37.211872,4.842026,18.328428,0.243009,1.760665,0.048385,0.000000,0.000000,0.000000,0.000000,0.000000,0.000000
13309742.000000,-0.260167,0.592063,0.325631,-1.508157,-0.208950,2.066682,0.117107,0.024971,0.528418,-0.089551,-0.362465,-0.232740,0.960278,0.141767,0.006757,-37.287251,4.770615,18.304625,0.225614,1.773483,0.041976,0.000000,0.000000,0.000000,0.000000,0.000000,0.000000
13309743.000000,-0.260138,0.592606,0.325542,-1.508503,-0.209187,2.067646,0.117249,0.025906,0.527126,-0.088093,-0.360347,-0.231360,0.958949,0.139121,-0.044818,-37.386433,4.719040,18.177671,0.237516,1.793624,0.048385,0.000000,0.000000,0.000000,0.000000,0.000000,0.000000
13309744.000000,-0.260114,0.593172,0.325457,-1.508853,-0.209423,2.068584,0.117396,0.024178,0.539886,-0.085945,-0.358789,-0.231464,0.956984,0.137407,0.006757,-37.656208,4.619858,18.078489,0.273221,1.858627,0.041976,0.000000,0.000000,0.000000,0.000000,0.000000,0.000000
13309745.000000,-0.260086,0.593721,0.325369,-1.509201,-0.209661,2.069531,0.117534,0.024883,0.542693,-0.088783,-0.360064,-0.235123,0.953153,0.133721,-0.017047,-37.802998,4.572250,18.007078,0.285123,1.955673,0.107894,0.000000,0.000000,0.000000,0.000000,0.000000,0.000000
13309746.000000,-0.260058,0.594271,0.325282,-1.509546,-0.209902,2.070499,0.117683,0.024762,0.539931,-0.087024,-0.352862,-0.236799,0.949809,0.135497,-0.017047,-37.775227,4.500839,17.907896,0.273221,1.871444,0.034652,0.000000,0.000000,0.000000,0.000000,0.000000,0.000000
13309747.000000,-0.260029,0.594828,0.325195,-1.509896,-0.210140,2.071469,0.117818,0.025599,0.545956,-0.085917,-0.350126,-0.234353,0.954015,0.131811,-0.017047,-37.775227,4.425461,17.784910,0.279630,1.682845,0.100570,0.000000,0.000000,0.000000,0.000000,0.000000,0.000000
13309748.000000,-0.260004,0.595386,0.325110,-1.510240,-0.210373,2.072439,0.117962,0.024285,0.548863,-0.085692,-0.346538,-0.231282,0.950830,0.136823,0.030561,-37.826801,4.377853,17.733335,0.261320,1.605026,0.100570,0.000000,0.000000,0.000000,0.000000,0.000000,0.000000
13309749.000000,-0.259973,0.595957,0.325029,-1.510583,-0.210611,2.073373,0.118106,0.027637,0.553704,-0.085212,-0.345380,-0.235689,0.951139,0.136544,0.030561,-37.997395,4.326279,17.511168,0.285123,1.662704,0.067611,0.000000,0.000000,0.000000,0.000000,0.000000,0.000000
13309750.000000,-0.259949,0.596530,0.324946,-1.510931,-0.210845,2.074316,0.118243,0.028449,0.557596,-0.087728,-0.342980,-0.237655,0.942333,0.139355,0.105939,-38.191792,4.254868,17.435789,0.273221,1.721298,0.087753,0.000000,0.000000,0.000000,0.000000,0.000000,0.000000
13309751.000000,-0.259922,0.597104,0.324861,-1.511263,-0.211087,2.075272,0.118387,0.027186,0.562031,-0.086858,-0.342641,-0.237996,0.937505,0.139300,0.129743,-38.362385,4.203293,17.289000,0.249418,1.721298,0.041976,0.000000,0.000000,0.000000,0.000000,0.000000,0.000000
13309752.000000,-0.259889,0.597670,0.324775,-1.511598,-0.211318,2.076223,0.118525,0.027371,0.574391,-0.083708,-0.338291,-0.238762,0.941641,0.140304,0.105939,-38.513142,4.179489,17.142210,0.219205,1.637069,0.081344,0.000000,0.000000,0.000000,0.000000,0.000000,0.000000
13309753.000000,-0.259863,0.598260,0.324685,-1.511928,-0.211546,2.077178,0.118673,0.028866,0.577346,-0.086133,-0.337371,-0.233422,0.941949,0.141956,0.153547,-38.755146,4.227097,17.066832,0.154203,1.559249,0.067611,0.000000,0.000000,0.000000,0.000000,0.000000,0.000000
13309754.000000,-0.259835,0.598851,0.324599,-1.512262,-0.211780,2.078112,0.118818,0.029919,0.580984,-0.082817,-0.334119,-0.232429,0.943308,0.139521,0.205121,-38.925739,4.203293,16.892271,0.171598,1.519881,0.067611,0.000000,0.000000,0.000000,0.000000,0.000000,0.000000
13309755.000000,-0.259809,0.599430,0.324506,-1.512603,-0.212015,2.079045,0.118961,0.027243,0.581425,-0.085377,-0.332774,-0.231631,0.934716,0.141896,0.276533,-39.024921,4.254868,16.868467,0.189908,1.605026,0.081344,0.000000,0.000000,0.000000,0.000000,0.000000,0.000000
13309756.000000,-0.259777,0.600030,0.324411,-1.512918,-0.212262,2.080002,0.119106,0.026951,0.581186,-0.090196,-0.328633,-0.236240,0.942985,0.139025,0.276533,-39.270893,4.302475,16.598692,0.237516,1.546432,0.094161,0.000000,0.000000,0.000000,0.000000,0.000000,0.000000
13309757.000000,-0.259754,0.600634,0.324315,-1.513257,-0.212499,2.080929,0.119254,0.027486,0.590701,-0.090616,-0.328761,-0.241593,0.940626,0.141811,0.375715,-39.489094,4.350082,16.622496,0.237516,1.597701,0.094161,0.000000,0.000000,0.000000,0.000000,0.000000,0.000000
13309758.000000,-0.259726,0.601220,0.324225,-1.513587,-0.212731,2.081879,0.119404,0.029153,0.592318,-0.089780,-0.331167,-0.241105,0.944825,0.145663,0.427289,-39.612080,4.350082,16.598692,0.207303,1.578475,0.054794,0.000000,0.000000,0.000000,0.000000,0.000000,0.000000
13309759.000000,-0.259698,0.601822,0.324128,-1.513927,-0.212963,2.082833,0.119545,0.027244,0.591594,-0.090792,-0.334047,-0.236255,0.956083,0.145982,0.474897,-39.810444,4.425461,16.622496,0.178007,1.494247,0.081344,0.000000,0.000000,0.000000,0.000000,0.000000,0.000000
13309760.000000,-0.259665,0.602415,0.324028,-1.514261,-0.213192,2.083783,0.119694,0.027975,0.592978,-0.097286,-0.329505,-0.237656,0.956205,0.147537,0.427289,-39.929462,4.500839,16.646299,0.154203,1.389877,0.067611,0.000000,0.000000,0.000000,0.000000,0.000000,0.000000
13309761.000000,-0.259638,0.603009,0.323922,-1.514589,-0.213436,2.084721,0.119840,0.028164,0.593137,-0.101162,-0.329049,-0.238239,0.943426,0.147637,0.526471,-39.858051,4.647629,16.646299,0.129484,1.461288,0.087753,0.000000,0.000000,0.000000,0.000000,0.000000,0.000000
13309762.000000,-0.259609,0.603615,0.323821,-1.514918,-0.213685,2.085643,0.119996,0.029642,0.593265,-0.104650,-0.327600,-0.241502,0.941117,0.149891,0.574079,-39.905659,4.695236,16.646299,0.171598,1.519881,0.048385,0.000000,0.000000,0.000000,0.000000,0.000000,0.000000
13309763.000000,-0.259581,0.604213,0.323714,-1.515240,-0.213934,2.086568,0.120143,0.031240,0.595218,-0.106118,-0.333539,-0.244524,0.930821,0.149537,0.601850,-40.004841,4.818222,16.598692,0.231107,1.649886,0.067611,0.000000,0.000000,0.000000,0.000000,0.000000,0.000000
13309764.000000,-0.259553,0.604820,0.323600,-1.515576,-0.214176,2.087504,0.120285,0.031889,0.596503,-0.107428,-0.329287,-0.243436,0.926809,0.148536,0.649457,-40.028645,4.965012,16.622496,0.219205,1.735030,0.107894,0.000000,0.000000,0.000000,0.000000,0.000000,0.000000
13309765.000000,-0.259520,0.605412,0.323490,-1.515902,-0.214410,2.088439,0.120441,0.033967,0.597611,-0.106902,-0.325833,-0.247496,0.929525,0.150413,0.625654,-40.028645,5.040390,16.646299,0.189908,1.649886,0.061202,0.000000,0.000000,0.000000,0.000000,0.000000,0.000000
13309766.000000,-0.259493,0.606015,0.323382,-1.516226,-0.214661,2.089396,0.120582,0.030907,0.598717,-0.110132,-0.327126,-0.250020,0.936043,0.143969,0.673261,-40.004841,5.135605,16.697874,0.147794,1.507064,0.107894,0.000000,0.000000,0.000000,0.000000,0.000000,0.000000
13309767.000000,-0.259460,0.606630,0.323272,-1.516554,-0.214919,2.090320,0.120734,0.032695,0.598375,-0.112353,-0.324519,-0.249021,0.927440,0.148310,0.673261,-40.076252,5.234787,16.745481,0.154203,1.513473,0.041976,0.000000,0.000000,0.000000,0.000000,0.000000,0.000000
13309768.000000,-0.259429,0.607238,0.323159,-1.516877,-0.215167,2.091247,0.120879,0.033502,0.603392,-0.113783,-0.324679,-0.244333,0.923789,0.147382,0.697065,-40.104023,5.310165,16.745481,0.178007,1.611434,0.054794,0.000000,0.000000,0.000000,0.000000,0.000000,0.000000
13309769.000000,-0.259399,0.607839,0.323042,-1.517204,-0.215415,2.092172,0.121031,0.030274,0.600996,-0.112796,-0.323147,-0.249460,0.924028,0.144460,0.748639,-39.929462,5.433151,16.793089,0.201810,1.735030,0.028243,0.000000,0.000000,0.000000,0.000000,0.000000,0.000000
13309770.000000,-0.259368,0.608426,0.322928,-1.517531,-0.215660,2.093089,0.121173,0.028618,0.607652,-0.113338,-0.323154,-0.249617,0.923924,0.142462,0.772443,-39.659687,5.480759,16.920042,0.237516,1.735030,0.114303,0.000000,0.000000,0.000000,0.000000,0.000000,0.000000
13309771.000000,-0.259330,0.609023,0.322812,-1.517853,-0.215915,2.094017,0.121330,0.032135,0.598790,-0.114538,-0.326503,-0.252480,0.922957,0.151264,0.724836,-39.441486,5.556137,17.043028,0.225614,1.714889,0.041976,0.000000,0.000000,0.000000,0.000000,0.000000,0.000000
13309772.000000,-0.259300,0.609626,0.322691,-1.518182,-0.216170,2.094927,0.121480,0.031778,0.598021,-0.118221,-0.325957,-0.250514,0.932219,0.145976,0.796247,-39.195515,5.627548,17.189817,0.225614,1.708480,0.034652,0.000000,0.000000,0.000000,0.000000,0.000000,0.000000
13309773.000000,-0.259260,0.610219,0.322574,-1.518507,-0.216425,2.095847,0.121623,0.035766,0.599881,-0.117574,-0.327181,-0.245845,0.929044,0.145157,0.697065,-39.024921,5.679123,17.265196,0.261320,1.735030,0.087753,0.000000,0.000000,0.000000,0.000000,0.000000,0.000000
13309774.000000,-0.259227,0.610825,0.322461,-1.518832,-0.216671,2.096763,0.121771,0.034938,0.600278,-0.118401,-0.325173,-0.240047,0.924459,0.142787,0.748639,-39.001118,5.651352,17.340574,0.255826,1.806442,0.067611,0.000000,0.000000,0.000000,0.000000,0.000000,0.000000
13309775.000000,-0.259197,0.611431,0.322349,-1.519162,-0.216915,2.097659,0.121916,0.033906,0.595003,-0.116837,-0.321978,-0.248866,0.914401,0.145140,0.824018,-38.854328,5.651352,17.511168,0.249418,1.838485,0.054794,0.000000,0.000000,0.000000,0.000000,0.000000,0.000000
13309776.000000,-0.259165,0.612021,0.322232,-1.519483,-0.217173,2.098580,0.122066,0.034469,0.593914,-0.112515,-0.322075,-0.253612,0.917263,0.147408,0.847822,-38.560749,5.651352,17.634153,0.279630,1.773483,0.034652,0.000000,0.000000,0.000000,0.000000,0.000000,0.000000
13309777.000000,-0.259127,0.612617,0.322120,-1.519814,-0.217430,2.099501,0.122204,0.035855,0.593187,-0.111175,-0.323842,-0.252080,0.928980,0.145981,0.824018,-38.290974,5.603745,17.832518,0.303434,1.741439,0.094161,0.000000,0.000000,0.000000,0.000000,0.000000,0.000000
13309778.000000,-0.259097,0.613204,0.322003,-1.520137,-0.217674,2.100393,0.122360,0.035023,0.591480,-0.117154,-0.323369,-0.249237,0.919290,0.148773,0.871625,-38.068806,5.603745,17.955503,0.273221,1.825668,0.048385,0.000000,0.000000,0.000000,0.000000,0.000000,0.000000
13309779.000000,-0.259064,0.613816,0.321889,-1.520449,-0.217923,2.101295,0.122504,0.031455,0.590471,-0.115586,-0.322261,-0.243150,0.908079,0.148644,0.923200,-38.120380,5.579941,17.907896,0.273221,1.871444,0.067611,0.000000,0.000000,0.000000,0.000000,0.000000,0.000000
13309780.000000,-0.259024,0.614441,0.321777,-1.520769,-0.218171,2.102192,0.122649,0.036906,0.600591,-0.114332,-0.316988,-0.248083,0.900744,0.148473,0.895429,-38.243366,5.556137,17.955503,0.267728,1.930038,0.087753,0.000000,0.000000,0.000000,0.000000,0.000000,0.000000
13309781.000000,-0.258986,0.615048,0.321674,-1.521084,-0.218421,2.103107,0.122803,0.037692,0.606294,-0.111788,-0.325921,-0.250029,0.898697,0.151187,0.871625,-38.290974,5.456955,18.054686,0.213712,1.865035,0.034652,0.000000,0.000000,0.000000,0.000000,0.000000,0.000000
13309782.000000,-0.258954,0.615658,0.321568,-1.521406,-0.218677,2.104043,0.122943,0.035842,0.604743,-0.110396,-0.325084,-0.248796,0.910586,0.148398,0.947004,-38.290974,5.381577,18.177671,0.225614,1.714889,0.087753,0.000000,0.000000,0.000000,0.000000,0.000000,0.000000
13309783.000000,-0.258916,0.616266,0.321459,-1.521723,-0.218932,2.104941,0.123095,0.037702,0.601391,-0.109736,-0.319420,-0.250590,0.904775,0.150503,0.947004,-38.290974,5.310165,18.229246,0.291532,1.689254,0.041976,0.000000,0.000000,0.000000,0.000000,0.000000,0.000000
13309784.000000,-0.258878,0.616878,0.321358,-1.522038,-0.219188,2.105849,0.123230,0.037773,0.605543,-0.108603,-0.321473,-0.245631,0.898893,0.147987,0.947004,-38.167988,5.210983,18.253050,0.327238,1.779891,0.107894,0.000000,0.000000,0.000000,0.000000,0.000000,0.000000
13309785.000000,-0.258841,0.617496,0.321247,-1.522355,-0.219449,2.106742,0.123388,0.037174,0.607858,-0.109861,-0.318633,-0.251524,0.892420,0.150835,0.970807,-38.144184,5.210983,18.253050,0.369352,1.877853,0.028243,0.000000,0.000000,0.000000,0.000000,0.000000,0.000000
13309786.000000,-0.258794,0.618104,0.321140,-1.522670,-0.219705,2.107646,0.123538,0.040267,0.609735,-0.110436,-0.314094,-0.253883,0.899312,0.150022,0.847822,-38.120380,5.187180,18.253050,0.351041,1.968490,0.048385,0.000000,0.000000,0.000000,0.000000,0.000000,0.000000
13309787.000000,-0.258752,0.618724,0.321034,-1.522987,-0.219958,2.108559,0.123687,0.040577,0.604735,-0.110008,-0.315634,-0.249016,0.895058,0.149788,0.796247,-38.144184,5.135605,18.328428,0.297025,1.995040,0.061202,0.000000,0.000000,0.000000,0.000000,0.000000,0.000000
13309788.000000,-0.258708,0.619354,0.320932,-1.523303,-0.220199,2.109478,0.123839,0.040764,0.623665,-0.105566,-0.314877,-0.244288,0.901192,0.146123,0.748639,-38.314777,5.040390,18.352232,0.195402,1.903487,0.034652,0.000000,0.000000,0.000000,0.000000,0.000000,0.000000
13309789.000000,-0.258664,0.619984,0.320833,-1.523618,-0.220449,2.110402,0.123987,0.044099,0.623229,-0.106104,-0.315484,-0.244883,0.904533,0.149121,0.697065,-38.390156,4.965012,18.399839,0.195402,1.779891,0.067611,0.000000,0.000000,0.000000,0.000000,0.000000,0.000000
13309790.000000,-0.258624,0.620613,0.320728,-1.523929,-0.220705,2.111298,0.124139,0.040968,0.627105,-0.107415,-0.313482,-0.249685,0.920791,0.150596,0.748639,-38.390156,4.941208,18.352232,0.189908,1.825668,0.041976,0.000000,0.000000,0.000000,0.000000,0.000000,0.000000
13309791.000000,-0.258576,0.621225,0.320620,-1.524232,-0.220974,2.112197,0.124283,0.044975,0.617801,-0.109064,-0.305035,-0.257215,0.910449,0.144276,0.673261,-38.243366,4.965012,18.253050,0.291532,1.877853,0.087753,0.000000,0.000000,0.000000,0.000000,0.000000,0.000000
13309792.000000,-0.258529,0.621865,0.320515,-1.524528,-0.221241,2.113103,0.124435,0.044054,0.621891,-0.107570,-0.305096,-0.259794,0.906254,0.148090,0.625654,-38.338581,4.988815,18.153868,0.339139,1.930038,0.034652,0.000000,0.000000,0.000000,0.000000,0.000000,0.000000
13309793.000000,-0.258479,0.622506,0.320413,-1.524829,-0.221494,2.114002,0.124579,0.046529,0.627977,-0.104173,-0.301887,-0.259613,0.902948,0.147288,0.574079,-38.413960,4.917404,18.078489,0.308927,1.890670,0.067611,0.000000,0.000000,0.000000,0.000000,0.000000,0.000000
13309794.000000,-0.258426,0.623130,0.320303,-1.525121,-0.221751,2.114910,0.124732,0.049561,0.628302,-0.107676,-0.298006,-0.260107,0.905843,0.149010,0.474897,-38.437763,4.965012,18.030882,0.297025,1.779891,0.048385,0.000000,0.000000,0.000000,0.000000,0.000000,0.000000
13309795.000000,-0.258367,0.623775,0.320194,-1.525422,-0.222016,2.115829,0.124880,0.053210,0.627446,-0.109944,-0.295234,-0.263230,0.904631,0.148714,0.304304,-38.584553,5.012619,18.007078,0.237516,1.662704,0.067611,0.000000,0.000000,0.000000,0.000000,0.000000,0.000000
13309796.000000,-0.258320,0.624425,0.320096,-1.525714,-0.222278,2.116724,0.125026,0.051648,0.633029,-0.111408,-0.291691,-0.263411,0.904197,0.143349,0.304304,-38.830524,4.941208,17.931700,0.231107,1.649886,0.094161,0.000000,0.000000,0.000000,0.000000,0.000000,0.000000
13309797.000000,-0.258270,0.625067,0.319997,-1.525999,-0.222546,2.117615,0.125182,0.048427,0.636309,-0.106931,-0.290557,-0.260013,0.898687,0.152537,0.276533,-38.778950,4.865829,17.907896,0.267728,1.747848,0.028243,0.000000,0.000000,0.000000,0.000000,0.000000,0.000000
13309798.000000,-0.258216,0.625716,0.319886,-1.526294,-0.222811,2.118499,0.125328,0.049674,0.637676,-0.110278,-0.288253,-0.258844,0.893731,0.150293,0.228925,-38.830524,4.941208,17.983274,0.339139,1.819259,0.074935,0.000000,0.000000,0.000000,0.000000,0.000000,0.000000
13309799.000000,-0.258166,0.626360,0.319782,-1.526583,-0.223074,2.119404,0.125483,0.049521,0.642857,-0.110371,-0.294250,-0.261384,0.893050,0.151289,0.228925,-38.901936,4.917404,18.030882,0.381254,1.779891,0.054794,0.000000,0.000000,0.000000,0.000000,0.000000,0.000000
13309800.000000,-0.258109,0.627008,0.319673,-1.526885,-0.223337,2.120313,0.125627,0.050605,0.638370,-0.111519,-0.300079,-0.258358,0.891207,0.149079,0.177350,-38.925739,4.941208,18.205442,0.303434,1.773483,0.114303,0.000000,0.000000,0.000000,0.000000,0.000000,0.000000
13309801.000000,-0.258052,0.627654,0.319563,-1.527187,-0.223599,2.121210,0.125789,0.055089,0.640500,-0.111904,-0.297184,-0.259559,0.895778,0.152272,0.105939,-39.001118,4.941208,18.376036,0.297025,1.741439,0.028243,0.000000,0.000000,0.000000,0.000000,0.000000,0.000000
13309802.000000,-0.257997,0.628313,0.319452,-1.527471,-0.223865,2.122106,0.125935,0.055065,0.646828,-0.112774,-0.292673,-0.260368,0.886755,0.154339,0.054365,-39.147907,4.965012,18.427610,0.291532,1.735030,0.087753,0.000000,0.000000,0.000000,0.000000,0.000000,0.000000
13309803.000000,-0.257947,0.628964,0.319345,-1.527762,-0.224130,2.122996,0.126100,0.052223,0.648362,-0.108813,-0.293996,-0.262578,0.890156,0.155238,0.105939,-39.147907,4.941208,18.550596,0.327238,1.767074,0.041976,0.000000,0.000000,0.000000,0.000000,0.000000,0.000000
13309804.000000,-0.257899,0.629597,0.319238,-1.528050,-0.224398,2.123895,0.126255,0.050515,0.642324,-0.109398,-0.292732,-0.269226,0.887722,0.153112,0.153547,-38.977314,4.917404,18.574400,0.369352,1.812850,0.048385,0.000000,0.000000,0.000000,0.000000,0.000000,0.000000
13309805.000000,-0.257844,0.630248,0.319126,-1.528326,-0.224675,2.124792,0.126409,0.051049,0.639217,-0.109700,-0.285116,-0.264577,0.887520,0.152814,0.129743,-38.901936,4.893600,18.574400,0.428861,1.806442,0.041976,0.000000,0.000000,0.000000,0.000000,0.000000,0.000000
13309806.000000,-0.257793,0.630908,0.319018,-1.528616,-0.224938,2.125677,0.126567,0.049719,0.653593,-0.109924,-0.287032,-0.267294,0.886370,0.152337,0.177350,-38.854328,4.865829,18.649778,0.434354,1.825668,0.034652,0.000000,0.000000,0.000000,0.000000,0.000000,0.000000
13309807.000000,-0.257744,0.631550,0.318912,-1.528895,-0.225188,2.126573,0.126715,0.048189,0.653798,-0.106556,-0.281876,-0.258332,0.877265,0.153556,0.252729,-38.707539,4.818222,18.697386,0.351041,1.877853,0.094161,0.000000,0.000000,0.000000,0.000000,0.000000,0.000000
13309808.000000,-0.257686,0.632204,0.318799,-1.529158,-0.225444,2.127477,0.126872,0.049269,0.656477,-0.108135,-0.271487,-0.253994,0.902397,0.149948,0.228925,-38.707539,4.818222,18.598204,0.320829,1.858627,0.034652,0.000000,0.000000,0.000000,0.000000,0.000000,0.000000
13309809.000000,-0.257633,0.632849,0.318687,-1.529432,-0.225695,2.128367,0.127022,0.049581,0.657948,-0.111983,-0.269396,-0.253786,0.902137,0.149190,0.228925,-38.632160,4.818222,18.598204,0.243009,1.877853,0.054794,0.000000,0.000000,0.000000,0.000000,0.000000,0.000000
13309810.000000,-0.257593,0.633499,0.318580,-1.529696,-0.225960,2.129259,0.127175,0.045088,0.646116,-0.110526,-0.267458,-0.256995,0.890101,0.149679,0.427289,-38.461567,4.742844,18.574400,0.267728,1.930038,0.054794,0.000000,0.000000,0.000000,0.000000,0.000000,0.000000
13309811.000000,-0.257537,0.634148,0.318473,-1.529958,-0.226225,2.130147,0.127329,0.046706,0.639358,-0.111319,-0.265540,-0.260877,0.889991,0.149882,0.427289,-38.191792,4.742844,18.550596,0.320829,1.923629,0.054794,0.000000,0.000000,0.000000,0.000000,0.000000,0.000000
13309812.000000,-0.257493,0.634792,0.318366,-1.530215,-0.226484,2.131045,0.127479,0.044990,0.642469,-0.111325,-0.271696,-0.258635,0.892565,0.149182,0.550275,-37.997395,4.719040,18.499022,0.369352,1.909896,0.081344,0.000000,0.000000,0.000000,0.000000,0.000000,0.000000
13309813.000000,-0.257446,0.635435,0.318259,-1.530472,-0.226744,2.131937,0.127631,0.044835,0.638619,-0.110562,-0.265976,-0.259533,0.883343,0.151481,0.625654,-37.727619,4.671432,18.475218,0.374845,1.865035,0.034652,0.000000,0.000000,0.000000,0.000000,0.000000,0.000000
13309814.000000,-0.257393,0.636066,0.318149,-1.530720,-0.227001,2.132821,0.127773,0.049430,0.633353,-0.108261,-0.259951,-0.258460,0.885232,0.148848,0.625654,-37.434040,4.671432,18.376036,0.320829,1.838485,0.094161,0.000000,0.000000,0.000000,0.000000,0.000000,0.000000
13309815.000000,-0.257335,0.636719,0.318037,-1.530960,-0.227265,2.133705,0.127927,0.054216,0.635222,-0.110210,-0.256183,-0.258834,0.881978,0.151445,0.574079,-37.362629,4.695236,18.304625,0.297025,1.871444,0.041976,0.000000,0.000000,0.000000,0.000000,0.000000,0.000000
13309816.000000,-0.257284,0.637368,0.317922,-1.531203,-0.227526,2.134559,0.128070,0.055110,0.632149,-0.110242,-0.249383,-0.259090,0.878812,0.149384,0.625654,-37.140461,4.671432,18.205442,0.267728,1.995040,0.094161,0.000000,0.000000,0.000000,0.000000,0.000000,0.000000
13309817.000000,-0.257234,0.637992,0.317806,-1.531438,-0.227779,2.135442,0.128218,0.052930,0.633665,-0.112178,-0.240270,-0.255683,0.874790,0.149781,0.673261,-36.652485,4.719040,18.030882,0.261320,2.033492,0.100570,0.000000,0.000000,0.000000,0.000000,0.000000,0.000000
13309818.000000,-0.257181,0.638628,0.317695,-1.531665,-0.228043,2.136336,0.128371,0.051822,0.633878,-0.111707,-0.237524,-0.257387,0.875087,0.151683,0.697065,-36.283527,4.695236,17.907896,0.261320,1.968490,0.061202,0.000000,0.000000,0.000000,0.000000,0.000000,0.000000
13309819.000000,-0.257131,0.639268,0.317578,-1.531891,-0.228311,2.137211,0.128529,0.051026,0.648054,-0.113784,-0.233758,-0.259477,0.875090,0.152098,0.724836,-36.089130,4.770615,17.733335,0.267728,1.903487,0.034652,0.000000,0.000000,0.000000,0.000000,0.000000,0.000000
13309820.000000,-0.257075,0.639927,0.317471,-1.532115,-0.228574,2.138098,0.128681,0.051638,0.645376,-0.111704,-0.230400,-0.260212,0.869316,0.149451,0.697065,-36.112934,4.695236,17.634153,0.255826,1.812850,0.048385,0.000000,0.000000,0.000000,0.000000,0.000000,0.000000
13309821.000000,-0.257021,0.640607,0.317359,-1.532329,-0.228844,2.138972,0.128828,0.051242,0.652019,-0.111274,-0.226430,-0.258215,0.869472,0.153339,0.697065,-36.382710,4.671432,17.487364,0.303434,1.786300,0.081344,0.000000,0.000000,0.000000,0.000000,0.000000,0.000000
13309822.000000,-0.256969,0.641273,0.317240,-1.532538,-0.229104,2.139854,0.128990,0.053515,0.659640,-0.114121,-0.220408,-0.260570,0.874428,0.155095,0.724836,-36.553303,4.770615,17.340574,0.332731,1.779891,0.021835,0.000000,0.000000,0.000000,0.000000,0.000000,0.000000
13309823.000000,-0.256912,0.641937,0.317123,-1.532741,-0.229369,2.140750,0.129133,0.055879,0.657838,-0.116775,-0.212907,-0.260427,0.873549,0.150951,0.724836,-36.600910,4.770615,17.189817,0.332731,1.741439,0.094161,0.000000,0.000000,0.000000,0.000000,0.000000,0.000000
13309824.000000,-0.256853,0.642608,0.317004,-1.532945,-0.229632,2.141628,0.129285,0.058305,0.663847,-0.116854,-0.208487,-0.262702,0.869363,0.150775,0.697065,-36.652485,4.818222,17.114439,0.291532,1.695663,0.094161,0.000000,0.000000,0.000000,0.000000,0.000000,0.000000
13309825.000000,-0.256795,0.643273,0.316888,-1.533144,-0.229893,2.142519,0.129444,0.060533,0.662789,-0.116873,-0.203040,-0.262926,0.872878,0.157614,0.649457,-36.723896,4.865829,17.066832,0.285123,1.643478,0.041976,0.000000,0.000000,0.000000,0.000000,0.000000,0.000000
13309826.000000,-0.256738,0.643943,0.316777,-1.533338,-0.230153,2.143410,0.129595,0.060882,0.657218,-0.114343,-0.201152,-0.258383,0.888421,0.155134,0.649457,-36.771503,4.818222,16.991453,0.291532,1.656295,0.061202,0.000000,0.000000,0.000000,0.000000,0.000000,0.000000
13309827.000000,-0.256679,0.644619,0.316664,-1.533534,-0.230409,2.144273,0.129753,0.058733,0.663489,-0.115859,-0.199752,-0.255277,0.872160,0.153389,0.625654,-36.946064,4.794418,16.920042,0.291532,1.689254,0.054794,0.000000,0.000000,0.000000,0.000000,0.000000,0.000000
13309828.000000,-0.256616,0.645311,0.316540,-1.533721,-0.230677,2.145154,0.129903,0.058284,0.674627,-0.118072,-0.192617,-0.258488,0.871803,0.147649,0.550275,-37.287251,4.917404,16.844664,0.327238,1.760665,0.067611,0.000000,0.000000,0.000000,0.000000,0.000000,0.000000
13309829.000000,-0.256558,0.645993,0.316429,-1.533904,-0.230936,2.146027,0.130057,0.055482,0.679850,-0.115307,-0.189248,-0.258132,0.865887,0.149149,0.574079,-37.362629,4.865829,16.745481,0.285123,1.779891,0.048385,0.000000,0.000000,0.000000,0.000000,0.000000,0.000000
13309830.000000,-0.256495,0.646673,0.316310,-1.534089,-0.231191,2.146909,0.130211,0.055738,0.680824,-0.118604,-0.192174,-0.256323,0.870340,0.149807,0.502668,-37.434040,4.893600,16.769285,0.201810,1.760665,0.041976,0.000000,0.000000,0.000000,0.000000,0.000000,0.000000
13309831.000000,-0.256431,0.647364,0.316192,-1.534265,-0.231446,2.147794,0.130359,0.058348,0.676406,-0.116918,-0.187469,-0.252828,0.869021,0.155051,0.451093,-37.481647,4.893600,16.598692,0.183500,1.786300,0.034652,0.000000,0.000000,0.000000,0.000000,0.000000,0.000000
13309832.000000,-0.256368,0.648056,0.316067,-1.534446,-0.231703,2.148672,0.130504,0.060041,0.677994,-0.118253,-0.183141,-0.251677,0.868170,0.151500,0.403486,-37.680012,4.988815,16.523314,0.195402,1.779891,0.094161,0.000000,0.000000,0.000000,0.000000,0.000000,0.000000
13309833.000000,-0.256309,0.648772,0.315952,-1.534616,-0.231969,2.149553,0.130654,0.059879,0.687762,-0.118764,-0.180901,-0.251045,0.871194,0.152967,0.427289,-37.997395,4.941208,16.348753,0.219205,1.773483,0.054794,0.000000,0.000000,0.000000,0.000000,0.000000,0.000000
13309834.000000,-0.256242,0.649490,0.315835,-1.534787,-0.232231,2.150427,0.130805,0.061572,0.695834,-0.115951,-0.174116,-0.250027,0.871602,0.152468,0.375715,-38.362385,4.893600,16.225767,0.231107,1.727706,0.054794,0.000000,0.000000,0.000000,0.000000,0.000000,0.000000
13309835.000000,-0.256183,0.650211,0.315711,-1.534961,-0.232487,2.151314,0.130957,0.064195,0.706237,-0.119552,-0.176085,-0.249769,0.873523,0.151612,0.403486,-38.901936,4.941208,16.126585,0.255826,1.643478,0.067611,0.000000,0.000000,0.000000,0.000000,0.000000,0.000000
13309836.000000,-0.256121,0.650941,0.315590,-1.535132,-0.232737,2.152202,0.131112,0.063154,0.712263,-0.121450,-0.173735,-0.246510,0.874099,0.156960,0.427289,-39.318501,4.965012,16.003599,0.219205,1.578475,0.048385,0.000000,0.000000,0.000000,0.000000,0.000000,0.000000
13309837.000000,-0.256050,0.651658,0.315469,-1.535314,-0.232992,2.153078,0.131258,0.064827,0.725901,-0.121859,-0.176748,-0.253013,0.875888,0.153446,0.351911,-39.588276,4.941208,16.102781,0.147794,1.481429,0.087753,0.000000,0.000000,0.000000,0.000000,0.000000,0.000000
13309838.000000,-0.255982,0.652394,0.315345,-1.535482,-0.233262,2.153949,0.131413,0.065562,0.723628,-0.122892,-0.175651,-0.252183,0.866411,0.158798,0.304304,-39.957233,4.941208,16.055174,0.171598,1.474105,0.028243,0.000000,0.000000,0.000000,0.000000,0.000000,0.000000
13309839.000000,-0.255922,0.653128,0.315214,-1.535659,-0.233535,2.154810,0.131559,0.063480,0.719584,-0.123561,-0.178173,-0.255891,0.867699,0.154570,0.351911,-40.223042,5.087997,16.150389,0.189908,1.572067,0.087753,0.000000,0.000000,0.000000,0.000000,0.000000,0.000000
13309840.000000,-0.255859,0.653852,0.315098,-1.535836,-0.233800,2.155679,0.131710,0.065866,0.721182,-0.122067,-0.175460,-0.253998,0.870503,0.152479,0.375715,-40.397602,5.012619,16.201963,0.213712,1.630660,0.100570,0.000000,0.000000,0.000000,0.000000,0.000000,0.000000
13309841.000000,-0.255797,0.654594,0.314975,-1.536015,-0.234068,2.156544,0.131867,0.064538,0.724676,-0.122904,-0.175705,-0.256107,0.860657,0.149706,0.403486,-40.691181,5.012619,16.348753,0.225614,1.617843,0.041976,0.000000,0.000000,0.000000,0.000000,0.000000,0.000000
13309842.000000,-0.255724,0.655323,0.314849,-1.536201,-0.234347,2.157403,0.132012,0.063348,0.724868,-0.121036,-0.176564,-0.270799,0.860799,0.147201,0.304304,-40.738789,5.040390,16.547117,0.237516,1.656295,0.107894,0.000000,0.000000,0.000000,0.000000,0.000000,0.000000
13309843.000000,-0.255663,0.656042,0.314730,-1.536375,-0.234618,2.158269,0.132174,0.061348,0.722311,-0.120347,-0.174805,-0.272243,0.856008,0.150488,0.375715,-40.762592,4.965012,16.646299,0.201810,1.662704,0.048385,0.000000,0.000000,0.000000,0.000000,0.000000,0.000000
13309844.000000,-0.255597,0.656776,0.314595,-1.536559,-0.234888,2.159129,0.132327,0.060966,0.721172,-0.123288,-0.178490,-0.269870,0.871320,0.148516,0.403486,-40.861774,5.040390,16.820860,0.195402,1.695663,0.094161,0.000000,0.000000,0.000000,0.000000,0.000000,0.000000
13309845.000000,-0.255534,0.657500,0.314461,-1.536736,-0.235155,2.159979,0.132483,0.063669,0.721641,-0.128355,-0.178044,-0.268928,0.863151,0.149454,0.427289,-40.956989,5.135605,16.868467,0.207303,1.754256,0.081344,0.000000,0.000000,0.000000,0.000000,0.000000,0.000000
13309846.000000,-0.255466,0.658237,0.314336,-1.536919,-0.235431,2.160836,0.132635,0.064095,0.723214,-0.126869,-0.181530,-0.271939,0.856144,0.149216,0.403486,-41.107746,5.111801,17.066832,0.201810,1.819259,0.100570,0.000000,0.000000,0.000000,0.000000,0.000000,0.000000
13309847.000000,-0.255397,0.658984,0.314203,-1.537090,-0.235709,2.161694,0.132798,0.067521,0.724864,-0.126855,-0.176505,-0.270002,0.867901,0.151872,0.375715,-41.278339,5.135605,17.090635,0.201810,1.721298,0.041976,0.000000,0.000000,0.000000,0.000000,0.000000,0.000000
13309848.000000,-0.255336,0.659725,0.314069,-1.537264,-0.235988,2.162563,0.132950,0.067691,0.728687,-0.131314,-0.177017,-0.269762,0.864386,0.145925,0.451093,-41.425129,5.210983,17.189817,0.237516,1.617843,0.067611,0.000000,0.000000,0.000000,0.000000,0.000000,0.000000
13309849.000000,-0.255268,0.660467,0.313937,-1.537434,-0.236269,2.163423,0.133101,0.069023,0.726841,-0.129988,-0.176576,-0.269998,0.858862,0.146230,0.474897,-41.425129,5.234787,17.213621,0.303434,1.630660,0.094161,0.000000,0.000000,0.000000,0.000000,0.000000,0.000000
13309850.000000,-0.255202,0.661191,0.313802,-1.537610,-0.236545,2.164266,0.133262,0.069533,0.727723,-0.132435,-0.173363,-0.274723,0.864245,0.148603,0.526471,-41.325947,5.258591,17.241392,0.356534,1.656295,0.054794,0.000000,0.000000,0.000000,0.000000,0.000000,0.000000
13309851.000000,-0.255135,0.661921,0.313671,-1.537776,-0.236825,2.165110,0.133417,0.070624,0.726948,-0.130531,-0.170632,-0.275763,0.850241,0.148401,0.550275,-41.155354,5.258591,17.241392,0.339139,1.747848,0.074935,0.000000,0.000000,0.000000,0.000000,0.000000,0.000000
13309852.000000,-0.255061,0.662651,0.313534,-1.537944,-0.237103,2.165955,0.133577,0.070985,0.726549,-0.130642,-0.169491,-0.271066,0.849357,0.149723,0.451093,-40.956989,5.333969,17.289000,0.297025,1.767074,0.054794,0.000000,0.000000,0.000000,0.000000,0.000000,0.000000
13309853.000000,-0.254992,0.663370,0.313401,-1.538111,-0.237363,2.166811,0.133732,0.072546,0.728275,-0.129707,-0.165582,-0.266258,0.854632,0.148756,0.427289,-40.837971,5.357773,17.340574,0.213712,1.760665,0.087753,0.000000,0.000000,0.000000,0.000000,0.000000,0.000000
13309854.000000,-0.254921,0.664088,0.313270,-1.538277,-0.237632,2.167674,0.133895,0.073705,0.720382,-0.131085,-0.168916,-0.263923,0.853594,0.152034,0.403486,-40.516621,5.333969,17.388182,0.178007,1.735030,0.015426,0.000000,0.000000,0.000000,0.000000,0.000000,0.000000
13309855.000000,-0.254856,0.664783,0.313136,-1.538454,-0.237908,2.168511,0.134045,0.071685,0.723431,-0.129092,-0.171005,-0.270067,0.844754,0.149129,0.502668,-40.028645,5.310165,17.562742,0.207303,1.812850,0.074935,0.000000,0.000000,0.000000,0.000000,0.000000,0.000000
13309856.000000,-0.254784,0.665489,0.312997,-1.538609,-0.238195,2.169359,0.134194,0.070792,0.713525,-0.135629,-0.163634,-0.276604,0.839942,0.151766,0.451093,-39.588276,5.357773,17.487364,0.303434,1.923629,0.100570,0.000000,0.000000,0.000000,0.000000,0.000000,0.000000
13309857.000000,-0.254718,0.666214,0.312860,-1.538765,-0.238471,2.170191,0.134353,0.071163,0.709991,-0.135283,-0.162236,-0.273770,0.858982,0.153513,0.474897,-39.465290,5.333969,17.435789,0.320829,1.988631,0.048385,0.000000,0.000000,0.000000,0.000000,0.000000,0.000000
13309858.000000,-0.254648,0.666946,0.312727,-1.538931,-0.238734,2.171037,0.134501,0.069108,0.719370,-0.136069,-0.162394,-0.269705,0.853354,0.155769,0.474897,-39.588276,5.333969,17.562742,0.279630,1.962081,0.094161,0.000000,0.000000,0.000000,0.000000,0.000000,0.000000
13309859.000000,-0.254577,0.667681,0.312592,-1.539086,-0.239005,2.171898,0.134660,0.071760,0.722974,-0.132234,-0.159775,-0.272304,0.851159,0.155355,0.427289,-39.612080,5.286362,17.586546,0.279630,1.858627,0.067611,0.000000,0.000000,0.000000,0.000000,0.000000,0.000000
13309860.000000,-0.254504,0.668428,0.312449,-1.539248,-0.239282,2.172739,0.134812,0.073772,0.733127,-0.131744,-0.160980,-0.276210,0.853034,0.152981,0.375715,-39.810444,5.333969,17.634153,0.237516,1.786300,0.094161,0.000000,0.000000,0.000000,0.000000,0.000000,0.000000
13309861.000000,-0.254435,0.669161,0.312311,-1.539398,-0.239553,2.173580,0.134971,0.072838,0.735661,-0.130728,-0.157130,-0.278157,0.841971,0.154531,0.427289,-39.957233,5.357773,17.586546,0.249418,1.747848,0.041976,0.000000,0.000000,0.000000,0.000000,0.000000,0.000000
13309862.000000,-0.254366,0.669896,0.312177,-1.539555,-0.239828,2.174426,0.135117,0.072842,0.733766,-0.131150,-0.156393,-0.276155,0.839038,0.151136,0.451093,-40.004841,5.310165,17.634153,0.303434,1.851302,0.107894,0.000000,0.000000,0.000000,0.000000,0.000000,0.000000
13309863.000000,-0.254301,0.670625,0.312036,-1.539709,-0.240092,2.175251,0.135277,0.071347,0.732731,-0.130427,-0.154612,-0.272494,0.838026,0.152407,0.526471,-40.028645,5.333969,17.634153,0.291532,1.942855,0.048385,0.000000,0.000000,0.000000,0.000000,0.000000,0.000000
13309864.000000,-0.254232,0.671370,0.311901,-1.539862,-0.240367,2.176083,0.135429,0.071984,0.735754,-0.132863,-0.155878,-0.273934,0.828613,0.152495,0.550275,-40.175434,5.357773,17.733335,0.273221,1.968490,0.034652,0.000000,0.000000,0.000000,0.000000,0.000000,0.000000
13309865.000000,-0.254163,0.672122,0.311772,-1.540019,-0.240644,2.176923,0.135573,0.069249,0.736413,-0.132911,-0.155859,-0.274874,0.832741,0.149286,0.574079,-40.298420,5.310165,17.808714,0.237516,1.890670,0.107894,0.000000,0.000000,0.000000,0.000000,0.000000,0.000000
13309866.000000,-0.254100,0.672852,0.311639,-1.540176,-0.240917,2.177768,0.135735,0.065495,0.726756,-0.134785,-0.159282,-0.276151,0.834839,0.151718,0.673261,-40.250813,5.333969,17.931700,0.213712,1.812850,0.054794,0.000000,0.000000,0.000000,0.000000,0.000000,0.000000
13309867.000000,-0.254028,0.673594,0.311503,-1.540330,-0.241197,2.178598,0.135892,0.065563,0.723906,-0.133380,-0.156383,-0.273124,0.826954,0.155610,0.649457,-40.175434,5.381577,18.054686,0.231107,1.851302,0.067611,0.000000,0.000000,0.000000,0.000000,0.000000,0.000000
13309868.000000,-0.253957,0.674328,0.311370,-1.540469,-0.241477,2.179425,0.136047,0.067592,0.738043,-0.130168,-0.149472,-0.277799,0.829789,0.154356,0.673261,-40.127827,5.333969,17.983274,0.285123,1.916305,0.061202,0.000000,0.000000,0.000000,0.000000,0.000000,0.000000
13309869.000000,-0.253894,0.675085,0.311230,-1.540605,-0.241764,2.180257,0.136198,0.064727,0.745543,-0.131373,-0.142771,-0.280046,0.824763,0.151546,0.748639,-40.274616,5.433151,17.955503,0.315336,1.995040,0.114303,0.000000,0.000000,0.000000,0.000000,0.000000,0.000000
13309870.000000,-0.253824,0.675844,0.311098,-1.540738,-0.242047,2.181080,0.136363,0.064335,0.754080,-0.128794,-0.138994,-0.280892,0.821591,0.154062,0.748639,-40.421406,5.405380,17.856321,0.320829,2.001449,0.048385,0.000000,0.000000,0.000000,0.000000,0.000000,0.000000
13309871.000000,-0.253756,0.676608,0.310962,-1.540878,-0.242319,2.181931,0.136519,0.067224,0.765371,-0.131752,-0.139804,-0.274903,0.827346,0.157157,0.748639,-40.762592,5.433151,17.884092,0.273221,1.903487,0.067611,0.000000,0.000000,0.000000,0.000000,0.000000,0.000000
13309872.000000,-0.253683,0.677380,0.310826,-1.541007,-0.242586,2.182789,0.136668,0.066720,0.767041,-0.133261,-0.135712,-0.273827,0.832448,0.153554,0.724836,-41.056171,5.433151,17.856321,0.207303,1.760665,0.120712,0.000000,0.000000,0.000000,0.000000,0.000000,0.000000
13309873.000000,-0.253613,0.678137,0.310687,-1.541136,-0.242868,2.183619,0.136834,0.064657,0.781790,-0.134983,-0.133127,-0.283616,0.838194,0.159371,0.772443,-41.254536,5.456955,17.856321,0.201810,1.708480,0.041976,0.000000,0.000000,0.000000,0.000000,0.000000,0.000000
13309874.000000,-0.253540,0.678923,0.310547,-1.541260,-0.243157,2.184456,0.136988,0.068346,0.785112,-0.137337,-0.128096,-0.285420,0.834878,0.159526,0.748639,-41.619526,5.528366,17.856321,0.255826,1.800033,0.107894,0.000000,0.000000,0.000000,0.000000,0.000000,0.000000
13309875.000000,-0.253467,0.679707,0.310405,-1.541382,-0.243440,2.185268,0.137155,0.066807,0.784647,-0.138217,-0.124360,-0.280875,0.838099,0.159014,0.748639,-41.889301,5.579941,17.856321,0.285123,1.916305,0.067611,0.000000,0.000000,0.000000,0.000000,0.000000,0.000000
13309876.000000,-0.253398,0.680482,0.310273,-1.541513,-0.243716,2.186104,0.137319,0.068450,0.778605,-0.139896,-0.127633,-0.277835,0.835817,0.156566,0.772443,-42.159077,5.556137,17.983274,0.320829,1.930038,0.054794,0.000000,0.000000,0.000000,0.000000,0.000000,0.000000
13309877.000000,-0.253317,0.681255,0.310132,-1.541651,-0.243994,2.186949,0.137475,0.073112,0.768075,-0.137891,-0.133149,-0.277780,0.833900,0.159909,0.649457,-42.329670,5.627548,18.253050,0.308927,1.930038,0.054794,0.000000,0.000000,0.000000,0.000000,0.000000,0.000000
13309878.000000,-0.253242,0.682018,0.309982,-1.541786,-0.244275,2.187791,0.137630,0.073918,0.756779,-0.141021,-0.134887,-0.277533,0.836510,0.159906,0.625654,-42.206684,5.774338,18.451414,0.273221,1.838485,0.114303,0.000000,0.000000,0.000000,0.000000,0.000000,0.000000
13309879.000000,-0.253167,0.682763,0.309849,-1.541922,-0.244553,2.188633,0.137797,0.071482,0.743684,-0.138254,-0.135007,-0.279022,0.838473,0.159636,0.601850,-41.960712,5.702927,18.721189,0.279630,1.819259,0.067611,0.000000,0.000000,0.000000,0.000000,0.000000,0.000000
13309880.000000,-0.253091,0.683528,0.309704,-1.542050,-0.244831,2.189456,0.137955,0.068942,0.742105,-0.142027,-0.131968,-0.276093,0.824761,0.157139,0.601850,-41.841694,5.750534,18.871946,0.315336,1.988631,0.054794,0.000000,0.000000,0.000000,0.000000,0.000000,0.000000
13309881.000000,-0.253010,0.684296,0.309559,-1.542170,-0.245106,2.190260,0.138109,0.075469,0.747306,-0.146308,-0.127204,-0.279127,0.815878,0.152980,0.502668,-41.913105,5.750534,18.919554,0.351041,2.137862,0.114303,0.000000,0.000000,0.000000,0.000000,0.000000,0.000000
13309882.000000,-0.252929,0.685063,0.309420,-1.542286,-0.245387,2.191078,0.138275,0.076929,0.753904,-0.143563,-0.124060,-0.278416,0.821009,0.159774,0.427289,-41.841694,5.726730,18.971128,0.315336,2.190048,0.048385,0.000000,0.000000,0.000000,0.000000,0.000000,0.000000
13309883.000000,-0.252849,0.685842,0.309281,-1.542409,-0.245663,2.191900,0.138433,0.077314,0.761285,-0.143313,-0.126445,-0.277984,0.819041,0.156057,0.375715,-41.865498,5.651352,19.094114,0.279630,2.066451,0.087753,0.000000,0.000000,0.000000,0.000000,0.000000,0.000000
13309884.000000,-0.252765,0.686598,0.309129,-1.542528,-0.245936,2.192731,0.138597,0.078170,0.764954,-0.145678,-0.126279,-0.273795,0.817913,0.155391,0.304304,-41.694904,5.798141,19.117918,0.255826,1.923629,0.074935,0.000000,0.000000,0.000000,0.000000,0.000000,0.000000
13309885.000000,-0.252685,0.687361,0.308986,-1.542645,-0.246214,2.193549,0.138756,0.079551,0.762659,-0.146672,-0.123019,-0.270671,0.824045,0.154139,0.328107,-41.472736,5.798141,19.141722,0.255826,1.955673,0.081344,0.000000,0.000000,0.000000,0.000000,0.000000,0.000000
13309886.000000,-0.252608,0.688120,0.308843,-1.542746,-0.246499,2.194350,0.138918,0.077765,0.758762,-0.143242,-0.113367,-0.280876,0.813824,0.158000,0.351911,-41.401325,5.750534,18.994932,0.320829,2.020675,0.074935,0.000000,0.000000,0.000000,0.000000,0.000000,0.000000
13309887.000000,-0.252524,0.688884,0.308701,-1.542846,-0.246788,2.195164,0.139075,0.082522,0.758383,-0.141965,-0.107944,-0.283952,0.805045,0.156573,0.252729,-41.278339,5.750534,18.895750,0.393156,2.060043,0.067611,0.000000,0.000000,0.000000,0.000000,0.000000,0.000000
13309888.000000,-0.252447,0.689643,0.308561,-1.542943,-0.247071,2.195967,0.139233,0.082186,0.760231,-0.139637,-0.103860,-0.279796,0.807853,0.154006,0.304304,-41.079975,5.702927,18.796568,0.428861,2.039901,0.094161,0.000000,0.000000,0.000000,0.000000,0.000000,0.000000
13309889.000000,-0.252363,0.690383,0.308423,-1.543052,-0.247335,2.196784,0.139396,0.081592,0.756895,-0.141322,-0.101906,-0.272959,0.805506,0.154776,0.252729,-40.691181,5.651352,18.871946,0.356534,2.001449,0.054794,0.000000,0.000000,0.000000,0.000000,0.000000,0.000000
13309890.000000,-0.252280,0.691115,0.308289,-1.543149,-0.247613,2.197617,0.139556,0.082985,0.748926,-0.138526,-0.099099,-0.273128,0.806460,0.157848,0.252729,-40.104023,5.556137,18.895750,0.315336,1.865035,0.074935,0.000000,0.000000,0.000000,0.000000,0.000000,0.000000
13309891.000000,-0.252194,0.691860,0.308150,-1.543233,-0.247893,2.198419,0.139714,0.081711,0.743867,-0.137920,-0.095908,-0.282783,0.806170,0.155347,0.177350,-39.612080,5.528366,18.748960,0.297025,1.903487,0.087753,0.000000,0.000000,0.000000,0.000000,0.000000,0.000000
13309892.000000,-0.252118,0.692611,0.308016,-1.543315,-0.248175,2.199218,0.139870,0.078720,0.746163,-0.135399,-0.091251,-0.282517,0.797585,0.153092,0.228925,-39.512897,5.405380,18.625975,0.285123,2.104903,0.107894,0.000000,0.000000,0.000000,0.000000,0.000000,0.000000
13309893.000000,-0.252039,0.693380,0.307874,-1.543398,-0.248457,2.200015,0.140036,0.079676,0.749765,-0.136271,-0.087918,-0.277843,0.812107,0.154971,0.276533,-39.540668,5.405380,18.499022,0.285123,2.202865,0.041976,0.000000,0.000000,0.000000,0.000000,0.000000,0.000000
13309894.000000,-0.251958,0.694135,0.307746,-1.543488,-0.248734,2.200845,0.140187,0.080646,0.749716,-0.136599,-0.090145,-0.284064,0.818298,0.156094,0.328107,-39.588276,5.286362,18.574400,0.285123,2.047225,0.100570,0.000000,0.000000,0.000000,0.000000,0.000000,0.000000
13309895.000000,-0.251874,0.694905,0.307603,-1.543561,-0.249020,2.201691,0.140347,0.079445,0.748373,-0.140993,-0.085552,-0.282757,0.824219,0.156086,0.328107,-39.612080,5.310165,18.526793,0.273221,1.812850,0.061202,0.000000,0.000000,0.000000,0.000000,0.000000,0.000000
13309896.000000,-0.251791,0.695680,0.307462,-1.543636,-0.249309,2.202512,0.140505,0.079120,0.749041,-0.137271,-0.082403,-0.285820,0.824172,0.154960,0.304304,-39.687458,5.310165,18.499022,0.351041,1.714889,0.054794,0.000000,0.000000,0.000000,0.000000,0.000000,0.000000
13309897.000000,-0.251712,0.696450,0.307334,-1.543701,-0.249594,2.203325,0.140660,0.080213,0.750383,-0.134704,-0.078760,-0.282960,0.825997,0.156684,0.351911,-39.810444,5.187180,18.427610,0.428861,1.754256,0.107894,0.000000,0.000000,0.000000,0.000000,0.000000,0.000000
13309898.000000,-0.251637,0.697231,0.307197,-1.543754,-0.249867,2.204131,0.140823,0.077602,0.754200,-0.137561,-0.069702,-0.277042,0.809752,0.156637,0.427289,-40.004841,5.135605,18.205442,0.422452,1.955673,0.074935,0.000000,0.000000,0.000000,0.000000,0.000000,0.000000
13309899.000000,-0.251549,0.698003,0.307065,-1.543814,-0.250146,2.204934,0.140980,0.081703,0.767879,-0.133323,-0.066873,-0.277041,0.805588,0.152640,0.351911,-40.199238,5.064194,18.130064,0.386747,2.072860,0.114303,0.000000,0.000000,0.000000,0.000000,0.000000,0.000000
13309900.000000,-0.251470,0.698778,0.306932,-1.543873,-0.250423,2.205763,0.141143,0.078870,0.770132,-0.134338,-0.065095,-0.275130,0.814936,0.154440,0.403486,-40.199238,5.040390,18.078489,0.303434,1.942855,0.054794,0.000000,0.000000,0.000000,0.000000,0.000000,0.000000
13309901.000000,-0.251389,0.699552,0.306803,-1.543932,-0.250693,2.206594,0.141299,0.077357,0.768930,-0.130467,-0.062522,-0.273371,0.819156,0.157670,0.427289,-40.052448,4.965012,18.106260,0.201810,1.806442,0.067611,0.000000,0.000000,0.000000,0.000000,0.000000,0.000000
13309902.000000,-0.251315,0.700312,0.306674,-1.543982,-0.250968,2.207421,0.141458,0.078344,0.768377,-0.131687,-0.054784,-0.271424,0.816607,0.159912,0.502668,-39.905659,4.917404,18.030882,0.201810,1.812850,0.087753,0.000000,0.000000,0.000000,0.000000,0.000000,0.000000
13309903.000000,-0.251236,0.701095,0.306538,-1.544020,-0.251250,2.208227,0.141611,0.076045,0.773999,-0.130441,-0.049221,-0.276221,0.813113,0.157755,0.574079,-39.957233,4.917404,17.832518,0.267728,1.988631,0.087753,0.000000,0.000000,0.000000,0.000000,0.000000,0.000000
13309904.000000,-0.251158,0.701892,0.306399,-1.544060,-0.251568,2.209283,0.141801,0.074411,0.794004,-0.132517,-0.045963,-0.294516,0.892195,0.167260,0.649457,-40.151630,4.917404,17.661924,0.637601,-0.150956,-0.221696,0.000000,0.000000,0.000000,0.000000,0.000000,0.000000
13309905.000000,-0.251071,0.702672,0.306255,-1.544101,-0.252080,2.210449,0.142013,0.078707,0.794747,-0.136937,-0.043375,-0.370172,0.988038,0.183919,0.625654,-40.346027,5.040390,17.610350,2.663663,-3.012894,-0.676713,0.000000,0.000000,0.000000,0.000000,0.000000,0.000000
13309906.000000,-0.250995,0.703461,0.306126,-1.544102,-0.252304,2.211565,0.142041,0.078627,0.791755,-0.133969,-0.028756,-0.326818,1.044631,0.132897,0.724836,-40.421406,4.917404,17.019224,1.892789,-4.956559,0.555587,0.000000,0.000000,0.000000,0.000000,0.000000,0.000000
13309907.000000,-0.250899,0.704293,0.306038,-1.543986,-0.252699,2.212577,0.142309,0.082696,0.806500,-0.119597,0.023468,-0.352291,1.035070,0.175794,0.526471,-41.202961,4.254868,14.892759,2.562040,-5.275163,-0.413041,0.000000,0.000000,0.000000,0.000000,0.000000,0.000000
13309908.000000,-0.250737,0.705129,0.305790,-1.543833,-0.253057,2.213631,0.142457,0.110395,0.810669,-0.163504,0.070242,-0.355939,1.028163,0.163418,-0.612139,-41.813923,5.873520,12.421141,2.609647,-5.503129,-0.281205,0.000000,0.000000,0.000000,0.000000,0.000000,0.000000
13309909.000000,-0.250708,0.705862,0.305685,-1.543672,-0.253395,2.214663,0.142604,0.079044,0.782100,-0.145394,0.102739,-0.354727,1.019700,0.153476,0.252729,-40.861774,5.333969,10.195494,2.436613,-5.282487,-0.136552,0.000000,0.000000,0.000000,0.000000,0.000000,0.000000
13309910.000000,-0.250670,0.706587,0.305655,-1.543525,-0.253657,2.215687,0.142670,0.065614,0.762901,-0.104602,0.118612,-0.318506,1.006493,0.120934,0.947004,-39.957233,3.687546,8.537169,1.594327,-4.748734,0.727706,0.000000,0.000000,0.000000,0.000000,0.000000,0.000000
13309911.000000,-0.250516,0.707282,0.305483,-1.543262,-0.254061,2.216780,0.142897,0.094954,0.737893,-0.121461,0.167893,-0.345856,1.024004,0.155585,-0.017047,-38.560749,4.203293,5.549803,2.030118,-4.807328,0.067611,0.000000,0.000000,0.000000,0.000000,0.000000,0.000000
13309912.000000,-0.250497,0.707864,0.305452,-1.543029,-0.254500,2.217664,0.143096,0.072812,0.683662,-0.093169,0.188286,-0.370592,0.969047,0.167318,0.923200,-35.767780,2.806808,3.423338,2.872404,-3.285722,-0.314164,0.000000,0.000000,0.000000,0.000000,0.000000,0.000000
13309913.000000,-0.250519,0.708389,0.305509,-1.542810,-0.254736,2.218567,0.143189,0.038838,0.624322,-0.041233,0.199395,-0.319741,0.935812,0.145167,2.454572,-32.292439,0.228073,1.887999,1.916593,-2.108353,0.265365,0.000000,0.000000,0.000000,0.000000,0.000000,0.000000
13309914.000000,-0.250362,0.708855,0.305399,-1.542550,-0.255004,2.219514,0.143415,0.077712,0.563837,-0.061186,0.221681,-0.304924,0.933450,0.168883,1.343732,-28.206135,0.275680,0.186034,1.348966,-1.946305,-0.314164,0.000000,0.000000,0.000000,0.000000,0.000000,0.000000
13309915.000000,-0.250216,0.709208,0.305307,-1.542327,-0.255360,2.220283,0.143546,0.100119,0.486891,-0.072091,0.225636,-0.318127,0.871084,0.153734,0.375715,-23.116108,0.251877,-0.583620,1.659330,-0.475968,-0.056901,0.000000,0.000000,0.000000,0.000000,0.000000,0.000000
13309916.000000,-0.250186,0.709511,0.305275,-1.542107,-0.255625,2.220935,0.143677,0.079003,0.418702,-0.056578,0.222734,-0.294733,0.785575,0.148040,1.069990,-17.581745,-0.581253,-0.976381,1.271146,1.519881,0.186630,0.000000,0.000000,0.000000,0.000000,0.000000,0.000000
13309917.000000,-0.250118,0.709792,0.305184,-1.541840,-0.255886,2.221701,0.143888,0.073776,0.368260,-0.066767,0.232751,-0.285544,0.778074,0.165660,1.268354,-12.392536,-0.509842,-1.793642,1.055997,1.695663,-0.254655,0.000000,0.000000,0.000000,0.000000,0.000000,0.000000
13309918.000000,-0.250058,0.710058,0.305137,-1.541578,-0.256240,2.222415,0.144025,0.070908,0.333331,-0.059899,0.241806,-0.309540,0.752174,0.154931,1.565900,-7.520710,-0.997818,-2.511720,1.803068,1.884261,-0.089860,0.000000,0.000000,0.000000,0.000000,0.000000,0.000000
13309919.000000,-0.250017,0.710278,0.305100,-1.541353,-0.256545,2.222986,0.144137,0.063796,0.286383,-0.049181,0.232134,-0.310559,0.699584,0.138496,2.085615,-2.406880,-1.588944,-2.511720,2.042020,2.840072,0.324874,0.000000,0.000000,0.000000,0.000000,0.000000,0.000000
13309920.000000,-0.249990,0.710488,0.305070,-1.541086,-0.256741,2.223639,0.144342,0.052131,0.263700,-0.041149,0.241231,-0.271050,0.688152,0.157599,2.779890,2.218975,-2.199906,-2.979860,1.325162,2.729293,-0.070634,0.000000,0.000000,0.000000,0.000000,0.000000,0.000000
13309921.000000,-0.249980,0.710704,0.305093,-1.540815,-0.256993,2.224304,0.144509,0.037512,0.246369,-0.018629,0.247800,-0.264637,0.689546,0.158309,3.620954,6.257671,-3.524979,-3.570986,1.187833,2.235824,-0.142960,0.000000,0.000000,0.000000,0.000000,0.000000,0.000000
13309922.000000,-0.249944,0.710861,0.305070,-1.540553,-0.257188,2.224867,0.144648,0.037832,0.223326,-0.021626,0.250358,-0.243961,0.649824,0.147873,4.017683,10.859722,-4.068497,-3.943910,0.644010,2.508651,0.067611,0.000000,0.000000,0.000000,0.000000,0.000000,0.000000
13309923.000000,-0.249880,0.710963,0.305000,-1.540295,-0.257339,2.225345,0.144841,0.048210,0.182950,-0.037606,0.251533,-0.209530,0.596700,0.164158,3.966108,15.632366,-3.870133,-4.241457,-0.228488,3.516647,-0.235429,0.000000,0.000000,0.000000,0.000000,0.000000,0.000000
13309924.000000,-0.249818,0.711057,0.304952,-1.540036,-0.257532,2.225879,0.144993,0.054099,0.154892,-0.040703,0.249588,-0.202682,0.578717,0.157246,3.942304,20.186810,-3.969315,-4.535036,-0.641390,3.913070,-0.155778,0.000000,0.000000,0.000000,0.000000,0.000000,0.000000
13309925.000000,-0.249786,0.711114,0.304906,-1.539800,-0.257736,2.226421,0.145150,0.045073,0.125148,-0.042060,0.242497,-0.198936,0.570282,0.157806,4.339033,24.713482,-4.092300,-4.586610,-0.760409,4.160262,-0.097184,0.000000,0.000000,0.000000,0.000000,0.000000,0.000000
13309926.000000,-0.249771,0.711109,0.304866,-1.539609,-0.257916,2.227032,0.145316,0.034091,0.084134,-0.040427,0.221665,-0.191017,0.585392,0.158406,4.930158,29.878887,-4.310501,-4.066896,-0.975558,3.816024,-0.155778,0.000000,0.000000,0.000000,0.000000,0.000000,0.000000
13309927.000000,-0.249727,0.711100,0.304821,-1.539426,-0.258111,2.227718,0.145470,0.033830,0.054299,-0.040749,0.208293,-0.194040,0.621064,0.157220,5.128522,34.679302,-4.461258,-3.475771,-0.921542,2.755843,-0.056901,0.000000,0.000000,0.000000,0.000000,0.000000,0.000000
13309928.000000,-0.249671,0.711113,0.304767,-1.539219,-0.258336,2.228439,0.145646,0.040889,0.043803,-0.046381,0.207505,-0.207771,0.658634,0.159506,5.080915,38.690228,-4.508865,-3.475771,-0.557162,1.767074,-0.169511,0.000000,0.000000,0.000000,0.000000,0.000000,0.000000
13309929.000000,-0.249631,0.711153,0.304720,-1.539002,-0.258519,2.229152,0.145783,0.040159,0.043215,-0.048639,0.208547,-0.200750,0.681478,0.153023,5.255476,42.046551,-4.754837,-3.697939,-0.611178,1.155502,0.067611,0.000000,0.000000,0.000000,0.000000,0.000000,0.000000
13309930.000000,-0.249585,0.711228,0.304674,-1.538752,-0.258736,2.229869,0.145961,0.041869,0.055343,-0.050260,0.221437,-0.206840,0.697116,0.157708,5.326887,44.518169,-5.000809,-4.463624,-0.497653,0.836898,-0.064225,0.000000,0.000000,0.000000,0.000000,0.000000,0.000000
13309931.000000,-0.249494,0.711342,0.304580,-1.538468,-0.258960,2.230612,0.146117,0.057534,0.077230,-0.067615,0.242097,-0.209661,0.713064,0.154708,4.783369,46.303448,-4.580276,-5.772829,-0.414340,0.648299,-0.031266,0.000000,0.000000,0.000000,0.000000,0.000000,0.000000
13309932.000000,-0.249398,0.711490,0.304499,-1.538156,-0.259177,2.231403,0.146250,0.071526,0.102140,-0.074575,0.266421,-0.212662,0.735000,0.149970,4.216047,47.576946,-4.362076,-7.427186,-0.431735,0.245467,0.199447,0.000000,0.000000,0.000000,0.000000,0.000000,0.000000
13309933.000000,-0.249320,0.711655,0.304433,-1.537838,-0.259398,2.232244,0.146433,0.073196,0.124552,-0.069580,0.291267,-0.213988,0.766344,0.159351,3.989912,48.556866,-4.433487,-9.085512,-0.479342,-0.196732,-0.023942,0.000000,0.000000,0.000000,0.000000,0.000000,0.000000
13309934.000000,-0.249254,0.711850,0.304359,-1.537491,-0.259630,2.233110,0.146578,0.069615,0.153320,-0.069634,0.313379,-0.220444,0.798908,0.154891,3.966108,49.144024,-4.485062,-10.890627,-0.503146,-0.613297,0.034652,0.000000,0.000000,0.000000,0.000000,0.000000,0.000000
13309935.000000,-0.249192,0.712067,0.304316,-1.537126,-0.259886,2.233994,0.146726,0.065187,0.177415,-0.061554,0.333419,-0.234232,0.823496,0.151116,4.041486,49.536785,-5.024612,-12.644167,-0.426241,-1.041764,0.081344,0.000000,0.000000,0.000000,0.000000,0.000000,0.000000
13309936.000000,-0.249118,0.712309,0.304253,-1.536752,-0.260143,2.234910,0.146881,0.065837,0.199912,-0.060331,0.347732,-0.237620,0.841328,0.152976,3.966108,49.778790,-5.270584,-14.373903,-0.527865,-1.406144,0.034652,0.000000,0.000000,0.000000,0.000000,0.000000,0.000000
13309937.000000,-0.249047,0.712552,0.304174,-1.536362,-0.260392,2.235827,0.147035,0.068109,0.216066,-0.067095,0.363438,-0.236862,0.871096,0.152954,3.942304,50.123943,-5.318192,-15.956850,-0.730197,-1.737565,0.021835,0.000000,0.000000,0.000000,0.000000,0.000000,0.000000
13309938.000000,-0.248970,0.712824,0.304098,-1.535964,-0.260644,2.236752,0.147184,0.073257,0.234768,-0.072635,0.369261,-0.239722,0.883349,0.147364,3.918500,50.270733,-5.341995,-17.266054,-0.856539,-1.900529,0.028243,0.000000,0.000000,0.000000,0.000000,0.000000,0.000000
13309939.000000,-0.248893,0.713133,0.304009,-1.535553,-0.260900,2.237670,0.147317,0.074564,0.261090,-0.078800,0.382407,-0.246721,0.887463,0.143866,3.866926,50.219158,-5.270584,-18.674440,-0.963656,-1.829118,0.147262,0.000000,0.000000,0.000000,0.000000,0.000000,0.000000
13309940.000000,-0.248795,0.713489,0.303911,-1.535108,-0.261170,2.238560,0.147463,0.082021,0.299882,-0.084747,0.402676,-0.258137,0.890329,0.146445,3.545576,49.659771,-5.123795,-20.281191,-1.005770,-1.569108,0.127120,0.000000,0.000000,0.000000,0.000000,0.000000,0.000000
13309941.000000,-0.248708,0.713882,0.303825,-1.534673,-0.261460,2.239479,0.147617,0.082958,0.335051,-0.083800,0.411629,-0.265548,0.895166,0.150129,3.398786,48.850445,-5.195206,-21.590395,-0.862032,-1.536149,0.041976,0.000000,0.000000,0.000000,0.000000,0.000000,0.000000
13309942.000000,-0.248627,0.714312,0.303748,-1.534233,-0.261724,2.240423,0.147755,0.080653,0.363110,-0.078893,0.416952,-0.261799,0.915424,0.147287,3.371015,47.747540,-5.441177,-22.681398,-0.945345,-1.789750,0.120712,0.000000,0.000000,0.000000,0.000000,0.000000,0.000000
13309943.000000,-0.248539,0.714780,0.303674,-1.533779,-0.261982,2.241380,0.147912,0.084718,0.400900,-0.081563,0.423555,-0.259896,0.927580,0.151160,3.248029,46.426434,-5.687149,-23.716860,-1.023165,-2.342728,0.041976,0.000000,0.000000,0.000000,0.000000,0.000000,0.000000
