chaoyuefei/paper-gmrm-data/robot_logs/s2_dq_gmrm_xz_max_0.50_log_20260314_175211.csv
# time_ms,q_0,q_1,q_2,q_3,q_4,q_5,q_6,dq_0,dq_1,dq_2,dq_3,dq_4,dq_5,dq_6,tau_J_0,tau_J_1,tau_J_2,tau_J_3,tau_J_4,tau_J_5,tau_J_6,O_dP_EE_c_0,O_dP_EE_c_1,O_dP_EE_c_2,O_dP_EE_c_3,O_dP_EE_c_4,O_dP_EE_c_5
13393562.000000,-0.258967,0.525653,0.336245,-1.429386,-0.177866,1.925870,0.097029,-0.000591,-0.001069,-0.000255,-0.000431,0.000646,0.000092,-0.000895,0.006757,-39.024921,4.647629,19.590025,1.001981,1.318465,-0.130143,0.000000,0.000000,0.000000,0.000000,0.000000,0.000000
13393563.000000,-0.258964,0.525655,0.336245,-1.429386,-0.177866,1.925867,0.097033,0.000163,-0.000156,-0.000170,-0.000287,0.000634,-0.000414,0.000624,-0.017047,-39.048725,4.647629,19.590025,0.996488,1.331283,-0.163102,0.000000,0.000000,0.000000,0.000000,0.000000,0.000000
13393564.000000,-0.258967,0.525659,0.336245,-1.429389,-0.177870,1.925866,0.097031,-0.001005,0.001102,-0.000113,-0.000191,-0.000900,-0.000276,-0.000330,0.030561,-39.100300,4.647629,19.590025,1.032194,1.331283,-0.142960,0.000000,0.000000,0.000000,0.000000,0.000000,0.000000
13393565.000000,-0.258964,0.525659,0.336247,-1.429391,-0.177868,1.925867,0.097034,0.001093,0.000735,0.000574,-0.000684,-0.000159,0.000291,0.000763,-0.044818,-39.100300,4.619858,19.613829,1.020292,1.318465,-0.169511,0.000000,0.000000,0.000000,0.000000,0.000000,0.000000
13393566.000000,-0.258989,0.525657,0.336247,-1.429390,-0.177865,1.925869,0.097030,-0.019272,0.010717,-0.013075,-0.005552,-0.001724,0.000669,0.006771,-0.389971,-38.461567,3.985092,19.292479,0.936979,1.305648,-0.083451,0.000000,0.000000,0.000000,0.000000,0.000000,0.000000
13393567.000000,-0.259016,0.525649,0.336227,-1.429394,-0.177848,1.925864,0.097047,-0.040974,0.019533,-0.033182,-0.012403,0.001838,-0.003738,0.009520,-2.492632,-36.358906,1.997482,18.276854,0.589994,1.292831,-0.070634,0.000000,0.000000,0.000000,0.000000,0.000000,0.000000
13393568.000000,-0.259042,0.525675,0.336144,-1.429405,-0.177828,1.925858,0.097087,-0.033693,0.026490,-0.052187,-0.019804,0.008467,-0.002880,0.024370,-6.106829,-33.296162,-0.680435,16.471739,0.112089,1.292831,-0.149369,0.000000,0.000000,0.000000,0.000000,0.000000,0.000000
13393569.000000,-0.259094,0.525735,0.336013,-1.429431,-0.177849,1.925856,0.097122,-0.023121,0.029359,-0.065888,-0.018257,-0.000316,-0.003398,0.024908,-9.451251,-29.943806,-3.255203,14.000120,-0.025240,1.324874,-0.077042,0.000000,0.000000,0.000000,0.000000,0.000000,0.000000
13393570.000000,-0.259176,0.525811,0.335875,-1.429491,-0.177904,1.925857,0.097179,-0.023603,0.034884,-0.067835,-0.029249,-0.018462,-0.001926,0.034547,-11.478534,-26.861225,-5.195206,11.627684,0.159696,1.435653,-0.122819,0.000000,0.000000,0.000000,0.000000,0.000000,0.000000
13393571.000000,-0.259262,0.525901,0.335753,-1.429601,-0.177980,1.925919,0.097230,-0.031711,0.045500,-0.065979,-0.047796,-0.039490,0.016415,0.041885,-12.097430,-24.238850,-6.226700,9.751158,0.452665,1.090499,-0.044083,0.000000,0.000000,0.000000,0.000000,0.000000,0.000000
13393572.000000,-0.259320,0.525999,0.335652,-1.429706,-0.178070,1.926059,0.097292,-0.036393,0.054055,-0.067065,-0.059970,-0.058281,0.058025,0.049749,-11.974444,-22.060810,-6.274307,7.648497,0.727323,0.219833,-0.023942,0.000000,0.000000,0.000000,0.000000,0.000000,0.000000
13393573.000000,-0.259376,0.526105,0.335599,-1.429820,-0.178161,1.926230,0.097356,-0.040458,0.069863,-0.055985,-0.073503,-0.073412,0.098254,0.054497,-11.085773,-20.346943,-6.028336,5.843382,0.793241,-0.703934,0.028243,0.000000,0.000000,0.000000,0.000000,0.000000,0.000000
13393574.000000,-0.259422,0.526210,0.335577,-1.429926,-0.178236,1.926373,0.097425,-0.049831,0.077328,-0.047651,-0.075038,-0.076232,0.117557,0.058610,-9.820209,-18.855244,-5.540359,4.089842,0.500272,-1.003312,0.067611,0.000000,0.000000,0.000000,0.000000,0.000000,0.000000
13393575.000000,-0.259438,0.526314,0.335567,-1.430037,-0.178306,1.926486,0.097518,-0.045873,0.086883,-0.038898,-0.086905,-0.069405,0.112138,0.067537,-8.756976,-17.458759,-4.802444,2.705260,0.058073,-0.632523,-0.056901,0.000000,0.000000,0.000000,0.000000,0.000000,0.000000
13393576.000000,-0.259440,0.526404,0.335576,-1.430152,-0.178400,1.926623,0.097602,-0.038892,0.086374,-0.029079,-0.093684,-0.074585,0.123994,0.069320,-7.840533,-16.042439,-4.116104,1.495238,-0.258700,-0.106095,-0.056901,0.000000,0.000000,0.000000,0.000000,0.000000,0.000000
13393577.000000,-0.259446,0.526456,0.335574,-1.430307,-0.178488,1.926800,0.097698,-0.032522,0.076975,-0.025729,-0.114364,-0.073602,0.136568,0.076641,-6.876482,-14.276997,-3.207596,1.122313,-0.599276,0.264693,-0.089860,0.000000,0.000000,0.000000,0.000000,0.000000,0.000000
13393578.000000,-0.259475,0.526476,0.335560,-1.430494,-0.178604,1.927043,0.097792,-0.038188,0.058719,-0.026839,-0.138466,-0.083963,0.169911,0.084942,-5.662493,-12.146564,-2.227677,1.344481,-0.653292,0.258285,-0.089860,0.000000,0.000000,0.000000,0.000000,0.000000,0.000000
13393579.000000,-0.259510,0.526494,0.335532,-1.430711,-0.178754,1.927313,0.097896,-0.041222,0.048083,-0.032216,-0.167311,-0.103044,0.203781,0.093602,-4.500079,-10.115314,-1.144608,2.014952,-0.384127,0.134689,-0.136552,0.000000,0.000000,0.000000,0.000000,0.000000,0.000000
13393580.000000,-0.259552,0.526523,0.335489,-1.430941,-0.178928,1.927586,0.097988,-0.046175,0.041388,-0.041627,-0.191424,-0.132315,0.224148,0.094332,-3.337664,-8.401447,-0.065506,2.756834,0.069974,0.232650,-0.037675,0.000000,0.000000,0.000000,0.000000,0.000000,0.000000
13393581.000000,-0.259613,0.526587,0.335446,-1.431162,-0.179111,1.927875,0.098093,-0.051931,0.051255,-0.046059,-0.202357,-0.150696,0.248552,0.099301,-2.048296,-7.326313,0.791427,3.149595,0.482877,0.434066,-0.037675,0.000000,0.000000,0.000000,0.000000,0.000000,0.000000
13393582.000000,-0.259672,0.526671,0.335417,-1.431391,-0.179278,1.928187,0.098197,-0.058455,0.063106,-0.040354,-0.209934,-0.162330,0.272373,0.100761,-0.933489,-6.639973,1.259567,3.423338,0.625699,0.551253,0.001693,0.000000,0.000000,0.000000,0.000000,0.000000,0.000000
13393583.000000,-0.259725,0.526778,0.335402,-1.431621,-0.179418,1.928532,0.098309,-0.056962,0.078269,-0.032498,-0.218767,-0.151438,0.289982,0.103675,-0.092425,-6.298786,1.406357,3.546324,0.458158,0.551253,0.009017,0.000000,0.000000,0.000000,0.000000,0.000000,0.000000
13393584.000000,-0.259761,0.526904,0.335391,-1.431856,-0.179538,1.928904,0.098432,-0.050243,0.096669,-0.024372,-0.222839,-0.140176,0.318675,0.109185,0.351911,-6.199604,1.406357,3.423338,0.052579,0.505477,-0.070634,0.000000,0.000000,0.000000,0.000000,0.000000,0.000000
13393585.000000,-0.259791,0.527046,0.335383,-1.432092,-0.179650,1.929305,0.098544,-0.042900,0.111390,-0.015046,-0.225012,-0.132292,0.342251,0.108940,0.649457,-6.223408,1.358749,3.101988,-0.384127,0.505477,-0.044083,0.000000,0.000000,0.000000,0.000000,0.000000,0.000000
13393586.000000,-0.259832,0.527188,0.335361,-1.432332,-0.179779,1.929716,0.098670,-0.043329,0.125334,-0.015346,-0.231352,-0.129789,0.357524,0.107687,0.994611,-6.151997,1.453964,2.804442,-0.623080,0.589706,-0.110001,0.000000,0.000000,0.000000,0.000000,0.000000,0.000000
13393587.000000,-0.259870,0.527319,0.335336,-1.432602,-0.179930,1.930140,0.098783,-0.039920,0.126115,-0.017702,-0.244978,-0.138200,0.381460,0.111588,1.315961,-5.834614,1.628525,2.629881,-0.592867,0.713302,-0.056901,0.000000,0.000000,0.000000,0.000000,0.000000,0.000000
13393588.000000,-0.259911,0.527429,0.335309,-1.432894,-0.180110,1.930609,0.098897,-0.037877,0.119911,-0.023021,-0.261304,-0.154069,0.404563,0.109817,1.641279,-5.219685,1.822922,2.681456,-0.282504,0.681258,-0.004716,0.000000,0.000000,0.000000,0.000000,0.000000,0.000000
13393590.000000,-0.259979,0.527636,0.335242,-1.433537,-0.180492,1.931645,0.099138,-0.033541,0.110389,-0.026994,-0.294965,-0.177593,0.473365,0.113366,2.061811,-3.605000,2.215683,3.050413,0.398649,0.251876,0.048385,0.000000,0.000000,0.000000,0.000000,0.000000,0.000000
13393591.000000,-0.260012,0.527756,0.335225,-1.433856,-0.180665,1.932196,0.099265,-0.030277,0.114104,-0.022061,-0.303254,-0.177071,0.494326,0.114569,2.208601,-2.946430,2.068893,2.951231,0.482877,0.161239,0.021835,0.000000,0.000000,0.000000,0.000000,0.000000,0.000000
13393592.000000,-0.260037,0.527889,0.335209,-1.434182,-0.180819,1.932741,0.099392,-0.028065,0.119125,-0.021053,-0.308601,-0.167652,0.506030,0.121790,2.232404,-2.478291,1.874496,2.705260,0.315336,0.304061,-0.050492,0.000000,0.000000,0.000000,0.000000,0.000000,0.000000
13393593.000000,-0.260040,0.528040,0.335204,-1.434503,-0.180953,1.933291,0.099510,-0.020718,0.131636,-0.017196,-0.317298,-0.154734,0.513200,0.118052,1.962629,-2.260090,1.529343,2.284727,-0.037142,0.603439,-0.017533,0.000000,0.000000,0.000000,0.000000,0.000000,0.000000
13393594.000000,-0.260051,0.528203,0.335189,-1.434839,-0.181082,1.933858,0.099634,-0.016876,0.139925,-0.018457,-0.321234,-0.145826,0.530995,0.121117,1.764264,-2.160908,1.330978,1.915770,-0.396029,0.876266,-0.044083,0.000000,0.000000,0.000000,0.000000,0.000000,0.000000
13393595.000000,-0.260058,0.528381,0.335172,-1.435172,-0.181221,1.934479,0.099752,-0.014008,0.152126,-0.020144,-0.319532,-0.143784,0.554109,0.118251,1.542096,-2.089497,1.160385,1.320677,-0.658785,0.785628,-0.023942,0.000000,0.000000,0.000000,0.000000,0.000000,0.000000
13393596.000000,-0.260081,0.528581,0.335154,-1.435513,-0.181386,1.935141,0.099871,-0.018054,0.167572,-0.019408,-0.327189,-0.152060,0.586129,0.117763,1.542096,-2.160908,1.037399,0.951720,-0.665194,0.518295,-0.044083,0.000000,0.000000,0.000000,0.000000,0.000000,0.000000
13393597.000000,-0.260101,0.528784,0.335131,-1.435872,-0.181574,1.935799,0.099979,-0.020244,0.180250,-0.020575,-0.333319,-0.161479,0.607568,0.118232,1.542096,-2.307698,0.989792,0.606566,-0.438143,0.291244,0.028243,0.000000,0.000000,0.000000,0.000000,0.000000,0.000000
13393598.000000,-0.260116,0.528998,0.335105,-1.436227,-0.181766,1.936491,0.100101,-0.016824,0.188126,-0.025446,-0.333455,-0.170651,0.629311,0.118412,1.466718,-2.430683,0.989792,0.186034,-0.126864,0.102645,-0.011124,0.000000,0.000000,0.000000,0.000000,0.000000,0.000000
13393599.000000,-0.260131,0.529230,0.335087,-1.436586,-0.181956,1.937194,0.100220,-0.018479,0.203427,-0.024081,-0.339212,-0.174481,0.666459,0.115638,1.415143,-2.676655,0.914413,-0.262270,0.141385,-0.073136,0.028243,0.000000,0.000000,0.000000,0.000000,0.000000,0.000000
13393600.000000,-0.260140,0.529458,0.335067,-1.436961,-0.182129,1.937932,0.100339,-0.014443,0.211172,-0.022551,-0.342141,-0.181643,0.683592,0.115877,1.292158,-2.652851,0.819198,-0.607423,0.178007,-0.236100,0.009017,0.000000,0.000000,0.000000,0.000000,0.000000,0.000000
13393601.000000,-0.260137,0.529700,0.335051,-1.437338,-0.182284,1.938688,0.100457,-0.008398,0.220481,-0.020158,-0.350573,-0.175686,0.711050,0.119100,1.022382,-2.771870,0.668442,-0.976381,-0.001437,-0.301102,0.021835,0.000000,0.000000,0.000000,0.000000,0.000000,0.000000
13393602.000000,-0.260130,0.529934,0.335034,-1.437730,-0.182424,1.939438,0.100570,-0.003333,0.225110,-0.021759,-0.358938,-0.167623,0.721739,0.117697,0.724836,-2.652851,0.521652,-1.250124,-0.300814,-0.209550,0.021835,0.000000,0.000000,0.000000,0.000000,0.000000,0.000000
13393603.000000,-0.260126,0.530186,0.335013,-1.438143,-0.182577,1.940207,0.100690,0.001565,0.233890,-0.021591,-0.370700,-0.165167,0.729357,0.118523,0.502668,-2.506062,0.450241,-1.420717,-0.533358,0.011092,-0.031266,0.000000,0.000000,0.000000,0.000000,0.000000,0.000000
13393604.000000,-0.260134,0.530438,0.334987,-1.438564,-0.182740,1.941002,0.100798,0.001192,0.240975,-0.023066,-0.382647,-0.163454,0.755030,0.114558,0.451093,-2.406880,0.450241,-1.448488,-0.641390,0.161239,0.034652,0.000000,0.000000,0.000000,0.000000,0.000000,0.000000
13393605.000000,-0.260153,0.530693,0.334956,-1.439013,-0.182921,1.941814,0.100917,-0.003525,0.245498,-0.028268,-0.398817,-0.165271,0.768971,0.115812,0.601850,-2.212483,0.497848,-1.373109,-0.539767,0.174056,-0.004716,0.000000,0.000000,0.000000,0.000000,0.000000,0.000000
13393606.000000,-0.260177,0.530966,0.334929,-1.439483,-0.183104,1.942666,0.101027,-0.010036,0.252255,-0.027631,-0.420644,-0.173703,0.790094,0.113131,0.772443,-2.137104,0.497848,-1.027956,-0.353915,0.096236,0.041976,0.000000,0.000000,0.000000,0.000000,0.000000,0.000000
13393607.000000,-0.260203,0.531250,0.334900,-1.439970,-0.183287,1.943529,0.101135,-0.017599,0.260767,-0.027681,-0.441589,-0.178776,0.820163,0.111771,0.947004,-2.212483,0.521652,-0.730409,-0.174471,-0.053910,0.081344,0.000000,0.000000,0.000000,0.000000,0.000000,0.000000
13393608.000000,-0.260229,0.531558,0.334864,-1.440459,-0.183461,1.944426,0.101255,-0.019987,0.276171,-0.032536,-0.457543,-0.174931,0.836805,0.114531,1.121564,-2.454487,0.620834,-0.655031,-0.072848,-0.203141,0.021835,0.000000,0.000000,0.000000,0.000000,0.000000,0.000000
13393609.000000,-0.260247,0.531890,0.334828,-1.440954,-0.183623,1.945339,0.101367,-0.019514,0.299578,-0.034807,-0.468768,-0.175442,0.853630,0.112204,1.192975,-2.871052,0.668442,-0.631227,-0.133273,-0.229691,0.074935,0.000000,0.000000,0.000000,0.000000,0.000000,0.000000
13393610.000000,-0.260262,0.532222,0.334797,-1.441469,-0.183786,1.946243,0.101485,-0.017237,0.308052,-0.034816,-0.480913,-0.168354,0.872180,0.114392,1.192975,-3.263813,0.644638,-0.655031,-0.276095,-0.144547,0.028243,0.000000,0.000000,0.000000,0.000000,0.000000,0.000000
13393611.000000,-0.260286,0.532562,0.334762,-1.441991,-0.183952,1.947182,0.101604,-0.018537,0.318441,-0.035952,-0.506786,-0.164003,0.887843,0.113786,1.315961,-3.581196,0.668442,-0.706606,-0.407931,-0.041093,0.015426,0.000000,0.000000,0.000000,0.000000,0.000000,0.000000
13393612.000000,-0.260305,0.532897,0.334725,-1.442554,-0.184118,1.948123,0.101717,-0.021335,0.323573,-0.036966,-0.521283,-0.166343,0.901478,0.112967,1.391340,-3.775593,0.696213,-0.583620,-0.515963,-0.027360,0.015426,0.000000,0.000000,0.000000,0.000000,0.000000,0.000000
13393613.000000,-0.260336,0.533235,0.334679,-1.443139,-0.184287,1.949107,0.101831,-0.024552,0.328819,-0.039935,-0.539195,-0.168134,0.922685,0.111855,1.641279,-3.775593,0.819198,-0.409059,-0.509554,-0.066727,0.048385,0.000000,0.000000,0.000000,0.000000,0.000000,0.000000
13393614.000000,-0.260371,0.533579,0.334627,-1.443742,-0.184466,1.950110,0.101943,-0.027903,0.331059,-0.046178,-0.562940,-0.172853,0.936928,0.114930,1.934858,-3.656574,0.989792,-0.063905,-0.407931,-0.085954,0.081344,0.000000,0.000000,0.000000,0.000000,0.000000,0.000000
13393615.000000,-0.260414,0.533921,0.334576,-1.444370,-0.184652,1.951112,0.102063,-0.034254,0.335963,-0.047004,-0.576984,-0.172184,0.958371,0.116398,2.283979,-3.533589,1.136581,0.309019,-0.276095,-0.008134,0.034652,0.000000,0.000000,0.000000,0.000000,0.000000,0.000000
13393616.000000,-0.260452,0.534274,0.334516,-1.445009,-0.184829,1.952141,0.102174,-0.036288,0.341981,-0.048487,-0.594241,-0.175178,0.975637,0.113831,2.529951,-3.386799,1.330978,0.554991,-0.168978,0.121871,0.074935,0.000000,0.000000,0.000000,0.000000,0.000000,0.000000
13393617.000000,-0.260494,0.534634,0.334465,-1.445654,-0.185000,1.953193,0.102288,-0.039753,0.345693,-0.046189,-0.606711,-0.170883,0.997403,0.114541,2.827497,-3.287617,1.382553,0.654173,-0.222994,0.109054,0.054794,0.000000,0.000000,0.000000,0.000000,0.000000,0.000000
13393618.000000,-0.260529,0.535010,0.334405,-1.446313,-0.185171,1.954241,0.102397,-0.038071,0.353078,-0.050056,-0.617875,-0.169954,1.008976,0.112816,2.978254,-3.386799,1.529343,0.729552,-0.336520,0.069686,0.074935,0.000000,0.000000,0.000000,0.000000,0.000000,0.000000
13393619.000000,-0.260562,0.535401,0.334354,-1.446970,-0.185348,1.955297,0.102507,-0.035131,0.351592,-0.051692,-0.624944,-0.168082,1.014449,0.111832,3.049665,-4.144550,1.628525,1.098509,-0.389620,0.082504,0.100570,0.000000,0.000000,0.000000,0.000000,0.000000,0.000000
13393620.000000,-0.260598,0.535790,0.334305,-1.447629,-0.185515,1.956364,0.102635,-0.037026,0.356168,-0.050451,-0.626134,-0.166882,1.030455,0.115451,3.073469,-5.735432,1.751511,1.840392,-0.438143,0.069686,0.015426,0.000000,0.000000,0.000000,0.000000,0.000000,0.000000
13393621.000000,-0.260644,0.536179,0.334252,-1.448288,-0.185685,1.957446,0.102748,-0.041906,0.367575,-0.051111,-0.628420,-0.170253,1.038822,0.112753,3.172651,-7.937275,1.945907,3.224974,-0.377719,0.115462,0.067611,0.000000,0.000000,0.000000,0.000000,0.000000,0.000000
13393622.000000,-0.260693,0.536550,0.334197,-1.448927,-0.185869,1.958538,0.102867,-0.042355,0.372924,-0.050137,-0.631585,-0.177209,1.055170,0.108982,3.224226,-10.289875,2.215683,5.006285,-0.187289,0.186874,0.048385,0.000000,0.000000,0.000000,0.000000,0.000000,0.000000
13393623.000000,-0.260734,0.536902,0.334133,-1.449561,-0.186050,1.959616,0.102979,-0.042568,0.370728,-0.054580,-0.628031,-0.182146,1.060194,0.113736,3.172651,-12.563129,2.584640,6.958189,0.004056,0.316879,0.074935,0.000000,0.000000,0.000000,0.000000,0.000000,0.000000
13393624.000000,-0.260769,0.537242,0.334078,-1.450200,-0.186226,1.960675,0.103098,-0.040116,0.366541,-0.054604,-0.638072,-0.181851,1.047655,0.113638,3.002058,-14.645954,2.830612,9.207640,0.105680,0.681258,0.067611,0.000000,0.000000,0.000000,0.000000,0.000000,0.000000
13393625.000000,-0.260802,0.537582,0.334020,-1.450821,-0.186408,1.961723,0.103218,-0.038470,0.361984,-0.057249,-0.633258,-0.179405,1.047626,0.113741,2.827497,-16.554218,3.052780,11.135740,0.154203,1.045638,0.061202,0.000000,0.000000,0.000000,0.000000,0.000000,0.000000
13393626.000000,-0.260826,0.537938,0.333958,-1.451449,-0.186583,1.962789,0.103334,-0.034866,0.363153,-0.062405,-0.629508,-0.180074,1.054167,0.112395,2.529951,-18.414875,3.270981,12.813902,0.129484,1.240646,0.094161,0.000000,0.000000,0.000000,0.000000,0.000000,0.000000
13393627.000000,-0.260845,0.538298,0.333895,-1.452053,-0.186756,1.963838,0.103459,-0.029310,0.364884,-0.062694,-0.625490,-0.174726,1.046415,0.114153,2.184797,-20.152546,3.469345,14.027891,0.064481,1.507064,0.054794,0.000000,0.000000,0.000000,0.000000,0.000000,0.000000
13393628.000000,-0.260862,0.538666,0.333834,-1.452669,-0.186929,1.964860,0.103574,-0.025709,0.370947,-0.058075,-0.619939,-0.170794,1.031625,0.113656,1.887250,-21.818806,3.592331,14.991941,-0.007845,1.760665,0.061202,0.000000,0.000000,0.000000,0.000000,0.000000,0.000000
13393629.000000,-0.260877,0.539050,0.333777,-1.453281,-0.187103,1.965914,0.103700,-0.023064,0.378010,-0.059219,-0.626462,-0.174828,1.032267,0.120237,1.589704,-23.334309,3.639938,15.682249,-0.025240,1.779891,0.001693,0.000000,0.000000,0.000000,0.000000,0.000000,0.000000
13393630.000000,-0.260891,0.539452,0.333698,-1.453886,-0.187292,1.966947,0.103818,-0.019863,0.386970,-0.065798,-0.620756,-0.176306,1.048285,0.119227,1.343732,-24.948994,3.933517,15.979795,0.052579,1.754256,0.067611,0.000000,0.000000,0.000000,0.000000,0.000000,0.000000
13393631.000000,-0.260906,0.539872,0.333617,-1.454490,-0.187485,1.967988,0.103942,-0.018008,0.398072,-0.070319,-0.610791,-0.183338,1.045890,0.123286,1.145368,-26.492268,4.203293,16.126585,0.159696,1.630660,0.048385,0.000000,0.000000,0.000000,0.000000,0.000000,0.000000
13393632.000000,-0.260921,0.540319,0.333539,-1.455088,-0.187687,1.969034,0.104067,-0.014316,0.409472,-0.071264,-0.605298,-0.186871,1.052026,0.119993,0.970807,-28.011738,4.377853,16.126585,0.225614,1.532699,0.067611,0.000000,0.000000,0.000000,0.000000,0.000000,0.000000
13393633.000000,-0.260925,0.540766,0.333464,-1.455701,-0.187901,1.970052,0.104191,-0.012538,0.422160,-0.073959,-0.603704,-0.191934,1.045322,0.118713,0.724836,-29.428059,4.500839,16.225767,0.362943,1.467696,0.054794,0.000000,0.000000,0.000000,0.000000,0.000000,0.000000
13393634.000000,-0.260916,0.541219,0.333388,-1.456311,-0.188098,1.971083,0.104313,-0.004005,0.430102,-0.071700,-0.607635,-0.191342,1.032499,0.120157,0.304304,-30.653950,4.572250,16.201963,0.386747,1.422836,0.100570,0.000000,0.000000,0.000000,0.000000,0.000000,0.000000
13393635.000000,-0.260911,0.541671,0.333315,-1.456901,-0.188288,1.972124,0.104436,-0.000681,0.437438,-0.071881,-0.598741,-0.186649,1.052540,0.117879,-0.017047,-31.756855,4.596054,16.055174,0.303434,1.377059,0.120712,0.000000,0.000000,0.000000,0.000000,0.000000,0.000000
13393636.000000,-0.260898,0.542130,0.333247,-1.457506,-0.188478,1.973141,0.104571,0.002758,0.444074,-0.068489,-0.596458,-0.188336,1.045581,0.120291,-0.366168,-32.613789,4.572250,15.979795,0.207303,1.435653,0.028243,0.000000,0.000000,0.000000,0.000000,0.000000,0.000000
13393638.000000,-0.260860,0.543048,0.333115,-1.458737,-0.188872,1.975166,0.104817,0.013371,0.451177,-0.067273,-0.610374,-0.189427,1.031888,0.117279,-1.131854,-34.105488,4.377853,16.249571,0.064481,1.624252,0.028243,0.000000,0.000000,0.000000,0.000000,0.000000,0.000000
13393639.000000,-0.260844,0.543522,0.333042,-1.459361,-0.189083,1.976189,0.104940,0.014961,0.457954,-0.069920,-0.610111,-0.192632,1.028150,0.120568,-1.429400,-34.914814,4.401657,16.471739,0.141385,1.611434,0.034652,0.000000,0.000000,0.000000,0.000000,0.000000,0.000000
13393640.000000,-0.260836,0.544005,0.332969,-1.459988,-0.189290,1.977210,0.105062,0.012165,0.475510,-0.068195,-0.614108,-0.199059,1.017950,0.116662,-1.552386,-35.672565,4.401657,16.745481,0.213712,1.591293,0.087753,0.000000,0.000000,0.000000,0.000000,0.000000,0.000000
13393641.000000,-0.260837,0.544499,0.332912,-1.460622,-0.189497,1.978218,0.105191,0.007596,0.482133,-0.065926,-0.616108,-0.204353,1.017546,0.121892,-1.552386,-36.553303,4.227097,17.043028,0.303434,1.611434,0.054794,0.000000,0.000000,0.000000,0.000000,0.000000,0.000000
13393642.000000,-0.260830,0.545014,0.332853,-1.461244,-0.189694,1.979232,0.105313,0.006442,0.486805,-0.059508,-0.621184,-0.207034,1.008480,0.117512,-1.627764,-37.557026,4.108078,17.189817,0.362943,1.676437,0.107894,0.000000,0.000000,0.000000,0.000000,0.000000,0.000000
13393643.000000,-0.260819,0.545536,0.332800,-1.461869,-0.189885,1.980235,0.105444,0.008834,0.502692,-0.056703,-0.617443,-0.204021,1.012632,0.118323,-1.703143,-38.683735,3.933517,17.265196,0.303434,1.637069,0.061202,0.000000,0.000000,0.000000,0.000000,0.000000,0.000000
13393644.000000,-0.260815,0.546070,0.332751,-1.462496,-0.190076,1.981271,0.105568,0.008500,0.510766,-0.053135,-0.616409,-0.205274,1.020382,0.115635,-1.679339,-39.711262,3.687546,17.289000,0.189908,1.461288,0.100570,0.000000,0.000000,0.000000,0.000000,0.000000,0.000000
13393645.000000,-0.260811,0.546596,0.332698,-1.463133,-0.190265,1.982293,0.105697,0.008204,0.513923,-0.049940,-0.621867,-0.201885,1.016090,0.116070,-1.627764,-40.445210,3.540756,17.562742,0.076383,1.409103,0.074935,0.000000,0.000000,0.000000,0.000000,0.000000,0.000000
13393646.000000,-0.260803,0.547108,0.332648,-1.463772,-0.190460,1.983307,0.105820,0.008559,0.512342,-0.051209,-0.626622,-0.203896,1.016040,0.114918,-1.603961,-41.008564,3.417770,17.784910,0.076383,1.402694,0.087753,0.000000,0.000000,0.000000,0.000000,0.000000,0.000000
13393647.000000,-0.260801,0.547635,0.332591,-1.464404,-0.190656,1.984319,0.105948,0.007133,0.515994,-0.050651,-0.638634,-0.202481,1.009686,0.115285,-1.504779,-41.496540,3.370163,18.078489,0.129484,1.519881,0.061202,0.000000,0.000000,0.000000,0.000000,0.000000,0.000000
13393648.000000,-0.260798,0.548153,0.332542,-1.465050,-0.190855,1.985314,0.106066,0.003732,0.519992,-0.049427,-0.638272,-0.201592,1.024897,0.117571,-1.429400,-41.988483,3.294784,18.376036,0.207303,1.649886,0.094161,0.000000,0.000000,0.000000,0.000000,0.000000,0.000000
13393649.000000,-0.260809,0.548681,0.332486,-1.465700,-0.191047,1.986334,0.106196,-0.002712,0.516741,-0.050787,-0.639192,-0.204123,1.018467,0.117661,-1.183428,-42.476460,3.322555,18.748960,0.267728,1.656295,0.061202,0.000000,0.000000,0.000000,0.000000,0.000000,0.000000
13393650.000000,-0.260811,0.549207,0.332431,-1.466349,-0.191243,1.987355,0.106324,-0.001168,0.519738,-0.050378,-0.644452,-0.204688,1.023988,0.119715,-1.060443,-42.770039,3.294784,19.169493,0.267728,1.624252,0.100570,0.000000,0.000000,0.000000,0.000000,0.000000,0.000000
13393651.000000,-0.260821,0.549730,0.332383,-1.466998,-0.191438,1.988357,0.106450,-0.001132,0.517731,-0.051524,-0.644383,-0.198799,1.013649,0.121727,-0.885882,-43.111225,3.199569,19.590025,0.225614,1.611434,0.133529,0.000000,0.000000,0.000000,0.000000,0.000000,0.000000
13393652.000000,-0.260829,0.550263,0.332323,-1.467655,-0.191630,1.989368,0.106589,-0.003590,0.522317,-0.055786,-0.642513,-0.195501,1.006985,0.122027,-0.735125,-43.480183,3.247177,20.034361,0.201810,1.643478,0.054794,0.000000,0.000000,0.000000,0.000000,0.000000,0.000000
13393653.000000,-0.260846,0.550785,0.332259,-1.468296,-0.191826,1.990369,0.106711,-0.014013,0.524990,-0.059702,-0.642649,-0.198476,1.002347,0.122033,-0.512957,-43.749958,3.346359,20.304136,0.207303,1.858627,0.120712,0.000000,0.000000,0.000000,0.000000,0.000000,0.000000
13393654.000000,-0.260862,0.551318,0.332202,-1.468940,-0.192015,1.991345,0.106844,-0.013522,0.522447,-0.060911,-0.644498,-0.194836,0.993924,0.126842,-0.342364,-43.968159,3.370163,20.577879,0.166105,2.072860,0.061202,0.000000,0.000000,0.000000,0.000000,0.000000,0.000000
13393655.000000,-0.260870,0.551848,0.332139,-1.469582,-0.192198,1.992343,0.106971,-0.012285,0.521555,-0.062340,-0.643608,-0.191658,0.995296,0.127284,-0.342364,-44.091145,3.417770,20.923033,0.117582,2.163497,0.074935,0.000000,0.000000,0.000000,0.000000,0.000000,0.000000
13393656.000000,-0.260885,0.552374,0.332065,-1.470230,-0.192388,1.993337,0.107092,-0.013455,0.523786,-0.066892,-0.642752,-0.189569,0.999142,0.122033,-0.266986,-44.313313,3.616134,21.145201,0.081876,2.131454,0.114303,0.000000,0.000000,0.000000,0.000000,0.000000,0.000000
13393657.000000,-0.260901,0.552918,0.331994,-1.470880,-0.192584,1.994339,0.107223,-0.014958,0.523947,-0.068749,-0.641711,-0.194459,0.993056,0.121854,-0.167803,-44.630695,3.762924,21.343565,0.081876,2.039901,0.061202,0.000000,0.000000,0.000000,0.000000,0.000000,0.000000
13393658.000000,-0.260916,0.553452,0.331912,-1.471515,-0.192786,1.995359,0.107343,-0.015851,0.536163,-0.071838,-0.642029,-0.195284,0.988824,0.118194,-0.092425,-44.777485,3.985092,21.418943,0.135892,1.936446,0.100570,0.000000,0.000000,0.000000,0.000000,0.000000,0.000000
13393659.000000,-0.260925,0.553978,0.331826,-1.472153,-0.192994,1.996340,0.107470,-0.015035,0.533075,-0.078095,-0.639614,-0.198539,0.985788,0.117536,-0.068621,-44.924274,4.254868,21.442747,0.267728,1.942855,0.087753,0.000000,0.000000,0.000000,0.000000,0.000000,0.000000
13393660.000000,-0.260944,0.554509,0.331736,-1.472777,-0.193198,1.997330,0.107598,-0.017407,0.531262,-0.079399,-0.644558,-0.199544,0.987975,0.116440,0.078168,-44.948078,4.524643,21.418943,0.369352,2.020675,0.081344,0.000000,0.000000,0.000000,0.000000,0.000000,0.000000
13393661.000000,-0.260959,0.555032,0.331644,-1.473412,-0.193397,1.998317,0.107724,-0.017352,0.530298,-0.083417,-0.638187,-0.200656,0.988616,0.120390,0.153547,-44.971882,4.794418,21.367369,0.374845,1.968490,0.081344,0.000000,0.000000,0.000000,0.000000,0.000000,0.000000
13393662.000000,-0.260964,0.555553,0.331546,-1.474034,-0.193588,1.999310,0.107846,-0.015095,0.523797,-0.086945,-0.628011,-0.198911,0.983093,0.118897,0.129743,-44.900471,5.087997,21.192808,0.291532,1.930038,0.074935,0.000000,0.000000,0.000000,0.000000,0.000000,0.000000
13393663.000000,-0.260975,0.556066,0.331453,-1.474644,-0.193790,2.000301,0.107971,-0.014477,0.517054,-0.089728,-0.627154,-0.198530,0.978685,0.122509,0.129743,-44.555317,5.258591,20.998411,0.219205,2.014266,0.067611,0.000000,0.000000,0.000000,0.000000,0.000000,0.000000
13393664.000000,-0.260978,0.556576,0.331349,-1.475247,-0.193997,2.001281,0.108090,-0.011476,0.513559,-0.097318,-0.613764,-0.194762,0.983468,0.118469,0.030561,-44.408527,5.528366,20.724669,0.178007,2.039901,0.114303,0.000000,0.000000,0.000000,0.000000,0.000000,0.000000
13393665.000000,-0.260986,0.557094,0.331251,-1.475836,-0.194198,2.002281,0.108223,-0.008668,0.508007,-0.093802,-0.604543,-0.197468,0.985256,0.119966,0.030561,-44.289509,5.679123,20.379515,0.154203,2.027084,0.034652,0.000000,0.000000,0.000000,0.000000,0.000000,0.000000
13393666.000000,-0.261004,0.557605,0.331149,-1.476433,-0.194407,2.003265,0.108338,-0.009418,0.509126,-0.097085,-0.599817,-0.195143,1.006739,0.119969,0.153547,-44.091145,5.825912,20.157347,0.154203,2.027084,0.094161,0.000000,0.000000,0.000000,0.000000,0.000000,0.000000
13393667.000000,-0.261010,0.558119,0.331043,-1.477026,-0.194620,2.004285,0.108461,-0.007408,0.511796,-0.101383,-0.593960,-0.206076,1.006694,0.119420,0.177350,-43.968159,6.020309,19.982786,0.261320,1.844894,0.067611,0.000000,0.000000,0.000000,0.000000,0.000000,0.000000
13393668.000000,-0.261017,0.558632,0.330933,-1.477592,-0.194836,2.005317,0.108585,-0.007939,0.507528,-0.104738,-0.581569,-0.212647,1.010595,0.117755,0.153547,-43.849140,6.218674,19.713011,0.308927,1.649886,0.067611,0.000000,0.000000,0.000000,0.000000,0.000000,0.000000
13393669.000000,-0.261029,0.559149,0.330828,-1.478162,-0.195057,2.006308,0.108704,-0.010800,0.515260,-0.104660,-0.575640,-0.211279,1.005748,0.115126,0.228925,-43.797565,6.313889,19.463072,0.315336,1.689254,0.107894,0.000000,0.000000,0.000000,0.000000,0.000000,0.000000
13393670.000000,-0.261037,0.559666,0.330724,-1.478720,-0.195273,2.007312,0.108836,-0.009014,0.515854,-0.104329,-0.567569,-0.210895,0.999772,0.120262,0.276533,-43.702351,6.389267,19.169493,0.332731,1.741439,0.067611,0.000000,0.000000,0.000000,0.000000,0.000000,0.000000
13393671.000000,-0.261040,0.560179,0.330623,-1.479261,-0.195486,2.008326,0.108967,-0.006535,0.512609,-0.103188,-0.555614,-0.208956,1.008913,0.122639,0.276533,-43.674580,6.413071,18.895750,0.315336,1.735030,0.081344,0.000000,0.000000,0.000000,0.000000,0.000000,0.000000
13393672.000000,-0.261049,0.560696,0.330520,-1.479816,-0.195696,2.009325,0.109095,-0.006514,0.516652,-0.102435,-0.549268,-0.206986,1.006716,0.125228,0.351911,-43.527790,6.436874,18.772764,0.267728,1.714889,0.074935,0.000000,0.000000,0.000000,0.000000,0.000000,0.000000
13393673.000000,-0.261052,0.561220,0.330423,-1.480354,-0.195898,2.010344,0.109222,-0.004638,0.516977,-0.102871,-0.543260,-0.204499,0.994063,0.125861,0.351911,-43.527790,6.365463,18.697386,0.195402,1.689254,0.087753,0.000000,0.000000,0.000000,0.000000,0.000000,0.000000
13393674.000000,-0.261055,0.561745,0.330327,-1.480894,-0.196107,2.011351,0.109357,-0.003870,0.517534,-0.097765,-0.539935,-0.208487,0.995126,0.124687,0.375715,-43.674580,6.313889,18.673582,0.159696,1.682845,0.034652,0.000000,0.000000,0.000000,0.000000,0.000000,0.000000
13393675.000000,-0.261057,0.562271,0.330232,-1.481443,-0.196322,2.012366,0.109481,-0.003396,0.518700,-0.093646,-0.540503,-0.209541,0.992826,0.119722,0.403486,-43.797565,6.242477,18.796568,0.183500,1.754256,0.087753,0.000000,0.000000,0.000000,0.000000,0.000000,0.000000
13393676.000000,-0.261062,0.562803,0.330135,-1.481978,-0.196530,2.013371,0.109610,-0.004059,0.527453,-0.095018,-0.541843,-0.209466,0.991639,0.122075,0.474897,-43.944355,6.218674,18.971128,0.189908,1.844894,0.114303,0.000000,0.000000,0.000000,0.000000,0.000000,0.000000
13393677.000000,-0.261066,0.563337,0.330044,-1.482521,-0.196739,2.014371,0.109737,-0.004563,0.532288,-0.092133,-0.541012,-0.209836,0.998575,0.125605,0.550275,-44.166523,6.167099,19.268675,0.207303,1.838485,0.087753,0.000000,0.000000,0.000000,0.000000,0.000000,0.000000
13393678.000000,-0.261067,0.563875,0.329950,-1.483071,-0.196948,2.015380,0.109870,-0.003669,0.538547,-0.091212,-0.555736,-0.211381,0.993033,0.132461,0.574079,-44.384724,6.167099,19.661436,0.261320,1.800033,0.067611,0.000000,0.000000,0.000000,0.000000,0.000000,0.000000
13393679.000000,-0.261075,0.564406,0.329868,-1.483628,-0.197152,2.016368,0.110003,-0.006025,0.532921,-0.083996,-0.559360,-0.204698,0.988931,0.132301,0.724836,-44.555317,6.044113,20.034361,0.249418,1.819259,0.067611,0.000000,0.000000,0.000000,0.000000,0.000000,0.000000
13393680.000000,-0.261074,0.564950,0.329783,-1.484183,-0.197360,2.017361,0.110129,-0.004056,0.537366,-0.080418,-0.557149,-0.205132,0.987965,0.130498,0.724836,-44.729877,5.972702,20.355711,0.243009,1.923629,0.114303,0.000000,0.000000,0.000000,0.000000,0.000000,0.000000
13393681.000000,-0.261070,0.565496,0.329706,-1.484739,-0.197579,2.018344,0.110265,-0.001527,0.542331,-0.078496,-0.558246,-0.206467,0.979992,0.133328,0.673261,-44.948078,5.798141,20.649290,0.261320,2.066451,0.054794,0.000000,0.000000,0.000000,0.000000,0.000000,0.000000
13393682.000000,-0.261068,0.566040,0.329627,-1.485306,-0.197789,2.019314,0.110386,0.002506,0.539880,-0.079136,-0.562822,-0.204681,0.982029,0.130979,0.673261,-45.170246,5.702927,21.022215,0.207303,2.177230,0.107894,0.000000,0.000000,0.000000,0.000000,0.000000,0.000000
13393683.000000,-0.261060,0.566588,0.329548,-1.485853,-0.197994,2.020306,0.110519,0.004270,0.538990,-0.076339,-0.557674,-0.204127,0.979273,0.132681,0.574079,-45.340839,5.603745,21.244383,0.166105,2.085677,0.067611,0.000000,0.000000,0.000000,0.000000,0.000000,0.000000
13393684.000000,-0.261060,0.567119,0.329470,-1.486422,-0.198202,2.021293,0.110647,0.002406,0.537477,-0.078104,-0.558675,-0.204281,0.993869,0.132245,0.601850,-45.440022,5.556137,21.541929,0.147794,2.047225,0.074935,0.000000,0.000000,0.000000,0.000000,0.000000,0.000000
13393685.000000,-0.261050,0.567660,0.329389,-1.486992,-0.198415,2.022268,0.110774,0.004081,0.534344,-0.077125,-0.560851,-0.210579,0.991709,0.131340,0.502668,-45.440022,5.528366,21.835508,0.195402,2.033492,0.094161,0.000000,0.000000,0.000000,0.000000,0.000000,0.000000
13393686.000000,-0.261041,0.568208,0.329306,-1.487543,-0.198637,2.023245,0.110908,0.007184,0.536432,-0.077024,-0.557272,-0.212682,0.982188,0.132845,0.451093,-45.487629,5.528366,21.986265,0.273221,2.060043,0.054794,0.000000,0.000000,0.000000,0.000000,0.000000,0.000000
13393687.000000,-0.261037,0.568734,0.329225,-1.488109,-0.198869,2.024208,0.111028,0.004583,0.534465,-0.080518,-0.557026,-0.219410,0.980436,0.130412,0.474897,-45.388447,5.556137,22.109251,0.369352,2.112228,0.107894,0.000000,0.000000,0.000000,0.000000,0.000000,0.000000
13393688.000000,-0.261027,0.569270,0.329148,-1.488680,-0.199090,2.025184,0.111163,0.007037,0.527588,-0.078622,-0.561714,-0.223283,0.973622,0.131775,0.451093,-45.217854,5.528366,22.283812,0.434354,2.125045,0.081344,0.000000,0.000000,0.000000,0.000000,0.000000,0.000000
13393689.000000,-0.261010,0.569788,0.329075,-1.489238,-0.199310,2.026175,0.111297,0.006915,0.533765,-0.076256,-0.556828,-0.218070,0.969716,0.131187,0.375715,-44.948078,5.456955,22.478209,0.416959,2.039901,0.100570,0.000000,0.000000,0.000000,0.000000,0.000000,0.000000
13393690.000000,-0.260993,0.570316,0.329001,-1.489794,-0.199522,2.027147,0.111437,0.010408,0.532322,-0.074418,-0.550295,-0.213509,0.971561,0.136815,0.276533,-44.801289,5.381577,22.478209,0.369352,2.047225,0.061202,0.000000,0.000000,0.000000,0.000000,0.000000,0.000000
13393691.000000,-0.260971,0.570845,0.328922,-1.490345,-0.199733,2.028119,0.111569,0.011449,0.526346,-0.075454,-0.552519,-0.213751,0.965598,0.134510,0.105939,-44.555317,5.405380,22.577391,0.291532,2.079269,0.081344,0.000000,0.000000,0.000000,0.000000,0.000000,0.000000
13393692.000000,-0.260949,0.571364,0.328845,-1.490883,-0.199952,2.029066,0.111702,0.014612,0.525695,-0.074906,-0.543915,-0.214290,0.963286,0.134597,-0.044818,-44.337116,5.381577,22.505980,0.225614,2.242233,0.061202,0.000000,0.000000,0.000000,0.000000,0.000000,0.000000
13393693.000000,-0.260939,0.571892,0.328765,-1.491433,-0.200176,2.030027,0.111835,0.016568,0.524309,-0.075085,-0.545195,-0.214315,0.957057,0.129157,-0.044818,-44.261738,5.381577,22.478209,0.261320,2.404281,0.061202,0.000000,0.000000,0.000000,0.000000,0.000000,0.000000
13393694.000000,-0.260913,0.572421,0.328687,-1.491977,-0.200403,2.031007,0.111966,0.016620,0.533527,-0.072122,-0.547331,-0.219865,0.958989,0.124092,-0.243182,-44.043537,5.381577,22.628965,0.320829,2.423507,0.087753,0.000000,0.000000,0.000000,0.000000,0.000000,0.000000
13393695.000000,-0.260893,0.572936,0.328605,-1.492522,-0.200625,2.031987,0.112102,0.017232,0.527702,-0.074165,-0.542377,-0.217474,0.964853,0.122915,-0.342364,-43.821369,5.433151,22.827330,0.339139,2.300826,0.048385,0.000000,0.000000,0.000000,0.000000,0.000000,0.000000
13393696.000000,-0.260873,0.573456,0.328530,-1.493065,-0.200846,2.032981,0.112226,0.017041,0.523584,-0.071983,-0.552099,-0.221026,0.968476,0.123100,-0.413775,-43.603168,5.333969,23.025694,0.374845,2.118636,0.094161,0.000000,0.000000,0.000000,0.000000,0.000000,0.000000
13393697.000000,-0.260857,0.573981,0.328451,-1.493601,-0.201080,2.033943,0.112362,0.017041,0.523236,-0.077975,-0.547842,-0.228209,0.972065,0.126488,-0.489153,-43.480183,5.310165,23.148680,0.422452,2.079269,0.067611,0.000000,0.000000,0.000000,0.000000,0.000000,0.000000
13393698.000000,-0.260835,0.574527,0.328376,-1.494124,-0.201314,2.034889,0.112498,0.017696,0.531632,-0.075575,-0.535789,-0.228672,0.953495,0.127533,-0.588336,-43.626972,5.234787,23.172483,0.452665,2.248641,0.074935,0.000000,0.000000,0.000000,0.000000,0.000000,0.000000
13393699.000000,-0.260811,0.575072,0.328303,-1.494639,-0.201546,2.035848,0.112631,0.018156,0.531553,-0.077192,-0.529762,-0.228869,0.949287,0.127683,-0.687518,-43.773762,5.163376,23.172483,0.476469,2.410690,0.100570,0.000000,0.000000,0.000000,0.000000,0.000000,0.000000
13393700.000000,-0.260791,0.575613,0.328228,-1.495153,-0.201774,2.036803,0.112768,0.020438,0.535970,-0.076247,-0.525288,-0.225072,0.947497,0.126378,-0.735125,-43.872944,5.135605,23.196287,0.398649,2.443649,0.041976,0.000000,0.000000,0.000000,0.000000,0.000000,0.000000
13393701.000000,-0.260771,0.576152,0.328152,-1.495675,-0.201999,2.037783,0.112897,0.018632,0.536845,-0.078143,-0.522371,-0.224311,0.954764,0.124737,-0.762896,-43.920551,5.087997,23.319273,0.362943,2.300826,0.114303,0.000000,0.000000,0.000000,0.000000,0.000000,0.000000
13393702.000000,-0.260746,0.576672,0.328078,-1.496199,-0.202226,2.038761,0.113040,0.018098,0.528471,-0.078489,-0.525214,-0.227211,0.979092,0.124785,-0.810504,-43.797565,5.012619,23.541441,0.308927,2.177230,0.041976,0.000000,0.000000,0.000000,0.000000,0.000000,0.000000
13393703.000000,-0.260735,0.577212,0.328001,-1.496707,-0.202468,2.039708,0.113174,0.016634,0.532172,-0.077939,-0.514553,-0.228933,0.968247,0.126250,-0.687518,-43.674580,5.012619,23.541441,0.351041,2.215682,0.048385,0.000000,0.000000,0.000000,0.000000,0.000000,0.000000
13393704.000000,-0.260719,0.577752,0.327933,-1.497214,-0.202706,2.040673,0.113302,0.016968,0.536038,-0.076140,-0.515483,-0.232189,0.963191,0.125433,-0.612139,-43.603168,4.818222,23.593016,0.458158,2.274276,0.100570,0.000000,0.000000,0.000000,0.000000,0.000000,0.000000
13393705.000000,-0.260706,0.578274,0.327857,-1.497715,-0.202943,2.041614,0.113432,0.014341,0.529893,-0.076283,-0.510766,-0.231743,0.952440,0.126777,-0.540728,-43.404804,4.818222,23.418455,0.500272,2.423507,0.114303,0.000000,0.000000,0.000000,0.000000,0.000000,0.000000
13393706.000000,-0.260689,0.578819,0.327788,-1.498214,-0.203171,2.042574,0.113573,0.013527,0.534122,-0.072855,-0.502070,-0.229270,0.951276,0.129273,-0.512957,-43.357197,4.671432,23.271666,0.476469,2.489425,0.067611,0.000000,0.000000,0.000000,0.000000,0.000000,0.000000
13393707.000000,-0.260672,0.579344,0.327713,-1.498704,-0.203392,2.043563,0.113711,0.013257,0.533096,-0.072674,-0.496564,-0.229792,0.957850,0.134777,-0.489153,-43.210407,4.619858,23.148680,0.393156,2.274276,0.067611,0.000000,0.000000,0.000000,0.000000,0.000000,0.000000
13393708.000000,-0.260658,0.579877,0.327637,-1.499183,-0.203615,2.044541,0.113845,0.014638,0.526765,-0.073197,-0.485799,-0.225898,0.960329,0.137114,-0.413775,-43.111225,4.596054,22.898741,0.303434,2.060043,0.114303,0.000000,0.000000,0.000000,0.000000,0.000000,0.000000
13393709.000000,-0.260649,0.580413,0.327570,-1.499660,-0.203839,2.045520,0.113990,0.010963,0.531912,-0.071188,-0.482964,-0.225157,0.963959,0.141805,-0.266986,-42.893024,4.473068,22.704344,0.267728,2.007858,0.061202,0.000000,0.000000,0.000000,0.000000,0.000000,0.000000
13393710.000000,-0.260642,0.580947,0.327494,-1.500129,-0.204070,2.046475,0.114120,0.010736,0.533875,-0.073282,-0.479242,-0.223418,0.961397,0.137606,-0.092425,-42.845417,4.500839,22.430601,0.339139,2.053634,0.107894,0.000000,0.000000,0.000000,0.000000,0.000000,0.000000
13393711.000000,-0.260636,0.581473,0.327421,-1.500583,-0.204296,2.047430,0.114267,0.008407,0.525774,-0.076427,-0.470012,-0.221924,0.958550,0.137997,0.054365,-42.575642,4.473068,22.010069,0.405057,2.242233,0.061202,0.000000,0.000000,0.000000,0.000000,0.000000,0.000000
13393712.000000,-0.260632,0.582004,0.327344,-1.501045,-0.204522,2.048400,0.114405,0.006061,0.534064,-0.075903,-0.468170,-0.224057,0.952833,0.135970,0.228925,-42.206684,4.449265,21.787901,0.434354,2.307235,0.074935,0.000000,0.000000,0.000000,0.000000,0.000000,0.000000
13393713.000000,-0.260621,0.582518,0.327265,-1.501507,-0.204748,2.049383,0.114534,0.006735,0.531652,-0.076388,-0.460342,-0.222752,0.960628,0.137843,0.304304,-41.841694,4.473068,21.589537,0.386747,2.163497,0.107894,0.000000,0.000000,0.000000,0.000000,0.000000,0.000000
13393714.000000,-0.260605,0.583030,0.327184,-1.501951,-0.204966,2.050385,0.114674,0.008849,0.519308,-0.076754,-0.461195,-0.219772,0.970178,0.138423,0.304304,-41.448933,4.500839,21.367369,0.279630,1.974899,0.048385,0.000000,0.000000,0.000000,0.000000,0.000000,0.000000
13393715.000000,-0.260594,0.583541,0.327112,-1.502393,-0.205182,2.051358,0.114805,0.009083,0.520195,-0.077161,-0.454655,-0.214199,0.972796,0.139397,0.351911,-41.032368,4.425461,21.145201,0.213712,1.942855,0.081344,0.000000,0.000000,0.000000,0.000000,0.000000,0.000000
13393716.000000,-0.260583,0.584046,0.327031,-1.502827,-0.205398,2.052336,0.114947,0.012289,0.513425,-0.077320,-0.444776,-0.215319,0.975962,0.138131,0.403486,-40.591999,4.449265,20.847654,0.183500,2.007858,0.067611,0.000000,0.000000,0.000000,0.000000,0.000000,0.000000
13393717.000000,-0.260570,0.584556,0.326948,-1.503242,-0.205624,2.053301,0.115087,0.014700,0.507910,-0.081217,-0.434550,-0.217094,0.962308,0.136784,0.451093,-40.223042,4.500839,20.526304,0.273221,2.144271,0.061202,0.000000,0.000000,0.000000,0.000000,0.000000,0.000000
13393718.000000,-0.260560,0.585062,0.326862,-1.503658,-0.205849,2.054265,0.115219,0.015867,0.511496,-0.080544,-0.424592,-0.221200,0.962237,0.138939,0.526471,-39.782673,4.548447,20.280333,0.320829,2.163497,0.100570,0.000000,0.000000,0.000000,0.000000,0.000000,0.000000
13393719.000000,-0.260547,0.585565,0.326777,-1.504074,-0.206070,2.055249,0.115358,0.011716,0.508039,-0.083724,-0.421518,-0.220942,0.958979,0.143310,0.550275,-39.270893,4.619858,20.058165,0.279630,2.072860,0.061202,0.000000,0.000000,0.000000,0.000000,0.000000,0.000000
13393720.000000,-0.260523,0.586071,0.326688,-1.504472,-0.206296,2.056232,0.115501,0.018366,0.503952,-0.086191,-0.414122,-0.220805,0.968640,0.141093,0.451093,-38.901936,4.719040,19.760618,0.249418,1.955673,0.041976,0.000000,0.000000,0.000000,0.000000,0.000000,0.000000
13393721.000000,-0.260508,0.586576,0.326606,-1.504875,-0.206515,2.057192,0.115634,0.016374,0.504245,-0.082402,-0.410869,-0.216277,0.966394,0.137854,0.474897,-38.413960,4.695236,19.590025,0.213712,1.942855,0.067611,0.000000,0.000000,0.000000,0.000000,0.000000,0.000000
13393722.000000,-0.260494,0.587092,0.326514,-1.505255,-0.206736,2.058156,0.115771,0.014812,0.507160,-0.085949,-0.401353,-0.212859,0.951486,0.135716,0.502668,-38.167988,4.794418,19.217100,0.178007,1.988631,0.081344,0.000000,0.000000,0.000000,0.000000,0.000000,0.000000
13393723.000000,-0.260469,0.587601,0.326423,-1.505644,-0.206966,2.059119,0.115909,0.019780,0.507668,-0.087570,-0.399822,-0.213278,0.955666,0.135407,0.403486,-37.997395,4.865829,18.947325,0.225614,1.949264,0.061202,0.000000,0.000000,0.000000,0.000000,0.000000,0.000000
13393724.000000,-0.260449,0.588118,0.326333,-1.506031,-0.207191,2.060093,0.116048,0.019035,0.509635,-0.087860,-0.394426,-0.221160,0.957766,0.133970,0.351911,-37.826801,4.893600,18.748960,0.219205,1.903487,0.074935,0.000000,0.000000,0.000000,0.000000,0.000000,0.000000
13393725.000000,-0.260423,0.588629,0.326246,-1.506418,-0.207420,2.061068,0.116197,0.022874,0.519011,-0.086794,-0.391733,-0.221774,0.960637,0.139132,0.276533,-37.703815,4.865829,18.748960,0.195402,1.865035,0.048385,0.000000,0.000000,0.000000,0.000000,0.000000,0.000000
13393726.000000,-0.260403,0.589146,0.326158,-1.506790,-0.207658,2.062037,0.116341,0.023180,0.518485,-0.086258,-0.384557,-0.225735,0.961161,0.141451,0.276533,-37.533222,4.842026,18.598204,0.261320,1.727706,0.054794,0.000000,0.000000,0.000000,0.000000,0.000000,0.000000
13393727.000000,-0.260375,0.589672,0.326062,-1.507157,-0.207883,2.063007,0.116481,0.025724,0.520633,-0.088291,-0.389575,-0.220440,0.953848,0.142085,0.177350,-37.481647,4.917404,18.550596,0.243009,1.721298,0.094161,0.000000,0.000000,0.000000,0.000000,0.000000,0.000000
13393728.000000,-0.260355,0.590195,0.325971,-1.507528,-0.208113,2.063960,0.116628,0.024492,0.522306,-0.090403,-0.382175,-0.222810,0.950085,0.141863,0.205121,-37.434040,4.917404,18.475218,0.279630,1.754256,0.034652,0.000000,0.000000,0.000000,0.000000,0.000000,0.000000
13393729.000000,-0.260327,0.590720,0.325881,-1.507902,-0.208338,2.064928,0.116768,0.026229,0.520067,-0.088943,-0.373390,-0.228139,0.952337,0.142069,0.129743,-37.287251,4.893600,18.550596,0.273221,1.773483,0.087753,0.000000,0.000000,0.000000,0.000000,0.000000,0.000000
13393730.000000,-0.260300,0.591253,0.325789,-1.508266,-0.208573,2.065893,0.116916,0.030581,0.525564,-0.088669,-0.368258,-0.226777,0.954244,0.141821,0.054365,-37.263447,4.893600,18.550596,0.249418,1.786300,0.028243,0.000000,0.000000,0.000000,0.000000,0.000000,0.000000
13393731.000000,-0.260273,0.591785,0.325705,-1.508626,-0.208814,2.066837,0.117055,0.029490,0.525128,-0.085907,-0.362344,-0.227487,0.945146,0.143703,0.030561,-37.334858,4.794418,18.499022,0.267728,1.825668,0.034652,0.000000,0.000000,0.000000,0.000000,0.000000,0.000000
13393732.000000,-0.260244,0.592326,0.325615,-1.508986,-0.209046,2.067800,0.117190,0.028783,0.529789,-0.089072,-0.371596,-0.225621,0.940655,0.138095,0.006757,-37.410236,4.770615,18.427610,0.225614,1.865035,0.100570,0.000000,0.000000,0.000000,0.000000,0.000000,0.000000
13393733.000000,-0.260217,0.592864,0.325528,-1.509336,-0.209277,2.068742,0.117340,0.028729,0.539508,-0.089550,-0.364882,-0.224076,0.957029,0.142595,-0.017047,-37.580830,4.695236,18.205442,0.183500,1.930038,0.048385,0.000000,0.000000,0.000000,0.000000,0.000000,0.000000
13393734.000000,-0.260190,0.593427,0.325449,-1.509699,-0.209504,2.069699,0.117483,0.027088,0.542155,-0.085227,-0.364456,-0.231404,0.956548,0.149376,0.006757,-37.850605,4.524643,18.177671,0.141385,1.974899,0.048385,0.000000,0.000000,0.000000,0.000000,0.000000,0.000000
13393735.000000,-0.260164,0.593985,0.325363,-1.510049,-0.209742,2.070671,0.117626,0.025916,0.548823,-0.087858,-0.361402,-0.234545,0.958014,0.149414,0.030561,-37.898212,4.449265,18.030882,0.123990,1.838485,0.054794,0.000000,0.000000,0.000000,0.000000,0.000000,0.000000
13393736.000000,-0.260134,0.594531,0.325267,-1.510402,-0.209985,2.071631,0.117761,0.026816,0.552866,-0.089959,-0.358814,-0.228807,0.953892,0.143132,-0.017047,-37.898212,4.524643,17.884092,0.147794,1.702071,0.107894,0.000000,0.000000,0.000000,0.000000,0.000000,0.000000
13393737.000000,-0.260111,0.595087,0.325181,-1.510756,-0.210225,2.072600,0.117910,0.024603,0.547507,-0.085188,-0.353342,-0.230665,0.955132,0.142350,0.054365,-37.874409,4.473068,17.685728,0.207303,1.656295,0.054794,0.000000,0.000000,0.000000,0.000000,0.000000,0.000000
13393738.000000,-0.260086,0.595648,0.325097,-1.511104,-0.210462,2.073550,0.118047,0.024267,0.554629,-0.087347,-0.348652,-0.230231,0.949883,0.143438,0.105939,-37.997395,4.425461,17.610350,0.237516,1.721298,0.081344,0.000000,0.000000,0.000000,0.000000,0.000000,0.000000
13393739.000000,-0.260062,0.596217,0.325019,-1.511443,-0.210701,2.074493,0.118186,0.022957,0.557579,-0.084673,-0.343063,-0.235208,0.952337,0.140427,0.177350,-38.144184,4.302475,17.340574,0.273221,1.721298,0.087753,0.000000,0.000000,0.000000,0.000000,0.000000,0.000000
13393740.000000,-0.260032,0.596793,0.324936,-1.511778,-0.210933,2.075450,0.118328,0.024203,0.556645,-0.084836,-0.339028,-0.235505,0.941577,0.139270,0.153547,-38.314777,4.254868,17.166014,0.219205,1.649886,0.054794,0.000000,0.000000,0.000000,0.000000,0.000000,0.000000
13393741.000000,-0.260003,0.597370,0.324849,-1.512122,-0.211166,2.076404,0.118462,0.027684,0.564938,-0.082655,-0.340089,-0.234390,0.945800,0.140146,0.153547,-38.584553,4.254868,17.043028,0.129484,1.552840,0.107894,0.000000,0.000000,0.000000,0.000000,0.000000,0.000000
13393742.000000,-0.259978,0.597953,0.324768,-1.512467,-0.211396,2.077361,0.118615,0.025892,0.568975,-0.078580,-0.338356,-0.231717,0.946223,0.140750,0.205121,-38.830524,4.155685,16.943846,0.100187,1.494247,0.034652,0.000000,0.000000,0.000000,0.000000,0.000000,0.000000
13393743.000000,-0.259952,0.598539,0.324674,-1.512802,-0.211628,2.078302,0.118761,0.025025,0.583237,-0.079767,-0.338494,-0.229577,0.941611,0.142398,0.276533,-39.001118,4.227097,16.892271,0.069974,1.572067,0.054794,0.000000,0.000000,0.000000,0.000000,0.000000,0.000000
13393744.000000,-0.259928,0.599118,0.324585,-1.513137,-0.211860,2.079224,0.118902,0.023552,0.577176,-0.085455,-0.334879,-0.230480,0.933083,0.138668,0.351911,-39.124104,4.254868,16.745481,0.105680,1.670028,0.087753,0.000000,0.000000,0.000000,0.000000,0.000000,0.000000
13393745.000000,-0.259899,0.599711,0.324492,-1.513474,-0.212101,2.080180,0.119052,0.027280,0.582224,-0.086523,-0.340352,-0.235783,0.930369,0.137516,0.351911,-39.247089,4.278671,16.721678,0.147794,1.624252,0.061202,0.000000,0.000000,0.000000,0.000000,0.000000,0.000000
13393746.000000,-0.259870,0.600291,0.324395,-1.513812,-0.212344,2.081118,0.119197,0.026828,0.583774,-0.090774,-0.338144,-0.233644,0.934665,0.139630,0.351911,-39.393879,4.350082,16.622496,0.166105,1.611434,0.094161,0.000000,0.000000,0.000000,0.000000,0.000000,0.000000
13393747.000000,-0.259844,0.600887,0.324305,-1.514155,-0.212576,2.082075,0.119348,0.027881,0.582283,-0.089692,-0.336345,-0.235737,0.938924,0.144616,0.427289,-39.588276,4.350082,16.646299,0.141385,1.565658,0.041976,0.000000,0.000000,0.000000,0.000000,0.000000,0.000000
13393748.000000,-0.259816,0.601496,0.324204,-1.514484,-0.212808,2.083033,0.119489,0.026851,0.589376,-0.092055,-0.336813,-0.232619,0.942903,0.143929,0.451093,-39.858051,4.473068,16.622496,0.117582,1.461288,0.100570,0.000000,0.000000,0.000000,0.000000,0.000000,0.000000
13393749.000000,-0.259789,0.602096,0.324110,-1.514817,-0.213039,2.083979,0.119636,0.028564,0.594399,-0.094223,-0.335976,-0.231056,0.941760,0.146022,0.502668,-40.104023,4.500839,16.570921,0.117582,1.364242,0.081344,0.000000,0.000000,0.000000,0.000000,0.000000,0.000000
13393750.000000,-0.259761,0.602690,0.324003,-1.515152,-0.213275,2.084922,0.119784,0.026883,0.591897,-0.099005,-0.338023,-0.234373,0.936084,0.151912,0.550275,-40.127827,4.647629,16.570921,0.105680,1.435653,0.074935,0.000000,0.000000,0.000000,0.000000,0.000000,0.000000
13393751.000000,-0.259731,0.603278,0.323899,-1.515481,-0.213522,2.085866,0.119938,0.026686,0.586676,-0.099741,-0.333434,-0.237352,0.954332,0.152625,0.550275,-40.076252,4.719040,16.499510,0.123990,1.461288,0.028243,0.000000,0.000000,0.000000,0.000000,0.000000,0.000000
13393752.000000,-0.259701,0.603873,0.323792,-1.515818,-0.213764,2.086788,0.120079,0.025863,0.588000,-0.102138,-0.330775,-0.242691,0.951195,0.149613,0.574079,-39.981037,4.842026,16.598692,0.129484,1.584884,0.094161,0.000000,0.000000,0.000000,0.000000,0.000000,0.000000
13393753.000000,-0.259672,0.604476,0.323684,-1.516140,-0.214010,2.087715,0.120235,0.028240,0.592682,-0.100415,-0.328582,-0.243850,0.935955,0.151441,0.601850,-40.028645,4.941208,16.547117,0.147794,1.682845,0.054794,0.000000,0.000000,0.000000,0.000000,0.000000,0.000000
13393754.000000,-0.259643,0.605071,0.323569,-1.516477,-0.214245,2.088651,0.120376,0.029616,0.590169,-0.106111,-0.327735,-0.237338,0.933599,0.154383,0.649457,-40.076252,5.087997,16.670103,0.093778,1.682845,0.100570,0.000000,0.000000,0.000000,0.000000,0.000000,0.000000
13393755.000000,-0.259613,0.605673,0.323461,-1.516807,-0.214490,2.089604,0.120526,0.028107,0.592178,-0.104927,-0.325346,-0.239536,0.933406,0.154282,0.673261,-40.076252,5.135605,16.721678,0.088285,1.578475,0.081344,0.000000,0.000000,0.000000,0.000000,0.000000,0.000000
13393756.000000,-0.259579,0.606272,0.323353,-1.517142,-0.214745,2.090549,0.120681,0.028069,0.597862,-0.107351,-0.328295,-0.245464,0.936799,0.155449,0.649457,-40.076252,5.210983,16.844664,0.081876,1.565658,0.028243,0.000000,0.000000,0.000000,0.000000,0.000000,0.000000
13393757.000000,-0.259555,0.606879,0.323245,-1.517475,-0.214999,2.091470,0.120819,0.025616,0.601435,-0.109825,-0.326086,-0.246879,0.927502,0.151933,0.724836,-40.052448,5.286362,16.943846,0.112089,1.597701,0.087753,0.000000,0.000000,0.000000,0.000000,0.000000,0.000000
13393758.000000,-0.259525,0.607482,0.323126,-1.517798,-0.215248,2.092395,0.120972,0.028208,0.596611,-0.110392,-0.326278,-0.243557,0.916691,0.153072,0.748639,-39.957233,5.433151,16.967649,0.166105,1.689254,0.041976,0.000000,0.000000,0.000000,0.000000,0.000000,0.000000
13393759.000000,-0.259492,0.608078,0.323010,-1.518132,-0.215495,2.093304,0.121118,0.031096,0.597725,-0.114766,-0.328141,-0.239361,0.911067,0.151688,0.724836,-39.782673,5.528366,17.066832,0.189908,1.773483,0.061202,0.000000,0.000000,0.000000,0.000000,0.000000,0.000000
13393760.000000,-0.259458,0.608675,0.322898,-1.518463,-0.215741,2.094236,0.121273,0.029653,0.594293,-0.111565,-0.325687,-0.240349,0.913621,0.152531,0.724836,-39.612080,5.579941,17.142210,0.178007,1.779891,0.034652,0.000000,0.000000,0.000000,0.000000,0.000000,0.000000
13393761.000000,-0.259428,0.609277,0.322780,-1.518799,-0.215995,2.095160,0.121418,0.027424,0.605872,-0.112656,-0.329606,-0.244793,0.907643,0.150377,0.772443,-39.465290,5.627548,17.312803,0.135892,1.754256,0.074935,0.000000,0.000000,0.000000,0.000000,0.000000,0.000000
13393762.000000,-0.259394,0.609866,0.322663,-1.519129,-0.216247,2.096072,0.121567,0.030304,0.598057,-0.112723,-0.326539,-0.244812,0.911709,0.156499,0.772443,-39.270893,5.651352,17.411985,0.135892,1.747848,0.041976,0.000000,0.000000,0.000000,0.000000,0.000000,0.000000
13393763.000000,-0.259361,0.610467,0.322543,-1.519454,-0.216495,2.096989,0.121716,0.031593,0.595111,-0.114136,-0.333159,-0.246116,0.902351,0.150446,0.796247,-39.072529,5.726730,17.534971,0.166105,1.779891,0.028243,0.000000,0.000000,0.000000,0.000000,0.000000,0.000000
13393764.000000,-0.259328,0.611057,0.322433,-1.519784,-0.216746,2.097888,0.121856,0.029301,0.594683,-0.114538,-0.330807,-0.247896,0.907218,0.147829,0.824018,-38.925739,5.679123,17.661924,0.231107,1.800033,0.074935,0.000000,0.000000,0.000000,0.000000,0.000000,0.000000
13393765.000000,-0.259296,0.611648,0.322317,-1.520117,-0.216995,2.098806,0.122002,0.030956,0.590365,-0.114239,-0.329099,-0.252177,0.907861,0.144610,0.847822,-38.632160,5.702927,17.808714,0.243009,1.760665,0.061202,0.000000,0.000000,0.000000,0.000000,0.000000,0.000000
13393766.000000,-0.259262,0.612247,0.322202,-1.520445,-0.217250,2.099717,0.122145,0.029004,0.590421,-0.113912,-0.330809,-0.250318,0.903623,0.144822,0.871625,-38.437763,5.702927,17.931700,0.243009,1.832076,0.100570,0.000000,0.000000,0.000000,0.000000,0.000000,0.000000
13393767.000000,-0.259225,0.612843,0.322093,-1.520774,-0.217507,2.100616,0.122299,0.032414,0.590030,-0.111987,-0.327694,-0.254721,0.899421,0.148694,0.824018,-38.243366,5.651352,18.030882,0.267728,1.838485,0.041976,0.000000,0.000000,0.000000,0.000000,0.000000,0.000000
13393768.000000,-0.259195,0.613444,0.321980,-1.521100,-0.217745,2.101530,0.122444,0.031350,0.590780,-0.111063,-0.327972,-0.253585,0.902723,0.147039,0.923200,-38.144184,5.603745,18.078489,0.178007,1.865035,0.074935,0.000000,0.000000,0.000000,0.000000,0.000000,0.000000
13393769.000000,-0.259161,0.614047,0.321868,-1.521419,-0.217991,2.102440,0.122595,0.032583,0.597437,-0.111996,-0.323736,-0.251235,0.911714,0.149898,0.947004,-38.243366,5.528366,18.078489,0.178007,1.890670,0.028243,0.000000,0.000000,0.000000,0.000000,0.000000,0.000000
13393770.000000,-0.259119,0.614655,0.321758,-1.521747,-0.218236,2.103349,0.122736,0.036379,0.597040,-0.108423,-0.322513,-0.249030,0.911272,0.148099,0.847822,-38.267170,5.504562,18.177671,0.154203,1.858627,0.081344,0.000000,0.000000,0.000000,0.000000,0.000000,0.000000
13393771.000000,-0.259085,0.615274,0.321660,-1.522075,-0.218493,2.104275,0.122890,0.035406,0.600632,-0.105762,-0.324392,-0.247660,0.912180,0.150471,0.895429,-38.314777,5.333969,18.229246,0.135892,1.767074,0.034652,0.000000,0.000000,0.000000,0.000000,0.000000,0.000000
13393772.000000,-0.259054,0.615882,0.321548,-1.522400,-0.218759,2.105177,0.123034,0.034266,0.606490,-0.108849,-0.324791,-0.250521,0.911513,0.150032,0.970807,-38.390156,5.381577,18.253050,0.231107,1.741439,0.048385,0.000000,0.000000,0.000000,0.000000,0.000000,0.000000
13393773.000000,-0.259018,0.616495,0.321442,-1.522723,-0.219012,2.106088,0.123177,0.034707,0.604190,-0.105076,-0.324810,-0.251002,0.903300,0.145209,0.994611,-38.390156,5.310165,18.253050,0.279630,1.760665,0.054794,0.000000,0.000000,0.000000,0.000000,0.000000,0.000000
13393774.000000,-0.258977,0.617093,0.321334,-1.523042,-0.219268,2.106999,0.123323,0.036707,0.598064,-0.103534,-0.321427,-0.250512,0.901143,0.146171,0.947004,-38.267170,5.286362,18.229246,0.315336,1.851302,0.067611,0.000000,0.000000,0.000000,0.000000,0.000000,0.000000
13393775.000000,-0.258938,0.617715,0.321229,-1.523368,-0.219523,2.107892,0.123469,0.036932,0.605720,-0.104601,-0.319758,-0.252241,0.898146,0.146917,0.947004,-38.267170,5.234787,18.276854,0.273221,1.962081,0.081344,0.000000,0.000000,0.000000,0.000000,0.000000,0.000000
13393776.000000,-0.258892,0.618326,0.321125,-1.523686,-0.219770,2.108813,0.123627,0.039918,0.606338,-0.105328,-0.320986,-0.247364,0.902743,0.149662,0.824018,-38.167988,5.163376,18.253050,0.189908,1.968490,0.028243,0.000000,0.000000,0.000000,0.000000,0.000000,0.000000
13393777.000000,-0.258849,0.618937,0.321022,-1.524007,-0.220019,2.109726,0.123770,0.042620,0.609646,-0.107821,-0.318647,-0.249251,0.897612,0.148610,0.796247,-38.191792,5.087997,18.229246,0.135892,1.865035,0.061202,0.000000,0.000000,0.000000,0.000000,0.000000,0.000000
13393778.000000,-0.258801,0.619564,0.320922,-1.524322,-0.220266,2.110646,0.123921,0.046586,0.606265,-0.104253,-0.317917,-0.248369,0.901381,0.149733,0.697065,-38.290974,5.012619,18.253050,0.129484,1.806442,0.028243,0.000000,0.000000,0.000000,0.000000,0.000000,0.000000
13393779.000000,-0.258761,0.620193,0.320817,-1.524637,-0.220515,2.111564,0.124068,0.041070,0.611821,-0.106289,-0.315138,-0.248041,0.901683,0.148568,0.724836,-38.290974,4.988815,18.304625,0.129484,1.812850,0.067611,0.000000,0.000000,0.000000,0.000000,0.000000,0.000000
13393780.000000,-0.258722,0.620811,0.320713,-1.524945,-0.220787,2.112456,0.124221,0.040058,0.617763,-0.104912,-0.308499,-0.255930,0.895747,0.151168,0.724836,-38.243366,4.988815,18.205442,0.225614,1.858627,0.015426,0.000000,0.000000,0.000000,0.000000,0.000000,0.000000
13393781.000000,-0.258672,0.621430,0.320613,-1.525247,-0.221050,2.113357,0.124363,0.044727,0.617475,-0.102176,-0.315935,-0.259809,0.889212,0.143706,0.625654,-38.144184,4.917404,18.130064,0.279630,1.909896,0.061202,0.000000,0.000000,0.000000,0.000000,0.000000,0.000000
13393782.000000,-0.258624,0.622059,0.320509,-1.525549,-0.221307,2.114260,0.124510,0.046754,0.616919,-0.102390,-0.310058,-0.254035,0.890503,0.149964,0.574079,-38.267170,4.965012,18.030882,0.243009,1.851302,0.048385,0.000000,0.000000,0.000000,0.000000,0.000000,0.000000
13393783.000000,-0.258573,0.622702,0.320403,-1.525852,-0.221561,2.115171,0.124654,0.049636,0.619364,-0.104810,-0.304735,-0.255617,0.896207,0.153614,0.474897,-38.413960,4.965012,18.030882,0.219205,1.779891,0.081344,0.000000,0.000000,0.000000,0.000000,0.000000,0.000000
13393784.000000,-0.258519,0.623342,0.320295,-1.526150,-0.221816,2.116087,0.124808,0.051614,0.626489,-0.103875,-0.303695,-0.251069,0.900018,0.153058,0.375715,-38.485371,4.965012,18.007078,0.159696,1.708480,0.081344,0.000000,0.000000,0.000000,0.000000,0.000000,0.000000
13393785.000000,-0.258468,0.623981,0.320189,-1.526447,-0.222086,2.116980,0.124961,0.051966,0.634715,-0.103290,-0.298118,-0.254610,0.892806,0.151521,0.328107,-38.683735,4.988815,17.931700,0.166105,1.682845,0.061202,0.000000,0.000000,0.000000,0.000000,0.000000,0.000000
13393786.000000,-0.258417,0.624628,0.320089,-1.526739,-0.222355,2.117876,0.125113,0.055731,0.635136,-0.101266,-0.293798,-0.259663,0.885618,0.151735,0.276533,-38.830524,4.941208,17.832518,0.231107,1.754256,0.041976,0.000000,0.000000,0.000000,0.000000,0.000000,0.000000
13393787.000000,-0.258365,0.625260,0.319986,-1.527042,-0.222617,2.118783,0.125266,0.054548,0.629142,-0.102831,-0.294541,-0.260705,0.912172,0.151976,0.252729,-38.806721,4.917404,17.907896,0.243009,1.773483,0.028243,0.000000,0.000000,0.000000,0.000000,0.000000,0.000000
13393788.000000,-0.258311,0.625906,0.319881,-1.527338,-0.222874,2.119676,0.125410,0.054991,0.634219,-0.102058,-0.290729,-0.258332,0.902517,0.144942,0.177350,-38.778950,4.917404,17.955503,0.279630,1.727706,0.081344,0.000000,0.000000,0.000000,0.000000,0.000000,0.000000
13393789.000000,-0.258263,0.626551,0.319773,-1.527634,-0.223142,2.120584,0.125567,0.052688,0.638053,-0.105959,-0.294441,-0.260153,0.906569,0.148085,0.205121,-38.755146,4.965012,18.130064,0.297025,1.735030,0.034652,0.000000,0.000000,0.000000,0.000000,0.000000,0.000000
13393790.000000,-0.258207,0.627191,0.319665,-1.527929,-0.223408,2.121480,0.125712,0.053627,0.643628,-0.110271,-0.294260,-0.263589,0.907196,0.147071,0.129743,-38.830524,4.988815,18.205442,0.249418,1.721298,0.081344,0.000000,0.000000,0.000000,0.000000,0.000000,0.000000
13393791.000000,-0.258159,0.627842,0.319560,-1.528225,-0.223668,2.122382,0.125873,0.054530,0.638351,-0.106884,-0.291803,-0.258461,0.905560,0.149775,0.177350,-38.953510,4.965012,18.304625,0.231107,1.727706,0.034652,0.000000,0.000000,0.000000,0.000000,0.000000,0.000000
13393792.000000,-0.258108,0.628477,0.319451,-1.528515,-0.223937,2.123283,0.126027,0.052691,0.648724,-0.107758,-0.292382,-0.260681,0.894120,0.148959,0.205121,-38.878132,4.941208,18.376036,0.249418,1.786300,0.061202,0.000000,0.000000,0.000000,0.000000,0.000000,0.000000
13393793.000000,-0.258050,0.629124,0.319344,-1.528815,-0.224201,2.124179,0.126185,0.050155,0.648821,-0.105638,-0.291269,-0.262416,0.892238,0.154155,0.153547,-38.830524,4.941208,18.550596,0.273221,1.793624,0.061202,0.000000,0.000000,0.000000,0.000000,0.000000,0.000000
13393794.000000,-0.258005,0.629765,0.319239,-1.529099,-0.224471,2.125080,0.126344,0.047662,0.645437,-0.103193,-0.293202,-0.265155,0.890595,0.154403,0.252729,-38.659931,4.893600,18.625975,0.339139,1.754256,0.021835,0.000000,0.000000,0.000000,0.000000,0.000000,0.000000
13393795.000000,-0.257950,0.630411,0.319126,-1.529377,-0.224741,2.125964,0.126497,0.051812,0.648236,-0.107737,-0.291467,-0.265136,0.890827,0.151943,0.228925,-38.659931,4.893600,18.625975,0.362943,1.844894,0.061202,0.000000,0.000000,0.000000,0.000000,0.000000,0.000000
13393796.000000,-0.257900,0.631066,0.319021,-1.529659,-0.224999,2.126849,0.126653,0.050884,0.642221,-0.103920,-0.287787,-0.263784,0.881709,0.152232,0.252729,-38.659931,4.818222,18.649778,0.339139,1.936446,0.048385,0.000000,0.000000,0.000000,0.000000,0.000000,0.000000
13393797.000000,-0.257844,0.631723,0.318910,-1.529932,-0.225251,2.127755,0.126804,0.054391,0.641938,-0.103177,-0.284712,-0.256478,0.888156,0.150728,0.228925,-38.632160,4.818222,18.649778,0.267728,1.930038,0.074935,0.000000,0.000000,0.000000,0.000000,0.000000,0.000000
13393798.000000,-0.257796,0.632366,0.318800,-1.530208,-0.225504,2.128654,0.126960,0.052446,0.649569,-0.108088,-0.281833,-0.256314,0.894694,0.152901,0.276533,-38.560749,4.794418,18.649778,0.207303,1.877853,0.021835,0.000000,0.000000,0.000000,0.000000,0.000000,0.000000
13393799.000000,-0.257744,0.633014,0.318688,-1.530473,-0.225759,2.129550,0.127106,0.050688,0.647075,-0.106171,-0.280725,-0.257658,0.886066,0.150068,0.328107,-38.437763,4.794418,18.598204,0.178007,1.871444,0.074935,0.000000,0.000000,0.000000,0.000000,0.000000,0.000000
13393800.000000,-0.257696,0.633655,0.318578,-1.530737,-0.226026,2.130438,0.127268,0.048443,0.645578,-0.106540,-0.274839,-0.256817,0.899011,0.155205,0.427289,-38.290974,4.770615,18.526793,0.243009,1.884261,0.028243,0.000000,0.000000,0.000000,0.000000,0.000000,0.000000
13393801.000000,-0.257650,0.634300,0.318476,-1.530999,-0.226289,2.131334,0.127415,0.046356,0.638932,-0.103524,-0.271220,-0.264364,0.889713,0.152642,0.550275,-38.045002,4.719040,18.499022,0.308927,1.903487,0.067611,0.000000,0.000000,0.000000,0.000000,0.000000,0.000000
13393802.000000,-0.257605,0.634952,0.318368,-1.531253,-0.226546,2.132223,0.127571,0.048445,0.636572,-0.105508,-0.267136,-0.265292,0.893050,0.154409,0.649457,-37.874409,4.695236,18.399839,0.339139,1.909896,0.009017,0.000000,0.000000,0.000000,0.000000,0.000000,0.000000
13393803.000000,-0.257548,0.635587,0.318261,-1.531508,-0.226805,2.133107,0.127716,0.051149,0.638615,-0.104031,-0.262703,-0.264038,0.884315,0.152126,0.574079,-37.604633,4.695236,18.376036,0.320829,1.865035,0.041976,0.000000,0.000000,0.000000,0.000000,0.000000,0.000000
13393804.000000,-0.257497,0.636225,0.318150,-1.531757,-0.227065,2.133994,0.127863,0.050385,0.635684,-0.103503,-0.257865,-0.261392,0.882555,0.144509,0.601850,-37.334858,4.719040,18.276854,0.243009,1.858627,0.081344,0.000000,0.000000,0.000000,0.000000,0.000000,0.000000
13393805.000000,-0.257441,0.636857,0.318040,-1.531997,-0.227324,2.134877,0.128017,0.051190,0.636174,-0.107453,-0.249556,-0.254795,0.880281,0.144032,0.574079,-37.116657,4.695236,18.106260,0.178007,1.930038,0.015426,0.000000,0.000000,0.000000,0.000000,0.000000,0.000000
13393806.000000,-0.257390,0.637495,0.317927,-1.532238,-0.227582,2.135745,0.128156,0.050373,0.631864,-0.109131,-0.241397,-0.256590,0.878427,0.143680,0.601850,-36.823078,4.719040,18.007078,0.154203,1.995040,0.067611,0.000000,0.000000,0.000000,0.000000,0.000000,0.000000
13393807.000000,-0.257342,0.638134,0.317813,-1.532469,-0.227841,2.136626,0.128312,0.051755,0.630000,-0.110083,-0.236417,-0.255913,0.869370,0.147024,0.673261,-36.454121,4.719040,17.931700,0.201810,2.007858,0.021835,0.000000,0.000000,0.000000,0.000000,0.000000,0.000000
13393808.000000,-0.257288,0.638774,0.317702,-1.532695,-0.228105,2.137506,0.128461,0.054698,0.635104,-0.112779,-0.233457,-0.262461,0.873159,0.146757,0.673261,-36.212116,4.719040,17.757139,0.207303,1.916305,0.054794,0.000000,0.000000,0.000000,0.000000,0.000000,0.000000
13393809.000000,-0.257233,0.639426,0.317589,-1.532926,-0.228367,2.138400,0.128616,0.053713,0.638242,-0.109878,-0.231805,-0.262710,0.878884,0.148565,0.673261,-36.136738,4.742844,17.733335,0.195402,1.825668,0.034652,0.000000,0.000000,0.000000,0.000000,0.000000,0.000000
13393810.000000,-0.257179,0.640080,0.317477,-1.533137,-0.228640,2.139284,0.128768,0.056066,0.657638,-0.106923,-0.226500,-0.265132,0.872217,0.148738,0.673261,-36.259724,4.719040,17.534971,0.249418,1.786300,0.041976,0.000000,0.000000,0.000000,0.000000,0.000000,0.000000
13393811.000000,-0.257128,0.640748,0.317361,-1.533345,-0.228907,2.140164,0.128917,0.053443,0.657921,-0.106037,-0.218965,-0.265886,0.876035,0.147908,0.724836,-36.430317,4.770615,17.340574,0.273221,1.773483,0.081344,0.000000,0.000000,0.000000,0.000000,0.000000,0.000000
13393812.000000,-0.257074,0.641422,0.317247,-1.533555,-0.229165,2.141052,0.129074,0.052645,0.657993,-0.107651,-0.221090,-0.260861,0.870364,0.149613,0.724836,-36.600910,4.770615,17.241392,0.279630,1.793624,0.048385,0.000000,0.000000,0.000000,0.000000,0.000000,0.000000
13393813.000000,-0.257016,0.642091,0.317127,-1.533766,-0.229426,2.141928,0.129220,0.056150,0.667794,-0.115005,-0.219365,-0.259779,0.872328,0.148424,0.673261,-36.799274,4.818222,17.213621,0.243009,1.721298,0.087753,0.000000,0.000000,0.000000,0.000000,0.000000,0.000000
13393814.000000,-0.256960,0.642765,0.317004,-1.533973,-0.229687,2.142827,0.129375,0.057753,0.668466,-0.116836,-0.215307,-0.255353,0.873481,0.154565,0.673261,-36.918293,4.941208,17.213621,0.219205,1.643478,0.067611,0.000000,0.000000,0.000000,0.000000,0.000000,0.000000
13393815.000000,-0.256903,0.643437,0.316897,-1.534174,-0.229951,2.143719,0.129535,0.057420,0.670745,-0.113318,-0.212114,-0.257846,0.870879,0.154891,0.673261,-36.946064,4.842026,17.213621,0.219205,1.643478,0.034652,0.000000,0.000000,0.000000,0.000000,0.000000,0.000000
13393816.000000,-0.256844,0.644107,0.316780,-1.534371,-0.230209,2.144588,0.129690,0.059297,0.669390,-0.113962,-0.206189,-0.254892,0.872276,0.158854,0.649457,-37.092854,4.893600,17.090635,0.219205,1.702071,0.028243,0.000000,0.000000,0.000000,0.000000,0.000000,0.000000
13393817.000000,-0.256784,0.644788,0.316666,-1.534559,-0.230467,2.145463,0.129839,0.057447,0.667399,-0.112745,-0.203870,-0.258439,0.865022,0.153482,0.625654,-37.263447,4.865829,16.943846,0.249418,1.806442,0.094161,0.000000,0.000000,0.000000,0.000000,0.000000,0.000000
13393818.000000,-0.256723,0.645470,0.316547,-1.534751,-0.230728,2.146334,0.129995,0.056786,0.674417,-0.116138,-0.197868,-0.258182,0.882626,0.154904,0.574079,-37.481647,4.917404,16.820860,0.219205,1.858627,0.021835,0.000000,0.000000,0.000000,0.000000,0.000000,0.000000
13393819.000000,-0.256661,0.646158,0.316437,-1.534948,-0.230980,2.147220,0.130143,0.056657,0.677971,-0.116762,-0.198306,-0.260057,0.884493,0.152525,0.502668,-37.628437,4.865829,16.793089,0.141385,1.838485,0.054794,0.000000,0.000000,0.000000,0.000000,0.000000,0.000000
13393820.000000,-0.256594,0.646848,0.316316,-1.535135,-0.231237,2.148120,0.130299,0.057040,0.677821,-0.117637,-0.195694,-0.254840,0.887297,0.152688,0.403486,-37.680012,4.941208,16.622496,0.093778,1.760665,0.034652,0.000000,0.000000,0.000000,0.000000,0.000000,0.000000
13393821.000000,-0.256537,0.647533,0.316198,-1.535324,-0.231493,2.149001,0.130444,0.056990,0.680194,-0.119018,-0.191908,-0.253313,0.881759,0.154502,0.451093,-37.775227,4.941208,16.523314,0.112089,1.656295,0.048385,0.000000,0.000000,0.000000,0.000000,0.000000,0.000000
13393822.000000,-0.256476,0.648233,0.316074,-1.535507,-0.231753,2.149891,0.130585,0.058308,0.679368,-0.118196,-0.185065,-0.257342,0.880473,0.152357,0.451093,-37.973591,4.988815,16.376524,0.141385,1.662704,0.081344,0.000000,0.000000,0.000000,0.000000,0.000000,0.000000
13393823.000000,-0.256412,0.648941,0.315961,-1.535676,-0.232025,2.150773,0.130742,0.056745,0.687363,-0.117952,-0.179428,-0.261165,0.879985,0.149648,0.427289,-38.362385,4.917404,16.201963,0.201810,1.721298,0.021835,0.000000,0.000000,0.000000,0.000000,0.000000,0.000000
13393826.000000,-0.256224,0.651114,0.315600,-1.536208,-0.232782,2.153413,0.131181,0.061984,0.713260,-0.123759,-0.175836,-0.247359,0.876614,0.147815,0.351911,-39.588276,4.917404,15.979795,0.088285,1.461288,0.100570,0.000000,0.000000,0.000000,0.000000,0.000000,0.000000
13393827.000000,-0.256157,0.651840,0.315474,-1.536390,-0.233042,2.154290,0.131339,0.062553,0.714126,-0.124757,-0.175041,-0.250314,0.878409,0.150887,0.328107,-39.881855,4.965012,16.055174,0.040677,1.448470,0.041976,0.000000,0.000000,0.000000,0.000000,0.000000,0.000000
13393828.000000,-0.256091,0.652558,0.315348,-1.536566,-0.233315,2.155165,0.131488,0.062897,0.726673,-0.125331,-0.179104,-0.251278,0.867627,0.150820,0.304304,-40.104023,4.988815,16.078978,0.088285,1.519881,0.041976,0.000000,0.000000,0.000000,0.000000,0.000000,0.000000
13393829.000000,-0.256030,0.653293,0.315226,-1.536748,-0.233588,2.156019,0.131633,0.061003,0.724056,-0.122224,-0.179708,-0.261364,0.863086,0.149250,0.375715,-40.445210,5.012619,16.150389,0.141385,1.630660,0.081344,0.000000,0.000000,0.000000,0.000000,0.000000,0.000000
13393830.000000,-0.255970,0.654031,0.315108,-1.536938,-0.233856,2.156883,0.131784,0.059568,0.718901,-0.121629,-0.186534,-0.264098,0.859779,0.145527,0.451093,-40.691181,4.965012,16.400328,0.195402,1.689254,0.061202,0.000000,0.000000,0.000000,0.000000,0.000000,0.000000
13393831.000000,-0.255905,0.654765,0.314979,-1.537120,-0.234131,2.157740,0.131934,0.060747,0.720185,-0.122414,-0.183777,-0.273349,0.853430,0.147396,0.427289,-40.984760,5.012619,16.547117,0.213712,1.676437,0.048385,0.000000,0.000000,0.000000,0.000000,0.000000,0.000000
13393832.000000,-0.255831,0.655493,0.314857,-1.537309,-0.234401,2.158615,0.132085,0.066731,0.722763,-0.123306,-0.185626,-0.273355,0.853936,0.146975,0.328107,-41.107746,5.040390,16.745481,0.154203,1.637069,0.081344,0.000000,0.000000,0.000000,0.000000,0.000000,0.000000
13393833.000000,-0.255766,0.656218,0.314732,-1.537499,-0.234675,2.159480,0.132239,0.064923,0.721103,-0.124373,-0.188886,-0.270072,0.855983,0.146074,0.351911,-41.131550,5.064194,16.892271,0.123990,1.662704,0.107894,0.000000,0.000000,0.000000,0.000000,0.000000,0.000000
13393834.000000,-0.255710,0.656939,0.314604,-1.537688,-0.234946,2.160330,0.132395,0.063567,0.721292,-0.125232,-0.186061,-0.273425,0.856717,0.148885,0.474897,-41.226765,5.111801,16.967649,0.123990,1.735030,0.067611,0.000000,0.000000,0.000000,0.000000,0.000000,0.000000
13393835.000000,-0.255640,0.657671,0.314472,-1.537871,-0.235211,2.161193,0.132551,0.064550,0.720693,-0.126582,-0.184757,-0.271722,0.845465,0.152738,0.427289,-41.349751,5.187180,17.043028,0.135892,1.786300,0.094161,0.000000,0.000000,0.000000,0.000000,0.000000,0.000000
13393836.000000,-0.255577,0.658404,0.314345,-1.538054,-0.235493,2.162066,0.132716,0.066173,0.726389,-0.128442,-0.182504,-0.275181,0.865338,0.153667,0.474897,-41.548115,5.210983,17.066832,0.166105,1.767074,0.041976,0.000000,0.000000,0.000000,0.000000,0.000000,0.000000
13393837.000000,-0.255510,0.659140,0.314218,-1.538239,-0.235772,2.162931,0.132861,0.065981,0.724690,-0.127009,-0.181275,-0.277223,0.870086,0.150738,0.451093,-41.619526,5.210983,17.114439,0.166105,1.656295,0.100570,0.000000,0.000000,0.000000,0.000000,0.000000,0.000000
13393838.000000,-0.255448,0.659880,0.314085,-1.538428,-0.236052,2.163790,0.133024,0.063894,0.721766,-0.130863,-0.182065,-0.275528,0.861380,0.157854,0.502668,-41.643330,5.258591,17.213621,0.213712,1.597701,0.034652,0.000000,0.000000,0.000000,0.000000,0.000000,0.000000
13393839.000000,-0.255384,0.660609,0.313953,-1.538611,-0.236329,2.164639,0.133175,0.063173,0.715850,-0.132323,-0.181138,-0.274388,0.861479,0.154843,0.526471,-41.595722,5.310165,17.265196,0.273221,1.637069,0.067611,0.000000,0.000000,0.000000,0.000000,0.000000,0.000000
13393840.000000,-0.255318,0.661338,0.313817,-1.538787,-0.236602,2.165489,0.133329,0.062625,0.714272,-0.130493,-0.178938,-0.276321,0.856450,0.156685,0.550275,-41.472736,5.333969,17.241392,0.273221,1.754256,0.094161,0.000000,0.000000,0.000000,0.000000,0.000000,0.000000
13393841.000000,-0.255250,0.662054,0.313676,-1.538964,-0.236882,2.166345,0.133497,0.062803,0.727911,-0.135885,-0.176582,-0.276865,0.849205,0.157795,0.550275,-41.278339,5.405380,17.312803,0.249418,1.786300,0.028243,0.000000,0.000000,0.000000,0.000000,0.000000,0.000000
13393842.000000,-0.255178,0.662774,0.313547,-1.539142,-0.237153,2.167204,0.133646,0.067822,0.725721,-0.132556,-0.176925,-0.267216,0.849323,0.153438,0.474897,-41.032368,5.405380,17.364378,0.201810,1.779891,0.094161,0.000000,0.000000,0.000000,0.000000,0.000000,0.000000
13393843.000000,-0.255110,0.663488,0.313415,-1.539324,-0.237413,2.168070,0.133807,0.065650,0.723259,-0.130521,-0.175525,-0.263949,0.847298,0.153878,0.502668,-40.714985,5.405380,17.463560,0.129484,1.773483,0.061202,0.000000,0.000000,0.000000,0.000000,0.000000,0.000000
13393844.000000,-0.255037,0.664194,0.313283,-1.539500,-0.237679,2.168912,0.133961,0.069827,0.722540,-0.133397,-0.172761,-0.263178,0.847113,0.157550,0.427289,-40.421406,5.381577,17.487364,0.112089,1.793624,0.067611,0.000000,0.000000,0.000000,0.000000,0.000000,0.000000
13393845.000000,-0.254975,0.664904,0.313149,-1.539674,-0.237961,2.169764,0.134123,0.066087,0.716108,-0.131385,-0.173783,-0.267347,0.845009,0.157565,0.502668,-40.076252,5.405380,17.511168,0.207303,1.858627,0.021835,0.000000,0.000000,0.000000,0.000000,0.000000,0.000000
13393846.000000,-0.254902,0.665614,0.313014,-1.539846,-0.238239,2.170613,0.134269,0.066449,0.723215,-0.132999,-0.172355,-0.267182,0.838264,0.152868,0.451093,-39.687458,5.405380,17.562742,0.225614,1.923629,0.100570,0.000000,0.000000,0.000000,0.000000,0.000000,0.000000
13393847.000000,-0.254836,0.666320,0.312880,-1.540018,-0.238515,2.171449,0.134425,0.064890,0.716403,-0.132453,-0.168773,-0.271754,0.840986,0.154246,0.474897,-39.540668,5.357773,17.534971,0.243009,1.936446,0.054794,0.000000,0.000000,0.000000,0.000000,0.000000,0.000000
13393848.000000,-0.254765,0.667057,0.312736,-1.540186,-0.238776,2.172302,0.134580,0.065284,0.714007,-0.136009,-0.170007,-0.268895,0.838071,0.153055,0.427289,-39.687458,5.456955,17.562742,0.219205,1.897079,0.054794,0.000000,0.000000,0.000000,0.000000,0.000000,0.000000
13393849.000000,-0.254694,0.667776,0.312602,-1.540355,-0.239047,2.173142,0.134735,0.067867,0.715976,-0.133787,-0.169399,-0.271157,0.832642,0.152812,0.403486,-39.711262,5.405380,17.610350,0.195402,1.858627,0.048385,0.000000,0.000000,0.000000,0.000000,0.000000,0.000000
13393850.000000,-0.254631,0.668517,0.312463,-1.540523,-0.239321,2.173994,0.134883,0.067961,0.723059,-0.134881,-0.165749,-0.274469,0.843817,0.150360,0.474897,-39.881855,5.433151,17.661924,0.201810,1.786300,0.100570,0.000000,0.000000,0.000000,0.000000,0.000000,0.000000
13393851.000000,-0.254564,0.669257,0.312329,-1.540677,-0.239598,2.174843,0.135041,0.071548,0.729599,-0.131246,-0.163681,-0.277791,0.839512,0.150983,0.502668,-39.981037,5.381577,17.610350,0.231107,1.793624,0.087753,0.000000,0.000000,0.000000,0.000000,0.000000,0.000000
13393852.000000,-0.254497,0.669980,0.312193,-1.540843,-0.239871,2.175667,0.135197,0.071463,0.730406,-0.128863,-0.165057,-0.274479,0.832768,0.152498,0.550275,-40.028645,5.357773,17.685728,0.237516,1.909896,0.048385,0.000000,0.000000,0.000000,0.000000,0.000000,0.000000
13393853.000000,-0.254431,0.670715,0.312056,-1.541006,-0.240135,2.176508,0.135343,0.068155,0.726790,-0.127795,-0.159807,-0.276679,0.838629,0.144223,0.601850,-40.104023,5.357773,17.757139,0.237516,1.936446,0.107894,0.000000,0.000000,0.000000,0.000000,0.000000,0.000000
13393854.000000,-0.254362,0.671445,0.311921,-1.541168,-0.240407,2.177358,0.135502,0.066495,0.729259,-0.129733,-0.160243,-0.275370,0.852126,0.149113,0.625654,-40.199238,5.381577,17.884092,0.171598,1.884261,0.028243,0.000000,0.000000,0.000000,0.000000,0.000000,0.000000
13393855.000000,-0.254292,0.672190,0.311792,-1.541328,-0.240687,2.178193,0.135651,0.069414,0.732352,-0.131159,-0.158890,-0.272269,0.846772,0.153065,0.601850,-40.346027,5.381577,17.955503,0.154203,1.877853,0.054794,0.000000,0.000000,0.000000,0.000000,0.000000,0.000000
13393856.000000,-0.254228,0.672928,0.311661,-1.541486,-0.240962,2.179034,0.135807,0.066040,0.729565,-0.129303,-0.156107,-0.275669,0.845848,0.151038,0.673261,-40.298420,5.357773,18.078489,0.171598,1.871444,0.087753,0.000000,0.000000,0.000000,0.000000,0.000000,0.000000
13393857.000000,-0.254161,0.673649,0.311527,-1.541642,-0.241240,2.179862,0.135971,0.064818,0.722406,-0.133625,-0.155356,-0.272921,0.841087,0.160248,0.697065,-40.127827,5.381577,18.130064,0.183500,1.890670,0.041976,0.000000,0.000000,0.000000,0.000000,0.000000,0.000000
13393858.000000,-0.254095,0.674395,0.311394,-1.541795,-0.241522,2.180704,0.136121,0.066412,0.720467,-0.134212,-0.150692,-0.278165,0.836254,0.160863,0.748639,-40.175434,5.381577,18.130064,0.255826,1.923629,0.087753,0.000000,0.000000,0.000000,0.000000,0.000000,0.000000
13393859.000000,-0.254025,0.675142,0.311256,-1.541944,-0.241814,2.181545,0.136283,0.065739,0.744946,-0.132452,-0.151133,-0.280890,0.833425,0.163968,0.748639,-40.369831,5.405380,18.153868,0.303434,1.974899,0.067611,0.000000,0.000000,0.000000,0.000000,0.000000,0.000000
13393860.000000,-0.253957,0.675899,0.311118,-1.542082,-0.242092,2.182382,0.136437,0.068250,0.748376,-0.128819,-0.141991,-0.280397,0.833285,0.160303,0.748639,-40.568195,5.480759,18.054686,0.279630,1.936446,0.081344,0.000000,0.000000,0.000000,0.000000,0.000000,0.000000
13393861.000000,-0.253888,0.676672,0.310990,-1.542223,-0.242362,2.183233,0.136599,0.066817,0.756911,-0.129620,-0.145290,-0.274539,0.833969,0.159136,0.748639,-40.909382,5.433151,18.106260,0.231107,1.838485,0.041976,0.000000,0.000000,0.000000,0.000000,0.000000,0.000000
13393862.000000,-0.253820,0.677432,0.310856,-1.542357,-0.242628,2.184069,0.136749,0.068652,0.765224,-0.132529,-0.138922,-0.273297,0.838261,0.155446,0.748639,-41.202961,5.405380,18.054686,0.154203,1.806442,0.081344,0.000000,0.000000,0.000000,0.000000,0.000000,0.000000
13393863.000000,-0.253747,0.678200,0.310719,-1.542489,-0.242908,2.184905,0.136909,0.071555,0.765335,-0.131914,-0.137099,-0.275013,0.829342,0.155378,0.697065,-41.448933,5.480759,17.983274,0.123990,1.844894,0.054794,0.000000,0.000000,0.000000,0.000000,0.000000,0.000000
13393864.000000,-0.253676,0.678982,0.310580,-1.542619,-0.243194,2.185746,0.137075,0.071732,0.771977,-0.134484,-0.133246,-0.279512,0.823655,0.159455,0.724836,-41.766315,5.528366,17.931700,0.183500,1.851302,0.041976,0.000000,0.000000,0.000000,0.000000,0.000000,0.000000
13393865.000000,-0.253605,0.679747,0.310443,-1.542757,-0.243474,2.186573,0.137231,0.072043,0.771875,-0.135295,-0.134219,-0.281320,0.820573,0.156919,0.748639,-42.012287,5.556137,18.054686,0.201810,1.968490,0.048385,0.000000,0.000000,0.000000,0.000000,0.000000,0.000000
13393866.000000,-0.253534,0.680523,0.310300,-1.542894,-0.243754,2.187420,0.137389,0.069615,0.767064,-0.134666,-0.137984,-0.279592,0.821113,0.153811,0.748639,-42.230488,5.651352,18.205442,0.267728,1.962081,0.081344,0.000000,0.000000,0.000000,0.000000,0.000000,0.000000
13393867.000000,-0.253457,0.681276,0.310161,-1.543035,-0.244034,2.188260,0.137546,0.071214,0.760559,-0.137823,-0.136548,-0.280205,0.822780,0.157509,0.724836,-42.282063,5.679123,18.427610,0.279630,1.858627,0.094161,0.000000,0.000000,0.000000,0.000000,0.000000,0.000000
13393868.000000,-0.253377,0.682030,0.310024,-1.543175,-0.244308,2.189108,0.137709,0.075729,0.753058,-0.137678,-0.138245,-0.282263,0.830697,0.157497,0.574079,-42.107502,5.702927,18.649778,0.243009,1.800033,0.054794,0.000000,0.000000,0.000000,0.000000,0.000000,0.000000
13393869.000000,-0.253305,0.682790,0.309887,-1.543308,-0.244593,2.189945,0.137860,0.075143,0.746979,-0.134488,-0.140148,-0.284431,0.826313,0.152097,0.574079,-41.988483,5.702927,18.772764,0.297025,1.884261,0.127120,0.000000,0.000000,0.000000,0.000000,0.000000,0.000000
13393870.000000,-0.253227,0.683542,0.309744,-1.543441,-0.244869,2.190749,0.138026,0.075587,0.746266,-0.137966,-0.137399,-0.278684,0.816743,0.160313,0.502668,-41.889301,5.750534,18.848143,0.285123,2.047225,0.028243,0.000000,0.000000,0.000000,0.000000,0.000000,0.000000
13393871.000000,-0.253149,0.684314,0.309602,-1.543569,-0.245136,2.191571,0.138183,0.075835,0.744741,-0.137296,-0.134811,-0.278235,0.814290,0.156541,0.474897,-41.936909,5.750534,18.895750,0.243009,2.150680,0.054794,0.000000,0.000000,0.000000,0.000000,0.000000,0.000000
13393872.000000,-0.253064,0.685071,0.309462,-1.543697,-0.245419,2.192409,0.138342,0.075223,0.749702,-0.138248,-0.134192,-0.278004,0.821484,0.158724,0.351911,-41.913105,5.702927,18.994932,0.213712,2.085677,0.081344,0.000000,0.000000,0.000000,0.000000,0.000000,0.000000
13393873.000000,-0.252983,0.685837,0.309317,-1.543821,-0.245698,2.193225,0.138508,0.077111,0.752437,-0.138685,-0.130025,-0.279354,0.817904,0.162676,0.252729,-41.841694,5.750534,19.070311,0.207303,1.974899,0.048385,0.000000,0.000000,0.000000,0.000000,0.000000,0.000000
13393874.000000,-0.252906,0.686604,0.309175,-1.543941,-0.245971,2.194055,0.138667,0.075487,0.755837,-0.140505,-0.129541,-0.274469,0.819870,0.162580,0.276533,-41.694904,5.702927,19.117918,0.178007,1.955673,0.087753,0.000000,0.000000,0.000000,0.000000,0.000000,0.000000
13393875.000000,-0.252831,0.687366,0.309032,-1.544051,-0.246252,2.194864,0.138830,0.077066,0.761222,-0.145149,-0.120030,-0.278665,0.822487,0.160823,0.328107,-41.643330,5.726730,19.042540,0.243009,1.955673,0.061202,0.000000,0.000000,0.000000,0.000000,0.000000,0.000000
13393876.000000,-0.252747,0.688120,0.308890,-1.544160,-0.246540,2.195669,0.138984,0.080226,0.758209,-0.145833,-0.115902,-0.282410,0.811146,0.155967,0.304304,-41.401325,5.726730,18.947325,0.315336,2.033492,0.100570,0.000000,0.000000,0.000000,0.000000,0.000000,0.000000
13393877.000000,-0.252663,0.688864,0.308746,-1.544265,-0.246821,2.196489,0.139148,0.080135,0.770977,-0.144214,-0.113622,-0.278594,0.808860,0.161601,0.252729,-41.202961,5.750534,18.871946,0.339139,2.098495,0.048385,0.000000,0.000000,0.000000,0.000000,0.000000,0.000000
13393878.000000,-0.252583,0.689620,0.308612,-1.544373,-0.247103,2.197309,0.139303,0.079303,0.769333,-0.140219,-0.109739,-0.279667,0.817746,0.157683,0.228925,-41.032368,5.679123,18.848143,0.344633,2.001449,0.081344,0.000000,0.000000,0.000000,0.000000,0.000000,0.000000
13393879.000000,-0.252503,0.690363,0.308473,-1.544479,-0.247364,2.198136,0.139466,0.078491,0.758603,-0.138836,-0.111162,-0.272609,0.819114,0.161225,0.205121,-40.591999,5.651352,18.895750,0.261320,1.877853,0.061202,0.000000,0.000000,0.000000,0.000000,0.000000,0.000000
13393880.000000,-0.252417,0.691088,0.308339,-1.544579,-0.247638,2.198944,0.139625,0.081326,0.749559,-0.137434,-0.108431,-0.273381,0.819473,0.162022,0.153547,-40.052448,5.528366,18.895750,0.225614,1.930038,0.094161,0.000000,0.000000,0.000000,0.000000,0.000000,0.000000
13393881.000000,-0.252335,0.691839,0.308202,-1.544669,-0.247927,2.199751,0.139789,0.080116,0.747373,-0.136625,-0.103994,-0.277475,0.817253,0.161877,0.129743,-39.758869,5.504562,18.796568,0.261320,2.053634,0.028243,0.000000,0.000000,0.000000,0.000000,0.000000,0.000000
13393882.000000,-0.252254,0.692595,0.308063,-1.544753,-0.248207,2.200565,0.139944,0.081169,0.747749,-0.136147,-0.097275,-0.278110,0.808575,0.157026,0.153547,-39.612080,5.456955,18.673582,0.237516,2.112228,0.081344,0.000000,0.000000,0.000000,0.000000,0.000000,0.000000
13393883.000000,-0.252179,0.693352,0.307936,-1.544835,-0.248489,2.201383,0.140100,0.081008,0.749618,-0.132728,-0.092167,-0.274443,0.816024,0.154512,0.228925,-39.687458,5.310165,18.550596,0.225614,2.072860,0.107894,0.000000,0.000000,0.000000,0.000000,0.000000,0.000000
13393884.000000,-0.252100,0.694109,0.307799,-1.544924,-0.248764,2.202211,0.140265,0.082137,0.743144,-0.134161,-0.094674,-0.277490,0.816639,0.155654,0.252729,-39.635883,5.310165,18.574400,0.243009,1.949264,0.048385,0.000000,0.000000,0.000000,0.000000,0.000000,0.000000
13393885.000000,-0.252018,0.694871,0.307665,-1.545012,-0.249051,2.203032,0.140413,0.083688,0.747111,-0.135351,-0.091347,-0.278523,0.826166,0.155822,0.252729,-39.782673,5.234787,18.625975,0.249418,1.779891,0.114303,0.000000,0.000000,0.000000,0.000000,0.000000,0.000000
13393886.000000,-0.251939,0.695640,0.307529,-1.545081,-0.249335,2.203858,0.140580,0.080443,0.747386,-0.135642,-0.083271,-0.281230,0.825859,0.161716,0.304304,-39.858051,5.234787,18.451414,0.332731,1.779891,0.054794,0.000000,0.000000,0.000000,0.000000,0.000000,0.000000
13393887.000000,-0.251861,0.696415,0.307395,-1.545150,-0.249618,2.204675,0.140738,0.079926,0.751265,-0.135384,-0.080104,-0.282668,0.826101,0.157413,0.375715,-39.957233,5.187180,18.376036,0.362943,1.890670,0.094161,0.000000,0.000000,0.000000,0.000000,0.000000,0.000000
13393888.000000,-0.251782,0.697189,0.307267,-1.545211,-0.249897,2.205473,0.140899,0.081555,0.759803,-0.135041,-0.072772,-0.277766,0.818882,0.156658,0.403486,-40.175434,5.064194,18.229246,0.369352,1.995040,0.074935,0.000000,0.000000,0.000000,0.000000,0.000000,0.000000
13393889.000000,-0.251705,0.697959,0.307133,-1.545283,-0.250169,2.206305,0.141061,0.079060,0.767233,-0.134253,-0.071977,-0.275694,0.819911,0.154340,0.451093,-40.250813,5.012619,18.276854,0.279630,1.995040,0.074935,0.000000,0.000000,0.000000,0.000000,0.000000,0.000000
13393890.000000,-0.251620,0.698719,0.306999,-1.545343,-0.250443,2.207143,0.141217,0.079468,0.769239,-0.137034,-0.068737,-0.274507,0.825243,0.152243,0.403486,-40.223042,4.988815,18.229246,0.201810,1.930038,0.107894,0.000000,0.000000,0.000000,0.000000,0.000000,0.000000
13393891.000000,-0.251537,0.699491,0.306872,-1.545405,-0.250721,2.207961,0.141379,0.079146,0.773694,-0.135161,-0.066851,-0.270871,0.817930,0.154424,0.375715,-40.175434,4.917404,18.205442,0.159696,1.890670,0.041976,0.000000,0.000000,0.000000,0.000000,0.000000,0.000000
13393892.000000,-0.251462,0.700257,0.306737,-1.545456,-0.250994,2.208787,0.141530,0.075669,0.768847,-0.136808,-0.063626,-0.270632,0.817576,0.150934,0.474897,-39.957233,4.941208,18.106260,0.189908,1.930038,0.100570,0.000000,0.000000,0.000000,0.000000,0.000000,0.000000
13393893.000000,-0.251387,0.701034,0.306607,-1.545501,-0.251322,2.209851,0.141722,0.074035,0.775987,-0.138302,-0.056545,-0.291099,0.904306,0.164348,0.550275,-40.127827,4.917404,17.931700,0.667814,-0.320329,-0.261979,0.000000,0.000000,0.000000,0.000000,0.000000,0.000000
13393894.000000,-0.251308,0.701811,0.306461,-1.545544,-0.251854,2.210992,0.141944,0.074042,0.775076,-0.144747,-0.052781,-0.373252,0.984150,0.184392,0.574079,-40.127827,5.087997,17.808714,2.843107,-2.947892,-0.795731,0.000000,0.000000,0.000000,0.000000,0.000000,0.000000
13393895.000000,-0.251240,0.702598,0.306338,-1.545544,-0.252086,2.212176,0.141974,0.073044,0.793419,-0.134536,-0.033372,-0.324218,1.051536,0.132096,0.772443,-40.274616,4.865829,17.114439,2.077726,-5.268754,0.456710,0.000000,0.000000,0.000000,0.000000,0.000000,0.000000
13393896.000000,-0.251138,0.703429,0.306250,-1.545440,-0.252455,2.213202,0.142225,0.080470,0.809059,-0.116941,0.012440,-0.337395,1.050137,0.168950,0.502668,-41.107746,4.227097,15.039549,2.406400,-5.743913,-0.347123,0.000000,0.000000,0.000000,0.000000,0.000000,0.000000
13393897.000000,-0.250961,0.704242,0.305988,-1.545283,-0.252857,2.214175,0.142381,0.112683,0.811365,-0.162686,0.065356,-0.358243,1.018765,0.164654,-0.810504,-41.496540,6.044113,12.421141,2.897123,-5.138749,-0.261979,0.000000,0.000000,0.000000,0.000000,0.000000,0.000000
13393898.000000,-0.250932,0.704967,0.305886,-1.545128,-0.253167,2.215250,0.142529,0.086763,0.785269,-0.142992,0.103049,-0.334584,1.036519,0.156731,0.030561,-40.691181,5.504562,10.143919,2.370695,-5.282487,-0.149369,0.000000,0.000000,0.000000,0.000000,0.000000,0.000000
13393899.000000,-0.250922,0.705689,0.305881,-1.545000,-0.253431,2.216282,0.142651,0.061393,0.758549,-0.097630,0.114273,-0.308300,1.033377,0.140692,1.121564,-39.758869,3.540756,8.664122,1.516508,-4.800920,0.246139,0.000000,0.000000,0.000000,0.000000,0.000000,0.000000
13393900.000000,-0.250764,0.706377,0.305716,-1.544751,-0.253869,2.217364,0.142825,0.090614,0.729357,-0.120387,0.159420,-0.352683,1.035131,0.154828,0.105939,-38.338581,3.933517,5.771971,2.311185,-4.755143,0.094161,0.000000,0.000000,0.000000,0.000000,0.000000,0.000000
13393901.000000,-0.250706,0.706975,0.305644,-1.544523,-0.254287,2.218307,0.143009,0.077573,0.683804,-0.103085,0.183397,-0.368791,0.997249,0.167636,0.474897,-35.914570,3.100387,3.593931,2.860502,-3.740739,-0.142960,0.000000,0.000000,0.000000,0.000000,0.000000,0.000000
13393902.000000,-0.250752,0.707492,0.305716,-1.544315,-0.254557,2.219272,0.143161,0.036883,0.618021,-0.042932,0.196917,-0.334203,0.970407,0.159436,2.331586,-32.344013,0.327255,2.114134,2.179349,-2.992753,-0.056901,0.000000,0.000000,0.000000,0.000000,0.000000,0.000000
13393903.000000,-0.250617,0.707925,0.305625,-1.544096,-0.254808,2.220231,0.143330,0.066861,0.550419,-0.058923,0.203222,-0.302598,0.978798,0.163227,1.490522,-28.035542,0.128891,0.876341,1.414884,-2.694291,-0.116410,0.000000,0.000000,0.000000,0.000000,0.000000,0.000000
13393904.000000,-0.250452,0.708297,0.305515,-1.543866,-0.255190,2.221014,0.143503,0.099960,0.483853,-0.073518,0.210650,-0.329827,0.908988,0.165555,0.205121,-23.116108,0.374863,-0.163088,1.952299,-1.100358,-0.268388,0.000000,0.000000,0.000000,0.000000,0.000000,0.000000
13393905.000000,-0.250406,0.708608,0.305467,-1.543648,-0.255485,2.221693,0.143647,0.080254,0.418450,-0.063770,0.213013,-0.317236,0.822075,0.157992,0.697065,-17.780109,-0.188492,-0.730409,1.797575,0.876266,-0.083451,0.000000,0.000000,0.000000,0.000000,0.000000,0.000000
13393906.000000,-0.250359,0.708883,0.305389,-1.543389,-0.255721,2.222468,0.143818,0.067158,0.369867,-0.069604,0.223000,-0.287869,0.802012,0.160055,1.192975,-12.686115,-0.287674,-1.718263,1.229032,1.253463,-0.182328,0.000000,0.000000,0.000000,0.000000,0.000000,0.000000
13393907.000000,-0.250306,0.709152,0.305357,-1.543135,-0.256104,2.223214,0.143991,0.060689,0.330852,-0.059285,0.231652,-0.324013,0.783465,0.160977,1.589704,-7.865864,-0.997818,-2.460146,2.173856,1.370651,-0.281205,0.000000,0.000000,0.000000,0.000000,0.000000,0.000000
13393908.000000,-0.250257,0.709362,0.305318,-1.542931,-0.256398,2.223828,0.144116,0.055814,0.290200,-0.052352,0.219541,-0.321050,0.726024,0.150978,2.010236,-2.748066,-1.588944,-2.384767,2.287382,2.255050,0.028243,0.000000,0.000000,0.000000,0.000000,0.000000,0.000000
13393909.000000,-0.250223,0.709558,0.305292,-1.542670,-0.256607,2.224486,0.144309,0.049622,0.258310,-0.044093,0.227920,-0.282640,0.706357,0.162023,2.553754,2.072185,-2.299088,-2.979860,1.540311,2.267867,-0.254655,0.000000,0.000000,0.000000,0.000000,0.000000,0.000000
13393910.000000,-0.250208,0.709783,0.305294,-1.542415,-0.256856,2.225165,0.144477,0.036970,0.240340,-0.027973,0.234282,-0.271161,0.696863,0.163624,3.323408,6.087078,-3.330582,-3.570986,1.318754,1.793624,-0.268388,0.000000,0.000000,0.000000,0.000000,0.000000,0.000000
13393911.000000,-0.250178,0.709941,0.305268,-1.542154,-0.257076,2.225746,0.144627,0.034237,0.216771,-0.024651,0.238539,-0.250175,0.669030,0.159236,3.843122,10.494732,-3.870133,-4.118471,0.894864,2.092086,-0.116410,0.000000,0.000000,0.000000,0.000000,0.000000,0.000000
13393912.000000,-0.250104,0.710043,0.305189,-1.541910,-0.257214,2.226258,0.144816,0.048396,0.179225,-0.042791,0.239448,-0.210756,0.621570,0.174146,3.668561,15.291180,-3.524979,-4.312868,-0.072848,2.976485,-0.314164,0.000000,0.000000,0.000000,0.000000,0.000000,0.000000
13393913.000000,-0.250045,0.710130,0.305134,-1.541676,-0.257401,2.226800,0.144986,0.053650,0.156246,-0.046581,0.234058,-0.199736,0.601665,0.169751,3.668561,19.964642,-3.524979,-4.463624,-0.473849,3.496505,-0.360856,0.000000,0.000000,0.000000,0.000000,0.000000,0.000000
13393914.000000,-0.250023,0.710192,0.305093,-1.541448,-0.257614,2.227338,0.145138,0.044865,0.127744,-0.046304,0.228665,-0.203213,0.583566,0.164464,4.188276,24.419903,-3.747147,-4.562807,-0.551669,3.854476,-0.229020,0.000000,0.000000,0.000000,0.000000,0.000000,0.000000
13393915.000000,-0.250005,0.710196,0.305046,-1.541261,-0.257780,2.227944,0.145302,0.034477,0.087541,-0.046902,0.216097,-0.191068,0.592049,0.165557,4.759565,29.390911,-3.945511,-4.166078,-0.868441,3.581649,-0.229020,0.000000,0.000000,0.000000,0.000000,0.000000,0.000000
13393916.000000,-0.249966,0.710189,0.304998,-1.541071,-0.257983,2.228619,0.145467,0.038896,0.058759,-0.046943,0.206688,-0.192187,0.626319,0.166229,4.957929,34.088177,-4.139908,-3.797121,-0.766818,2.651473,-0.241837,0.000000,0.000000,0.000000,0.000000,0.000000,0.000000
13393917.000000,-0.249921,0.710196,0.304950,-1.540877,-0.258186,2.229331,0.145638,0.043879,0.042170,-0.047730,0.199023,-0.199963,0.660444,0.167550,5.080915,38.154644,-4.310501,-3.646364,-0.580966,1.649886,-0.254655,0.000000,0.000000,0.000000,0.000000,0.000000,0.000000
13393918.000000,-0.249875,0.710228,0.304904,-1.540671,-0.258338,2.230046,0.145777,0.047147,0.040073,-0.047434,0.201595,-0.182985,0.682081,0.158068,5.203901,41.606182,-4.532669,-3.844728,-0.850131,0.947677,0.015426,0.000000,0.000000,0.000000,0.000000,0.000000,0.000000
13393919.000000,-0.249818,0.710314,0.304845,-1.540427,-0.258547,2.230751,0.145954,0.050914,0.057450,-0.050618,0.217067,-0.192349,0.697604,0.162462,5.128522,44.026226,-4.580276,-4.661989,-0.670687,0.629073,-0.130143,0.000000,0.000000,0.000000,0.000000,0.000000,0.000000
13393920.000000,-0.249730,0.710429,0.304750,-1.540142,-0.258757,2.231479,0.146105,0.065934,0.078674,-0.067115,0.246573,-0.200773,0.702878,0.155462,4.636579,45.791668,-4.163712,-6.070375,-0.551669,0.459701,-0.023942,0.000000,0.000000,0.000000,0.000000,0.000000,0.000000
13393921.000000,-0.249639,0.710576,0.304662,-1.539837,-0.258972,2.232237,0.146239,0.076270,0.106823,-0.076423,0.268334,-0.203784,0.732836,0.148411,4.140668,47.037395,-3.945511,-7.649354,-0.503146,0.421249,0.147262,0.000000,0.000000,0.000000,0.000000,0.000000,0.000000
13393922.000000,-0.249562,0.710749,0.304594,-1.539521,-0.259202,2.233036,0.146403,0.077451,0.132063,-0.074726,0.283921,-0.212436,0.760214,0.153302,3.890729,47.969707,-4.092300,-9.283876,-0.414340,0.128280,0.054794,0.000000,0.000000,0.000000,0.000000,0.000000,0.000000
13393923.000000,-0.249496,0.710943,0.304522,-1.539188,-0.259429,2.233918,0.146552,0.073753,0.152598,-0.075153,0.303293,-0.221532,0.790799,0.153463,3.843122,48.580669,-4.215286,-11.013613,-0.377719,-0.567521,0.034652,0.000000,0.000000,0.000000,0.000000,0.000000,0.000000
13393924.000000,-0.249444,0.711153,0.304477,-1.538844,-0.259658,2.234806,0.146695,0.068480,0.178705,-0.064948,0.319222,-0.223893,0.825208,0.151935,4.041486,49.021038,-4.754837,-12.596560,-0.455538,-1.191911,0.054794,0.000000,0.000000,0.000000,0.000000,0.000000,0.000000
13393926.000000,-0.249297,0.711645,0.304344,-1.538098,-0.260132,2.236619,0.146994,0.073975,0.224106,-0.072274,0.346127,-0.230264,0.858841,0.152191,3.918500,49.512981,-5.147598,-15.905275,-0.826327,-1.841935,0.028243,0.000000,0.000000,0.000000,0.000000,0.000000,0.000000
13393927.000000,-0.249229,0.711919,0.304271,-1.537706,-0.260382,2.237509,0.147131,0.070259,0.242871,-0.074314,0.358844,-0.239003,0.868865,0.145535,3.942304,49.560589,-5.246780,-17.341433,-0.970065,-1.770524,0.067611,0.000000,0.000000,0.000000,0.000000,0.000000,0.000000
13393928.000000,-0.249160,0.712225,0.304192,-1.537310,-0.260623,2.238392,0.147267,0.070612,0.263911,-0.074172,0.371141,-0.234678,0.868054,0.144100,3.966108,49.389996,-5.294388,-18.726015,-1.160494,-1.497697,0.133529,0.000000,0.000000,0.000000,0.000000,0.000000,0.000000
13393929.000000,-0.249069,0.712561,0.304088,-1.536886,-0.260893,2.239293,0.147406,0.080782,0.285802,-0.083089,0.386165,-0.245167,0.875397,0.140829,3.692365,48.921856,-5.048416,-20.209780,-1.095492,-1.458329,0.147262,0.000000,0.000000,0.000000,0.000000,0.000000,0.000000
13393930.000000,-0.248984,0.712942,0.304005,-1.536462,-0.261177,2.240225,0.147559,0.082834,0.319949,-0.083277,0.395837,-0.261285,0.880772,0.143581,3.521772,48.140301,-5.072220,-21.495180,-0.933444,-1.666154,0.021835,0.000000,0.000000,0.000000,0.000000,0.000000,0.000000
13393931.000000,-0.248912,0.713367,0.303935,-1.536044,-0.261444,2.241181,0.147693,0.077303,0.352934,-0.076898,0.402750,-0.260425,0.895628,0.137647,3.644758,47.136578,-5.393570,-22.606020,-0.975558,-2.049760,0.094161,0.000000,0.000000,0.000000,0.000000,0.000000,0.000000
13393932.000000,-0.248828,0.713827,0.303860,-1.535614,-0.261711,2.242126,0.147830,0.082007,0.390015,-0.077250,0.409956,-0.259624,0.912781,0.135099,3.545576,45.815472,-5.635574,-23.570070,-1.023165,-2.491959,0.127120,0.000000,0.000000,0.000000,0.000000,0.000000,0.000000
13393933.000000,-0.248722,0.714340,0.303775,-1.535178,-0.261975,2.243051,0.147986,0.087842,0.429113,-0.081876,0.423841,-0.260152,0.913683,0.143530,3.200422,44.200787,-5.710953,-24.633303,-1.046969,-2.694291,0.001693,0.000000,0.000000,0.000000,0.000000,0.000000,0.000000
13393934.000000,-0.248633,0.714864,0.303681,-1.534752,-0.262233,2.243909,0.148128,0.089955,0.465588,-0.086864,0.422914,-0.259110,0.893214,0.142623,3.073469,42.633709,-5.687149,-25.375185,-1.220919,-2.388505,0.048385,0.000000,0.000000,0.000000,0.000000,0.000000,0.000000
13393935.000000,-0.248546,0.715436,0.303594,-1.534333,-0.262488,2.244749,0.148283,0.087099,0.497664,-0.085333,0.416967,-0.261067,0.872305,0.146203,3.002058,40.943645,-5.758560,-25.894899,-1.429659,-1.900529,0.009017,0.000000,0.000000,0.000000,0.000000,0.000000,0.000000
13393936.000000,-0.248452,0.716026,0.303483,-1.533952,-0.262748,2.245597,0.148448,0.089307,0.528430,-0.090837,0.408308,-0.258335,0.865122,0.152330,2.879072,39.328960,-5.564163,-25.894899,-1.555087,-1.581925,-0.130143,0.000000,0.000000,0.000000,0.000000,0.000000,0.000000
13393937.000000,-0.248361,0.716612,0.303382,-1.533595,-0.263012,2.246426,0.148606,0.090020,0.542461,-0.096085,0.386751,-0.259652,0.847439,0.158108,2.803693,37.956280,-5.516556,-25.474367,-1.585299,-1.418961,-0.182328,0.000000,0.000000,0.000000,0.000000,0.000000,0.000000
