chaoyuefei/paper-gmrm-data/robot_logs/s2_dq_mrm_max_0.50_log_20260314_174805.csv
# time_ms,q_0,q_1,q_2,q_3,q_4,q_5,q_6,dq_0,dq_1,dq_2,dq_3,dq_4,dq_5,dq_6,tau_J_0,tau_J_1,tau_J_2,tau_J_3,tau_J_4,tau_J_5,tau_J_6,O_dP_EE_c_0,O_dP_EE_c_1,O_dP_EE_c_2,O_dP_EE_c_3,O_dP_EE_c_4,O_dP_EE_c_5
13152578.000000,2.312505,-0.964819,-1.819369,-1.386172,-0.926913,1.664894,0.447235,-0.000044,-0.001764,-0.000408,0.000243,-0.000037,-0.000160,-0.000048,0.451093,35.607647,19.346420,12.298155,0.261320,2.177230,0.100570,0.000000,0.000000,0.000000,0.000000,0.000000,0.000000
13152579.000000,2.312505,-0.964814,-1.819369,-1.386172,-0.926912,1.664891,0.447235,-0.000029,0.000478,0.000285,0.000162,0.000416,-0.000107,-0.000032,0.451093,35.536236,19.322617,12.298155,0.249418,2.177230,0.100570,0.000000,0.000000,0.000000,0.000000,0.000000,0.000000
13152580.000000,2.312504,-0.964818,-1.819369,-1.386174,-0.926913,1.664894,0.447233,-0.000576,-0.000807,0.000190,-0.001005,-0.000164,0.000200,-0.000767,0.474897,35.583843,19.322617,12.345762,0.261320,2.169906,0.120712,0.000000,0.000000,0.000000,0.000000,0.000000,0.000000
13152581.000000,2.312503,-0.964816,-1.819371,-1.386172,-0.926913,1.664892,0.447240,0.000173,0.000009,-0.000430,0.000443,-0.000109,0.000133,0.001693,0.451093,35.560040,19.346420,12.298155,0.261320,2.169906,0.061202,0.000000,0.000000,0.000000,0.000000,0.000000,0.000000
13152582.000000,2.312488,-0.964822,-1.819374,-1.386170,-0.926910,1.664890,0.447237,-0.012620,-0.007882,-0.012898,0.000296,-0.000606,0.001038,0.002956,0.054365,35.091900,18.783066,12.298155,0.147794,2.144271,0.140853,0.000000,0.000000,0.000000,0.000000,0.000000,0.000000
13152583.000000,2.312473,-0.964794,-1.819392,-1.386172,-0.926901,1.664890,0.447258,-0.029260,-0.009179,-0.030021,-0.002030,-0.001280,0.003100,0.012442,-1.826129,32.913860,16.918442,12.393370,-0.222994,2.079269,0.120712,0.000000,0.000000,0.000000,0.000000,0.000000,0.000000
13152584.000000,2.312461,-0.964734,-1.819469,-1.386169,-0.926894,1.664891,0.447300,-0.027675,0.011726,-0.049272,-0.000095,0.003147,0.003253,0.020267,-5.317339,28.974346,14.192917,12.468748,-0.754916,2.047225,0.081344,0.000000,0.000000,0.000000,0.000000,0.000000,0.000000
13152585.000000,2.312429,-0.964715,-1.819586,-1.386153,-0.926931,1.664884,0.447346,-0.025744,0.017201,-0.068706,0.004829,-0.008465,-0.000951,0.031250,-9.276690,24.788860,10.880234,12.270384,-1.041476,2.131454,0.153671,0.000000,0.000000,0.000000,0.000000,0.000000,0.000000
13152586.000000,2.312351,-0.964761,-1.819731,-1.386147,-0.927017,1.664889,0.447425,-0.033487,0.009610,-0.079180,0.003134,-0.035890,0.006035,0.053158,-13.013873,21.190533,7.396957,12.147398,-0.958163,2.202865,0.120712,0.000000,0.000000,0.000000,0.000000,0.000000,0.000000
13152587.000000,2.312255,-0.964852,-1.819898,-1.386152,-0.927144,1.664930,0.447517,-0.039186,-0.013944,-0.095887,0.000570,-0.066999,0.019748,0.065986,-16.358294,18.401531,4.254868,12.072020,-0.682589,2.047225,0.180221,0.000000,0.000000,0.000000,0.000000,0.000000,0.000000
13152588.000000,2.312141,-0.964979,-1.820068,-1.386158,-0.927287,1.665030,0.447633,-0.054239,-0.040871,-0.106354,-0.002197,-0.095006,0.044854,0.086045,-19.278215,16.294903,1.406357,11.901426,-0.372225,1.481429,0.213180,0.000000,0.000000,0.000000,0.000000,0.000000,0.000000
13152589.000000,2.312026,-0.965127,-1.820225,-1.386179,-0.927447,1.665186,0.447782,-0.069541,-0.068513,-0.111964,-0.007205,-0.115207,0.080254,0.108488,-22.027544,14.727825,-1.219986,11.849852,-0.180880,0.674850,0.180221,0.000000,0.000000,0.000000,0.000000,0.000000,0.000000
13152590.000000,2.311896,-0.965289,-1.820373,-1.386200,-0.927602,1.665361,0.447942,-0.086776,-0.094640,-0.117439,-0.010721,-0.129411,0.113445,0.123314,-24.229387,13.724102,-3.429764,11.655455,-0.264193,0.023910,0.213180,0.000000,0.000000,0.000000,0.000000,0.000000,0.000000
13152591.000000,2.311772,-0.965463,-1.820503,-1.386216,-0.927766,1.665529,0.448139,-0.097095,-0.120234,-0.112610,-0.013127,-0.142412,0.134993,0.145931,-26.383623,12.942547,-5.441177,11.306334,-0.431735,-0.177506,0.160079,0.000000,0.000000,0.000000,0.000000,0.000000,0.000000
13152592.000000,2.311646,-0.965624,-1.820632,-1.386251,-0.927930,1.665698,0.448342,-0.097434,-0.132078,-0.111046,-0.021905,-0.148847,0.146240,0.158533,-27.966570,12.208599,-6.865433,10.838194,-0.706393,0.031234,0.232406,0.000000,0.000000,0.000000,0.000000,0.000000,0.000000
13152593.000000,2.311506,-0.965764,-1.820762,-1.386307,-0.928101,1.665896,0.448588,-0.099058,-0.134194,-0.108696,-0.036616,-0.150287,0.164151,0.183349,-28.216509,11.522259,-7.504166,10.143919,-0.963656,0.297652,0.153671,0.000000,0.000000,0.000000,0.000000,0.000000,0.000000
13152594.000000,2.311353,-0.965884,-1.820872,-1.386434,-0.928280,1.666150,0.448852,-0.111731,-0.126030,-0.106778,-0.068333,-0.160466,0.194277,0.205052,-27.002520,10.883526,-7.551773,9.651976,-1.131197,0.381881,0.120712,0.000000,0.000000,0.000000,0.000000,0.000000,0.000000
13152595.000000,2.311198,-0.965979,-1.820988,-1.386623,-0.928482,1.666466,0.449120,-0.127718,-0.117139,-0.111934,-0.115798,-0.178671,0.231622,0.223740,-24.749102,10.173382,-6.865433,9.279051,-1.112887,0.232650,0.133529,0.000000,0.000000,0.000000,0.000000,0.000000,0.000000
13152596.000000,2.311028,-0.966057,-1.821096,-1.386851,-0.928703,1.666816,0.449402,-0.150047,-0.101063,-0.116013,-0.154992,-0.197323,0.269644,0.242725,-21.678423,9.320415,-5.881546,8.735533,-0.987460,0.050460,0.127120,0.000000,0.000000,0.000000,0.000000,0.000000,0.000000
13152598.000000,2.310689,-0.966191,-1.821337,-1.387391,-0.929203,1.667522,0.449976,-0.174462,-0.085403,-0.128428,-0.217668,-0.227341,0.310728,0.269790,-15.120502,7.872356,-3.330582,7.180357,-0.599276,0.453292,0.094161,0.000000,0.000000,0.000000,0.000000,0.000000,0.000000
13152599.000000,2.310525,-0.966258,-1.821455,-1.387692,-0.929461,1.667900,0.450268,-0.175818,-0.079864,-0.130062,-0.238284,-0.234573,0.330466,0.276360,-12.196612,7.285198,-2.374466,6.363097,-0.503146,0.759078,0.120712,0.000000,0.000000,0.000000,0.000000,0.000000,0.000000
13152600.000000,2.310361,-0.966330,-1.821580,-1.388015,-0.929715,1.668311,0.450562,-0.178839,-0.081646,-0.137172,-0.263780,-0.243161,0.350667,0.282679,-9.550433,6.821026,-1.565140,5.621214,-0.592867,0.824081,0.120712,0.000000,0.000000,0.000000,0.000000,0.000000,0.000000
13152601.000000,2.310184,-0.966414,-1.821726,-1.388331,-0.929984,1.668758,0.450864,-0.183039,-0.080034,-0.144292,-0.276827,-0.255270,0.387996,0.284444,-7.074847,6.527447,-0.803421,4.807921,-0.778719,0.785628,0.061202,0.000000,0.000000,0.000000,0.000000,0.000000,0.000000
13152602.000000,2.310012,-0.966522,-1.821887,-1.388659,-0.930284,1.669226,0.451155,-0.180419,-0.093565,-0.154138,-0.284888,-0.269690,0.411895,0.287543,-4.995989,6.503643,-0.236099,4.042235,-0.880343,0.727035,0.114303,0.000000,0.000000,0.000000,0.000000,0.000000,0.000000
13152603.000000,2.309846,-0.966656,-1.822060,-1.388968,-0.930604,1.669684,0.451456,-0.176364,-0.110069,-0.165285,-0.286231,-0.283368,0.429844,0.288478,-3.309893,6.773418,0.180466,3.201170,-0.856539,0.778304,0.054794,0.000000,0.000000,0.000000,0.000000,0.000000,0.000000
13152604.000000,2.309684,-0.966816,-1.822244,-1.389285,-0.930933,1.670172,0.451747,-0.170051,-0.126054,-0.171254,-0.293580,-0.300445,0.442839,0.287233,-1.826129,7.261395,0.474045,2.360106,-0.808016,0.817672,0.067611,0.000000,0.000000,0.000000,0.000000,0.000000,0.000000
13152605.000000,2.309530,-0.966985,-1.822443,-1.389599,-0.931292,1.670683,0.452023,-0.163455,-0.139070,-0.180705,-0.295604,-0.322881,0.459974,0.283975,-0.612139,7.701763,0.743820,1.495238,-0.724703,0.694076,0.133529,0.000000,0.000000,0.000000,0.000000,0.000000,0.000000
13152606.000000,2.309395,-0.967154,-1.822656,-1.389922,-0.931672,1.671236,0.452319,-0.154320,-0.147793,-0.189909,-0.305036,-0.340020,0.492445,0.288184,0.205121,7.995342,0.890610,0.828734,-0.629489,0.401107,0.041976,0.000000,0.000000,0.000000,0.000000,0.000000,0.000000
13152607.000000,2.309267,-0.967324,-1.822883,-1.390254,-0.932047,1.671811,0.452603,-0.142574,-0.151025,-0.199024,-0.310848,-0.348650,0.514782,0.285653,0.772443,8.169903,0.942184,0.285216,-0.641390,0.121871,0.067611,0.000000,0.000000,0.000000,0.000000,0.000000,0.000000
13152608.000000,2.309144,-0.967483,-1.823108,-1.390576,-0.932452,1.672386,0.452892,-0.135359,-0.156250,-0.206059,-0.316278,-0.364224,0.535156,0.289882,1.169172,8.046917,0.866806,-0.357485,-0.653292,-0.001725,0.061202,0.000000,0.000000,0.000000,0.000000,0.000000,0.000000
13152609.000000,2.309039,-0.967660,-1.823344,-1.390907,-0.932866,1.672965,0.453175,-0.123407,-0.160832,-0.214400,-0.318867,-0.382133,0.546632,0.285860,1.268354,7.923931,0.767624,-0.928774,-0.641390,0.096236,0.100570,0.000000,0.000000,0.000000,0.000000,0.000000,0.000000
13152610.000000,2.308947,-0.967826,-1.823591,-1.391254,-0.933296,1.673559,0.453460,-0.114887,-0.162030,-0.223627,-0.327763,-0.398074,0.558924,0.279425,1.145368,7.554974,0.644638,-1.321535,-0.575472,0.264693,0.067611,0.000000,0.000000,0.000000,0.000000,0.000000,0.000000
13152611.000000,2.308854,-0.967975,-1.823846,-1.391611,-0.933743,1.674170,0.453743,-0.103499,-0.158152,-0.231556,-0.337988,-0.412701,0.576444,0.279534,1.046186,6.944012,0.549423,-1.547670,-0.551669,0.343429,0.087753,0.000000,0.000000,0.000000,0.000000,0.000000,0.000000
13152612.000000,2.308762,-0.968130,-1.824109,-1.391980,-0.934188,1.674832,0.454025,-0.099359,-0.156448,-0.238252,-0.346504,-0.419912,0.601467,0.279963,0.947004,6.356853,0.374863,-1.670656,-0.527865,0.212508,0.100570,0.000000,0.000000,0.000000,0.000000,0.000000,0.000000
13152613.000000,2.308683,-0.968285,-1.824391,-1.392367,-0.934636,1.675512,0.454305,-0.093560,-0.159431,-0.253462,-0.367528,-0.433462,0.627344,0.281765,0.724836,5.694317,0.327255,-1.619081,-0.491244,0.031234,0.074935,0.000000,0.000000,0.000000,0.000000,0.000000,0.000000
13152614.000000,2.308608,-0.968464,-1.824679,-1.392763,-0.935095,1.676208,0.454575,-0.086416,-0.163544,-0.263776,-0.374219,-0.450803,0.650847,0.280873,0.451093,5.305523,0.228073,-1.619081,-0.455538,-0.027360,0.107894,0.000000,0.000000,0.000000,0.000000,0.000000,0.000000
13152615.000000,2.308538,-0.968647,-1.824964,-1.393174,-0.935570,1.676917,0.454861,-0.083791,-0.167267,-0.270882,-0.383027,-0.451865,0.663834,0.285153,0.153547,4.960369,0.005905,-1.694460,-0.306307,0.031234,0.087753,0.000000,0.000000,0.000000,0.000000,0.000000,0.000000
13152616.000000,2.308475,-0.968848,-1.825275,-1.393587,-0.936038,1.677634,0.455142,-0.075051,-0.178097,-0.280240,-0.394075,-0.460546,0.681572,0.286037,-0.167803,4.960369,0.180466,-1.718263,-0.234896,0.154830,0.048385,0.000000,0.000000,0.000000,0.000000,0.000000,0.000000
13152617.000000,2.308404,-0.969062,-1.825576,-1.394014,-0.936495,1.678392,0.455415,-0.070117,-0.188346,-0.279864,-0.404012,-0.459497,0.703439,0.282488,-0.167803,5.230145,0.474045,-1.916628,-0.204684,0.154830,0.114303,0.000000,0.000000,0.000000,0.000000,0.000000,0.000000
13152618.000000,2.308337,-0.969303,-1.825865,-1.394462,-0.936962,1.679170,0.455692,-0.067883,-0.203238,-0.276627,-0.417296,-0.458094,0.742759,0.280027,0.054365,6.110882,0.942184,-2.039613,-0.067355,0.089828,0.074935,0.000000,0.000000,0.000000,0.000000,0.000000,0.000000
13152619.000000,2.308259,-0.969544,-1.826167,-1.394936,-0.937411,1.679983,0.455966,-0.071279,-0.214038,-0.283964,-0.435734,-0.457853,0.766486,0.279393,0.649457,7.189983,1.846725,-1.916628,-0.145175,0.031234,0.100570,0.000000,0.000000,0.000000,0.000000,0.000000,0.000000
13152620.000000,2.308169,-0.969794,-1.826451,-1.395423,-0.937849,1.680821,0.456248,-0.075665,-0.224667,-0.283238,-0.451169,-0.452084,0.790138,0.276570,1.514325,8.463482,2.755234,-1.793642,-0.187289,-0.053910,0.081344,0.000000,0.000000,0.000000,0.000000,0.000000,0.000000
13152621.000000,2.308080,-0.970040,-1.826722,-1.395921,-0.938292,1.681650,0.456521,-0.085422,-0.236962,-0.283039,-0.464292,-0.448700,0.802112,0.274499,2.430768,9.562420,3.639938,-1.642885,-0.145175,-0.001725,0.054794,0.000000,0.000000,0.000000,0.000000,0.000000,0.000000
13152622.000000,2.307994,-0.970293,-1.827012,-1.396451,-0.938721,1.682503,0.456783,-0.089664,-0.243505,-0.285679,-0.485600,-0.443106,0.808252,0.269921,3.271833,10.443157,4.671432,-1.396913,-0.216586,0.089828,0.107894,0.000000,0.000000,0.000000,0.000000,0.000000,0.000000
13152623.000000,2.307893,-0.970542,-1.827289,-1.396996,-0.939156,1.683340,0.457046,-0.095154,-0.245197,-0.287882,-0.507872,-0.440362,0.842635,0.268894,4.216047,11.058086,5.310165,-1.127138,-0.234896,0.206100,0.100570,0.000000,0.000000,0.000000,0.000000,0.000000,0.000000
13152624.000000,2.307790,-0.970787,-1.827585,-1.397540,-0.939590,1.684174,0.457315,-0.099061,-0.247996,-0.293133,-0.521100,-0.439213,0.831349,0.267604,5.057111,11.446880,5.972702,-1.000185,-0.228488,0.316879,0.107894,0.000000,0.000000,0.000000,0.000000,0.000000,0.000000
13152625.000000,2.307684,-0.971051,-1.827892,-1.398118,-0.940025,1.685026,0.457588,-0.103992,-0.254686,-0.295922,-0.534582,-0.437922,0.830761,0.267903,5.846601,11.740459,6.460678,-0.805788,-0.228488,0.310470,0.074935,0.000000,0.000000,0.000000,0.000000,0.000000,0.000000
13152626.000000,2.307574,-0.971324,-1.828214,-1.398685,-0.940474,1.685845,0.457852,-0.105933,-0.259590,-0.305338,-0.548752,-0.439958,0.831407,0.266142,6.564680,11.986431,6.952621,-0.877199,-0.138766,0.291244,0.114303,0.000000,0.000000,0.000000,0.000000,0.000000,0.000000
13152627.000000,2.307456,-0.971618,-1.828534,-1.399272,-0.940919,1.686649,0.458130,-0.108204,-0.269191,-0.309144,-0.555540,-0.446008,0.817500,0.267305,7.306562,12.327618,7.297775,-1.000185,-0.067355,0.394698,0.054794,0.000000,0.000000,0.000000,0.000000,0.000000,0.000000
13152628.000000,2.307341,-0.971937,-1.828859,-1.399866,-0.941375,1.687464,0.458394,-0.113428,-0.282405,-0.315030,-0.563779,-0.449214,0.810470,0.270241,7.953229,12.795757,7.543747,-1.273927,-0.037142,0.427657,0.074935,0.000000,0.000000,0.000000,0.000000,0.000000,0.000000
13152629.000000,2.307216,-0.972273,-1.829182,-1.400458,-0.941832,1.688263,0.458661,-0.116459,-0.300661,-0.312801,-0.574576,-0.447171,0.807863,0.267469,8.643537,13.331341,7.690536,-1.519899,0.015958,0.381881,0.107894,0.000000,0.000000,0.000000,0.000000,0.000000,0.000000
13152630.000000,2.307084,-0.972635,-1.829518,-1.401068,-0.942286,1.689065,0.458940,-0.120881,-0.316506,-0.317991,-0.585005,-0.452574,0.795929,0.268610,9.314008,14.017681,7.861130,-1.769838,-0.013339,0.291244,0.054794,0.000000,0.000000,0.000000,0.000000,0.000000,0.000000
13152631.000000,2.306950,-0.973015,-1.829853,-1.401666,-0.942752,1.689855,0.459200,-0.124278,-0.345354,-0.323651,-0.597682,-0.450859,0.790984,0.265174,9.980512,14.680218,7.936508,-2.114992,-0.043551,0.271102,0.114303,0.000000,0.000000,0.000000,0.000000,0.000000,0.000000
13152632.000000,2.306811,-0.973413,-1.830195,-1.402289,-0.943204,1.690651,0.459468,-0.129442,-0.361795,-0.326887,-0.599869,-0.456570,0.793122,0.269001,10.500226,15.461773,8.083298,-2.261781,-0.085665,0.219833,0.114303,0.000000,0.000000,0.000000,0.000000,0.000000,0.000000
13152633.000000,2.306669,-0.973825,-1.830539,-1.402928,-0.943664,1.691450,0.459751,-0.134303,-0.374047,-0.330731,-0.604732,-0.457322,0.788590,0.278479,10.773969,16.271099,8.230087,-1.964235,-0.162570,0.199691,0.034652,0.000000,0.000000,0.000000,0.000000,0.000000,0.000000
13152634.000000,2.306504,-0.974234,-1.830874,-1.403546,-0.944132,1.692236,0.460019,-0.144762,-0.382765,-0.329731,-0.603640,-0.461173,0.787156,0.274355,10.896955,17.052654,8.253891,-1.321535,-0.168978,0.258285,0.087753,0.000000,0.000000,0.000000,0.000000,0.000000,0.000000
13152635.000000,2.306325,-0.974645,-1.831223,-1.404160,-0.944585,1.693030,0.460300,-0.150980,-0.393086,-0.333732,-0.602225,-0.461830,0.788823,0.276695,10.797772,17.762798,8.376877,-0.357485,-0.234896,0.329696,0.074935,0.000000,0.000000,0.000000,0.000000,0.000000,0.000000
13152636.000000,2.306155,-0.975066,-1.831576,-1.404781,-0.945056,1.693813,0.460571,-0.157720,-0.399668,-0.339015,-0.603640,-0.460345,0.785478,0.273005,10.329633,18.401531,8.499863,0.999327,-0.252291,0.459701,0.087753,0.000000,0.000000,0.000000,0.000000,0.000000,0.000000
13152637.000000,2.305967,-0.975473,-1.831928,-1.405387,-0.945537,1.694612,0.460854,-0.160710,-0.401351,-0.340132,-0.606626,-0.458404,0.786765,0.276368,9.857526,18.889507,8.575241,2.530699,-0.133273,0.603439,0.054794,0.000000,0.000000,0.000000,0.000000,0.000000,0.000000
13152638.000000,2.305782,-0.975889,-1.832285,-1.405994,-0.946004,1.695401,0.461131,-0.164275,-0.401831,-0.336746,-0.608124,-0.462088,0.785458,0.273191,9.262433,19.230694,8.670456,4.014464,-0.150668,0.811263,0.067611,0.000000,0.000000,0.000000,0.000000,0.000000,0.000000
13152639.000000,2.305601,-0.976293,-1.832647,-1.406591,-0.946465,1.696184,0.461403,-0.167016,-0.403043,-0.345337,-0.611781,-0.456007,0.782142,0.270906,8.718915,19.405254,8.892624,5.327635,-0.228488,0.974227,0.067611,0.000000,0.000000,0.000000,0.000000,0.000000,0.000000
13152640.000000,2.305432,-0.976711,-1.833016,-1.407189,-0.946929,1.696980,0.461675,-0.164638,-0.405341,-0.352588,-0.607344,-0.461688,0.779516,0.268666,8.024640,19.476665,9.039413,6.486083,-0.216586,1.104232,0.100570,0.000000,0.000000,0.000000,0.000000,0.000000,0.000000
13152641.000000,2.305272,-0.977141,-1.833393,-1.407798,-0.947405,1.697775,0.461940,-0.161022,-0.409352,-0.358061,-0.609400,-0.459178,0.782604,0.267626,7.358137,19.623455,9.285385,7.450133,-0.234896,1.155502,0.100570,0.000000,0.000000,0.000000,0.000000,0.000000,0.000000
13152642.000000,2.305109,-0.977571,-1.833777,-1.408392,-0.947877,1.698548,0.462217,-0.161731,-0.416692,-0.365053,-0.606705,-0.461489,0.776389,0.274210,6.786848,19.671062,9.555161,8.069029,-0.264193,1.292831,0.061202,0.000000,0.000000,0.000000,0.000000,0.000000,0.000000
13152643.000000,2.304954,-0.978021,-1.834162,-1.408977,-0.948358,1.699320,0.462483,-0.153255,-0.425800,-0.367677,-0.592910,-0.472431,0.769553,0.268935,6.267133,19.770245,9.749557,8.342772,-0.180880,1.448470,0.133529,0.000000,0.000000,0.000000,0.000000,0.000000,0.000000
13152644.000000,2.304813,-0.978480,-1.834550,-1.409561,-0.948843,1.700080,0.462759,-0.148760,-0.437210,-0.374771,-0.586259,-0.478421,0.765612,0.274444,5.676008,19.869427,9.995529,8.513365,-0.133273,1.494247,0.081344,0.000000,0.000000,0.000000,0.000000,0.000000,0.000000
13152645.000000,2.304678,-0.978942,-1.834954,-1.410143,-0.949324,1.700865,0.463034,-0.140799,-0.443188,-0.384500,-0.578962,-0.484213,0.770869,0.271239,5.057111,19.869427,10.293076,8.441954,-0.060946,1.416427,0.048385,0.000000,0.000000,0.000000,0.000000,0.000000,0.000000
13152646.000000,2.304543,-0.979415,-1.835351,-1.410722,-0.949822,1.701649,0.463297,-0.138108,-0.448206,-0.386372,-0.579080,-0.487301,0.779473,0.273923,4.585004,19.893230,10.487473,8.291197,-0.025240,1.344100,0.087753,0.000000,0.000000,0.000000,0.000000,0.000000,0.000000
13152647.000000,2.304419,-0.979895,-1.835750,-1.411285,-0.950314,1.702421,0.463571,-0.131726,-0.462959,-0.389241,-0.571309,-0.482744,0.773796,0.272435,4.041486,19.964642,10.757248,8.021421,-0.031649,1.214095,0.061202,0.000000,0.000000,0.000000,0.000000,0.000000,0.000000
13152648.000000,2.304307,-0.980385,-1.836154,-1.411861,-0.950804,1.703191,0.463835,-0.123714,-0.463034,-0.392335,-0.564422,-0.489875,0.765727,0.268658,3.497968,20.139202,11.102402,7.846861,-0.013339,1.247054,0.100570,0.000000,0.000000,0.000000,0.000000,0.000000,0.000000
13152649.000000,2.304197,-0.980877,-1.836552,-1.412416,-0.951311,1.703945,0.464106,-0.114877,-0.476955,-0.394185,-0.572511,-0.492975,0.765093,0.269358,3.101240,20.579571,11.542770,7.648497,0.093778,1.318465,0.054794,0.000000,0.000000,0.000000,0.000000,0.000000,0.000000
13152650.000000,2.304100,-0.981371,-1.836952,-1.412969,-0.951806,1.704716,0.464364,-0.111025,-0.482168,-0.390425,-0.559936,-0.497065,0.764785,0.262072,2.680707,21.261944,12.181503,7.450133,0.195402,1.383468,0.081344,0.000000,0.000000,0.000000,0.000000,0.000000,0.000000
13152651.000000,2.303996,-0.981866,-1.837342,-1.413534,-0.952309,1.705505,0.464627,-0.110616,-0.479021,-0.385888,-0.556314,-0.499096,0.768969,0.266895,2.529951,22.095074,12.967026,7.525511,0.183500,1.312057,0.054794,0.000000,0.000000,0.000000,0.000000,0.000000,0.000000
13152652.000000,2.303902,-0.982350,-1.837722,-1.414089,-0.952809,1.706282,0.464888,-0.110038,-0.483492,-0.386329,-0.558243,-0.497091,0.766852,0.259862,2.383161,23.098797,13.752548,7.771483,0.189908,1.259872,0.094161,0.000000,0.000000,0.000000,0.000000,0.000000,0.000000
13152653.000000,2.303817,-0.982838,-1.838112,-1.414643,-0.953301,1.707064,0.465155,-0.100861,-0.484568,-0.391324,-0.550245,-0.498416,0.764917,0.259044,2.160993,24.078716,14.661057,8.069029,0.147794,1.312057,0.100570,0.000000,0.000000,0.000000,0.000000,0.000000,0.000000
13152654.000000,2.303741,-0.983333,-1.838491,-1.415204,-0.953797,1.707820,0.465421,-0.090298,-0.493448,-0.391755,-0.547966,-0.499701,0.780672,0.257733,1.911054,25.106243,15.395004,8.366575,0.112089,1.467696,0.061202,0.000000,0.000000,0.000000,0.000000,0.000000,0.000000
13152655.000000,2.303671,-0.983827,-1.838875,-1.415753,-0.954300,1.708582,0.465683,-0.084752,-0.493576,-0.389916,-0.549259,-0.500065,0.771563,0.258552,1.641279,26.038555,16.057541,8.687925,0.171598,1.682845,0.067611,0.000000,0.000000,0.000000,0.000000,0.000000,0.000000
13152656.000000,2.303611,-0.984326,-1.839266,-1.416311,-0.954804,1.709358,0.465950,-0.075711,-0.494840,-0.392116,-0.546840,-0.498705,0.772247,0.259965,1.292158,26.943096,16.747849,9.056883,0.201810,1.825668,0.067611,0.000000,0.000000,0.000000,0.000000,0.000000,0.000000
13152657.000000,2.303550,-0.984826,-1.839652,-1.416874,-0.955300,1.710123,0.466207,-0.071216,-0.496136,-0.387747,-0.552522,-0.493617,0.778191,0.255098,1.022382,27.823833,17.287399,9.429808,0.141385,1.832076,0.100570,0.000000,0.000000,0.000000,0.000000,0.000000,0.000000
13152658.000000,2.303494,-0.985348,-1.840045,-1.417446,-0.955806,1.710912,0.466476,-0.066594,-0.506173,-0.387986,-0.559227,-0.500857,0.775847,0.258993,0.724836,28.803753,17.703964,9.798765,0.195402,1.721298,0.048385,0.000000,0.000000,0.000000,0.000000,0.000000,0.000000
13152659.000000,2.303447,-0.985886,-1.840452,-1.418010,-0.956317,1.711708,0.466727,-0.058649,-0.512481,-0.393452,-0.557157,-0.500303,0.775026,0.253322,0.351911,29.878887,18.168137,9.997129,0.243009,1.605026,0.107894,0.000000,0.000000,0.000000,0.000000,0.000000,0.000000
13152660.000000,2.303408,-0.986444,-1.840847,-1.418566,-0.956830,1.712469,0.466987,-0.048656,-0.528577,-0.394075,-0.556131,-0.511872,0.769428,0.251186,-0.068621,31.176189,18.489487,10.048704,0.327238,1.591293,0.120712,0.000000,0.000000,0.000000,0.000000,0.000000,0.000000
13152661.000000,2.303372,-0.987011,-1.841245,-1.419126,-0.957340,1.713228,0.467258,-0.041730,-0.538658,-0.395746,-0.556573,-0.513157,0.763675,0.256075,-0.465350,32.326702,18.759262,10.072508,0.381254,1.721298,0.074935,0.000000,0.000000,0.000000,0.000000,0.000000,0.000000
13152662.000000,2.303340,-0.987584,-1.841645,-1.419674,-0.957842,1.713987,0.467517,-0.040144,-0.550372,-0.397810,-0.552992,-0.505296,0.761254,0.262067,-0.862078,33.354229,19.005234,9.997129,0.339139,1.735030,0.120712,0.000000,0.000000,0.000000,0.000000,0.000000,0.000000
13152663.000000,2.303324,-0.988169,-1.842051,-1.420234,-0.958337,1.714757,0.467792,-0.032179,-0.560858,-0.403964,-0.553456,-0.503437,0.763338,0.264581,-1.405596,34.310345,19.152023,9.921751,0.255826,1.624252,0.054794,0.000000,0.000000,0.000000,0.000000,0.000000,0.000000
13152664.000000,2.303302,-0.988752,-1.842461,-1.420798,-0.958833,1.715539,0.468045,-0.026556,-0.562837,-0.400213,-0.558617,-0.493784,0.768737,0.265697,-1.802325,35.020489,19.346420,9.897947,0.183500,1.552840,0.100570,0.000000,0.000000,0.000000,0.000000,0.000000,0.000000
13152665.000000,2.303281,-0.989339,-1.842863,-1.421352,-0.959327,1.716309,0.468316,-0.024209,-0.566062,-0.403638,-0.553486,-0.495543,0.775872,0.265938,-2.123675,35.631451,19.520981,9.874144,0.105680,1.513473,0.074935,0.000000,0.000000,0.000000,0.000000,0.000000,0.000000
13152666.000000,2.303256,-0.989924,-1.843269,-1.421914,-0.959825,1.717080,0.468584,-0.021310,-0.570000,-0.404802,-0.551785,-0.495127,0.768926,0.265225,-2.345843,36.071819,19.667770,9.850340,0.112089,1.500655,0.081344,0.000000,0.000000,0.000000,0.000000,0.000000,0.000000
13152667.000000,2.303235,-0.990504,-1.843681,-1.422488,-0.960331,1.717838,0.468843,-0.022142,-0.571900,-0.418649,-0.567333,-0.492494,0.758753,0.265206,-2.568011,36.488384,19.885971,9.973326,0.213712,1.539108,0.074935,0.000000,0.000000,0.000000,0.000000,0.000000,0.000000
13152668.000000,2.303208,-0.991084,-1.844095,-1.423051,-0.960839,1.718598,0.469103,-0.025621,-0.566853,-0.414772,-0.566578,-0.496370,0.755646,0.258624,-2.667193,36.635174,20.084335,10.120115,0.279630,1.584884,0.100570,0.000000,0.000000,0.000000,0.000000,0.000000,0.000000
13152669.000000,2.303170,-0.991672,-1.844502,-1.423624,-0.961349,1.719366,0.469365,-0.028431,-0.569540,-0.416049,-0.563159,-0.496032,0.751810,0.265162,-2.591815,36.904949,20.183517,10.318480,0.315336,1.565658,0.048385,0.000000,0.000000,0.000000,0.000000,0.000000,0.000000
13152670.000000,2.303128,-0.992240,-1.844903,-1.424205,-0.961862,1.720112,0.469619,-0.032412,-0.568141,-0.413393,-0.569263,-0.506400,0.752058,0.264840,-2.421221,36.980328,20.254929,10.715208,0.339139,1.578475,0.087753,0.000000,0.000000,0.000000,0.000000,0.000000,0.000000
13152671.000000,2.303092,-0.992823,-1.845316,-1.424777,-0.962357,1.720868,0.469887,-0.036121,-0.568117,-0.415359,-0.572437,-0.504507,0.742583,0.269800,-2.322039,37.099346,20.377914,10.961180,0.273221,1.565658,0.061202,0.000000,0.000000,0.000000,0.000000,0.000000,0.000000
13152672.000000,2.303049,-0.993418,-1.845718,-1.425348,-0.962858,1.721612,0.470151,-0.038005,-0.571837,-0.412864,-0.565931,-0.499067,0.758197,0.269282,-2.123675,37.321514,20.429489,11.084166,0.225614,1.617843,0.034652,0.000000,0.000000,0.000000,0.000000,0.000000,0.000000
13152673.000000,2.303009,-0.994014,-1.846133,-1.425912,-0.963372,1.722343,0.470402,-0.039535,-0.583517,-0.411679,-0.565223,-0.500856,0.751333,0.259353,-2.024493,37.686504,20.647690,11.258726,0.195402,1.779891,0.133529,0.000000,0.000000,0.000000,0.000000,0.000000,0.000000
13152674.000000,2.302958,-0.994618,-1.846537,-1.426478,-0.963870,1.723087,0.470670,-0.044957,-0.581740,-0.407926,-0.563722,-0.497087,0.744106,0.263257,-1.750750,38.079266,20.647690,11.429319,0.135892,1.865035,0.094161,0.000000,0.000000,0.000000,0.000000,0.000000,0.000000
13152675.000000,2.302906,-0.995232,-1.846943,-1.427038,-0.964384,1.723830,0.470933,-0.044873,-0.595257,-0.410597,-0.560118,-0.504110,0.749035,0.263296,-1.504779,38.642620,20.699265,11.580076,0.117582,1.819259,0.100570,0.000000,0.000000,0.000000,0.000000,0.000000,0.000000
13152676.000000,2.302849,-0.995848,-1.847361,-1.427611,-0.964888,1.724573,0.471201,-0.052484,-0.601242,-0.408218,-0.560201,-0.504114,0.738254,0.260767,-1.183428,39.059185,20.846054,11.849852,0.052579,1.741439,0.061202,0.000000,0.000000,0.000000,0.000000,0.000000,0.000000
13152677.000000,2.302794,-0.996469,-1.847774,-1.428176,-0.965408,1.725318,0.471456,-0.053609,-0.604741,-0.408183,-0.557852,-0.513493,0.737992,0.256113,-0.909686,39.574932,20.917465,12.024412,0.123990,1.727706,0.081344,0.000000,0.000000,0.000000,0.000000,0.000000,0.000000
13152678.000000,2.302724,-0.997083,-1.848187,-1.428734,-0.965935,1.726052,0.471711,-0.058587,-0.604973,-0.409901,-0.557951,-0.514126,0.742481,0.258112,-0.465350,39.963726,21.064255,12.246580,0.166105,1.721298,0.081344,0.000000,0.000000,0.000000,0.000000,0.000000,0.000000
13152679.000000,2.302657,-0.997704,-1.848611,-1.429297,-0.966458,1.726791,0.471974,-0.060010,-0.608300,-0.416311,-0.556269,-0.512661,0.733823,0.259137,-0.092425,40.257305,21.215012,12.468748,0.285123,1.735030,0.094161,0.000000,0.000000,0.000000,0.000000,0.000000,0.000000
13152680.000000,2.302583,-0.998320,-1.849028,-1.429854,-0.966984,1.727513,0.472232,-0.063847,-0.625263,-0.418383,-0.570128,-0.516848,0.731980,0.258431,0.375715,40.626263,21.337997,12.742491,0.267728,1.800033,0.147262,0.000000,0.000000,0.000000,0.000000,0.000000,0.000000
13152681.000000,2.302509,-0.998935,-1.849442,-1.430418,-0.967499,1.728245,0.472509,-0.067318,-0.617386,-0.418140,-0.562484,-0.525416,0.727660,0.267390,0.772443,40.896038,21.385605,12.940855,0.243009,1.825668,0.054794,0.000000,0.000000,0.000000,0.000000,0.000000,0.000000
13152682.000000,2.302432,-0.999559,-1.849868,-1.430991,-0.968018,1.728980,0.472766,-0.070790,-0.615137,-0.420900,-0.565229,-0.522442,0.727567,0.265084,1.192975,41.165813,21.556198,13.210630,0.141385,1.877853,0.120712,0.000000,0.000000,0.000000,0.000000,0.000000,0.000000
13152683.000000,2.302350,-1.000173,-1.850288,-1.431547,-0.968543,1.729699,0.473038,-0.071780,-0.621098,-0.424244,-0.564085,-0.516315,0.728334,0.266508,1.688886,41.483196,21.655380,13.333616,0.052579,1.909896,0.081344,0.000000,0.000000,0.000000,0.000000,0.000000,0.000000
13152684.000000,2.302275,-1.000775,-1.850708,-1.432106,-0.969061,1.730433,0.473313,-0.071216,-0.616880,-0.418589,-0.558211,-0.519825,0.727705,0.270591,2.010236,41.483196,21.702988,13.456602,0.027860,1.930038,0.074935,0.000000,0.000000,0.000000,0.000000,0.000000,0.000000
13152685.000000,2.302199,-1.001365,-1.851132,-1.432654,-0.969589,1.731150,0.473583,-0.073789,-0.607087,-0.430624,-0.565280,-0.520856,0.732141,0.268973,2.307783,41.360210,21.972763,13.456602,0.004056,2.001449,0.074935,0.000000,0.000000,0.000000,0.000000,0.000000,0.000000
13152686.000000,2.302120,-1.001971,-1.851562,-1.433192,-0.970118,1.731869,0.473850,-0.074131,-0.607186,-0.431123,-0.556808,-0.523918,0.718219,0.267005,2.652936,41.312603,22.194931,13.262205,0.117582,2.020675,0.100570,0.000000,0.000000,0.000000,0.000000,0.000000,0.000000
13152687.000000,2.302045,-1.002575,-1.852004,-1.433725,-0.970657,1.732600,0.474119,-0.071244,-0.602806,-0.436202,-0.542771,-0.527173,0.717937,0.263029,2.879072,41.237225,22.488510,13.012266,0.171598,2.033492,0.061202,0.000000,0.000000,0.000000,0.000000,0.000000,0.000000
13152688.000000,2.301975,-1.003150,-1.852447,-1.434250,-0.971193,1.733323,0.474382,-0.068287,-0.596192,-0.438700,-0.538268,-0.525545,0.723344,0.266098,3.049665,40.943645,22.857468,12.813902,0.207303,2.007858,0.107894,0.000000,0.000000,0.000000,0.000000,0.000000,0.000000
13152689.000000,2.301901,-1.003739,-1.852886,-1.434764,-0.971731,1.734053,0.474660,-0.069677,-0.590509,-0.438007,-0.533210,-0.528921,0.720649,0.271026,3.248029,40.749249,23.151047,12.421141,0.285123,2.001449,0.074935,0.000000,0.000000,0.000000,0.000000,0.000000,0.000000
13152690.000000,2.301842,-1.004340,-1.853326,-1.435269,-0.972269,1.734770,0.474930,-0.064963,-0.592365,-0.441775,-0.519629,-0.528921,0.724828,0.272017,3.299604,40.650066,23.496201,11.976805,0.315336,2.020675,0.074935,0.000000,0.000000,0.000000,0.000000,0.000000,0.000000
13152691.000000,2.301778,-1.004923,-1.853775,-1.435764,-0.972802,1.735488,0.475204,-0.065729,-0.592235,-0.446640,-0.510207,-0.533330,0.713377,0.270501,3.398786,40.503277,23.789780,11.556273,0.320829,2.144271,0.061202,0.000000,0.000000,0.000000,0.000000,0.000000,0.000000
13152692.000000,2.301718,-1.005498,-1.854227,-1.436252,-0.973345,1.736217,0.475479,-0.064140,-0.584164,-0.443256,-0.502648,-0.539571,0.711645,0.269422,3.398786,40.209698,24.083359,11.135740,0.362943,2.209274,0.048385,0.000000,0.000000,0.000000,0.000000,0.000000,0.000000
13152693.000000,2.301661,-1.006075,-1.854677,-1.436727,-0.973873,1.736938,0.475743,-0.060999,-0.581832,-0.450000,-0.491901,-0.537367,0.716794,0.271043,3.422590,39.987530,24.476120,10.739012,0.273221,2.125045,0.094161,0.000000,0.000000,0.000000,0.000000,0.000000,0.000000
13152694.000000,2.301598,-1.006655,-1.855127,-1.437192,-0.974415,1.737681,0.476022,-0.059545,-0.580694,-0.447805,-0.485739,-0.535750,0.719705,0.271395,3.497968,39.793133,24.722092,10.270872,0.285123,2.033492,0.034652,0.000000,0.000000,0.000000,0.000000,0.000000,0.000000
13152695.000000,2.301549,-1.007228,-1.855593,-1.437660,-0.974958,1.738407,0.476280,-0.055448,-0.579509,-0.455663,-0.476716,-0.536008,0.721844,0.266610,3.446393,39.451946,25.067245,10.020933,0.332731,2.072860,0.114303,0.000000,0.000000,0.000000,0.000000,0.000000,0.000000
13152696.000000,2.301502,-1.007795,-1.856042,-1.438123,-0.975514,1.739116,0.476546,-0.052325,-0.569196,-0.452662,-0.471447,-0.543335,0.709385,0.267717,3.371015,39.229778,25.313217,9.822569,0.327238,2.112228,0.074935,0.000000,0.000000,0.000000,0.000000,0.000000,0.000000
13152697.000000,2.301455,-1.008383,-1.856493,-1.438576,-0.976067,1.739832,0.476810,-0.051235,-0.574291,-0.451220,-0.465546,-0.548917,0.708416,0.267130,3.347211,39.205975,25.483810,9.600401,0.446256,2.144271,0.061202,0.000000,0.000000,0.000000,0.000000,0.000000,0.000000
13152698.000000,2.301412,-1.008955,-1.856941,-1.439032,-0.976627,1.740539,0.477072,-0.049158,-0.588474,-0.451888,-0.469948,-0.555434,0.705116,0.266873,3.271833,39.082989,25.682175,9.576597,0.524076,2.169906,0.074935,0.000000,0.000000,0.000000,0.000000,0.000000,0.000000
13152699.000000,2.301377,-1.009534,-1.857399,-1.439490,-0.977169,1.741261,0.477343,-0.041632,-0.582798,-0.448756,-0.466962,-0.563503,0.704603,0.267018,3.073469,39.059185,25.852768,9.600401,0.506681,2.150680,0.034652,0.000000,0.000000,0.000000,0.000000,0.000000,0.000000
13152700.000000,2.301342,-1.010125,-1.857846,-1.439947,-0.977722,1.741974,0.477604,-0.041319,-0.583565,-0.443588,-0.462427,-0.561097,0.706536,0.268967,2.950483,39.130596,25.924179,9.675779,0.535978,2.177230,0.041976,0.000000,0.000000,0.000000,0.000000,0.000000,0.000000
13152701.000000,2.301306,-1.010713,-1.858290,-1.440398,-0.978273,1.742680,0.477860,-0.038558,-0.588002,-0.441522,-0.463576,-0.555095,0.702240,0.266247,2.827497,39.229778,26.047165,9.822569,0.488370,2.228500,0.074935,0.000000,0.000000,0.000000,0.000000,0.000000,0.000000
13152702.000000,2.301280,-1.011300,-1.858740,-1.440849,-0.978815,1.743393,0.478122,-0.034485,-0.589330,-0.441645,-0.457499,-0.554579,0.697775,0.264664,2.629133,39.305157,26.146347,9.997129,0.494779,2.287093,0.107894,0.000000,0.000000,0.000000,0.000000,0.000000,0.000000
13152703.000000,2.301257,-1.011888,-1.859176,-1.441310,-0.979367,1.744092,0.478387,-0.028703,-0.582582,-0.447122,-0.458373,-0.546503,0.686076,0.261518,2.454572,39.400372,26.122543,10.243101,0.476469,2.261459,0.067611,0.000000,0.000000,0.000000,0.000000,0.000000,0.000000
13152704.000000,2.301235,-1.012485,-1.859610,-1.441763,-0.979909,1.744813,0.478646,-0.028107,-0.590011,-0.441189,-0.456283,-0.540961,0.691298,0.255646,2.307783,39.646343,26.098740,10.516844,0.416959,2.209274,0.100570,0.000000,0.000000,0.000000,0.000000,0.000000,0.000000
13152705.000000,2.301217,-1.013074,-1.860039,-1.442225,-0.980453,1.745529,0.478912,-0.023910,-0.589094,-0.437071,-0.459881,-0.540891,0.693133,0.254965,2.109418,39.793133,25.951950,10.786619,0.362943,2.196456,0.048385,0.000000,0.000000,0.000000,0.000000,0.000000,0.000000
13152706.000000,2.301203,-1.013658,-1.860454,-1.442683,-0.981003,1.746227,0.479157,-0.020838,-0.586587,-0.434398,-0.460892,-0.541480,0.693241,0.255448,1.911054,39.963726,25.654404,11.084166,0.351041,2.228500,0.127120,0.000000,0.000000,0.000000,0.000000,0.000000,0.000000
13152707.000000,2.301206,-1.014259,-1.860878,-1.443152,-0.981552,1.746936,0.479429,-0.013678,-0.584651,-0.426846,-0.461675,-0.549060,0.697513,0.264765,1.514325,40.162090,25.531418,11.282530,0.386747,2.242233,0.048385,0.000000,0.000000,0.000000,0.000000,0.000000,0.000000
13152708.000000,2.301203,-1.014843,-1.861287,-1.443627,-0.982102,1.747637,0.479687,-0.009024,-0.580348,-0.422069,-0.461147,-0.550239,0.707024,0.264003,1.268354,40.086712,25.289413,11.556273,0.422452,2.261459,0.061202,0.000000,0.000000,0.000000,0.000000,0.000000,0.000000
13152709.000000,2.301197,-1.015418,-1.861704,-1.444098,-0.982652,1.748352,0.479952,-0.009697,-0.581861,-0.420153,-0.465301,-0.549868,0.705441,0.263347,1.069990,39.916119,25.114853,11.750669,0.428861,2.248641,0.074935,0.000000,0.000000,0.000000,0.000000,0.000000,0.000000
13152710.000000,2.301203,-1.015989,-1.862122,-1.444580,-0.983195,1.749062,0.480215,-0.001668,-0.569776,-0.417102,-0.472090,-0.550557,0.694861,0.263659,0.772443,39.622540,24.896652,12.024412,0.416959,2.202865,0.081344,0.000000,0.000000,0.000000,0.000000,0.000000,0.000000
13152711.000000,2.301214,-1.016563,-1.862514,-1.445055,-0.983740,1.749778,0.480470,0.004782,-0.570266,-0.410379,-0.474154,-0.548937,0.699619,0.262798,0.451093,39.400372,24.575302,12.246580,0.410551,2.098495,0.107894,0.000000,0.000000,0.000000,0.000000,0.000000,0.000000
13152712.000000,2.301225,-1.017149,-1.862913,-1.445529,-0.984279,1.750490,0.480741,0.005342,-0.573053,-0.406969,-0.471961,-0.541487,0.698488,0.259927,0.177350,39.281353,24.305527,12.321959,0.344633,2.085677,0.054794,0.000000,0.000000,0.000000,0.000000,0.000000,0.000000
13152713.000000,2.301236,-1.017735,-1.863304,-1.446004,-0.984820,1.751193,0.480993,0.007592,-0.574764,-0.399968,-0.469417,-0.537948,0.694689,0.258897,-0.044818,39.253582,23.988144,12.468748,0.327238,2.177230,0.100570,0.000000,0.000000,0.000000,0.000000,0.000000,0.000000
13152714.000000,2.301249,-1.018310,-1.863688,-1.446479,-0.985373,1.751886,0.481249,0.010498,-0.570755,-0.395644,-0.470384,-0.540822,0.698056,0.256714,-0.314593,39.158367,23.690598,12.591734,0.308927,2.228500,0.067611,0.000000,0.000000,0.000000,0.000000,0.000000,0.000000
13152715.000000,2.301257,-1.018892,-1.864068,-1.446954,-0.985917,1.752600,0.481500,0.010426,-0.572598,-0.388975,-0.470464,-0.539791,0.693630,0.252930,-0.489153,39.059185,23.420822,12.742491,0.351041,2.177230,0.087753,0.000000,0.000000,0.000000,0.000000,0.000000,0.000000
13152716.000000,2.301273,-1.019458,-1.864448,-1.447424,-0.986463,1.753308,0.481748,0.012213,-0.583655,-0.388041,-0.479577,-0.544395,0.702166,0.255086,-0.735125,38.936199,23.297836,12.813902,0.308927,2.104903,0.107894,0.000000,0.000000,0.000000,0.000000,0.000000,0.000000
13152717.000000,2.301285,-1.020026,-1.864825,-1.447913,-0.987010,1.754014,0.482008,0.011300,-0.575713,-0.385816,-0.483722,-0.552535,0.697339,0.256835,-0.885882,38.765606,23.127243,13.063841,0.327238,2.072860,0.107894,0.000000,0.000000,0.000000,0.000000,0.000000,0.000000
13152718.000000,2.301299,-1.020606,-1.865204,-1.448400,-0.987573,1.754728,0.482263,0.010133,-0.577088,-0.385603,-0.480581,-0.557383,0.699509,0.259588,-1.008868,38.642620,22.881271,13.186827,0.369352,2.131454,0.114303,0.000000,0.000000,0.000000,0.000000,0.000000,0.000000
13152719.000000,2.301323,-1.021171,-1.865582,-1.448880,-0.988129,1.755430,0.482521,0.014249,-0.578457,-0.383670,-0.480278,-0.551782,0.702431,0.260827,-1.207232,38.519634,22.833664,13.385191,0.297025,2.169906,0.114303,0.000000,0.000000,0.000000,0.000000,0.000000,0.000000
13152720.000000,2.301338,-1.021745,-1.865959,-1.449354,-0.988683,1.756148,0.482775,0.010155,-0.573472,-0.382046,-0.473458,-0.558490,0.702243,0.256520,-1.231036,38.448223,22.686874,13.456602,0.315336,2.112228,0.120712,0.000000,0.000000,0.000000,0.000000,0.000000,0.000000
13152721.000000,2.301355,-1.022324,-1.866327,-1.449834,-0.989245,1.756847,0.483037,0.011347,-0.569362,-0.378690,-0.470451,-0.554141,0.705373,0.256236,-1.282611,38.325237,22.540085,13.583555,0.291532,2.125045,0.054794,0.000000,0.000000,0.000000,0.000000,0.000000,0.000000
13152722.000000,2.301371,-1.022883,-1.866701,-1.450309,-0.989791,1.757551,0.483294,0.012910,-0.568075,-0.375168,-0.471508,-0.549457,0.695399,0.257259,-1.354022,38.154644,22.365524,13.853331,0.178007,2.209274,0.087753,0.000000,0.000000,0.000000,0.000000,0.000000,0.000000
13152723.000000,2.301383,-1.023451,-1.867070,-1.450773,-0.990360,1.758262,0.483553,0.012196,-0.566269,-0.371182,-0.465208,-0.556150,0.692344,0.260157,-1.354022,37.984051,22.147324,13.877134,0.231107,2.177230,0.061202,0.000000,0.000000,0.000000,0.000000,0.000000,0.000000
13152724.000000,2.301403,-1.024013,-1.867439,-1.451230,-0.990925,1.758952,0.483796,0.014390,-0.564068,-0.373241,-0.465069,-0.555389,0.685811,0.254371,-1.453204,37.861065,22.119553,13.904905,0.285123,2.144271,0.114303,0.000000,0.000000,0.000000,0.000000,0.000000,0.000000
13152725.000000,2.301419,-1.024589,-1.867800,-1.451690,-0.991490,1.759656,0.484048,0.014819,-0.564931,-0.366462,-0.461930,-0.563790,0.687765,0.251912,-1.504779,37.833294,21.901352,13.928709,0.303434,2.125045,0.081344,0.000000,0.000000,0.000000,0.000000,0.000000,0.000000
13152726.000000,2.301425,-1.025172,-1.868157,-1.452156,-0.992063,1.760359,0.484301,0.011594,-0.570438,-0.365999,-0.462004,-0.561933,0.690992,0.247515,-1.405596,37.908672,21.702988,14.051695,0.344633,2.104903,0.081344,0.000000,0.000000,0.000000,0.000000,0.000000,0.000000
13152727.000000,2.301436,-1.025746,-1.868528,-1.452603,-0.992637,1.761053,0.484556,0.010713,-0.569349,-0.364624,-0.455693,-0.566032,0.690020,0.247434,-1.354022,38.031658,21.607773,14.027891,0.303434,2.039901,0.067611,0.000000,0.000000,0.000000,0.000000,0.000000,0.000000
13152728.000000,2.301445,-1.026327,-1.868888,-1.453055,-0.993202,1.761752,0.484811,0.008817,-0.572573,-0.361572,-0.450659,-0.568609,0.696797,0.250938,-1.254840,38.130840,21.457016,14.027891,0.315336,1.981307,0.081344,0.000000,0.000000,0.000000,0.000000,0.000000,0.000000
13152729.000000,2.301452,-1.026900,-1.869242,-1.453491,-0.993773,1.762445,0.485055,0.007254,-0.571301,-0.360137,-0.444258,-0.571686,0.693237,0.247920,-1.131854,38.154644,21.310226,14.027891,0.308927,1.962081,0.127120,0.000000,0.000000,0.000000,0.000000,0.000000,0.000000
13152730.000000,2.301462,-1.027472,-1.869604,-1.453935,-0.994333,1.763134,0.485315,0.007947,-0.570720,-0.359589,-0.441278,-0.559192,0.690745,0.250370,-1.084246,38.079266,21.187241,14.099302,0.237516,2.033492,0.054794,0.000000,0.000000,0.000000,0.000000,0.000000,0.000000
13152731.000000,2.301464,-1.028045,-1.869964,-1.454365,-0.994905,1.763816,0.485561,0.007874,-0.568164,-0.359961,-0.434320,-0.566029,0.680398,0.246641,-0.885882,37.908672,20.969040,14.099302,0.231107,2.104903,0.120712,0.000000,0.000000,0.000000,0.000000,0.000000,0.000000
13152732.000000,2.301478,-1.028610,-1.870322,-1.454783,-0.995480,1.764500,0.485817,0.009031,-0.566223,-0.360523,-0.429644,-0.571194,0.685840,0.251803,-0.862078,37.686504,20.893661,13.976316,0.178007,2.098495,0.100570,0.000000,0.000000,0.000000,0.000000,0.000000,0.000000
13152733.000000,2.301488,-1.029173,-1.870679,-1.455212,-0.996043,1.765204,0.486071,0.008765,-0.564741,-0.359082,-0.427438,-0.571278,0.686985,0.249861,-0.786700,37.392925,20.770676,14.075499,0.201810,1.988631,0.107894,0.000000,0.000000,0.000000,0.000000,0.000000,0.000000
13152734.000000,2.301494,-1.029724,-1.871034,-1.455632,-0.996621,1.765893,0.486321,0.006795,-0.567933,-0.355249,-0.433195,-0.574122,0.690932,0.250012,-0.635943,37.075542,20.647690,14.150877,0.213712,1.942855,0.087753,0.000000,0.000000,0.000000,0.000000,0.000000,0.000000
13152735.000000,2.301503,-1.030296,-1.871393,-1.456043,-0.997186,1.766572,0.486565,0.009743,-0.566468,-0.356462,-0.425195,-0.572944,0.689087,0.246725,-0.540728,36.857342,20.552475,14.150877,0.231107,2.027084,0.127120,0.000000,0.000000,0.000000,0.000000,0.000000,0.000000
13152736.000000,2.301519,-1.030870,-1.871762,-1.456455,-0.997772,1.767261,0.486823,0.010938,-0.569025,-0.355175,-0.416514,-0.573299,0.683080,0.256244,-0.540728,36.682781,20.524704,14.051695,0.273221,2.112228,0.074935,0.000000,0.000000,0.000000,0.000000,0.000000,0.000000
13152737.000000,2.301533,-1.031431,-1.872110,-1.456855,-0.998339,1.767952,0.487070,0.014199,-0.567863,-0.351680,-0.412384,-0.566371,0.689714,0.251111,-0.512957,36.488384,20.377914,14.000120,0.267728,2.053634,0.133529,0.000000,0.000000,0.000000,0.000000,0.000000,0.000000
13152738.000000,2.301544,-1.032005,-1.872469,-1.457261,-0.998907,1.768639,0.487329,0.012323,-0.566405,-0.353314,-0.408185,-0.567223,0.681643,0.256017,-0.441546,36.293987,20.306503,13.952513,0.231107,2.033492,0.087753,0.000000,0.000000,0.000000,0.000000,0.000000,0.000000
13152739.000000,2.301552,-1.032568,-1.872821,-1.457657,-0.999472,1.769324,0.487575,0.009128,-0.562987,-0.353986,-0.401009,-0.558424,0.698115,0.252858,-0.290789,35.976604,20.183517,13.829527,0.141385,1.981307,0.100570,0.000000,0.000000,0.000000,0.000000,0.000000,0.000000
13152740.000000,2.301570,-1.033129,-1.873182,-1.458044,-1.000051,1.770015,0.487824,0.010973,-0.563551,-0.354580,-0.393651,-0.564378,0.693433,0.254323,-0.314593,35.778240,20.060532,13.631163,0.093778,1.962081,0.127120,0.000000,0.000000,0.000000,0.000000,0.000000,0.000000
13152741.000000,2.301585,-1.033705,-1.873538,-1.458421,-1.000624,1.770710,0.488083,0.013759,-0.559465,-0.349920,-0.382705,-0.562612,0.690607,0.258602,-0.266986,35.706829,19.862167,13.357420,0.159696,1.923629,0.074935,0.000000,0.000000,0.000000,0.000000,0.000000,0.000000
13152742.000000,2.301597,-1.034278,-1.873886,-1.458788,-1.001203,1.771379,0.488322,0.011582,-0.568105,-0.350139,-0.375381,-0.567458,0.687133,0.258066,-0.167803,35.706829,19.667770,13.063841,0.166105,1.936446,0.153671,0.000000,0.000000,0.000000,0.000000,0.000000,0.000000
13152743.000000,2.301609,-1.034854,-1.874244,-1.459155,-1.001779,1.772074,0.488579,0.010348,-0.575940,-0.350634,-0.368547,-0.568260,0.683603,0.257043,-0.092425,35.631451,19.497177,12.841673,0.189908,1.930038,0.081344,0.000000,0.000000,0.000000,0.000000,0.000000,0.000000
13152744.000000,2.301625,-1.035416,-1.874596,-1.459534,-1.002364,1.772768,0.488821,0.013965,-0.565621,-0.351224,-0.372069,-0.578351,0.690002,0.253578,-0.068621,35.413250,19.322617,12.714720,0.195402,1.871444,0.087753,0.000000,0.000000,0.000000,0.000000,0.000000,0.000000
13152745.000000,2.301646,-1.035985,-1.874962,-1.459885,-1.002953,1.773462,0.489068,0.017695,-0.567050,-0.353887,-0.364570,-0.575376,0.692643,0.256029,-0.092425,35.314068,19.251205,12.421141,0.183500,1.721298,0.087753,0.000000,0.000000,0.000000,0.000000,0.000000,0.000000
13152746.000000,2.301664,-1.036567,-1.875320,-1.460247,-1.003534,1.774156,0.489320,0.015608,-0.568233,-0.350183,-0.362234,-0.580438,0.692859,0.252770,-0.044818,35.266460,19.104416,12.298155,0.219205,1.702071,0.107894,0.000000,0.000000,0.000000,0.000000,0.000000,0.000000
13152747.000000,2.301675,-1.037128,-1.875677,-1.460596,-1.004114,1.774828,0.489568,0.012328,-0.566509,-0.352801,-0.355870,-0.577386,0.684775,0.255355,0.078168,35.068096,19.005234,12.099791,0.141385,1.812850,0.114303,0.000000,0.000000,0.000000,0.000000,0.000000,0.000000
13152748.000000,2.301695,-1.037697,-1.876031,-1.460945,-1.004688,1.775516,0.489826,0.015273,-0.563507,-0.352015,-0.354936,-0.567317,0.685749,0.254533,0.105939,34.921307,18.806870,11.925230,0.088285,1.871444,0.054794,0.000000,0.000000,0.000000,0.000000,0.000000,0.000000
13152749.000000,2.301722,-1.038273,-1.876401,-1.461291,-1.005277,1.776208,0.490068,0.019651,-0.566053,-0.359188,-0.349656,-0.567907,0.685522,0.249093,0.030561,34.826092,18.783066,11.703062,0.105680,1.844894,0.133529,0.000000,0.000000,0.000000,0.000000,0.000000,0.000000
13152750.000000,2.301737,-1.038844,-1.876760,-1.461623,-1.005857,1.776901,0.490323,0.018668,-0.570262,-0.357825,-0.343591,-0.573831,0.686257,0.252900,0.129743,34.849895,18.759262,11.504698,0.088285,1.786300,0.140853,0.000000,0.000000,0.000000,0.000000,0.000000,0.000000
13152751.000000,2.301756,-1.039399,-1.877120,-1.461957,-1.006438,1.777589,0.490584,0.018538,-0.562444,-0.357856,-0.338398,-0.571250,0.684517,0.250820,0.205121,34.580120,18.683884,11.306334,0.064481,1.735030,0.140853,0.000000,0.000000,0.000000,0.000000,0.000000,0.000000
13152752.000000,2.301778,-1.039965,-1.877481,-1.462283,-1.007027,1.778268,0.490838,0.020011,-0.573049,-0.359506,-0.338721,-0.576237,0.685904,0.251044,0.228925,34.433331,18.660080,11.084166,0.100187,1.670028,0.100570,0.000000,0.000000,0.000000,0.000000,0.000000,0.000000
13152753.000000,2.301803,-1.040532,-1.877847,-1.462597,-1.007620,1.778950,0.491091,0.021564,-0.573850,-0.363871,-0.333667,-0.594651,0.684773,0.247822,0.228925,34.238934,18.636276,10.814390,0.147794,1.637069,0.133529,0.000000,0.000000,0.000000,0.000000,0.000000,0.000000
13152754.000000,2.301822,-1.041105,-1.878225,-1.462909,-1.008204,1.779638,0.491343,0.021745,-0.570776,-0.365654,-0.325973,-0.593639,0.678627,0.248549,0.276533,34.064373,18.683884,10.516844,0.135892,1.617843,0.127120,0.000000,0.000000,0.000000,0.000000,0.000000,0.000000
13152755.000000,2.301845,-1.041661,-1.878581,-1.463210,-1.008807,1.780299,0.491596,0.021965,-0.566120,-0.360433,-0.319108,-0.590579,0.674204,0.251131,0.304304,33.746990,18.588669,10.270872,0.123990,1.727706,0.160079,0.000000,0.000000,0.000000,0.000000,0.000000,0.000000
13152756.000000,2.301873,-1.042237,-1.878952,-1.463511,-1.009397,1.780965,0.491859,0.023031,-0.570116,-0.360413,-0.312824,-0.591374,0.662993,0.256112,0.304304,33.624004,18.560898,10.020933,0.135892,1.773483,0.107894,0.000000,0.000000,0.000000,0.000000,0.000000,0.000000
13152757.000000,2.301901,-1.042818,-1.879330,-1.463808,-1.009995,1.781637,0.492116,0.024628,-0.574452,-0.372058,-0.306383,-0.591878,0.677559,0.258245,0.276533,33.528790,18.683884,9.798765,0.076383,1.773483,0.100570,0.000000,0.000000,0.000000,0.000000,0.000000,0.000000
13152758.000000,2.301925,-1.043384,-1.879706,-1.464092,-1.010594,1.782319,0.492373,0.023810,-0.567102,-0.373322,-0.299588,-0.593521,0.672071,0.255821,0.328107,33.405804,18.683884,9.501219,0.081876,1.676437,0.100570,0.000000,0.000000,0.000000,0.000000,0.000000,0.000000
13152759.000000,2.301959,-1.043968,-1.880091,-1.464386,-1.011186,1.783002,0.492628,0.029381,-0.569153,-0.374868,-0.297717,-0.591599,0.670348,0.252852,0.252729,33.382000,18.858444,9.354429,0.081876,1.624252,0.107894,0.000000,0.000000,0.000000,0.000000,0.000000,0.000000
13152760.000000,2.301984,-1.044547,-1.880469,-1.464668,-1.011792,1.783660,0.492878,0.027106,-0.574963,-0.378204,-0.293875,-0.587985,0.673892,0.249455,0.304304,33.382000,18.981430,9.231443,0.189908,1.584884,0.147262,0.000000,0.000000,0.000000,0.000000,0.000000,0.000000
13152761.000000,2.302013,-1.045133,-1.880847,-1.464951,-1.012398,1.784335,0.493139,0.029371,-0.577298,-0.381257,-0.293344,-0.594998,0.670159,0.249405,0.328107,33.429607,19.005234,9.084654,0.267728,1.559249,0.081344,0.000000,0.000000,0.000000,0.000000,0.000000,0.000000
13152762.000000,2.302048,-1.045729,-1.881247,-1.465235,-1.012992,1.785005,0.493384,0.029928,-0.575662,-0.387370,-0.288357,-0.587489,0.668138,0.243949,0.276533,33.477215,19.175827,9.009275,0.255826,1.546432,0.133529,0.000000,0.000000,0.000000,0.000000,0.000000,0.000000
13152763.000000,2.302082,-1.046325,-1.881625,-1.465513,-1.013608,1.785659,0.493642,0.029062,-0.582546,-0.381112,-0.285738,-0.598204,0.659708,0.245952,0.252729,33.600201,19.175827,8.985472,0.297025,1.578475,0.094161,0.000000,0.000000,0.000000,0.000000,0.000000,0.000000
13152764.000000,2.302117,-1.046930,-1.882013,-1.465796,-1.014200,1.786313,0.493891,0.028845,-0.588224,-0.380120,-0.285436,-0.591890,0.659851,0.246315,0.228925,33.822369,19.223434,8.933897,0.171598,1.656295,0.074935,0.000000,0.000000,0.000000,0.000000,0.000000,0.000000
13152765.000000,2.302149,-1.047522,-1.882392,-1.466077,-1.014812,1.786966,0.494134,0.029164,-0.598768,-0.378889,-0.289543,-0.592875,0.660360,0.247931,0.304304,33.893780,19.199631,8.985472,0.123990,1.656295,0.153671,0.000000,0.000000,0.000000,0.000000,0.000000,0.000000
13152766.000000,2.302185,-1.048134,-1.882783,-1.466351,-1.015412,1.787627,0.494397,0.031494,-0.599856,-0.379669,-0.284354,-0.592197,0.660673,0.255708,0.304304,34.064373,19.251205,9.033079,0.129484,1.656295,0.067611,0.000000,0.000000,0.000000,0.000000,0.000000,0.000000
13152767.000000,2.302219,-1.048744,-1.883177,-1.466636,-1.016013,1.788286,0.494647,0.032295,-0.602737,-0.381096,-0.284711,-0.594177,0.655619,0.256095,0.328107,34.187359,19.322617,9.132261,0.093778,1.656295,0.074935,0.000000,0.000000,0.000000,0.000000,0.000000,0.000000
13152768.000000,2.302247,-1.049342,-1.883554,-1.466913,-1.016630,1.788941,0.494899,0.033899,-0.603392,-0.376368,-0.281578,-0.596893,0.652831,0.252897,0.451093,34.238934,19.298813,9.231443,0.207303,1.643478,0.087753,0.000000,0.000000,0.000000,0.000000,0.000000,0.000000
13152769.000000,2.302284,-1.049957,-1.883951,-1.467192,-1.017228,1.789599,0.495142,0.034446,-0.598785,-0.382607,-0.282183,-0.598651,0.644759,0.248556,0.474897,34.385723,19.445602,9.354429,0.207303,1.624252,0.147262,0.000000,0.000000,0.000000,0.000000,0.000000,0.000000
13152770.000000,2.302313,-1.050581,-1.884330,-1.467475,-1.017831,1.790257,0.495399,0.033133,-0.607334,-0.382596,-0.287253,-0.594592,0.641500,0.250692,0.574079,34.703106,19.374191,9.453611,0.303434,1.559249,0.087753,0.000000,0.000000,0.000000,0.000000,0.000000,0.000000
13152771.000000,2.302347,-1.051215,-1.884728,-1.467756,-1.018432,1.790905,0.495640,0.032832,-0.616414,-0.386507,-0.284548,-0.596064,0.636766,0.247095,0.649457,35.044292,19.445602,9.477415,0.285123,1.552840,0.133529,0.000000,0.000000,0.000000,0.000000,0.000000,0.000000
13152772.000000,2.302384,-1.051849,-1.885116,-1.468034,-1.019018,1.791561,0.495890,0.033827,-0.619220,-0.383554,-0.282365,-0.590219,0.640224,0.242794,0.673261,35.413250,19.445602,9.501219,0.207303,1.597701,0.114303,0.000000,0.000000,0.000000,0.000000,0.000000,0.000000
13152773.000000,2.302417,-1.052476,-1.885498,-1.468311,-1.019623,1.792203,0.496132,0.033893,-0.619861,-0.383546,-0.283843,-0.595160,0.639659,0.244014,0.724836,35.683025,19.374191,9.501219,0.129484,1.624252,0.094161,0.000000,0.000000,0.000000,0.000000,0.000000,0.000000
13152774.000000,2.302459,-1.053108,-1.885892,-1.468584,-1.020204,1.792853,0.496372,0.038721,-0.619514,-0.387704,-0.276661,-0.589337,0.633132,0.238729,0.697065,35.802044,19.374191,9.429808,0.010465,1.649886,0.114303,0.000000,0.000000,0.000000,0.000000,0.000000,0.000000
13152775.000000,2.302501,-1.053741,-1.886285,-1.468858,-1.020809,1.793487,0.496616,0.039139,-0.622377,-0.387929,-0.275497,-0.598357,0.649185,0.240453,0.673261,35.877422,19.346420,9.378233,0.015958,1.695663,0.114303,0.000000,0.000000,0.000000,0.000000,0.000000,0.000000
13152776.000000,2.302541,-1.054371,-1.886681,-1.469136,-1.021418,1.794141,0.496864,0.041541,-0.628476,-0.388561,-0.277307,-0.596933,0.651468,0.241455,0.697065,35.976604,19.346420,9.306822,0.010465,1.702071,0.114303,0.000000,0.000000,0.000000,0.000000,0.000000,0.000000
13152777.000000,2.302585,-1.054999,-1.887085,-1.469419,-1.022023,1.794804,0.497115,0.040212,-0.619104,-0.393156,-0.277192,-0.605977,0.655186,0.243348,0.724836,35.925030,19.421799,9.330626,0.058073,1.637069,0.087753,0.000000,0.000000,0.000000,0.000000,0.000000,0.000000
13152778.000000,2.302625,-1.055610,-1.887483,-1.469694,-1.022637,1.795459,0.497352,0.042065,-0.615163,-0.392772,-0.273968,-0.604817,0.656767,0.241051,0.772443,35.683025,19.445602,9.330626,0.159696,1.507064,0.173812,0.000000,0.000000,0.000000,0.000000,0.000000,0.000000
13152779.000000,2.302667,-1.056230,-1.887892,-1.469975,-1.023238,1.796116,0.497608,0.043550,-0.613298,-0.399175,-0.274601,-0.610646,0.658298,0.245698,0.796247,35.460857,19.497177,9.330626,0.195402,1.454879,0.067611,0.000000,0.000000,0.000000,0.000000,0.000000,0.000000
13152780.000000,2.302706,-1.056850,-1.888292,-1.470249,-1.023850,1.796760,0.497854,0.043522,-0.613184,-0.398505,-0.269989,-0.605833,0.651315,0.244655,0.871625,35.266460,19.445602,9.255247,0.231107,1.519881,0.087753,0.000000,0.000000,0.000000,0.000000,0.000000,0.000000
13152781.000000,2.302752,-1.057464,-1.888692,-1.470519,-1.024467,1.797383,0.498103,0.044998,-0.611368,-0.397760,-0.271527,-0.610689,0.644436,0.244597,0.895429,35.119671,19.497177,9.231443,0.249418,1.643478,0.087753,0.000000,0.000000,0.000000,0.000000,0.000000,0.000000
13152782.000000,2.302795,-1.058090,-1.889100,-1.470796,-1.025065,1.798014,0.498351,0.042443,-0.608364,-0.396503,-0.271775,-0.609239,0.635349,0.244481,0.923200,34.972881,19.568588,9.207640,0.213712,1.695663,0.094161,0.000000,0.000000,0.000000,0.000000,0.000000,0.000000
13152783.000000,2.302844,-1.058699,-1.889509,-1.471065,-1.025662,1.798646,0.498596,0.045897,-0.623263,-0.400474,-0.270044,-0.607404,0.638657,0.240663,0.871625,34.703106,19.691574,9.207640,0.105680,1.656295,0.074935,0.000000,0.000000,0.000000,0.000000,0.000000,0.000000
13152784.000000,2.302887,-1.059315,-1.889919,-1.471330,-1.026269,1.799280,0.498839,0.045283,-0.622402,-0.400119,-0.268513,-0.609885,0.634515,0.245318,0.947004,34.433331,19.814560,9.207640,0.117582,1.656295,0.087753,0.000000,0.000000,0.000000,0.000000,0.000000,0.000000
13152785.000000,2.302934,-1.059936,-1.890336,-1.471601,-1.026887,1.799915,0.499082,0.045303,-0.618051,-0.405210,-0.267369,-0.618152,0.635654,0.251701,0.994611,34.286541,20.008957,9.207640,0.117582,1.670028,0.127120,0.000000,0.000000,0.000000,0.000000,0.000000,0.000000
13152786.000000,2.302974,-1.060561,-1.890745,-1.471862,-1.027507,1.800527,0.499337,0.043884,-0.614918,-0.410072,-0.265709,-0.613075,0.629178,0.253312,1.121564,34.262737,20.131943,9.179869,0.141385,1.754256,0.100570,0.000000,0.000000,0.000000,0.000000,0.000000,0.000000
13152787.000000,2.303018,-1.061194,-1.891165,-1.472125,-1.028122,1.801152,0.499586,0.043409,-0.617474,-0.413464,-0.264537,-0.617932,0.628808,0.248180,1.216779,34.238934,20.278732,9.179869,0.195402,1.819259,0.140853,0.000000,0.000000,0.000000,0.000000,0.000000,0.000000
13152788.000000,2.303061,-1.061830,-1.891581,-1.472399,-1.028741,1.801777,0.499836,0.040659,-0.622201,-0.424147,-0.265620,-0.616572,0.625380,0.249535,1.292158,34.310345,20.429489,9.231443,0.201810,1.773483,0.087753,0.000000,0.000000,0.000000,0.000000,0.000000,0.000000
13152789.000000,2.303103,-1.062466,-1.891996,-1.472660,-1.029366,1.802407,0.500082,0.040452,-0.630646,-0.423099,-0.261875,-0.618488,0.626689,0.247446,1.415143,34.480938,20.500900,9.231443,0.201810,1.727706,0.100570,0.000000,0.000000,0.000000,0.000000,0.000000,0.000000
13152790.000000,2.303147,-1.063096,-1.892424,-1.472925,-1.029983,1.803027,0.500333,0.041332,-0.622814,-0.424282,-0.260570,-0.616595,0.619277,0.248578,1.514325,34.480938,20.671494,9.306822,0.195402,1.767074,0.081344,0.000000,0.000000,0.000000,0.000000,0.000000,0.000000
13152791.000000,2.303189,-1.063723,-1.892852,-1.473185,-1.030612,1.803645,0.500572,0.041710,-0.624283,-0.425480,-0.261867,-0.623169,0.619654,0.246542,1.613508,34.480938,20.846054,9.330626,0.237516,1.779891,0.107894,0.000000,0.000000,0.000000,0.000000,0.000000,0.000000
13152792.000000,2.303231,-1.064358,-1.893274,-1.473447,-1.031237,1.804270,0.500812,0.041309,-0.624432,-0.420687,-0.258226,-0.621229,0.615615,0.244512,1.740461,34.480938,20.945236,9.306822,0.279630,1.754256,0.147262,0.000000,0.000000,0.000000,0.000000,0.000000,0.000000
13152793.000000,2.303278,-1.064999,-1.893693,-1.473713,-1.031871,1.804884,0.501053,0.043181,-0.630734,-0.423265,-0.257629,-0.626773,0.616331,0.247219,1.788068,34.580120,21.016647,9.354429,0.303434,1.779891,0.087753,0.000000,0.000000,0.000000,0.000000,0.000000,0.000000
13152794.000000,2.303321,-1.065622,-1.894111,-1.473985,-1.032492,1.805493,0.501285,0.042743,-0.623094,-0.420883,-0.265720,-0.618871,0.610466,0.246147,1.911054,34.556316,21.016647,9.501219,0.225614,1.858627,0.114303,0.000000,0.000000,0.000000,0.000000,0.000000,0.000000
13152795.000000,2.303365,-1.066247,-1.894538,-1.474251,-1.033112,1.806114,0.501529,0.046087,-0.616420,-0.422164,-0.262136,-0.628020,0.611379,0.243080,2.010236,34.433331,21.040451,9.552794,0.178007,1.890670,0.061202,0.000000,0.000000,0.000000,0.000000,0.000000,0.000000
13152796.000000,2.303410,-1.066868,-1.894951,-1.474508,-1.033748,1.806727,0.501755,0.045822,-0.616207,-0.419963,-0.259691,-0.628299,0.610545,0.236526,2.085615,34.286541,21.040451,9.576597,0.201810,1.871444,0.120712,0.000000,0.000000,0.000000,0.000000,0.000000,0.000000
13152797.000000,2.303463,-1.067491,-1.895370,-1.474771,-1.034380,1.807345,0.501996,0.047835,-0.616134,-0.421123,-0.262271,-0.632688,0.608576,0.234495,2.061811,33.992962,21.016647,9.651976,0.225614,1.877853,0.094161,0.000000,0.000000,0.000000,0.000000,0.000000,0.000000
13152798.000000,2.303506,-1.068114,-1.895789,-1.475028,-1.035019,1.807958,0.502232,0.046234,-0.613545,-0.419783,-0.259037,-0.632578,0.600862,0.231440,2.184797,33.723186,21.016647,9.651976,0.285123,1.930038,0.054794,0.000000,0.000000,0.000000,0.000000,0.000000,0.000000
13152799.000000,2.303559,-1.068741,-1.896209,-1.475286,-1.035664,1.808569,0.502460,0.047568,-0.616891,-0.423759,-0.259389,-0.636496,0.601651,0.228870,2.184797,33.647808,21.092026,9.751158,0.339139,1.936446,0.087753,0.000000,0.000000,0.000000,0.000000,0.000000,0.000000
13152800.000000,2.303615,-1.069379,-1.896612,-1.475529,-1.036294,1.809190,0.502698,0.049192,-0.617192,-0.413766,-0.257564,-0.634839,0.599056,0.233346,2.160993,33.576397,20.945236,9.651976,0.386747,1.865035,0.074935,0.000000,0.000000,0.000000,0.000000,0.000000,0.000000
13152801.000000,2.303671,-1.070026,-1.897024,-1.475775,-1.036932,1.809809,0.502928,0.052793,-0.641300,-0.415047,-0.256490,-0.633157,0.603764,0.230833,2.160993,33.794598,20.969040,9.600401,0.339139,1.760665,0.094161,0.000000,0.000000,0.000000,0.000000,0.000000,0.000000
13152802.000000,2.303732,-1.070679,-1.897425,-1.476026,-1.037553,1.810420,0.503157,0.056724,-0.648469,-0.411627,-0.253468,-0.631523,0.603142,0.229467,2.109418,33.969158,20.822250,9.651976,0.315336,1.767074,0.107894,0.000000,0.000000,0.000000,0.000000,0.000000,0.000000
13152803.000000,2.303796,-1.071326,-1.897831,-1.476266,-1.038181,1.811042,0.503387,0.057321,-0.647482,-0.409312,-0.252671,-0.627286,0.601784,0.230445,2.010236,34.040569,20.671494,9.651976,0.249418,1.800033,0.087753,0.000000,0.000000,0.000000,0.000000,0.000000,0.000000
13152804.000000,2.303861,-1.071972,-1.898232,-1.476501,-1.038807,1.811649,0.503617,0.060274,-0.645736,-0.408246,-0.247241,-0.620041,0.600566,0.230865,1.934858,34.187359,20.671494,9.576597,0.201810,1.838485,0.048385,0.000000,0.000000,0.000000,0.000000,0.000000,0.000000
13152805.000000,2.303935,-1.072628,-1.898624,-1.476740,-1.039437,1.812270,0.503840,0.067887,-0.645426,-0.401941,-0.245161,-0.622038,0.604095,0.231080,1.764264,34.286541,20.477097,9.600401,0.219205,1.851302,0.127120,0.000000,0.000000,0.000000,0.000000,0.000000,0.000000
13152806.000000,2.304011,-1.073289,-1.899020,-1.476977,-1.040054,1.812879,0.504075,0.070795,-0.647665,-0.410096,-0.241134,-0.616780,0.603426,0.237207,1.565900,34.457134,20.354111,9.628172,0.141385,1.884261,0.094161,0.000000,0.000000,0.000000,0.000000,0.000000,0.000000
13152807.000000,2.304085,-1.073934,-1.899419,-1.477211,-1.040685,1.813511,0.504303,0.071243,-0.649412,-0.405296,-0.242096,-0.616774,0.605671,0.233352,1.442914,34.504742,20.207321,9.699583,0.088285,1.832076,0.114303,0.000000,0.000000,0.000000,0.000000,0.000000,0.000000
13152808.000000,2.304164,-1.074592,-1.899810,-1.477452,-1.041300,1.814146,0.504540,0.071201,-0.641317,-0.400363,-0.239940,-0.615374,0.608209,0.232978,1.315961,34.603924,20.008957,9.798765,0.093778,1.735030,0.081344,0.000000,0.000000,0.000000,0.000000,0.000000,0.000000
13152809.000000,2.304247,-1.075232,-1.900195,-1.477692,-1.041939,1.814772,0.504765,0.075692,-0.637878,-0.397340,-0.240248,-0.619616,0.612207,0.230384,1.145368,34.504742,19.814560,9.973326,0.178007,1.714889,0.107894,0.000000,0.000000,0.000000,0.000000,0.000000,0.000000
13152810.000000,2.304326,-1.075879,-1.900592,-1.477922,-1.042555,1.815396,0.504988,0.076944,-0.637894,-0.397073,-0.237859,-0.622819,0.603991,0.228227,1.046186,34.357952,19.715378,10.048704,0.207303,1.708480,0.133529,0.000000,0.000000,0.000000,0.000000,0.000000,0.000000
13152811.000000,2.304410,-1.076545,-1.900983,-1.478159,-1.043193,1.816011,0.505224,0.076221,-0.645516,-0.398858,-0.237074,-0.623643,0.607156,0.235146,0.895429,34.504742,19.544785,10.171690,0.225614,1.754256,0.067611,0.000000,0.000000,0.000000,0.000000,0.000000,0.000000
13152812.000000,2.304494,-1.077199,-1.901373,-1.478391,-1.043827,1.816626,0.505449,0.078057,-0.649713,-0.398221,-0.236621,-0.625586,0.600049,0.230852,0.772443,34.603924,19.421799,10.294676,0.231107,1.793624,0.114303,0.000000,0.000000,0.000000,0.000000,0.000000,0.000000
13152813.000000,2.304585,-1.077863,-1.901763,-1.478620,-1.044450,1.817258,0.505682,0.080029,-0.646591,-0.396660,-0.230841,-0.621060,0.603147,0.231006,0.625654,34.774517,19.298813,10.342283,0.135892,1.695663,0.081344,0.000000,0.000000,0.000000,0.000000,0.000000,0.000000
13152814.000000,2.304674,-1.078521,-1.902157,-1.478845,-1.045071,1.817867,0.505906,0.084178,-0.649040,-0.397649,-0.230850,-0.616855,0.598925,0.224604,0.502668,34.945110,19.251205,10.417662,0.027860,1.682845,0.107894,0.000000,0.000000,0.000000,0.000000,0.000000,0.000000
13152815.000000,2.304768,-1.079185,-1.902544,-1.479075,-1.045703,1.818484,0.506129,0.085531,-0.650598,-0.392509,-0.230531,-0.618863,0.599125,0.224517,0.328107,34.996685,19.076645,10.465269,0.022367,1.689254,0.107894,0.000000,0.000000,0.000000,0.000000,0.000000,0.000000
13152816.000000,2.304859,-1.079849,-1.902943,-1.479305,-1.046341,1.819093,0.506357,0.091006,-0.651675,-0.392562,-0.227462,-0.630962,0.598372,0.224256,0.205121,35.044292,19.076645,10.540648,0.040677,1.735030,0.127120,0.000000,0.000000,0.000000,0.000000,0.000000,0.000000
13152817.000000,2.304953,-1.080506,-1.903325,-1.479520,-1.046988,1.819696,0.506598,0.092482,-0.654821,-0.393448,-0.221163,-0.629659,0.595095,0.226974,0.078168,35.044292,18.981430,10.564451,0.046171,1.747848,0.067611,0.000000,0.000000,0.000000,0.000000,0.000000,0.000000
13152818.000000,2.305045,-1.081162,-1.903714,-1.479740,-1.047625,1.820299,0.506825,0.091469,-0.650337,-0.390472,-0.222621,-0.637798,0.589769,0.224663,0.030561,34.921307,18.906052,10.616026,0.129484,1.793624,0.127120,0.000000,0.000000,0.000000,0.000000,0.000000,0.000000
13152819.000000,2.305144,-1.081811,-1.904117,-1.479956,-1.048270,1.820905,0.507061,0.093520,-0.647355,-0.398327,-0.226103,-0.638170,0.589168,0.226663,-0.116229,34.750713,19.076645,10.663633,0.141385,1.786300,0.087753,0.000000,0.000000,0.000000,0.000000,0.000000,0.000000
13152820.000000,2.305241,-1.082468,-1.904513,-1.480174,-1.048912,1.821525,0.507293,0.093135,-0.644735,-0.393269,-0.222006,-0.648422,0.593414,0.226453,-0.191607,34.580120,19.076645,10.762815,0.183500,1.643478,0.074935,0.000000,0.000000,0.000000,0.000000,0.000000,0.000000
13152821.000000,2.305333,-1.083125,-1.904917,-1.480388,-1.049560,1.822133,0.507524,0.091767,-0.645193,-0.394848,-0.218389,-0.648091,0.593235,0.228842,-0.191607,34.385723,19.175827,10.861998,0.225614,1.695663,0.100570,0.000000,0.000000,0.000000,0.000000,0.000000,0.000000
13152822.000000,2.305429,-1.083774,-1.905314,-1.480593,-1.050202,1.822718,0.507757,0.096159,-0.649909,-0.398335,-0.213590,-0.648689,0.588267,0.228643,-0.266986,34.187359,19.251205,10.861998,0.189908,1.779891,0.087753,0.000000,0.000000,0.000000,0.000000,0.000000,0.000000
13152823.000000,2.305528,-1.084421,-1.905718,-1.480799,-1.050847,1.823322,0.507986,0.097940,-0.647206,-0.400939,-0.209175,-0.644021,0.585135,0.222542,-0.314593,33.893780,19.346420,10.838194,0.231107,1.806442,0.100570,0.000000,0.000000,0.000000,0.000000,0.000000,0.000000
13152824.000000,2.305629,-1.085075,-1.906118,-1.481007,-1.051500,1.823911,0.508214,0.097771,-0.643512,-0.409988,-0.208153,-0.648715,0.594991,0.224050,-0.389971,33.624004,19.421799,10.885801,0.249418,1.838485,0.087753,0.000000,0.000000,0.000000,0.000000,0.000000,0.000000
13152825.000000,2.305724,-1.085736,-1.906520,-1.481203,-1.052145,1.824507,0.508436,0.097253,-0.646877,-0.406997,-0.202992,-0.642493,0.596451,0.222705,-0.342364,33.600201,19.520981,10.885801,0.249418,1.871444,0.127120,0.000000,0.000000,0.000000,0.000000,0.000000,0.000000
13152826.000000,2.305815,-1.086408,-1.906924,-1.481396,-1.052783,1.825097,0.508668,0.096806,-0.649407,-0.405664,-0.199598,-0.645392,0.591118,0.226560,-0.266986,33.647808,19.544785,10.786619,0.166105,1.930038,0.067611,0.000000,0.000000,0.000000,0.000000,0.000000,0.000000
13152827.000000,2.305912,-1.087075,-1.907328,-1.481593,-1.053430,1.825690,0.508895,0.097561,-0.657473,-0.403341,-0.196879,-0.644503,0.595921,0.230890,-0.266986,33.794598,19.616196,10.786619,0.171598,1.890670,0.074935,0.000000,0.000000,0.000000,0.000000,0.000000,0.000000
13152828.000000,2.306010,-1.087748,-1.907742,-1.481785,-1.054077,1.826289,0.509122,0.098617,-0.662868,-0.402321,-0.193654,-0.636478,0.594100,0.227265,-0.266986,33.941387,19.739182,10.739012,0.171598,1.838485,0.127120,0.000000,0.000000,0.000000,0.000000,0.000000,0.000000
13152829.000000,2.306105,-1.088436,-1.908139,-1.481967,-1.054726,1.826882,0.509361,0.097880,-0.662620,-0.399831,-0.189083,-0.634111,0.592036,0.234498,-0.215411,34.163555,19.766953,10.592222,0.189908,1.838485,0.054794,0.000000,0.000000,0.000000,0.000000,0.000000,0.000000
13152830.000000,2.306191,-1.089123,-1.908549,-1.482158,-1.055390,1.827467,0.509591,0.095461,-0.668457,-0.401638,-0.192606,-0.644969,0.589536,0.231963,-0.068621,34.409527,19.814560,10.592222,0.249418,1.838485,0.087753,0.000000,0.000000,0.000000,0.000000,0.000000,0.000000
13152831.000000,2.306288,-1.089808,-1.908957,-1.482349,-1.056036,1.828060,0.509822,0.095848,-0.671582,-0.400015,-0.190638,-0.645049,0.592595,0.231703,-0.017047,34.532513,19.790756,10.564451,0.267728,1.819259,0.061202,0.000000,0.000000,0.000000,0.000000,0.000000,0.000000
13152832.000000,2.306381,-1.090487,-1.909357,-1.482533,-1.056693,1.828651,0.510048,0.094883,-0.672399,-0.396239,-0.189886,-0.649260,0.588314,0.233700,0.078168,34.679302,19.739182,10.540648,0.279630,1.760665,0.094161,0.000000,0.000000,0.000000,0.000000,0.000000,0.000000
13152833.000000,2.306476,-1.091176,-1.909768,-1.482711,-1.057330,1.829242,0.510283,0.096061,-0.677124,-0.397575,-0.184946,-0.662337,0.589088,0.235815,0.105939,34.873699,19.862167,10.465269,0.279630,1.695663,0.074935,0.000000,0.000000,0.000000,0.000000,0.000000,0.000000
13152834.000000,2.306560,-1.091865,-1.910169,-1.482895,-1.057977,1.829825,0.510508,0.092990,-0.679786,-0.396527,-0.187212,-0.656558,0.585008,0.234572,0.276533,35.020489,19.766953,10.516844,0.225614,1.767074,0.074935,0.000000,0.000000,0.000000,0.000000,0.000000,0.000000
13152835.000000,2.306652,-1.092535,-1.910565,-1.483067,-1.058625,1.830400,0.510739,0.089867,-0.674970,-0.393190,-0.182777,-0.655695,0.587871,0.233250,0.375715,34.996685,19.691574,10.441465,0.178007,1.819259,0.048385,0.000000,0.000000,0.000000,0.000000,0.000000,0.000000
13152836.000000,2.306748,-1.093219,-1.910974,-1.483240,-1.059266,1.830986,0.510962,0.089059,-0.669693,-0.392197,-0.176754,-0.654249,0.584636,0.230155,0.403486,34.945110,19.715378,10.393858,0.171598,1.851302,0.081344,0.000000,0.000000,0.000000,0.000000,0.000000,0.000000
13152837.000000,2.306841,-1.093888,-1.911366,-1.483405,-1.059911,1.831565,0.511187,0.088750,-0.682820,-0.390749,-0.176570,-0.654632,0.585290,0.233749,0.427289,34.774517,19.667770,10.294676,0.166105,1.838485,0.087753,0.000000,0.000000,0.000000,0.000000,0.000000,0.000000
13152838.000000,2.306928,-1.094567,-1.911762,-1.483562,-1.060550,1.832153,0.511418,0.085955,-0.678195,-0.390712,-0.170147,-0.652644,0.584215,0.231912,0.550275,34.627728,19.544785,10.143919,0.154203,1.865035,0.094161,0.000000,0.000000,0.000000,0.000000,0.000000,0.000000
13152839.000000,2.307028,-1.095256,-1.912161,-1.483718,-1.061196,1.832741,0.511653,0.087595,-0.683206,-0.394206,-0.166382,-0.653903,0.587769,0.232609,0.526471,34.580120,19.421799,10.048704,0.129484,1.890670,0.054794,0.000000,0.000000,0.000000,0.000000,0.000000,0.000000
13152840.000000,2.307119,-1.095946,-1.912554,-1.483869,-1.061846,1.833335,0.511881,0.088756,-0.686391,-0.391334,-0.162317,-0.650568,0.589662,0.231144,0.625654,34.750713,19.322617,9.874144,0.154203,1.825668,0.048385,0.000000,0.000000,0.000000,0.000000,0.000000,0.000000
13152841.000000,2.307218,-1.096643,-1.912952,-1.484012,-1.062486,1.833937,0.512103,0.091876,-0.683865,-0.389895,-0.151424,-0.654039,0.587656,0.226339,0.625654,34.897503,19.275009,9.651976,0.178007,1.676437,0.107894,0.000000,0.000000,0.000000,0.000000,0.000000,0.000000
13152842.000000,2.307321,-1.097349,-1.913349,-1.484154,-1.063127,1.834534,0.512335,0.093044,-0.685471,-0.402125,-0.145525,-0.647041,0.603755,0.224033,0.550275,35.020489,19.223434,9.501219,0.147794,1.624252,0.061202,0.000000,0.000000,0.000000,0.000000,0.000000,0.000000
13152843.000000,2.307421,-1.098053,-1.913755,-1.484283,-1.063780,1.835124,0.512563,0.095354,-0.691476,-0.402728,-0.136989,-0.651635,0.598271,0.223072,0.550275,35.238689,19.223434,9.306822,0.159696,1.630660,0.094161,0.000000,0.000000,0.000000,0.000000,0.000000,0.000000
13152844.000000,2.307524,-1.098764,-1.914173,-1.484409,-1.064411,1.835723,0.512802,0.097447,-0.693991,-0.407138,-0.132714,-0.645472,0.594068,0.225506,0.526471,35.460857,19.298813,9.084654,0.112089,1.630660,0.054794,0.000000,0.000000,0.000000,0.000000,0.000000,0.000000
13152845.000000,2.307628,-1.099483,-1.914574,-1.484535,-1.065061,1.836305,0.513026,0.099729,-0.706308,-0.400380,-0.131560,-0.648690,0.587722,0.224228,0.474897,35.901226,19.322617,8.933897,0.112089,1.611434,0.094161,0.000000,0.000000,0.000000,0.000000,0.000000,0.000000
13152846.000000,2.307730,-1.100201,-1.914981,-1.484665,-1.065704,1.836900,0.513259,0.099612,-0.712993,-0.401601,-0.131951,-0.639804,0.586210,0.221014,0.474897,36.123394,19.346420,8.834715,0.123990,1.597701,0.061202,0.000000,0.000000,0.000000,0.000000,0.000000,0.000000
13152847.000000,2.307835,-1.100907,-1.915392,-1.484794,-1.066354,1.837489,0.513475,0.100516,-0.706845,-0.403846,-0.130623,-0.637756,0.581576,0.220986,0.427289,36.171001,19.421799,8.810911,0.052579,1.584884,0.094161,0.000000,0.000000,0.000000,0.000000,0.000000,0.000000
13152848.000000,2.307939,-1.101603,-1.915803,-1.484921,-1.067010,1.838075,0.513709,0.103655,-0.697362,-0.405883,-0.130620,-0.640931,0.583584,0.223785,0.427289,36.123394,19.520981,8.834715,0.069974,1.552840,0.061202,0.000000,0.000000,0.000000,0.000000,0.000000,0.000000
13152849.000000,2.308045,-1.102309,-1.916222,-1.485047,-1.067673,1.838660,0.513941,0.104699,-0.695362,-0.408954,-0.130044,-0.649932,0.574577,0.224817,0.474897,36.071819,19.715378,8.858519,0.159696,1.513473,0.041976,0.000000,0.000000,0.000000,0.000000,0.000000,0.000000
13152850.000000,2.308146,-1.103022,-1.916633,-1.485174,-1.068330,1.839235,0.514163,0.103050,-0.713130,-0.414116,-0.133881,-0.646998,0.575234,0.225160,0.502668,36.270184,19.885971,8.957701,0.178007,1.559249,0.061202,0.000000,0.000000,0.000000,0.000000,0.000000,0.000000
13152851.000000,2.308249,-1.103740,-1.917058,-1.485294,-1.068987,1.839799,0.514385,0.104385,-0.710589,-0.417909,-0.131240,-0.660945,0.566393,0.222936,0.550275,36.440777,20.060532,8.933897,0.183500,1.735030,0.114303,0.000000,0.000000,0.000000,0.000000,0.000000,0.000000
13152852.000000,2.308346,-1.104459,-1.917483,-1.485428,-1.069646,1.840375,0.514607,0.106658,-0.714092,-0.419327,-0.133248,-0.669216,0.568466,0.227872,0.649457,36.587566,20.183517,9.084654,0.207303,1.806442,0.094161,0.000000,0.000000,0.000000,0.000000,0.000000,0.000000
13152853.000000,2.308453,-1.105159,-1.917907,-1.485555,-1.070309,1.840958,0.514833,0.106008,-0.714712,-0.423421,-0.132750,-0.668583,0.571999,0.229272,0.649457,36.611370,20.429489,9.156065,0.117582,1.708480,0.041976,0.000000,0.000000,0.000000,0.000000,0.000000,0.000000
13152854.000000,2.308555,-1.105874,-1.918333,-1.485678,-1.070974,1.841544,0.515051,0.103331,-0.712262,-0.425566,-0.130785,-0.669314,0.573863,0.226391,0.697065,36.710552,20.552475,9.179869,0.147794,1.572067,0.094161,0.000000,0.000000,0.000000,0.000000,0.000000,0.000000
13152855.000000,2.308659,-1.106594,-1.918760,-1.485799,-1.071641,1.842096,0.515272,0.104952,-0.719519,-0.436869,-0.129609,-0.667138,0.566477,0.227530,0.748639,36.781963,20.746872,9.231443,0.159696,1.708480,0.067611,0.000000,0.000000,0.000000,0.000000,0.000000,0.000000
13152856.000000,2.308770,-1.107315,-1.919198,-1.485915,-1.072312,1.842647,0.515489,0.107088,-0.716235,-0.435063,-0.123976,-0.677886,0.561078,0.225648,0.748639,36.980328,20.945236,9.179869,0.183500,1.851302,0.094161,0.000000,0.000000,0.000000,0.000000,0.000000,0.000000
13152857.000000,2.308881,-1.108036,-1.919635,-1.486027,-1.072979,1.843212,0.515711,0.109068,-0.714560,-0.434483,-0.116705,-0.675397,0.560315,0.226177,0.724836,37.004131,21.163437,9.132261,0.237516,1.909896,0.048385,0.000000,0.000000,0.000000,0.000000,0.000000,0.000000
13152858.000000,2.308997,-1.108748,-1.920067,-1.486136,-1.073655,1.843781,0.515916,0.112289,-0.714992,-0.432622,-0.114297,-0.676333,0.562293,0.221422,0.625654,37.027935,21.337997,9.056883,0.279630,1.786300,0.094161,0.000000,0.000000,0.000000,0.000000,0.000000,0.000000
13152859.000000,2.309106,-1.109467,-1.920505,-1.486249,-1.074305,1.844354,0.516137,0.111714,-0.717720,-0.430082,-0.112451,-0.665792,0.559616,0.223849,0.649457,37.027935,21.484787,8.985472,0.237516,1.714889,0.054794,0.000000,0.000000,0.000000,0.000000,0.000000,0.000000
13152860.000000,2.309214,-1.110189,-1.920941,-1.486366,-1.074977,1.844905,0.516348,0.108810,-0.719503,-0.433080,-0.113425,-0.666146,0.555816,0.219029,0.697065,36.980328,21.679184,9.009275,0.237516,1.735030,0.074935,0.000000,0.000000,0.000000,0.000000,0.000000,0.000000
13152861.000000,2.309324,-1.110896,-1.921379,-1.486475,-1.075650,1.845462,0.516558,0.109263,-0.719483,-0.431111,-0.110310,-0.666595,0.549834,0.214566,0.724836,36.881145,21.825974,9.009275,0.279630,1.832076,0.114303,0.000000,0.000000,0.000000,0.000000,0.000000,0.000000
13152862.000000,2.309436,-1.111620,-1.921820,-1.486579,-1.076318,1.846021,0.516784,0.110546,-0.720000,-0.432157,-0.108644,-0.669853,0.547526,0.221223,0.724836,36.881145,21.972763,8.910093,0.315336,1.871444,0.048385,0.000000,0.000000,0.000000,0.000000,0.000000,0.000000
13152863.000000,2.309541,-1.112326,-1.922256,-1.486684,-1.076984,1.846577,0.516997,0.111563,-0.710161,-0.435811,-0.106771,-0.667378,0.550384,0.217483,0.847822,36.758160,22.071945,8.910093,0.344633,1.923629,0.054794,0.000000,0.000000,0.000000,0.000000,0.000000,0.000000
13152864.000000,2.309652,-1.113040,-1.922692,-1.486796,-1.077643,1.847135,0.517209,0.111301,-0.702163,-0.431275,-0.107643,-0.654898,0.548086,0.214468,0.895429,36.611370,22.147324,9.009275,0.267728,1.949264,0.054794,0.000000,0.000000,0.000000,0.000000,0.000000,0.000000
13152865.000000,2.309754,-1.113773,-1.923130,-1.486903,-1.078308,1.847701,0.517413,0.109024,-0.707939,-0.431321,-0.109984,-0.659489,0.554853,0.210290,1.022382,36.710552,22.218735,9.056883,0.219205,1.903487,0.120712,0.000000,0.000000,0.000000,0.000000,0.000000,0.000000
13152866.000000,2.309862,-1.114501,-1.923561,-1.487005,-1.078974,1.848264,0.517633,0.109303,-0.714006,-0.434529,-0.108098,-0.655411,0.556059,0.211761,1.069990,36.881145,22.270309,9.084654,0.178007,1.825668,0.067611,0.000000,0.000000,0.000000,0.000000,0.000000,0.000000
13152867.000000,2.309969,-1.115247,-1.923999,-1.487107,-1.079634,1.848815,0.517843,0.108345,-0.719896,-0.435791,-0.102756,-0.662093,0.555338,0.209081,1.169172,37.198528,22.317917,9.084654,0.189908,1.871444,0.107894,0.000000,0.000000,0.000000,0.000000,0.000000,0.000000
13152868.000000,2.310067,-1.115972,-1.924428,-1.487211,-1.080304,1.849355,0.518060,0.105839,-0.739118,-0.431362,-0.103827,-0.658706,0.554791,0.210176,1.343732,37.345318,22.365524,9.179869,0.195402,1.955673,0.067611,0.000000,0.000000,0.000000,0.000000,0.000000,0.000000
13152869.000000,2.310168,-1.116708,-1.924858,-1.487317,-1.080975,1.849906,0.518272,0.101565,-0.742123,-0.431021,-0.102593,-0.680635,0.553524,0.207980,1.490522,37.515911,22.393295,9.306822,0.249418,1.949264,0.094161,0.000000,0.000000,0.000000,0.000000,0.000000,0.000000
13152870.000000,2.310272,-1.117447,-1.925288,-1.487422,-1.081645,1.850468,0.518485,0.101866,-0.742194,-0.428863,-0.101251,-0.674878,0.558262,0.214134,1.641279,37.714275,22.365524,9.429808,0.291532,1.909896,0.081344,0.000000,0.000000,0.000000,0.000000,0.000000,0.000000
13152871.000000,2.310379,-1.118172,-1.925715,-1.487519,-1.082325,1.851021,0.518703,0.104005,-0.734647,-0.429079,-0.101594,-0.675667,0.552734,0.217090,1.712690,37.833294,22.393295,9.477415,0.297025,1.858627,0.081344,0.000000,0.000000,0.000000,0.000000,0.000000,0.000000
13152872.000000,2.310483,-1.118901,-1.926134,-1.487615,-1.082986,1.851582,0.518920,0.103277,-0.724817,-0.424258,-0.098816,-0.667690,0.549620,0.213501,1.863447,37.861065,22.242538,9.528990,0.273221,1.865035,0.107894,0.000000,0.000000,0.000000,0.000000,0.000000,0.000000
13152873.000000,2.310586,-1.119621,-1.926551,-1.487706,-1.083653,1.852130,0.519143,0.105034,-0.717172,-0.432361,-0.096370,-0.662596,0.548469,0.218723,1.934858,37.662701,22.095749,9.552794,0.201810,1.871444,0.054794,0.000000,0.000000,0.000000,0.000000,0.000000,0.000000
13152874.000000,2.310694,-1.120335,-1.926973,-1.487800,-1.084318,1.852692,0.519355,0.105653,-0.713986,-0.427057,-0.095605,-0.665499,0.552065,0.218392,2.034040,37.420696,22.024338,9.628172,0.189908,1.884261,0.120712,0.000000,0.000000,0.000000,0.000000,0.000000,0.000000
13152875.000000,2.310807,-1.121055,-1.927388,-1.487892,-1.084980,1.853253,0.519575,0.108711,-0.714422,-0.421550,-0.089949,-0.667698,0.549250,0.218189,2.010236,37.174725,21.778366,9.628172,0.147794,1.923629,0.061202,0.000000,0.000000,0.000000,0.000000,0.000000,0.000000
13152876.000000,2.310911,-1.121763,-1.927796,-1.487976,-1.085650,1.853797,0.519785,0.107691,-0.713346,-0.418121,-0.084844,-0.668720,0.550980,0.219551,2.109418,36.952557,21.655380,9.576597,0.123990,1.995040,0.074935,0.000000,0.000000,0.000000,0.000000,0.000000,0.000000
13152877.000000,2.311016,-1.122490,-1.928214,-1.488061,-1.086310,1.854359,0.519998,0.107265,-0.717496,-0.415163,-0.081844,-0.666877,0.549208,0.215363,2.208601,36.928753,21.556198,9.552794,0.112089,1.995040,0.094161,0.000000,0.000000,0.000000,0.000000,0.000000,0.000000
13152878.000000,2.311126,-1.123225,-1.928620,-1.488147,-1.086976,1.854910,0.520209,0.108611,-0.721335,-0.415508,-0.081396,-0.676783,0.565672,0.214651,2.232404,36.952557,21.409409,9.600401,0.088285,1.968490,0.074935,0.000000,0.000000,0.000000,0.000000,0.000000,0.000000
13152879.000000,2.311238,-1.123948,-1.929040,-1.488220,-1.087653,1.855476,0.520423,0.109672,-0.725066,-0.419594,-0.077494,-0.673523,0.565404,0.214187,2.260175,37.004131,21.409409,9.501219,0.093778,1.851302,0.034652,0.000000,0.000000,0.000000,0.000000,0.000000,0.000000
13152880.000000,2.311353,-1.124673,-1.929458,-1.488297,-1.088336,1.856040,0.520629,0.111564,-0.721368,-0.416074,-0.076296,-0.682960,0.563672,0.210627,2.232404,37.004131,21.457016,9.477415,0.213712,1.747848,0.081344,0.000000,0.000000,0.000000,0.000000,0.000000,0.000000
13152881.000000,2.311465,-1.125397,-1.929869,-1.488363,-1.089008,1.856587,0.520833,0.108957,-0.715826,-0.416138,-0.070706,-0.677000,0.558444,0.204951,2.232404,37.075542,21.457016,9.378233,0.231107,1.760665,0.087753,0.000000,0.000000,0.000000,0.000000,0.000000,0.000000
13152882.000000,2.311574,-1.126136,-1.930288,-1.488425,-1.089686,1.857136,0.521042,0.112389,-0.718614,-0.414697,-0.066685,-0.666935,0.549652,0.205396,2.260175,37.198528,21.532394,9.279051,0.291532,1.773483,0.081344,0.000000,0.000000,0.000000,0.000000,0.000000,0.000000
13152883.000000,2.311690,-1.126883,-1.930714,-1.488492,-1.090363,1.857688,0.521251,0.114588,-0.721109,-0.410920,-0.066206,-0.666772,0.547697,0.210177,2.208601,37.369122,21.631577,9.279051,0.344633,1.812850,0.094161,0.000000,0.000000,0.000000,0.000000,0.000000,0.000000
13152884.000000,2.311807,-1.127606,-1.931119,-1.488561,-1.091040,1.858234,0.521463,0.115428,-0.722395,-0.410806,-0.066876,-0.666422,0.547231,0.205380,2.160993,37.345318,21.580002,9.330626,0.255826,1.825668,0.081344,0.000000,0.000000,0.000000,0.000000,0.000000,0.000000
13152885.000000,2.311926,-1.128322,-1.931540,-1.488629,-1.091694,1.858785,0.521671,0.118168,-0.720561,-0.408993,-0.069959,-0.666399,0.545114,0.204802,2.160993,37.127117,21.631577,9.378233,0.166105,1.844894,0.107894,0.000000,0.000000,0.000000,0.000000,0.000000,0.000000
13152886.000000,2.312052,-1.129042,-1.931955,-1.488696,-1.092379,1.859327,0.521883,0.120009,-0.736020,-0.409153,-0.069649,-0.674328,0.543134,0.207921,2.034040,37.075542,21.702988,9.453611,0.141385,1.903487,0.067611,0.000000,0.000000,0.000000,0.000000,0.000000,0.000000
13152887.000000,2.312173,-1.129773,-1.932372,-1.488761,-1.093051,1.859865,0.522087,0.118485,-0.737738,-0.408317,-0.068722,-0.690394,0.546378,0.205276,2.010236,37.075542,21.754562,9.501219,0.123990,1.981307,0.120712,0.000000,0.000000,0.000000,0.000000,0.000000,0.000000
13152888.000000,2.312293,-1.130516,-1.932799,-1.488827,-1.093743,1.860413,0.522295,0.117650,-0.739020,-0.410372,-0.065676,-0.687659,0.545817,0.209623,1.986432,37.273907,21.925156,9.576597,0.225614,2.001449,0.114303,0.000000,0.000000,0.000000,0.000000,0.000000,0.000000
13152889.000000,2.312416,-1.131230,-1.933218,-1.488889,-1.094430,1.860947,0.522510,0.120118,-0.732694,-0.411344,-0.063272,-0.692213,0.546587,0.210841,1.986432,37.246136,22.071945,9.651976,0.273221,2.007858,0.067611,0.000000,0.000000,0.000000,0.000000,0.000000,0.000000
13152890.000000,2.312545,-1.131958,-1.933642,-1.488958,-1.095110,1.861498,0.522713,0.120253,-0.723847,-0.412915,-0.064139,-0.679112,0.544062,0.203663,1.887250,37.222332,22.171127,9.850340,0.351041,1.936446,0.107894,0.000000,0.000000,0.000000,0.000000,0.000000,0.000000
13152891.000000,2.312674,-1.132687,-1.934063,-1.489014,-1.095789,1.862040,0.522916,0.119860,-0.717687,-0.419092,-0.060771,-0.680334,0.550989,0.200043,1.811872,37.174725,22.270309,9.874144,0.398649,1.819259,0.107894,0.000000,0.000000,0.000000,0.000000,0.000000,0.000000
13152892.000000,2.312809,-1.133408,-1.934485,-1.489070,-1.096453,1.862580,0.523120,0.123830,-0.718590,-0.416463,-0.061359,-0.672208,0.543496,0.201188,1.688886,37.099346,22.365524,9.897947,0.351041,1.851302,0.120712,0.000000,0.000000,0.000000,0.000000,0.000000,0.000000
13152893.000000,2.312945,-1.134144,-1.934907,-1.489123,-1.097118,1.863103,0.523325,0.130276,-0.720175,-0.412157,-0.057540,-0.670853,0.533372,0.200107,1.565900,37.127117,22.365524,9.874144,0.273221,2.001449,0.067611,0.000000,0.000000,0.000000,0.000000,0.000000,0.000000
13152894.000000,2.313081,-1.134872,-1.935316,-1.489166,-1.097785,1.863622,0.523524,0.134721,-0.722711,-0.408367,-0.053208,-0.665209,0.533419,0.202695,1.442914,37.150921,22.317917,9.774961,0.231107,2.112228,0.087753,0.000000,0.000000,0.000000,0.000000,0.000000,0.000000
13152895.000000,2.313225,-1.135607,-1.935733,-1.489209,-1.098447,1.864151,0.523729,0.139561,-0.727512,-0.409621,-0.047565,-0.666351,0.529550,0.199148,1.244550,37.174725,22.317917,9.699583,0.147794,2.169906,0.081344,0.000000,0.000000,0.000000,0.000000,0.000000,0.000000
13152896.000000,2.313366,-1.136337,-1.936139,-1.489250,-1.099118,1.864864,0.523961,0.136636,-0.729903,-0.407934,-0.043546,-0.666755,0.595641,0.208522,1.093793,36.980328,22.317917,9.628172,0.147794,0.518295,-0.241837,0.000000,0.000000,0.000000,0.000000,0.000000,0.000000
13152897.000000,2.313504,-1.137048,-1.936570,-1.489309,-1.099979,1.865971,0.524123,0.138720,-0.726538,-0.409248,-0.047647,-0.727233,0.776170,0.193987,0.994611,36.682781,22.563889,9.850340,1.677640,-4.436540,0.120712,0.000000,0.000000,0.000000,0.000000,0.000000,0.000000
13152898.000000,2.313614,-1.137795,-1.937013,-1.489375,-1.100711,1.866649,0.524353,0.124932,-0.731488,-0.418106,-0.056073,-0.742042,0.752391,0.207806,1.415143,36.781963,22.932846,10.195494,2.053922,-4.723100,-0.130143,0.000000,0.000000,0.000000,0.000000,0.000000,0.000000
13152899.000000,2.313706,-1.138585,-1.937284,-1.489323,-1.101423,1.867488,0.524507,0.114668,-0.748011,-0.367959,-0.019945,-0.729183,0.784127,0.191722,2.010236,37.638897,20.992844,8.886290,2.018217,-5.905961,0.291915,0.000000,0.000000,0.000000,0.000000,0.000000,0.000000
13152900.000000,2.313919,-1.139427,-1.937575,-1.489224,-1.102302,1.868360,0.524790,0.145248,-0.774815,-0.336331,0.021372,-0.797523,0.812219,0.222238,0.895429,39.059185,19.397995,6.981993,3.351224,-6.829728,-0.413041,0.000000,0.000000,0.000000,0.000000,0.000000,0.000000
13152901.000000,2.314117,-1.140263,-1.937891,-1.489150,-1.102996,1.869069,0.524895,0.166641,-0.785904,-0.323119,0.039017,-0.762023,0.776843,0.184294,-0.044818,40.185894,18.291122,5.648985,2.831205,-5.783280,0.470443,0.000000,0.000000,0.000000,0.000000,0.000000,0.000000
13152902.000000,2.314185,-1.141053,-1.938007,-1.489048,-1.103744,1.869792,0.525117,0.133298,-0.788715,-0.250124,0.066814,-0.756725,0.749965,0.199281,0.970807,40.697674,14.609482,4.189024,2.597745,-4.807328,0.312057,0.000000,0.000000,0.000000,0.000000,0.000000,0.000000
13152903.000000,2.314304,-1.141841,-1.938131,-1.488956,-1.104576,1.870565,0.525361,0.126044,-0.781878,-0.203633,0.073871,-0.787219,0.739790,0.211144,1.343732,40.896038,11.348373,3.149595,3.189176,-4.293717,-0.064225,0.000000,0.000000,0.000000,0.000000,0.000000,0.000000
13152904.000000,2.314496,-1.142626,-1.938242,-1.488874,-1.105248,1.871367,0.525464,0.150618,-0.797340,-0.171968,0.077839,-0.741647,0.753645,0.175089,0.601850,41.114239,8.499863,2.435484,2.304777,-4.390763,0.740524,0.000000,0.000000,0.000000,0.000000,0.000000,0.000000
13152905.000000,2.314611,-1.143363,-1.938230,-1.488686,-1.106025,1.872015,0.525709,0.136031,-0.772703,-0.105292,0.115033,-0.752988,0.705434,0.198826,1.046186,40.503277,4.302475,0.432005,2.466825,-3.187760,0.232406,0.000000,0.000000,0.000000,0.000000,0.000000,0.000000
13152906.000000,2.314687,-1.144046,-1.938221,-1.488544,-1.106746,1.872569,0.525865,0.115669,-0.738404,-0.064807,0.123183,-0.748660,0.647182,0.182475,1.962629,39.182171,0.644638,-0.678835,2.138151,-1.548966,0.489669,0.000000,0.000000,0.000000,0.000000,0.000000,0.000000
13152907.000000,2.314787,-1.144659,-1.938178,-1.488428,-1.107446,1.873138,0.526051,0.108275,-0.698987,-0.027754,0.118729,-0.724166,0.617466,0.185648,2.482343,37.099346,-2.814835,-1.174745,1.684049,-0.691117,0.464034,0.000000,0.000000,0.000000,0.000000,0.000000,0.000000
13152908.000000,2.314851,-1.145213,-1.938077,-1.488269,-1.108112,1.873766,0.526259,0.091739,-0.646411,0.016490,0.130982,-0.707706,0.611234,0.190418,3.470197,34.211163,-6.571854,-2.015810,1.193326,-0.814713,0.232406,0.000000,0.000000,0.000000,0.000000,0.000000,0.000000
13152909.000000,2.314885,-1.145723,-1.937973,-1.488107,-1.108755,1.874340,0.526417,0.071544,-0.599509,0.041420,0.140377,-0.680507,0.604427,0.177784,4.707990,30.906414,-9.761551,-2.706117,0.703519,-1.003312,0.423751,0.000000,0.000000,0.000000,0.000000,0.000000,0.000000
13152910.000000,2.314904,-1.146193,-1.937815,-1.487988,-1.109398,1.874908,0.526599,0.057454,-0.556286,0.079793,0.128711,-0.666547,0.593433,0.180401,6.096540,27.554058,-13.221024,-2.583132,0.291532,-1.406144,0.443893,0.000000,0.000000,0.000000,0.000000,0.000000,0.000000
13152911.000000,2.314903,-1.146628,-1.937601,-1.487875,-1.109990,1.875428,0.526784,0.037298,-0.506217,0.120979,0.119097,-0.642584,0.573282,0.179628,7.679487,24.054913,-16.950272,-2.214174,-0.162570,-1.548966,0.398116,0.000000,0.000000,0.000000,0.000000,0.000000,0.000000
13152912.000000,2.314889,-1.147053,-1.937399,-1.487761,-1.110525,1.875844,0.526965,0.020947,-0.476233,0.148464,0.116103,-0.599192,0.521786,0.178164,9.214826,20.896954,-20.020950,-1.940431,-1.011263,-0.970353,0.371566,0.000000,0.000000,0.000000,0.000000,0.000000,0.000000
13152913.000000,2.314886,-1.147441,-1.937179,-1.487618,-1.111040,1.876276,0.527158,0.014006,-0.444514,0.168222,0.123981,-0.572486,0.487898,0.183820,10.428815,17.568401,-22.893265,-2.063417,-1.656710,-0.619706,0.291915,0.000000,0.000000,0.000000,0.000000,0.000000,0.000000
13152914.000000,2.314888,-1.147787,-1.936977,-1.487475,-1.111554,1.876794,0.527350,0.008120,-0.410617,0.173826,0.129361,-0.553268,0.498659,0.184923,11.392865,14.065289,-25.198257,-2.162599,-2.242648,-1.223954,0.206771,0.000000,0.000000,0.000000,0.000000,0.000000,0.000000
13152915.000000,2.314892,-1.148063,-1.936824,-1.487335,-1.112002,1.877281,0.527512,0.008720,-0.363290,0.164504,0.133317,-0.513517,0.498598,0.178787,12.257733,10.125774,-26.574905,-2.261781,-3.174654,-1.672562,0.384383,0.000000,0.000000,0.000000,0.000000,0.000000,0.000000
13152916.000000,2.314895,-1.148312,-1.936675,-1.487182,-1.112460,1.877768,0.527700,0.007457,-0.320643,0.153678,0.138778,-0.497994,0.500522,0.182158,13.027387,6.134686,-27.800797,-2.483949,-3.754183,-1.978348,0.365157,0.000000,0.000000,0.000000,0.000000,0.000000,0.000000
13152917.000000,2.314906,-1.148516,-1.936533,-1.487057,-1.112892,1.878265,0.527892,0.010555,-0.278729,0.144377,0.131914,-0.474441,0.504345,0.185655,13.594708,2.123760,-28.879898,-2.360964,-4.363925,-2.329911,0.318465,0.000000,0.000000,0.000000,0.000000,0.000000,0.000000
13152918.000000,2.314929,-1.148697,-1.936408,-1.486957,-1.113328,1.878767,0.528077,0.013929,-0.243506,0.134324,0.120144,-0.468079,0.505791,0.185585,13.943830,-1.914936,-29.740799,-1.940431,-4.704501,-2.537736,0.331283,0.000000,0.000000,0.000000,0.000000,0.000000,0.000000
13152919.000000,2.314945,-1.148818,-1.936296,-1.486865,-1.113808,1.879242,0.528273,0.013963,-0.203745,0.124916,0.110537,-0.471428,0.494667,0.190482,14.364362,-6.251179,-30.450943,-1.448488,-4.650485,-2.277726,0.219589,0.000000,0.000000,0.000000,0.000000,0.000000,0.000000
13152920.000000,2.314978,-1.148897,-1.936230,-1.486777,-1.114297,1.879705,0.528477,0.020113,-0.163380,0.100939,0.101447,-0.476558,0.481388,0.196823,14.511151,-10.702473,-30.649307,-0.976381,-4.489352,-1.965531,0.147262,0.000000,0.000000,0.000000,0.000000,0.000000,0.000000
13152921.000000,2.315042,-1.148938,-1.936197,-1.486694,-1.114835,1.880213,0.528682,0.035263,-0.120877,0.075958,0.092951,-0.507149,0.485708,0.197166,14.288983,-15.133930,-30.474747,-0.555849,-3.933627,-1.906937,0.067611,0.000000,0.000000,0.000000,0.000000,0.000000,0.000000
13152922.000000,2.315116,-1.148972,-1.936208,-1.486581,-1.115437,1.880750,0.528885,0.048912,-0.094263,0.045901,0.101703,-0.544364,0.503386,0.202347,13.916059,-19.319416,-29.863785,-0.655031,-3.055636,-2.212723,0.001693,0.000000,0.000000,0.000000,0.000000,0.000000,0.000000
13152923.000000,2.315214,-1.148976,-1.936253,-1.486437,-1.116033,1.881308,0.529076,0.066532,-0.063148,0.013486,0.113857,-0.573526,0.520835,0.198492,13.324933,-23.381916,-29.002884,-1.273927,-2.481600,-2.524918,0.114303,0.000000,0.000000,0.000000,0.000000,0.000000,0.000000
13152924.000000,2.315325,-1.149003,-1.936328,-1.486287,-1.116664,1.881831,0.529270,0.081367,-0.054229,-0.017455,0.126754,-0.601151,0.519507,0.197096,12.606854,-26.662861,-28.046768,-1.992006,-2.087008,-2.472733,0.180221,0.000000,0.000000,0.000000,0.000000,0.000000,0.000000
13152925.000000,2.315457,-1.149029,-1.936404,-1.486127,-1.117295,1.882322,0.529470,0.096347,-0.047080,-0.036692,0.141856,-0.609481,0.516632,0.195513,11.690412,-29.650227,-27.332657,-2.856874,-2.015597,-2.225541,0.166488,0.000000,0.000000,0.000000,0.000000,0.000000,0.000000
13152926.000000,2.315587,-1.149086,-1.936473,-1.485953,-1.117905,1.882816,0.529673,0.107734,-0.052498,-0.044848,0.154484,-0.613579,0.501862,0.192383,10.972333,-31.951252,-26.991470,-3.820925,-2.368075,-1.900529,0.199447,0.000000,0.000000,0.000000,0.000000,0.000000,0.000000
13152927.000000,2.315715,-1.149176,-1.936550,-1.485764,-1.118534,1.883291,0.529884,0.117193,-0.067269,-0.052371,0.167196,-0.617819,0.497629,0.198683,10.353436,-33.565937,-26.745499,-4.832582,-2.798373,-1.536149,0.133529,0.000000,0.000000,0.000000,0.000000,0.000000,0.000000
13152928.000000,2.315851,-1.149293,-1.936645,-1.485575,-1.119183,1.883767,0.530089,0.126662,-0.088376,-0.061632,0.173089,-0.616551,0.483038,0.201848,9.758344,-34.617268,-26.499527,-5.721254,-3.181063,-1.133317,0.100570,0.000000,0.000000,0.000000,0.000000,0.000000,0.000000
13152929.000000,2.315995,-1.149442,-1.936752,-1.485375,-1.119829,1.884253,0.530288,0.128956,-0.111781,-0.077572,0.181632,-0.626405,0.480410,0.202311,9.214826,-35.327412,-26.277359,-6.538515,-3.527133,-0.957536,0.120712,0.000000,0.000000,0.000000,0.000000,0.000000,0.000000
13152930.000000,2.316132,-1.149628,-1.936883,-1.485150,-1.120485,1.884766,0.530490,0.132146,-0.138810,-0.092709,0.198695,-0.625337,0.495847,0.200999,8.770490,-35.525776,-25.936172,-7.526369,-3.730380,-1.237687,0.061202,0.000000,0.000000,0.000000,0.000000,0.000000,0.000000
13152931.000000,2.316276,-1.149848,-1.937026,-1.484911,-1.121140,1.885318,0.530658,0.133453,-0.167618,-0.107914,0.211561,-0.629712,0.515896,0.189005,8.373761,-35.378986,-25.690201,-8.541994,-3.928133,-1.829118,0.285506,0.000000,0.000000,0.000000,0.000000,0.000000,0.000000
13152932.000000,2.316427,-1.150111,-1.937169,-1.484678,-1.121809,1.885853,0.530851,0.142162,-0.201187,-0.120757,0.217657,-0.635289,0.521757,0.189728,7.953229,-34.740253,-25.666397,-9.283876,-3.963839,-2.187089,0.279098,0.000000,0.000000,0.000000,0.000000,0.000000,0.000000
13152933.000000,2.316574,-1.150420,-1.937302,-1.484456,-1.122484,1.886355,0.531063,0.145092,-0.240624,-0.120923,0.215742,-0.646934,0.517304,0.195567,7.679487,-33.788105,-25.936172,-9.728212,-3.993136,-2.206315,0.127120,0.000000,0.000000,0.000000,0.000000,0.000000,0.000000
13152934.000000,2.316712,-1.150773,-1.937410,-1.484231,-1.123126,1.886870,0.531239,0.139023,-0.280946,-0.112663,0.216759,-0.645610,0.515217,0.187634,7.631879,-32.514606,-26.721695,-9.997988,-4.167086,-2.264909,0.305648,0.000000,0.000000,0.000000,0.000000,0.000000,0.000000
13152935.000000,2.316858,-1.151164,-1.937514,-1.483999,-1.123793,1.887368,0.531421,0.142638,-0.327116,-0.108702,0.220617,-0.647621,0.513874,0.186645,7.405744,-30.947529,-27.630203,-10.347109,-4.226595,-2.166947,0.351424,0.000000,0.000000,0.000000,0.000000,0.000000,0.000000
13152936.000000,2.317014,-1.151596,-1.937610,-1.483784,-1.124414,1.887804,0.531586,0.146262,-0.365429,-0.102331,0.220349,-0.642911,0.484149,0.179773,7.135969,-29.356647,-28.733109,-10.394716,-4.543368,-1.406144,0.549178,0.000000,0.000000,0.000000,0.000000,0.000000,0.000000
13152937.000000,2.317144,-1.152065,-1.937685,-1.483580,-1.125081,1.888167,0.531738,0.140898,-0.399193,-0.090976,0.213724,-0.644403,0.440095,0.169862,7.211347,-27.618977,-30.181168,-10.271730,-4.536959,-0.118913,0.746932,0.000000,0.000000,0.000000,0.000000,0.000000,0.000000
13152938.000000,2.317273,-1.152551,-1.937756,-1.483388,-1.125760,1.888540,0.531904,0.138074,-0.431945,-0.083105,0.204902,-0.659902,0.408798,0.170049,7.405744,-26.051899,-31.530045,-9.950380,-4.417941,0.836898,0.806442,0.000000,0.000000,0.000000,0.000000,0.000000,0.000000
13152939.000000,2.317410,-1.153059,-1.937836,-1.483198,-1.126450,1.888992,0.532053,0.134174,-0.454770,-0.082242,0.197061,-0.666650,0.416453,0.160388,7.556501,-24.655415,-32.684525,-9.676638,-4.124972,0.824081,0.964828,0.000000,0.000000,0.000000,0.000000,0.000000,0.000000
13152940.000000,2.317537,-1.153576,-1.937925,-1.483031,-1.127205,1.889433,0.532199,0.131206,-0.471797,-0.086408,0.189570,-0.700813,0.428019,0.154051,7.731061,-23.679462,-33.616837,-9.208498,-3.384310,0.622665,1.103072,0.000000,0.000000,0.000000,0.000000,0.000000,0.000000
13152941.000000,2.317651,-1.154085,-1.938019,-1.482876,-1.127984,1.889840,0.532341,0.124058,-0.481220,-0.087343,0.177161,-0.723327,0.419958,0.150744,8.123822,-23.016926,-34.402359,-8.641176,-2.559420,0.687667,1.195541,0.000000,0.000000,0.000000,0.000000,0.000000,0.000000
13152942.000000,2.317735,-1.154621,-1.938089,-1.482722,-1.128766,1.890251,0.532479,0.110396,-0.493370,-0.078169,0.170005,-0.751826,0.414907,0.149713,8.917279,-22.405964,-35.580643,-8.145266,-1.895663,0.700484,1.274276,0.000000,0.000000,0.000000,0.000000,0.000000,0.000000
13152943.000000,2.317825,-1.155152,-1.938143,-1.482577,-1.129561,1.890654,0.532622,0.105096,-0.507239,-0.067437,0.161401,-0.766566,0.416977,0.146796,9.536176,-21.965595,-36.806534,-7.748537,-1.358248,0.674850,1.261459,0.000000,0.000000,0.000000,0.000000,0.000000,0.000000
13152944.000000,2.317916,-1.155679,-1.938188,-1.482449,-1.130330,1.891054,0.532750,0.100454,-0.505470,-0.057165,0.149373,-0.767729,0.407935,0.139506,10.206647,-21.914021,-38.131607,-7.256593,-1.238314,0.778304,1.366744,0.000000,0.000000,0.000000,0.000000,0.000000,0.000000
13152945.000000,2.317983,-1.156206,-1.938228,-1.482298,-1.131097,1.891448,0.532897,0.086415,-0.506975,-0.050741,0.148558,-0.762997,0.413048,0.141809,11.071515,-22.112385,-39.432877,-7.232790,-1.441561,0.908309,1.274276,0.000000,0.000000,0.000000,0.000000,0.000000,0.000000
13152946.000000,2.318054,-1.156711,-1.938270,-1.482149,-1.131848,1.891870,0.533027,0.082416,-0.506295,-0.049250,0.149383,-0.751458,0.419213,0.137392,11.813397,-22.576557,-40.611160,-7.304201,-1.794039,0.778304,1.340194,0.000000,0.000000,0.000000,0.000000,0.000000,0.000000
13152947.000000,2.318139,-1.157210,-1.938320,-1.481995,-1.132614,1.892345,0.533179,0.084758,-0.492827,-0.051184,0.151373,-0.747868,0.433733,0.139562,12.333112,-23.334309,-41.642654,-7.478761,-1.931368,0.349838,1.255050,0.000000,0.000000,0.000000,0.000000,0.000000,0.000000
