chaoyuefei/paper-gmrm-data/robot_logs/s2_dq_mrm_min_0.50_log_20260314_174600.csv
# time_ms,q_0,q_1,q_2,q_3,q_4,q_5,q_6,dq_0,dq_1,dq_2,dq_3,dq_4,dq_5,dq_6,tau_J_0,tau_J_1,tau_J_2,tau_J_3,tau_J_4,tau_J_5,tau_J_6,O_dP_EE_c_0,O_dP_EE_c_1,O_dP_EE_c_2,O_dP_EE_c_3,O_dP_EE_c_4,O_dP_EE_c_5
13022252.000000,-2.417845,-1.662609,1.040162,-1.352905,1.798094,1.079515,-0.546495,0.000985,0.001507,-0.000599,-0.000299,-0.000059,-0.000074,-0.000567,0.006757,41.578411,-21.000870,-5.673646,0.817045,1.305648,0.041976,0.000000,0.000000,0.000000,0.000000,0.000000,0.000000
13022253.000000,-2.417845,-1.662612,1.040165,-1.352900,1.798096,1.079518,-0.546491,0.000656,-0.000202,0.000807,0.001564,0.000605,0.000188,0.000843,0.006757,41.629986,-21.052444,-5.749025,0.799650,1.299239,0.009017,0.000000,0.000000,0.000000,0.000000,0.000000,0.000000
13022254.000000,-2.417847,-1.662611,1.040159,-1.352904,1.798096,1.079519,-0.546498,-0.000119,0.000422,-0.001225,-0.000164,0.000200,0.000125,-0.001608,0.030561,41.606182,-20.977066,-5.697450,0.805143,1.299239,0.067611,0.000000,0.000000,0.000000,0.000000,0.000000,0.000000
13022255.000000,-2.417849,-1.662614,1.040159,-1.352904,1.798094,1.079516,-0.546490,-0.000636,-0.000275,-0.000817,-0.000109,-0.000308,-0.000866,0.001369,0.054365,41.629986,-20.977066,-5.697450,0.817045,1.324874,0.001693,0.000000,0.000000,0.000000,0.000000,0.000000,0.000000
13022256.000000,-2.417844,-1.662616,1.040163,-1.352905,1.798094,1.079517,-0.546498,0.005634,-0.002468,0.000569,0.001962,-0.008734,-0.001527,-0.008614,0.328107,41.578411,-21.024673,-5.649843,0.786832,1.350509,0.009017,0.000000,0.000000,0.000000,0.000000,0.000000,0.000000
13022257.000000,-2.417831,-1.662616,1.040164,-1.352904,1.798097,1.079511,-0.546507,0.016693,-0.005973,0.001872,0.003828,-0.008044,-0.002857,-0.014211,1.315961,41.312603,-20.953262,-5.475282,0.698026,1.526290,-0.037675,0.000000,0.000000,0.000000,0.000000,0.000000,0.000000
13022258.000000,-2.417806,-1.662619,1.040177,-1.352898,1.798090,1.079507,-0.546536,0.024782,-0.003945,0.004671,0.004496,-0.012238,-0.001189,-0.019502,2.950483,40.967449,-20.953262,-5.253114,0.596403,1.773483,-0.056901,0.000000,0.000000,0.000000,0.000000,0.000000,0.000000
13022259.000000,-2.417756,-1.662616,1.040191,-1.352904,1.798075,1.079529,-0.546582,0.031289,-0.001746,0.008083,0.001016,-0.013051,0.005665,-0.025303,4.759565,40.427898,-20.877884,-4.856386,0.559781,1.877853,-0.023942,0.000000,0.000000,0.000000,0.000000,0.000000,0.000000
13022260.000000,-2.417691,-1.662617,1.040213,-1.352919,1.798045,1.079577,-0.546631,0.039646,-0.001585,0.014508,-0.004691,-0.016477,0.021784,-0.035181,6.616254,39.916119,-20.830276,-4.439821,0.601896,1.806442,-0.077042,0.000000,0.000000,0.000000,0.000000,0.000000,0.000000
13022261.000000,-2.417601,-1.662616,1.040242,-1.352942,1.798005,1.079660,-0.546700,0.056067,-0.002281,0.018694,-0.011158,-0.023733,0.043895,-0.044641,8.199201,39.428143,-20.754898,-4.043092,0.649503,1.584884,-0.089860,0.000000,0.000000,0.000000,0.000000,0.000000,0.000000
13022262.000000,-2.417500,-1.662618,1.040281,-1.352978,1.797953,1.079757,-0.546791,0.067199,-0.000470,0.023222,-0.017733,-0.033020,0.067530,-0.062977,9.635358,38.983807,-20.731094,-3.697939,0.673307,1.402694,-0.050492,0.000000,0.000000,0.000000,0.000000,0.000000,0.000000
13022263.000000,-2.417388,-1.662611,1.040326,-1.353022,1.797880,1.079865,-0.546904,0.077030,0.004769,0.031693,-0.027150,-0.045362,0.084894,-0.080482,10.996137,38.519634,-20.659683,-3.424196,0.721830,1.350509,-0.044083,0.000000,0.000000,0.000000,0.000000,0.000000,0.000000
13022264.000000,-2.417262,-1.662609,1.040384,-1.353083,1.797802,1.079996,-0.547036,0.089817,0.006642,0.041404,-0.038715,-0.055616,0.105387,-0.094912,12.134748,38.130840,-20.608109,-3.102846,0.673307,1.337692,-0.110001,0.000000,0.000000,0.000000,0.000000,0.000000,0.000000
13022265.000000,-2.417120,-1.662601,1.040456,-1.353148,1.797709,1.080149,-0.547206,0.102041,0.004866,0.049831,-0.046896,-0.065992,0.121368,-0.120344,13.126569,37.738079,-20.608109,-2.928285,0.571683,1.448470,-0.064225,0.000000,0.000000,0.000000,0.000000,0.000000,0.000000
13022266.000000,-2.416968,-1.662590,1.040541,-1.353233,1.797596,1.080322,-0.547403,0.113906,0.006391,0.060103,-0.057520,-0.080348,0.143050,-0.142465,13.991437,37.369122,-20.631912,-2.706117,0.500272,1.565658,-0.050492,0.000000,0.000000,0.000000,0.000000,0.000000,0.000000
13022267.000000,-2.416806,-1.662572,1.040639,-1.353328,1.797465,1.080524,-0.547624,0.130417,0.008748,0.072602,-0.072869,-0.094598,0.161324,-0.164754,14.761090,36.952557,-20.731094,-2.559328,0.393156,1.630660,-0.116410,0.000000,0.000000,0.000000,0.000000,0.000000,0.000000
13022268.000000,-2.416617,-1.662551,1.040755,-1.353439,1.797308,1.080761,-0.547874,0.150457,0.010526,0.086688,-0.087513,-0.111958,0.187920,-0.190765,15.304608,36.535992,-20.905655,-2.436342,0.339139,1.617843,-0.070634,0.000000,0.000000,0.000000,0.000000,0.000000,0.000000
13022269.000000,-2.416413,-1.662537,1.040879,-1.353567,1.797129,1.081036,-0.548144,0.168799,0.012377,0.097872,-0.101786,-0.136900,0.210534,-0.210493,15.677533,36.242413,-21.000870,-2.313356,0.344633,1.519881,-0.103593,0.000000,0.000000,0.000000,0.000000,0.000000,0.000000
13022270.000000,-2.416192,-1.662515,1.041022,-1.353718,1.796925,1.081336,-0.548441,0.184835,0.016772,0.111033,-0.119234,-0.161101,0.241778,-0.237542,16.046492,35.829815,-21.147659,-2.190370,0.381254,1.422836,-0.064225,0.000000,0.000000,0.000000,0.000000,0.000000,0.000000
13022271.000000,-2.415951,-1.662493,1.041180,-1.353887,1.796687,1.081646,-0.548738,0.202991,0.018963,0.128065,-0.134366,-0.186019,0.263081,-0.252940,16.268660,35.460857,-21.346024,-2.091188,0.476469,1.370651,-0.083451,0.000000,0.000000,0.000000,0.000000,0.000000,0.000000
13022272.000000,-2.415704,-1.662476,1.041348,-1.354067,1.796438,1.081974,-0.549044,0.215341,0.018317,0.137920,-0.147160,-0.207058,0.288217,-0.268781,16.518599,35.191082,-21.445206,-2.091188,0.518583,1.429244,-0.097184,0.000000,0.000000,0.000000,0.000000,0.000000,0.000000
13022273.000000,-2.415436,-1.662464,1.041517,-1.354254,1.796174,1.082322,-0.549350,0.230858,0.022026,0.146769,-0.158934,-0.224426,0.308161,-0.277768,16.716963,35.044292,-21.445206,-2.138796,0.494779,1.487838,-0.077042,0.000000,0.000000,0.000000,0.000000,0.000000,0.000000
13022274.000000,-2.415160,-1.662454,1.041701,-1.354467,1.795895,1.082695,-0.549659,0.240317,0.016568,0.155968,-0.176172,-0.239575,0.332463,-0.285963,16.887556,34.972881,-21.417435,-2.091188,0.506681,1.552840,-0.103593,0.000000,0.000000,0.000000,0.000000,0.000000,0.000000
13022275.000000,-2.414864,-1.662446,1.041894,-1.354697,1.795605,1.083091,-0.549980,0.257701,0.015307,0.169080,-0.192261,-0.260963,0.348911,-0.294016,17.010542,34.945110,-21.369827,-2.063417,0.410551,1.662704,-0.077042,0.000000,0.000000,0.000000,0.000000,0.000000,0.000000
13022276.000000,-2.414536,-1.662440,1.042103,-1.354949,1.795290,1.083505,-0.550280,0.281687,0.011170,0.182634,-0.211293,-0.273393,0.369543,-0.293446,16.911360,34.921307,-21.346024,-1.992006,0.332731,1.689254,-0.142960,0.000000,0.000000,0.000000,0.000000,0.000000,0.000000
13022277.000000,-2.414205,-1.662437,1.042317,-1.355227,1.794964,1.083946,-0.550594,0.299355,0.007196,0.191293,-0.230017,-0.289756,0.385496,-0.298106,16.939131,34.945110,-21.270645,-1.742067,0.315336,1.676437,-0.050492,0.000000,0.000000,0.000000,0.000000,0.000000,0.000000
13022278.000000,-2.413857,-1.662438,1.042539,-1.355517,1.794621,1.084416,-0.550895,0.315109,0.003820,0.201175,-0.248683,-0.302131,0.426619,-0.304744,16.962934,34.996685,-21.175430,-1.547670,0.315336,1.584884,-0.070634,0.000000,0.000000,0.000000,0.000000,0.000000,0.000000
13022279.000000,-2.413499,-1.662437,1.042772,-1.355822,1.794255,1.084912,-0.551182,0.330643,0.002162,0.212065,-0.265086,-0.329287,0.449644,-0.297763,16.986738,35.020489,-21.100052,-1.349306,0.332731,1.519881,-0.116410,0.000000,0.000000,0.000000,0.000000,0.000000,0.000000
13022280.000000,-2.413125,-1.662440,1.043020,-1.356123,1.793860,1.085423,-0.551475,0.344426,0.000457,0.221536,-0.280089,-0.349590,0.464313,-0.294468,17.038313,35.068096,-21.076248,-1.321535,0.416959,1.494247,-0.083451,0.000000,0.000000,0.000000,0.000000,0.000000,0.000000
13022281.000000,-2.412743,-1.662439,1.043265,-1.356444,1.793458,1.085955,-0.551753,0.360110,0.000401,0.229602,-0.291112,-0.362349,0.480235,-0.290891,17.236677,35.068096,-20.953262,-1.321535,0.458158,1.481429,-0.116410,0.000000,0.000000,0.000000,0.000000,0.000000,0.000000
13022282.000000,-2.412349,-1.662438,1.043526,-1.356774,1.793036,1.086505,-0.552031,0.371750,0.000897,0.238522,-0.297767,-0.380967,0.494471,-0.286951,17.359663,35.044292,-20.854080,-1.396913,0.476469,1.513473,-0.103593,0.000000,0.000000,0.000000,0.000000,0.000000,0.000000
13022283.000000,-2.411944,-1.662439,1.043793,-1.357120,1.792597,1.087083,-0.552309,0.381339,0.000096,0.253872,-0.311251,-0.394949,0.513862,-0.282421,17.581831,35.068096,-20.754898,-1.396913,0.518583,1.572067,-0.097184,0.000000,0.000000,0.000000,0.000000,0.000000,0.000000
13022284.000000,-2.411530,-1.662443,1.044079,-1.357483,1.792148,1.087673,-0.552575,0.394100,0.002392,0.265770,-0.322389,-0.408405,0.530068,-0.276175,17.855574,35.119671,-20.731094,-1.321535,0.494779,1.605026,-0.142960,0.000000,0.000000,0.000000,0.000000,0.000000,0.000000
13022285.000000,-2.411097,-1.662438,1.044373,-1.357860,1.791682,1.088301,-0.552851,0.409913,0.003680,0.276010,-0.346969,-0.424014,0.552319,-0.269931,18.002363,35.044292,-20.659683,-1.150941,0.482877,1.559249,-0.083451,0.000000,0.000000,0.000000,0.000000,0.000000,0.000000
13022286.000000,-2.410654,-1.662434,1.044671,-1.358254,1.791202,1.088941,-0.553114,0.421493,0.003808,0.281376,-0.360705,-0.435008,0.569519,-0.270117,18.248335,34.996685,-20.608109,-1.000185,0.476469,1.442062,-0.083451,0.000000,0.000000,0.000000,0.000000,0.000000,0.000000
13022287.000000,-2.410196,-1.662433,1.044985,-1.358665,1.790709,1.089611,-0.553368,0.434367,0.003277,0.291615,-0.379381,-0.454436,0.596632,-0.265846,18.375288,34.972881,-20.560501,-0.877199,0.500272,1.318465,-0.136552,0.000000,0.000000,0.000000,0.000000,0.000000,0.000000
13022288.000000,-2.409718,-1.662425,1.045312,-1.359088,1.790197,1.090296,-0.553629,0.445899,0.004083,0.302349,-0.392878,-0.473167,0.624010,-0.262673,18.522078,34.897503,-20.485123,-0.655031,0.506681,1.234237,-0.089860,0.000000,0.000000,0.000000,0.000000,0.000000,0.000000
13022289.000000,-2.409223,-1.662417,1.045643,-1.359527,1.789671,1.090979,-0.553872,0.458592,0.005144,0.310160,-0.406970,-0.483531,0.641091,-0.256422,18.645063,34.798321,-20.413712,-0.484438,0.542386,1.253463,-0.136552,0.000000,0.000000,0.000000,0.000000,0.000000,0.000000
13022290.000000,-2.408730,-1.662412,1.045983,-1.359975,1.789140,1.091686,-0.554115,0.468231,0.004619,0.317285,-0.419068,-0.498019,0.660434,-0.248871,18.895002,34.750713,-20.290726,-0.409059,0.500272,1.285506,-0.130143,0.000000,0.000000,0.000000,0.000000,0.000000,0.000000
13022291.000000,-2.408220,-1.662400,1.046338,-1.360432,1.788589,1.092404,-0.554356,0.478896,0.006014,0.330087,-0.433432,-0.505569,0.677272,-0.246991,19.216352,34.627728,-20.314529,-0.385256,0.524076,1.331283,-0.163102,0.000000,0.000000,0.000000,0.000000,0.000000,0.000000
13022292.000000,-2.407703,-1.662390,1.046699,-1.360904,1.788026,1.093149,-0.554609,0.500804,0.006279,0.338317,-0.444454,-0.520698,0.694027,-0.247840,19.537703,34.532513,-20.290726,-0.309877,0.518583,1.396285,-0.110001,0.000000,0.000000,0.000000,0.000000,0.000000,0.000000
13022293.000000,-2.407159,-1.662373,1.047077,-1.361388,1.787450,1.093915,-0.554862,0.512490,0.008859,0.347976,-0.457877,-0.536374,0.712567,-0.248628,19.783674,34.334148,-20.290726,-0.210695,0.506681,1.416427,-0.070634,0.000000,0.000000,0.000000,0.000000,0.000000,0.000000
13022294.000000,-2.406605,-1.662363,1.047468,-1.361893,1.786849,1.094702,-0.555099,0.523728,0.010959,0.361290,-0.473230,-0.554071,0.728872,-0.244786,20.057417,34.262737,-20.413712,-0.135317,0.530485,1.389877,-0.149369,0.000000,0.000000,0.000000,0.000000,0.000000,0.000000
13022295.000000,-2.406044,-1.662353,1.047870,-1.362419,1.786246,1.095522,-0.555350,0.533246,0.012418,0.370112,-0.487290,-0.568301,0.755085,-0.241538,20.303389,34.211163,-20.536697,0.035277,0.566190,1.305648,-0.097184,0.000000,0.000000,0.000000,0.000000,0.000000,0.000000
13022296.000000,-2.405459,-1.662335,1.048286,-1.362950,1.785624,1.096346,-0.555588,0.546624,0.012237,0.380876,-0.503503,-0.579799,0.796230,-0.243825,20.454145,34.064373,-20.806473,0.186034,0.535978,1.214095,-0.130143,0.000000,0.000000,0.000000,0.000000,0.000000,0.000000
13022297.000000,-2.404862,-1.662328,1.048715,-1.363500,1.785005,1.097198,-0.555827,0.559500,0.008551,0.391301,-0.516301,-0.605005,0.813111,-0.243965,20.700117,34.064373,-20.929459,0.285216,0.500272,1.220504,-0.136552,0.000000,0.000000,0.000000,0.000000,0.000000,0.000000
13022298.000000,-2.404253,-1.662308,1.049162,-1.364054,1.784359,1.098074,-0.556073,0.575687,0.009429,0.407255,-0.529100,-0.612356,0.828643,-0.245738,20.823103,33.917583,-21.147659,0.332823,0.440763,1.240646,-0.083451,0.000000,0.000000,0.000000,0.000000,0.000000,0.000000
13022299.000000,-2.403631,-1.662293,1.049608,-1.364626,1.783697,1.098952,-0.556304,0.585815,0.012133,0.419379,-0.540047,-0.620235,0.846659,-0.242603,21.096846,33.822369,-21.223038,0.309019,0.446256,1.272689,-0.130143,0.000000,0.000000,0.000000,0.000000,0.000000,0.000000
13022300.000000,-2.403008,-1.662275,1.050067,-1.365216,1.783021,1.099851,-0.556538,0.599510,0.015333,0.433240,-0.555247,-0.635185,0.856509,-0.238651,21.394392,33.675579,-21.270645,0.309019,0.428861,1.370651,-0.122819,0.000000,0.000000,0.000000,0.000000,0.000000,0.000000
13022301.000000,-2.402346,-1.662259,1.050544,-1.365805,1.782334,1.100783,-0.556773,0.617958,0.016644,0.459674,-0.562562,-0.651232,0.874348,-0.241103,21.517378,33.576397,-21.417435,0.380431,0.440763,1.442062,-0.136552,0.000000,0.000000,0.000000,0.000000,0.000000,0.000000
13022302.000000,-2.401666,-1.662246,1.051031,-1.366425,1.781619,1.101726,-0.557010,0.637028,0.016323,0.468810,-0.576224,-0.662384,0.894159,-0.242507,21.715742,33.528790,-21.516617,0.578795,0.535978,1.377059,-0.130143,0.000000,0.000000,0.000000,0.000000,0.000000,0.000000
13022303.000000,-2.400974,-1.662231,1.051525,-1.367046,1.780917,1.102712,-0.557246,0.658433,0.016269,0.476034,-0.601093,-0.684274,0.922032,-0.243053,21.838728,33.477215,-21.639603,0.753355,0.625699,1.240646,-0.122819,0.000000,0.000000,0.000000,0.000000,0.000000,0.000000
13022304.000000,-2.400260,-1.662224,1.052030,-1.367681,1.780203,1.103691,-0.557478,0.672888,0.013840,0.482254,-0.610911,-0.690536,0.939893,-0.240128,21.961714,33.528790,-21.786392,0.927916,0.745634,1.149093,-0.142960,0.000000,0.000000,0.000000,0.000000,0.000000,0.000000
13022305.000000,-2.399546,-1.662208,1.052555,-1.368328,1.779495,1.104699,-0.557708,0.689048,0.012504,0.497895,-0.616779,-0.696906,0.953589,-0.235443,22.187849,33.429607,-22.032364,1.050902,0.871061,1.142684,-0.163102,0.000000,0.000000,0.000000,0.000000,0.000000,0.000000
13022306.000000,-2.398817,-1.662205,1.053076,-1.368975,1.778789,1.105731,-0.557942,0.692828,0.009624,0.504672,-0.626087,-0.695779,0.969544,-0.234404,22.112471,33.552593,-22.032364,0.951720,0.978177,1.253463,-0.103593,0.000000,0.000000,0.000000,0.000000,0.000000,0.000000
13022307.000000,-2.398072,-1.662198,1.053608,-1.369648,1.778080,1.106762,-0.558158,0.695385,0.010775,0.515370,-0.640863,-0.698753,0.989088,-0.228878,20.950056,33.699383,-21.861771,0.554991,0.930570,1.442062,-0.188737,0.000000,0.000000,0.000000,0.000000,0.000000,0.000000
13022308.000000,-2.397352,-1.662189,1.054168,-1.370350,1.777382,1.107833,-0.558392,0.698617,0.010759,0.530732,-0.655615,-0.697714,1.007589,-0.230648,19.093367,33.746990,-21.516617,-0.063905,0.900358,1.605026,-0.116410,0.000000,0.000000,0.000000,0.000000,0.000000,0.000000
13022309.000000,-2.396621,-1.662184,1.054743,-1.371038,1.776681,1.108911,-0.558608,0.709804,0.009477,0.545024,-0.662845,-0.692613,1.032691,-0.227116,16.518599,33.699383,-21.052444,-1.000185,0.793241,1.662704,-0.175919,0.000000,0.000000,0.000000,0.000000,0.000000,0.000000
13022310.000000,-2.395903,-1.662177,1.055352,-1.371759,1.775994,1.110031,-0.558832,0.719333,0.006001,0.562379,-0.672475,-0.698376,1.060577,-0.226167,13.793073,33.453411,-20.314529,-1.742067,0.637601,1.689254,-0.175919,0.000000,0.000000,0.000000,0.000000,0.000000,0.000000
13022311.000000,-2.395181,-1.662178,1.055988,-1.372461,1.775312,1.111152,-0.559059,0.729645,0.002407,0.578731,-0.674852,-0.687577,1.078705,-0.228075,11.194501,33.235210,-19.552811,-2.511720,0.458158,1.779891,-0.097184,0.000000,0.000000,0.000000,0.000000,0.000000,0.000000
13022312.000000,-2.394457,-1.662187,1.056633,-1.373172,1.774628,1.112290,-0.559266,0.733187,-0.002873,0.598767,-0.682144,-0.682873,1.104513,-0.220635,8.718915,33.112225,-18.818863,-3.225832,0.344633,1.721298,-0.155778,0.000000,0.000000,0.000000,0.000000,0.000000,0.000000
13022313.000000,-2.393741,-1.662200,1.057291,-1.373881,1.773973,1.113457,-0.559490,0.730061,-0.005785,0.611201,-0.688738,-0.668756,1.121119,-0.221615,6.517072,33.088421,-18.033340,-3.745546,0.201810,1.630660,-0.130143,0.000000,0.000000,0.000000,0.000000,0.000000,0.000000
13022314.000000,-2.393013,-1.662221,1.057936,-1.374568,1.773302,1.114627,-0.559716,0.729082,-0.010008,0.616864,-0.687653,-0.664837,1.161022,-0.227354,4.509626,33.159832,-17.148636,-4.241457,0.147794,1.591293,-0.083451,0.000000,0.000000,0.000000,0.000000,0.000000,0.000000
13022315.000000,-2.392283,-1.662247,1.058599,-1.375257,1.772668,1.115826,-0.559926,0.730460,-0.014075,0.627758,-0.680141,-0.652621,1.166963,-0.219800,2.728315,33.282818,-16.386917,-4.535036,0.052579,1.597701,-0.149369,0.000000,0.000000,0.000000,0.000000,0.000000,0.000000
13022316.000000,-2.391564,-1.662276,1.059265,-1.375925,1.772011,1.117073,-0.560149,0.727624,-0.020669,0.631014,-0.673689,-0.654022,1.181249,-0.217512,1.244550,33.429607,-15.700577,-4.784975,0.123990,1.422836,-0.116410,0.000000,0.000000,0.000000,0.000000,0.000000,0.000000
13022317.000000,-2.390838,-1.662302,1.059924,-1.376603,1.771367,1.118304,-0.560359,0.725969,-0.024689,0.638809,-0.671845,-0.648808,1.190852,-0.214543,-0.044818,33.405804,-14.962662,-4.884157,0.201810,1.312057,-0.130143,0.000000,0.000000,0.000000,0.000000,0.000000,0.000000
13022318.000000,-2.390122,-1.662333,1.060605,-1.377294,1.770737,1.119568,-0.560566,0.723566,-0.025450,0.648279,-0.674229,-0.644648,1.203805,-0.210134,-1.108050,33.405804,-14.423111,-4.634218,0.261320,1.117049,-0.155778,0.000000,0.000000,0.000000,0.000000,0.000000,0.000000
13022319.000000,-2.389398,-1.662369,1.061282,-1.377978,1.770107,1.120834,-0.560785,0.721689,-0.025215,0.653258,-0.681006,-0.638403,1.210276,-0.213450,-2.000689,33.382000,-13.736771,-4.312868,0.374845,0.934859,-0.116410,0.000000,0.000000,0.000000,0.000000,0.000000,0.000000
13022320.000000,-2.388673,-1.662401,1.061965,-1.378678,1.769465,1.122067,-0.560985,0.721183,-0.029672,0.656923,-0.684114,-0.635785,1.214346,-0.210215,-2.742571,33.259014,-13.320206,-3.697939,0.535978,0.908309,-0.163102,0.000000,0.000000,0.000000,0.000000,0.000000,0.000000
13022321.000000,-2.387962,-1.662428,1.062656,-1.379356,1.768863,1.123297,-0.561200,0.721719,-0.028269,0.666367,-0.692334,-0.626154,1.205971,-0.210845,-3.309893,33.060650,-12.852066,-3.202028,0.512174,0.980636,-0.110001,0.000000,0.000000,0.000000,0.000000,0.000000,0.000000
13022322.000000,-2.387249,-1.662452,1.063348,-1.380036,1.768253,1.124522,-0.561397,0.715593,-0.026330,0.676945,-0.685249,-0.615509,1.210652,-0.205305,-3.782000,32.818645,-12.510880,-2.880678,0.416959,0.974227,-0.175919,0.000000,0.000000,0.000000,0.000000,0.000000,0.000000
13022323.000000,-2.386559,-1.662471,1.064045,-1.380713,1.767654,1.125758,-0.561604,0.707063,-0.023376,0.681570,-0.677602,-0.612217,1.209748,-0.207187,-3.980364,32.497295,-12.213333,-2.634706,0.386747,0.941268,-0.130143,0.000000,0.000000,0.000000,0.000000,0.000000,0.000000
13022324.000000,-2.385855,-1.662488,1.064759,-1.381366,1.767058,1.126973,-0.561804,0.701245,-0.018209,0.688775,-0.676635,-0.600764,1.209258,-0.204583,-4.178729,32.179913,-12.042740,-2.634706,0.255826,1.155502,-0.175919,0.000000,0.000000,0.000000,0.000000,0.000000,0.000000
13022325.000000,-2.385143,-1.662493,1.065470,-1.382024,1.766462,1.128155,-0.562012,0.703820,-0.010477,0.695871,-0.672344,-0.591918,1.194591,-0.206092,-4.500079,31.691936,-11.995132,-2.634706,0.225614,1.422836,-0.155778,0.000000,0.000000,0.000000,0.000000,0.000000,0.000000
13022326.000000,-2.384455,-1.662496,1.066194,-1.382683,1.765867,1.129370,-0.562221,0.698248,-0.009921,0.699613,-0.660906,-0.592472,1.188756,-0.206173,-4.623065,31.251568,-11.820572,-2.634706,0.273221,1.481429,-0.130143,0.000000,0.000000,0.000000,0.000000,0.000000,0.000000
13022327.000000,-2.383759,-1.662492,1.066915,-1.383326,1.765276,1.130583,-0.562426,0.693528,-0.005034,0.708822,-0.653822,-0.586821,1.217973,-0.207362,-4.746050,30.759624,-11.725357,-2.706117,0.315336,1.312057,-0.169511,0.000000,0.000000,0.000000,0.000000,0.000000,0.000000
13022328.000000,-2.383063,-1.662476,1.067664,-1.383969,1.764691,1.131814,-0.562631,0.697751,-0.002741,0.717717,-0.643849,-0.588899,1.218873,-0.203543,-4.995989,30.172466,-11.725357,-2.781496,0.369352,1.090499,-0.130143,0.000000,0.000000,0.000000,0.000000,0.000000,0.000000
13022329.000000,-2.382374,-1.662460,1.068407,-1.384585,1.764122,1.133031,-0.562829,0.693110,0.004291,0.716773,-0.639865,-0.576364,1.207915,-0.201722,-5.095171,29.636883,-11.550797,-3.055238,0.303434,0.999862,-0.155778,0.000000,0.000000,0.000000,0.000000,0.000000,0.000000
13022330.000000,-2.381678,-1.662441,1.069153,-1.385213,1.763538,1.134235,-0.563029,0.690897,0.008586,0.727510,-0.631618,-0.574236,1.203559,-0.198037,-5.241961,29.144939,-11.431778,-3.178224,0.315336,0.954086,-0.169511,0.000000,0.000000,0.000000,0.000000,0.000000,0.000000
13022331.000000,-2.380992,-1.662428,1.069896,-1.385831,1.762978,1.135446,-0.563235,0.687115,0.008197,0.724933,-0.622014,-0.566215,1.194461,-0.196810,-5.392718,28.803753,-11.062820,-3.424196,0.273221,0.895492,-0.122819,0.000000,0.000000,0.000000,0.000000,0.000000,0.000000
13022332.000000,-2.380306,-1.662407,1.070642,-1.386451,1.762420,1.136649,-0.563433,0.686841,0.009273,0.749123,-0.617251,-0.566723,1.187889,-0.196523,-5.464129,28.410992,-10.717667,-3.475771,0.178007,1.019088,-0.155778,0.000000,0.000000,0.000000,0.000000,0.000000,0.000000
13022333.000000,-2.379613,-1.662386,1.071405,-1.387070,1.761865,1.137833,-0.563633,0.686385,0.010307,0.749367,-0.615884,-0.565232,1.179339,-0.193298,-5.539507,28.018230,-10.348709,-3.475771,0.100187,1.110641,-0.142960,0.000000,0.000000,0.000000,0.000000,0.000000,0.000000
13022334.000000,-2.378932,-1.662364,1.072180,-1.387664,1.761317,1.139042,-0.563830,0.686085,0.013847,0.760660,-0.622261,-0.560884,1.180461,-0.191829,-5.638690,27.653240,-10.055130,-3.598757,-0.043551,1.123458,-0.142960,0.000000,0.000000,0.000000,0.000000,0.000000,0.000000
13022335.000000,-2.378248,-1.662344,1.072942,-1.388268,1.760752,1.140251,-0.564020,0.677120,0.014371,0.766494,-0.614174,-0.558806,1.183832,-0.190260,-5.686297,27.383465,-9.638565,-3.622560,-0.019747,0.980636,-0.142960,0.000000,0.000000,0.000000,0.000000,0.000000,0.000000
13022336.000000,-2.377554,-1.662329,1.073721,-1.388871,1.760200,1.141493,-0.564218,0.671596,0.013249,0.771472,-0.607417,-0.563455,1.193520,-0.188315,-5.936236,27.189068,-9.317215,-3.670168,0.040677,0.713302,-0.142960,0.000000,0.000000,0.000000,0.000000,0.000000,0.000000
13022337.000000,-2.376851,-1.662313,1.074521,-1.389467,1.759647,1.142723,-0.564410,0.679382,0.011608,0.781017,-0.610539,-0.560037,1.189996,-0.185483,-6.233782,27.042278,-9.146622,-3.646364,0.046171,0.616256,-0.182328,0.000000,0.000000,0.000000,0.000000,0.000000,0.000000
13022338.000000,-2.376147,-1.662309,1.075311,-1.390060,1.759089,1.143934,-0.564607,0.682599,0.007244,0.789220,-0.599599,-0.556352,1.194397,-0.186204,-6.531329,27.042278,-8.924454,-3.721742,0.159696,0.589706,-0.155778,0.000000,0.000000,0.000000,0.000000,0.000000,0.000000
13022339.000000,-2.375452,-1.662304,1.076123,-1.390657,1.758544,1.145156,-0.564803,0.687374,0.007809,0.792587,-0.595762,-0.549537,1.188509,-0.186522,-6.824908,27.042278,-8.753860,-3.797121,0.178007,0.609847,-0.149369,0.000000,0.000000,0.000000,0.000000,0.000000,0.000000
13022340.000000,-2.374759,-1.662299,1.076939,-1.391236,1.758006,1.146368,-0.564998,0.687048,0.004650,0.804756,-0.590827,-0.542479,1.195159,-0.189548,-6.999468,27.066082,-8.682449,-3.967714,0.166105,0.654708,-0.155778,0.000000,0.000000,0.000000,0.000000,0.000000,0.000000
13022341.000000,-2.374079,-1.662300,1.077779,-1.391803,1.757469,1.147592,-0.565184,0.691705,0.001431,0.814584,-0.584069,-0.542280,1.190509,-0.189568,-7.098650,27.137493,-8.682449,-4.241457,0.129484,0.733443,-0.136552,0.000000,0.000000,0.000000,0.000000,0.000000,0.000000
13022342.000000,-2.373378,-1.662298,1.078626,-1.392366,1.756940,1.148823,-0.565370,0.693559,0.000398,0.827530,-0.576189,-0.539356,1.189790,-0.187505,-7.344622,27.161297,-8.654678,-4.412050,0.022367,0.830489,-0.163102,0.000000,0.000000,0.000000,0.000000,0.000000,0.000000
13022343.000000,-2.372669,-1.662299,1.079475,-1.392935,1.756398,1.150019,-0.565558,0.695914,-0.000384,0.833296,-0.568045,-0.542305,1.180317,-0.189064,-7.669940,27.189068,-8.706253,-4.535036,0.027860,0.960494,-0.130143,0.000000,0.000000,0.000000,0.000000,0.000000,0.000000
13022344.000000,-2.371975,-1.662298,1.080337,-1.393507,1.755866,1.151237,-0.565737,0.695785,-0.000812,0.838621,-0.567861,-0.535363,1.181469,-0.187067,-8.038898,27.212872,-8.654678,-4.562807,0.052579,1.045638,-0.169511,0.000000,0.000000,0.000000,0.000000,0.000000,0.000000
13022345.000000,-2.371259,-1.662300,1.081199,-1.394069,1.755341,1.152437,-0.565915,0.699415,-0.000541,0.845106,-0.565572,-0.533821,1.204792,-0.187267,-8.511004,27.212872,-8.630875,-4.535036,0.081876,1.058456,-0.175919,0.000000,0.000000,0.000000,0.000000,0.000000,0.000000
13022346.000000,-2.370536,-1.662298,1.082084,-1.394643,1.754817,1.153665,-0.566100,0.705006,0.000196,0.856163,-0.567972,-0.540078,1.203721,-0.183604,-9.078326,27.189068,-8.607071,-4.511232,0.105680,0.980636,-0.142960,0.000000,0.000000,0.000000,0.000000,0.000000,0.000000
13022347.000000,-2.369828,-1.662293,1.082979,-1.395205,1.754300,1.154888,-0.566280,0.713734,0.001894,0.863813,-0.565461,-0.527072,1.202678,-0.183230,-9.550433,27.113689,-8.559464,-4.463624,0.081876,0.876266,-0.163102,0.000000,0.000000,0.000000,0.000000,0.000000,0.000000
13022348.000000,-2.369111,-1.662285,1.083867,-1.395763,1.753774,1.156104,-0.566453,0.711600,0.004140,0.871099,-0.558251,-0.526481,1.202599,-0.180209,-9.994769,26.990704,-8.412674,-4.511232,0.064481,0.752670,-0.155778,0.000000,0.000000,0.000000,0.000000,0.000000,0.000000
13022349.000000,-2.368410,-1.662276,1.084766,-1.396316,1.753269,1.157306,-0.566627,0.711363,0.004987,0.872892,-0.551123,-0.516375,1.188866,-0.180220,-10.415301,26.895489,-8.190506,-4.610414,0.010465,0.824081,-0.175919,0.000000,0.000000,0.000000,0.000000,0.000000,0.000000
13022350.000000,-2.367711,-1.662268,1.085678,-1.396854,1.752762,1.158510,-0.566805,0.705414,0.005088,0.901863,-0.549583,-0.513630,1.189177,-0.181429,-10.637469,26.820110,-8.067520,-4.709596,-0.007845,0.947677,-0.163102,0.000000,0.000000,0.000000,0.000000,0.000000,0.000000
13022351.000000,-2.367000,-1.662254,1.086614,-1.397382,1.752267,1.159702,-0.566978,0.705436,0.006826,0.915003,-0.537823,-0.505770,1.192603,-0.178208,-10.986590,26.673321,-8.043716,-4.931764,-0.079257,0.980636,-0.169511,0.000000,0.000000,0.000000,0.000000,0.000000,0.000000
13022352.000000,-2.366303,-1.662247,1.087556,-1.397917,1.751764,1.160913,-0.567155,0.706511,0.008573,0.917432,-0.544721,-0.503815,1.194688,-0.179804,-11.256366,26.649517,-7.896927,-4.983339,-0.049044,0.941268,-0.196061,0.000000,0.000000,0.000000,0.000000,0.000000,0.000000
13022353.000000,-2.365600,-1.662238,1.088512,-1.398451,1.751254,1.162106,-0.567335,0.707741,0.007210,0.930406,-0.541610,-0.504985,1.194862,-0.179338,-11.530108,26.597942,-8.019913,-5.106325,-0.037142,0.908309,-0.142960,0.000000,0.000000,0.000000,0.000000,0.000000,0.000000
13022354.000000,-2.364898,-1.662235,1.089490,-1.398974,1.750768,1.163313,-0.567504,0.707210,0.007299,0.938192,-0.530114,-0.496180,1.197283,-0.173997,-11.903033,26.649517,-8.166702,-5.328493,-0.060946,0.882674,-0.182328,0.000000,0.000000,0.000000,0.000000,0.000000,0.000000
13022355.000000,-2.364202,-1.662225,1.090488,-1.399498,1.750276,1.164520,-0.567681,0.698515,0.009332,0.953394,-0.524446,-0.499649,1.191951,-0.173890,-12.049823,26.625713,-8.337296,-5.451478,-0.067355,0.824081,-0.149369,0.000000,0.000000,0.000000,0.000000,0.000000,0.000000
13022356.000000,-2.363493,-1.662230,1.091471,-1.400015,1.749784,1.165704,-0.567850,0.699122,0.002858,0.964194,-0.524173,-0.497260,1.193786,-0.172776,-12.371173,26.796307,-8.412674,-5.626039,-0.072848,0.876266,-0.149369,0.000000,0.000000,0.000000,0.000000,0.000000,0.000000
13022357.000000,-2.362799,-1.662230,1.092479,-1.400527,1.749308,1.166891,-0.568017,0.697991,0.000056,0.971576,-0.513444,-0.485970,1.183756,-0.165189,-12.593341,26.895489,-8.531693,-5.772829,-0.085665,1.031905,-0.188737,0.000000,0.000000,0.000000,0.000000,0.000000,0.000000
13022358.000000,-2.362095,-1.662234,1.093463,-1.401032,1.748818,1.168062,-0.568192,0.694704,-0.003043,0.975186,-0.509164,-0.484176,1.184386,-0.171195,-12.914691,27.042278,-8.337296,-5.872011,-0.133273,1.188461,-0.136552,0.000000,0.000000,0.000000,0.000000,0.000000,0.000000
13022359.000000,-2.361412,-1.662235,1.094469,-1.401534,1.748348,1.169255,-0.568358,0.687439,-0.000071,0.978918,-0.504106,-0.481222,1.175283,-0.169439,-13.089252,27.113689,-8.214310,-6.018800,-0.150668,1.207687,-0.163102,0.000000,0.000000,0.000000,0.000000,0.000000,0.000000
13022360.000000,-2.360711,-1.662242,1.095490,-1.402028,1.747880,1.170459,-0.568526,0.690554,-0.001889,0.987188,-0.501784,-0.477299,1.173656,-0.168150,-13.386798,27.212872,-8.019913,-6.141786,-0.199191,1.084090,-0.182328,0.000000,0.000000,0.000000,0.000000,0.000000,0.000000
13022361.000000,-2.360014,-1.662251,1.096504,-1.402528,1.747400,1.171643,-0.568694,0.692569,-0.003777,1.001644,-0.499281,-0.476359,1.171958,-0.169444,-13.660541,27.335857,-7.773941,-6.268739,-0.199191,0.966903,-0.163102,0.000000,0.000000,0.000000,0.000000,0.000000,0.000000
13022362.000000,-2.359333,-1.662250,1.097536,-1.403030,1.746934,1.172839,-0.568854,0.692086,-0.001042,1.000901,-0.497087,-0.473831,1.174758,-0.168429,-13.831134,27.284283,-7.476395,-6.292543,-0.121371,0.901900,-0.169511,0.000000,0.000000,0.000000,0.000000,0.000000,0.000000
13022363.000000,-2.358647,-1.662261,1.098558,-1.403522,1.746464,1.174017,-0.569023,0.688948,-0.003370,1.003389,-0.496323,-0.466892,1.197737,-0.172651,-14.053302,27.407269,-7.083633,-6.415529,-0.145175,0.824081,-0.142960,0.000000,0.000000,0.000000,0.000000,0.000000,0.000000
13022364.000000,-2.357983,-1.662271,1.099616,-1.404020,1.745994,1.175210,-0.569181,0.679765,-0.007774,1.020662,-0.498730,-0.473431,1.196095,-0.169938,-14.081073,27.506451,-6.936844,-6.490907,-0.067355,0.765487,-0.196061,0.000000,0.000000,0.000000,0.000000,0.000000,0.000000
13022365.000000,-2.357321,-1.662274,1.100682,-1.404493,1.745546,1.176412,-0.569351,0.671253,-0.005906,1.026110,-0.487852,-0.466441,1.193382,-0.171186,-13.981891,27.530254,-6.766251,-6.760683,-0.121371,0.687667,-0.130143,0.000000,0.000000,0.000000,0.000000,0.000000,0.000000
13022366.000000,-2.356657,-1.662280,1.101748,-1.404973,1.745095,1.177601,-0.569507,0.667814,-0.008571,1.038716,-0.481611,-0.458725,1.201506,-0.168345,-13.930316,27.577862,-6.694839,-6.959047,-0.240389,0.564071,-0.196061,0.000000,0.000000,0.000000,0.000000,0.000000,0.000000
13022367.000000,-2.356009,-1.662281,1.102853,-1.405442,1.744646,1.178795,-0.569679,0.658919,-0.006090,1.057591,-0.472365,-0.456819,1.199289,-0.166581,-13.831134,27.577862,-6.813858,-7.232790,-0.264193,0.589706,-0.116410,0.000000,0.000000,0.000000,0.000000,0.000000,0.000000
13022368.000000,-2.355351,-1.662285,1.103943,-1.405912,1.744203,1.179993,-0.569830,0.658074,-0.005549,1.085874,-0.470775,-0.454556,1.202472,-0.163249,-13.807330,27.629436,-6.813858,-7.403383,-0.306307,0.616256,-0.196061,0.000000,0.000000,0.000000,0.000000,0.000000,0.000000
13022369.000000,-2.354691,-1.662283,1.105058,-1.406393,1.743748,1.181181,-0.569994,0.656107,-0.002705,1.088292,-0.472000,-0.455539,1.198154,-0.162186,-13.882709,27.577862,-6.841629,-7.427186,-0.287997,0.603439,-0.142960,0.000000,0.000000,0.000000,0.000000,0.000000,0.000000
13022370.000000,-2.354040,-1.662281,1.106188,-1.406868,1.743302,1.182378,-0.570152,0.655335,-0.003636,1.100023,-0.479781,-0.448955,1.197668,-0.159915,-14.005694,27.506451,-6.913040,-7.454957,-0.199191,0.583297,-0.122819,0.000000,0.000000,0.000000,0.000000,0.000000,0.000000
13022371.000000,-2.353380,-1.662272,1.107308,-1.407348,1.742864,1.183572,-0.570302,0.655115,0.000612,1.104913,-0.479607,-0.448519,1.197207,-0.158368,-14.204059,27.359661,-6.936844,-7.454957,-0.204684,0.524703,-0.182328,0.000000,0.000000,0.000000,0.000000,0.000000,0.000000
13022372.000000,-2.352732,-1.662270,1.108446,-1.407822,1.742425,1.184771,-0.570459,0.659493,-0.002818,1.108886,-0.471952,-0.445776,1.197568,-0.153352,-14.327044,27.335857,-6.790054,-7.478761,-0.187289,0.544845,-0.136552,0.000000,0.000000,0.000000,0.000000,0.000000,0.000000
13022373.000000,-2.352087,-1.662262,1.109594,-1.408277,1.741993,1.185966,-0.570607,0.652130,0.001041,1.114883,-0.465795,-0.441568,1.194051,-0.150340,-14.350848,27.189068,-6.571854,-7.677125,-0.228488,0.668441,-0.175919,0.000000,0.000000,0.000000,0.000000,0.000000,0.000000
13022374.000000,-2.351435,-1.662253,1.110723,-1.408749,1.741554,1.187140,-0.570754,0.648189,0.003742,1.119089,-0.468494,-0.437287,1.188614,-0.149584,-14.450030,27.042278,-6.302078,-7.677125,-0.294406,0.771896,-0.202470,0.000000,0.000000,0.000000,0.000000,0.000000,0.000000
13022375.000000,-2.350793,-1.662239,1.111898,-1.409212,1.741124,1.188339,-0.570914,0.645231,0.006845,1.126972,-0.464954,-0.434649,1.178193,-0.148427,-14.549212,26.843914,-6.302078,-7.823915,-0.348422,0.843307,-0.110001,0.000000,0.000000,0.000000,0.000000,0.000000,0.000000
13022376.000000,-2.350157,-1.662223,1.113075,-1.409666,1.740709,1.189523,-0.571053,0.638955,0.008894,1.142395,-0.464105,-0.425132,1.178951,-0.145718,-14.525409,26.649517,-6.349686,-7.875490,-0.455538,0.798446,-0.196061,0.000000,0.000000,0.000000,0.000000,0.000000,0.000000
13022377.000000,-2.349511,-1.662214,1.114293,-1.410119,1.740285,1.190728,-0.571210,0.656150,0.008643,1.167642,-0.458126,-0.426508,1.175079,-0.150109,-14.723773,26.526531,-6.619461,-7.998476,-0.503146,0.713302,-0.116410,0.000000,0.000000,0.000000,0.000000,0.000000,0.000000
13022378.000000,-2.348878,-1.662201,1.115532,-1.410571,1.739847,1.191914,-0.571354,0.645635,0.009074,1.182273,-0.459844,-0.426600,1.167323,-0.149475,-14.723773,26.379742,-7.012222,-8.022280,-0.443636,0.759078,-0.136552,0.000000,0.000000,0.000000,0.000000,0.000000,0.000000
13022379.000000,-2.348247,-1.662194,1.116769,-1.411019,1.739427,1.193084,-0.571494,0.636437,0.008278,1.195312,-0.452360,-0.424316,1.166132,-0.147809,-14.672198,26.280560,-7.476395,-8.145266,-0.431735,0.817672,-0.169511,0.000000,0.000000,0.000000,0.000000,0.000000,0.000000
13022380.000000,-2.347619,-1.662188,1.118031,-1.411469,1.739001,1.194259,-0.571647,0.635845,0.007120,1.212957,-0.453531,-0.424349,1.155815,-0.150252,-14.723773,26.209148,-7.869156,-8.268251,-0.377719,0.908309,-0.116410,0.000000,0.000000,0.000000,0.000000,0.000000,0.000000
13022381.000000,-2.346993,-1.662190,1.119293,-1.411906,1.738573,1.195429,-0.571786,0.633049,0.004139,1.230858,-0.447128,-0.424375,1.176530,-0.143552,-14.723773,26.232952,-8.238113,-8.442812,-0.294406,0.915633,-0.169511,0.000000,0.000000,0.000000,0.000000,0.000000,0.000000
13022382.000000,-2.346373,-1.662191,1.120554,-1.412355,1.738167,1.196606,-0.571929,0.630798,0.004539,1.234329,-0.446419,-0.423309,1.169801,-0.140280,-14.573016,26.304363,-8.337296,-8.518190,-0.258700,0.941268,-0.182328,0.000000,0.000000,0.000000,0.000000,0.000000,0.000000
13022383.000000,-2.345748,-1.662199,1.121823,-1.412795,1.737760,1.197790,-0.572081,0.629535,0.001996,1.235047,-0.444762,-0.419709,1.163848,-0.144213,-14.624591,26.649517,-8.607071,-8.541994,-0.294406,1.019088,-0.136552,0.000000,0.000000,0.000000,0.000000,0.000000,0.000000
13022384.000000,-2.345130,-1.662220,1.123051,-1.413253,1.737356,1.198956,-0.572226,0.625641,-0.004010,1.227179,-0.447581,-0.412738,1.163298,-0.143948,-14.378619,27.482647,-8.924454,-8.391237,-0.318209,1.090499,-0.142960,0.000000,0.000000,0.000000,0.000000,0.000000,0.000000
13022385.000000,-2.344522,-1.662243,1.124279,-1.413710,1.736972,1.200146,-0.572364,0.610622,-0.009902,1.221132,-0.452023,-0.407891,1.167109,-0.139151,-13.981891,28.605389,-9.467972,-8.244448,-0.348422,1.117049,-0.169511,0.000000,0.000000,0.000000,0.000000,0.000000,0.000000
13022386.000000,-2.343899,-1.662267,1.125475,-1.414164,1.736570,1.201352,-0.572498,0.614599,-0.017477,1.233415,-0.453002,-0.406050,1.175603,-0.140636,-13.608966,29.930462,-10.130508,-8.069887,-0.312716,1.039230,-0.188737,0.000000,0.000000,0.000000,0.000000,0.000000,0.000000
13022387.000000,-2.343283,-1.662278,1.126692,-1.414622,1.736178,1.202538,-0.572640,0.611832,-0.019303,1.224435,-0.453893,-0.394724,1.183314,-0.140969,-13.113055,31.152386,-11.062820,-7.946901,-0.300814,1.031905,-0.122819,0.000000,0.000000,0.000000,0.000000,0.000000,0.000000
13022388.000000,-2.342686,-1.662283,1.127910,-1.415066,1.735805,1.203736,-0.572774,0.603721,-0.019043,1.221336,-0.459430,-0.382635,1.179756,-0.136299,-12.521930,32.326702,-12.018936,-7.946901,-0.252291,1.077682,-0.182328,0.000000,0.000000,0.000000,0.000000,0.000000,0.000000
13022389.000000,-2.342080,-1.662286,1.129122,-1.415519,1.735408,1.204922,-0.572922,0.602983,-0.016057,1.222795,-0.459879,-0.388165,1.182516,-0.141004,-12.049823,33.382000,-13.098038,-7.970705,-0.162570,1.182052,-0.110001,0.000000,0.000000,0.000000,0.000000,0.000000,0.000000
13022390.000000,-2.341495,-1.662289,1.130348,-1.415964,1.735014,1.206109,-0.573054,0.597972,-0.014300,1.223728,-0.451308,-0.393946,1.182213,-0.136588,-11.430926,34.334148,-14.006546,-8.097658,-0.055453,1.364242,-0.149369,0.000000,0.000000,0.000000,0.000000,0.000000,0.000000
13022391.000000,-2.340903,-1.662287,1.131591,-1.416409,1.734621,1.207305,-0.573185,0.595350,-0.008129,1.224083,-0.448978,-0.393168,1.181518,-0.133789,-10.986590,35.068096,-14.962662,-8.220644,0.040677,1.500655,-0.182328,0.000000,0.000000,0.000000,0.000000,0.000000,0.000000
13022392.000000,-2.340307,-1.662277,1.132838,-1.416861,1.734231,1.208474,-0.573324,0.591803,-0.002909,1.234589,-0.445555,-0.394447,1.174477,-0.134452,-10.665240,35.607647,-16.093338,-8.244448,0.069974,1.624252,-0.136552,0.000000,0.000000,0.000000,0.000000,0.000000,0.000000
13022393.000000,-2.339727,-1.662277,1.134077,-1.417321,1.733850,1.209661,-0.573453,0.586195,-0.003861,1.227975,-0.445257,-0.388721,1.174028,-0.131431,-10.316119,36.171001,-16.732071,-8.196840,0.040677,1.682845,-0.188737,0.000000,0.000000,0.000000,0.000000,0.000000,0.000000
13022394.000000,-2.339137,-1.662279,1.135321,-1.417762,1.733454,1.210834,-0.573585,0.584166,-0.003830,1.234403,-0.444162,-0.389015,1.198018,-0.130733,-10.145526,36.682781,-17.466019,-8.196840,0.147794,1.611434,-0.182328,0.000000,0.000000,0.000000,0.000000,0.000000,0.000000
13022395.000000,-2.338564,-1.662284,1.136571,-1.418210,1.733087,1.212016,-0.573717,0.594206,-0.002511,1.234895,-0.438855,-0.383479,1.191275,-0.131706,-9.895587,37.127117,-17.858780,-8.196840,0.081876,1.605026,-0.163102,0.000000,0.000000,0.000000,0.000000,0.000000,0.000000
13022396.000000,-2.337990,-1.662291,1.137837,-1.418643,1.732716,1.213189,-0.573841,0.586212,-0.001907,1.239550,-0.436485,-0.374224,1.183966,-0.130652,-9.649615,37.567486,-18.279312,-8.319826,-0.001437,1.637069,-0.182328,0.000000,0.000000,0.000000,0.000000,0.000000,0.000000
13022397.000000,-2.337429,-1.662317,1.139088,-1.419072,1.732336,1.214341,-0.573978,0.576795,-0.012600,1.239325,-0.430432,-0.376098,1.180377,-0.136582,-9.276690,38.178448,-18.644302,-8.490419,0.010465,1.643478,-0.103593,0.000000,0.000000,0.000000,0.000000,0.000000,0.000000
13022398.000000,-2.336887,-1.662342,1.140363,-1.419489,1.731976,1.215510,-0.574095,0.568308,-0.017593,1.239535,-0.424265,-0.374542,1.172066,-0.125674,-8.808551,38.666424,-18.989456,-8.863344,-0.049044,1.597701,-0.215287,0.000000,0.000000,0.000000,0.000000,0.000000,0.000000
13022399.000000,-2.336344,-1.662380,1.141647,-1.419895,1.731599,1.216664,-0.574234,0.553424,-0.024447,1.277484,-0.418365,-0.375465,1.168494,-0.130738,-8.388019,39.281353,-19.628189,-9.208498,-0.025240,1.689254,-0.130143,0.000000,0.000000,0.000000,0.000000,0.000000,0.000000
13022400.000000,-2.335801,-1.662419,1.142945,-1.420308,1.731241,1.217797,-0.574360,0.545993,-0.028133,1.281349,-0.413996,-0.371451,1.158251,-0.125324,-7.963519,39.840740,-20.191544,-9.506044,-0.025240,1.838485,-0.155778,0.000000,0.000000,0.000000,0.000000,0.000000,0.000000
13022401.000000,-2.335272,-1.662463,1.144261,-1.420710,1.730886,1.218961,-0.574487,0.544510,-0.034457,1.285255,-0.406680,-0.363469,1.155889,-0.125229,-7.570757,40.404095,-20.905655,-9.752016,-0.037142,1.793624,-0.175919,0.000000,0.000000,0.000000,0.000000,0.000000,0.000000
13022402.000000,-2.334747,-1.662509,1.145564,-1.421122,1.730518,1.220118,-0.574614,0.533656,-0.042112,1.293766,-0.410494,-0.364180,1.155338,-0.127152,-7.174029,40.943645,-21.591995,-9.875002,0.022367,1.676437,-0.175919,0.000000,0.000000,0.000000,0.000000,0.000000,0.000000
13022403.000000,-2.334233,-1.662559,1.146853,-1.421532,1.730156,1.221267,-0.574744,0.528624,-0.045009,1.285085,-0.407806,-0.363792,1.142417,-0.128742,-6.777300,41.507000,-21.861771,-9.950380,0.040677,1.695663,-0.155778,0.000000,0.000000,0.000000,0.000000,0.000000,0.000000
13022404.000000,-2.333705,-1.662599,1.148160,-1.421944,1.729793,1.222421,-0.574874,0.531575,-0.043577,1.288639,-0.409174,-0.363577,1.133010,-0.129983,-6.531329,41.923565,-22.302139,-9.875002,0.069974,1.754256,-0.122819,0.000000,0.000000,0.000000,0.000000,0.000000,0.000000
13022405.000000,-2.333196,-1.662644,1.149419,-1.422347,1.729435,1.223549,-0.574990,0.521149,-0.046857,1.279768,-0.403260,-0.366692,1.127827,-0.128410,-6.158404,42.363934,-22.254532,-9.898806,0.058073,1.903487,-0.175919,0.000000,0.000000,0.000000,0.000000,0.000000,0.000000
13022406.000000,-2.332693,-1.662688,1.150714,-1.422755,1.729064,1.224702,-0.575120,0.514455,-0.046081,1.272943,-0.411238,-0.371241,1.123998,-0.131491,-5.837054,42.804302,-22.353714,-9.851198,0.100187,1.949264,-0.116410,0.000000,0.000000,0.000000,0.000000,0.000000,0.000000
13022407.000000,-2.332189,-1.662726,1.151973,-1.423150,1.728712,1.225844,-0.575239,0.511418,-0.045470,1.268329,-0.409698,-0.360504,1.130400,-0.129279,-5.515704,43.097881,-22.155350,-9.827394,0.040677,1.962081,-0.169511,0.000000,0.000000,0.000000,0.000000,0.000000,0.000000
13022408.000000,-2.331704,-1.662758,1.153281,-1.423565,1.728373,1.227003,-0.575362,0.490547,-0.039164,1.273574,-0.411858,-0.354115,1.129370,-0.124925,-5.118975,43.268475,-22.448929,-9.629030,0.010465,1.981307,-0.175919,0.000000,0.000000,0.000000,0.000000,0.000000,0.000000
13022409.000000,-2.331212,-1.662784,1.154577,-1.423983,1.728015,1.228161,-0.575494,0.492049,-0.031974,1.276338,-0.413931,-0.355481,1.128070,-0.123930,-4.821429,43.320049,-22.548111,-9.283876,0.015958,1.968490,-0.110001,0.000000,0.000000,0.000000,0.000000,0.000000,0.000000
13022410.000000,-2.330722,-1.662813,1.155858,-1.424401,1.727655,1.229305,-0.575603,0.489753,-0.031790,1.278479,-0.418011,-0.353137,1.130308,-0.122633,-4.500079,43.415264,-22.742508,-9.061708,0.052579,1.936446,-0.196061,0.000000,0.000000,0.000000,0.000000,0.000000,0.000000
13022411.000000,-2.330246,-1.662830,1.157175,-1.424826,1.727302,1.230461,-0.575729,0.484515,-0.027353,1.289368,-0.416782,-0.349045,1.133073,-0.121428,-4.178729,43.320049,-23.186844,-8.764162,0.147794,1.909896,-0.163102,0.000000,0.000000,0.000000,0.000000,0.000000,0.000000
13022412.000000,-2.329771,-1.662856,1.158463,-1.425236,1.726953,1.231597,-0.575850,0.481054,-0.026281,1.288530,-0.417434,-0.346436,1.158376,-0.125300,-3.904986,43.292278,-23.504227,-8.664980,0.159696,1.936446,-0.130143,0.000000,0.000000,0.000000,0.000000,0.000000,0.000000
13022413.000000,-2.329307,-1.662870,1.159785,-1.425658,1.726611,1.232747,-0.575975,0.484433,-0.025926,1.299026,-0.412445,-0.351919,1.159465,-0.122889,-3.583636,43.121685,-24.095352,-8.490419,0.154203,1.955673,-0.110001,0.000000,0.000000,0.000000,0.000000,0.000000,0.000000
13022414.000000,-2.328844,-1.662897,1.161081,-1.426076,1.726272,1.233903,-0.576089,0.475136,-0.027032,1.288017,-0.417056,-0.349288,1.154443,-0.119177,-3.186907,43.145489,-24.218338,-8.268251,0.166105,2.001449,-0.142960,0.000000,0.000000,0.000000,0.000000,0.000000,0.000000
13022415.000000,-2.328380,-1.662925,1.162362,-1.426496,1.725934,1.235041,-0.576199,0.467522,-0.024364,1.284719,-0.415617,-0.340003,1.152997,-0.110766,-2.917132,43.173260,-24.365128,-8.121462,0.237516,2.033492,-0.188737,0.000000,0.000000,0.000000,0.000000,0.000000,0.000000
13022416.000000,-2.327923,-1.662947,1.163650,-1.426935,1.725600,1.236175,-0.576320,0.468970,-0.024008,1.277798,-0.423077,-0.344769,1.144204,-0.113241,-2.643389,43.121685,-24.388931,-7.748537,0.243009,2.183639,-0.136552,0.000000,0.000000,0.000000,0.000000,0.000000,0.000000
13022417.000000,-2.327461,-1.662971,1.164920,-1.427361,1.725265,1.237330,-0.576427,0.465421,-0.024379,1.279136,-0.425525,-0.342446,1.145063,-0.111420,-2.345843,43.097881,-24.388931,-7.502565,0.237516,2.169906,-0.182328,0.000000,0.000000,0.000000,0.000000,0.000000,0.000000
13022418.000000,-2.327006,-1.662991,1.166222,-1.427812,1.724934,1.238480,-0.576545,0.461370,-0.023689,1.284216,-0.435923,-0.342848,1.147401,-0.108539,-2.072100,43.026470,-24.634903,-6.982851,0.255826,2.007858,-0.149369,0.000000,0.000000,0.000000,0.000000,0.000000,0.000000
13022419.000000,-2.326561,-1.663016,1.167517,-1.428250,1.724608,1.239642,-0.576657,0.458283,-0.025346,1.282160,-0.446980,-0.338231,1.140290,-0.103641,-1.826129,43.050274,-24.781693,-6.637697,0.279630,1.877853,-0.175919,0.000000,0.000000,0.000000,0.000000,0.000000,0.000000
13022420.000000,-2.326121,-1.663041,1.168817,-1.428695,1.724270,1.240783,-0.576772,0.449292,-0.022393,1.288253,-0.446412,-0.339220,1.134735,-0.106907,-1.429400,43.050274,-25.222061,-6.363954,0.308927,1.844894,-0.142960,0.000000,0.000000,0.000000,0.000000,0.000000,0.000000
13022421.000000,-2.325694,-1.663066,1.170126,-1.429149,1.723947,1.241922,-0.576884,0.442218,-0.024382,1.286751,-0.446934,-0.334783,1.127241,-0.103307,-0.985064,43.074078,-25.666397,-6.042604,0.308927,1.995040,-0.136552,0.000000,0.000000,0.000000,0.000000,0.000000,0.000000
13022422.000000,-2.325272,-1.663089,1.171445,-1.429594,1.723625,1.243057,-0.576989,0.433279,-0.025205,1.293399,-0.448450,-0.326455,1.119735,-0.103459,-0.540728,43.074078,-26.182144,-5.820436,0.315336,2.177230,-0.182328,0.000000,0.000000,0.000000,0.000000,0.000000,0.000000
13022423.000000,-2.324848,-1.663118,1.172724,-1.430041,1.723298,1.244174,-0.577100,0.432583,-0.028199,1.290216,-0.444534,-0.326812,1.115907,-0.102434,-0.116229,43.173260,-26.424149,-5.649843,0.362943,2.372237,-0.149369,0.000000,0.000000,0.000000,0.000000,0.000000,0.000000
13022424.000000,-2.324429,-1.663141,1.174017,-1.430494,1.722974,1.245317,-0.577206,0.428116,-0.024565,1.282856,-0.442116,-0.330972,1.114084,-0.104913,0.252729,43.173260,-26.547134,-5.499086,0.393156,2.469283,-0.149369,0.000000,0.000000,0.000000,0.000000,0.000000,0.000000
13022425.000000,-2.324004,-1.663165,1.175298,-1.430950,1.722646,1.246448,-0.577310,0.426416,-0.025275,1.282471,-0.444996,-0.329166,1.121605,-0.104271,0.526471,43.173260,-26.745499,-5.153932,0.428861,2.417098,-0.188737,0.000000,0.000000,0.000000,0.000000,0.000000,0.000000
13022426.000000,-2.323593,-1.663184,1.176571,-1.431414,1.722325,1.247596,-0.577413,0.425135,-0.021584,1.269723,-0.446032,-0.327499,1.122460,-0.102168,0.824018,43.145489,-26.598709,-4.808778,0.440763,2.339278,-0.169511,0.000000,0.000000,0.000000,0.000000,0.000000,0.000000
13022427.000000,-2.323164,-1.663206,1.177847,-1.431875,1.722002,1.248749,-0.577515,0.428798,-0.022955,1.271249,-0.450000,-0.327907,1.128291,-0.099595,0.923200,43.145489,-26.424149,-4.364442,0.494779,2.222091,-0.182328,0.000000,0.000000,0.000000,0.000000,0.000000,0.000000
13022428.000000,-2.322747,-1.663232,1.179089,-1.432350,1.721667,1.249890,-0.577619,0.427135,-0.025386,1.260116,-0.455490,-0.328817,1.138911,-0.103825,1.169172,43.197063,-26.106766,-3.920107,0.571683,2.079269,-0.163102,0.000000,0.000000,0.000000,0.000000,0.000000,0.000000
13022429.000000,-2.322340,-1.663252,1.180369,-1.432818,1.721348,1.251040,-0.577722,0.419559,-0.025242,1.257890,-0.461347,-0.328464,1.141975,-0.105200,1.415143,43.173260,-26.154373,-3.547182,0.625699,1.974899,-0.169511,0.000000,0.000000,0.000000,0.000000,0.000000,0.000000
13022430.000000,-2.321926,-1.663281,1.181604,-1.433278,1.721044,1.252174,-0.577827,0.419217,-0.024497,1.247735,-0.460147,-0.318004,1.168006,-0.106180,1.565900,43.268475,-25.860794,-3.277406,0.547880,1.890670,-0.169511,0.000000,0.000000,0.000000,0.000000,0.000000,0.000000
13022431.000000,-2.321527,-1.663298,1.182876,-1.433736,1.720735,1.253317,-0.577929,0.415575,-0.023927,1.252153,-0.458993,-0.321053,1.159152,-0.103219,1.887250,43.220867,-25.936172,-3.126650,0.530485,1.851302,-0.169511,0.000000,0.000000,0.000000,0.000000,0.000000,0.000000
13022432.000000,-2.321120,-1.663321,1.184137,-1.434176,1.720418,1.254458,-0.578030,0.412592,-0.022341,1.244370,-0.450823,-0.322132,1.145875,-0.100718,2.085615,43.268475,-25.860794,-3.202028,0.547880,1.923629,-0.169511,0.000000,0.000000,0.000000,0.000000,0.000000,0.000000
13022433.000000,-2.320715,-1.663344,1.185381,-1.434620,1.720104,1.255580,-0.578128,0.407263,-0.020596,1.241047,-0.448870,-0.317322,1.132560,-0.101355,2.232404,43.292278,-25.860794,-3.249635,0.554288,2.039901,-0.196061,0.000000,0.000000,0.000000,0.000000,0.000000,0.000000
13022434.000000,-2.320312,-1.663364,1.186630,-1.435066,1.719802,1.256717,-0.578229,0.410116,-0.018810,1.235632,-0.447209,-0.309893,1.121843,-0.103681,2.260175,43.292278,-25.813187,-3.202028,0.584501,2.137862,-0.196061,0.000000,0.000000,0.000000,0.000000,0.000000,0.000000
13022435.000000,-2.319902,-1.663377,1.187856,-1.435500,1.719490,1.257879,-0.578335,0.411048,-0.015278,1.254347,-0.444494,-0.310200,1.123715,-0.106948,2.307783,43.197063,-25.737808,-3.225832,0.649503,2.053634,-0.149369,0.000000,0.000000,0.000000,0.000000,0.000000,0.000000
13022436.000000,-2.319481,-1.663386,1.189095,-1.435939,1.719176,1.259043,-0.578430,0.411421,-0.015016,1.245227,-0.437871,-0.305934,1.134671,-0.101376,2.232404,43.050274,-25.714005,-3.126650,0.721830,1.800033,-0.202470,0.000000,0.000000,0.000000,0.000000,0.000000,0.000000
13022437.000000,-2.319074,-1.663394,1.190323,-1.436368,1.718880,1.260210,-0.578533,0.411515,-0.012218,1.232292,-0.442793,-0.304303,1.130728,-0.105047,2.160993,42.927288,-25.468033,-3.079042,0.715421,1.662704,-0.175919,0.000000,0.000000,0.000000,0.000000,0.000000,0.000000
13022438.000000,-2.318658,-1.663395,1.191536,-1.436793,1.718590,1.261356,-0.578633,0.412252,-0.007856,1.225870,-0.433443,-0.297105,1.136902,-0.105343,2.034040,42.705120,-25.273636,-3.027467,0.685209,1.591293,-0.188737,0.000000,0.000000,0.000000,0.000000,0.000000,0.000000
13022439.000000,-2.318250,-1.663403,1.192771,-1.437213,1.718308,1.262509,-0.578728,0.414142,-0.007903,1.220458,-0.426150,-0.291250,1.140619,-0.101622,1.986432,42.609905,-25.273636,-3.102846,0.613798,1.676437,-0.208878,0.000000,0.000000,0.000000,0.000000,0.000000,0.000000
13022440.000000,-2.317841,-1.663410,1.194011,-1.437615,1.718016,1.263658,-0.578835,0.415531,-0.004856,1.225353,-0.417180,-0.287580,1.136129,-0.102359,1.986432,42.534527,-25.321243,-3.225832,0.559781,1.812850,-0.142960,0.000000,0.000000,0.000000,0.000000,0.000000,0.000000
13022441.000000,-2.317438,-1.663412,1.195238,-1.438019,1.717733,1.264794,-0.578925,0.408725,-0.004724,1.222621,-0.408958,-0.279226,1.138856,-0.102457,1.986432,42.411541,-25.543411,-3.400392,0.482877,1.949264,-0.208878,0.000000,0.000000,0.000000,0.000000,0.000000,0.000000
13022442.000000,-2.317038,-1.663412,1.196483,-1.438416,1.717462,1.265944,-0.579030,0.408477,-0.004110,1.221742,-0.398944,-0.273512,1.129727,-0.107082,1.934858,42.264751,-25.813187,-3.499574,0.416959,2.072860,-0.155778,0.000000,0.000000,0.000000,0.000000,0.000000,0.000000
13022443.000000,-2.316635,-1.663410,1.197723,-1.438811,1.717182,1.267078,-0.579133,0.408129,-0.003177,1.228365,-0.398439,-0.272612,1.138725,-0.103559,1.962629,42.094158,-26.277359,-3.570986,0.452665,2.150680,-0.130143,0.000000,0.000000,0.000000,0.000000,0.000000,0.000000
13022444.000000,-2.316231,-1.663418,1.198952,-1.439204,1.716905,1.268223,-0.579230,0.409844,-0.005569,1.224640,-0.392721,-0.276738,1.139546,-0.100759,1.887250,42.046551,-26.424149,-3.570986,0.482877,2.202865,-0.136552,0.000000,0.000000,0.000000,0.000000,0.000000,0.000000
13022445.000000,-2.315826,-1.663426,1.200187,-1.439597,1.716623,1.269376,-0.579325,0.406384,-0.004809,1.219183,-0.395045,-0.277706,1.141481,-0.098033,1.811872,42.046551,-26.574905,-3.448000,0.589994,2.183639,-0.142960,0.000000,0.000000,0.000000,0.000000,0.000000,0.000000
13022446.000000,-2.315425,-1.663429,1.201381,-1.439982,1.716356,1.270500,-0.579417,0.405273,-0.005070,1.211306,-0.391261,-0.270814,1.139711,-0.100303,1.788068,41.947369,-26.424149,-3.400392,0.625699,2.190048,-0.182328,0.000000,0.000000,0.000000,0.000000,0.000000,0.000000
13022447.000000,-2.315025,-1.663435,1.202600,-1.440365,1.716100,1.271639,-0.579517,0.408891,-0.006527,1.205120,-0.390455,-0.264230,1.135104,-0.103936,1.740461,41.899761,-26.328934,-3.400392,0.620206,2.183639,-0.149369,0.000000,0.000000,0.000000,0.000000,0.000000,0.000000
13022448.000000,-2.314620,-1.663443,1.203795,-1.440739,1.715842,1.272756,-0.579607,0.404083,-0.008241,1.200078,-0.385212,-0.266061,1.145678,-0.099803,1.712690,41.875957,-26.106766,-3.348818,0.559781,2.222091,-0.196061,0.000000,0.000000,0.000000,0.000000,0.000000,0.000000
13022449.000000,-2.314232,-1.663452,1.204987,-1.441107,1.715583,1.273901,-0.579704,0.393914,-0.010548,1.191187,-0.379898,-0.263077,1.140498,-0.095348,1.863447,41.899761,-25.666397,-3.448000,0.482877,2.131454,-0.155778,0.000000,0.000000,0.000000,0.000000,0.000000,0.000000
13022450.000000,-2.313845,-1.663462,1.206210,-1.441478,1.715321,1.275053,-0.579791,0.392995,-0.012085,1.194113,-0.377486,-0.262923,1.134989,-0.088629,1.887250,41.923565,-25.614822,-3.400392,0.458158,2.039901,-0.202470,0.000000,0.000000,0.000000,0.000000,0.000000,0.000000
13022451.000000,-2.313458,-1.663464,1.207394,-1.441844,1.715065,1.276186,-0.579880,0.388264,-0.010783,1.188688,-0.373174,-0.260974,1.134984,-0.085501,2.010236,41.848186,-25.368851,-3.448000,0.393156,1.995040,-0.196061,0.000000,0.000000,0.000000,0.000000,0.000000,0.000000
13022452.000000,-2.313073,-1.663471,1.208598,-1.442224,1.714812,1.277330,-0.579972,0.387183,-0.011075,1.184807,-0.372692,-0.261814,1.134103,-0.084856,2.109418,41.824383,-25.321243,-3.376589,0.381254,1.955673,-0.142960,0.000000,0.000000,0.000000,0.000000,0.000000,0.000000
13022453.000000,-2.312695,-1.663477,1.209812,-1.442584,1.714545,1.278480,-0.580054,0.381428,-0.010714,1.211808,-0.369517,-0.265377,1.134229,-0.084189,2.260175,41.776775,-25.321243,-3.424196,0.464567,1.871444,-0.188737,0.000000,0.000000,0.000000,0.000000,0.000000,0.000000
13022454.000000,-2.312318,-1.663476,1.211000,-1.442942,1.714286,1.279627,-0.580146,0.377656,-0.005367,1.204265,-0.361605,-0.260656,1.138556,-0.083017,2.406965,41.653790,-25.297440,-3.547182,0.470060,1.702071,-0.163102,0.000000,0.000000,0.000000,0.000000,0.000000,0.000000
13022455.000000,-2.311946,-1.663476,1.212199,-1.443295,1.714034,1.280767,-0.580234,0.375195,-0.005556,1.201124,-0.362487,-0.258108,1.133634,-0.085783,2.553754,41.554607,-25.321243,-3.598757,0.500272,1.702071,-0.155778,0.000000,0.000000,0.000000,0.000000,0.000000,0.000000
13022456.000000,-2.311569,-1.663474,1.213364,-1.443647,1.713785,1.281880,-0.580319,0.374279,-0.002386,1.192189,-0.357798,-0.253097,1.132420,-0.086774,2.680707,41.459393,-25.126846,-3.697939,0.470060,1.832076,-0.175919,0.000000,0.000000,0.000000,0.000000,0.000000,0.000000
13022457.000000,-2.311201,-1.663468,1.214549,-1.444008,1.713537,1.283015,-0.580404,0.371347,0.000605,1.188112,-0.355510,-0.252456,1.132503,-0.088226,2.752119,41.336407,-24.976089,-3.598757,0.500272,1.930038,-0.182328,0.000000,0.000000,0.000000,0.000000,0.000000,0.000000
13022458.000000,-2.310825,-1.663466,1.215719,-1.444356,1.713286,1.284156,-0.580490,0.370010,0.001655,1.175336,-0.352694,-0.249930,1.136540,-0.089478,2.752119,41.261028,-24.634903,-3.547182,0.482877,2.033492,-0.188737,0.000000,0.000000,0.000000,0.000000,0.000000,0.000000
13022459.000000,-2.310452,-1.663457,1.216870,-1.444712,1.713035,1.285283,-0.580576,0.366900,0.004154,1.167245,-0.353533,-0.247500,1.135857,-0.086942,2.779890,41.114239,-24.313553,-3.348818,0.452665,2.020675,-0.163102,0.000000,0.000000,0.000000,0.000000,0.000000,0.000000
13022460.000000,-2.310077,-1.663445,1.218054,-1.445059,1.712793,1.286434,-0.580657,0.367944,0.005915,1.158850,-0.348875,-0.246338,1.136126,-0.086717,2.728315,40.967449,-24.289749,-3.249635,0.428861,1.909896,-0.202470,0.000000,0.000000,0.000000,0.000000,0.000000,0.000000
13022461.000000,-2.309698,-1.663427,1.219221,-1.445404,1.712553,1.287577,-0.580743,0.367391,0.008832,1.162270,-0.344403,-0.244355,1.158059,-0.089669,2.680707,40.749249,-24.265945,-3.178224,0.386747,1.741439,-0.175919,0.000000,0.000000,0.000000,0.000000,0.000000,0.000000
13022462.000000,-2.309334,-1.663412,1.220420,-1.445746,1.712314,1.288724,-0.580827,0.373588,0.010366,1.169269,-0.340581,-0.241548,1.149446,-0.085831,2.704511,40.550884,-24.511917,-3.102846,0.428861,1.643478,-0.182328,0.000000,0.000000,0.000000,0.000000,0.000000,0.000000
13022463.000000,-2.308968,-1.663403,1.221611,-1.446074,1.712069,1.289864,-0.580913,0.371336,0.008460,1.168456,-0.338202,-0.243056,1.136917,-0.084134,2.728315,40.479473,-24.658707,-3.178224,0.434354,1.662704,-0.155778,0.000000,0.000000,0.000000,0.000000,0.000000,0.000000
13022464.000000,-2.308606,-1.663398,1.222802,-1.446403,1.711824,1.290986,-0.580990,0.367125,0.006755,1.175006,-0.332324,-0.244914,1.127332,-0.081404,2.827497,40.427898,-25.099075,-3.301210,0.464567,1.747848,-0.169511,0.000000,0.000000,0.000000,0.000000,0.000000,0.000000
13022465.000000,-2.308247,-1.663388,1.224003,-1.446724,1.711592,1.292113,-0.581068,0.365376,0.006663,1.177590,-0.327088,-0.240902,1.116701,-0.083625,2.902875,40.332684,-25.444229,-3.475771,0.476469,1.877853,-0.188737,0.000000,0.000000,0.000000,0.000000,0.000000,0.000000
13022466.000000,-2.307881,-1.663388,1.225165,-1.447039,1.711362,1.293237,-0.581152,0.362414,0.004391,1.174110,-0.322981,-0.231093,1.116792,-0.086554,2.879072,40.332684,-25.420425,-3.670168,0.446256,2.001449,-0.163102,0.000000,0.000000,0.000000,0.000000,0.000000,0.000000
13022467.000000,-2.307514,-1.663380,1.226354,-1.447366,1.711130,1.294352,-0.581227,0.359237,0.004652,1.174405,-0.320713,-0.230980,1.116064,-0.087160,2.779890,40.257305,-25.543411,-3.670168,0.476469,2.020675,-0.196061,0.000000,0.000000,0.000000,0.000000,0.000000,0.000000
13022468.000000,-2.307156,-1.663381,1.227538,-1.447679,1.710908,1.295473,-0.581310,0.357989,0.002516,1.165642,-0.317822,-0.227626,1.112647,-0.085111,2.752119,40.281109,-25.444229,-3.745546,0.416959,2.039901,-0.169511,0.000000,0.000000,0.000000,0.000000,0.000000,0.000000
13022469.000000,-2.306783,-1.663377,1.228691,-1.448011,1.710682,1.296587,-0.581388,0.361933,0.002212,1.159599,-0.323076,-0.225878,1.118447,-0.086409,2.629133,40.257305,-25.198257,-3.499574,0.381254,2.033492,-0.196061,0.000000,0.000000,0.000000,0.000000,0.000000,0.000000
13022470.000000,-2.306418,-1.663374,1.229849,-1.448331,1.710460,1.297723,-0.581474,0.365961,0.001459,1.149038,-0.323514,-0.225964,1.125126,-0.085043,2.482343,40.257305,-24.880875,-3.376589,0.362943,1.903487,-0.155778,0.000000,0.000000,0.000000,0.000000,0.000000,0.000000
13022471.000000,-2.306051,-1.663374,1.231015,-1.448651,1.710235,1.298875,-0.581557,0.363818,0.000404,1.167869,-0.321890,-0.222657,1.137486,-0.086596,2.383161,40.281109,-24.535721,-3.202028,0.393156,1.721298,-0.142960,0.000000,0.000000,0.000000,0.000000,0.000000,0.000000
13022472.000000,-2.305683,-1.663370,1.232174,-1.448967,1.710008,1.299995,-0.581630,0.367779,0.000817,1.168163,-0.318276,-0.221065,1.134972,-0.086076,2.208601,40.257305,-24.464310,-3.079042,0.452665,1.617843,-0.188737,0.000000,0.000000,0.000000,0.000000,0.000000,0.000000
13022473.000000,-2.305326,-1.663367,1.233322,-1.449263,1.709798,1.301123,-0.581714,0.365866,0.000538,1.162041,-0.319451,-0.219753,1.124113,-0.084438,2.184797,40.257305,-24.071548,-3.154421,0.381254,1.643478,-0.155778,0.000000,0.000000,0.000000,0.000000,0.000000,0.000000
13022474.000000,-2.304963,-1.663366,1.234474,-1.449562,1.709567,1.302237,-0.581793,0.363208,-0.000204,1.157226,-0.312913,-0.223050,1.114596,-0.086245,2.109418,40.281109,-23.996170,-3.225832,0.434354,1.676437,-0.149369,0.000000,0.000000,0.000000,0.000000,0.000000,0.000000
13022475.000000,-2.304609,-1.663361,1.235639,-1.449854,1.709344,1.303366,-0.581870,0.357983,0.003902,1.154656,-0.303001,-0.225218,1.110340,-0.083330,2.061811,40.257305,-23.896988,-3.376589,0.464567,1.741439,-0.149369,0.000000,0.000000,0.000000,0.000000,0.000000,0.000000
13022476.000000,-2.304247,-1.663354,1.236813,-1.450140,1.709131,1.304502,-0.581941,0.358148,0.007468,1.155890,-0.299556,-0.218165,1.106144,-0.079379,1.911054,40.209698,-23.920792,-3.523378,0.398649,1.858627,-0.202470,0.000000,0.000000,0.000000,0.000000,0.000000,0.000000
13022477.000000,-2.303878,-1.663348,1.237960,-1.450444,1.708916,1.305625,-0.582022,0.357919,0.010730,1.153854,-0.295677,-0.214983,1.106335,-0.081029,1.688886,40.134319,-23.948563,-3.448000,0.381254,1.903487,-0.136552,0.000000,0.000000,0.000000,0.000000,0.000000,0.000000
13022478.000000,-2.303510,-1.663337,1.239127,-1.450727,1.708713,1.306769,-0.582092,0.361343,0.013532,1.150538,-0.288433,-0.211243,1.106763,-0.077420,1.442914,40.039104,-23.996170,-3.570986,0.320829,1.865035,-0.188737,0.000000,0.000000,0.000000,0.000000,0.000000,0.000000
13022479.000000,-2.303138,-1.663329,1.240266,-1.451019,1.708495,1.307887,-0.582166,0.363666,0.011020,1.149692,-0.290648,-0.211675,1.135025,-0.075539,1.169172,39.987530,-23.920792,-3.499574,0.356534,1.865035,-0.208878,0.000000,0.000000,0.000000,0.000000,0.000000,0.000000
13022480.000000,-2.302766,-1.663318,1.241405,-1.451307,1.708280,1.309014,-0.582248,0.368730,0.010724,1.146277,-0.289015,-0.217001,1.131990,-0.073813,0.824018,39.868511,-23.702591,-3.523378,0.386747,1.923629,-0.130143,0.000000,0.000000,0.000000,0.000000,0.000000,0.000000
13022481.000000,-2.302391,-1.663300,1.242549,-1.451585,1.708069,1.310152,-0.582311,0.371292,0.011678,1.136764,-0.285457,-0.208944,1.132237,-0.066739,0.474897,39.693951,-23.456619,-3.547182,0.356534,1.897079,-0.188737,0.000000,0.000000,0.000000,0.000000,0.000000,0.000000
13022482.000000,-2.302014,-1.663284,1.243682,-1.451872,1.707853,1.311283,-0.582385,0.370002,0.014432,1.136188,-0.287162,-0.206057,1.136215,-0.065573,0.228925,39.574932,-23.286026,-3.523378,0.416959,1.793624,-0.155778,0.000000,0.000000,0.000000,0.000000,0.000000,0.000000
13022483.000000,-2.301639,-1.663273,1.244826,-1.452142,1.707656,1.312410,-0.582451,0.367383,0.014297,1.132681,-0.280709,-0.204580,1.132133,-0.066871,-0.068621,39.547161,-23.163040,-3.670168,0.362943,1.800033,-0.182328,0.000000,0.000000,0.000000,0.000000,0.000000,0.000000
13022484.000000,-2.301268,-1.663254,1.245969,-1.452411,1.707458,1.313549,-0.582523,0.368058,0.016057,1.154815,-0.280595,-0.198805,1.136890,-0.064565,-0.215411,39.451946,-23.286026,-3.646364,0.320829,1.747848,-0.169511,0.000000,0.000000,0.000000,0.000000,0.000000,0.000000
13022485.000000,-2.300899,-1.663239,1.247140,-1.452674,1.707254,1.314657,-0.582594,0.367119,0.016775,1.158273,-0.271693,-0.199742,1.129129,-0.067083,-0.389971,39.376568,-23.528030,-3.820925,0.285123,1.767074,-0.175919,0.000000,0.000000,0.000000,0.000000,0.000000,0.000000
13022486.000000,-2.300541,-1.663233,1.248323,-1.452930,1.707049,1.315785,-0.582662,0.364955,0.014339,1.159421,-0.270575,-0.201516,1.121187,-0.069224,-0.512957,39.428143,-23.920792,-3.868532,0.273221,1.786300,-0.175919,0.000000,0.000000,0.000000,0.000000,0.000000,0.000000
13022487.000000,-2.300184,-1.663223,1.249475,-1.453181,1.706849,1.316880,-0.582734,0.363448,0.014576,1.158062,-0.263014,-0.203033,1.100629,-0.071485,-0.540728,39.400372,-24.190567,-3.991518,0.267728,1.909896,-0.136552,0.000000,0.000000,0.000000,0.000000,0.000000,0.000000
13022488.000000,-2.299825,-1.663217,1.250646,-1.453435,1.706652,1.317996,-0.582798,0.362896,0.012444,1.153732,-0.261018,-0.199809,1.099007,-0.070955,-0.663714,39.475750,-24.436539,-4.118471,0.267728,2.007858,-0.169511,0.000000,0.000000,0.000000,0.000000,0.000000,0.000000
13022489.000000,-2.299475,-1.663211,1.251810,-1.453684,1.706449,1.319121,-0.582868,0.354591,0.011816,1.173921,-0.258313,-0.203658,1.096457,-0.068004,-0.612139,39.523357,-24.535721,-4.166078,0.315336,2.020675,-0.142960,0.000000,0.000000,0.000000,0.000000,0.000000,0.000000
13022490.000000,-2.299118,-1.663201,1.252952,-1.453926,1.706256,1.320223,-0.582926,0.349629,0.009519,1.165921,-0.251522,-0.200019,1.098798,-0.067847,-0.711321,39.499554,-24.583328,-4.241457,0.315336,2.072860,-0.196061,0.000000,0.000000,0.000000,0.000000,0.000000,0.000000
13022491.000000,-2.298772,-1.663194,1.254091,-1.454173,1.706066,1.321339,-0.582990,0.350246,0.010083,1.149581,-0.257464,-0.195157,1.095033,-0.065234,-0.735125,39.523357,-24.365128,-4.213686,0.261320,2.079269,-0.188737,0.000000,0.000000,0.000000,0.000000,0.000000,0.000000
13022493.000000,-2.298069,-1.663187,1.256352,-1.454669,1.705659,1.323565,-0.583117,0.347729,0.008928,1.135757,-0.251742,-0.197391,1.107173,-0.064835,-0.862078,39.693951,-23.702591,-4.118471,0.308927,1.974899,-0.169511,0.000000,0.000000,0.000000,0.000000,0.000000,0.000000
13022494.000000,-2.297721,-1.663173,1.257488,-1.454913,1.705460,1.324682,-0.583177,0.346621,0.009202,1.125117,-0.250056,-0.194868,1.107707,-0.062091,-0.909686,39.598736,-23.381241,-4.043092,0.303434,1.974899,-0.188737,0.000000,0.000000,0.000000,0.000000,0.000000,0.000000
13022495.000000,-2.297384,-1.663161,1.258626,-1.455161,1.705269,1.325791,-0.583243,0.340946,0.011593,1.132298,-0.250517,-0.191077,1.109898,-0.060800,-0.862078,39.547161,-23.286026,-4.019289,0.243009,1.936446,-0.188737,0.000000,0.000000,0.000000,0.000000,0.000000,0.000000
13022496.000000,-2.297059,-1.663145,1.259753,-1.455400,1.705080,1.326915,-0.583311,0.333027,0.010822,1.123053,-0.246070,-0.190008,1.108361,-0.062111,-0.687518,39.451946,-22.988480,-4.090700,0.225614,1.800033,-0.116410,0.000000,0.000000,0.000000,0.000000,0.000000,0.000000
13022497.000000,-2.296731,-1.663129,1.260888,-1.455636,1.704887,1.328031,-0.583366,0.328485,0.010741,1.124531,-0.244970,-0.186806,1.127322,-0.063037,-0.540728,39.328960,-23.040054,-4.066896,0.273221,1.643478,-0.175919,0.000000,0.000000,0.000000,0.000000,0.000000,0.000000
13022498.000000,-2.296404,-1.663113,1.262035,-1.455877,1.704694,1.329145,-0.583430,0.327461,0.013465,1.126844,-0.242188,-0.195045,1.112627,-0.062264,-0.342364,39.229778,-23.063858,-4.090700,0.261320,1.643478,-0.155778,0.000000,0.000000,0.000000,0.000000,0.000000,0.000000
13022499.000000,-2.296094,-1.663098,1.263191,-1.456115,1.704504,1.330267,-0.583489,0.323407,0.014753,1.129592,-0.241898,-0.192933,1.107864,-0.061728,-0.044818,39.158367,-23.163040,-4.066896,0.243009,1.708480,-0.130143,0.000000,0.000000,0.000000,0.000000,0.000000,0.000000
13022500.000000,-2.295778,-1.663080,1.264317,-1.456351,1.704313,1.331371,-0.583543,0.320339,0.017026,1.133595,-0.240653,-0.187799,1.103446,-0.062316,0.153547,39.035381,-23.186844,-4.090700,0.261320,1.741439,-0.182328,0.000000,0.000000,0.000000,0.000000,0.000000,0.000000
13022501.000000,-2.295468,-1.663071,1.265448,-1.456593,1.704126,1.332486,-0.583605,0.315060,0.015711,1.125016,-0.245770,-0.190426,1.102467,-0.061791,0.375715,39.035381,-23.087662,-3.991518,0.315336,1.760665,-0.149369,0.000000,0.000000,0.000000,0.000000,0.000000,0.000000
13022502.000000,-2.295150,-1.663054,1.266570,-1.456829,1.703944,1.333611,-0.583656,0.314050,0.017228,1.146168,-0.241937,-0.189878,1.100778,-0.057855,0.451093,38.936199,-23.016251,-3.943910,0.315336,1.747848,-0.208878,0.000000,0.000000,0.000000,0.000000,0.000000,0.000000
13022503.000000,-2.294833,-1.663029,1.267698,-1.457067,1.703769,1.334712,-0.583719,0.314389,0.021080,1.139269,-0.238900,-0.187620,1.103381,-0.058487,0.502668,38.717999,-22.865494,-3.868532,0.255826,1.735030,-0.188737,0.000000,0.000000,0.000000,0.000000,0.000000,0.000000
13022504.000000,-2.294533,-1.663009,1.268826,-1.457300,1.703588,1.335840,-0.583786,0.309744,0.021994,1.128588,-0.240336,-0.186866,1.103776,-0.064383,0.601850,38.571209,-22.671097,-3.745546,0.219205,1.702071,-0.142960,0.000000,0.000000,0.000000,0.000000,0.000000,0.000000
13022505.000000,-2.294233,-1.662994,1.269936,-1.457539,1.703395,1.336952,-0.583846,0.306278,0.020354,1.121562,-0.241816,-0.186986,1.109904,-0.067251,0.673261,38.519634,-22.425125,-3.646364,0.219205,1.591293,-0.136552,0.000000,0.000000,0.000000,0.000000,0.000000,0.000000
13022506.000000,-2.293935,-1.662975,1.271073,-1.457775,1.703210,1.338081,-0.583900,0.305904,0.021015,1.120768,-0.236528,-0.182597,1.116766,-0.061730,0.796247,38.396648,-22.448929,-3.547182,0.207303,1.519881,-0.202470,0.000000,0.000000,0.000000,0.000000,0.000000,0.000000
13022507.000000,-2.293640,-1.662949,1.272221,-1.458007,1.703025,1.339206,-0.583961,0.298637,0.023254,1.121380,-0.236269,-0.185135,1.115572,-0.065774,0.947004,38.202251,-22.595718,-3.424196,0.225614,1.494247,-0.182328,0.000000,0.000000,0.000000,0.000000,0.000000,0.000000
13022508.000000,-2.293346,-1.662930,1.273361,-1.458238,1.702841,1.340320,-0.584025,0.296993,0.023008,1.128005,-0.237499,-0.181940,1.114125,-0.065107,1.069990,38.079266,-22.794083,-3.348818,0.237516,1.500655,-0.130143,0.000000,0.000000,0.000000,0.000000,0.000000,0.000000
13022509.000000,-2.293070,-1.662913,1.274523,-1.458478,1.702658,1.341439,-0.584076,0.293433,0.021638,1.135127,-0.235858,-0.186154,1.103996,-0.060461,1.367536,38.007854,-23.186844,-3.277406,0.303434,1.565658,-0.188737,0.000000,0.000000,0.000000,0.000000,0.000000,0.000000
13022510.000000,-2.292787,-1.662898,1.275662,-1.458705,1.702476,1.342541,-0.584138,0.286787,0.020696,1.135902,-0.233674,-0.186822,1.105816,-0.060767,1.514325,37.932476,-23.555801,-3.249635,0.320829,1.727706,-0.142960,0.000000,0.000000,0.000000,0.000000,0.000000,0.000000
13022511.000000,-2.292514,-1.662888,1.276810,-1.458936,1.702304,1.343653,-0.584190,0.288587,0.017864,1.133723,-0.230321,-0.180154,1.096260,-0.058493,1.712690,37.956280,-23.702591,-3.154421,0.261320,1.897079,-0.169511,0.000000,0.000000,0.000000,0.000000,0.000000,0.000000
13022512.000000,-2.292236,-1.662868,1.277967,-1.459162,1.702114,1.344769,-0.584248,0.287132,0.018736,1.135425,-0.226891,-0.179996,1.096441,-0.058619,1.887250,37.861065,-23.849380,-3.102846,0.320829,2.033492,-0.155778,0.000000,0.000000,0.000000,0.000000,0.000000,0.000000
13022513.000000,-2.291949,-1.662849,1.279101,-1.459397,1.701939,1.345876,-0.584299,0.285773,0.019320,1.137438,-0.225973,-0.180214,1.097101,-0.061788,1.863447,37.761883,-23.873184,-2.979860,0.273221,2.020675,-0.182328,0.000000,0.000000,0.000000,0.000000,0.000000,0.000000
13022514.000000,-2.291669,-1.662827,1.280238,-1.459640,1.701767,1.346990,-0.584349,0.286781,0.020379,1.127763,-0.228276,-0.176851,1.095757,-0.059413,1.887250,37.638897,-23.774002,-2.733888,0.249418,1.981307,-0.208878,0.000000,0.000000,0.000000,0.000000,0.000000,0.000000
13022515.000000,-2.291385,-1.662809,1.281352,-1.459875,1.701584,1.348099,-0.584413,0.282479,0.016401,1.122314,-0.232887,-0.178241,1.125908,-0.061040,1.835676,37.567486,-23.528030,-2.483949,0.339139,1.890670,-0.136552,0.000000,0.000000,0.000000,0.000000,0.000000,0.000000
13022516.000000,-2.291108,-1.662797,1.282484,-1.460122,1.701411,1.349212,-0.584457,0.279334,0.015278,1.125802,-0.235818,-0.181792,1.125222,-0.057594,1.811872,37.567486,-23.286026,-2.214174,0.398649,1.812850,-0.196061,0.000000,0.000000,0.000000,0.000000,0.000000,0.000000
13022517.000000,-2.290835,-1.662786,1.283612,-1.460359,1.701241,1.350325,-0.584512,0.281375,0.011120,1.121258,-0.233689,-0.178277,1.113941,-0.053423,1.835676,37.567486,-23.040054,-2.015810,0.393156,1.838485,-0.169511,0.000000,0.000000,0.000000,0.000000,0.000000,0.000000
13022518.000000,-2.290564,-1.662767,1.284742,-1.460588,1.701071,1.351409,-0.584562,0.278541,0.013287,1.124980,-0.228929,-0.174020,1.101987,-0.053223,1.911054,37.492107,-23.016251,-1.964235,0.344633,1.897079,-0.196061,0.000000,0.000000,0.000000,0.000000,0.000000,0.000000
13022519.000000,-2.290301,-1.662757,1.285869,-1.460812,1.700905,1.352544,-0.584613,0.269190,0.012045,1.119774,-0.224060,-0.166071,1.105140,-0.054429,2.034040,37.539715,-22.794083,-1.964235,0.279630,1.714889,-0.182328,0.000000,0.000000,0.000000,0.000000,0.000000,0.000000
13022520.000000,-2.290040,-1.662744,1.286996,-1.461030,1.700730,1.353676,-0.584669,0.266963,0.012271,1.143952,-0.223329,-0.167651,1.105745,-0.051708,2.208601,37.539715,-22.865494,-1.992006,0.297025,1.578475,-0.136552,0.000000,0.000000,0.000000,0.000000,0.000000,0.000000
13022521.000000,-2.289773,-1.662731,1.288145,-1.461247,1.700564,1.354771,-0.584717,0.266491,0.013172,1.141658,-0.218842,-0.168150,1.103005,-0.052272,2.232404,37.515911,-23.016251,-2.039613,0.297025,1.656295,-0.149369,0.000000,0.000000,0.000000,0.000000,0.000000,0.000000
13022522.000000,-2.289512,-1.662721,1.289293,-1.461461,1.700406,1.355876,-0.584767,0.263934,0.012705,1.139815,-0.219851,-0.162837,1.092288,-0.053692,2.208601,37.539715,-23.087662,-2.015810,0.267728,1.786300,-0.136552,0.000000,0.000000,0.000000,0.000000,0.000000,0.000000
13022523.000000,-2.289250,-1.662717,1.290411,-1.461675,1.700229,1.356983,-0.584808,0.262942,0.010730,1.134119,-0.217433,-0.170571,1.094755,-0.051800,2.232404,37.638897,-23.063858,-2.039613,0.434354,1.735030,-0.202470,0.000000,0.000000,0.000000,0.000000,0.000000,0.000000
13022524.000000,-2.288993,-1.662707,1.291546,-1.461891,1.700070,1.358113,-0.584862,0.262285,0.011155,1.126593,-0.213529,-0.161694,1.100306,-0.055294,2.283979,37.662701,-23.111465,-2.015810,0.464567,1.565658,-0.142960,0.000000,0.000000,0.000000,0.000000,0.000000,0.000000
13022525.000000,-2.288717,-1.662695,1.292677,-1.462098,1.699913,1.359228,-0.584904,0.267215,0.012547,1.119271,-0.214705,-0.161448,1.102129,-0.053240,2.109418,37.638897,-23.016251,-1.964235,0.405057,1.572067,-0.196061,0.000000,0.000000,0.000000,0.000000,0.000000,0.000000
13022526.000000,-2.288442,-1.662685,1.293785,-1.462302,1.699750,1.360319,-0.584958,0.270257,0.012973,1.118152,-0.208196,-0.168240,1.105041,-0.056175,1.934858,37.638897,-22.865494,-1.940431,0.405057,1.689254,-0.142960,0.000000,0.000000,0.000000,0.000000,0.000000,0.000000
13022527.000000,-2.288182,-1.662679,1.294889,-1.462503,1.699594,1.361432,-0.584999,0.266843,0.008660,1.104634,-0.209386,-0.162978,1.109431,-0.053884,1.863447,37.686504,-22.500504,-1.940431,0.369352,1.676437,-0.202470,0.000000,0.000000,0.000000,0.000000,0.000000,0.000000
13022528.000000,-2.287908,-1.662665,1.295993,-1.462703,1.699440,1.362533,-0.585049,0.270799,0.010665,1.101127,-0.203942,-0.154706,1.126686,-0.054571,1.641279,37.662701,-22.278336,-1.940431,0.356534,1.695663,-0.188737,0.000000,0.000000,0.000000,0.000000,0.000000,0.000000
13022529.000000,-2.287653,-1.662648,1.297114,-1.462899,1.699294,1.363633,-0.585099,0.271007,0.009704,1.107160,-0.199770,-0.155882,1.109993,-0.055861,1.589704,37.591290,-22.179153,-1.940431,0.308927,1.773483,-0.169511,0.000000,0.000000,0.000000,0.000000,0.000000,0.000000
13022530.000000,-2.287385,-1.662636,1.298257,-1.463083,1.699145,1.364761,-0.585143,0.271485,0.014641,1.113172,-0.195151,-0.153801,1.102839,-0.050080,1.466718,37.567486,-22.425125,-2.015810,0.279630,1.714889,-0.202470,0.000000,0.000000,0.000000,0.000000,0.000000,0.000000
13022531.000000,-2.287123,-1.662621,1.299394,-1.463267,1.698997,1.365868,-0.585193,0.266661,0.015899,1.121824,-0.191254,-0.158124,1.098641,-0.043956,1.415143,37.492107,-22.718704,-2.114992,0.285123,1.637069,-0.155778,0.000000,0.000000,0.000000,0.000000,0.000000,0.000000
13022532.000000,-2.286865,-1.662611,1.300539,-1.463455,1.698851,1.366985,-0.585235,0.264883,0.011695,1.127874,-0.192679,-0.158159,1.099767,-0.041375,1.315961,37.492107,-23.016251,-2.162599,0.327238,1.611434,-0.175919,0.000000,0.000000,0.000000,0.000000,0.000000,0.000000
13022533.000000,-2.286601,-1.662601,1.301678,-1.463634,1.698702,1.368094,-0.585279,0.263568,0.011970,1.150912,-0.187728,-0.152291,1.118679,-0.040938,1.192975,37.492107,-23.456619,-2.214174,0.351041,1.643478,-0.163102,0.000000,0.000000,0.000000,0.000000,0.000000,0.000000
13022534.000000,-2.286346,-1.662593,1.302832,-1.463806,1.698554,1.369174,-0.585322,0.257982,0.008319,1.149639,-0.182127,-0.151986,1.110941,-0.039880,1.145368,37.515911,-23.801773,-2.313356,0.356534,1.793624,-0.169511,0.000000,0.000000,0.000000,0.000000,0.000000,0.000000
13022535.000000,-2.286099,-1.662585,1.303977,-1.463966,1.698401,1.370274,-0.585361,0.250821,0.008469,1.140049,-0.173952,-0.152147,1.103821,-0.038095,1.093793,37.567486,-23.948563,-2.483949,0.369352,1.825668,-0.202470,0.000000,0.000000,0.000000,0.000000,0.000000,0.000000
13022536.000000,-2.285842,-1.662584,1.305089,-1.464131,1.698256,1.371350,-0.585409,0.254913,0.004211,1.131968,-0.172761,-0.151070,1.104873,-0.040797,1.022382,37.662701,-23.920792,-2.583132,0.356534,1.871444,-0.130143,0.000000,0.000000,0.000000,0.000000,0.000000,0.000000
13022537.000000,-2.285587,-1.662582,1.306212,-1.464292,1.698112,1.372444,-0.585444,0.255982,0.004569,1.125036,-0.166893,-0.150960,1.096265,-0.038152,0.923200,37.761883,-23.774002,-2.757692,0.351041,1.877853,-0.169511,0.000000,0.000000,0.000000,0.000000,0.000000,0.000000
13022538.000000,-2.285327,-1.662581,1.307340,-1.464461,1.697971,1.373538,-0.585483,0.256902,0.004241,1.141826,-0.168950,-0.146257,1.086494,-0.041443,0.796247,37.884869,-23.528030,-2.658510,0.351041,1.877853,-0.196061,0.000000,0.000000,0.000000,0.000000,0.000000,0.000000
13022539.000000,-2.285066,-1.662578,1.308448,-1.464618,1.697829,1.374620,-0.585521,0.256640,0.001337,1.133998,-0.162481,-0.142314,1.083517,-0.040306,0.601850,37.984051,-23.309830,-2.733888,0.339139,1.916305,-0.202470,0.000000,0.000000,0.000000,0.000000,0.000000,0.000000
13022540.000000,-2.284803,-1.662579,1.309561,-1.464779,1.697696,1.375721,-0.585564,0.256876,-0.001270,1.122122,-0.167524,-0.137774,1.080611,-0.041122,0.375715,38.103069,-22.964676,-2.634706,0.279630,1.858627,-0.163102,0.000000,0.000000,0.000000,0.000000,0.000000,0.000000
13022541.000000,-2.284556,-1.662579,1.310684,-1.464928,1.697559,1.376843,-0.585599,0.252478,0.000681,1.120897,-0.164211,-0.140070,1.099267,-0.038573,0.328107,38.202251,-23.040054,-2.733888,0.255826,1.572067,-0.196061,0.000000,0.000000,0.000000,0.000000,0.000000,0.000000
13022542.000000,-2.284317,-1.662571,1.311805,-1.465077,1.697421,1.377963,-0.585642,0.248546,0.001643,1.121862,-0.155415,-0.141576,1.099186,-0.039735,0.328107,38.178448,-22.893265,-2.833071,0.213712,1.377059,-0.155778,0.000000,0.000000,0.000000,0.000000,0.000000,0.000000
13022543.000000,-2.284065,-1.662570,1.312934,-1.465218,1.697271,1.379081,-0.585682,0.250037,0.003780,1.118743,-0.153026,-0.141810,1.101979,-0.039360,0.276533,38.226055,-22.893265,-2.904482,0.273221,1.337692,-0.142960,0.000000,0.000000,0.000000,0.000000,0.000000,0.000000
13022544.000000,-2.283824,-1.662574,1.314050,-1.465350,1.697126,1.380164,-0.585713,0.245317,0.000832,1.115737,-0.145860,-0.139818,1.098626,-0.037174,0.328107,38.325237,-22.893265,-3.055238,0.285123,1.494247,-0.182328,0.000000,0.000000,0.000000,0.000000,0.000000,0.000000
13022545.000000,-2.283585,-1.662569,1.315180,-1.465477,1.696982,1.381251,-0.585754,0.244774,0.002143,1.118239,-0.140527,-0.144900,1.096595,-0.038644,0.304304,38.277630,-22.917068,-3.225832,0.344633,1.708480,-0.142960,0.000000,0.000000,0.000000,0.000000,0.000000,0.000000
13022546.000000,-2.283343,-1.662567,1.316290,-1.465595,1.696841,1.382344,-0.585786,0.247993,0.002434,1.118046,-0.135941,-0.141013,1.118798,-0.040546,0.276533,38.249859,-23.016251,-3.424196,0.339139,1.800033,-0.196061,0.000000,0.000000,0.000000,0.000000,0.000000,0.000000
13022547.000000,-2.283106,-1.662563,1.317416,-1.465714,1.696711,1.383456,-0.585825,0.249105,0.003003,1.117235,-0.132608,-0.136921,1.122228,-0.041121,0.205121,38.202251,-23.087662,-3.622560,0.285123,1.793624,-0.163102,0.000000,0.000000,0.000000,0.000000,0.000000,0.000000
13022548.000000,-2.282865,-1.662560,1.318541,-1.465841,1.696578,1.384578,-0.585857,0.247657,0.003316,1.116353,-0.132477,-0.133810,1.111054,-0.039533,0.054365,38.154644,-23.063858,-3.598757,0.231107,1.767074,-0.182328,0.000000,0.000000,0.000000,0.000000,0.000000,0.000000
13022549.000000,-2.282614,-1.662555,1.319640,-1.465969,1.696448,1.385670,-0.585895,0.248004,0.004124,1.107734,-0.129886,-0.131958,1.102653,-0.039387,-0.215411,38.079266,-22.964676,-3.523378,0.183500,1.760665,-0.175919,0.000000,0.000000,0.000000,0.000000,0.000000,0.000000
13022550.000000,-2.282370,-1.662552,1.320748,-1.466098,1.696317,1.386779,-0.585932,0.248929,0.002862,1.099493,-0.128279,-0.132148,1.097211,-0.039599,-0.389971,38.079266,-22.718704,-3.424196,0.178007,1.786300,-0.155778,0.000000,0.000000,0.000000,0.000000,0.000000,0.000000
13022551.000000,-2.282119,-1.662551,1.321838,-1.466216,1.696170,1.387895,-0.585960,0.250834,0.003106,1.117803,-0.121465,-0.134380,1.091815,-0.037143,-0.635943,38.031658,-22.472733,-3.424196,0.243009,1.779891,-0.202470,0.000000,0.000000,0.000000,0.000000,0.000000,0.000000
13022552.000000,-2.281873,-1.662546,1.322962,-1.466328,1.696034,1.389000,-0.586001,0.246460,0.003897,1.117007,-0.114669,-0.137494,1.094228,-0.038617,-0.862078,37.956280,-22.571915,-3.475771,0.219205,1.714889,-0.169511,0.000000,0.000000,0.000000,0.000000,0.000000,0.000000
13022553.000000,-2.281637,-1.662543,1.324094,-1.466431,1.695904,1.390112,-0.586029,0.246403,0.003759,1.115832,-0.113593,-0.135375,1.092402,-0.037269,-0.985064,37.908672,-22.671097,-3.646364,0.195402,1.670028,-0.196061,0.000000,0.000000,0.000000,0.000000,0.000000,0.000000
13022554.000000,-2.281397,-1.662539,1.325224,-1.466538,1.695767,1.391205,-0.586067,0.243768,0.003655,1.121043,-0.110386,-0.131667,1.092978,-0.038902,-1.131854,37.861065,-22.988480,-3.797121,0.249418,1.656295,-0.155778,0.000000,0.000000,0.000000,0.000000,0.000000,0.000000
13022555.000000,-2.281172,-1.662540,1.326363,-1.466642,1.695639,1.392311,-0.586098,0.235934,0.001350,1.122014,-0.107454,-0.132307,1.097455,-0.032000,-1.159625,37.908672,-23.309830,-3.967714,0.261320,1.643478,-0.202470,0.000000,0.000000,0.000000,0.000000,0.000000,0.000000
13022556.000000,-2.280945,-1.662541,1.327519,-1.466745,1.695516,1.393396,-0.586138,0.234013,0.000363,1.123463,-0.105165,-0.131443,1.089530,-0.035035,-1.207232,37.932476,-23.849380,-4.019289,0.243009,1.838485,-0.155778,0.000000,0.000000,0.000000,0.000000,0.000000,0.000000
13022557.000000,-2.280712,-1.662545,1.328648,-1.466849,1.695389,1.394463,-0.586169,0.233349,-0.000949,1.125709,-0.104278,-0.131099,1.084160,-0.034868,-1.282611,37.984051,-24.119156,-4.019289,0.231107,2.027084,-0.175919,0.000000,0.000000,0.000000,0.000000,0.000000,0.000000
13022558.000000,-2.280484,-1.662551,1.329786,-1.466944,1.695268,1.395554,-0.586204,0.233066,-0.002849,1.124037,-0.102128,-0.131025,1.075548,-0.036716,-1.354022,38.079266,-24.289749,-4.066896,0.219205,2.033492,-0.142960,0.000000,0.000000,0.000000,0.000000,0.000000,0.000000
13022559.000000,-2.280252,-1.662557,1.330909,-1.467041,1.695147,1.396644,-0.586237,0.230803,-0.003097,1.124519,-0.101581,-0.125405,1.074799,-0.036722,-1.504779,38.130840,-24.412735,-4.090700,0.189908,1.936446,-0.136552,0.000000,0.000000,0.000000,0.000000,0.000000,0.000000
13022560.000000,-2.280026,-1.662561,1.332043,-1.467141,1.695030,1.397748,-0.586260,0.228992,-0.003729,1.117578,-0.100019,-0.120298,1.072914,-0.034686,-1.627764,38.202251,-24.436539,-4.019289,0.129484,1.858627,-0.196061,0.000000,0.000000,0.000000,0.000000,0.000000,0.000000
13022561.000000,-2.279793,-1.662566,1.333162,-1.467240,1.694902,1.398846,-0.586296,0.229258,-0.003595,1.116637,-0.098316,-0.123622,1.075621,-0.033039,-1.826129,38.249859,-24.166763,-3.967714,0.129484,1.903487,-0.136552,0.000000,0.000000,0.000000,0.000000,0.000000,0.000000
13022562.000000,-2.279568,-1.662577,1.334262,-1.467334,1.694761,1.399918,-0.586322,0.226455,-0.005827,1.110530,-0.097568,-0.125025,1.073975,-0.032207,-1.901507,38.396648,-23.896988,-4.019289,0.237516,1.949264,-0.188737,0.000000,0.000000,0.000000,0.000000,0.000000,0.000000
13022563.000000,-2.279351,-1.662585,1.335365,-1.467434,1.694629,1.401009,-0.586351,0.221076,-0.006759,1.097388,-0.099505,-0.124933,1.075091,-0.033296,-1.972918,38.519634,-23.456619,-3.967714,0.315336,1.981307,-0.196061,0.000000,0.000000,0.000000,0.000000,0.000000,0.000000
13022564.000000,-2.279132,-1.662594,1.336474,-1.467526,1.694509,1.402087,-0.586384,0.219768,-0.014464,1.105702,-0.093462,-0.124990,1.100555,-0.030966,-2.024493,38.642620,-23.381241,-3.967714,0.285123,2.027084,-0.163102,0.000000,0.000000,0.000000,0.000000,0.000000,0.000000
13022565.000000,-2.278918,-1.662593,1.337591,-1.467615,1.694390,1.403196,-0.586405,0.218532,-0.009118,1.107504,-0.090631,-0.128660,1.103744,-0.026160,-2.048296,38.595013,-23.286026,-4.019289,0.231107,1.884261,-0.208878,0.000000,0.000000,0.000000,0.000000,0.000000,0.000000
13022566.000000,-2.278706,-1.662604,1.338720,-1.467701,1.694275,1.404321,-0.586440,0.216356,-0.009954,1.103889,-0.089512,-0.127740,1.107371,-0.031411,-2.024493,38.741802,-23.286026,-4.043092,0.178007,1.656295,-0.142960,0.000000,0.000000,0.000000,0.000000,0.000000,0.000000
13022567.000000,-2.278492,-1.662608,1.339833,-1.467785,1.694153,1.405405,-0.586463,0.214303,-0.007524,1.106685,-0.084194,-0.123628,1.096531,-0.031171,-2.123675,38.765606,-23.333633,-4.118471,0.166105,1.584884,-0.188737,0.000000,0.000000,0.000000,0.000000,0.000000,0.000000
13022568.000000,-2.278288,-1.662619,1.340953,-1.467869,1.694038,1.406485,-0.586496,0.210848,-0.008698,1.105911,-0.084731,-0.124914,1.082650,-0.034231,-2.123675,38.912395,-23.409012,-4.142274,0.135892,1.735030,-0.149369,0.000000,0.000000,0.000000,0.000000,0.000000,0.000000
13022569.000000,-2.278085,-1.662626,1.342067,-1.467947,1.693919,1.407579,-0.586518,0.205289,-0.011146,1.132602,-0.080977,-0.123025,1.077167,-0.028789,-2.147479,38.983807,-23.480423,-4.213686,0.159696,1.825668,-0.182328,0.000000,0.000000,0.000000,0.000000,0.000000,0.000000
13022570.000000,-2.277876,-1.662634,1.343195,-1.468022,1.693796,1.408664,-0.586551,0.203503,-0.010182,1.129009,-0.076747,-0.121236,1.080937,-0.028092,-2.246661,39.082989,-23.627213,-4.340639,0.171598,1.838485,-0.136552,0.000000,0.000000,0.000000,0.000000,0.000000,0.000000
13022571.000000,-2.277685,-1.662638,1.344310,-1.468094,1.693672,1.409775,-0.586576,0.200258,-0.007668,1.120880,-0.076541,-0.125436,1.081467,-0.025697,-2.222857,39.106792,-23.579605,-4.463624,0.207303,1.714889,-0.136552,0.000000,0.000000,0.000000,0.000000,0.000000,0.000000
13022572.000000,-2.277476,-1.662645,1.345412,-1.468165,1.693548,1.410857,-0.586601,0.203537,-0.009986,1.116413,-0.077488,-0.128110,1.085308,-0.022690,-2.369647,39.158367,-23.555801,-4.562807,0.243009,1.689254,-0.163102,0.000000,0.000000,0.000000,0.000000,0.000000,0.000000
13022573.000000,-2.277278,-1.662650,1.346516,-1.468240,1.693428,1.411948,-0.586623,0.204092,-0.007681,1.103356,-0.074226,-0.125482,1.086080,-0.020663,-2.421221,39.182171,-23.357437,-4.562807,0.273221,1.714889,-0.188737,0.000000,0.000000,0.000000,0.000000,0.000000,0.000000
13022574.000000,-2.277075,-1.662651,1.347617,-1.468317,1.693306,1.413048,-0.586649,0.202556,-0.007723,1.095526,-0.074171,-0.122995,1.091046,-0.020853,-2.520403,39.130596,-23.111465,-4.463624,0.297025,1.741439,-0.175919,0.000000,0.000000,0.000000,0.000000,0.000000,0.000000
13022575.000000,-2.276870,-1.662657,1.348717,-1.468387,1.693189,1.414124,-0.586678,0.201748,-0.006906,1.097370,-0.071881,-0.120405,1.090266,-0.023015,-2.643389,39.182171,-23.063858,-4.439821,0.303434,1.786300,-0.103593,0.000000,0.000000,0.000000,0.000000,0.000000,0.000000
13022576.000000,-2.276680,-1.662652,1.349832,-1.468460,1.693085,1.415225,-0.586693,0.195401,-0.002697,1.098991,-0.074107,-0.115008,1.087590,-0.018089,-2.667193,39.082989,-23.087662,-4.364442,0.207303,1.702071,-0.202470,0.000000,0.000000,0.000000,0.000000,0.000000,0.000000
13022577.000000,-2.276486,-1.662649,1.350947,-1.468522,1.692975,1.416328,-0.586720,0.193629,0.000212,1.104504,-0.070973,-0.112791,1.091420,-0.020397,-2.690997,38.983807,-23.357437,-4.364442,0.159696,1.519881,-0.149369,0.000000,0.000000,0.000000,0.000000,0.000000,0.000000
13022578.000000,-2.276301,-1.662643,1.352087,-1.468587,1.692873,1.417428,-0.586741,0.193467,0.002136,1.113744,-0.068168,-0.111061,1.090230,-0.019121,-2.667193,38.888592,-23.774002,-4.388246,0.100187,1.519881,-0.169511,0.000000,0.000000,0.000000,0.000000,0.000000,0.000000
13022579.000000,-2.276121,-1.662647,1.353232,-1.468642,1.692761,1.418527,-0.586766,0.187274,0.000136,1.119940,-0.064511,-0.108025,1.092118,-0.024308,-2.591815,38.936199,-24.166763,-4.487428,0.117582,1.597701,-0.155778,0.000000,0.000000,0.000000,0.000000,0.000000,0.000000
13022580.000000,-2.275945,-1.662652,1.354357,-1.468703,1.692647,1.419593,-0.586790,0.182750,-0.001154,1.125207,-0.064853,-0.111922,1.083258,-0.022867,-2.520403,38.983807,-24.464310,-4.463624,0.183500,1.851302,-0.155778,0.000000,0.000000,0.000000,0.000000,0.000000,0.000000
13022581.000000,-2.275770,-1.662653,1.355489,-1.468752,1.692528,1.420664,-0.586809,0.179199,-0.000867,1.119415,-0.058384,-0.110703,1.072973,-0.020999,-2.421221,38.983807,-24.734085,-4.586610,0.267728,2.144271,-0.175919,0.000000,0.000000,0.000000,0.000000,0.000000,0.000000
13022582.000000,-2.275596,-1.662653,1.356605,-1.468806,1.692416,1.421761,-0.586832,0.176258,-0.000652,1.118349,-0.059254,-0.115001,1.095101,-0.021370,-2.345843,38.983807,-24.904678,-4.610414,0.255826,2.196456,-0.149369,0.000000,0.000000,0.000000,0.000000,0.000000,0.000000
13022583.000000,-2.275416,-1.662655,1.357725,-1.468863,1.692308,1.422855,-0.586848,0.176446,-0.001139,1.116797,-0.060958,-0.116363,1.104131,-0.019635,-2.322039,39.011578,-24.904678,-4.586610,0.201810,2.104903,-0.175919,0.000000,0.000000,0.000000,0.000000,0.000000,0.000000
13022584.000000,-2.275239,-1.662654,1.358849,-1.468924,1.692201,1.423963,-0.586871,0.175483,0.000406,1.112378,-0.064516,-0.109287,1.104424,-0.020744,-2.397418,38.960003,-24.904678,-4.463624,0.159696,1.995040,-0.142960,0.000000,0.000000,0.000000,0.000000,0.000000,0.000000
13022585.000000,-2.275064,-1.662653,1.359947,-1.468991,1.692091,1.425046,-0.586886,0.176992,-0.002054,1.104712,-0.062828,-0.106648,1.095258,-0.017745,-2.468829,38.912395,-24.682510,-4.241457,0.183500,1.923629,-0.208878,0.000000,0.000000,0.000000,0.000000,0.000000,0.000000
13022586.000000,-2.274895,-1.662661,1.361061,-1.469057,1.691982,1.426130,-0.586914,0.173616,-0.003996,1.100799,-0.064340,-0.104634,1.086121,-0.025502,-2.468829,39.011578,-24.464310,-4.019289,0.207303,1.974899,-0.136552,0.000000,0.000000,0.000000,0.000000,0.000000,0.000000
13022587.000000,-2.274729,-1.662665,1.362154,-1.469115,1.691875,1.427217,-0.586929,0.170539,-0.006932,1.118122,-0.059801,-0.102331,1.075307,-0.017313,-2.468829,39.035381,-24.190567,-3.892336,0.219205,2.047225,-0.182328,0.000000,0.000000,0.000000,0.000000,0.000000,0.000000
13022588.000000,-2.274571,-1.662664,1.363273,-1.469169,1.691772,1.428303,-0.586947,0.163330,-0.004527,1.114976,-0.058041,-0.104119,1.076580,-0.018448,-2.369647,39.011578,-24.142960,-3.820925,0.195402,2.001449,-0.163102,0.000000,0.000000,0.000000,0.000000,0.000000,0.000000
13022589.000000,-2.274425,-1.662663,1.364390,-1.469210,1.691668,1.429407,-0.586963,0.156537,-0.002159,1.110700,-0.055235,-0.105063,1.076266,-0.017754,-2.199053,38.960003,-24.043777,-3.943910,0.154203,1.897079,-0.182328,0.000000,0.000000,0.000000,0.000000,0.000000,0.000000
13022590.000000,-2.274282,-1.662666,1.365497,-1.469250,1.691563,1.430492,-0.586984,0.153496,-0.005112,1.111315,-0.050881,-0.101956,1.082951,-0.018827,-1.972918,38.960003,-24.095352,-4.066896,0.141385,1.819259,-0.163102,0.000000,0.000000,0.000000,0.000000,0.000000,0.000000
13022591.000000,-2.274140,-1.662667,1.366623,-1.469293,1.691457,1.431591,-0.587003,0.151790,-0.007362,1.111419,-0.046415,-0.105110,1.086513,-0.019723,-1.750750,38.960003,-24.218338,-4.118471,0.141385,1.779891,-0.136552,0.000000,0.000000,0.000000,0.000000,0.000000,0.000000
13022592.000000,-2.273998,-1.662668,1.367747,-1.469341,1.691348,1.432672,-0.587016,0.149142,-0.005000,1.111552,-0.046224,-0.108579,1.085537,-0.012997,-1.603961,38.936199,-24.265945,-4.043092,0.178007,1.942855,-0.182328,0.000000,0.000000,0.000000,0.000000,0.000000,0.000000
13022593.000000,-2.273850,-1.662676,1.368853,-1.469385,1.691226,1.433751,-0.587038,0.149317,-0.005584,1.109968,-0.044524,-0.113094,1.086697,-0.016774,-1.552386,39.011578,-24.412735,-4.019289,0.267728,1.974899,-0.122819,0.000000,0.000000,0.000000,0.000000,0.000000,0.000000
13022594.000000,-2.273711,-1.662677,1.369964,-1.469426,1.691116,1.434857,-0.587044,0.145941,-0.003438,1.102510,-0.043900,-0.112507,1.080723,-0.014438,-1.480975,38.983807,-24.388931,-3.967714,0.255826,1.858627,-0.196061,0.000000,0.000000,0.000000,0.000000,0.000000,0.000000
13022597.000000,-2.273298,-1.662682,1.373260,-1.469548,1.690795,1.438145,-0.587087,0.145499,-0.001473,1.092181,-0.042116,-0.107058,1.075636,-0.009076,-1.405596,38.960003,-23.972366,-3.797121,0.189908,1.806442,-0.169511,0.000000,0.000000,0.000000,0.000000,0.000000,0.000000
13022598.000000,-2.273168,-1.662680,1.374338,-1.469583,1.690685,1.439223,-0.587101,0.139818,0.000573,1.086521,-0.041385,-0.109119,1.078275,-0.011776,-1.354022,38.888592,-23.702591,-3.769350,0.201810,1.858627,-0.163102,0.000000,0.000000,0.000000,0.000000,0.000000,0.000000
13022599.000000,-2.273044,-1.662683,1.375433,-1.469617,1.690576,1.440323,-0.587110,0.134319,-0.003749,1.078945,-0.040769,-0.106584,1.073983,-0.011751,-1.254840,38.912395,-23.528030,-3.745546,0.225614,1.858627,-0.208878,0.000000,0.000000,0.000000,0.000000,0.000000,0.000000
13022600.000000,-2.272919,-1.662682,1.376533,-1.469650,1.690475,1.441431,-0.587129,0.134276,-0.001742,1.082529,-0.040919,-0.101890,1.105258,-0.015171,-1.183428,38.864788,-23.627213,-3.697939,0.183500,1.858627,-0.169511,0.000000,0.000000,0.000000,0.000000,0.000000,0.000000
13022601.000000,-2.272799,-1.662673,1.377666,-1.469681,1.690373,1.442520,-0.587140,0.130857,0.002655,1.094390,-0.037388,-0.098984,1.108589,-0.011350,-1.108050,38.690228,-24.019974,-3.670168,0.147794,1.819259,-0.169511,0.000000,0.000000,0.000000,0.000000,0.000000,0.000000
13022602.000000,-2.272683,-1.662670,1.378791,-1.469713,1.690269,1.443630,-0.587154,0.125035,0.002684,1.096027,-0.035950,-0.098506,1.111352,-0.009715,-0.885882,38.642620,-24.289749,-3.598757,0.159696,1.727706,-0.136552,0.000000,0.000000,0.000000,0.000000,0.000000,0.000000
13022603.000000,-2.272560,-1.662674,1.379904,-1.469744,1.690162,1.444711,-0.587161,0.122955,-0.002324,1.100691,-0.034770,-0.104277,1.102275,-0.009863,-0.735125,38.666424,-24.658707,-3.523378,0.219205,1.714889,-0.188737,0.000000,0.000000,0.000000,0.000000,0.000000,0.000000
13022604.000000,-2.272442,-1.662677,1.381032,-1.469771,1.690054,1.445792,-0.587182,0.120472,-0.003152,1.105870,-0.032639,-0.107696,1.079788,-0.009653,-0.564532,38.717999,-24.976089,-3.499574,0.255826,1.838485,-0.130143,0.000000,0.000000,0.000000,0.000000,0.000000,0.000000
13022605.000000,-2.272330,-1.662674,1.382145,-1.469802,1.689945,1.446871,-0.587189,0.115018,-0.001749,1.109283,-0.029034,-0.103966,1.071359,-0.010533,-0.366168,38.690228,-25.297440,-3.424196,0.255826,2.027084,-0.163102,0.000000,0.000000,0.000000,0.000000,0.000000,0.000000
13022606.000000,-2.272210,-1.662678,1.383253,-1.469824,1.689836,1.447951,-0.587204,0.114466,-0.002596,1.104294,-0.024028,-0.102486,1.072196,-0.013119,-0.314593,38.741802,-25.222061,-3.448000,0.285123,2.053634,-0.149369,0.000000,0.000000,0.000000,0.000000,0.000000,0.000000
13022607.000000,-2.272095,-1.662681,1.384374,-1.469848,1.689734,1.449055,-0.587214,0.115273,-0.003011,1.102027,-0.022177,-0.099976,1.075002,-0.009572,-0.314593,38.789410,-25.222061,-3.400392,0.279630,1.923629,-0.155778,0.000000,0.000000,0.000000,0.000000,0.000000,0.000000
13022608.000000,-2.271982,-1.662685,1.385461,-1.469879,1.689636,1.450131,-0.587219,0.115511,-0.002690,1.097708,-0.025752,-0.101729,1.076805,-0.005687,-0.342364,38.813213,-25.027664,-3.277406,0.243009,1.865035,-0.196061,0.000000,0.000000,0.000000,0.000000,0.000000,0.000000
13022609.000000,-2.271862,-1.662689,1.386560,-1.469909,1.689534,1.451213,-0.587241,0.118265,-0.003094,1.090041,-0.028780,-0.100512,1.080809,-0.011971,-0.465350,38.864788,-24.781693,-3.126650,0.255826,1.865035,-0.116410,0.000000,0.000000,0.000000,0.000000,0.000000,0.000000
13022610.000000,-2.271748,-1.662702,1.387657,-1.469940,1.689434,1.452305,-0.587243,0.114237,-0.006123,1.086027,-0.028849,-0.098687,1.083566,-0.004916,-0.489153,39.035381,-24.412735,-2.928285,0.249418,1.865035,-0.221696,0.000000,0.000000,0.000000,0.000000,0.000000,0.000000
13022611.000000,-2.271641,-1.662705,1.388745,-1.469966,1.689327,1.453376,-0.587257,0.110936,-0.005249,1.087364,-0.026259,-0.099773,1.080785,-0.004853,-0.489153,39.082989,-24.242142,-2.833071,0.308927,1.890670,-0.196061,0.000000,0.000000,0.000000,0.000000,0.000000,0.000000
13022612.000000,-2.271536,-1.662704,1.389847,-1.469985,1.689237,1.454476,-0.587271,0.108489,-0.002425,1.083561,-0.025339,-0.095853,1.075419,-0.005909,-0.489153,39.035381,-24.119156,-2.833071,0.243009,1.800033,-0.136552,0.000000,0.000000,0.000000,0.000000,0.000000,0.000000
13022613.000000,-2.271446,-1.662708,1.390936,-1.469993,1.689142,1.455579,-0.587274,0.101533,-0.002203,1.085994,-0.018713,-0.094885,1.096627,-0.007039,-0.290789,39.059185,-24.071548,-2.956056,0.225614,1.552840,-0.188737,0.000000,0.000000,0.000000,0.000000,0.000000,0.000000
13022614.000000,-2.271353,-1.662704,1.392056,-1.470001,1.689044,1.456685,-0.587291,0.098393,0.000829,1.095750,-0.014236,-0.099805,1.092106,-0.006805,-0.167803,38.960003,-24.242142,-3.079042,0.249418,1.474105,-0.149369,0.000000,0.000000,0.000000,0.000000,0.000000,0.000000
13022615.000000,-2.271262,-1.662711,1.393168,-1.470007,1.688948,1.457786,-0.587297,0.096488,-0.000671,1.092982,-0.012284,-0.098622,1.089772,-0.003569,-0.044818,39.011578,-24.289749,-3.154421,0.249418,1.500655,-0.188737,0.000000,0.000000,0.000000,0.000000,0.000000,0.000000
13022616.000000,-2.271169,-1.662714,1.394256,-1.470014,1.688846,1.458855,-0.587308,0.093415,-0.000460,1.089178,-0.008934,-0.098512,1.082838,-0.009138,0.006757,39.011578,-24.242142,-3.178224,0.273221,1.714889,-0.142960,0.000000,0.000000,0.000000,0.000000,0.000000,0.000000
13022617.000000,-2.271074,-1.662719,1.395366,-1.470021,1.688742,1.459939,-0.587317,0.092611,-0.000873,1.093277,-0.010103,-0.104308,1.077041,-0.010338,0.006757,39.035381,-24.341324,-3.178224,0.332731,1.884261,-0.169511,0.000000,0.000000,0.000000,0.000000,0.000000,0.000000
13022618.000000,-2.270977,-1.662723,1.396443,-1.470023,1.688646,1.461043,-0.587327,0.092338,-0.003379,1.087303,-0.007175,-0.099361,1.082206,-0.008518,-0.017047,39.011578,-24.218338,-3.202028,0.279630,1.897079,-0.149369,0.000000,0.000000,0.000000,0.000000,0.000000,0.000000
13022619.000000,-2.270879,-1.662721,1.397540,-1.470023,1.688551,1.462145,-0.587332,0.093998,-0.000774,1.085019,-0.008111,-0.095983,1.092271,-0.009705,-0.116229,38.936199,-24.218338,-3.225832,0.219205,1.825668,-0.182328,0.000000,0.000000,0.000000,0.000000,0.000000,0.000000
13022620.000000,-2.270780,-1.662724,1.398635,-1.470018,1.688463,1.463258,-0.587343,0.095495,0.000385,1.085808,-0.004466,-0.093569,1.098282,-0.012749,-0.243182,38.888592,-24.071548,-3.301210,0.159696,1.741439,-0.163102,0.000000,0.000000,0.000000,0.000000,0.000000,0.000000
