chaoyuefei/paper-gmrm-data/robot_logs/s2_dq_mrm_max_0.50_log_20260314_174905.csv
# time_ms,q_0,q_1,q_2,q_3,q_4,q_5,q_6,dq_0,dq_1,dq_2,dq_3,dq_4,dq_5,dq_6,tau_J_0,tau_J_1,tau_J_2,tau_J_3,tau_J_4,tau_J_5,tau_J_6,O_dP_EE_c_0,O_dP_EE_c_1,O_dP_EE_c_2,O_dP_EE_c_3,O_dP_EE_c_4,O_dP_EE_c_5
13207019.000000,2.312754,-0.964736,-1.819536,-1.386092,-0.927558,1.665494,0.447533,0.000050,0.000188,0.000025,0.000034,-0.000001,0.000153,-0.000713,0.006757,35.508465,19.691574,12.147398,1.020292,1.396285,-0.122819,0.000000,0.000000,0.000000,0.000000,0.000000,0.000000
13207020.000000,2.312755,-0.964738,-1.819534,-1.386092,-0.927558,1.665494,0.447536,0.000590,-0.000524,0.000573,0.000023,-0.000000,0.000102,0.001491,-0.017047,35.536236,19.667770,12.147398,1.020292,1.396285,-0.175919,0.000000,0.000000,0.000000,0.000000,0.000000,0.000000
13207021.000000,2.312752,-0.964736,-1.819534,-1.386090,-0.927557,1.665492,0.447535,-0.000720,0.000300,0.000382,0.000572,0.000441,-0.000407,0.000011,0.030561,35.508465,19.667770,12.123594,1.008390,1.409103,-0.149369,0.000000,0.000000,0.000000,0.000000,0.000000,0.000000
13207022.000000,2.312754,-0.964738,-1.819534,-1.386094,-0.927558,1.665494,0.447532,0.000077,-0.006808,0.000255,-0.000176,-0.000147,0.000203,-0.001451,0.006757,35.536236,19.667770,12.147398,1.020292,1.396285,-0.110001,0.000000,0.000000,0.000000,0.000000,0.000000,0.000000
13207023.000000,2.312743,-0.964741,-1.819535,-1.386095,-0.927556,1.665494,0.447536,-0.011366,-0.015700,-0.011712,0.001293,-0.001005,0.001085,0.008760,-0.441546,35.068096,19.104416,12.222776,0.918668,1.370651,-0.122819,0.000000,0.000000,0.000000,0.000000,0.000000,0.000000
13207024.000000,2.312727,-0.964710,-1.819553,-1.386093,-0.927541,1.665489,0.447548,-0.029759,-0.012835,-0.030166,0.003063,0.003464,-0.001881,0.014068,-2.270464,32.790874,17.287399,12.270384,0.547880,1.312057,-0.070634,0.000000,0.000000,0.000000,0.000000,0.000000,0.000000
13207025.000000,2.312715,-0.964659,-1.819623,-1.386089,-0.927523,1.665476,0.447575,-0.025945,0.007265,-0.051785,0.001845,0.012216,-0.003822,0.023657,-5.761675,28.898968,14.462692,12.298155,-0.001437,1.370651,-0.037675,0.000000,0.000000,0.000000,0.000000,0.000000,0.000000
13207026.000000,2.312672,-0.964638,-1.819744,-1.386080,-0.927537,1.665458,0.447619,-0.019426,0.014579,-0.073378,0.003889,0.004366,-0.007186,0.028877,-9.673419,24.618267,11.272995,12.198973,-0.324618,1.487838,-0.077042,0.000000,0.000000,0.000000,0.000000,0.000000,0.000000
13207027.000000,2.312598,-0.964688,-1.819890,-1.386072,-0.927603,1.665461,0.447667,-0.023806,0.003468,-0.088082,0.003662,-0.017411,-0.004506,0.033530,-13.386798,21.043743,7.761948,12.024412,-0.222994,1.474105,-0.017533,0.000000,0.000000,0.000000,0.000000,0.000000,0.000000
13207028.000000,2.312495,-0.964776,-1.820055,-1.386076,-0.927690,1.665505,0.447741,-0.036699,-0.017090,-0.099599,-0.001409,-0.041318,0.011029,0.050711,-16.755022,18.131756,4.524643,11.925230,-0.007845,1.220504,-0.064225,0.000000,0.000000,0.000000,0.000000,0.000000,0.000000
13207029.000000,2.312385,-0.964903,-1.820219,-1.386087,-0.927793,1.665609,0.447818,-0.052374,-0.046502,-0.109483,-0.004855,-0.061869,0.044956,0.062799,-19.674944,16.001324,1.676132,11.802244,0.178007,0.597030,0.028243,0.000000,0.000000,0.000000,0.000000,0.000000,0.000000
13207030.000000,2.312253,-0.965059,-1.820374,-1.386107,-0.927900,1.665754,0.447930,-0.071256,-0.078516,-0.112795,-0.008068,-0.077475,0.078832,0.080058,-22.150530,14.509624,-0.926407,11.703062,0.261320,-0.171098,0.034652,0.000000,0.000000,0.000000,0.000000,0.000000,0.000000
13207031.000000,2.312128,-0.965224,-1.820520,-1.386126,-0.928000,1.665905,0.448067,-0.083000,-0.102990,-0.117675,-0.011366,-0.084260,0.107729,0.098106,-24.550737,13.529705,-3.159989,11.504698,0.093778,-0.691117,0.028243,0.000000,0.000000,0.000000,0.000000,0.000000,0.000000
13207032.000000,2.311999,-0.965402,-1.820645,-1.386150,-0.928116,1.666055,0.448234,-0.091551,-0.128189,-0.117188,-0.014952,-0.099460,0.123802,0.122003,-26.653399,12.795757,-5.246780,11.207151,-0.079257,-0.814713,-0.004716,0.000000,0.000000,0.000000,0.000000,0.000000,0.000000
13207033.000000,2.311869,-0.965565,-1.820785,-1.386178,-0.928238,1.666199,0.448420,-0.091763,-0.138007,-0.118914,-0.024772,-0.107218,0.137587,0.143885,-28.240313,12.061810,-6.544083,10.663633,-0.365817,-0.548295,-0.011124,0.000000,0.000000,0.000000,0.000000,0.000000,0.000000
13207034.000000,2.311718,-0.965707,-1.820902,-1.386249,-0.928370,1.666383,0.448626,-0.102993,-0.140334,-0.112066,-0.045853,-0.113761,0.151818,0.166962,-28.387102,11.399273,-7.281998,10.143919,-0.646884,-0.248917,0.048385,0.000000,0.000000,0.000000,0.000000,0.000000,0.000000
13207035.000000,2.311557,-0.965830,-1.821014,-1.386381,-0.928522,1.666630,0.448875,-0.114448,-0.134032,-0.108506,-0.079754,-0.129610,0.179863,0.193539,-27.173113,10.764507,-7.305801,9.727354,-0.772311,-0.242509,-0.031266,0.000000,0.000000,0.000000,0.000000,0.000000,0.000000
13207036.000000,2.311398,-0.965917,-1.821124,-1.386579,-0.928702,1.666923,0.449122,-0.129502,-0.118922,-0.111365,-0.123578,-0.146759,0.220329,0.209103,-24.923662,9.931377,-6.694839,9.406004,-0.743014,-0.378922,0.021835,0.000000,0.000000,0.000000,0.000000,0.000000,0.000000
13207037.000000,2.311223,-0.966001,-1.821235,-1.386803,-0.928908,1.667240,0.449386,-0.150039,-0.108658,-0.113269,-0.155387,-0.169500,0.247280,0.222181,-21.900591,9.197430,-5.687149,8.763304,-0.569064,-0.443925,0.041976,0.000000,0.000000,0.000000,0.000000,0.000000,0.000000
13207038.000000,2.311043,-0.966069,-1.821349,-1.387059,-0.929127,1.667554,0.449667,-0.168085,-0.098948,-0.120528,-0.188071,-0.185649,0.267740,0.235378,-18.536333,8.388103,-4.433487,7.946043,-0.396029,-0.236100,-0.023942,0.000000,0.000000,0.000000,0.000000,0.000000,0.000000
13207039.000000,2.310876,-0.966132,-1.821459,-1.387337,-0.929361,1.667878,0.449938,-0.179280,-0.090731,-0.124277,-0.215633,-0.201128,0.280347,0.246210,-15.390277,7.677959,-3.282974,7.081175,-0.240389,0.161239,0.028243,0.000000,0.000000,0.000000,0.000000,0.000000,0.000000
13207040.000000,2.310706,-0.966194,-1.821576,-1.387648,-0.929601,1.668227,0.450235,-0.187746,-0.085453,-0.128378,-0.239763,-0.209421,0.300992,0.257136,-12.394977,7.019390,-2.275284,6.386900,-0.168978,0.421249,-0.031266,0.000000,0.000000,0.000000,0.000000,0.000000,0.000000
13207041.000000,2.310534,-0.966264,-1.821694,-1.387957,-0.929844,1.668612,0.450521,-0.186208,-0.082716,-0.129037,-0.257944,-0.221896,0.331402,0.267833,-9.673419,6.551250,-1.489761,5.522032,-0.294406,0.505477,-0.011124,0.000000,0.000000,0.000000,0.000000,0.000000,0.000000
13207042.000000,2.310355,-0.966353,-1.821836,-1.388282,-0.930101,1.669025,0.450816,-0.187327,-0.086542,-0.138408,-0.274890,-0.241598,0.357882,0.276440,-7.122454,6.333050,-0.728043,4.780150,-0.503146,0.532027,-0.011124,0.000000,0.000000,0.000000,0.000000,0.000000,0.000000
13207043.000000,2.310190,-0.966461,-1.821994,-1.388608,-0.930389,1.669444,0.451113,-0.182777,-0.094056,-0.148375,-0.285372,-0.254825,0.380797,0.278233,-5.067400,6.380657,-0.117081,3.943053,-0.563571,0.603439,-0.023942,0.000000,0.000000,0.000000,0.000000,0.000000,0.000000
13207044.000000,2.310021,-0.966599,-1.822159,-1.388915,-0.930698,1.669879,0.451409,-0.178175,-0.110365,-0.155296,-0.288545,-0.267040,0.399955,0.284487,-3.238482,6.725811,0.327255,3.026610,-0.563571,0.720626,-0.037675,0.000000,0.000000,0.000000,0.000000,0.000000,0.000000
13207045.000000,2.309857,-0.966757,-1.822344,-1.389233,-0.931022,1.670338,0.451706,-0.175384,-0.128716,-0.168826,-0.293501,-0.288045,0.430166,0.287690,-1.703143,7.189983,0.720016,2.114134,-0.503146,0.727035,-0.017533,0.000000,0.000000,0.000000,0.000000,0.000000,0.000000
13207046.000000,2.309694,-0.966922,-1.822545,-1.389557,-0.931380,1.670838,0.451984,-0.169236,-0.143642,-0.180709,-0.298893,-0.308474,0.451934,0.284691,-0.389971,7.578777,1.013595,1.372252,-0.419833,0.511886,0.041976,0.000000,0.000000,0.000000,0.000000,0.000000,0.000000
13207047.000000,2.309553,-0.967085,-1.822758,-1.389881,-0.931755,1.671377,0.452280,-0.158919,-0.150180,-0.191174,-0.310450,-0.327718,0.477650,0.286540,0.474897,7.824749,1.211960,0.701781,-0.360323,0.199691,-0.011124,0.000000,0.000000,0.000000,0.000000,0.000000,0.000000
13207048.000000,2.309422,-0.967255,-1.822981,-1.390222,-0.932130,1.671921,0.452571,-0.149710,-0.155675,-0.201809,-0.319223,-0.345344,0.498873,0.288708,1.069990,7.971539,1.259567,0.186034,-0.342013,-0.027360,0.021835,0.000000,0.000000,0.000000,0.000000,0.000000,0.000000
13207049.000000,2.309298,-0.967423,-1.823200,-1.390548,-0.932541,1.672475,0.452860,-0.138998,-0.159685,-0.207297,-0.324607,-0.367850,0.523188,0.287109,1.442914,7.971539,1.160385,-0.385256,-0.318209,-0.027360,0.034652,0.000000,0.000000,0.000000,0.000000,0.000000,0.000000
13207050.000000,2.309182,-0.967594,-1.823432,-1.390889,-0.932957,1.673038,0.453159,-0.131353,-0.165342,-0.214004,-0.330023,-0.383825,0.535645,0.288827,1.665082,7.777142,1.013595,-0.877199,-0.324618,0.134689,-0.037675,0.000000,0.000000,0.000000,0.000000,0.000000,0.000000
13207051.000000,2.309078,-0.967756,-1.823681,-1.391243,-0.933385,1.673610,0.453443,-0.121317,-0.164093,-0.223072,-0.338185,-0.396520,0.549344,0.284568,1.641279,7.336773,0.866806,-1.198549,-0.312716,0.291244,0.041976,0.000000,0.000000,0.000000,0.000000,0.000000,0.000000
13207052.000000,2.308981,-0.967909,-1.823937,-1.391609,-0.933834,1.674228,0.453734,-0.113198,-0.161073,-0.231117,-0.345134,-0.409527,0.562105,0.286478,1.514325,6.773418,0.767624,-1.321535,-0.348422,0.297652,-0.011124,0.000000,0.000000,0.000000,0.000000,0.000000,0.000000
13207053.000000,2.308881,-0.968066,-1.824199,-1.391978,-0.934281,1.674879,0.454021,-0.107414,-0.159328,-0.234605,-0.350421,-0.416792,0.595148,0.286185,1.466718,6.210064,0.573227,-1.519899,-0.324618,0.121871,-0.011124,0.000000,0.000000,0.000000,0.000000,0.000000,0.000000
13207054.000000,2.308790,-0.968229,-1.824482,-1.392373,-0.934736,1.675557,0.454299,-0.100082,-0.159036,-0.251951,-0.367741,-0.426124,0.622363,0.283084,1.268354,5.670513,0.573227,-1.420717,-0.294406,-0.033768,0.048385,0.000000,0.000000,0.000000,0.000000,0.000000,0.000000
13207055.000000,2.308706,-0.968410,-1.824766,-1.392772,-0.935202,1.676239,0.454584,-0.094509,-0.166102,-0.258874,-0.377443,-0.440267,0.638777,0.279873,1.022382,5.277752,0.450241,-1.420717,-0.222994,0.011092,0.009017,0.000000,0.000000,0.000000,0.000000,0.000000,0.000000
13207056.000000,2.308626,-0.968603,-1.825049,-1.393186,-0.935684,1.676929,0.454863,-0.087294,-0.172656,-0.267748,-0.386017,-0.450269,0.658381,0.278565,0.772443,5.035748,0.204269,-1.496095,-0.043551,0.063277,0.061202,0.000000,0.000000,0.000000,0.000000,0.000000,0.000000
13207057.000000,2.308560,-0.968803,-1.825361,-1.393599,-0.936150,1.677662,0.455148,-0.076656,-0.182102,-0.275771,-0.395132,-0.455631,0.680225,0.282223,0.427289,5.035748,0.398666,-1.571474,-0.025240,0.089828,0.015426,0.000000,0.000000,0.000000,0.000000,0.000000,0.000000
13207058.000000,2.308489,-0.969025,-1.825661,-1.394029,-0.936614,1.678406,0.455429,-0.073106,-0.190345,-0.278332,-0.404385,-0.456693,0.699178,0.281322,0.375715,5.376934,0.644638,-1.769838,0.027860,0.069686,0.028243,0.000000,0.000000,0.000000,0.000000,0.000000,0.000000
13207059.000000,2.308411,-0.969262,-1.825950,-1.394480,-0.937084,1.679190,0.455699,-0.070855,-0.202549,-0.283500,-0.430114,-0.454233,0.731079,0.282786,0.625654,6.162457,1.088974,-1.769838,0.147794,0.004684,0.087753,0.000000,0.000000,0.000000,0.000000,0.000000,0.000000
13207060.000000,2.308334,-0.969512,-1.826248,-1.394956,-0.937525,1.680003,0.455991,-0.073366,-0.218525,-0.284489,-0.443395,-0.444766,0.756959,0.287043,1.093793,7.285198,1.922104,-1.742067,0.040677,-0.027360,-0.017533,0.000000,0.000000,0.000000,0.000000,0.000000,0.000000
13207061.000000,2.308249,-0.969765,-1.826536,-1.395444,-0.937972,1.680821,0.456272,-0.076751,-0.230749,-0.283541,-0.458770,-0.440509,0.784504,0.280934,1.788068,8.534893,2.878219,-1.718263,0.004056,-0.047501,-0.011124,0.000000,0.000000,0.000000,0.000000,0.000000,0.000000
13207062.000000,2.308158,-0.970011,-1.826815,-1.395936,-0.938424,1.681658,0.456536,-0.082850,-0.241408,-0.282703,-0.467484,-0.445880,0.796537,0.273760,2.680707,9.613995,3.862106,-1.694460,0.069974,0.017501,0.067611,0.000000,0.000000,0.000000,0.000000,0.000000,0.000000
13207063.000000,2.308067,-0.970257,-1.827097,-1.396467,-0.938847,1.682501,0.456813,-0.087874,-0.247724,-0.289204,-0.488975,-0.437856,0.826443,0.273435,3.497968,10.395550,4.794418,-1.396913,-0.067355,0.082504,0.009017,0.000000,0.000000,0.000000,0.000000,0.000000,0.000000
13207064.000000,2.307963,-0.970508,-1.827383,-1.397005,-0.939280,1.683354,0.457070,-0.093872,-0.252564,-0.289403,-0.504927,-0.432083,0.844223,0.269759,4.438215,11.006512,5.528366,-1.226320,-0.079257,0.134689,0.054794,0.000000,0.000000,0.000000,0.000000,0.000000,0.000000
13207065.000000,2.307860,-0.970748,-1.827678,-1.397550,-0.939719,1.684201,0.457341,-0.097706,-0.251609,-0.297180,-0.519473,-0.439095,0.837697,0.273585,5.255476,11.300091,6.190903,-1.099367,-0.043551,0.232650,0.041976,0.000000,0.000000,0.000000,0.000000,0.000000,0.000000
13207066.000000,2.307757,-0.971012,-1.827990,-1.398118,-0.940159,1.685039,0.457616,-0.098892,-0.254934,-0.300459,-0.531835,-0.439263,0.831735,0.271629,5.997358,11.593670,6.758224,-1.000185,-0.007845,0.239059,0.021835,0.000000,0.000000,0.000000,0.000000,0.000000,0.000000
13207067.000000,2.307642,-0.971281,-1.828304,-1.398693,-0.940608,1.685867,0.457881,-0.107216,-0.259067,-0.301034,-0.550863,-0.441625,0.830441,0.268246,6.786848,11.792034,7.198593,-0.952577,0.105680,0.258285,0.061202,0.000000,0.000000,0.000000,0.000000,0.000000,0.000000
13207068.000000,2.307528,-0.971571,-1.828619,-1.399273,-0.941060,1.686675,0.458158,-0.110111,-0.265764,-0.303964,-0.556305,-0.451946,0.821946,0.269986,7.457319,12.034039,7.468369,-1.127138,0.189908,0.362655,-0.011124,0.000000,0.000000,0.000000,0.000000,0.000000,0.000000
13207069.000000,2.307413,-0.971892,-1.828953,-1.399864,-0.941513,1.687481,0.458427,-0.110888,-0.281914,-0.314899,-0.561826,-0.452392,0.818089,0.267712,8.052411,12.549786,7.813522,-1.420717,0.201810,0.369064,0.015426,0.000000,0.000000,0.000000,0.000000,0.000000,0.000000
13207070.000000,2.307292,-0.972229,-1.829277,-1.400448,-0.941969,1.688286,0.458692,-0.115004,-0.301329,-0.315917,-0.568302,-0.454264,0.812801,0.266259,8.671308,13.113140,7.960312,-1.769838,0.255826,0.316879,0.028243,0.000000,0.000000,0.000000,0.000000,0.000000,0.000000
13207071.000000,2.307169,-0.972587,-1.829617,-1.401050,-0.942423,1.689076,0.458966,-0.114543,-0.317060,-0.320651,-0.578655,-0.455210,0.805286,0.271137,9.262433,13.771709,8.154709,-2.091188,0.171598,0.264693,-0.004716,0.000000,0.000000,0.000000,0.000000,0.000000,0.000000
13207072.000000,2.307037,-0.972973,-1.829953,-1.401656,-0.942881,1.689878,0.459230,-0.121683,-0.340161,-0.325499,-0.587527,-0.451681,0.810036,0.268763,9.881330,14.533428,8.230087,-2.313356,0.112089,0.232650,0.015426,0.000000,0.000000,0.000000,0.000000,0.000000,0.000000
13207073.000000,2.306896,-0.973373,-1.830298,-1.402274,-0.943336,1.690678,0.459499,-0.128550,-0.354990,-0.329171,-0.590153,-0.456690,0.807507,0.268084,10.428815,15.314983,8.424484,-2.436342,0.105680,0.174056,0.009017,0.000000,0.000000,0.000000,0.000000,0.000000,0.000000
13207074.000000,2.306752,-0.973790,-1.830645,-1.402904,-0.943800,1.691465,0.459769,-0.135136,-0.375616,-0.334365,-0.593144,-0.458498,0.805519,0.270313,10.627179,16.247295,8.575241,-2.114992,0.040677,0.161239,0.048385,0.000000,0.000000,0.000000,0.000000,0.000000,0.000000
13207075.000000,2.306587,-0.974199,-1.830979,-1.403516,-0.944271,1.692257,0.460044,-0.146806,-0.388293,-0.334170,-0.601057,-0.458518,0.797564,0.275354,10.698590,17.076458,8.547470,-1.373109,0.076383,0.245467,0.001693,0.000000,0.000000,0.000000,0.000000,0.000000,0.000000
13207076.000000,2.306414,-0.974618,-1.831332,-1.404131,-0.944732,1.693041,0.460322,-0.155000,-0.401375,-0.340273,-0.597160,-0.464403,0.798301,0.276410,10.551801,17.909588,8.670456,-0.262270,0.010465,0.316879,0.015426,0.000000,0.000000,0.000000,0.000000,0.000000,0.000000
13207077.000000,2.306245,-0.975039,-1.831685,-1.404735,-0.945199,1.693841,0.460586,-0.156621,-0.407958,-0.349787,-0.608676,-0.464826,0.804784,0.269791,10.055890,18.496746,8.793442,1.074705,-0.013339,0.408431,0.081344,0.000000,0.000000,0.000000,0.000000,0.000000,0.000000
13207078.000000,2.306069,-0.975452,-1.832038,-1.405341,-0.945680,1.694649,0.460870,-0.160517,-0.411302,-0.351638,-0.610332,-0.465929,0.806052,0.274810,9.460797,19.060101,8.868820,2.606077,0.088285,0.511886,0.041976,0.000000,0.000000,0.000000,0.000000,0.000000,0.000000
13207079.000000,2.305882,-0.975866,-1.832402,-1.405951,-0.946146,1.695428,0.461151,-0.169904,-0.411531,-0.358277,-0.611079,-0.464926,0.803698,0.277550,8.968854,19.353680,9.039413,4.189024,0.022367,0.733443,0.015426,0.000000,0.000000,0.000000,0.000000,0.000000,0.000000
13207080.000000,2.305705,-0.976273,-1.832768,-1.406549,-0.946611,1.696215,0.461419,-0.168373,-0.410897,-0.360963,-0.612718,-0.459240,0.796872,0.277593,8.349957,19.524273,9.237778,5.573607,-0.031649,0.954086,0.048385,0.000000,0.000000,0.000000,0.000000,0.000000,0.000000
13207081.000000,2.305537,-0.976698,-1.833136,-1.407142,-0.947082,1.696997,0.461692,-0.168052,-0.416034,-0.366625,-0.605204,-0.464000,0.791954,0.269074,7.754865,19.671062,9.356796,6.636839,0.004056,1.123458,0.048385,0.000000,0.000000,0.000000,0.000000,0.000000,0.000000
13207082.000000,2.305375,-0.977129,-1.833519,-1.407742,-0.947557,1.697791,0.461958,-0.160086,-0.421288,-0.368191,-0.605664,-0.469478,0.797091,0.268824,7.084394,19.794048,9.602768,7.624693,-0.019747,1.155502,0.028243,0.000000,0.000000,0.000000,0.000000,0.000000,0.000000
13207083.000000,2.305218,-0.977568,-1.833898,-1.408345,-0.948032,1.698579,0.462231,-0.157400,-0.427680,-0.373000,-0.607445,-0.464908,0.792196,0.272304,6.517072,19.917034,9.872543,8.267393,-0.031649,1.259872,0.028243,0.000000,0.000000,0.000000,0.000000,0.000000,0.000000
13207084.000000,2.305056,-0.978017,-1.834279,-1.408934,-0.948520,1.699338,0.462500,-0.156173,-0.437752,-0.370491,-0.594676,-0.470071,0.780077,0.273099,6.120344,19.992413,10.070908,8.564939,0.052579,1.396285,0.061202,0.000000,0.000000,0.000000,0.000000,0.000000,0.000000
13207085.000000,2.304921,-0.978475,-1.834671,-1.409526,-0.949004,1.700103,0.462775,-0.148282,-0.445900,-0.378250,-0.592414,-0.475198,0.772333,0.277092,5.449872,20.063824,10.364487,8.810911,0.069974,1.442062,0.021835,0.000000,0.000000,0.000000,0.000000,0.000000,0.000000
13207086.000000,2.304789,-0.978946,-1.835072,-1.410100,-0.949491,1.700886,0.463047,-0.141314,-0.455796,-0.382445,-0.584122,-0.482643,0.775952,0.275952,4.882551,20.139202,10.610458,8.612547,0.166105,1.357833,-0.011124,0.000000,0.000000,0.000000,0.000000,0.000000,0.000000
13207087.000000,2.304658,-0.979424,-1.835474,-1.410675,-0.949987,1.701653,0.463308,-0.137077,-0.458860,-0.383955,-0.578539,-0.486015,0.785101,0.269037,4.386640,20.186810,10.904037,8.366575,0.207303,1.324874,0.087753,0.000000,0.000000,0.000000,0.000000,0.000000,0.000000
13207088.000000,2.304531,-0.979911,-1.835873,-1.411242,-0.950475,1.702424,0.463583,-0.137925,-0.462850,-0.386408,-0.572953,-0.476867,0.776985,0.271356,3.918500,20.285992,11.126205,8.144407,0.183500,1.247054,0.015426,0.000000,0.000000,0.000000,0.000000,0.000000,0.000000
13207089.000000,2.304417,-0.980407,-1.836273,-1.411813,-0.950964,1.703183,0.463850,-0.132065,-0.466282,-0.387652,-0.567647,-0.484086,0.772863,0.268920,3.398786,20.456585,11.372177,7.898436,0.159696,1.247054,0.015426,0.000000,0.000000,0.000000,0.000000,0.000000,0.000000
13207090.000000,2.304309,-0.980900,-1.836679,-1.412372,-0.951472,1.703951,0.464113,-0.124457,-0.471025,-0.389067,-0.566863,-0.489936,0.777594,0.266835,3.002058,20.773968,11.864120,7.723876,0.291532,1.272689,0.041976,0.000000,0.000000,0.000000,0.000000,0.000000,0.000000
13207091.000000,2.304207,-0.981398,-1.837079,-1.412927,-0.951969,1.704726,0.464376,-0.117242,-0.476806,-0.386642,-0.557836,-0.499801,0.772732,0.266971,2.680707,21.384930,12.498886,7.577086,0.374845,1.299239,0.021835,0.000000,0.000000,0.000000,0.000000,0.000000,0.000000
13207092.000000,2.304100,-0.981899,-1.837472,-1.413491,-0.952477,1.705504,0.464638,-0.112477,-0.482977,-0.384393,-0.556461,-0.498241,0.776714,0.266765,2.553754,22.241863,13.284409,7.648497,0.410551,1.234237,0.054794,0.000000,0.000000,0.000000,0.000000,0.000000,0.000000
13207093.000000,2.304005,-0.982384,-1.837853,-1.414045,-0.952980,1.706282,0.464904,-0.106981,-0.488852,-0.384891,-0.558699,-0.492948,0.774206,0.262947,2.383161,23.197979,14.046127,7.898436,0.464567,1.259872,0.015426,0.000000,0.000000,0.000000,0.000000,0.000000,0.000000
13207094.000000,2.303924,-0.982882,-1.838246,-1.414601,-0.953471,1.707045,0.465170,-0.098665,-0.497026,-0.387185,-0.551320,-0.494348,0.771629,0.262713,2.160993,24.249310,14.954636,8.215818,0.398649,1.370651,0.015426,0.000000,0.000000,0.000000,0.000000,0.000000,0.000000
13207095.000000,2.303852,-0.983384,-1.838629,-1.415145,-0.953968,1.707820,0.465429,-0.093006,-0.502521,-0.395906,-0.559970,-0.491935,0.775806,0.265692,1.835676,25.276836,15.692551,8.441954,0.381254,1.429244,0.034652,0.000000,0.000000,0.000000,0.000000,0.000000,0.000000
13207096.000000,2.303782,-0.983876,-1.839013,-1.415697,-0.954458,1.708587,0.465692,-0.087189,-0.504524,-0.394428,-0.561646,-0.496114,0.767638,0.270344,1.565900,26.157574,16.402695,8.763304,0.362943,1.597701,0.028243,0.000000,0.000000,0.000000,0.000000,0.000000,0.000000
13207097.000000,2.303718,-0.984376,-1.839401,-1.416257,-0.954960,1.709344,0.465955,-0.078843,-0.506639,-0.394371,-0.557842,-0.493724,0.749304,0.272012,1.268354,27.042278,17.041428,9.156065,0.327238,1.767074,0.061202,0.000000,0.000000,0.000000,0.000000,0.000000,0.000000
13207098.000000,2.303658,-0.984874,-1.839786,-1.416815,-0.955466,1.710109,0.466219,-0.073824,-0.505242,-0.392015,-0.556712,-0.493072,0.752459,0.265299,1.022382,27.871441,17.557175,9.477415,0.344633,1.838485,0.015426,0.000000,0.000000,0.000000,0.000000,0.000000,0.000000
13207099.000000,2.303608,-0.985404,-1.840181,-1.417378,-0.955976,1.710893,0.466480,-0.064285,-0.514421,-0.391561,-0.557862,-0.504514,0.757024,0.258775,0.673261,28.898968,17.997543,9.774961,0.405057,1.767074,0.048385,0.000000,0.000000,0.000000,0.000000,0.000000,0.000000
13207100.000000,2.303563,-0.985945,-1.840588,-1.417951,-0.956493,1.711677,0.466743,-0.061983,-0.522516,-0.392866,-0.558595,-0.509028,0.773739,0.256143,0.252729,30.001873,18.465683,10.072508,0.494779,1.611434,0.028243,0.000000,0.000000,0.000000,0.000000,0.000000,0.000000
13207101.000000,2.303520,-0.986492,-1.840980,-1.418503,-0.957015,1.712444,0.466995,-0.056120,-0.531620,-0.390218,-0.555939,-0.517828,0.769290,0.257075,-0.092425,31.104778,18.783066,10.072508,0.601896,1.605026,0.067611,0.000000,0.000000,0.000000,0.000000,0.000000,0.000000
13207102.000000,2.303480,-0.987056,-1.841384,-1.419067,-0.957525,1.713201,0.467267,-0.051643,-0.544197,-0.390386,-0.558209,-0.516881,0.759864,0.259804,-0.441546,32.203716,19.076645,10.143919,0.637601,1.670028,0.028243,0.000000,0.000000,0.000000,0.000000,0.000000,0.000000
13207103.000000,2.303455,-0.987631,-1.841783,-1.419620,-0.958026,1.713975,0.467531,-0.045506,-0.555662,-0.390762,-0.556023,-0.511571,0.767010,0.260807,-0.909686,33.259014,19.322617,10.143919,0.578092,1.624252,0.034652,0.000000,0.000000,0.000000,0.000000,0.000000,0.000000
13207104.000000,2.303436,-0.988218,-1.842196,-1.420173,-0.958529,1.714750,0.467796,-0.034398,-0.570112,-0.390540,-0.554823,-0.504338,0.766389,0.265708,-1.405596,34.238934,19.544785,9.997129,0.530485,1.532699,0.054794,0.000000,0.000000,0.000000,0.000000,0.000000,0.000000
13207105.000000,2.303418,-0.988808,-1.842602,-1.420733,-0.959024,1.715510,0.468063,-0.027720,-0.575334,-0.393144,-0.556249,-0.498142,0.765628,0.266025,-1.826129,35.044292,19.739182,9.921751,0.446256,1.552840,0.041976,0.000000,0.000000,0.000000,0.000000,0.000000,0.000000
13207106.000000,2.303397,-0.989398,-1.843001,-1.421290,-0.959522,1.716281,0.468324,-0.028395,-0.577080,-0.397018,-0.556576,-0.497157,0.767223,0.264704,-2.147479,35.706829,19.862167,9.949522,0.332731,1.591293,0.067611,0.000000,0.000000,0.000000,0.000000,0.000000,0.000000
13207107.000000,2.303376,-0.989983,-1.843406,-1.421854,-0.960022,1.717045,0.468598,-0.026527,-0.575745,-0.396869,-0.554794,-0.497594,0.762248,0.267610,-2.421221,36.147198,20.008957,9.949522,0.369352,1.526290,-0.023942,0.000000,0.000000,0.000000,0.000000,0.000000,0.000000
13207108.000000,2.303360,-0.990566,-1.843821,-1.422412,-0.960533,1.717813,0.468849,-0.021701,-0.587465,-0.402845,-0.558874,-0.498912,0.762111,0.271140,-2.690997,36.563763,20.254929,9.997129,0.464567,1.494247,0.061202,0.000000,0.000000,0.000000,0.000000,0.000000,0.000000
13207109.000000,2.303331,-0.991144,-1.844232,-1.422976,-0.961039,1.718576,0.469105,-0.023298,-0.578545,-0.402743,-0.557166,-0.510231,0.765237,0.263965,-2.742571,36.710552,20.429489,10.120115,0.518583,1.513473,0.087753,0.000000,0.000000,0.000000,0.000000,0.000000,0.000000
13207110.000000,2.303294,-0.991734,-1.844640,-1.423556,-0.961545,1.719328,0.469374,-0.030501,-0.581294,-0.403745,-0.561915,-0.506366,0.760944,0.268034,-2.643389,36.980328,20.524704,10.370054,0.554288,1.532699,-0.023942,0.000000,0.000000,0.000000,0.000000,0.000000,0.000000
13207111.000000,2.303266,-0.992302,-1.845049,-1.424128,-0.962058,1.720079,0.469619,-0.029237,-0.580047,-0.405988,-0.570163,-0.507151,0.761994,0.262835,-2.667193,37.051739,20.671494,10.691404,0.566190,1.578475,0.087753,0.000000,0.000000,0.000000,0.000000,0.000000,0.000000
13207112.000000,2.303229,-0.992889,-1.845456,-1.424699,-0.962559,1.720827,0.469885,-0.031440,-0.579713,-0.403406,-0.566968,-0.501979,0.740916,0.258760,-2.544207,37.222332,20.671494,10.961180,0.542386,1.519881,0.074935,0.000000,0.000000,0.000000,0.000000,0.000000,0.000000
13207113.000000,2.303190,-0.993490,-1.845859,-1.425259,-0.963066,1.721579,0.470149,-0.030378,-0.584938,-0.412302,-0.578725,-0.505800,0.743424,0.264470,-2.397418,37.492107,20.770676,11.107969,0.488370,1.546432,0.048385,0.000000,0.000000,0.000000,0.000000,0.000000,0.000000
13207114.000000,2.303150,-0.994079,-1.846263,-1.425833,-0.963575,1.722313,0.470414,-0.035505,-0.595049,-0.413793,-0.580885,-0.504859,0.743609,0.260484,-2.246661,37.714275,20.822250,11.381712,0.422452,1.695663,0.028243,0.000000,0.000000,0.000000,0.000000,0.000000,0.000000
13207115.000000,2.303102,-0.994683,-1.846668,-1.426404,-0.964072,1.723043,0.470672,-0.038934,-0.594512,-0.411152,-0.574758,-0.506287,0.745768,0.259427,-1.972918,38.103069,20.869858,11.603880,0.416959,1.806442,0.074935,0.000000,0.000000,0.000000,0.000000,0.000000,0.000000
13207116.000000,2.303056,-0.995296,-1.847081,-1.426963,-0.964583,1.723795,0.470942,-0.039696,-0.591639,-0.414901,-0.569577,-0.502867,0.748842,0.262578,-1.750750,38.642620,20.992844,11.778440,0.327238,1.773483,0.021835,0.000000,0.000000,0.000000,0.000000,0.000000,0.000000
13207117.000000,2.303003,-0.995917,-1.847499,-1.427523,-0.965095,1.724525,0.471201,-0.045370,-0.600641,-0.415153,-0.566476,-0.501261,0.738367,0.263280,-1.453204,39.106792,21.163437,11.877623,0.351041,1.741439,0.034652,0.000000,0.000000,0.000000,0.000000,0.000000,0.000000
13207118.000000,2.302945,-0.996539,-1.847906,-1.428092,-0.965621,1.725265,0.471460,-0.046925,-0.611532,-0.412425,-0.565052,-0.514995,0.740809,0.262506,-1.108050,39.622540,21.187241,12.123594,0.398649,1.747848,0.067611,0.000000,0.000000,0.000000,0.000000,0.000000,0.000000
13207119.000000,2.302880,-0.997152,-1.848315,-1.428652,-0.966137,1.726012,0.471718,-0.055390,-0.607094,-0.414665,-0.564167,-0.512965,0.740288,0.266529,-0.711321,40.015301,21.262619,12.369566,0.369352,1.727706,0.021835,0.000000,0.000000,0.000000,0.000000,0.000000,0.000000
13207120.000000,2.302819,-0.997778,-1.848737,-1.429212,-0.966654,1.726744,0.471973,-0.060874,-0.610376,-0.416301,-0.560983,-0.519039,0.731780,0.263433,-0.342364,40.332684,21.385605,12.591734,0.422452,1.689254,0.074935,0.000000,0.000000,0.000000,0.000000,0.000000,0.000000
13207121.000000,2.302746,-0.998388,-1.849156,-1.429766,-0.967194,1.727482,0.472238,-0.066675,-0.613617,-0.416485,-0.561154,-0.519848,0.744327,0.264615,0.105939,40.626263,21.556198,12.865477,0.524076,1.695663,0.054794,0.000000,0.000000,0.000000,0.000000,0.000000,0.000000
13207122.000000,2.302674,-0.999013,-1.849573,-1.430332,-0.967711,1.728210,0.472511,-0.069031,-0.619058,-0.417857,-0.560317,-0.516331,0.730390,0.265745,0.502668,40.991253,21.655380,13.111448,0.512174,1.786300,0.021835,0.000000,0.000000,0.000000,0.000000,0.000000,0.000000
13207123.000000,2.302595,-0.999636,-1.849988,-1.430903,-0.968236,1.728931,0.472777,-0.070415,-0.613169,-0.417170,-0.563157,-0.515072,0.726360,0.264903,0.994611,41.261028,21.679184,13.357420,0.405057,1.877853,0.074935,0.000000,0.000000,0.000000,0.000000,0.000000,0.000000
13207124.000000,2.302524,-1.000247,-1.850413,-1.431454,-0.968765,1.729660,0.473050,-0.071009,-0.611509,-0.423311,-0.562003,-0.512350,0.722831,0.271302,1.343732,41.483196,21.849777,13.456602,0.362943,1.890670,0.021835,0.000000,0.000000,0.000000,0.000000,0.000000,0.000000
13207125.000000,2.302450,-1.000851,-1.850841,-1.432012,-0.969289,1.730394,0.473318,-0.071754,-0.613273,-0.421672,-0.556159,-0.514312,0.729680,0.272695,1.688886,41.483196,22.071945,13.508177,0.308927,1.812850,0.041976,0.000000,0.000000,0.000000,0.000000,0.000000,0.000000
13207126.000000,2.302373,-1.001455,-1.851259,-1.432559,-0.969821,1.731120,0.473590,-0.072917,-0.609017,-0.425958,-0.554937,-0.512041,0.733636,0.271456,2.061811,41.431622,22.218735,13.531981,0.291532,1.884261,0.021835,0.000000,0.000000,0.000000,0.000000,0.000000,0.000000
13207127.000000,2.302296,-1.002057,-1.851689,-1.433096,-0.970354,1.731835,0.473850,-0.073061,-0.607085,-0.427331,-0.548249,-0.535264,0.722736,0.266823,2.406965,41.407818,22.417099,13.408995,0.381254,1.968490,0.100570,0.000000,0.000000,0.000000,0.000000,0.000000,0.000000
13207128.000000,2.302221,-1.002660,-1.852138,-1.433631,-0.970889,1.732551,0.474126,-0.071709,-0.604594,-0.432401,-0.541305,-0.534266,0.722196,0.264019,2.680707,41.312603,22.809860,13.186827,0.398649,2.033492,0.028243,0.000000,0.000000,0.000000,0.000000,0.000000,0.000000
13207129.000000,2.302153,-1.003237,-1.852570,-1.434154,-0.971428,1.733286,0.474392,-0.067914,-0.597685,-0.430273,-0.537465,-0.526529,0.726434,0.268845,2.827497,41.019024,23.079636,12.988462,0.488370,1.995040,0.028243,0.000000,0.000000,0.000000,0.000000,0.000000,0.000000
13207130.000000,2.302079,-1.003823,-1.853003,-1.434667,-0.971967,1.734009,0.474666,-0.071092,-0.592894,-0.431916,-0.526913,-0.530690,0.726249,0.266373,3.073469,40.796856,23.274033,12.643309,0.589994,1.995040,0.048385,0.000000,0.000000,0.000000,0.000000,0.000000,0.000000
13207131.000000,2.302012,-1.004426,-1.853450,-1.435171,-0.972494,1.734735,0.474941,-0.067306,-0.591202,-0.437025,-0.517487,-0.527069,0.732437,0.275126,3.200422,40.697674,23.718369,12.298155,0.530485,2.027084,0.015426,0.000000,0.000000,0.000000,0.000000,0.000000,0.000000
13207132.000000,2.301952,-1.005009,-1.853900,-1.435663,-0.973039,1.735465,0.475210,-0.066400,-0.589871,-0.439915,-0.506177,-0.533736,0.731266,0.271150,3.271833,40.578655,24.011948,11.778440,0.554288,2.079269,0.048385,0.000000,0.000000,0.000000,0.000000,0.000000,0.000000
13207133.000000,2.301895,-1.005585,-1.854347,-1.436145,-0.973574,1.736188,0.475483,-0.061273,-0.583006,-0.437804,-0.495571,-0.533215,0.730557,0.274920,3.271833,40.281109,24.281723,11.282530,0.578092,2.092086,0.021835,0.000000,0.000000,0.000000,0.000000,0.000000,0.000000
13207134.000000,2.301838,-1.006163,-1.854799,-1.436614,-0.974106,1.736919,0.475755,-0.058637,-0.575596,-0.446426,-0.488315,-0.537225,0.729274,0.276918,3.299604,40.086712,24.674484,10.786619,0.488370,2.027084,0.021835,0.000000,0.000000,0.000000,0.000000,0.000000,0.000000
13207135.000000,2.301778,-1.006742,-1.855249,-1.437086,-0.974652,1.737660,0.476025,-0.057596,-0.576561,-0.448990,-0.485971,-0.542465,0.732381,0.274762,3.371015,39.793133,24.944260,10.441465,0.559781,1.988631,0.015426,0.000000,0.000000,0.000000,0.000000,0.000000,0.000000
13207136.000000,2.301729,-1.007316,-1.855711,-1.437556,-0.975194,1.738372,0.476295,-0.054188,-0.578857,-0.449680,-0.477577,-0.540618,0.733126,0.271230,3.323408,39.475750,25.261642,10.195494,0.596403,2.053634,0.041976,0.000000,0.000000,0.000000,0.000000,0.000000,0.000000
13207137.000000,2.301680,-1.007886,-1.856156,-1.438016,-0.975751,1.739086,0.476554,-0.052048,-0.573364,-0.447704,-0.472192,-0.542953,0.722699,0.265277,3.299604,39.305157,25.483810,9.997129,0.608304,2.092086,0.048385,0.000000,0.000000,0.000000,0.000000,0.000000,0.000000
13207138.000000,2.301632,-1.008470,-1.856603,-1.438472,-0.976302,1.739790,0.476822,-0.050147,-0.575131,-0.442421,-0.461518,-0.543912,0.716056,0.266525,3.248029,39.205975,25.582993,9.850340,0.733732,2.112228,-0.004716,0.000000,0.000000,0.000000,0.000000,0.000000,0.000000
13207139.000000,2.301586,-1.009041,-1.857062,-1.438918,-0.976855,1.740503,0.477080,-0.048934,-0.574640,-0.450605,-0.457567,-0.542157,0.715834,0.264070,3.200422,39.082989,25.876572,9.699583,0.703519,2.157089,0.048385,0.000000,0.000000,0.000000,0.000000,0.000000,0.000000
13207140.000000,2.301550,-1.009621,-1.857516,-1.439367,-0.977404,1.741229,0.477351,-0.045449,-0.575838,-0.447184,-0.453450,-0.555008,0.714468,0.265729,3.025861,39.035381,26.023361,9.651976,0.727323,2.118636,0.009017,0.000000,0.000000,0.000000,0.000000,0.000000,0.000000
13207141.000000,2.301515,-1.010207,-1.857965,-1.439821,-0.977965,1.741933,0.477619,-0.041177,-0.574333,-0.446470,-0.455895,-0.559423,0.716315,0.267152,2.902875,39.059185,26.122543,9.699583,0.769437,2.092086,0.001693,0.000000,0.000000,0.000000,0.000000,0.000000,0.000000
13207142.000000,2.301485,-1.010797,-1.858409,-1.440269,-0.978508,1.742648,0.477877,-0.037343,-0.578637,-0.450097,-0.457025,-0.548538,0.711291,0.265717,2.752119,39.158367,26.245529,9.874144,0.679716,2.131454,0.009017,0.000000,0.000000,0.000000,0.000000,0.000000,0.000000
13207143.000000,2.301459,-1.011389,-1.858852,-1.440717,-0.979054,1.743353,0.478141,-0.034570,-0.584540,-0.445394,-0.452634,-0.554594,0.714964,0.264412,2.605329,39.305157,26.245529,10.020933,0.715421,2.202865,0.021835,0.000000,0.000000,0.000000,0.000000,0.000000,0.000000
13207144.000000,2.301434,-1.011967,-1.859287,-1.441159,-0.979605,1.744062,0.478398,-0.029645,-0.584930,-0.448180,-0.461081,-0.552626,0.711787,0.266313,2.454572,39.400372,26.269333,10.243101,0.739225,2.183639,0.054794,0.000000,0.000000,0.000000,0.000000,0.000000,0.000000
13207145.000000,2.301414,-1.012572,-1.859722,-1.441620,-0.980143,1.744780,0.478663,-0.026561,-0.589790,-0.444333,-0.460746,-0.554594,0.714352,0.267635,2.232404,39.693951,26.221725,10.592222,0.685209,2.163497,0.009017,0.000000,0.000000,0.000000,0.000000,0.000000,0.000000
13207146.000000,2.301392,-1.013161,-1.860148,-1.442084,-0.980696,1.745482,0.478918,-0.027645,-0.587577,-0.435795,-0.462759,-0.552254,0.700340,0.260875,2.109418,39.793133,26.047165,10.937376,0.667814,2.157089,0.041976,0.000000,0.000000,0.000000,0.000000,0.000000,0.000000
13207147.000000,2.301385,-1.013747,-1.860572,-1.442538,-0.981243,1.746184,0.479176,-0.020757,-0.588236,-0.434004,-0.461256,-0.545388,0.695697,0.257996,1.811872,39.939922,25.900375,11.159544,0.649503,2.228500,0.021835,0.000000,0.000000,0.000000,0.000000,0.000000,0.000000
13207148.000000,2.301386,-1.014345,-1.860997,-1.442997,-0.981791,1.746882,0.479439,-0.014772,-0.588108,-0.426514,-0.463900,-0.541796,0.705184,0.258619,1.466718,40.110516,25.801193,11.306334,0.655912,2.222091,0.034652,0.000000,0.000000,0.000000,0.000000,0.000000,0.000000
13207149.000000,2.301379,-1.014936,-1.861411,-1.443459,-0.982343,1.747597,0.479703,-0.013821,-0.587781,-0.421503,-0.464978,-0.539984,0.709782,0.259145,1.268354,40.062908,25.559189,11.504698,0.703519,2.163497,0.061202,0.000000,0.000000,0.000000,0.000000,0.000000,0.000000
13207150.000000,2.301383,-1.015508,-1.861824,-1.443930,-0.982892,1.748311,0.479972,-0.007491,-0.587421,-0.419510,-0.462890,-0.544175,0.711715,0.262979,0.947004,39.868511,25.384628,11.726866,0.637601,2.150680,-0.004716,0.000000,0.000000,0.000000,0.000000,0.000000,0.000000
13207151.000000,2.301385,-1.016084,-1.862235,-1.444407,-0.983436,1.749002,0.480225,-0.004359,-0.578418,-0.411541,-0.463834,-0.545351,0.705235,0.255726,0.697065,39.622540,25.091049,11.949034,0.637601,2.150680,0.061202,0.000000,0.000000,0.000000,0.000000,0.000000,0.000000
13207152.000000,2.301395,-1.016660,-1.862631,-1.444877,-0.983981,1.749718,0.480486,-0.000960,-0.578301,-0.404284,-0.467333,-0.549450,0.705342,0.259947,0.403486,39.451946,24.821274,12.123594,0.637601,2.092086,0.015426,0.000000,0.000000,0.000000,0.000000,0.000000,0.000000
13207153.000000,2.301405,-1.017248,-1.863024,-1.445350,-0.984521,1.750430,0.480747,0.000262,-0.579894,-0.396866,-0.466193,-0.548341,0.703944,0.259886,0.153547,39.328960,24.476120,12.270384,0.613798,2.072860,0.041976,0.000000,0.000000,0.000000,0.000000,0.000000,0.000000
13207154.000000,2.301414,-1.017831,-1.863419,-1.445821,-0.985069,1.751123,0.481002,0.003855,-0.585205,-0.393782,-0.464407,-0.548969,0.697610,0.255050,-0.068621,39.253582,24.206345,12.369566,0.632108,2.137862,0.067611,0.000000,0.000000,0.000000,0.000000,0.000000,0.000000
13207155.000000,2.301424,-1.018411,-1.863809,-1.446297,-0.985626,1.751824,0.481254,0.003092,-0.581295,-0.389995,-0.475326,-0.544557,0.696325,0.253133,-0.266986,39.253582,24.011948,12.591734,0.644010,2.157089,0.061202,0.000000,0.000000,0.000000,0.000000,0.000000,0.000000
13207156.000000,2.301441,-1.018990,-1.864185,-1.446773,-0.986163,1.752531,0.481507,0.004861,-0.580225,-0.380674,-0.472042,-0.544542,0.691670,0.251492,-0.564532,39.082989,23.718369,12.766294,0.620206,2.098495,0.041976,0.000000,0.000000,0.000000,0.000000,0.000000,0.000000
13207157.000000,2.301452,-1.019560,-1.864569,-1.447242,-0.986715,1.753248,0.481760,0.005594,-0.590204,-0.382433,-0.471806,-0.542349,0.707334,0.255920,-0.711321,38.983807,23.619186,12.865477,0.571683,2.007858,0.009017,0.000000,0.000000,0.000000,0.000000,0.000000,0.000000
13207158.000000,2.301469,-1.020133,-1.864949,-1.447712,-0.987260,1.753949,0.482012,0.007559,-0.586831,-0.381275,-0.468124,-0.550051,0.699768,0.255593,-0.909686,38.888592,23.420822,12.940855,0.559781,2.020675,0.074935,0.000000,0.000000,0.000000,0.000000,0.000000,0.000000
13207159.000000,2.301491,-1.020717,-1.865336,-1.448195,-0.987824,1.754644,0.482276,0.012899,-0.583103,-0.381252,-0.473874,-0.554008,0.697158,0.259925,-1.131854,38.813213,23.274033,13.087645,0.542386,2.125045,0.021835,0.000000,0.000000,0.000000,0.000000,0.000000,0.000000
13207160.000000,2.301506,-1.021290,-1.865703,-1.448662,-0.988384,1.755356,0.482527,0.012679,-0.581876,-0.376583,-0.472786,-0.551969,0.704335,0.255785,-1.183428,38.765606,23.055832,13.163023,0.518583,2.157089,0.034652,0.000000,0.000000,0.000000,0.000000,0.000000,0.000000
13207161.000000,2.301523,-1.021865,-1.866076,-1.449141,-0.988945,1.756064,0.482778,0.013059,-0.581354,-0.375720,-0.473400,-0.561582,0.705789,0.251679,-1.254840,38.642620,22.857468,13.333616,0.542386,2.098495,0.061202,0.000000,0.000000,0.000000,0.000000,0.000000,0.000000
13207162.000000,2.301543,-1.022439,-1.866447,-1.449613,-0.989502,1.756776,0.483041,0.014589,-0.577930,-0.382140,-0.473061,-0.556358,0.714742,0.264752,-1.354022,38.495831,22.758286,13.531981,0.518583,2.053634,0.009017,0.000000,0.000000,0.000000,0.000000,0.000000,0.000000
13207163.000000,2.301558,-1.023000,-1.866827,-1.450087,-0.990058,1.757484,0.483292,0.014713,-0.573546,-0.382306,-0.471290,-0.559803,0.709095,0.257553,-1.429400,38.277630,22.635300,13.706541,0.535978,2.085677,0.074935,0.000000,0.000000,0.000000,0.000000,0.000000,0.000000
13207164.000000,2.301572,-1.023574,-1.867197,-1.450560,-0.990631,1.758181,0.483555,0.017309,-0.577863,-0.375092,-0.469474,-0.558129,0.690861,0.261949,-1.453204,38.154644,22.488510,13.877134,0.578092,2.092086,0.009017,0.000000,0.000000,0.000000,0.000000,0.000000,0.000000
13207165.000000,2.301584,-1.024138,-1.867566,-1.451007,-0.991194,1.758879,0.483801,0.017710,-0.570331,-0.375748,-0.461926,-0.564159,0.683493,0.256918,-1.405596,38.055462,22.440903,13.904905,0.578092,2.072860,0.028243,0.000000,0.000000,0.000000,0.000000,0.000000,0.000000
13207166.000000,2.301602,-1.024718,-1.867928,-1.451475,-0.991769,1.759583,0.484049,0.020522,-0.579142,-0.367920,-0.462097,-0.566802,0.691021,0.253746,-1.453204,38.055462,22.218735,14.051695,0.637601,2.053634,0.028243,0.000000,0.000000,0.000000,0.000000,0.000000,0.000000
13207167.000000,2.301615,-1.025302,-1.868295,-1.451933,-0.992326,1.760271,0.484297,0.017068,-0.580915,-0.367391,-0.454805,-0.558100,0.692138,0.250381,-1.405596,38.103069,22.048141,14.127073,0.554288,2.047225,0.067611,0.000000,0.000000,0.000000,0.000000,0.000000,0.000000
13207168.000000,2.301623,-1.025883,-1.868659,-1.452382,-0.992899,1.760970,0.484559,0.014032,-0.580889,-0.364413,-0.454017,-0.553380,0.693775,0.250954,-1.330218,38.301434,21.901352,14.150877,0.500272,2.020675,0.021835,0.000000,0.000000,0.000000,0.000000,0.000000,0.000000
13207169.000000,2.301628,-1.026465,-1.869018,-1.452821,-0.993461,1.761653,0.484813,0.010183,-0.577840,-0.360758,-0.449763,-0.547974,0.694679,0.248869,-1.183428,38.372845,21.726791,14.027891,0.512174,2.014266,0.028243,0.000000,0.000000,0.000000,0.000000,0.000000,0.000000
13207170.000000,2.301644,-1.027040,-1.869378,-1.453260,-0.994036,1.762350,0.485057,0.011259,-0.572712,-0.360934,-0.443568,-0.555714,0.695283,0.245691,-1.183428,38.396648,21.655380,14.000120,0.500272,2.014266,0.094161,0.000000,0.000000,0.000000,0.000000,0.000000,0.000000
13207171.000000,2.301651,-1.027613,-1.869744,-1.453699,-0.994598,1.763049,0.485315,0.011858,-0.571521,-0.360395,-0.440091,-0.554658,0.692369,0.248407,-1.060443,38.277630,21.556198,14.027891,0.518583,1.988631,0.028243,0.000000,0.000000,0.000000,0.000000,0.000000,0.000000
13207172.000000,2.301657,-1.028184,-1.870113,-1.454129,-0.995173,1.763728,0.485566,0.011826,-0.567485,-0.362533,-0.434023,-0.562291,0.685837,0.250339,-0.909686,38.103069,21.433212,14.027891,0.506681,1.995040,0.067611,0.000000,0.000000,0.000000,0.000000,0.000000,0.000000
13207173.000000,2.301664,-1.028755,-1.870467,-1.454548,-0.995749,1.764421,0.485815,0.009840,-0.566025,-0.360893,-0.432187,-0.558744,0.687945,0.253158,-0.786700,37.884869,21.286423,14.000120,0.506681,1.995040,0.087753,0.000000,0.000000,0.000000,0.000000,0.000000,0.000000
13207174.000000,2.301672,-1.029316,-1.870826,-1.454973,-0.996320,1.765107,0.486072,0.008134,-0.566614,-0.358530,-0.425379,-0.561702,0.682774,0.252173,-0.663714,37.539715,21.139633,14.051695,0.530485,1.949264,0.054794,0.000000,0.000000,0.000000,0.000000,0.000000,0.000000
13207175.000000,2.301684,-1.029874,-1.871181,-1.455385,-0.996893,1.765800,0.486315,0.008574,-0.576865,-0.357908,-0.424761,-0.556015,0.692890,0.247192,-0.612139,37.273907,21.016647,14.127073,0.494779,1.930038,0.067611,0.000000,0.000000,0.000000,0.000000,0.000000,0.000000
13207176.000000,2.301691,-1.030444,-1.871543,-1.455805,-0.997464,1.766481,0.486568,0.007140,-0.573507,-0.360585,-0.421518,-0.578932,0.686339,0.247533,-0.489153,37.075542,20.869858,14.226255,0.488370,2.014266,0.048385,0.000000,0.000000,0.000000,0.000000,0.000000,0.000000
13207178.000000,2.301713,-1.031581,-1.872264,-1.456601,-0.998612,1.767852,0.487068,0.008280,-0.566883,-0.357250,-0.410266,-0.575435,0.688341,0.245262,-0.389971,36.658978,20.794479,13.952513,0.464567,2.066451,0.107894,0.000000,0.000000,0.000000,0.000000,0.000000,0.000000
13207179.000000,2.301726,-1.032145,-1.872617,-1.456996,-0.999184,1.768539,0.487328,0.011861,-0.560682,-0.354528,-0.405052,-0.577361,0.684943,0.247248,-0.342364,36.365398,20.600082,13.829527,0.440763,1.974899,0.048385,0.000000,0.000000,0.000000,0.000000,0.000000,0.000000
13207180.000000,2.301737,-1.032712,-1.872980,-1.457380,-0.999755,1.769231,0.487576,0.009932,-0.560156,-0.364721,-0.404848,-0.577340,0.689911,0.250144,-0.243182,36.071819,20.576279,13.654966,0.410551,1.923629,0.048385,0.000000,0.000000,0.000000,0.000000,0.000000,0.000000
13207181.000000,2.301754,-1.033279,-1.873339,-1.457765,-1.000340,1.769920,0.487829,0.010290,-0.565752,-0.361385,-0.400581,-0.579919,0.683310,0.250138,-0.215411,35.901226,20.401718,13.456602,0.410551,1.890670,0.034652,0.000000,0.000000,0.000000,0.000000,0.000000,0.000000
13207182.000000,2.301767,-1.033853,-1.873693,-1.458150,-1.000913,1.770600,0.488076,0.013533,-0.566830,-0.358751,-0.394048,-0.580120,0.676252,0.246517,-0.167803,35.829815,20.231125,13.262205,0.500272,1.884261,0.094161,0.000000,0.000000,0.000000,0.000000,0.000000,0.000000
13207183.000000,2.301782,-1.034419,-1.874051,-1.458523,-1.001494,1.771279,0.488329,0.015492,-0.566611,-0.362124,-0.389704,-0.574532,0.673278,0.252955,-0.116229,35.778240,20.131943,13.063841,0.476469,1.897079,0.048385,0.000000,0.000000,0.000000,0.000000,0.000000,0.000000
13207184.000000,2.301789,-1.034990,-1.874407,-1.458897,-1.002066,1.771967,0.488577,0.011797,-0.572484,-0.358359,-0.382712,-0.573733,0.683875,0.245982,0.030561,35.655254,19.937546,12.889280,0.512174,1.858627,0.048385,0.000000,0.000000,0.000000,0.000000,0.000000,0.000000
13207185.000000,2.301805,-1.035561,-1.874770,-1.459267,-1.002649,1.772658,0.488820,0.011571,-0.575413,-0.357926,-0.376655,-0.574349,0.691869,0.244901,0.054365,35.536236,19.814560,12.766294,0.458158,1.832076,0.074935,0.000000,0.000000,0.000000,0.000000,0.000000,0.000000
13207186.000000,2.301821,-1.036126,-1.875126,-1.459623,-1.003229,1.773362,0.489067,0.013934,-0.571711,-0.357725,-0.368382,-0.567083,0.691623,0.245632,0.105939,35.437054,19.691574,12.492552,0.434354,1.727706,0.061202,0.000000,0.000000,0.000000,0.000000,0.000000,0.000000
13207187.000000,2.301843,-1.036705,-1.875486,-1.459976,-1.003807,1.774047,0.489318,0.018125,-0.570640,-0.357396,-0.358853,-0.566185,0.697636,0.245172,0.054365,35.314068,19.592392,12.222776,0.405057,1.721298,0.061202,0.000000,0.000000,0.000000,0.000000,0.000000,0.000000
13207188.000000,2.301857,-1.037262,-1.875839,-1.460329,-1.004387,1.774734,0.489565,0.015248,-0.559110,-0.356827,-0.358031,-0.562991,0.695572,0.249157,0.129743,35.068096,19.445602,12.072020,0.339139,1.793624,0.087753,0.000000,0.000000,0.000000,0.000000,0.000000,0.000000
13207189.000000,2.301875,-1.037828,-1.876193,-1.460675,-1.004966,1.775425,0.489822,0.017222,-0.557177,-0.351232,-0.352733,-0.568047,0.689442,0.249844,0.153547,34.873699,19.223434,11.849852,0.315336,1.858627,0.048385,0.000000,0.000000,0.000000,0.000000,0.000000,0.000000
13207190.000000,2.301890,-1.038401,-1.876562,-1.461020,-1.005548,1.776110,0.490069,0.014702,-0.560445,-0.353602,-0.349354,-0.568823,0.690877,0.247381,0.205121,34.726910,19.128220,11.655455,0.327238,1.819259,0.081344,0.000000,0.000000,0.000000,0.000000,0.000000,0.000000
13207191.000000,2.301911,-1.038973,-1.876921,-1.461354,-1.006140,1.776810,0.490324,0.017239,-0.564577,-0.353574,-0.343704,-0.579780,0.691961,0.252475,0.205121,34.798321,19.104416,11.457090,0.374845,1.754256,0.061202,0.000000,0.000000,0.000000,0.000000,0.000000,0.000000
13207192.000000,2.301924,-1.039532,-1.877282,-1.461680,-1.006722,1.777490,0.490580,0.016873,-0.562083,-0.356600,-0.337570,-0.581954,0.691188,0.250093,0.304304,34.580120,18.981430,11.207151,0.393156,1.682845,0.061202,0.000000,0.000000,0.000000,0.000000,0.000000,0.000000
13207193.000000,2.301946,-1.040090,-1.877642,-1.462003,-1.007315,1.778185,0.490832,0.015665,-0.559248,-0.358815,-0.331095,-0.586175,0.696756,0.247886,0.328107,34.357952,18.953659,10.984983,0.398649,1.591293,0.094161,0.000000,0.000000,0.000000,0.000000,0.000000,0.000000
13207194.000000,2.301973,-1.040655,-1.878019,-1.462323,-1.007904,1.778869,0.491091,0.019554,-0.565808,-0.361547,-0.327052,-0.598732,0.697561,0.248852,0.276533,34.139751,18.981430,10.786619,0.446256,1.572067,0.054794,0.000000,0.000000,0.000000,0.000000,0.000000,0.000000
13207195.000000,2.301992,-1.041224,-1.878386,-1.462640,-1.008493,1.779540,0.491341,0.019836,-0.567143,-0.361941,-0.322212,-0.598978,0.695197,0.247943,0.328107,33.893780,18.953659,10.516844,0.428861,1.597701,0.061202,0.000000,0.000000,0.000000,0.000000,0.000000,0.000000
13207196.000000,2.302018,-1.041784,-1.878754,-1.462945,-1.009090,1.780211,0.491593,0.025186,-0.563549,-0.366749,-0.316396,-0.593064,0.691146,0.251962,0.304304,33.699383,18.981430,10.294676,0.374845,1.695663,0.067611,0.000000,0.000000,0.000000,0.000000,0.000000,0.000000
13207197.000000,2.302041,-1.042354,-1.879122,-1.463248,-1.009680,1.780871,0.491852,0.021198,-0.560974,-0.367552,-0.311868,-0.599844,0.673481,0.254171,0.328107,33.501019,18.929855,10.096312,0.339139,1.747848,0.074935,0.000000,0.000000,0.000000,0.000000,0.000000,0.000000
13207198.000000,2.302069,-1.042939,-1.879489,-1.463543,-1.010273,1.781545,0.492109,0.023049,-0.566293,-0.373658,-0.310058,-0.593251,0.678712,0.259989,0.304304,33.477215,18.906052,9.874144,0.273221,1.760665,0.074935,0.000000,0.000000,0.000000,0.000000,0.000000,0.000000
13207199.000000,2.302100,-1.043509,-1.879865,-1.463832,-1.010873,1.782223,0.492369,0.027578,-0.570555,-0.369144,-0.300639,-0.597628,0.676395,0.262864,0.252729,33.477215,18.929855,9.628172,0.303434,1.708480,0.048385,0.000000,0.000000,0.000000,0.000000,0.000000,0.000000
13207200.000000,2.302123,-1.044090,-1.880246,-1.464126,-1.011468,1.782897,0.492619,0.028359,-0.567803,-0.367529,-0.298086,-0.595744,0.676386,0.256173,0.328107,33.429607,19.052841,9.453611,0.332731,1.605026,0.100570,0.000000,0.000000,0.000000,0.000000,0.000000,0.000000
13207201.000000,2.302159,-1.044671,-1.880622,-1.464410,-1.012073,1.783567,0.492876,0.029458,-0.574266,-0.372250,-0.293134,-0.600423,0.674092,0.254481,0.252729,33.429607,19.152023,9.279051,0.428861,1.532699,0.074935,0.000000,0.000000,0.000000,0.000000,0.000000,0.000000
13207202.000000,2.302187,-1.045251,-1.881007,-1.464695,-1.012676,1.784244,0.493132,0.027995,-0.577788,-0.375182,-0.288322,-0.604023,0.676749,0.252365,0.276533,33.382000,19.251205,9.207640,0.506681,1.500655,0.061202,0.000000,0.000000,0.000000,0.000000,0.000000,0.000000
13207203.000000,2.302220,-1.045843,-1.881400,-1.464972,-1.013275,1.784902,0.493382,0.030612,-0.576538,-0.377729,-0.284991,-0.608982,0.671772,0.249470,0.252729,33.429607,19.346420,9.009275,0.524076,1.487838,0.094161,0.000000,0.000000,0.000000,0.000000,0.000000,0.000000
13207204.000000,2.302259,-1.046441,-1.881780,-1.465253,-1.013889,1.785562,0.493632,0.033617,-0.584306,-0.378602,-0.283263,-0.605659,0.667504,0.249106,0.177350,33.576397,19.397995,8.985472,0.488370,1.546432,0.081344,0.000000,0.000000,0.000000,0.000000,0.000000,0.000000
13207205.000000,2.302295,-1.047047,-1.882161,-1.465535,-1.014481,1.786204,0.493883,0.035240,-0.589686,-0.379842,-0.282983,-0.606603,0.667692,0.248393,0.153547,33.794598,19.374191,9.033079,0.393156,1.617843,0.061202,0.000000,0.000000,0.000000,0.000000,0.000000,0.000000
13207206.000000,2.302323,-1.047641,-1.882536,-1.465816,-1.015093,1.786871,0.494134,0.030240,-0.597095,-0.377896,-0.282373,-0.603635,0.666334,0.253031,0.252729,33.941387,19.322617,9.056883,0.356534,1.624252,0.041976,0.000000,0.000000,0.000000,0.000000,0.000000,0.000000
13207207.000000,2.302358,-1.048245,-1.882934,-1.466099,-1.015679,1.787528,0.494379,0.035222,-0.598045,-0.383983,-0.280300,-0.601319,0.670512,0.248503,0.252729,34.064373,19.445602,9.156065,0.279630,1.656295,0.107894,0.000000,0.000000,0.000000,0.000000,0.000000,0.000000
13207208.000000,2.302395,-1.048857,-1.883319,-1.466379,-1.016290,1.788178,0.494641,0.036100,-0.604952,-0.379288,-0.278521,-0.605382,0.670712,0.249673,0.228925,34.187359,19.445602,9.255247,0.339139,1.637069,0.054794,0.000000,0.000000,0.000000,0.000000,0.000000,0.000000
13207209.000000,2.302424,-1.049455,-1.883696,-1.466660,-1.016902,1.788840,0.494893,0.033578,-0.607558,-0.381864,-0.280234,-0.604026,0.672423,0.248403,0.351911,34.187359,19.445602,9.354429,0.440763,1.617843,0.061202,0.000000,0.000000,0.000000,0.000000,0.000000,0.000000
13207210.000000,2.302460,-1.050070,-1.884092,-1.466946,-1.017494,1.789488,0.495138,0.034287,-0.606304,-0.386565,-0.280191,-0.598570,0.664338,0.245519,0.375715,34.385723,19.592392,9.552794,0.422452,1.624252,0.100570,0.000000,0.000000,0.000000,0.000000,0.000000,0.000000
13207211.000000,2.302495,-1.050695,-1.884473,-1.467222,-1.018095,1.790151,0.495384,0.034297,-0.613139,-0.390640,-0.280056,-0.592534,0.671530,0.243311,0.427289,34.726910,19.568588,9.600401,0.512174,1.539108,0.107894,0.000000,0.000000,0.000000,0.000000,0.000000,0.000000
13207212.000000,2.302530,-1.051329,-1.884868,-1.467506,-1.018684,1.790808,0.495631,0.033839,-0.623323,-0.389109,-0.279385,-0.608089,0.664920,0.243580,0.502668,35.068096,19.643967,9.628172,0.452665,1.507064,0.120712,0.000000,0.000000,0.000000,0.000000,0.000000,0.000000
13207213.000000,2.302566,-1.051967,-1.885255,-1.467788,-1.019272,1.791452,0.495881,0.033376,-0.625854,-0.385814,-0.278347,-0.604401,0.658146,0.245749,0.574079,35.460857,19.643967,9.628172,0.386747,1.552840,0.081344,0.000000,0.000000,0.000000,0.000000,0.000000,0.000000
13207214.000000,2.302605,-1.052588,-1.885630,-1.468060,-1.019876,1.792100,0.496122,0.034569,-0.623637,-0.380448,-0.277644,-0.600502,0.645766,0.245496,0.574079,35.706829,19.497177,9.628172,0.297025,1.605026,0.081344,0.000000,0.000000,0.000000,0.000000,0.000000,0.000000
13207215.000000,2.302649,-1.053222,-1.886024,-1.468334,-1.020459,1.792738,0.496368,0.039945,-0.622739,-0.383064,-0.276862,-0.594490,0.654018,0.245640,0.526471,35.829815,19.520981,9.501219,0.225614,1.649886,0.061202,0.000000,0.000000,0.000000,0.000000,0.000000,0.000000
13207216.000000,2.302692,-1.053856,-1.886425,-1.468605,-1.021068,1.793385,0.496610,0.039884,-0.628537,-0.385535,-0.277970,-0.593247,0.653676,0.244927,0.502668,35.925030,19.544785,9.406004,0.243009,1.670028,0.081344,0.000000,0.000000,0.000000,0.000000,0.000000,0.000000
13207217.000000,2.302733,-1.054477,-1.886817,-1.468874,-1.021674,1.794043,0.496854,0.040854,-0.630553,-0.384855,-0.278683,-0.596505,0.650893,0.240444,0.550275,35.901226,19.592392,9.306822,0.255826,1.662704,0.114303,0.000000,0.000000,0.000000,0.000000,0.000000,0.000000
13207218.000000,2.302773,-1.055100,-1.887219,-1.469157,-1.022281,1.794697,0.497110,0.042854,-0.624287,-0.386720,-0.278288,-0.594855,0.651860,0.243879,0.574079,35.802044,19.643967,9.306822,0.285123,1.572067,0.048385,0.000000,0.000000,0.000000,0.000000,0.000000,0.000000
13207219.000000,2.302816,-1.055711,-1.887617,-1.469435,-1.022887,1.795362,0.497351,0.043481,-0.621265,-0.388528,-0.278886,-0.594128,0.652195,0.242512,0.625654,35.607647,19.691574,9.330626,0.356534,1.461288,0.094161,0.000000,0.000000,0.000000,0.000000,0.000000,0.000000
13207220.000000,2.302857,-1.056336,-1.888019,-1.469706,-1.023493,1.796014,0.497599,0.044455,-0.624840,-0.388063,-0.277818,-0.597885,0.656880,0.244188,0.649457,35.437054,19.667770,9.306822,0.398649,1.435653,0.067611,0.000000,0.000000,0.000000,0.000000,0.000000,0.000000
13207221.000000,2.302898,-1.056953,-1.888427,-1.469983,-1.024098,1.796645,0.497851,0.044584,-0.620699,-0.390858,-0.273459,-0.594774,0.652390,0.244917,0.724836,35.191082,19.766953,9.255247,0.410551,1.526290,0.054794,0.000000,0.000000,0.000000,0.000000,0.000000,0.000000
13207222.000000,2.302945,-1.057569,-1.888822,-1.470254,-1.024719,1.797273,0.498094,0.045851,-0.624406,-0.395734,-0.273391,-0.598488,0.646278,0.244763,0.724836,35.068096,19.715378,9.207640,0.446256,1.656295,0.061202,0.000000,0.000000,0.000000,0.000000,0.000000,0.000000
13207223.000000,2.302991,-1.058184,-1.889232,-1.470527,-1.025306,1.797897,0.498338,0.046663,-0.613299,-0.398937,-0.273918,-0.587194,0.643944,0.238893,0.748639,34.826092,19.814560,9.207640,0.374845,1.702071,0.087753,0.000000,0.000000,0.000000,0.000000,0.000000,0.000000
13207224.000000,2.303038,-1.058797,-1.889644,-1.470796,-1.025912,1.798539,0.498582,0.043418,-0.604774,-0.403587,-0.273091,-0.588097,0.646274,0.241121,0.796247,34.603924,19.985153,9.132261,0.303434,1.637069,0.074935,0.000000,0.000000,0.000000,0.000000,0.000000,0.000000
13207225.000000,2.303085,-1.059417,-1.890053,-1.471066,-1.026514,1.799181,0.498827,0.044686,-0.606445,-0.403136,-0.271119,-0.584792,0.642361,0.242639,0.824018,34.357952,20.131943,9.132261,0.308927,1.591293,0.061202,0.000000,0.000000,0.000000,0.000000,0.000000,0.000000
13207226.000000,2.303126,-1.060041,-1.890468,-1.471338,-1.027132,1.799802,0.499078,0.044003,-0.614793,-0.405882,-0.271492,-0.589967,0.642620,0.242059,0.923200,34.238934,20.278732,9.207640,0.303434,1.617843,0.094161,0.000000,0.000000,0.000000,0.000000,0.000000,0.000000
13207227.000000,2.303173,-1.060660,-1.890883,-1.471599,-1.027747,1.800420,0.499330,0.047929,-0.612348,-0.409067,-0.271207,-0.594897,0.637244,0.244795,0.970807,34.187359,20.477097,9.132261,0.327238,1.727706,0.048385,0.000000,0.000000,0.000000,0.000000,0.000000,0.000000
13207228.000000,2.303216,-1.061293,-1.891297,-1.471870,-1.028367,1.801032,0.499572,0.050267,-0.616632,-0.407286,-0.270794,-0.599509,0.633976,0.242186,1.046186,34.211163,20.552475,9.207640,0.386747,1.851302,0.107894,0.000000,0.000000,0.000000,0.000000,0.000000,0.000000
13207229.000000,2.303259,-1.061932,-1.891707,-1.472126,-1.028975,1.801668,0.499820,0.048293,-0.622184,-0.414901,-0.270684,-0.592892,0.634137,0.236407,1.145368,34.286541,20.647690,9.207640,0.344633,1.773483,0.094161,0.000000,0.000000,0.000000,0.000000,0.000000,0.000000
13207230.000000,2.303296,-1.062572,-1.892125,-1.472398,-1.029608,1.802302,0.500073,0.044434,-0.634651,-0.416568,-0.267554,-0.601478,0.633819,0.241388,1.343732,34.504742,20.723068,9.279051,0.369352,1.708480,0.021835,0.000000,0.000000,0.000000,0.000000,0.000000,0.000000
13207231.000000,2.303340,-1.063202,-1.892552,-1.472669,-1.030219,1.802911,0.500313,0.045013,-0.631975,-0.419387,-0.265558,-0.601690,0.627791,0.239719,1.415143,34.504742,20.893661,9.378233,0.362943,1.741439,0.087753,0.000000,0.000000,0.000000,0.000000,0.000000,0.000000
13207232.000000,2.303380,-1.063823,-1.892972,-1.472927,-1.030853,1.803535,0.500555,0.043272,-0.627316,-0.420062,-0.262427,-0.603920,0.629064,0.235214,1.565900,34.409527,20.992844,9.406004,0.428861,1.754256,0.067611,0.000000,0.000000,0.000000,0.000000,0.000000,0.000000
13207233.000000,2.303431,-1.064462,-1.893399,-1.473187,-1.031472,1.804149,0.500798,0.042533,-0.628929,-0.418479,-0.261738,-0.609308,0.633394,0.237485,1.565900,34.457134,21.163437,9.378233,0.446256,1.760665,0.061202,0.000000,0.000000,0.000000,0.000000,0.000000,0.000000
13207234.000000,2.303473,-1.065106,-1.893822,-1.473450,-1.032106,1.804770,0.501036,0.044716,-0.638966,-0.418249,-0.261180,-0.612092,0.633179,0.234867,1.688886,34.627728,21.215012,9.453611,0.440763,1.786300,0.054794,0.000000,0.000000,0.000000,0.000000,0.000000,0.000000
13207235.000000,2.303518,-1.065725,-1.894240,-1.473713,-1.032723,1.805384,0.501263,0.044652,-0.634028,-0.418262,-0.259205,-0.607933,0.624080,0.230771,1.788068,34.532513,21.262619,9.477415,0.381254,1.832076,0.107894,0.000000,0.000000,0.000000,0.000000,0.000000,0.000000
13207236.000000,2.303558,-1.066356,-1.894665,-1.473987,-1.033348,1.806000,0.501504,0.043259,-0.629959,-0.420132,-0.265670,-0.615385,0.625962,0.236461,1.934858,34.480938,21.286423,9.600401,0.339139,1.832076,0.074935,0.000000,0.000000,0.000000,0.000000,0.000000,0.000000
13207237.000000,2.303606,-1.066974,-1.895071,-1.474250,-1.033985,1.806622,0.501742,0.047302,-0.628069,-0.414349,-0.266381,-0.617407,0.620627,0.239616,1.986432,34.262737,21.238815,9.651976,0.362943,1.819259,0.054794,0.000000,0.000000,0.000000,0.000000,0.000000,0.000000
13207238.000000,2.303656,-1.067600,-1.895491,-1.474507,-1.034620,1.807240,0.501976,0.047598,-0.631844,-0.414917,-0.261845,-0.621884,0.626912,0.239347,2.034040,34.016766,21.262619,9.628172,0.434354,1.858627,0.094161,0.000000,0.000000,0.000000,0.000000,0.000000,0.000000
13207239.000000,2.303704,-1.068224,-1.895909,-1.474767,-1.035249,1.807843,0.502224,0.049730,-0.632751,-0.415606,-0.263357,-0.622613,0.624198,0.239017,2.109418,33.746990,21.262619,9.675779,0.446256,1.897079,0.015426,0.000000,0.000000,0.000000,0.000000,0.000000,0.000000
13207240.000000,2.303757,-1.068853,-1.896322,-1.475021,-1.035894,1.808460,0.502443,0.052590,-0.632851,-0.412270,-0.260533,-0.624104,0.621280,0.232147,2.133222,33.675579,21.238815,9.675779,0.482877,1.930038,0.114303,0.000000,0.000000,0.000000,0.000000,0.000000,0.000000
13207241.000000,2.303813,-1.069494,-1.896731,-1.475274,-1.036525,1.809077,0.502682,0.052912,-0.629068,-0.408430,-0.257678,-0.630578,0.620669,0.231419,2.109418,33.699383,21.215012,9.675779,0.530485,1.838485,0.087753,0.000000,0.000000,0.000000,0.000000,0.000000,0.000000
13207242.000000,2.303876,-1.070143,-1.897137,-1.475513,-1.037158,1.809708,0.502919,0.054581,-0.628079,-0.409350,-0.251168,-0.625167,0.625062,0.232123,2.010236,33.917583,21.163437,9.600401,0.464567,1.714889,0.041976,0.000000,0.000000,0.000000,0.000000,0.000000,0.000000
13207243.000000,2.303932,-1.070791,-1.897540,-1.475762,-1.037780,1.810321,0.503144,0.056847,-0.633698,-0.407585,-0.248345,-0.638451,0.619379,0.233276,2.010236,34.016766,21.016647,9.600401,0.428861,1.735030,0.094161,0.000000,0.000000,0.000000,0.000000,0.000000,0.000000
13207244.000000,2.303995,-1.071440,-1.897941,-1.476007,-1.038412,1.810931,0.503378,0.060790,-0.640773,-0.401373,-0.246201,-0.633525,0.621492,0.232837,1.911054,34.088177,20.794479,9.600401,0.386747,1.767074,0.061202,0.000000,0.000000,0.000000,0.000000,0.000000,0.000000
13207245.000000,2.304067,-1.072085,-1.898341,-1.476243,-1.039041,1.811551,0.503602,0.064765,-0.641274,-0.398809,-0.241264,-0.634414,0.619444,0.231023,1.764264,34.238934,20.770676,9.600401,0.339139,1.800033,0.067611,0.000000,0.000000,0.000000,0.000000,0.000000,0.000000
13207246.000000,2.304137,-1.072744,-1.898737,-1.476481,-1.039665,1.812167,0.503836,0.070000,-0.643836,-0.392608,-0.240112,-0.632732,0.624687,0.230230,1.641279,34.385723,20.623886,9.600401,0.344633,1.812850,0.041976,0.000000,0.000000,0.000000,0.000000,0.000000,0.000000
13207247.000000,2.304216,-1.073406,-1.899130,-1.476715,-1.040284,1.812787,0.504062,0.072173,-0.649746,-0.400120,-0.242935,-0.633077,0.623953,0.235761,1.442914,34.556316,20.500900,9.651976,0.303434,1.819259,0.081344,0.000000,0.000000,0.000000,0.000000,0.000000,0.000000
13207248.000000,2.304289,-1.074048,-1.899530,-1.476951,-1.040898,1.813429,0.504291,0.072285,-0.651957,-0.396117,-0.237240,-0.629844,0.629492,0.234248,1.315961,34.504742,20.401718,9.727354,0.255826,1.727706,0.087753,0.000000,0.000000,0.000000,0.000000,0.000000,0.000000
13207249.000000,2.304367,-1.074704,-1.899920,-1.477187,-1.041521,1.814058,0.504531,0.072654,-0.650713,-0.390248,-0.236305,-0.632548,0.626071,0.234402,1.169172,34.627728,20.207321,9.822569,0.231107,1.649886,0.028243,0.000000,0.000000,0.000000,0.000000,0.000000,0.000000
13207250.000000,2.304453,-1.075343,-1.900312,-1.477426,-1.042156,1.814683,0.504752,0.077072,-0.635930,-0.391914,-0.236776,-0.632283,0.622774,0.229934,0.970807,34.556316,20.084335,9.949522,0.303434,1.676437,0.094161,0.000000,0.000000,0.000000,0.000000,0.000000,0.000000
13207251.000000,2.304533,-1.075992,-1.900710,-1.477665,-1.042774,1.815298,0.504986,0.077968,-0.634891,-0.392427,-0.236840,-0.631331,0.617135,0.236189,0.871625,34.433331,19.985153,10.096312,0.332731,1.708480,0.054794,0.000000,0.000000,0.000000,0.000000,0.000000,0.000000
13207252.000000,2.304618,-1.076657,-1.901105,-1.477894,-1.043404,1.815923,0.505213,0.081867,-0.644576,-0.391631,-0.233648,-0.629131,0.620043,0.231851,0.772443,34.532513,19.814560,10.219297,0.327238,1.735030,0.107894,0.000000,0.000000,0.000000,0.000000,0.000000,0.000000
13207253.000000,2.304701,-1.077319,-1.901492,-1.478125,-1.044042,1.816541,0.505446,0.082025,-0.654030,-0.389384,-0.229192,-0.632372,0.616362,0.232361,0.673261,34.703106,19.691574,10.270872,0.327238,1.767074,0.061202,0.000000,0.000000,0.000000,0.000000,0.000000,0.000000
13207254.000000,2.304792,-1.077988,-1.901886,-1.478365,-1.044653,1.817162,0.505676,0.083598,-0.658453,-0.389705,-0.232161,-0.625724,0.609729,0.235350,0.502668,34.921307,19.568588,10.465269,0.201810,1.695663,0.054794,0.000000,0.000000,0.000000,0.000000,0.000000,0.000000
13207255.000000,2.304884,-1.078639,-1.902268,-1.478588,-1.045279,1.817777,0.505899,0.084452,-0.652624,-0.386625,-0.230130,-0.631265,0.615247,0.225744,0.328107,34.996685,19.397995,10.465269,0.135892,1.656295,0.061202,0.000000,0.000000,0.000000,0.000000,0.000000,0.000000
13207256.000000,2.304973,-1.079298,-1.902665,-1.478816,-1.045908,1.818392,0.506125,0.087168,-0.649175,-0.386853,-0.231165,-0.629233,0.613926,0.220762,0.205121,34.996685,19.322617,10.564451,0.129484,1.662704,0.074935,0.000000,0.000000,0.000000,0.000000,0.000000,0.000000
13207257.000000,2.305073,-1.079961,-1.903058,-1.479042,-1.046551,1.818996,0.506355,0.090643,-0.646434,-0.387234,-0.229105,-0.639277,0.611363,0.221547,0.006757,34.972881,19.275009,10.540648,0.171598,1.670028,0.094161,0.000000,0.000000,0.000000,0.000000,0.000000,0.000000
13207258.000000,2.305161,-1.080622,-1.903444,-1.479260,-1.047193,1.819602,0.506594,0.092397,-0.656619,-0.390614,-0.228173,-0.637290,0.606987,0.225383,-0.017047,35.020489,19.223434,10.540648,0.213712,1.708480,0.028243,0.000000,0.000000,0.000000,0.000000,0.000000,0.000000
13207259.000000,2.305260,-1.081279,-1.903844,-1.479483,-1.047834,1.820198,0.506825,0.094234,-0.654254,-0.391459,-0.223193,-0.640348,0.600415,0.223218,-0.167803,34.897503,19.275009,10.639830,0.267728,1.741439,0.074935,0.000000,0.000000,0.000000,0.000000,0.000000,0.000000
13207260.000000,2.305356,-1.081921,-1.904239,-1.479700,-1.048475,1.820803,0.507060,0.094203,-0.650946,-0.395123,-0.219705,-0.633547,0.604460,0.225017,-0.266986,34.703106,19.322617,10.739012,0.249418,1.779891,0.054794,0.000000,0.000000,0.000000,0.000000,0.000000,0.000000
13207261.000000,2.305447,-1.082577,-1.904639,-1.479918,-1.049115,1.821425,0.507290,0.095729,-0.645232,-0.395930,-0.215936,-0.651471,0.612075,0.221518,-0.290789,34.532513,19.397995,10.786619,0.261320,1.662704,0.034652,0.000000,0.000000,0.000000,0.000000,0.000000,0.000000
13207262.000000,2.305544,-1.083243,-1.905044,-1.480140,-1.049755,1.822025,0.507513,0.097843,-0.650142,-0.399629,-0.214871,-0.645248,0.612441,0.220567,-0.342364,34.433331,19.497177,10.913572,0.279630,1.682845,0.087753,0.000000,0.000000,0.000000,0.000000,0.000000,0.000000
13207263.000000,2.305645,-1.083883,-1.905439,-1.480347,-1.050402,1.822615,0.507746,0.096153,-0.647321,-0.397458,-0.212689,-0.647480,0.599727,0.223255,-0.389971,34.115948,19.497177,10.984983,0.243009,1.806442,0.061202,0.000000,0.000000,0.000000,0.000000,0.000000,0.000000
13207264.000000,2.305738,-1.084533,-1.905851,-1.480547,-1.051047,1.823203,0.507982,0.097526,-0.646047,-0.398722,-0.206691,-0.643949,0.602295,0.224585,-0.413775,33.822369,19.667770,10.885801,0.303434,1.858627,0.034652,0.000000,0.000000,0.000000,0.000000,0.000000,0.000000
13207265.000000,2.305846,-1.085190,-1.906249,-1.480754,-1.051697,1.823801,0.508200,0.101505,-0.644839,-0.408161,-0.210871,-0.642136,0.602832,0.223321,-0.564532,33.624004,19.739182,10.913572,0.297025,1.851302,0.094161,0.000000,0.000000,0.000000,0.000000,0.000000,0.000000
13207266.000000,2.305935,-1.085847,-1.906645,-1.480956,-1.052345,1.824401,0.508425,0.095389,-0.648545,-0.406150,-0.211427,-0.638400,0.603659,0.224340,-0.465350,33.576397,19.715378,10.913572,0.320829,1.838485,0.094161,0.000000,0.000000,0.000000,0.000000,0.000000,0.000000
13207267.000000,2.306028,-1.086517,-1.907055,-1.481157,-1.052984,1.824985,0.508652,0.094741,-0.653442,-0.407159,-0.209852,-0.637032,0.600648,0.226609,-0.389971,33.600201,19.814560,10.961180,0.255826,1.865035,0.081344,0.000000,0.000000,0.000000,0.000000,0.000000,0.000000
13207268.000000,2.306123,-1.087182,-1.907455,-1.481349,-1.053632,1.825580,0.508880,0.092396,-0.657465,-0.406399,-0.207195,-0.638041,0.600880,0.231351,-0.366168,33.723186,19.838364,10.937376,0.261320,1.865035,0.081344,0.000000,0.000000,0.000000,0.000000,0.000000,0.000000
13207269.000000,2.306217,-1.087855,-1.907870,-1.481541,-1.054280,1.826179,0.509113,0.090682,-0.666156,-0.405587,-0.200022,-0.640168,0.601413,0.225262,-0.342364,33.846172,20.008957,10.838194,0.297025,1.819259,0.081344,0.000000,0.000000,0.000000,0.000000,0.000000,0.000000
13207270.000000,2.306311,-1.088546,-1.908277,-1.481726,-1.054927,1.826757,0.509352,0.090841,-0.675751,-0.409165,-0.195188,-0.645777,0.598754,0.231946,-0.243182,34.088177,20.060532,10.739012,0.308927,1.851302,0.041976,0.000000,0.000000,0.000000,0.000000,0.000000,0.000000
13207271.000000,2.306399,-1.089228,-1.908683,-1.481913,-1.055587,1.827345,0.509578,0.087498,-0.673139,-0.412103,-0.193875,-0.644830,0.595782,0.231270,-0.116229,34.334148,20.131943,10.739012,0.308927,1.877853,0.054794,0.000000,0.000000,0.000000,0.000000,0.000000,0.000000
13207272.000000,2.306494,-1.089911,-1.909088,-1.482091,-1.056232,1.827928,0.509805,0.086784,-0.670746,-0.410633,-0.189105,-0.649215,0.587810,0.229555,-0.068621,34.409527,20.084335,10.592222,0.315336,1.851302,0.054794,0.000000,0.000000,0.000000,0.000000,0.000000,0.000000
13207274.000000,2.306678,-1.091278,-1.909891,-1.482464,-1.057514,1.829126,0.510268,0.088087,-0.684019,-0.406228,-0.185937,-0.645079,0.592282,0.232566,0.054365,34.774517,20.036728,10.564451,0.285123,1.682845,0.041976,0.000000,0.000000,0.000000,0.000000,0.000000,0.000000
13207275.000000,2.306772,-1.091965,-1.910295,-1.482648,-1.058161,1.829702,0.510498,0.088553,-0.687823,-0.400904,-0.184359,-0.638480,0.589799,0.235185,0.153547,34.873699,19.985153,10.592222,0.261320,1.747848,0.054794,0.000000,0.000000,0.000000,0.000000,0.000000,0.000000
13207276.000000,2.306860,-1.092635,-1.910689,-1.482818,-1.058809,1.830282,0.510724,0.086720,-0.682107,-0.402010,-0.180751,-0.643540,0.585954,0.234030,0.252729,34.873699,19.862167,10.516844,0.237516,1.786300,0.028243,0.000000,0.000000,0.000000,0.000000,0.000000,0.000000
13207277.000000,2.306950,-1.093315,-1.911094,-1.482988,-1.059451,1.830863,0.510946,0.085571,-0.675737,-0.398695,-0.177782,-0.643942,0.579812,0.230457,0.328107,34.826092,19.862167,10.441465,0.261320,1.819259,0.061202,0.000000,0.000000,0.000000,0.000000,0.000000,0.000000
13207278.000000,2.307046,-1.093987,-1.911476,-1.483152,-1.060099,1.831452,0.511169,0.089020,-0.676356,-0.393287,-0.170432,-0.646083,0.577359,0.229084,0.351911,34.679302,19.715378,10.270872,0.237516,1.812850,0.074935,0.000000,0.000000,0.000000,0.000000,0.000000,0.000000
13207279.000000,2.307141,-1.094671,-1.911870,-1.483315,-1.060730,1.832042,0.511405,0.091112,-0.676013,-0.393892,-0.169360,-0.653978,0.579566,0.230059,0.403486,34.627728,19.616196,10.143919,0.195402,1.832076,0.034652,0.000000,0.000000,0.000000,0.000000,0.000000,0.000000
13207280.000000,2.307239,-1.095356,-1.912278,-1.483476,-1.061375,1.832624,0.511634,0.092908,-0.677344,-0.397768,-0.165721,-0.655772,0.578553,0.228336,0.451093,34.603924,19.667770,10.020933,0.183500,1.793624,0.054794,0.000000,0.000000,0.000000,0.000000,0.000000,0.000000
13207281.000000,2.307335,-1.096045,-1.912663,-1.483620,-1.062015,1.833221,0.511865,0.094575,-0.685292,-0.395538,-0.157147,-0.647324,0.579953,0.223763,0.474897,34.774517,19.497177,9.774961,0.183500,1.773483,0.041976,0.000000,0.000000,0.000000,0.000000,0.000000,0.000000
13207282.000000,2.307431,-1.096744,-1.913066,-1.483770,-1.062655,1.833819,0.512092,0.096116,-0.694113,-0.396935,-0.155422,-0.646348,0.590541,0.222551,0.474897,34.972881,19.497177,9.600401,0.189908,1.662704,0.074935,0.000000,0.000000,0.000000,0.000000,0.000000,0.000000
13207283.000000,2.307530,-1.097449,-1.913465,-1.483914,-1.063294,1.834419,0.512314,0.096757,-0.687728,-0.405010,-0.157588,-0.639761,0.594376,0.219958,0.502668,35.143475,19.469406,9.429808,0.178007,1.611434,0.087753,0.000000,0.000000,0.000000,0.000000,0.000000,0.000000
13207284.000000,2.307631,-1.098141,-1.913872,-1.484056,-1.063942,1.835009,0.512552,0.099288,-0.687783,-0.404413,-0.154042,-0.635790,0.587129,0.227661,0.451093,35.238689,19.445602,9.306822,0.171598,1.649886,0.054794,0.000000,0.000000,0.000000,0.000000,0.000000,0.000000
13207285.000000,2.307733,-1.098859,-1.914282,-1.484189,-1.064570,1.835598,0.512785,0.097703,-0.693165,-0.398852,-0.150490,-0.632775,0.588656,0.227594,0.403486,35.508465,19.497177,9.156065,0.166105,1.643478,0.074935,0.000000,0.000000,0.000000,0.000000,0.000000,0.000000
13207286.000000,2.307834,-1.099568,-1.914683,-1.484317,-1.065222,1.836194,0.513018,0.098537,-0.692761,-0.397362,-0.141333,-0.634099,0.583906,0.229185,0.403486,35.829815,19.520981,8.985472,0.178007,1.605026,0.028243,0.000000,0.000000,0.000000,0.000000,0.000000,0.000000
13207287.000000,2.307941,-1.100280,-1.915091,-1.484452,-1.065858,1.836794,0.513245,0.101084,-0.702194,-0.398567,-0.141958,-0.634301,0.590613,0.227257,0.328107,36.000408,19.544785,9.009275,0.129484,1.578475,0.054794,0.000000,0.000000,0.000000,0.000000,0.000000,0.000000
13207288.000000,2.308047,-1.100987,-1.915505,-1.484583,-1.066515,1.837376,0.513475,0.101166,-0.705693,-0.399480,-0.137231,-0.641111,0.587223,0.228381,0.304304,36.071819,19.667770,8.957701,0.117582,1.559249,0.021835,0.000000,0.000000,0.000000,0.000000,0.000000,0.000000
13207289.000000,2.308153,-1.101682,-1.915917,-1.484715,-1.067175,1.837963,0.513700,0.104306,-0.697955,-0.400310,-0.134803,-0.642680,0.590451,0.233661,0.252729,36.048016,19.814560,8.957701,0.141385,1.552840,0.034652,0.000000,0.000000,0.000000,0.000000,0.000000,0.000000
13207290.000000,2.308256,-1.102389,-1.916333,-1.484844,-1.067831,1.838546,0.513926,0.102832,-0.691216,-0.403805,-0.133093,-0.644233,0.586370,0.234398,0.252729,36.048016,20.008957,8.985472,0.195402,1.513473,0.081344,0.000000,0.000000,0.000000,0.000000,0.000000,0.000000
13207291.000000,2.308352,-1.103101,-1.916743,-1.484972,-1.068493,1.839122,0.514151,0.102466,-0.692026,-0.402060,-0.133286,-0.647744,0.588881,0.232626,0.375715,36.218609,20.108139,9.056883,0.225614,1.572067,0.081344,0.000000,0.000000,0.000000,0.000000,0.000000,0.000000
13207292.000000,2.308457,-1.103826,-1.917168,-1.485105,-1.069146,1.839691,0.514385,0.101839,-0.701673,-0.406320,-0.134327,-0.646385,0.583071,0.233451,0.375715,36.512188,20.306503,9.179869,0.225614,1.735030,0.021835,0.000000,0.000000,0.000000,0.000000,0.000000,0.000000
13207293.000000,2.308560,-1.104539,-1.917596,-1.485234,-1.069807,1.840257,0.514605,0.100992,-0.703080,-0.408695,-0.131859,-0.654315,0.583777,0.225680,0.403486,36.587566,20.477097,9.306822,0.213712,1.800033,0.054794,0.000000,0.000000,0.000000,0.000000,0.000000,0.000000
13207294.000000,2.308666,-1.105244,-1.918014,-1.485355,-1.070470,1.840849,0.514820,0.103733,-0.710221,-0.409623,-0.130034,-0.654465,0.582572,0.220336,0.427289,36.682781,20.600082,9.306822,0.166105,1.702071,0.081344,0.000000,0.000000,0.000000,0.000000,0.000000,0.000000
13207295.000000,2.308776,-1.105949,-1.918444,-1.485482,-1.071131,1.841422,0.515050,0.106664,-0.708818,-0.413053,-0.129122,-0.660010,0.581768,0.220278,0.403486,36.611370,20.746872,9.330626,0.141385,1.624252,0.021835,0.000000,0.000000,0.000000,0.000000,0.000000,0.000000
13207296.000000,2.308885,-1.106674,-1.918875,-1.485605,-1.071794,1.841993,0.515262,0.107398,-0.714704,-0.424889,-0.128647,-0.655480,0.579356,0.219822,0.403486,36.781963,20.969040,9.354429,0.171598,1.682845,0.074935,0.000000,0.000000,0.000000,0.000000,0.000000,0.000000
13207297.000000,2.308991,-1.107384,-1.919314,-1.485722,-1.072472,1.842549,0.515487,0.105585,-0.709979,-0.426823,-0.123513,-0.659923,0.572445,0.217823,0.403486,36.857342,21.187241,9.306822,0.243009,1.806442,0.054794,0.000000,0.000000,0.000000,0.000000,0.000000,0.000000
13207298.000000,2.309100,-1.108103,-1.919750,-1.485836,-1.073133,1.843104,0.515706,0.107032,-0.710281,-0.428107,-0.119106,-0.657428,0.561215,0.215479,0.427289,36.857342,21.409409,9.231443,0.297025,1.890670,0.048385,0.000000,0.000000,0.000000,0.000000,0.000000,0.000000
13207299.000000,2.309214,-1.108818,-1.920178,-1.485958,-1.073806,1.843676,0.515915,0.106842,-0.713578,-0.429598,-0.119673,-0.657834,0.561087,0.213369,0.375715,36.928753,21.508591,9.306822,0.308927,1.800033,0.054794,0.000000,0.000000,0.000000,0.000000,0.000000,0.000000
13207300.000000,2.309322,-1.109538,-1.920618,-1.486070,-1.074461,1.844238,0.516133,0.104323,-0.721362,-0.431188,-0.117083,-0.657091,0.561795,0.211763,0.403486,36.952557,21.679184,9.279051,0.273221,1.760665,0.048385,0.000000,0.000000,0.000000,0.000000,0.000000,0.000000
13207301.000000,2.309432,-1.110255,-1.921055,-1.486180,-1.075134,1.844803,0.516344,0.105882,-0.717973,-0.431855,-0.115586,-0.662278,0.561757,0.210500,0.427289,36.857342,21.901352,9.255247,0.273221,1.747848,0.094161,0.000000,0.000000,0.000000,0.000000,0.000000,0.000000
13207302.000000,2.309540,-1.110965,-1.921485,-1.486293,-1.075804,1.845363,0.516563,0.109810,-0.720607,-0.434109,-0.110747,-0.661998,0.563317,0.212088,0.474897,36.833538,21.948959,9.207640,0.279630,1.844894,0.034652,0.000000,0.000000,0.000000,0.000000,0.000000,0.000000
13207303.000000,2.309659,-1.111688,-1.921925,-1.486396,-1.076470,1.845917,0.516777,0.112006,-0.721688,-0.437697,-0.104653,-0.663175,0.558588,0.213859,0.427289,36.833538,22.095749,9.056883,0.327238,1.877853,0.074935,0.000000,0.000000,0.000000,0.000000,0.000000,0.000000
13207304.000000,2.309769,-1.112391,-1.922360,-1.486506,-1.077137,1.846480,0.516995,0.108003,-0.713860,-0.440638,-0.104637,-0.667002,0.566553,0.214009,0.474897,36.682781,22.218735,9.084654,0.351041,1.909896,0.034652,0.000000,0.000000,0.000000,0.000000,0.000000,0.000000
13207305.000000,2.309878,-1.113107,-1.922797,-1.486616,-1.077791,1.847044,0.517199,0.108335,-0.706075,-0.438498,-0.104332,-0.662567,0.561738,0.209780,0.526471,36.563763,22.294113,9.108458,0.279630,1.930038,0.100570,0.000000,0.000000,0.000000,0.000000,0.000000,0.000000
13207306.000000,2.309974,-1.113836,-1.923230,-1.486726,-1.078460,1.847602,0.517417,0.103907,-0.708016,-0.439073,-0.104745,-0.666369,0.562092,0.209721,0.772443,36.635174,22.317917,9.156065,0.255826,1.877853,0.094161,0.000000,0.000000,0.000000,0.000000,0.000000,0.000000
13207307.000000,2.310088,-1.114567,-1.923666,-1.486831,-1.079120,1.848173,0.517638,0.105645,-0.715089,-0.441711,-0.104239,-0.653930,0.566474,0.207876,0.796247,36.833538,22.440903,9.179869,0.213712,1.825668,0.021835,0.000000,0.000000,0.000000,0.000000,0.000000,0.000000
13207308.000000,2.310188,-1.115310,-1.924097,-1.486932,-1.079782,1.848716,0.517848,0.103681,-0.722338,-0.435529,-0.102983,-0.660612,0.560613,0.206484,0.970807,37.099346,22.393295,9.179869,0.207303,1.877853,0.041976,0.000000,0.000000,0.000000,0.000000,0.000000,0.000000
13207309.000000,2.310289,-1.116042,-1.924524,-1.487034,-1.080450,1.849268,0.518064,0.101856,-0.740958,-0.435036,-0.102477,-0.655876,0.564514,0.212142,1.169172,37.345318,22.464706,9.179869,0.237516,1.955673,0.028243,0.000000,0.000000,0.000000,0.000000,0.000000,0.000000
13207310.000000,2.310396,-1.116771,-1.924957,-1.487139,-1.081118,1.849826,0.518268,0.103921,-0.739125,-0.438276,-0.103162,-0.673910,0.559672,0.208393,1.244550,37.420696,22.540085,9.231443,0.279630,1.923629,0.100570,0.000000,0.000000,0.000000,0.000000,0.000000,0.000000
13207311.000000,2.310500,-1.117512,-1.925381,-1.487250,-1.081784,1.850380,0.518490,0.103365,-0.740562,-0.433237,-0.105832,-0.666464,0.562174,0.215750,1.391340,37.615093,22.440903,9.378233,0.291532,1.871444,0.028243,0.000000,0.000000,0.000000,0.000000,0.000000,0.000000
13207312.000000,2.310599,-1.118236,-1.925801,-1.487341,-1.082464,1.850940,0.518700,0.101720,-0.737461,-0.429530,-0.103854,-0.668631,0.553208,0.216668,1.589704,37.738079,22.341721,9.354429,0.267728,1.844894,0.074935,0.000000,0.000000,0.000000,0.000000,0.000000,0.000000
13207313.000000,2.310709,-1.118962,-1.926225,-1.487440,-1.083121,1.851498,0.518916,0.105054,-0.727681,-0.424305,-0.103928,-0.670495,0.552362,0.218936,1.613508,37.738079,22.294113,9.406004,0.225614,1.832076,0.100570,0.000000,0.000000,0.000000,0.000000,0.000000,0.000000
13207314.000000,2.310819,-1.119684,-1.926637,-1.487543,-1.083791,1.852062,0.519139,0.106387,-0.723805,-0.430790,-0.108761,-0.666482,0.554888,0.226494,1.641279,37.591290,22.095749,9.552794,0.213712,1.819259,0.041976,0.000000,0.000000,0.000000,0.000000,0.000000,0.000000
13207315.000000,2.310923,-1.120400,-1.927054,-1.487637,-1.084459,1.852625,0.519354,0.104588,-0.717754,-0.427278,-0.104345,-0.670285,0.556884,0.219998,1.688886,37.420696,21.948959,9.600401,0.219205,1.838485,0.087753,0.000000,0.000000,0.000000,0.000000,0.000000,0.000000
13207316.000000,2.311029,-1.121116,-1.927479,-1.487727,-1.085120,1.853176,0.519574,0.105004,-0.717048,-0.422897,-0.096784,-0.667047,0.559343,0.218975,1.788068,37.127117,21.877548,9.600401,0.195402,1.903487,0.028243,0.000000,0.000000,0.000000,0.000000,0.000000,0.000000
13207317.000000,2.311136,-1.121829,-1.927887,-1.487812,-1.085789,1.853733,0.519783,0.105563,-0.717370,-0.415158,-0.093345,-0.668282,0.562391,0.215117,1.887250,36.980328,21.726791,9.552794,0.166105,1.968490,0.054794,0.000000,0.000000,0.000000,0.000000,0.000000,0.000000
13207318.000000,2.311247,-1.122558,-1.928305,-1.487899,-1.086446,1.854291,0.520000,0.107291,-0.720910,-0.410056,-0.091293,-0.666350,0.562516,0.217532,1.911054,36.980328,21.655380,9.528990,0.154203,1.942855,0.054794,0.000000,0.000000,0.000000,0.000000,0.000000,0.000000
13207319.000000,2.311353,-1.123287,-1.928718,-1.487984,-1.087112,1.854844,0.520213,0.107884,-0.723732,-0.409891,-0.089833,-0.667233,0.562498,0.215032,1.962629,36.952557,21.556198,9.501219,0.088285,1.936446,0.061202,0.000000,0.000000,0.000000,0.000000,0.000000,0.000000
13207320.000000,2.311458,-1.124009,-1.929124,-1.488059,-1.087785,1.855415,0.520430,0.107410,-0.724094,-0.405793,-0.084652,-0.661450,0.566676,0.214906,2.061811,37.004131,21.433212,9.429808,0.093778,1.844894,0.015426,0.000000,0.000000,0.000000,0.000000,0.000000,0.000000
13207321.000000,2.311575,-1.124733,-1.929542,-1.488137,-1.088460,1.855975,0.520634,0.107655,-0.721170,-0.406816,-0.081899,-0.663605,0.562417,0.212247,1.986432,36.980328,21.508591,9.406004,0.159696,1.741439,0.048385,0.000000,0.000000,0.000000,0.000000,0.000000,0.000000
13207322.000000,2.311688,-1.125456,-1.929958,-1.488209,-1.089134,1.856532,0.520835,0.109810,-0.709122,-0.410260,-0.076683,-0.664061,0.555749,0.210367,1.962629,37.075542,21.556198,9.378233,0.219205,1.735030,0.067611,0.000000,0.000000,0.000000,0.000000,0.000000,0.000000
13207323.000000,2.311800,-1.126195,-1.930374,-1.488274,-1.089819,1.857086,0.521042,0.110799,-0.711242,-0.409170,-0.073717,-0.667418,0.549018,0.209018,1.962629,37.222332,21.580002,9.255247,0.327238,1.727706,0.087753,0.000000,0.000000,0.000000,0.000000,0.000000,0.000000
13207324.000000,2.311918,-1.126934,-1.930806,-1.488347,-1.090493,1.857630,0.521254,0.111997,-0.715275,-0.412557,-0.072614,-0.666365,0.550934,0.209435,1.934858,37.297710,21.778366,9.306822,0.351041,1.773483,0.067611,0.000000,0.000000,0.000000,0.000000,0.000000,0.000000
13207325.000000,2.312039,-1.127654,-1.931211,-1.488417,-1.091174,1.858180,0.521467,0.115252,-0.718654,-0.412286,-0.075168,-0.668368,0.548945,0.211850,1.887250,37.273907,21.754562,9.378233,0.320829,1.779891,0.021835,0.000000,0.000000,0.000000,0.000000,0.000000,0.000000
13207326.000000,2.312158,-1.128374,-1.931630,-1.488488,-1.091830,1.858721,0.521674,0.118778,-0.720281,-0.412513,-0.073106,-0.671418,0.542650,0.208552,1.835676,37.127117,21.778366,9.429808,0.207303,1.812850,0.067611,0.000000,0.000000,0.000000,0.000000,0.000000,0.000000
13207327.000000,2.312286,-1.129093,-1.932048,-1.488553,-1.092511,1.859264,0.521884,0.123391,-0.722283,-0.415917,-0.072223,-0.670203,0.545353,0.208602,1.688886,37.075542,21.901352,9.501219,0.154203,1.890670,0.061202,0.000000,0.000000,0.000000,0.000000,0.000000,0.000000
13207328.000000,2.312406,-1.129826,-1.932465,-1.488624,-1.093178,1.859803,0.522095,0.124141,-0.725931,-0.416938,-0.071325,-0.681114,0.545425,0.213620,1.665082,37.127117,21.948959,9.576597,0.105680,1.974899,0.048385,0.000000,0.000000,0.000000,0.000000,0.000000,0.000000
13207329.000000,2.312526,-1.130561,-1.932894,-1.488691,-1.093872,1.860339,0.522301,0.124185,-0.731992,-0.417405,-0.067664,-0.680808,0.543098,0.210588,1.665082,37.222332,22.147324,9.651976,0.213712,2.020675,0.087753,0.000000,0.000000,0.000000,0.000000,0.000000,0.000000
13207330.000000,2.312653,-1.131277,-1.933311,-1.488762,-1.094553,1.860880,0.522516,0.126087,-0.730654,-0.419365,-0.069557,-0.680148,0.542113,0.211359,1.589704,37.198528,22.270309,9.798765,0.219205,2.020675,0.048385,0.000000,0.000000,0.000000,0.000000,0.000000,0.000000
13207331.000000,2.312774,-1.131999,-1.933732,-1.488825,-1.095230,1.861429,0.522720,0.124993,-0.722377,-0.417822,-0.068555,-0.674364,0.542515,0.209842,1.613508,37.150921,22.317917,9.850340,0.327238,1.930038,0.087753,0.000000,0.000000,0.000000,0.000000,0.000000,0.000000
13207332.000000,2.312905,-1.132729,-1.934155,-1.488892,-1.095919,1.861978,0.522927,0.126096,-0.720760,-0.426375,-0.068668,-0.673546,0.543154,0.210774,1.514325,37.127117,22.440903,9.949522,0.422452,1.825668,0.054794,0.000000,0.000000,0.000000,0.000000,0.000000,0.000000
13207333.000000,2.313040,-1.133451,-1.934581,-1.488951,-1.096584,1.862521,0.523131,0.126211,-0.718288,-0.429127,-0.064801,-0.664247,0.543692,0.206248,1.367536,37.051739,22.563889,9.997129,0.398649,1.825668,0.034652,0.000000,0.000000,0.000000,0.000000,0.000000,0.000000
13207334.000000,2.313174,-1.134181,-1.934998,-1.489003,-1.097249,1.863038,0.523327,0.128068,-0.722144,-0.423283,-0.058821,-0.664943,0.527490,0.199666,1.268354,36.980328,22.488510,9.921751,0.327238,1.942855,0.087753,0.000000,0.000000,0.000000,0.000000,0.000000,0.000000
13207335.000000,2.313316,-1.134909,-1.935422,-1.489055,-1.097917,1.863556,0.523529,0.128094,-0.725294,-0.421688,-0.059180,-0.669957,0.526316,0.202111,1.093793,37.004131,22.635300,9.897947,0.267728,2.085677,0.081344,0.000000,0.000000,0.000000,0.000000,0.000000,0.000000
13207336.000000,2.313455,-1.135642,-1.935830,-1.489099,-1.098576,1.864079,0.523736,0.133386,-0.732593,-0.413000,-0.051329,-0.668804,0.529147,0.203972,0.947004,36.980328,22.512314,9.798765,0.171598,2.150680,0.061202,0.000000,0.000000,0.000000,0.000000,0.000000,0.000000
13207337.000000,2.313594,-1.136383,-1.936246,-1.489146,-1.099245,1.864684,0.523964,0.132164,-0.735420,-0.414335,-0.049566,-0.674339,0.564018,0.213764,0.871625,36.980328,22.540085,9.727354,0.105680,1.422836,-0.169511,0.000000,0.000000,0.000000,0.000000,0.000000,0.000000
13207338.000000,2.313741,-1.137098,-1.936665,-1.489199,-1.100067,1.865858,0.524107,0.139545,-0.737099,-0.417926,-0.049680,-0.718197,0.772974,0.192081,0.697065,36.734356,22.686874,9.850340,1.360868,-4.144486,0.357833,0.000000,0.000000,0.000000,0.000000,0.000000,0.000000
13207339.000000,2.313849,-1.137830,-1.937131,-1.489285,-1.100802,1.866590,0.524383,0.126960,-0.735501,-0.433442,-0.060349,-0.730447,0.772800,0.220380,1.069990,36.635174,23.420822,10.441465,1.785673,-5.125932,-0.287614,0.000000,0.000000,0.000000,0.000000,0.000000,0.000000
13207340.000000,2.313933,-1.138618,-1.937401,-1.489255,-1.101591,1.867234,0.524590,0.109576,-0.759366,-0.377712,-0.029354,-0.745209,0.736922,0.218475,1.811872,37.468304,21.433212,9.406004,2.538236,-4.507951,-0.353532,0.000000,0.000000,0.000000,0.000000,0.000000,0.000000
13207341.000000,2.314112,-1.139458,-1.937689,-1.489145,-1.102382,1.868253,0.524744,0.131426,-0.781012,-0.347054,0.019736,-0.757568,0.835638,0.197010,1.121564,38.888592,19.739182,7.303343,3.051847,-6.823319,0.127120,0.000000,0.000000,0.000000,0.000000,0.000000,0.000000
13207342.000000,2.314344,-1.140290,-1.938025,-1.489061,-1.103123,1.869015,0.524939,0.163175,-0.794779,-0.342684,0.043182,-0.753813,0.811090,0.195791,-0.314593,40.039104,18.858444,5.744200,2.950223,-6.479081,0.252548,0.000000,0.000000,0.000000,0.000000,0.000000,0.000000
13207343.000000,2.314439,-1.141079,-1.938180,-1.488984,-1.103924,1.869791,0.525207,0.140139,-0.792868,-0.279531,0.053821,-0.761482,0.787341,0.218287,0.375715,40.550884,15.692551,4.557982,3.207487,-5.821733,-0.353532,0.000000,0.000000,0.000000,0.000000,0.000000,0.000000
13207344.000000,2.314512,-1.141854,-1.938301,-1.488897,-1.104681,1.870547,0.525316,0.118420,-0.788268,-0.220371,0.065569,-0.761933,0.758286,0.181798,1.391340,40.578655,12.280685,3.470946,3.075651,-5.054521,0.509811,0.000000,0.000000,0.000000,0.000000,0.000000,0.000000
13207345.000000,2.314707,-1.142662,-1.938403,-1.488790,-1.105420,1.871330,0.525510,0.139805,-0.808493,-0.180187,0.081289,-0.747467,0.754126,0.180592,0.625654,41.165813,9.138596,2.360106,2.693876,-4.651689,0.529952,0.000000,0.000000,0.000000,0.000000,0.000000,0.000000
13207346.000000,2.314846,-1.143426,-1.938422,-1.488625,-1.106185,1.872049,0.525744,0.139137,-0.793101,-0.124890,0.110805,-0.762959,0.733089,0.199758,0.625654,40.943645,5.234787,0.630369,2.658170,-3.870744,0.100570,0.000000,0.000000,0.000000,0.000000,0.000000,0.000000
13207347.000000,2.314915,-1.144111,-1.938391,-1.488465,-1.106941,1.872570,0.525909,0.114159,-0.753666,-0.070031,0.127169,-0.761483,0.657119,0.188046,1.665082,39.622540,1.184189,-0.778017,2.531827,-1.796159,0.331283,0.000000,0.000000,0.000000,0.000000,0.000000,0.000000
13207348.000000,2.315000,-1.144722,-1.938344,-1.488352,-1.107567,1.873131,0.526098,0.101891,-0.695722,-0.031168,0.123697,-0.703703,0.611700,0.185585,2.383161,37.468304,-2.445877,-1.250124,1.391080,-0.593156,0.285506,0.000000,0.000000,0.000000,0.000000,0.000000,0.000000
13207349.000000,2.315067,-1.145287,-1.938275,-1.488202,-1.108264,1.873750,0.526295,0.089653,-0.647074,0.000898,0.131449,-0.697903,0.624921,0.187025,3.271833,34.703106,-5.810135,-1.964235,1.152128,-0.573930,0.160079,0.000000,0.000000,0.000000,0.000000,0.000000,0.000000
13207350.000000,2.315112,-1.145806,-1.938158,-1.488044,-1.108928,1.874353,0.526447,0.071116,-0.607104,0.039018,0.140137,-0.684441,0.616732,0.180529,4.438215,31.445965,-9.245804,-2.658510,0.847257,-0.879716,0.437484,0.000000,0.000000,0.000000,0.000000,0.000000,0.000000
13207351.000000,2.315130,-1.146280,-1.938007,-1.487910,-1.109599,1.874884,0.526649,0.053445,-0.562022,0.076347,0.136312,-0.676443,0.596432,0.188739,5.846601,28.069805,-12.657669,-2.733888,0.703519,-0.970353,0.291915,0.000000,0.000000,0.000000,0.000000,0.000000,0.000000
13207352.000000,2.315113,-1.146716,-1.937825,-1.487798,-1.110182,1.875389,0.526818,0.030444,-0.518108,0.109020,0.122035,-0.648879,0.572271,0.180390,7.580305,24.495281,-15.994156,-2.384767,0.123990,-1.100358,0.384383,0.000000,0.000000,0.000000,0.000000,0.000000,0.000000
13207353.000000,2.315102,-1.147129,-1.937616,-1.487690,-1.110747,1.875808,0.527003,0.016749,-0.478512,0.137754,0.116429,-0.615820,0.520865,0.185145,9.091840,21.142925,-19.235428,-2.039613,-0.503146,-0.638932,0.324874,0.000000,0.000000,0.000000,0.000000,0.000000,0.000000
13207354.000000,2.315092,-1.147511,-1.937422,-1.487563,-1.111246,1.876242,0.527190,0.006256,-0.448379,0.153347,0.118495,-0.584440,0.497125,0.187848,10.377240,17.663616,-21.810196,-1.916628,-1.393954,-0.483292,0.272689,0.000000,0.000000,0.000000,0.000000,0.000000,0.000000
13207355.000000,2.315075,-1.147864,-1.937222,-1.487410,-1.111713,1.876766,0.527376,-0.003968,-0.419588,0.164802,0.126255,-0.541278,0.512432,0.188823,11.615033,14.239849,-24.166763,-2.162599,-2.463290,-1.347550,0.265365,0.000000,0.000000,0.000000,0.000000,0.000000,0.000000
13207356.000000,2.315073,-1.148157,-1.937057,-1.487279,-1.112163,1.877234,0.527539,-0.000346,-0.376379,0.161145,0.124420,-0.507059,0.504466,0.183141,12.483869,10.542339,-25.813187,-2.114992,-3.366000,-1.686295,0.417342,0.000000,0.000000,0.000000,0.000000,0.000000,0.000000
13207357.000000,2.315062,-1.148408,-1.936911,-1.487154,-1.112594,1.877670,0.527726,-0.001869,-0.333943,0.150904,0.121507,-0.477548,0.485396,0.185689,13.372540,6.551250,-27.039078,-1.992006,-4.131381,-1.672562,0.390792,0.000000,0.000000,0.000000,0.000000,0.000000,0.000000
13207358.000000,2.315063,-1.148626,-1.936767,-1.487021,-1.113026,1.878142,0.527925,-0.001797,-0.301285,0.145120,0.123764,-0.460349,0.489973,0.187101,14.066815,2.710918,-28.241165,-2.039613,-4.609286,-1.816300,0.252548,0.000000,0.000000,0.000000,0.000000,0.000000,0.000000
13207359.000000,2.315077,-1.148827,-1.936649,-1.486929,-1.113456,1.878650,0.528091,0.004519,-0.265815,0.129639,0.113232,-0.458173,0.505327,0.177147,14.463544,-1.085774,-29.026688,-1.571474,-4.919650,-2.206315,0.398116,0.000000,0.000000,0.000000,0.000000,0.000000,0.000000
13207360.000000,2.315089,-1.148945,-1.936547,-1.486850,-1.113936,1.879133,0.528298,0.010582,-0.223940,0.118958,0.102788,-0.464797,0.501273,0.187264,14.884076,-5.541035,-29.641617,-0.952577,-4.728304,-2.219132,0.206771,0.000000,0.000000,0.000000,0.000000,0.000000,0.000000
13207361.000000,2.315110,-1.149032,-1.936479,-1.486775,-1.114400,1.879608,0.528488,0.015067,-0.177474,0.100300,0.091312,-0.463204,0.491607,0.188233,15.153852,-9.897114,-29.863785,-0.409059,-4.638583,-2.095536,0.199447,0.000000,0.000000,0.000000,0.000000,0.000000,0.000000
13207362.000000,2.315166,-1.149084,-1.936450,-1.486700,-1.114931,1.880094,0.528693,0.029479,-0.139051,0.074955,0.085405,-0.492960,0.494595,0.191385,14.907880,-14.276997,-29.665421,0.035277,-4.065463,-1.946305,0.100570,0.000000,0.000000,0.000000,0.000000,0.000000,0.000000
13207363.000000,2.315243,-1.149123,-1.936449,-1.486593,-1.115522,1.880627,0.528891,0.047368,-0.106361,0.047167,0.091860,-0.528670,0.509313,0.192002,14.411969,-18.462482,-29.272659,-0.111513,-3.169161,-2.134904,0.054794,0.000000,0.000000,0.000000,0.000000,0.000000,0.000000
13207364.000000,2.315337,-1.149137,-1.936490,-1.486457,-1.116113,1.881176,0.529074,0.063103,-0.079130,0.016376,0.103462,-0.562031,0.523714,0.184714,13.769269,-22.453571,-28.510941,-0.730409,-2.571322,-2.401322,0.219589,0.000000,0.000000,0.000000,0.000000,0.000000,0.000000
13207365.000000,2.315443,-1.149170,-1.936559,-1.486320,-1.116731,1.881691,0.529283,0.078898,-0.068240,-0.016562,0.118080,-0.581976,0.522618,0.193945,13.027387,-25.782124,-27.654007,-1.396913,-2.206942,-2.342728,0.127120,0.000000,0.000000,0.000000,0.000000,0.000000,0.000000
13207366.000000,2.315567,-1.149189,-1.936624,-1.486180,-1.117352,1.882197,0.529469,0.096291,-0.053642,-0.032305,0.125313,-0.593581,0.510559,0.193497,12.158551,-28.963886,-27.114456,-2.091188,-2.176730,-2.141312,0.225997,0.000000,0.000000,0.000000,0.000000,0.000000,0.000000
13207367.000000,2.315696,-1.149251,-1.936693,-1.486015,-1.117971,1.882704,0.529681,0.107070,-0.058164,-0.042260,0.139271,-0.604411,0.513068,0.196262,11.345258,-31.264912,-26.769302,-3.055238,-2.398287,-1.952714,0.140853,0.000000,0.000000,0.000000,0.000000,0.000000,0.000000
13207368.000000,2.315825,-1.149329,-1.936772,-1.485825,-1.118599,1.883206,0.529884,0.114200,-0.068262,-0.057758,0.160322,-0.610933,0.507209,0.199298,10.674787,-33.054157,-26.499527,-4.241457,-2.822176,-1.724747,0.133529,0.000000,0.000000,0.000000,0.000000,0.000000,0.000000
13207369.000000,2.315959,-1.149441,-1.936862,-1.485637,-1.119259,1.883676,0.530083,0.120311,-0.086351,-0.065918,0.172682,-0.619438,0.490416,0.195822,10.055890,-34.252277,-26.253555,-5.205507,-3.079440,-1.211137,0.153671,0.000000,0.000000,0.000000,0.000000,0.000000,0.000000
13207370.000000,2.316098,-1.149586,-1.936964,-1.485438,-1.119900,1.884149,0.530283,0.125377,-0.107222,-0.077046,0.183032,-0.626771,0.482485,0.197626,9.460797,-35.033833,-26.059158,-6.094179,-3.455721,-0.925492,0.173812,0.000000,0.000000,0.000000,0.000000,0.000000,0.000000
13207371.000000,2.316234,-1.149769,-1.937078,-1.485227,-1.120552,1.884664,0.530478,0.128607,-0.138825,-0.087875,0.194396,-0.625782,0.488455,0.195687,9.040265,-35.256001,-25.912369,-7.006654,-3.718478,-1.106766,0.173812,0.000000,0.000000,0.000000,0.000000,0.000000,0.000000
13207372.000000,2.316385,-1.149984,-1.937212,-1.484992,-1.121213,1.885205,0.530662,0.136869,-0.165131,-0.100563,0.205629,-0.634053,0.506825,0.191034,8.520551,-35.109211,-25.714005,-8.046083,-3.933627,-1.529740,0.252548,0.000000,0.000000,0.000000,0.000000,0.000000,0.000000
13207373.000000,2.316535,-1.150242,-1.937349,-1.484760,-1.121871,1.885737,0.530855,0.140312,-0.200104,-0.112991,0.211763,-0.642233,0.514970,0.190567,8.100019,-34.593464,-25.666397,-8.839540,-4.089266,-1.933488,0.272689,0.000000,0.000000,0.000000,0.000000,0.000000,0.000000
13207374.000000,2.316681,-1.150538,-1.937475,-1.484541,-1.122548,1.886262,0.531062,0.140964,-0.237524,-0.117814,0.211722,-0.647318,0.522442,0.195034,7.754865,-33.764301,-25.959976,-9.307680,-4.136874,-2.114762,0.147262,0.000000,0.000000,0.000000,0.000000,0.000000,0.000000
13207375.000000,2.316813,-1.150884,-1.937590,-1.484315,-1.123199,1.886772,0.531236,0.135129,-0.272107,-0.117245,0.216266,-0.653415,0.515202,0.186948,7.731061,-32.538410,-26.598709,-9.676638,-4.233004,-2.179765,0.305648,0.000000,0.000000,0.000000,0.000000,0.000000,0.000000
13207376.000000,2.316965,-1.151265,-1.937696,-1.484078,-1.123856,1.887265,0.531413,0.137406,-0.315502,-0.110510,0.219431,-0.650616,0.509862,0.187369,7.457319,-31.118122,-27.431839,-10.124941,-4.363925,-1.998490,0.443893,0.000000,0.000000,0.000000,0.000000,0.000000,0.000000
13207377.000000,2.317117,-1.151694,-1.937794,-1.483861,-1.124496,1.887697,0.531588,0.139787,-0.354403,-0.107214,0.218258,-0.667691,0.480283,0.180278,7.159772,-29.527241,-28.510941,-10.271730,-4.531466,-1.211137,0.536361,0.000000,0.000000,0.000000,0.000000,0.000000,0.000000
13207378.000000,2.317254,-1.152156,-1.937866,-1.483656,-1.125128,1.888069,0.531734,0.139311,-0.389244,-0.091320,0.212437,-0.657158,0.440581,0.168179,7.235151,-27.813374,-29.959000,-10.172548,-4.818026,-0.066727,0.812850,0.000000,0.000000,0.000000,0.000000,0.000000,0.000000
13207379.000000,2.317381,-1.152642,-1.937930,-1.483464,-1.125794,1.888444,0.531908,0.132799,-0.419209,-0.081388,0.205009,-0.660089,0.410405,0.171211,7.457319,-26.222492,-31.383255,-9.898806,-4.806124,0.934859,0.786300,0.000000,0.000000,0.000000,0.000000,0.000000,0.000000
13207380.000000,2.317504,-1.153143,-1.938015,-1.483282,-1.126472,1.888861,0.532057,0.127423,-0.442255,-0.078772,0.193300,-0.667029,0.408366,0.165016,7.731061,-24.829975,-32.490128,-9.482241,-4.531466,1.194869,0.958419,0.000000,0.000000,0.000000,0.000000,0.000000,0.000000
13207381.000000,2.317626,-1.153656,-1.938102,-1.483124,-1.127210,1.889295,0.532201,0.123034,-0.468990,-0.084175,0.184425,-0.693787,0.414458,0.161490,8.000836,-23.750874,-33.394669,-8.910952,-3.850314,1.045638,1.090255,0.000000,0.000000,0.000000,0.000000,0.000000,0.000000
13207382.000000,2.317722,-1.154170,-1.938191,-1.482978,-1.127985,1.889711,0.532339,0.114223,-0.481052,-0.085831,0.172042,-0.721570,0.414306,0.150642,8.572125,-22.993122,-34.303177,-8.268251,-2.840487,0.999862,1.214767,0.000000,0.000000,0.000000,0.000000,0.000000,0.000000
13207383.000000,2.317803,-1.154706,-1.938274,-1.482832,-1.128783,1.890101,0.532479,0.100332,-0.491060,-0.083559,0.158963,-0.747022,0.404315,0.143638,9.337811,-22.354389,-35.211685,-7.700929,-2.015597,1.084090,1.307235,0.000000,0.000000,0.000000,0.000000,0.000000,0.000000
13207384.000000,2.317883,-1.155243,-1.938326,-1.482692,-1.129582,1.890498,0.532626,0.091097,-0.502173,-0.073592,0.151907,-0.763565,0.399426,0.148230,10.107465,-21.818806,-36.465347,-7.232790,-1.424166,1.064864,1.261459,0.000000,0.000000,0.000000,0.000000,0.000000,0.000000
13207385.000000,2.317963,-1.155774,-1.938372,-1.482557,-1.130358,1.890888,0.532762,0.086252,-0.502042,-0.064616,0.146019,-0.768322,0.399622,0.142563,10.825543,-21.644245,-37.790421,-6.883668,-1.220919,1.123458,1.333785,0.000000,0.000000,0.000000,0.000000,0.000000,0.000000
13207386.000000,2.318032,-1.156297,-1.938409,-1.482419,-1.131112,1.891291,0.532892,0.078519,-0.504839,-0.051986,0.144439,-0.759113,0.401096,0.142883,11.591229,-21.866413,-39.139297,-6.784486,-1.519381,1.136276,1.399703,0.000000,0.000000,0.000000,0.000000,0.000000,0.000000
13207387.000000,2.318099,-1.156809,-1.938445,-1.482268,-1.131859,1.891698,0.533033,0.076912,-0.509493,-0.046659,0.147732,-0.746020,0.401605,0.142658,12.333112,-22.259174,-40.464371,-6.911439,-1.907565,1.096908,1.346603,0.000000,0.000000,0.000000,0.000000,0.000000,0.000000
13207388.000000,2.318178,-1.157309,-1.938489,-1.482114,-1.132631,1.892130,0.533172,0.076796,-0.494956,-0.044047,0.152050,-0.747943,0.412809,0.139143,12.876630,-22.993122,-41.595047,-7.157411,-2.051302,0.922042,1.366744,0.000000,0.000000,0.000000,0.000000,0.000000,0.000000
