chaoyuefei/paper-gmrm-data/robot_logs/s2_dq_mrm_min_0.30_log_20260314_172621.csv
# time_ms,q_0,q_1,q_2,q_3,q_4,q_5,q_6,dq_0,dq_1,dq_2,dq_3,dq_4,dq_5,dq_6,tau_J_0,tau_J_1,tau_J_2,tau_J_3,tau_J_4,tau_J_5,tau_J_6,O_dP_EE_c_0,O_dP_EE_c_1,O_dP_EE_c_2,O_dP_EE_c_3,O_dP_EE_c_4,O_dP_EE_c_5
11843482.000000,-2.418273,-1.662615,1.039434,-1.352496,1.798456,1.078673,-0.546418,0.000267,-0.000470,-0.000094,-0.000604,0.000726,0.000175,-0.000309,-0.044818,41.629986,-20.929459,-5.772829,0.840848,1.337692,0.041976,0.000000,0.000000,0.000000,0.000000,0.000000,0.000000
11843483.000000,-2.418273,-1.662614,1.039434,-1.352492,1.798454,1.078671,-0.546421,0.000178,0.000244,-0.000063,0.000711,-0.000194,-0.000121,-0.001155,-0.044818,41.606182,-20.929459,-5.820436,0.859159,1.344100,0.067611,0.000000,0.000000,0.000000,0.000000,0.000000,0.000000
11843484.000000,-2.418273,-1.662614,1.039434,-1.352492,1.798453,1.078674,-0.546415,0.000118,0.000162,-0.000042,0.000474,-0.000333,-0.000080,0.001400,-0.044818,41.606182,-20.929459,-5.820436,0.864652,1.344100,0.009017,0.000000,0.000000,0.000000,0.000000,0.000000,0.000000
11843485.000000,-2.418277,-1.662615,1.039437,-1.352494,1.798453,1.078675,-0.546420,-0.001127,-0.000449,0.001086,-0.000241,-0.000459,-0.000054,-0.000999,0.006757,41.629986,-20.977066,-5.796632,0.871061,1.344100,0.061202,0.000000,0.000000,0.000000,0.000000,0.000000,0.000000
11843486.000000,-2.418274,-1.662613,1.039436,-1.352495,1.798451,1.078671,-0.546419,0.006339,-0.001142,-0.000390,0.001341,0.000372,-0.001494,-0.007645,0.328107,41.530804,-20.929459,-5.721254,0.852750,1.383468,-0.004716,0.000000,0.000000,0.000000,0.000000,0.000000,0.000000
11843487.000000,-2.418259,-1.662617,1.039437,-1.352490,1.798453,1.078664,-0.546433,0.013726,-0.005846,0.001781,0.005150,0.004453,-0.002807,-0.009087,1.268354,41.336407,-20.877884,-5.626039,0.739225,1.559249,-0.044083,0.000000,0.000000,0.000000,0.000000,0.000000,0.000000
11843488.000000,-2.418226,-1.662616,1.039450,-1.352488,1.798445,1.078662,-0.546461,0.022295,-0.004150,0.007771,0.003965,0.000924,-0.005502,-0.016203,2.803693,40.896038,-20.877884,-5.352296,0.667814,1.793624,-0.050492,0.000000,0.000000,0.000000,0.000000,0.000000,0.000000
11843489.000000,-2.418176,-1.662615,1.039465,-1.352494,1.798430,1.078682,-0.546507,0.031338,-0.004730,0.007979,0.001308,-0.002231,0.003149,-0.026386,4.684186,40.380291,-20.830276,-4.983339,0.608304,1.884261,-0.037675,0.000000,0.000000,0.000000,0.000000,0.000000,0.000000
11843490.000000,-2.418113,-1.662615,1.039484,-1.352504,1.798403,1.078736,-0.546560,0.035349,-0.002663,0.013334,-0.005331,-0.012019,0.015758,-0.038743,6.540876,39.868511,-20.731094,-4.661989,0.620206,1.806442,-0.037675,0.000000,0.000000,0.000000,0.000000,0.000000,0.000000
11843491.000000,-2.418019,-1.662615,1.039516,-1.352534,1.798361,1.078816,-0.546630,0.048746,-0.002621,0.019207,-0.014169,-0.025800,0.039198,-0.051164,8.100019,39.400372,-20.707291,-4.166078,0.685209,1.591293,-0.083451,0.000000,0.000000,0.000000,0.000000,0.000000,0.000000
11843492.000000,-2.417926,-1.662614,1.039552,-1.352578,1.798314,1.078917,-0.546722,0.058178,-0.000460,0.025457,-0.025886,-0.033679,0.059624,-0.067854,9.611554,38.960003,-20.631912,-3.697939,0.691617,1.402694,-0.056901,0.000000,0.000000,0.000000,0.000000,0.000000,0.000000
11843493.000000,-2.417807,-1.662609,1.039600,-1.352623,1.798246,1.079029,-0.546832,0.072003,0.001842,0.034740,-0.032694,-0.040893,0.079502,-0.082635,10.849347,38.495831,-20.608109,-3.448000,0.733732,1.324874,-0.083451,0.000000,0.000000,0.000000,0.000000,0.000000,0.000000
11843494.000000,-2.417677,-1.662603,1.039657,-1.352690,1.798166,1.079158,-0.546972,0.087509,0.004978,0.046103,-0.043874,-0.052045,0.096277,-0.101008,11.912580,38.103069,-20.536697,-3.079042,0.685209,1.331283,-0.050492,0.000000,0.000000,0.000000,0.000000,0.000000,0.000000
11843495.000000,-2.417540,-1.662601,1.039725,-1.352755,1.798079,1.079304,-0.547123,0.101042,0.008703,0.055815,-0.049406,-0.067009,0.114665,-0.116736,12.928205,37.785686,-20.485123,-2.956056,0.547880,1.448470,-0.083451,0.000000,0.000000,0.000000,0.000000,0.000000,0.000000
11843496.000000,-2.417390,-1.662590,1.039804,-1.352846,1.797961,1.079480,-0.547293,0.117533,0.009201,0.064848,-0.063236,-0.080934,0.138072,-0.135018,13.844647,37.444500,-20.512894,-2.706117,0.470060,1.572067,-0.077042,0.000000,0.000000,0.000000,0.000000,0.000000,0.000000
11843497.000000,-2.417223,-1.662573,1.039904,-1.352945,1.797826,1.079687,-0.547465,0.132200,0.014476,0.080379,-0.076983,-0.095046,0.162788,-0.148670,14.586530,37.027935,-20.631912,-2.559328,0.362943,1.637069,-0.077042,0.000000,0.000000,0.000000,0.000000,0.000000,0.000000
11843498.000000,-2.417031,-1.662558,1.040020,-1.353062,1.797664,1.079933,-0.547651,0.150001,0.013472,0.091290,-0.090806,-0.114741,0.190031,-0.158470,15.106244,36.682781,-20.754898,-2.436342,0.369352,1.584884,-0.070634,0.000000,0.000000,0.000000,0.000000,0.000000,0.000000
11843499.000000,-2.416827,-1.662536,1.040149,-1.353200,1.797476,1.080203,-0.547837,0.169810,0.014394,0.100906,-0.105575,-0.135375,0.220141,-0.168425,15.526776,36.270184,-20.929459,-2.261781,0.422452,1.487838,-0.070634,0.000000,0.000000,0.000000,0.000000,0.000000,0.000000
11843500.000000,-2.416606,-1.662518,1.040287,-1.353347,1.797274,1.080493,-0.548017,0.185267,0.016056,0.113208,-0.117579,-0.156468,0.237395,-0.172170,15.824323,35.948833,-21.076248,-2.190370,0.488370,1.435653,-0.103593,0.000000,0.000000,0.000000,0.000000,0.000000,0.000000
11843501.000000,-2.416366,-1.662498,1.040449,-1.353515,1.797045,1.080807,-0.548207,0.201777,0.017893,0.125738,-0.132778,-0.177579,0.265557,-0.176629,16.046492,35.607647,-21.246841,-2.114992,0.584501,1.481429,-0.089860,0.000000,0.000000,0.000000,0.000000,0.000000,0.000000
11843502.000000,-2.416115,-1.662482,1.040612,-1.353704,1.796803,1.081145,-0.548400,0.221775,0.017088,0.136930,-0.150921,-0.197567,0.289571,-0.180375,16.320234,35.361675,-21.346024,-2.039613,0.554288,1.461288,-0.070634,0.000000,0.000000,0.000000,0.000000,0.000000,0.000000
11843503.000000,-2.415845,-1.662466,1.040790,-1.353904,1.796546,1.081504,-0.548590,0.235059,0.015493,0.149534,-0.165949,-0.216678,0.309768,-0.181216,16.467024,35.167278,-21.469009,-2.039613,0.494779,1.487838,-0.089860,0.000000,0.000000,0.000000,0.000000,0.000000,0.000000
11843504.000000,-2.415561,-1.662458,1.040976,-1.354118,1.796265,1.081875,-0.548784,0.248896,0.014290,0.159201,-0.177253,-0.236266,0.328842,-0.182035,16.590010,35.119671,-21.492813,-2.039613,0.452665,1.559249,-0.097184,0.000000,0.000000,0.000000,0.000000,0.000000,0.000000
11843505.000000,-2.415263,-1.662451,1.041171,-1.354349,1.795977,1.082261,-0.548974,0.261430,0.010747,0.174147,-0.194773,-0.253677,0.341788,-0.182750,16.689192,35.068096,-21.540421,-1.940431,0.344633,1.670028,-0.122819,0.000000,0.000000,0.000000,0.000000,0.000000,0.000000
11843506.000000,-2.414944,-1.662454,1.041374,-1.354609,1.795670,1.082678,-0.549168,0.275160,0.008034,0.184728,-0.215853,-0.270837,0.357572,-0.184865,16.716963,35.167278,-21.469009,-1.769838,0.339139,1.727706,-0.103593,0.000000,0.000000,0.000000,0.000000,0.000000,0.000000
11843507.000000,-2.414610,-1.662453,1.041580,-1.354879,1.795336,1.083118,-0.549361,0.294892,0.005072,0.189400,-0.233151,-0.291585,0.388478,-0.187343,16.764570,35.191082,-21.346024,-1.670656,0.320829,1.682845,-0.064225,0.000000,0.000000,0.000000,0.000000,0.000000,0.000000
11843508.000000,-2.414256,-1.662452,1.041800,-1.355167,1.794990,1.083585,-0.549544,0.313143,0.003586,0.199613,-0.247725,-0.305094,0.411034,-0.184115,16.689192,35.191082,-21.246841,-1.496095,0.351041,1.637069,-0.136552,0.000000,0.000000,0.000000,0.000000,0.000000,0.000000
11843509.000000,-2.413897,-1.662451,1.042039,-1.355474,1.794627,1.084070,-0.549746,0.331012,0.002544,0.211189,-0.266062,-0.321036,0.428212,-0.192759,16.788374,35.191082,-21.175430,-1.373109,0.410551,1.584884,-0.070634,0.000000,0.000000,0.000000,0.000000,0.000000,0.000000
11843510.000000,-2.413533,-1.662456,1.042280,-1.355783,1.794237,1.084582,-0.549929,0.339107,0.000048,0.219489,-0.279196,-0.340749,0.455071,-0.190704,16.939131,35.266460,-21.076248,-1.297731,0.428861,1.526290,-0.097184,0.000000,0.000000,0.000000,0.000000,0.000000,0.000000
11843511.000000,-2.413149,-1.662460,1.042532,-1.356106,1.793830,1.085116,-0.550117,0.348039,-0.000995,0.228161,-0.294472,-0.361429,0.473349,-0.189036,17.085920,35.314068,-20.977066,-1.273927,0.488370,1.481429,-0.116410,0.000000,0.000000,0.000000,0.000000,0.000000,0.000000
11843512.000000,-2.412757,-1.662460,1.042788,-1.356441,1.793411,1.085667,-0.550306,0.365818,-0.000599,0.238741,-0.304661,-0.378877,0.496070,-0.181010,17.308088,35.314068,-20.877884,-1.297731,0.500272,1.481429,-0.077042,0.000000,0.000000,0.000000,0.000000,0.000000,0.000000
11843513.000000,-2.412355,-1.662465,1.043062,-1.356785,1.792983,1.086232,-0.550477,0.376003,-0.002021,0.248394,-0.316718,-0.398816,0.514776,-0.179858,17.530256,35.385479,-20.854080,-1.273927,0.416959,1.584884,-0.155778,0.000000,0.000000,0.000000,0.000000,0.000000,0.000000
11843514.000000,-2.411934,-1.662461,1.043347,-1.357149,1.792528,1.086827,-0.550657,0.393823,-0.000197,0.258899,-0.327699,-0.417654,0.544264,-0.179205,17.728621,35.337872,-20.854080,-1.273927,0.416959,1.637069,-0.110001,0.000000,0.000000,0.000000,0.000000,0.000000,0.000000
11843515.000000,-2.411516,-1.662461,1.043634,-1.357522,1.792067,1.087446,-0.550830,0.407970,-0.000104,0.271346,-0.349741,-0.434431,0.570988,-0.177898,18.026167,35.337872,-20.754898,-1.174745,0.381254,1.584884,-0.083451,0.000000,0.000000,0.000000,0.000000,0.000000,0.000000
11843516.000000,-2.411068,-1.662454,1.043941,-1.357914,1.791587,1.088098,-0.550996,0.414893,0.002271,0.281744,-0.362549,-0.449190,0.600180,-0.168779,18.224531,35.238689,-20.731094,-1.051759,0.398649,1.487838,-0.136552,0.000000,0.000000,0.000000,0.000000,0.000000,0.000000
11843517.000000,-2.410599,-1.662451,1.044256,-1.358325,1.791086,1.088765,-0.551166,0.437756,0.002643,0.293142,-0.376112,-0.460933,0.631031,-0.169482,18.323713,35.191082,-20.683487,-0.877199,0.452665,1.350509,-0.103593,0.000000,0.000000,0.000000,0.000000,0.000000,0.000000
11843518.000000,-2.410126,-1.662446,1.044579,-1.358752,1.790576,1.089455,-0.551335,0.448840,0.003444,0.298606,-0.397600,-0.476210,0.651456,-0.164564,18.573652,35.119671,-20.683487,-0.631227,0.535978,1.240646,-0.083451,0.000000,0.000000,0.000000,0.000000,0.000000,0.000000
11843519.000000,-2.409638,-1.662433,1.044903,-1.359191,1.790056,1.090155,-0.551496,0.449882,0.008354,0.303888,-0.407071,-0.489487,0.657748,-0.158754,18.446699,34.996685,-20.485123,-0.484438,0.667814,1.227828,-0.142960,0.000000,0.000000,0.000000,0.000000,0.000000,0.000000
11843520.000000,-2.409153,-1.662423,1.045246,-1.359646,1.789532,1.090862,-0.551660,0.455268,0.008161,0.322951,-0.422214,-0.500620,0.669503,-0.162717,17.855574,34.897503,-20.215347,-0.555849,0.733732,1.312057,-0.116410,0.000000,0.000000,0.000000,0.000000,0.000000,0.000000
11843521.000000,-2.408672,-1.662408,1.045616,-1.360109,1.789006,1.091587,-0.551814,0.456223,0.005046,0.338585,-0.435437,-0.505461,0.687193,-0.161758,16.590010,34.651531,-19.798782,-0.829591,0.811552,1.389877,-0.163102,0.000000,0.000000,0.000000,0.000000,0.000000,0.000000
11843522.000000,-2.408194,-1.662396,1.046011,-1.360588,1.788482,1.092338,-0.551979,0.462918,0.007234,0.359144,-0.444674,-0.511755,0.706633,-0.160275,14.832501,34.334148,-19.235428,-1.273927,0.840848,1.461288,-0.136552,0.000000,0.000000,0.000000,0.000000,0.000000,0.000000
11843523.000000,-2.407730,-1.662381,1.046423,-1.361073,1.787964,1.093100,-0.552139,0.460858,0.008355,0.376500,-0.457675,-0.508774,0.728645,-0.156812,12.975812,33.893780,-18.596695,-1.670656,0.655912,1.454879,-0.163102,0.000000,0.000000,0.000000,0.000000,0.000000,0.000000
11843524.000000,-2.407264,-1.662370,1.046867,-1.361566,1.787456,1.093880,-0.552304,0.464426,0.008149,0.395567,-0.460654,-0.505016,0.741165,-0.156215,11.071515,33.477215,-17.858780,-2.091188,0.542386,1.377059,-0.136552,0.000000,0.000000,0.000000,0.000000,0.000000,0.000000
11843525.000000,-2.406800,-1.662363,1.047331,-1.362069,1.786957,1.094663,-0.552466,0.470659,0.010163,0.419548,-0.465234,-0.502154,0.755286,-0.157578,9.290204,33.088421,-17.224014,-2.436342,0.332731,1.214095,-0.149369,0.000000,0.000000,0.000000,0.000000,0.000000,0.000000
11843526.000000,-2.406348,-1.662361,1.047816,-1.362566,1.786471,1.095457,-0.552629,0.465355,0.007360,0.434245,-0.475522,-0.493689,0.769519,-0.161617,7.731061,32.743267,-16.680496,-2.634706,0.154203,1.058456,-0.122819,0.000000,0.000000,0.000000,0.000000,0.000000,0.000000
11843527.000000,-2.405895,-1.662362,1.048315,-1.363063,1.785980,1.096240,-0.552792,0.466779,0.006642,0.450366,-0.477823,-0.487343,0.764957,-0.160684,6.366315,32.473492,-16.093338,-2.856874,0.088285,0.941268,-0.077042,0.000000,0.000000,0.000000,0.000000,0.000000,0.000000
11843528.000000,-2.405450,-1.662367,1.048807,-1.363544,1.785484,1.097009,-0.552936,0.458003,0.002522,0.461563,-0.478349,-0.484034,0.764139,-0.155149,5.255476,32.231487,-15.454605,-3.178224,0.069974,0.869857,-0.155778,0.000000,0.000000,0.000000,0.000000,0.000000,0.000000
11843529.000000,-2.405006,-1.662373,1.049301,-1.364021,1.784991,1.097788,-0.553095,0.448546,-0.000851,0.466249,-0.476267,-0.482435,0.769578,-0.154859,4.339033,32.009319,-14.815872,-3.475771,0.213712,0.830489,-0.130143,0.000000,0.000000,0.000000,0.000000,0.000000,0.000000
11843530.000000,-2.404563,-1.662380,1.049792,-1.364492,1.784503,1.098545,-0.553251,0.446085,-0.003887,0.482171,-0.470229,-0.486415,0.778398,-0.154627,3.620954,31.814922,-14.153336,-3.844728,0.273221,0.863448,-0.110001,0.000000,0.000000,0.000000,0.000000,0.000000,0.000000
11843531.000000,-2.404116,-1.662384,1.050298,-1.364968,1.784030,1.099307,-0.553401,0.443423,-0.002322,0.490895,-0.475304,-0.490737,0.775373,-0.151516,2.851301,31.592754,-13.661392,-3.943910,0.303434,0.915633,-0.169511,0.000000,0.000000,0.000000,0.000000,0.000000,0.000000
11843532.000000,-2.403650,-1.662387,1.050803,-1.365451,1.783559,1.100067,-0.553561,0.445873,-0.001928,0.491200,-0.472936,-0.486790,0.767997,-0.148682,2.061811,31.398357,-13.149612,-3.844728,0.332731,0.974227,-0.122819,0.000000,0.000000,0.000000,0.000000,0.000000,0.000000
11843533.000000,-2.403190,-1.662397,1.051302,-1.365935,1.783084,1.100826,-0.553708,0.451881,-0.006170,0.496235,-0.485717,-0.481584,0.770033,-0.147993,1.367536,31.275372,-12.657669,-3.547182,0.308927,0.966903,-0.155778,0.000000,0.000000,0.000000,0.000000,0.000000,0.000000
11843534.000000,-2.402704,-1.662397,1.051818,-1.366436,1.782623,1.101590,-0.553864,0.456757,-0.003162,0.499250,-0.488412,-0.472372,0.771475,-0.148772,0.526471,31.029400,-12.312515,-3.079042,0.255826,0.901900,-0.149369,0.000000,0.000000,0.000000,0.000000,0.000000,0.000000
11843535.000000,-2.402223,-1.662387,1.052348,-1.366928,1.782169,1.102343,-0.554021,0.466204,0.001219,0.510510,-0.488835,-0.468221,0.769481,-0.155048,-0.144000,30.688213,-12.189529,-2.781496,0.159696,0.863448,-0.097184,0.000000,0.000000,0.000000,0.000000,0.000000,0.000000
11843536.000000,-2.401757,-1.662372,1.052869,-1.367401,1.781714,1.103101,-0.554162,0.461171,0.004866,0.515914,-0.486574,-0.462995,0.759430,-0.150934,-0.588336,30.319256,-11.995132,-2.583132,0.093778,0.882674,-0.175919,0.000000,0.000000,0.000000,0.000000,0.000000,0.000000
11843537.000000,-2.401282,-1.662358,1.053399,-1.367866,1.781257,1.103851,-0.554324,0.456541,0.009926,0.519286,-0.478277,-0.455995,0.757292,-0.157899,-0.985064,29.978069,-11.848343,-2.634706,0.088285,0.901900,-0.110001,0.000000,0.000000,0.000000,0.000000,0.000000,0.000000
11843538.000000,-2.400818,-1.662338,1.053925,-1.368331,1.780790,1.104589,-0.554472,0.464443,0.014831,0.526220,-0.471569,-0.459422,0.752550,-0.155072,-1.159625,29.585308,-11.701553,-2.757692,0.076383,1.006271,-0.136552,0.000000,0.000000,0.000000,0.000000,0.000000,0.000000
11843539.000000,-2.400361,-1.662320,1.054473,-1.368783,1.780333,1.105330,-0.554629,0.458305,0.015202,0.534939,-0.463870,-0.454455,0.746990,-0.153045,-1.306414,29.196514,-11.649979,-2.880678,0.100187,1.155502,-0.155778,0.000000,0.000000,0.000000,0.000000,0.000000,0.000000
11843540.000000,-2.399888,-1.662298,1.055035,-1.369237,1.779874,1.106078,-0.554787,0.466367,0.015850,0.542591,-0.460176,-0.456378,0.738313,-0.152809,-1.552386,28.779949,-11.602371,-3.027467,0.166105,1.214095,-0.130143,0.000000,0.000000,0.000000,0.000000,0.000000,0.000000
11843541.000000,-2.399420,-1.662277,1.055587,-1.369683,1.779412,1.106835,-0.554942,0.461778,0.018327,0.547304,-0.453288,-0.457398,0.750975,-0.151641,-1.778521,28.410992,-11.479385,-3.126650,0.213712,1.123458,-0.149369,0.000000,0.000000,0.000000,0.000000,0.000000,0.000000
11843542.000000,-2.398939,-1.662259,1.056159,-1.370140,1.778963,1.107609,-0.555101,0.459398,0.017319,0.552863,-0.452453,-0.456632,0.759905,-0.151316,-2.147479,28.165020,-11.404007,-3.178224,0.231107,0.966903,-0.142960,0.000000,0.000000,0.000000,0.000000,0.000000,0.000000
11843543.000000,-2.398452,-1.662241,1.056733,-1.370588,1.778517,1.108365,-0.555253,0.469249,0.018744,0.550608,-0.449310,-0.453267,0.756543,-0.155186,-2.520403,27.970623,-11.281021,-3.202028,0.201810,0.889083,-0.163102,0.000000,0.000000,0.000000,0.000000,0.000000,0.000000
11843544.000000,-2.397977,-1.662228,1.057302,-1.371017,1.778075,1.109124,-0.555411,0.464784,0.017803,0.551877,-0.443518,-0.451876,0.760787,-0.154928,-2.817950,27.871441,-10.987442,-3.376589,0.159696,0.876266,-0.130143,0.000000,0.000000,0.000000,0.000000,0.000000,0.000000
11843545.000000,-2.397484,-1.662218,1.057884,-1.371455,1.777628,1.109880,-0.555569,0.476447,0.015653,0.558781,-0.441509,-0.447868,0.757207,-0.154057,-3.186907,27.847637,-10.646255,-3.424196,0.166105,0.915633,-0.122819,0.000000,0.000000,0.000000,0.000000,0.000000,0.000000
11843546.000000,-2.397003,-1.662212,1.058468,-1.371879,1.777192,1.110630,-0.555712,0.474085,0.010266,0.564910,-0.434999,-0.446453,0.754518,-0.150609,-3.484454,27.871441,-10.372513,-3.570986,0.081876,0.966903,-0.196061,0.000000,0.000000,0.000000,0.000000,0.000000,0.000000
11843547.000000,-2.396503,-1.662208,1.059063,-1.372299,1.776757,1.111382,-0.555873,0.479311,0.009745,0.571334,-0.433196,-0.438567,0.751921,-0.153151,-3.904986,27.895245,-10.078934,-3.721742,0.069974,0.980636,-0.122819,0.000000,0.000000,0.000000,0.000000,0.000000,0.000000
11843548.000000,-2.395995,-1.662206,1.059665,-1.372720,1.776324,1.112127,-0.556020,0.492267,0.005216,0.579459,-0.428988,-0.433145,0.762726,-0.151484,-4.349322,27.970623,-9.860733,-3.868532,0.093778,0.966903,-0.149369,0.000000,0.000000,0.000000,0.000000,0.000000,0.000000
11843549.000000,-2.395501,-1.662207,1.060285,-1.373125,1.775897,1.112884,-0.556167,0.487654,0.002075,0.592643,-0.427172,-0.443395,0.757846,-0.150958,-4.722247,28.046001,-9.737747,-4.090700,0.034269,0.922042,-0.163102,0.000000,0.000000,0.000000,0.000000,0.000000,0.000000
11843550.000000,-2.394998,-1.662207,1.060920,-1.373538,1.775464,1.113638,-0.556327,0.494302,0.000541,0.600706,-0.418589,-0.442435,0.752636,-0.153705,-5.118975,28.093609,-9.662369,-4.213686,0.069974,0.889083,-0.089860,0.000000,0.000000,0.000000,0.000000,0.000000,0.000000
11843551.000000,-2.394499,-1.662213,1.061553,-1.373936,1.775040,1.114387,-0.556461,0.495798,-0.001756,0.615202,-0.422785,-0.434227,0.753019,-0.149666,-5.392718,28.192791,-9.563187,-4.340639,0.034269,0.882674,-0.175919,0.000000,0.000000,0.000000,0.000000,0.000000,0.000000
11843552.000000,-2.393998,-1.662214,1.062214,-1.374333,1.774617,1.115142,-0.556610,0.492435,-0.002132,0.631061,-0.414072,-0.432332,0.754241,-0.150445,-5.686297,28.240398,-9.686172,-4.535036,-0.031649,0.934859,-0.155778,0.000000,0.000000,0.000000,0.000000,0.000000,0.000000
11843553.000000,-2.393488,-1.662220,1.062897,-1.374733,1.774189,1.115877,-0.556755,0.503274,-0.003627,0.644601,-0.409397,-0.432553,0.753522,-0.150878,-6.059222,28.339581,-9.860733,-4.634218,-0.025240,0.974227,-0.130143,0.000000,0.000000,0.000000,0.000000,0.000000,0.000000
11843554.000000,-2.392980,-1.662223,1.063574,-1.375125,1.773776,1.116642,-0.556899,0.509604,-0.002889,0.654431,-0.403868,-0.426196,0.756047,-0.150317,-6.356768,28.363384,-10.031326,-4.709596,-0.091158,0.908309,-0.142960,0.000000,0.000000,0.000000,0.000000,0.000000,0.000000
11843555.000000,-2.392470,-1.662229,1.064267,-1.375515,1.773349,1.117407,-0.557050,0.503223,-0.003532,0.664184,-0.402061,-0.429394,0.755842,-0.151102,-6.725726,28.434795,-10.130508,-4.784975,-0.072848,0.863448,-0.122819,0.000000,0.000000,0.000000,0.000000,0.000000,0.000000
11843556.000000,-2.391960,-1.662229,1.064965,-1.375904,1.772920,1.118139,-0.557197,0.503730,-0.002306,0.672124,-0.394614,-0.427678,0.744073,-0.149219,-7.051043,28.434795,-10.324905,-4.884157,-0.013339,1.019088,-0.130143,0.000000,0.000000,0.000000,0.000000,0.000000,0.000000
11843557.000000,-2.391444,-1.662238,1.065676,-1.376291,1.772507,1.118883,-0.557339,0.503907,-0.004378,0.686660,-0.396912,-0.425688,0.738505,-0.143504,-7.443804,28.557781,-10.400284,-4.884157,0.010465,1.117049,-0.163102,0.000000,0.000000,0.000000,0.000000,0.000000,0.000000
11843558.000000,-2.390923,-1.662252,1.066402,-1.376687,1.772074,1.119634,-0.557488,0.514390,-0.007439,0.698237,-0.391196,-0.426270,0.732913,-0.145800,-7.816729,28.752178,-10.447891,-4.907960,0.093778,1.136276,-0.149369,0.000000,0.000000,0.000000,0.000000,0.000000,0.000000
11843559.000000,-2.390413,-1.662264,1.067119,-1.377077,1.771642,1.120379,-0.557631,0.508409,-0.008373,0.705721,-0.388712,-0.425561,0.738072,-0.142929,-8.114276,28.898968,-10.424088,-4.884157,0.154203,1.149093,-0.136552,0.000000,0.000000,0.000000,0.000000,0.000000,0.000000
11843560.000000,-2.389902,-1.662272,1.067856,-1.377483,1.771234,1.121111,-0.557768,0.502325,-0.007887,0.708717,-0.396093,-0.420923,0.732078,-0.143540,-8.336444,28.998150,-10.348709,-4.733400,0.100187,1.227828,-0.163102,0.000000,0.000000,0.000000,0.000000,0.000000,0.000000
11843561.000000,-2.389383,-1.662284,1.068590,-1.377890,1.770811,1.121845,-0.557908,0.509446,-0.008680,0.719398,-0.397494,-0.418935,0.733970,-0.141031,-8.610187,29.144939,-10.277298,-4.610414,0.105680,1.214095,-0.155778,0.000000,0.000000,0.000000,0.000000,0.000000,0.000000
11843562.000000,-2.388878,-1.662296,1.069340,-1.378292,1.770402,1.122593,-0.558052,0.501202,-0.008098,0.723986,-0.398175,-0.417117,0.738663,-0.138142,-8.733172,29.244122,-10.078934,-4.487428,0.076383,1.110641,-0.142960,0.000000,0.000000,0.000000,0.000000,0.000000,0.000000
11843563.000000,-2.388380,-1.662309,1.070103,-1.378686,1.769991,1.123338,-0.558198,0.500979,-0.008269,0.733664,-0.395374,-0.416226,0.731901,-0.141124,-8.733172,29.367107,-9.908340,-4.463624,0.064481,1.019088,-0.149369,0.000000,0.000000,0.000000,0.000000,0.000000,0.000000
11843564.000000,-2.387888,-1.662319,1.070863,-1.379076,1.769572,1.124064,-0.558335,0.501363,-0.007735,0.743670,-0.392706,-0.411575,0.729826,-0.143147,-8.733172,29.462322,-9.686172,-4.511232,0.069974,1.084090,-0.163102,0.000000,0.000000,0.000000,0.000000,0.000000,0.000000
11843565.000000,-2.387393,-1.662321,1.071647,-1.379472,1.769166,1.124800,-0.558479,0.492177,-0.007221,0.754017,-0.392955,-0.407084,0.732234,-0.140895,-8.657794,29.414715,-9.539383,-4.463624,0.046171,1.155502,-0.142960,0.000000,0.000000,0.000000,0.000000,0.000000,0.000000
11843566.000000,-2.386903,-1.662330,1.072432,-1.379859,1.768758,1.125534,-0.558616,0.491028,-0.006190,0.760766,-0.388860,-0.408948,0.739873,-0.137671,-8.582416,29.462322,-9.222000,-4.610414,0.052579,1.117049,-0.169511,0.000000,0.000000,0.000000,0.000000,0.000000,0.000000
11843567.000000,-2.386416,-1.662328,1.073211,-1.380245,1.768349,1.126286,-0.558757,0.485097,-0.002096,0.769366,-0.386285,-0.417434,0.742448,-0.137166,-8.558612,29.367107,-8.952225,-4.610414,0.040677,1.031905,-0.149369,0.000000,0.000000,0.000000,0.000000,0.000000,0.000000
11843568.000000,-2.385933,-1.662320,1.074023,-1.380636,1.767940,1.127047,-0.558898,0.487324,0.003095,0.782520,-0.383006,-0.411777,0.742570,-0.135360,-8.411822,29.168743,-8.876846,-4.634218,0.040677,0.954086,-0.163102,0.000000,0.000000,0.000000,0.000000,0.000000,0.000000
11843569.000000,-2.385443,-1.662317,1.074831,-1.381016,1.767537,1.127810,-0.559039,0.486770,0.004180,0.794134,-0.379497,-0.407077,0.750177,-0.135797,-8.411822,29.073528,-8.829239,-4.733400,0.027860,0.830489,-0.130143,0.000000,0.000000,0.000000,0.000000,0.000000,0.000000
11843570.000000,-2.384964,-1.662306,1.075652,-1.381415,1.767134,1.128568,-0.559171,0.481445,0.006532,0.797999,-0.382993,-0.405475,0.751312,-0.138228,-8.312640,29.045757,-8.829239,-4.709596,0.052579,0.771896,-0.155778,0.000000,0.000000,0.000000,0.000000,0.000000,0.000000
11843571.000000,-2.384483,-1.662301,1.076470,-1.381804,1.766743,1.129327,-0.559309,0.484920,0.005874,0.795001,-0.380347,-0.397649,0.747252,-0.140756,-8.038898,29.390911,-9.222000,-4.757204,0.046171,0.882674,-0.149369,0.000000,0.000000,0.000000,0.000000,0.000000,0.000000
11843572.000000,-2.384009,-1.662298,1.077273,-1.382186,1.766352,1.130076,-0.559451,0.474247,0.003031,0.792824,-0.379351,-0.392851,0.741438,-0.142974,-7.594561,30.001873,-9.955948,-4.784975,0.052579,1.052047,-0.155778,0.000000,0.000000,0.000000,0.000000,0.000000,0.000000
11843573.000000,-2.383531,-1.662294,1.078071,-1.382568,1.765970,1.130838,-0.559592,0.470704,0.004963,0.785488,-0.376414,-0.387988,0.745866,-0.145340,-7.051043,30.759624,-10.864456,-4.884157,0.022367,1.129867,-0.142960,0.000000,0.000000,0.000000,0.000000,0.000000,0.000000
11843574.000000,-2.383052,-1.662282,1.078852,-1.382957,1.765589,1.131612,-0.559727,0.474072,0.005453,0.789140,-0.380470,-0.384748,0.754752,-0.144361,-6.455950,31.592754,-11.848343,-4.884157,0.022367,1.084090,-0.155778,0.000000,0.000000,0.000000,0.000000,0.000000,0.000000
11843575.000000,-2.382567,-1.662258,1.079654,-1.383332,1.765215,1.132389,-0.559865,0.473123,0.013536,0.800487,-0.375874,-0.380721,0.759471,-0.145851,-6.059222,32.255291,-13.074234,-4.931764,0.088285,1.084090,-0.155778,0.000000,0.000000,0.000000,0.000000,0.000000,0.000000
11843576.000000,-2.382078,-1.662232,1.080450,-1.383721,1.764827,1.133147,-0.560005,0.480209,0.017515,0.797852,-0.382061,-0.383297,0.752614,-0.143095,-5.737872,32.913860,-14.177139,-4.808778,0.178007,1.247054,-0.142960,0.000000,0.000000,0.000000,0.000000,0.000000,0.000000
11843577.000000,-2.381590,-1.662203,1.081231,-1.384108,1.764440,1.133899,-0.560143,0.478123,0.019953,0.795853,-0.383671,-0.380881,0.755861,-0.141040,-5.515704,33.453411,-15.038040,-4.685792,0.285123,1.442062,-0.122819,0.000000,0.000000,0.000000,0.000000,0.000000,0.000000
11843578.000000,-2.381103,-1.662174,1.082027,-1.384498,1.764050,1.134667,-0.560272,0.475592,0.019761,0.795034,-0.384149,-0.385531,0.761966,-0.136842,-5.241961,33.941387,-15.847366,-4.586610,0.452665,1.507064,-0.169511,0.000000,0.000000,0.000000,0.000000,0.000000,0.000000
11843579.000000,-2.380612,-1.662142,1.082822,-1.384890,1.763668,1.135409,-0.560404,0.481440,0.021477,0.813391,-0.383522,-0.381525,0.747946,-0.138043,-5.095171,34.334148,-16.533707,-4.535036,0.446256,1.591293,-0.188737,0.000000,0.000000,0.000000,0.000000,0.000000,0.000000
11843580.000000,-2.380140,-1.662111,1.083638,-1.385265,1.763298,1.136151,-0.560541,0.477891,0.023639,0.812001,-0.380675,-0.376874,0.745412,-0.143127,-4.773821,34.679302,-17.295425,-4.586610,0.362943,1.735030,-0.142960,0.000000,0.000000,0.000000,0.000000,0.000000,0.000000
11843581.000000,-2.379658,-1.662082,1.084461,-1.385640,1.762923,1.136906,-0.560672,0.484012,0.022324,0.816317,-0.375686,-0.374570,0.741769,-0.143979,-4.523882,34.996685,-17.811172,-4.709596,0.297025,1.760665,-0.163102,0.000000,0.000000,0.000000,0.000000,0.000000,0.000000
11843582.000000,-2.379183,-1.662067,1.085263,-1.386010,1.762545,1.137651,-0.560797,0.480534,0.018427,0.810351,-0.378495,-0.378423,0.737826,-0.139319,-4.202532,35.437054,-18.104752,-4.784975,0.249418,1.702071,-0.208878,0.000000,0.000000,0.000000,0.000000,0.000000,0.000000
11843583.000000,-2.378716,-1.662058,1.086097,-1.386386,1.762162,1.138382,-0.560937,0.475272,0.011654,0.813878,-0.376317,-0.378436,0.733050,-0.139926,-3.980364,35.901226,-18.497513,-4.884157,0.243009,1.793624,-0.122819,0.000000,0.000000,0.000000,0.000000,0.000000,0.000000
11843584.000000,-2.378236,-1.662053,1.086940,-1.386752,1.761776,1.139106,-0.561068,0.476810,0.006742,0.817102,-0.370184,-0.380967,0.741586,-0.138510,-3.904986,36.365398,-18.941849,-5.030946,0.207303,1.877853,-0.103593,0.000000,0.000000,0.000000,0.000000,0.000000,0.000000
11843585.000000,-2.377777,-1.662055,1.087774,-1.387111,1.761398,1.139862,-0.561194,0.466311,0.002917,0.824302,-0.368376,-0.387421,0.740288,-0.134166,-3.631243,36.833538,-19.283035,-5.205507,0.201810,1.754256,-0.169511,0.000000,0.000000,0.000000,0.000000,0.000000,0.000000
11843586.000000,-2.377308,-1.662065,1.088615,-1.387461,1.760995,1.140624,-0.561326,0.460388,0.002276,0.821538,-0.360629,-0.389706,0.748597,-0.134531,-3.536028,37.345318,-19.529007,-5.499086,0.327238,1.500655,-0.149369,0.000000,0.000000,0.000000,0.000000,0.000000,0.000000
11843587.000000,-2.376830,-1.662082,1.089454,-1.387803,1.760602,1.141368,-0.561458,0.469489,-0.001966,0.828382,-0.354756,-0.387373,0.747556,-0.134788,-3.508257,37.884869,-19.774979,-5.848207,0.369352,1.402694,-0.130143,0.000000,0.000000,0.000000,0.000000,0.000000,0.000000
11843588.000000,-2.376346,-1.662107,1.090309,-1.388156,1.760219,1.142092,-0.561582,0.470489,-0.012319,0.831369,-0.348544,-0.386045,0.740533,-0.131805,-3.730425,38.472027,-20.092361,-6.018800,0.410551,1.578475,-0.182328,0.000000,0.000000,0.000000,0.000000,0.000000,0.000000
11843589.000000,-2.375867,-1.662137,1.091161,-1.388501,1.759819,1.142803,-0.561718,0.473022,-0.016300,0.833751,-0.348490,-0.390671,0.722184,-0.137974,-3.829607,39.035381,-20.266922,-6.240968,0.482877,1.779891,-0.122819,0.000000,0.000000,0.000000,0.000000,0.000000,0.000000
11843590.000000,-2.375392,-1.662180,1.091986,-1.388841,1.759438,1.143530,-0.561842,0.475777,-0.025134,0.828970,-0.349085,-0.390141,0.723342,-0.134440,-3.980364,39.721722,-20.290726,-6.439332,0.440763,1.838485,-0.175919,0.000000,0.000000,0.000000,0.000000,0.000000,0.000000
11843591.000000,-2.374901,-1.662216,1.092837,-1.389196,1.759065,1.144259,-0.561975,0.477387,-0.027943,0.835695,-0.350325,-0.385052,0.723921,-0.131736,-4.226336,40.257305,-20.461319,-6.463136,0.393156,1.871444,-0.169511,0.000000,0.000000,0.000000,0.000000,0.000000,0.000000
11843592.000000,-2.374410,-1.662254,1.093670,-1.389545,1.758681,1.144981,-0.562111,0.482407,-0.035354,0.834719,-0.348373,-0.386189,0.724617,-0.136896,-4.448504,40.749249,-20.631912,-6.613893,0.362943,1.923629,-0.122819,0.000000,0.000000,0.000000,0.000000,0.000000,0.000000
11843593.000000,-2.373931,-1.662293,1.094513,-1.389888,1.758307,1.145715,-0.562232,0.481677,-0.036620,0.839460,-0.345445,-0.382688,0.727688,-0.132679,-4.646868,41.189617,-20.731094,-6.685304,0.320829,1.923629,-0.196061,0.000000,0.000000,0.000000,0.000000,0.000000,0.000000
11843594.000000,-2.373434,-1.662326,1.095353,-1.390232,1.757930,1.146456,-0.562365,0.489078,-0.035519,0.834658,-0.343637,-0.378375,0.731509,-0.132662,-4.995989,41.530804,-20.782669,-6.836061,0.356534,1.890670,-0.196061,0.000000,0.000000,0.000000,0.000000,0.000000,0.000000
11843595.000000,-2.372953,-1.662361,1.096178,-1.390574,1.757552,1.147195,-0.562502,0.489843,-0.035115,0.831405,-0.340707,-0.379885,0.735588,-0.130147,-5.166583,41.875957,-20.731094,-6.959047,0.398649,1.819259,-0.136552,0.000000,0.000000,0.000000,0.000000,0.000000,0.000000
11843596.000000,-2.372467,-1.662398,1.097016,-1.390902,1.757177,1.147930,-0.562629,0.484537,-0.034970,0.830043,-0.337407,-0.379690,0.734943,-0.124671,-5.440325,42.217144,-20.754898,-7.256593,0.410551,1.800033,-0.163102,0.000000,0.000000,0.000000,0.000000,0.000000,0.000000
11843597.000000,-2.371986,-1.662426,1.097846,-1.391235,1.756806,1.148660,-0.562758,0.484408,-0.032843,0.832273,-0.334025,-0.373800,0.728868,-0.127448,-5.539507,42.463116,-20.707291,-7.478761,0.416959,1.832076,-0.136552,0.000000,0.000000,0.000000,0.000000,0.000000,0.000000
11843598.000000,-2.371513,-1.662460,1.098688,-1.391543,1.756452,1.149397,-0.562881,0.478895,-0.033230,0.832094,-0.328025,-0.366099,0.730571,-0.122525,-5.638690,42.780499,-20.731094,-7.847719,0.362943,1.825668,-0.155778,0.000000,0.000000,0.000000,0.000000,0.000000,0.000000
11843599.000000,-2.371027,-1.662487,1.099517,-1.391868,1.756085,1.150134,-0.563010,0.478476,-0.030008,0.824142,-0.324116,-0.363631,0.724169,-0.124050,-5.813250,42.951092,-20.485123,-8.046083,0.344633,1.747848,-0.182328,0.000000,0.000000,0.000000,0.000000,0.000000,0.000000
11843600.000000,-2.370553,-1.662511,1.100348,-1.392184,1.755723,1.150857,-0.563138,0.476776,-0.030144,0.824630,-0.329073,-0.357543,0.721348,-0.126732,-5.860857,43.074078,-20.536697,-8.244448,0.339139,1.767074,-0.169511,0.000000,0.000000,0.000000,0.000000,0.000000,0.000000
11843601.000000,-2.370084,-1.662530,1.101192,-1.392502,1.755379,1.151587,-0.563265,0.470218,-0.024893,0.827086,-0.325284,-0.356542,0.717702,-0.128283,-5.936236,43.097881,-20.584305,-8.442812,0.303434,1.800033,-0.155778,0.000000,0.000000,0.000000,0.000000,0.000000,0.000000
11843602.000000,-2.369600,-1.662558,1.102028,-1.392818,1.755023,1.152326,-0.563389,0.475835,-0.026297,0.825652,-0.319069,-0.355372,0.731518,-0.129975,-6.134600,43.197063,-20.584305,-8.641176,0.273221,1.806442,-0.136552,0.000000,0.000000,0.000000,0.000000,0.000000,0.000000
11843603.000000,-2.369142,-1.662576,1.102860,-1.393119,1.754668,1.153058,-0.563513,0.464731,-0.023928,0.827238,-0.313856,-0.357308,0.738466,-0.124966,-6.158404,43.145489,-20.631912,-8.863344,0.291532,1.754256,-0.155778,0.000000,0.000000,0.000000,0.000000,0.000000,0.000000
11843604.000000,-2.368671,-1.662597,1.103692,-1.393420,1.754323,1.153797,-0.563642,0.458879,-0.023783,0.823972,-0.307490,-0.351200,0.732049,-0.123013,-6.257586,43.145489,-20.631912,-9.184694,0.243009,1.741439,-0.130143,0.000000,0.000000,0.000000,0.000000,0.000000,0.000000
11843605.000000,-2.368211,-1.662613,1.104537,-1.393719,1.753980,1.154514,-0.563758,0.461808,-0.022603,0.828997,-0.304566,-0.350438,0.723866,-0.123551,-6.182208,43.097881,-20.905655,-9.454470,0.171598,1.844894,-0.175919,0.000000,0.000000,0.000000,0.000000,0.000000,0.000000
11843606.000000,-2.367751,-1.662629,1.105375,-1.394015,1.753634,1.155237,-0.563879,0.455912,-0.018598,0.827599,-0.298437,-0.350517,0.719598,-0.120800,-6.182208,43.026470,-20.977066,-9.752016,0.105680,1.890670,-0.175919,0.000000,0.000000,0.000000,0.000000,0.000000,0.000000
11843607.000000,-2.367300,-1.662649,1.106218,-1.394320,1.753284,1.155984,-0.564007,0.457171,-0.017304,0.821221,-0.296092,-0.352229,0.725470,-0.126355,-6.083025,43.026470,-21.076248,-9.950380,0.100187,1.838485,-0.103593,0.000000,0.000000,0.000000,0.000000,0.000000,0.000000
11843608.000000,-2.366846,-1.662663,1.107048,-1.394618,1.752942,1.156713,-0.564117,0.458487,-0.013902,0.824909,-0.296284,-0.345592,0.729488,-0.123742,-5.983843,42.927288,-21.294449,-10.073366,0.112089,1.793624,-0.188737,0.000000,0.000000,0.000000,0.000000,0.000000,0.000000
11843609.000000,-2.366402,-1.662676,1.107891,-1.394913,1.752606,1.157434,-0.564248,0.450086,-0.012063,0.827478,-0.297665,-0.343005,0.722770,-0.128147,-5.837054,42.851910,-21.445206,-10.271730,0.069974,1.871444,-0.122819,0.000000,0.000000,0.000000,0.000000,0.000000,0.000000
11843610.000000,-2.365971,-1.662692,1.108726,-1.395212,1.752264,1.158155,-0.564368,0.445656,-0.013999,0.829090,-0.297271,-0.341324,0.725869,-0.124085,-5.539507,42.780499,-21.639603,-10.394716,0.058073,1.890670,-0.130143,0.000000,0.000000,0.000000,0.000000,0.000000,0.000000
11843611.000000,-2.365552,-1.662711,1.109563,-1.395498,1.751931,1.158890,-0.564487,0.433960,-0.017607,0.827190,-0.296318,-0.335715,0.725787,-0.124047,-5.166583,42.804302,-21.687210,-10.541506,0.034269,1.838485,-0.169511,0.000000,0.000000,0.000000,0.000000,0.000000,0.000000
11843612.000000,-2.365126,-1.662724,1.110406,-1.395790,1.751598,1.159623,-0.564616,0.433539,-0.015440,0.826557,-0.292043,-0.336666,0.722617,-0.127907,-4.845232,42.756695,-21.786392,-10.668459,0.015958,1.858627,-0.122819,0.000000,0.000000,0.000000,0.000000,0.000000,0.000000
11843613.000000,-2.364712,-1.662740,1.111230,-1.396085,1.751258,1.160335,-0.564733,0.428050,-0.015511,0.823446,-0.295373,-0.337165,0.723285,-0.127408,-4.400897,42.780499,-21.786392,-10.668459,-0.001437,1.942855,-0.163102,0.000000,0.000000,0.000000,0.000000,0.000000,0.000000
11843614.000000,-2.364304,-1.662752,1.112065,-1.396375,1.750926,1.161067,-0.564853,0.417746,-0.013692,0.823044,-0.296665,-0.338460,0.725117,-0.128093,-4.055743,42.728924,-21.786392,-10.716066,0.004056,1.949264,-0.169511,0.000000,0.000000,0.000000,0.000000,0.000000,0.000000
11843615.000000,-2.363897,-1.662767,1.112902,-1.396682,1.750587,1.161800,-0.564971,0.418800,-0.014242,0.830205,-0.298317,-0.336405,0.741484,-0.127754,-3.682818,42.756695,-21.909378,-10.593081,0.076383,1.838485,-0.182328,0.000000,0.000000,0.000000,0.000000,0.000000,0.000000
11843616.000000,-2.363492,-1.662779,1.113750,-1.396986,1.750269,1.162530,-0.565094,0.411139,-0.012750,0.834534,-0.299236,-0.342779,0.729266,-0.131157,-3.385272,42.705120,-22.107742,-10.470095,0.022367,1.741439,-0.122819,0.000000,0.000000,0.000000,0.000000,0.000000,0.000000
11843617.000000,-2.363091,-1.662802,1.114601,-1.397309,1.749929,1.163273,-0.565208,0.410969,-0.015075,0.835439,-0.305241,-0.337822,0.731144,-0.125807,-3.040118,42.804302,-22.254532,-10.220156,0.034269,1.727706,-0.142960,0.000000,0.000000,0.000000,0.000000,0.000000,0.000000
11843618.000000,-2.362694,-1.662817,1.115450,-1.397635,1.749592,1.163998,-0.565321,0.407892,-0.014925,0.844467,-0.316536,-0.338711,0.731691,-0.123139,-2.690997,42.828106,-22.595718,-9.875002,0.046171,1.747848,-0.130143,0.000000,0.000000,0.000000,0.000000,0.000000,0.000000
11843619.000000,-2.362306,-1.662839,1.116298,-1.397956,1.749261,1.164722,-0.565439,0.400075,-0.017133,0.846171,-0.316847,-0.335699,0.724739,-0.120423,-2.345843,42.951092,-22.742508,-9.652834,0.088285,1.806442,-0.122819,0.000000,0.000000,0.000000,0.000000,0.000000,0.000000
11843620.000000,-2.361912,-1.662857,1.117158,-1.398286,1.748923,1.165448,-0.565548,0.400815,-0.016818,0.852315,-0.320873,-0.336800,0.735376,-0.116704,-2.048296,42.998699,-23.063858,-9.529848,0.105680,1.955673,-0.155778,0.000000,0.000000,0.000000,0.000000,0.000000,0.000000
11843621.000000,-2.361528,-1.662882,1.118006,-1.398616,1.748587,1.166165,-0.565667,0.391357,-0.017808,0.852505,-0.325619,-0.332900,0.727293,-0.117418,-1.750750,43.097881,-23.432816,-9.355288,0.105680,2.039901,-0.116410,0.000000,0.000000,0.000000,0.000000,0.000000,0.000000
11843622.000000,-2.361146,-1.662907,1.118861,-1.398952,1.748248,1.166909,-0.565774,0.381627,-0.018887,0.854523,-0.331118,-0.333435,0.725857,-0.108774,-1.453204,43.220867,-23.750198,-9.208498,0.195402,2.014266,-0.188737,0.000000,0.000000,0.000000,0.000000,0.000000,0.000000
11843623.000000,-2.360758,-1.662936,1.119704,-1.399301,1.747906,1.167625,-0.565885,0.385530,-0.020127,0.855210,-0.332698,-0.337933,0.724444,-0.110086,-1.231036,43.367657,-23.972366,-8.934755,0.303434,2.020675,-0.188737,0.000000,0.000000,0.000000,0.000000,0.000000,0.000000
11843624.000000,-2.360369,-1.662961,1.120554,-1.399643,1.747572,1.168346,-0.566007,0.385701,-0.020641,0.857313,-0.336654,-0.337170,0.714825,-0.113456,-1.131854,43.490643,-24.119156,-8.664980,0.279630,2.079269,-0.116410,0.000000,0.000000,0.000000,0.000000,0.000000,0.000000
11843625.000000,-2.359982,-1.662999,1.121416,-1.400005,1.747221,1.169070,-0.566116,0.386280,-0.026721,0.857992,-0.341025,-0.341070,0.715735,-0.111336,-0.961260,43.732647,-24.365128,-8.292055,0.381254,2.092086,-0.169511,0.000000,0.000000,0.000000,0.000000,0.000000,0.000000
11843626.000000,-2.359610,-1.663024,1.122257,-1.400359,1.746885,1.169780,-0.566232,0.386005,-0.027154,0.858651,-0.347055,-0.339848,0.714163,-0.113280,-0.762896,43.808025,-24.464310,-7.970705,0.374845,2.020675,-0.130143,0.000000,0.000000,0.000000,0.000000,0.000000,0.000000
11843627.000000,-2.359233,-1.663054,1.123106,-1.400710,1.746555,1.170501,-0.566342,0.379021,-0.028836,0.850576,-0.352786,-0.342533,0.711686,-0.115328,-0.540728,43.931011,-24.535721,-7.847719,0.320829,1.955673,-0.136552,0.000000,0.000000,0.000000,0.000000,0.000000,0.000000
11843628.000000,-2.358861,-1.663089,1.123940,-1.401080,1.746210,1.171207,-0.566446,0.375531,-0.031951,0.850904,-0.357683,-0.342369,0.712792,-0.112731,-0.243182,44.125408,-24.511917,-7.577943,0.351041,1.962081,-0.169511,0.000000,0.000000,0.000000,0.000000,0.000000,0.000000
11843629.000000,-2.358495,-1.663115,1.124785,-1.401428,1.745878,1.171917,-0.566562,0.367317,-0.028024,0.852727,-0.356808,-0.337000,0.707531,-0.114151,0.030561,44.200787,-24.535721,-7.502565,0.351041,2.014266,-0.136552,0.000000,0.000000,0.000000,0.000000,0.000000,0.000000
11843630.000000,-2.358128,-1.663144,1.125628,-1.401793,1.745544,1.172623,-0.566668,0.358698,-0.028373,0.847159,-0.358286,-0.335166,0.705716,-0.111086,0.276533,44.272198,-24.412735,-7.328004,0.410551,2.118636,-0.208878,0.000000,0.000000,0.000000,0.000000,0.000000,0.000000
11843631.000000,-2.357752,-1.663172,1.126457,-1.402162,1.745206,1.173334,-0.566791,0.365057,-0.028617,0.839726,-0.361912,-0.338545,0.704618,-0.110885,0.375715,44.347576,-24.313553,-7.058229,0.482877,2.104903,-0.110001,0.000000,0.000000,0.000000,0.000000,0.000000,0.000000
11843632.000000,-2.357378,-1.663200,1.127296,-1.402542,1.744873,1.174072,-0.566894,0.364909,-0.028359,0.835996,-0.369506,-0.334948,0.712749,-0.107405,0.451093,44.395184,-24.289749,-6.859865,0.506681,1.930038,-0.208878,0.000000,0.000000,0.000000,0.000000,0.000000,0.000000
11843633.000000,-2.357003,-1.663221,1.128148,-1.402929,1.744540,1.174786,-0.567011,0.372255,-0.026465,0.836414,-0.374454,-0.331229,0.708954,-0.112070,0.526471,44.371380,-24.412735,-6.538515,0.530485,1.800033,-0.130143,0.000000,0.000000,0.000000,0.000000,0.000000,0.000000
11843634.000000,-2.356626,-1.663248,1.128971,-1.403323,1.744223,1.175506,-0.567118,0.373317,-0.023330,0.833350,-0.380076,-0.334663,0.708429,-0.105419,0.474897,44.395184,-24.341324,-6.141786,0.494779,1.851302,-0.182328,0.000000,0.000000,0.000000,0.000000,0.000000,0.000000
11843635.000000,-2.356242,-1.663269,1.129809,-1.403720,1.743889,1.176234,-0.567230,0.380539,-0.023055,0.830007,-0.387773,-0.335942,0.710601,-0.107007,0.328107,44.371380,-24.388931,-5.820436,0.488370,1.844894,-0.196061,0.000000,0.000000,0.000000,0.000000,0.000000,0.000000
11843636.000000,-2.355865,-1.663288,1.130638,-1.404109,1.743554,1.176952,-0.567349,0.381660,-0.022833,0.830993,-0.399187,-0.334198,0.708316,-0.111127,0.351911,44.347576,-24.436539,-5.598268,0.547880,1.825668,-0.130143,0.000000,0.000000,0.000000,0.000000,0.000000,0.000000
11843637.000000,-2.355494,-1.663303,1.131467,-1.404501,1.743237,1.177664,-0.567449,0.377040,-0.017956,0.831176,-0.396132,-0.330727,0.708594,-0.108777,0.375715,44.248394,-24.464310,-5.427675,0.547880,1.962081,-0.196061,0.000000,0.000000,0.000000,0.000000,0.000000,0.000000
11843638.000000,-2.355116,-1.663314,1.132308,-1.404894,1.742922,1.178359,-0.567565,0.380449,-0.013930,0.826492,-0.393882,-0.326961,0.699889,-0.115940,0.351911,44.125408,-24.559525,-5.253114,0.530485,2.150680,-0.142960,0.000000,0.000000,0.000000,0.000000,0.000000,0.000000
11843639.000000,-2.354743,-1.663332,1.133133,-1.405284,1.742595,1.179081,-0.567668,0.377112,-0.016021,0.828370,-0.392697,-0.326805,0.704474,-0.114941,0.276533,44.077801,-24.706314,-5.078554,0.571683,2.169906,-0.149369,0.000000,0.000000,0.000000,0.000000,0.000000,0.000000
11843640.000000,-2.354373,-1.663342,1.133969,-1.405674,1.742268,1.179812,-0.567768,0.370035,-0.012762,0.827113,-0.394075,-0.332394,0.716156,-0.107261,0.403486,43.954815,-24.829300,-4.931764,0.644010,2.047225,-0.215287,0.000000,0.000000,0.000000,0.000000,0.000000,0.000000
11843641.000000,-2.353988,-1.663355,1.134785,-1.406075,1.741948,1.180537,-0.567883,0.373035,-0.011421,0.822407,-0.393307,-0.324030,0.719117,-0.107009,0.328107,43.879436,-24.880875,-4.757204,0.644010,1.988631,-0.142960,0.000000,0.000000,0.000000,0.000000,0.000000,0.000000
11843642.000000,-2.353614,-1.663359,1.135608,-1.406462,1.741624,1.181258,-0.567988,0.370175,-0.008687,0.817676,-0.388565,-0.325636,0.721914,-0.106080,0.351911,43.732647,-24.880875,-4.610414,0.703519,2.001449,-0.202470,0.000000,0.000000,0.000000,0.000000,0.000000,0.000000
11843643.000000,-2.353241,-1.663370,1.136435,-1.406860,1.741296,1.181978,-0.568097,0.369797,-0.008609,0.815599,-0.390755,-0.319670,0.718413,-0.108529,0.403486,43.661236,-24.928482,-4.463624,0.709928,1.968490,-0.188737,0.000000,0.000000,0.000000,0.000000,0.000000,0.000000
11843644.000000,-2.352872,-1.663372,1.137240,-1.407233,1.740975,1.182694,-0.568206,0.373764,-0.006215,0.809783,-0.381839,-0.314338,0.718773,-0.105735,0.427289,43.490643,-24.805496,-4.535036,0.691617,1.936446,-0.169511,0.000000,0.000000,0.000000,0.000000,0.000000,0.000000
11843645.000000,-2.352503,-1.663376,1.138047,-1.407623,1.740669,1.183410,-0.568311,0.369407,-0.006193,0.802998,-0.380660,-0.309184,0.715783,-0.102408,0.502668,43.391460,-24.634903,-4.511232,0.637601,1.968490,-0.175919,0.000000,0.000000,0.000000,0.000000,0.000000,0.000000
11843646.000000,-2.352130,-1.663374,1.138850,-1.408002,1.740358,1.184123,-0.568413,0.370878,-0.003954,0.802424,-0.375270,-0.310631,0.718943,-0.099364,0.550275,43.197063,-24.535721,-4.562807,0.608304,2.027084,-0.202470,0.000000,0.000000,0.000000,0.000000,0.000000,0.000000
11843647.000000,-2.351765,-1.663374,1.139665,-1.408379,1.740048,1.184841,-0.568520,0.364824,-0.003504,0.800502,-0.375867,-0.312338,0.716381,-0.098583,0.601850,43.050274,-24.535721,-4.562807,0.578092,2.092086,-0.188737,0.000000,0.000000,0.000000,0.000000,0.000000,0.000000
11843648.000000,-2.351397,-1.663365,1.140472,-1.408767,1.739734,1.185576,-0.568627,0.366634,-0.000318,0.795209,-0.375933,-0.309717,0.716129,-0.098006,0.625654,42.780499,-24.388931,-4.412050,0.571683,2.112228,-0.175919,0.000000,0.000000,0.000000,0.000000,0.000000,0.000000
11843649.000000,-2.351013,-1.663359,1.141273,-1.409142,1.739427,1.186308,-0.568727,0.375903,0.003324,0.792792,-0.378319,-0.304170,0.725092,-0.101153,0.502668,42.582134,-24.412735,-4.312868,0.601896,2.020675,-0.196061,0.000000,0.000000,0.000000,0.000000,0.000000,0.000000
11843650.000000,-2.350640,-1.663347,1.142084,-1.409527,1.739118,1.187039,-0.568833,0.373975,0.007605,0.796133,-0.378391,-0.310699,0.719247,-0.100760,0.451093,42.316326,-24.436539,-4.142274,0.661405,1.949264,-0.155778,0.000000,0.000000,0.000000,0.000000,0.000000,0.000000
11843651.000000,-2.350264,-1.663340,1.142906,-1.409903,1.738810,1.187764,-0.568933,0.375408,0.005925,0.799768,-0.379981,-0.302874,0.722845,-0.102500,0.403486,42.117962,-24.658707,-4.043092,0.655912,1.968490,-0.163102,0.000000,0.000000,0.000000,0.000000,0.000000,0.000000
11843652.000000,-2.349898,-1.663334,1.143708,-1.410274,1.738511,1.188488,-0.569036,0.367318,0.003584,0.800094,-0.377750,-0.304634,0.725666,-0.100226,0.427289,41.971172,-24.757889,-3.967714,0.637601,1.974899,-0.169511,0.000000,0.000000,0.000000,0.000000,0.000000,0.000000
11843653.000000,-2.349535,-1.663331,1.144510,-1.410646,1.738220,1.189209,-0.569143,0.360525,0.001285,0.793990,-0.374400,-0.299012,0.722172,-0.099146,0.550275,41.848186,-24.781693,-3.920107,0.632108,2.007858,-0.155778,0.000000,0.000000,0.000000,0.000000,0.000000,0.000000
11843654.000000,-2.349178,-1.663331,1.145309,-1.411010,1.737926,1.189907,-0.569239,0.359543,0.000546,0.796020,-0.378166,-0.300149,0.715677,-0.100881,0.748639,41.824383,-24.904678,-3.943910,0.649503,2.150680,-0.202470,0.000000,0.000000,0.000000,0.000000,0.000000,0.000000
11843655.000000,-2.348823,-1.663326,1.146112,-1.411378,1.737642,1.190608,-0.569346,0.353518,0.000828,0.793194,-0.373174,-0.297538,0.705240,-0.099422,0.947004,41.776775,-25.003860,-3.868532,0.571683,2.300826,-0.182328,0.000000,0.000000,0.000000,0.000000,0.000000,0.000000
11843656.000000,-2.348470,-1.663333,1.146904,-1.411741,1.737348,1.191310,-0.569450,0.349518,-0.002256,0.789410,-0.369296,-0.295679,0.703153,-0.103101,1.121564,41.875957,-24.857071,-3.920107,0.613798,2.339278,-0.163102,0.000000,0.000000,0.000000,0.000000,0.000000,0.000000
11843657.000000,-2.348124,-1.663337,1.147679,-1.412110,1.737056,1.192031,-0.569548,0.352739,-0.003540,0.787847,-0.368571,-0.289044,0.708121,-0.104323,1.292158,41.947369,-24.706314,-3.769350,0.649503,2.190048,-0.196061,0.000000,0.000000,0.000000,0.000000,0.000000,0.000000
11843658.000000,-2.347768,-1.663343,1.148469,-1.412481,1.736777,1.192766,-0.569654,0.350379,-0.004398,0.789042,-0.369852,-0.286814,0.714215,-0.107504,1.415143,42.022747,-24.611099,-3.646364,0.632108,2.066451,-0.169511,0.000000,0.000000,0.000000,0.000000,0.000000,0.000000
11843659.000000,-2.347412,-1.663341,1.149239,-1.412845,1.736484,1.193483,-0.569756,0.351918,-0.002488,0.775922,-0.363916,-0.290066,0.722915,-0.108824,1.514325,41.994976,-24.436539,-3.570986,0.637601,1.974899,-0.169511,0.000000,0.000000,0.000000,0.000000,0.000000,0.000000
11843660.000000,-2.347068,-1.663339,1.150022,-1.413204,1.736197,1.194199,-0.569857,0.348356,-0.001256,0.779911,-0.363446,-0.288909,0.721919,-0.100224,1.665082,41.971172,-24.242142,-3.448000,0.649503,1.936446,-0.175919,0.000000,0.000000,0.000000,0.000000,0.000000,0.000000
11843661.000000,-2.346727,-1.663343,1.150797,-1.413561,1.735911,1.194931,-0.569958,0.346120,-0.002160,0.776513,-0.359767,-0.283532,0.723389,-0.099033,1.835676,42.022747,-23.920792,-3.448000,0.667814,1.851302,-0.169511,0.000000,0.000000,0.000000,0.000000,0.000000,0.000000
11843662.000000,-2.346383,-1.663339,1.151558,-1.413913,1.735633,1.195646,-0.570056,0.343911,-0.000320,0.777560,-0.354606,-0.282713,0.717900,-0.099108,2.010236,41.971172,-23.603409,-3.448000,0.649503,1.812850,-0.136552,0.000000,0.000000,0.000000,0.000000,0.000000,0.000000
11843663.000000,-2.346047,-1.663332,1.152334,-1.414265,1.735353,1.196371,-0.570148,0.339173,0.001949,0.774645,-0.355518,-0.281246,0.715392,-0.099457,2.184797,41.875957,-23.432816,-3.523378,0.601896,1.825668,-0.163102,0.000000,0.000000,0.000000,0.000000,0.000000,0.000000
11843664.000000,-2.345704,-1.663322,1.153098,-1.414624,1.735064,1.197086,-0.570240,0.341721,0.004684,0.787921,-0.349774,-0.281045,0.715906,-0.096604,2.359357,41.729168,-23.286026,-3.475771,0.596403,1.819259,-0.202470,0.000000,0.000000,0.000000,0.000000,0.000000,0.000000
11843665.000000,-2.345361,-1.663306,1.153865,-1.414978,1.734781,1.197830,-0.570343,0.339084,0.013937,0.780478,-0.352349,-0.281991,0.720262,-0.097553,2.430768,41.530804,-23.111465,-3.400392,0.601896,1.702071,-0.163102,0.000000,0.000000,0.000000,0.000000,0.000000,0.000000
11843666.000000,-2.345016,-1.663295,1.154638,-1.415343,1.734497,1.198567,-0.570438,0.336462,0.013215,0.773117,-0.355420,-0.279476,0.725050,-0.100086,2.430768,41.384014,-23.040054,-3.225832,0.649503,1.662704,-0.182328,0.000000,0.000000,0.000000,0.000000,0.000000,0.000000
11843667.000000,-2.344662,-1.663275,1.155394,-1.415696,1.734213,1.199283,-0.570533,0.344911,0.018086,0.763283,-0.356482,-0.282075,0.719024,-0.098522,2.383161,41.138042,-22.893265,-3.126650,0.698026,1.637069,-0.188737,0.000000,0.000000,0.000000,0.000000,0.000000,0.000000
11843668.000000,-2.344317,-1.663258,1.156170,-1.416051,1.733927,1.200013,-0.570629,0.342136,0.018257,0.762336,-0.352417,-0.283660,0.719845,-0.097044,2.359357,40.896038,-22.964676,-3.102846,0.733732,1.670028,-0.196061,0.000000,0.000000,0.000000,0.000000,0.000000,0.000000
11843669.000000,-2.343965,-1.663236,1.156947,-1.416403,1.733652,1.200737,-0.570722,0.345697,0.018329,0.769064,-0.349310,-0.281665,0.717653,-0.100798,2.307783,40.650066,-22.964676,-3.079042,0.698026,1.611434,-0.188737,0.000000,0.000000,0.000000,0.000000,0.000000,0.000000
11843670.000000,-2.343618,-1.663215,1.157702,-1.416747,1.733385,1.201467,-0.570819,0.339968,0.021364,0.760460,-0.345096,-0.275670,0.718722,-0.095198,2.232404,40.404095,-22.865494,-3.154421,0.649503,1.565658,-0.169511,0.000000,0.000000,0.000000,0.000000,0.000000,0.000000
11843671.000000,-2.343270,-1.663197,1.158471,-1.417094,1.733116,1.202183,-0.570912,0.337078,0.018161,0.758294,-0.339423,-0.272997,0.717510,-0.093975,2.184797,40.257305,-22.865494,-3.178224,0.649503,1.695663,-0.196061,0.000000,0.000000,0.000000,0.000000,0.000000,0.000000
11843672.000000,-2.342918,-1.663177,1.159229,-1.417440,1.732851,1.202874,-0.571008,0.344358,0.020153,0.756654,-0.343562,-0.272115,0.709153,-0.089639,2.133222,40.062908,-22.940872,-3.154421,0.559781,1.923629,-0.188737,0.000000,0.000000,0.000000,0.000000,0.000000,0.000000
11843673.000000,-2.342566,-1.663154,1.159995,-1.417790,1.732583,1.203595,-0.571106,0.342210,0.021003,0.758952,-0.344208,-0.270678,0.705034,-0.091350,2.034040,39.892315,-22.964676,-3.079042,0.559781,1.962081,-0.169511,0.000000,0.000000,0.000000,0.000000,0.000000,0.000000
11843674.000000,-2.342214,-1.663135,1.160760,-1.418132,1.732314,1.204325,-0.571203,0.345192,0.020588,0.757638,-0.343837,-0.269403,0.712271,-0.092175,1.986432,39.769329,-22.940872,-3.027467,0.566190,1.877853,-0.163102,0.000000,0.000000,0.000000,0.000000,0.000000,0.000000
11843675.000000,-2.341862,-1.663110,1.161521,-1.418460,1.732052,1.205057,-0.571291,0.347521,0.022072,0.764510,-0.339706,-0.262636,0.724145,-0.092260,1.811872,39.574932,-22.988480,-3.154421,0.542386,1.741439,-0.175919,0.000000,0.000000,0.000000,0.000000,0.000000,0.000000
11843676.000000,-2.341507,-1.663084,1.162286,-1.418799,1.731789,1.205780,-0.571381,0.346975,0.023898,0.763537,-0.337922,-0.259118,0.724947,-0.091413,1.712690,39.352764,-22.964676,-3.102846,0.559781,1.754256,-0.208878,0.000000,0.000000,0.000000,0.000000,0.000000,0.000000
11843677.000000,-2.341153,-1.663067,1.163033,-1.419125,1.731522,1.206490,-0.571480,0.347609,0.021510,0.751627,-0.330776,-0.260347,0.718149,-0.090010,1.688886,39.281353,-22.865494,-3.301210,0.571683,1.767074,-0.142960,0.000000,0.000000,0.000000,0.000000,0.000000,0.000000
11843678.000000,-2.340797,-1.663049,1.163779,-1.419447,1.731261,1.207209,-0.571564,0.347634,0.020112,0.749893,-0.324740,-0.257658,0.716888,-0.088195,1.565900,39.205975,-22.595718,-3.400392,0.596403,1.773483,-0.215287,0.000000,0.000000,0.000000,0.000000,0.000000,0.000000
11843679.000000,-2.340445,-1.663028,1.164533,-1.419765,1.731003,1.207916,-0.571662,0.348338,0.020393,0.746794,-0.322310,-0.255512,0.704790,-0.091068,1.542096,39.082989,-22.401321,-3.523378,0.620206,1.851302,-0.182328,0.000000,0.000000,0.000000,0.000000,0.000000,0.000000
11843680.000000,-2.340082,-1.663007,1.165279,-1.420077,1.730756,1.208617,-0.571754,0.354047,0.021163,0.746523,-0.317041,-0.250198,0.696440,-0.090957,1.315961,38.936199,-22.278336,-3.697939,0.547880,1.916305,-0.208878,0.000000,0.000000,0.000000,0.000000,0.000000,0.000000
11843681.000000,-2.339727,-1.662986,1.166040,-1.420391,1.730513,1.209332,-0.571850,0.352204,0.020585,0.749113,-0.311251,-0.244307,0.698856,-0.092897,1.216779,38.837017,-22.278336,-3.820925,0.416959,1.838485,-0.175919,0.000000,0.000000,0.000000,0.000000,0.000000,0.000000
11843682.000000,-2.339361,-1.662967,1.166789,-1.420710,1.730252,1.210053,-0.571943,0.354724,0.019564,0.761495,-0.313270,-0.243470,0.705580,-0.092716,0.994611,38.765606,-22.230728,-3.943910,0.386747,1.662704,-0.163102,0.000000,0.000000,0.000000,0.000000,0.000000,0.000000
11843683.000000,-2.339002,-1.662951,1.167547,-1.421024,1.729993,1.210776,-0.572027,0.355251,0.017796,0.763831,-0.313686,-0.250880,0.712227,-0.086725,0.847822,38.741802,-22.230728,-3.967714,0.428861,1.546432,-0.202470,0.000000,0.000000,0.000000,0.000000,0.000000,0.000000
11843684.000000,-2.338637,-1.662938,1.168316,-1.421327,1.729744,1.211468,-0.572122,0.357979,0.018057,0.763137,-0.310813,-0.248011,0.702310,-0.090485,0.649457,38.789410,-22.302139,-4.090700,0.381254,1.708480,-0.155778,0.000000,0.000000,0.000000,0.000000,0.000000,0.000000
11843685.000000,-2.338274,-1.662925,1.169066,-1.421627,1.729489,1.212161,-0.572211,0.362777,0.016495,0.762312,-0.313934,-0.247966,0.697384,-0.090506,0.474897,38.789410,-22.353714,-4.213686,0.393156,1.832076,-0.175919,0.000000,0.000000,0.000000,0.000000,0.000000,0.000000
11843686.000000,-2.337918,-1.662920,1.169822,-1.421925,1.729231,1.212876,-0.572298,0.358665,0.012430,0.760201,-0.305558,-0.252718,0.693645,-0.091025,0.375715,38.912395,-22.377518,-4.340639,0.398649,1.773483,-0.182328,0.000000,0.000000,0.000000,0.000000,0.000000,0.000000
11843687.000000,-2.337561,-1.662907,1.170577,-1.422214,1.728969,1.213585,-0.572387,0.357057,0.012079,0.755842,-0.299149,-0.251567,0.712011,-0.092323,0.328107,38.936199,-22.401321,-4.610414,0.428861,1.714889,-0.155778,0.000000,0.000000,0.000000,0.000000,0.000000,0.000000
11843688.000000,-2.337201,-1.662900,1.171330,-1.422510,1.728716,1.214279,-0.572468,0.357588,0.006883,0.755126,-0.297052,-0.250103,0.705456,-0.086067,0.205121,39.035381,-22.524307,-4.634218,0.434354,1.800033,-0.208878,0.000000,0.000000,0.000000,0.000000,0.000000,0.000000
11843689.000000,-2.336844,-1.662893,1.172086,-1.422791,1.728476,1.214971,-0.572563,0.349375,0.007392,0.753714,-0.288776,-0.241949,0.697073,-0.090043,0.129743,39.082989,-22.548111,-4.784975,0.369352,1.968490,-0.155778,0.000000,0.000000,0.000000,0.000000,0.000000,0.000000
11843690.000000,-2.336478,-1.662894,1.172825,-1.423078,1.728215,1.215673,-0.572646,0.355327,0.001190,0.751904,-0.289261,-0.247186,0.699340,-0.084564,-0.017047,39.281353,-22.448929,-4.808778,0.488370,1.930038,-0.202470,0.000000,0.000000,0.000000,0.000000,0.000000,0.000000
11843691.000000,-2.336125,-1.662896,1.173569,-1.423360,1.727963,1.216386,-0.572731,0.351060,-0.001964,0.753864,-0.287099,-0.251211,0.702839,-0.081641,-0.044818,39.428143,-22.278336,-4.931764,0.482877,1.806442,-0.208878,0.000000,0.000000,0.000000,0.000000,0.000000,0.000000
11843692.000000,-2.335766,-1.662892,1.174327,-1.423633,1.727714,1.217097,-0.572828,0.354043,0.000037,0.752188,-0.281093,-0.247154,0.701649,-0.082582,-0.092425,39.523357,-22.325943,-5.078554,0.416959,1.812850,-0.142960,0.000000,0.000000,0.000000,0.000000,0.000000,0.000000
11843693.000000,-2.335407,-1.662890,1.175069,-1.423911,1.727461,1.217798,-0.572911,0.356932,-0.002216,0.751907,-0.278525,-0.245853,0.703382,-0.078981,-0.144000,39.646343,-22.278336,-5.177736,0.393156,1.754256,-0.188737,0.000000,0.000000,0.000000,0.000000,0.000000,0.000000
11843694.000000,-2.335065,-1.662895,1.175809,-1.424182,1.727223,1.218524,-0.573002,0.348359,-0.001788,0.744251,-0.278326,-0.243919,0.709137,-0.084207,-0.116229,39.816936,-22.107742,-5.328493,0.339139,1.643478,-0.149369,0.000000,0.000000,0.000000,0.000000,0.000000,0.000000
11843695.000000,-2.334714,-1.662901,1.176541,-1.424448,1.726978,1.219235,-0.573082,0.348673,-0.002609,0.741827,-0.274792,-0.244062,0.713912,-0.079954,-0.116229,40.039104,-21.861771,-5.499086,0.339139,1.565658,-0.202470,0.000000,0.000000,0.000000,0.000000,0.000000,0.000000
11843696.000000,-2.334367,-1.662901,1.177288,-1.424707,1.726739,1.219950,-0.573175,0.345333,-0.003235,0.740526,-0.271553,-0.242801,0.709041,-0.081131,-0.116229,40.134319,-21.762589,-5.697450,0.291532,1.578475,-0.142960,0.000000,0.000000,0.000000,0.000000,0.000000,0.000000
11843697.000000,-2.334011,-1.662902,1.178037,-1.424971,1.726493,1.220657,-0.573262,0.347628,-0.001758,0.740716,-0.266883,-0.244145,0.707721,-0.084372,-0.167803,40.281109,-21.591995,-5.848207,0.303434,1.649886,-0.142960,0.000000,0.000000,0.000000,0.000000,0.000000,0.000000
11843698.000000,-2.333658,-1.662897,1.178770,-1.425225,1.726248,1.221358,-0.573344,0.347006,0.001918,0.738488,-0.263741,-0.245721,0.706046,-0.085611,-0.243182,40.308880,-21.445206,-5.994997,0.332731,1.624252,-0.175919,0.000000,0.000000,0.000000,0.000000,0.000000,0.000000
11843699.000000,-2.333310,-1.662892,1.179512,-1.425486,1.726014,1.222093,-0.573430,0.344186,0.005219,0.733220,-0.261588,-0.236590,0.708100,-0.086921,-0.366168,40.308880,-21.322220,-6.141786,0.339139,1.474105,-0.155778,0.000000,0.000000,0.000000,0.000000,0.000000,0.000000
11843700.000000,-2.332959,-1.662891,1.180256,-1.425752,1.725782,1.222802,-0.573512,0.347038,0.004320,0.752860,-0.262135,-0.232655,0.710506,-0.086938,-0.441546,40.308880,-21.393631,-6.193361,0.315336,1.448470,-0.182328,0.000000,0.000000,0.000000,0.000000,0.000000,0.000000
11843701.000000,-2.332604,-1.662880,1.181003,-1.426013,1.725547,1.223521,-0.573598,0.344420,0.006387,0.755804,-0.261530,-0.238166,0.704973,-0.085378,-0.612139,40.185894,-21.346024,-6.141786,0.285123,1.500655,-0.149369,0.000000,0.000000,0.000000,0.000000,0.000000,0.000000
11843702.000000,-2.332252,-1.662869,1.181761,-1.426274,1.725310,1.224236,-0.573670,0.339934,0.008721,0.754472,-0.261644,-0.233666,0.708191,-0.085248,-0.663714,40.015301,-21.445206,-6.169557,0.237516,1.611434,-0.208878,0.000000,0.000000,0.000000,0.000000,0.000000,0.000000
11843703.000000,-2.331906,-1.662857,1.182505,-1.426536,1.725071,1.224948,-0.573755,0.339095,0.010252,0.756349,-0.262681,-0.237291,0.710020,-0.084443,-0.687518,39.840740,-21.492813,-6.117982,0.255826,1.637069,-0.169511,0.000000,0.000000,0.000000,0.000000,0.000000,0.000000
11843704.000000,-2.331560,-1.662845,1.183263,-1.426796,1.724842,1.225668,-0.573839,0.337389,0.010534,0.752554,-0.257408,-0.234548,0.710384,-0.078043,-0.762896,39.693951,-21.639603,-6.094179,0.249418,1.649886,-0.149369,0.000000,0.000000,0.000000,0.000000,0.000000,0.000000
11843705.000000,-2.331212,-1.662832,1.184023,-1.427059,1.724612,1.226377,-0.573915,0.339992,0.010656,0.754264,-0.258975,-0.227610,0.718616,-0.079834,-0.762896,39.547161,-21.786392,-6.094179,0.249418,1.624252,-0.196061,0.000000,0.000000,0.000000,0.000000,0.000000,0.000000
11843706.000000,-2.330867,-1.662818,1.184782,-1.427324,1.724382,1.227092,-0.574000,0.343536,0.010687,0.753325,-0.259645,-0.232466,0.714948,-0.078884,-0.786700,39.400372,-22.032364,-5.994997,0.249418,1.714889,-0.163102,0.000000,0.000000,0.000000,0.000000,0.000000,0.000000
11843707.000000,-2.330520,-1.662808,1.185548,-1.427585,1.724141,1.227805,-0.574085,0.341694,0.012078,0.753787,-0.257216,-0.237531,0.713836,-0.077070,-0.909686,39.328960,-22.254532,-5.994997,0.291532,1.760665,-0.188737,0.000000,0.000000,0.000000,0.000000,0.000000,0.000000
11843708.000000,-2.330185,-1.662800,1.186294,-1.427852,1.723908,1.228495,-0.574174,0.340192,0.011567,0.753515,-0.260544,-0.239444,0.707477,-0.083050,-0.885882,39.328960,-22.278336,-5.919618,0.303434,1.844894,-0.142960,0.000000,0.000000,0.000000,0.000000,0.000000,0.000000
11843709.000000,-2.329849,-1.662792,1.187057,-1.428117,1.723683,1.229194,-0.574255,0.335990,0.010854,0.758212,-0.259324,-0.231885,0.708533,-0.079503,-0.862078,39.352764,-22.425125,-5.872011,0.308927,1.877853,-0.182328,0.000000,0.000000,0.000000,0.000000,0.000000,0.000000
11843710.000000,-2.329517,-1.662785,1.187826,-1.428385,1.723459,1.229891,-0.574337,0.333330,0.007894,0.756286,-0.261072,-0.228263,0.700724,-0.083082,-0.735125,39.352764,-22.548111,-5.820436,0.243009,1.916305,-0.188737,0.000000,0.000000,0.000000,0.000000,0.000000,0.000000
11843711.000000,-2.329179,-1.662780,1.188575,-1.428648,1.723229,1.230587,-0.574421,0.333317,0.007816,0.759857,-0.264711,-0.226412,0.696442,-0.086682,-0.687518,39.400372,-22.595718,-5.820436,0.207303,1.897079,-0.169511,0.000000,0.000000,0.000000,0.000000,0.000000,0.000000
11843712.000000,-2.328852,-1.662774,1.189331,-1.428928,1.722990,1.231283,-0.574504,0.329367,0.005196,0.759353,-0.266268,-0.231966,0.692940,-0.083063,-0.588336,39.428143,-22.548111,-5.749025,0.219205,1.851302,-0.188737,0.000000,0.000000,0.000000,0.000000,0.000000,0.000000
11843713.000000,-2.328523,-1.662763,1.190071,-1.429213,1.722752,1.231975,-0.574587,0.327586,0.003940,0.740920,-0.269664,-0.235803,0.694877,-0.081439,-0.540728,39.428143,-22.401321,-5.574464,0.237516,1.844894,-0.182328,0.000000,0.000000,0.000000,0.000000,0.000000,0.000000
11843714.000000,-2.328194,-1.662756,1.190830,-1.429494,1.722517,1.232668,-0.574666,0.325613,0.002984,0.747664,-0.273858,-0.239182,0.695020,-0.083831,-0.489153,39.428143,-22.377518,-5.451478,0.261320,1.871444,-0.202470,0.000000,0.000000,0.000000,0.000000,0.000000,0.000000
11843715.000000,-2.327862,-1.662744,1.191595,-1.429780,1.722287,1.233361,-0.574754,0.326699,0.005424,0.755463,-0.276268,-0.236031,0.693636,-0.083784,-0.389971,39.428143,-22.401321,-5.328493,0.261320,1.930038,-0.149369,0.000000,0.000000,0.000000,0.000000,0.000000,0.000000
11843716.000000,-2.327538,-1.662734,1.192347,-1.430068,1.722045,1.234063,-0.574831,0.328506,0.004730,0.756521,-0.280576,-0.235300,0.704920,-0.084873,-0.215411,39.400372,-22.448929,-5.130128,0.303434,1.786300,-0.188737,0.000000,0.000000,0.000000,0.000000,0.000000,0.000000
11843717.000000,-2.327215,-1.662729,1.193110,-1.430361,1.721808,1.234775,-0.574915,0.323913,0.005355,0.750918,-0.282991,-0.238348,0.701993,-0.083123,-0.116229,39.451946,-22.548111,-4.955568,0.320829,1.643478,-0.169511,0.000000,0.000000,0.000000,0.000000,0.000000,0.000000
11843718.000000,-2.326893,-1.662720,1.193872,-1.430663,1.721568,1.235460,-0.574992,0.322419,0.004643,0.753744,-0.287067,-0.236339,0.699780,-0.084527,-0.068621,39.428143,-22.770279,-4.685792,0.362943,1.676437,-0.182328,0.000000,0.000000,0.000000,0.000000,0.000000,0.000000
11843719.000000,-2.326574,-1.662708,1.194637,-1.430955,1.721338,1.236128,-0.575070,0.319010,0.008426,0.755453,-0.288558,-0.241110,0.679817,-0.081618,-0.017047,39.352764,-22.865494,-4.463624,0.351041,1.930038,-0.202470,0.000000,0.000000,0.000000,0.000000,0.000000,0.000000
11843720.000000,-2.326258,-1.662703,1.195409,-1.431254,1.721102,1.236829,-0.575153,0.317291,0.008690,0.754691,-0.292187,-0.244054,0.683049,-0.081923,0.177350,39.376568,-23.040054,-4.241457,0.398649,1.968490,-0.155778,0.000000,0.000000,0.000000,0.000000,0.000000,0.000000
11843721.000000,-2.325933,-1.662703,1.196169,-1.431550,1.720870,1.237520,-0.575226,0.323070,0.005259,0.756636,-0.298895,-0.239535,0.688915,-0.082380,0.205121,39.428143,-23.186844,-4.066896,0.410551,1.949264,-0.221696,0.000000,0.000000,0.000000,0.000000,0.000000,0.000000
11843722.000000,-2.325621,-1.662702,1.196943,-1.431843,1.720638,1.238217,-0.575314,0.315272,0.002897,0.760757,-0.295178,-0.240338,0.686134,-0.087391,0.328107,39.475750,-23.432816,-3.943910,0.398649,1.936446,-0.163102,0.000000,0.000000,0.000000,0.000000,0.000000,0.000000
11843723.000000,-2.325312,-1.662704,1.197724,-1.432148,1.720406,1.238910,-0.575393,0.312679,-0.000010,0.763966,-0.299668,-0.235986,0.687300,-0.089049,0.451093,39.574932,-23.678787,-3.769350,0.381254,1.995040,-0.149369,0.000000,0.000000,0.000000,0.000000,0.000000,0.000000
11843724.000000,-2.324999,-1.662707,1.198475,-1.432443,1.720165,1.239598,-0.575468,0.313349,-0.001393,0.757571,-0.297889,-0.235711,0.687092,-0.083580,0.474897,39.646343,-23.702591,-3.697939,0.434354,1.949264,-0.202470,0.000000,0.000000,0.000000,0.000000,0.000000,0.000000
11843725.000000,-2.324688,-1.662717,1.199229,-1.432742,1.719927,1.240300,-0.575553,0.308627,-0.004150,0.751852,-0.294303,-0.241148,0.686198,-0.082780,0.601850,39.793133,-23.603409,-3.570986,0.518583,1.909896,-0.163102,0.000000,0.000000,0.000000,0.000000,0.000000,0.000000
11843726.000000,-2.324363,-1.662725,1.199984,-1.433042,1.719700,1.240973,-0.575628,0.315077,-0.005484,0.754051,-0.296849,-0.236992,0.681778,-0.079632,0.526471,39.916119,-23.678787,-3.523378,0.530485,1.974899,-0.196061,0.000000,0.000000,0.000000,0.000000,0.000000,0.000000
11843727.000000,-2.324060,-1.662732,1.200741,-1.433338,1.719473,1.241666,-0.575709,0.305107,-0.005207,0.761643,-0.298606,-0.238181,0.678665,-0.084399,0.673261,39.987530,-23.678787,-3.475771,0.506681,2.033492,-0.163102,0.000000,0.000000,0.000000,0.000000,0.000000,0.000000
11843728.000000,-2.323755,-1.662737,1.201496,-1.433624,1.719241,1.242369,-0.575785,0.305906,-0.004588,0.756316,-0.295573,-0.234786,0.682995,-0.080954,0.748639,40.039104,-23.528030,-3.598757,0.500272,1.942855,-0.196061,0.000000,0.000000,0.000000,0.000000,0.000000,0.000000
11843729.000000,-2.323452,-1.662748,1.202233,-1.433918,1.719011,1.243068,-0.575863,0.307269,-0.005868,0.752125,-0.293245,-0.228815,0.689855,-0.080845,0.923200,40.162090,-23.309830,-3.622560,0.524076,1.851302,-0.163102,0.000000,0.000000,0.000000,0.000000,0.000000,0.000000
11843730.000000,-2.323149,-1.662752,1.202988,-1.434214,1.718793,1.243771,-0.575937,0.303812,-0.004975,0.749187,-0.293152,-0.226262,0.690272,-0.082314,1.046186,40.209698,-23.210648,-3.598757,0.476469,1.838485,-0.208878,0.000000,0.000000,0.000000,0.000000,0.000000,0.000000
11843731.000000,-2.322837,-1.662755,1.203726,-1.434510,1.718575,1.244457,-0.576012,0.307124,-0.004392,0.730513,-0.293463,-0.219965,0.688866,-0.080883,1.046186,40.257305,-23.040054,-3.547182,0.446256,1.916305,-0.202470,0.000000,0.000000,0.000000,0.000000,0.000000,0.000000
11843732.000000,-2.322535,-1.662756,1.204473,-1.434809,1.718353,1.245172,-0.576094,0.297547,-0.005544,0.730475,-0.296427,-0.223092,0.693706,-0.081604,1.121564,40.233501,-22.865494,-3.376589,0.482877,1.851302,-0.149369,0.000000,0.000000,0.000000,0.000000,0.000000,0.000000
11843733.000000,-2.322229,-1.662755,1.205223,-1.435100,1.718133,1.245893,-0.576163,0.299413,-0.003384,0.730213,-0.291786,-0.218641,0.696187,-0.072760,1.121564,40.209698,-22.718704,-3.325014,0.464567,1.682845,-0.215287,0.000000,0.000000,0.000000,0.000000,0.000000,0.000000
11843734.000000,-2.321924,-1.662747,1.205970,-1.435392,1.717911,1.246596,-0.576244,0.303230,0.000436,0.735094,-0.293897,-0.220853,0.698094,-0.076002,1.121564,40.086712,-22.742508,-3.202028,0.464567,1.637069,-0.149369,0.000000,0.000000,0.000000,0.000000,0.000000,0.000000
11843735.000000,-2.321616,-1.662735,1.206717,-1.435681,1.717700,1.247294,-0.576316,0.306639,0.004143,0.736828,-0.293378,-0.216992,0.690534,-0.075120,1.121564,39.916119,-22.671097,-3.154421,0.440763,1.676437,-0.155778,0.000000,0.000000,0.000000,0.000000,0.000000,0.000000
11843736.000000,-2.321307,-1.662726,1.207467,-1.435970,1.717481,1.247989,-0.576385,0.307682,0.005536,0.734646,-0.290763,-0.216830,0.701723,-0.073376,1.046186,39.793133,-22.623489,-3.079042,0.500272,1.695663,-0.182328,0.000000,0.000000,0.000000,0.000000,0.000000,0.000000
11843737.000000,-2.321003,-1.662715,1.208207,-1.436253,1.717267,1.248681,-0.576459,0.307610,0.006490,0.737097,-0.291329,-0.219964,0.703201,-0.074711,0.994611,39.670147,-22.647293,-3.027467,0.554288,1.760665,-0.163102,0.000000,0.000000,0.000000,0.000000,0.000000,0.000000
11843738.000000,-2.320696,-1.662699,1.208952,-1.436536,1.717053,1.249380,-0.576524,0.303888,0.009372,0.737389,-0.286361,-0.215587,0.700018,-0.072334,0.947004,39.451946,-22.647293,-3.055238,0.530485,1.819259,-0.221696,0.000000,0.000000,0.000000,0.000000,0.000000,0.000000
11843739.000000,-2.320390,-1.662689,1.209699,-1.436812,1.716839,1.250071,-0.576601,0.305231,0.009638,0.742141,-0.287753,-0.212815,0.699553,-0.070254,0.847822,39.305157,-22.742508,-3.027467,0.518583,1.832076,-0.175919,0.000000,0.000000,0.000000,0.000000,0.000000,0.000000
11843740.000000,-2.320089,-1.662680,1.210444,-1.437100,1.716633,1.250767,-0.576673,0.301560,0.009270,0.745883,-0.289043,-0.210008,0.694562,-0.071131,0.824018,39.182171,-22.770279,-2.979860,0.482877,1.793624,-0.182328,0.000000,0.000000,0.000000,0.000000,0.000000,0.000000
11843741.000000,-2.319782,-1.662671,1.211203,-1.437390,1.716425,1.251461,-0.576738,0.301476,0.009032,0.747850,-0.287829,-0.205251,0.692839,-0.070901,0.824018,39.059185,-22.940872,-2.880678,0.494779,1.754256,-0.208878,0.000000,0.000000,0.000000,0.000000,0.000000,0.000000
11843742.000000,-2.319466,-1.662661,1.211945,-1.437670,1.716218,1.252150,-0.576816,0.307875,0.008880,0.747112,-0.286658,-0.206162,0.688062,-0.073999,0.724836,38.936199,-23.111465,-2.805300,0.494779,1.800033,-0.149369,0.000000,0.000000,0.000000,0.000000,0.000000,0.000000
11843743.000000,-2.319167,-1.662651,1.212687,-1.437948,1.716021,1.252850,-0.576878,0.303166,0.008783,0.743298,-0.282736,-0.200854,0.688259,-0.072278,0.724836,38.813213,-23.087662,-2.833071,0.470060,1.838485,-0.202470,0.000000,0.000000,0.000000,0.000000,0.000000,0.000000
11843744.000000,-2.318871,-1.662645,1.213421,-1.438224,1.715815,1.253528,-0.576951,0.301592,0.006959,0.739739,-0.277593,-0.201900,0.689681,-0.073987,0.772443,38.765606,-23.087662,-2.856874,0.458158,1.871444,-0.182328,0.000000,0.000000,0.000000,0.000000,0.000000,0.000000
11843745.000000,-2.318574,-1.662639,1.214159,-1.438484,1.715609,1.254219,-0.577023,0.297584,0.006394,0.742395,-0.267543,-0.202393,0.686354,-0.074245,0.796247,38.690228,-23.016251,-3.003664,0.428861,1.897079,-0.182328,0.000000,0.000000,0.000000,0.000000,0.000000,0.000000
11843746.000000,-2.318280,-1.662627,1.214904,-1.438761,1.715403,1.254915,-0.577091,0.299489,0.007691,0.738816,-0.269815,-0.198768,0.690258,-0.069868,0.895429,38.543438,-22.964676,-3.003664,0.416959,1.884261,-0.182328,0.000000,0.000000,0.000000,0.000000,0.000000,0.000000
11843747.000000,-2.317978,-1.662620,1.215630,-1.439029,1.715196,1.255606,-0.577160,0.296676,0.006236,0.733918,-0.267873,-0.196432,0.694038,-0.065735,0.923200,38.495831,-22.841690,-3.027467,0.422452,1.838485,-0.202470,0.000000,0.000000,0.000000,0.000000,0.000000,0.000000
11843748.000000,-2.317680,-1.662609,1.216365,-1.439299,1.714990,1.256296,-0.577237,0.293934,0.007031,0.729655,-0.265331,-0.200056,0.687954,-0.069774,0.871625,38.372845,-22.742508,-2.979860,0.440763,1.858627,-0.155778,0.000000,0.000000,0.000000,0.000000,0.000000,0.000000
11843749.000000,-2.317389,-1.662602,1.217088,-1.439570,1.714786,1.256977,-0.577299,0.294969,0.005799,0.733546,-0.265476,-0.203593,0.687032,-0.069106,0.923200,38.325237,-22.595718,-2.956056,0.494779,1.825668,-0.208878,0.000000,0.000000,0.000000,0.000000,0.000000,0.000000
11843750.000000,-2.317096,-1.662589,1.217827,-1.439833,1.714582,1.257679,-0.577369,0.295983,0.008907,0.738189,-0.265824,-0.209447,0.686878,-0.066791,0.847822,38.249859,-22.548111,-2.928285,0.494779,1.773483,-0.188737,0.000000,0.000000,0.000000,0.000000,0.000000,0.000000
11843751.000000,-2.316803,-1.662584,1.218566,-1.440094,1.714377,1.258387,-0.577442,0.293733,0.008167,0.740332,-0.265348,-0.203151,0.689356,-0.066154,0.895429,38.301434,-22.500504,-2.904482,0.464567,1.662704,-0.136552,0.000000,0.000000,0.000000,0.000000,0.000000,0.000000
11843752.000000,-2.316510,-1.662577,1.219297,-1.440353,1.714174,1.259089,-0.577503,0.294619,0.008533,0.738242,-0.264333,-0.204029,0.694474,-0.066171,0.947004,38.325237,-22.500504,-2.928285,0.458158,1.572067,-0.196061,0.000000,0.000000,0.000000,0.000000,0.000000,0.000000
11843753.000000,-2.316221,-1.662569,1.220037,-1.440608,1.713981,1.259780,-0.577574,0.292573,0.008919,0.739491,-0.258273,-0.199240,0.691475,-0.069625,0.994611,38.349041,-22.595718,-3.055238,0.434354,1.624252,-0.163102,0.000000,0.000000,0.000000,0.000000,0.000000,0.000000
11843754.000000,-2.315927,-1.662564,1.220782,-1.440873,1.713784,1.260458,-0.577639,0.288730,0.008103,0.738649,-0.260671,-0.195460,0.694747,-0.068470,0.994611,38.424419,-22.623489,-3.027467,0.410551,1.727706,-0.208878,0.000000,0.000000,0.000000,0.000000,0.000000,0.000000
11843755.000000,-2.315640,-1.662563,1.221515,-1.441129,1.713586,1.261155,-0.577712,0.289035,0.006714,0.737849,-0.261715,-0.199776,0.700368,-0.070759,0.994611,38.543438,-22.742508,-3.027467,0.470060,1.747848,-0.196061,0.000000,0.000000,0.000000,0.000000,0.000000,0.000000
11843756.000000,-2.315353,-1.662561,1.222258,-1.441386,1.713392,1.261852,-0.577784,0.284433,0.006209,0.737204,-0.260261,-0.196970,0.693724,-0.073227,1.046186,38.642620,-22.865494,-3.102846,0.464567,1.773483,-0.163102,0.000000,0.000000,0.000000,0.000000,0.000000,0.000000
11843757.000000,-2.315057,-1.662562,1.222988,-1.441638,1.713188,1.262545,-0.577848,0.287934,0.002188,0.736214,-0.257513,-0.199901,0.689459,-0.066642,0.994611,38.765606,-23.016251,-3.154421,0.482877,1.812850,-0.221696,0.000000,0.000000,0.000000,0.000000,0.000000,0.000000
11843758.000000,-2.314764,-1.662562,1.223726,-1.441888,1.712991,1.263245,-0.577924,0.285474,-0.000167,0.740136,-0.254682,-0.197806,0.686468,-0.071494,0.970807,38.864788,-23.135269,-3.225832,0.500272,1.800033,-0.149369,0.000000,0.000000,0.000000,0.000000,0.000000,0.000000
11843759.000000,-2.314464,-1.662566,1.224470,-1.442147,1.712796,1.263943,-0.577992,0.289122,-0.003024,0.741138,-0.253297,-0.195851,0.690657,-0.066543,0.871625,39.011578,-23.186844,-3.249635,0.512174,1.779891,-0.175919,0.000000,0.000000,0.000000,0.000000,0.000000,0.000000
11843760.000000,-2.314171,-1.662568,1.225189,-1.442400,1.712602,1.264648,-0.578058,0.290315,-0.001328,0.738935,-0.252553,-0.194994,0.697369,-0.068981,0.824018,39.130596,-23.087662,-3.277406,0.535978,1.779891,-0.169511,0.000000,0.000000,0.000000,0.000000,0.000000,0.000000
11843761.000000,-2.313887,-1.662569,1.225925,-1.442649,1.712415,1.265354,-0.578126,0.284915,-0.001542,0.736160,-0.251184,-0.192566,0.700735,-0.066173,0.824018,39.182171,-23.063858,-3.325014,0.518583,1.800033,-0.155778,0.000000,0.000000,0.000000,0.000000,0.000000,0.000000
11843762.000000,-2.313602,-1.662571,1.226656,-1.442898,1.712230,1.266049,-0.578195,0.284438,-0.002286,0.731248,-0.249061,-0.189503,0.700605,-0.063194,0.895429,39.253582,-23.163040,-3.448000,0.464567,1.786300,-0.169511,0.000000,0.000000,0.000000,0.000000,0.000000,0.000000
11843763.000000,-2.313310,-1.662575,1.227381,-1.443137,1.712044,1.266752,-0.578263,0.283360,-0.001864,0.726788,-0.247298,-0.187706,0.696937,-0.066452,0.847822,39.281353,-22.988480,-3.570986,0.416959,1.735030,-0.163102,0.000000,0.000000,0.000000,0.000000,0.000000,0.000000
11843764.000000,-2.313023,-1.662580,1.228117,-1.443376,1.711852,1.267450,-0.578326,0.284501,-0.008443,0.724242,-0.242844,-0.188481,0.696321,-0.067202,0.871625,39.328960,-22.964676,-3.670168,0.422452,1.747848,-0.202470,0.000000,0.000000,0.000000,0.000000,0.000000,0.000000
11843765.000000,-2.312732,-1.662579,1.228835,-1.443614,1.711670,1.268132,-0.578400,0.284444,-0.005424,0.724466,-0.243189,-0.188708,0.691348,-0.066588,0.824018,39.305157,-22.794083,-3.769350,0.422452,1.760665,-0.149369,0.000000,0.000000,0.000000,0.000000,0.000000,0.000000
11843766.000000,-2.312444,-1.662581,1.229571,-1.443846,1.711489,1.268826,-0.578461,0.281405,-0.004437,0.724691,-0.239134,-0.183589,0.691667,-0.061928,0.748639,39.328960,-22.770279,-3.920107,0.405057,1.760665,-0.202470,0.000000,0.000000,0.000000,0.000000,0.000000,0.000000
11843767.000000,-2.312159,-1.662583,1.230286,-1.444080,1.711309,1.269516,-0.578527,0.280434,-0.003713,0.722636,-0.235338,-0.179355,0.696348,-0.064632,0.748639,39.352764,-22.595718,-3.967714,0.386747,1.689254,-0.208878,0.000000,0.000000,0.000000,0.000000,0.000000,0.000000
11843768.000000,-2.311872,-1.662585,1.231018,-1.444301,1.711129,1.270222,-0.578597,0.284553,-0.003181,0.723373,-0.230807,-0.178498,0.700015,-0.064674,0.673261,39.376568,-22.524307,-4.090700,0.422452,1.584884,-0.155778,0.000000,0.000000,0.000000,0.000000,0.000000,0.000000
11843769.000000,-2.311579,-1.662585,1.231752,-1.444534,1.710955,1.270918,-0.578656,0.288174,-0.002232,0.730281,-0.229140,-0.179425,0.699139,-0.064894,0.601850,39.376568,-22.472733,-4.118471,0.374845,1.597701,-0.221696,0.000000,0.000000,0.000000,0.000000,0.000000,0.000000
11843770.000000,-2.311279,-1.662583,1.232477,-1.444754,1.710772,1.271595,-0.578727,0.289313,-0.001015,0.728161,-0.231564,-0.180371,0.690757,-0.065677,0.427289,39.352764,-22.500504,-4.213686,0.332731,1.682845,-0.149369,0.000000,0.000000,0.000000,0.000000,0.000000,0.000000
11843771.000000,-2.310995,-1.662580,1.233195,-1.444974,1.710584,1.272287,-0.578790,0.288770,0.000931,0.718403,-0.225845,-0.180276,0.684745,-0.066393,0.351911,39.281353,-22.353714,-4.289064,0.393156,1.741439,-0.182328,0.000000,0.000000,0.000000,0.000000,0.000000,0.000000
11843772.000000,-2.310698,-1.662583,1.233931,-1.445197,1.710404,1.272968,-0.578853,0.290528,0.000017,0.718746,-0.224345,-0.182646,0.689582,-0.066889,0.153547,39.305157,-22.353714,-4.388246,0.410551,1.735030,-0.208878,0.000000,0.000000,0.000000,0.000000,0.000000,0.000000
11843773.000000,-2.310402,-1.662576,1.234659,-1.445414,1.710227,1.273667,-0.578925,0.292840,0.002296,0.723378,-0.223117,-0.179004,0.693815,-0.065789,0.006757,39.205975,-22.472733,-4.487428,0.398649,1.689254,-0.169511,0.000000,0.000000,0.000000,0.000000,0.000000,0.000000
11843774.000000,-2.310110,-1.662571,1.235405,-1.445634,1.710057,1.274370,-0.578987,0.291014,0.002618,0.728308,-0.220419,-0.174386,0.696100,-0.061805,-0.116229,39.158367,-22.671097,-4.511232,0.332731,1.637069,-0.208878,0.000000,0.000000,0.000000,0.000000,0.000000,0.000000
11843775.000000,-2.309805,-1.662572,1.236131,-1.445838,1.709881,1.275056,-0.579054,0.295753,0.001725,0.711811,-0.220577,-0.173680,0.696508,-0.066264,-0.366168,39.158367,-22.770279,-4.661989,0.344633,1.643478,-0.182328,0.000000,0.000000,0.000000,0.000000,0.000000,0.000000
11843776.000000,-2.309513,-1.662574,1.236863,-1.446058,1.709701,1.275744,-0.579117,0.292771,0.000579,0.716689,-0.220877,-0.177868,0.694107,-0.067243,-0.489153,39.182171,-22.794083,-4.733400,0.351041,1.682845,-0.215287,0.000000,0.000000,0.000000,0.000000,0.000000,0.000000
11843777.000000,-2.309214,-1.662569,1.237606,-1.446271,1.709522,1.276425,-0.579188,0.292377,0.002138,0.721427,-0.216525,-0.179876,0.685252,-0.067316,-0.663714,39.106792,-22.964676,-4.856386,0.332731,1.825668,-0.142960,0.000000,0.000000,0.000000,0.000000,0.000000,0.000000
11843778.000000,-2.308924,-1.662573,1.238341,-1.446481,1.709348,1.277101,-0.579248,0.289653,0.000210,0.730934,-0.214117,-0.180744,0.685442,-0.062154,-0.735125,39.158367,-23.163040,-4.955568,0.291532,1.923629,-0.202470,0.000000,0.000000,0.000000,0.000000,0.000000,0.000000
11843779.000000,-2.308629,-1.662571,1.239078,-1.446688,1.709176,1.277790,-0.579309,0.286554,0.000784,0.730458,-0.214130,-0.177417,0.681051,-0.060991,-0.885882,39.130596,-23.234451,-5.106325,0.267728,1.865035,-0.196061,0.000000,0.000000,0.000000,0.000000,0.000000,0.000000
11843780.000000,-2.308337,-1.662571,1.239801,-1.446897,1.709001,1.278472,-0.579374,0.287650,0.000518,0.729044,-0.214718,-0.180953,0.679916,-0.065898,-0.933489,39.130596,-23.309830,-5.253114,0.285123,1.767074,-0.163102,0.000000,0.000000,0.000000,0.000000,0.000000,0.000000
11843781.000000,-2.308037,-1.662574,1.240530,-1.447101,1.708827,1.279149,-0.579434,0.290329,-0.000865,0.727732,-0.212887,-0.183252,0.673934,-0.062792,-1.159625,39.182171,-23.258255,-5.352296,0.291532,1.779891,-0.182328,0.000000,0.000000,0.000000,0.000000,0.000000,0.000000
11843782.000000,-2.307737,-1.662576,1.241263,-1.447309,1.708657,1.279831,-0.579499,0.293725,-0.001136,0.725174,-0.209660,-0.180181,0.672600,-0.062301,-1.330218,39.205975,-23.258255,-5.376100,0.297025,1.838485,-0.155778,0.000000,0.000000,0.000000,0.000000,0.000000,0.000000
11843783.000000,-2.307444,-1.662578,1.241978,-1.447516,1.708482,1.280493,-0.579557,0.293897,-0.001316,0.724654,-0.212324,-0.182326,0.672756,-0.054552,-1.429400,39.229778,-23.087662,-5.328493,0.297025,1.890670,-0.196061,0.000000,0.000000,0.000000,0.000000,0.000000,0.000000
11843784.000000,-2.307153,-1.662581,1.242702,-1.447721,1.708305,1.281179,-0.579622,0.292864,-0.002085,0.716368,-0.209464,-0.179509,0.674579,-0.055964,-1.580157,39.281353,-22.988480,-5.352296,0.303434,1.858627,-0.169511,0.000000,0.000000,0.000000,0.000000,0.000000,0.000000
11843785.000000,-2.306869,-1.662585,1.243420,-1.447924,1.708132,1.281854,-0.579680,0.289883,-0.005117,0.716642,-0.207125,-0.175600,0.681647,-0.060325,-1.528582,39.305157,-22.917068,-5.376100,0.267728,1.832076,-0.182328,0.000000,0.000000,0.000000,0.000000,0.000000,0.000000
11843786.000000,-2.306582,-1.662582,1.244156,-1.448120,1.707968,1.282543,-0.579738,0.290532,-0.002470,0.721504,-0.203644,-0.175577,0.681789,-0.059362,-1.552386,39.253582,-22.964676,-5.475282,0.207303,1.793624,-0.182328,0.000000,0.000000,0.000000,0.000000,0.000000,0.000000
11843787.000000,-2.306295,-1.662593,1.244892,-1.448322,1.707798,1.283232,-0.579800,0.290369,-0.004722,0.724548,-0.203051,-0.174646,0.689701,-0.059210,-1.552386,39.376568,-23.016251,-5.475282,0.213712,1.812850,-0.169511,0.000000,0.000000,0.000000,0.000000,0.000000,0.000000
11843788.000000,-2.306004,-1.662597,1.245604,-1.448526,1.707623,1.283906,-0.579855,0.288291,-0.008205,0.720043,-0.209083,-0.176065,0.686218,-0.057288,-1.603961,39.451946,-22.917068,-5.427675,0.279630,1.844894,-0.202470,0.000000,0.000000,0.000000,0.000000,0.000000,0.000000
11843789.000000,-2.305728,-1.662604,1.246348,-1.448726,1.707455,1.284598,-0.579915,0.283929,-0.007514,0.725952,-0.206738,-0.176690,0.687084,-0.058787,-1.552386,39.523357,-23.210648,-5.451478,0.339139,1.877853,-0.155778,0.000000,0.000000,0.000000,0.000000,0.000000,0.000000
11843790.000000,-2.305450,-1.662617,1.247088,-1.448929,1.707291,1.285269,-0.579966,0.285570,-0.008723,0.726580,-0.206575,-0.177520,0.693916,-0.055861,-1.528582,39.670147,-23.333633,-5.399904,0.291532,1.923629,-0.208878,0.000000,0.000000,0.000000,0.000000,0.000000,0.000000
11843791.000000,-2.305170,-1.662629,1.247829,-1.449125,1.707117,1.285959,-0.580026,0.282437,-0.012071,0.730197,-0.204648,-0.175509,0.692504,-0.055897,-1.480975,39.793133,-23.678787,-5.427675,0.291532,1.884261,-0.208878,0.000000,0.000000,0.000000,0.000000,0.000000,0.000000
11843792.000000,-2.304890,-1.662644,1.248565,-1.449328,1.706949,1.286655,-0.580093,0.278173,-0.015550,0.727075,-0.203373,-0.173379,0.691674,-0.063524,-1.480975,39.963726,-23.774002,-5.427675,0.273221,1.793624,-0.136552,0.000000,0.000000,0.000000,0.000000,0.000000,0.000000
11843793.000000,-2.304615,-1.662659,1.249295,-1.449526,1.706777,1.287330,-0.580148,0.277049,-0.014931,0.714416,-0.201885,-0.173374,0.687193,-0.060870,-1.429400,40.134319,-23.948563,-5.475282,0.303434,1.832076,-0.155778,0.000000,0.000000,0.000000,0.000000,0.000000,0.000000
11843794.000000,-2.304335,-1.662669,1.250038,-1.449725,1.706610,1.287997,-0.580206,0.273219,-0.012704,0.718674,-0.202468,-0.173238,0.678783,-0.053737,-1.552386,40.233501,-24.142960,-5.451478,0.320829,1.981307,-0.188737,0.000000,0.000000,0.000000,0.000000,0.000000,0.000000
11843795.000000,-2.304063,-1.662683,1.250780,-1.449933,1.706446,1.288669,-0.580262,0.270752,-0.011669,0.721426,-0.203599,-0.171527,0.672337,-0.053733,-1.528582,40.356487,-24.265945,-5.376100,0.297025,2.060043,-0.208878,0.000000,0.000000,0.000000,0.000000,0.000000,0.000000
11843796.000000,-2.303788,-1.662705,1.251498,-1.450138,1.706278,1.289347,-0.580327,0.272011,-0.015749,0.724264,-0.203598,-0.172569,0.676663,-0.056665,-1.528582,40.550884,-24.218338,-5.352296,0.332731,2.001449,-0.149369,0.000000,0.000000,0.000000,0.000000,0.000000,0.000000
11843797.000000,-2.303527,-1.662721,1.252236,-1.450341,1.706114,1.290024,-0.580378,0.266378,-0.016437,0.725527,-0.202402,-0.175387,0.678252,-0.054357,-1.429400,40.650066,-24.289749,-5.376100,0.303434,1.949264,-0.202470,0.000000,0.000000,0.000000,0.000000,0.000000,0.000000
11843798.000000,-2.303261,-1.662732,1.252960,-1.450545,1.705943,1.290695,-0.580440,0.267097,-0.014710,0.725185,-0.202791,-0.177589,0.673586,-0.056528,-1.330218,40.650066,-24.365128,-5.352296,0.279630,1.949264,-0.163102,0.000000,0.000000,0.000000,0.000000,0.000000,0.000000
11843799.000000,-2.303000,-1.662746,1.253686,-1.450741,1.705772,1.291369,-0.580497,0.268331,-0.014066,0.723357,-0.204396,-0.176111,0.670385,-0.056140,-1.231036,40.673870,-24.242142,-5.399904,0.291532,1.955673,-0.169511,0.000000,0.000000,0.000000,0.000000,0.000000,0.000000
11843800.000000,-2.302739,-1.662762,1.254414,-1.450949,1.705595,1.292054,-0.580551,0.265770,-0.011924,0.718525,-0.207435,-0.171754,0.673687,-0.054958,-1.108050,40.749249,-24.119156,-5.352296,0.339139,1.923629,-0.202470,0.000000,0.000000,0.000000,0.000000,0.000000,0.000000
11843801.000000,-2.302473,-1.662770,1.255133,-1.451150,1.705420,1.292725,-0.580611,0.265888,-0.011699,0.720313,-0.205350,-0.176615,0.672627,-0.057458,-1.084246,40.749249,-23.972366,-5.376100,0.362943,1.871444,-0.149369,0.000000,0.000000,0.000000,0.000000,0.000000,0.000000
11843802.000000,-2.302222,-1.662781,1.255868,-1.451357,1.705256,1.293399,-0.580665,0.256192,-0.012233,0.721958,-0.206161,-0.174145,0.670903,-0.055074,-0.933489,40.773052,-23.972366,-5.304689,0.344633,1.916305,-0.202470,0.000000,0.000000,0.000000,0.000000,0.000000,0.000000
11843803.000000,-2.301963,-1.662787,1.256597,-1.451562,1.705092,1.294075,-0.580722,0.256960,-0.009792,0.724135,-0.208604,-0.171902,0.679330,-0.055915,-0.834307,40.673870,-23.849380,-5.276918,0.320829,1.865035,-0.182328,0.000000,0.000000,0.000000,0.000000,0.000000,0.000000
11843804.000000,-2.301700,-1.662795,1.257315,-1.451768,1.704931,1.294769,-0.580780,0.258076,-0.006272,0.720403,-0.207436,-0.175073,0.683902,-0.051553,-0.762896,40.626263,-23.726395,-5.253114,0.315336,1.747848,-0.175919,0.000000,0.000000,0.000000,0.000000,0.000000,0.000000
11843805.000000,-2.301446,-1.662800,1.258042,-1.451977,1.704766,1.295458,-0.580833,0.260208,-0.006114,0.724168,-0.207774,-0.173870,0.687790,-0.052621,-0.711321,40.550884,-23.678787,-5.153932,0.308927,1.727706,-0.182328,0.000000,0.000000,0.000000,0.000000,0.000000,0.000000
11843806.000000,-2.301182,-1.662806,1.258761,-1.452191,1.704604,1.296130,-0.580890,0.259802,-0.006743,0.726378,-0.212537,-0.171299,0.683070,-0.053924,-0.735125,40.503277,-23.678787,-4.955568,0.267728,1.793624,-0.175919,0.000000,0.000000,0.000000,0.000000,0.000000,0.000000
11843807.000000,-2.300926,-1.662809,1.259482,-1.452401,1.704435,1.296818,-0.580945,0.255243,-0.005603,0.721797,-0.213267,-0.168942,0.679426,-0.053617,-0.735125,40.380291,-23.678787,-4.784975,0.339139,1.838485,-0.196061,0.000000,0.000000,0.000000,0.000000,0.000000,0.000000
11843808.000000,-2.300669,-1.662816,1.260204,-1.452619,1.704269,1.297501,-0.581001,0.256032,-0.007120,0.717739,-0.213034,-0.170917,0.677287,-0.054803,-0.762896,40.356487,-23.555801,-4.634218,0.393156,1.773483,-0.175919,0.000000,0.000000,0.000000,0.000000,0.000000,0.000000
11843809.000000,-2.300405,-1.662816,1.260925,-1.452831,1.704112,1.298197,-0.581055,0.255746,-0.005831,0.722447,-0.212452,-0.170046,0.683846,-0.054180,-0.810504,40.233501,-23.651016,-4.511232,0.381254,1.727706,-0.202470,0.000000,0.000000,0.000000,0.000000,0.000000,0.000000
11843810.000000,-2.300149,-1.662821,1.261655,-1.453042,1.703958,1.298885,-0.581110,0.252565,-0.006241,0.720754,-0.210886,-0.169526,0.680600,-0.055301,-0.834307,40.162090,-23.678787,-4.412050,0.369352,1.760665,-0.188737,0.000000,0.000000,0.000000,0.000000,0.000000,0.000000
11843811.000000,-2.299893,-1.662825,1.262382,-1.453253,1.703801,1.299569,-0.581163,0.252477,-0.006395,0.718183,-0.212705,-0.164627,0.680581,-0.055637,-0.810504,40.086712,-23.873184,-4.340639,0.374845,1.760665,-0.188737,0.000000,0.000000,0.000000,0.000000,0.000000,0.000000
11843812.000000,-2.299644,-1.662832,1.263103,-1.453475,1.703643,1.300249,-0.581219,0.252541,-0.005236,0.717134,-0.216692,-0.161104,0.682544,-0.055739,-0.735125,40.086712,-23.873184,-4.166078,0.369352,1.806442,-0.188737,0.000000,0.000000,0.000000,0.000000,0.000000,0.000000
11843813.000000,-2.299386,-1.662832,1.263839,-1.453693,1.703482,1.300927,-0.581278,0.252387,-0.001900,0.718278,-0.213658,-0.158639,0.682277,-0.051680,-0.810504,39.987530,-24.071548,-4.090700,0.369352,1.923629,-0.175919,0.000000,0.000000,0.000000,0.000000,0.000000,0.000000
11843814.000000,-2.299138,-1.662837,1.264555,-1.453907,1.703317,1.301597,-0.581331,0.247917,-0.001257,0.725345,-0.212278,-0.156689,0.682976,-0.052449,-0.735125,39.963726,-24.190567,-3.991518,0.362943,2.027084,-0.188737,0.000000,0.000000,0.000000,0.000000,0.000000,0.000000
11843815.000000,-2.298891,-1.662840,1.265283,-1.454120,1.703160,1.302290,-0.581390,0.248092,-0.000135,0.720443,-0.213343,-0.154164,0.679878,-0.054316,-0.687518,39.916119,-24.289749,-3.943910,0.332731,1.942855,-0.163102,0.000000,0.000000,0.000000,0.000000,0.000000,0.000000
11843816.000000,-2.298636,-1.662843,1.265989,-1.454342,1.702991,1.302976,-0.581440,0.251030,0.000159,0.729601,-0.215117,-0.156636,0.683094,-0.052619,-0.711321,39.892315,-24.242142,-3.868532,0.422452,1.851302,-0.202470,0.000000,0.000000,0.000000,0.000000,0.000000,0.000000
11843817.000000,-2.298385,-1.662838,1.266713,-1.454558,1.702836,1.303658,-0.581498,0.252493,0.002752,0.729167,-0.216099,-0.160011,0.680813,-0.055429,-0.711321,39.769329,-24.242142,-3.797121,0.422452,1.884261,-0.155778,0.000000,0.000000,0.000000,0.000000,0.000000,0.000000
11843818.000000,-2.298133,-1.662832,1.267431,-1.454778,1.702677,1.304346,-0.581547,0.253657,0.004539,0.721024,-0.213952,-0.158150,0.676729,-0.053208,-0.711321,39.646343,-24.166763,-3.697939,0.434354,1.974899,-0.221696,0.000000,0.000000,0.000000,0.000000,0.000000,0.000000
11843819.000000,-2.297879,-1.662832,1.268135,-1.454993,1.702516,1.305017,-0.581601,0.251728,0.000294,0.716629,-0.214534,-0.157221,0.681863,-0.054498,-0.762896,39.622540,-24.019974,-3.646364,0.464567,1.995040,-0.215287,0.000000,0.000000,0.000000,0.000000,0.000000,0.000000
11843820.000000,-2.297635,-1.662830,1.268846,-1.455216,1.702364,1.305706,-0.581661,0.247925,0.000392,0.712410,-0.211796,-0.153503,0.680444,-0.057221,-0.711321,39.598736,-23.873184,-3.598757,0.410551,1.988631,-0.155778,0.000000,0.000000,0.000000,0.000000,0.000000,0.000000
11843821.000000,-2.297389,-1.662820,1.269565,-1.455440,1.702206,1.306382,-0.581707,0.249422,0.003424,0.717943,-0.212994,-0.151678,0.686499,-0.054775,-0.711321,39.451946,-23.774002,-3.547182,0.381254,1.968490,-0.215287,0.000000,0.000000,0.000000,0.000000,0.000000,0.000000
11843822.000000,-2.297140,-1.662810,1.270277,-1.455659,1.702052,1.307068,-0.581764,0.250295,0.004957,0.718052,-0.212104,-0.149998,0.678132,-0.056841,-0.687518,39.328960,-23.750198,-3.448000,0.332731,1.897079,-0.175919,0.000000,0.000000,0.000000,0.000000,0.000000,0.000000
11843823.000000,-2.296896,-1.662804,1.270992,-1.455881,1.701896,1.307754,-0.581820,0.247261,0.004916,0.717113,-0.216409,-0.150660,0.685011,-0.057711,-0.663714,39.253582,-23.750198,-3.376589,0.339139,1.844894,-0.149369,0.000000,0.000000,0.000000,0.000000,0.000000,0.000000
11843824.000000,-2.296652,-1.662798,1.271694,-1.456100,1.701738,1.308430,-0.581873,0.242535,0.007410,0.712633,-0.221563,-0.153010,0.685209,-0.057278,-0.635943,39.205975,-23.651016,-3.325014,0.398649,1.793624,-0.149369,0.000000,0.000000,0.000000,0.000000,0.000000,0.000000
11843825.000000,-2.296412,-1.662790,1.272412,-1.456322,1.701586,1.309109,-0.581920,0.237849,0.007436,0.714253,-0.224200,-0.154678,0.679387,-0.055196,-0.588336,39.106792,-23.750198,-3.249635,0.458158,1.871444,-0.196061,0.000000,0.000000,0.000000,0.000000,0.000000,0.000000
11843826.000000,-2.296177,-1.662788,1.273143,-1.456535,1.701439,1.309769,-0.581973,0.235624,0.005646,0.715359,-0.220357,-0.153075,0.668074,-0.054968,-0.465350,39.082989,-23.896988,-3.277406,0.452665,1.930038,-0.196061,0.000000,0.000000,0.000000,0.000000,0.000000,0.000000
11843827.000000,-2.295941,-1.662788,1.273856,-1.456746,1.701293,1.310451,-0.582028,0.233932,0.003862,0.717567,-0.218030,-0.151677,0.669832,-0.057154,-0.389971,39.082989,-24.043777,-3.301210,0.428861,1.962081,-0.149369,0.000000,0.000000,0.000000,0.000000,0.000000,0.000000
11843828.000000,-2.295714,-1.662789,1.274575,-1.456962,1.701146,1.311138,-0.582073,0.230137,0.001535,0.714965,-0.213485,-0.155699,0.671903,-0.054903,-0.266986,39.130596,-24.142960,-3.301210,0.416959,1.949264,-0.202470,0.000000,0.000000,0.000000,0.000000,0.000000,0.000000
11843829.000000,-2.295481,-1.662797,1.275283,-1.457170,1.700997,1.311808,-0.582126,0.231392,-0.001798,0.706881,-0.210065,-0.148414,0.673133,-0.051682,-0.167803,39.253582,-24.265945,-3.325014,0.386747,1.974899,-0.175919,0.000000,0.000000,0.000000,0.000000,0.000000,0.000000
11843830.000000,-2.295247,-1.662801,1.275998,-1.457376,1.700846,1.312473,-0.582173,0.231814,-0.001806,0.708026,-0.208365,-0.154466,0.667852,-0.051503,-0.144000,39.281353,-24.365128,-3.301210,0.398649,2.033492,-0.208878,0.000000,0.000000,0.000000,0.000000,0.000000,0.000000
11843831.000000,-2.295012,-1.662810,1.276714,-1.457592,1.700700,1.313158,-0.582226,0.231884,-0.003957,0.708914,-0.211635,-0.149103,0.672642,-0.048124,-0.116229,39.400372,-24.341324,-3.202028,0.398649,1.995040,-0.208878,0.000000,0.000000,0.000000,0.000000,0.000000,0.000000
11843832.000000,-2.294783,-1.662817,1.277423,-1.457797,1.700549,1.313837,-0.582281,0.232613,-0.004935,0.710322,-0.209338,-0.147301,0.678075,-0.047568,-0.017047,39.499554,-24.412735,-3.178224,0.464567,1.897079,-0.155778,0.000000,0.000000,0.000000,0.000000,0.000000,0.000000
11843833.000000,-2.294553,-1.662826,1.278134,-1.458000,1.700406,1.314513,-0.582321,0.229881,-0.006149,0.711845,-0.207223,-0.148644,0.673238,-0.046698,-0.017047,39.622540,-24.289749,-3.178224,0.482877,1.871444,-0.229020,0.000000,0.000000,0.000000,0.000000,0.000000,0.000000
11843834.000000,-2.294337,-1.662829,1.278839,-1.458194,1.700267,1.315177,-0.582375,0.226171,-0.005200,0.724566,-0.203462,-0.148564,0.673729,-0.046575,0.153547,39.670147,-24.265945,-3.277406,0.476469,1.890670,-0.175919,0.000000,0.000000,0.000000,0.000000,0.000000,0.000000
11843835.000000,-2.294114,-1.662836,1.279540,-1.458390,1.700132,1.315850,-0.582426,0.225866,-0.005777,0.721047,-0.199567,-0.146756,0.665377,-0.049528,0.252729,39.769329,-24.071548,-3.424196,0.434354,1.909896,-0.155778,0.000000,0.000000,0.000000,0.000000,0.000000,0.000000
11843836.000000,-2.293895,-1.662841,1.280247,-1.458589,1.699995,1.316539,-0.582468,0.228387,-0.011911,0.711346,-0.198827,-0.147501,0.665164,-0.049517,0.375715,39.840740,-23.972366,-3.475771,0.422452,1.877853,-0.202470,0.000000,0.000000,0.000000,0.000000,0.000000,0.000000
11843837.000000,-2.293671,-1.662843,1.280939,-1.458781,1.699854,1.317212,-0.582520,0.224700,-0.008468,0.714793,-0.195550,-0.146618,0.662000,-0.052628,0.451093,39.840740,-23.801773,-3.523378,0.374845,1.812850,-0.169511,0.000000,0.000000,0.000000,0.000000,0.000000,0.000000
11843838.000000,-2.293454,-1.662842,1.281652,-1.458970,1.699712,1.317895,-0.582565,0.218614,-0.005484,0.711926,-0.196183,-0.143652,0.660141,-0.052457,0.502668,39.816936,-23.774002,-3.570986,0.386747,1.812850,-0.196061,0.000000,0.000000,0.000000,0.000000,0.000000,0.000000
11843839.000000,-2.293230,-1.662839,1.282356,-1.459170,1.699573,1.318575,-0.582617,0.221319,-0.002839,0.706614,-0.198931,-0.140435,0.667358,-0.054681,0.550275,39.769329,-23.651016,-3.523378,0.381254,1.760665,-0.155778,0.000000,0.000000,0.000000,0.000000,0.000000,0.000000
11843840.000000,-2.293001,-1.662836,1.283046,-1.459362,1.699435,1.319269,-0.582659,0.221799,-0.001558,0.700859,-0.192838,-0.134490,0.673569,-0.053198,0.526471,39.745525,-23.409012,-3.547182,0.398649,1.682845,-0.208878,0.000000,0.000000,0.000000,0.000000,0.000000,0.000000
11843841.000000,-2.292782,-1.662826,1.283747,-1.459554,1.699297,1.319960,-0.582707,0.217355,0.001671,0.699399,-0.194652,-0.136199,0.681241,-0.049472,0.550275,39.622540,-23.333633,-3.547182,0.458158,1.637069,-0.208878,0.000000,0.000000,0.000000,0.000000,0.000000,0.000000
11843842.000000,-2.292562,-1.662820,1.284439,-1.459738,1.699166,1.320637,-0.582751,0.218598,0.003866,0.699772,-0.194953,-0.132879,0.679755,-0.046409,0.526471,39.499554,-23.258255,-3.570986,0.405057,1.656295,-0.215287,0.000000,0.000000,0.000000,0.000000,0.000000,0.000000
11843843.000000,-2.292343,-1.662815,1.285139,-1.459921,1.699040,1.321334,-0.582802,0.220915,0.004154,0.697538,-0.191131,-0.132011,0.684716,-0.050093,0.526471,39.428143,-23.210648,-3.670168,0.381254,1.617843,-0.182328,0.000000,0.000000,0.000000,0.000000,0.000000,0.000000
11843844.000000,-2.292118,-1.662806,1.285843,-1.460110,1.698906,1.322017,-0.582850,0.223966,0.005019,0.699057,-0.189812,-0.127827,0.678140,-0.047231,0.502668,39.328960,-23.163040,-3.697939,0.393156,1.630660,-0.175919,0.000000,0.000000,0.000000,0.000000,0.000000,0.000000
11843845.000000,-2.291886,-1.662800,1.286539,-1.460295,1.698776,1.322689,-0.582891,0.228394,0.005056,0.700295,-0.189922,-0.127753,0.674223,-0.048244,0.403486,39.253582,-23.186844,-3.697939,0.362943,1.747848,-0.208878,0.000000,0.000000,0.000000,0.000000,0.000000,0.000000
11843846.000000,-2.291663,-1.662791,1.287244,-1.460478,1.698646,1.323370,-0.582939,0.227457,0.006208,0.696098,-0.186337,-0.127746,0.675365,-0.047101,0.328107,39.130596,-23.258255,-3.697939,0.327238,1.844894,-0.169511,0.000000,0.000000,0.000000,0.000000,0.000000,0.000000
11843847.000000,-2.291436,-1.662783,1.287941,-1.460653,1.698512,1.324059,-0.582980,0.226378,0.006893,0.684373,-0.182931,-0.128927,0.674021,-0.048742,0.252729,39.011578,-23.286026,-3.745546,0.327238,1.806442,-0.188737,0.000000,0.000000,0.000000,0.000000,0.000000,0.000000
