chaoyuefei/paper-gmrm-data/robot_logs/s2_dq_gmrm_xz_min_0.50_log_20260314_174044.csv
# time_ms,q_0,q_1,q_2,q_3,q_4,q_5,q_6,dq_0,dq_1,dq_2,dq_3,dq_4,dq_5,dq_6,tau_J_0,tau_J_1,tau_J_2,tau_J_3,tau_J_4,tau_J_5,tau_J_6,O_dP_EE_c_0,O_dP_EE_c_1,O_dP_EE_c_2,O_dP_EE_c_3,O_dP_EE_c_4,O_dP_EE_c_5
12707074.000000,-2.415666,-1.662616,1.042879,-1.356088,1.795444,1.081425,-0.548610,-0.000559,0.001033,-0.000286,0.000040,0.000009,0.000055,-0.000828,0.054365,41.554607,-21.024673,-5.721254,0.852750,1.318465,0.054794,0.000000,0.000000,0.000000,0.000000,0.000000,0.000000
12707075.000000,-2.415663,-1.662620,1.042881,-1.356088,1.795449,1.081426,-0.548604,0.000741,-0.000518,0.000459,0.000027,0.000447,0.000274,0.001415,0.006757,41.606182,-21.052444,-5.721254,0.840848,1.312057,0.001693,0.000000,0.000000,0.000000,0.000000,0.000000,0.000000
12707076.000000,-2.415663,-1.662616,1.042881,-1.356088,1.795446,1.081426,-0.548608,0.000494,0.000861,0.000306,0.000018,0.000060,0.000183,-0.000277,0.006757,41.554607,-21.052444,-5.721254,0.847257,1.312057,0.034652,0.000000,0.000000,0.000000,0.000000,0.000000,0.000000
12707077.000000,-2.415669,-1.662618,1.042883,-1.356088,1.795445,1.081426,-0.548605,-0.001991,0.000017,0.000761,0.000012,-0.000163,0.000122,0.000764,0.105939,41.578411,-21.076248,-5.721254,0.852750,1.312057,0.009017,0.000000,0.000000,0.000000,0.000000,0.000000,0.000000
12707078.000000,-2.415663,-1.662616,1.042881,-1.356088,1.795445,1.081423,-0.548610,0.008617,-0.004107,-0.000699,-0.000549,-0.008210,-0.001852,0.000035,0.351911,41.483196,-21.024673,-5.697450,0.817045,1.364242,0.021835,0.000000,0.000000,0.000000,0.000000,0.000000,0.000000
12707081.000000,-2.415581,-1.662620,1.042913,-1.356088,1.795421,1.081433,-0.548695,0.029497,-0.003155,0.003833,-0.004875,-0.006495,-0.002619,-0.024478,4.858747,40.356487,-20.929459,-4.884157,0.596403,1.884261,-0.056901,0.000000,0.000000,0.000000,0.000000,0.000000,0.000000
12707082.000000,-2.415517,-1.662621,1.042932,-1.356098,1.795393,1.081478,-0.548752,0.034614,-0.001378,0.007026,-0.007007,-0.015332,0.015213,-0.035673,6.763044,39.840740,-20.830276,-4.535036,0.613798,1.832076,-0.056901,0.000000,0.000000,0.000000,0.000000,0.000000,0.000000
12707083.000000,-2.415428,-1.662623,1.042958,-1.356131,1.795351,1.081559,-0.548826,0.044996,0.001850,0.015215,-0.021542,-0.023817,0.039755,-0.047511,8.322186,39.352764,-20.707291,-4.066896,0.685209,1.591293,-0.077042,0.000000,0.000000,0.000000,0.000000,0.000000,0.000000
12707084.000000,-2.415324,-1.662620,1.042997,-1.356175,1.795303,1.081658,-0.548925,0.058599,0.003918,0.023855,-0.028130,-0.032579,0.060765,-0.061485,9.758344,38.864788,-20.683487,-3.622560,0.698026,1.383468,-0.077042,0.000000,0.000000,0.000000,0.000000,0.000000,0.000000
12707085.000000,-2.415212,-1.662618,1.043050,-1.356222,1.795233,1.081764,-0.549046,0.076386,0.003782,0.030726,-0.039307,-0.049198,0.070724,-0.081592,11.019940,38.448223,-20.683487,-3.348818,0.727323,1.318465,-0.056901,0.000000,0.000000,0.000000,0.000000,0.000000,0.000000
12707086.000000,-2.415075,-1.662613,1.043103,-1.356280,1.795157,1.081887,-0.549181,0.092633,0.003609,0.040140,-0.044285,-0.058990,0.089432,-0.097950,12.011762,38.031658,-20.584305,-3.079042,0.691617,1.337692,-0.097184,0.000000,0.000000,0.000000,0.000000,0.000000,0.000000
12707087.000000,-2.414938,-1.662604,1.043167,-1.356354,1.795066,1.082035,-0.549349,0.103250,0.006262,0.047062,-0.055368,-0.068018,0.109235,-0.121998,13.027387,37.638897,-20.485123,-2.781496,0.578092,1.454879,-0.064225,0.000000,0.000000,0.000000,0.000000,0.000000,0.000000
12707088.000000,-2.414785,-1.662591,1.043248,-1.356438,1.794955,1.082209,-0.549540,0.117677,0.009025,0.060986,-0.065606,-0.081314,0.129545,-0.145664,13.892255,37.222332,-20.485123,-2.535524,0.494779,1.572067,-0.103593,0.000000,0.000000,0.000000,0.000000,0.000000,0.000000
12707089.000000,-2.414614,-1.662578,1.043351,-1.356530,1.794829,1.082409,-0.549763,0.131871,0.009821,0.074690,-0.073615,-0.093734,0.147226,-0.169483,14.562726,36.857342,-20.631912,-2.460146,0.344633,1.630660,-0.097184,0.000000,0.000000,0.000000,0.000000,0.000000,0.000000
12707090.000000,-2.414429,-1.662559,1.043464,-1.356644,1.794671,1.082646,-0.550017,0.152170,0.014222,0.087157,-0.084428,-0.113214,0.173946,-0.201666,15.153852,36.464581,-20.731094,-2.337160,0.332731,1.578475,-0.056901,0.000000,0.000000,0.000000,0.000000,0.000000,0.000000
12707091.000000,-2.414221,-1.662540,1.043593,-1.356774,1.794490,1.082907,-0.550288,0.168544,0.013800,0.103292,-0.100381,-0.138323,0.199035,-0.222276,15.578351,36.095623,-20.877884,-2.190370,0.356534,1.513473,-0.089860,0.000000,0.000000,0.000000,0.000000,0.000000,0.000000
12707092.000000,-2.414001,-1.662520,1.043734,-1.356924,1.794276,1.083204,-0.550573,0.184331,0.016066,0.115400,-0.117978,-0.158409,0.232376,-0.247143,15.971112,35.754436,-21.024673,-2.091188,0.434354,1.435653,-0.077042,0.000000,0.000000,0.000000,0.000000,0.000000,0.000000
12707093.000000,-2.413759,-1.662498,1.043891,-1.357093,1.794038,1.083521,-0.550870,0.207164,0.018504,0.126912,-0.137253,-0.187644,0.259118,-0.257647,16.145674,35.385479,-21.175430,-1.992006,0.542386,1.435653,-0.089860,0.000000,0.000000,0.000000,0.000000,0.000000,0.000000
12707094.000000,-2.413506,-1.662478,1.044049,-1.357272,1.793788,1.083853,-0.551172,0.218271,0.017926,0.135884,-0.151564,-0.208511,0.278974,-0.268989,16.367842,35.119671,-21.199234,-1.940431,0.596403,1.442062,-0.116410,0.000000,0.000000,0.000000,0.000000,0.000000,0.000000
12707095.000000,-2.413239,-1.662462,1.044221,-1.357462,1.793521,1.084207,-0.551471,0.233564,0.022300,0.148649,-0.162886,-0.221903,0.298220,-0.279126,16.566206,34.921307,-21.199234,-2.015810,0.589994,1.435653,-0.116410,0.000000,0.000000,0.000000,0.000000,0.000000,0.000000
12707096.000000,-2.412956,-1.662452,1.044411,-1.357668,1.793253,1.084580,-0.551775,0.249883,0.019754,0.163798,-0.177595,-0.239067,0.324417,-0.287076,16.665388,34.849895,-21.270645,-2.015810,0.512174,1.526290,-0.097184,0.000000,0.000000,0.000000,0.000000,0.000000,0.000000
12707097.000000,-2.412652,-1.662444,1.044602,-1.357901,1.792955,1.084975,-0.552083,0.264922,0.014103,0.175001,-0.194326,-0.255011,0.341777,-0.297350,16.740767,34.826092,-21.223038,-1.916628,0.405057,1.682845,-0.089860,0.000000,0.000000,0.000000,0.000000,0.000000,0.000000
12707098.000000,-2.412330,-1.662435,1.044804,-1.358153,1.792647,1.085393,-0.552383,0.283580,0.011447,0.183479,-0.213781,-0.273937,0.362784,-0.298827,16.665388,34.750713,-21.175430,-1.817445,0.320829,1.747848,-0.130143,0.000000,0.000000,0.000000,0.000000,0.000000,0.000000
12707099.000000,-2.411991,-1.662431,1.045010,-1.358415,1.792320,1.085844,-0.552692,0.299366,0.007843,0.192082,-0.228524,-0.294573,0.391654,-0.299384,16.617781,34.750713,-21.076248,-1.694460,0.297025,1.721298,-0.077042,0.000000,0.000000,0.000000,0.000000,0.000000,0.000000
12707100.000000,-2.411633,-1.662430,1.045237,-1.358706,1.791967,1.086325,-0.552981,0.314827,0.004830,0.203216,-0.248250,-0.316129,0.419699,-0.296287,16.542402,34.774517,-21.024673,-1.472292,0.327238,1.617843,-0.103593,0.000000,0.000000,0.000000,0.000000,0.000000,0.000000
12707101.000000,-2.411269,-1.662422,1.045477,-1.358999,1.791602,1.086835,-0.553273,0.331410,0.005010,0.214316,-0.265422,-0.327767,0.446849,-0.294903,16.518599,34.703106,-20.977066,-1.373109,0.344633,1.481429,-0.110001,0.000000,0.000000,0.000000,0.000000,0.000000,0.000000
12707102.000000,-2.410893,-1.662421,1.045717,-1.359302,1.791214,1.087349,-0.553565,0.342856,0.003429,0.221575,-0.275849,-0.347922,0.467882,-0.294809,16.617781,34.703106,-20.877884,-1.321535,0.422452,1.448470,-0.089860,0.000000,0.000000,0.000000,0.000000,0.000000,0.000000
12707103.000000,-2.410513,-1.662425,1.045970,-1.359619,1.790812,1.087890,-0.553843,0.353968,0.003856,0.233210,-0.287203,-0.362522,0.491566,-0.289710,16.788374,34.774517,-20.782669,-1.420717,0.482877,1.442062,-0.122819,0.000000,0.000000,0.000000,0.000000,0.000000,0.000000
12707104.000000,-2.410118,-1.662421,1.046229,-1.359951,1.790397,1.088442,-0.554119,0.364973,0.003442,0.242081,-0.298279,-0.381258,0.513269,-0.281555,16.986738,34.750713,-20.631912,-1.420717,0.506681,1.494247,-0.116410,0.000000,0.000000,0.000000,0.000000,0.000000,0.000000
12707105.000000,-2.409706,-1.662422,1.046499,-1.360304,1.789968,1.089011,-0.554392,0.381081,0.001417,0.250241,-0.313599,-0.394011,0.529282,-0.280507,17.137495,34.798321,-20.584305,-1.396913,0.512174,1.552840,-0.103593,0.000000,0.000000,0.000000,0.000000,0.000000,0.000000
12707106.000000,-2.409291,-1.662419,1.046779,-1.360668,1.789533,1.089611,-0.554661,0.388628,0.001678,0.261575,-0.335385,-0.407257,0.547350,-0.277759,17.359663,34.774517,-20.512894,-1.297731,0.464567,1.559249,-0.136552,0.000000,0.000000,0.000000,0.000000,0.000000,0.000000
12707107.000000,-2.408857,-1.662420,1.047072,-1.361045,1.789078,1.090218,-0.554939,0.399172,0.000695,0.272113,-0.347704,-0.421029,0.559580,-0.277719,17.581831,34.798321,-20.512894,-1.174745,0.393156,1.500655,-0.116410,0.000000,0.000000,0.000000,0.000000,0.000000,0.000000
12707108.000000,-2.408417,-1.662413,1.047371,-1.361447,1.788606,1.090861,-0.555204,0.418259,0.005390,0.278911,-0.364721,-0.428903,0.577930,-0.271768,17.803999,34.726910,-20.437515,-1.000185,0.374845,1.389877,-0.142960,0.000000,0.000000,0.000000,0.000000,0.000000,0.000000
12707109.000000,-2.407952,-1.662409,1.047685,-1.361862,1.788116,1.091505,-0.555471,0.433252,0.005045,0.291443,-0.383496,-0.454053,0.595951,-0.268408,18.002363,34.679302,-20.437515,-0.730409,0.374845,1.318465,-0.155778,0.000000,0.000000,0.000000,0.000000,0.000000,0.000000
12707110.000000,-2.407472,-1.662403,1.048000,-1.362292,1.787607,1.092171,-0.555741,0.445617,0.004823,0.300991,-0.391180,-0.468539,0.616755,-0.272890,18.248335,34.627728,-20.389908,-0.555849,0.405057,1.312057,-0.083451,0.000000,0.000000,0.000000,0.000000,0.000000,0.000000
12707111.000000,-2.406988,-1.662397,1.048325,-1.362738,1.787091,1.092864,-0.555996,0.459215,0.008254,0.309561,-0.408548,-0.501232,0.647032,-0.267413,18.498274,34.556316,-20.362137,-0.333681,0.458158,1.299239,-0.122819,0.000000,0.000000,0.000000,0.000000,0.000000,0.000000
12707112.000000,-2.406485,-1.662389,1.048665,-1.363187,1.786550,1.093566,-0.556259,0.468755,0.007116,0.314038,-0.419110,-0.513699,0.664876,-0.264749,18.720442,34.504742,-20.338333,-0.210695,0.482877,1.312057,-0.116410,0.000000,0.000000,0.000000,0.000000,0.000000,0.000000
12707113.000000,-2.405974,-1.662377,1.049020,-1.363647,1.785996,1.094296,-0.556507,0.480076,0.007834,0.323894,-0.433180,-0.528012,0.684787,-0.262026,19.065596,34.385723,-20.338333,-0.234499,0.524076,1.344100,-0.142960,0.000000,0.000000,0.000000,0.000000,0.000000,0.000000
12707114.000000,-2.405465,-1.662372,1.049383,-1.364116,1.785432,1.095027,-0.556758,0.486614,0.006101,0.337206,-0.438928,-0.537769,0.710459,-0.260232,19.486128,34.357952,-20.314529,-0.210695,0.524076,1.396285,-0.155778,0.000000,0.000000,0.000000,0.000000,0.000000,0.000000
12707115.000000,-2.404927,-1.662360,1.049761,-1.364613,1.784852,1.095793,-0.557021,0.500353,0.009642,0.349915,-0.452090,-0.544785,0.724659,-0.262315,19.759871,34.262737,-20.413712,-0.111513,0.542386,1.454879,-0.103593,0.000000,0.000000,0.000000,0.000000,0.000000,0.000000
12707116.000000,-2.404380,-1.662354,1.050149,-1.365127,1.784255,1.096589,-0.557263,0.515782,0.007378,0.362811,-0.468658,-0.558402,0.747510,-0.258888,20.005842,34.238934,-20.437515,-0.036134,0.500272,1.409103,-0.163102,0.000000,0.000000,0.000000,0.000000,0.000000,0.000000
12707117.000000,-2.403815,-1.662345,1.050556,-1.365651,1.783660,1.097391,-0.557518,0.527543,0.006420,0.386765,-0.482884,-0.563572,0.767079,-0.259249,20.255781,34.187359,-20.608109,0.134459,0.458158,1.337692,-0.136552,0.000000,0.000000,0.000000,0.000000,0.000000,0.000000
12707118.000000,-2.403231,-1.662330,1.050977,-1.366191,1.783030,1.098239,-0.557767,0.542679,0.009964,0.398555,-0.494379,-0.577205,0.790578,-0.255793,20.501753,34.088177,-20.754898,0.257445,0.440763,1.214095,-0.097184,0.000000,0.000000,0.000000,0.000000,0.000000,0.000000
12707119.000000,-2.402647,-1.662318,1.051414,-1.366730,1.782413,1.099101,-0.558006,0.559174,0.008741,0.410991,-0.522990,-0.591197,0.812494,-0.250325,20.799299,34.016766,-21.000870,0.285216,0.362943,1.129867,-0.142960,0.000000,0.000000,0.000000,0.000000,0.000000,0.000000
12707120.000000,-2.402042,-1.662299,1.051860,-1.367286,1.781757,1.099955,-0.558251,0.570024,0.012636,0.422732,-0.529704,-0.609397,0.822665,-0.248135,21.096846,33.869976,-21.223038,0.257445,0.362943,1.214095,-0.136552,0.000000,0.000000,0.000000,0.000000,0.000000,0.000000
12707121.000000,-2.401434,-1.662288,1.052312,-1.367853,1.781090,1.100843,-0.558492,0.578705,0.012539,0.431060,-0.536655,-0.626693,0.838389,-0.247480,21.418196,33.846172,-21.322220,0.158263,0.344633,1.299239,-0.110001,0.000000,0.000000,0.000000,0.000000,0.000000,0.000000
12707122.000000,-2.400796,-1.662273,1.052781,-1.368420,1.780402,1.101745,-0.558733,0.594097,0.013927,0.443237,-0.551697,-0.647702,0.860088,-0.244724,21.640364,33.770794,-21.445206,0.011473,0.416959,1.312057,-0.122819,0.000000,0.000000,0.000000,0.000000,0.000000,0.000000
12707123.000000,-2.400145,-1.662258,1.053249,-1.369010,1.779701,1.102680,-0.558964,0.608218,0.014836,0.450976,-0.558707,-0.664503,0.889635,-0.239026,21.862532,33.699383,-21.568192,0.011473,0.428861,1.331283,-0.149369,0.000000,0.000000,0.000000,0.000000,0.000000,0.000000
12707124.000000,-2.399475,-1.662240,1.053737,-1.369628,1.778998,1.103630,-0.559201,0.633305,0.016870,0.461447,-0.587351,-0.680337,0.903700,-0.234996,21.890303,33.576397,-21.663406,0.110655,0.488370,1.318465,-0.155778,0.000000,0.000000,0.000000,0.000000,0.000000,0.000000
12707125.000000,-2.398781,-1.662229,1.054228,-1.370244,1.778266,1.104596,-0.559437,0.652030,0.015856,0.475389,-0.592208,-0.694006,0.925709,-0.231148,21.961714,33.552593,-21.810196,0.233641,0.613798,1.253463,-0.182328,0.000000,0.000000,0.000000,0.000000,0.000000,0.000000
12707126.000000,-2.398076,-1.662219,1.054732,-1.370874,1.777543,1.105598,-0.559681,0.685325,0.014647,0.487882,-0.603831,-0.695645,0.943419,-0.236860,22.037092,33.552593,-21.984756,0.432005,0.763029,1.207687,-0.089860,0.000000,0.000000,0.000000,0.000000,0.000000,0.000000
12707127.000000,-2.397349,-1.662215,1.055245,-1.371497,1.776830,1.106600,-0.559912,0.697822,0.009052,0.495837,-0.607745,-0.699881,0.965858,-0.234960,22.160078,33.624004,-22.056168,0.554991,0.864652,1.220504,-0.169511,0.000000,0.000000,0.000000,0.000000,0.000000,0.000000
12707128.000000,-2.396619,-1.662207,1.055763,-1.372144,1.776125,1.107631,-0.560146,0.700495,0.008594,0.503714,-0.613429,-0.701238,0.990041,-0.233169,22.509199,33.675579,-22.179153,0.654173,0.966276,1.305648,-0.142960,0.000000,0.000000,0.000000,0.000000,0.000000,0.000000
12707129.000000,-2.395881,-1.662199,1.056293,-1.372794,1.775428,1.108685,-0.560374,0.699067,0.008027,0.512342,-0.643712,-0.715329,1.012129,-0.229970,22.136274,33.746990,-22.079971,0.408202,0.978177,1.416427,-0.163102,0.000000,0.000000,0.000000,0.000000,0.000000,0.000000
12707130.000000,-2.395140,-1.662197,1.056844,-1.373466,1.774722,1.109744,-0.560603,0.697957,0.005946,0.521150,-0.656989,-0.719927,1.030298,-0.227694,20.501753,33.893780,-21.837967,-0.135317,0.966276,1.526290,-0.169511,0.000000,0.000000,0.000000,0.000000,0.000000,0.000000
12707131.000000,-2.394401,-1.662191,1.057422,-1.374161,1.774021,1.110836,-0.560829,0.707915,0.004872,0.542576,-0.662550,-0.709839,1.039098,-0.223168,17.879377,33.893780,-21.175430,-0.976381,0.864652,1.578475,-0.149369,0.000000,0.000000,0.000000,0.000000,0.000000,0.000000
12707132.000000,-2.393665,-1.662190,1.058027,-1.374866,1.773321,1.111930,-0.561052,0.721566,0.002426,0.561386,-0.674601,-0.708903,1.074149,-0.222293,14.661908,33.822369,-20.362137,-1.916628,0.769437,1.643478,-0.169511,0.000000,0.000000,0.000000,0.000000,0.000000,0.000000
12707133.000000,-2.392927,-1.662191,1.058644,-1.375613,1.772643,1.113056,-0.561275,0.734511,0.003883,0.578546,-0.691986,-0.691877,1.086902,-0.218924,11.515851,33.600201,-19.429825,-2.384767,0.512174,1.714889,-0.155778,0.000000,0.000000,0.000000,0.000000,0.000000,0.000000
12707134.000000,-2.392205,-1.662194,1.059300,-1.376347,1.771967,1.114206,-0.561497,0.739350,0.004552,0.594682,-0.700011,-0.679304,1.106455,-0.218144,8.794293,33.382000,-18.672073,-2.928285,0.219205,1.727706,-0.089860,0.000000,0.000000,0.000000,0.000000,0.000000,0.000000
12707135.000000,-2.391471,-1.662207,1.059957,-1.377070,1.771312,1.115369,-0.561710,0.743346,-0.001753,0.610385,-0.702085,-0.669137,1.126981,-0.217203,6.318708,33.306622,-17.858780,-3.348818,0.027860,1.624252,-0.142960,0.000000,0.000000,0.000000,0.000000,0.000000,0.000000
12707136.000000,-2.390744,-1.662222,1.060634,-1.377805,1.770647,1.116571,-0.561928,0.741899,-0.004521,0.624581,-0.703094,-0.661489,1.152440,-0.218224,4.287458,33.282818,-17.196243,-3.547182,-0.019747,1.442062,-0.155778,0.000000,0.000000,0.000000,0.000000,0.000000,0.000000
12707137.000000,-2.390024,-1.662242,1.061302,-1.378508,1.770000,1.117792,-0.562156,0.741083,-0.010499,0.630345,-0.707946,-0.660023,1.173827,-0.222234,2.553754,33.306622,-16.410721,-3.868532,0.027860,1.364242,-0.083451,0.000000,0.000000,0.000000,0.000000,0.000000,0.000000
12707138.000000,-2.389306,-1.662267,1.061983,-1.379222,1.769343,1.118997,-0.562373,0.728943,-0.015582,0.634480,-0.704065,-0.657524,1.189227,-0.220078,1.169172,33.354229,-15.946548,-3.967714,0.189908,1.402694,-0.142960,0.000000,0.000000,0.000000,0.000000,0.000000,0.000000
12707139.000000,-2.388587,-1.662302,1.062670,-1.379933,1.768686,1.120236,-0.562594,0.727953,-0.020432,0.650300,-0.698443,-0.655965,1.200570,-0.220757,-0.044818,33.453411,-15.478409,-3.967714,0.386747,1.422836,-0.155778,0.000000,0.000000,0.000000,0.000000,0.000000,0.000000
12707140.000000,-2.387859,-1.662338,1.063363,-1.380631,1.768038,1.121479,-0.562808,0.724694,-0.026484,0.663550,-0.698984,-0.655551,1.218217,-0.215818,-1.108050,33.528790,-14.990433,-3.797121,0.601896,1.259872,-0.182328,0.000000,0.000000,0.000000,0.000000,0.000000,0.000000
12707141.000000,-2.387129,-1.662376,1.064040,-1.381341,1.767402,1.122741,-0.563033,0.723212,-0.032654,0.665882,-0.700469,-0.652105,1.232420,-0.223633,-2.024493,33.552593,-14.498489,-3.499574,0.661405,1.058456,-0.110001,0.000000,0.000000,0.000000,0.000000,0.000000,0.000000
12707142.000000,-2.386404,-1.662414,1.064736,-1.382046,1.766789,1.123976,-0.563244,0.727003,-0.032471,0.672762,-0.713958,-0.637568,1.228309,-0.217562,-2.841753,33.501019,-14.081924,-3.202028,0.608304,1.110641,-0.149369,0.000000,0.000000,0.000000,0.000000,0.000000,0.000000
12707143.000000,-2.385674,-1.662451,1.065427,-1.382744,1.766171,1.125189,-0.563456,0.720980,-0.031058,0.680270,-0.707153,-0.635883,1.219846,-0.213122,-3.559832,33.382000,-13.784378,-2.757692,0.542386,1.188461,-0.188737,0.000000,0.000000,0.000000,0.000000,0.000000,0.000000
12707144.000000,-2.384954,-1.662480,1.066117,-1.383428,1.765566,1.126416,-0.563676,0.712188,-0.028330,0.684851,-0.691310,-0.626229,1.217394,-0.213890,-4.027972,33.183636,-13.221024,-2.583132,0.369352,1.234237,-0.122819,0.000000,0.000000,0.000000,0.000000,0.000000,0.000000
12707145.000000,-2.384244,-1.662502,1.066818,-1.384101,1.764975,1.127624,-0.563883,0.707103,-0.023764,0.685040,-0.686978,-0.621824,1.218407,-0.210918,-4.377093,32.866253,-12.756851,-2.436342,0.255826,1.279098,-0.163102,0.000000,0.000000,0.000000,0.000000,0.000000,0.000000
12707146.000000,-2.383538,-1.662515,1.067516,-1.384759,1.764385,1.128827,-0.564088,0.703463,-0.018423,0.691167,-0.673364,-0.607241,1.215272,-0.208739,-4.599261,32.449688,-12.364090,-2.606935,0.129484,1.448470,-0.188737,0.000000,0.000000,0.000000,0.000000,0.000000,0.000000
12707147.000000,-2.382842,-1.662512,1.068228,-1.385415,1.763799,1.130039,-0.564303,0.701963,-0.010517,0.697718,-0.667419,-0.606805,1.210366,-0.215228,-4.773821,31.838726,-12.018936,-2.757692,0.105680,1.546432,-0.142960,0.000000,0.000000,0.000000,0.000000,0.000000,0.000000
12707148.000000,-2.382141,-1.662504,1.068940,-1.386055,1.763199,1.131253,-0.564508,0.703173,-0.001345,0.707218,-0.652802,-0.605865,1.213044,-0.210941,-4.920611,31.199993,-11.796768,-2.904482,0.207303,1.364242,-0.188737,0.000000,0.000000,0.000000,0.000000,0.000000,0.000000
12707149.000000,-2.381436,-1.662493,1.069651,-1.386706,1.762612,1.132495,-0.564726,0.702971,0.004299,0.708471,-0.642659,-0.602800,1.217205,-0.216598,-5.095171,30.589031,-11.380203,-2.979860,0.273221,1.039230,-0.122819,0.000000,0.000000,0.000000,0.000000,0.000000,0.000000
12707150.000000,-2.380753,-1.662472,1.070388,-1.387344,1.762025,1.133722,-0.564936,0.696431,0.012592,0.715204,-0.638064,-0.597239,1.239853,-0.213323,-5.142779,29.930462,-11.257217,-2.979860,0.362943,0.895492,-0.136552,0.000000,0.000000,0.000000,0.000000,0.000000,0.000000
12707151.000000,-2.380065,-1.662450,1.071119,-1.387984,1.761445,1.134921,-0.565135,0.688769,0.013566,0.718942,-0.633524,-0.592568,1.230401,-0.205752,-5.095171,29.343304,-11.062820,-3.027467,0.344633,0.901900,-0.182328,0.000000,0.000000,0.000000,0.000000,0.000000,0.000000
12707152.000000,-2.379390,-1.662426,1.071856,-1.388612,1.760867,1.136124,-0.565340,0.682952,0.015617,0.718135,-0.627588,-0.587695,1.225504,-0.202603,-4.995989,28.827557,-10.765274,-3.178224,0.261320,0.941268,-0.155778,0.000000,0.000000,0.000000,0.000000,0.000000,0.000000
12707153.000000,-2.378711,-1.662403,1.072583,-1.389222,1.760303,1.137331,-0.565544,0.678388,0.018234,0.724561,-0.618321,-0.580294,1.222701,-0.202807,-4.869036,28.410992,-10.301102,-3.400392,0.207303,0.869857,-0.163102,0.000000,0.000000,0.000000,0.000000,0.000000,0.000000
12707154.000000,-2.378030,-1.662377,1.073334,-1.389836,1.759747,1.138545,-0.565743,0.675990,0.021016,0.734223,-0.609360,-0.564952,1.216795,-0.200135,-4.746050,27.970623,-10.055130,-3.670168,0.027860,0.869857,-0.142960,0.000000,0.000000,0.000000,0.000000,0.000000,0.000000
12707155.000000,-2.377350,-1.662352,1.074101,-1.390461,1.759199,1.139761,-0.565938,0.678644,0.021561,0.746091,-0.625535,-0.554829,1.214916,-0.195740,-4.821429,27.601665,-9.884537,-3.570986,-0.019747,0.966903,-0.182328,0.000000,0.000000,0.000000,0.000000,0.000000,0.000000
12707156.000000,-2.376652,-1.662330,1.074846,-1.391086,1.758638,1.140977,-0.566139,0.680094,0.020431,0.747064,-0.622631,-0.552616,1.217717,-0.199211,-5.067400,27.308086,-9.491776,-3.547182,-0.055453,0.863448,-0.155778,0.000000,0.000000,0.000000,0.000000,0.000000,0.000000
12707157.000000,-2.375953,-1.662314,1.075616,-1.391713,1.758070,1.142217,-0.566334,0.699685,0.020606,0.749491,-0.619116,-0.550992,1.214748,-0.198042,-5.416522,27.113689,-9.170425,-3.400392,0.052579,0.706893,-0.142960,0.000000,0.000000,0.000000,0.000000,0.000000,0.000000
12707158.000000,-2.375251,-1.662302,1.076404,-1.392316,1.757509,1.143440,-0.566520,0.700308,0.019037,0.758234,-0.608584,-0.558870,1.224192,-0.193307,-5.714068,27.014507,-9.047440,-3.448000,0.154203,0.532027,-0.196061,0.000000,0.000000,0.000000,0.000000,0.000000,0.000000
12707159.000000,-2.374549,-1.662291,1.077193,-1.392915,1.756953,1.144676,-0.566716,0.698593,0.015032,0.766071,-0.600620,-0.554738,1.221235,-0.200793,-5.936236,26.919292,-8.952225,-3.622560,0.147794,0.492660,-0.163102,0.000000,0.000000,0.000000,0.000000,0.000000,0.000000
12707160.000000,-2.373867,-1.662286,1.078007,-1.393504,1.756405,1.145904,-0.566911,0.691988,0.010107,0.781344,-0.607180,-0.568801,1.224145,-0.202153,-6.035418,26.919292,-8.999832,-3.868532,0.154203,0.557662,-0.163102,0.000000,0.000000,0.000000,0.000000,0.000000,0.000000
12707161.000000,-2.373176,-1.662290,1.078803,-1.394070,1.755852,1.147117,-0.567100,0.689838,0.006538,0.787373,-0.589417,-0.559459,1.221390,-0.197464,-6.158404,27.066082,-8.805435,-4.265260,0.159696,0.654708,-0.196061,0.000000,0.000000,0.000000,0.000000,0.000000,0.000000
12707162.000000,-2.372486,-1.662289,1.079632,-1.394652,1.755307,1.148329,-0.567296,0.683107,0.003557,0.799886,-0.584340,-0.556144,1.211287,-0.196646,-6.281390,27.113689,-8.853043,-4.562807,0.154203,0.889083,-0.163102,0.000000,0.000000,0.000000,0.000000,0.000000,0.000000
12707163.000000,-2.371791,-1.662282,1.080479,-1.395217,1.754774,1.149520,-0.567486,0.685536,0.006892,0.813022,-0.579881,-0.550956,1.202343,-0.194457,-6.602740,27.066082,-8.924454,-4.808778,0.069974,1.136276,-0.175919,0.000000,0.000000,0.000000,0.000000,0.000000,0.000000
12707164.000000,-2.371091,-1.662279,1.081327,-1.395800,1.754250,1.150751,-0.567675,0.688132,0.005592,0.825356,-0.577994,-0.540356,1.213500,-0.188942,-6.852679,27.042278,-9.075211,-4.832582,-0.043551,1.077682,-0.169511,0.000000,0.000000,0.000000,0.000000,0.000000,0.000000
12707165.000000,-2.370391,-1.662278,1.082189,-1.396374,1.753719,1.151999,-0.567867,0.691430,0.003501,0.835488,-0.569046,-0.537276,1.220748,-0.190269,-7.273211,27.066082,-9.099014,-4.856386,-0.060946,0.850631,-0.130143,0.000000,0.000000,0.000000,0.000000,0.000000,0.000000
12707166.000000,-2.369670,-1.662272,1.083041,-1.396936,1.753187,1.153214,-0.568054,0.700030,0.004345,0.825909,-0.562871,-0.532167,1.226851,-0.188217,-7.840533,26.990704,-9.023636,-4.832582,-0.037142,0.746261,-0.163102,0.000000,0.000000,0.000000,0.000000,0.000000,0.000000
12707167.000000,-2.368950,-1.662262,1.083914,-1.397501,1.752658,1.154423,-0.568238,0.701955,0.006516,0.836669,-0.564256,-0.536841,1.216295,-0.184903,-8.388019,26.843914,-8.876846,-4.784975,0.004056,0.843307,-0.142960,0.000000,0.000000,0.000000,0.000000,0.000000,0.000000
12707168.000000,-2.368242,-1.662253,1.084793,-1.398055,1.752136,1.155608,-0.568421,0.706037,0.006710,0.844804,-0.559263,-0.531541,1.210466,-0.179841,-8.907733,26.748699,-8.682449,-4.757204,0.046171,0.966903,-0.188737,0.000000,0.000000,0.000000,0.000000,0.000000,0.000000
12707169.000000,-2.367522,-1.662245,1.085679,-1.398612,1.751617,1.156829,-0.568606,0.706036,0.009515,0.854238,-0.557116,-0.527391,1.209239,-0.178460,-9.375873,26.673321,-8.531693,-4.808778,0.093778,0.882674,-0.182328,0.000000,0.000000,0.000000,0.000000,0.000000,0.000000
12707170.000000,-2.366815,-1.662235,1.086579,-1.399171,1.751101,1.158046,-0.568789,0.707645,0.009006,0.866021,-0.555189,-0.516850,1.203313,-0.177813,-9.847980,26.574139,-8.384903,-4.884157,0.052579,0.863448,-0.155778,0.000000,0.000000,0.000000,0.000000,0.000000,0.000000
12707171.000000,-2.366088,-1.662225,1.087486,-1.399716,1.750602,1.159242,-0.568961,0.710042,0.006818,0.879671,-0.550345,-0.504682,1.205148,-0.174425,-10.391498,26.550335,-8.337296,-4.931764,0.027860,0.882674,-0.208878,0.000000,0.000000,0.000000,0.000000,0.000000,0.000000
12707172.000000,-2.365367,-1.662224,1.088421,-1.400271,1.750097,1.160445,-0.569147,0.714047,0.006110,0.901280,-0.543910,-0.502863,1.198214,-0.183803,-10.835834,26.625713,-8.384903,-4.907960,-0.043551,0.928451,-0.136552,0.000000,0.000000,0.000000,0.000000,0.000000,0.000000
12707173.000000,-2.364648,-1.662224,1.089381,-1.400818,1.749601,1.161659,-0.569322,0.717636,0.004781,0.909797,-0.559200,-0.499006,1.200112,-0.182832,-11.331744,26.748699,-8.583267,-4.808778,-0.079257,0.960494,-0.188737,0.000000,0.000000,0.000000,0.000000,0.000000,0.000000
12707174.000000,-2.363924,-1.662232,1.090324,-1.401375,1.749100,1.162847,-0.569502,0.710976,0.001945,0.920544,-0.554246,-0.502241,1.207230,-0.179459,-11.776080,26.966900,-8.607071,-4.661989,-0.091158,0.960494,-0.202470,0.000000,0.000000,0.000000,0.000000,0.000000,0.000000
12707175.000000,-2.363214,-1.662234,1.091294,-1.401926,1.748601,1.164050,-0.569689,0.724020,-0.000879,0.932605,-0.550214,-0.497431,1.205329,-0.180897,-12.149005,27.089886,-8.753860,-4.634218,-0.150668,0.954086,-0.130143,0.000000,0.000000,0.000000,0.000000,0.000000,0.000000
12707177.000000,-2.361788,-1.662243,1.093250,-1.402989,1.747608,1.166421,-0.570040,0.709471,-0.004255,0.962391,-0.539459,-0.493742,1.202310,-0.180121,-12.668719,27.335857,-8.853043,-4.907960,-0.049044,1.090499,-0.142960,0.000000,0.000000,0.000000,0.000000,0.000000,0.000000
12707178.000000,-2.361081,-1.662251,1.094220,-1.403524,1.747119,1.167607,-0.570210,0.710799,-0.004768,0.960695,-0.537163,-0.495464,1.200069,-0.176916,-12.990069,27.431072,-8.583267,-5.054750,-0.025240,1.240646,-0.169511,0.000000,0.000000,0.000000,0.000000,0.000000,0.000000
12707179.000000,-2.360376,-1.662260,1.095196,-1.404051,1.746618,1.168781,-0.570379,0.704962,-0.005277,0.967770,-0.532153,-0.498600,1.201258,-0.174182,-13.188434,27.530254,-8.384903,-5.177736,0.093778,1.305648,-0.202470,0.000000,0.000000,0.000000,0.000000,0.000000,0.000000
12707180.000000,-2.359669,-1.662265,1.096181,-1.404586,1.746121,1.169973,-0.570548,0.703059,-0.003908,0.980008,-0.525460,-0.496302,1.194420,-0.169325,-13.434405,27.554058,-8.067520,-5.229311,0.112089,1.227828,-0.202470,0.000000,0.000000,0.000000,0.000000,0.000000,0.000000
12707181.000000,-2.358960,-1.662276,1.097203,-1.405107,1.745645,1.171151,-0.570716,0.703981,-0.007529,0.992059,-0.521161,-0.489228,1.219242,-0.169951,-13.807330,27.629436,-7.944534,-5.276918,0.088285,1.129867,-0.208878,0.000000,0.000000,0.000000,0.000000,0.000000,0.000000
12707182.000000,-2.358255,-1.662286,1.098194,-1.405632,1.745166,1.172355,-0.570892,0.702997,-0.007984,0.998982,-0.522609,-0.485743,1.215813,-0.172124,-14.005694,27.748455,-7.575577,-5.304689,0.010465,0.901900,-0.163102,0.000000,0.000000,0.000000,0.000000,0.000000,0.000000
12707183.000000,-2.357576,-1.662294,1.099214,-1.406153,1.744691,1.173565,-0.571055,0.694859,-0.007221,0.999252,-0.517388,-0.478776,1.210725,-0.167518,-13.954120,27.823833,-7.381180,-5.451478,-0.091158,0.739852,-0.182328,0.000000,0.000000,0.000000,0.000000,0.000000,0.000000
12707184.000000,-2.356897,-1.662302,1.100234,-1.406659,1.744233,1.174745,-0.571223,0.688161,-0.007235,1.012393,-0.512276,-0.474727,1.197325,-0.163905,-13.858905,27.923016,-7.206619,-5.649843,-0.157076,0.687667,-0.182328,0.000000,0.000000,0.000000,0.000000,0.000000,0.000000
12707185.000000,-2.356223,-1.662302,1.101269,-1.407161,1.743768,1.175930,-0.571384,0.681684,-0.004250,1.019362,-0.505181,-0.470418,1.180163,-0.165822,-13.684344,27.895245,-6.964615,-5.947389,-0.246798,0.765487,-0.182328,0.000000,0.000000,0.000000,0.000000,0.000000,0.000000
12707186.000000,-2.355559,-1.662300,1.102326,-1.407650,1.743309,1.177119,-0.571545,0.673294,-0.004402,1.023401,-0.496010,-0.464311,1.171734,-0.167068,-13.632770,27.823833,-6.865433,-6.316347,-0.187289,0.798446,-0.188737,0.000000,0.000000,0.000000,0.000000,0.000000,0.000000
12707187.000000,-2.354890,-1.662293,1.103388,-1.408138,1.742849,1.178306,-0.571717,0.669100,0.000191,1.036394,-0.491691,-0.466578,1.172056,-0.168896,-13.585162,27.677044,-6.865433,-6.736879,-0.192782,0.778304,-0.169511,0.000000,0.000000,0.000000,0.000000,0.000000,0.000000
12707188.000000,-2.354232,-1.662280,1.104470,-1.408622,1.742390,1.179513,-0.571876,0.677149,0.005094,1.053552,-0.484062,-0.458696,1.168156,-0.164324,-13.585162,27.454876,-6.790054,-7.058229,-0.204684,0.687667,-0.196061,0.000000,0.000000,0.000000,0.000000,0.000000,0.000000
12707189.000000,-2.353565,-1.662270,1.105562,-1.409099,1.741940,1.180711,-0.572041,0.674675,0.007770,1.058189,-0.476734,-0.454910,1.173755,-0.162588,-13.708148,27.260479,-6.813858,-7.304201,-0.150668,0.564071,-0.169511,0.000000,0.000000,0.000000,0.000000,0.000000,0.000000
12707190.000000,-2.352900,-1.662254,1.106654,-1.409580,1.741482,1.181920,-0.572203,0.672429,0.010154,1.074633,-0.475736,-0.457034,1.174732,-0.165626,-13.708148,27.042278,-6.865433,-7.454957,-0.180880,0.486251,-0.149369,0.000000,0.000000,0.000000,0.000000,0.000000,0.000000
12707191.000000,-2.352246,-1.662241,1.107761,-1.410059,1.741034,1.183137,-0.572359,0.665679,0.010755,1.086361,-0.486616,-0.450202,1.180223,-0.160717,-13.759723,26.867718,-6.790054,-7.478761,-0.211093,0.446883,-0.202470,0.000000,0.000000,0.000000,0.000000,0.000000,0.000000
12707192.000000,-2.351591,-1.662227,1.108861,-1.410538,1.740589,1.184316,-0.572520,0.658219,0.011088,1.088260,-0.486040,-0.446459,1.173254,-0.160572,-13.759723,26.697124,-6.667068,-7.526369,-0.204684,0.544845,-0.163102,0.000000,0.000000,0.000000,0.000000,0.000000,0.000000
12707193.000000,-2.350944,-1.662219,1.109974,-1.411004,1.740146,1.185519,-0.572672,0.669263,0.009007,1.093511,-0.474905,-0.444159,1.176756,-0.158372,-13.759723,26.625713,-6.397293,-7.700929,-0.312716,0.622665,-0.182328,0.000000,0.000000,0.000000,0.000000,0.000000,0.000000
12707194.000000,-2.350294,-1.662202,1.111107,-1.411463,1.739705,1.186703,-0.572824,0.662748,0.011161,1.109205,-0.466559,-0.442080,1.177548,-0.156619,-13.783526,26.403545,-6.179092,-7.899293,-0.318209,0.700484,-0.196061,0.000000,0.000000,0.000000,0.000000,0.000000,0.000000
12707195.000000,-2.349643,-1.662190,1.112246,-1.411920,1.739271,1.187906,-0.572986,0.659775,0.011400,1.120377,-0.459768,-0.441654,1.183969,-0.158397,-13.759723,26.232952,-6.202896,-8.121462,-0.389620,0.759078,-0.149369,0.000000,0.000000,0.000000,0.000000,0.000000,0.000000
12707196.000000,-2.349004,-1.662176,1.113413,-1.412387,1.738840,1.189125,-0.573131,0.649909,0.011567,1.130982,-0.458504,-0.444617,1.188495,-0.155018,-13.783526,26.062359,-6.202896,-8.196840,-0.455538,0.668441,-0.208878,0.000000,0.000000,0.000000,0.000000,0.000000,0.000000
12707197.000000,-2.348357,-1.662170,1.114598,-1.412846,1.738403,1.190318,-0.573290,0.649636,0.009458,1.148908,-0.458060,-0.441749,1.190267,-0.157111,-13.882709,25.986980,-6.520279,-8.220644,-0.360323,0.635482,-0.149369,0.000000,0.000000,0.000000,0.000000,0.000000,0.000000
12707198.000000,-2.347711,-1.662159,1.115808,-1.413319,1.737972,1.191510,-0.573432,0.644530,0.008519,1.171811,-0.460110,-0.439940,1.185664,-0.154880,-13.882709,25.891766,-6.889236,-8.097658,-0.353915,0.687667,-0.188737,0.000000,0.000000,0.000000,0.000000,0.000000,0.000000
12707199.000000,-2.347075,-1.662155,1.117042,-1.413785,1.737548,1.192680,-0.573583,0.648386,0.006319,1.185875,-0.465885,-0.434668,1.208916,-0.151342,-13.954120,25.863995,-7.404984,-7.970705,-0.330111,0.804855,-0.163102,0.000000,0.000000,0.000000,0.000000,0.000000,0.000000
12707200.000000,-2.346442,-1.662152,1.118265,-1.414248,1.737125,1.193864,-0.573730,0.640930,0.003556,1.199045,-0.460836,-0.426356,1.200961,-0.148327,-13.906512,25.891766,-7.750137,-7.946901,-0.287997,0.889083,-0.149369,0.000000,0.000000,0.000000,0.000000,0.000000,0.000000
12707201.000000,-2.345819,-1.662156,1.119501,-1.414708,1.736702,1.195061,-0.573869,0.632372,0.000695,1.206481,-0.457498,-0.426997,1.194622,-0.148028,-13.930316,25.963177,-7.869156,-8.046083,-0.330111,0.850631,-0.196061,0.000000,0.000000,0.000000,0.000000,0.000000,0.000000
12707202.000000,-2.345185,-1.662160,1.120742,-1.415166,1.736278,1.196234,-0.574018,0.633485,-0.001861,1.224511,-0.454685,-0.426710,1.196164,-0.150175,-14.005694,26.062359,-8.115128,-8.022280,-0.270602,0.804855,-0.175919,0.000000,0.000000,0.000000,0.000000,0.000000,0.000000
12707203.000000,-2.344557,-1.662164,1.121994,-1.415633,1.735874,1.197402,-0.574164,0.631994,-0.002914,1.224758,-0.457660,-0.416301,1.186429,-0.151483,-13.981891,26.133770,-8.091324,-8.022280,-0.324618,0.993453,-0.169511,0.000000,0.000000,0.000000,0.000000,0.000000,0.000000
12707204.000000,-2.343939,-1.662176,1.123252,-1.416107,1.735461,1.198577,-0.574308,0.628938,-0.005936,1.226798,-0.473357,-0.415837,1.180378,-0.151278,-14.005694,26.304363,-7.869156,-7.800111,-0.342013,1.084090,-0.196061,0.000000,0.000000,0.000000,0.000000,0.000000,0.000000
12707205.000000,-2.343307,-1.662194,1.124497,-1.416586,1.735026,1.199754,-0.574458,0.624710,-0.008559,1.228933,-0.471977,-0.421011,1.187463,-0.149330,-14.029498,26.772503,-7.896927,-7.677125,-0.204684,0.980636,-0.155778,0.000000,0.000000,0.000000,0.000000,0.000000,0.000000
12707206.000000,-2.342699,-1.662214,1.125747,-1.417070,1.734616,1.200951,-0.574601,0.619391,-0.014069,1.223918,-0.475127,-0.409352,1.191339,-0.149095,-13.759723,27.554058,-8.238113,-7.502565,-0.222994,0.863448,-0.196061,0.000000,0.000000,0.000000,0.000000,0.000000,0.000000
12707207.000000,-2.342080,-1.662234,1.126999,-1.417535,1.734225,1.202127,-0.574750,0.618099,-0.016483,1.223403,-0.466447,-0.402641,1.196314,-0.151535,-13.462176,28.581585,-9.047440,-7.502565,-0.318209,0.850631,-0.163102,0.000000,0.000000,0.000000,0.000000,0.000000,0.000000
12707208.000000,-2.341469,-1.662257,1.128212,-1.418005,1.733822,1.203331,-0.574895,0.618989,-0.019875,1.219461,-0.462350,-0.401601,1.195907,-0.151697,-12.914691,29.855083,-9.908340,-7.502565,-0.287997,0.811263,-0.155778,0.000000,0.000000,0.000000,0.000000,0.000000,0.000000
12707209.000000,-2.340879,-1.662276,1.129443,-1.418470,1.733427,1.204545,-0.575034,0.606910,-0.023417,1.222041,-0.466101,-0.399740,1.203959,-0.147577,-12.224383,31.227764,-11.011246,-7.601747,-0.180880,0.798446,-0.169511,0.000000,0.000000,0.000000,0.000000,0.000000,0.000000
12707210.000000,-2.340263,-1.662279,1.130654,-1.418927,1.733032,1.205712,-0.575180,0.607049,-0.019682,1.222572,-0.460817,-0.398101,1.198382,-0.149385,-11.803851,32.378277,-12.141922,-7.724733,-0.067355,1.117049,-0.163102,0.000000,0.000000,0.000000,0.000000,0.000000,0.000000
12707211.000000,-2.339662,-1.662281,1.131890,-1.419390,1.732639,1.206886,-0.575320,0.601730,-0.016813,1.229745,-0.458147,-0.395514,1.191541,-0.145778,-11.355548,33.405804,-13.320206,-7.776308,0.015958,1.461288,-0.175919,0.000000,0.000000,0.000000,0.000000,0.000000,0.000000
12707212.000000,-2.339048,-1.662274,1.133130,-1.419842,1.732254,1.208067,-0.575467,0.604844,-0.012077,1.233324,-0.454610,-0.392426,1.193663,-0.147910,-11.109576,34.187359,-14.399307,-7.923097,0.058073,1.578475,-0.169511,0.000000,0.000000,0.000000,0.000000,0.000000,0.000000
12707213.000000,-2.338427,-1.662268,1.134345,-1.420309,1.731860,1.209278,-0.575606,0.608916,-0.006984,1.232243,-0.458973,-0.392459,1.197837,-0.144476,-10.958819,34.873699,-15.260208,-7.923097,0.195402,1.481429,-0.196061,0.000000,0.000000,0.000000,0.000000,0.000000,0.000000
12707214.000000,-2.337820,-1.662257,1.135584,-1.420778,1.731478,1.210477,-0.575746,0.604518,-0.000162,1.233207,-0.459678,-0.395838,1.196125,-0.142694,-10.859637,35.413250,-16.069534,-7.875490,0.219205,1.481429,-0.196061,0.000000,0.000000,0.000000,0.000000,0.000000,0.000000
12707215.000000,-2.337208,-1.662248,1.136804,-1.421244,1.731110,1.211638,-0.575889,0.606814,0.002991,1.232133,-0.462333,-0.382428,1.191022,-0.141999,-10.788226,35.877422,-16.609085,-7.748537,0.123990,1.584884,-0.188737,0.000000,0.000000,0.000000,0.000000,0.000000,0.000000
12707216.000000,-2.336599,-1.662249,1.138052,-1.421701,1.730738,1.212820,-0.576025,0.607505,0.003545,1.243520,-0.452457,-0.379474,1.178807,-0.140588,-10.665240,36.389202,-17.124832,-7.748537,0.088285,1.605026,-0.196061,0.000000,0.000000,0.000000,0.000000,0.000000,0.000000
12707217.000000,-2.336013,-1.662253,1.139313,-1.422145,1.730361,1.213987,-0.576169,0.600109,0.001619,1.242892,-0.446870,-0.382554,1.171181,-0.141450,-10.466876,36.857342,-17.640579,-7.875490,0.058073,1.519881,-0.149369,0.000000,0.000000,0.000000,0.000000,0.000000,0.000000
12707218.000000,-2.335435,-1.662263,1.140564,-1.422567,1.729992,1.215151,-0.576300,0.589663,-0.003728,1.250459,-0.439935,-0.376471,1.158566,-0.134619,-10.117755,37.345318,-18.156326,-8.292055,-0.067355,1.597701,-0.188737,0.000000,0.000000,0.000000,0.000000,0.000000,0.000000
12707219.000000,-2.334872,-1.662282,1.141861,-1.422981,1.729629,1.216310,-0.576436,0.581776,-0.009089,1.259597,-0.426397,-0.364258,1.147345,-0.136333,-9.697223,37.884869,-18.965652,-8.811769,-0.162570,1.702071,-0.175919,0.000000,0.000000,0.000000,0.000000,0.000000,0.000000
12707220.000000,-2.334313,-1.662306,1.143148,-1.423381,1.729255,1.217444,-0.576575,0.575498,-0.011912,1.271933,-0.416901,-0.373030,1.138732,-0.137736,-9.252887,38.372845,-19.751175,-9.331484,-0.157076,1.884261,-0.136552,0.000000,0.000000,0.000000,0.000000,0.000000,0.000000
12707221.000000,-2.333758,-1.662350,1.144452,-1.423781,1.728877,1.218602,-0.576702,0.561569,-0.022494,1.278547,-0.406273,-0.371576,1.136343,-0.135035,-8.808551,39.082989,-20.512894,-9.827394,-0.091158,1.909896,-0.202470,0.000000,0.000000,0.000000,0.000000,0.000000,0.000000
12707222.000000,-2.333215,-1.662394,1.145756,-1.424175,1.728506,1.219780,-0.576838,0.558279,-0.028950,1.280548,-0.412076,-0.367547,1.141008,-0.136273,-8.388019,39.745525,-21.052444,-10.124941,0.004056,1.806442,-0.182328,0.000000,0.000000,0.000000,0.000000,0.000000,0.000000
12707223.000000,-2.332667,-1.662439,1.147042,-1.424571,1.728135,1.220923,-0.576976,0.551937,-0.031877,1.279282,-0.404071,-0.372565,1.139980,-0.138742,-8.138080,40.332684,-21.516617,-10.446291,0.076383,1.786300,-0.122819,0.000000,0.000000,0.000000,0.000000,0.000000,0.000000
12707224.000000,-2.332134,-1.662493,1.148340,-1.424974,1.727757,1.222082,-0.577105,0.547012,-0.038953,1.279921,-0.402832,-0.375219,1.141087,-0.133671,-7.816729,40.991253,-21.885574,-10.541506,0.117582,1.760665,-0.130143,0.000000,0.000000,0.000000,0.000000,0.000000,0.000000
12707225.000000,-2.331600,-1.662540,1.149617,-1.425367,1.727393,1.223222,-0.577227,0.538566,-0.041258,1.277686,-0.398466,-0.370725,1.138988,-0.127574,-7.443804,41.530804,-21.810196,-10.640688,0.117582,1.760665,-0.196061,0.000000,0.000000,0.000000,0.000000,0.000000,0.000000
12707226.000000,-2.331075,-1.662598,1.150883,-1.425768,1.727027,1.224375,-0.577354,0.529190,-0.045547,1.277623,-0.397813,-0.367188,1.145488,-0.129760,-7.074847,42.169537,-21.786392,-10.569277,0.129484,1.793624,-0.188737,0.000000,0.000000,0.000000,0.000000,0.000000,0.000000
12707227.000000,-2.330560,-1.662642,1.152150,-1.426175,1.726672,1.225529,-0.577482,0.525628,-0.043305,1.270281,-0.406816,-0.366699,1.138267,-0.129361,-6.701922,42.582134,-21.540421,-10.446291,0.052579,1.890670,-0.136552,0.000000,0.000000,0.000000,0.000000,0.000000,0.000000
12707228.000000,-2.330044,-1.662682,1.153442,-1.426572,1.726324,1.226668,-0.577601,0.516674,-0.040543,1.278702,-0.405783,-0.361712,1.144127,-0.125089,-6.380572,42.927288,-21.885574,-10.295534,-0.037142,1.981307,-0.182328,0.000000,0.000000,0.000000,0.000000,0.000000,0.000000
12707229.000000,-2.329528,-1.662723,1.154724,-1.426983,1.725984,1.227832,-0.577723,0.513005,-0.038193,1.276066,-0.405525,-0.348567,1.147365,-0.128802,-6.134600,43.244671,-21.861771,-10.073366,-0.126864,1.916305,-0.169511,0.000000,0.000000,0.000000,0.000000,0.000000,0.000000
12707230.000000,-2.329037,-1.662759,1.156022,-1.427394,1.725633,1.228984,-0.577851,0.505280,-0.037048,1.278293,-0.404704,-0.348723,1.153003,-0.127961,-5.714068,43.439068,-22.056168,-9.752016,-0.085665,1.806442,-0.130143,0.000000,0.000000,0.000000,0.000000,0.000000,0.000000
12707231.000000,-2.328538,-1.662793,1.157319,-1.427815,1.725272,1.230139,-0.577971,0.501195,-0.034957,1.282411,-0.407248,-0.354717,1.151462,-0.124957,-5.364947,43.562054,-22.472733,-9.430666,0.022367,1.844894,-0.169511,0.000000,0.000000,0.000000,0.000000,0.000000,0.000000
12707232.000000,-2.328054,-1.662816,1.158626,-1.428229,1.724926,1.231290,-0.578092,0.498779,-0.033471,1.280389,-0.404556,-0.353212,1.152195,-0.123776,-5.019793,43.538250,-22.841690,-9.283876,0.076383,1.949264,-0.169511,0.000000,0.000000,0.000000,0.000000,0.000000,0.000000
12707233.000000,-2.327572,-1.662837,1.159920,-1.428653,1.724572,1.232430,-0.578212,0.490411,-0.028000,1.308235,-0.409098,-0.355477,1.147407,-0.122844,-4.547686,43.439068,-23.333633,-9.010134,0.231107,1.968490,-0.175919,0.000000,0.000000,0.000000,0.000000,0.000000,0.000000
12707234.000000,-2.327089,-1.662866,1.161217,-1.429081,1.724215,1.233584,-0.578331,0.482785,-0.029385,1.314812,-0.410582,-0.353696,1.141154,-0.126251,-4.127154,43.415264,-23.555801,-8.787966,0.308927,1.974899,-0.182328,0.000000,0.000000,0.000000,0.000000,0.000000,0.000000
12707235.000000,-2.326622,-1.662889,1.162523,-1.429514,1.723867,1.234730,-0.578458,0.477592,-0.025873,1.306143,-0.416898,-0.352291,1.158790,-0.125864,-3.730425,43.320049,-23.849380,-8.518190,0.374845,1.903487,-0.149369,0.000000,0.000000,0.000000,0.000000,0.000000,0.000000
12707236.000000,-2.326149,-1.662910,1.163798,-1.429968,1.723534,1.235872,-0.578570,0.476779,-0.023884,1.302481,-0.426259,-0.342496,1.148312,-0.121274,-3.361468,43.244671,-23.948563,-8.022280,0.339139,2.033492,-0.229020,0.000000,0.000000,0.000000,0.000000,0.000000,0.000000
12707237.000000,-2.325681,-1.662935,1.165088,-1.430423,1.723199,1.237033,-0.578697,0.475167,-0.026378,1.289525,-0.430495,-0.344343,1.143291,-0.124838,-3.040118,43.197063,-24.019974,-7.625551,0.279630,2.047225,-0.142960,0.000000,0.000000,0.000000,0.000000,0.000000,0.000000
12707238.000000,-2.325217,-1.662963,1.166376,-1.430881,1.722860,1.238189,-0.578813,0.468180,-0.023587,1.290084,-0.437278,-0.341117,1.145818,-0.122520,-2.742571,43.220867,-24.265945,-7.082033,0.225614,1.916305,-0.163102,0.000000,0.000000,0.000000,0.000000,0.000000,0.000000
12707239.000000,-2.324758,-1.662990,1.167674,-1.431349,1.722513,1.239355,-0.578930,0.464146,-0.024501,1.288633,-0.443112,-0.342035,1.149282,-0.122018,-2.369647,43.244671,-24.464310,-6.590089,0.279630,1.832076,-0.163102,0.000000,0.000000,0.000000,0.000000,0.000000,0.000000
12707240.000000,-2.324300,-1.663013,1.169002,-1.431809,1.722180,1.240506,-0.579048,0.464336,-0.023498,1.298687,-0.458456,-0.337521,1.146179,-0.120334,-2.123675,43.197063,-25.003860,-6.169557,0.291532,1.936446,-0.196061,0.000000,0.000000,0.000000,0.000000,0.000000,0.000000
12707241.000000,-2.323845,-1.663035,1.170302,-1.432274,1.721837,1.241632,-0.579167,0.461661,-0.022736,1.295118,-0.455156,-0.334233,1.141486,-0.115471,-1.826129,43.145489,-25.491837,-5.895814,0.315336,2.104903,-0.208878,0.000000,0.000000,0.000000,0.000000,0.000000,0.000000
12707242.000000,-2.323418,-1.663068,1.171619,-1.432732,1.721484,1.242774,-0.579290,0.462333,-0.025297,1.303542,-0.456447,-0.336248,1.134532,-0.114731,-1.306414,43.220867,-26.007584,-5.772829,0.458158,2.163497,-0.149369,0.000000,0.000000,0.000000,0.000000,0.000000,0.000000
12707243.000000,-2.322987,-1.663094,1.172919,-1.433183,1.721144,1.243899,-0.579403,0.453860,-0.025724,1.303090,-0.453779,-0.335277,1.131877,-0.113476,-0.810504,43.244671,-26.154373,-5.697450,0.547880,2.242233,-0.208878,0.000000,0.000000,0.000000,0.000000,0.000000,0.000000
12707244.000000,-2.322551,-1.663116,1.174212,-1.433643,1.720818,1.245025,-0.579523,0.446484,-0.023863,1.308116,-0.454445,-0.335391,1.128459,-0.115880,-0.389971,43.173260,-26.499527,-5.626039,0.542386,2.475692,-0.175919,0.000000,0.000000,0.000000,0.000000,0.000000,0.000000
12707245.000000,-2.322138,-1.663138,1.175507,-1.434106,1.720482,1.246164,-0.579636,0.432227,-0.020519,1.293516,-0.461735,-0.343362,1.133095,-0.116137,0.129743,43.145489,-26.622513,-5.475282,0.542386,2.547103,-0.196061,0.000000,0.000000,0.000000,0.000000,0.000000,0.000000
12707246.000000,-2.321716,-1.663159,1.176774,-1.434572,1.720152,1.247306,-0.579747,0.427122,-0.024584,1.285193,-0.459234,-0.336699,1.144219,-0.111228,0.502668,43.121685,-26.547134,-5.205507,0.518583,2.417098,-0.235429,0.000000,0.000000,0.000000,0.000000,0.000000,0.000000
12707247.000000,-2.321280,-1.663177,1.178057,-1.435052,1.719823,1.248463,-0.579863,0.428344,-0.023081,1.281672,-0.460857,-0.327978,1.152587,-0.111736,0.697065,43.050274,-26.424149,-4.733400,0.524076,2.202865,-0.169511,0.000000,0.000000,0.000000,0.000000,0.000000,0.000000
12707248.000000,-2.320856,-1.663192,1.179341,-1.435527,1.719508,1.249591,-0.579965,0.425774,-0.018267,1.275437,-0.464443,-0.328097,1.168599,-0.107961,0.895429,42.951092,-26.305130,-4.312868,0.446256,2.092086,-0.208878,0.000000,0.000000,0.000000,0.000000,0.000000,0.000000
12707249.000000,-2.320443,-1.663204,1.180617,-1.435998,1.719186,1.250737,-0.580080,0.423614,-0.017388,1.277259,-0.465662,-0.320142,1.158434,-0.108770,1.192975,42.828106,-26.400345,-3.967714,0.416959,2.001449,-0.155778,0.000000,0.000000,0.000000,0.000000,0.000000,0.000000
12707250.000000,-2.320029,-1.663223,1.181876,-1.436463,1.718863,1.251895,-0.580186,0.424229,-0.016689,1.271109,-0.461990,-0.317055,1.146142,-0.111507,1.415143,42.828106,-26.082962,-3.797121,0.452665,1.890670,-0.155778,0.000000,0.000000,0.000000,0.000000,0.000000,0.000000
12707251.000000,-2.319624,-1.663244,1.183129,-1.436916,1.718542,1.253029,-0.580290,0.420545,-0.019728,1.267200,-0.458114,-0.317734,1.139665,-0.107588,1.811872,42.851910,-25.983780,-3.697939,0.571683,1.844894,-0.208878,0.000000,0.000000,0.000000,0.000000,0.000000,0.000000
12707252.000000,-2.319210,-1.663263,1.184394,-1.437370,1.718223,1.254155,-0.580401,0.419141,-0.021774,1.275699,-0.449370,-0.323314,1.128514,-0.103719,2.034040,42.875713,-25.884598,-3.670168,0.589994,2.039901,-0.169511,0.000000,0.000000,0.000000,0.000000,0.000000,0.000000
12707253.000000,-2.318804,-1.663280,1.185668,-1.437815,1.717909,1.255273,-0.580506,0.415893,-0.019011,1.269922,-0.451014,-0.319379,1.146512,-0.103298,2.184797,42.851910,-25.936172,-3.646364,0.625699,2.169906,-0.175919,0.000000,0.000000,0.000000,0.000000,0.000000,0.000000
12707254.000000,-2.318391,-1.663298,1.186906,-1.438264,1.717591,1.256418,-0.580603,0.416447,-0.018063,1.264883,-0.445743,-0.321654,1.144283,-0.101459,2.307783,42.875713,-25.836990,-3.598757,0.691617,2.169906,-0.221696,0.000000,0.000000,0.000000,0.000000,0.000000,0.000000
12707255.000000,-2.317974,-1.663319,1.188149,-1.438727,1.717279,1.257589,-0.580712,0.421282,-0.017374,1.248985,-0.446148,-0.313680,1.146903,-0.108359,2.283979,42.903484,-25.690201,-3.376589,0.751127,2.001449,-0.182328,0.000000,0.000000,0.000000,0.000000,0.000000,0.000000
12707256.000000,-2.317551,-1.663332,1.189395,-1.439179,1.716974,1.258744,-0.580820,0.422892,-0.017999,1.246930,-0.447114,-0.314835,1.151857,-0.107761,2.184797,42.851910,-25.567215,-3.126650,0.745634,1.786300,-0.155778,0.000000,0.000000,0.000000,0.000000,0.000000,0.000000
12707257.000000,-2.317136,-1.663343,1.190611,-1.439630,1.716672,1.259908,-0.580912,0.422019,-0.015043,1.235613,-0.444925,-0.309019,1.150123,-0.104007,2.160993,42.780499,-25.368851,-2.956056,0.703519,1.670028,-0.221696,0.000000,0.000000,0.000000,0.000000,0.000000,0.000000
12707258.000000,-2.316726,-1.663354,1.191861,-1.440068,1.716377,1.261082,-0.581012,0.421436,-0.012797,1.233320,-0.451255,-0.301602,1.158513,-0.103871,2.133222,42.705120,-25.468033,-2.805300,0.679716,1.546432,-0.221696,0.000000,0.000000,0.000000,0.000000,0.000000,0.000000
12707259.000000,-2.316321,-1.663364,1.193070,-1.440504,1.716095,1.262227,-0.581117,0.415661,-0.008755,1.225635,-0.441875,-0.294327,1.165076,-0.101097,2.283979,42.657513,-25.249832,-2.805300,0.601896,1.559249,-0.175919,0.000000,0.000000,0.000000,0.000000,0.000000,0.000000
12707260.000000,-2.315916,-1.663376,1.194316,-1.440923,1.715800,1.263374,-0.581212,0.422139,-0.009444,1.232816,-0.430651,-0.297929,1.157499,-0.100409,2.307783,42.633709,-25.420425,-2.956056,0.632108,1.727706,-0.202470,0.000000,0.000000,0.000000,0.000000,0.000000,0.000000
12707261.000000,-2.315516,-1.663381,1.195573,-1.441338,1.715511,1.264503,-0.581317,0.417824,-0.005548,1.234185,-0.424019,-0.288486,1.151817,-0.101876,2.430768,42.558331,-25.714005,-3.079042,0.596403,1.968490,-0.175919,0.000000,0.000000,0.000000,0.000000,0.000000,0.000000
12707262.000000,-2.315112,-1.663390,1.196810,-1.441749,1.715226,1.265645,-0.581415,0.415338,-0.006383,1.241023,-0.417677,-0.285856,1.150260,-0.104632,2.529951,42.510723,-26.031387,-3.249635,0.566190,2.177230,-0.208878,0.000000,0.000000,0.000000,0.000000,0.000000,0.000000
12707263.000000,-2.314700,-1.663397,1.198064,-1.442174,1.714935,1.266803,-0.581521,0.414651,-0.003966,1.234509,-0.416844,-0.291669,1.150734,-0.104733,2.430768,42.463116,-26.376541,-3.301210,0.649503,2.209274,-0.196061,0.000000,0.000000,0.000000,0.000000,0.000000,0.000000
12707264.000000,-2.314287,-1.663407,1.199280,-1.442582,1.714645,1.267948,-0.581623,0.413743,-0.005907,1.213644,-0.411850,-0.291786,1.145279,-0.100101,2.331586,42.435345,-26.451920,-3.348818,0.709928,2.118636,-0.188737,0.000000,0.000000,0.000000,0.000000,0.000000,0.000000
12707265.000000,-2.313877,-1.663418,1.200521,-1.443004,1.714356,1.269092,-0.581718,0.412869,-0.004119,1.217574,-0.411971,-0.290269,1.129753,-0.099794,2.232404,42.411541,-26.697891,-3.225832,0.739225,2.157089,-0.215287,0.000000,0.000000,0.000000,0.000000,0.000000,0.000000
12707266.000000,-2.313469,-1.663422,1.201750,-1.443410,1.714087,1.270218,-0.581822,0.414887,-0.007431,1.217047,-0.410287,-0.286617,1.146731,-0.101818,2.160993,42.316326,-26.646317,-3.178224,0.691617,2.202865,-0.182328,0.000000,0.000000,0.000000,0.000000,0.000000,0.000000
12707267.000000,-2.313059,-1.663432,1.202955,-1.443824,1.713818,1.271364,-0.581921,0.413991,-0.008301,1.213543,-0.406868,-0.277773,1.140652,-0.102349,2.160993,42.288555,-26.475723,-3.079042,0.620206,2.150680,-0.188737,0.000000,0.000000,0.000000,0.000000,0.000000,0.000000
12707268.000000,-2.312661,-1.663442,1.204173,-1.444231,1.713558,1.272514,-0.582024,0.410872,-0.009555,1.210309,-0.403757,-0.278141,1.134836,-0.103171,2.160993,42.288555,-26.253555,-3.003664,0.578092,2.125045,-0.169511,0.000000,0.000000,0.000000,0.000000,0.000000,0.000000
12707269.000000,-2.312263,-1.663442,1.205363,-1.444621,1.713293,1.273639,-0.582118,0.404404,-0.006966,1.228316,-0.398350,-0.276765,1.128919,-0.101978,2.208601,42.141766,-25.936172,-3.055238,0.500272,2.144271,-0.202470,0.000000,0.000000,0.000000,0.000000,0.000000,0.000000
12707270.000000,-2.311867,-1.663443,1.206593,-1.445012,1.713034,1.274777,-0.582215,0.401215,-0.003404,1.231160,-0.394870,-0.271243,1.128047,-0.098230,2.331586,42.046551,-25.983780,-3.055238,0.434354,2.157089,-0.196061,0.000000,0.000000,0.000000,0.000000,0.000000,0.000000
12707271.000000,-2.311476,-1.663444,1.207801,-1.445395,1.712769,1.275925,-0.582309,0.400137,-0.002759,1.219550,-0.396109,-0.271351,1.128260,-0.098893,2.406965,41.899761,-25.714005,-3.102846,0.464567,2.092086,-0.208878,0.000000,0.000000,0.000000,0.000000,0.000000,0.000000
12707272.000000,-2.311090,-1.663441,1.209003,-1.445779,1.712498,1.277074,-0.582405,0.393644,-0.002405,1.224518,-0.387126,-0.270230,1.136593,-0.096651,2.553754,41.752972,-25.690201,-3.102846,0.596403,1.903487,-0.182328,0.000000,0.000000,0.000000,0.000000,0.000000,0.000000
12707273.000000,-2.310706,-1.663442,1.210213,-1.446158,1.712235,1.278221,-0.582494,0.392420,-0.002781,1.210618,-0.385538,-0.266519,1.140857,-0.093156,2.581525,41.629986,-25.591019,-3.178224,0.667814,1.838485,-0.202470,0.000000,0.000000,0.000000,0.000000,0.000000,0.000000
12707274.000000,-2.310316,-1.663437,1.211437,-1.446533,1.711978,1.279345,-0.582589,0.391241,0.001212,1.210175,-0.379360,-0.265476,1.141916,-0.091177,2.629133,41.459393,-25.714005,-3.178224,0.661405,1.871444,-0.202470,0.000000,0.000000,0.000000,0.000000,0.000000,0.000000
12707275.000000,-2.309927,-1.663433,1.212620,-1.446902,1.711727,1.280484,-0.582685,0.389252,0.000520,1.204080,-0.378369,-0.258249,1.143678,-0.091132,2.704511,41.312603,-25.614822,-3.277406,0.620206,1.877853,-0.169511,0.000000,0.000000,0.000000,0.000000,0.000000,0.000000
12707276.000000,-2.309540,-1.663438,1.213801,-1.447270,1.711482,1.281639,-0.582773,0.387395,0.000224,1.192331,-0.383904,-0.254306,1.148482,-0.092790,2.680707,41.284832,-25.297440,-3.325014,0.596403,1.800033,-0.202470,0.000000,0.000000,0.000000,0.000000,0.000000,0.000000
12707277.000000,-2.309157,-1.663434,1.214975,-1.447628,1.711239,1.282761,-0.582871,0.383756,0.002354,1.187453,-0.372896,-0.245586,1.142892,-0.092571,2.704511,41.165813,-25.126846,-3.400392,0.542386,1.844894,-0.163102,0.000000,0.000000,0.000000,0.000000,0.000000,0.000000
12707278.000000,-2.308778,-1.663429,1.216147,-1.447991,1.711007,1.283882,-0.582960,0.389911,0.004011,1.185374,-0.365435,-0.241372,1.124888,-0.090783,2.704511,41.042828,-24.757889,-3.424196,0.416959,2.066451,-0.163102,0.000000,0.000000,0.000000,0.000000,0.000000,0.000000
12707279.000000,-2.308392,-1.663423,1.217329,-1.448348,1.710761,1.285011,-0.583040,0.387262,0.004668,1.177517,-0.362490,-0.246773,1.122771,-0.086939,2.680707,40.943645,-24.559525,-3.348818,0.398649,2.079269,-0.229020,0.000000,0.000000,0.000000,0.000000,0.000000,0.000000
12707280.000000,-2.308001,-1.663414,1.218488,-1.448700,1.710516,1.286166,-0.583134,0.386473,0.005188,1.174119,-0.354441,-0.242412,1.126436,-0.089317,2.581525,40.844463,-24.341324,-3.376589,0.416959,1.942855,-0.163102,0.000000,0.000000,0.000000,0.000000,0.000000,0.000000
12707281.000000,-2.307617,-1.663402,1.219674,-1.449049,1.710276,1.287334,-0.583216,0.383883,0.013489,1.169720,-0.349726,-0.239918,1.129981,-0.086927,2.454572,40.673870,-24.341324,-3.348818,0.446256,1.760665,-0.202470,0.000000,0.000000,0.000000,0.000000,0.000000,0.000000
12707282.000000,-2.307234,-1.663391,1.220867,-1.449386,1.710035,1.288472,-0.583302,0.383150,0.012251,1.157098,-0.343663,-0.243084,1.132608,-0.086563,2.383161,40.550884,-24.682510,-3.424196,0.488370,1.689254,-0.202470,0.000000,0.000000,0.000000,0.000000,0.000000,0.000000
12707283.000000,-2.306848,-1.663384,1.222070,-1.449716,1.709801,1.289612,-0.583389,0.381949,0.009567,1.166981,-0.336971,-0.238574,1.128529,-0.087660,2.359357,40.503277,-24.976089,-3.570986,0.482877,1.721298,-0.169511,0.000000,0.000000,0.000000,0.000000,0.000000,0.000000
12707285.000000,-2.306109,-1.663385,1.224449,-1.450364,1.709313,1.291866,-0.583554,0.372419,0.003628,1.177593,-0.329481,-0.238377,1.141939,-0.087186,2.529951,40.527081,-25.444229,-3.844728,0.547880,1.858627,-0.155778,0.000000,0.000000,0.000000,0.000000,0.000000,0.000000
12707286.000000,-2.305742,-1.663383,1.225644,-1.450687,1.709081,1.292988,-0.583630,0.373249,0.003096,1.180612,-0.325329,-0.238375,1.130455,-0.080553,2.553754,40.503277,-25.567215,-3.920107,0.500272,1.968490,-0.208878,0.000000,0.000000,0.000000,0.000000,0.000000,0.000000
12707287.000000,-2.305368,-1.663381,1.226818,-1.451005,1.708856,1.294094,-0.583717,0.374472,0.002154,1.202301,-0.325432,-0.233077,1.128094,-0.083582,2.553754,40.503277,-25.642593,-4.019289,0.434354,2.085677,-0.163102,0.000000,0.000000,0.000000,0.000000,0.000000,0.000000
12707288.000000,-2.304987,-1.663382,1.227985,-1.451325,1.708631,1.295223,-0.583794,0.377334,0.000947,1.192758,-0.322469,-0.224772,1.130060,-0.082546,2.454572,40.527081,-25.396622,-4.066896,0.381254,2.047225,-0.202470,0.000000,0.000000,0.000000,0.000000,0.000000,0.000000
12707289.000000,-2.304609,-1.663385,1.229163,-1.451649,1.708399,1.296363,-0.583884,0.377562,0.000126,1.184905,-0.332671,-0.230752,1.140113,-0.085417,2.307783,40.550884,-25.174454,-3.967714,0.393156,1.949264,-0.149369,0.000000,0.000000,0.000000,0.000000,0.000000,0.000000
12707290.000000,-2.304226,-1.663384,1.230310,-1.451971,1.708158,1.297482,-0.583963,0.376242,0.000122,1.173528,-0.327710,-0.231021,1.137515,-0.083930,2.184797,40.550884,-24.829300,-3.892336,0.428861,1.844894,-0.188737,0.000000,0.000000,0.000000,0.000000,0.000000,0.000000
12707291.000000,-2.303842,-1.663380,1.231478,-1.452298,1.707927,1.298619,-0.584042,0.380108,0.001223,1.164311,-0.323713,-0.230988,1.127465,-0.083616,2.010236,40.503277,-24.611099,-3.670168,0.452665,1.760665,-0.215287,0.000000,0.000000,0.000000,0.000000,0.000000,0.000000
12707292.000000,-2.303457,-1.663377,1.232656,-1.452614,1.707703,1.299744,-0.584134,0.379745,0.001951,1.164097,-0.324474,-0.225436,1.123012,-0.086587,1.835676,40.455669,-24.488113,-3.570986,0.458158,1.656295,-0.149369,0.000000,0.000000,0.000000,0.000000,0.000000,0.000000
12707293.000000,-2.303074,-1.663377,1.233796,-1.452927,1.707474,1.300893,-0.584206,0.380975,0.001317,1.158683,-0.319685,-0.226731,1.126558,-0.083598,1.712690,40.455669,-24.142960,-3.523378,0.494779,1.500655,-0.208878,0.000000,0.000000,0.000000,0.000000,0.000000,0.000000
12707294.000000,-2.302706,-1.663378,1.234970,-1.453227,1.707247,1.302030,-0.584290,0.377995,-0.000224,1.165227,-0.318595,-0.227411,1.120449,-0.085198,1.641279,40.503277,-24.095352,-3.598757,0.512174,1.565658,-0.182328,0.000000,0.000000,0.000000,0.000000,0.000000,0.000000
12707295.000000,-2.302334,-1.663372,1.236115,-1.453534,1.707021,1.303136,-0.584373,0.377579,0.000973,1.157766,-0.314498,-0.230101,1.120485,-0.085729,1.589704,40.455669,-23.920792,-3.622560,0.458158,1.779891,-0.169511,0.000000,0.000000,0.000000,0.000000,0.000000,0.000000
12707296.000000,-2.301959,-1.663367,1.237297,-1.453834,1.706800,1.304262,-0.584452,0.378175,0.001862,1.167274,-0.306198,-0.228336,1.114801,-0.084989,1.542096,40.404095,-24.071548,-3.697939,0.428861,1.962081,-0.188737,0.000000,0.000000,0.000000,0.000000,0.000000,0.000000
12707297.000000,-2.301582,-1.663363,1.238462,-1.454133,1.706581,1.305389,-0.584533,0.378352,0.002360,1.164064,-0.307356,-0.222868,1.120042,-0.086149,1.367536,40.356487,-24.019974,-3.646364,0.410551,1.962081,-0.163102,0.000000,0.000000,0.000000,0.000000,0.000000,0.000000
12707298.000000,-2.301198,-1.663359,1.239601,-1.454437,1.706363,1.306542,-0.584608,0.376436,0.002134,1.159185,-0.304434,-0.223211,1.124424,-0.083628,1.121564,40.332684,-23.896988,-3.598757,0.405057,1.812850,-0.215287,0.000000,0.000000,0.000000,0.000000,0.000000,0.000000
12707299.000000,-2.300820,-1.663348,1.240762,-1.454741,1.706143,1.307682,-0.584688,0.379145,0.004859,1.154126,-0.302868,-0.226757,1.121668,-0.085953,0.847822,40.185894,-23.873184,-3.523378,0.470060,1.806442,-0.169511,0.000000,0.000000,0.000000,0.000000,0.000000,0.000000
12707300.000000,-2.300427,-1.663334,1.241896,-1.455049,1.705926,1.308797,-0.584762,0.383050,0.007232,1.153714,-0.306483,-0.225498,1.121504,-0.085078,0.474897,40.015301,-23.702591,-3.376589,0.434354,1.890670,-0.188737,0.000000,0.000000,0.000000,0.000000,0.000000,0.000000
12707301.000000,-2.300041,-1.663321,1.243036,-1.455350,1.705696,1.309932,-0.584838,0.379825,0.014446,1.151710,-0.302184,-0.226292,1.123741,-0.086200,0.228925,39.868511,-23.432816,-3.348818,0.458158,1.865035,-0.163102,0.000000,0.000000,0.000000,0.000000,0.000000,0.000000
12707302.000000,-2.299656,-1.663314,1.244184,-1.455640,1.705474,1.311062,-0.584904,0.380995,0.014530,1.146428,-0.295577,-0.228419,1.151410,-0.079805,-0.044818,39.816936,-23.258255,-3.348818,0.512174,1.760665,-0.215287,0.000000,0.000000,0.000000,0.000000,0.000000,0.000000
12707303.000000,-2.299273,-1.663296,1.245334,-1.455926,1.705265,1.312190,-0.584978,0.376878,0.013772,1.148229,-0.290163,-0.219308,1.142819,-0.081348,-0.266986,39.670147,-23.357437,-3.523378,0.422452,1.754256,-0.229020,0.000000,0.000000,0.000000,0.000000,0.000000,0.000000
12707304.000000,-2.298902,-1.663283,1.246511,-1.456224,1.705051,1.313316,-0.585059,0.375935,0.015180,1.157901,-0.290411,-0.215541,1.131392,-0.079755,-0.413775,39.574932,-23.678787,-3.523378,0.393156,1.819259,-0.188737,0.000000,0.000000,0.000000,0.000000,0.000000,0.000000
12707305.000000,-2.298521,-1.663269,1.247664,-1.456504,1.704846,1.314427,-0.585134,0.375459,0.012523,1.178376,-0.285256,-0.217047,1.119890,-0.077488,-0.564532,39.499554,-23.873184,-3.622560,0.351041,1.897079,-0.175919,0.000000,0.000000,0.000000,0.000000,0.000000,0.000000
12707306.000000,-2.298139,-1.663267,1.248838,-1.456794,1.704629,1.315557,-0.585207,0.379328,0.009645,1.183374,-0.282368,-0.215789,1.118497,-0.075682,-0.735125,39.598736,-24.119156,-3.646364,0.381254,1.865035,-0.163102,0.000000,0.000000,0.000000,0.000000,0.000000,0.000000
12707307.000000,-2.297775,-1.663254,1.250023,-1.457068,1.704417,1.316680,-0.585278,0.375328,0.008258,1.183373,-0.287045,-0.211064,1.114033,-0.076620,-0.762896,39.547161,-24.488113,-3.769350,0.434354,1.955673,-0.202470,0.000000,0.000000,0.000000,0.000000,0.000000,0.000000
12707308.000000,-2.297405,-1.663246,1.251181,-1.457340,1.704213,1.317774,-0.585359,0.370772,0.005971,1.178945,-0.279583,-0.204948,1.109551,-0.077089,-0.885882,39.547161,-24.734085,-3.844728,0.422452,2.098495,-0.136552,0.000000,0.000000,0.000000,0.000000,0.000000,0.000000
12707309.000000,-2.297044,-1.663232,1.252342,-1.457615,1.704009,1.318897,-0.585419,0.365451,0.006001,1.169021,-0.270384,-0.200131,1.103918,-0.072108,-0.885882,39.475750,-24.805496,-3.920107,0.398649,2.112228,-0.215287,0.000000,0.000000,0.000000,0.000000,0.000000,0.000000
12707310.000000,-2.296681,-1.663227,1.253500,-1.457874,1.703812,1.320005,-0.585489,0.361687,0.003706,1.170397,-0.266357,-0.197767,1.105380,-0.075305,-0.885882,39.499554,-24.734085,-4.043092,0.410551,2.039901,-0.221696,0.000000,0.000000,0.000000,0.000000,0.000000,0.000000
12707311.000000,-2.296320,-1.663221,1.254633,-1.458149,1.703611,1.321126,-0.585564,0.360306,0.004702,1.167283,-0.268565,-0.198930,1.110718,-0.075549,-0.810504,39.547161,-24.488113,-3.920107,0.386747,1.981307,-0.163102,0.000000,0.000000,0.000000,0.000000,0.000000,0.000000
12707312.000000,-2.295964,-1.663210,1.255777,-1.458412,1.703417,1.322234,-0.585628,0.356374,0.007394,1.153643,-0.269624,-0.198912,1.113257,-0.072548,-0.862078,39.523357,-24.218338,-4.043092,0.320829,2.053634,-0.196061,0.000000,0.000000,0.000000,0.000000,0.000000,0.000000
12707313.000000,-2.295616,-1.663201,1.256900,-1.458686,1.703214,1.323332,-0.585704,0.356295,0.008691,1.146899,-0.270989,-0.196088,1.115875,-0.073514,-0.810504,39.523357,-23.825577,-3.920107,0.303434,2.137862,-0.142960,0.000000,0.000000,0.000000,0.000000,0.000000,0.000000
12707314.000000,-2.295273,-1.663188,1.258040,-1.458952,1.703010,1.324457,-0.585766,0.355609,0.011316,1.144901,-0.270899,-0.199767,1.112621,-0.065627,-0.687518,39.451946,-23.528030,-3.820925,0.315336,2.033492,-0.202470,0.000000,0.000000,0.000000,0.000000,0.000000,0.000000
12707315.000000,-2.294929,-1.663174,1.259178,-1.459208,1.702818,1.325579,-0.585839,0.350064,0.012708,1.133672,-0.267315,-0.196234,1.115892,-0.072294,-0.612139,39.400372,-23.234451,-3.892336,0.291532,1.832076,-0.155778,0.000000,0.000000,0.000000,0.000000,0.000000,0.000000
12707316.000000,-2.294596,-1.663152,1.260309,-1.459473,1.702621,1.326707,-0.585901,0.339504,0.017034,1.137412,-0.267679,-0.195382,1.105845,-0.069804,-0.413775,39.205975,-23.111465,-3.844728,0.327238,1.714889,-0.196061,0.000000,0.000000,0.000000,0.000000,0.000000,0.000000
12707317.000000,-2.294270,-1.663136,1.261459,-1.459720,1.702427,1.327831,-0.585971,0.334134,0.017752,1.138113,-0.259760,-0.193368,1.105869,-0.067247,-0.290789,39.106792,-23.087662,-3.991518,0.315336,1.727706,-0.142960,0.000000,0.000000,0.000000,0.000000,0.000000,0.000000
12707318.000000,-2.293944,-1.663125,1.262591,-1.459977,1.702234,1.328943,-0.586027,0.331576,0.013334,1.114282,-0.260869,-0.197100,1.103424,-0.064877,-0.092425,39.082989,-23.063858,-3.991518,0.315336,1.714889,-0.208878,0.000000,0.000000,0.000000,0.000000,0.000000,0.000000
12707319.000000,-2.293617,-1.663110,1.263730,-1.460227,1.702031,1.330065,-0.586091,0.328117,0.013851,1.115173,-0.255917,-0.202100,1.104137,-0.066701,0.054365,39.035381,-23.040054,-4.066896,0.381254,1.702071,-0.188737,0.000000,0.000000,0.000000,0.000000,0.000000,0.000000
12707320.000000,-2.293302,-1.663098,1.264875,-1.460471,1.701839,1.331174,-0.586160,0.324695,0.014413,1.117236,-0.247031,-0.199538,1.123776,-0.064828,0.228925,38.983807,-23.040054,-4.090700,0.398649,1.695663,-0.136552,0.000000,0.000000,0.000000,0.000000,0.000000,0.000000
12707321.000000,-2.292987,-1.663077,1.266001,-1.460722,1.701652,1.332288,-0.586216,0.317336,0.017514,1.129314,-0.248911,-0.195089,1.120190,-0.058446,0.451093,38.813213,-23.016251,-4.043092,0.362943,1.727706,-0.215287,0.000000,0.000000,0.000000,0.000000,0.000000,0.000000
12707322.000000,-2.292668,-1.663062,1.267129,-1.460965,1.701467,1.333415,-0.586285,0.314769,0.016734,1.122021,-0.244926,-0.192661,1.117429,-0.062776,0.451093,38.765606,-22.865494,-4.066896,0.339139,1.727706,-0.169511,0.000000,0.000000,0.000000,0.000000,0.000000,0.000000
12707323.000000,-2.292362,-1.663047,1.268240,-1.461209,1.701285,1.334532,-0.586345,0.313250,0.017020,1.139105,-0.245206,-0.196673,1.121437,-0.059025,0.673261,38.690228,-22.694901,-3.967714,0.344633,1.611434,-0.196061,0.000000,0.000000,0.000000,0.000000,0.000000,0.000000
12707324.000000,-2.292048,-1.663027,1.269365,-1.461452,1.701101,1.335656,-0.586410,0.311347,0.018236,1.141732,-0.241073,-0.192929,1.118872,-0.062496,0.796247,38.571209,-22.524307,-3.868532,0.308927,1.597701,-0.169511,0.000000,0.000000,0.000000,0.000000,0.000000,0.000000
12707325.000000,-2.291738,-1.663009,1.270501,-1.461698,1.700917,1.336778,-0.586475,0.315421,0.018559,1.132527,-0.247989,-0.191174,1.113481,-0.063738,0.824018,38.472027,-22.500504,-3.745546,0.279630,1.591293,-0.175919,0.000000,0.000000,0.000000,0.000000,0.000000,0.000000
12707326.000000,-2.291438,-1.662985,1.271632,-1.461944,1.700736,1.337897,-0.586529,0.308010,0.017358,1.118873,-0.247927,-0.180308,1.110683,-0.058628,0.994611,38.301434,-22.595718,-3.598757,0.249418,1.532699,-0.229020,0.000000,0.000000,0.000000,0.000000,0.000000,0.000000
12707327.000000,-2.291145,-1.662966,1.272793,-1.462184,1.700546,1.339028,-0.586600,0.307610,0.018245,1.126368,-0.239376,-0.185430,1.101410,-0.064601,1.169172,38.178448,-22.917068,-3.499574,0.315336,1.481429,-0.142960,0.000000,0.000000,0.000000,0.000000,0.000000,0.000000
12707328.000000,-2.290855,-1.662951,1.273942,-1.462429,1.700365,1.340147,-0.586654,0.302343,0.014740,1.132232,-0.242023,-0.182875,1.110347,-0.059427,1.367536,38.103069,-23.111465,-3.325014,0.356534,1.454879,-0.188737,0.000000,0.000000,0.000000,0.000000,0.000000,0.000000
12707329.000000,-2.290564,-1.662930,1.275089,-1.462669,1.700188,1.341261,-0.586717,0.297181,0.015819,1.137924,-0.237618,-0.180501,1.101730,-0.062210,1.613508,38.007854,-23.504227,-3.249635,0.393156,1.597701,-0.169511,0.000000,0.000000,0.000000,0.000000,0.000000,0.000000
12707330.000000,-2.290279,-1.662916,1.276255,-1.462910,1.700012,1.342369,-0.586772,0.293000,0.015005,1.142848,-0.240986,-0.186737,1.095929,-0.057988,1.764264,37.984051,-23.896988,-3.154421,0.416959,1.832076,-0.208878,0.000000,0.000000,0.000000,0.000000,0.000000,0.000000
12707331.000000,-2.289986,-1.662900,1.277387,-1.463145,1.699837,1.343468,-0.586831,0.292761,0.015755,1.144491,-0.237316,-0.180930,1.095439,-0.056870,1.887250,37.908672,-23.996170,-3.079042,0.381254,1.988631,-0.196061,0.000000,0.000000,0.000000,0.000000,0.000000,0.000000
12707332.000000,-2.289704,-1.662887,1.278532,-1.463393,1.699653,1.344585,-0.586891,0.288437,0.014408,1.140194,-0.236500,-0.179783,1.096458,-0.056312,2.061811,37.908672,-23.972366,-2.904482,0.434354,2.039901,-0.175919,0.000000,0.000000,0.000000,0.000000,0.000000,0.000000
12707333.000000,-2.289417,-1.662865,1.279683,-1.463639,1.699488,1.345693,-0.586950,0.290798,0.017554,1.136685,-0.240137,-0.170374,1.103953,-0.058542,2.010236,37.738079,-23.948563,-2.706117,0.381254,1.995040,-0.196061,0.000000,0.000000,0.000000,0.000000,0.000000,0.000000
12707334.000000,-2.289130,-1.662843,1.280814,-1.463885,1.699324,1.346810,-0.587007,0.289367,0.019237,1.146215,-0.236952,-0.167127,1.108833,-0.057489,2.061811,37.591290,-23.896988,-2.460146,0.303434,1.955673,-0.175919,0.000000,0.000000,0.000000,0.000000,0.000000,0.000000
12707335.000000,-2.288840,-1.662830,1.281948,-1.464142,1.699150,1.347930,-0.587063,0.291117,0.019451,1.135247,-0.242632,-0.169848,1.112030,-0.059999,2.010236,37.615093,-23.678787,-2.162599,0.351041,1.909896,-0.182328,0.000000,0.000000,0.000000,0.000000,0.000000,0.000000
12707336.000000,-2.288554,-1.662818,1.283061,-1.464395,1.698979,1.349027,-0.587125,0.287023,0.016827,1.110131,-0.245328,-0.168314,1.111174,-0.063495,2.034040,37.638897,-23.333633,-1.916628,0.434354,1.825668,-0.142960,0.000000,0.000000,0.000000,0.000000,0.000000,0.000000
12707337.000000,-2.288272,-1.662802,1.284199,-1.464644,1.698816,1.350135,-0.587165,0.285935,0.016674,1.116539,-0.241665,-0.168156,1.099709,-0.056709,2.109418,37.591290,-23.186844,-1.742067,0.434354,1.851302,-0.241837,0.000000,0.000000,0.000000,0.000000,0.000000,0.000000
12707338.000000,-2.287995,-1.662784,1.285341,-1.464882,1.698653,1.351239,-0.587224,0.283947,0.017656,1.120396,-0.240168,-0.167583,1.114202,-0.061062,2.109418,37.492107,-23.135269,-1.694460,0.405057,1.916305,-0.208878,0.000000,0.000000,0.000000,0.000000,0.000000,0.000000
12707339.000000,-2.287730,-1.662766,1.286461,-1.465119,1.698488,1.352358,-0.587285,0.280917,0.017183,1.117032,-0.236382,-0.166486,1.116117,-0.061188,2.283979,37.444500,-22.940872,-1.769838,0.362943,1.767074,-0.142960,0.000000,0.000000,0.000000,0.000000,0.000000,0.000000
12707340.000000,-2.287461,-1.662757,1.287608,-1.465357,1.698314,1.353490,-0.587331,0.277999,0.015288,1.127133,-0.232211,-0.169373,1.115033,-0.056434,2.383161,37.468304,-22.988480,-1.769838,0.410551,1.611434,-0.202470,0.000000,0.000000,0.000000,0.000000,0.000000,0.000000
12707341.000000,-2.287191,-1.662744,1.288742,-1.465586,1.698154,1.354585,-0.587390,0.275589,0.013913,1.133147,-0.229919,-0.170029,1.116317,-0.056090,2.482343,37.492107,-23.135269,-1.742067,0.422452,1.662704,-0.182328,0.000000,0.000000,0.000000,0.000000,0.000000,0.000000
12707342.000000,-2.286917,-1.662731,1.289876,-1.465822,1.697993,1.355696,-0.587441,0.276761,0.014060,1.133643,-0.232201,-0.168260,1.110305,-0.053907,2.482343,37.468304,-23.111465,-1.670656,0.386747,1.754256,-0.208878,0.000000,0.000000,0.000000,0.000000,0.000000,0.000000
12707343.000000,-2.286646,-1.662724,1.291019,-1.466046,1.697826,1.356814,-0.587499,0.275730,0.011766,1.129039,-0.234704,-0.167297,1.115788,-0.055004,2.406965,37.539715,-23.111465,-1.670656,0.476469,1.760665,-0.163102,0.000000,0.000000,0.000000,0.000000,0.000000,0.000000
12707344.000000,-2.286375,-1.662719,1.292138,-1.466275,1.697665,1.357931,-0.587549,0.273579,0.010192,1.133684,-0.233002,-0.169011,1.121054,-0.052968,2.359357,37.615093,-23.087662,-1.595277,0.506681,1.617843,-0.188737,0.000000,0.000000,0.000000,0.000000,0.000000,0.000000
12707345.000000,-2.286112,-1.662706,1.293258,-1.466494,1.697512,1.359049,-0.587601,0.276938,0.012120,1.119778,-0.229375,-0.161802,1.123471,-0.051581,2.307783,37.567486,-22.940872,-1.595277,0.434354,1.559249,-0.221696,0.000000,0.000000,0.000000,0.000000,0.000000,0.000000
12707346.000000,-2.285840,-1.662690,1.294376,-1.466711,1.697351,1.360142,-0.587655,0.274364,0.013511,1.110535,-0.226243,-0.162555,1.118007,-0.052799,2.283979,37.515911,-22.671097,-1.642885,0.393156,1.643478,-0.188737,0.000000,0.000000,0.000000,0.000000,0.000000,0.000000
12707347.000000,-2.285566,-1.662675,1.295479,-1.466929,1.697185,1.361250,-0.587708,0.276236,0.014890,1.111799,-0.224685,-0.159934,1.105934,-0.052476,2.208601,37.444500,-22.448929,-1.642885,0.405057,1.682845,-0.182328,0.000000,0.000000,0.000000,0.000000,0.000000,0.000000
12707348.000000,-2.285296,-1.662669,1.296597,-1.467143,1.697023,1.362364,-0.587759,0.276344,0.013047,1.106305,-0.225905,-0.162722,1.100745,-0.051699,2.061811,37.492107,-22.325943,-1.642885,0.428861,1.754256,-0.196061,0.000000,0.000000,0.000000,0.000000,0.000000,0.000000
12707349.000000,-2.285021,-1.662652,1.297713,-1.467348,1.696865,1.363470,-0.587809,0.275599,0.014595,1.106920,-0.221458,-0.159253,1.100023,-0.051581,1.934858,37.420696,-22.302139,-1.642885,0.416959,1.747848,-0.196061,0.000000,0.000000,0.000000,0.000000,0.000000,0.000000
12707350.000000,-2.284749,-1.662636,1.298859,-1.467554,1.696713,1.364597,-0.587864,0.274639,0.015135,1.126216,-0.212392,-0.159750,1.103839,-0.052794,1.811872,37.369122,-22.623489,-1.718263,0.362943,1.682845,-0.163102,0.000000,0.000000,0.000000,0.000000,0.000000,0.000000
12707351.000000,-2.284483,-1.662620,1.300017,-1.467756,1.696561,1.365703,-0.587905,0.271912,0.016099,1.128692,-0.208134,-0.157730,1.126039,-0.050823,1.665082,37.297710,-23.063858,-1.718263,0.362943,1.617843,-0.202470,0.000000,0.000000,0.000000,0.000000,0.000000,0.000000
12707352.000000,-2.284219,-1.662605,1.301160,-1.467949,1.696409,1.366813,-0.587959,0.269334,0.013560,1.138924,-0.202401,-0.151911,1.123224,-0.053001,1.641279,37.222332,-23.432816,-1.817445,0.381254,1.624252,-0.149369,0.000000,0.000000,0.000000,0.000000,0.000000,0.000000
12707353.000000,-2.283950,-1.662598,1.302308,-1.468139,1.696252,1.367914,-0.588001,0.270615,0.011243,1.136436,-0.194194,-0.152208,1.110885,-0.050701,1.514325,37.297710,-23.678787,-1.940431,0.393156,1.747848,-0.196061,0.000000,0.000000,0.000000,0.000000,0.000000,0.000000
12707354.000000,-2.283684,-1.662591,1.303432,-1.468330,1.696091,1.368993,-0.588044,0.267514,0.010298,1.154645,-0.195712,-0.158933,1.107369,-0.046055,1.415143,37.345318,-23.873184,-2.039613,0.458158,1.884261,-0.208878,0.000000,0.000000,0.000000,0.000000,0.000000,0.000000
12707355.000000,-2.283414,-1.662582,1.304570,-1.468516,1.695931,1.370088,-0.588098,0.265486,0.010788,1.146725,-0.192545,-0.157780,1.105188,-0.045371,1.292158,37.345318,-23.948563,-2.162599,0.488370,1.949264,-0.149369,0.000000,0.000000,0.000000,0.000000,0.000000,0.000000
12707356.000000,-2.283149,-1.662575,1.305710,-1.468693,1.695784,1.371188,-0.588136,0.268705,0.010059,1.141143,-0.187246,-0.154721,1.104345,-0.044507,1.121564,37.392925,-23.948563,-2.285585,0.452665,1.916305,-0.208878,0.000000,0.000000,0.000000,0.000000,0.000000,0.000000
12707357.000000,-2.282882,-1.662570,1.306816,-1.468867,1.695635,1.372274,-0.588183,0.267210,0.008511,1.129712,-0.183787,-0.148909,1.095096,-0.043469,0.947004,37.492107,-23.726395,-2.384767,0.446256,1.851302,-0.169511,0.000000,0.000000,0.000000,0.000000,0.000000,0.000000
12707358.000000,-2.282622,-1.662570,1.307946,-1.469046,1.695486,1.373376,-0.588227,0.265185,0.003217,1.128705,-0.182336,-0.144744,1.087289,-0.045407,0.824018,37.638897,-23.603409,-2.436342,0.446256,1.754256,-0.169511,0.000000,0.000000,0.000000,0.000000,0.000000,0.000000
12707359.000000,-2.282355,-1.662573,1.309063,-1.469221,1.695350,1.374455,-0.588266,0.264629,0.002491,1.118967,-0.178884,-0.139763,1.082783,-0.045524,0.673261,37.785686,-23.210648,-2.436342,0.393156,1.812850,-0.208878,0.000000,0.000000,0.000000,0.000000,0.000000,0.000000
12707360.000000,-2.282087,-1.662573,1.310176,-1.469390,1.695212,1.375550,-0.588315,0.263869,0.003281,1.126554,-0.174625,-0.135909,1.078876,-0.049050,0.526471,37.884869,-23.040054,-2.483949,0.344633,1.858627,-0.155778,0.000000,0.000000,0.000000,0.000000,0.000000,0.000000
12707361.000000,-2.281831,-1.662572,1.311292,-1.469548,1.695079,1.376678,-0.588356,0.263079,0.004475,1.116137,-0.172924,-0.138427,1.090420,-0.044750,0.403486,37.956280,-22.817886,-2.583132,0.303434,1.649886,-0.169511,0.000000,0.000000,0.000000,0.000000,0.000000,0.000000
12707362.000000,-2.281572,-1.662574,1.312404,-1.469696,1.694935,1.377795,-0.588395,0.260673,0.004189,1.115826,-0.163647,-0.141563,1.100182,-0.041650,0.328107,38.079266,-22.794083,-2.781496,0.291532,1.389877,-0.182328,0.000000,0.000000,0.000000,0.000000,0.000000,0.000000
12707363.000000,-2.281321,-1.662569,1.313534,-1.469847,1.694794,1.378904,-0.588435,0.261714,0.006327,1.120303,-0.157238,-0.139495,1.102032,-0.040711,0.228925,38.103069,-22.817886,-2.956056,0.291532,1.337692,-0.169511,0.000000,0.000000,0.000000,0.000000,0.000000,0.000000
12707364.000000,-2.281072,-1.662565,1.314663,-1.469986,1.694650,1.379991,-0.588476,0.256333,0.005188,1.118213,-0.151127,-0.139391,1.099770,-0.039769,0.177350,38.103069,-22.770279,-3.202028,0.332731,1.454879,-0.149369,0.000000,0.000000,0.000000,0.000000,0.000000,0.000000
12707365.000000,-2.280822,-1.662568,1.315776,-1.470131,1.694502,1.381079,-0.588508,0.254534,0.001867,1.117393,-0.147284,-0.141364,1.101104,-0.036176,0.177350,38.202251,-22.817886,-3.277406,0.440763,1.662704,-0.202470,0.000000,0.000000,0.000000,0.000000,0.000000,0.000000
12707366.000000,-2.280573,-1.662574,1.316899,-1.470266,1.694369,1.382190,-0.588546,0.254699,-0.001087,1.116310,-0.138988,-0.146952,1.101083,-0.035522,0.129743,38.325237,-22.817886,-3.424196,0.428861,1.760665,-0.208878,0.000000,0.000000,0.000000,0.000000,0.000000,0.000000
12707367.000000,-2.280316,-1.662571,1.318000,-1.470399,1.694238,1.383290,-0.588592,0.254730,0.000242,1.114005,-0.138438,-0.137148,1.096649,-0.036699,-0.068621,38.301434,-22.794083,-3.475771,0.398649,1.754256,-0.169511,0.000000,0.000000,0.000000,0.000000,0.000000,0.000000
12707368.000000,-2.280058,-1.662553,1.319116,-1.470529,1.694113,1.384414,-0.588626,0.257674,0.006222,1.116655,-0.137188,-0.127926,1.092105,-0.035350,-0.243182,38.055462,-22.718704,-3.547182,0.315336,1.689254,-0.188737,0.000000,0.000000,0.000000,0.000000,0.000000,0.000000
12707369.000000,-2.279803,-1.662551,1.320235,-1.470659,1.693992,1.385515,-0.588668,0.257453,0.004935,1.112836,-0.134041,-0.126046,1.116990,-0.035578,-0.465350,38.031658,-22.647293,-3.570986,0.225614,1.662704,-0.175919,0.000000,0.000000,0.000000,0.000000,0.000000,0.000000
12707370.000000,-2.279552,-1.662551,1.321320,-1.470796,1.693861,1.386624,-0.588703,0.252285,0.003463,1.107940,-0.133790,-0.128011,1.110703,-0.033783,-0.635943,38.031658,-22.425125,-3.499574,0.231107,1.708480,-0.215287,0.000000,0.000000,0.000000,0.000000,0.000000,0.000000
12707371.000000,-2.279304,-1.662544,1.322436,-1.470919,1.693731,1.387732,-0.588744,0.252138,0.004758,1.105738,-0.127153,-0.129393,1.104230,-0.035976,-0.810504,37.932476,-22.377518,-3.547182,0.231107,1.779891,-0.163102,0.000000,0.000000,0.000000,0.000000,0.000000,0.000000
12707372.000000,-2.279051,-1.662537,1.323549,-1.471044,1.693600,1.388834,-0.588776,0.251769,0.004940,1.114589,-0.127218,-0.130939,1.103110,-0.029191,-0.985064,37.861065,-22.500504,-3.523378,0.249418,1.767074,-0.215287,0.000000,0.000000,0.000000,0.000000,0.000000,0.000000
12707373.000000,-2.278801,-1.662532,1.324685,-1.471163,1.693468,1.389945,-0.588818,0.250388,0.005686,1.116206,-0.121174,-0.127366,1.106888,-0.032026,-1.108050,37.761883,-22.794083,-3.598757,0.273221,1.708480,-0.175919,0.000000,0.000000,0.000000,0.000000,0.000000,0.000000
12707374.000000,-2.278560,-1.662523,1.325833,-1.471264,1.693341,1.391057,-0.588856,0.245810,0.006165,1.122612,-0.118542,-0.128779,1.113458,-0.033550,-1.207232,37.662701,-23.163040,-3.868532,0.279630,1.695663,-0.149369,0.000000,0.000000,0.000000,0.000000,0.000000,0.000000
12707375.000000,-2.278322,-1.662522,1.326976,-1.471380,1.693214,1.392155,-0.588888,0.243145,0.004151,1.133584,-0.115933,-0.125577,1.116144,-0.031679,-1.231036,37.662701,-23.678787,-3.920107,0.297025,1.637069,-0.202470,0.000000,0.000000,0.000000,0.000000,0.000000,0.000000
12707376.000000,-2.278087,-1.662522,1.328118,-1.471489,1.693086,1.393237,-0.588929,0.240335,0.002241,1.138411,-0.115889,-0.129525,1.101362,-0.034632,-1.306414,37.686504,-24.043777,-4.043092,0.356534,1.825668,-0.142960,0.000000,0.000000,0.000000,0.000000,0.000000,0.000000
12707377.000000,-2.277847,-1.662528,1.329260,-1.471600,1.692962,1.394300,-0.588959,0.240269,-0.000803,1.135357,-0.111246,-0.124991,1.083394,-0.032041,-1.480975,37.785686,-24.265945,-4.066896,0.351041,2.033492,-0.208878,0.000000,0.000000,0.000000,0.000000,0.000000,0.000000
12707378.000000,-2.277613,-1.662534,1.330382,-1.471704,1.692842,1.395385,-0.589000,0.240994,-0.003395,1.131899,-0.106154,-0.120248,1.074546,-0.034896,-1.552386,37.908672,-24.341324,-4.142274,0.315336,2.118636,-0.149369,0.000000,0.000000,0.000000,0.000000,0.000000,0.000000
12707379.000000,-2.277379,-1.662537,1.331526,-1.471811,1.692732,1.396491,-0.589028,0.237838,-0.003364,1.135817,-0.107050,-0.115739,1.077249,-0.032672,-1.603961,37.956280,-24.464310,-4.142274,0.243009,2.060043,-0.202470,0.000000,0.000000,0.000000,0.000000,0.000000,0.000000
12707380.000000,-2.277141,-1.662542,1.332633,-1.471922,1.692619,1.397595,-0.589060,0.237032,-0.003439,1.128881,-0.107159,-0.112318,1.084700,-0.033648,-1.726946,38.007854,-24.313553,-4.043092,0.159696,1.865035,-0.188737,0.000000,0.000000,0.000000,0.000000,0.000000,0.000000
12707381.000000,-2.276907,-1.662552,1.333752,-1.472030,1.692495,1.398698,-0.589097,0.235629,-0.005162,1.123579,-0.106030,-0.114148,1.077461,-0.030952,-1.802325,38.130840,-24.071548,-3.967714,0.189908,1.800033,-0.155778,0.000000,0.000000,0.000000,0.000000,0.000000,0.000000
12707382.000000,-2.276672,-1.662560,1.334872,-1.472125,1.692367,1.399757,-0.589125,0.233195,-0.006220,1.123900,-0.101751,-0.115634,1.073060,-0.030203,-1.949114,38.249859,-23.774002,-4.043092,0.225614,1.909896,-0.196061,0.000000,0.000000,0.000000,0.000000,0.000000,0.000000
12707383.000000,-2.276444,-1.662570,1.335969,-1.472229,1.692240,1.400844,-0.589156,0.227728,-0.007576,1.117269,-0.103997,-0.116986,1.081670,-0.031603,-1.972918,38.396648,-23.480423,-4.043092,0.285123,1.962081,-0.188737,0.000000,0.000000,0.000000,0.000000,0.000000,0.000000
12707384.000000,-2.276220,-1.662580,1.337082,-1.472328,1.692112,1.401944,-0.589186,0.225139,-0.007368,1.109723,-0.100618,-0.119467,1.085114,-0.027981,-2.024493,38.495831,-23.258255,-4.118471,0.381254,1.981307,-0.188737,0.000000,0.000000,0.000000,0.000000,0.000000,0.000000
12707385.000000,-2.276005,-1.662585,1.338187,-1.472420,1.692000,1.403044,-0.589219,0.220313,-0.006673,1.111161,-0.097703,-0.119768,1.089985,-0.030031,-1.972918,38.571209,-23.135269,-4.213686,0.315336,1.800033,-0.175919,0.000000,0.000000,0.000000,0.000000,0.000000,0.000000
12707386.000000,-2.275788,-1.662590,1.339318,-1.472510,1.691884,1.404154,-0.589246,0.217381,-0.008258,1.117991,-0.095184,-0.120619,1.084311,-0.030096,-1.901507,38.595013,-23.309830,-4.312868,0.261320,1.662704,-0.202470,0.000000,0.000000,0.000000,0.000000,0.000000,0.000000
12707387.000000,-2.275572,-1.662595,1.340452,-1.472604,1.691774,1.405239,-0.589279,0.216434,-0.007446,1.124053,-0.096046,-0.116496,1.100460,-0.032417,-1.901507,38.666424,-23.381241,-4.312868,0.195402,1.630660,-0.169511,0.000000,0.000000,0.000000,0.000000,0.000000,0.000000
12707388.000000,-2.275355,-1.662606,1.341560,-1.472697,1.691659,1.406333,-0.589305,0.212282,-0.008043,1.120220,-0.096582,-0.115329,1.101325,-0.031858,-1.901507,38.789410,-23.357437,-4.312868,0.183500,1.702071,-0.196061,0.000000,0.000000,0.000000,0.000000,0.000000,0.000000
12707389.000000,-2.275139,-1.662616,1.342677,-1.472788,1.691536,1.407428,-0.589335,0.211994,-0.008391,1.116204,-0.093966,-0.117711,1.091821,-0.029761,-2.000689,38.912395,-23.381241,-4.289064,0.255826,1.767074,-0.155778,0.000000,0.000000,0.000000,0.000000,0.000000,0.000000
12707390.000000,-2.274922,-1.662622,1.343787,-1.472869,1.691420,1.408508,-0.589362,0.214024,-0.006821,1.120945,-0.093110,-0.116465,1.090656,-0.026184,-2.072100,38.960003,-23.456619,-4.364442,0.255826,1.851302,-0.163102,0.000000,0.000000,0.000000,0.000000,0.000000,0.000000
12707391.000000,-2.274709,-1.662628,1.344903,-1.472953,1.691302,1.409615,-0.589386,0.212236,-0.005839,1.118007,-0.088873,-0.114546,1.090332,-0.026747,-2.147479,39.011578,-23.456619,-4.439821,0.231107,1.747848,-0.202470,0.000000,0.000000,0.000000,0.000000,0.000000,0.000000
12707392.000000,-2.274495,-1.662633,1.346004,-1.473034,1.691174,1.410724,-0.589420,0.209566,-0.004514,1.108795,-0.085997,-0.121391,1.096142,-0.030679,-2.298235,39.035381,-23.210648,-4.487428,0.297025,1.630660,-0.149369,0.000000,0.000000,0.000000,0.000000,0.000000,0.000000
12707393.000000,-2.274288,-1.662634,1.347100,-1.473120,1.691049,1.411814,-0.589436,0.208375,-0.002500,1.104745,-0.086040,-0.119676,1.096967,-0.029450,-2.369647,39.011578,-23.135269,-4.463624,0.308927,1.591293,-0.208878,0.000000,0.000000,0.000000,0.000000,0.000000,0.000000
12707394.000000,-2.274072,-1.662639,1.348206,-1.473205,1.690928,1.412902,-0.589467,0.213368,-0.002260,1.100829,-0.086610,-0.122796,1.091572,-0.032242,-2.544207,39.035381,-22.988480,-4.412050,0.308927,1.637069,-0.169511,0.000000,0.000000,0.000000,0.000000,0.000000,0.000000
12707395.000000,-2.273861,-1.662640,1.349331,-1.473286,1.690812,1.413967,-0.589488,0.214998,-0.001534,1.106063,-0.084686,-0.120018,1.081967,-0.027192,-2.643389,39.035381,-23.087662,-4.312868,0.303434,1.800033,-0.202470,0.000000,0.000000,0.000000,0.000000,0.000000,0.000000
12707396.000000,-2.273653,-1.662643,1.350437,-1.473361,1.690694,1.415067,-0.589517,0.212122,-0.000486,1.102849,-0.080415,-0.122324,1.082673,-0.026154,-2.690997,39.011578,-23.210648,-4.312868,0.291532,1.767074,-0.163102,0.000000,0.000000,0.000000,0.000000,0.000000,0.000000
12707397.000000,-2.273457,-1.662638,1.351581,-1.473432,1.690581,1.416189,-0.589537,0.209109,0.001981,1.113565,-0.075915,-0.124004,1.087318,-0.022349,-2.690997,38.912395,-23.678787,-4.364442,0.267728,1.605026,-0.202470,0.000000,0.000000,0.000000,0.000000,0.000000,0.000000
12707398.000000,-2.273256,-1.662639,1.352712,-1.473505,1.690469,1.417276,-0.589564,0.204782,-0.001192,1.125546,-0.078202,-0.119098,1.089263,-0.022124,-2.742571,38.888592,-24.095352,-4.340639,0.201810,1.605026,-0.175919,0.000000,0.000000,0.000000,0.000000,0.000000,0.000000
12707399.000000,-2.273065,-1.662636,1.353861,-1.473571,1.690353,1.418371,-0.589588,0.203830,0.000149,1.128488,-0.074134,-0.117930,1.086274,-0.021110,-2.742571,38.837017,-24.611099,-4.412050,0.207303,1.656295,-0.169511,0.000000,0.000000,0.000000,0.000000,0.000000,0.000000
12707400.000000,-2.272875,-1.662638,1.354997,-1.473637,1.690237,1.419439,-0.589610,0.198900,-0.000748,1.123853,-0.073199,-0.118997,1.081995,-0.023616,-2.718768,38.864788,-24.805496,-4.412050,0.267728,1.838485,-0.188737,0.000000,0.000000,0.000000,0.000000,0.000000,0.000000
12707401.000000,-2.272687,-1.662645,1.356119,-1.473700,1.690111,1.420508,-0.589635,0.196254,-0.002874,1.128969,-0.067763,-0.120465,1.080729,-0.022347,-2.718768,38.960003,-24.976089,-4.463624,0.351041,2.131454,-0.182328,0.000000,0.000000,0.000000,0.000000,0.000000,0.000000
12707402.000000,-2.272505,-1.662649,1.357240,-1.473770,1.689993,1.421599,-0.589657,0.192819,-0.002584,1.119204,-0.066214,-0.123042,1.079872,-0.020516,-2.643389,38.983807,-25.003860,-4.388246,0.344633,2.261459,-0.196061,0.000000,0.000000,0.000000,0.000000,0.000000,0.000000
12707403.000000,-2.272314,-1.662655,1.358350,-1.473833,1.689876,1.422685,-0.589679,0.189252,-0.003012,1.116486,-0.063052,-0.119736,1.087880,-0.019953,-2.667193,39.035381,-25.027664,-4.412050,0.327238,2.183639,-0.188737,0.000000,0.000000,0.000000,0.000000,0.000000,0.000000
12707404.000000,-2.272124,-1.662657,1.359468,-1.473902,1.689771,1.423796,-0.589697,0.190174,-0.001514,1.122328,-0.063293,-0.119861,1.085386,-0.017741,-2.718768,39.011578,-24.880875,-4.312868,0.255826,2.007858,-0.229020,0.000000,0.000000,0.000000,0.000000,0.000000,0.000000
12707405.000000,-2.271942,-1.662658,1.360586,-1.473970,1.689658,1.424882,-0.589727,0.187592,-0.000407,1.116299,-0.064145,-0.118757,1.104979,-0.019709,-2.766375,38.983807,-24.682510,-4.189882,0.267728,1.890670,-0.175919,0.000000,0.000000,0.000000,0.000000,0.000000,0.000000
12707406.000000,-2.271757,-1.662660,1.361681,-1.474049,1.689551,1.425966,-0.589751,0.188819,0.000251,1.106709,-0.067929,-0.112320,1.095061,-0.020246,-2.841753,38.960003,-24.341324,-3.920107,0.261320,1.968490,-0.142960,0.000000,0.000000,0.000000,0.000000,0.000000,0.000000
12707407.000000,-2.271584,-1.662663,1.362794,-1.474113,1.689442,1.427049,-0.589762,0.184208,0.000141,1.101161,-0.068848,-0.113858,1.091241,-0.016382,-2.790179,38.960003,-24.142960,-3.868532,0.291532,2.060043,-0.221696,0.000000,0.000000,0.000000,0.000000,0.000000,0.000000
12707408.000000,-2.271419,-1.662673,1.363894,-1.474166,1.689337,1.428130,-0.589791,0.179871,-0.001689,1.106038,-0.067021,-0.113218,1.093616,-0.018823,-2.690997,39.035381,-24.043777,-3.920107,0.279630,2.027084,-0.163102,0.000000,0.000000,0.000000,0.000000,0.000000,0.000000
12707409.000000,-2.271264,-1.662670,1.365011,-1.474220,1.689237,1.429237,-0.589807,0.172895,-0.001864,1.107023,-0.062096,-0.111427,1.093219,-0.017834,-2.421221,38.936199,-24.019974,-3.991518,0.237516,1.884261,-0.175919,0.000000,0.000000,0.000000,0.000000,0.000000,0.000000
12707410.000000,-2.271109,-1.662674,1.366143,-1.474260,1.689139,1.430338,-0.589827,0.166998,-0.004056,1.109439,-0.052065,-0.105883,1.095720,-0.018421,-2.246661,38.912395,-24.142960,-4.189882,0.195402,1.832076,-0.155778,0.000000,0.000000,0.000000,0.000000,0.000000,0.000000
12707411.000000,-2.270962,-1.662676,1.367252,-1.474309,1.689038,1.431425,-0.589843,0.157346,-0.005654,1.105657,-0.051433,-0.103436,1.097472,-0.017105,-2.000689,38.888592,-24.242142,-4.265260,0.195402,1.773483,-0.182328,0.000000,0.000000,0.000000,0.000000,0.000000,0.000000
12707412.000000,-2.270808,-1.662678,1.368373,-1.474361,1.688930,1.432508,-0.589867,0.156904,-0.007087,1.105523,-0.049240,-0.108414,1.090333,-0.018585,-1.873736,38.864788,-24.313553,-4.265260,0.261320,1.884261,-0.142960,0.000000,0.000000,0.000000,0.000000,0.000000,0.000000
12707413.000000,-2.270652,-1.662683,1.369487,-1.474420,1.688822,1.433582,-0.589883,0.157962,-0.006003,1.101350,-0.051616,-0.111011,1.085147,-0.017182,-1.802325,38.888592,-24.265945,-4.090700,0.297025,1.949264,-0.169511,0.000000,0.000000,0.000000,0.000000,0.000000,0.000000
12707414.000000,-2.270499,-1.662687,1.370581,-1.474469,1.688719,1.434681,-0.589896,0.158314,-0.003986,1.101088,-0.053532,-0.106643,1.079742,-0.016092,-1.726946,38.864788,-24.218338,-4.043092,0.303434,1.916305,-0.196061,0.000000,0.000000,0.000000,0.000000,0.000000,0.000000
12707415.000000,-2.270348,-1.662693,1.371687,-1.474519,1.688613,1.435801,-0.589918,0.156879,-0.006122,1.094947,-0.055354,-0.108239,1.088563,-0.021938,-1.726946,38.864788,-24.119156,-3.967714,0.320829,1.793624,-0.163102,0.000000,0.000000,0.000000,0.000000,0.000000,0.000000
12707416.000000,-2.270196,-1.662689,1.372769,-1.474569,1.688516,1.436902,-0.589929,0.156158,-0.001207,1.090211,-0.054009,-0.106698,1.090323,-0.019202,-1.750750,38.717999,-23.920792,-3.868532,0.249418,1.649886,-0.202470,0.000000,0.000000,0.000000,0.000000,0.000000,0.000000
12707417.000000,-2.270055,-1.662688,1.373864,-1.474609,1.688416,1.438000,-0.589949,0.152262,-0.002604,1.088129,-0.049812,-0.103187,1.088816,-0.020746,-1.627764,38.642620,-23.726395,-3.892336,0.231107,1.662704,-0.155778,0.000000,0.000000,0.000000,0.000000,0.000000,0.000000
12707418.000000,-2.269916,-1.662690,1.374964,-1.474651,1.688315,1.439072,-0.589960,0.147923,-0.001755,1.086916,-0.046830,-0.102178,1.079649,-0.013274,-1.580157,38.618816,-23.579605,-3.920107,0.261320,1.786300,-0.215287,0.000000,0.000000,0.000000,0.000000,0.000000,0.000000
12707419.000000,-2.269781,-1.662694,1.376055,-1.474700,1.688214,1.440164,-0.589980,0.143858,-0.004093,1.089029,-0.048368,-0.104999,1.081845,-0.015856,-1.504779,38.595013,-23.555801,-3.797121,0.267728,1.865035,-0.175919,0.000000,0.000000,0.000000,0.000000,0.000000,0.000000
12707420.000000,-2.269656,-1.662692,1.377173,-1.474743,1.688114,1.441263,-0.589991,0.135641,-0.004721,1.097898,-0.047529,-0.107314,1.088119,-0.014889,-1.330218,38.519634,-23.726395,-3.745546,0.267728,1.916305,-0.208878,0.000000,0.000000,0.000000,0.000000,0.000000,0.000000
12707421.000000,-2.269528,-1.662688,1.378294,-1.474783,1.688018,1.442354,-0.590011,0.134616,-0.002176,1.105204,-0.042896,-0.102641,1.086675,-0.017239,-1.231036,38.448223,-24.190567,-3.721742,0.225614,1.884261,-0.163102,0.000000,0.000000,0.000000,0.000000,0.000000,0.000000
12707422.000000,-2.269406,-1.662686,1.379431,-1.474823,1.687926,1.443463,-0.590027,0.132154,-0.000211,1.117416,-0.039898,-0.098811,1.081390,-0.017614,-1.060443,38.372845,-24.682510,-3.670168,0.178007,1.779891,-0.149369,0.000000,0.000000,0.000000,0.000000,0.000000,0.000000
12707423.000000,-2.269281,-1.662694,1.380556,-1.474856,1.687823,1.444541,-0.590035,0.129562,-0.002854,1.117221,-0.037195,-0.095608,1.078852,-0.015214,-0.985064,38.472027,-24.976089,-3.646364,0.237516,1.812850,-0.208878,0.000000,0.000000,0.000000,0.000000,0.000000,0.000000
12707424.000000,-2.269159,-1.662697,1.381668,-1.474894,1.687723,1.445625,-0.590053,0.126903,-0.003867,1.119621,-0.036826,-0.096414,1.074821,-0.013968,-0.885882,38.543438,-25.222061,-3.547182,0.267728,1.916305,-0.142960,0.000000,0.000000,0.000000,0.000000,0.000000,0.000000
12707425.000000,-2.269037,-1.662701,1.382781,-1.474931,1.687617,1.446712,-0.590060,0.126939,-0.004563,1.113089,-0.035792,-0.101773,1.069801,-0.008145,-0.862078,38.618816,-25.198257,-3.475771,0.303434,2.039901,-0.202470,0.000000,0.000000,0.000000,0.000000,0.000000,0.000000
12707426.000000,-2.268911,-1.662708,1.383910,-1.474963,1.687512,1.447784,-0.590074,0.127391,-0.004878,1.117769,-0.034524,-0.105645,1.070209,-0.010672,-0.885882,38.690228,-25.297440,-3.424196,0.332731,2.098495,-0.196061,0.000000,0.000000,0.000000,0.000000,0.000000,0.000000
12707427.000000,-2.268793,-1.662718,1.384993,-1.474996,1.687409,1.448880,-0.590083,0.123381,-0.006253,1.105216,-0.037570,-0.106799,1.076100,-0.011617,-0.862078,38.813213,-25.027664,-3.348818,0.327238,1.974899,-0.215287,0.000000,0.000000,0.000000,0.000000,0.000000,0.000000
12707428.000000,-2.268672,-1.662723,1.386097,-1.475028,1.687305,1.449979,-0.590099,0.122273,-0.006025,1.099070,-0.036399,-0.103045,1.086094,-0.010736,-0.909686,38.888592,-24.829300,-3.277406,0.315336,1.832076,-0.163102,0.000000,0.000000,0.000000,0.000000,0.000000,0.000000
12707429.000000,-2.268556,-1.662729,1.387183,-1.475065,1.687201,1.451056,-0.590113,0.119151,-0.005200,1.102701,-0.038503,-0.101856,1.090237,-0.012644,-0.885882,38.936199,-24.583328,-3.079042,0.339139,1.773483,-0.155778,0.000000,0.000000,0.000000,0.000000,0.000000,0.000000
12707430.000000,-2.268439,-1.662737,1.388276,-1.475101,1.687099,1.452138,-0.590115,0.120492,-0.008568,1.098985,-0.035369,-0.100192,1.084454,-0.010769,-0.909686,39.011578,-24.289749,-2.928285,0.344633,1.773483,-0.235429,0.000000,0.000000,0.000000,0.000000,0.000000,0.000000
12707431.000000,-2.268335,-1.662742,1.389384,-1.475133,1.687000,1.453200,-0.590133,0.113126,-0.009765,1.093301,-0.035020,-0.103819,1.073596,-0.010942,-0.810504,39.035381,-24.166763,-2.833071,0.356534,1.877853,-0.163102,0.000000,0.000000,0.000000,0.000000,0.000000,0.000000
12707432.000000,-2.268234,-1.662750,1.390468,-1.475153,1.686903,1.454294,-0.590140,0.110216,-0.008680,1.099547,-0.028084,-0.099159,1.071623,-0.010415,-0.687518,39.106792,-24.019974,-2.880678,0.303434,1.838485,-0.215287,0.000000,0.000000,0.000000,0.000000,0.000000,0.000000
12707433.000000,-2.268137,-1.662752,1.391578,-1.475171,1.686807,1.455420,-0.590154,0.104395,-0.005048,1.095234,-0.025088,-0.101309,1.082634,-0.013214,-0.512957,39.059185,-24.071548,-2.979860,0.279630,1.584884,-0.188737,0.000000,0.000000,0.000000,0.000000,0.000000,0.000000
12707434.000000,-2.268039,-1.662747,1.392674,-1.475180,1.686711,1.456515,-0.590164,0.100930,-0.003385,1.078735,-0.022298,-0.099515,1.088114,-0.009892,-0.389971,38.912395,-24.142960,-3.126650,0.273221,1.500655,-0.188737,0.000000,0.000000,0.000000,0.000000,0.000000,0.000000
12707435.000000,-2.267939,-1.662747,1.393788,-1.475193,1.686614,1.457611,-0.590179,0.100041,-0.000412,1.086295,-0.019229,-0.098629,1.086314,-0.012558,-0.342364,38.813213,-24.265945,-3.178224,0.285123,1.507064,-0.169511,0.000000,0.000000,0.000000,0.000000,0.000000,0.000000
12707436.000000,-2.267842,-1.662753,1.394897,-1.475207,1.686517,1.458682,-0.590184,0.099408,-0.004243,1.086926,-0.014694,-0.099210,1.087231,-0.011652,-0.290789,38.837017,-24.313553,-3.178224,0.327238,1.682845,-0.221696,0.000000,0.000000,0.000000,0.000000,0.000000,0.000000
12707437.000000,-2.267738,-1.662758,1.395977,-1.475218,1.686409,1.459766,-0.590199,0.100323,-0.004000,1.083587,-0.011202,-0.100951,1.088353,-0.010550,-0.314593,38.864788,-24.190567,-3.178224,0.410551,1.851302,-0.175919,0.000000,0.000000,0.000000,0.000000,0.000000,0.000000
12707438.000000,-2.267644,-1.662764,1.397063,-1.475232,1.686311,1.460870,-0.590213,0.097019,-0.003058,1.080204,-0.013213,-0.098477,1.089411,-0.013572,-0.290789,38.864788,-24.019974,-3.126650,0.398649,1.890670,-0.136552,0.000000,0.000000,0.000000,0.000000,0.000000,0.000000
12707439.000000,-2.267544,-1.662761,1.398141,-1.475234,1.686223,1.461965,-0.590214,0.097269,-0.000013,1.080422,-0.011614,-0.099042,1.093077,-0.011630,-0.389971,38.765606,-23.948563,-3.202028,0.315336,1.858627,-0.208878,0.000000,0.000000,0.000000,0.000000,0.000000,0.000000
12707440.000000,-2.267443,-1.662761,1.399231,-1.475238,1.686136,1.463081,-0.590229,0.096678,0.000885,1.083964,-0.007731,-0.093748,1.091244,-0.014797,-0.465350,38.717999,-23.849380,-3.249635,0.201810,1.741439,-0.163102,0.000000,0.000000,0.000000,0.000000,0.000000,0.000000
12707441.000000,-2.267342,-1.662759,1.400314,-1.475241,1.686040,1.464176,-0.590233,0.100616,0.002188,1.084152,-0.008271,-0.090214,1.086795,-0.013710,-0.612139,38.642620,-23.603409,-3.301210,0.219205,1.630660,-0.208878,0.000000,0.000000,0.000000,0.000000,0.000000,0.000000
12707442.000000,-2.267241,-1.662758,1.401393,-1.475248,1.685941,1.465275,-0.590244,0.096529,0.001892,1.086378,-0.008188,-0.094118,1.086514,-0.014931,-0.735125,38.618816,-23.555801,-3.225832,0.285123,1.689254,-0.202470,0.000000,0.000000,0.000000,0.000000,0.000000,0.000000
12707443.000000,-2.267149,-1.662753,1.402497,-1.475252,1.685853,1.466367,-0.590248,0.094856,0.002931,1.088124,-0.007256,-0.094077,1.081254,-0.010532,-0.786700,38.543438,-23.702591,-3.178224,0.285123,1.858627,-0.221696,0.000000,0.000000,0.000000,0.000000,0.000000,0.000000
