chaoyuefei/paper-gmrm-data/robot_logs/s2_dq_gmrm_xz_max_0.30_log_20260314_173615.csv
# time_ms,q_0,q_1,q_2,q_3,q_4,q_5,q_6,dq_0,dq_1,dq_2,dq_3,dq_4,dq_5,dq_6,tau_J_0,tau_J_1,tau_J_2,tau_J_3,tau_J_4,tau_J_5,tau_J_6,O_dP_EE_c_0,O_dP_EE_c_1,O_dP_EE_c_2,O_dP_EE_c_3,O_dP_EE_c_4,O_dP_EE_c_5
12437198.000000,-0.344674,0.544249,0.451057,-1.426822,-0.242508,1.916500,0.131705,-0.000323,0.000792,0.000084,-0.001020,-0.000113,0.000127,-0.001008,0.105939,-38.461567,5.972702,19.391661,0.859159,1.364242,-0.116410,0.000000,0.000000,0.000000,0.000000,0.000000,0.000000
12437199.000000,-0.344674,0.544244,0.451059,-1.426819,-0.242506,1.916500,0.131710,-0.000215,-0.001143,0.000613,0.000526,0.000366,0.000099,0.001057,0.105939,-38.390156,5.948898,19.340086,0.847257,1.364242,-0.163102,0.000000,0.000000,0.000000,0.000000,0.000000,0.000000
12437200.000000,-0.344674,0.544244,0.451052,-1.426820,-0.242507,1.916501,0.131704,-0.000144,-0.000762,-0.001819,-0.000206,0.000040,0.000314,-0.001499,0.105939,-38.390156,6.044113,19.363890,0.852750,1.357833,-0.103593,0.000000,0.000000,0.000000,0.000000,0.000000,0.000000
12437201.000000,-0.344672,0.544246,0.451052,-1.426822,-0.242506,1.916500,0.131705,0.001111,0.005195,-0.000656,-0.000137,0.000230,-0.000020,-0.000525,0.054365,-38.390156,6.020309,19.363890,0.847257,1.364242,-0.116410,0.000000,0.000000,0.000000,0.000000,0.000000,0.000000
12437202.000000,-0.344694,0.544250,0.451053,-1.426825,-0.242506,1.916499,0.131715,-0.016179,0.013673,-0.011221,-0.007015,-0.006987,-0.008619,0.000633,-0.314593,-37.826801,5.405380,19.117918,0.786832,1.344100,-0.142960,0.000000,0.000000,0.000000,0.000000,0.000000,0.000000
12437203.000000,-0.344716,0.544243,0.451036,-1.426833,-0.242487,1.916496,0.131724,-0.022994,0.018512,-0.021239,-0.017334,-0.001660,-0.005097,0.003114,-1.750750,-35.672565,3.885910,18.130064,0.428861,1.305648,-0.089860,0.000000,0.000000,0.000000,0.000000,0.000000,0.000000
12437204.000000,-0.344723,0.544258,0.450967,-1.426849,-0.242478,1.916490,0.131756,-0.015731,0.018196,-0.037289,-0.022342,0.001997,-0.003980,0.016568,-3.928790,-32.466999,2.092697,16.301146,0.052579,1.305648,-0.103593,0.000000,0.000000,0.000000,0.000000,0.000000,0.000000
12437205.000000,-0.344735,0.544297,0.450877,-1.426870,-0.242525,1.916485,0.131789,-0.006042,0.021441,-0.050276,-0.026437,-0.012375,-0.005259,0.025854,-6.059222,-28.940083,0.105087,13.730345,0.117582,1.364242,-0.083451,0.000000,0.000000,0.000000,0.000000,0.000000,0.000000
12437206.000000,-0.344761,0.544378,0.450754,-1.426936,-0.242564,1.916490,0.131826,-0.004069,0.029780,-0.063792,-0.035149,-0.022404,0.002583,0.029655,-7.642169,-25.881306,-1.513565,11.334105,0.058073,1.442062,-0.103593,0.000000,0.000000,0.000000,0.000000,0.000000,0.000000
12437207.000000,-0.344793,0.544470,0.450636,-1.427025,-0.242622,1.916555,0.131862,-0.004037,0.041959,-0.073878,-0.045301,-0.032429,0.025583,0.030264,-8.511004,-23.139912,-2.739456,9.156065,0.076383,1.064864,-0.070634,0.000000,0.000000,0.000000,0.000000,0.000000,0.000000
12437208.000000,-0.344814,0.544587,0.450529,-1.427106,-0.242722,1.916694,0.131899,-0.006236,0.057857,-0.072329,-0.054555,-0.054847,0.059670,0.031366,-8.832355,-21.156269,-3.429764,7.005797,0.374845,0.199691,-0.050492,0.000000,0.000000,0.000000,0.000000,0.000000,0.000000
12437209.000000,-0.344825,0.544711,0.450429,-1.427202,-0.242811,1.916855,0.131939,-0.006076,0.073408,-0.077177,-0.059914,-0.062372,0.096897,0.031393,-8.610187,-19.636799,-3.405960,5.176878,0.452665,-0.540971,-0.004716,0.000000,0.000000,0.000000,0.000000,0.000000,0.000000
12437210.000000,-0.344848,0.544817,0.450370,-1.427299,-0.242898,1.917004,0.131981,-0.012444,0.078541,-0.068321,-0.067680,-0.068631,0.115178,0.031473,-7.741351,-18.268085,-3.282974,3.645506,0.422452,-0.788163,0.041976,0.000000,0.000000,0.000000,0.000000,0.000000,0.000000
12437211.000000,-0.344862,0.544919,0.450335,-1.427417,-0.242981,1.917140,0.132039,-0.014204,0.086109,-0.061452,-0.079207,-0.071059,0.127884,0.041502,-6.753497,-16.994587,-2.961624,2.657652,0.320829,-0.613297,-0.056901,0.000000,0.000000,0.000000,0.000000,0.000000,0.000000
12437212.000000,-0.344854,0.544998,0.450302,-1.427533,-0.243059,1.917312,0.132090,-0.009257,0.083515,-0.056425,-0.087249,-0.076241,0.140199,0.043701,-5.936236,-15.550495,-2.299088,1.864195,0.171598,-0.339555,-0.023942,0.000000,0.000000,0.000000,0.000000,0.000000,0.000000
12437213.000000,-0.344850,0.545061,0.450280,-1.427680,-0.243123,1.917514,0.132149,-0.010006,0.073792,-0.050488,-0.109344,-0.065701,0.158736,0.046618,-5.019793,-14.034992,-1.660355,1.665831,-0.121371,-0.144547,-0.023942,0.000000,0.000000,0.000000,0.000000,0.000000,0.000000
12437214.000000,-0.344860,0.545093,0.450260,-1.427854,-0.243181,1.917750,0.132222,-0.012563,0.058094,-0.043784,-0.130343,-0.063993,0.181906,0.052784,-3.980364,-12.297321,-1.073197,1.887999,-0.396029,0.044051,-0.122819,0.000000,0.000000,0.000000,0.000000,0.000000,0.000000
12437215.000000,-0.344869,0.545117,0.450222,-1.428054,-0.243268,1.918000,0.132285,-0.013917,0.049312,-0.045318,-0.154029,-0.068258,0.202605,0.055872,-3.063921,-10.531879,-0.311478,2.407713,-0.401522,0.316879,-0.077042,0.000000,0.000000,0.000000,0.000000,0.000000,0.000000
12437216.000000,-0.344883,0.545153,0.450173,-1.428264,-0.243377,1.918270,0.132355,-0.017250,0.042938,-0.048854,-0.173926,-0.079680,0.219008,0.061417,-2.171282,-9.016376,0.450241,2.979002,-0.174471,0.576888,-0.103593,0.000000,0.000000,0.000000,0.000000,0.000000,0.000000
12437217.000000,-0.344920,0.545211,0.450129,-1.428480,-0.243489,1.918571,0.132421,-0.026491,0.047385,-0.049529,-0.192982,-0.092301,0.241343,0.061325,-1.108050,-7.913471,1.013595,3.399534,0.064481,0.687667,-0.031266,0.000000,0.000000,0.000000,0.000000,0.000000,0.000000
12437218.000000,-0.344965,0.545293,0.450084,-1.428709,-0.243594,1.918891,0.132502,-0.036917,0.062489,-0.050312,-0.205342,-0.096615,0.267079,0.066599,-0.017047,-7.227131,1.453964,3.744688,0.183500,0.700484,-0.077042,0.000000,0.000000,0.000000,0.000000,0.000000,0.000000
12437219.000000,-0.345002,0.545397,0.450050,-1.428941,-0.243700,1.919250,0.132576,-0.040477,0.075036,-0.045453,-0.215913,-0.103633,0.291637,0.066315,0.772443,-6.909748,1.652328,3.891478,0.279630,0.648299,-0.023942,0.000000,0.000000,0.000000,0.000000,0.000000,0.000000
12437220.000000,-0.345020,0.545520,0.450015,-1.429177,-0.243792,1.919639,0.132661,-0.032257,0.090342,-0.041914,-0.219746,-0.101713,0.318607,0.069232,1.216779,-6.909748,1.822922,3.867674,0.189908,0.511886,-0.037675,0.000000,0.000000,0.000000,0.000000,0.000000,0.000000
12437221.000000,-0.345042,0.545652,0.449990,-1.429413,-0.243870,1.920033,0.132748,-0.029057,0.106346,-0.035763,-0.225810,-0.094639,0.346235,0.076629,1.613508,-6.933552,1.822922,3.546324,-0.072848,0.414840,-0.077042,0.000000,0.000000,0.000000,0.000000,0.000000,0.000000
12437222.000000,-0.345066,0.545794,0.449963,-1.429660,-0.243961,1.920452,0.132829,-0.026799,0.119150,-0.032319,-0.232609,-0.088177,0.370820,0.079717,1.986432,-6.933552,1.846725,3.173399,-0.264193,0.408431,-0.044083,0.000000,0.000000,0.000000,0.000000,0.000000,0.000000
12437223.000000,-0.345077,0.545926,0.449924,-1.429916,-0.244064,1.920867,0.132916,-0.020328,0.126106,-0.035602,-0.245486,-0.093778,0.381558,0.079098,2.133222,-6.715351,1.969711,2.879820,-0.312716,0.544845,-0.056901,0.000000,0.000000,0.000000,0.000000,0.000000,0.000000
12437224.000000,-0.345089,0.546045,0.449879,-1.430198,-0.244180,1.921309,0.133002,-0.018234,0.124187,-0.039838,-0.253917,-0.098362,0.400496,0.083264,2.232404,-6.199604,2.168075,2.729063,-0.216586,0.622665,-0.077042,0.000000,0.000000,0.000000,0.000000,0.000000,0.000000
12437225.000000,-0.345109,0.546160,0.449836,-1.430502,-0.244301,1.921798,0.133082,-0.015950,0.119474,-0.040457,-0.267475,-0.103433,0.429024,0.078763,2.406965,-5.513264,2.267257,2.756834,-0.055453,0.589706,-0.037675,0.000000,0.000000,0.000000,0.000000,0.000000,0.000000
12437226.000000,-0.345129,0.546262,0.449797,-1.430816,-0.244421,1.922312,0.133170,-0.016994,0.113647,-0.042646,-0.285802,-0.111034,0.454855,0.078314,2.553754,-4.707905,2.291061,2.879820,0.088285,0.440475,-0.050492,0.000000,0.000000,0.000000,0.000000,0.000000,0.000000
12437227.000000,-0.345147,0.546375,0.449760,-1.431141,-0.244538,1.922859,0.133254,-0.017537,0.113000,-0.039560,-0.295942,-0.114906,0.480605,0.080782,2.680707,-3.922383,2.239486,2.879820,0.195402,0.291244,-0.037675,0.000000,0.000000,0.000000,0.000000,0.000000,0.000000
12437228.000000,-0.345156,0.546508,0.449724,-1.431467,-0.244657,1.923404,0.133341,-0.012027,0.119668,-0.039721,-0.303241,-0.114731,0.495026,0.079340,2.680707,-3.410603,2.144272,2.852049,0.225614,0.343429,-0.037675,0.000000,0.000000,0.000000,0.000000,0.000000,0.000000
12437229.000000,-0.345157,0.546659,0.449691,-1.431794,-0.244754,1.923947,0.133429,-0.005950,0.122626,-0.036821,-0.309182,-0.108911,0.510516,0.078845,2.581525,-3.311421,2.045089,2.705260,0.093778,0.616256,-0.056901,0.000000,0.000000,0.000000,0.000000,0.000000,0.000000
12437230.000000,-0.345155,0.546833,0.449664,-1.432115,-0.244853,1.924526,0.133510,-0.001836,0.132998,-0.029822,-0.307440,-0.103842,0.528612,0.081011,2.482343,-3.973957,1.997482,2.582274,-0.072848,0.863448,-0.011124,0.000000,0.000000,0.000000,0.000000,0.000000,0.000000
12437231.000000,-0.345154,0.547012,0.449640,-1.432429,-0.244948,1.925151,0.133601,-0.000716,0.143647,-0.029950,-0.310364,-0.101042,0.564703,0.081899,2.454572,-5.219685,2.045089,2.606077,-0.228488,0.824081,-0.077042,0.000000,0.000000,0.000000,0.000000,0.000000,0.000000
12437232.000000,-0.345159,0.547188,0.449618,-1.432770,-0.245044,1.925827,0.133680,-0.000936,0.154788,-0.028495,-0.318128,-0.099881,0.592278,0.077665,2.605329,-6.715351,2.168075,3.026610,-0.365817,0.551253,-0.023942,0.000000,0.000000,0.000000,0.000000,0.000000,0.000000
12437233.000000,-0.345154,0.547366,0.449596,-1.433108,-0.245159,1.926528,0.133762,-0.001553,0.168064,-0.029499,-0.322718,-0.106599,0.625816,0.076952,2.652936,-8.282429,2.390243,3.423338,-0.294406,0.226241,-0.017533,0.000000,0.000000,0.000000,0.000000,0.000000,0.000000
12437234.000000,-0.345154,0.547543,0.449565,-1.433459,-0.245290,1.927217,0.133846,-0.000753,0.174556,-0.032665,-0.337316,-0.112454,0.635740,0.077327,2.779890,-9.750324,2.731430,3.915282,-0.067355,0.023910,-0.037675,0.000000,0.000000,0.000000,0.000000,0.000000,0.000000
12437235.000000,-0.345148,0.547719,0.449539,-1.433821,-0.245426,1.927898,0.133924,-0.001253,0.179688,-0.031758,-0.346142,-0.116462,0.637137,0.075026,2.827497,-11.023823,2.953598,4.236632,0.171598,0.056869,-0.004716,0.000000,0.000000,0.000000,0.000000,0.000000,0.000000
12437236.000000,-0.345148,0.547890,0.449511,-1.434179,-0.245556,1.928555,0.134008,-0.001769,0.175890,-0.029808,-0.349768,-0.125151,0.652852,0.080626,2.879072,-12.221943,3.124191,4.534178,0.327238,0.174056,-0.023942,0.000000,0.000000,0.000000,0.000000,0.000000,0.000000
12437237.000000,-0.345130,0.548056,0.449482,-1.434555,-0.245673,1.929238,0.134087,0.003507,0.170185,-0.030363,-0.352401,-0.121951,0.656131,0.082374,2.553754,-13.543049,3.247177,5.101500,0.351041,0.291244,0.001693,0.000000,0.000000,0.000000,0.000000,0.000000,0.000000
12437238.000000,-0.345112,0.548223,0.449456,-1.434935,-0.245779,1.929932,0.134172,0.006827,0.167425,-0.025476,-0.356982,-0.114750,0.668246,0.081973,2.085615,-15.062519,3.270981,6.065550,0.243009,0.362655,-0.031266,0.000000,0.000000,0.000000,0.000000,0.000000,0.000000
12437239.000000,-0.345113,0.548391,0.449433,-1.435314,-0.245874,1.930615,0.134251,0.004019,0.166427,-0.024153,-0.364575,-0.111362,0.667479,0.080310,1.811872,-16.776386,3.247177,7.378722,0.058073,0.466109,-0.037675,0.000000,0.000000,0.000000,0.000000,0.000000,0.000000
12437240.000000,-0.345120,0.548559,0.449414,-1.435683,-0.245979,1.931296,0.134330,-0.000149,0.168940,-0.021100,-0.364338,-0.108782,0.669498,0.082342,1.613508,-18.537861,3.124191,8.664122,-0.037142,0.668441,-0.023942,0.000000,0.000000,0.000000,0.000000,0.000000,0.000000
12437241.000000,-0.345126,0.548741,0.449370,-1.436048,-0.246094,1.931966,0.134412,0.000126,0.173709,-0.026707,-0.370747,-0.112387,0.669965,0.080801,1.415143,-20.446125,3.322555,10.048704,0.015958,1.012679,-0.031266,0.000000,0.000000,0.000000,0.000000,0.000000,0.000000
12437242.000000,-0.345136,0.548931,0.449329,-1.436421,-0.246224,1.932621,0.134489,-0.000297,0.181225,-0.031821,-0.375148,-0.119735,0.659006,0.082882,1.244550,-22.306782,3.445541,11.381712,0.201810,1.357833,0.001693,0.000000,0.000000,0.000000,0.000000,0.000000,0.000000
12437243.000000,-0.345150,0.549134,0.449292,-1.436797,-0.246337,1.933298,0.134571,-0.006449,0.189498,-0.033700,-0.374942,-0.119503,0.658129,0.085617,1.192975,-24.167439,3.493149,12.591734,0.255826,1.422836,-0.004716,0.000000,0.000000,0.000000,0.000000,0.000000,0.000000
12437244.000000,-0.345160,0.549349,0.449247,-1.437176,-0.246457,1.933980,0.134657,-0.006626,0.200634,-0.037173,-0.379770,-0.123697,0.667925,0.083081,1.093793,-26.004292,3.616134,13.730345,0.291532,1.337692,-0.011124,0.000000,0.000000,0.000000,0.000000,0.000000,0.000000
12437245.000000,-0.345159,0.549579,0.449197,-1.437552,-0.246577,1.934659,0.134735,-0.003132,0.212061,-0.043826,-0.380269,-0.121379,0.665166,0.083931,0.847822,-27.741962,3.786728,14.472227,0.308927,1.188461,0.028243,0.000000,0.000000,0.000000,0.000000,0.000000,0.000000
12437246.000000,-0.345152,0.549819,0.449139,-1.437935,-0.246699,1.935314,0.134819,0.003617,0.224389,-0.050521,-0.382251,-0.118712,0.658580,0.082663,0.550275,-29.380451,4.032700,15.114927,0.303434,1.220504,0.009017,0.000000,0.000000,0.000000,0.000000,0.000000,0.000000
12437247.000000,-0.345154,0.550063,0.449084,-1.438309,-0.246817,1.935934,0.134901,0.001205,0.231532,-0.049752,-0.383496,-0.122063,0.653015,0.080963,0.427289,-30.800739,4.179489,15.436277,0.308927,1.383468,0.001693,0.000000,0.000000,0.000000,0.000000,0.000000,0.000000
12437248.000000,-0.345161,0.550308,0.449019,-1.438706,-0.246940,1.936560,0.134983,-0.002240,0.235128,-0.054746,-0.383761,-0.124690,0.638621,0.080270,0.375715,-31.998859,4.425461,15.856810,0.315336,1.539108,-0.023942,0.000000,0.000000,0.000000,0.000000,0.000000,0.000000
12437249.000000,-0.345171,0.550544,0.448950,-1.439099,-0.247068,1.937186,0.135063,-0.005045,0.235475,-0.061454,-0.388879,-0.127976,0.635289,0.077583,0.351911,-32.931171,4.671432,16.150389,0.356534,1.552840,0.009017,0.000000,0.000000,0.000000,0.000000,0.000000,0.000000
12437250.000000,-0.345186,0.550767,0.448879,-1.439519,-0.247192,1.937825,0.135150,-0.006136,0.229296,-0.062487,-0.396536,-0.129532,0.628774,0.077826,0.427289,-33.565937,4.893600,16.598692,0.374845,1.448470,-0.011124,0.000000,0.000000,0.000000,0.000000,0.000000,0.000000
12437251.000000,-0.345203,0.550989,0.448804,-1.439951,-0.247315,1.938446,0.135230,-0.010335,0.229823,-0.065918,-0.407133,-0.129547,0.627335,0.076135,0.526471,-34.030109,5.087997,17.114439,0.369352,1.454879,0.015426,0.000000,0.000000,0.000000,0.000000,0.000000,0.000000
12437252.000000,-0.345222,0.551219,0.448725,-1.440376,-0.247443,1.939050,0.135314,-0.013669,0.229377,-0.071692,-0.410910,-0.126924,0.617257,0.076549,0.649457,-34.470478,5.286362,17.435789,0.410551,1.565658,-0.004716,0.000000,0.000000,0.000000,0.000000,0.000000,0.000000
12437253.000000,-0.345240,0.551462,0.448640,-1.440807,-0.247572,1.939650,0.135393,-0.015389,0.231931,-0.074608,-0.413061,-0.128565,0.609703,0.080965,0.748639,-35.010029,5.556137,17.757139,0.422452,1.747848,-0.004716,0.000000,0.000000,0.000000,0.000000,0.000000,0.000000
12437254.000000,-0.345252,0.551695,0.448559,-1.441227,-0.247704,1.940238,0.135469,-0.014837,0.232098,-0.077467,-0.415506,-0.128077,0.614954,0.082985,0.772443,-35.450397,5.726730,17.931700,0.386747,1.884261,0.028243,0.000000,0.000000,0.000000,0.000000,0.000000,0.000000
12437255.000000,-0.345266,0.551948,0.448469,-1.441664,-0.247834,1.940841,0.135555,-0.011394,0.237702,-0.078253,-0.424350,-0.127863,0.611221,0.082258,0.796247,-35.989948,5.972702,18.253050,0.351041,1.865035,-0.011124,0.000000,0.000000,0.000000,0.000000,0.000000,0.000000
12437256.000000,-0.345278,0.552190,0.448384,-1.442107,-0.247964,1.941455,0.135636,-0.012123,0.237640,-0.080276,-0.426783,-0.133123,0.607219,0.085050,0.824018,-36.331135,6.143295,18.526793,0.339139,1.793624,-0.004716,0.000000,0.000000,0.000000,0.000000,0.000000,0.000000
12437257.000000,-0.345287,0.552447,0.448293,-1.442537,-0.248095,1.942055,0.135716,-0.010880,0.243719,-0.081846,-0.426169,-0.133368,0.608228,0.080686,0.772443,-36.799274,6.313889,18.697386,0.344633,1.747848,0.034652,0.000000,0.000000,0.000000,0.000000,0.000000,0.000000
12437258.000000,-0.345301,0.552707,0.448199,-1.442973,-0.248227,1.942646,0.135805,-0.008674,0.248326,-0.083700,-0.429318,-0.134906,0.600641,0.086367,0.796247,-37.287251,6.512253,18.796568,0.393156,1.844894,-0.023942,0.000000,0.000000,0.000000,0.000000,0.000000,0.000000
12437259.000000,-0.345313,0.552960,0.448101,-1.443408,-0.248364,1.943237,0.135889,-0.010261,0.246114,-0.085688,-0.440635,-0.137101,0.599031,0.086727,0.824018,-37.628437,6.734421,18.919554,0.476469,1.923629,0.015426,0.000000,0.000000,0.000000,0.000000,0.000000,0.000000
12437260.000000,-0.345323,0.553214,0.448010,-1.443860,-0.248495,1.943834,0.135976,-0.010712,0.247638,-0.087664,-0.444299,-0.131638,0.593594,0.084639,0.824018,-37.850605,6.853439,19.117918,0.494779,1.942855,-0.011124,0.000000,0.000000,0.000000,0.000000,0.000000,0.000000
12437261.000000,-0.345331,0.553465,0.447919,-1.444315,-0.248625,1.944441,0.136055,-0.006758,0.245656,-0.087396,-0.449270,-0.131475,0.597062,0.079333,0.772443,-38.045002,6.905014,19.292479,0.500272,1.903487,0.041976,0.000000,0.000000,0.000000,0.000000,0.000000,0.000000
12437262.000000,-0.345338,0.553711,0.447824,-1.444773,-0.248745,1.945048,0.136144,-0.007185,0.244541,-0.089059,-0.452561,-0.129136,0.596563,0.080275,0.724836,-38.120380,7.004196,19.562254,0.440763,1.844894,-0.011124,0.000000,0.000000,0.000000,0.000000,0.000000,0.000000
12437263.000000,-0.345348,0.553968,0.447738,-1.445224,-0.248873,1.945647,0.136226,-0.008691,0.247931,-0.089950,-0.451484,-0.128969,0.594357,0.081448,0.724836,-38.243366,6.952621,19.590025,0.410551,1.877853,0.015426,0.000000,0.000000,0.000000,0.000000,0.000000,0.000000
12437264.000000,-0.345353,0.554218,0.447651,-1.445669,-0.249006,1.946251,0.136307,-0.007989,0.246854,-0.089025,-0.449080,-0.129534,0.597757,0.084051,0.649457,-38.314777,6.952621,19.637632,0.405057,1.988631,0.028243,0.000000,0.000000,0.000000,0.000000,0.000000,0.000000
12437265.000000,-0.345361,0.554473,0.447573,-1.446120,-0.249136,1.946850,0.136396,-0.008788,0.249720,-0.086076,-0.447551,-0.134900,0.602114,0.087543,0.625654,-38.413960,6.853439,19.685240,0.398649,2.039901,-0.004716,0.000000,0.000000,0.000000,0.000000,0.000000,0.000000
12437266.000000,-0.345363,0.554726,0.447493,-1.446567,-0.249265,1.947465,0.136480,-0.004453,0.249587,-0.085417,-0.441740,-0.129368,0.601761,0.083985,0.526471,-38.413960,6.805832,19.713011,0.393156,2.027084,0.009017,0.000000,0.000000,0.000000,0.000000,0.000000,0.000000
12437267.000000,-0.345359,0.554974,0.447408,-1.447015,-0.249396,1.948069,0.136567,-0.002162,0.247060,-0.083539,-0.442186,-0.126975,0.608930,0.086289,0.328107,-38.413960,6.829636,19.736814,0.434354,1.974899,0.009017,0.000000,0.000000,0.000000,0.000000,0.000000,0.000000
12437268.000000,-0.345358,0.555226,0.447332,-1.447453,-0.249519,1.948688,0.136647,-0.002453,0.248966,-0.079160,-0.439256,-0.128497,0.606259,0.086948,0.205121,-38.461567,6.734421,19.637632,0.440763,1.936446,0.028243,0.000000,0.000000,0.000000,0.000000,0.000000,0.000000
12437269.000000,-0.345353,0.555483,0.447261,-1.447901,-0.249639,1.949299,0.136726,0.002163,0.251356,-0.075528,-0.438567,-0.127980,0.604747,0.087853,0.006757,-38.536945,6.611435,19.590025,0.410551,1.962081,0.054794,0.000000,0.000000,0.000000,0.000000,0.000000,0.000000
12437270.000000,-0.345344,0.555743,0.447193,-1.448329,-0.249764,1.949909,0.136819,0.006007,0.254876,-0.073072,-0.438279,-0.129348,0.600991,0.092141,-0.215411,-38.560749,6.488449,19.415464,0.416959,1.936446,-0.017533,0.000000,0.000000,0.000000,0.000000,0.000000,0.000000
12437271.000000,-0.345339,0.556000,0.447126,-1.448768,-0.249884,1.950521,0.136902,0.007614,0.256232,-0.070042,-0.434652,-0.129716,0.603944,0.089327,-0.389971,-38.659931,6.313889,19.268675,0.405057,1.930038,0.041976,0.000000,0.000000,0.000000,0.000000,0.000000,0.000000
12437272.000000,-0.345325,0.556256,0.447059,-1.449198,-0.250004,1.951140,0.136989,0.009918,0.257632,-0.069161,-0.437799,-0.129213,0.619568,0.087048,-0.612139,-38.778950,6.190903,19.169493,0.374845,1.909896,0.009017,0.000000,0.000000,0.000000,0.000000,0.000000,0.000000
12437273.000000,-0.345315,0.556518,0.446995,-1.449626,-0.250130,1.951773,0.137083,0.009222,0.258167,-0.067791,-0.435186,-0.130606,0.619514,0.089364,-0.735125,-38.878132,6.044113,18.994932,0.386747,1.858627,-0.004716,0.000000,0.000000,0.000000,0.000000,0.000000,0.000000
12437274.000000,-0.345298,0.556776,0.446939,-1.450060,-0.250257,1.952408,0.137166,0.012640,0.258562,-0.065457,-0.433949,-0.130699,0.621260,0.088840,-0.885882,-38.977314,5.849716,18.994932,0.381254,1.819259,0.041976,0.000000,0.000000,0.000000,0.000000,0.000000,0.000000
12437275.000000,-0.345288,0.557031,0.446881,-1.450473,-0.250381,1.953024,0.137255,0.012204,0.261095,-0.063369,-0.426511,-0.130084,0.623383,0.087126,-0.909686,-39.048725,5.750534,18.848143,0.369352,1.786300,-0.004716,0.000000,0.000000,0.000000,0.000000,0.000000,0.000000
12437276.000000,-0.345274,0.557294,0.446816,-1.450898,-0.250506,1.953658,0.137341,0.012210,0.262610,-0.063444,-0.426748,-0.125819,0.620362,0.091784,-0.933489,-39.124104,5.726730,18.848143,0.362943,1.779891,0.015426,0.000000,0.000000,0.000000,0.000000,0.000000,0.000000
12437277.000000,-0.345249,0.557551,0.446760,-1.451298,-0.250631,1.954285,0.137428,0.015334,0.262068,-0.061554,-0.427376,-0.128509,0.626872,0.087679,-1.084246,-39.219318,5.627548,18.673582,0.393156,1.767074,0.015426,0.000000,0.000000,0.000000,0.000000,0.000000,0.000000
12437278.000000,-0.345232,0.557815,0.446707,-1.451706,-0.250749,1.954901,0.137510,0.016914,0.262752,-0.055781,-0.424882,-0.122931,0.624269,0.083146,-1.207232,-39.366108,5.480759,18.526793,0.344633,1.760665,0.054794,0.000000,0.000000,0.000000,0.000000,0.000000,0.000000
12437279.000000,-0.345215,0.558082,0.446655,-1.452110,-0.250863,1.955525,0.137600,0.014350,0.262102,-0.054468,-0.416496,-0.122997,0.624120,0.086876,-1.306414,-39.465290,5.333969,18.376036,0.285123,1.721298,0.021835,0.000000,0.000000,0.000000,0.000000,0.000000,0.000000
12437280.000000,-0.345202,0.558342,0.446608,-1.452506,-0.250983,1.956148,0.137686,0.014459,0.260399,-0.052614,-0.413578,-0.119831,0.625740,0.088188,-1.354022,-39.512897,5.135605,18.229246,0.255826,1.662704,0.028243,0.000000,0.000000,0.000000,0.000000,0.000000,0.000000
12437281.000000,-0.345176,0.558614,0.446555,-1.452911,-0.251106,1.956778,0.137769,0.020719,0.265247,-0.054286,-0.406925,-0.123755,0.623047,0.087985,-1.528582,-39.711262,5.064194,18.177671,0.267728,1.611434,0.061202,0.000000,0.000000,0.000000,0.000000,0.000000,0.000000
12437282.000000,-0.345163,0.558880,0.446500,-1.453309,-0.251230,1.957400,0.137861,0.018002,0.268187,-0.053453,-0.403418,-0.122433,0.617916,0.086912,-1.528582,-39.758869,5.040390,18.054686,0.303434,1.617843,0.009017,0.000000,0.000000,0.000000,0.000000,0.000000,0.000000
12437283.000000,-0.345150,0.559149,0.446451,-1.453703,-0.251355,1.958007,0.137938,0.015606,0.266658,-0.051383,-0.397410,-0.120719,0.620622,0.086403,-1.504779,-39.758869,4.965012,18.030882,0.315336,1.676437,0.061202,0.000000,0.000000,0.000000,0.000000,0.000000,0.000000
12437284.000000,-0.345140,0.559426,0.446398,-1.454091,-0.251484,1.958636,0.138029,0.010241,0.268899,-0.051038,-0.393596,-0.124229,0.613749,0.085757,-1.453204,-39.905659,4.941208,17.955503,0.332731,1.682845,0.009017,0.000000,0.000000,0.000000,0.000000,0.000000,0.000000
12437285.000000,-0.345127,0.559691,0.446349,-1.454479,-0.251611,1.959260,0.138114,0.008260,0.267734,-0.049399,-0.394974,-0.120797,0.618812,0.086856,-1.480975,-39.929462,4.865829,18.030882,0.315336,1.611434,0.021835,0.000000,0.000000,0.000000,0.000000,0.000000,0.000000
12437286.000000,-0.345122,0.559967,0.446293,-1.454865,-0.251733,1.959885,0.138199,0.007505,0.265534,-0.049862,-0.397306,-0.117663,0.614184,0.087510,-1.405596,-40.028645,4.865829,18.030882,0.279630,1.546432,0.054794,0.000000,0.000000,0.000000,0.000000,0.000000,0.000000
12437287.000000,-0.345119,0.560237,0.446243,-1.455254,-0.251856,1.960499,0.138293,0.002831,0.268139,-0.048547,-0.393576,-0.116004,0.613714,0.091494,-1.282611,-40.175434,4.794418,18.078489,0.267728,1.605026,-0.004716,0.000000,0.000000,0.000000,0.000000,0.000000,0.000000
12437288.000000,-0.345116,0.560516,0.446186,-1.455637,-0.251977,1.961107,0.138375,0.003321,0.269428,-0.052994,-0.395597,-0.113891,0.611576,0.089211,-1.183428,-40.298420,4.818222,18.205442,0.225614,1.714889,0.067611,0.000000,0.000000,0.000000,0.000000,0.000000,0.000000
12437289.000000,-0.345114,0.560800,0.446130,-1.456023,-0.252103,1.961730,0.138469,0.002573,0.267303,-0.053046,-0.391480,-0.119477,0.611925,0.092774,-1.032672,-40.421406,4.842026,18.253050,0.243009,1.702071,0.009017,0.000000,0.000000,0.000000,0.000000,0.000000,0.000000
12437290.000000,-0.345111,0.561082,0.446071,-1.456408,-0.252230,1.962343,0.138549,0.000812,0.272771,-0.054200,-0.394511,-0.122316,0.626550,0.090795,-0.961260,-40.714985,4.917404,18.399839,0.231107,1.676437,0.067611,0.000000,0.000000,0.000000,0.000000,0.000000,0.000000
12437291.000000,-0.345114,0.561357,0.446004,-1.456805,-0.252350,1.962954,0.138639,0.000170,0.272483,-0.059579,-0.396796,-0.119365,0.621745,0.087094,-0.786700,-40.837971,5.064194,18.550596,0.207303,1.714889,0.067611,0.000000,0.000000,0.000000,0.000000,0.000000,0.000000
12437292.000000,-0.345112,0.561646,0.445944,-1.457198,-0.252475,1.963572,0.138727,0.001627,0.275268,-0.059710,-0.394206,-0.117209,0.624039,0.084108,-0.687518,-41.079975,5.064194,18.673582,0.189908,1.767074,0.061202,0.000000,0.000000,0.000000,0.000000,0.000000,0.000000
12437293.000000,-0.345113,0.561929,0.445865,-1.457579,-0.252613,1.964190,0.138814,0.001592,0.277960,-0.065974,-0.387733,-0.127248,0.625253,0.081708,-0.540728,-41.349751,5.310165,18.598204,0.249418,1.727706,0.054794,0.000000,0.000000,0.000000,0.000000,0.000000,0.000000
12437294.000000,-0.345114,0.562211,0.445788,-1.457975,-0.252749,1.964811,0.138906,0.001528,0.277990,-0.069039,-0.386364,-0.129068,0.618162,0.086560,-0.389971,-41.448933,5.504562,18.697386,0.267728,1.689254,0.009017,0.000000,0.000000,0.000000,0.000000,0.000000,0.000000
12437295.000000,-0.345118,0.562491,0.445712,-1.458373,-0.252883,1.965432,0.138985,-0.002723,0.277715,-0.073897,-0.390546,-0.130699,0.620101,0.081193,-0.191607,-41.496540,5.679123,18.820372,0.297025,1.662704,0.074935,0.000000,0.000000,0.000000,0.000000,0.000000,0.000000
12437296.000000,-0.345128,0.562769,0.445635,-1.458765,-0.253020,1.966054,0.139081,-0.006895,0.275849,-0.076723,-0.389326,-0.132313,0.621771,0.081843,0.054365,-41.595722,5.825912,18.796568,0.332731,1.597701,0.015426,0.000000,0.000000,0.000000,0.000000,0.000000,0.000000
12437297.000000,-0.345132,0.563054,0.445553,-1.459168,-0.253150,1.966661,0.139164,-0.006968,0.277510,-0.079509,-0.390596,-0.131773,0.616352,0.084447,0.177350,-41.694904,5.996506,18.871946,0.327238,1.695663,0.028243,0.000000,0.000000,0.000000,0.000000,0.000000,0.000000
12437298.000000,-0.345142,0.563339,0.445466,-1.459552,-0.253281,1.967259,0.139249,-0.008906,0.278504,-0.082142,-0.389865,-0.131352,0.611027,0.085480,0.375715,-41.790119,6.190903,18.848143,0.315336,1.760665,0.061202,0.000000,0.000000,0.000000,0.000000,0.000000,0.000000
12437299.000000,-0.345148,0.563624,0.445368,-1.459945,-0.253413,1.967870,0.139341,-0.007973,0.279490,-0.086271,-0.389231,-0.129769,0.611001,0.092732,0.474897,-41.913105,6.488449,18.820372,0.267728,1.754256,0.015426,0.000000,0.000000,0.000000,0.000000,0.000000,0.000000
12437300.000000,-0.345162,0.563903,0.445282,-1.460356,-0.253539,1.968487,0.139425,-0.009185,0.280228,-0.085210,-0.390501,-0.128258,0.607131,0.086264,0.649457,-41.889301,6.611435,18.994932,0.213712,1.806442,0.067611,0.000000,0.000000,0.000000,0.000000,0.000000,0.000000
12437301.000000,-0.345172,0.564189,0.445193,-1.460753,-0.253672,1.969094,0.139514,-0.010871,0.276472,-0.085048,-0.392547,-0.129237,0.611487,0.088721,0.724836,-41.913105,6.758224,19.094114,0.207303,1.800033,0.048385,0.000000,0.000000,0.000000,0.000000,0.000000,0.000000
12437302.000000,-0.345185,0.564470,0.445101,-1.461153,-0.253810,1.969711,0.139604,-0.012210,0.273462,-0.085018,-0.392617,-0.130788,0.611701,0.086416,0.796247,-41.936909,6.905014,19.169493,0.219205,1.812850,0.021835,0.000000,0.000000,0.000000,0.000000,0.000000,0.000000
12437303.000000,-0.345197,0.564747,0.445008,-1.461550,-0.253957,1.970312,0.139694,-0.012889,0.276038,-0.085071,-0.399297,-0.137873,0.623282,0.088077,0.847822,-41.913105,7.051804,19.217100,0.267728,1.851302,0.021835,0.000000,0.000000,0.000000,0.000000,0.000000,0.000000
12437304.000000,-0.345214,0.565034,0.444916,-1.461952,-0.254099,1.970926,0.139777,-0.014064,0.277890,-0.083280,-0.398543,-0.137957,0.618201,0.083198,0.923200,-42.012287,7.127182,19.292479,0.308927,1.909896,0.054794,0.000000,0.000000,0.000000,0.000000,0.000000,0.000000
12437305.000000,-0.345220,0.565305,0.444821,-1.462356,-0.254238,1.971553,0.139865,-0.009396,0.279492,-0.086496,-0.401531,-0.137487,0.622019,0.081542,0.895429,-41.988483,7.246201,19.391661,0.344633,1.838485,0.048385,0.000000,0.000000,0.000000,0.000000,0.000000,0.000000
12437306.000000,-0.345233,0.565582,0.444722,-1.462753,-0.254372,1.972168,0.139959,-0.011119,0.280024,-0.089680,-0.400126,-0.135786,0.619864,0.085972,0.947004,-41.936909,7.396957,19.463072,0.339139,1.779891,0.009017,0.000000,0.000000,0.000000,0.000000,0.000000,0.000000
12437307.000000,-0.345235,0.565863,0.444624,-1.463145,-0.254508,1.972778,0.140039,-0.009517,0.275236,-0.090675,-0.398846,-0.139158,0.610259,0.085495,0.871625,-41.913105,7.492172,19.415464,0.327238,1.825668,0.074935,0.000000,0.000000,0.000000,0.000000,0.000000,0.000000
12437308.000000,-0.345242,0.566144,0.444526,-1.463543,-0.254642,1.973393,0.140134,-0.007093,0.280550,-0.094257,-0.399346,-0.140637,0.608600,0.090413,0.871625,-42.012287,7.567551,19.538450,0.285123,1.825668,0.001693,0.000000,0.000000,0.000000,0.000000,0.000000,0.000000
12437309.000000,-0.345248,0.566414,0.444429,-1.463947,-0.254777,1.973991,0.140220,-0.005290,0.279152,-0.096675,-0.400107,-0.138586,0.605224,0.085972,0.871625,-41.889301,7.638962,19.685240,0.285123,1.851302,0.001693,0.000000,0.000000,0.000000,0.000000,0.000000,0.000000
12437310.000000,-0.345251,0.566685,0.444333,-1.464349,-0.254920,1.974586,0.140301,-0.002834,0.273346,-0.098266,-0.399903,-0.138268,0.600512,0.080573,0.824018,-41.790119,7.714340,19.812193,0.327238,1.923629,0.074935,0.000000,0.000000,0.000000,0.000000,0.000000,0.000000
12437311.000000,-0.345256,0.566953,0.444243,-1.464750,-0.255060,1.975175,0.140398,-0.001555,0.276161,-0.094618,-0.401409,-0.136174,0.600606,0.081978,0.796247,-41.742512,7.690536,20.006590,0.315336,1.936446,-0.004716,0.000000,0.000000,0.000000,0.000000,0.000000,0.000000
12437312.000000,-0.345261,0.567225,0.444152,-1.465154,-0.255203,1.975776,0.140481,-0.003938,0.275208,-0.091425,-0.400288,-0.140800,0.596257,0.082774,0.772443,-41.595722,7.638962,20.133543,0.339139,1.981307,0.054794,0.000000,0.000000,0.000000,0.000000,0.000000,0.000000
12437313.000000,-0.345262,0.567504,0.444060,-1.465560,-0.255351,1.976372,0.140574,-0.001958,0.277102,-0.090518,-0.404007,-0.140200,0.598161,0.086793,0.724836,-41.643330,7.638962,20.427122,0.386747,2.007858,0.028243,0.000000,0.000000,0.000000,0.000000,0.000000,0.000000
12437314.000000,-0.345256,0.567775,0.443968,-1.465964,-0.255486,1.976961,0.140668,0.001237,0.278684,-0.092794,-0.401592,-0.137610,0.598899,0.089352,0.601850,-41.595722,7.638962,20.526304,0.374845,2.007858,0.009017,0.000000,0.000000,0.000000,0.000000,0.000000,0.000000
12437315.000000,-0.345252,0.568053,0.443882,-1.466372,-0.255627,1.977549,0.140752,0.001780,0.280176,-0.089372,-0.404638,-0.135890,0.592155,0.083419,0.550275,-41.548115,7.543747,20.700865,0.369352,2.053634,0.067611,0.000000,0.000000,0.000000,0.000000,0.000000,0.000000
12437316.000000,-0.345245,0.568319,0.443799,-1.466779,-0.255769,1.978138,0.140849,0.003319,0.274138,-0.086825,-0.404020,-0.135645,0.593429,0.087917,0.451093,-41.448933,7.444565,20.871458,0.386747,2.092086,0.015426,0.000000,0.000000,0.000000,0.000000,0.000000,0.000000
12437317.000000,-0.345233,0.568587,0.443710,-1.467180,-0.255901,1.978729,0.140939,0.007530,0.273996,-0.086088,-0.399724,-0.138225,0.587187,0.083280,0.351911,-41.302143,7.396957,21.022215,0.351041,2.125045,0.028243,0.000000,0.000000,0.000000,0.000000,0.000000,0.000000
12437318.000000,-0.345225,0.568858,0.443626,-1.467585,-0.256039,1.979325,0.141029,0.005176,0.275636,-0.085654,-0.396778,-0.136290,0.586182,0.086916,0.351911,-41.202961,7.345383,21.169004,0.344633,2.137862,0.001693,0.000000,0.000000,0.000000,0.000000,0.000000,0.000000
12437319.000000,-0.345211,0.569131,0.443548,-1.467983,-0.256175,1.979908,0.141117,0.008450,0.269468,-0.084189,-0.395239,-0.140584,0.581392,0.087616,0.276533,-41.155354,7.246201,21.343565,0.356534,2.131454,0.021835,0.000000,0.000000,0.000000,0.000000,0.000000,0.000000
12437320.000000,-0.345198,0.569406,0.443469,-1.468398,-0.256320,1.980508,0.141208,0.010243,0.271217,-0.083873,-0.398457,-0.138532,0.585372,0.089342,0.228925,-41.155354,7.174789,21.613340,0.356534,2.104903,0.021835,0.000000,0.000000,0.000000,0.000000,0.000000,0.000000
12437321.000000,-0.345185,0.569677,0.443395,-1.468793,-0.256472,1.981091,0.141300,0.008558,0.272170,-0.076688,-0.395732,-0.144607,0.589762,0.090911,0.177350,-41.131550,7.075607,21.764097,0.434354,2.125045,0.009017,0.000000,0.000000,0.000000,0.000000,0.000000,0.000000
12437322.000000,-0.345167,0.569949,0.443323,-1.469201,-0.256614,1.981677,0.141388,0.012118,0.270301,-0.073255,-0.397838,-0.140786,0.582981,0.090841,0.054365,-41.131550,6.928818,21.962461,0.416959,2.209274,0.034652,0.000000,0.000000,0.000000,0.000000,0.000000,0.000000
12437323.000000,-0.345154,0.570214,0.443251,-1.469598,-0.256755,1.982262,0.141478,0.009192,0.269384,-0.072067,-0.396206,-0.138321,0.580485,0.087280,0.030561,-41.032368,6.829636,22.010069,0.416959,2.267867,0.015426,0.000000,0.000000,0.000000,0.000000,0.000000,0.000000
12437324.000000,-0.345140,0.570478,0.443190,-1.470007,-0.256892,1.982856,0.141559,0.010761,0.270839,-0.068967,-0.401838,-0.144349,0.581666,0.086858,-0.017047,-40.885578,6.635239,22.208433,0.393156,2.261459,0.067611,0.000000,0.000000,0.000000,0.000000,0.000000,0.000000
12437325.000000,-0.345121,0.570738,0.443124,-1.470412,-0.257033,1.983453,0.141651,0.013277,0.265481,-0.065348,-0.398946,-0.145719,0.579208,0.090558,-0.116229,-40.714985,6.512253,22.283812,0.381254,2.261459,0.021835,0.000000,0.000000,0.000000,0.000000,0.000000,0.000000
12437326.000000,-0.345102,0.570995,0.443063,-1.470819,-0.257170,1.984058,0.141738,0.015658,0.265704,-0.065178,-0.412227,-0.146020,0.577176,0.090671,-0.243182,-40.591999,6.365463,22.406797,0.351041,2.228500,0.041976,0.000000,0.000000,0.000000,0.000000,0.000000,0.000000
12437327.000000,-0.345087,0.571258,0.443003,-1.471216,-0.257308,1.984643,0.141828,0.016062,0.265990,-0.061843,-0.407920,-0.142432,0.571923,0.091345,-0.314593,-40.469013,6.218674,22.355223,0.339139,2.255050,0.048385,0.000000,0.000000,0.000000,0.000000,0.000000,0.000000
12437328.000000,-0.345075,0.571523,0.442940,-1.471614,-0.257457,1.985239,0.141917,0.014697,0.261756,-0.063885,-0.402381,-0.145537,0.577384,0.092179,-0.314593,-40.397602,6.143295,22.208433,0.369352,2.274276,0.034652,0.000000,0.000000,0.000000,0.000000,0.000000,0.000000
12437329.000000,-0.345057,0.571787,0.442885,-1.472002,-0.257610,1.985832,0.142008,0.015671,0.265849,-0.061452,-0.396583,-0.152481,0.575184,0.091351,-0.389971,-40.397602,6.020309,22.085447,0.393156,2.242233,0.054794,0.000000,0.000000,0.000000,0.000000,0.000000,0.000000
12437330.000000,-0.345045,0.572056,0.442830,-1.472394,-0.257761,1.986441,0.142101,0.011947,0.268071,-0.056983,-0.393338,-0.152621,0.581713,0.093398,-0.413775,-40.274616,5.921127,22.033873,0.405057,2.150680,0.021835,0.000000,0.000000,0.000000,0.000000,0.000000,0.000000
12437331.000000,-0.345037,0.572315,0.442774,-1.472774,-0.257915,1.987041,0.142187,0.011294,0.261697,-0.054324,-0.386396,-0.152637,0.579343,0.092298,-0.389971,-40.151630,5.849716,21.887083,0.422452,2.085677,0.054794,0.000000,0.000000,0.000000,0.000000,0.000000,0.000000
12437332.000000,-0.345019,0.572578,0.442717,-1.473156,-0.258061,1.987635,0.142281,0.009531,0.264051,-0.055758,-0.387048,-0.147307,0.584051,0.088669,-0.441546,-40.076252,5.798141,21.712523,0.416959,2.085677,0.028243,0.000000,0.000000,0.000000,0.000000,0.000000,0.000000
12437333.000000,-0.345012,0.572840,0.442661,-1.473533,-0.258206,1.988229,0.142366,0.008355,0.264300,-0.056371,-0.380151,-0.142652,0.579749,0.089082,-0.366168,-39.929462,5.726730,21.514158,0.398649,2.150680,0.054794,0.000000,0.000000,0.000000,0.000000,0.000000,0.000000
12437334.000000,-0.344995,0.573097,0.442606,-1.473902,-0.258353,1.988824,0.142459,0.010563,0.261695,-0.054202,-0.376941,-0.144391,0.595019,0.091229,-0.413775,-39.782673,5.679123,21.367369,0.386747,2.157089,0.028243,0.000000,0.000000,0.000000,0.000000,0.000000,0.000000
12437335.000000,-0.344982,0.573353,0.442548,-1.474271,-0.258491,1.989428,0.142548,0.007839,0.262117,-0.052884,-0.369840,-0.139820,0.590224,0.090488,-0.413775,-39.635883,5.651352,21.169004,0.344633,2.137862,0.041976,0.000000,0.000000,0.000000,0.000000,0.000000,0.000000
12437336.000000,-0.344973,0.573609,0.442498,-1.474636,-0.258625,1.990036,0.142639,0.005268,0.262493,-0.049716,-0.370744,-0.134751,0.592629,0.086650,-0.389971,-39.465290,5.528366,20.946836,0.261320,2.150680,0.041976,0.000000,0.000000,0.000000,0.000000,0.000000,0.000000
12437337.000000,-0.344965,0.573874,0.442441,-1.475000,-0.258768,1.990647,0.142734,0.005962,0.262615,-0.053402,-0.366924,-0.134480,0.596069,0.084799,-0.342364,-39.417683,5.528366,20.800047,0.255826,2.104903,0.009017,0.000000,0.000000,0.000000,0.000000,0.000000,0.000000
12437338.000000,-0.344952,0.574138,0.442379,-1.475355,-0.258915,1.991267,0.142816,0.007676,0.266472,-0.057271,-0.359531,-0.140121,0.602147,0.085368,-0.342364,-39.417683,5.579941,20.625486,0.285123,2.020675,0.054794,0.000000,0.000000,0.000000,0.000000,0.000000,0.000000
12437339.000000,-0.344945,0.574396,0.442318,-1.475701,-0.259063,1.991873,0.142907,0.007229,0.264131,-0.056156,-0.356280,-0.139844,0.612994,0.083047,-0.266986,-39.318501,5.603745,20.379515,0.327238,1.995040,0.048385,0.000000,0.000000,0.000000,0.000000,0.000000,0.000000
12437340.000000,-0.344941,0.574656,0.442254,-1.476052,-0.259203,1.992486,0.142998,0.006421,0.259911,-0.058773,-0.350296,-0.138612,0.613351,0.086193,-0.167803,-39.247089,5.651352,20.256529,0.344633,1.968490,0.041976,0.000000,0.000000,0.000000,0.000000,0.000000,0.000000
12437341.000000,-0.344934,0.574910,0.442190,-1.476401,-0.259346,1.993112,0.143090,0.006543,0.259261,-0.060378,-0.350696,-0.137408,0.612074,0.092025,-0.092425,-39.147907,5.679123,20.058165,0.362943,1.909896,0.067611,0.000000,0.000000,0.000000,0.000000,0.000000,0.000000
12437342.000000,-0.344927,0.575175,0.442123,-1.476740,-0.259480,1.993719,0.143189,0.007280,0.262938,-0.062569,-0.345627,-0.134161,0.615312,0.089212,-0.044818,-39.100300,5.750534,19.911375,0.332731,1.871444,0.028243,0.000000,0.000000,0.000000,0.000000,0.000000,0.000000
12437343.000000,-0.344926,0.575441,0.442059,-1.477076,-0.259617,1.994328,0.143275,0.002916,0.262136,-0.063480,-0.341083,-0.132134,0.607837,0.088221,0.078168,-39.048725,5.798141,19.760618,0.291532,1.877853,0.087753,0.000000,0.000000,0.000000,0.000000,0.000000,0.000000
12437344.000000,-0.344918,0.575706,0.441996,-1.477403,-0.259755,1.994938,0.143379,0.004718,0.264237,-0.063106,-0.334697,-0.135605,0.611272,0.092711,0.129743,-39.100300,5.798141,19.590025,0.249418,1.865035,0.009017,0.000000,0.000000,0.000000,0.000000,0.000000,0.000000
12437345.000000,-0.344914,0.575970,0.441929,-1.477736,-0.259893,1.995542,0.143471,0.004740,0.266133,-0.063961,-0.332320,-0.138135,0.606738,0.092313,0.228925,-39.048725,5.849716,19.538450,0.201810,1.884261,0.009017,0.000000,0.000000,0.000000,0.000000,0.000000,0.000000
12437346.000000,-0.344913,0.576232,0.441860,-1.478062,-0.260044,1.996147,0.143558,0.001143,0.262533,-0.067863,-0.327159,-0.138090,0.605045,0.090263,0.351911,-38.901936,5.921127,19.340086,0.237516,1.851302,0.074935,0.000000,0.000000,0.000000,0.000000,0.000000,0.000000
12437347.000000,-0.344907,0.576485,0.441789,-1.478377,-0.260193,1.996741,0.143656,0.002779,0.260122,-0.071239,-0.323490,-0.140921,0.598815,0.092899,0.427289,-38.755146,5.996506,19.141722,0.219205,1.844894,0.028243,0.000000,0.000000,0.000000,0.000000,0.000000,0.000000
12437348.000000,-0.344909,0.576745,0.441713,-1.478701,-0.260346,1.997343,0.143753,0.001691,0.259624,-0.070392,-0.323727,-0.141228,0.595215,0.096125,0.601850,-38.560749,6.067917,19.094114,0.279630,1.858627,0.034652,0.000000,0.000000,0.000000,0.000000,0.000000,0.000000
12437349.000000,-0.344907,0.577001,0.441635,-1.479014,-0.260497,1.997954,0.143849,0.002219,0.256274,-0.070502,-0.322475,-0.139726,0.597950,0.096162,0.724836,-38.338581,6.167099,18.971128,0.308927,1.832076,0.015426,0.000000,0.000000,0.000000,0.000000,0.000000,0.000000
12437350.000000,-0.344901,0.577257,0.441558,-1.479319,-0.260648,1.998555,0.143942,0.004447,0.255410,-0.070383,-0.315766,-0.143398,0.600773,0.094818,0.772443,-38.167988,6.266281,18.748960,0.332731,1.754256,0.034652,0.000000,0.000000,0.000000,0.000000,0.000000,0.000000
12437351.000000,-0.344896,0.577528,0.441478,-1.479631,-0.260790,1.999158,0.144036,0.004715,0.258168,-0.073508,-0.311871,-0.143017,0.598254,0.090501,0.871625,-38.144184,6.365463,18.574400,0.273221,1.747848,0.015426,0.000000,0.000000,0.000000,0.000000,0.000000,0.000000
12437352.000000,-0.344888,0.577794,0.441403,-1.479940,-0.260932,1.999740,0.144120,0.006779,0.259098,-0.070310,-0.309190,-0.138280,0.606331,0.088168,0.895429,-38.096577,6.365463,18.526793,0.213712,1.806442,0.087753,0.000000,0.000000,0.000000,0.000000,0.000000,0.000000
12437353.000000,-0.344882,0.578059,0.441325,-1.480231,-0.261080,2.000343,0.144216,0.007430,0.260609,-0.071088,-0.302549,-0.141395,0.601927,0.090924,0.947004,-38.096577,6.365463,18.276854,0.201810,1.825668,0.041976,0.000000,0.000000,0.000000,0.000000,0.000000,0.000000
12437354.000000,-0.344877,0.578324,0.441239,-1.480539,-0.261229,2.000946,0.144314,0.004841,0.259859,-0.077993,-0.302772,-0.143099,0.602473,0.092964,0.994611,-38.068806,6.488449,18.253050,0.183500,1.806442,0.009017,0.000000,0.000000,0.000000,0.000000,0.000000,0.000000
12437355.000000,-0.344874,0.578590,0.441159,-1.480836,-0.261384,2.001547,0.144405,0.005295,0.261472,-0.081208,-0.299955,-0.141343,0.603837,0.090474,1.069990,-37.949787,6.536057,18.229246,0.201810,1.767074,0.074935,0.000000,0.000000,0.000000,0.000000,0.000000,0.000000
12437356.000000,-0.344864,0.578856,0.441078,-1.481137,-0.261536,2.002149,0.144507,0.004350,0.259594,-0.079903,-0.302086,-0.140747,0.605577,0.096743,1.069990,-37.949787,6.559860,18.177671,0.243009,1.735030,0.028243,0.000000,0.000000,0.000000,0.000000,0.000000,0.000000
12437357.000000,-0.344853,0.579118,0.440997,-1.481436,-0.261689,2.002759,0.144600,0.007213,0.262915,-0.079726,-0.300191,-0.145099,0.613296,0.095031,1.046186,-37.898212,6.611435,18.205442,0.291532,1.779891,0.054794,0.000000,0.000000,0.000000,0.000000,0.000000,0.000000
12437358.000000,-0.344844,0.579383,0.440914,-1.481734,-0.261838,2.003357,0.144698,0.008692,0.263240,-0.078169,-0.297777,-0.152570,0.609840,0.095674,1.046186,-37.775227,6.611435,18.205442,0.327238,1.747848,0.034652,0.000000,0.000000,0.000000,0.000000,0.000000,0.000000
12437359.000000,-0.344830,0.579644,0.440831,-1.482034,-0.261982,2.003967,0.144790,0.010948,0.265686,-0.077903,-0.298029,-0.150650,0.607457,0.094294,0.994611,-37.727619,6.635239,18.153868,0.297025,1.727706,0.048385,0.000000,0.000000,0.000000,0.000000,0.000000,0.000000
12437360.000000,-0.344814,0.579917,0.440748,-1.482322,-0.262128,2.004566,0.144884,0.016095,0.269135,-0.080226,-0.293660,-0.153672,0.606544,0.094013,0.923200,-37.751423,6.635239,18.054686,0.273221,1.695663,0.048385,0.000000,0.000000,0.000000,0.000000,0.000000,0.000000
12437361.000000,-0.344798,0.580195,0.440673,-1.482612,-0.262268,2.005173,0.144984,0.016386,0.273125,-0.080186,-0.292613,-0.150149,0.604948,0.095268,0.871625,-37.727619,6.559860,17.931700,0.195402,1.727706,0.015426,0.000000,0.000000,0.000000,0.000000,0.000000,0.000000
12437362.000000,-0.344778,0.580467,0.440594,-1.482897,-0.262418,2.005769,0.145076,0.014953,0.272328,-0.078008,-0.297430,-0.149932,0.597353,0.088991,0.748639,-37.775227,6.512253,17.685728,0.178007,1.760665,0.048385,0.000000,0.000000,0.000000,0.000000,0.000000,0.000000
12437363.000000,-0.344761,0.580749,0.440511,-1.483189,-0.262569,2.006371,0.145172,0.015760,0.277946,-0.077293,-0.292755,-0.150075,0.594637,0.091574,0.673261,-37.850605,6.512253,17.534971,0.166105,1.708480,0.015426,0.000000,0.000000,0.000000,0.000000,0.000000,0.000000
12437364.000000,-0.344746,0.581032,0.440434,-1.483480,-0.262724,2.006971,0.145258,0.013089,0.277771,-0.077811,-0.289646,-0.151872,0.591404,0.089861,0.601850,-37.874409,6.436874,17.411985,0.207303,1.670028,0.067611,0.000000,0.000000,0.000000,0.000000,0.000000,0.000000
12437365.000000,-0.344732,0.581302,0.440353,-1.483763,-0.262875,2.007571,0.145357,0.013792,0.276172,-0.080550,-0.286480,-0.147874,0.590579,0.092224,0.550275,-37.826801,6.436874,17.241392,0.231107,1.617843,0.021835,0.000000,0.000000,0.000000,0.000000,0.000000,0.000000
12437366.000000,-0.344711,0.581583,0.440277,-1.484060,-0.263026,2.008178,0.145447,0.015397,0.275070,-0.077624,-0.287653,-0.145484,0.587129,0.091394,0.451093,-37.802998,6.365463,17.241392,0.273221,1.565658,0.041976,0.000000,0.000000,0.000000,0.000000,0.000000,0.000000
12437367.000000,-0.344695,0.581868,0.440199,-1.484346,-0.263177,2.008786,0.145546,0.015414,0.279372,-0.080436,-0.289171,-0.147670,0.590944,0.096875,0.403486,-37.850605,6.365463,17.114439,0.303434,1.546432,0.034652,0.000000,0.000000,0.000000,0.000000,0.000000,0.000000
12437368.000000,-0.344671,0.582152,0.440125,-1.484638,-0.263322,2.009379,0.145643,0.020403,0.280050,-0.076934,-0.287673,-0.147261,0.587086,0.095250,0.276533,-37.922016,6.266281,17.019224,0.273221,1.565658,0.054794,0.000000,0.000000,0.000000,0.000000,0.000000,0.000000
12437369.000000,-0.344650,0.582443,0.440052,-1.484924,-0.263463,2.009988,0.145738,0.019614,0.282150,-0.074501,-0.282912,-0.145707,0.587499,0.094348,0.205121,-38.068806,6.167099,16.920042,0.207303,1.584884,0.074935,0.000000,0.000000,0.000000,0.000000,0.000000,0.000000
12437370.000000,-0.344629,0.582727,0.439983,-1.485223,-0.263607,2.010582,0.145842,0.022322,0.281807,-0.072822,-0.287405,-0.149415,0.595753,0.096715,0.129743,-38.144184,6.067917,17.019224,0.135892,1.605026,0.009017,0.000000,0.000000,0.000000,0.000000,0.000000,0.000000
12437371.000000,-0.344601,0.583013,0.439913,-1.485511,-0.263757,2.011186,0.145932,0.023532,0.284649,-0.071506,-0.289439,-0.149399,0.588932,0.093154,-0.044818,-38.243366,5.972702,16.943846,0.112089,1.637069,0.067611,0.000000,0.000000,0.000000,0.000000,0.000000,0.000000
12437372.000000,-0.344583,0.583300,0.439835,-1.485803,-0.263909,2.011785,0.146032,0.020140,0.289272,-0.077235,-0.289168,-0.150669,0.585942,0.094974,-0.044818,-38.314777,6.020309,16.920042,0.135892,1.670028,0.028243,0.000000,0.000000,0.000000,0.000000,0.000000,0.000000
12437373.000000,-0.344562,0.583591,0.439761,-1.486097,-0.264053,2.012385,0.146129,0.018384,0.290038,-0.073324,-0.289619,-0.146779,0.585866,0.090255,-0.068621,-38.390156,5.996506,16.920042,0.147794,1.637069,0.015426,0.000000,0.000000,0.000000,0.000000,0.000000,0.000000
12437374.000000,-0.344545,0.583881,0.439692,-1.486391,-0.264207,2.012983,0.146215,0.019581,0.290772,-0.068608,-0.292342,-0.150353,0.577473,0.088977,-0.068621,-38.485371,5.897324,16.920042,0.213712,1.617843,0.074935,0.000000,0.000000,0.000000,0.000000,0.000000,0.000000
12437375.000000,-0.344525,0.584174,0.439621,-1.486686,-0.264355,2.013590,0.146314,0.021301,0.294447,-0.070066,-0.296536,-0.146745,0.592299,0.091501,-0.092425,-38.584553,5.873520,16.991453,0.243009,1.532699,0.041976,0.000000,0.000000,0.000000,0.000000,0.000000,0.000000
12437376.000000,-0.344508,0.584468,0.439546,-1.486980,-0.264501,2.014179,0.146406,0.021503,0.290248,-0.068880,-0.291722,-0.148333,0.585573,0.090244,-0.068621,-38.632160,5.897324,16.991453,0.255826,1.474105,0.074935,0.000000,0.000000,0.000000,0.000000,0.000000,0.000000
12437377.000000,-0.344487,0.584763,0.439478,-1.487277,-0.264643,2.014770,0.146503,0.022914,0.289623,-0.069567,-0.291050,-0.146850,0.581367,0.091502,-0.092425,-38.659931,5.849716,16.991453,0.207303,1.526290,0.034652,0.000000,0.000000,0.000000,0.000000,0.000000,0.000000
12437378.000000,-0.344470,0.585062,0.439411,-1.487570,-0.264790,2.015350,0.146596,0.019686,0.295574,-0.069453,-0.292764,-0.152558,0.578612,0.097014,-0.068621,-38.707539,5.774338,16.943846,0.201810,1.578475,0.021835,0.000000,0.000000,0.000000,0.000000,0.000000,0.000000
12437379.000000,-0.344448,0.585356,0.439342,-1.487870,-0.264939,2.015937,0.146689,0.017892,0.291062,-0.069488,-0.291025,-0.150133,0.578314,0.094883,-0.068621,-38.632160,5.702927,16.920042,0.147794,1.649886,0.034652,0.000000,0.000000,0.000000,0.000000,0.000000,0.000000
12437380.000000,-0.344432,0.585646,0.439271,-1.488158,-0.265090,2.016528,0.146779,0.015372,0.291861,-0.074476,-0.294719,-0.154318,0.579294,0.093701,-0.017047,-38.584553,5.702927,16.892271,0.123990,1.656295,0.054794,0.000000,0.000000,0.000000,0.000000,0.000000,0.000000
12437381.000000,-0.344414,0.585942,0.439197,-1.488466,-0.265240,2.017112,0.146870,0.017301,0.291478,-0.075874,-0.296350,-0.153604,0.584391,0.092514,0.006757,-38.485371,5.750534,17.019224,0.117582,1.656295,0.081344,0.000000,0.000000,0.000000,0.000000,0.000000,0.000000
12437382.000000,-0.344402,0.586232,0.439128,-1.488771,-0.265396,2.017703,0.146972,0.017089,0.291596,-0.074746,-0.295902,-0.155154,0.578737,0.095049,0.105939,-38.390156,5.702927,17.090635,0.178007,1.617843,0.028243,0.000000,0.000000,0.000000,0.000000,0.000000,0.000000
12437383.000000,-0.344388,0.586523,0.439055,-1.489068,-0.265550,2.018287,0.147058,0.017725,0.292573,-0.075587,-0.298852,-0.154812,0.590749,0.087703,0.177350,-38.338581,5.726730,17.166014,0.195402,1.584884,0.087753,0.000000,0.000000,0.000000,0.000000,0.000000,0.000000
12437384.000000,-0.344372,0.586828,0.438975,-1.489379,-0.265698,2.018866,0.147156,0.018675,0.294577,-0.077126,-0.304571,-0.153429,0.582885,0.090456,0.228925,-38.362385,5.798141,17.265196,0.183500,1.643478,0.028243,0.000000,0.000000,0.000000,0.000000,0.000000,0.000000
12437385.000000,-0.344357,0.587121,0.438903,-1.489682,-0.265851,2.019454,0.147244,0.020026,0.297586,-0.076041,-0.305591,-0.153874,0.582474,0.091551,0.252729,-38.437763,5.774338,17.340574,0.219205,1.624252,0.021835,0.000000,0.000000,0.000000,0.000000,0.000000,0.000000
12437386.000000,-0.344342,0.587414,0.438826,-1.489988,-0.266004,2.020034,0.147330,0.020373,0.297346,-0.076958,-0.306626,-0.156930,0.582065,0.084247,0.304304,-38.413960,5.825912,17.435789,0.195402,1.605026,0.094161,0.000000,0.000000,0.000000,0.000000,0.000000,0.000000
12437387.000000,-0.344329,0.587712,0.438749,-1.490293,-0.266163,2.020612,0.147432,0.017534,0.295521,-0.077015,-0.302453,-0.154012,0.578550,0.088454,0.351911,-38.437763,5.849716,17.487364,0.154203,1.624252,0.028243,0.000000,0.000000,0.000000,0.000000,0.000000,0.000000
12437388.000000,-0.344319,0.588004,0.438673,-1.490601,-0.266326,2.021188,0.147519,0.017007,0.296834,-0.077617,-0.302084,-0.153565,0.582014,0.087607,0.474897,-38.461567,5.897324,17.634153,0.159696,1.689254,0.081344,0.000000,0.000000,0.000000,0.000000,0.000000,0.000000
12437389.000000,-0.344306,0.588296,0.438593,-1.490908,-0.266485,2.021753,0.147612,0.015077,0.297466,-0.078469,-0.305204,-0.158521,0.577985,0.090054,0.526471,-38.362385,5.972702,17.661924,0.178007,1.747848,0.061202,0.000000,0.000000,0.000000,0.000000,0.000000,0.000000
12437390.000000,-0.344300,0.588583,0.438511,-1.491228,-0.266648,2.022339,0.147710,0.011369,0.292899,-0.079096,-0.308556,-0.161678,0.578528,0.092104,0.673261,-38.267170,6.044113,17.856321,0.195402,1.747848,0.034652,0.000000,0.000000,0.000000,0.000000,0.000000,0.000000
12437391.000000,-0.344289,0.588878,0.438429,-1.491533,-0.266806,2.022913,0.147796,0.010452,0.294068,-0.079058,-0.305610,-0.159946,0.575402,0.094754,0.748639,-38.243366,6.095688,17.955503,0.219205,1.714889,0.087753,0.000000,0.000000,0.000000,0.000000,0.000000,0.000000
12437392.000000,-0.344273,0.589168,0.438345,-1.491853,-0.266968,2.023497,0.147891,0.011412,0.294444,-0.080056,-0.311302,-0.157907,0.572581,0.098515,0.748639,-38.096577,6.190903,18.153868,0.225614,1.727706,0.081344,0.000000,0.000000,0.000000,0.000000,0.000000,0.000000
12437393.000000,-0.344266,0.589462,0.438264,-1.492161,-0.267129,2.024075,0.147987,0.009160,0.296688,-0.079160,-0.310080,-0.157011,0.579452,0.097401,0.871625,-38.120380,6.218674,18.229246,0.249418,1.767074,0.081344,0.000000,0.000000,0.000000,0.000000,0.000000,0.000000
12437394.000000,-0.344255,0.589762,0.438179,-1.492473,-0.267286,2.024650,0.148088,0.009260,0.300382,-0.081965,-0.310165,-0.158335,0.577095,0.097362,0.923200,-38.120380,6.266281,18.352232,0.201810,1.819259,0.061202,0.000000,0.000000,0.000000,0.000000,0.000000,0.000000
12437395.000000,-0.344244,0.590066,0.438092,-1.492788,-0.267457,2.025231,0.148183,0.009381,0.300120,-0.084999,-0.308603,-0.161916,0.573473,0.095514,0.970807,-38.120380,6.365463,18.399839,0.225614,1.806442,0.074935,0.000000,0.000000,0.000000,0.000000,0.000000,0.000000
12437396.000000,-0.344232,0.590365,0.438002,-1.493107,-0.267627,2.025812,0.148284,0.010010,0.298112,-0.086557,-0.312629,-0.160875,0.571536,0.096350,0.994611,-38.167988,6.413071,18.649778,0.267728,1.773483,0.034652,0.000000,0.000000,0.000000,0.000000,0.000000,0.000000
12437397.000000,-0.344218,0.590663,0.437912,-1.493421,-0.267793,2.026386,0.148382,0.010323,0.299596,-0.085133,-0.311461,-0.163958,0.560835,0.091701,1.022382,-38.120380,6.488449,18.772764,0.291532,1.793624,0.015426,0.000000,0.000000,0.000000,0.000000,0.000000,0.000000
12437398.000000,-0.344205,0.590959,0.437824,-1.493732,-0.267960,2.026965,0.148473,0.011134,0.296550,-0.087684,-0.316119,-0.166251,0.559822,0.089533,1.022382,-38.120380,6.583664,18.919554,0.320829,1.812850,0.087753,0.000000,0.000000,0.000000,0.000000,0.000000,0.000000
12437399.000000,-0.344197,0.591258,0.437738,-1.494038,-0.268119,2.027531,0.148575,0.009349,0.297267,-0.084677,-0.312823,-0.163188,0.553871,0.097285,1.121564,-38.120380,6.611435,18.971128,0.344633,1.858627,0.041976,0.000000,0.000000,0.000000,0.000000,0.000000,0.000000
12437400.000000,-0.344176,0.591567,0.437645,-1.494356,-0.268274,2.028108,0.148666,0.012193,0.302159,-0.087380,-0.314712,-0.157934,0.558149,0.094503,1.046186,-38.191792,6.706650,19.070311,0.291532,1.865035,0.087753,0.000000,0.000000,0.000000,0.000000,0.000000,0.000000
12437401.000000,-0.344160,0.591866,0.437555,-1.494665,-0.268433,2.028672,0.148769,0.009200,0.298760,-0.087741,-0.312610,-0.160047,0.572243,0.090831,1.046186,-38.215595,6.734421,19.141722,0.261320,1.909896,0.054794,0.000000,0.000000,0.000000,0.000000,0.000000,0.000000
12437402.000000,-0.344138,0.592164,0.437466,-1.494971,-0.268588,2.029246,0.148870,0.011248,0.297470,-0.087312,-0.309992,-0.161412,0.575679,0.096923,0.994611,-38.191792,6.734421,19.169493,0.225614,1.936446,0.021835,0.000000,0.000000,0.000000,0.000000,0.000000,0.000000
12437403.000000,-0.344118,0.592460,0.437381,-1.495280,-0.268753,2.029822,0.148960,0.012612,0.300211,-0.086659,-0.309599,-0.158505,0.571287,0.089058,0.947004,-38.167988,6.706650,19.240904,0.219205,1.962081,0.081344,0.000000,0.000000,0.000000,0.000000,0.000000,0.000000
12437404.000000,-0.344103,0.592749,0.437294,-1.495590,-0.268916,2.030392,0.149062,0.014992,0.296440,-0.089403,-0.311137,-0.154049,0.567357,0.092193,0.970807,-38.021198,6.682846,19.268675,0.273221,1.988631,0.021835,0.000000,0.000000,0.000000,0.000000,0.000000,0.000000
12437405.000000,-0.344084,0.593051,0.437194,-1.495907,-0.269079,2.030975,0.149159,0.015530,0.296265,-0.091925,-0.312007,-0.150348,0.569905,0.095241,0.923200,-37.973591,6.805832,19.316282,0.320829,1.942855,0.041976,0.000000,0.000000,0.000000,0.000000,0.000000,0.000000
12437406.000000,-0.344068,0.593355,0.437109,-1.496222,-0.269240,2.031555,0.149261,0.014102,0.299383,-0.092776,-0.312888,-0.151363,0.579337,0.095598,0.947004,-37.949787,6.758224,19.340086,0.344633,1.903487,0.021835,0.000000,0.000000,0.000000,0.000000,0.000000,0.000000
12437407.000000,-0.344043,0.593655,0.437020,-1.496536,-0.269398,2.032129,0.149353,0.018572,0.298422,-0.091331,-0.311298,-0.155898,0.575020,0.096310,0.871625,-37.922016,6.758224,19.391661,0.344633,1.865035,0.100570,0.000000,0.000000,0.000000,0.000000,0.000000,0.000000
12437408.000000,-0.344022,0.593960,0.436933,-1.496849,-0.269555,2.032702,0.149459,0.016901,0.302726,-0.094203,-0.308204,-0.153833,0.576379,0.098844,0.871625,-37.850605,6.782028,19.363890,0.332731,1.838485,0.021835,0.000000,0.000000,0.000000,0.000000,0.000000,0.000000
12437409.000000,-0.343997,0.594267,0.436847,-1.497155,-0.269712,2.033262,0.149557,0.017480,0.302605,-0.088870,-0.308123,-0.156486,0.569810,0.096583,0.796247,-37.874409,6.758224,19.292479,0.320829,1.897079,0.041976,0.000000,0.000000,0.000000,0.000000,0.000000,0.000000
12437410.000000,-0.343973,0.594569,0.436767,-1.497461,-0.269874,2.033824,0.149651,0.020852,0.299042,-0.085743,-0.309873,-0.154385,0.561964,0.095040,0.724836,-37.775227,6.635239,19.193296,0.297025,1.962081,0.067611,0.000000,0.000000,0.000000,0.000000,0.000000,0.000000
12437411.000000,-0.343948,0.594875,0.436681,-1.497763,-0.270034,2.034395,0.149751,0.022825,0.303825,-0.082825,-0.305261,-0.151336,0.560637,0.096003,0.673261,-37.727619,6.611435,19.070311,0.237516,1.988631,0.034652,0.000000,0.000000,0.000000,0.000000,0.000000,0.000000
12437412.000000,-0.343924,0.595177,0.436604,-1.498069,-0.270195,2.034961,0.149847,0.023638,0.304680,-0.081745,-0.304902,-0.148014,0.562822,0.094116,0.649457,-37.680012,6.512253,19.070311,0.267728,1.923629,0.061202,0.000000,0.000000,0.000000,0.000000,0.000000,0.000000
12437413.000000,-0.343903,0.595478,0.436520,-1.498373,-0.270355,2.035537,0.149946,0.023215,0.304786,-0.085686,-0.305880,-0.149087,0.562852,0.094924,0.673261,-37.604633,6.488449,18.994932,0.279630,1.865035,0.041976,0.000000,0.000000,0.000000,0.000000,0.000000,0.000000
12437414.000000,-0.343876,0.595784,0.436435,-1.498673,-0.270511,2.036100,0.150044,0.024714,0.305104,-0.082779,-0.305999,-0.153801,0.568400,0.094003,0.625654,-37.628437,6.460678,19.018736,0.261320,1.844894,0.054794,0.000000,0.000000,0.000000,0.000000,0.000000,0.000000
12437415.000000,-0.343851,0.596088,0.436354,-1.498966,-0.270675,2.036675,0.150141,0.022096,0.306368,-0.082631,-0.302969,-0.156337,0.564544,0.093253,0.601850,-37.628437,6.389267,18.947325,0.344633,1.832076,0.054794,0.000000,0.000000,0.000000,0.000000,0.000000,0.000000
12437416.000000,-0.343825,0.596396,0.436272,-1.499271,-0.270829,2.037249,0.150237,0.024105,0.307882,-0.081098,-0.308877,-0.153772,0.562027,0.094026,0.550275,-37.656208,6.389267,18.994932,0.320829,1.865035,0.034652,0.000000,0.000000,0.000000,0.000000,0.000000,0.000000
12437417.000000,-0.343798,0.596697,0.436193,-1.499567,-0.270985,2.037817,0.150332,0.027793,0.301102,-0.081750,-0.302953,-0.152187,0.566222,0.092721,0.526471,-37.580830,6.341660,18.947325,0.297025,1.851302,0.054794,0.000000,0.000000,0.000000,0.000000,0.000000,0.000000
12437418.000000,-0.343770,0.596999,0.436122,-1.499858,-0.271144,2.038391,0.150431,0.028934,0.298825,-0.076417,-0.301211,-0.160793,0.568048,0.093640,0.451093,-37.509418,6.167099,18.895750,0.279630,1.832076,0.041976,0.000000,0.000000,0.000000,0.000000,0.000000,0.000000
12437419.000000,-0.343738,0.597304,0.436045,-1.500150,-0.271303,2.038953,0.150533,0.029503,0.301112,-0.078671,-0.297352,-0.157418,0.575503,0.093553,0.375715,-37.481647,6.119492,18.848143,0.249418,1.858627,0.041976,0.000000,0.000000,0.000000,0.000000,0.000000,0.000000
12437420.000000,-0.343714,0.597610,0.435969,-1.500442,-0.271457,2.039522,0.150637,0.024351,0.303573,-0.075830,-0.294336,-0.156312,0.567614,0.098363,0.403486,-37.509418,6.020309,18.796568,0.255826,1.909896,0.021835,0.000000,0.000000,0.000000,0.000000,0.000000,0.000000
12437421.000000,-0.343686,0.597925,0.435890,-1.500728,-0.271611,2.040100,0.150732,0.025105,0.308229,-0.075635,-0.291272,-0.154174,0.566281,0.096437,0.375715,-37.628437,5.996506,18.697386,0.237516,1.890670,0.041976,0.000000,0.000000,0.000000,0.000000,0.000000,0.000000
12437422.000000,-0.343651,0.598238,0.435812,-1.501021,-0.271767,2.040679,0.150826,0.027231,0.308199,-0.078997,-0.289420,-0.154048,0.566915,0.094838,0.276533,-37.604633,5.996506,18.625975,0.249418,1.825668,0.067611,0.000000,0.000000,0.000000,0.000000,0.000000,0.000000
12437423.000000,-0.343620,0.598553,0.435738,-1.501316,-0.271925,2.041257,0.150925,0.027396,0.309625,-0.079700,-0.290110,-0.153836,0.563758,0.095566,0.228925,-37.656208,5.921127,18.649778,0.261320,1.793624,0.041976,0.000000,0.000000,0.000000,0.000000,0.000000,0.000000
12437424.000000,-0.343589,0.598864,0.435658,-1.501599,-0.272083,2.041837,0.151018,0.030425,0.303353,-0.078936,-0.289626,-0.153219,0.577037,0.094050,0.205121,-37.628437,5.921127,18.625975,0.261320,1.800033,0.067611,0.000000,0.000000,0.000000,0.000000,0.000000,0.000000
12437425.000000,-0.343562,0.599177,0.435585,-1.501879,-0.272244,2.042401,0.151118,0.028260,0.301711,-0.075886,-0.284336,-0.157547,0.570381,0.094188,0.228925,-37.628437,5.825912,18.526793,0.261320,1.838485,0.054794,0.000000,0.000000,0.000000,0.000000,0.000000,0.000000
12437426.000000,-0.343534,0.599494,0.435511,-1.502157,-0.272415,2.042983,0.151216,0.027403,0.307975,-0.074862,-0.280529,-0.160803,0.572034,0.094411,0.228925,-37.680012,5.774338,18.427610,0.273221,1.838485,0.048385,0.000000,0.000000,0.000000,0.000000,0.000000,0.000000
12437427.000000,-0.343501,0.599822,0.435436,-1.502435,-0.272579,2.043556,0.151311,0.027937,0.313660,-0.074774,-0.281342,-0.165542,0.570401,0.093598,0.177350,-37.775227,5.750534,18.352232,0.237516,1.793624,0.061202,0.000000,0.000000,0.000000,0.000000,0.000000,0.000000
12437428.000000,-0.343467,0.600138,0.435361,-1.502716,-0.272741,2.044144,0.151411,0.031939,0.313357,-0.074597,-0.277119,-0.165966,0.570966,0.098837,0.105939,-37.826801,5.726730,18.352232,0.213712,1.741439,0.021835,0.000000,0.000000,0.000000,0.000000,0.000000,0.000000
12437429.000000,-0.343440,0.600451,0.435285,-1.502980,-0.272905,2.044729,0.151502,0.028863,0.311566,-0.077107,-0.271998,-0.167164,0.579926,0.095811,0.153547,-37.874409,5.679123,18.253050,0.219205,1.702071,0.067611,0.000000,0.000000,0.000000,0.000000,0.000000,0.000000
12437430.000000,-0.343403,0.600770,0.435201,-1.503254,-0.273071,2.045303,0.151603,0.033293,0.311540,-0.078958,-0.272901,-0.168051,0.578479,0.100953,0.054365,-37.898212,5.774338,18.229246,0.219205,1.702071,0.048385,0.000000,0.000000,0.000000,0.000000,0.000000,0.000000
12437431.000000,-0.343372,0.601090,0.435124,-1.503525,-0.273240,2.045875,0.151700,0.031051,0.314634,-0.083278,-0.269722,-0.169885,0.570295,0.098824,0.054365,-37.922016,5.750534,18.177671,0.261320,1.754256,0.048385,0.000000,0.000000,0.000000,0.000000,0.000000,0.000000
12437432.000000,-0.343339,0.601415,0.435046,-1.503781,-0.273406,2.046442,0.151804,0.030627,0.319512,-0.084414,-0.265720,-0.169707,0.581243,0.097682,0.006757,-37.997395,5.750534,18.054686,0.255826,1.786300,0.034652,0.000000,0.000000,0.000000,0.000000,0.000000,0.000000
12437433.000000,-0.343312,0.601736,0.434967,-1.504053,-0.273576,2.047018,0.151904,0.031096,0.317164,-0.082102,-0.267625,-0.168573,0.569042,0.100437,0.054365,-38.021198,5.750534,18.007078,0.225614,1.786300,0.021835,0.000000,0.000000,0.000000,0.000000,0.000000,0.000000
12437434.000000,-0.343280,0.602051,0.434889,-1.504313,-0.273752,2.047603,0.151999,0.032680,0.317654,-0.079856,-0.264842,-0.165020,0.577288,0.097765,0.054365,-37.997395,5.726730,17.907896,0.249418,1.760665,0.061202,0.000000,0.000000,0.000000,0.000000,0.000000,0.000000
12437435.000000,-0.343248,0.602375,0.434806,-1.504574,-0.273914,2.048184,0.152103,0.030760,0.316494,-0.079833,-0.262022,-0.161246,0.573471,0.097905,0.054365,-37.973591,5.774338,17.907896,0.243009,1.727706,0.028243,0.000000,0.000000,0.000000,0.000000,0.000000,0.000000
12437436.000000,-0.343220,0.602701,0.434724,-1.504833,-0.274078,2.048764,0.152196,0.031262,0.317229,-0.082384,-0.260180,-0.162608,0.572205,0.099894,0.105939,-37.973591,5.798141,17.808714,0.219205,1.727706,0.067611,0.000000,0.000000,0.000000,0.000000,0.000000,0.000000
12437437.000000,-0.343188,0.603023,0.434643,-1.505089,-0.274243,2.049351,0.152303,0.029822,0.318730,-0.081185,-0.260111,-0.160151,0.583290,0.099488,0.105939,-37.922016,5.825912,17.733335,0.225614,1.741439,0.034652,0.000000,0.000000,0.000000,0.000000,0.000000,0.000000
12437438.000000,-0.343159,0.603347,0.434558,-1.505346,-0.274402,2.049929,0.152403,0.030750,0.318258,-0.084260,-0.256564,-0.157790,0.579787,0.101908,0.153547,-37.898212,5.897324,17.661924,0.219205,1.760665,0.041976,0.000000,0.000000,0.000000,0.000000,0.000000,0.000000
12437439.000000,-0.343128,0.603674,0.434480,-1.505599,-0.274564,2.050515,0.152500,0.030101,0.319429,-0.085020,-0.255716,-0.155532,0.578920,0.104393,0.129743,-37.973591,5.897324,17.534971,0.213712,1.767074,0.048385,0.000000,0.000000,0.000000,0.000000,0.000000,0.000000
12437440.000000,-0.343095,0.604010,0.434397,-1.505860,-0.274730,2.051090,0.152603,0.029396,0.323567,-0.082989,-0.253983,-0.159474,0.570426,0.107258,0.105939,-38.068806,5.921127,17.610350,0.219205,1.714889,0.021835,0.000000,0.000000,0.000000,0.000000,0.000000,0.000000
12437441.000000,-0.343065,0.604341,0.434309,-1.506108,-0.274897,2.051676,0.152697,0.027597,0.327953,-0.085337,-0.249063,-0.162146,0.561327,0.105234,0.129743,-38.167988,5.972702,17.562742,0.219205,1.689254,0.081344,0.000000,0.000000,0.000000,0.000000,0.000000,0.000000
12437442.000000,-0.343033,0.604676,0.434225,-1.506356,-0.275064,2.052252,0.152801,0.027014,0.330400,-0.085872,-0.250496,-0.160091,0.567331,0.103934,0.129743,-38.290974,5.972702,17.586546,0.237516,1.670028,0.041976,0.000000,0.000000,0.000000,0.000000,0.000000,0.000000
12437443.000000,-0.343004,0.605009,0.434145,-1.506597,-0.275225,2.052822,0.152902,0.025439,0.330189,-0.081723,-0.245426,-0.163033,0.565127,0.105267,0.177350,-38.390156,5.921127,17.487364,0.249418,1.662704,0.041976,0.000000,0.000000,0.000000,0.000000,0.000000,0.000000
12437444.000000,-0.342974,0.605345,0.434059,-1.506838,-0.275388,2.053387,0.153003,0.028662,0.332733,-0.084469,-0.246165,-0.163602,0.556570,0.106555,0.177350,-38.485371,5.972702,17.435789,0.231107,1.708480,0.041976,0.000000,0.000000,0.000000,0.000000,0.000000,0.000000
12437445.000000,-0.342943,0.605675,0.433972,-1.507081,-0.275547,2.053946,0.153107,0.030974,0.330934,-0.082701,-0.249002,-0.163688,0.566976,0.103207,0.177350,-38.485371,5.996506,17.487364,0.213712,1.721298,0.041976,0.000000,0.000000,0.000000,0.000000,0.000000,0.000000
12437446.000000,-0.342909,0.606010,0.433882,-1.507327,-0.275710,2.054515,0.153201,0.029573,0.331284,-0.081849,-0.245604,-0.159929,0.558196,0.104426,0.177350,-38.513142,6.044113,17.463560,0.195402,1.702071,0.074935,0.000000,0.000000,0.000000,0.000000,0.000000,0.000000
12437447.000000,-0.342882,0.606347,0.433798,-1.507576,-0.275873,2.055079,0.153306,0.027317,0.337034,-0.080091,-0.251433,-0.160796,0.555927,0.103367,0.228925,-38.536945,6.044113,17.562742,0.154203,1.747848,0.034652,0.000000,0.000000,0.000000,0.000000,0.000000,0.000000
12437448.000000,-0.342852,0.606684,0.433713,-1.507815,-0.276043,2.055642,0.153410,0.028849,0.334971,-0.082313,-0.248265,-0.164232,0.551010,0.100665,0.276533,-38.560749,6.067917,17.562742,0.178007,1.760665,0.034652,0.000000,0.000000,0.000000,0.000000,0.000000,0.000000
12437449.000000,-0.342822,0.607029,0.433628,-1.508058,-0.276216,2.056201,0.153512,0.027448,0.338506,-0.086183,-0.246207,-0.166197,0.551125,0.098794,0.304304,-38.608356,6.067917,17.586546,0.195402,1.779891,0.028243,0.000000,0.000000,0.000000,0.000000,0.000000,0.000000
12437450.000000,-0.342791,0.607370,0.433540,-1.508300,-0.276382,2.056760,0.153610,0.029641,0.340596,-0.083375,-0.245020,-0.162738,0.562716,0.096416,0.328107,-38.683735,6.067917,17.610350,0.201810,1.800033,0.054794,0.000000,0.000000,0.000000,0.000000,0.000000,0.000000
12437451.000000,-0.342756,0.607710,0.433449,-1.508542,-0.276547,2.057326,0.153711,0.029867,0.340319,-0.085601,-0.245854,-0.160349,0.561256,0.099136,0.276533,-38.659931,6.119492,17.586546,0.213712,1.760665,0.054794,0.000000,0.000000,0.000000,0.000000,0.000000,0.000000
12437452.000000,-0.342721,0.608052,0.433365,-1.508781,-0.276711,2.057894,0.153812,0.028679,0.340572,-0.085491,-0.244082,-0.161613,0.559646,0.099048,0.276533,-38.659931,6.095688,17.586546,0.189908,1.779891,0.021835,0.000000,0.000000,0.000000,0.000000,0.000000,0.000000
12437453.000000,-0.342685,0.608394,0.433276,-1.509022,-0.276873,2.058447,0.153909,0.028855,0.339399,-0.085956,-0.243960,-0.162871,0.550104,0.096219,0.228925,-38.755146,6.095688,17.487364,0.166105,1.767074,0.048385,0.000000,0.000000,0.000000,0.000000,0.000000,0.000000
12437454.000000,-0.342652,0.608744,0.433183,-1.509271,-0.277041,2.059012,0.154005,0.028453,0.342148,-0.087024,-0.242429,-0.165524,0.546762,0.095657,0.205121,-38.830524,6.119492,17.487364,0.183500,1.727706,0.054794,0.000000,0.000000,0.000000,0.000000,0.000000,0.000000
12437455.000000,-0.342619,0.609082,0.433093,-1.509504,-0.277209,2.059572,0.154107,0.030656,0.335647,-0.087724,-0.240065,-0.165813,0.550492,0.095827,0.205121,-38.854328,6.143295,17.411985,0.159696,1.735030,0.034652,0.000000,0.000000,0.000000,0.000000,0.000000,0.000000
12437456.000000,-0.342585,0.609434,0.433006,-1.509751,-0.277386,2.060132,0.154205,0.032635,0.337607,-0.086885,-0.242808,-0.168846,0.552164,0.098863,0.205121,-39.001118,6.119492,17.388182,0.207303,1.714889,0.048385,0.000000,0.000000,0.000000,0.000000,0.000000,0.000000
12437457.000000,-0.342556,0.609777,0.432923,-1.509997,-0.277557,2.060692,0.154308,0.032732,0.330314,-0.085952,-0.242261,-0.169345,0.547516,0.103118,0.252729,-39.048725,6.067917,17.388182,0.225614,1.741439,0.028243,0.000000,0.000000,0.000000,0.000000,0.000000,0.000000
12437458.000000,-0.342517,0.610117,0.432832,-1.510236,-0.277721,2.061251,0.154404,0.036401,0.332420,-0.087182,-0.240813,-0.168991,0.554928,0.099193,0.153547,-39.048725,6.095688,17.340574,0.213712,1.735030,0.067611,0.000000,0.000000,0.000000,0.000000,0.000000,0.000000
12437459.000000,-0.342483,0.610461,0.432743,-1.510486,-0.277890,2.061823,0.154506,0.036394,0.333757,-0.087341,-0.241903,-0.168734,0.550462,0.099339,0.153547,-39.001118,6.095688,17.411985,0.201810,1.689254,0.034652,0.000000,0.000000,0.000000,0.000000,0.000000,0.000000
12437460.000000,-0.342443,0.610801,0.432654,-1.510740,-0.278058,2.062392,0.154605,0.038570,0.336497,-0.091255,-0.244078,-0.169054,0.567023,0.097806,0.078168,-39.048725,6.119492,17.534971,0.201810,1.682845,0.034652,0.000000,0.000000,0.000000,0.000000,0.000000,0.000000
12437461.000000,-0.342404,0.611147,0.432569,-1.510984,-0.278217,2.062955,0.154703,0.035532,0.337076,-0.088989,-0.242599,-0.167341,0.568277,0.094493,0.054365,-39.001118,6.067917,17.534971,0.147794,1.695663,0.087753,0.000000,0.000000,0.000000,0.000000,0.000000,0.000000
12437462.000000,-0.342370,0.611492,0.432481,-1.511230,-0.278393,2.063516,0.154807,0.035916,0.334574,-0.088213,-0.242568,-0.173514,0.563485,0.101247,0.054365,-38.925739,6.044113,17.586546,0.171598,1.727706,0.034652,0.000000,0.000000,0.000000,0.000000,0.000000,0.000000
12437463.000000,-0.342332,0.611830,0.432389,-1.511470,-0.278569,2.064072,0.154906,0.033627,0.337519,-0.090815,-0.240300,-0.182203,0.571562,0.103573,0.030561,-38.854328,6.020309,17.534971,0.201810,1.754256,0.041976,0.000000,0.000000,0.000000,0.000000,0.000000,0.000000
12437464.000000,-0.342291,0.612177,0.432296,-1.511715,-0.278743,2.064629,0.155011,0.036332,0.337858,-0.090186,-0.239602,-0.179538,0.561992,0.106352,-0.044818,-38.806721,6.020309,17.534971,0.213712,1.754256,0.001693,0.000000,0.000000,0.000000,0.000000,0.000000,0.000000
12437465.000000,-0.342254,0.612518,0.432207,-1.511953,-0.278910,2.065197,0.155104,0.036984,0.341189,-0.089228,-0.243850,-0.176136,0.556929,0.101387,-0.068621,-38.778950,5.996506,17.511168,0.189908,1.735030,0.041976,0.000000,0.000000,0.000000,0.000000,0.000000,0.000000
12437466.000000,-0.342218,0.612871,0.432119,-1.512197,-0.279080,2.065751,0.155203,0.036380,0.344878,-0.088333,-0.244841,-0.175124,0.548531,0.104056,-0.044818,-38.806721,5.972702,17.463560,0.201810,1.702071,0.048385,0.000000,0.000000,0.000000,0.000000,0.000000,0.000000
12437467.000000,-0.342179,0.613219,0.432029,-1.512442,-0.279246,2.066316,0.155307,0.037733,0.344133,-0.090908,-0.242557,-0.176790,0.545064,0.107164,-0.092425,-38.878132,5.972702,17.435789,0.154203,1.689254,0.015426,0.000000,0.000000,0.000000,0.000000,0.000000,0.000000
12437468.000000,-0.342144,0.613567,0.431940,-1.512687,-0.279422,2.066876,0.155405,0.039658,0.345923,-0.093392,-0.240542,-0.181288,0.553169,0.106575,-0.044818,-39.001118,5.972702,17.511168,0.189908,1.702071,0.061202,0.000000,0.000000,0.000000,0.000000,0.000000,0.000000
12437469.000000,-0.342107,0.613920,0.431848,-1.512931,-0.279598,2.067428,0.155509,0.039767,0.341691,-0.091981,-0.241063,-0.182322,0.550883,0.106302,-0.068621,-39.100300,5.972702,17.562742,0.166105,1.754256,0.074935,0.000000,0.000000,0.000000,0.000000,0.000000,0.000000
12437470.000000,-0.342071,0.614266,0.431762,-1.513172,-0.279784,2.067995,0.155615,0.038551,0.345724,-0.090490,-0.237789,-0.184345,0.552571,0.104728,-0.044818,-39.171711,5.948898,17.586546,0.183500,1.754256,0.041976,0.000000,0.000000,0.000000,0.000000,0.000000,0.000000
12437471.000000,-0.342037,0.614616,0.431669,-1.513430,-0.279963,2.068548,0.155715,0.040234,0.346977,-0.090372,-0.242657,-0.181583,0.553975,0.101512,0.006757,-39.171711,5.972702,17.784910,0.207303,1.747848,0.048385,0.000000,0.000000,0.000000,0.000000,0.000000,0.000000
12437472.000000,-0.342000,0.614963,0.431573,-1.513682,-0.280145,2.069116,0.155819,0.039714,0.346468,-0.094039,-0.246739,-0.184080,0.551390,0.105466,0.006757,-39.195515,6.020309,17.907896,0.225614,1.773483,0.021835,0.000000,0.000000,0.000000,0.000000,0.000000,0.000000
12437473.000000,-0.341964,0.615305,0.431488,-1.513939,-0.280330,2.069679,0.155920,0.038983,0.343015,-0.090731,-0.250960,-0.186346,0.562581,0.101560,0.030561,-39.124104,5.948898,18.054686,0.255826,1.786300,0.041976,0.000000,0.000000,0.000000,0.000000,0.000000,0.000000
12437474.000000,-0.341930,0.615654,0.431391,-1.514194,-0.280505,2.070238,0.156025,0.034522,0.340587,-0.091550,-0.250442,-0.181929,0.559780,0.099748,0.078168,-39.147907,6.020309,18.177671,0.249418,1.812850,0.041976,0.000000,0.000000,0.000000,0.000000,0.000000,0.000000
12437475.000000,-0.341892,0.616001,0.431301,-1.514445,-0.280680,2.070800,0.156131,0.032894,0.344141,-0.091105,-0.249265,-0.178126,0.559354,0.103047,0.054365,-39.124104,6.044113,18.276854,0.237516,1.812850,0.041976,0.000000,0.000000,0.000000,0.000000,0.000000,0.000000
12437476.000000,-0.341856,0.616352,0.431212,-1.514696,-0.280854,2.071353,0.156231,0.036623,0.342878,-0.092825,-0.247929,-0.174946,0.564172,0.104208,0.078168,-39.100300,6.020309,18.352232,0.207303,1.819259,0.061202,0.000000,0.000000,0.000000,0.000000,0.000000,0.000000
12437477.000000,-0.341824,0.616705,0.431118,-1.514947,-0.281036,2.071906,0.156340,0.035969,0.346965,-0.095231,-0.248906,-0.174201,0.554496,0.106962,0.129743,-39.147907,6.044113,18.399839,0.219205,1.844894,0.015426,0.000000,0.000000,0.000000,0.000000,0.000000,0.000000
12437478.000000,-0.341786,0.617057,0.431028,-1.515192,-0.281218,2.072469,0.156437,0.036586,0.352093,-0.093361,-0.246064,-0.174380,0.561427,0.106643,0.129743,-39.171711,6.044113,18.399839,0.249418,1.838485,0.061202,0.000000,0.000000,0.000000,0.000000,0.000000,0.000000
12437479.000000,-0.341755,0.617405,0.430936,-1.515444,-0.281392,2.073014,0.156544,0.032060,0.348875,-0.094950,-0.248394,-0.177706,0.550571,0.108772,0.205121,-39.171711,6.044113,18.451414,0.243009,1.844894,0.034652,0.000000,0.000000,0.000000,0.000000,0.000000,0.000000
12437480.000000,-0.341722,0.617770,0.430847,-1.515696,-0.281567,2.073569,0.156646,0.029997,0.353594,-0.095111,-0.246237,-0.179748,0.547341,0.103620,0.228925,-39.294697,6.020309,18.475218,0.231107,1.819259,0.061202,0.000000,0.000000,0.000000,0.000000,0.000000,0.000000
12437481.000000,-0.341688,0.618121,0.430751,-1.515941,-0.281741,2.074109,0.156753,0.031533,0.348343,-0.097106,-0.245493,-0.182482,0.551208,0.106281,0.252729,-39.366108,6.044113,18.526793,0.237516,1.812850,0.048385,0.000000,0.000000,0.000000,0.000000,0.000000,0.000000
12437482.000000,-0.341655,0.618477,0.430651,-1.516188,-0.281920,2.074660,0.156858,0.032779,0.350947,-0.096585,-0.244728,-0.184622,0.546690,0.108741,0.276533,-39.441486,6.119492,18.598204,0.255826,1.806442,0.028243,0.000000,0.000000,0.000000,0.000000,0.000000,0.000000
12437483.000000,-0.341625,0.618827,0.430554,-1.516435,-0.282098,2.075211,0.156957,0.032410,0.348219,-0.095947,-0.249316,-0.180069,0.538987,0.109255,0.351911,-39.465290,6.190903,18.649778,0.237516,1.832076,0.041976,0.000000,0.000000,0.000000,0.000000,0.000000,0.000000
12437484.000000,-0.341591,0.619178,0.430462,-1.516677,-0.282273,2.075744,0.157064,0.033337,0.349003,-0.093471,-0.250918,-0.182429,0.537494,0.105939,0.375715,-39.465290,6.190903,18.697386,0.243009,1.865035,0.021835,0.000000,0.000000,0.000000,0.000000,0.000000,0.000000
12437485.000000,-0.341558,0.619536,0.430366,-1.516933,-0.282451,2.076292,0.157158,0.034019,0.349563,-0.095714,-0.248090,-0.180678,0.534638,0.101283,0.403486,-39.417683,6.218674,18.848143,0.279630,1.903487,0.054794,0.000000,0.000000,0.000000,0.000000,0.000000,0.000000
12437486.000000,-0.341523,0.619878,0.430269,-1.517184,-0.282626,2.076838,0.157264,0.035124,0.348177,-0.097853,-0.250999,-0.177665,0.537021,0.100150,0.403486,-39.318501,6.266281,18.947325,0.273221,1.897079,0.034652,0.000000,0.000000,0.000000,0.000000,0.000000,0.000000
12437487.000000,-0.341489,0.620231,0.430173,-1.517438,-0.282800,2.077385,0.157368,0.034785,0.347128,-0.094458,-0.249488,-0.175684,0.536951,0.103563,0.451093,-39.195515,6.242477,19.042540,0.273221,1.890670,0.015426,0.000000,0.000000,0.000000,0.000000,0.000000,0.000000
12437488.000000,-0.341455,0.620569,0.430072,-1.517685,-0.282970,2.077925,0.157465,0.032676,0.343612,-0.095043,-0.246127,-0.174170,0.527355,0.099759,0.451093,-39.048725,6.341660,19.169493,0.279630,1.916305,0.048385,0.000000,0.000000,0.000000,0.000000,0.000000,0.000000
12437489.000000,-0.341417,0.620918,0.429975,-1.517926,-0.283141,2.078458,0.157567,0.035149,0.342367,-0.096148,-0.246956,-0.172816,0.527811,0.098372,0.403486,-38.878132,6.341660,19.169493,0.267728,1.974899,0.034652,0.000000,0.000000,0.000000,0.000000,0.000000,0.000000
12437490.000000,-0.341387,0.621273,0.429870,-1.518170,-0.283316,2.078992,0.157667,0.034203,0.339215,-0.099298,-0.243977,-0.175778,0.524182,0.097103,0.474897,-38.830524,6.436874,19.169493,0.237516,2.092086,0.041976,0.000000,0.000000,0.000000,0.000000,0.000000,0.000000
12437491.000000,-0.341352,0.621625,0.429773,-1.518412,-0.283495,2.079543,0.157774,0.035218,0.343874,-0.099333,-0.242413,-0.179755,0.540001,0.101837,0.474897,-38.854328,6.436874,19.169493,0.249418,2.053634,0.015426,0.000000,0.000000,0.000000,0.000000,0.000000,0.000000
12437492.000000,-0.341317,0.621982,0.429673,-1.518645,-0.283670,2.080089,0.157871,0.036082,0.346689,-0.100343,-0.241494,-0.177539,0.536917,0.102109,0.474897,-38.878132,6.488449,19.169493,0.255826,2.001449,0.081344,0.000000,0.000000,0.000000,0.000000,0.000000,0.000000
12437493.000000,-0.341284,0.622337,0.429581,-1.518895,-0.283838,2.080635,0.157980,0.035926,0.352208,-0.102142,-0.241837,-0.174700,0.534076,0.101511,0.502668,-39.001118,6.436874,19.217100,0.237516,1.955673,0.048385,0.000000,0.000000,0.000000,0.000000,0.000000,0.000000
12437494.000000,-0.341252,0.622696,0.429481,-1.519125,-0.284009,2.081182,0.158093,0.032194,0.353084,-0.102228,-0.237527,-0.174508,0.546031,0.105409,0.550275,-39.048725,6.460678,19.193296,0.261320,1.936446,0.015426,0.000000,0.000000,0.000000,0.000000,0.000000,0.000000
12437495.000000,-0.341216,0.623053,0.429375,-1.519366,-0.284181,2.081737,0.158194,0.033167,0.349130,-0.104076,-0.236509,-0.173611,0.542343,0.104520,0.574079,-39.100300,6.559860,19.292479,0.267728,1.916305,0.061202,0.000000,0.000000,0.000000,0.000000,0.000000,0.000000
12437496.000000,-0.341175,0.623405,0.429276,-1.519592,-0.284355,2.082294,0.158302,0.036318,0.349627,-0.102917,-0.233875,-0.173029,0.554240,0.108311,0.502668,-39.100300,6.559860,19.292479,0.279630,1.923629,0.015426,0.000000,0.000000,0.000000,0.000000,0.000000,0.000000
12437497.000000,-0.341141,0.623763,0.429176,-1.519824,-0.284529,2.082835,0.158409,0.035454,0.347486,-0.102462,-0.232469,-0.170857,0.543259,0.104285,0.550275,-39.124104,6.583664,19.316282,0.243009,1.974899,0.015426,0.000000,0.000000,0.000000,0.000000,0.000000,0.000000
12437498.000000,-0.341102,0.624124,0.429078,-1.520060,-0.284716,2.083388,0.158514,0.037212,0.350049,-0.103208,-0.231984,-0.171323,0.540404,0.105884,0.502668,-39.147907,6.536057,19.363890,0.267728,1.974899,0.028243,0.000000,0.000000,0.000000,0.000000,0.000000,0.000000
12437499.000000,-0.341061,0.624479,0.428976,-1.520289,-0.284896,2.083946,0.158624,0.038494,0.349605,-0.099954,-0.232267,-0.175770,0.546077,0.102949,0.451093,-39.100300,6.559860,19.439268,0.267728,1.949264,0.021835,0.000000,0.000000,0.000000,0.000000,0.000000,0.000000
12437500.000000,-0.341019,0.624839,0.428877,-1.520522,-0.285074,2.084490,0.158727,0.042401,0.353898,-0.100049,-0.233319,-0.175451,0.546360,0.104321,0.403486,-39.124104,6.559860,19.439268,0.297025,1.968490,0.054794,0.000000,0.000000,0.000000,0.000000,0.000000,0.000000
12437501.000000,-0.340985,0.625192,0.428782,-1.520745,-0.285257,2.085041,0.158838,0.040519,0.354619,-0.099582,-0.235224,-0.179385,0.543933,0.107131,0.427289,-39.024921,6.536057,19.391661,0.320829,1.955673,0.034652,0.000000,0.000000,0.000000,0.000000,0.000000,0.000000
12437502.000000,-0.340946,0.625550,0.428685,-1.520969,-0.285426,2.085573,0.158949,0.040214,0.354834,-0.099065,-0.231068,-0.176432,0.536251,0.109107,0.403486,-39.048725,6.512253,19.439268,0.303434,1.981307,0.021835,0.000000,0.000000,0.000000,0.000000,0.000000,0.000000
12437503.000000,-0.340906,0.625921,0.428588,-1.521185,-0.285599,2.086118,0.159056,0.040727,0.362615,-0.098921,-0.226783,-0.173842,0.532904,0.108414,0.351911,-39.124104,6.488449,19.316282,0.279630,2.047225,0.054794,0.000000,0.000000,0.000000,0.000000,0.000000,0.000000
12437504.000000,-0.340861,0.626291,0.428487,-1.521398,-0.285776,2.086666,0.159174,0.044843,0.361983,-0.099934,-0.224558,-0.175423,0.538604,0.110796,0.276533,-39.342304,6.512253,19.217100,0.219205,2.079269,0.015426,0.000000,0.000000,0.000000,0.000000,0.000000,0.000000
12437505.000000,-0.340818,0.626666,0.428396,-1.521617,-0.285956,2.087223,0.159282,0.043349,0.364323,-0.098160,-0.219905,-0.173602,0.540240,0.113390,0.252729,-39.540668,6.436874,19.117918,0.201810,2.001449,0.041976,0.000000,0.000000,0.000000,0.000000,0.000000,0.000000
12437506.000000,-0.340779,0.627035,0.428301,-1.521832,-0.286131,2.087776,0.159393,0.041706,0.371576,-0.097770,-0.220831,-0.172255,0.536652,0.114525,0.252729,-39.687458,6.389267,19.070311,0.195402,1.942855,0.009017,0.000000,0.000000,0.000000,0.000000,0.000000,0.000000
12437507.000000,-0.340740,0.627409,0.428200,-1.522047,-0.286307,2.088333,0.159494,0.039986,0.373134,-0.096028,-0.220882,-0.172613,0.553629,0.111007,0.276533,-39.858051,6.413071,18.994932,0.213712,1.877853,0.081344,0.000000,0.000000,0.000000,0.000000,0.000000,0.000000
12437508.000000,-0.340694,0.627784,0.428101,-1.522268,-0.286491,2.088888,0.159612,0.041486,0.372945,-0.094126,-0.217285,-0.169743,0.545524,0.117430,0.177350,-39.957233,6.413071,18.919554,0.279630,1.903487,0.015426,0.000000,0.000000,0.000000,0.000000,0.000000,0.000000
12437509.000000,-0.340655,0.628151,0.428007,-1.522485,-0.286667,2.089451,0.159721,0.039126,0.371981,-0.091592,-0.216314,-0.175238,0.557832,0.116748,0.228925,-40.028645,6.365463,18.895750,0.303434,1.903487,-0.004716,0.000000,0.000000,0.000000,0.000000,0.000000,0.000000
12437510.000000,-0.340615,0.628522,0.427908,-1.522691,-0.286837,2.090003,0.159823,0.038669,0.372198,-0.091761,-0.214228,-0.173000,0.552129,0.113527,0.228925,-40.028645,6.413071,18.820372,0.279630,1.903487,0.054794,0.000000,0.000000,0.000000,0.000000,0.000000,0.000000
12437511.000000,-0.340561,0.628884,0.427814,-1.522916,-0.287017,2.090554,0.159932,0.042042,0.365911,-0.090235,-0.218950,-0.175809,0.551512,0.110541,0.078168,-39.957233,6.389267,18.871946,0.255826,1.930038,0.009017,0.000000,0.000000,0.000000,0.000000,0.000000,0.000000
12437512.000000,-0.340514,0.629247,0.427717,-1.523120,-0.287193,2.091111,0.160032,0.045430,0.369508,-0.089208,-0.214956,-0.177248,0.558865,0.104397,0.006757,-39.858051,6.365463,18.748960,0.201810,1.916305,0.054794,0.000000,0.000000,0.000000,0.000000,0.000000,0.000000
12437513.000000,-0.340471,0.629609,0.427622,-1.523338,-0.287367,2.091655,0.160141,0.043938,0.365169,-0.091474,-0.214771,-0.173923,0.555504,0.111542,-0.017047,-39.711262,6.341660,18.748960,0.154203,1.942855,0.015426,0.000000,0.000000,0.000000,0.000000,0.000000,0.000000
12437514.000000,-0.340427,0.629976,0.427526,-1.523536,-0.287553,2.092199,0.160249,0.045248,0.365112,-0.093190,-0.210812,-0.174959,0.548263,0.111569,-0.017047,-39.687458,6.313889,18.625975,0.201810,1.995040,0.021835,0.000000,0.000000,0.000000,0.000000,0.000000,0.000000
12437515.000000,-0.340377,0.630352,0.427427,-1.523743,-0.287730,2.092736,0.160357,0.044320,0.366597,-0.094396,-0.212708,-0.174104,0.536956,0.106090,-0.068621,-39.735065,6.290085,18.526793,0.213712,1.968490,0.041976,0.000000,0.000000,0.000000,0.000000,0.000000,0.000000
12437516.000000,-0.340333,0.630736,0.427325,-1.523950,-0.287909,2.093284,0.160466,0.045047,0.372569,-0.099114,-0.207860,-0.173501,0.536345,0.108295,-0.044818,-39.858051,6.313889,18.427610,0.231107,1.949264,0.015426,0.000000,0.000000,0.000000,0.000000,0.000000,0.000000
12437517.000000,-0.340281,0.631115,0.427232,-1.524144,-0.288086,2.093838,0.160575,0.044797,0.373509,-0.098407,-0.204564,-0.172555,0.544969,0.109097,-0.116229,-39.981037,6.266281,18.328428,0.231107,1.877853,0.015426,0.000000,0.000000,0.000000,0.000000,0.000000,0.000000
12437518.000000,-0.340239,0.631487,0.427134,-1.524340,-0.288264,2.094387,0.160679,0.044826,0.372178,-0.099529,-0.202183,-0.175754,0.542971,0.109432,-0.068621,-40.028645,6.290085,18.253050,0.207303,1.832076,0.015426,0.000000,0.000000,0.000000,0.000000,0.000000,0.000000
12437519.000000,-0.340188,0.631862,0.427041,-1.524530,-0.288445,2.094937,0.160778,0.044118,0.374309,-0.095647,-0.200289,-0.173949,0.537108,0.103746,-0.116229,-40.076252,6.242477,18.153868,0.201810,1.812850,0.067611,0.000000,0.000000,0.000000,0.000000,0.000000,0.000000
12437520.000000,-0.340138,0.632236,0.426940,-1.524730,-0.288623,2.095472,0.160888,0.047263,0.376553,-0.097905,-0.198063,-0.172813,0.535173,0.107393,-0.191607,-40.151630,6.290085,18.153868,0.195402,1.838485,0.028243,0.000000,0.000000,0.000000,0.000000,0.000000,0.000000
12437521.000000,-0.340089,0.632606,0.426842,-1.524932,-0.288805,2.096018,0.160994,0.049037,0.374003,-0.098092,-0.198536,-0.177251,0.532647,0.103968,-0.243182,-40.028645,6.266281,18.130064,0.207303,1.871444,0.021835,0.000000,0.000000,0.000000,0.000000,0.000000,0.000000
12437522.000000,-0.340045,0.632974,0.426751,-1.525130,-0.288987,2.096565,0.161096,0.047360,0.370796,-0.097580,-0.198558,-0.176663,0.538783,0.101321,-0.167803,-39.981037,6.218674,18.229246,0.237516,1.877853,0.021835,0.000000,0.000000,0.000000,0.000000,0.000000,0.000000
12437523.000000,-0.340001,0.633349,0.426648,-1.525327,-0.289154,2.097110,0.161198,0.047540,0.369914,-0.099298,-0.200609,-0.173604,0.533775,0.102079,-0.144000,-39.881855,6.266281,18.153868,0.201810,1.865035,0.041976,0.000000,0.000000,0.000000,0.000000,0.000000,0.000000
12437524.000000,-0.339950,0.633703,0.426549,-1.525526,-0.289333,2.097649,0.161301,0.049399,0.371083,-0.100124,-0.202300,-0.172426,0.524996,0.105024,-0.191607,-39.659687,6.290085,18.205442,0.201810,1.865035,0.034652,0.000000,0.000000,0.000000,0.000000,0.000000,0.000000
12437525.000000,-0.339904,0.634074,0.426451,-1.525720,-0.289513,2.098185,0.161414,0.048906,0.369892,-0.096984,-0.199555,-0.176022,0.532316,0.108598,-0.167803,-39.512897,6.290085,18.229246,0.189908,1.884261,-0.017533,0.000000,0.000000,0.000000,0.000000,0.000000,0.000000
12437526.000000,-0.339858,0.634451,0.426357,-1.525907,-0.289698,2.098727,0.161513,0.048477,0.369115,-0.096725,-0.194058,-0.179438,0.526655,0.107103,-0.144000,-39.489094,6.242477,18.130064,0.189908,1.897079,0.048385,0.000000,0.000000,0.000000,0.000000,0.000000,0.000000
12437527.000000,-0.339812,0.634828,0.426263,-1.526091,-0.289878,2.099268,0.161625,0.045188,0.373610,-0.097183,-0.193818,-0.177163,0.538345,0.109689,-0.116229,-39.564472,6.218674,18.030882,0.189908,1.936446,0.015426,0.000000,0.000000,0.000000,0.000000,0.000000,0.000000
12437528.000000,-0.339768,0.635204,0.426163,-1.526280,-0.290058,2.099803,0.161734,0.045982,0.372252,-0.098477,-0.190127,-0.180765,0.532535,0.105430,-0.092425,-39.588276,6.242477,17.907896,0.207303,1.955673,0.028243,0.000000,0.000000,0.000000,0.000000,0.000000,0.000000
12437529.000000,-0.339722,0.635577,0.426068,-1.526469,-0.290234,2.100348,0.161839,0.046626,0.376255,-0.095319,-0.187382,-0.177140,0.535700,0.102182,-0.068621,-39.659687,6.218674,17.784910,0.195402,1.877853,0.041976,0.000000,0.000000,0.000000,0.000000,0.000000,0.000000
12437530.000000,-0.339678,0.635952,0.425970,-1.526653,-0.290402,2.100907,0.161947,0.043287,0.372375,-0.093536,-0.187203,-0.178325,0.545302,0.105422,-0.017047,-39.612080,6.218674,17.733335,0.171598,1.767074,0.021835,0.000000,0.000000,0.000000,0.000000,0.000000,0.000000
12437531.000000,-0.339630,0.636325,0.425875,-1.526843,-0.290582,2.101449,0.162050,0.042088,0.373970,-0.094600,-0.189228,-0.180404,0.543217,0.105405,-0.017047,-39.635883,6.190903,17.661924,0.154203,1.714889,0.074935,0.000000,0.000000,0.000000,0.000000,0.000000,0.000000
12437532.000000,-0.339588,0.636696,0.425775,-1.527026,-0.290766,2.101999,0.162164,0.043300,0.374440,-0.096826,-0.190222,-0.183131,0.535514,0.109896,0.030561,-39.612080,6.218674,17.562742,0.171598,1.747848,0.009017,0.000000,0.000000,0.000000,0.000000,0.000000,0.000000
12437533.000000,-0.339540,0.637065,0.425676,-1.527206,-0.290950,2.102532,0.162275,0.044556,0.370489,-0.094475,-0.188195,-0.185334,0.524086,0.110681,0.054365,-39.540668,6.218674,17.463560,0.189908,1.800033,-0.004716,0.000000,0.000000,0.000000,0.000000,0.000000,0.000000
12437534.000000,-0.339497,0.637437,0.425583,-1.527393,-0.291128,2.103079,0.162378,0.044955,0.374247,-0.094802,-0.184929,-0.185443,0.524389,0.105261,0.105939,-39.366108,6.190903,17.435789,0.178007,1.832076,0.028243,0.000000,0.000000,0.000000,0.000000,0.000000,0.000000
12437535.000000,-0.339453,0.637794,0.425492,-1.527574,-0.291306,2.103636,0.162480,0.045434,0.369138,-0.095756,-0.184829,-0.181480,0.539488,0.105651,0.153547,-39.100300,6.167099,17.511168,0.178007,1.779891,0.061202,0.000000,0.000000,0.000000,0.000000,0.000000,0.000000
12437536.000000,-0.339408,0.638159,0.425391,-1.527753,-0.291481,2.104184,0.162595,0.047201,0.369698,-0.098175,-0.182682,-0.178028,0.543324,0.108038,0.153547,-38.878132,6.218674,17.388182,0.159696,1.747848,0.009017,0.000000,0.000000,0.000000,0.000000,0.000000,0.000000
12437537.000000,-0.339357,0.638528,0.425299,-1.527928,-0.291658,2.104730,0.162703,0.049307,0.367734,-0.098133,-0.179667,-0.179371,0.535507,0.109552,0.105939,-38.806721,6.190903,17.312803,0.129484,1.773483,-0.004716,0.000000,0.000000,0.000000,0.000000,0.000000,0.000000
12437538.000000,-0.339315,0.638903,0.425205,-1.528093,-0.291844,2.105261,0.162804,0.044501,0.369890,-0.098077,-0.175341,-0.182133,0.533936,0.107672,0.177350,-38.755146,6.167099,17.142210,0.135892,1.806442,0.067611,0.000000,0.000000,0.000000,0.000000,0.000000,0.000000
12437539.000000,-0.339275,0.639286,0.425111,-1.528266,-0.292034,2.105805,0.162920,0.045426,0.371497,-0.097605,-0.171019,-0.188976,0.528243,0.111103,0.228925,-38.806721,6.119492,17.066832,0.141385,1.819259,0.009017,0.000000,0.000000,0.000000,0.000000,0.000000,0.000000
12437540.000000,-0.339230,0.639664,0.425014,-1.528430,-0.292223,2.106355,0.163022,0.046807,0.376081,-0.098495,-0.170489,-0.184640,0.536943,0.109748,0.228925,-38.925739,6.119492,16.967649,0.147794,1.786300,0.048385,0.000000,0.000000,0.000000,0.000000,0.000000,0.000000
12437541.000000,-0.339183,0.640042,0.424907,-1.528600,-0.292407,2.106905,0.163130,0.044788,0.376918,-0.101731,-0.167566,-0.181359,0.534808,0.110428,0.228925,-38.977314,6.242477,16.892271,0.154203,1.702071,0.034652,0.000000,0.000000,0.000000,0.000000,0.000000,0.000000
12437542.000000,-0.339141,0.640424,0.424812,-1.528776,-0.292593,2.107449,0.163237,0.045194,0.380063,-0.097556,-0.167832,-0.179077,0.530630,0.111577,0.276533,-39.219318,6.218674,16.920042,0.178007,1.670028,0.021835,0.000000,0.000000,0.000000,0.000000,0.000000,0.000000
12437543.000000,-0.339098,0.640805,0.424720,-1.528944,-0.292771,2.107986,0.163341,0.042248,0.380190,-0.097582,-0.167699,-0.176371,0.540341,0.109869,0.328107,-39.270893,6.190903,16.943846,0.166105,1.708480,0.067611,0.000000,0.000000,0.000000,0.000000,0.000000,0.000000
12437544.000000,-0.339054,0.641186,0.424623,-1.529112,-0.292955,2.108539,0.163454,0.043677,0.377800,-0.098339,-0.167057,-0.179491,0.536950,0.113029,0.351911,-39.342304,6.190903,16.967649,0.166105,1.727706,0.009017,0.000000,0.000000,0.000000,0.000000,0.000000,0.000000
12437545.000000,-0.339009,0.641558,0.424523,-1.529280,-0.293149,2.109093,0.163557,0.042324,0.376589,-0.100092,-0.167392,-0.182176,0.551071,0.113162,0.351911,-39.318501,6.242477,17.019224,0.178007,1.735030,0.001693,0.000000,0.000000,0.000000,0.000000,0.000000,0.000000
12437546.000000,-0.338959,0.641935,0.424427,-1.529456,-0.293334,2.109637,0.163654,0.046211,0.372512,-0.096714,-0.171890,-0.182812,0.546822,0.110642,0.276533,-39.294697,6.242477,17.114439,0.147794,1.727706,0.067611,0.000000,0.000000,0.000000,0.000000,0.000000,0.000000
12437547.000000,-0.338918,0.642313,0.424329,-1.529635,-0.293523,2.110180,0.163766,0.045959,0.375249,-0.097667,-0.175229,-0.179771,0.543611,0.112894,0.328107,-39.219318,6.242477,17.213621,0.159696,1.727706,0.009017,0.000000,0.000000,0.000000,0.000000,0.000000,0.000000
12437548.000000,-0.338876,0.642689,0.424230,-1.529802,-0.293702,2.110721,0.163865,0.042791,0.375970,-0.100849,-0.176502,-0.181460,0.546826,0.110445,0.375715,-39.219318,6.218674,17.265196,0.171598,1.735030,0.067611,0.000000,0.000000,0.000000,0.000000,0.000000,0.000000
12437549.000000,-0.338828,0.643073,0.424123,-1.529974,-0.293883,2.111245,0.163979,0.045389,0.377694,-0.102433,-0.176391,-0.178519,0.532201,0.112063,0.351911,-39.270893,6.290085,17.289000,0.171598,1.773483,0.015426,0.000000,0.000000,0.000000,0.000000,0.000000,0.000000
12437550.000000,-0.338786,0.643451,0.424017,-1.530139,-0.294066,2.111780,0.164078,0.045645,0.375030,-0.103598,-0.175503,-0.176715,0.527120,0.105064,0.403486,-39.294697,6.365463,17.265196,0.183500,1.800033,0.081344,0.000000,0.000000,0.000000,0.000000,0.000000,0.000000
12437551.000000,-0.338737,0.643840,0.423919,-1.530312,-0.294245,2.112301,0.164194,0.046876,0.378390,-0.102898,-0.173065,-0.178976,0.520086,0.104709,0.403486,-39.417683,6.389267,17.289000,0.159696,1.793624,0.021835,0.000000,0.000000,0.000000,0.000000,0.000000,0.000000
12437552.000000,-0.338694,0.644232,0.423821,-1.530486,-0.294435,2.112828,0.164294,0.047555,0.378513,-0.103472,-0.170437,-0.185668,0.517928,0.100479,0.451093,-39.540668,6.341660,17.289000,0.147794,1.786300,0.054794,0.000000,0.000000,0.000000,0.000000,0.000000,0.000000
12437553.000000,-0.338646,0.644622,0.423712,-1.530651,-0.294623,2.113360,0.164403,0.048395,0.383068,-0.104342,-0.171942,-0.181498,0.528970,0.098884,0.451093,-39.758869,6.413071,17.289000,0.135892,1.767074,0.041976,0.000000,0.000000,0.000000,0.000000,0.000000,0.000000
12437554.000000,-0.338595,0.645012,0.423608,-1.530820,-0.294811,2.113887,0.164511,0.046977,0.381931,-0.103032,-0.170045,-0.180270,0.532406,0.102285,0.403486,-39.810444,6.413071,17.312803,0.178007,1.714889,0.028243,0.000000,0.000000,0.000000,0.000000,0.000000,0.000000
12437555.000000,-0.338549,0.645397,0.423504,-1.530996,-0.294996,2.114416,0.164615,0.047268,0.386508,-0.099162,-0.174024,-0.182714,0.529177,0.103265,0.427289,-39.929462,6.413071,17.411985,0.195402,1.682845,0.074935,0.000000,0.000000,0.000000,0.000000,0.000000,0.000000
12437556.000000,-0.338510,0.645780,0.423402,-1.531167,-0.295174,2.114926,0.164733,0.045724,0.383846,-0.099338,-0.172471,-0.184576,0.529170,0.108274,0.526471,-39.810444,6.413071,17.463560,0.207303,1.747848,0.001693,0.000000,0.000000,0.000000,0.000000,0.000000,0.000000
12437557.000000,-0.338465,0.646166,0.423292,-1.531346,-0.295350,2.115455,0.164839,0.047114,0.384454,-0.101385,-0.172146,-0.184311,0.522846,0.104428,0.526471,-39.782673,6.488449,17.562742,0.171598,1.793624,0.009017,0.000000,0.000000,0.000000,0.000000,0.000000,0.000000
12437558.000000,-0.338413,0.646547,0.423187,-1.531515,-0.295536,2.115982,0.164938,0.049849,0.386227,-0.104707,-0.171288,-0.189885,0.526263,0.103854,0.451093,-39.659687,6.512253,17.634153,0.159696,1.812850,0.074935,0.000000,0.000000,0.000000,0.000000,0.000000,0.000000
12437559.000000,-0.338372,0.646932,0.423083,-1.531690,-0.295720,2.116510,0.165056,0.047593,0.385316,-0.100618,-0.174416,-0.183849,0.523931,0.108441,0.550275,-39.588276,6.536057,17.733335,0.129484,1.806442,0.015426,0.000000,0.000000,0.000000,0.000000,0.000000,0.000000
12437560.000000,-0.338330,0.647310,0.422976,-1.531867,-0.295906,2.117035,0.165161,0.046734,0.383157,-0.102187,-0.175740,-0.180846,0.520245,0.102214,0.625654,-39.417683,6.611435,17.784910,0.147794,1.832076,0.067611,0.000000,0.000000,0.000000,0.000000,0.000000,0.000000
12437561.000000,-0.338284,0.647691,0.422869,-1.532040,-0.296091,2.117553,0.165283,0.047217,0.379694,-0.105218,-0.177230,-0.183773,0.527340,0.107559,0.649457,-39.318501,6.635239,17.856321,0.171598,1.890670,-0.004716,0.000000,0.000000,0.000000,0.000000,0.000000,0.000000
12437562.000000,-0.338239,0.648085,0.422764,-1.532217,-0.296280,2.118067,0.165385,0.047132,0.386729,-0.103878,-0.174272,-0.181355,0.521876,0.105625,0.697065,-39.393879,6.635239,17.907896,0.201810,1.936446,0.081344,0.000000,0.000000,0.000000,0.000000,0.000000,0.000000
12437563.000000,-0.338197,0.648473,0.422654,-1.532381,-0.296465,2.118599,0.165505,0.046992,0.387063,-0.107731,-0.171410,-0.182452,0.529057,0.109767,0.748639,-39.489094,6.706650,17.907896,0.183500,1.871444,0.021835,0.000000,0.000000,0.000000,0.000000,0.000000,0.000000
12437564.000000,-0.338150,0.648869,0.422550,-1.532550,-0.296643,2.119128,0.165618,0.047645,0.389959,-0.107470,-0.170974,-0.182244,0.523364,0.105877,0.748639,-39.588276,6.659042,17.983274,0.135892,1.800033,0.009017,0.000000,0.000000,0.000000,0.000000,0.000000,0.000000
12437565.000000,-0.338104,0.649265,0.422437,-1.532727,-0.296836,2.119653,0.165731,0.045461,0.390080,-0.110576,-0.173536,-0.187637,0.516737,0.110165,0.748639,-39.711262,6.758224,18.054686,0.112089,1.793624,0.015426,0.000000,0.000000,0.000000,0.000000,0.000000,0.000000
12437566.000000,-0.338064,0.649651,0.422327,-1.532896,-0.297029,2.120178,0.165839,0.044986,0.393916,-0.108362,-0.169276,-0.188220,0.525123,0.110377,0.824018,-39.758869,6.782028,18.130064,0.117582,1.838485,0.021835,0.000000,0.000000,0.000000,0.000000,0.000000,0.000000
12437567.000000,-0.338024,0.650040,0.422214,-1.533064,-0.297229,2.120696,0.165941,0.044500,0.386976,-0.108496,-0.169743,-0.190826,0.519745,0.109572,0.923200,-39.782673,6.881210,18.106260,0.183500,1.903487,0.061202,0.000000,0.000000,0.000000,0.000000,0.000000,0.000000
12437568.000000,-0.337984,0.650430,0.422105,-1.533237,-0.297428,2.121226,0.166051,0.044646,0.389294,-0.110470,-0.176703,-0.191457,0.519137,0.107017,0.994611,-39.858051,6.928818,18.253050,0.219205,1.897079,0.021835,0.000000,0.000000,0.000000,0.000000,0.000000,0.000000
