chaoyuefei/paper-gmrm-data/robot_logs/s2_dq_mrm_max_0.30_log_20260314_172830.csv
# time_ms,q_0,q_1,q_2,q_3,q_4,q_5,q_6,dq_0,dq_1,dq_2,dq_3,dq_4,dq_5,dq_6,tau_J_0,tau_J_1,tau_J_2,tau_J_3,tau_J_4,tau_J_5,tau_J_6,O_dP_EE_c_0,O_dP_EE_c_1,O_dP_EE_c_2,O_dP_EE_c_3,O_dP_EE_c_4,O_dP_EE_c_5
11972588.000000,2.313464,-0.961779,-1.822720,-1.385855,-0.923953,1.666941,0.446171,0.001078,0.000351,0.000851,0.000487,-0.000505,0.000007,0.000633,0.228925,35.484661,19.568588,12.147398,1.013883,1.402694,-0.155778,0.000000,0.000000,0.000000,0.000000,0.000000,0.000000
11972589.000000,2.313462,-0.961782,-1.822720,-1.385855,-0.923950,1.666940,0.446167,0.000162,-0.000972,0.000620,0.000325,0.000545,-0.000232,-0.000799,0.252729,35.536236,19.568588,12.147398,0.990079,1.409103,-0.122819,0.000000,0.000000,0.000000,0.000000,0.000000,0.000000
11972590.000000,2.313464,-0.961784,-1.822720,-1.385855,-0.923951,1.666941,0.446168,0.000665,-0.000648,0.000453,-0.000340,0.000126,0.000082,-0.000261,0.228925,35.536236,19.568588,12.171202,0.996488,1.402694,-0.130143,0.000000,0.000000,0.000000,0.000000,0.000000,0.000000
11972591.000000,2.313462,-0.961781,-1.822720,-1.385853,-0.923951,1.666943,0.446166,-0.000114,0.000774,-0.005460,0.000887,0.000084,0.000530,-0.000920,0.252729,35.484661,19.544785,12.123594,0.996488,1.389877,-0.110001,0.000000,0.000000,0.000000,0.000000,0.000000,0.000000
11972592.000000,2.313445,-0.961782,-1.822716,-1.385853,-0.923948,1.666941,0.446173,-0.013486,-0.007583,-0.009203,0.000034,-0.001627,0.000828,-0.000376,-0.116229,35.020489,18.953659,12.147398,0.913175,1.377059,-0.116410,0.000000,0.000000,0.000000,0.000000,0.000000,0.000000
11972593.000000,2.313433,-0.961749,-1.822734,-1.385855,-0.923934,1.666935,0.446191,-0.025449,-0.006811,-0.029454,-0.002297,-0.001888,-0.006320,0.004511,-2.048296,32.743267,17.188217,12.246580,0.542386,1.331283,-0.116410,0.000000,0.000000,0.000000,0.000000,0.000000,0.000000
11972594.000000,2.313415,-0.961709,-1.822793,-1.385853,-0.923917,1.666923,0.446211,-0.023763,0.004213,-0.055851,-0.002088,0.008439,-0.006622,0.009938,-5.416522,28.898968,14.367477,12.270384,-0.013339,1.377059,-0.044083,0.000000,0.000000,0.000000,0.000000,0.000000,0.000000
11972595.000000,2.313376,-0.961703,-1.822905,-1.385836,-0.923930,1.666903,0.446257,-0.022668,0.008288,-0.070894,0.004362,0.000679,-0.009765,0.023050,-9.375873,24.812664,11.078598,12.024412,-0.312716,1.507064,-0.083451,0.000000,0.000000,0.000000,0.000000,0.000000,0.000000
11972596.000000,2.313301,-0.961746,-1.823040,-1.385830,-0.923991,1.666910,0.446312,-0.027711,0.001723,-0.082837,0.005059,-0.014625,0.002358,0.035213,-13.188434,21.142925,7.543747,11.802244,-0.228488,1.487838,-0.077042,0.000000,0.000000,0.000000,0.000000,0.000000,0.000000
11972597.000000,2.313203,-0.961845,-1.823199,-1.385842,-0.924074,1.666957,0.446379,-0.037525,-0.022507,-0.094327,-0.001976,-0.039867,0.020487,0.048032,-16.457476,18.326153,4.377853,11.750669,-0.001437,1.220504,-0.023942,0.000000,0.000000,0.000000,0.000000,0.000000,0.000000
11972598.000000,2.313104,-0.961969,-1.823360,-1.385857,-0.924169,1.667061,0.446475,-0.043675,-0.040235,-0.100977,-0.009793,-0.057305,0.050696,0.065259,-18.956865,16.171917,1.775314,11.405516,0.219205,0.597030,-0.044083,0.000000,0.000000,0.000000,0.000000,0.000000,0.000000
11972599.000000,2.313002,-0.962118,-1.823506,-1.385889,-0.924282,1.667211,0.446577,-0.047906,-0.068987,-0.102276,-0.021539,-0.079199,0.090419,0.077096,-20.119280,14.949993,-0.188492,10.762815,0.446256,-0.190324,0.041976,0.000000,0.000000,0.000000,0.000000,0.000000,0.000000
11972600.000000,2.312929,-0.962298,-1.823646,-1.385945,-0.924388,1.667372,0.446703,-0.047331,-0.100299,-0.105376,-0.035861,-0.083120,0.116805,0.092104,-20.341448,14.581036,-1.196182,9.774961,0.476469,-0.703934,-0.004716,0.000000,0.000000,0.000000,0.000000,0.000000,0.000000
11972601.000000,2.312870,-0.962478,-1.823754,-1.386015,-0.924506,1.667528,0.446842,-0.050788,-0.123994,-0.103385,-0.048524,-0.096186,0.134987,0.103169,-19.722551,14.533428,-1.858719,8.414183,0.398649,-0.814713,-0.031266,0.000000,0.000000,0.000000,0.000000,0.000000,0.000000
11972602.000000,2.312822,-0.962636,-1.823861,-1.386105,-0.924608,1.667695,0.446977,-0.054731,-0.138112,-0.101167,-0.059121,-0.097458,0.143469,0.108305,-18.560137,14.481853,-1.906326,6.783629,0.069974,-0.561112,0.021835,0.000000,0.000000,0.000000,0.000000,0.000000,0.000000
11972603.000000,2.312771,-0.962756,-1.823966,-1.386233,-0.924706,1.667882,0.447133,-0.059299,-0.130603,-0.103865,-0.081798,-0.097563,0.152862,0.117320,-17.024797,13.970074,-1.636551,5.299864,-0.438143,-0.196732,-0.070634,0.000000,0.000000,0.000000,0.000000,0.000000,0.000000
11972604.000000,2.312704,-0.962846,-1.824060,-1.386404,-0.924825,1.668114,0.447277,-0.071815,-0.116398,-0.107045,-0.108166,-0.098125,0.172015,0.126988,-15.144305,13.113140,-1.342972,4.165221,-0.838229,0.004684,-0.031266,0.000000,0.000000,0.000000,0.000000,0.000000,0.000000
11972605.000000,2.312622,-0.962903,-1.824162,-1.386621,-0.924980,1.668369,0.447440,-0.083752,-0.095694,-0.108100,-0.137719,-0.117595,0.193975,0.139200,-13.113055,11.815838,-0.898636,3.593931,-0.999362,0.206100,-0.083451,0.000000,0.000000,0.000000,0.000000,0.000000,0.000000
11972606.000000,2.312522,-0.962943,-1.824282,-1.386864,-0.925183,1.668646,0.447593,-0.095261,-0.076515,-0.115851,-0.170735,-0.147528,0.225518,0.143786,-11.010394,10.320171,-0.359085,3.272581,-0.844637,0.349838,-0.031266,0.000000,0.000000,0.000000,0.000000,0.000000,0.000000
11972607.000000,2.312390,-0.962981,-1.824404,-1.387128,-0.925419,1.668966,0.447762,-0.111085,-0.066887,-0.121080,-0.198662,-0.179412,0.253724,0.147025,-8.657794,8.927654,0.057480,3.173399,-0.419833,0.394698,-0.070634,0.000000,0.000000,0.000000,0.000000,0.000000,0.000000
11972608.000000,2.312244,-0.963031,-1.824539,-1.387414,-0.925684,1.669310,0.447926,-0.126524,-0.060873,-0.130239,-0.230711,-0.203976,0.282272,0.151462,-6.356768,7.872356,0.450241,3.371763,0.069974,0.375472,-0.050492,0.000000,0.000000,0.000000,0.000000,0.000000,0.000000
11972609.000000,2.312094,-0.963098,-1.824674,-1.387727,-0.925949,1.669672,0.448083,-0.134999,-0.062879,-0.131955,-0.261417,-0.221222,0.309654,0.152219,-4.277911,7.114605,0.644638,3.720885,0.440763,0.297652,0.041976,0.000000,0.000000,0.000000,0.000000,0.000000,0.000000
11972610.000000,2.311943,-0.963187,-1.824809,-1.388031,-0.926185,1.670067,0.448263,-0.141877,-0.074099,-0.133844,-0.273382,-0.225573,0.331415,0.159585,-2.445025,6.797222,0.720016,3.792296,0.458158,0.245467,-0.037675,0.000000,0.000000,0.000000,0.000000,0.000000,0.000000
11972611.000000,2.311818,-0.963304,-1.824951,-1.388318,-0.926415,1.670476,0.448428,-0.135833,-0.090016,-0.132700,-0.278009,-0.224610,0.354144,0.159888,-1.108050,6.967815,0.819198,3.546324,0.219205,0.297652,0.021835,0.000000,0.000000,0.000000,0.000000,0.000000,0.000000
11972612.000000,2.311712,-0.963456,-1.825090,-1.388606,-0.926644,1.670878,0.448602,-0.124476,-0.112832,-0.128730,-0.278655,-0.219606,0.368265,0.161921,0.054365,7.848553,1.184189,3.050413,-0.049044,0.511886,0.009017,0.000000,0.000000,0.000000,0.000000,0.000000,0.000000
11972613.000000,2.311615,-0.963634,-1.825227,-1.388883,-0.926866,1.671311,0.448783,-0.113964,-0.138291,-0.129594,-0.275270,-0.217596,0.385343,0.165371,1.192975,9.320415,1.846725,2.336302,-0.294406,0.798446,-0.037675,0.000000,0.000000,0.000000,0.000000,0.000000,0.000000
11972614.000000,2.311512,-0.963820,-1.825367,-1.389167,-0.927085,1.671775,0.448952,-0.110355,-0.156003,-0.127402,-0.280354,-0.213703,0.411132,0.164836,2.482343,11.006512,2.830612,1.642027,-0.479342,0.889083,0.009017,0.000000,0.000000,0.000000,0.000000,0.000000,0.000000
11972615.000000,2.311406,-0.963994,-1.825503,-1.389466,-0.927316,1.672299,0.449131,-0.109066,-0.165690,-0.132309,-0.284036,-0.219004,0.446692,0.168313,3.819318,12.502178,4.008896,1.074705,-0.467440,0.706893,-0.050492,0.000000,0.000000,0.000000,0.000000,0.000000,0.000000
11972616.000000,2.311302,-0.964149,-1.825635,-1.389776,-0.927570,1.672865,0.449305,-0.111702,-0.163405,-0.132405,-0.292216,-0.227475,0.482238,0.167729,5.029340,13.505901,5.087997,0.701781,-0.312716,0.336105,-0.031266,0.000000,0.000000,0.000000,0.000000,0.000000,0.000000
11972617.000000,2.311203,-0.964288,-1.825766,-1.390111,-0.927836,1.673419,0.449472,-0.108262,-0.157438,-0.134919,-0.302744,-0.241007,0.498799,0.167037,6.044965,14.017681,6.020309,0.408202,-0.067355,0.069686,0.001693,0.000000,0.000000,0.000000,0.000000,0.000000,0.000000
11972618.000000,2.311113,-0.964411,-1.825899,-1.390459,-0.928096,1.673959,0.449644,-0.102612,-0.145750,-0.135776,-0.317184,-0.249642,0.506792,0.168575,6.862226,14.065289,6.782028,0.257445,0.154203,0.115462,-0.031266,0.000000,0.000000,0.000000,0.000000,0.000000,0.000000
11972619.000000,2.311032,-0.964519,-1.826028,-1.390811,-0.928367,1.674474,0.449817,-0.095698,-0.131729,-0.133273,-0.328626,-0.249996,0.500771,0.174045,7.405744,13.700298,7.273972,0.011473,0.356534,0.310470,-0.044083,0.000000,0.000000,0.000000,0.000000,0.000000,0.000000
11972620.000000,2.310963,-0.964616,-1.826160,-1.391190,-0.928622,1.675010,0.449995,-0.085988,-0.123151,-0.131945,-0.341255,-0.261697,0.506283,0.173054,7.703290,12.966351,7.615158,-0.012331,0.410551,0.427657,-0.044083,0.000000,0.000000,0.000000,0.000000,0.000000,0.000000
11972621.000000,2.310909,-0.964729,-1.826309,-1.391563,-0.928878,1.675544,0.450169,-0.076787,-0.114376,-0.137744,-0.352309,-0.262075,0.506116,0.170830,7.731061,12.280010,7.936508,-0.234499,0.303434,0.492660,-0.011124,0.000000,0.000000,0.000000,0.000000,0.000000,0.000000
11972622.000000,2.310853,-0.964850,-1.826454,-1.391947,-0.929130,1.676066,0.450343,-0.068573,-0.113869,-0.138479,-0.358931,-0.255654,0.511089,0.176276,7.703290,11.669048,8.083298,-0.409059,0.123990,0.551253,-0.031266,0.000000,0.000000,0.000000,0.000000,0.000000,0.000000
11972623.000000,2.310814,-0.964995,-1.826612,-1.392340,-0.929384,1.676580,0.450516,-0.056245,-0.122234,-0.143453,-0.363564,-0.254117,0.505704,0.176418,7.433515,11.399273,8.253891,-0.706606,0.010465,0.648299,0.015426,0.000000,0.000000,0.000000,0.000000,0.000000,0.000000
11972624.000000,2.310784,-0.965164,-1.826784,-1.392726,-0.929649,1.677081,0.450690,-0.044965,-0.134411,-0.152648,-0.365993,-0.252150,0.515952,0.177937,7.036787,11.399273,8.523666,-1.075563,0.015958,0.733443,0.021835,0.000000,0.000000,0.000000,0.000000,0.000000,0.000000
11972625.000000,2.310751,-0.965368,-1.826945,-1.393121,-0.929931,1.677598,0.450863,-0.041014,-0.155890,-0.156605,-0.367773,-0.263432,0.512258,0.180593,6.592451,11.768230,8.646652,-1.420717,0.147794,0.687667,-0.004716,0.000000,0.000000,0.000000,0.000000,0.000000,0.000000
11972626.000000,2.310718,-0.965596,-1.827121,-1.393506,-0.930216,1.678116,0.451033,-0.038044,-0.178425,-0.161746,-0.374802,-0.267059,0.505024,0.176202,5.921979,12.502178,8.845016,-1.472292,0.243009,0.551253,0.034652,0.000000,0.000000,0.000000,0.000000,0.000000,0.000000
11972627.000000,2.310674,-0.965839,-1.827284,-1.393891,-0.930507,1.678636,0.451213,-0.038744,-0.197895,-0.163660,-0.374248,-0.274980,0.512585,0.181623,5.057111,13.430523,8.817245,-1.174745,0.369352,0.401107,-0.023942,0.000000,0.000000,0.000000,0.000000,0.000000,0.000000
11972628.000000,2.310624,-0.966098,-1.827452,-1.394272,-0.930786,1.679164,0.451387,-0.043445,-0.214166,-0.162762,-0.371750,-0.277906,0.519133,0.176959,4.065290,14.604839,8.817245,-0.508241,0.410551,0.264693,-0.004716,0.000000,0.000000,0.000000,0.000000,0.000000,0.000000
11972629.000000,2.310567,-0.966363,-1.827619,-1.394635,-0.931061,1.679691,0.451556,-0.046100,-0.232609,-0.161822,-0.367733,-0.279376,0.519050,0.173572,3.002058,15.925945,8.940231,0.380431,0.428861,0.226241,0.041976,0.000000,0.000000,0.000000,0.000000,0.000000,0.000000
11972630.000000,2.310498,-0.966635,-1.827770,-1.395010,-0.931351,1.680200,0.451735,-0.051726,-0.242985,-0.156917,-0.367841,-0.280014,0.516154,0.175045,2.184797,17.469219,9.138596,1.618224,0.428861,0.349838,-0.017533,0.000000,0.000000,0.000000,0.000000,0.000000,0.000000
11972631.000000,2.310414,-0.966907,-1.827914,-1.395400,-0.931626,1.680711,0.451898,-0.061935,-0.252410,-0.152140,-0.378069,-0.283310,0.508608,0.169696,1.613508,19.258465,9.432175,3.201170,0.374845,0.511886,0.074935,0.000000,0.000000,0.000000,0.000000,0.000000,0.000000
11972632.000000,2.310312,-0.967166,-1.828057,-1.395786,-0.931888,1.681224,0.452067,-0.070525,-0.254710,-0.149601,-0.382861,-0.270815,0.509128,0.171082,1.391340,20.920757,9.924118,4.879332,0.183500,0.674850,0.041976,0.000000,0.000000,0.000000,0.000000,0.000000,0.000000
11972633.000000,2.310212,-0.967413,-1.828195,-1.396195,-0.932135,1.681745,0.452234,-0.079925,-0.255528,-0.148982,-0.392922,-0.264234,0.505468,0.169596,1.315961,22.464031,10.487473,6.636839,0.034269,0.765487,0.074935,0.000000,0.000000,0.000000,0.000000,0.000000,0.000000
11972634.000000,2.310110,-0.967655,-1.828331,-1.396605,-0.932399,1.682272,0.452411,-0.086497,-0.253478,-0.147728,-0.402761,-0.267852,0.507890,0.169687,1.268354,23.856548,11.050827,8.243589,-0.019747,0.901900,0.061202,0.000000,0.000000,0.000000,0.000000,0.000000,0.000000
11972635.000000,2.310010,-0.967903,-1.828478,-1.397021,-0.932671,1.682765,0.452587,-0.090496,-0.256440,-0.149667,-0.412993,-0.267956,0.499534,0.176317,1.192975,25.130047,11.741135,9.600401,-0.019747,1.194869,0.061202,0.000000,0.000000,0.000000,0.000000,0.000000,0.000000
11972636.000000,2.309902,-0.968157,-1.828624,-1.397449,-0.932939,1.683246,0.452757,-0.099854,-0.258498,-0.148731,-0.421037,-0.266619,0.489956,0.173625,1.292158,26.280560,12.352097,10.814390,0.081876,1.546432,0.074935,0.000000,0.000000,0.000000,0.000000,0.000000,0.000000
11972637.000000,2.309791,-0.968420,-1.828791,-1.397866,-0.933211,1.683733,0.452935,-0.103629,-0.261008,-0.157440,-0.418898,-0.270425,0.497689,0.174706,1.415143,27.335857,13.113815,11.655455,0.207303,1.721298,0.021835,0.000000,0.000000,0.000000,0.000000,0.000000,0.000000
11972638.000000,2.309684,-0.968695,-1.828959,-1.398292,-0.933467,1.684233,0.453103,-0.105591,-0.268157,-0.162661,-0.418211,-0.272996,0.495569,0.171890,1.514325,28.434795,13.823959,12.270384,0.237516,1.670028,0.061202,0.000000,0.000000,0.000000,0.000000,0.000000,0.000000
11972639.000000,2.309569,-0.968983,-1.829135,-1.398707,-0.933732,1.684741,0.453276,-0.108335,-0.277104,-0.167304,-0.418910,-0.275082,0.493235,0.167712,1.688886,29.513897,14.438889,12.591734,0.231107,1.539108,0.021835,0.000000,0.000000,0.000000,0.000000,0.000000,0.000000
11972640.000000,2.309450,-0.969291,-1.829325,-1.399122,-0.934003,1.685221,0.453443,-0.111034,-0.285712,-0.177152,-0.414515,-0.271177,0.486728,0.167050,1.911054,30.589031,15.053818,12.643309,0.201810,1.519881,0.034652,0.000000,0.000000,0.000000,0.000000,0.000000,0.000000
11972641.000000,2.309332,-0.969614,-1.829510,-1.399523,-0.934267,1.685687,0.453611,-0.113785,-0.297562,-0.179913,-0.408454,-0.273188,0.483506,0.166078,2.160993,31.739544,15.470383,12.393370,0.171598,1.611434,0.067611,0.000000,0.000000,0.000000,0.000000,0.000000,0.000000
11972642.000000,2.309205,-0.969939,-1.829707,-1.399923,-0.934537,1.686149,0.453788,-0.117701,-0.306724,-0.184741,-0.401079,-0.271579,0.485963,0.168831,2.529951,32.767071,15.863144,12.072020,0.195402,1.702071,0.021835,0.000000,0.000000,0.000000,0.000000,0.000000,0.000000
11972643.000000,2.309081,-0.970269,-1.829904,-1.400327,-0.934800,1.686621,0.453946,-0.119253,-0.313639,-0.191480,-0.398868,-0.272569,0.480649,0.165386,2.803693,33.600201,16.232101,11.750669,0.141385,1.682845,0.087753,0.000000,0.000000,0.000000,0.000000,0.000000,0.000000
11972644.000000,2.308953,-0.970582,-1.830111,-1.400726,-0.935073,1.687116,0.454119,-0.120134,-0.314144,-0.196130,-0.406304,-0.272789,0.485543,0.162635,3.101240,34.088177,16.573288,11.457090,0.069974,1.546432,0.041976,0.000000,0.000000,0.000000,0.000000,0.000000,0.000000
11972645.000000,2.308826,-0.970893,-1.830331,-1.401119,-0.935351,1.687591,0.454285,-0.121129,-0.310404,-0.202278,-0.399480,-0.274999,0.482499,0.159870,3.371015,34.409527,17.017624,11.183348,0.058073,1.474105,0.028243,0.000000,0.000000,0.000000,0.000000,0.000000,0.000000
11972646.000000,2.308704,-0.971193,-1.830564,-1.401501,-0.935633,1.688060,0.454451,-0.122376,-0.305654,-0.211745,-0.388402,-0.281091,0.478392,0.162018,3.569379,34.457134,17.533371,10.786619,0.154203,1.500655,0.034652,0.000000,0.000000,0.000000,0.000000,0.000000,0.000000
11972647.000000,2.308588,-0.971494,-1.830802,-1.401879,-0.935916,1.688526,0.454614,-0.120331,-0.302300,-0.218679,-0.384497,-0.285699,0.469455,0.162360,3.644758,34.457134,18.072922,10.540648,0.267728,1.624252,0.041976,0.000000,0.000000,0.000000,0.000000,0.000000,0.000000
11972648.000000,2.308475,-0.971776,-1.831046,-1.402258,-0.936208,1.688985,0.454778,-0.118380,-0.294220,-0.228582,-0.380461,-0.289487,0.464840,0.163224,3.668561,34.187359,18.660080,10.270872,0.393156,1.695663,0.067611,0.000000,0.000000,0.000000,0.000000,0.000000,0.000000
11972649.000000,2.308366,-0.972050,-1.831292,-1.402638,-0.936488,1.689460,0.454954,-0.117632,-0.289622,-0.234129,-0.379238,-0.283079,0.466443,0.165720,3.720136,33.869976,19.175827,10.195494,0.410551,1.727706,0.015426,0.000000,0.000000,0.000000,0.000000,0.000000,0.000000
11972650.000000,2.308256,-0.972333,-1.831548,-1.403015,-0.936772,1.689931,0.455115,-0.115590,-0.281717,-0.240365,-0.378559,-0.280652,0.467280,0.160551,3.720136,33.675579,19.667770,10.143919,0.374845,1.682845,0.054794,0.000000,0.000000,0.000000,0.000000,0.000000,0.000000
11972651.000000,2.308154,-0.972621,-1.831798,-1.403390,-0.937047,1.690396,0.455292,-0.112957,-0.284165,-0.243639,-0.374244,-0.276641,0.463851,0.164005,3.644758,33.600201,20.084335,10.096312,0.381254,1.689254,0.028243,0.000000,0.000000,0.000000,0.000000,0.000000,0.000000
11972652.000000,2.308050,-0.972923,-1.832059,-1.403760,-0.937335,1.690855,0.455458,-0.111020,-0.288458,-0.248607,-0.373258,-0.279386,0.458659,0.159620,3.569379,33.699383,20.477097,9.997129,0.416959,1.825668,0.054794,0.000000,0.000000,0.000000,0.000000,0.000000,0.000000
11972653.000000,2.307948,-0.973220,-1.832323,-1.404131,-0.937633,1.691305,0.455627,-0.110596,-0.290043,-0.251550,-0.369476,-0.282341,0.453800,0.163414,3.521772,33.822369,20.822250,9.897947,0.470060,1.988631,0.021835,0.000000,0.000000,0.000000,0.000000,0.000000,0.000000
11972654.000000,2.307855,-0.973529,-1.832589,-1.404507,-0.937920,1.691765,0.455797,-0.104392,-0.299627,-0.254104,-0.370374,-0.283689,0.458377,0.165552,3.347211,34.064373,21.163437,9.822569,0.506681,2.020675,-0.004716,0.000000,0.000000,0.000000,0.000000,0.000000,0.000000
11972655.000000,2.307767,-0.973832,-1.832855,-1.404884,-0.938209,1.692230,0.455960,-0.098751,-0.298377,-0.257127,-0.373771,-0.283638,0.469004,0.167370,3.125043,34.163555,21.433212,9.874144,0.530485,1.949264,0.067611,0.000000,0.000000,0.000000,0.000000,0.000000,0.000000
11972656.000000,2.307683,-0.974134,-1.833111,-1.405267,-0.938495,1.692709,0.456133,-0.092889,-0.302622,-0.258744,-0.377783,-0.291645,0.463886,0.169969,2.950483,34.310345,21.631577,9.897947,0.547880,1.779891,0.021835,0.000000,0.000000,0.000000,0.000000,0.000000,0.000000
11972657.000000,2.307608,-0.974445,-1.833379,-1.405646,-0.938783,1.693175,0.456300,-0.085620,-0.306444,-0.260375,-0.376449,-0.292317,0.466912,0.168495,2.652936,34.409527,21.849777,9.973326,0.506681,1.779891,0.034652,0.000000,0.000000,0.000000,0.000000,0.000000,0.000000
11972658.000000,2.307544,-0.974760,-1.833633,-1.406029,-0.939080,1.693624,0.456467,-0.077995,-0.306983,-0.253088,-0.378230,-0.292347,0.460238,0.169766,2.260175,34.532513,21.825974,10.048704,0.578092,1.923629,0.015426,0.000000,0.000000,0.000000,0.000000,0.000000,0.000000
11972659.000000,2.307480,-0.975069,-1.833887,-1.406414,-0.939365,1.694083,0.456632,-0.073400,-0.310348,-0.252779,-0.378714,-0.289878,0.455617,0.163647,1.887250,34.627728,21.877548,10.096312,0.578092,2.007858,0.028243,0.000000,0.000000,0.000000,0.000000,0.000000,0.000000
11972660.000000,2.307424,-0.975388,-1.834143,-1.406804,-0.939646,1.694558,0.456795,-0.068734,-0.313002,-0.252444,-0.386558,-0.290275,0.457496,0.162375,1.442914,34.726910,21.802170,10.318480,0.524076,2.020675,0.074935,0.000000,0.000000,0.000000,0.000000,0.000000,0.000000
11972661.000000,2.307370,-0.975688,-1.834390,-1.407199,-0.939943,1.695023,0.456963,-0.066172,-0.307352,-0.251004,-0.386263,-0.292683,0.455081,0.165847,1.069990,34.580120,21.754562,10.465269,0.500272,1.988631,0.009017,0.000000,0.000000,0.000000,0.000000,0.000000,0.000000
11972662.000000,2.307330,-0.975991,-1.834638,-1.407601,-0.940238,1.695500,0.457122,-0.058132,-0.307444,-0.247406,-0.398619,-0.295099,0.462028,0.165201,0.550275,34.457134,21.726791,10.691404,0.500272,1.936446,0.041976,0.000000,0.000000,0.000000,0.000000,0.000000,0.000000
11972663.000000,2.307291,-0.976305,-1.834883,-1.408003,-0.940529,1.695975,0.457288,-0.053894,-0.307761,-0.246367,-0.400546,-0.291917,0.467102,0.167423,0.078168,34.433331,21.631577,10.913572,0.506681,1.916305,0.015426,0.000000,0.000000,0.000000,0.000000,0.000000,0.000000
11972664.000000,2.307252,-0.976605,-1.835120,-1.408408,-0.940822,1.696441,0.457451,-0.049518,-0.304862,-0.242008,-0.400306,-0.292590,0.456579,0.165147,-0.314593,34.357952,21.508591,11.084166,0.578092,1.988631,0.067611,0.000000,0.000000,0.000000,0.000000,0.000000,0.000000
11972665.000000,2.307223,-0.976919,-1.835361,-1.408812,-0.941123,1.696920,0.457618,-0.044225,-0.310346,-0.242116,-0.396240,-0.295246,0.456841,0.165988,-0.786700,34.385723,21.409409,11.207151,0.589994,2.033492,0.081344,0.000000,0.000000,0.000000,0.000000,0.000000,0.000000
11972666.000000,2.307189,-0.977235,-1.835585,-1.409227,-0.941422,1.697393,0.457792,-0.039457,-0.307393,-0.235941,-0.399483,-0.291310,0.459512,0.169071,-1.159625,34.457134,21.139633,11.480894,0.571683,1.995040,0.028243,0.000000,0.000000,0.000000,0.000000,0.000000,0.000000
11972667.000000,2.307159,-0.977559,-1.835814,-1.409642,-0.941719,1.697871,0.457961,-0.036071,-0.314784,-0.229976,-0.402850,-0.289553,0.461949,0.167247,-1.528582,34.679302,20.945236,11.627684,0.578092,1.909896,0.048385,0.000000,0.000000,0.000000,0.000000,0.000000,0.000000
11972668.000000,2.307130,-0.977890,-1.836032,-1.410050,-0.942004,1.698340,0.458131,-0.031965,-0.318928,-0.224959,-0.402041,-0.290813,0.472799,0.166847,-1.826129,34.897503,20.746872,11.778440,0.535978,1.890670,0.034652,0.000000,0.000000,0.000000,0.000000,0.000000,0.000000
11972669.000000,2.307102,-0.978224,-1.836237,-1.410460,-0.942299,1.698811,0.458293,-0.029140,-0.329944,-0.214221,-0.398722,-0.293704,0.468443,0.166673,-2.099871,35.266460,20.500900,11.849852,0.535978,1.871444,0.061202,0.000000,0.000000,0.000000,0.000000,0.000000,0.000000
11972670.000000,2.307081,-0.978568,-1.836448,-1.410871,-0.942599,1.699280,0.458469,-0.027875,-0.332868,-0.211462,-0.403432,-0.295871,0.470112,0.168989,-2.468829,35.607647,20.330307,12.048216,0.535978,1.897079,0.009017,0.000000,0.000000,0.000000,0.000000,0.000000,0.000000
11972671.000000,2.307056,-0.978917,-1.836648,-1.411277,-0.942899,1.699749,0.458633,-0.026169,-0.335237,-0.204512,-0.399560,-0.298185,0.469008,0.168814,-2.742571,35.976604,20.084335,12.072020,0.554288,1.858627,0.074935,0.000000,0.000000,0.000000,0.000000,0.000000,0.000000
11972672.000000,2.307028,-0.979262,-1.836851,-1.411692,-0.943178,1.700223,0.458798,-0.026810,-0.342789,-0.201496,-0.399694,-0.291730,0.468505,0.168366,-2.917132,36.317791,19.937546,12.222776,0.476469,1.773483,0.081344,0.000000,0.000000,0.000000,0.000000,0.000000,0.000000
11972673.000000,2.307001,-0.979615,-1.837054,-1.412106,-0.943464,1.700699,0.458970,-0.026691,-0.342218,-0.200033,-0.403855,-0.292547,0.479414,0.173983,-3.111529,36.563763,19.838364,12.393370,0.434354,1.708480,0.041976,0.000000,0.000000,0.000000,0.000000,0.000000,0.000000
11972674.000000,2.306965,-0.979964,-1.837246,-1.412523,-0.943755,1.701168,0.459136,-0.029884,-0.344447,-0.199966,-0.403337,-0.297595,0.472602,0.171150,-3.163104,36.881145,19.643967,12.591734,0.422452,1.735030,0.081344,0.000000,0.000000,0.000000,0.000000,0.000000,0.000000
11972675.000000,2.306934,-0.980320,-1.837447,-1.412931,-0.944046,1.701645,0.459312,-0.028053,-0.348520,-0.200176,-0.404284,-0.293673,0.472412,0.172673,-3.238482,37.127117,19.592392,12.690916,0.410551,1.760665,0.015426,0.000000,0.000000,0.000000,0.000000,0.000000,0.000000
11972676.000000,2.306899,-0.980680,-1.837648,-1.413348,-0.944330,1.702113,0.459477,-0.028011,-0.350751,-0.198230,-0.404981,-0.290447,0.467573,0.173501,-3.238482,37.392925,19.592392,12.913084,0.398649,1.812850,0.048385,0.000000,0.000000,0.000000,0.000000,0.000000,0.000000
11972677.000000,2.306860,-0.981028,-1.837841,-1.413764,-0.944612,1.702582,0.459642,-0.032410,-0.352864,-0.195347,-0.402275,-0.293999,0.459045,0.171276,-3.186907,37.515911,19.544785,13.012266,0.410551,1.832076,0.074935,0.000000,0.000000,0.000000,0.000000,0.000000,0.000000
11972678.000000,2.306817,-0.981379,-1.838041,-1.414176,-0.944900,1.703061,0.459819,-0.036238,-0.349649,-0.199911,-0.400969,-0.293364,0.459381,0.172336,-3.087725,37.567486,19.544785,13.262205,0.344633,1.838485,0.015426,0.000000,0.000000,0.000000,0.000000,0.000000,0.000000
11972679.000000,2.306770,-0.981733,-1.838240,-1.414589,-0.945191,1.703538,0.459982,-0.043004,-0.351430,-0.202712,-0.403279,-0.291604,0.460452,0.169395,-2.940936,37.738079,19.544785,13.432798,0.356534,1.800033,0.074935,0.000000,0.000000,0.000000,0.000000,0.000000,0.000000
11972680.000000,2.306720,-0.982086,-1.838448,-1.414991,-0.945471,1.704014,0.460155,-0.048742,-0.356425,-0.204291,-0.407486,-0.289877,0.464633,0.169681,-2.766375,37.932476,19.616196,13.508177,0.362943,1.786300,0.061202,0.000000,0.000000,0.000000,0.000000,0.000000,0.000000
11972681.000000,2.306658,-0.982437,-1.838655,-1.415402,-0.945750,1.704478,0.460324,-0.051751,-0.356233,-0.201730,-0.407932,-0.282518,0.461388,0.172213,-2.468829,38.079266,19.667770,13.631163,0.344633,1.844894,0.081344,0.000000,0.000000,0.000000,0.000000,0.000000,0.000000
11972682.000000,2.306596,-0.982801,-1.838863,-1.415806,-0.946041,1.704940,0.460503,-0.053600,-0.360323,-0.205985,-0.403503,-0.289469,0.454245,0.173549,-2.199053,38.325237,19.715378,13.678770,0.393156,1.865035,0.028243,0.000000,0.000000,0.000000,0.000000,0.000000,0.000000
11972683.000000,2.306533,-0.983163,-1.839070,-1.416202,-0.946334,1.705418,0.460669,-0.058106,-0.360600,-0.203014,-0.402117,-0.287645,0.458561,0.170259,-1.925311,38.571209,19.790756,13.654966,0.386747,1.800033,0.054794,0.000000,0.000000,0.000000,0.000000,0.000000,0.000000
11972684.000000,2.306467,-0.983537,-1.839286,-1.416593,-0.946623,1.705886,0.460835,-0.061399,-0.365117,-0.206509,-0.394829,-0.286536,0.460525,0.169385,-1.651568,38.912395,19.961349,13.508177,0.386747,1.767074,0.048385,0.000000,0.000000,0.000000,0.000000,0.000000,0.000000
11972685.000000,2.306400,-0.983909,-1.839495,-1.416983,-0.946906,1.706347,0.461004,-0.060354,-0.372699,-0.207887,-0.395524,-0.284804,0.457964,0.172918,-1.381793,39.253582,20.084335,13.309813,0.362943,1.793624,0.061202,0.000000,0.000000,0.000000,0.000000,0.000000,0.000000
11972686.000000,2.306326,-0.984287,-1.839719,-1.417362,-0.947198,1.706804,0.461174,-0.063895,-0.369893,-0.214249,-0.389439,-0.291811,0.463071,0.172971,-1.060443,39.574932,20.330307,13.087645,0.327238,1.838485,0.041976,0.000000,0.000000,0.000000,0.000000,0.000000,0.000000
11972687.000000,2.306251,-0.984662,-1.839937,-1.417743,-0.947494,1.707266,0.461339,-0.066389,-0.371805,-0.214131,-0.390066,-0.294244,0.456325,0.167381,-0.735125,39.840740,20.500900,12.841673,0.320829,1.858627,0.041976,0.000000,0.000000,0.000000,0.000000,0.000000,0.000000
11972688.000000,2.306174,-0.985029,-1.840167,-1.418113,-0.947791,1.707733,0.461502,-0.071665,-0.367583,-0.216513,-0.384966,-0.296364,0.461033,0.165825,-0.389971,39.939922,20.770676,12.591734,0.320829,1.779891,0.081344,0.000000,0.000000,0.000000,0.000000,0.000000,0.000000
11972689.000000,2.306089,-0.985393,-1.840407,-1.418489,-0.948088,1.708194,0.461668,-0.076376,-0.363024,-0.222349,-0.382152,-0.293095,0.461517,0.163924,-0.017047,39.987530,21.092026,12.369566,0.315336,1.760665,0.034652,0.000000,0.000000,0.000000,0.000000,0.000000,0.000000
11972690.000000,2.306001,-0.985743,-1.840638,-1.418867,-0.948392,1.708658,0.461825,-0.082776,-0.357888,-0.226505,-0.375039,-0.297747,0.455042,0.163298,0.351911,39.916119,21.286423,12.222776,0.374845,1.760665,0.081344,0.000000,0.000000,0.000000,0.000000,0.000000,0.000000
11972691.000000,2.305910,-0.986089,-1.840881,-1.419231,-0.948704,1.709124,0.461993,-0.088186,-0.355538,-0.229664,-0.377094,-0.299057,0.465229,0.167060,0.748639,39.769329,21.631577,12.099791,0.398649,1.800033,0.001693,0.000000,0.000000,0.000000,0.000000,0.000000,0.000000
11972692.000000,2.305816,-0.986433,-1.841117,-1.419602,-0.949011,1.709583,0.462151,-0.092595,-0.347762,-0.229431,-0.374424,-0.301453,0.458534,0.161386,1.121564,39.598736,21.849777,11.976805,0.446256,1.812850,0.041976,0.000000,0.000000,0.000000,0.000000,0.000000,0.000000
11972693.000000,2.305723,-0.986763,-1.841357,-1.419957,-0.949320,1.710032,0.462315,-0.094152,-0.342420,-0.232974,-0.375806,-0.302633,0.451806,0.161754,1.466718,39.400372,22.095749,11.802244,0.482877,1.884261,0.087753,0.000000,0.000000,0.000000,0.000000,0.000000,0.000000
11972694.000000,2.305629,-0.987098,-1.841609,-1.420321,-0.949627,1.710480,0.462486,-0.097545,-0.340659,-0.237466,-0.370477,-0.309343,0.447732,0.166069,1.764264,39.205975,22.417099,11.655455,0.434354,1.955673,0.028243,0.000000,0.000000,0.000000,0.000000,0.000000,0.000000
11972695.000000,2.305541,-0.987437,-1.841845,-1.420676,-0.949942,1.710938,0.462646,-0.095152,-0.340266,-0.236770,-0.362785,-0.312060,0.444845,0.160744,1.986432,39.158367,22.563889,11.504698,0.428861,1.962081,0.061202,0.000000,0.000000,0.000000,0.000000,0.000000,0.000000
11972696.000000,2.305449,-0.987772,-1.842096,-1.421012,-0.950256,1.711398,0.462816,-0.093534,-0.341798,-0.242493,-0.356032,-0.314605,0.449788,0.159514,2.184797,38.936199,22.857468,11.159544,0.440763,1.930038,0.028243,0.000000,0.000000,0.000000,0.000000,0.000000,0.000000
11972697.000000,2.305365,-0.988117,-1.842354,-1.421354,-0.950567,1.711846,0.462976,-0.089726,-0.339822,-0.252049,-0.345142,-0.311564,0.447738,0.159669,2.283979,38.837017,23.151047,10.861998,0.434354,1.942855,0.067611,0.000000,0.000000,0.000000,0.000000,0.000000,0.000000
11972698.000000,2.305278,-0.988447,-1.842610,-1.421697,-0.950888,1.712292,0.463141,-0.088780,-0.337918,-0.249904,-0.345166,-0.316960,0.441384,0.157639,2.430768,38.690228,23.397018,10.592222,0.512174,1.955673,0.054794,0.000000,0.000000,0.000000,0.000000,0.000000,0.000000
11972699.000000,2.305196,-0.988788,-1.842853,-1.422025,-0.951214,1.712734,0.463303,-0.086008,-0.341680,-0.248465,-0.337783,-0.319967,0.451146,0.155514,2.506147,38.595013,23.520004,10.270872,0.584501,1.995040,0.067611,0.000000,0.000000,0.000000,0.000000,0.000000,0.000000
11972700.000000,2.305116,-0.989123,-1.843106,-1.422354,-0.951529,1.713192,0.463475,-0.083781,-0.337117,-0.251439,-0.336277,-0.320104,0.448135,0.160268,2.553754,38.519634,23.789780,10.020933,0.596403,1.968490,0.015426,0.000000,0.000000,0.000000,0.000000,0.000000,0.000000
11972701.000000,2.305034,-0.989459,-1.843356,-1.422688,-0.951851,1.713650,0.463641,-0.082495,-0.339524,-0.248449,-0.335066,-0.321424,0.449254,0.161307,2.605329,38.325237,23.865158,9.874144,0.632108,1.916305,0.048385,0.000000,0.000000,0.000000,0.000000,0.000000,0.000000
11972702.000000,2.304954,-0.989793,-1.843609,-1.423026,-0.952175,1.714104,0.463809,-0.083391,-0.334565,-0.248627,-0.334022,-0.321048,0.447894,0.164182,2.605329,38.202251,24.011948,9.874144,0.632108,1.897079,0.028243,0.000000,0.000000,0.000000,0.000000,0.000000,0.000000
11972703.000000,2.304880,-0.990120,-1.843850,-1.423365,-0.952492,1.714561,0.463978,-0.082955,-0.328228,-0.245464,-0.331847,-0.319182,0.449138,0.165210,2.553754,38.055462,24.011948,9.822569,0.589994,1.897079,0.009017,0.000000,0.000000,0.000000,0.000000,0.000000,0.000000
11972704.000000,2.304803,-0.990448,-1.844098,-1.423689,-0.952819,1.715002,0.464141,-0.077940,-0.325091,-0.243924,-0.330157,-0.319780,0.456393,0.167619,2.553754,37.908672,24.059555,9.774961,0.608304,1.942855,0.054794,0.000000,0.000000,0.000000,0.000000,0.000000,0.000000
11972705.000000,2.304732,-0.990766,-1.844340,-1.424026,-0.953135,1.715455,0.464306,-0.076463,-0.327082,-0.241025,-0.335365,-0.327854,0.453131,0.164736,2.506147,37.738079,24.134933,9.897947,0.613798,2.020675,0.021835,0.000000,0.000000,0.000000,0.000000,0.000000,0.000000
11972706.000000,2.304659,-0.991087,-1.844578,-1.424362,-0.953462,1.715916,0.464461,-0.075584,-0.325916,-0.237557,-0.336746,-0.329967,0.455401,0.163490,2.482343,37.515911,24.158737,10.048704,0.589994,2.020675,0.081344,0.000000,0.000000,0.000000,0.000000,0.000000,0.000000
11972707.000000,2.304596,-0.991406,-1.844808,-1.424706,-0.953788,1.716371,0.464633,-0.072022,-0.317704,-0.235212,-0.336959,-0.323455,0.456932,0.163485,2.331586,37.369122,24.059555,10.294676,0.608304,2.014266,0.001693,0.000000,0.000000,0.000000,0.000000,0.000000,0.000000
11972708.000000,2.304530,-0.991720,-1.845041,-1.425050,-0.954105,1.716825,0.464802,-0.068462,-0.317777,-0.232502,-0.336844,-0.318680,0.451569,0.164496,2.260175,37.222332,24.035751,10.417662,0.620206,2.020675,0.001693,0.000000,0.000000,0.000000,0.000000,0.000000,0.000000
11972709.000000,2.304470,-0.992033,-1.845273,-1.425393,-0.954422,1.717274,0.464963,-0.064414,-0.312493,-0.232734,-0.335821,-0.318904,0.452649,0.163104,2.133222,37.004131,23.988144,10.639830,0.632108,1.988631,0.074935,0.000000,0.000000,0.000000,0.000000,0.000000,0.000000
11972710.000000,2.304419,-0.992354,-1.845491,-1.425738,-0.954752,1.717716,0.465134,-0.059591,-0.315691,-0.227969,-0.336002,-0.333614,0.448240,0.162033,1.934858,36.928753,23.841354,10.814390,0.691617,2.027084,0.015426,0.000000,0.000000,0.000000,0.000000,0.000000,0.000000
11972711.000000,2.304368,-0.992670,-1.845711,-1.426086,-0.955074,1.718150,0.465299,-0.053561,-0.316445,-0.224383,-0.345514,-0.329373,0.443389,0.161618,1.740461,36.758160,23.690598,11.036558,0.673307,2.104903,0.061202,0.000000,0.000000,0.000000,0.000000,0.000000,0.000000
11972712.000000,2.304320,-0.992993,-1.845926,-1.426429,-0.955388,1.718580,0.465472,-0.051699,-0.313926,-0.221490,-0.342308,-0.320197,0.438839,0.167948,1.514325,36.734356,23.520004,11.135740,0.625699,2.125045,0.021835,0.000000,0.000000,0.000000,0.000000,0.000000,0.000000
11972713.000000,2.304270,-0.993317,-1.846130,-1.426783,-0.955704,1.719028,0.465633,-0.051758,-0.318061,-0.215054,-0.342544,-0.319988,0.436588,0.168037,1.343732,36.734356,23.297836,11.234922,0.613798,2.060043,0.028243,0.000000,0.000000,0.000000,0.000000,0.000000,0.000000
11972714.000000,2.304218,-0.993644,-1.846331,-1.427135,-0.956022,1.719471,0.465799,-0.052479,-0.317867,-0.210190,-0.343602,-0.317391,0.431488,0.167882,1.216779,36.734356,23.079636,11.480894,0.535978,2.014266,0.021835,0.000000,0.000000,0.000000,0.000000,0.000000,0.000000
11972715.000000,2.304175,-0.993972,-1.846520,-1.427491,-0.956341,1.719901,0.465964,-0.048437,-0.325050,-0.208554,-0.348243,-0.317471,0.430625,0.167690,1.022382,36.781963,22.710678,11.655455,0.500272,1.988631,0.041976,0.000000,0.000000,0.000000,0.000000,0.000000,0.000000
11972716.000000,2.304130,-0.994297,-1.846719,-1.427853,-0.956657,1.720331,0.466133,-0.046474,-0.326347,-0.203051,-0.350975,-0.315508,0.429585,0.167139,0.871625,36.781963,22.488510,11.901426,0.535978,2.072860,0.054794,0.000000,0.000000,0.000000,0.000000,0.000000,0.000000
11972717.000000,2.304095,-0.994627,-1.846914,-1.428206,-0.956976,1.720764,0.466299,-0.042952,-0.322704,-0.201319,-0.351768,-0.316816,0.434898,0.169157,0.625654,36.904949,22.242538,12.099791,0.542386,2.085677,0.021835,0.000000,0.000000,0.000000,0.000000,0.000000,0.000000
11972718.000000,2.304056,-0.994955,-1.847104,-1.428570,-0.957294,1.721211,0.466464,-0.042270,-0.325472,-0.200357,-0.352793,-0.318226,0.437084,0.167330,0.474897,36.980328,22.000534,12.345762,0.554288,2.039901,0.061202,0.000000,0.000000,0.000000,0.000000,0.000000,0.000000
11972719.000000,2.304025,-0.995278,-1.847296,-1.428927,-0.957613,1.721663,0.466640,-0.039614,-0.326311,-0.199227,-0.353880,-0.315048,0.436641,0.170667,0.228925,36.928753,21.754562,12.591734,0.578092,1.974899,-0.011124,0.000000,0.000000,0.000000,0.000000,0.000000,0.000000
11972720.000000,2.303995,-0.995601,-1.847483,-1.429298,-0.957921,1.722104,0.466801,-0.035283,-0.325808,-0.193082,-0.358120,-0.309858,0.435656,0.168899,0.006757,36.904949,21.532394,12.865477,0.530485,1.923629,0.028243,0.000000,0.000000,0.000000,0.000000,0.000000,0.000000
11972721.000000,2.303964,-0.995925,-1.847660,-1.429661,-0.958235,1.722551,0.466962,-0.036025,-0.326089,-0.187866,-0.359497,-0.312256,0.439809,0.167047,-0.167803,36.857342,21.286423,13.036070,0.512174,1.909896,0.074935,0.000000,0.000000,0.000000,0.000000,0.000000,0.000000
11972722.000000,2.303928,-0.996240,-1.847838,-1.430027,-0.958552,1.723001,0.467139,-0.034841,-0.319988,-0.184063,-0.363458,-0.308639,0.444578,0.165214,-0.290789,36.734356,21.064255,13.210630,0.494779,1.962081,0.021835,0.000000,0.000000,0.000000,0.000000,0.000000,0.000000
11972723.000000,2.303899,-0.996560,-1.848013,-1.430404,-0.958859,1.723436,0.467303,-0.033239,-0.318699,-0.180454,-0.366440,-0.313212,0.441837,0.160155,-0.441546,36.587566,20.794479,13.408995,0.458158,2.001449,0.061202,0.000000,0.000000,0.000000,0.000000,0.000000,0.000000
11972724.000000,2.303863,-0.996869,-1.848193,-1.430776,-0.959167,1.723889,0.467478,-0.034310,-0.317835,-0.177480,-0.369468,-0.310734,0.441734,0.159094,-0.489153,36.365398,20.647690,13.607359,0.458158,2.007858,0.028243,0.000000,0.000000,0.000000,0.000000,0.000000,0.000000
11972725.000000,2.303832,-0.997183,-1.848363,-1.431156,-0.959486,1.724330,0.467644,-0.034368,-0.316954,-0.172059,-0.371916,-0.313236,0.438742,0.158938,-0.564532,36.194805,20.377914,13.805723,0.452665,1.981307,0.054794,0.000000,0.000000,0.000000,0.000000,0.000000,0.000000
11972726.000000,2.303796,-0.997502,-1.848538,-1.431534,-0.959796,1.724774,0.467815,-0.035580,-0.317359,-0.171116,-0.368368,-0.314742,0.437753,0.162313,-0.564532,36.071819,20.231125,13.928709,0.434354,1.981307,0.028243,0.000000,0.000000,0.000000,0.000000,0.000000,0.000000
11972727.000000,2.303763,-0.997818,-1.848714,-1.431912,-0.960114,1.725216,0.467979,-0.035877,-0.311914,-0.173540,-0.370415,-0.312276,0.437004,0.162563,-0.588336,35.976604,20.108139,14.099302,0.464567,2.033492,0.034652,0.000000,0.000000,0.000000,0.000000,0.000000,0.000000
11972728.000000,2.303727,-0.998137,-1.848884,-1.432280,-0.960425,1.725665,0.468135,-0.036670,-0.312495,-0.172536,-0.364775,-0.314311,0.440214,0.158020,-0.588336,35.925030,19.985153,14.127073,0.458158,1.988631,0.074935,0.000000,0.000000,0.000000,0.000000,0.000000,0.000000
11972729.000000,2.303692,-0.998458,-1.849062,-1.432650,-0.960738,1.726116,0.468306,-0.037343,-0.317674,-0.173895,-0.371380,-0.313919,0.442486,0.157520,-0.588336,35.925030,19.961349,14.150877,0.405057,1.930038,0.021835,0.000000,0.000000,0.000000,0.000000,0.000000,0.000000
11972730.000000,2.303653,-0.998777,-1.849230,-1.433017,-0.961062,1.726562,0.468469,-0.037859,-0.318275,-0.172413,-0.365864,-0.315231,0.443385,0.160170,-0.564532,35.976604,19.838364,14.150877,0.410551,1.897079,0.034652,0.000000,0.000000,0.000000,0.000000,0.000000,0.000000
11972731.000000,2.303619,-0.999095,-1.849398,-1.433383,-0.961375,1.727003,0.468632,-0.037301,-0.317631,-0.173070,-0.366098,-0.316053,0.436879,0.161844,-0.588336,35.976604,19.790756,14.075499,0.386747,1.897079,0.034652,0.000000,0.000000,0.000000,0.000000,0.000000,0.000000
11972732.000000,2.303584,-0.999414,-1.849576,-1.433734,-0.961688,1.727440,0.468800,-0.037419,-0.316685,-0.172882,-0.361994,-0.316383,0.439830,0.164286,-0.588336,36.000408,19.739182,13.904905,0.356534,1.968490,0.021835,0.000000,0.000000,0.000000,0.000000,0.000000,0.000000
11972733.000000,2.303545,-0.999732,-1.849749,-1.434081,-0.962021,1.727882,0.468964,-0.038852,-0.320003,-0.173810,-0.361539,-0.319307,0.436560,0.166285,-0.540728,36.024212,19.715378,13.730345,0.393156,1.968490,-0.011124,0.000000,0.000000,0.000000,0.000000,0.000000,0.000000
11972734.000000,2.303506,-1.000039,-1.849929,-1.434440,-0.962343,1.728328,0.469114,-0.039686,-0.314782,-0.178433,-0.358691,-0.320644,0.433829,0.163486,-0.489153,35.829815,19.739182,13.678770,0.410551,1.930038,0.074935,0.000000,0.000000,0.000000,0.000000,0.000000,0.000000
11972735.000000,2.303470,-1.000344,-1.850101,-1.434778,-0.962670,1.728772,0.469275,-0.039278,-0.309307,-0.172593,-0.352884,-0.316203,0.443142,0.162509,-0.465350,35.607647,19.643967,13.484373,0.434354,1.897079,0.021835,0.000000,0.000000,0.000000,0.000000,0.000000,0.000000
11972736.000000,2.303426,-1.000646,-1.850284,-1.435127,-0.962990,1.729222,0.469439,-0.043169,-0.308290,-0.175667,-0.345917,-0.317838,0.440280,0.164126,-0.342364,35.337872,19.715378,13.333616,0.446256,1.825668,0.021835,0.000000,0.000000,0.000000,0.000000,0.000000,0.000000
11972737.000000,2.303387,-1.000961,-1.850462,-1.435463,-0.963325,1.729662,0.469601,-0.043452,-0.308516,-0.172196,-0.338434,-0.323729,0.437210,0.164351,-0.266986,35.167278,19.691574,13.186827,0.458158,1.800033,0.054794,0.000000,0.000000,0.000000,0.000000,0.000000,0.000000
11972738.000000,2.303342,-1.001275,-1.850641,-1.435800,-0.963664,1.730094,0.469767,-0.044711,-0.310523,-0.176763,-0.338538,-0.324197,0.430719,0.166360,-0.144000,35.020489,19.691574,13.012266,0.500272,1.877853,0.041976,0.000000,0.000000,0.000000,0.000000,0.000000,0.000000
11972739.000000,2.303300,-1.001584,-1.850814,-1.436134,-0.963988,1.730537,0.469931,-0.041757,-0.312666,-0.178688,-0.336097,-0.317866,0.432197,0.160854,-0.044818,34.849895,19.643967,12.865477,0.482877,1.877853,0.061202,0.000000,0.000000,0.000000,0.000000,0.000000,0.000000
11972740.000000,2.303259,-1.001901,-1.850992,-1.436452,-0.964316,1.730981,0.470105,-0.041098,-0.311936,-0.177362,-0.333309,-0.320063,0.441594,0.163022,0.006757,34.774517,19.616196,12.667112,0.416959,1.858627,0.001693,0.000000,0.000000,0.000000,0.000000,0.000000,0.000000
11972741.000000,2.303217,-1.002215,-1.851167,-1.436773,-0.964652,1.731417,0.470271,-0.040890,-0.314162,-0.178755,-0.326940,-0.326853,0.437151,0.159149,0.054365,34.627728,19.544785,12.444944,0.386747,1.851302,0.021835,0.000000,0.000000,0.000000,0.000000,0.000000,0.000000
11972742.000000,2.303181,-1.002534,-1.851349,-1.437075,-0.964991,1.731856,0.470432,-0.039672,-0.317694,-0.177813,-0.318457,-0.325525,0.435012,0.155730,0.054365,34.532513,19.520981,12.171202,0.386747,1.825668,0.054794,0.000000,0.000000,0.000000,0.000000,0.000000,0.000000
11972743.000000,2.303142,-1.002851,-1.851535,-1.437386,-0.965324,1.732289,0.470598,-0.039419,-0.318917,-0.180861,-0.316740,-0.328580,0.436703,0.160337,0.078168,34.457134,19.520981,11.949034,0.374845,1.825668,0.028243,0.000000,0.000000,0.000000,0.000000,0.000000,0.000000
11972744.000000,2.303100,-1.003164,-1.851718,-1.437686,-0.965667,1.732736,0.470763,-0.039934,-0.316080,-0.179297,-0.308157,-0.338033,0.432385,0.161663,0.129743,34.357952,19.497177,11.703062,0.422452,1.806442,0.041976,0.000000,0.000000,0.000000,0.000000,0.000000,0.000000
11972745.000000,2.303059,-1.003480,-1.851908,-1.437980,-0.966015,1.733186,0.470936,-0.040141,-0.312532,-0.182595,-0.306970,-0.340820,0.432418,0.164745,0.177350,34.334148,19.544785,11.528502,0.494779,1.760665,0.015426,0.000000,0.000000,0.000000,0.000000,0.000000,0.000000
11972746.000000,2.303023,-1.003804,-1.852093,-1.438279,-0.966356,1.733637,0.471095,-0.039019,-0.315651,-0.181688,-0.302256,-0.336175,0.436924,0.163655,0.177350,34.286541,19.568588,11.357908,0.506681,1.682845,0.048385,0.000000,0.000000,0.000000,0.000000,0.000000,0.000000
11972747.000000,2.302981,-1.004119,-1.852269,-1.438570,-0.966691,1.734091,0.471264,-0.039909,-0.317866,-0.181177,-0.305125,-0.337136,0.442256,0.165482,0.228925,34.211163,19.469406,11.234922,0.512174,1.656295,0.015426,0.000000,0.000000,0.000000,0.000000,0.000000,0.000000
11972748.000000,2.302942,-1.004436,-1.852453,-1.438866,-0.967030,1.734528,0.471427,-0.040187,-0.320303,-0.183231,-0.304672,-0.335279,0.447486,0.167862,0.276533,34.211163,19.469406,11.207151,0.464567,1.670028,0.054794,0.000000,0.000000,0.000000,0.000000,0.000000,0.000000
11972749.000000,2.302911,-1.004749,-1.852633,-1.439153,-0.967366,1.734973,0.471593,-0.037889,-0.311786,-0.181147,-0.300796,-0.335767,0.441643,0.164993,0.205121,34.064373,19.445602,11.060362,0.440763,1.741439,0.015426,0.000000,0.000000,0.000000,0.000000,0.000000,0.000000
11972750.000000,2.302883,-1.005073,-1.852819,-1.439429,-0.967706,1.735427,0.471755,-0.032185,-0.312457,-0.182356,-0.292633,-0.332213,0.440790,0.160828,0.105939,34.040569,19.421799,10.937376,0.440763,1.773483,0.015426,0.000000,0.000000,0.000000,0.000000,0.000000,0.000000
11972751.000000,2.302852,-1.005394,-1.852998,-1.439716,-0.968044,1.735871,0.471924,-0.032507,-0.313307,-0.182371,-0.290989,-0.335845,0.442382,0.165014,0.054365,33.893780,19.346420,10.885801,0.362943,1.741439,0.015426,0.000000,0.000000,0.000000,0.000000,0.000000,0.000000
11972752.000000,2.302821,-1.005717,-1.853188,-1.440002,-0.968390,1.736325,0.472093,-0.029275,-0.313033,-0.186051,-0.286902,-0.342118,0.442329,0.165995,-0.017047,33.822369,19.421799,10.838194,0.369352,1.702071,0.009017,0.000000,0.000000,0.000000,0.000000,0.000000,0.000000
11972753.000000,2.302793,-1.006040,-1.853368,-1.440281,-0.968739,1.736775,0.472260,-0.026254,-0.315231,-0.184170,-0.282155,-0.338888,0.446205,0.167124,-0.116229,33.770794,19.322617,10.861998,0.434354,1.649886,0.081344,0.000000,0.000000,0.000000,0.000000,0.000000,0.000000
11972754.000000,2.302771,-1.006364,-1.853558,-1.440557,-0.969075,1.737208,0.472438,-0.023238,-0.324598,-0.186718,-0.278741,-0.339298,0.440289,0.170484,-0.243182,33.699383,19.374191,10.786619,0.440763,1.643478,0.001693,0.000000,0.000000,0.000000,0.000000,0.000000,0.000000
11972755.000000,2.302741,-1.006691,-1.853744,-1.440829,-0.969425,1.737646,0.472605,-0.023162,-0.323797,-0.183299,-0.274685,-0.344883,0.438982,0.167493,-0.290789,33.675579,19.346420,10.762815,0.464567,1.676437,0.074935,0.000000,0.000000,0.000000,0.000000,0.000000,0.000000
11972756.000000,2.302719,-1.007033,-1.853925,-1.441098,-0.969783,1.738076,0.472781,-0.021177,-0.330520,-0.180692,-0.270710,-0.346342,0.430764,0.174098,-0.413775,33.770794,19.298813,10.691404,0.542386,1.689254,0.048385,0.000000,0.000000,0.000000,0.000000,0.000000,0.000000
11972757.000000,2.302700,-1.007366,-1.854104,-1.441375,-0.970121,1.738510,0.472960,-0.019453,-0.331921,-0.178582,-0.271290,-0.343734,0.432431,0.179065,-0.564532,33.822369,19.251205,10.639830,0.518583,1.670028,0.001693,0.000000,0.000000,0.000000,0.000000,0.000000,0.000000
11972758.000000,2.302680,-1.007703,-1.854285,-1.441647,-0.970456,1.738949,0.473126,-0.018967,-0.334660,-0.179754,-0.271967,-0.339264,0.439562,0.177962,-0.663714,33.969158,19.199631,10.592222,0.446256,1.597701,0.054794,0.000000,0.000000,0.000000,0.000000,0.000000,0.000000
11972759.000000,2.302665,-1.008045,-1.854467,-1.441915,-0.970800,1.739368,0.473306,-0.017760,-0.338457,-0.178079,-0.270669,-0.345697,0.432137,0.180778,-0.810504,34.064373,19.152023,10.493040,0.410551,1.572067,0.015426,0.000000,0.000000,0.000000,0.000000,0.000000,0.000000
11972760.000000,2.302651,-1.008381,-1.854651,-1.442184,-0.971141,1.739793,0.473480,-0.016340,-0.335718,-0.179894,-0.273913,-0.343722,0.428180,0.181457,-0.985064,34.163555,19.104416,10.417662,0.393156,1.605026,0.041976,0.000000,0.000000,0.000000,0.000000,0.000000,0.000000
11972761.000000,2.302633,-1.008720,-1.854836,-1.442458,-0.971483,1.740213,0.473654,-0.017643,-0.335671,-0.183887,-0.276187,-0.338061,0.425433,0.179668,-1.060443,34.163555,19.029037,10.342283,0.398649,1.649886,0.015426,0.000000,0.000000,0.000000,0.000000,0.000000,0.000000
11972762.000000,2.302617,-1.009055,-1.855019,-1.442729,-0.971825,1.740637,0.473823,-0.015300,-0.333384,-0.184435,-0.274926,-0.343840,0.420124,0.174855,-1.131854,34.163555,18.981430,10.270872,0.410551,1.630660,0.041976,0.000000,0.000000,0.000000,0.000000,0.000000,0.000000
11972763.000000,2.302603,-1.009391,-1.855215,-1.443009,-0.972173,1.741066,0.473996,-0.016045,-0.336948,-0.186806,-0.279008,-0.344238,0.421015,0.172854,-1.231036,34.139751,19.029037,10.270872,0.452665,1.630660,0.034652,0.000000,0.000000,0.000000,0.000000,0.000000,0.000000
11972764.000000,2.302584,-1.009737,-1.855397,-1.443297,-0.972522,1.741489,0.474165,-0.018421,-0.338258,-0.186418,-0.279254,-0.344680,0.422650,0.167008,-1.254840,34.163555,18.981430,10.318480,0.494779,1.611434,0.041976,0.000000,0.000000,0.000000,0.000000,0.000000,0.000000
11972765.000000,2.302570,-1.010079,-1.855578,-1.443573,-0.972857,1.741917,0.474339,-0.018846,-0.340921,-0.181693,-0.283352,-0.346312,0.418930,0.167828,-1.330218,34.238934,18.882248,10.318480,0.458158,1.584884,0.021835,0.000000,0.000000,0.000000,0.000000,0.000000,0.000000
11972766.000000,2.302556,-1.010438,-1.855766,-1.443857,-0.973205,1.742338,0.474513,-0.019131,-0.343191,-0.180910,-0.284154,-0.343498,0.425943,0.175419,-1.405596,34.385723,18.906052,10.294676,0.446256,1.597701,0.034652,0.000000,0.000000,0.000000,0.000000,0.000000,0.000000
11972767.000000,2.302540,-1.010784,-1.855949,-1.444139,-0.973550,1.742770,0.474685,-0.020018,-0.341590,-0.182987,-0.283349,-0.348214,0.423520,0.172845,-1.453204,34.504742,18.906052,10.219297,0.464567,1.624252,0.041976,0.000000,0.000000,0.000000,0.000000,0.000000,0.000000
11972768.000000,2.302521,-1.011139,-1.856140,-1.444423,-0.973883,1.743201,0.474859,-0.021817,-0.347049,-0.181032,-0.286814,-0.338406,0.424561,0.167935,-1.453204,34.651531,18.906052,10.294676,0.386747,1.611434,0.009017,0.000000,0.000000,0.000000,0.000000,0.000000,0.000000
11972769.000000,2.302501,-1.011501,-1.856331,-1.444709,-0.974231,1.743636,0.475021,-0.021023,-0.348552,-0.183698,-0.283444,-0.342037,0.426895,0.161672,-1.405596,34.826092,18.929855,10.270872,0.339139,1.539108,0.061202,0.000000,0.000000,0.000000,0.000000,0.000000,0.000000
11972770.000000,2.302477,-1.011853,-1.856523,-1.444990,-0.974583,1.744069,0.475196,-0.023956,-0.353909,-0.186685,-0.281308,-0.342917,0.425219,0.163916,-1.330218,35.020489,19.005234,10.243101,0.369352,1.513473,0.028243,0.000000,0.000000,0.000000,0.000000,0.000000,0.000000
11972771.000000,2.302455,-1.012223,-1.856713,-1.445270,-0.974930,1.744497,0.475357,-0.025282,-0.359098,-0.187370,-0.281861,-0.342210,0.432170,0.163618,-1.282611,35.290264,19.029037,10.318480,0.381254,1.487838,0.074935,0.000000,0.000000,0.000000,0.000000,0.000000,0.000000
11972772.000000,2.302427,-1.012577,-1.856905,-1.445556,-0.975274,1.744913,0.475527,-0.031431,-0.358172,-0.184926,-0.280357,-0.348057,0.427324,0.166236,-1.131854,35.484661,19.052841,10.342283,0.428861,1.546432,0.048385,0.000000,0.000000,0.000000,0.000000,0.000000,0.000000
11972773.000000,2.302400,-1.012933,-1.857099,-1.445839,-0.975629,1.745343,0.475702,-0.031928,-0.359361,-0.187445,-0.281067,-0.346709,0.422166,0.167486,-1.032672,35.560040,19.128220,10.417662,0.446256,1.559249,0.009017,0.000000,0.000000,0.000000,0.000000,0.000000,0.000000
11972774.000000,2.302371,-1.013290,-1.857295,-1.446123,-0.975988,1.745768,0.475865,-0.029423,-0.356949,-0.186356,-0.283503,-0.350918,0.420384,0.166339,-0.909686,35.560040,19.199631,10.441465,0.488370,1.507064,0.054794,0.000000,0.000000,0.000000,0.000000,0.000000,0.000000
11972775.000000,2.302343,-1.013642,-1.857491,-1.446412,-0.976331,1.746188,0.476035,-0.026943,-0.358431,-0.190161,-0.282054,-0.347474,0.409664,0.167940,-0.810504,35.508465,19.346420,10.465269,0.476469,1.539108,0.009017,0.000000,0.000000,0.000000,0.000000,0.000000,0.000000
11972776.000000,2.302309,-1.013993,-1.857688,-1.446695,-0.976679,1.746604,0.476196,-0.030579,-0.357165,-0.193302,-0.281350,-0.346820,0.413176,0.169728,-0.612139,35.361675,19.397995,10.493040,0.410551,1.597701,0.067611,0.000000,0.000000,0.000000,0.000000,0.000000,0.000000
11972777.000000,2.302274,-1.014346,-1.857885,-1.446977,-0.977028,1.747013,0.476363,-0.033040,-0.356975,-0.194381,-0.281496,-0.349277,0.415109,0.166887,-0.413775,35.238689,19.497177,10.441465,0.393156,1.630660,0.015426,0.000000,0.000000,0.000000,0.000000,0.000000,0.000000
11972778.000000,2.302242,-1.014696,-1.858082,-1.447262,-0.977379,1.747438,0.476524,-0.032561,-0.354617,-0.196243,-0.288200,-0.346979,0.412732,0.162194,-0.314593,35.119671,19.520981,10.441465,0.393156,1.637069,0.028243,0.000000,0.000000,0.000000,0.000000,0.000000,0.000000
11972779.000000,2.302207,-1.015050,-1.858292,-1.447549,-0.977730,1.747849,0.476679,-0.033798,-0.354634,-0.197419,-0.288364,-0.345550,0.416959,0.158070,-0.144000,35.020489,19.667770,10.441465,0.405057,1.656295,0.061202,0.000000,0.000000,0.000000,0.000000,0.000000,0.000000
11972780.000000,2.302165,-1.015401,-1.858498,-1.447837,-0.978083,1.748262,0.476846,-0.036673,-0.353763,-0.199680,-0.287817,-0.350020,0.412460,0.161376,0.105939,34.826092,19.739182,10.417662,0.434354,1.676437,0.048385,0.000000,0.000000,0.000000,0.000000,0.000000,0.000000
11972781.000000,2.302124,-1.015758,-1.858700,-1.448120,-0.978436,1.748676,0.477014,-0.040424,-0.356354,-0.200320,-0.286422,-0.349024,0.409888,0.162896,0.304304,34.798321,19.790756,10.342283,0.488370,1.708480,0.041976,0.000000,0.000000,0.000000,0.000000,0.000000,0.000000
11972782.000000,2.302089,-1.016125,-1.858909,-1.448404,-0.978782,1.749083,0.477181,-0.037642,-0.360680,-0.208801,-0.283066,-0.346738,0.406404,0.165707,0.403486,34.873699,19.937546,10.318480,0.494779,1.676437,0.015426,0.000000,0.000000,0.000000,0.000000,0.000000,0.000000
11972783.000000,2.302039,-1.016482,-1.859109,-1.448682,-0.979132,1.749493,0.477346,-0.043810,-0.358130,-0.207039,-0.286119,-0.350114,0.406317,0.164230,0.697065,34.897503,19.961349,10.195494,0.506681,1.649886,0.054794,0.000000,0.000000,0.000000,0.000000,0.000000,0.000000
11972784.000000,2.302002,-1.016847,-1.859319,-1.448958,-0.979484,1.749905,0.477514,-0.040525,-0.357431,-0.209812,-0.282238,-0.345434,0.411909,0.166686,0.796247,34.945110,20.036728,10.120115,0.470060,1.662704,0.028243,0.000000,0.000000,0.000000,0.000000,0.000000,0.000000
11972785.000000,2.301961,-1.017198,-1.859529,-1.449238,-0.979826,1.750309,0.477677,-0.038712,-0.351384,-0.212185,-0.281344,-0.342138,0.406172,0.162312,0.923200,34.873699,20.108139,10.143919,0.410551,1.649886,0.034652,0.000000,0.000000,0.000000,0.000000,0.000000,0.000000
11972786.000000,2.301919,-1.017557,-1.859737,-1.449509,-0.980179,1.750716,0.477846,-0.037883,-0.356671,-0.208830,-0.282381,-0.345566,0.406959,0.164897,1.069990,34.945110,20.108139,10.096312,0.381254,1.643478,0.015426,0.000000,0.000000,0.000000,0.000000,0.000000,0.000000
11972787.000000,2.301875,-1.017913,-1.859946,-1.449786,-0.980537,1.751111,0.478006,-0.040997,-0.354270,-0.206335,-0.277984,-0.343333,0.400584,0.164709,1.244550,34.873699,20.084335,10.096312,0.351041,1.695663,0.054794,0.000000,0.000000,0.000000,0.000000,0.000000,0.000000
11972788.000000,2.301836,-1.018255,-1.860158,-1.450060,-0.980891,1.751507,0.478173,-0.037829,-0.354085,-0.206117,-0.272355,-0.348571,0.394553,0.164991,1.315961,34.726910,20.131943,10.143919,0.381254,1.747848,0.074935,0.000000,0.000000,0.000000,0.000000,0.000000,0.000000
11972789.000000,2.301792,-1.018602,-1.860366,-1.450334,-0.981250,1.751906,0.478350,-0.039809,-0.347781,-0.204283,-0.274143,-0.347741,0.403342,0.174728,1.466718,34.480938,20.131943,10.171690,0.428861,1.773483,-0.023942,0.000000,0.000000,0.000000,0.000000,0.000000,0.000000
11972790.000000,2.301753,-1.018945,-1.860571,-1.450612,-0.981610,1.752309,0.478508,-0.037182,-0.350380,-0.206780,-0.273473,-0.352699,0.404500,0.169929,1.542096,34.334148,20.131943,10.270872,0.482877,1.806442,0.054794,0.000000,0.000000,0.000000,0.000000,0.000000,0.000000
11972791.000000,2.301708,-1.019295,-1.860780,-1.450876,-0.981972,1.752723,0.478681,-0.040030,-0.354474,-0.206046,-0.267113,-0.355183,0.402337,0.169871,1.688886,34.238934,20.159714,10.243101,0.518583,1.767074,0.028243,0.000000,0.000000,0.000000,0.000000,0.000000,0.000000
11972792.000000,2.301667,-1.019644,-1.860997,-1.451157,-0.982323,1.753129,0.478849,-0.040075,-0.351858,-0.209692,-0.268138,-0.349588,0.404653,0.170652,1.740461,34.115948,20.231125,10.318480,0.482877,1.735030,0.009017,0.000000,0.000000,0.000000,0.000000,0.000000,0.000000
11972793.000000,2.301635,-1.019998,-1.861206,-1.451421,-0.982674,1.753541,0.479012,-0.038430,-0.356861,-0.207491,-0.264087,-0.355176,0.403592,0.168436,1.712690,34.115948,20.231125,10.195494,0.446256,1.727706,0.048385,0.000000,0.000000,0.000000,0.000000,0.000000,0.000000
11972794.000000,2.301593,-1.020362,-1.861417,-1.451685,-0.983038,1.753951,0.479182,-0.037095,-0.360287,-0.207951,-0.263626,-0.355194,0.403615,0.173479,1.811872,34.163555,20.207321,10.171690,0.434354,1.747848,0.021835,0.000000,0.000000,0.000000,0.000000,0.000000,0.000000
11972795.000000,2.301560,-1.020726,-1.861628,-1.451950,-0.983397,1.754347,0.479345,-0.039021,-0.364568,-0.207024,-0.264251,-0.354746,0.401731,0.169448,1.788068,34.357952,20.231125,10.072508,0.386747,1.812850,0.067611,0.000000,0.000000,0.000000,0.000000,0.000000,0.000000
11972796.000000,2.301526,-1.021083,-1.861841,-1.452212,-0.983748,1.754758,0.479523,-0.039046,-0.359515,-0.208841,-0.270425,-0.355726,0.396744,0.171846,1.811872,34.409527,20.231125,9.997129,0.386747,1.851302,0.001693,0.000000,0.000000,0.000000,0.000000,0.000000,0.000000
11972797.000000,2.301494,-1.021444,-1.862052,-1.452484,-0.984110,1.755174,0.479691,-0.037318,-0.355998,-0.204508,-0.267674,-0.355674,0.403598,0.172630,1.764264,34.457134,20.254929,10.072508,0.374845,1.800033,0.034652,0.000000,0.000000,0.000000,0.000000,0.000000,0.000000
11972798.000000,2.301463,-1.021801,-1.862259,-1.452749,-0.984471,1.755597,0.479864,-0.037060,-0.354783,-0.205098,-0.269359,-0.357713,0.406047,0.176579,1.740461,34.433331,20.306503,10.048704,0.405057,1.721298,0.001693,0.000000,0.000000,0.000000,0.000000,0.000000,0.000000
11972799.000000,2.301433,-1.022166,-1.862471,-1.453016,-0.984834,1.756015,0.480028,-0.035934,-0.358017,-0.208363,-0.266691,-0.355749,0.402931,0.171414,1.688886,34.480938,20.377914,10.120115,0.470060,1.682845,0.067611,0.000000,0.000000,0.000000,0.000000,0.000000,0.000000
11972800.000000,2.301405,-1.022526,-1.862684,-1.453278,-0.985202,1.756419,0.480198,-0.032301,-0.362037,-0.214570,-0.262481,-0.363289,0.398686,0.171451,1.641279,34.457134,20.500900,10.120115,0.530485,1.695663,0.034652,0.000000,0.000000,0.000000,0.000000,0.000000,0.000000
11972801.000000,2.301381,-1.022877,-1.862895,-1.453543,-0.985566,1.756825,0.480364,-0.031815,-0.351777,-0.211949,-0.264735,-0.358648,0.398638,0.171404,1.565900,34.334148,20.552475,10.195494,0.566190,1.708480,0.015426,0.000000,0.000000,0.000000,0.000000,0.000000,0.000000
11972802.000000,2.301359,-1.023234,-1.863103,-1.453804,-0.985927,1.757233,0.480530,-0.028317,-0.353020,-0.208260,-0.262973,-0.356888,0.400664,0.169323,1.466718,34.262737,20.524704,10.270872,0.547880,1.760665,0.021835,0.000000,0.000000,0.000000,0.000000,0.000000,0.000000
11972803.000000,2.301339,-1.023590,-1.863309,-1.454071,-0.986275,1.757635,0.480698,-0.025082,-0.347532,-0.209634,-0.263425,-0.355119,0.396942,0.164944,1.343732,34.139751,20.524704,10.441465,0.488370,1.773483,0.015426,0.000000,0.000000,0.000000,0.000000,0.000000,0.000000
11972804.000000,2.301319,-1.023949,-1.863515,-1.454330,-0.986634,1.758032,0.480861,-0.023426,-0.351981,-0.202948,-0.264853,-0.352364,0.394491,0.164149,1.244550,34.163555,20.477097,10.516844,0.386747,1.793624,0.054794,0.000000,0.000000,0.000000,0.000000,0.000000,0.000000
11972805.000000,2.301308,-1.024315,-1.863726,-1.454600,-0.987005,1.758420,0.481029,-0.020328,-0.356023,-0.203867,-0.263814,-0.353733,0.390912,0.166924,1.069990,34.187359,20.524704,10.639830,0.374845,1.858627,-0.004716,0.000000,0.000000,0.000000,0.000000,0.000000,0.000000
11972806.000000,2.301292,-1.024672,-1.863926,-1.454874,-0.987375,1.758811,0.481189,-0.019956,-0.356287,-0.202651,-0.264485,-0.357303,0.387534,0.164666,0.970807,34.211163,20.500900,10.814390,0.422452,1.909896,0.048385,0.000000,0.000000,0.000000,0.000000,0.000000,0.000000
11972807.000000,2.301279,-1.025041,-1.864136,-1.455132,-0.987751,1.759202,0.481355,-0.015212,-0.360193,-0.202988,-0.262232,-0.367181,0.394478,0.168042,0.824018,34.310345,20.552475,10.885801,0.440763,1.916305,-0.004716,0.000000,0.000000,0.000000,0.000000,0.000000,0.000000
11972808.000000,2.301265,-1.025401,-1.864340,-1.455401,-0.988123,1.759594,0.481513,-0.013676,-0.359939,-0.205699,-0.263169,-0.373862,0.394235,0.161909,0.748639,34.385723,20.552475,10.961180,0.488370,1.890670,0.034652,0.000000,0.000000,0.000000,0.000000,0.000000,0.000000
11972809.000000,2.301256,-1.025764,-1.864549,-1.455681,-0.988502,1.760001,0.481671,-0.011069,-0.362287,-0.208241,-0.269202,-0.372336,0.395646,0.161952,0.625654,34.504742,20.576279,11.234922,0.554288,1.806442,0.074935,0.000000,0.000000,0.000000,0.000000,0.000000,0.000000
11972810.000000,2.301252,-1.026128,-1.864762,-1.455951,-0.988875,1.760392,0.481843,-0.007928,-0.362035,-0.210273,-0.269426,-0.371753,0.402210,0.167264,0.451093,34.480938,20.600082,11.334105,0.524076,1.754256,-0.004716,0.000000,0.000000,0.000000,0.000000,0.000000,0.000000
11972811.000000,2.301241,-1.026481,-1.864966,-1.456229,-0.989246,1.760784,0.482003,-0.008319,-0.360977,-0.209889,-0.272059,-0.368065,0.395051,0.163541,0.375715,34.409527,20.552475,11.405516,0.518583,1.806442,0.081344,0.000000,0.000000,0.000000,0.000000,0.000000,0.000000
11972812.000000,2.301242,-1.026848,-1.865172,-1.456508,-0.989618,1.761169,0.482172,-0.004741,-0.364879,-0.205733,-0.275558,-0.364943,0.395711,0.166710,0.153547,34.385723,20.477097,11.528502,0.506681,1.916305,0.041976,0.000000,0.000000,0.000000,0.000000,0.000000,0.000000
11972813.000000,2.301240,-1.027217,-1.865372,-1.456782,-0.989984,1.761549,0.482337,-0.000999,-0.364589,-0.203053,-0.276367,-0.365746,0.391728,0.166555,0.006757,34.433331,20.401718,11.603880,0.440763,1.988631,0.061202,0.000000,0.000000,0.000000,0.000000,0.000000,0.000000
11972814.000000,2.301236,-1.027575,-1.865570,-1.457055,-0.990363,1.761946,0.482507,0.000143,-0.366942,-0.200731,-0.280289,-0.369323,0.393786,0.167891,-0.068621,34.334148,20.306503,11.603880,0.452665,2.027084,0.041976,0.000000,0.000000,0.000000,0.000000,0.000000,0.000000
11972815.000000,2.301228,-1.027944,-1.865778,-1.457335,-0.990736,1.762344,0.482668,-0.002824,-0.365856,-0.202471,-0.280667,-0.365729,0.402021,0.162515,-0.116229,34.334148,20.354111,11.679258,0.440763,1.949264,0.074935,0.000000,0.000000,0.000000,0.000000,0.000000,0.000000
11972816.000000,2.301223,-1.028318,-1.865982,-1.457618,-0.991101,1.762750,0.482839,-0.004223,-0.372859,-0.202552,-0.279472,-0.360632,0.402819,0.165706,-0.191607,34.357952,20.354111,11.826048,0.464567,1.819259,0.034652,0.000000,0.000000,0.000000,0.000000,0.000000,0.000000
11972817.000000,2.301220,-1.028689,-1.866176,-1.457892,-0.991487,1.763152,0.483006,-0.004089,-0.376157,-0.199114,-0.274464,-0.367156,0.403877,0.161950,-0.314593,34.334148,20.231125,11.802244,0.524076,1.793624,0.034652,0.000000,0.000000,0.000000,0.000000,0.000000,0.000000
11972818.000000,2.301213,-1.029061,-1.866374,-1.458167,-0.991869,1.763538,0.483174,-0.005511,-0.376559,-0.202240,-0.274419,-0.370762,0.397847,0.163917,-0.366168,34.310345,20.183517,11.802244,0.559781,1.844894,0.034652,0.000000,0.000000,0.000000,0.000000,0.000000,0.000000
11972819.000000,2.301212,-1.029441,-1.866576,-1.458440,-0.992244,1.763922,0.483340,-0.002310,-0.379576,-0.201164,-0.274595,-0.373191,0.388224,0.160192,-0.465350,34.480938,20.131943,11.802244,0.578092,1.897079,0.021835,0.000000,0.000000,0.000000,0.000000,0.000000,0.000000
11972820.000000,2.301210,-1.029806,-1.866776,-1.458714,-0.992622,1.764317,0.483493,-0.002975,-0.375960,-0.199462,-0.272971,-0.377123,0.398319,0.160397,-0.564532,34.385723,20.060532,11.849852,0.559781,1.923629,0.081344,0.000000,0.000000,0.000000,0.000000,0.000000,0.000000
11972821.000000,2.301206,-1.030184,-1.866971,-1.458985,-0.992989,1.764719,0.483661,-0.004393,-0.379911,-0.199772,-0.270003,-0.374638,0.401172,0.160145,-0.635943,34.457134,20.036728,11.849852,0.488370,1.890670,0.028243,0.000000,0.000000,0.000000,0.000000,0.000000,0.000000
11972822.000000,2.301198,-1.030559,-1.867168,-1.459252,-0.993354,1.765123,0.483823,-0.003146,-0.382293,-0.197046,-0.269057,-0.372998,0.401277,0.157659,-0.663714,34.504742,20.036728,11.877623,0.422452,1.806442,0.034652,0.000000,0.000000,0.000000,0.000000,0.000000,0.000000
11972823.000000,2.301192,-1.030932,-1.867357,-1.459529,-0.993725,1.765521,0.483977,-0.004686,-0.381772,-0.192461,-0.268722,-0.369403,0.402442,0.156060,-0.711321,34.409527,19.913742,11.925230,0.410551,1.793624,0.034652,0.000000,0.000000,0.000000,0.000000,0.000000,0.000000
11972824.000000,2.301193,-1.031300,-1.867550,-1.459799,-0.994098,1.765915,0.484136,-0.004047,-0.375760,-0.193855,-0.266701,-0.372588,0.390793,0.154155,-0.834307,34.334148,19.862167,11.901426,0.434354,1.858627,0.041976,0.000000,0.000000,0.000000,0.000000,0.000000,0.000000
11972825.000000,2.301181,-1.031687,-1.867742,-1.460061,-0.994478,1.766307,0.484296,-0.007655,-0.378746,-0.194755,-0.264787,-0.370710,0.391275,0.158790,-0.786700,34.334148,19.814560,11.849852,0.494779,1.890670,0.081344,0.000000,0.000000,0.000000,0.000000,0.000000,0.000000
11972826.000000,2.301176,-1.032065,-1.867932,-1.460331,-0.994844,1.766699,0.484466,-0.008467,-0.374832,-0.191803,-0.264028,-0.375480,0.394705,0.163696,-0.810504,34.310345,19.739182,11.849852,0.512174,1.903487,0.028243,0.000000,0.000000,0.000000,0.000000,0.000000,0.000000
11972827.000000,2.301169,-1.032433,-1.868120,-1.460592,-0.995221,1.767105,0.484620,-0.009837,-0.373703,-0.189265,-0.263594,-0.375132,0.394008,0.157011,-0.810504,34.163555,19.643967,11.826048,0.482877,1.877853,0.107894,0.000000,0.000000,0.000000,0.000000,0.000000,0.000000
11972828.000000,2.301168,-1.032817,-1.868313,-1.460853,-0.995600,1.767512,0.484785,-0.006302,-0.371981,-0.188522,-0.262851,-0.374513,0.403444,0.157360,-0.862078,34.187359,19.592392,11.778440,0.458158,1.754256,0.067611,0.000000,0.000000,0.000000,0.000000,0.000000,0.000000
11972829.000000,2.301166,-1.033197,-1.868503,-1.461120,-0.995970,1.767913,0.484943,-0.006477,-0.377363,-0.185270,-0.265636,-0.370540,0.403802,0.158803,-0.909686,34.211163,19.568588,11.750669,0.452665,1.714889,0.100570,0.000000,0.000000,0.000000,0.000000,0.000000,0.000000
11972830.000000,2.301157,-1.033589,-1.868693,-1.461368,-0.996350,1.768308,0.485113,-0.006839,-0.381897,-0.188524,-0.261467,-0.375730,0.401568,0.159091,-0.834307,34.357952,19.544785,11.580076,0.428861,1.786300,0.034652,0.000000,0.000000,0.000000,0.000000,0.000000,0.000000
11972831.000000,2.301157,-1.033989,-1.868875,-1.461611,-0.996733,1.768695,0.485268,-0.003921,-0.391372,-0.187120,-0.254167,-0.372784,0.392798,0.155504,-0.885882,34.627728,19.469406,11.381712,0.458158,1.819259,0.074935,0.000000,0.000000,0.000000,0.000000,0.000000,0.000000
11972832.000000,2.301152,-1.034375,-1.869067,-1.461858,-0.997102,1.769095,0.485430,-0.003597,-0.392057,-0.188544,-0.256607,-0.374140,0.397011,0.158871,-0.862078,34.774517,19.497177,11.282530,0.458158,1.779891,0.074935,0.000000,0.000000,0.000000,0.000000,0.000000,0.000000
11972833.000000,2.301149,-1.034766,-1.869263,-1.462104,-0.997474,1.769512,0.485597,-0.003367,-0.393034,-0.192633,-0.251079,-0.376850,0.405939,0.157245,-0.834307,34.849895,19.520981,11.207151,0.393156,1.656295,0.061202,0.000000,0.000000,0.000000,0.000000,0.000000,0.000000
11972834.000000,2.301143,-1.035151,-1.869446,-1.462341,-0.997853,1.769914,0.485760,-0.004155,-0.389771,-0.189739,-0.244822,-0.378601,0.399326,0.154478,-0.762896,34.897503,19.421799,11.060362,0.428861,1.578475,0.074935,0.000000,0.000000,0.000000,0.000000,0.000000,0.000000
11972835.000000,2.301143,-1.035536,-1.869646,-1.462579,-0.998228,1.770309,0.485930,-0.002950,-0.389339,-0.191097,-0.241735,-0.374981,0.399901,0.158614,-0.762896,34.921307,19.497177,10.961180,0.458158,1.591293,0.041976,0.000000,0.000000,0.000000,0.000000,0.000000,0.000000
11972836.000000,2.301141,-1.035937,-1.869839,-1.462819,-0.998600,1.770691,0.486089,-0.002751,-0.391589,-0.193767,-0.239689,-0.375179,0.389491,0.158931,-0.735125,35.020489,19.497177,10.885801,0.452665,1.670028,0.087753,0.000000,0.000000,0.000000,0.000000,0.000000,0.000000
11972837.000000,2.301136,-1.036331,-1.870030,-1.463052,-0.998980,1.771084,0.486257,-0.004255,-0.388234,-0.194459,-0.234803,-0.376678,0.387091,0.162508,-0.635943,35.119671,19.445602,10.786619,0.476469,1.695663,0.048385,0.000000,0.000000,0.000000,0.000000,0.000000,0.000000
11972838.000000,2.301132,-1.036723,-1.870230,-1.463283,-0.999353,1.771474,0.486413,-0.004583,-0.387192,-0.192095,-0.236423,-0.374744,0.393774,0.165770,-0.564532,35.044292,19.544785,10.786619,0.434354,1.695663,0.081344,0.000000,0.000000,0.000000,0.000000,0.000000,0.000000
11972839.000000,2.301139,-1.037111,-1.870419,-1.463519,-0.999717,1.771874,0.486579,-0.000792,-0.390188,-0.191863,-0.234288,-0.380998,0.393720,0.168172,-0.663714,35.068096,19.568588,10.814390,0.386747,1.656295,0.041976,0.000000,0.000000,0.000000,0.000000,0.000000,0.000000
11972840.000000,2.301132,-1.037509,-1.870612,-1.463745,-1.000102,1.772275,0.486744,-0.002334,-0.390852,-0.190898,-0.231132,-0.384279,0.388512,0.162506,-0.588336,35.143475,19.568588,10.762815,0.356534,1.656295,0.048385,0.000000,0.000000,0.000000,0.000000,0.000000,0.000000
11972841.000000,2.301133,-1.037903,-1.870811,-1.463970,-1.000484,1.772658,0.486906,-0.001031,-0.385062,-0.194656,-0.229069,-0.377930,0.386430,0.162419,-0.612139,35.191082,19.616196,10.715208,0.356534,1.702071,0.100570,0.000000,0.000000,0.000000,0.000000,0.000000,0.000000
11972842.000000,2.301136,-1.038301,-1.871012,-1.464194,-1.000858,1.773057,0.487080,0.000495,-0.389660,-0.195484,-0.226731,-0.374938,0.384933,0.165680,-0.663714,35.337872,19.715378,10.639830,0.398649,1.727706,0.041976,0.000000,0.000000,0.000000,0.000000,0.000000,0.000000
11972843.000000,2.301136,-1.038697,-1.871210,-1.464418,-1.001243,1.773455,0.487240,0.000312,-0.388962,-0.197449,-0.225691,-0.379530,0.392003,0.168991,-0.663714,35.460857,19.766953,10.592222,0.393156,1.735030,0.081344,0.000000,0.000000,0.000000,0.000000,0.000000,0.000000
11972844.000000,2.301140,-1.039101,-1.871408,-1.464641,-1.001627,1.773848,0.487403,0.000751,-0.388830,-0.196221,-0.225842,-0.378964,0.393430,0.168959,-0.687518,35.607647,19.814560,10.592222,0.386747,1.670028,0.087753,0.000000,0.000000,0.000000,0.000000,0.000000,0.000000
11972845.000000,2.301146,-1.039489,-1.871614,-1.464854,-1.002014,1.774251,0.487574,0.002254,-0.391672,-0.199531,-0.223761,-0.379805,0.396705,0.169684,-0.762896,35.631451,19.913742,10.540648,0.416959,1.643478,0.048385,0.000000,0.000000,0.000000,0.000000,0.000000,0.000000
11972846.000000,2.301146,-1.039889,-1.871816,-1.465075,-1.002403,1.774649,0.487731,0.000845,-0.396826,-0.194478,-0.223546,-0.388681,0.401709,0.167914,-0.735125,35.631451,19.961349,10.493040,0.440763,1.617843,0.048385,0.000000,0.000000,0.000000,0.000000,0.000000,0.000000
11972847.000000,2.301156,-1.040276,-1.872011,-1.465295,-1.002792,1.775043,0.487892,0.006762,-0.385753,-0.196420,-0.223123,-0.390930,0.396098,0.166114,-0.862078,35.583843,19.985153,10.441465,0.452665,1.643478,0.081344,0.000000,0.000000,0.000000,0.000000,0.000000,0.000000
11972848.000000,2.301162,-1.040670,-1.872215,-1.465514,-1.003184,1.775436,0.488057,0.005887,-0.388903,-0.196264,-0.224787,-0.388664,0.395269,0.166480,-0.909686,35.508465,20.084335,10.465269,0.488370,1.721298,0.100570,0.000000,0.000000,0.000000,0.000000,0.000000,0.000000
11972849.000000,2.301163,-1.041063,-1.872413,-1.465729,-1.003569,1.775820,0.488224,0.003567,-0.386237,-0.202216,-0.221092,-0.389490,0.388860,0.163845,-0.885882,35.361675,20.084335,10.441465,0.458158,1.735030,0.041976,0.000000,0.000000,0.000000,0.000000,0.000000,0.000000
11972850.000000,2.301170,-1.041451,-1.872617,-1.465940,-1.003949,1.776208,0.488381,0.006482,-0.388408,-0.198805,-0.221955,-0.389700,0.380855,0.163120,-0.933489,35.214886,20.084335,10.342283,0.410551,1.702071,0.087753,0.000000,0.000000,0.000000,0.000000,0.000000,0.000000
11972851.000000,2.301177,-1.041844,-1.872821,-1.466162,-1.004339,1.776603,0.488545,0.005320,-0.385601,-0.199409,-0.219285,-0.385976,0.389238,0.161498,-0.961260,35.091900,20.084335,10.441465,0.405057,1.689254,0.048385,0.000000,0.000000,0.000000,0.000000,0.000000,0.000000
11972852.000000,2.301184,-1.042231,-1.873027,-1.466372,-1.004725,1.776982,0.488702,0.008252,-0.385726,-0.200874,-0.214001,-0.389851,0.387067,0.156999,-1.008868,35.020489,20.131943,10.417662,0.434354,1.727706,0.094161,0.000000,0.000000,0.000000,0.000000,0.000000,0.000000
11972853.000000,2.301184,-1.042629,-1.873232,-1.466580,-1.005113,1.777362,0.488866,0.004211,-0.390601,-0.202584,-0.210782,-0.389945,0.381839,0.156306,-0.933489,35.044292,20.084335,10.417662,0.393156,1.767074,0.054794,0.000000,0.000000,0.000000,0.000000,0.000000,0.000000
11972854.000000,2.301190,-1.043036,-1.873441,-1.466791,-1.005508,1.777735,0.489025,0.003163,-0.396762,-0.204495,-0.208116,-0.389753,0.380112,0.158542,-0.933489,35.167278,20.159714,10.417662,0.470060,1.741439,0.081344,0.000000,0.000000,0.000000,0.000000,0.000000,0.000000
11972855.000000,2.301199,-1.043432,-1.873650,-1.466999,-1.005888,1.778121,0.489192,0.003025,-0.391470,-0.205336,-0.205229,-0.387116,0.374681,0.160858,-0.961260,35.214886,20.231125,10.370054,0.482877,1.682845,0.067611,0.000000,0.000000,0.000000,0.000000,0.000000,0.000000
11972856.000000,2.301204,-1.043829,-1.873853,-1.467205,-1.006280,1.778497,0.489360,0.004262,-0.394225,-0.200164,-0.207970,-0.387920,0.376454,0.164314,-0.909686,35.266460,20.207321,10.393858,0.464567,1.676437,0.034652,0.000000,0.000000,0.000000,0.000000,0.000000,0.000000
11972857.000000,2.301207,-1.044225,-1.874052,-1.467414,-1.006665,1.778858,0.489518,0.002148,-0.399049,-0.198677,-0.208847,-0.396132,0.372441,0.162504,-0.862078,35.314068,20.131943,10.393858,0.446256,1.741439,0.107894,0.000000,0.000000,0.000000,0.000000,0.000000,0.000000
11972858.000000,2.301214,-1.044628,-1.874257,-1.467630,-1.007049,1.779238,0.489693,0.001098,-0.403976,-0.198535,-0.211678,-0.394669,0.371708,0.166979,-0.834307,35.385479,20.084335,10.465269,0.405057,1.760665,0.041976,0.000000,0.000000,0.000000,0.000000,0.000000,0.000000
11972859.000000,2.301225,-1.045030,-1.874469,-1.467840,-1.007443,1.779612,0.489853,0.004676,-0.402298,-0.200648,-0.209399,-0.393215,0.378191,0.166402,-0.862078,35.337872,20.131943,10.493040,0.351041,1.754256,0.074935,0.000000,0.000000,0.000000,0.000000,0.000000,0.000000
11972860.000000,2.301219,-1.045433,-1.874669,-1.468050,-1.007838,1.779981,0.490019,0.001985,-0.407181,-0.199924,-0.206950,-0.394803,0.371072,0.165470,-0.663714,35.484661,20.084335,10.493040,0.369352,1.760665,0.114303,0.000000,0.000000,0.000000,0.000000,0.000000,0.000000
11972861.000000,2.301217,-1.045836,-1.874883,-1.468264,-1.008225,1.780353,0.490194,-0.001623,-0.405392,-0.205009,-0.210976,-0.389094,0.374762,0.172511,-0.512957,35.484661,20.159714,10.592222,0.344633,1.832076,0.054794,0.000000,0.000000,0.000000,0.000000,0.000000,0.000000
11972862.000000,2.301214,-1.046246,-1.875088,-1.468477,-1.008620,1.780727,0.490361,-0.004080,-0.406961,-0.204585,-0.214900,-0.392038,0.374756,0.171407,-0.366168,35.583843,20.183517,10.616026,0.369352,1.812850,0.061202,0.000000,0.000000,0.000000,0.000000,0.000000,0.000000
11972863.000000,2.301217,-1.046663,-1.875296,-1.468687,-1.009027,1.781105,0.490534,-0.003600,-0.411783,-0.204805,-0.219814,-0.396011,0.367389,0.170438,-0.314593,35.778240,20.231125,10.639830,0.446256,1.747848,0.048385,0.000000,0.000000,0.000000,0.000000,0.000000,0.000000
11972864.000000,2.301208,-1.047081,-1.875503,-1.468900,-1.009419,1.781486,0.490688,-0.003509,-0.414177,-0.202447,-0.217951,-0.389375,0.378924,0.167726,-0.116229,36.024212,20.306503,10.639830,0.416959,1.754256,0.120712,0.000000,0.000000,0.000000,0.000000,0.000000,0.000000
11972865.000000,2.301200,-1.047493,-1.875709,-1.469115,-1.009814,1.781864,0.490865,-0.004758,-0.407349,-0.202375,-0.219935,-0.395183,0.375119,0.170845,0.006757,36.171001,20.330307,10.639830,0.398649,1.773483,0.048385,0.000000,0.000000,0.000000,0.000000,0.000000,0.000000
11972866.000000,2.301198,-1.047906,-1.875915,-1.469330,-1.010216,1.782244,0.491026,-0.003943,-0.415121,-0.198382,-0.218538,-0.391300,0.375052,0.167963,0.054365,36.293987,20.330307,10.639830,0.410551,1.735030,0.114303,0.000000,0.000000,0.000000,0.000000,0.000000,0.000000
11972867.000000,2.301194,-1.048323,-1.876120,-1.469550,-1.010609,1.782625,0.491194,-0.002928,-0.414017,-0.202308,-0.217407,-0.387749,0.376912,0.166032,0.078168,36.365398,20.377914,10.663633,0.410551,1.649886,0.054794,0.000000,0.000000,0.000000,0.000000,0.000000,0.000000
11972868.000000,2.301186,-1.048731,-1.876329,-1.469751,-1.010999,1.782999,0.491356,-0.003522,-0.414291,-0.203241,-0.218041,-0.389138,0.372362,0.165921,0.153547,36.488384,20.429489,10.516844,0.386747,1.695663,0.067611,0.000000,0.000000,0.000000,0.000000,0.000000,0.000000
11972869.000000,2.301175,-1.049144,-1.876543,-1.469970,-1.011399,1.783364,0.491518,-0.007016,-0.412329,-0.206474,-0.218051,-0.390677,0.374767,0.168492,0.228925,36.464581,20.477097,10.564451,0.393156,1.793624,0.100570,0.000000,0.000000,0.000000,0.000000,0.000000,0.000000
11972870.000000,2.301173,-1.049547,-1.876749,-1.470185,-1.011792,1.783730,0.491688,-0.004266,-0.408625,-0.203079,-0.216011,-0.388650,0.369716,0.169318,0.205121,36.416973,20.524704,10.540648,0.428861,1.786300,0.074935,0.000000,0.000000,0.000000,0.000000,0.000000,0.000000
11972871.000000,2.301166,-1.049964,-1.876963,-1.470398,-1.012190,1.784115,0.491859,-0.006565,-0.412762,-0.205645,-0.215556,-0.396472,0.368653,0.168653,0.228925,36.416973,20.671494,10.540648,0.464567,1.714889,0.074935,0.000000,0.000000,0.000000,0.000000,0.000000,0.000000
11972872.000000,2.301150,-1.050378,-1.877169,-1.470610,-1.012588,1.784483,0.492024,-0.008797,-0.411907,-0.205059,-0.215144,-0.394013,0.370762,0.168356,0.403486,36.488384,20.699265,10.540648,0.410551,1.721298,0.074935,0.000000,0.000000,0.000000,0.000000,0.000000,0.000000
11972873.000000,2.301144,-1.050790,-1.877379,-1.470825,-1.012976,1.784844,0.492190,-0.006674,-0.416013,-0.208758,-0.217906,-0.389678,0.363766,0.167712,0.427289,36.563763,20.770676,10.540648,0.398649,1.760665,0.087753,0.000000,0.000000,0.000000,0.000000,0.000000,0.000000
11972874.000000,2.301139,-1.051209,-1.877598,-1.471044,-1.013370,1.785214,0.492360,-0.004638,-0.418216,-0.206650,-0.216668,-0.394396,0.370344,0.172079,0.427289,36.710552,20.917465,10.663633,0.381254,1.806442,0.061202,0.000000,0.000000,0.000000,0.000000,0.000000,0.000000
11972875.000000,2.301130,-1.051624,-1.877809,-1.471247,-1.013770,1.785583,0.492523,-0.004997,-0.420558,-0.209682,-0.210686,-0.402334,0.366757,0.171550,0.502668,36.857342,20.992844,10.592222,0.381254,1.793624,0.048385,0.000000,0.000000,0.000000,0.000000,0.000000,0.000000
11972876.000000,2.301123,-1.052034,-1.878025,-1.471451,-1.014177,1.785947,0.492677,-0.007612,-0.416698,-0.209571,-0.208281,-0.400522,0.363075,0.168008,0.550275,36.952557,21.092026,10.592222,0.369352,1.806442,0.127120,0.000000,0.000000,0.000000,0.000000,0.000000,0.000000
11972877.000000,2.301120,-1.052446,-1.878259,-1.471662,-1.014578,1.786306,0.492846,-0.005410,-0.415714,-0.215935,-0.209633,-0.400431,0.373741,0.166167,0.550275,36.928753,21.337997,10.592222,0.398649,1.851302,0.067611,0.000000,0.000000,0.000000,0.000000,0.000000,0.000000
11972878.000000,2.301117,-1.052838,-1.878478,-1.471886,-1.014978,1.786679,0.493012,-0.004414,-0.412569,-0.214947,-0.215262,-0.399873,0.372852,0.161191,0.574079,36.758160,21.484787,10.786619,0.410551,1.838485,0.074935,0.000000,0.000000,0.000000,0.000000,0.000000,0.000000
11972879.000000,2.301110,-1.053244,-1.878697,-1.472087,-1.015385,1.787054,0.493182,-0.005451,-0.414343,-0.216489,-0.210307,-0.400573,0.368933,0.163007,0.673261,36.587566,21.607773,10.739012,0.470060,1.819259,0.048385,0.000000,0.000000,0.000000,0.000000,0.000000,0.000000
11972880.000000,2.301107,-1.053644,-1.878923,-1.472297,-1.015781,1.787409,0.493336,-0.003775,-0.408435,-0.220224,-0.212458,-0.401118,0.363289,0.156532,0.673261,36.440777,21.825974,10.814390,0.524076,1.871444,0.114303,0.000000,0.000000,0.000000,0.000000,0.000000,0.000000
11972881.000000,2.301103,-1.054052,-1.879140,-1.472509,-1.016181,1.787768,0.493506,-0.003829,-0.411895,-0.220903,-0.215452,-0.399187,0.356691,0.157400,0.724836,36.389202,21.825974,10.861998,0.512174,1.968490,0.041976,0.000000,0.000000,0.000000,0.000000,0.000000,0.000000
11972882.000000,2.301099,-1.054452,-1.879361,-1.472720,-1.016585,1.788129,0.493665,-0.003746,-0.409116,-0.222310,-0.214252,-0.398458,0.365027,0.157644,0.772443,36.218609,21.849777,10.838194,0.530485,2.014266,0.074935,0.000000,0.000000,0.000000,0.000000,0.000000,0.000000
11972883.000000,2.301096,-1.054862,-1.879586,-1.472928,-1.016966,1.788490,0.493827,-0.003763,-0.410893,-0.225948,-0.213284,-0.399469,0.360209,0.161055,0.824018,36.194805,21.972763,10.814390,0.452665,1.955673,0.054794,0.000000,0.000000,0.000000,0.000000,0.000000,0.000000
11972884.000000,2.301096,-1.055260,-1.879805,-1.473133,-1.017365,1.788860,0.493990,-0.002554,-0.409133,-0.222254,-0.214026,-0.396872,0.363476,0.162841,0.824018,36.048016,21.972763,10.838194,0.398649,1.936446,0.048385,0.000000,0.000000,0.000000,0.000000,0.000000,0.000000
11972885.000000,2.301096,-1.055670,-1.880031,-1.473346,-1.017767,1.789216,0.494148,-0.001736,-0.409827,-0.223351,-0.213457,-0.394022,0.359899,0.160955,0.824018,35.976604,22.119553,10.838194,0.440763,1.962081,0.114303,0.000000,0.000000,0.000000,0.000000,0.000000,0.000000
11972886.000000,2.301094,-1.056075,-1.880249,-1.473552,-1.018151,1.789571,0.494323,-0.001739,-0.409745,-0.221531,-0.209213,-0.394895,0.356172,0.161004,0.847822,35.976604,22.171127,10.786619,0.440763,2.001449,0.041976,0.000000,0.000000,0.000000,0.000000,0.000000,0.000000
11972887.000000,2.301092,-1.056481,-1.880460,-1.473758,-1.018558,1.789936,0.494481,-0.001735,-0.409096,-0.214683,-0.207274,-0.396037,0.362621,0.160804,0.871625,35.901226,22.119553,10.786619,0.470060,1.981307,0.100570,0.000000,0.000000,0.000000,0.000000,0.000000,0.000000
11972888.000000,2.301094,-1.056877,-1.880670,-1.473964,-1.018959,1.790295,0.494649,-0.001171,-0.417063,-0.214545,-0.204965,-0.397658,0.357209,0.163404,0.871625,35.853619,22.119553,10.762815,0.512174,1.968490,0.094161,0.000000,0.000000,0.000000,0.000000,0.000000,0.000000
11972889.000000,2.301097,-1.057289,-1.880892,-1.474177,-1.019356,1.790652,0.494823,-0.000234,-0.419294,-0.215747,-0.208543,-0.396695,0.355643,0.166640,0.847822,35.853619,22.194931,10.814390,0.506681,1.988631,0.034652,0.000000,0.000000,0.000000,0.000000,0.000000,0.000000
11972890.000000,2.301098,-1.057691,-1.881098,-1.474381,-1.019764,1.790999,0.494976,-0.000721,-0.415672,-0.212368,-0.205846,-0.398456,0.356635,0.164509,0.871625,35.730633,22.071945,10.786619,0.434354,2.014266,0.107894,0.000000,0.000000,0.000000,0.000000,0.000000,0.000000
11972891.000000,2.301104,-1.058085,-1.881311,-1.474583,-1.020169,1.791360,0.495146,0.001277,-0.406129,-0.212208,-0.201091,-0.399504,0.353579,0.167667,0.796247,35.508465,22.048141,10.762815,0.470060,2.053634,0.034652,0.000000,0.000000,0.000000,0.000000,0.000000,0.000000
11972892.000000,2.301111,-1.058488,-1.881526,-1.474782,-1.020566,1.791723,0.495301,0.005616,-0.407571,-0.214966,-0.201948,-0.396994,0.360002,0.166607,0.724836,35.460857,22.024338,10.786619,0.446256,2.066451,0.074935,0.000000,0.000000,0.000000,0.000000,0.000000,0.000000
11972893.000000,2.301112,-1.058888,-1.881733,-1.474988,-1.020970,1.792086,0.495469,0.003442,-0.405274,-0.213858,-0.205643,-0.408840,0.356523,0.168126,0.748639,35.337872,21.972763,10.838194,0.446256,2.001449,0.054794,0.000000,0.000000,0.000000,0.000000,0.000000,0.000000
11972894.000000,2.301108,-1.059292,-1.881928,-1.475187,-1.021384,1.792446,0.495629,0.000166,-0.405465,-0.206378,-0.201723,-0.407373,0.354822,0.163759,0.847822,35.266460,21.778366,10.861998,0.482877,2.007858,0.054794,0.000000,0.000000,0.000000,0.000000,0.000000,0.000000
11972895.000000,2.301113,-1.059704,-1.882132,-1.475388,-1.021793,1.792811,0.495787,0.003858,-0.403362,-0.205060,-0.203334,-0.409204,0.357365,0.160276,0.824018,35.214886,21.754562,10.937376,0.488370,1.988631,0.061202,0.000000,0.000000,0.000000,0.000000,0.000000,0.000000
11972896.000000,2.301119,-1.060111,-1.882327,-1.475583,-1.022201,1.793176,0.495952,0.002933,-0.406817,-0.204378,-0.202729,-0.410831,0.356754,0.158619,0.824018,35.314068,21.607773,10.937376,0.494779,1.955673,0.034652,0.000000,0.000000,0.000000,0.000000,0.000000,0.000000
11972897.000000,2.301123,-1.060529,-1.882527,-1.475779,-1.022609,1.793535,0.496105,0.001670,-0.414678,-0.201463,-0.198545,-0.406929,0.358440,0.158068,0.847822,35.413250,21.508591,10.913572,0.494779,1.988631,0.094161,0.000000,0.000000,0.000000,0.000000,0.000000,0.000000
11972898.000000,2.301133,-1.060947,-1.882722,-1.475978,-1.023010,1.793902,0.496264,0.005088,-0.417450,-0.203335,-0.199794,-0.403217,0.359925,0.157742,0.824018,35.536236,21.433212,10.961180,0.464567,2.020675,0.054794,0.000000,0.000000,0.000000,0.000000,0.000000,0.000000
11972899.000000,2.301145,-1.061359,-1.882913,-1.476165,-1.023407,1.794280,0.496424,0.008860,-0.416234,-0.200055,-0.198467,-0.404607,0.364534,0.158948,0.748639,35.607647,21.286423,10.937376,0.410551,1.942855,0.087753,0.000000,0.000000,0.000000,0.000000,0.000000,0.000000
11972900.000000,2.301151,-1.061778,-1.883111,-1.476352,-1.023814,1.794652,0.496588,0.008658,-0.415653,-0.199716,-0.195409,-0.405730,0.365731,0.161897,0.796247,35.754436,21.238815,10.913572,0.393156,1.890670,0.087753,0.000000,0.000000,0.000000,0.000000,0.000000,0.000000
11972901.000000,2.301163,-1.062192,-1.883301,-1.476538,-1.024207,1.795023,0.496756,0.010652,-0.419552,-0.195852,-0.194474,-0.399311,0.366853,0.164496,0.748639,35.802044,21.163437,10.814390,0.393156,1.865035,0.067611,0.000000,0.000000,0.000000,0.000000,0.000000,0.000000
11972902.000000,2.301178,-1.062614,-1.883494,-1.476727,-1.024617,1.795392,0.496916,0.012903,-0.420858,-0.193767,-0.193898,-0.404019,0.364353,0.158339,0.673261,35.925030,21.139633,10.838194,0.405057,1.832076,0.107894,0.000000,0.000000,0.000000,0.000000,0.000000,0.000000
11972903.000000,2.301191,-1.063041,-1.883673,-1.476913,-1.025027,1.795753,0.497090,0.013905,-0.420877,-0.194633,-0.189342,-0.404371,0.360790,0.161590,0.625654,36.000408,20.992844,10.838194,0.458158,1.838485,0.034652,0.000000,0.000000,0.000000,0.000000,0.000000,0.000000
11972904.000000,2.301199,-1.063450,-1.883856,-1.477097,-1.025414,1.796112,0.497252,0.012693,-0.419783,-0.191474,-0.186002,-0.396620,0.357186,0.156652,0.649457,36.000408,20.893661,10.838194,0.428861,1.851302,0.061202,0.000000,0.000000,0.000000,0.000000,0.000000,0.000000
11972905.000000,2.301216,-1.063861,-1.884043,-1.477274,-1.025817,1.796484,0.497416,0.014802,-0.415090,-0.188836,-0.184965,-0.399735,0.360095,0.162137,0.550275,35.901226,20.794479,10.762815,0.405057,1.800033,0.081344,0.000000,0.000000,0.000000,0.000000,0.000000,0.000000
11972906.000000,2.301233,-1.064267,-1.884221,-1.477461,-1.026215,1.796841,0.497577,0.012598,-0.424276,-0.186032,-0.185195,-0.409811,0.354405,0.165345,0.474897,35.853619,20.647690,10.739012,0.386747,1.779891,0.048385,0.000000,0.000000,0.000000,0.000000,0.000000,0.000000
11972907.000000,2.301252,-1.064684,-1.884410,-1.477639,-1.026612,1.797187,0.497734,0.014781,-0.420505,-0.183708,-0.179418,-0.404769,0.351364,0.162898,0.375715,35.901226,20.623886,10.715208,0.339139,1.838485,0.120712,0.000000,0.000000,0.000000,0.000000,0.000000,0.000000
11972908.000000,2.301262,-1.065103,-1.884599,-1.477815,-1.027023,1.797540,0.497913,0.013731,-0.422853,-0.188664,-0.177408,-0.406153,0.356985,0.170543,0.375715,36.048016,20.623886,10.663633,0.303434,1.871444,0.034652,0.000000,0.000000,0.000000,0.000000,0.000000,0.000000
11972909.000000,2.301283,-1.065512,-1.884782,-1.477985,-1.027426,1.797894,0.498068,0.016229,-0.420234,-0.187380,-0.174935,-0.405015,0.351794,0.162629,0.252729,36.024212,20.552475,10.564451,0.327238,1.858627,0.100570,0.000000,0.000000,0.000000,0.000000,0.000000,0.000000
11972910.000000,2.301307,-1.065925,-1.884968,-1.478160,-1.027823,1.798249,0.498240,0.019422,-0.420206,-0.185339,-0.174482,-0.396888,0.351480,0.169390,0.054365,35.976604,20.576279,10.516844,0.308927,1.819259,0.048385,0.000000,0.000000,0.000000,0.000000,0.000000,0.000000
11972911.000000,2.301321,-1.066339,-1.885150,-1.478335,-1.028227,1.798605,0.498395,0.017744,-0.419941,-0.185324,-0.174337,-0.401545,0.353723,0.162815,0.030561,35.901226,20.524704,10.493040,0.303434,1.767074,0.094161,0.000000,0.000000,0.000000,0.000000,0.000000,0.000000
11972912.000000,2.301334,-1.066740,-1.885332,-1.478498,-1.028643,1.798963,0.498559,0.015074,-0.420595,-0.185311,-0.172130,-0.406262,0.352843,0.160359,0.054365,35.754436,20.477097,10.370054,0.332731,1.779891,0.081344,0.000000,0.000000,0.000000,0.000000,0.000000,0.000000
11972913.000000,2.301367,-1.067150,-1.885525,-1.478674,-1.029056,1.799318,0.498720,0.019827,-0.414267,-0.190816,-0.171586,-0.408340,0.353392,0.158708,-0.191607,35.560040,20.524704,10.417662,0.339139,1.819259,0.067611,0.000000,0.000000,0.000000,0.000000,0.000000,0.000000
11972914.000000,2.301390,-1.067548,-1.885710,-1.478836,-1.029478,1.799671,0.498887,0.019263,-0.415338,-0.189348,-0.170023,-0.416912,0.353667,0.161047,-0.266986,35.290264,20.477097,10.294676,0.398649,1.793624,0.054794,0.000000,0.000000,0.000000,0.000000,0.000000,0.000000
11972915.000000,2.301405,-1.067948,-1.885889,-1.479000,-1.029895,1.800027,0.499053,0.017122,-0.410448,-0.184959,-0.167079,-0.416274,0.352070,0.161745,-0.266986,34.972881,20.306503,10.219297,0.398649,1.825668,0.061202,0.000000,0.000000,0.000000,0.000000,0.000000,0.000000
11972916.000000,2.301433,-1.068357,-1.886080,-1.479166,-1.030307,1.800374,0.499212,0.022099,-0.410170,-0.192166,-0.165752,-0.410771,0.350550,0.161180,-0.413775,34.849895,20.330307,10.195494,0.386747,1.877853,0.107894,0.000000,0.000000,0.000000,0.000000,0.000000,0.000000
11972917.000000,2.301449,-1.068763,-1.886271,-1.479328,-1.030719,1.800738,0.499387,0.022361,-0.410817,-0.194776,-0.166996,-0.415446,0.349766,0.165723,-0.413775,34.774517,20.330307,10.171690,0.351041,1.786300,0.034652,0.000000,0.000000,0.000000,0.000000,0.000000,0.000000
11972918.000000,2.301467,-1.069177,-1.886459,-1.479482,-1.031139,1.801105,0.499544,0.022733,-0.412841,-0.188681,-0.161937,-0.414649,0.362060,0.162922,-0.413775,34.798321,20.254929,10.120115,0.351041,1.760665,0.094161,0.000000,0.000000,0.000000,0.000000,0.000000,0.000000
11972919.000000,2.301493,-1.069590,-1.886649,-1.479641,-1.031550,1.801464,0.499711,0.021857,-0.410650,-0.186424,-0.159573,-0.409983,0.355592,0.160375,-0.512957,34.873699,20.278732,10.120115,0.344633,1.754256,0.067611,0.000000,0.000000,0.000000,0.000000,0.000000,0.000000
11972920.000000,2.301512,-1.070002,-1.886831,-1.479798,-1.031972,1.801825,0.499877,0.022194,-0.420139,-0.184793,-0.157771,-0.415361,0.351432,0.163280,-0.512957,34.945110,20.183517,10.120115,0.320829,1.735030,0.034652,0.000000,0.000000,0.000000,0.000000,0.000000,0.000000
11972921.000000,2.301533,-1.070426,-1.887021,-1.479955,-1.032391,1.802168,0.500028,0.023171,-0.419619,-0.189794,-0.155932,-0.410884,0.355694,0.158070,-0.540728,35.044292,20.207321,10.120115,0.315336,1.793624,0.087753,0.000000,0.000000,0.000000,0.000000,0.000000,0.000000
11972922.000000,2.301554,-1.070833,-1.887214,-1.480112,-1.032801,1.802526,0.500196,0.020799,-0.417959,-0.192892,-0.157812,-0.409002,0.354030,0.161952,-0.564532,35.020489,20.207321,10.120115,0.356534,1.806442,0.054794,0.000000,0.000000,0.000000,0.000000,0.000000,0.000000
11972923.000000,2.301572,-1.071251,-1.887411,-1.480264,-1.033225,1.802890,0.500352,0.017885,-0.413555,-0.192871,-0.152929,-0.410509,0.362593,0.165900,-0.540728,35.044292,20.254929,10.120115,0.369352,1.741439,0.094161,0.000000,0.000000,0.000000,0.000000,0.000000,0.000000
11972924.000000,2.301589,-1.071660,-1.887602,-1.480417,-1.033643,1.803237,0.500517,0.018461,-0.421104,-0.191397,-0.152629,-0.423024,0.356137,0.164472,-0.489153,35.044292,20.231125,10.143919,0.362943,1.727706,0.034652,0.000000,0.000000,0.000000,0.000000,0.000000,0.000000
11972925.000000,2.301609,-1.072071,-1.887789,-1.480575,-1.034063,1.803593,0.500672,0.019998,-0.415561,-0.188382,-0.153889,-0.421951,0.349869,0.159120,-0.489153,34.945110,20.131943,10.219297,0.386747,1.747848,0.067611,0.000000,0.000000,0.000000,0.000000,0.000000,0.000000
11972926.000000,2.301628,-1.072494,-1.887985,-1.480728,-1.034488,1.803941,0.500830,0.020300,-0.420589,-0.191591,-0.155598,-0.422836,0.352535,0.158422,-0.441546,35.020489,20.108139,10.195494,0.339139,1.760665,0.034652,0.000000,0.000000,0.000000,0.000000,0.000000,0.000000
11972927.000000,2.301646,-1.072911,-1.888174,-1.480884,-1.034907,1.804298,0.500981,0.021021,-0.417735,-0.187961,-0.154462,-0.421330,0.353206,0.153419,-0.413775,35.091900,20.108139,10.195494,0.351041,1.727706,0.094161,0.000000,0.000000,0.000000,0.000000,0.000000,0.000000
11972928.000000,2.301660,-1.073345,-1.888362,-1.481035,-1.035328,1.804652,0.501132,0.016944,-0.424797,-0.187937,-0.152942,-0.420242,0.355328,0.156461,-0.314593,35.314068,20.108139,10.171690,0.381254,1.727706,0.100570,0.000000,0.000000,0.000000,0.000000,0.000000,0.000000
11972929.000000,2.301672,-1.073773,-1.888547,-1.481189,-1.035746,1.805000,0.501289,0.013403,-0.421435,-0.187739,-0.152768,-0.421589,0.353464,0.156393,-0.191607,35.385479,20.084335,10.195494,0.327238,1.754256,0.061202,0.000000,0.000000,0.000000,0.000000,0.000000,0.000000
11972930.000000,2.301684,-1.074209,-1.888739,-1.481341,-1.036166,1.805353,0.501443,0.014492,-0.431427,-0.188878,-0.152485,-0.414654,0.349662,0.154233,-0.092425,35.631451,20.108139,10.195494,0.308927,1.735030,0.081344,0.000000,0.000000,0.000000,0.000000,0.000000,0.000000
11972931.000000,2.301710,-1.074643,-1.888928,-1.481491,-1.036590,1.805703,0.501600,0.020000,-0.431892,-0.188420,-0.152741,-0.420746,0.349653,0.154243,-0.191607,35.829815,20.084335,10.096312,0.351041,1.702071,0.061202,0.000000,0.000000,0.000000,0.000000,0.000000,0.000000
11972932.000000,2.301724,-1.075078,-1.889119,-1.481640,-1.037005,1.806054,0.501756,0.019706,-0.434721,-0.187326,-0.150224,-0.417798,0.350851,0.152872,-0.116229,36.024212,20.159714,9.997129,0.303434,1.682845,0.067611,0.000000,0.000000,0.000000,0.000000,0.000000,0.000000
11972933.000000,2.301738,-1.075508,-1.889305,-1.481786,-1.037421,1.806405,0.501913,0.019628,-0.432250,-0.185962,-0.148265,-0.417474,0.346346,0.156982,-0.044818,36.048016,20.108139,9.897947,0.308927,1.702071,0.074935,0.000000,0.000000,0.000000,0.000000,0.000000,0.000000
11972934.000000,2.301758,-1.075937,-1.889504,-1.481942,-1.037836,1.806752,0.502064,0.021603,-0.429251,-0.189802,-0.150336,-0.418022,0.344289,0.160260,-0.044818,36.000408,20.278732,9.949522,0.320829,1.682845,0.074935,0.000000,0.000000,0.000000,0.000000,0.000000,0.000000
11972935.000000,2.301771,-1.076365,-1.889694,-1.482089,-1.038247,1.807100,0.502220,0.020995,-0.428593,-0.189361,-0.150412,-0.416125,0.342361,0.157015,0.030561,36.071819,20.278732,9.850340,0.285123,1.656295,0.074935,0.000000,0.000000,0.000000,0.000000,0.000000,0.000000
11972936.000000,2.301787,-1.076812,-1.889886,-1.482236,-1.038671,1.807445,0.502375,0.021454,-0.432194,-0.190204,-0.147930,-0.411746,0.344882,0.161530,0.078168,36.270184,20.330307,9.727354,0.320829,1.714889,0.041976,0.000000,0.000000,0.000000,0.000000,0.000000,0.000000
11972937.000000,2.301810,-1.077246,-1.890083,-1.482391,-1.039079,1.807785,0.502524,0.020772,-0.441342,-0.193089,-0.147112,-0.412656,0.341546,0.156258,0.030561,36.416973,20.477097,9.774961,0.315336,1.747848,0.107894,0.000000,0.000000,0.000000,0.000000,0.000000,0.000000
11972938.000000,2.301827,-1.077690,-1.890274,-1.482540,-1.039500,1.808134,0.502690,0.021316,-0.441817,-0.192486,-0.148317,-0.407906,0.341839,0.156881,0.054365,36.611370,20.524704,9.774961,0.291532,1.708480,0.028243,0.000000,0.000000,0.000000,0.000000,0.000000,0.000000
11972939.000000,2.301839,-1.078121,-1.890476,-1.482689,-1.039918,1.808483,0.502844,0.017074,-0.438878,-0.197266,-0.145918,-0.409684,0.352165,0.155102,0.153547,36.658978,20.647690,9.774961,0.279630,1.670028,0.094161,0.000000,0.000000,0.000000,0.000000,0.000000,0.000000
11972940.000000,2.301866,-1.078554,-1.890684,-1.482840,-1.040328,1.808833,0.502996,0.020936,-0.440780,-0.201298,-0.145083,-0.410872,0.348097,0.153661,0.078168,36.734356,20.794479,9.822569,0.267728,1.656295,0.100570,0.000000,0.000000,0.000000,0.000000,0.000000,0.000000
11972941.000000,2.301888,-1.078984,-1.890890,-1.482981,-1.040754,1.809177,0.503146,0.019379,-0.439522,-0.205453,-0.144773,-0.412840,0.350555,0.155355,0.054365,36.734356,20.869858,9.751158,0.308927,1.676437,0.127120,0.000000,0.000000,0.000000,0.000000,0.000000,0.000000
11972942.000000,2.301905,-1.079408,-1.891096,-1.483131,-1.041174,1.809504,0.503304,0.020292,-0.440855,-0.206344,-0.146550,-0.422041,0.344115,0.157072,0.078168,36.635174,20.969040,9.774961,0.344633,1.754256,0.054794,0.000000,0.000000,0.000000,0.000000,0.000000,0.000000
11972943.000000,2.301930,-1.079833,-1.891311,-1.483281,-1.041593,1.809839,0.503458,0.023031,-0.438942,-0.208000,-0.146334,-0.420058,0.339579,0.155229,0.006757,36.488384,21.115829,9.850340,0.339139,1.819259,0.041976,0.000000,0.000000,0.000000,0.000000,0.000000,0.000000
11972944.000000,2.301949,-1.080268,-1.891513,-1.483427,-1.042025,1.810183,0.503605,0.022960,-0.437476,-0.205693,-0.144768,-0.419828,0.342316,0.154880,0.030561,36.416973,21.115829,9.874144,0.381254,1.793624,0.094161,0.000000,0.000000,0.000000,0.000000,0.000000,0.000000
11972945.000000,2.301975,-1.080692,-1.891722,-1.483575,-1.042437,1.810518,0.503764,0.024743,-0.436348,-0.207197,-0.146664,-0.418008,0.336491,0.159820,-0.017047,36.317791,21.238815,9.897947,0.362943,1.786300,0.048385,0.000000,0.000000,0.000000,0.000000,0.000000,0.000000
11972946.000000,2.301995,-1.081129,-1.891932,-1.483723,-1.042856,1.810851,0.503914,0.024738,-0.430542,-0.207262,-0.148750,-0.419213,0.341048,0.158785,-0.017047,36.270184,21.337997,9.949522,0.303434,1.832076,0.100570,0.000000,0.000000,0.000000,0.000000,0.000000,0.000000
11972947.000000,2.302011,-1.081570,-1.892134,-1.483872,-1.043287,1.811184,0.504080,0.022998,-0.434970,-0.204722,-0.148786,-0.427291,0.333806,0.159399,0.054365,36.293987,21.310226,9.949522,0.285123,1.890670,0.028243,0.000000,0.000000,0.000000,0.000000,0.000000,0.000000
11972948.000000,2.302039,-1.082005,-1.892349,-1.484019,-1.043713,1.811525,0.504236,0.025341,-0.434716,-0.205806,-0.149057,-0.429803,0.329085,0.156148,-0.017047,36.341595,21.409409,9.973326,0.297025,1.916305,0.048385,0.000000,0.000000,0.000000,0.000000,0.000000,0.000000
11972949.000000,2.302058,-1.082444,-1.892562,-1.484159,-1.044144,1.811866,0.504386,0.020864,-0.435899,-0.206331,-0.145104,-0.434464,0.334500,0.153363,0.030561,36.365398,21.484787,9.921751,0.279630,1.890670,0.087753,0.000000,0.000000,0.000000,0.000000,0.000000,0.000000
11972950.000000,2.302073,-1.082869,-1.892777,-1.484311,-1.044574,1.812208,0.504548,0.019698,-0.432330,-0.207035,-0.148341,-0.436012,0.336010,0.153568,0.129743,36.293987,21.580002,9.997129,0.315336,1.865035,0.048385,0.000000,0.000000,0.000000,0.000000,0.000000,0.000000
11972951.000000,2.302090,-1.083313,-1.892990,-1.484460,-1.045001,1.812553,0.504698,0.019298,-0.438114,-0.206481,-0.148621,-0.427743,0.336438,0.150553,0.205121,36.341595,21.655380,10.120115,0.351041,1.851302,0.087753,0.000000,0.000000,0.000000,0.000000,0.000000,0.000000
11972952.000000,2.302109,-1.083744,-1.893203,-1.484608,-1.045439,1.812891,0.504854,0.019766,-0.432359,-0.209257,-0.149871,-0.430531,0.336197,0.151644,0.252729,36.194805,21.754562,10.171690,0.381254,1.851302,0.041976,0.000000,0.000000,0.000000,0.000000,0.000000,0.000000
11972953.000000,2.302124,-1.084176,-1.893404,-1.484755,-1.045869,1.813228,0.505003,0.019693,-0.432852,-0.208048,-0.146099,-0.426917,0.334084,0.149563,0.328107,36.095623,21.679184,10.143919,0.386747,1.877853,0.074935,0.000000,0.000000,0.000000,0.000000,0.000000,0.000000
11972954.000000,2.302139,-1.084604,-1.893615,-1.484900,-1.046301,1.813569,0.505164,0.016052,-0.427531,-0.207656,-0.147770,-0.426876,0.338317,0.153905,0.427289,35.925030,21.754562,10.171690,0.369352,1.955673,0.054794,0.000000,0.000000,0.000000,0.000000,0.000000,0.000000
11972955.000000,2.302157,-1.085034,-1.893818,-1.485047,-1.046736,1.813904,0.505319,0.017785,-0.427955,-0.205259,-0.146334,-0.427615,0.336338,0.152282,0.474897,35.829815,21.726791,10.219297,0.339139,2.001449,0.061202,0.000000,0.000000,0.000000,0.000000,0.000000,0.000000
