chaoyuefei/paper-gmrm-data/robot_logs/s2_dq_mrm_max_0.50_log_20260314_174849.csv
# time_ms,q_0,q_1,q_2,q_3,q_4,q_5,q_6,dq_0,dq_1,dq_2,dq_3,dq_4,dq_5,dq_6,tau_J_0,tau_J_1,tau_J_2,tau_J_3,tau_J_4,tau_J_5,tau_J_6,O_dP_EE_c_0,O_dP_EE_c_1,O_dP_EE_c_2,O_dP_EE_c_3,O_dP_EE_c_4,O_dP_EE_c_5
13191045.000000,2.312755,-0.964742,-1.819528,-1.386103,-0.927556,1.665506,0.447533,0.000662,-0.000049,0.000646,-0.000433,0.000702,-0.000351,0.000712,-0.017047,35.536236,19.667770,12.171202,0.996488,1.383468,-0.163102,0.000000,0.000000,0.000000,0.000000,0.000000,0.000000
13191046.000000,2.312752,-0.964739,-1.819531,-1.386103,-0.927556,1.665506,0.447536,-0.000672,0.000617,-0.000683,0.000268,0.000264,0.000003,0.000475,0.030561,35.508465,19.715378,12.147398,1.001981,1.377059,-0.163102,0.000000,0.000000,0.000000,0.000000,0.000000,0.000000
13191047.000000,2.312754,-0.964737,-1.819530,-1.386104,-0.927557,1.665507,0.447530,0.000109,0.000968,0.000102,0.000179,-0.000061,0.000240,-0.000904,0.006757,35.484661,19.691574,12.147398,1.008390,1.370651,-0.130143,0.000000,0.000000,0.000000,0.000000,0.000000,0.000000
13191048.000000,2.312754,-0.964743,-1.819532,-1.386104,-0.927557,1.665505,0.447535,0.000072,-0.000561,0.000068,0.000119,-0.000041,-0.000315,0.000109,0.006757,35.536236,19.691574,12.147398,1.008390,1.383468,-0.149369,0.000000,0.000000,0.000000,0.000000,0.000000,0.000000
13191049.000000,2.312739,-0.964744,-1.819531,-1.386107,-0.927553,1.665506,0.447532,-0.016050,-0.010864,-0.008032,-0.001684,-0.005878,0.001011,0.007132,-0.389971,35.020489,19.128220,12.222776,0.918668,1.350509,-0.083451,0.000000,0.000000,0.000000,0.000000,0.000000,0.000000
13191050.000000,2.312727,-0.964718,-1.819553,-1.386104,-0.927543,1.665504,0.447548,-0.034132,-0.012955,-0.026054,0.000792,-0.000120,-0.002093,0.010041,-2.246661,32.842449,17.335007,12.270384,0.547880,1.299239,-0.077042,0.000000,0.000000,0.000000,0.000000,0.000000,0.000000
13191051.000000,2.312714,-0.964665,-1.819627,-1.386102,-0.927522,1.665488,0.447579,-0.029906,0.007131,-0.050669,0.002184,0.006095,-0.008649,0.017814,-5.714068,28.898968,14.561874,12.345762,-0.019747,1.357833,-0.097184,0.000000,0.000000,0.000000,0.000000,0.000000,0.000000
13191052.000000,2.312671,-0.964648,-1.819745,-1.386090,-0.927538,1.665474,0.447609,-0.025460,0.016382,-0.067153,0.005343,-0.000682,-0.010281,0.023512,-9.625812,24.713482,11.272995,12.198973,-0.318209,1.461288,0.001693,0.000000,0.000000,0.000000,0.000000,0.000000,0.000000
13191053.000000,2.312601,-0.964690,-1.819890,-1.386083,-0.927598,1.665479,0.447671,-0.029903,0.009468,-0.089911,0.004297,-0.019301,0.002013,0.034275,-13.386798,21.019939,7.761948,12.048216,-0.246798,1.461288,-0.056901,0.000000,0.000000,0.000000,0.000000,0.000000,0.000000
13191054.000000,2.312500,-0.964781,-1.820054,-1.386090,-0.927687,1.665521,0.447740,-0.041303,-0.014360,-0.099016,-0.001787,-0.043512,0.020256,0.048899,-16.778826,18.155560,4.596054,11.976805,-0.001437,1.214095,-0.050492,0.000000,0.000000,0.000000,0.000000,0.000000,0.000000
13191055.000000,2.312382,-0.964910,-1.820214,-1.386098,-0.927786,1.665625,0.447829,-0.059957,-0.046397,-0.102340,-0.007696,-0.067619,0.050683,0.064523,-19.674944,16.048931,1.604721,11.826048,0.189908,0.616256,-0.037675,0.000000,0.000000,0.000000,0.000000,0.000000,0.000000
13191056.000000,2.312258,-0.965060,-1.820378,-1.386115,-0.927889,1.665765,0.447930,-0.078517,-0.078220,-0.111814,-0.009764,-0.083705,0.082569,0.077134,-22.198137,14.509624,-0.898636,11.703062,0.243009,-0.138139,0.067611,0.000000,0.000000,0.000000,0.000000,0.000000,0.000000
13191057.000000,2.312132,-0.965223,-1.820516,-1.386133,-0.927995,1.665916,0.448070,-0.087995,-0.094736,-0.112190,-0.012657,-0.094953,0.110552,0.101697,-24.602312,13.505901,-3.231400,11.504698,0.135892,-0.664567,0.041976,0.000000,0.000000,0.000000,0.000000,0.000000,0.000000
13191058.000000,2.312003,-0.965398,-1.820649,-1.386154,-0.928115,1.666063,0.448237,-0.099239,-0.120288,-0.112646,-0.015726,-0.104506,0.125655,0.125794,-26.681170,12.795757,-5.246780,11.207151,-0.060946,-0.788163,-0.017533,0.000000,0.000000,0.000000,0.000000,0.000000,0.000000
13191059.000000,2.311872,-0.965559,-1.820784,-1.386183,-0.928238,1.666205,0.448418,-0.099856,-0.129984,-0.115039,-0.026463,-0.110611,0.133780,0.143604,-28.240313,12.061810,-6.571854,10.715208,-0.324618,-0.540971,0.041976,0.000000,0.000000,0.000000,0.000000,0.000000,0.000000
13191060.000000,2.311722,-0.965705,-1.820903,-1.386249,-0.928367,1.666385,0.448637,-0.105073,-0.131581,-0.108537,-0.045697,-0.113791,0.147811,0.168200,-28.438677,11.423077,-7.305801,10.143919,-0.634982,-0.215958,0.015426,0.000000,0.000000,0.000000,0.000000,0.000000,0.000000
13191061.000000,2.311561,-0.965825,-1.821013,-1.386383,-0.928515,1.666627,0.448875,-0.118884,-0.124503,-0.108028,-0.080665,-0.126176,0.179395,0.185775,-27.224688,10.764507,-7.329605,9.751158,-0.796115,-0.196732,0.015426,0.000000,0.000000,0.000000,0.000000,0.000000,0.000000
13191062.000000,2.311401,-0.965919,-1.821124,-1.386575,-0.928698,1.666923,0.449132,-0.132961,-0.115109,-0.111210,-0.120018,-0.144210,0.216215,0.199263,-24.971270,10.054363,-6.694839,9.378233,-0.736605,-0.366105,0.001693,0.000000,0.000000,0.000000,0.000000,0.000000,0.000000
13191063.000000,2.311230,-0.965998,-1.821240,-1.386800,-0.928907,1.667238,0.449397,-0.153144,-0.105067,-0.117812,-0.152428,-0.161114,0.244543,0.215805,-21.928362,9.268841,-5.611771,8.763304,-0.569064,-0.450333,-0.004716,0.000000,0.000000,0.000000,0.000000,0.000000,0.000000
13191064.000000,2.311050,-0.966065,-1.821354,-1.387051,-0.929124,1.667550,0.449662,-0.170438,-0.093020,-0.122871,-0.193556,-0.181185,0.264433,0.230252,-18.560137,8.435711,-4.385880,7.969847,-0.396029,-0.236100,0.041976,0.000000,0.000000,0.000000,0.000000,0.000000,0.000000
13191065.000000,2.310881,-0.966125,-1.821464,-1.387339,-0.929363,1.667873,0.449948,-0.180935,-0.083817,-0.125201,-0.220266,-0.197084,0.277275,0.253500,-15.390277,7.701763,-3.255203,7.156554,-0.211093,0.161239,-0.023942,0.000000,0.000000,0.000000,0.000000,0.000000,0.000000
13191066.000000,2.310718,-0.966194,-1.821575,-1.387645,-0.929606,1.668227,0.450234,-0.185553,-0.082523,-0.127161,-0.241649,-0.216611,0.293800,0.260415,-12.521930,7.114605,-2.299088,6.386900,-0.150668,0.434066,-0.011124,0.000000,0.000000,0.000000,0.000000,0.000000,0.000000
13191067.000000,2.310547,-0.966261,-1.821698,-1.387959,-0.929841,1.668609,0.450525,-0.185890,-0.078852,-0.128506,-0.261034,-0.224900,0.318169,0.268812,-9.772601,6.551250,-1.465958,5.597411,-0.300814,0.511886,0.021835,0.000000,0.000000,0.000000,0.000000,0.000000,0.000000
13191068.000000,2.310363,-0.966346,-1.821842,-1.388277,-0.930104,1.669020,0.450822,-0.188043,-0.083216,-0.137689,-0.273522,-0.234588,0.346398,0.275126,-7.174029,6.309246,-0.680435,4.732543,-0.497653,0.544845,-0.044083,0.000000,0.000000,0.000000,0.000000,0.000000,0.000000
13191069.000000,2.310190,-0.966459,-1.821995,-1.388603,-0.930389,1.669436,0.451116,-0.188548,-0.093859,-0.146968,-0.283828,-0.250011,0.366183,0.277971,-5.019793,6.428265,-0.140885,3.867674,-0.575472,0.629073,-0.011124,0.000000,0.000000,0.000000,0.000000,0.000000,0.000000
13191070.000000,2.310027,-0.966591,-1.822166,-1.388917,-0.930699,1.669871,0.451416,-0.183509,-0.108250,-0.154656,-0.288993,-0.266525,0.388880,0.279947,-3.286089,6.698040,0.374863,3.026610,-0.557162,0.727035,-0.031266,0.000000,0.000000,0.000000,0.000000,0.000000,0.000000
13191071.000000,2.309858,-0.966746,-1.822350,-1.389232,-0.931029,1.670342,0.451700,-0.181270,-0.127047,-0.166447,-0.292607,-0.292198,0.411301,0.276973,-1.679339,7.114605,0.791427,2.086363,-0.497653,0.700484,0.028243,0.000000,0.000000,0.000000,0.000000,0.000000,0.000000
13191072.000000,2.309699,-0.966910,-1.822547,-1.389548,-0.931385,1.670836,0.451997,-0.175277,-0.140101,-0.178355,-0.296950,-0.313794,0.439636,0.275188,-0.413775,7.531170,1.061203,1.296873,-0.419833,0.479842,-0.017533,0.000000,0.000000,0.000000,0.000000,0.000000,0.000000
13191073.000000,2.309556,-0.967080,-1.822760,-1.389891,-0.931758,1.671371,0.452284,-0.163441,-0.153342,-0.190407,-0.310068,-0.329353,0.465713,0.281983,0.451093,7.848553,1.259567,0.800963,-0.353915,0.206100,0.028243,0.000000,0.000000,0.000000,0.000000,0.000000,0.000000
13191074.000000,2.309424,-0.967250,-1.822983,-1.390223,-0.932139,1.671914,0.452572,-0.149692,-0.158829,-0.197079,-0.316727,-0.351147,0.502896,0.281647,1.046186,7.995342,1.259567,0.186034,-0.318209,-0.008134,0.041976,0.000000,0.000000,0.000000,0.000000,0.000000,0.000000
13191075.000000,2.309297,-0.967415,-1.823207,-1.390547,-0.932541,1.672469,0.452869,-0.140740,-0.160426,-0.202771,-0.321897,-0.367404,0.520988,0.287679,1.490522,7.971539,1.211960,-0.409059,-0.336520,-0.014542,-0.011124,0.000000,0.000000,0.000000,0.000000,0.000000,0.000000
13191076.000000,2.309192,-0.967584,-1.823442,-1.390887,-0.932966,1.673030,0.453156,-0.130304,-0.166763,-0.209698,-0.327073,-0.382108,0.530138,0.286314,1.565900,7.777142,1.112778,-0.904970,-0.312716,0.134689,0.001693,0.000000,0.000000,0.000000,0.000000,0.000000,0.000000
13191077.000000,2.309088,-0.967745,-1.823687,-1.391233,-0.933390,1.673606,0.453448,-0.118328,-0.165825,-0.223366,-0.331957,-0.396842,0.546401,0.288196,1.542096,7.312969,0.914413,-1.250124,-0.294406,0.277511,0.001693,0.000000,0.000000,0.000000,0.000000,0.000000,0.000000
13191078.000000,2.308989,-0.967900,-1.823942,-1.391604,-0.933829,1.674221,0.453735,-0.109528,-0.160411,-0.228825,-0.339339,-0.404491,0.563044,0.292261,1.442914,6.749615,0.791427,-1.396913,-0.365817,0.316879,-0.017533,0.000000,0.000000,0.000000,0.000000,0.000000,0.000000
13191079.000000,2.308888,-0.968055,-1.824206,-1.391976,-0.934286,1.674874,0.454016,-0.105427,-0.159721,-0.242123,-0.348047,-0.417010,0.610095,0.287234,1.415143,6.186260,0.620834,-1.519899,-0.330111,0.115462,0.041976,0.000000,0.000000,0.000000,0.000000,0.000000,0.000000
13191080.000000,2.308799,-0.968217,-1.824487,-1.392367,-0.934735,1.675550,0.454305,-0.098408,-0.160557,-0.251154,-0.360524,-0.428499,0.628042,0.286020,1.216779,5.622906,0.597031,-1.496095,-0.294406,-0.047501,0.021835,0.000000,0.000000,0.000000,0.000000,0.000000,0.000000
13191081.000000,2.308718,-0.968399,-1.824771,-1.392772,-0.935210,1.676233,0.454579,-0.092814,-0.165947,-0.258734,-0.372410,-0.439593,0.642781,0.280259,0.947004,5.253948,0.474045,-1.448488,-0.199191,-0.020951,0.028243,0.000000,0.000000,0.000000,0.000000,0.000000,0.000000
13191082.000000,2.308634,-0.968589,-1.825059,-1.393181,-0.935685,1.676923,0.454857,-0.090319,-0.175179,-0.273132,-0.392184,-0.452143,0.653160,0.272689,0.748639,4.984173,0.303451,-1.519899,-0.025240,0.056869,0.074935,0.000000,0.000000,0.000000,0.000000,0.000000,0.000000
13191083.000000,2.308567,-0.968797,-1.825368,-1.393602,-0.936149,1.677652,0.455145,-0.082475,-0.181689,-0.278098,-0.400666,-0.453114,0.669298,0.281189,0.427289,5.059551,0.426437,-1.547670,-0.007845,0.109054,0.001693,0.000000,0.000000,0.000000,0.000000,0.000000,0.000000
13191084.000000,2.308495,-0.969020,-1.825669,-1.394039,-0.936618,1.678412,0.455425,-0.076614,-0.194201,-0.282539,-0.410626,-0.461352,0.696123,0.274712,0.351911,5.428509,0.668442,-1.670656,0.015958,0.076095,0.054794,0.000000,0.000000,0.000000,0.000000,0.000000,0.000000
13191085.000000,2.308415,-0.969262,-1.825954,-1.394489,-0.937082,1.679188,0.455707,-0.077643,-0.206658,-0.278960,-0.423646,-0.459965,0.715876,0.275936,0.649457,6.233868,1.088974,-1.718263,0.141385,0.017501,0.034652,0.000000,0.000000,0.000000,0.000000,0.000000,0.000000
13191086.000000,2.308342,-0.969507,-1.826253,-1.394959,-0.937524,1.679996,0.455986,-0.074413,-0.221169,-0.279823,-0.434793,-0.448037,0.743013,0.278706,1.069990,7.336773,1.945907,-1.793642,-0.019747,0.004684,0.009017,0.000000,0.000000,0.000000,0.000000,0.000000,0.000000
13191087.000000,2.308250,-0.969761,-1.826539,-1.395444,-0.937978,1.680810,0.456265,-0.079844,-0.236769,-0.282506,-0.450312,-0.448099,0.768435,0.277067,1.863447,8.582500,2.878219,-1.769838,-0.019747,-0.014542,0.021835,0.000000,0.000000,0.000000,0.000000,0.000000,0.000000
13191088.000000,2.308162,-0.970008,-1.826816,-1.395938,-0.938421,1.681654,0.456537,-0.083214,-0.241386,-0.279520,-0.461219,-0.447945,0.776923,0.277694,2.680707,9.661602,3.838302,-1.742067,0.046171,-0.001725,0.048385,0.000000,0.000000,0.000000,0.000000,0.000000,0.000000
13191089.000000,2.308073,-0.970254,-1.827102,-1.396466,-0.938853,1.682517,0.456804,-0.085453,-0.245780,-0.286882,-0.479888,-0.444192,0.798494,0.272760,3.521772,10.443157,4.794418,-1.496095,-0.043551,0.011092,0.054794,0.000000,0.000000,0.000000,0.000000,0.000000,0.000000
13191090.000000,2.307969,-0.970499,-1.827387,-1.397000,-0.939279,1.683359,0.457072,-0.091216,-0.249517,-0.289200,-0.499557,-0.433429,0.816645,0.266288,4.438215,10.958904,5.504562,-1.273927,-0.067355,0.056869,0.028243,0.000000,0.000000,0.000000,0.000000,0.000000,0.000000
13191091.000000,2.307865,-0.970747,-1.827681,-1.397553,-0.939723,1.684195,0.457343,-0.096333,-0.252991,-0.291247,-0.516329,-0.432853,0.808416,0.272571,5.279279,11.323895,6.143295,-1.099367,-0.007845,0.193282,0.028243,0.000000,0.000000,0.000000,0.000000,0.000000,0.000000
13191092.000000,2.307762,-0.971007,-1.827989,-1.398131,-0.940169,1.685026,0.457608,-0.101009,-0.258690,-0.303802,-0.531266,-0.437584,0.808394,0.268953,6.021162,11.569866,6.682846,-0.928774,0.027860,0.239059,0.061202,0.000000,0.000000,0.000000,0.000000,0.000000,0.000000
13191093.000000,2.307652,-0.971280,-1.828304,-1.398698,-0.940613,1.685847,0.457887,-0.106778,-0.259826,-0.300706,-0.547294,-0.432082,0.809907,0.264647,6.739240,11.815838,7.127182,-0.976381,0.129484,0.304061,0.001693,0.000000,0.000000,0.000000,0.000000,0.000000,0.000000
13191094.000000,2.307538,-0.971571,-1.828622,-1.399278,-0.941062,1.686657,0.458149,-0.106834,-0.270563,-0.301543,-0.551501,-0.439281,0.802652,0.258347,7.405744,12.109417,7.420761,-1.150941,0.147794,0.394698,0.041976,0.000000,0.000000,0.000000,0.000000,0.000000,0.000000
13191095.000000,2.307421,-0.971886,-1.828955,-1.399858,-0.941507,1.687467,0.458414,-0.112331,-0.288859,-0.311864,-0.569499,-0.438330,0.805441,0.257675,8.024640,12.549786,7.789719,-1.448488,0.129484,0.369064,0.061202,0.000000,0.000000,0.000000,0.000000,0.000000,0.000000
13191096.000000,2.307298,-0.972225,-1.829279,-1.400454,-0.941964,1.688275,0.458682,-0.116747,-0.300662,-0.310881,-0.578505,-0.440320,0.803658,0.259326,8.643537,13.113140,7.936508,-1.718263,0.201810,0.291244,0.061202,0.000000,0.000000,0.000000,0.000000,0.000000,0.000000
13191097.000000,2.307174,-0.972589,-1.829617,-1.401057,-0.942422,1.689065,0.458962,-0.119770,-0.319748,-0.318544,-0.589835,-0.452481,0.793942,0.263337,9.238629,13.847088,8.130905,-2.063417,0.123990,0.232650,-0.011124,0.000000,0.000000,0.000000,0.000000,0.000000,0.000000
13191098.000000,2.307036,-0.972971,-1.829959,-1.401660,-0.942880,1.689865,0.459227,-0.127560,-0.344200,-0.319693,-0.591312,-0.453796,0.793486,0.260859,9.932904,14.581036,8.301498,-2.337160,0.123990,0.219833,0.054794,0.000000,0.000000,0.000000,0.000000,0.000000,0.000000
13191099.000000,2.306904,-0.973378,-1.830304,-1.402279,-0.943349,1.690666,0.459485,-0.133444,-0.363110,-0.320895,-0.591532,-0.456847,0.793300,0.260930,10.401044,15.485577,8.476059,-2.460146,0.171598,0.180465,0.081344,0.000000,0.000000,0.000000,0.000000,0.000000,0.000000
13191100.000000,2.306760,-0.973787,-1.830648,-1.402905,-0.943805,1.691450,0.459767,-0.139569,-0.380092,-0.330205,-0.608483,-0.460607,0.791799,0.268419,10.599408,16.294903,8.575241,-2.039613,0.100187,0.174056,0.015426,0.000000,0.000000,0.000000,0.000000,0.000000,0.000000
13191101.000000,2.306591,-0.974200,-1.830979,-1.403526,-0.944268,1.692249,0.460042,-0.148720,-0.386937,-0.326394,-0.609026,-0.454282,0.786878,0.274279,10.726361,17.151836,8.499863,-1.273927,0.081876,0.226241,0.034652,0.000000,0.000000,0.000000,0.000000,0.000000,0.000000
13191102.000000,2.306420,-0.974615,-1.831332,-1.404142,-0.944730,1.693053,0.460313,-0.155146,-0.398887,-0.335940,-0.604674,-0.462296,0.791365,0.275140,10.527997,17.885784,8.622849,-0.210695,-0.025240,0.264693,0.067611,0.000000,0.000000,0.000000,0.000000,0.000000,0.000000
13191103.000000,2.306250,-0.975042,-1.831687,-1.404749,-0.945201,1.693838,0.460594,-0.157758,-0.408134,-0.341214,-0.605247,-0.456783,0.790020,0.273514,10.055890,18.572124,8.793442,1.173888,-0.037142,0.394698,0.034652,0.000000,0.000000,0.000000,0.000000,0.000000,0.000000
13191104.000000,2.306069,-0.975451,-1.832037,-1.405352,-0.945678,1.694639,0.460870,-0.163306,-0.410784,-0.341421,-0.605246,-0.461229,0.787750,0.276052,9.488568,19.083904,8.845016,2.629881,0.081876,0.557662,0.074935,0.000000,0.000000,0.000000,0.000000,0.000000,0.000000
13191105.000000,2.305887,-0.975866,-1.832402,-1.405960,-0.946149,1.695412,0.461154,-0.164418,-0.410554,-0.351434,-0.607465,-0.469254,0.801793,0.280186,8.968854,19.405254,9.039413,4.189024,0.027860,0.811263,0.001693,0.000000,0.000000,0.000000,0.000000,0.000000,0.000000
13191106.000000,2.305707,-0.976270,-1.832760,-1.406558,-0.946606,1.696207,0.461423,-0.165262,-0.404445,-0.350453,-0.609383,-0.463076,0.793697,0.274307,8.397565,19.552044,9.162399,5.573607,-0.055453,0.974227,0.048385,0.000000,0.000000,0.000000,0.000000,0.000000,0.000000
13191107.000000,2.305541,-0.976694,-1.833138,-1.407160,-0.947086,1.697008,0.461689,-0.164562,-0.410890,-0.360978,-0.605064,-0.475852,0.795978,0.270415,7.754865,19.698833,9.356796,6.759825,0.022367,1.064864,0.087753,0.000000,0.000000,0.000000,0.000000,0.000000,0.000000
13191108.000000,2.305381,-0.977124,-1.833524,-1.407755,-0.947555,1.697792,0.461964,-0.160408,-0.415665,-0.371896,-0.605862,-0.469839,0.793168,0.271581,7.084394,19.817852,9.678146,7.672301,-0.019747,1.104232,0.001693,0.000000,0.000000,0.000000,0.000000,0.000000,0.000000
13191109.000000,2.305218,-0.977567,-1.833898,-1.408357,-0.948030,1.698570,0.462228,-0.158779,-0.430541,-0.370514,-0.606823,-0.462112,0.786159,0.267189,6.564680,19.964642,9.872543,8.291197,-0.013339,1.266280,0.067611,0.000000,0.000000,0.000000,0.000000,0.000000,0.000000
13191110.000000,2.305063,-0.978017,-1.834282,-1.408943,-0.948527,1.699330,0.462503,-0.154655,-0.438465,-0.372132,-0.596918,-0.474667,0.792730,0.267383,6.068769,20.040020,10.047104,8.564939,0.076383,1.422836,0.041976,0.000000,0.000000,0.000000,0.000000,0.000000,0.000000
13191111.000000,2.304925,-0.978471,-1.834682,-1.409527,-0.949004,1.700092,0.462782,-0.145752,-0.434484,-0.381448,-0.590564,-0.475213,0.776892,0.273099,5.477643,20.063824,10.463669,8.687925,0.088285,1.461288,-0.011124,0.000000,0.000000,0.000000,0.000000,0.000000,0.000000
13191112.000000,2.304792,-0.978939,-1.835076,-1.410106,-0.949494,1.700883,0.463049,-0.140628,-0.448963,-0.375513,-0.582420,-0.472422,0.781396,0.269553,4.930158,20.087627,10.610458,8.537169,0.135892,1.337692,-0.011124,0.000000,0.000000,0.000000,0.000000,0.000000,0.000000
13191113.000000,2.304662,-0.979416,-1.835482,-1.410671,-0.949982,1.701652,0.463308,-0.136418,-0.455989,-0.384550,-0.587027,-0.480387,0.785813,0.268485,4.386640,20.111431,10.927841,8.315001,0.171598,1.285506,0.094161,0.000000,0.000000,0.000000,0.000000,0.000000,0.000000
13191114.000000,2.304533,-0.979904,-1.835875,-1.411241,-0.950467,1.702421,0.463581,-0.132698,-0.457471,-0.385299,-0.577932,-0.472922,0.772616,0.273667,3.942304,20.234417,11.102402,8.069029,0.147794,1.234237,0.061202,0.000000,0.000000,0.000000,0.000000,0.000000,0.000000
13191115.000000,2.304419,-0.980398,-1.836282,-1.411819,-0.950969,1.703193,0.463860,-0.125411,-0.464893,-0.393262,-0.569746,-0.484774,0.784442,0.269977,3.446393,20.405010,11.443588,7.870665,0.159696,1.259872,-0.031266,0.000000,0.000000,0.000000,0.000000,0.000000,0.000000
13191116.000000,2.304309,-0.980891,-1.836680,-1.412381,-0.951477,1.703955,0.464120,-0.119172,-0.473587,-0.389432,-0.566372,-0.483269,0.779834,0.265484,3.049665,20.773968,11.812546,7.747679,0.315336,1.272689,0.041976,0.000000,0.000000,0.000000,0.000000,0.000000,0.000000
13191117.000000,2.304211,-0.981392,-1.837085,-1.412934,-0.951980,1.704726,0.464381,-0.112707,-0.483486,-0.391829,-0.555285,-0.483963,0.770898,0.266081,2.704511,21.460308,12.526657,7.577086,0.386747,1.312057,0.021835,0.000000,0.000000,0.000000,0.000000,0.000000,0.000000
13191118.000000,2.304106,-0.981893,-1.837473,-1.413498,-0.952488,1.705501,0.464639,-0.111626,-0.488692,-0.389487,-0.553694,-0.488562,0.778165,0.263366,2.553754,22.293438,13.212997,7.648497,0.416959,1.234237,0.061202,0.000000,0.000000,0.000000,0.000000,0.000000,0.000000
13191119.000000,2.304013,-0.982378,-1.837857,-1.414049,-0.952984,1.706284,0.464911,-0.106351,-0.485226,-0.387202,-0.555088,-0.477062,0.776995,0.266925,2.359357,23.221783,14.046127,7.870665,0.464567,1.207687,0.009017,0.000000,0.000000,0.000000,0.000000,0.000000,0.000000
13191120.000000,2.303932,-0.982872,-1.838248,-1.414604,-0.953480,1.707061,0.465171,-0.101251,-0.489360,-0.389791,-0.551142,-0.483893,0.772730,0.260728,2.133222,24.201702,14.907028,8.192015,0.381254,1.299239,0.028243,0.000000,0.000000,0.000000,0.000000,0.000000,0.000000
13191121.000000,2.303855,-0.983377,-1.838629,-1.415145,-0.953968,1.707825,0.465433,-0.093429,-0.498508,-0.391033,-0.548839,-0.475973,0.777955,0.261220,1.887250,25.300640,15.640976,8.366575,0.351041,1.416427,0.028243,0.000000,0.000000,0.000000,0.000000,0.000000,0.000000
13191122.000000,2.303790,-0.983867,-1.839017,-1.415696,-0.954468,1.708579,0.465695,-0.081719,-0.499279,-0.388352,-0.549523,-0.480574,0.762589,0.257895,1.514325,26.157574,16.378891,8.687925,0.362943,1.643478,0.015426,0.000000,0.000000,0.000000,0.000000,0.000000,0.000000
13191123.000000,2.303722,-0.984370,-1.839409,-1.416255,-0.954975,1.709336,0.465956,-0.076182,-0.505632,-0.393995,-0.552285,-0.489228,0.768651,0.255919,1.268354,27.066082,17.041428,9.084654,0.344633,1.800033,0.061202,0.000000,0.000000,0.000000,0.000000,0.000000,0.000000
13191124.000000,2.303659,-0.984863,-1.839788,-1.416819,-0.955468,1.710106,0.466229,-0.071702,-0.498598,-0.386310,-0.557988,-0.481388,0.769076,0.261077,1.022382,27.847637,17.481796,9.528990,0.356534,1.825668,-0.017533,0.000000,0.000000,0.000000,0.000000,0.000000,0.000000
13191125.000000,2.303612,-0.985384,-1.840187,-1.417380,-0.955984,1.710892,0.466484,-0.066206,-0.509933,-0.385994,-0.559988,-0.494073,0.768989,0.258520,0.673261,28.752178,17.997543,9.798765,0.440763,1.735030,0.034652,0.000000,0.000000,0.000000,0.000000,0.000000,0.000000
13191126.000000,2.303567,-0.985936,-1.840595,-1.417937,-0.956493,1.711675,0.466739,-0.057704,-0.527610,-0.391324,-0.557847,-0.491516,0.770390,0.252478,0.276533,30.049480,18.465683,9.997129,0.518583,1.578475,0.067611,0.000000,0.000000,0.000000,0.000000,0.000000,0.000000
13191127.000000,2.303517,-0.986488,-1.840992,-1.418504,-0.957013,1.712437,0.467006,-0.054635,-0.533395,-0.387560,-0.555010,-0.494755,0.768417,0.258165,0.006757,31.199993,18.858444,10.120115,0.613798,1.597701,0.061202,0.000000,0.000000,0.000000,0.000000,0.000000,0.000000
13191128.000000,2.303483,-0.987055,-1.841390,-1.419066,-0.957525,1.713204,0.467274,-0.048340,-0.551381,-0.390972,-0.557340,-0.499970,0.780921,0.261207,-0.413775,32.326702,19.104416,10.171690,0.620206,1.649886,0.021835,0.000000,0.000000,0.000000,0.000000,0.000000,0.000000
13191129.000000,2.303457,-0.987632,-1.841790,-1.419614,-0.958020,1.713966,0.467535,-0.039617,-0.552240,-0.392837,-0.553293,-0.494858,0.774789,0.264505,-0.885882,33.405804,19.346420,10.096312,0.547880,1.624252,0.074935,0.000000,0.000000,0.000000,0.000000,0.000000,0.000000
13191130.000000,2.303438,-0.988214,-1.842202,-1.420176,-0.958531,1.714737,0.467803,-0.033710,-0.568434,-0.391524,-0.550514,-0.489041,0.767850,0.269763,-1.354022,34.286541,19.568588,10.048704,0.530485,1.532699,0.081344,0.000000,0.000000,0.000000,0.000000,0.000000,0.000000
13191131.000000,2.303421,-0.988801,-1.842604,-1.420726,-0.959020,1.715495,0.468071,-0.027039,-0.575729,-0.395370,-0.564776,-0.492964,0.762736,0.269833,-1.778521,35.020489,19.715378,9.973326,0.434354,1.565658,0.021835,0.000000,0.000000,0.000000,0.000000,0.000000,0.000000
13191132.000000,2.303402,-0.989389,-1.843006,-1.421287,-0.959518,1.716266,0.468328,-0.027078,-0.571693,-0.396324,-0.561928,-0.488998,0.761056,0.267430,-2.123675,35.683025,19.885971,9.997129,0.332731,1.597701,0.048385,0.000000,0.000000,0.000000,0.000000,0.000000,0.000000
13191133.000000,2.303383,-0.989971,-1.843413,-1.421846,-0.960026,1.717039,0.468599,-0.024858,-0.574540,-0.399476,-0.557088,-0.497573,0.757261,0.268022,-2.421221,36.095623,20.036728,9.897947,0.356534,1.539108,0.001693,0.000000,0.000000,0.000000,0.000000,0.000000,0.000000
13191134.000000,2.303364,-0.990561,-1.843827,-1.422410,-0.960530,1.717803,0.468859,-0.020952,-0.579198,-0.399986,-0.562130,-0.499783,0.757484,0.265541,-2.690997,36.512188,20.254929,10.020933,0.446256,1.481429,0.041976,0.000000,0.000000,0.000000,0.000000,0.000000,0.000000
13191135.000000,2.303333,-0.991143,-1.844235,-1.422976,-0.961043,1.718565,0.469118,-0.026421,-0.580379,-0.395843,-0.558148,-0.495669,0.754550,0.261290,-2.718768,36.781963,20.401718,10.143919,0.500272,1.494247,0.021835,0.000000,0.000000,0.000000,0.000000,0.000000,0.000000
13191136.000000,2.303301,-0.991725,-1.844643,-1.423548,-0.961557,1.719316,0.469375,-0.028187,-0.581665,-0.400704,-0.560033,-0.499539,0.751863,0.261996,-2.690997,37.004131,20.477097,10.294676,0.589994,1.519881,0.009017,0.000000,0.000000,0.000000,0.000000,0.000000,0.000000
13191137.000000,2.303271,-0.992297,-1.845048,-1.424123,-0.962061,1.720065,0.469632,-0.028298,-0.576244,-0.399352,-0.569588,-0.501286,0.750675,0.253954,-2.690997,37.099346,20.600082,10.663633,0.566190,1.546432,0.074935,0.000000,0.000000,0.000000,0.000000,0.000000,0.000000
13191138.000000,2.303237,-0.992882,-1.845462,-1.424699,-0.962571,1.720827,0.469897,-0.029809,-0.575377,-0.407400,-0.568105,-0.505184,0.748694,0.253378,-2.619586,37.246136,20.699265,11.012754,0.559781,1.494247,0.034652,0.000000,0.000000,0.000000,0.000000,0.000000,0.000000
13191139.000000,2.303195,-0.993472,-1.845869,-1.425260,-0.963067,1.721570,0.470163,-0.036524,-0.579300,-0.406440,-0.566304,-0.499858,0.746530,0.254856,-2.421221,37.369122,20.770676,11.159544,0.500272,1.559249,0.028243,0.000000,0.000000,0.000000,0.000000,0.000000,0.000000
13191140.000000,2.303150,-0.994060,-1.846271,-1.425837,-0.963573,1.722299,0.470417,-0.038849,-0.588334,-0.404632,-0.568547,-0.494932,0.740268,0.252480,-2.199053,37.615093,20.893661,11.457090,0.410551,1.735030,0.034652,0.000000,0.000000,0.000000,0.000000,0.000000,0.000000
13191141.000000,2.303105,-0.994669,-1.846673,-1.426400,-0.964082,1.723033,0.470677,-0.042282,-0.591322,-0.408396,-0.563290,-0.496864,0.740220,0.252152,-2.000689,38.079266,20.893661,11.580076,0.422452,1.838485,0.074935,0.000000,0.000000,0.000000,0.000000,0.000000,0.000000
13191142.000000,2.303060,-0.995287,-1.847086,-1.426958,-0.964587,1.723786,0.470946,-0.042424,-0.595728,-0.408073,-0.560353,-0.492668,0.751136,0.253777,-1.778521,38.690228,21.016647,11.750669,0.339139,1.779891,0.054794,0.000000,0.000000,0.000000,0.000000,0.000000,0.000000
13191143.000000,2.303006,-0.995906,-1.847495,-1.427522,-0.965101,1.724529,0.471203,-0.044158,-0.611679,-0.403014,-0.556063,-0.498244,0.743834,0.255752,-1.480975,39.158367,21.064255,11.901426,0.308927,1.735030,0.034652,0.000000,0.000000,0.000000,0.000000,0.000000,0.000000
13191144.000000,2.302941,-0.996529,-1.847906,-1.428076,-0.965618,1.725262,0.471466,-0.051947,-0.617193,-0.406209,-0.558880,-0.499143,0.737427,0.257921,-1.008868,39.670147,21.115829,12.099791,0.362943,1.727706,0.015426,0.000000,0.000000,0.000000,0.000000,0.000000,0.000000
13191145.000000,2.302884,-0.997144,-1.848319,-1.428642,-0.966136,1.726004,0.471720,-0.053562,-0.610154,-0.403991,-0.558697,-0.497570,0.740047,0.260880,-0.711321,40.086712,21.238815,12.345762,0.362943,1.702071,0.041976,0.000000,0.000000,0.000000,0.000000,0.000000,0.000000
13191146.000000,2.302818,-0.997770,-1.848742,-1.429211,-0.966663,1.726736,0.471973,-0.057102,-0.612917,-0.411291,-0.558655,-0.510169,0.749868,0.260225,-0.314593,40.427898,21.361801,12.619505,0.446256,1.670028,0.081344,0.000000,0.000000,0.000000,0.000000,0.000000,0.000000
13191147.000000,2.302755,-0.998378,-1.849159,-1.429768,-0.967194,1.727472,0.472246,-0.060759,-0.606346,-0.407748,-0.559375,-0.513267,0.744709,0.263013,0.006757,40.673870,21.508591,12.913084,0.530485,1.695663,0.009017,0.000000,0.000000,0.000000,0.000000,0.000000,0.000000
13191148.000000,2.302674,-0.999001,-1.849572,-1.430331,-0.967718,1.728202,0.472504,-0.065772,-0.610634,-0.403518,-0.556260,-0.506890,0.730118,0.260028,0.550275,41.042828,21.580002,13.111448,0.518583,1.767074,0.094161,0.000000,0.000000,0.000000,0.000000,0.000000,0.000000
13191149.000000,2.302605,-0.999631,-1.849994,-1.430889,-0.968236,1.728921,0.472782,-0.067568,-0.615888,-0.409872,-0.570304,-0.514491,0.723480,0.262733,0.895429,41.407818,21.679184,13.286009,0.410551,1.858627,0.009017,0.000000,0.000000,0.000000,0.000000,0.000000,0.000000
13191150.000000,2.302531,-1.000231,-1.850419,-1.431448,-0.968761,1.729653,0.473045,-0.070424,-0.604208,-0.411020,-0.567267,-0.511743,0.720846,0.270237,1.292158,41.483196,21.849777,13.408995,0.356534,1.858627,0.028243,0.000000,0.000000,0.000000,0.000000,0.000000,0.000000
13191151.000000,2.302455,-1.000841,-1.850846,-1.432009,-0.969292,1.730398,0.473317,-0.075239,-0.611355,-0.417728,-0.561031,-0.525113,0.726099,0.272411,1.665082,41.578411,22.048141,13.508177,0.297025,1.800033,0.041976,0.000000,0.000000,0.000000,0.000000,0.000000,0.000000
13191152.000000,2.302375,-1.001444,-1.851262,-1.432556,-0.969814,1.731116,0.473593,-0.076651,-0.605243,-0.422102,-0.555547,-0.520725,0.724675,0.271155,2.085615,41.507000,22.194931,13.531981,0.267728,1.897079,0.015426,0.000000,0.000000,0.000000,0.000000,0.000000,0.000000
13191153.000000,2.302297,-1.002034,-1.851693,-1.433097,-0.970357,1.731829,0.473851,-0.079186,-0.602284,-0.419433,-0.550835,-0.527519,0.709252,0.268220,2.430768,41.336407,22.464706,13.432798,0.386747,1.988631,0.094161,0.000000,0.000000,0.000000,0.000000,0.000000,0.000000
13191154.000000,2.302224,-1.002636,-1.852139,-1.433641,-0.970894,1.732543,0.474124,-0.075578,-0.605237,-0.429432,-0.542201,-0.534585,0.709926,0.262792,2.680707,41.213421,22.758286,13.333616,0.410551,2.039901,0.048385,0.000000,0.000000,0.000000,0.000000,0.000000,0.000000
13191155.000000,2.302150,-1.003213,-1.852572,-1.434158,-0.971422,1.733276,0.474395,-0.076500,-0.591253,-0.427218,-0.534784,-0.526799,0.711744,0.261153,2.926679,40.943645,23.055832,13.036070,0.488370,2.033492,0.054794,0.000000,0.000000,0.000000,0.000000,0.000000,0.000000
13191156.000000,2.302082,-1.003803,-1.853008,-1.434665,-0.971970,1.734012,0.474672,-0.074973,-0.588236,-0.433238,-0.522672,-0.536478,0.713990,0.263449,3.073469,40.749249,23.274033,12.619505,0.578092,2.007858,0.015426,0.000000,0.000000,0.000000,0.000000,0.000000,0.000000
13191157.000000,2.302013,-1.004406,-1.853463,-1.435168,-0.972487,1.734730,0.474939,-0.070240,-0.595956,-0.439553,-0.513305,-0.527194,0.719323,0.265495,3.200422,40.650066,23.718369,12.246580,0.512174,2.001449,0.074935,0.000000,0.000000,0.000000,0.000000,0.000000,0.000000
13191158.000000,2.301954,-1.004987,-1.853909,-1.435661,-0.973031,1.735459,0.475214,-0.068061,-0.596907,-0.439397,-0.503745,-0.524461,0.711595,0.267046,3.248029,40.503277,24.059555,11.750669,0.554288,2.020675,0.028243,0.000000,0.000000,0.000000,0.000000,0.000000,0.000000
13191159.000000,2.301893,-1.005568,-1.854352,-1.436139,-0.973576,1.736181,0.475487,-0.063765,-0.595448,-0.442488,-0.489046,-0.532494,0.711622,0.271119,3.299604,40.257305,24.329330,11.207151,0.589994,2.060043,0.021835,0.000000,0.000000,0.000000,0.000000,0.000000,0.000000
13191160.000000,2.301836,-1.006136,-1.854803,-1.436612,-0.974102,1.736909,0.475759,-0.060036,-0.577410,-0.441431,-0.485065,-0.532848,0.714197,0.272608,3.323408,39.963726,24.722092,10.786619,0.506681,2.027084,0.028243,0.000000,0.000000,0.000000,0.000000,0.000000,0.000000
13191161.000000,2.301781,-1.006723,-1.855253,-1.437082,-0.974653,1.737642,0.476031,-0.061374,-0.586472,-0.434224,-0.478759,-0.533671,0.713567,0.271380,3.371015,39.793133,24.968063,10.417662,0.559781,2.039901,0.009017,0.000000,0.000000,0.000000,0.000000,0.000000,0.000000
13191162.000000,2.301728,-1.007299,-1.855718,-1.437545,-0.975191,1.738351,0.476294,-0.060817,-0.591681,-0.443182,-0.471852,-0.543972,0.716981,0.265915,3.347211,39.475750,25.289413,10.171690,0.601896,2.112228,0.061202,0.000000,0.000000,0.000000,0.000000,0.000000,0.000000
13191163.000000,2.301680,-1.007859,-1.856166,-1.438007,-0.975746,1.739068,0.476563,-0.056055,-0.571901,-0.439465,-0.466010,-0.539808,0.709507,0.269798,3.271833,39.182171,25.531418,9.921751,0.596403,2.125045,0.001693,0.000000,0.000000,0.000000,0.000000,0.000000,0.000000
13191164.000000,2.301630,-1.008440,-1.856614,-1.438463,-0.976302,1.739789,0.476818,-0.054665,-0.574709,-0.443096,-0.456170,-0.546416,0.726007,0.266860,3.271833,39.059185,25.682175,9.727354,0.691617,2.112228,0.041976,0.000000,0.000000,0.000000,0.000000,0.000000,0.000000
13191165.000000,2.301591,-1.009015,-1.857067,-1.438916,-0.976853,1.740499,0.477086,-0.046841,-0.584089,-0.447594,-0.455647,-0.541610,0.714612,0.267074,3.125043,38.983807,25.900375,9.675779,0.698026,2.098495,0.021835,0.000000,0.000000,0.000000,0.000000,0.000000,0.000000
13191166.000000,2.301556,-1.009593,-1.857520,-1.439363,-0.977406,1.741218,0.477353,-0.044403,-0.587545,-0.443166,-0.450778,-0.534279,0.714565,0.267156,2.978254,38.936199,26.023361,9.628172,0.721830,2.098495,0.001693,0.000000,0.000000,0.000000,0.000000,0.000000,0.000000
13191167.000000,2.301514,-1.010177,-1.857966,-1.439809,-0.977969,1.741921,0.477615,-0.045624,-0.585976,-0.443115,-0.452828,-0.543397,0.714917,0.259272,2.950483,38.936199,26.047165,9.651976,0.745634,2.104903,0.041976,0.000000,0.000000,0.000000,0.000000,0.000000,0.000000
13191168.000000,2.301488,-1.010772,-1.858415,-1.440263,-0.978511,1.742636,0.477883,-0.039549,-0.582559,-0.439272,-0.448396,-0.533636,0.713384,0.270281,2.752119,39.158367,26.245529,9.850340,0.715421,2.150680,-0.011124,0.000000,0.000000,0.000000,0.000000,0.000000,0.000000
13191169.000000,2.301460,-1.011360,-1.858864,-1.440719,-0.979064,1.743352,0.478133,-0.036807,-0.587094,-0.443952,-0.447305,-0.548499,0.710913,0.265441,2.629133,39.253582,26.293137,10.072508,0.751127,2.209274,0.074935,0.000000,0.000000,0.000000,0.000000,0.000000,0.000000
13191170.000000,2.301433,-1.011945,-1.859298,-1.441166,-0.979607,1.744051,0.478400,-0.034436,-0.584900,-0.444106,-0.450633,-0.542349,0.703106,0.265064,2.482343,39.328960,26.293137,10.318480,0.739225,2.202865,0.061202,0.000000,0.000000,0.000000,0.000000,0.000000,0.000000
13191171.000000,2.301415,-1.012547,-1.859731,-1.441630,-0.980144,1.744771,0.478665,-0.030523,-0.583898,-0.437613,-0.449106,-0.536248,0.701750,0.266655,2.260175,39.670147,26.245529,10.691404,0.661405,2.157089,0.054794,0.000000,0.000000,0.000000,0.000000,0.000000,0.000000
13191172.000000,2.301396,-1.013138,-1.860159,-1.442087,-0.980702,1.745474,0.478924,-0.025984,-0.588376,-0.435727,-0.453782,-0.544608,0.701282,0.267363,2.085615,39.840740,26.074936,10.913572,0.655912,2.144271,0.009017,0.000000,0.000000,0.000000,0.000000,0.000000,0.000000
13191173.000000,2.301387,-1.013724,-1.860581,-1.442535,-0.981243,1.746174,0.479175,-0.021013,-0.585120,-0.425229,-0.452260,-0.539666,0.696487,0.263221,1.835676,40.039104,25.900375,11.060362,0.620206,2.235824,0.067611,0.000000,0.000000,0.000000,0.000000,0.000000,0.000000
13191174.000000,2.301389,-1.014318,-1.861004,-1.442999,-0.981795,1.746882,0.479439,-0.014348,-0.586233,-0.426116,-0.457785,-0.542495,0.696214,0.264266,1.466718,40.134319,25.801193,11.258726,0.620206,2.255050,0.048385,0.000000,0.000000,0.000000,0.000000,0.000000,0.000000
13191175.000000,2.301384,-1.014905,-1.861418,-1.443461,-0.982337,1.747593,0.479709,-0.009811,-0.589924,-0.425605,-0.457911,-0.535553,0.705435,0.264611,1.244550,40.062908,25.531418,11.504698,0.649503,2.157089,0.015426,0.000000,0.000000,0.000000,0.000000,0.000000,0.000000
13191176.000000,2.301381,-1.015484,-1.861829,-1.443928,-0.982889,1.748303,0.479966,-0.006633,-0.585907,-0.418625,-0.458857,-0.537995,0.706645,0.258239,1.022382,39.916119,25.313217,11.655455,0.637601,2.118636,0.054794,0.000000,0.000000,0.000000,0.000000,0.000000,0.000000
13191177.000000,2.301388,-1.016054,-1.862245,-1.444408,-0.983445,1.748995,0.480228,-0.002468,-0.576181,-0.415465,-0.459602,-0.547070,0.695227,0.254727,0.724836,39.598736,25.091049,11.949034,0.673307,2.118636,0.034652,0.000000,0.000000,0.000000,0.000000,0.000000,0.000000
13191178.000000,2.301400,-1.016633,-1.862635,-1.444881,-0.983988,1.749708,0.480488,0.000352,-0.569377,-0.400677,-0.464790,-0.546909,0.696265,0.250357,0.427289,39.451946,24.745895,12.171202,0.685209,2.098495,0.054794,0.000000,0.000000,0.000000,0.000000,0.000000,0.000000
13191179.000000,2.301410,-1.017219,-1.863033,-1.445353,-0.984533,1.750419,0.480752,0.004534,-0.575152,-0.392602,-0.463001,-0.540219,0.700674,0.254030,0.177350,39.352764,24.503891,12.321959,0.625699,2.085677,0.015426,0.000000,0.000000,0.000000,0.000000,0.000000,0.000000
13191180.000000,2.301422,-1.017798,-1.863429,-1.445826,-0.985085,1.751115,0.481010,0.005723,-0.577059,-0.392472,-0.473505,-0.547940,0.702902,0.250790,-0.116229,39.205975,24.234116,12.520323,0.637601,2.125045,0.028243,0.000000,0.000000,0.000000,0.000000,0.000000,0.000000
13191181.000000,2.301428,-1.018372,-1.863815,-1.446304,-0.985627,1.751818,0.481263,0.004281,-0.567955,-0.383946,-0.477139,-0.537549,0.704806,0.255577,-0.314593,39.106792,23.988144,12.690916,0.608304,2.125045,0.054794,0.000000,0.000000,0.000000,0.000000,0.000000,0.000000
13191182.000000,2.301447,-1.018965,-1.864196,-1.446775,-0.986165,1.752535,0.481511,0.009276,-0.578249,-0.383808,-0.471378,-0.544255,0.718234,0.249621,-0.635943,39.130596,23.742172,12.766294,0.566190,2.092086,0.021835,0.000000,0.000000,0.000000,0.000000,0.000000,0.000000
13191183.000000,2.301463,-1.019535,-1.864576,-1.447241,-0.986710,1.753241,0.481762,0.011209,-0.581972,-0.385542,-0.470107,-0.537718,0.719010,0.246370,-0.885882,39.035381,23.595383,12.813902,0.506681,2.053634,0.054794,0.000000,0.000000,0.000000,0.000000,0.000000,0.000000
13191184.000000,2.301476,-1.020108,-1.864953,-1.447715,-0.987272,1.753944,0.482018,0.010940,-0.580281,-0.381367,-0.466872,-0.537903,0.704488,0.247025,-1.060443,38.912395,23.349411,12.940855,0.571683,2.027084,0.034652,0.000000,0.000000,0.000000,0.000000,0.000000,0.000000
13191185.000000,2.301495,-1.020686,-1.865340,-1.448199,-0.987835,1.754641,0.482276,0.013832,-0.576053,-0.383986,-0.469926,-0.548946,0.704365,0.245123,-1.231036,38.741802,23.226425,13.111448,0.554288,2.112228,0.034652,0.000000,0.000000,0.000000,0.000000,0.000000,0.000000
13191186.000000,2.301514,-1.021255,-1.865710,-1.448674,-0.988392,1.755350,0.482535,0.017200,-0.568089,-0.378641,-0.468891,-0.548620,0.700882,0.251022,-1.306414,38.642620,23.055832,13.286009,0.566190,2.137862,0.028243,0.000000,0.000000,0.000000,0.000000,0.000000,0.000000
13191187.000000,2.301526,-1.021825,-1.866083,-1.449148,-0.988960,1.756069,0.482784,0.014735,-0.571805,-0.380160,-0.468869,-0.559815,0.697924,0.248188,-1.306414,38.472027,22.857468,13.385191,0.613798,2.085677,0.054794,0.000000,0.000000,0.000000,0.000000,0.000000,0.000000
13191188.000000,2.301545,-1.022396,-1.866467,-1.449620,-0.989507,1.756772,0.483045,0.014509,-0.571249,-0.383118,-0.471608,-0.548713,0.703948,0.253619,-1.354022,38.249859,22.857468,13.583555,0.535978,2.039901,0.015426,0.000000,0.000000,0.000000,0.000000,0.000000,0.000000
13191189.000000,2.301560,-1.022965,-1.866835,-1.450097,-0.990069,1.757478,0.483298,0.014598,-0.564811,-0.374703,-0.468341,-0.548240,0.697299,0.251660,-1.405596,38.178448,22.663071,13.829527,0.535978,2.098495,0.061202,0.000000,0.000000,0.000000,0.000000,0.000000,0.000000
13191190.000000,2.301575,-1.023540,-1.867207,-1.450564,-0.990642,1.758172,0.483550,0.014684,-0.575236,-0.373029,-0.465452,-0.553958,0.697628,0.249695,-1.453204,38.079266,22.540085,13.928709,0.554288,2.098495,0.061202,0.000000,0.000000,0.000000,0.000000,0.000000,0.000000
13191191.000000,2.301592,-1.024099,-1.867571,-1.451020,-0.991192,1.758867,0.483810,0.014848,-0.558412,-0.366967,-0.461035,-0.551183,0.687714,0.249159,-1.504779,37.908672,22.393295,14.051695,0.518583,2.098495,0.009017,0.000000,0.000000,0.000000,0.000000,0.000000,0.000000
13191192.000000,2.301608,-1.024679,-1.867934,-1.451478,-0.991768,1.759571,0.484047,0.018056,-0.566555,-0.365147,-0.453668,-0.561842,0.689651,0.250498,-1.552386,37.908672,22.171127,14.051695,0.554288,2.098495,0.074935,0.000000,0.000000,0.000000,0.000000,0.000000,0.000000
13191193.000000,2.301621,-1.025274,-1.868304,-1.451926,-0.992326,1.760256,0.484303,0.018866,-0.582030,-0.367290,-0.447226,-0.566995,0.691541,0.250676,-1.528582,38.103069,22.000534,14.099302,0.530485,2.104903,0.021835,0.000000,0.000000,0.000000,0.000000,0.000000,0.000000
13191194.000000,2.301628,-1.025847,-1.868665,-1.452379,-0.992904,1.760960,0.484559,0.017449,-0.572550,-0.361910,-0.444963,-0.562114,0.693721,0.245179,-1.405596,38.202251,21.877548,14.099302,0.535978,2.027084,0.001693,0.000000,0.000000,0.000000,0.000000,0.000000,0.000000
13191195.000000,2.301633,-1.026432,-1.869027,-1.452823,-0.993472,1.761649,0.484810,0.012723,-0.576484,-0.363471,-0.441666,-0.565079,0.711143,0.243015,-1.254840,38.325237,21.754562,14.027891,0.554288,1.968490,0.054794,0.000000,0.000000,0.000000,0.000000,0.000000,0.000000
13191196.000000,2.301639,-1.027003,-1.869384,-1.453261,-0.994037,1.762349,0.485064,0.009802,-0.568487,-0.362140,-0.440587,-0.559833,0.708227,0.244690,-1.108050,38.277630,21.655380,14.000120,0.542386,1.942855,0.028243,0.000000,0.000000,0.000000,0.000000,0.000000,0.000000
13191197.000000,2.301646,-1.027578,-1.869749,-1.453699,-0.994610,1.763049,0.485305,0.008307,-0.575291,-0.363043,-0.439179,-0.557331,0.701379,0.242571,-0.985064,38.226055,21.532394,14.000120,0.584501,1.930038,0.087753,0.000000,0.000000,0.000000,0.000000,0.000000,0.000000
13191198.000000,2.301657,-1.028151,-1.870112,-1.454129,-0.995175,1.763722,0.485569,0.008065,-0.572281,-0.359718,-0.441940,-0.566699,0.689199,0.243844,-0.909686,38.055462,21.361801,14.099302,0.512174,1.968490,0.034652,0.000000,0.000000,0.000000,0.000000,0.000000,0.000000
13191199.000000,2.301659,-1.028717,-1.870464,-1.454552,-0.995744,1.764412,0.485816,0.005241,-0.563754,-0.354279,-0.440463,-0.560088,0.683168,0.242461,-0.711321,37.785686,21.187241,14.075499,0.458158,2.020675,0.081344,0.000000,0.000000,0.000000,0.000000,0.000000,0.000000
13191200.000000,2.301672,-1.029278,-1.870826,-1.454980,-0.996324,1.765096,0.486073,0.006619,-0.563870,-0.357970,-0.434586,-0.572171,0.697965,0.244748,-0.663714,37.444500,21.092026,14.127073,0.476469,2.001449,0.041976,0.000000,0.000000,0.000000,0.000000,0.000000,0.000000
13191201.000000,2.301680,-1.029835,-1.871182,-1.455393,-0.996884,1.765791,0.486326,0.007028,-0.565071,-0.360952,-0.430779,-0.558568,0.694755,0.245739,-0.588336,37.198528,20.992844,14.174681,0.416959,1.968490,0.021835,0.000000,0.000000,0.000000,0.000000,0.000000,0.000000
13191202.000000,2.301687,-1.030414,-1.871537,-1.455805,-0.997464,1.766473,0.486565,0.005932,-0.568405,-0.355103,-0.422773,-0.561428,0.691498,0.244183,-0.465350,37.075542,20.794479,14.174681,0.458158,2.039901,0.061202,0.000000,0.000000,0.000000,0.000000,0.000000,0.000000
13191203.000000,2.301697,-1.030983,-1.871910,-1.456207,-0.998048,1.767155,0.486824,0.003287,-0.569830,-0.359180,-0.417513,-0.568611,0.686620,0.244243,-0.389971,36.833538,20.846054,14.027891,0.500272,2.092086,0.048385,0.000000,0.000000,0.000000,0.000000,0.000000,0.000000
13191204.000000,2.301710,-1.031546,-1.872259,-1.456605,-0.998611,1.767855,0.487075,0.005164,-0.564118,-0.351345,-0.412240,-0.567392,0.692873,0.246424,-0.342364,36.611370,20.723068,13.952513,0.500272,1.995040,0.081344,0.000000,0.000000,0.000000,0.000000,0.000000,0.000000
13191205.000000,2.301720,-1.032114,-1.872617,-1.456996,-0.999188,1.768547,0.487330,0.008901,-0.565143,-0.354949,-0.405027,-0.576218,0.686413,0.247355,-0.266986,36.365398,20.600082,13.777952,0.494779,1.942855,0.048385,0.000000,0.000000,0.000000,0.000000,0.000000,0.000000
13191206.000000,2.301733,-1.032679,-1.872979,-1.457381,-0.999749,1.769235,0.487582,0.012245,-0.566974,-0.358339,-0.397255,-0.570425,0.691836,0.245793,-0.215411,36.024212,20.500900,13.583555,0.440763,1.865035,0.054794,0.000000,0.000000,0.000000,0.000000,0.000000,0.000000
13191207.000000,2.301744,-1.033243,-1.873337,-1.457770,-1.000332,1.769921,0.487832,0.011231,-0.562265,-0.354203,-0.396910,-0.564324,0.680834,0.251201,-0.144000,35.802044,20.354111,13.508177,0.422452,1.877853,0.034652,0.000000,0.000000,0.000000,0.000000,0.000000,0.000000
13191208.000000,2.301762,-1.033815,-1.873691,-1.458154,-1.000912,1.770600,0.488078,0.014867,-0.564748,-0.355484,-0.390949,-0.571362,0.675377,0.247798,-0.144000,35.706829,20.159714,13.309813,0.470060,1.884261,0.081344,0.000000,0.000000,0.000000,0.000000,0.000000,0.000000
13191209.000000,2.301773,-1.034378,-1.874048,-1.458525,-1.001488,1.771276,0.488335,0.012727,-0.554748,-0.351268,-0.386884,-0.567898,0.669951,0.248841,-0.068621,35.536236,20.036728,13.111448,0.440763,1.923629,0.048385,0.000000,0.000000,0.000000,0.000000,0.000000,0.000000
13191210.000000,2.301790,-1.034955,-1.874401,-1.458898,-1.002069,1.771971,0.488581,0.015401,-0.563394,-0.352744,-0.380889,-0.568372,0.672740,0.248561,-0.044818,35.508465,19.814560,12.964659,0.458158,1.903487,0.034652,0.000000,0.000000,0.000000,0.000000,0.000000,0.000000
13191211.000000,2.301805,-1.035529,-1.874767,-1.459251,-1.002645,1.772653,0.488819,0.017068,-0.574620,-0.356276,-0.375449,-0.571309,0.675465,0.244700,0.006757,35.437054,19.691574,12.742491,0.422452,1.871444,0.094161,0.000000,0.000000,0.000000,0.000000,0.000000,0.000000
13191212.000000,2.301823,-1.036094,-1.875126,-1.459612,-1.003227,1.773358,0.489068,0.015812,-0.566082,-0.354098,-0.365507,-0.564491,0.679403,0.246507,0.030561,35.314068,19.592392,12.520323,0.410551,1.735030,0.054794,0.000000,0.000000,0.000000,0.000000,0.000000,0.000000
13191213.000000,2.301838,-1.036673,-1.875480,-1.459965,-1.003816,1.774047,0.489319,0.017350,-0.573539,-0.356621,-0.357061,-0.574256,0.706087,0.245377,0.078168,35.191082,19.445602,12.270384,0.398649,1.656295,0.054794,0.000000,0.000000,0.000000,0.000000,0.000000,0.000000
13191214.000000,2.301856,-1.037236,-1.875836,-1.460309,-1.004393,1.774736,0.489567,0.015853,-0.567620,-0.359232,-0.355012,-0.565526,0.692367,0.241657,0.105939,35.020489,19.322617,12.048216,0.362943,1.695663,0.100570,0.000000,0.000000,0.000000,0.000000,0.000000,0.000000
13191215.000000,2.301877,-1.037797,-1.876193,-1.460658,-1.004982,1.775420,0.489817,0.018232,-0.563675,-0.353349,-0.350613,-0.565013,0.679938,0.241592,0.105939,34.750713,19.128220,11.877623,0.356534,1.793624,0.100570,0.000000,0.000000,0.000000,0.000000,0.000000,0.000000
13191216.000000,2.301897,-1.038375,-1.876557,-1.460991,-1.005569,1.776098,0.490075,0.019244,-0.567188,-0.353982,-0.353390,-0.565828,0.670361,0.243713,0.129743,34.679302,19.005234,11.627684,0.362943,1.800033,0.054794,0.000000,0.000000,0.000000,0.000000,0.000000,0.000000
13191217.000000,2.301919,-1.038944,-1.876916,-1.461330,-1.006150,1.776796,0.490326,0.020692,-0.561606,-0.353449,-0.343876,-0.571107,0.673337,0.245930,0.129743,34.703106,18.981430,11.457090,0.386747,1.754256,0.081344,0.000000,0.000000,0.000000,0.000000,0.000000,0.000000
13191218.000000,2.301933,-1.039512,-1.877278,-1.461660,-1.006738,1.777488,0.490579,0.019067,-0.568351,-0.360296,-0.339104,-0.578920,0.676502,0.249698,0.252729,34.603924,18.906052,11.282530,0.374845,1.689254,0.087753,0.000000,0.000000,0.000000,0.000000,0.000000,0.000000
13191219.000000,2.301954,-1.040066,-1.877645,-1.461984,-1.007320,1.778172,0.490836,0.020277,-0.568217,-0.368080,-0.332713,-0.583458,0.679269,0.253602,0.276533,34.334148,18.929855,11.107969,0.362943,1.617843,0.061202,0.000000,0.000000,0.000000,0.000000,0.000000,0.000000
13191220.000000,2.301976,-1.040629,-1.878022,-1.462302,-1.007917,1.778851,0.491082,0.020987,-0.571831,-0.369285,-0.326686,-0.579641,0.683783,0.254607,0.304304,34.088177,19.005234,10.885801,0.393156,1.584884,0.107894,0.000000,0.000000,0.000000,0.000000,0.000000,0.000000
13191221.000000,2.302000,-1.041195,-1.878387,-1.462616,-1.008511,1.779521,0.491336,0.018188,-0.569797,-0.369113,-0.321527,-0.590078,0.681526,0.252444,0.328107,33.770794,18.953659,10.616026,0.386747,1.611434,0.067611,0.000000,0.000000,0.000000,0.000000,0.000000,0.000000
13191222.000000,2.302025,-1.041760,-1.878750,-1.462917,-1.009105,1.780190,0.491592,0.020135,-0.559156,-0.364080,-0.313905,-0.588653,0.675832,0.255464,0.328107,33.624004,18.953659,10.318480,0.386747,1.721298,0.067611,0.000000,0.000000,0.000000,0.000000,0.000000,0.000000
13191223.000000,2.302051,-1.042330,-1.879120,-1.463220,-1.009701,1.780861,0.491850,0.024882,-0.565176,-0.365502,-0.311495,-0.599660,0.670186,0.252871,0.328107,33.405804,18.906052,10.171690,0.339139,1.754256,0.061202,0.000000,0.000000,0.000000,0.000000,0.000000,0.000000
13191224.000000,2.302077,-1.042916,-1.879497,-1.463511,-1.010291,1.781528,0.492107,0.024183,-0.574091,-0.371808,-0.303326,-0.589506,0.672552,0.249791,0.351911,33.382000,18.929855,9.874144,0.315336,1.741439,0.081344,0.000000,0.000000,0.000000,0.000000,0.000000,0.000000
13191225.000000,2.302111,-1.043480,-1.879867,-1.463798,-1.010888,1.782207,0.492369,0.025823,-0.566716,-0.367096,-0.298540,-0.588960,0.665844,0.256851,0.304304,33.282818,18.929855,9.628172,0.339139,1.656295,0.048385,0.000000,0.000000,0.000000,0.000000,0.000000,0.000000
13191226.000000,2.302142,-1.044069,-1.880245,-1.464085,-1.011491,1.782878,0.492622,0.026152,-0.571643,-0.371420,-0.296190,-0.592788,0.667469,0.253769,0.276533,33.354229,19.029037,9.429808,0.356534,1.565658,0.015426,0.000000,0.000000,0.000000,0.000000,0.000000,0.000000
13191227.000000,2.302166,-1.044651,-1.880624,-1.464366,-1.012092,1.783541,0.492870,0.023516,-0.570511,-0.368268,-0.288090,-0.593737,0.661184,0.247652,0.375715,33.382000,19.175827,9.231443,0.452665,1.546432,0.114303,0.000000,0.000000,0.000000,0.000000,0.000000,0.000000
13191228.000000,2.302207,-1.045243,-1.881014,-1.464647,-1.012697,1.784215,0.493125,0.029874,-0.584073,-0.373038,-0.283362,-0.606112,0.660891,0.248424,0.252729,33.477215,19.346420,9.132261,0.482877,1.526290,0.087753,0.000000,0.000000,0.000000,0.000000,0.000000,0.000000
13191229.000000,2.302244,-1.045833,-1.881404,-1.464916,-1.013300,1.784876,0.493377,0.033232,-0.586270,-0.376195,-0.281674,-0.614171,0.657960,0.251409,0.177350,33.453411,19.374191,8.957701,0.500272,1.474105,0.100570,0.000000,0.000000,0.000000,0.000000,0.000000,0.000000
13191230.000000,2.302276,-1.046424,-1.881779,-1.465194,-1.013906,1.785534,0.493630,0.033677,-0.581028,-0.372508,-0.276641,-0.605036,0.655688,0.256122,0.205121,33.477215,19.346420,8.886290,0.470060,1.507064,0.054794,0.000000,0.000000,0.000000,0.000000,0.000000,0.000000
13191231.000000,2.302316,-1.047030,-1.882159,-1.465477,-1.014504,1.786179,0.493869,0.033472,-0.592525,-0.377397,-0.275961,-0.605242,0.669208,0.251272,0.129743,33.699383,19.298813,8.957701,0.374845,1.578475,0.107894,0.000000,0.000000,0.000000,0.000000,0.000000,0.000000
13191232.000000,2.302344,-1.047623,-1.882540,-1.465759,-1.015109,1.786835,0.494130,0.031941,-0.600581,-0.382644,-0.278705,-0.598341,0.665418,0.255832,0.228925,33.822369,19.298813,9.056883,0.344633,1.624252,0.054794,0.000000,0.000000,0.000000,0.000000,0.000000,0.000000
13191233.000000,2.302383,-1.048233,-1.882934,-1.466038,-1.015711,1.787491,0.494378,0.036729,-0.604232,-0.383036,-0.278762,-0.589554,0.661414,0.252452,0.205121,33.969158,19.397995,9.108458,0.332731,1.676437,0.081344,0.000000,0.000000,0.000000,0.000000,0.000000,0.000000
13191234.000000,2.302417,-1.048848,-1.883324,-1.466319,-1.016322,1.788145,0.494631,0.036007,-0.607563,-0.385224,-0.283686,-0.593931,0.658835,0.249537,0.228925,34.139751,19.469406,9.279051,0.374845,1.630660,0.074935,0.000000,0.000000,0.000000,0.000000,0.000000,0.000000
13191235.000000,2.302447,-1.049445,-1.883700,-1.466593,-1.016921,1.788803,0.494887,0.034086,-0.602664,-0.378287,-0.281718,-0.594223,0.659009,0.252256,0.328107,34.139751,19.445602,9.306822,0.434354,1.597701,0.054794,0.000000,0.000000,0.000000,0.000000,0.000000,0.000000
13191236.000000,2.302486,-1.050061,-1.884096,-1.466878,-1.017524,1.789459,0.495124,0.037638,-0.608124,-0.386452,-0.276311,-0.600509,0.649967,0.248067,0.351911,34.310345,19.592392,9.429808,0.440763,1.597701,0.120712,0.000000,0.000000,0.000000,0.000000,0.000000,0.000000
13191237.000000,2.302520,-1.050683,-1.884486,-1.467151,-1.018113,1.790115,0.495382,0.035643,-0.620239,-0.388651,-0.274033,-0.592390,0.654188,0.249508,0.427289,34.627728,19.592392,9.477415,0.476469,1.539108,0.061202,0.000000,0.000000,0.000000,0.000000,0.000000,0.000000
13191238.000000,2.302554,-1.051325,-1.884872,-1.467436,-1.018712,1.790771,0.495632,0.037057,-0.618727,-0.383044,-0.279874,-0.587558,0.649765,0.254977,0.526471,35.068096,19.616196,9.600401,0.428861,1.500655,0.054794,0.000000,0.000000,0.000000,0.000000,0.000000,0.000000
13191239.000000,2.302593,-1.051961,-1.885257,-1.467714,-1.019305,1.791414,0.495871,0.036664,-0.628933,-0.386371,-0.275493,-0.593480,0.645766,0.250375,0.550275,35.460857,19.616196,9.600401,0.362943,1.546432,0.094161,0.000000,0.000000,0.000000,0.000000,0.000000,0.000000
13191240.000000,2.302631,-1.052580,-1.885634,-1.467984,-1.019898,1.792058,0.496116,0.035921,-0.617829,-0.376211,-0.274814,-0.582982,0.632539,0.248104,0.601850,35.631451,19.469406,9.576597,0.273221,1.611434,0.087753,0.000000,0.000000,0.000000,0.000000,0.000000,0.000000
13191241.000000,2.302673,-1.053217,-1.886028,-1.468258,-1.020489,1.792712,0.496355,0.036853,-0.625798,-0.382630,-0.273744,-0.586208,0.629320,0.247966,0.601850,35.802044,19.497177,9.552794,0.219205,1.617843,0.074935,0.000000,0.000000,0.000000,0.000000,0.000000,0.000000
13191242.000000,2.302719,-1.053854,-1.886426,-1.468526,-1.021093,1.793347,0.496604,0.042020,-0.633310,-0.386168,-0.272538,-0.595795,0.625685,0.246806,0.526471,35.901226,19.497177,9.477415,0.237516,1.662704,0.048385,0.000000,0.000000,0.000000,0.000000,0.000000,0.000000
13191243.000000,2.302761,-1.054476,-1.886817,-1.468792,-1.021701,1.794000,0.496847,0.043371,-0.623911,-0.382068,-0.267542,-0.588995,0.632067,0.246649,0.550275,35.853619,19.544785,9.354429,0.249418,1.670028,0.094161,0.000000,0.000000,0.000000,0.000000,0.000000,0.000000
13191244.000000,2.302802,-1.055095,-1.887220,-1.469067,-1.022319,1.794650,0.497094,0.043777,-0.621497,-0.389442,-0.271927,-0.598975,0.638002,0.251524,0.601850,35.730633,19.592392,9.306822,0.308927,1.578475,0.074935,0.000000,0.000000,0.000000,0.000000,0.000000,0.000000
13191245.000000,2.302841,-1.055715,-1.887619,-1.469341,-1.022914,1.795316,0.497341,0.041116,-0.611188,-0.395850,-0.273551,-0.586984,0.643176,0.248104,0.649457,35.631451,19.643967,9.306822,0.356534,1.448470,0.087753,0.000000,0.000000,0.000000,0.000000,0.000000,0.000000
13191246.000000,2.302886,-1.056335,-1.888026,-1.469615,-1.023525,1.795969,0.497593,0.039851,-0.616765,-0.390401,-0.267929,-0.580950,0.643415,0.250412,0.673261,35.385479,19.667770,9.330626,0.369352,1.409103,0.034652,0.000000,0.000000,0.000000,0.000000,0.000000,0.000000
13191247.000000,2.302933,-1.056955,-1.888427,-1.469886,-1.024135,1.796604,0.497833,0.042226,-0.622980,-0.394879,-0.265806,-0.587796,0.643955,0.245846,0.673261,35.143475,19.667770,9.279051,0.405057,1.494247,0.100570,0.000000,0.000000,0.000000,0.000000,0.000000,0.000000
13191248.000000,2.302972,-1.057572,-1.888826,-1.470159,-1.024742,1.797231,0.498081,0.041558,-0.619706,-0.390382,-0.264909,-0.586175,0.636453,0.247621,0.796247,35.020489,19.691574,9.255247,0.405057,1.637069,0.054794,0.000000,0.000000,0.000000,0.000000,0.000000,0.000000
13191249.000000,2.303025,-1.058190,-1.889235,-1.470430,-1.025338,1.797866,0.498326,0.045683,-0.615866,-0.396008,-0.264322,-0.588085,0.641000,0.246358,0.724836,34.826092,19.766953,9.231443,0.351041,1.702071,0.074935,0.000000,0.000000,0.000000,0.000000,0.000000,0.000000
13191250.000000,2.303072,-1.058800,-1.889646,-1.470694,-1.025943,1.798495,0.498570,0.045476,-0.619660,-0.405633,-0.268704,-0.585464,0.638197,0.244839,0.772443,34.532513,19.913742,9.156065,0.332731,1.656295,0.081344,0.000000,0.000000,0.000000,0.000000,0.000000,0.000000
13191251.000000,2.303119,-1.059424,-1.890056,-1.470964,-1.026547,1.799133,0.498814,0.049096,-0.625976,-0.401734,-0.265906,-0.578266,0.635451,0.244772,0.796247,34.357952,20.084335,9.108458,0.297025,1.605026,0.061202,0.000000,0.000000,0.000000,0.000000,0.000000,0.000000
13191252.000000,2.303168,-1.060052,-1.890472,-1.471229,-1.027166,1.799755,0.499060,0.050018,-0.632243,-0.407325,-0.268637,-0.587497,0.637457,0.242936,0.772443,34.262737,20.278732,9.156065,0.273221,1.591293,0.100570,0.000000,0.000000,0.000000,0.000000,0.000000,0.000000
13191253.000000,2.303203,-1.060667,-1.890886,-1.471491,-1.027776,1.800375,0.499312,0.044771,-0.617232,-0.404354,-0.266966,-0.584770,0.629676,0.249127,0.994611,34.163555,20.429489,9.132261,0.339139,1.662704,0.041976,0.000000,0.000000,0.000000,0.000000,0.000000,0.000000
13191254.000000,2.303250,-1.061306,-1.891302,-1.471758,-1.028396,1.800995,0.499564,0.048583,-0.621802,-0.410277,-0.266410,-0.597799,0.621470,0.245986,1.046186,34.238934,20.524704,9.156065,0.339139,1.800033,0.041976,0.000000,0.000000,0.000000,0.000000,0.000000,0.000000
13191255.000000,2.303293,-1.061946,-1.891721,-1.472016,-1.029008,1.801621,0.499807,0.046359,-0.631753,-0.414657,-0.263298,-0.589473,0.622780,0.241954,1.169172,34.310345,20.647690,9.179869,0.362943,1.773483,0.100570,0.000000,0.000000,0.000000,0.000000,0.000000,0.000000
13191256.000000,2.303334,-1.062582,-1.892131,-1.472285,-1.029638,1.802249,0.500061,0.043906,-0.631604,-0.412024,-0.265533,-0.592410,0.623025,0.245521,1.343732,34.433331,20.699265,9.279051,0.374845,1.735030,0.034652,0.000000,0.000000,0.000000,0.000000,0.000000,0.000000
13191257.000000,2.303375,-1.063216,-1.892561,-1.472554,-1.030257,1.802862,0.500304,0.043560,-0.631931,-0.420679,-0.264187,-0.593815,0.623043,0.242369,1.466718,34.480938,20.893661,9.378233,0.351041,1.741439,0.081344,0.000000,0.000000,0.000000,0.000000,0.000000,0.000000
13191258.000000,2.303424,-1.063839,-1.892985,-1.472810,-1.030883,1.803481,0.500551,0.041579,-0.620958,-0.416325,-0.260711,-0.597493,0.622260,0.242207,1.514325,34.433331,21.016647,9.378233,0.416959,1.754256,0.067611,0.000000,0.000000,0.000000,0.000000,0.000000,0.000000
13191259.000000,2.303469,-1.064476,-1.893408,-1.473070,-1.031510,1.804109,0.500791,0.044957,-0.629081,-0.419079,-0.261310,-0.607832,0.623392,0.237457,1.613508,34.433331,21.115829,9.406004,0.428861,1.721298,0.087753,0.000000,0.000000,0.000000,0.000000,0.000000,0.000000
13191260.000000,2.303513,-1.065116,-1.893831,-1.473329,-1.032134,1.804721,0.501031,0.044116,-0.640190,-0.419192,-0.256497,-0.614303,0.622208,0.240003,1.712690,34.556316,21.163437,9.453611,0.405057,1.747848,0.061202,0.000000,0.000000,0.000000,0.000000,0.000000,0.000000
13191261.000000,2.303566,-1.065737,-1.894249,-1.473593,-1.032757,1.805332,0.501262,0.046436,-0.629900,-0.415734,-0.256674,-0.610608,0.608358,0.237589,1.712690,34.480938,21.238815,9.528990,0.386747,1.832076,0.100570,0.000000,0.000000,0.000000,0.000000,0.000000,0.000000
13191262.000000,2.303608,-1.066365,-1.894677,-1.473855,-1.033390,1.805943,0.501508,0.044576,-0.628451,-0.417741,-0.256160,-0.619298,0.616426,0.242106,1.863447,34.409527,21.286423,9.576597,0.327238,1.844894,0.001693,0.000000,0.000000,0.000000,0.000000,0.000000,0.000000
13191263.000000,2.303654,-1.066991,-1.895082,-1.474115,-1.034019,1.806564,0.501736,0.043937,-0.623241,-0.413999,-0.255367,-0.619503,0.613562,0.234525,1.962629,34.286541,21.238815,9.600401,0.362943,1.832076,0.094161,0.000000,0.000000,0.000000,0.000000,0.000000,0.000000
13191264.000000,2.303709,-1.067622,-1.895504,-1.474379,-1.034667,1.807179,0.501975,0.045396,-0.629864,-0.410493,-0.255039,-0.616309,0.615262,0.233838,1.986432,34.064373,21.286423,9.675779,0.434354,1.838485,0.067611,0.000000,0.000000,0.000000,0.000000,0.000000,0.000000
13191265.000000,2.303759,-1.068255,-1.895929,-1.474633,-1.035299,1.807784,0.502213,0.048115,-0.636506,-0.414407,-0.253687,-0.630127,0.614957,0.237156,2.061811,33.893780,21.361801,9.727354,0.434354,1.897079,0.041976,0.000000,0.000000,0.000000,0.000000,0.000000,0.000000
13191266.000000,2.303811,-1.068875,-1.896338,-1.474885,-1.035934,1.808398,0.502435,0.048882,-0.628147,-0.408424,-0.252052,-0.623884,0.619455,0.236367,2.085615,33.675579,21.286423,9.699583,0.458158,1.909896,0.074935,0.000000,0.000000,0.000000,0.000000,0.000000,0.000000
13191267.000000,2.303869,-1.069513,-1.896744,-1.475140,-1.036573,1.809023,0.502671,0.054149,-0.630527,-0.405528,-0.252397,-0.636595,0.632631,0.233942,2.034040,33.647808,21.187241,9.727354,0.488370,1.844894,0.067611,0.000000,0.000000,0.000000,0.000000,0.000000,0.000000
13191268.000000,2.303933,-1.070164,-1.897159,-1.475375,-1.037202,1.809642,0.502906,0.055699,-0.645599,-0.409094,-0.246593,-0.626254,0.634686,0.230566,1.934858,33.869976,21.163437,9.628172,0.470060,1.721298,0.094161,0.000000,0.000000,0.000000,0.000000,0.000000,0.000000
13191269.000000,2.303990,-1.070816,-1.897556,-1.475620,-1.037830,1.810255,0.503143,0.057612,-0.642568,-0.402736,-0.246706,-0.622490,0.624364,0.232045,1.911054,34.016766,20.992844,9.600401,0.434354,1.727706,0.028243,0.000000,0.000000,0.000000,0.000000,0.000000,0.000000
13191270.000000,2.304058,-1.071478,-1.897961,-1.475864,-1.038463,1.810861,0.503372,0.060738,-0.653518,-0.398589,-0.247856,-0.628198,0.622185,0.224374,1.811872,34.262737,20.869858,9.651976,0.386747,1.767074,0.034652,0.000000,0.000000,0.000000,0.000000,0.000000,0.000000
13191271.000000,2.304124,-1.072121,-1.898354,-1.476100,-1.039081,1.811483,0.503593,0.062250,-0.643559,-0.390080,-0.244384,-0.628451,0.620714,0.225728,1.764264,34.385723,20.770676,9.600401,0.320829,1.773483,0.087753,0.000000,0.000000,0.000000,0.000000,0.000000,0.000000
13191272.000000,2.304197,-1.072769,-1.898750,-1.476331,-1.039716,1.812106,0.503828,0.066180,-0.648017,-0.391700,-0.238971,-0.630440,0.620969,0.227899,1.589704,34.357952,20.623886,9.576597,0.327238,1.773483,0.034652,0.000000,0.000000,0.000000,0.000000,0.000000,0.000000
13191273.000000,2.304279,-1.073430,-1.899153,-1.476568,-1.040328,1.812720,0.504054,0.069099,-0.657918,-0.394704,-0.240236,-0.635167,0.620542,0.229580,1.391340,34.457134,20.552475,9.628172,0.285123,1.793624,0.100570,0.000000,0.000000,0.000000,0.000000,0.000000,0.000000
13191274.000000,2.304356,-1.074074,-1.899550,-1.476802,-1.040958,1.813346,0.504282,0.070460,-0.646883,-0.391544,-0.234930,-0.626520,0.624427,0.229165,1.244550,34.433331,20.453293,9.699583,0.279630,1.773483,0.094161,0.000000,0.000000,0.000000,0.000000,0.000000,0.000000
13191275.000000,2.304430,-1.074735,-1.899940,-1.477038,-1.041586,1.813972,0.504517,0.072964,-0.658276,-0.388716,-0.233003,-0.637121,0.625751,0.224277,1.145368,34.580120,20.254929,9.850340,0.267728,1.727706,0.074935,0.000000,0.000000,0.000000,0.000000,0.000000,0.000000
13191276.000000,2.304512,-1.075377,-1.900334,-1.477273,-1.042206,1.814602,0.504745,0.075478,-0.644578,-0.392365,-0.233782,-0.627290,0.625201,0.223948,1.022382,34.580120,20.159714,9.973326,0.279630,1.714889,0.067611,0.000000,0.000000,0.000000,0.000000,0.000000,0.000000
13191277.000000,2.304595,-1.076030,-1.900728,-1.477508,-1.042832,1.815229,0.504968,0.080906,-0.648194,-0.386839,-0.229410,-0.634318,0.620000,0.228376,0.895429,34.504742,19.985153,10.048704,0.291532,1.695663,0.094161,0.000000,0.000000,0.000000,0.000000,0.000000,0.000000
13191278.000000,2.304681,-1.076697,-1.901121,-1.477746,-1.043465,1.815848,0.505204,0.084382,-0.660072,-0.388042,-0.233336,-0.634528,0.620957,0.228792,0.772443,34.580120,19.766953,10.270872,0.291532,1.682845,0.034652,0.000000,0.000000,0.000000,0.000000,0.000000,0.000000
13191279.000000,2.304772,-1.077356,-1.901512,-1.477977,-1.044094,1.816465,0.505426,0.085570,-0.657080,-0.383413,-0.233654,-0.630603,0.612178,0.222003,0.601850,34.726910,19.667770,10.393858,0.279630,1.747848,0.074935,0.000000,0.000000,0.000000,0.000000,0.000000,0.000000
13191280.000000,2.304857,-1.078020,-1.901901,-1.478207,-1.044719,1.817075,0.505656,0.084442,-0.663217,-0.386395,-0.232565,-0.629819,0.626179,0.223260,0.502668,34.873699,19.520981,10.465269,0.219205,1.727706,0.067611,0.000000,0.000000,0.000000,0.000000,0.000000,0.000000
13191281.000000,2.304947,-1.078680,-1.902290,-1.478429,-1.045341,1.817693,0.505884,0.087986,-0.652879,-0.390972,-0.231021,-0.624048,0.622608,0.219032,0.375715,35.044292,19.445602,10.493040,0.159696,1.670028,0.048385,0.000000,0.000000,0.000000,0.000000,0.000000,0.000000
13191282.000000,2.305041,-1.079344,-1.902688,-1.478658,-1.045975,1.818310,0.506110,0.091399,-0.658716,-0.385652,-0.228049,-0.616947,0.618714,0.221216,0.177350,35.119671,19.374191,10.592222,0.154203,1.630660,0.074935,0.000000,0.000000,0.000000,0.000000,0.000000,0.000000
13191283.000000,2.305133,-1.080011,-1.903078,-1.478873,-1.046620,1.818919,0.506337,0.090849,-0.663292,-0.386851,-0.231385,-0.630928,0.615338,0.222256,0.105939,35.119671,19.298813,10.564451,0.166105,1.617843,0.067611,0.000000,0.000000,0.000000,0.000000,0.000000,0.000000
13191284.000000,2.305232,-1.080665,-1.903468,-1.479096,-1.047249,1.819520,0.506567,0.092953,-0.653603,-0.386964,-0.226671,-0.623108,0.613317,0.230534,-0.044818,35.044292,19.298813,10.564451,0.159696,1.682845,0.087753,0.000000,0.000000,0.000000,0.000000,0.000000,0.000000
13191285.000000,2.305326,-1.081320,-1.903865,-1.479317,-1.047896,1.820126,0.506809,0.093299,-0.661742,-0.392394,-0.224270,-0.633311,0.608691,0.236163,-0.144000,34.873699,19.298813,10.616026,0.213712,1.727706,0.021835,0.000000,0.000000,0.000000,0.000000,0.000000,0.000000
13191286.000000,2.305425,-1.081969,-1.904268,-1.479538,-1.048533,1.820719,0.507038,0.093672,-0.666754,-0.397788,-0.221683,-0.639900,0.604675,0.230980,-0.266986,34.726910,19.346420,10.762815,0.255826,1.800033,0.067611,0.000000,0.000000,0.000000,0.000000,0.000000,0.000000
13191287.000000,2.305516,-1.082623,-1.904665,-1.479747,-1.049184,1.821337,0.507259,0.094050,-0.651274,-0.393773,-0.218648,-0.630401,0.606891,0.223014,-0.215411,34.532513,19.421799,10.762815,0.273221,1.714889,0.107894,0.000000,0.000000,0.000000,0.000000,0.000000,0.000000
13191288.000000,2.305616,-1.083288,-1.905062,-1.479964,-1.049824,1.821939,0.507493,0.096645,-0.656415,-0.397438,-0.216251,-0.630840,0.606855,0.229100,-0.290789,34.433331,19.421799,10.861998,0.267728,1.695663,0.087753,0.000000,0.000000,0.000000,0.000000,0.000000,0.000000
13191289.000000,2.305715,-1.083933,-1.905464,-1.480174,-1.050464,1.822534,0.507732,0.095770,-0.647577,-0.394028,-0.213780,-0.626429,0.598679,0.238510,-0.366168,34.115948,19.568588,10.937376,0.249418,1.760665,0.034652,0.000000,0.000000,0.000000,0.000000,0.000000,0.000000
13191290.000000,2.305810,-1.084579,-1.905867,-1.480373,-1.051114,1.823135,0.507957,0.094014,-0.654984,-0.395248,-0.208607,-0.635166,0.595589,0.234127,-0.389971,33.746990,19.616196,10.885801,0.315336,1.754256,0.067611,0.000000,0.000000,0.000000,0.000000,0.000000,0.000000
13191291.000000,2.305909,-1.085238,-1.906271,-1.480574,-1.051767,1.823723,0.508182,0.095524,-0.662086,-0.397206,-0.207015,-0.643520,0.591215,0.229524,-0.413775,33.576397,19.715378,10.913572,0.297025,1.800033,0.107894,0.000000,0.000000,0.000000,0.000000,0.000000,0.000000
13191292.000000,2.306009,-1.085897,-1.906669,-1.480773,-1.052409,1.824313,0.508409,0.097466,-0.652198,-0.396307,-0.204562,-0.640196,0.586782,0.226417,-0.441546,33.552593,19.790756,10.885801,0.369352,1.838485,0.048385,0.000000,0.000000,0.000000,0.000000,0.000000,0.000000
13191293.000000,2.306099,-1.086571,-1.907073,-1.480970,-1.053057,1.824893,0.508629,0.095504,-0.659943,-0.396441,-0.200421,-0.645524,0.583655,0.224525,-0.342364,33.647808,19.838364,10.885801,0.303434,1.909896,0.074935,0.000000,0.000000,0.000000,0.000000,0.000000,0.000000
13191294.000000,2.306195,-1.087237,-1.907475,-1.481163,-1.053691,1.825482,0.508866,0.095816,-0.652537,-0.403260,-0.194992,-0.639857,0.588838,0.225589,-0.314593,33.746990,19.885971,10.913572,0.249418,1.903487,0.028243,0.000000,0.000000,0.000000,0.000000,0.000000,0.000000
13191295.000000,2.306289,-1.087914,-1.907886,-1.481351,-1.054348,1.826089,0.509093,0.095488,-0.670990,-0.397877,-0.195108,-0.648154,0.595932,0.224667,-0.243182,33.917583,20.008957,10.885801,0.267728,1.806442,0.054794,0.000000,0.000000,0.000000,0.000000,0.000000,0.000000
13191296.000000,2.306384,-1.088600,-1.908295,-1.481534,-1.054999,1.826669,0.509326,0.092145,-0.681809,-0.400804,-0.188640,-0.653033,0.593298,0.224448,-0.191607,34.088177,20.060532,10.814390,0.255826,1.800033,0.061202,0.000000,0.000000,0.000000,0.000000,0.000000,0.000000
13191297.000000,2.306482,-1.089281,-1.908703,-1.481716,-1.055648,1.827252,0.509564,0.094165,-0.675352,-0.395862,-0.183956,-0.645638,0.582374,0.233192,-0.167803,34.310345,20.159714,10.739012,0.279630,1.877853,0.028243,0.000000,0.000000,0.000000,0.000000,0.000000,0.000000
13191298.000000,2.306575,-1.089969,-1.909110,-1.481898,-1.056304,1.827832,0.509784,0.094921,-0.677366,-0.400391,-0.181477,-0.652693,0.593409,0.229575,-0.116229,34.457134,20.131943,10.715208,0.303434,1.890670,0.074935,0.000000,0.000000,0.000000,0.000000,0.000000,0.000000
13191299.000000,2.306665,-1.090652,-1.909516,-1.482075,-1.056944,1.828431,0.510021,0.093219,-0.673479,-0.397973,-0.179073,-0.642685,0.589596,0.230652,0.006757,34.651531,20.084335,10.663633,0.315336,1.812850,0.021835,0.000000,0.000000,0.000000,0.000000,0.000000,0.000000
13191300.000000,2.306758,-1.091339,-1.909914,-1.482253,-1.057590,1.829031,0.510242,0.093928,-0.686034,-0.395073,-0.176274,-0.639474,0.588620,0.227208,0.078168,34.826092,20.084335,10.592222,0.297025,1.662704,0.081344,0.000000,0.000000,0.000000,0.000000,0.000000,0.000000
13191301.000000,2.306848,-1.092030,-1.910314,-1.482434,-1.058237,1.829615,0.510477,0.093143,-0.693762,-0.396142,-0.181602,-0.642792,0.587221,0.223859,0.177350,34.972881,20.008957,10.592222,0.291532,1.662704,0.028243,0.000000,0.000000,0.000000,0.000000,0.000000,0.000000
13191302.000000,2.306943,-1.092700,-1.910709,-1.482609,-1.058876,1.830189,0.510701,0.091111,-0.684559,-0.390900,-0.176406,-0.639552,0.576613,0.224666,0.228925,34.945110,19.913742,10.564451,0.249418,1.754256,0.054794,0.000000,0.000000,0.000000,0.000000,0.000000,0.000000
13191303.000000,2.307033,-1.093378,-1.911115,-1.482775,-1.059522,1.830775,0.510927,0.091432,-0.682648,-0.395790,-0.170073,-0.642839,0.575237,0.226104,0.328107,34.826092,19.937546,10.441465,0.249418,1.832076,0.028243,0.000000,0.000000,0.000000,0.000000,0.000000,0.000000
13191304.000000,2.307131,-1.094052,-1.911508,-1.482932,-1.060165,1.831354,0.511151,0.094205,-0.686775,-0.395224,-0.168028,-0.649526,0.572916,0.225887,0.328107,34.703106,19.790756,10.270872,0.243009,1.832076,0.028243,0.000000,0.000000,0.000000,0.000000,0.000000,0.000000
13191305.000000,2.307225,-1.094732,-1.911898,-1.483087,-1.060800,1.831941,0.511378,0.096951,-0.676833,-0.390843,-0.162469,-0.635834,0.574204,0.221055,0.403486,34.532513,19.667770,10.072508,0.195402,1.851302,0.034652,0.000000,0.000000,0.000000,0.000000,0.000000,0.000000
13191306.000000,2.307318,-1.095416,-1.912305,-1.483250,-1.061450,1.832523,0.511604,0.096750,-0.679045,-0.395900,-0.159876,-0.639909,0.568116,0.224578,0.451093,34.409527,19.691574,10.048704,0.189908,1.832076,0.067611,0.000000,0.000000,0.000000,0.000000,0.000000,0.000000
13191307.000000,2.307415,-1.096103,-1.912693,-1.483394,-1.062079,1.833118,0.511840,0.094110,-0.682245,-0.385622,-0.155912,-0.627941,0.573760,0.223226,0.474897,34.532513,19.520981,9.822569,0.154203,1.779891,0.074935,0.000000,0.000000,0.000000,0.000000,0.000000,0.000000
13191308.000000,2.307510,-1.096810,-1.913094,-1.483537,-1.062727,1.833721,0.512071,0.097947,-0.702299,-0.392020,-0.151112,-0.638163,0.575762,0.224562,0.526471,34.798321,19.520981,9.651976,0.147794,1.662704,0.028243,0.000000,0.000000,0.000000,0.000000,0.000000,0.000000
13191309.000000,2.307615,-1.097521,-1.913497,-1.483671,-1.063379,1.834313,0.512293,0.099636,-0.705585,-0.395141,-0.147350,-0.643702,0.579888,0.217942,0.474897,35.068096,19.469406,9.453611,0.195402,1.605026,0.081344,0.000000,0.000000,0.000000,0.000000,0.000000,0.000000
13191310.000000,2.307718,-1.098225,-1.913899,-1.483803,-1.064020,1.834904,0.512530,0.101044,-0.699787,-0.396111,-0.140812,-0.637551,0.577620,0.227180,0.427289,35.314068,19.445602,9.231443,0.189908,1.643478,0.021835,0.000000,0.000000,0.000000,0.000000,0.000000,0.000000
13191311.000000,2.307817,-1.098933,-1.914307,-1.483941,-1.064654,1.835493,0.512760,0.100883,-0.700697,-0.399040,-0.139009,-0.635835,0.585509,0.226130,0.427289,35.437054,19.445602,9.132261,0.154203,1.611434,0.041976,0.000000,0.000000,0.000000,0.000000,0.000000,0.000000
13191312.000000,2.307920,-1.099643,-1.914715,-1.484066,-1.065301,1.836088,0.512989,0.104402,-0.700450,-0.402317,-0.133572,-0.635085,0.586615,0.229134,0.403486,35.730633,19.497177,9.009275,0.171598,1.572067,0.061202,0.000000,0.000000,0.000000,0.000000,0.000000,0.000000
13191313.000000,2.308033,-1.100365,-1.915117,-1.484191,-1.065948,1.836689,0.513218,0.106199,-0.715155,-0.398442,-0.129901,-0.642232,0.592391,0.230218,0.276533,36.000408,19.520981,8.910093,0.123990,1.507064,0.021835,0.000000,0.000000,0.000000,0.000000,0.000000,0.000000
13191314.000000,2.308136,-1.101076,-1.915532,-1.484321,-1.066610,1.837267,0.513437,0.107131,-0.721870,-0.403734,-0.131510,-0.648943,0.588983,0.221253,0.276533,36.123394,19.667770,8.985472,0.123990,1.532699,0.074935,0.000000,0.000000,0.000000,0.000000,0.000000,0.000000
13191315.000000,2.308237,-1.101774,-1.915943,-1.484441,-1.067259,1.837847,0.513662,0.107232,-0.715091,-0.398994,-0.126553,-0.646362,0.589404,0.223693,0.328107,36.071819,19.814560,8.957701,0.123990,1.572067,0.041976,0.000000,0.000000,0.000000,0.000000,0.000000,0.000000
13191316.000000,2.308339,-1.102479,-1.916354,-1.484574,-1.067921,1.838435,0.513893,0.106750,-0.710132,-0.400071,-0.129438,-0.648402,0.594106,0.224418,0.375715,36.048016,19.937546,9.084654,0.141385,1.565658,0.041976,0.000000,0.000000,0.000000,0.000000,0.000000,0.000000
13191317.000000,2.308446,-1.103192,-1.916773,-1.484702,-1.068579,1.839012,0.514124,0.105465,-0.718334,-0.404720,-0.130000,-0.650466,0.596746,0.223573,0.375715,36.242413,20.084335,9.156065,0.195402,1.559249,0.034652,0.000000,0.000000,0.000000,0.000000,0.000000,0.000000
13191318.000000,2.308545,-1.103911,-1.917192,-1.484823,-1.069239,1.839581,0.514345,0.105092,-0.711720,-0.403981,-0.125906,-0.641972,0.588084,0.223824,0.451093,36.416973,20.254929,9.179869,0.213712,1.670028,0.087753,0.000000,0.000000,0.000000,0.000000,0.000000,0.000000
13191319.000000,2.308648,-1.104631,-1.917615,-1.484947,-1.069904,1.840142,0.514568,0.102961,-0.717951,-0.407073,-0.129871,-0.652463,0.579180,0.225008,0.502668,36.587566,20.401718,9.255247,0.201810,1.767074,0.061202,0.000000,0.000000,0.000000,0.000000,0.000000,0.000000
13191320.000000,2.308755,-1.105333,-1.918034,-1.485070,-1.070559,1.840726,0.514785,0.104577,-0.710440,-0.403797,-0.130258,-0.647161,0.581199,0.225458,0.550275,36.611370,20.552475,9.330626,0.178007,1.735030,0.028243,0.000000,0.000000,0.000000,0.000000,0.000000,0.000000
13191321.000000,2.308868,-1.106049,-1.918465,-1.485189,-1.071228,1.841310,0.515005,0.107683,-0.719716,-0.411101,-0.125615,-0.652750,0.581172,0.224131,0.502668,36.682781,20.746872,9.330626,0.178007,1.611434,0.067611,0.000000,0.000000,0.000000,0.000000,0.000000,0.000000
13191322.000000,2.308980,-1.106774,-1.918906,-1.485299,-1.071880,1.841876,0.515232,0.109408,-0.731616,-0.421093,-0.121004,-0.652794,0.575577,0.225393,0.451093,36.805767,21.016647,9.279051,0.178007,1.649886,0.028243,0.000000,0.000000,0.000000,0.000000,0.000000,0.000000
13191323.000000,2.309091,-1.107481,-1.919330,-1.485413,-1.072555,1.842426,0.515445,0.110965,-0.717635,-0.417606,-0.117087,-0.650507,0.557552,0.223478,0.451093,36.833538,21.139633,9.207640,0.219205,1.779891,0.067611,0.000000,0.000000,0.000000,0.000000,0.000000,0.000000
13191324.000000,2.309201,-1.108198,-1.919768,-1.485528,-1.073227,1.842978,0.515663,0.110996,-0.714736,-0.424521,-0.115043,-0.660728,0.552203,0.219823,0.451093,36.833538,21.361801,9.156065,0.255826,1.865035,0.048385,0.000000,0.000000,0.000000,0.000000,0.000000,0.000000
13191325.000000,2.309319,-1.108913,-1.920199,-1.485638,-1.073897,1.843549,0.515876,0.112961,-0.709615,-0.429058,-0.114111,-0.654971,0.553327,0.216719,0.375715,36.881145,21.532394,9.132261,0.285123,1.806442,0.054794,0.000000,0.000000,0.000000,0.000000,0.000000,0.000000
13191326.000000,2.309427,-1.109638,-1.920637,-1.485753,-1.074560,1.844125,0.516088,0.112135,-0.720103,-0.433218,-0.108636,-0.662747,0.558587,0.214502,0.403486,36.904949,21.702988,9.179869,0.285123,1.735030,0.048385,0.000000,0.000000,0.000000,0.000000,0.000000,0.000000
13191327.000000,2.309537,-1.110363,-1.921074,-1.485861,-1.075231,1.844679,0.516307,0.110380,-0.724315,-0.431844,-0.107339,-0.667503,0.554569,0.216785,0.451093,36.881145,21.849777,9.207640,0.249418,1.767074,0.034652,0.000000,0.000000,0.000000,0.000000,0.000000,0.000000
13191328.000000,2.309656,-1.111067,-1.921506,-1.485966,-1.075898,1.845237,0.516516,0.111381,-0.719310,-0.429820,-0.104949,-0.665966,0.558805,0.217929,0.427289,36.758160,22.024338,9.179869,0.279630,1.812850,0.067611,0.000000,0.000000,0.000000,0.000000,0.000000,0.000000
13191329.000000,2.309767,-1.111788,-1.921942,-1.486064,-1.076574,1.845790,0.516735,0.111030,-0.728916,-0.433480,-0.101618,-0.669534,0.560345,0.215832,0.451093,36.682781,22.119553,9.084654,0.356534,1.825668,0.034652,0.000000,0.000000,0.000000,0.000000,0.000000,0.000000
13191330.000000,2.309880,-1.112505,-1.922390,-1.486165,-1.077233,1.846345,0.516945,0.110570,-0.723107,-0.438495,-0.103977,-0.662847,0.560115,0.215558,0.474897,36.710552,22.294113,9.056883,0.339139,1.865035,0.081344,0.000000,0.000000,0.000000,0.000000,0.000000,0.000000
13191331.000000,2.309984,-1.113218,-1.922819,-1.486271,-1.077897,1.846902,0.517157,0.110897,-0.712762,-0.431511,-0.103628,-0.648655,0.559747,0.214558,0.601850,36.587566,22.365524,9.084654,0.303434,1.916305,0.054794,0.000000,0.000000,0.000000,0.000000,0.000000,0.000000
13191332.000000,2.310095,-1.113945,-1.923248,-1.486376,-1.078563,1.847451,0.517375,0.109602,-0.713635,-0.432484,-0.103986,-0.658896,0.556825,0.212855,0.673261,36.635174,22.341721,9.132261,0.213712,1.916305,0.041976,0.000000,0.000000,0.000000,0.000000,0.000000,0.000000
13191333.000000,2.310204,-1.114681,-1.923682,-1.486481,-1.079208,1.848022,0.517592,0.108901,-0.711286,-0.431359,-0.104738,-0.643067,0.555704,0.220284,0.748639,36.904949,22.440903,9.207640,0.166105,1.851302,0.009017,0.000000,0.000000,0.000000,0.000000,0.000000,0.000000
13191334.000000,2.310302,-1.115425,-1.924116,-1.486576,-1.079885,1.848570,0.517797,0.104911,-0.724308,-0.433177,-0.102777,-0.655320,0.560539,0.213466,0.970807,37.150921,22.440903,9.179869,0.195402,1.825668,0.100570,0.000000,0.000000,0.000000,0.000000,0.000000,0.000000
13191335.000000,2.310414,-1.116161,-1.924547,-1.486674,-1.080548,1.849113,0.518016,0.105079,-0.739253,-0.431709,-0.099727,-0.651792,0.552696,0.218126,1.046186,37.392925,22.440903,9.207640,0.255826,1.942855,0.067611,0.000000,0.000000,0.000000,0.000000,0.000000,0.000000
13191336.000000,2.310523,-1.116900,-1.924978,-1.486775,-1.081225,1.849669,0.518232,0.104744,-0.734384,-0.428684,-0.098212,-0.647362,0.550067,0.216900,1.145368,37.615093,22.540085,9.279051,0.267728,1.942855,0.028243,0.000000,0.000000,0.000000,0.000000,0.000000,0.000000
13191337.000000,2.310624,-1.117636,-1.925401,-1.486870,-1.081901,1.850227,0.518438,0.103335,-0.743529,-0.426086,-0.096720,-0.659048,0.556661,0.212019,1.315961,37.738079,22.440903,9.330626,0.327238,1.871444,0.081344,0.000000,0.000000,0.000000,0.000000,0.000000,0.000000
13191338.000000,2.310731,-1.118357,-1.925823,-1.486966,-1.082566,1.850792,0.518660,0.103871,-0.736604,-0.423825,-0.098448,-0.654695,0.555891,0.218813,1.415143,37.761883,22.417099,9.378233,0.273221,1.800033,0.041976,0.000000,0.000000,0.000000,0.000000,0.000000,0.000000
13191339.000000,2.310837,-1.119085,-1.926241,-1.487066,-1.083239,1.851356,0.518876,0.104279,-0.741968,-0.422639,-0.097269,-0.662413,0.558715,0.214717,1.514325,37.761883,22.294113,9.453611,0.267728,1.760665,0.067611,0.000000,0.000000,0.000000,0.000000,0.000000,0.000000
13191340.000000,2.310940,-1.119806,-1.926658,-1.487166,-1.083911,1.851903,0.519097,0.103970,-0.738374,-0.421830,-0.100565,-0.662330,0.557896,0.212872,1.641279,37.567486,22.071945,9.576597,0.237516,1.819259,0.061202,0.000000,0.000000,0.000000,0.000000,0.000000,0.000000
13191341.000000,2.311053,-1.120519,-1.927075,-1.487258,-1.084569,1.852455,0.519313,0.106059,-0.718644,-0.416282,-0.096778,-0.660001,0.556064,0.212436,1.688886,37.369122,21.948959,9.576597,0.195402,1.884261,0.041976,0.000000,0.000000,0.000000,0.000000,0.000000,0.000000
13191342.000000,2.311158,-1.121238,-1.927491,-1.487346,-1.085237,1.853002,0.519523,0.108583,-0.714690,-0.413620,-0.091300,-0.661741,0.555376,0.209163,1.811872,37.127117,21.802170,9.576597,0.189908,1.974899,0.067611,0.000000,0.000000,0.000000,0.000000,0.000000,0.000000
13191343.000000,2.311271,-1.121946,-1.927908,-1.487429,-1.085901,1.853558,0.519736,0.109304,-0.703735,-0.413037,-0.089668,-0.657875,0.553582,0.208251,1.835676,36.857342,21.702988,9.552794,0.159696,1.974899,0.048385,0.000000,0.000000,0.000000,0.000000,0.000000,0.000000
13191344.000000,2.311376,-1.122678,-1.928318,-1.487509,-1.086556,1.854131,0.519944,0.105595,-0.717319,-0.416101,-0.087677,-0.654225,0.558430,0.210438,1.911054,36.857342,21.580002,9.501219,0.112089,1.909896,0.074935,0.000000,0.000000,0.000000,0.000000,0.000000,0.000000
13191345.000000,2.311486,-1.123412,-1.928733,-1.487587,-1.087230,1.854680,0.520160,0.106729,-0.727678,-0.415287,-0.084251,-0.660430,0.551775,0.211052,1.934858,36.857342,21.508591,9.477415,0.058073,1.884261,0.028243,0.000000,0.000000,0.000000,0.000000,0.000000,0.000000
13191346.000000,2.311600,-1.124148,-1.929141,-1.487659,-1.087903,1.855241,0.520369,0.108528,-0.727507,-0.406973,-0.080461,-0.652811,0.551279,0.209237,1.934858,37.075542,21.433212,9.406004,0.129484,1.838485,0.048385,0.000000,0.000000,0.000000,0.000000,0.000000,0.000000
13191347.000000,2.311713,-1.124882,-1.929557,-1.487732,-1.088590,1.855803,0.520576,0.111166,-0.735986,-0.408155,-0.075534,-0.664352,0.549398,0.208420,1.887250,37.174725,21.484787,9.378233,0.207303,1.735030,0.054794,0.000000,0.000000,0.000000,0.000000,0.000000,0.000000
13191350.000000,2.312060,-1.127075,-1.930814,-1.487938,-1.090625,1.857455,0.521196,0.116346,-0.726444,-0.409217,-0.070513,-0.671336,0.556107,0.208593,1.911054,37.345318,21.702988,9.330626,0.356534,1.735030,0.074935,0.000000,0.000000,0.000000,0.000000,0.000000,0.000000
13191351.000000,2.312177,-1.127797,-1.931228,-1.488010,-1.091291,1.858000,0.521404,0.115946,-0.716692,-0.404650,-0.070220,-0.661010,0.550211,0.210425,1.887250,37.297710,21.802170,9.406004,0.320829,1.793624,0.094161,0.000000,0.000000,0.000000,0.000000,0.000000,0.000000
13191352.000000,2.312298,-1.128525,-1.931645,-1.488070,-1.091955,1.858545,0.521618,0.116511,-0.720888,-0.404211,-0.068338,-0.665001,0.557611,0.211352,1.835676,37.174725,21.802170,9.406004,0.171598,1.851302,0.041976,0.000000,0.000000,0.000000,0.000000,0.000000,0.000000
13191353.000000,2.312425,-1.129246,-1.932071,-1.488137,-1.092642,1.859085,0.521825,0.117230,-0.729787,-0.410727,-0.069615,-0.668914,0.552445,0.208641,1.740461,37.127117,21.948959,9.528990,0.141385,1.923629,0.067611,0.000000,0.000000,0.000000,0.000000,0.000000,0.000000
13191354.000000,2.312544,-1.129979,-1.932479,-1.488204,-1.093311,1.859622,0.522032,0.117583,-0.724527,-0.403854,-0.069919,-0.659148,0.543309,0.204897,1.764264,37.174725,21.925156,9.628172,0.100187,1.988631,0.034652,0.000000,0.000000,0.000000,0.000000,0.000000,0.000000
13191355.000000,2.312667,-1.130718,-1.932898,-1.488265,-1.093998,1.860160,0.522239,0.120148,-0.730614,-0.407208,-0.067143,-0.669716,0.539591,0.207682,1.740461,37.321514,22.071945,9.600401,0.201810,2.001449,0.081344,0.000000,0.000000,0.000000,0.000000,0.000000,0.000000
13191356.000000,2.312792,-1.131434,-1.933320,-1.488336,-1.094671,1.860705,0.522451,0.122806,-0.726751,-0.412800,-0.068072,-0.665905,0.536706,0.210284,1.788068,37.321514,22.317917,9.699583,0.231107,1.988631,0.074935,0.000000,0.000000,0.000000,0.000000,0.000000,0.000000
13191357.000000,2.312921,-1.132159,-1.933744,-1.488403,-1.095364,1.861260,0.522664,0.124981,-0.735619,-0.418437,-0.068179,-0.672435,0.542580,0.206482,1.712690,37.297710,22.393295,9.774961,0.410551,1.903487,0.028243,0.000000,0.000000,0.000000,0.000000,0.000000,0.000000
13191358.000000,2.313048,-1.132889,-1.934173,-1.488463,-1.096039,1.861802,0.522864,0.125246,-0.737477,-0.420185,-0.067115,-0.674459,0.541355,0.203126,1.665082,37.297710,22.512314,9.798765,0.405057,1.832076,0.087753,0.000000,0.000000,0.000000,0.000000,0.000000,0.000000
13191359.000000,2.313183,-1.133605,-1.934588,-1.488518,-1.096697,1.862342,0.523073,0.129243,-0.722369,-0.414451,-0.061529,-0.667964,0.542405,0.207294,1.514325,37.174725,22.540085,9.751158,0.362943,1.786300,0.061202,0.000000,0.000000,0.000000,0.000000,0.000000,0.000000
13191360.000000,2.313318,-1.134327,-1.935010,-1.488573,-1.097374,1.862862,0.523269,0.128041,-0.725462,-0.415759,-0.058723,-0.671495,0.538526,0.201005,1.367536,37.004131,22.587692,9.751158,0.351041,1.909896,0.067611,0.000000,0.000000,0.000000,0.000000,0.000000,0.000000
13191361.000000,2.313459,-1.135052,-1.935428,-1.488620,-1.098027,1.863378,0.523477,0.130806,-0.720145,-0.415594,-0.055440,-0.660864,0.525756,0.204465,1.169172,36.952557,22.587692,9.699583,0.231107,2.060043,0.021835,0.000000,0.000000,0.000000,0.000000,0.000000,0.000000
13191362.000000,2.313596,-1.135795,-1.935841,-1.488666,-1.098692,1.863906,0.523671,0.135689,-0.734933,-0.413960,-0.051757,-0.659496,0.517664,0.202375,1.093793,37.075542,22.587692,9.600401,0.129484,2.157089,0.094161,0.000000,0.000000,0.000000,0.000000,0.000000,0.000000
13191363.000000,2.313738,-1.136528,-1.936250,-1.488710,-1.099371,1.864496,0.523900,0.137916,-0.735607,-0.412919,-0.047420,-0.674703,0.543706,0.212208,0.970807,36.928753,22.540085,9.552794,0.123990,1.539108,-0.149369,0.000000,0.000000,0.000000,0.000000,0.000000,0.000000
13191364.000000,2.313882,-1.137242,-1.936672,-1.488763,-1.100170,1.865673,0.524056,0.140499,-0.726394,-0.412576,-0.048185,-0.708644,0.759957,0.196087,0.824018,36.682781,22.710678,9.675779,1.283048,-4.098710,0.318465,0.000000,0.000000,0.000000,0.000000,0.000000,0.000000
13191365.000000,2.313997,-1.137983,-1.937136,-1.488850,-1.100914,1.866413,0.524327,0.133096,-0.737129,-0.432014,-0.060487,-0.723071,0.780949,0.223635,1.069990,36.682781,23.397018,10.318480,1.707853,-5.190934,-0.320573,0.000000,0.000000,0.000000,0.000000,0.000000,0.000000
13191366.000000,2.314073,-1.138768,-1.937417,-1.488828,-1.101687,1.867044,0.524528,0.114288,-0.750745,-0.381520,-0.031418,-0.745056,0.733081,0.211305,1.887250,37.468304,21.457016,9.378233,2.406400,-4.501542,-0.294938,0.000000,0.000000,0.000000,0.000000,0.000000,0.000000
13191367.000000,2.314257,-1.139611,-1.937699,-1.488721,-1.102490,1.868066,0.524686,0.138351,-0.779929,-0.341841,0.016620,-0.751579,0.830535,0.194817,1.145368,38.936199,19.715378,7.350951,2.974027,-6.856278,0.100570,0.000000,0.000000,0.000000,0.000000,0.000000,0.000000
13191368.000000,2.314488,-1.140448,-1.938036,-1.488637,-1.103239,1.868812,0.524879,0.169749,-0.801072,-0.338128,0.040601,-0.762500,0.798525,0.192966,-0.243182,40.185894,18.906052,5.819579,2.890714,-6.348161,0.239730,0.000000,0.000000,0.000000,0.000000,0.000000,0.000000
13191369.000000,2.314585,-1.141240,-1.938191,-1.488557,-1.104033,1.869566,0.525160,0.143103,-0.789809,-0.273445,0.052707,-0.762863,0.771577,0.217312,0.427289,40.773052,15.716354,4.609557,3.219388,-5.515946,-0.452409,0.000000,0.000000,0.000000,0.000000,0.000000,0.000000
13191370.000000,2.314665,-1.142018,-1.938313,-1.488462,-1.104795,1.870368,0.525262,0.120719,-0.785269,-0.217215,0.069109,-0.759548,0.771358,0.174009,1.292158,40.820660,12.352097,3.470946,3.028043,-5.073747,0.443893,0.000000,0.000000,0.000000,0.000000,0.000000,0.000000
13191371.000000,2.314859,-1.142812,-1.938428,-1.488369,-1.105516,1.871155,0.525454,0.143320,-0.792078,-0.179807,0.078694,-0.749948,0.766221,0.176622,0.526471,41.213421,9.309189,2.582274,2.484220,-4.800920,0.503402,0.000000,0.000000,0.000000,0.000000,0.000000,0.000000
13191372.000000,2.314997,-1.143580,-1.938443,-1.488203,-1.106285,1.871867,0.525688,0.141412,-0.770946,-0.120934,0.105983,-0.745905,0.733532,0.191982,0.550275,41.042828,5.381577,0.852537,2.514432,-4.013566,0.081344,0.000000,0.000000,0.000000,0.000000,0.000000,0.000000
13191373.000000,2.315063,-1.144269,-1.938418,-1.488029,-1.107038,1.872379,0.525849,0.119055,-0.741107,-0.066899,0.128548,-0.747325,0.653162,0.180805,1.565900,39.745525,1.406357,-0.754213,2.365201,-1.881303,0.318465,0.000000,0.000000,0.000000,0.000000,0.000000,0.000000
13191374.000000,2.315155,-1.144891,-1.938370,-1.487919,-1.107668,1.872941,0.526044,0.109416,-0.693023,-0.027566,0.123228,-0.691123,0.616747,0.183644,2.232404,37.714275,-2.251480,-1.174745,1.379179,-0.632523,0.272689,0.000000,0.000000,0.000000,0.000000,0.000000,0.000000
13191375.000000,2.315224,-1.145451,-1.938291,-1.487775,-1.108365,1.873555,0.526236,0.094205,-0.655085,0.009117,0.127326,-0.691771,0.612005,0.183614,3.148847,34.798321,-5.758560,-1.869020,1.121915,-0.489701,0.180221,0.000000,0.000000,0.000000,0.000000,0.000000,0.000000
13191376.000000,2.315261,-1.145975,-1.938182,-1.487619,-1.109036,1.874139,0.526389,0.072377,-0.610469,0.042746,0.134377,-0.691804,0.604156,0.173606,4.410444,31.592754,-9.146622,-2.559328,0.840848,-0.664567,0.476852,0.000000,0.000000,0.000000,0.000000,0.000000,0.000000
13191377.000000,2.315280,-1.146450,-1.938023,-1.487492,-1.109697,1.874673,0.526588,0.051431,-0.557778,0.079726,0.135117,-0.672551,0.584524,0.182868,5.798994,28.216595,-12.681473,-2.634706,0.715421,-0.814713,0.305648,0.000000,0.000000,0.000000,0.000000,0.000000,0.000000
13191378.000000,2.315269,-1.146889,-1.937853,-1.487382,-1.110296,1.875180,0.526750,0.030240,-0.521128,0.108323,0.124049,-0.654183,0.560870,0.172452,7.457319,24.618267,-15.871170,-2.285585,0.201810,-1.009721,0.476852,0.000000,0.000000,0.000000,0.000000,0.000000,0.000000
13191379.000000,2.315264,-1.147287,-1.937649,-1.487270,-1.110868,1.875605,0.526930,0.015152,-0.474708,0.136222,0.120852,-0.618361,0.515213,0.172853,8.869672,21.091351,-19.064835,-1.940431,-0.306307,-0.613297,0.464034,0.000000,0.000000,0.000000,0.000000,0.000000,0.000000
13191380.000000,2.315248,-1.147679,-1.937452,-1.487131,-1.111389,1.876027,0.527120,0.004911,-0.439883,0.153099,0.124547,-0.594384,0.487961,0.176683,10.254254,17.810406,-21.687210,-1.940431,-1.155001,-0.385331,0.351424,0.000000,0.000000,0.000000,0.000000,0.000000,0.000000
13191381.000000,2.315237,-1.148039,-1.937256,-1.486982,-1.111868,1.876550,0.527301,0.000105,-0.415391,0.161856,0.130335,-0.552111,0.502857,0.178995,11.392865,14.434246,-23.972366,-2.190370,-2.195040,-1.223954,0.351424,0.000000,0.000000,0.000000,0.000000,0.000000,0.000000
13191382.000000,2.315240,-1.148326,-1.937087,-1.486852,-1.112314,1.877023,0.527467,-0.000211,-0.374365,0.159947,0.127309,-0.516513,0.493807,0.173474,12.257733,10.617718,-25.690201,-2.138796,-3.157259,-1.634110,0.437484,0.000000,0.000000,0.000000,0.000000,0.000000,0.000000
13191383.000000,2.315233,-1.148580,-1.936937,-1.486719,-1.112756,1.877457,0.527653,-0.002169,-0.335070,0.150474,0.127060,-0.487981,0.488385,0.174141,13.150373,6.650433,-26.991470,-2.162599,-3.945529,-1.634110,0.384383,0.000000,0.000000,0.000000,0.000000,0.000000,0.000000
13191384.000000,2.315226,-1.148807,-1.936789,-1.486584,-1.113173,1.877926,0.527845,-0.005232,-0.308410,0.144349,0.128366,-0.468664,0.483969,0.175698,13.967633,2.829937,-28.241165,-2.237978,-4.573580,-1.796159,0.312057,0.000000,0.000000,0.000000,0.000000,0.000000,0.000000
13191385.000000,2.315251,-1.148988,-1.936668,-1.486490,-1.113622,1.878426,0.528021,0.004431,-0.257835,0.133051,0.117994,-0.460864,0.487652,0.176837,14.241376,-1.157185,-29.102066,-1.718263,-4.865633,-2.154130,0.345016,0.000000,0.000000,0.000000,0.000000,0.000000,0.000000
13191386.000000,2.315259,-1.149120,-1.936567,-1.486406,-1.114099,1.878913,0.528222,0.002935,-0.221749,0.119878,0.107130,-0.474067,0.488540,0.185602,14.709516,-5.441853,-29.713028,-1.174745,-4.746615,-2.219132,0.173812,0.000000,0.000000,0.000000,0.000000,0.000000,0.000000
13191387.000000,2.315279,-1.149192,-1.936494,-1.486322,-1.114548,1.879396,0.528404,0.008880,-0.167727,0.103891,0.096014,-0.472128,0.482304,0.185780,14.983258,-9.996296,-29.986771,-0.706606,-4.746615,-2.108353,0.225997,0.000000,0.000000,0.000000,0.000000,0.000000,0.000000
13191388.000000,2.315332,-1.149254,-1.936463,-1.486248,-1.115081,1.879885,0.528616,0.023178,-0.137235,0.077305,0.088646,-0.501139,0.481769,0.197161,14.808698,-14.352375,-29.812210,-0.262270,-4.143282,-1.946305,0.061202,0.000000,0.000000,0.000000,0.000000,0.000000,0.000000
13191389.000000,2.315406,-1.149283,-1.936462,-1.486149,-1.115670,1.880416,0.528816,0.041536,-0.107439,0.050275,0.093734,-0.535146,0.495790,0.195494,14.364362,-18.585468,-29.371841,-0.262270,-3.264376,-2.128495,0.028243,0.000000,0.000000,0.000000,0.000000,0.000000,0.000000
13191390.000000,2.315493,-1.149297,-1.936496,-1.486020,-1.116256,1.880966,0.529003,0.056610,-0.074135,0.020990,0.108857,-0.555224,0.507506,0.193811,13.820844,-22.528950,-28.709305,-0.778017,-2.715060,-2.407731,0.140853,0.000000,0.000000,0.000000,0.000000,0.000000,0.000000
13191391.000000,2.315594,-1.149329,-1.936561,-1.485878,-1.116873,1.881483,0.529209,0.072520,-0.065149,-0.009604,0.119179,-0.582380,0.509112,0.193859,13.150373,-25.928913,-27.848404,-1.448488,-2.266451,-2.342728,0.087753,0.000000,0.000000,0.000000,0.000000,0.000000,0.000000
13191392.000000,2.315720,-1.149349,-1.936627,-1.485730,-1.117481,1.881989,0.529398,0.088553,-0.048551,-0.027149,0.130574,-0.592399,0.499472,0.192944,12.257733,-29.086872,-27.285049,-2.190370,-2.212435,-2.101945,0.199447,0.000000,0.000000,0.000000,0.000000,0.000000,0.000000
13191393.000000,2.315845,-1.149405,-1.936698,-1.485567,-1.118098,1.882504,0.529607,0.103554,-0.052950,-0.039449,0.143774,-0.604225,0.499432,0.198301,11.468244,-31.411701,-26.868484,-3.055238,-2.433993,-1.913346,0.127120,0.000000,0.000000,0.000000,0.000000,0.000000,0.000000
13191394.000000,2.315968,-1.149492,-1.936769,-1.485377,-1.118727,1.883004,0.529816,0.109219,-0.070889,-0.052527,0.159480,-0.615324,0.494532,0.195585,10.873151,-33.101765,-26.646317,-4.189882,-2.864291,-1.699113,0.114303,0.000000,0.000000,0.000000,0.000000,0.000000,0.000000
13191395.000000,2.316111,-1.149601,-1.936860,-1.485180,-1.119364,1.883481,0.530015,0.121795,-0.086909,-0.065327,0.170836,-0.611807,0.486328,0.199619,10.107465,-34.375263,-26.352737,-5.229311,-3.138949,-1.256913,0.153671,0.000000,0.000000,0.000000,0.000000,0.000000,0.000000
13191396.000000,2.316254,-1.149749,-1.936967,-1.484984,-1.120017,1.883958,0.530224,0.127217,-0.113661,-0.078882,0.181225,-0.617843,0.483858,0.203701,9.460797,-35.085407,-26.106766,-6.094179,-3.485934,-0.983170,0.094161,0.000000,0.000000,0.000000,0.000000,0.000000,0.000000
13191397.000000,2.316389,-1.149924,-1.937081,-1.484773,-1.120660,1.884468,0.530419,0.125402,-0.136352,-0.089686,0.189962,-0.626512,0.483537,0.202373,9.064069,-35.355183,-25.959976,-7.006654,-3.742281,-1.120499,0.153671,0.000000,0.000000,0.000000,0.000000,0.000000,0.000000
13191398.000000,2.316534,-1.150142,-1.937210,-1.484543,-1.121326,1.885010,0.530604,0.131733,-0.164776,-0.098744,0.202918,-0.626418,0.500921,0.197487,8.619733,-35.180622,-25.836990,-7.946901,-3.940035,-1.523331,0.246139,0.000000,0.000000,0.000000,0.000000,0.000000,0.000000
13191399.000000,2.316683,-1.150403,-1.937345,-1.484314,-1.121997,1.885544,0.530792,0.137110,-0.198888,-0.107920,0.211311,-0.643215,0.517406,0.193403,8.175397,-34.645039,-25.813187,-8.688784,-4.047152,-1.926163,0.285506,0.000000,0.000000,0.000000,0.000000,0.000000,0.000000
13191400.000000,2.316828,-1.150707,-1.937470,-1.484089,-1.122661,1.886064,0.531000,0.137975,-0.234226,-0.108683,0.212280,-0.641204,0.523267,0.197769,7.877851,-33.712727,-26.130569,-9.184694,-4.082858,-2.095536,0.147262,0.000000,0.000000,0.000000,0.000000,0.000000,0.000000
13191401.000000,2.316962,-1.151039,-1.937583,-1.483865,-1.123321,1.886574,0.531173,0.135479,-0.272212,-0.110148,0.214377,-0.652632,0.529666,0.189291,7.731061,-32.637592,-26.769302,-9.577456,-4.202792,-2.101945,0.312057,0.000000,0.000000,0.000000,0.000000,0.000000,0.000000
13191402.000000,2.317107,-1.151426,-1.937688,-1.483642,-1.123976,1.887071,0.531352,0.137811,-0.315139,-0.104110,0.215642,-0.654264,0.513927,0.183808,7.532697,-31.169697,-27.630203,-9.926577,-4.274203,-1.971940,0.431075,0.000000,0.000000,0.000000,0.000000,0.000000,0.000000
13191403.000000,2.317261,-1.151850,-1.937789,-1.483418,-1.124629,1.887517,0.531532,0.146639,-0.346834,-0.096835,0.216325,-0.648291,0.487792,0.180962,7.306562,-29.602619,-28.610123,-10.124941,-4.441744,-1.315507,0.503402,0.000000,0.000000,0.000000,0.000000,0.000000,0.000000
13191404.000000,2.317409,-1.152303,-1.937873,-1.483212,-1.125265,1.887901,0.531674,0.145229,-0.388495,-0.087878,0.214666,-0.638841,0.451101,0.166335,7.183576,-28.011738,-29.836014,-10.097170,-4.722811,-0.248917,0.826583,0.000000,0.000000,0.000000,0.000000,0.000000,0.000000
13191405.000000,2.317535,-1.152781,-1.937933,-1.483018,-1.125932,1.888269,0.531841,0.137072,-0.418656,-0.079134,0.204943,-0.645758,0.419833,0.170495,7.381940,-26.492268,-31.335648,-9.898806,-4.668795,0.824081,0.865951,0.000000,0.000000,0.000000,0.000000,0.000000,0.000000
13191406.000000,2.317658,-1.153282,-1.938015,-1.482838,-1.126608,1.888685,0.532000,0.128408,-0.450776,-0.077474,0.197005,-0.653073,0.411769,0.168870,7.604108,-25.095783,-32.438553,-9.506044,-4.501254,1.182052,0.925460,0.000000,0.000000,0.000000,0.000000,0.000000,0.000000
13191407.000000,2.317779,-1.153798,-1.938103,-1.482673,-1.127339,1.889121,0.532143,0.123955,-0.473569,-0.079381,0.182463,-0.676820,0.414484,0.158383,7.925458,-24.020649,-33.394669,-8.962526,-3.951937,1.012679,1.090255,0.000000,0.000000,0.000000,0.000000,0.000000,0.000000
13191408.000000,2.317878,-1.154313,-1.938186,-1.482519,-1.128119,1.889548,0.532280,0.115104,-0.486865,-0.075724,0.168026,-0.706589,0.417119,0.147796,8.472943,-23.187519,-34.378555,-8.367434,-2.947604,0.869857,1.228500,0.000000,0.000000,0.000000,0.000000,0.000000,0.000000
13191409.000000,2.317962,-1.154839,-1.938276,-1.482371,-1.128911,1.889939,0.532418,0.104280,-0.499822,-0.078383,0.160587,-0.743086,0.415407,0.141808,9.238629,-22.552753,-35.187881,-7.875490,-2.164828,0.941268,1.307235,0.000000,0.000000,0.000000,0.000000,0.000000,0.000000
13191410.000000,2.318040,-1.155377,-1.938341,-1.482231,-1.129704,1.890339,0.532566,0.093265,-0.504181,-0.073275,0.154275,-0.759993,0.407421,0.140563,10.055890,-22.013203,-36.290787,-7.478761,-1.507479,0.922042,1.280685,0.000000,0.000000,0.000000,0.000000,0.000000,0.000000
13191411.000000,2.318125,-1.155908,-1.938385,-1.482098,-1.130486,1.890742,0.532693,0.092032,-0.511211,-0.064150,0.147279,-0.771392,0.408407,0.135631,10.674787,-21.791035,-37.643631,-7.133607,-1.262118,0.966903,1.373153,0.000000,0.000000,0.000000,0.000000,0.000000,0.000000
13191412.000000,2.318199,-1.156435,-1.938430,-1.481962,-1.131246,1.891146,0.532834,0.085742,-0.514107,-0.058796,0.142058,-0.766147,0.404659,0.135987,11.416669,-21.890217,-38.944901,-6.911439,-1.495577,0.999862,1.353927,0.000000,0.000000,0.000000,0.000000,0.000000,0.000000
13191413.000000,2.318260,-1.156943,-1.938465,-1.481808,-1.131986,1.891563,0.532966,0.076168,-0.508978,-0.049814,0.146244,-0.750501,0.409075,0.134273,12.257733,-22.354389,-40.269974,-7.058229,-1.848055,0.941268,1.386886,0.000000,0.000000,0.000000,0.000000,0.000000,0.000000
13191414.000000,2.318342,-1.157432,-1.938508,-1.481644,-1.132757,1.892002,0.533113,0.075869,-0.507680,-0.048655,0.150168,-0.751533,0.420023,0.136833,12.729840,-23.235126,-41.448257,-7.403383,-2.051302,0.694076,1.300826,0.000000,0.000000,0.000000,0.000000,0.000000,0.000000
