chaoyuefei/paper-gmrm-data/robot_logs/s2_dq_gmrm_xz_min_0.50_log_20260314_174156.csv
# time_ms,q_0,q_1,q_2,q_3,q_4,q_5,q_6,dq_0,dq_1,dq_2,dq_3,dq_4,dq_5,dq_6,tau_J_0,tau_J_1,tau_J_2,tau_J_3,tau_J_4,tau_J_5,tau_J_6,O_dP_EE_c_0,O_dP_EE_c_1,O_dP_EE_c_2,O_dP_EE_c_3,O_dP_EE_c_4,O_dP_EE_c_5
12778866.000000,-2.415661,-1.662621,1.042880,-1.356067,1.795451,1.081427,-0.548606,0.000301,-0.000369,0.000456,-0.000071,0.000064,0.000294,0.000743,0.030561,41.578411,-21.076248,-5.749025,0.835355,1.305648,0.015426,0.000000,0.000000,0.000000,0.000000,0.000000,0.000000
12778867.000000,-2.415664,-1.662623,1.042876,-1.356065,1.795451,1.081426,-0.548606,-0.000913,-0.000895,-0.000907,0.000510,0.000043,-0.000042,0.000495,0.078168,41.606182,-21.024673,-5.772829,0.835355,1.312057,0.015426,0.000000,0.000000,0.000000,0.000000,0.000000,0.000000
12778868.000000,-2.415663,-1.662621,1.042881,-1.356067,1.795451,1.081425,-0.548604,-0.000052,0.000053,0.001156,-0.000216,0.000029,-0.000265,0.001076,0.054365,41.578411,-21.100052,-5.749025,0.835355,1.318465,-0.004716,0.000000,0.000000,0.000000,0.000000,0.000000,0.000000
12778869.000000,-2.415660,-1.662621,1.042876,-1.356067,1.795451,1.081425,-0.548611,-0.000035,0.000035,-0.000995,-0.000143,0.000019,-0.000177,-0.001724,0.054365,41.578411,-21.024673,-5.749025,0.835355,1.318465,0.061202,0.000000,0.000000,0.000000,0.000000,0.000000,0.000000
12778870.000000,-2.415654,-1.662622,1.042880,-1.356065,1.795448,1.081425,-0.548605,0.006470,-0.002011,-0.000015,0.002417,-0.009125,-0.001305,-0.002803,0.304304,41.530804,-21.052444,-5.721254,0.828947,1.350509,-0.023942,0.000000,0.000000,0.000000,0.000000,0.000000,0.000000
12778871.000000,-2.415653,-1.662623,1.042881,-1.356066,1.795451,1.081420,-0.548619,0.013785,-0.005357,-0.001218,0.002889,-0.008233,-0.002323,-0.006079,1.415143,41.284832,-21.000870,-5.499086,0.739225,1.519881,-0.050492,0.000000,0.000000,0.000000,0.000000,0.000000,0.000000
12778872.000000,-2.415620,-1.662626,1.042892,-1.356060,1.795444,1.081415,-0.548652,0.020963,-0.004314,0.001237,0.003615,-0.007144,-0.001138,-0.015057,2.950483,40.872234,-20.953262,-5.276918,0.632108,1.773483,-0.031266,0.000000,0.000000,0.000000,0.000000,0.000000,0.000000
12778873.000000,-2.415576,-1.662626,1.042912,-1.356068,1.795424,1.081433,-0.548690,0.025360,-0.001845,0.007311,0.000492,-0.014389,0.005369,-0.023946,4.882551,40.356487,-20.953262,-4.884157,0.613798,1.890670,-0.077042,0.000000,0.000000,0.000000,0.000000,0.000000,0.000000
12778874.000000,-2.415516,-1.662627,1.042931,-1.356081,1.795402,1.081480,-0.548753,0.035922,-0.000511,0.012041,-0.003926,-0.015684,0.022137,-0.038706,6.786848,39.840740,-20.830276,-4.511232,0.608304,1.812850,-0.037675,0.000000,0.000000,0.000000,0.000000,0.000000,0.000000
12778875.000000,-2.415428,-1.662625,1.042959,-1.356110,1.795361,1.081561,-0.548825,0.052353,-0.000043,0.013365,-0.017415,-0.023789,0.039989,-0.051184,8.397565,39.328960,-20.731094,-4.090700,0.673307,1.578475,-0.083451,0.000000,0.000000,0.000000,0.000000,0.000000,0.000000
12778876.000000,-2.415326,-1.662625,1.043005,-1.356149,1.795309,1.081658,-0.548923,0.060725,0.001706,0.023555,-0.025612,-0.028118,0.060416,-0.068135,9.809918,38.888592,-20.754898,-3.745546,0.691617,1.383468,-0.064225,0.000000,0.000000,0.000000,0.000000,0.000000,0.000000
12778877.000000,-2.415204,-1.662620,1.043045,-1.356200,1.795243,1.081765,-0.549041,0.077162,0.003955,0.030071,-0.034693,-0.045266,0.075444,-0.089165,10.972333,38.396648,-20.608109,-3.400392,0.709928,1.312057,-0.070634,0.000000,0.000000,0.000000,0.000000,0.000000,0.000000
12778878.000000,-2.415071,-1.662617,1.043099,-1.356265,1.795166,1.081891,-0.549176,0.095805,0.002678,0.037039,-0.044379,-0.055585,0.092747,-0.104138,12.011762,38.031658,-20.536697,-3.055238,0.661405,1.337692,-0.097184,0.000000,0.000000,0.000000,0.000000,0.000000,0.000000
12778879.000000,-2.414931,-1.662611,1.043165,-1.356331,1.795080,1.082037,-0.549345,0.110198,0.004447,0.045342,-0.054240,-0.065230,0.111061,-0.122689,12.975812,37.686504,-20.461319,-2.880678,0.530485,1.467696,-0.056901,0.000000,0.000000,0.000000,0.000000,0.000000,0.000000
12778880.000000,-2.414782,-1.662598,1.043250,-1.356417,1.794965,1.082208,-0.549532,0.121776,0.007633,0.056954,-0.069788,-0.079289,0.134026,-0.139158,13.892255,37.273907,-20.485123,-2.634706,0.458158,1.597701,-0.103593,0.000000,0.000000,0.000000,0.000000,0.000000,0.000000
12778881.000000,-2.414612,-1.662577,1.043348,-1.356511,1.794837,1.082415,-0.549759,0.138711,0.013679,0.069273,-0.078851,-0.093796,0.157102,-0.163435,14.562726,36.833538,-20.536697,-2.511720,0.351041,1.611434,-0.077042,0.000000,0.000000,0.000000,0.000000,0.000000,0.000000
12778882.000000,-2.414423,-1.662561,1.043469,-1.356629,1.794685,1.082655,-0.550006,0.156534,0.012733,0.085248,-0.089514,-0.111418,0.180669,-0.193296,15.130048,36.488384,-20.754898,-2.360964,0.291532,1.572067,-0.103593,0.000000,0.000000,0.000000,0.000000,0.000000,0.000000
12778883.000000,-2.414221,-1.662538,1.043590,-1.356760,1.794502,1.082915,-0.550278,0.170134,0.013860,0.096710,-0.104101,-0.133159,0.203843,-0.210511,15.625958,36.071819,-20.830276,-2.214174,0.339139,1.519881,-0.103593,0.000000,0.000000,0.000000,0.000000,0.000000,0.000000
12778884.000000,-2.413993,-1.662520,1.043735,-1.356907,1.794284,1.083213,-0.550564,0.189097,0.012312,0.110189,-0.120158,-0.160539,0.230888,-0.236236,15.871930,35.754436,-20.977066,-2.114992,0.440763,1.442062,-0.070634,0.000000,0.000000,0.000000,0.000000,0.000000,0.000000
12778885.000000,-2.413753,-1.662498,1.043893,-1.357080,1.794046,1.083533,-0.550856,0.205437,0.015687,0.123094,-0.135651,-0.179646,0.259003,-0.253338,16.098066,35.385479,-21.123856,-1.992006,0.530485,1.416427,-0.077042,0.000000,0.000000,0.000000,0.000000,0.000000,0.000000
12778886.000000,-2.413502,-1.662478,1.044056,-1.357259,1.793796,1.083864,-0.551155,0.220554,0.015813,0.134372,-0.149297,-0.209399,0.278620,-0.266477,16.344038,35.119671,-21.199234,-1.940431,0.566190,1.422836,-0.077042,0.000000,0.000000,0.000000,0.000000,0.000000,0.000000
12778887.000000,-2.413231,-1.662459,1.044228,-1.357449,1.793532,1.084220,-0.551451,0.238023,0.015648,0.143833,-0.160363,-0.227366,0.302033,-0.274455,16.443220,34.873699,-21.199234,-1.992006,0.566190,1.435653,-0.116410,0.000000,0.000000,0.000000,0.000000,0.000000,0.000000
12778888.000000,-2.412945,-1.662450,1.044412,-1.357652,1.793255,1.084595,-0.551752,0.255090,0.011060,0.161009,-0.175262,-0.242674,0.322794,-0.279187,16.590010,34.826092,-21.246841,-2.039613,0.488370,1.519881,-0.070634,0.000000,0.000000,0.000000,0.000000,0.000000,0.000000
12778889.000000,-2.412640,-1.662436,1.044607,-1.357881,1.792963,1.084988,-0.552048,0.273502,0.013174,0.169743,-0.194810,-0.258275,0.339765,-0.285030,16.665388,34.703106,-21.199234,-2.015810,0.386747,1.695663,-0.103593,0.000000,0.000000,0.000000,0.000000,0.000000,0.000000
12778890.000000,-2.412316,-1.662428,1.044810,-1.358131,1.792649,1.085404,-0.552351,0.290224,0.012522,0.179252,-0.211155,-0.275722,0.361050,-0.291315,16.590010,34.679302,-21.147659,-1.892824,0.320829,1.779891,-0.083451,0.000000,0.000000,0.000000,0.000000,0.000000,0.000000
12778891.000000,-2.411980,-1.662425,1.045018,-1.358402,1.792326,1.085854,-0.552651,0.300236,0.008057,0.188239,-0.234655,-0.290747,0.390367,-0.290648,16.590010,34.703106,-21.024673,-1.642885,0.279630,1.760665,-0.070634,0.000000,0.000000,0.000000,0.000000,0.000000,0.000000
12778892.000000,-2.411629,-1.662422,1.045246,-1.358687,1.791977,1.086337,-0.552937,0.315298,0.005571,0.200401,-0.253604,-0.308706,0.414952,-0.288084,16.518599,34.703106,-21.000870,-1.519899,0.303434,1.637069,-0.122819,0.000000,0.000000,0.000000,0.000000,0.000000,0.000000
12778893.000000,-2.411260,-1.662421,1.045484,-1.358988,1.791604,1.086839,-0.553229,0.331759,0.006994,0.211296,-0.264531,-0.322329,0.444161,-0.294671,16.490828,34.703106,-20.905655,-1.396913,0.351041,1.487838,-0.064225,0.000000,0.000000,0.000000,0.000000,0.000000,0.000000
12778894.000000,-2.410887,-1.662416,1.045730,-1.359289,1.791223,1.087368,-0.553505,0.341600,0.005593,0.220530,-0.274332,-0.342731,0.467989,-0.290956,16.566206,34.679302,-20.854080,-1.349306,0.405057,1.409103,-0.130143,0.000000,0.000000,0.000000,0.000000,0.000000,0.000000
12778895.000000,-2.410504,-1.662418,1.045981,-1.359610,1.790819,1.087908,-0.553789,0.355719,0.002338,0.229078,-0.285881,-0.363754,0.491737,-0.290339,16.764570,34.750713,-20.754898,-1.373109,0.500272,1.409103,-0.122819,0.000000,0.000000,0.000000,0.000000,0.000000,0.000000
12778896.000000,-2.410109,-1.662414,1.046242,-1.359944,1.790399,1.088463,-0.554063,0.366437,0.002882,0.239068,-0.304840,-0.376930,0.507571,-0.286133,16.962934,34.703106,-20.659683,-1.420717,0.518583,1.467696,-0.089860,0.000000,0.000000,0.000000,0.000000,0.000000,0.000000
12778897.000000,-2.409704,-1.662417,1.046515,-1.360288,1.789974,1.089029,-0.554329,0.379617,0.000965,0.250269,-0.318354,-0.394491,0.522487,-0.279530,17.137495,34.750713,-20.584305,-1.472292,0.494779,1.559249,-0.149369,0.000000,0.000000,0.000000,0.000000,0.000000,0.000000
12778898.000000,-2.409286,-1.662413,1.046797,-1.360657,1.789535,1.089614,-0.554604,0.389146,0.004481,0.265181,-0.332006,-0.405563,0.537101,-0.275441,17.383467,34.726910,-20.512894,-1.349306,0.434354,1.591293,-0.097184,0.000000,0.000000,0.000000,0.000000,0.000000,0.000000
12778899.000000,-2.408856,-1.662412,1.047091,-1.361031,1.789085,1.090233,-0.554870,0.401892,0.003340,0.274148,-0.349231,-0.414249,0.557916,-0.277653,17.581831,34.726910,-20.485123,-1.226320,0.356534,1.500655,-0.122819,0.000000,0.000000,0.000000,0.000000,0.000000,0.000000
12778900.000000,-2.408415,-1.662409,1.047393,-1.361429,1.788615,1.090877,-0.555140,0.412800,0.003604,0.282782,-0.362215,-0.429121,0.576561,-0.270080,17.855574,34.679302,-20.437515,-1.075563,0.362943,1.409103,-0.136552,0.000000,0.000000,0.000000,0.000000,0.000000,0.000000
12778901.000000,-2.407943,-1.662401,1.047702,-1.361849,1.788117,1.091520,-0.555403,0.429998,0.004364,0.290522,-0.377846,-0.453536,0.596065,-0.270458,18.002363,34.603924,-20.413712,-0.829591,0.356534,1.318465,-0.110001,0.000000,0.000000,0.000000,0.000000,0.000000,0.000000
12778902.000000,-2.407468,-1.662395,1.048022,-1.362283,1.787609,1.092191,-0.555665,0.445855,0.004172,0.300128,-0.396291,-0.469782,0.617290,-0.270034,18.200727,34.556316,-20.413712,-0.532045,0.410551,1.299239,-0.116410,0.000000,0.000000,0.000000,0.000000,0.000000,0.000000
12778903.000000,-2.406981,-1.662385,1.048346,-1.362726,1.787086,1.092891,-0.555926,0.462399,0.008267,0.307566,-0.410497,-0.494610,0.643374,-0.266138,18.498274,34.457134,-20.314529,-0.309877,0.476469,1.259872,-0.083451,0.000000,0.000000,0.000000,0.000000,0.000000,0.000000
12778904.000000,-2.406478,-1.662379,1.048685,-1.363170,1.786553,1.093589,-0.556178,0.474236,0.010133,0.315376,-0.418193,-0.518797,0.655784,-0.259768,18.744246,34.409527,-20.290726,-0.234499,0.476469,1.292831,-0.136552,0.000000,0.000000,0.000000,0.000000,0.000000,0.000000
12778905.000000,-2.405973,-1.662375,1.049042,-1.363633,1.786001,1.094311,-0.556431,0.484749,0.007273,0.325699,-0.432120,-0.527955,0.670550,-0.257221,19.065596,34.409527,-20.362137,-0.234499,0.542386,1.383468,-0.130143,0.000000,0.000000,0.000000,0.000000,0.000000,0.000000
12778906.000000,-2.405451,-1.662363,1.049401,-1.364111,1.785433,1.095047,-0.556680,0.490963,0.010712,0.344750,-0.440364,-0.535775,0.685697,-0.255991,19.414717,34.310345,-20.314529,-0.210695,0.506681,1.416427,-0.110001,0.000000,0.000000,0.000000,0.000000,0.000000,0.000000
12778907.000000,-2.404930,-1.662354,1.049782,-1.364601,1.784858,1.095816,-0.556925,0.493461,0.011789,0.355738,-0.454010,-0.549683,0.706776,-0.253286,19.811445,34.262737,-20.437515,-0.135317,0.547880,1.454879,-0.142960,0.000000,0.000000,0.000000,0.000000,0.000000,0.000000
12778908.000000,-2.404377,-1.662347,1.050170,-1.365117,1.784259,1.096610,-0.557173,0.511205,0.011694,0.366406,-0.470700,-0.560455,0.735827,-0.252168,20.057417,34.262737,-20.437515,-0.012331,0.512174,1.409103,-0.149369,0.000000,0.000000,0.000000,0.000000,0.000000,0.000000
12778909.000000,-2.403808,-1.662331,1.050585,-1.365639,1.783664,1.097413,-0.557425,0.524712,0.015160,0.381558,-0.494639,-0.575016,0.757503,-0.252182,20.303389,34.115948,-20.707291,0.134459,0.470060,1.350509,-0.130143,0.000000,0.000000,0.000000,0.000000,0.000000,0.000000
12778910.000000,-2.403230,-1.662326,1.051003,-1.366176,1.783039,1.098258,-0.557671,0.544341,0.010385,0.391366,-0.504779,-0.585622,0.778006,-0.247040,20.477949,34.139751,-20.806473,0.233641,0.440763,1.227828,-0.122819,0.000000,0.000000,0.000000,0.000000,0.000000,0.000000
12778911.000000,-2.402642,-1.662312,1.051435,-1.366724,1.782406,1.099113,-0.557908,0.557029,0.009313,0.403476,-0.516532,-0.591400,0.823363,-0.239817,20.850874,34.064373,-20.977066,0.257445,0.369352,1.110641,-0.110001,0.000000,0.000000,0.000000,0.000000,0.000000,0.000000
12778912.000000,-2.402045,-1.662295,1.051877,-1.367278,1.781752,1.099976,-0.558148,0.585283,0.013291,0.419201,-0.526200,-0.609471,0.835681,-0.242051,21.120649,33.917583,-21.147659,0.285216,0.386747,1.194869,-0.122819,0.000000,0.000000,0.000000,0.000000,0.000000,0.000000
12778913.000000,-2.401432,-1.662279,1.052335,-1.367839,1.781092,1.100869,-0.558387,0.593019,0.014995,0.426767,-0.534969,-0.630127,0.850638,-0.243317,21.469770,33.822369,-21.322220,0.158263,0.351041,1.266280,-0.136552,0.000000,0.000000,0.000000,0.000000,0.000000,0.000000
12778914.000000,-2.400788,-1.662267,1.052795,-1.368417,1.780395,1.101769,-0.558620,0.604038,0.015658,0.434420,-0.548922,-0.649377,0.867572,-0.239682,21.640364,33.746990,-21.417435,0.011473,0.398649,1.305648,-0.142960,0.000000,0.000000,0.000000,0.000000,0.000000,0.000000
12778915.000000,-2.400146,-1.662255,1.053265,-1.368999,1.779698,1.102702,-0.558858,0.616235,0.015416,0.444447,-0.555640,-0.673913,0.889598,-0.237550,21.862532,33.699383,-21.540421,-0.012331,0.482877,1.318465,-0.142960,0.000000,0.000000,0.000000,0.000000,0.000000,0.000000
12778916.000000,-2.399472,-1.662240,1.053758,-1.369612,1.778991,1.103633,-0.559085,0.635765,0.015511,0.459129,-0.569323,-0.677196,0.898174,-0.236689,21.989485,33.647808,-21.714981,0.110655,0.584501,1.324874,-0.155778,0.000000,0.000000,0.000000,0.000000,0.000000,0.000000
12778917.000000,-2.398772,-1.662230,1.054244,-1.370229,1.778277,1.104613,-0.559318,0.659275,0.014434,0.466223,-0.585367,-0.688340,0.921105,-0.235000,22.060896,33.647808,-21.837967,0.309019,0.757535,1.279098,-0.163102,0.000000,0.000000,0.000000,0.000000,0.000000,0.000000
12778918.000000,-2.398070,-1.662215,1.054749,-1.370860,1.777571,1.105623,-0.559563,0.676407,0.015532,0.475161,-0.600329,-0.685181,0.946213,-0.236494,22.211653,33.576397,-22.032364,0.531187,0.882963,1.214095,-0.097184,0.000000,0.000000,0.000000,0.000000,0.000000,0.000000
12778919.000000,-2.397341,-1.662207,1.055253,-1.371497,1.776871,1.106633,-0.559790,0.688177,0.013930,0.486585,-0.606527,-0.684224,0.971719,-0.233878,22.287031,33.600201,-22.107742,0.677977,0.936979,1.175643,-0.116410,0.000000,0.000000,0.000000,0.000000,0.000000,0.000000
12778920.000000,-2.396617,-1.662200,1.055777,-1.372141,1.776184,1.107668,-0.560019,0.696028,0.011147,0.499679,-0.622841,-0.688852,0.989105,-0.235607,22.160078,33.699383,-22.107742,0.630369,0.984586,1.259872,-0.182328,0.000000,0.000000,0.000000,0.000000,0.000000,0.000000
12778921.000000,-2.395885,-1.662200,1.056315,-1.372802,1.775488,1.108716,-0.560249,0.694626,0.009667,0.509893,-0.638866,-0.686101,1.003606,-0.232457,20.874678,33.917583,-21.861771,0.110655,0.913175,1.454879,-0.110001,0.000000,0.000000,0.000000,0.000000,0.000000,0.000000
12778922.000000,-2.395160,-1.662189,1.056878,-1.373475,1.774801,1.109771,-0.560469,0.700136,0.009032,0.527807,-0.651455,-0.706828,1.020745,-0.225208,18.768049,33.992962,-21.492813,-0.754213,0.871061,1.643478,-0.155778,0.000000,0.000000,0.000000,0.000000,0.000000,0.000000
12778923.000000,-2.394431,-1.662186,1.057458,-1.374174,1.774112,1.110865,-0.560692,0.713303,0.007243,0.545175,-0.661740,-0.699595,1.036634,-0.224902,16.046492,33.992962,-20.782669,-1.642885,0.739225,1.676437,-0.202470,0.000000,0.000000,0.000000,0.000000,0.000000,0.000000
12778924.000000,-2.393704,-1.662186,1.058056,-1.374892,1.773423,1.111958,-0.560919,0.724363,0.006583,0.563155,-0.673150,-0.697740,1.051010,-0.221669,13.126569,33.822369,-20.020950,-2.436342,0.571683,1.708480,-0.103593,0.000000,0.000000,0.000000,0.000000,0.000000,0.000000
12778925.000000,-2.392983,-1.662186,1.058691,-1.375621,1.772762,1.113084,-0.561136,0.732764,0.004778,0.579982,-0.688261,-0.681942,1.066406,-0.217145,10.353436,33.552593,-19.235428,-2.833071,0.374845,1.741439,-0.155778,0.000000,0.000000,0.000000,0.000000,0.000000,0.000000
12778926.000000,-2.392256,-1.662189,1.059343,-1.376345,1.772098,1.114249,-0.561358,0.734679,0.001828,0.596039,-0.696070,-0.668742,1.093289,-0.217236,7.802473,33.330425,-18.473709,-3.277406,0.159696,1.611434,-0.116410,0.000000,0.000000,0.000000,0.000000,0.000000,0.000000
12778927.000000,-2.391523,-1.662204,1.060001,-1.377061,1.771443,1.115412,-0.561570,0.731477,-0.004016,0.617038,-0.715855,-0.653640,1.117105,-0.216405,5.576826,33.259014,-17.763565,-3.523378,0.022367,1.494247,-0.097184,0.000000,0.000000,0.000000,0.000000,0.000000,0.000000
12778928.000000,-2.390816,-1.662221,1.060668,-1.377772,1.770791,1.116600,-0.561784,0.718936,-0.006324,0.622606,-0.708002,-0.652043,1.139953,-0.223298,3.791547,33.235210,-17.049454,-3.820925,0.022367,1.442062,-0.130143,0.000000,0.000000,0.000000,0.000000,0.000000,0.000000
12778929.000000,-2.390088,-1.662247,1.061342,-1.378483,1.770145,1.117799,-0.561997,0.719375,-0.010622,0.631873,-0.702346,-0.642830,1.183848,-0.215625,2.109418,33.330425,-16.386917,-3.967714,0.117582,1.389877,-0.155778,0.000000,0.000000,0.000000,0.000000,0.000000,0.000000
12778930.000000,-2.389385,-1.662277,1.062010,-1.379179,1.769505,1.119013,-0.562217,0.715548,-0.014173,0.643962,-0.699926,-0.642889,1.195951,-0.215139,0.871625,33.453411,-15.799759,-4.043092,0.255826,1.494247,-0.149369,0.000000,0.000000,0.000000,0.000000,0.000000,0.000000
12778931.000000,-2.388663,-1.662313,1.062690,-1.379884,1.768860,1.120253,-0.562439,0.723507,-0.023310,0.655282,-0.697101,-0.640890,1.206941,-0.218443,-0.290789,33.600201,-15.284012,-3.943910,0.476469,1.513473,-0.163102,0.000000,0.000000,0.000000,0.000000,0.000000,0.000000
12778932.000000,-2.387935,-1.662349,1.063368,-1.380589,1.768223,1.121499,-0.562648,0.716830,-0.027129,0.660656,-0.696653,-0.638051,1.221276,-0.216068,-1.306414,33.624004,-14.839676,-3.670168,0.554288,1.279098,-0.182328,0.000000,0.000000,0.000000,0.000000,0.000000,0.000000
12778933.000000,-2.387220,-1.662387,1.064056,-1.381289,1.767604,1.122764,-0.562864,0.717601,-0.028898,0.662193,-0.700496,-0.635944,1.225386,-0.216662,-2.222857,33.600201,-14.446915,-3.301210,0.620206,1.031905,-0.142960,0.000000,0.000000,0.000000,0.000000,0.000000,0.000000
12778934.000000,-2.386495,-1.662423,1.064759,-1.381991,1.766984,1.124000,-0.563076,0.718552,-0.028592,0.670432,-0.695916,-0.624531,1.224867,-0.211003,-2.988543,33.501019,-14.105728,-2.904482,0.596403,1.039230,-0.163102,0.000000,0.000000,0.000000,0.000000,0.000000,0.000000
12778935.000000,-2.385774,-1.662462,1.065438,-1.382681,1.766389,1.125207,-0.563290,0.710955,-0.032474,0.674741,-0.692266,-0.615204,1.216521,-0.206037,-3.583636,33.429607,-13.661392,-2.535524,0.482877,1.136276,-0.175919,0.000000,0.000000,0.000000,0.000000,0.000000,0.000000
12778936.000000,-2.385067,-1.662493,1.066138,-1.383362,1.765781,1.126425,-0.563509,0.709171,-0.031944,0.679940,-0.684115,-0.608626,1.213208,-0.209845,-4.055743,33.207439,-13.244827,-2.412538,0.393156,1.247054,-0.110001,0.000000,0.000000,0.000000,0.000000,0.000000,0.000000
12778937.000000,-2.384371,-1.662512,1.066826,-1.384031,1.765195,1.127626,-0.563711,0.700192,-0.025995,0.693294,-0.674179,-0.602006,1.209706,-0.207786,-4.178729,32.866253,-12.804459,-2.460146,0.249418,1.318465,-0.169511,0.000000,0.000000,0.000000,0.000000,0.000000,0.000000
12778938.000000,-2.383681,-1.662517,1.067532,-1.384674,1.764614,1.128834,-0.563920,0.700610,-0.020625,0.698885,-0.666531,-0.594161,1.205658,-0.209750,-4.377093,32.326702,-12.411697,-2.682314,0.135892,1.435653,-0.149369,0.000000,0.000000,0.000000,0.000000,0.000000,0.000000
12778939.000000,-2.382984,-1.662515,1.068248,-1.385322,1.764025,1.130047,-0.564128,0.698274,-0.012883,0.700724,-0.661098,-0.591052,1.200221,-0.211123,-4.500079,31.739544,-12.066544,-2.856874,0.141385,1.494247,-0.130143,0.000000,0.000000,0.000000,0.000000,0.000000,0.000000
12778940.000000,-2.382291,-1.662508,1.068952,-1.385949,1.763427,1.131254,-0.564328,0.694551,-0.004687,0.707127,-0.659509,-0.594610,1.203348,-0.208816,-4.623065,31.152386,-11.772964,-3.102846,0.225614,1.357833,-0.188737,0.000000,0.000000,0.000000,0.000000,0.000000,0.000000
12778941.000000,-2.381598,-1.662493,1.069667,-1.386609,1.762849,1.132489,-0.564543,0.691885,0.002860,0.704327,-0.654842,-0.587912,1.207365,-0.211281,-4.869036,30.493816,-11.380203,-3.003664,0.356534,1.096908,-0.142960,0.000000,0.000000,0.000000,0.000000,0.000000,0.000000
12778942.000000,-2.380901,-1.662475,1.070402,-1.387255,1.762267,1.133696,-0.564746,0.689185,0.007025,0.710214,-0.646121,-0.588735,1.211640,-0.206533,-5.019793,29.878887,-11.257217,-2.979860,0.416959,0.954086,-0.175919,0.000000,0.000000,0.000000,0.000000,0.000000,0.000000
12778943.000000,-2.380227,-1.662445,1.071131,-1.387887,1.761706,1.134915,-0.564953,0.685508,0.014434,0.713837,-0.645667,-0.578801,1.208529,-0.203358,-4.995989,29.220318,-11.011246,-2.979860,0.320829,0.863448,-0.169511,0.000000,0.000000,0.000000,0.000000,0.000000,0.000000
12778944.000000,-2.379542,-1.662423,1.071874,-1.388500,1.761141,1.136135,-0.565160,0.683170,0.015838,0.719663,-0.628787,-0.575431,1.209874,-0.206769,-5.019793,28.728374,-10.793045,-3.202028,0.213712,0.785628,-0.136552,0.000000,0.000000,0.000000,0.000000,0.000000,0.000000
12778945.000000,-2.378869,-1.662400,1.072601,-1.389107,1.760575,1.137340,-0.565358,0.678071,0.018365,0.722132,-0.635952,-0.565249,1.209774,-0.207551,-4.845232,28.311810,-10.324905,-3.424196,0.123990,0.771896,-0.142960,0.000000,0.000000,0.000000,0.000000,0.000000,0.000000
12778946.000000,-2.378202,-1.662375,1.073347,-1.389724,1.760024,1.138541,-0.565558,0.675837,0.020534,0.724798,-0.631143,-0.563067,1.204627,-0.204666,-4.773821,27.895245,-10.007523,-3.570986,0.046171,0.934859,-0.116410,0.000000,0.000000,0.000000,0.000000,0.000000,0.000000
12778947.000000,-2.377521,-1.662351,1.074111,-1.390344,1.759479,1.139727,-0.565743,0.670315,0.021137,0.737082,-0.628865,-0.550925,1.224664,-0.194597,-4.821429,27.530254,-9.737747,-3.646364,-0.031649,1.104232,-0.196061,0.000000,0.000000,0.000000,0.000000,0.000000,0.000000
12778948.000000,-2.376831,-1.662332,1.074862,-1.390956,1.758934,1.140961,-0.565951,0.682603,0.019584,0.743069,-0.623888,-0.551144,1.226536,-0.201954,-5.118975,27.260479,-9.440201,-3.622560,-0.013339,0.947677,-0.116410,0.000000,0.000000,0.000000,0.000000,0.000000,0.000000
12778949.000000,-2.376135,-1.662319,1.075632,-1.391579,1.758374,1.142214,-0.566138,0.684175,0.015320,0.745359,-0.621931,-0.548219,1.230149,-0.197150,-5.392718,27.137493,-9.122818,-3.475771,0.058073,0.681258,-0.175919,0.000000,0.000000,0.000000,0.000000,0.000000,0.000000
12778950.000000,-2.375429,-1.662313,1.076410,-1.392192,1.757820,1.143446,-0.566330,0.686335,0.014135,0.754600,-0.621494,-0.547401,1.234087,-0.196983,-5.761675,27.089886,-9.047440,-3.448000,0.171598,0.427657,-0.149369,0.000000,0.000000,0.000000,0.000000,0.000000,0.000000
12778951.000000,-2.374741,-1.662300,1.077213,-1.392783,1.757273,1.144680,-0.566520,0.684078,0.011671,0.765461,-0.617235,-0.543106,1.230287,-0.196271,-6.035418,26.990704,-9.023636,-3.570986,0.195402,0.414840,-0.136552,0.000000,0.000000,0.000000,0.000000,0.000000,0.000000
12778952.000000,-2.374057,-1.662296,1.078024,-1.393364,1.756726,1.145878,-0.566701,0.683568,0.010334,0.775072,-0.601204,-0.537893,1.229205,-0.193491,-6.134600,27.014507,-8.976028,-3.797121,0.201810,0.544845,-0.188737,0.000000,0.000000,0.000000,0.000000,0.000000,0.000000
12778953.000000,-2.373366,-1.662297,1.078825,-1.393923,1.756189,1.147100,-0.566898,0.682017,0.005349,0.783418,-0.588804,-0.544005,1.223330,-0.195549,-6.257586,27.089886,-8.853043,-4.241457,0.141385,0.694076,-0.130143,0.000000,0.000000,0.000000,0.000000,0.000000,0.000000
12778954.000000,-2.372686,-1.662305,1.079657,-1.394498,1.755649,1.148318,-0.567082,0.682144,-0.000258,0.789207,-0.583705,-0.539050,1.215486,-0.192687,-6.404376,27.260479,-8.900650,-4.535036,0.123990,0.895492,-0.188737,0.000000,0.000000,0.000000,0.000000,0.000000,0.000000
12778955.000000,-2.371988,-1.662295,1.080484,-1.395064,1.755119,1.149510,-0.567269,0.683519,0.002274,0.817630,-0.575768,-0.537812,1.207798,-0.197106,-6.725726,27.161297,-8.924454,-4.856386,0.046171,1.110641,-0.202470,0.000000,0.000000,0.000000,0.000000,0.000000,0.000000
12778956.000000,-2.371286,-1.662289,1.081333,-1.395630,1.754603,1.150733,-0.567468,0.689151,0.003280,0.821972,-0.572410,-0.536644,1.209193,-0.194061,-7.051043,27.089886,-8.952225,-4.955568,-0.055453,1.110641,-0.130143,0.000000,0.000000,0.000000,0.000000,0.000000,0.000000
12778957.000000,-2.370585,-1.662283,1.082203,-1.396208,1.754077,1.151978,-0.567642,0.701790,0.004021,0.834499,-0.572946,-0.530076,1.210595,-0.187658,-7.542986,27.014507,-9.047440,-4.884157,-0.043551,0.941268,-0.169511,0.000000,0.000000,0.000000,0.000000,0.000000,0.000000
12778958.000000,-2.369866,-1.662277,1.083049,-1.396770,1.753541,1.153196,-0.567830,0.705401,0.004961,0.839934,-0.574049,-0.532094,1.216485,-0.190066,-8.114276,26.919292,-8.924454,-4.784975,0.010465,0.759078,-0.136552,0.000000,0.000000,0.000000,0.000000,0.000000,0.000000
12778959.000000,-2.369148,-1.662271,1.083927,-1.397336,1.753031,1.154412,-0.568017,0.714013,0.005110,0.847343,-0.565701,-0.521966,1.210989,-0.190838,-8.657794,26.843914,-8.853043,-4.661989,0.022367,0.778304,-0.130143,0.000000,0.000000,0.000000,0.000000,0.000000,0.000000
12778960.000000,-2.368443,-1.662260,1.084801,-1.397896,1.752512,1.155596,-0.568198,0.713410,0.006313,0.853808,-0.558291,-0.519426,1.204895,-0.176879,-9.153705,26.720928,-8.607071,-4.685792,0.058073,0.908309,-0.149369,0.000000,0.000000,0.000000,0.000000,0.000000,0.000000
12778961.000000,-2.367749,-1.662247,1.085686,-1.398441,1.752006,1.156807,-0.568379,0.709274,0.007665,0.864660,-0.558777,-0.517604,1.200952,-0.180235,-9.526629,26.574139,-8.484085,-4.733400,0.081876,0.908309,-0.163102,0.000000,0.000000,0.000000,0.000000,0.000000,0.000000
12778962.000000,-2.367036,-1.662236,1.086590,-1.398990,1.751501,1.158016,-0.568555,0.707819,0.006240,0.874430,-0.550614,-0.518381,1.202352,-0.181287,-10.018573,26.526531,-8.412674,-4.832582,0.040677,0.934859,-0.221696,0.000000,0.000000,0.000000,0.000000,0.000000,0.000000
12778963.000000,-2.366319,-1.662230,1.087501,-1.399538,1.750995,1.159209,-0.568739,0.706698,0.004173,0.889167,-0.557041,-0.510159,1.203710,-0.182132,-10.415301,26.526531,-8.412674,-4.983339,0.010465,0.941268,-0.149369,0.000000,0.000000,0.000000,0.000000,0.000000,0.000000
12778964.000000,-2.365608,-1.662230,1.088433,-1.400082,1.750508,1.160416,-0.568911,0.695846,0.003635,0.903778,-0.556589,-0.499877,1.203394,-0.184298,-10.935016,26.625713,-8.412674,-4.983339,-0.007845,0.928451,-0.163102,0.000000,0.000000,0.000000,0.000000,0.000000,0.000000
12778965.000000,-2.364886,-1.662226,1.089386,-1.400632,1.750009,1.161605,-0.569083,0.699804,0.003614,0.913947,-0.551996,-0.494535,1.229275,-0.181297,-11.430926,26.720928,-8.559464,-4.856386,-0.060946,0.954086,-0.196061,0.000000,0.000000,0.000000,0.000000,0.000000,0.000000
12778966.000000,-2.364168,-1.662229,1.090341,-1.401179,1.749523,1.162798,-0.569263,0.708532,-0.001209,0.929466,-0.552106,-0.492914,1.222031,-0.180464,-11.803851,26.895489,-8.753860,-4.733400,-0.079257,1.012679,-0.169511,0.000000,0.000000,0.000000,0.000000,0.000000,0.000000
12778967.000000,-2.363468,-1.662233,1.091305,-1.401720,1.749032,1.164006,-0.569441,0.706437,-0.003890,0.931427,-0.548912,-0.500456,1.219304,-0.178893,-12.125201,27.042278,-8.829239,-4.709596,-0.114962,0.960494,-0.163102,0.000000,0.000000,0.000000,0.000000,0.000000,0.000000
12778968.000000,-2.362754,-1.662243,1.092272,-1.402252,1.748537,1.165194,-0.569620,0.704742,-0.003729,0.941503,-0.540633,-0.498562,1.219384,-0.182818,-12.422748,27.236675,-8.876846,-4.832582,-0.109469,0.889083,-0.149369,0.000000,0.000000,0.000000,0.000000,0.000000,0.000000
12778969.000000,-2.362064,-1.662248,1.093252,-1.402773,1.748060,1.166382,-0.569795,0.700636,-0.004904,0.955785,-0.536144,-0.493786,1.210656,-0.179492,-12.593341,27.359661,-8.829239,-5.030946,-0.055453,1.039230,-0.169511,0.000000,0.000000,0.000000,0.000000,0.000000,0.000000
12778970.000000,-2.361364,-1.662253,1.094230,-1.403299,1.747572,1.167555,-0.569963,0.698910,-0.004039,0.956140,-0.537156,-0.491485,1.201799,-0.177052,-12.815509,27.407269,-8.583267,-5.153932,-0.067355,1.266280,-0.196061,0.000000,0.000000,0.000000,0.000000,0.000000,0.000000
12778971.000000,-2.360655,-1.662262,1.095202,-1.403816,1.747083,1.168728,-0.570137,0.699399,-0.010985,0.960803,-0.532032,-0.501125,1.197167,-0.173124,-13.113055,27.506451,-8.361099,-5.304689,0.015958,1.350509,-0.149369,0.000000,0.000000,0.000000,0.000000,0.000000,0.000000
12778972.000000,-2.359972,-1.662272,1.096185,-1.404344,1.746595,1.169924,-0.570303,0.697909,-0.013164,0.962049,-0.527577,-0.500372,1.193729,-0.171474,-13.263812,27.601665,-7.992142,-5.352296,0.088285,1.234237,-0.196061,0.000000,0.000000,0.000000,0.000000,0.000000,0.000000
12778973.000000,-2.359273,-1.662280,1.097188,-1.404877,1.746113,1.171108,-0.570475,0.693814,-0.014084,0.993286,-0.528845,-0.491269,1.189500,-0.169207,-13.509784,27.677044,-7.845352,-5.328493,0.058073,1.058456,-0.169511,0.000000,0.000000,0.000000,0.000000,0.000000,0.000000
12778974.000000,-2.358567,-1.662283,1.098204,-1.405388,1.745647,1.172308,-0.570637,0.698784,-0.010031,0.998173,-0.524435,-0.480387,1.185814,-0.164410,-13.882709,27.677044,-7.599380,-5.399904,0.027860,0.889083,-0.196061,0.000000,0.000000,0.000000,0.000000,0.000000,0.000000
12778975.000000,-2.357901,-1.662288,1.099231,-1.405902,1.745177,1.173515,-0.570804,0.687368,-0.007725,1.001818,-0.518790,-0.480229,1.181545,-0.167860,-13.831134,27.700848,-7.381180,-5.526857,-0.019747,0.759078,-0.169511,0.000000,0.000000,0.000000,0.000000,0.000000,0.000000
12778976.000000,-2.357229,-1.662300,1.100246,-1.406400,1.744713,1.174695,-0.570964,0.678829,-0.011556,1.003534,-0.523266,-0.475649,1.178070,-0.163276,-13.831134,27.823833,-7.083633,-5.721254,-0.091158,0.641891,-0.196061,0.000000,0.000000,0.000000,0.000000,0.000000,0.000000
12778977.000000,-2.356574,-1.662301,1.101288,-1.406902,1.744267,1.175886,-0.571129,0.672379,-0.008239,1.018223,-0.516197,-0.471641,1.166925,-0.161533,-13.708148,27.823833,-6.865433,-5.971193,-0.168978,0.674850,-0.182328,0.000000,0.000000,0.000000,0.000000,0.000000,0.000000
12778978.000000,-2.355919,-1.662296,1.102350,-1.407391,1.743814,1.177054,-0.571287,0.664447,-0.003573,1.025187,-0.506922,-0.463961,1.159442,-0.156135,-13.485980,27.724651,-6.813858,-6.391725,-0.240389,0.765487,-0.169511,0.000000,0.000000,0.000000,0.000000,0.000000,0.000000
12778979.000000,-2.355260,-1.662294,1.103411,-1.407860,1.743366,1.178245,-0.571442,0.665210,-0.001012,1.033243,-0.491111,-0.457775,1.165227,-0.154871,-13.561358,27.653240,-6.790054,-6.812257,-0.211093,0.830489,-0.188737,0.000000,0.000000,0.000000,0.000000,0.000000,0.000000
12778980.000000,-2.354603,-1.662284,1.104491,-1.408342,1.742923,1.179453,-0.571607,0.662061,0.003740,1.044612,-0.485100,-0.452356,1.171027,-0.160889,-13.533587,27.454876,-6.718643,-7.105836,-0.204684,0.713302,-0.155778,0.000000,0.000000,0.000000,0.000000,0.000000,0.000000
12778981.000000,-2.353942,-1.662271,1.105569,-1.408826,1.742472,1.180662,-0.571763,0.656612,0.006871,1.056100,-0.484284,-0.453733,1.181207,-0.157876,-13.632770,27.260479,-6.790054,-7.280397,-0.174471,0.551253,-0.188737,0.000000,0.000000,0.000000,0.000000,0.000000,0.000000
12778982.000000,-2.353287,-1.662264,1.106672,-1.409305,1.742035,1.181870,-0.571923,0.659774,0.006774,1.067701,-0.483084,-0.443901,1.185136,-0.157786,-13.783526,27.161297,-6.841629,-7.328004,-0.174471,0.440475,-0.169511,0.000000,0.000000,0.000000,0.000000,0.000000,0.000000
12778983.000000,-2.352626,-1.662247,1.107787,-1.409792,1.741592,1.183065,-0.572081,0.656459,0.009525,1.082549,-0.483948,-0.443889,1.191140,-0.153554,-13.882709,26.943096,-6.790054,-7.232790,-0.204684,0.408431,-0.149369,0.000000,0.000000,0.000000,0.000000,0.000000,0.000000
12778984.000000,-2.351974,-1.662236,1.108885,-1.410247,1.741152,1.184257,-0.572233,0.652170,0.009712,1.085310,-0.475823,-0.446105,1.185517,-0.157058,-13.882709,26.796307,-6.643265,-7.403383,-0.204684,0.505477,-0.188737,0.000000,0.000000,0.000000,0.000000,0.000000,0.000000
12778985.000000,-2.351334,-1.662227,1.109999,-1.410718,1.740727,1.185457,-0.572391,0.651321,0.008741,1.085627,-0.471431,-0.436392,1.185038,-0.157322,-13.882709,26.697124,-6.397293,-7.502565,-0.252291,0.616256,-0.163102,0.000000,0.000000,0.000000,0.000000,0.000000,0.000000
12778986.000000,-2.350695,-1.662207,1.111111,-1.411170,1.740293,1.186636,-0.572540,0.636912,0.012098,1.117873,-0.465338,-0.432725,1.182648,-0.156164,-13.831134,26.427349,-6.179092,-7.724733,-0.342013,0.713302,-0.175919,0.000000,0.000000,0.000000,0.000000,0.000000,0.000000
12778987.000000,-2.350064,-1.662195,1.112268,-1.411616,1.739866,1.187833,-0.572688,0.637858,0.012026,1.126609,-0.459820,-0.431460,1.185609,-0.155298,-13.807330,26.256756,-6.250504,-7.998476,-0.389620,0.817672,-0.188737,0.000000,0.000000,0.000000,0.000000,0.000000,0.000000
12778988.000000,-2.349420,-1.662179,1.113441,-1.412075,1.739445,1.189045,-0.572841,0.637097,0.012542,1.138326,-0.458714,-0.425158,1.189100,-0.156474,-13.858905,26.062359,-6.325882,-8.097658,-0.431735,0.759078,-0.155778,0.000000,0.000000,0.000000,0.000000,0.000000,0.000000
12778989.000000,-2.348779,-1.662171,1.114628,-1.412533,1.739014,1.190241,-0.572989,0.638977,0.010108,1.156547,-0.454900,-0.435047,1.193841,-0.154653,-13.906512,25.986980,-6.643265,-8.097658,-0.419833,0.654708,-0.188737,0.000000,0.000000,0.000000,0.000000,0.000000,0.000000
12778990.000000,-2.348146,-1.662159,1.115837,-1.412994,1.738583,1.191428,-0.573140,0.639077,0.012769,1.168690,-0.459399,-0.433681,1.184228,-0.151297,-14.005694,25.863995,-6.988419,-8.046083,-0.324618,0.687667,-0.149369,0.000000,0.000000,0.000000,0.000000,0.000000,0.000000
12778991.000000,-2.347508,-1.662156,1.117077,-1.413458,1.738168,1.192591,-0.573285,0.630488,0.008767,1.184945,-0.457113,-0.423406,1.181495,-0.142298,-14.081073,25.863995,-7.551773,-7.946901,-0.330111,0.811263,-0.169511,0.000000,0.000000,0.000000,0.000000,0.000000,0.000000
12778992.000000,-2.346882,-1.662153,1.118293,-1.413912,1.737753,1.193770,-0.573432,0.631359,0.006036,1.194465,-0.456590,-0.421887,1.176241,-0.140985,-14.128680,25.863995,-7.797745,-7.923097,-0.312716,0.889083,-0.155778,0.000000,0.000000,0.000000,0.000000,0.000000,0.000000
12778993.000000,-2.346258,-1.662155,1.119541,-1.414362,1.737337,1.194961,-0.573580,0.627859,0.002404,1.206484,-0.453328,-0.420498,1.174138,-0.140722,-14.053302,25.939373,-8.043716,-7.970705,-0.282504,0.895492,-0.122819,0.000000,0.000000,0.000000,0.000000,0.000000,0.000000
12778994.000000,-2.345632,-1.662155,1.120771,-1.414810,1.736930,1.196135,-0.573709,0.626330,0.000596,1.215544,-0.458320,-0.413875,1.170813,-0.136388,-14.104877,25.986980,-8.091324,-8.022280,-0.300814,0.843307,-0.196061,0.000000,0.000000,0.000000,0.000000,0.000000,0.000000
12778995.000000,-2.345016,-1.662163,1.122025,-1.415264,1.736524,1.197297,-0.573856,0.622858,-0.002399,1.221417,-0.456539,-0.411910,1.161891,-0.137780,-14.152484,26.109966,-8.091324,-8.046083,-0.348422,1.019088,-0.155778,0.000000,0.000000,0.000000,0.000000,0.000000,0.000000
12778996.000000,-2.344387,-1.662175,1.123284,-1.415739,1.736109,1.198448,-0.573995,0.625170,-0.004143,1.221978,-0.459437,-0.410536,1.165809,-0.137628,-14.227862,26.355938,-8.019913,-7.875490,-0.264193,1.136276,-0.163102,0.000000,0.000000,0.000000,0.000000,0.000000,0.000000
12778997.000000,-2.343779,-1.662195,1.124518,-1.416200,1.735719,1.199634,-0.574134,0.635436,-0.004586,1.216744,-0.463009,-0.406586,1.184462,-0.140667,-14.128680,26.966900,-8.091324,-7.776308,-0.270602,1.058456,-0.196061,0.000000,0.000000,0.000000,0.000000,0.000000,0.000000
12778998.000000,-2.343159,-1.662220,1.125759,-1.416673,1.735313,1.200837,-0.574278,0.631586,-0.012201,1.211320,-0.462758,-0.408708,1.190449,-0.139954,-13.906512,27.946819,-8.583267,-7.625551,-0.264193,0.895492,-0.182328,0.000000,0.000000,0.000000,0.000000,0.000000,0.000000
12778999.000000,-2.342553,-1.662241,1.126980,-1.417144,1.734917,1.202017,-0.574420,0.618520,-0.018130,1.210978,-0.464834,-0.399168,1.192077,-0.139167,-13.386798,29.121136,-9.467972,-7.554140,-0.300814,0.850631,-0.169511,0.000000,0.000000,0.000000,0.000000,0.000000,0.000000
12779000.000000,-2.341953,-1.662261,1.128194,-1.417598,1.734537,1.203217,-0.574566,0.612803,-0.017152,1.206806,-0.457462,-0.387822,1.195749,-0.143739,-12.843280,30.394634,-10.348709,-7.577943,-0.330111,0.824081,-0.142960,0.000000,0.000000,0.000000,0.000000,0.000000,0.000000
12779001.000000,-2.341357,-1.662276,1.129429,-1.418053,1.734133,1.204421,-0.574705,0.605236,-0.019010,1.218376,-0.453311,-0.390303,1.201507,-0.144851,-12.149005,31.691936,-11.526993,-7.649354,-0.168978,0.876266,-0.182328,0.000000,0.000000,0.000000,0.000000,0.000000,0.000000
12779002.000000,-2.340753,-1.662284,1.130623,-1.418500,1.733743,1.205588,-0.574854,0.606112,-0.016258,1.214249,-0.450868,-0.394069,1.187546,-0.145216,-11.653094,32.842449,-12.459305,-7.748537,-0.031649,1.169235,-0.110001,0.000000,0.000000,0.000000,0.000000,0.000000,0.000000
12779003.000000,-2.340158,-1.662281,1.131853,-1.418954,1.733359,1.206771,-0.574988,0.604303,-0.011180,1.212188,-0.448140,-0.387285,1.181786,-0.145635,-11.232562,33.746990,-13.566177,-7.875490,0.052579,1.429244,-0.155778,0.000000,0.000000,0.000000,0.000000,0.000000,0.000000
12779004.000000,-2.339555,-1.662270,1.133075,-1.419406,1.732973,1.207947,-0.575119,0.599416,-0.003273,1.243769,-0.446986,-0.386890,1.180454,-0.141289,-10.911212,34.457134,-14.669083,-7.970705,0.129484,1.578475,-0.202470,0.000000,0.000000,0.000000,0.000000,0.000000,0.000000
12779005.000000,-2.338958,-1.662262,1.134298,-1.419862,1.732596,1.209144,-0.575263,0.598314,0.000769,1.235710,-0.450736,-0.384431,1.180269,-0.141904,-10.712848,35.091900,-15.454605,-7.899293,0.154203,1.578475,-0.149369,0.000000,0.000000,0.000000,0.000000,0.000000,0.000000
12779006.000000,-2.338341,-1.662260,1.135532,-1.420319,1.732217,1.210349,-0.575395,0.605747,0.000402,1.231297,-0.454055,-0.378007,1.176918,-0.137984,-10.736651,35.706829,-16.140945,-7.875490,0.189908,1.513473,-0.208878,0.000000,0.000000,0.000000,0.000000,0.000000,0.000000
12779007.000000,-2.337741,-1.662251,1.136754,-1.420767,1.731846,1.211515,-0.575540,0.601983,0.001186,1.226740,-0.450560,-0.384544,1.169201,-0.139514,-10.665240,36.123394,-16.680496,-7.875490,0.189908,1.572067,-0.155778,0.000000,0.000000,0.000000,0.000000,0.000000,0.000000
12779008.000000,-2.337153,-1.662247,1.138010,-1.421224,1.731478,1.212690,-0.575679,0.597841,0.001778,1.236533,-0.452295,-0.378713,1.158228,-0.143531,-10.514483,36.512188,-17.295425,-7.823915,0.093778,1.617843,-0.149369,0.000000,0.000000,0.000000,0.000000,0.000000,0.000000
12779009.000000,-2.336570,-1.662255,1.139264,-1.421660,1.731119,1.213855,-0.575817,0.586903,-0.000759,1.237315,-0.440667,-0.364810,1.155423,-0.137938,-10.244708,37.004131,-17.787369,-8.046083,-0.001437,1.552840,-0.130143,0.000000,0.000000,0.000000,0.000000,0.000000,0.000000
12779010.000000,-2.336000,-1.662272,1.140520,-1.422083,1.730769,1.215027,-0.575945,0.592224,-0.003891,1.242426,-0.433464,-0.361288,1.149780,-0.139526,-9.895587,37.539715,-18.350723,-8.367434,-0.060946,1.552840,-0.196061,0.000000,0.000000,0.000000,0.000000,0.000000,0.000000
12779011.000000,-2.335452,-1.662291,1.141810,-1.422487,1.730408,1.216190,-0.576079,0.578683,-0.007566,1.248798,-0.417998,-0.361941,1.142663,-0.138758,-9.375873,38.007854,-19.088638,-8.839540,-0.145175,1.617843,-0.196061,0.000000,0.000000,0.000000,0.000000,0.000000,0.000000
12779012.000000,-2.334897,-1.662325,1.143093,-1.422881,1.730045,1.217320,-0.576220,0.567939,-0.013924,1.261359,-0.415868,-0.361655,1.141410,-0.141079,-8.955340,38.618816,-19.822586,-9.383059,-0.150668,1.858627,-0.110001,0.000000,0.000000,0.000000,0.000000,0.000000,0.000000
12779013.000000,-2.334372,-1.662360,1.144395,-1.423274,1.729686,1.218471,-0.576341,0.558028,-0.020430,1.270032,-0.404600,-0.363586,1.139425,-0.131674,-8.388019,39.182171,-20.536697,-9.803591,-0.079257,1.936446,-0.188737,0.000000,0.000000,0.000000,0.000000,0.000000,0.000000
12779014.000000,-2.333830,-1.662406,1.145701,-1.423665,1.729316,1.219624,-0.576475,0.549916,-0.027502,1.273497,-0.398603,-0.368375,1.168074,-0.129888,-8.015094,39.840740,-21.123856,-10.247927,-0.019747,1.851302,-0.149369,0.000000,0.000000,0.000000,0.000000,0.000000,0.000000
12779015.000000,-2.333298,-1.662455,1.146976,-1.424061,1.728944,1.220789,-0.576612,0.557802,-0.032691,1.270520,-0.393185,-0.370582,1.163051,-0.127820,-7.669940,40.503277,-21.469009,-10.347109,0.105680,1.760665,-0.110001,0.000000,0.000000,0.000000,0.000000,0.000000,0.000000
12779016.000000,-2.332768,-1.662502,1.148280,-1.424461,1.728589,1.221949,-0.576733,0.552575,-0.033558,1.272668,-0.395163,-0.362018,1.160816,-0.127382,-7.396197,41.042828,-21.960953,-10.418520,0.100187,1.714889,-0.169511,0.000000,0.000000,0.000000,0.000000,0.000000,0.000000
12779017.000000,-2.332240,-1.662553,1.149536,-1.424856,1.728237,1.223085,-0.576860,0.544351,-0.034907,1.268732,-0.394760,-0.360148,1.158159,-0.125170,-7.122454,41.606182,-21.933182,-10.446291,0.076383,1.741439,-0.155778,0.000000,0.000000,0.000000,0.000000,0.000000,0.000000
12779018.000000,-2.331726,-1.662602,1.150812,-1.425259,1.727870,1.224236,-0.576982,0.534314,-0.040975,1.267844,-0.394522,-0.361426,1.155109,-0.126990,-6.777300,42.117962,-21.909378,-10.295534,0.123990,1.760665,-0.175919,0.000000,0.000000,0.000000,0.000000,0.000000,0.000000
12779019.000000,-2.331217,-1.662651,1.152087,-1.425651,1.727522,1.225369,-0.577108,0.529014,-0.045434,1.265433,-0.390447,-0.356800,1.151168,-0.129336,-6.404376,42.609905,-21.714981,-10.271730,0.046171,1.844894,-0.169511,0.000000,0.000000,0.000000,0.000000,0.000000,0.000000
12779020.000000,-2.330712,-1.662691,1.153374,-1.426051,1.727184,1.226508,-0.577236,0.517878,-0.041985,1.269279,-0.394360,-0.352766,1.149065,-0.126938,-5.983843,42.951092,-21.960953,-10.097170,-0.019747,2.033492,-0.142960,0.000000,0.000000,0.000000,0.000000,0.000000,0.000000
12779021.000000,-2.330212,-1.662728,1.154655,-1.426455,1.726834,1.227674,-0.577351,0.514223,-0.037545,1.269370,-0.396884,-0.352214,1.149292,-0.122217,-5.686297,43.197063,-21.984756,-9.926577,-0.072848,2.014266,-0.196061,0.000000,0.000000,0.000000,0.000000,0.000000,0.000000
12779022.000000,-2.329720,-1.662760,1.155933,-1.426865,1.726482,1.228830,-0.577469,0.505549,-0.035465,1.296695,-0.399610,-0.350717,1.156499,-0.121784,-5.364947,43.343853,-22.254532,-9.704409,-0.037142,1.851302,-0.188737,0.000000,0.000000,0.000000,0.000000,0.000000,0.000000
12779023.000000,-2.329242,-1.662789,1.157240,-1.427270,1.726135,1.229985,-0.577587,0.490919,-0.033218,1.297730,-0.401882,-0.352375,1.151659,-0.120918,-4.968218,43.439068,-22.623489,-9.482241,0.081876,1.838485,-0.169511,0.000000,0.000000,0.000000,0.000000,0.000000,0.000000
12779024.000000,-2.328753,-1.662815,1.158549,-1.427692,1.725797,1.231139,-0.577703,0.489799,-0.029852,1.292188,-0.405382,-0.349211,1.149319,-0.120068,-4.698443,43.439068,-23.016251,-9.133120,0.112089,1.903487,-0.163102,0.000000,0.000000,0.000000,0.000000,0.000000,0.000000
12779025.000000,-2.328278,-1.662842,1.159845,-1.428106,1.725454,1.232273,-0.577821,0.482944,-0.027107,1.294216,-0.410269,-0.348448,1.138215,-0.117816,-4.325518,43.415264,-23.504227,-8.839540,0.154203,1.962081,-0.196061,0.000000,0.000000,0.000000,0.000000,0.000000,0.000000
12779026.000000,-2.327810,-1.662867,1.161140,-1.428528,1.725102,1.233426,-0.577945,0.477526,-0.024977,1.290728,-0.417705,-0.350117,1.130014,-0.124684,-3.928790,43.367657,-23.750198,-8.641176,0.267728,1.968490,-0.130143,0.000000,0.000000,0.000000,0.000000,0.000000,0.000000
12779027.000000,-2.327338,-1.662888,1.162434,-1.428958,1.724761,1.234569,-0.578059,0.475855,-0.022859,1.285259,-0.418210,-0.348814,1.131831,-0.122329,-3.536028,43.292278,-23.920792,-8.391237,0.332731,1.962081,-0.149369,0.000000,0.000000,0.000000,0.000000,0.000000,0.000000
12779028.000000,-2.326877,-1.662909,1.163710,-1.429396,1.724430,1.235710,-0.578172,0.468543,-0.020965,1.285485,-0.425181,-0.348891,1.128424,-0.118689,-3.238482,43.197063,-24.019974,-7.998476,0.291532,2.079269,-0.202470,0.000000,0.000000,0.000000,0.000000,0.000000,0.000000
12779029.000000,-2.326412,-1.662932,1.165002,-1.429845,1.724091,1.236862,-0.578292,0.467279,-0.024057,1.281318,-0.430617,-0.341515,1.132289,-0.114943,-2.964739,43.145489,-24.166763,-7.554140,0.297025,2.131454,-0.163102,0.000000,0.000000,0.000000,0.000000,0.000000,0.000000
12779030.000000,-2.325949,-1.662960,1.166282,-1.430308,1.723757,1.238026,-0.578404,0.464179,-0.025112,1.285987,-0.449661,-0.336039,1.145556,-0.114024,-2.643389,43.173260,-24.388931,-7.034425,0.303434,1.916305,-0.196061,0.000000,0.000000,0.000000,0.000000,0.000000,0.000000
12779031.000000,-2.325497,-1.662986,1.167569,-1.430761,1.723439,1.239188,-0.578522,0.456445,-0.025146,1.283615,-0.449055,-0.331956,1.143316,-0.110708,-2.345843,43.173260,-24.488113,-6.590089,0.297025,1.812850,-0.169511,0.000000,0.000000,0.000000,0.000000,0.000000,0.000000
12779032.000000,-2.325055,-1.663009,1.168890,-1.431226,1.723103,1.240320,-0.578635,0.450750,-0.024560,1.287724,-0.452644,-0.333677,1.141846,-0.107943,-1.972918,43.145489,-24.976089,-6.094179,0.320829,1.897079,-0.163102,0.000000,0.000000,0.000000,0.000000,0.000000,0.000000
12779033.000000,-2.324619,-1.663037,1.170191,-1.431672,1.722775,1.241452,-0.578746,0.450139,-0.024734,1.288427,-0.449331,-0.330293,1.137433,-0.109251,-1.552386,43.145489,-25.519608,-5.848207,0.320829,2.092086,-0.182328,0.000000,0.000000,0.000000,0.000000,0.000000,0.000000
12779034.000000,-2.324180,-1.663068,1.171503,-1.432133,1.722437,1.242595,-0.578861,0.444714,-0.027279,1.293322,-0.450471,-0.331177,1.137624,-0.111027,-1.207232,43.244671,-25.983780,-5.598268,0.416959,2.169906,-0.182328,0.000000,0.000000,0.000000,0.000000,0.000000,0.000000
12779035.000000,-2.323759,-1.663093,1.172780,-1.432584,1.722102,1.243721,-0.578975,0.433349,-0.026464,1.290044,-0.448188,-0.331128,1.144095,-0.113869,-0.687518,43.244671,-26.182144,-5.499086,0.500272,2.248641,-0.163102,0.000000,0.000000,0.000000,0.000000,0.000000,0.000000
12779036.000000,-2.323330,-1.663112,1.174083,-1.433028,1.721771,1.244847,-0.579092,0.434670,-0.020606,1.287038,-0.444559,-0.333093,1.144111,-0.114260,-0.314593,43.145489,-26.475723,-5.499086,0.512174,2.443649,-0.163102,0.000000,0.000000,0.000000,0.000000,0.000000,0.000000
12779037.000000,-2.322919,-1.663132,1.175386,-1.433492,1.721448,1.245986,-0.579197,0.431725,-0.020707,1.285607,-0.450137,-0.324077,1.139581,-0.112328,0.153547,43.097881,-26.697891,-5.253114,0.506681,2.515060,-0.229020,0.000000,0.000000,0.000000,0.000000,0.000000,0.000000
12779038.000000,-2.322494,-1.663158,1.176645,-1.433947,1.721129,1.247114,-0.579313,0.431907,-0.022714,1.276372,-0.449764,-0.326969,1.136536,-0.114918,0.474897,43.121685,-26.547134,-5.106325,0.535978,2.450057,-0.188737,0.000000,0.000000,0.000000,0.000000,0.000000,0.000000
12779039.000000,-2.322082,-1.663178,1.177924,-1.434420,1.720806,1.248267,-0.579429,0.426653,-0.022219,1.271486,-0.458267,-0.326413,1.131957,-0.117189,0.748639,43.074078,-26.424149,-4.733400,0.566190,2.248641,-0.136552,0.000000,0.000000,0.000000,0.000000,0.000000,0.000000
12779040.000000,-2.321660,-1.663197,1.179182,-1.434889,1.720490,1.249399,-0.579536,0.426038,-0.018728,1.298047,-0.460004,-0.317178,1.128343,-0.111221,0.970807,43.026470,-26.328934,-4.388246,0.494779,2.098495,-0.169511,0.000000,0.000000,0.000000,0.000000,0.000000,0.000000
12779041.000000,-2.321247,-1.663211,1.180463,-1.435364,1.720177,1.250539,-0.579640,0.423795,-0.018143,1.288756,-0.467288,-0.313583,1.125860,-0.110533,1.169172,42.927288,-26.352737,-3.920107,0.506681,2.053634,-0.221696,0.000000,0.000000,0.000000,0.000000,0.000000,0.000000
12779042.000000,-2.320835,-1.663232,1.181724,-1.435827,1.719870,1.251696,-0.579757,0.418273,-0.017092,1.271839,-0.460846,-0.307332,1.127185,-0.115241,1.391340,42.927288,-26.031387,-3.646364,0.428861,1.949264,-0.136552,0.000000,0.000000,0.000000,0.000000,0.000000,0.000000
12779043.000000,-2.320423,-1.663251,1.182977,-1.436275,1.719557,1.252843,-0.579858,0.414761,-0.018812,1.264629,-0.466338,-0.307297,1.138808,-0.114829,1.565900,42.903484,-25.983780,-3.523378,0.458158,1.793624,-0.149369,0.000000,0.000000,0.000000,0.000000,0.000000,0.000000
12779044.000000,-2.320029,-1.663270,1.184241,-1.436713,1.719246,1.253972,-0.579954,0.413618,-0.017466,1.261481,-0.454038,-0.308279,1.134103,-0.107202,1.911054,42.903484,-25.912369,-3.570986,0.524076,1.930038,-0.229020,0.000000,0.000000,0.000000,0.000000,0.000000,0.000000
12779045.000000,-2.319619,-1.663286,1.185500,-1.437152,1.718934,1.255082,-0.580061,0.410805,-0.015154,1.254014,-0.447841,-0.308613,1.127150,-0.112024,2.085615,42.851910,-25.836990,-3.646364,0.601896,2.125045,-0.182328,0.000000,0.000000,0.000000,0.000000,0.000000,0.000000
12779046.000000,-2.319209,-1.663305,1.186731,-1.437595,1.718630,1.256218,-0.580162,0.412200,-0.014532,1.247289,-0.445628,-0.304344,1.125605,-0.107238,2.208601,42.851910,-25.714005,-3.499574,0.673307,2.202865,-0.208878,0.000000,0.000000,0.000000,0.000000,0.000000,0.000000
12779047.000000,-2.318809,-1.663322,1.187973,-1.438033,1.718321,1.257378,-0.580267,0.411538,-0.014186,1.239075,-0.439456,-0.312069,1.130624,-0.110377,2.283979,42.851910,-25.591019,-3.523378,0.786832,2.098495,-0.188737,0.000000,0.000000,0.000000,0.000000,0.000000,0.000000
12779048.000000,-2.318397,-1.663342,1.189195,-1.438472,1.718013,1.258540,-0.580365,0.416137,-0.015206,1.239478,-0.438447,-0.313910,1.146506,-0.106071,2.283979,42.903484,-25.491837,-3.301210,0.799650,1.819259,-0.215287,0.000000,0.000000,0.000000,0.000000,0.000000,0.000000
12779049.000000,-2.317979,-1.663346,1.190421,-1.438916,1.717724,1.259707,-0.580473,0.417155,-0.010327,1.227870,-0.434324,-0.307400,1.155748,-0.105231,2.109418,42.728924,-25.321243,-3.178224,0.727323,1.662704,-0.175919,0.000000,0.000000,0.000000,0.000000,0.000000,0.000000
12779050.000000,-2.317564,-1.663356,1.191672,-1.439357,1.717436,1.260854,-0.580570,0.415413,-0.010098,1.231383,-0.431976,-0.296369,1.161745,-0.107338,2.010236,42.681316,-25.396622,-3.003664,0.613798,1.578475,-0.188737,0.000000,0.000000,0.000000,0.000000,0.000000,0.000000
12779051.000000,-2.317161,-1.663364,1.192885,-1.439780,1.717153,1.262020,-0.580666,0.411765,-0.009258,1.225266,-0.428180,-0.291205,1.166074,-0.109137,2.034040,42.609905,-25.249832,-2.956056,0.559781,1.519881,-0.202470,0.000000,0.000000,0.000000,0.000000,0.000000,0.000000
12779052.000000,-2.316763,-1.663377,1.194125,-1.440197,1.716863,1.263172,-0.580769,0.411450,-0.014067,1.228188,-0.426543,-0.289172,1.155511,-0.107472,2.085615,42.633709,-25.368851,-2.979860,0.554288,1.643478,-0.163102,0.000000,0.000000,0.000000,0.000000,0.000000,0.000000
12779053.000000,-2.316364,-1.663383,1.195353,-1.440609,1.716580,1.264293,-0.580862,0.406258,-0.010880,1.228936,-0.420383,-0.283358,1.140417,-0.103936,2.184797,42.510723,-25.591019,-3.102846,0.559781,1.897079,-0.202470,0.000000,0.000000,0.000000,0.000000,0.000000,0.000000
12779054.000000,-2.315971,-1.663389,1.196607,-1.441000,1.716308,1.265426,-0.580966,0.399503,-0.009380,1.239056,-0.414082,-0.278264,1.123647,-0.103662,2.283979,42.411541,-25.959976,-3.325014,0.547880,2.169906,-0.163102,0.000000,0.000000,0.000000,0.000000,0.000000,0.000000
12779055.000000,-2.315570,-1.663400,1.197857,-1.441400,1.716028,1.266585,-0.581061,0.401127,-0.010082,1.236978,-0.407387,-0.277436,1.120533,-0.101422,2.260175,42.387737,-26.253555,-3.475771,0.632108,2.215682,-0.175919,0.000000,0.000000,0.000000,0.000000,0.000000,0.000000
12779056.000000,-2.315168,-1.663413,1.199075,-1.441792,1.715756,1.267733,-0.581157,0.401071,-0.008454,1.234099,-0.404445,-0.283049,1.122713,-0.105841,2.283979,42.411541,-26.376541,-3.570986,0.667814,2.137862,-0.155778,0.000000,0.000000,0.000000,0.000000,0.000000,0.000000
12779057.000000,-2.314757,-1.663419,1.200309,-1.442206,1.715472,1.268877,-0.581244,0.406007,-0.005960,1.229611,-0.408050,-0.284558,1.122771,-0.105886,2.109418,42.387737,-26.598709,-3.424196,0.715421,2.157089,-0.221696,0.000000,0.000000,0.000000,0.000000,0.000000,0.000000
12779058.000000,-2.314344,-1.663427,1.201517,-1.442615,1.715203,1.270000,-0.581346,0.405448,-0.006541,1.229603,-0.407187,-0.276742,1.123137,-0.101513,1.934858,42.340130,-26.574905,-3.277406,0.661405,2.222091,-0.163102,0.000000,0.000000,0.000000,0.000000,0.000000,0.000000
12779059.000000,-2.313945,-1.663433,1.202730,-1.443017,1.714938,1.271143,-0.581445,0.396776,-0.006515,1.219544,-0.405663,-0.271579,1.126521,-0.100173,1.835676,42.264751,-26.400345,-3.154421,0.608304,2.196456,-0.163102,0.000000,0.000000,0.000000,0.000000,0.000000,0.000000
12779060.000000,-2.313551,-1.663441,1.203949,-1.443412,1.714677,1.272298,-0.581538,0.395412,-0.007339,1.213806,-0.397742,-0.272616,1.131175,-0.098010,1.934858,42.217144,-26.229752,-3.126650,0.571683,2.098495,-0.202470,0.000000,0.000000,0.000000,0.000000,0.000000,0.000000
12779061.000000,-2.313152,-1.663449,1.205142,-1.443795,1.714418,1.273422,-0.581637,0.392589,-0.005228,1.203369,-0.398350,-0.271447,1.131800,-0.098703,1.986432,42.193340,-25.959976,-3.178224,0.458158,2.092086,-0.175919,0.000000,0.000000,0.000000,0.000000,0.000000,0.000000
12779062.000000,-2.312770,-1.663450,1.206367,-1.444177,1.714161,1.274559,-0.581727,0.388054,-0.004445,1.205547,-0.389535,-0.269147,1.129717,-0.097108,2.160993,42.070354,-25.983780,-3.178224,0.434354,2.098495,-0.202470,0.000000,0.000000,0.000000,0.000000,0.000000,0.000000
12779063.000000,-2.312388,-1.663449,1.207573,-1.444559,1.713907,1.275683,-0.581825,0.382247,-0.003320,1.200160,-0.382556,-0.262375,1.158516,-0.093757,2.283979,41.923565,-25.714005,-3.202028,0.422452,2.072860,-0.175919,0.000000,0.000000,0.000000,0.000000,0.000000,0.000000
12779064.000000,-2.312009,-1.663448,1.208766,-1.444928,1.713653,1.276838,-0.581918,0.386388,-0.002668,1.198626,-0.374544,-0.261284,1.160824,-0.093777,2.383161,41.776775,-25.614822,-3.225832,0.500272,1.942855,-0.196061,0.000000,0.000000,0.000000,0.000000,0.000000,0.000000
12779065.000000,-2.311626,-1.663446,1.209972,-1.445310,1.713391,1.277985,-0.582016,0.380532,0.000780,1.193098,-0.373398,-0.265617,1.154129,-0.095348,2.529951,41.629986,-25.491837,-3.154421,0.601896,1.916305,-0.175919,0.000000,0.000000,0.000000,0.000000,0.000000,0.000000
12779066.000000,-2.311235,-1.663448,1.211172,-1.445677,1.713131,1.279111,-0.582108,0.380060,0.002184,1.194480,-0.370362,-0.261450,1.149329,-0.095528,2.529951,41.530804,-25.591019,-3.202028,0.632108,1.909896,-0.182328,0.000000,0.000000,0.000000,0.000000,0.000000,0.000000
12779067.000000,-2.310863,-1.663446,1.212369,-1.446041,1.712879,1.280249,-0.582194,0.374603,0.000238,1.191620,-0.372721,-0.257216,1.136342,-0.095039,2.605329,41.431622,-25.567215,-3.178224,0.637601,1.865035,-0.202470,0.000000,0.000000,0.000000,0.000000,0.000000,0.000000
12779068.000000,-2.310488,-1.663447,1.213554,-1.446396,1.712629,1.281380,-0.582291,0.375356,0.001206,1.180712,-0.366610,-0.253260,1.128685,-0.093451,2.728315,41.360210,-25.321243,-3.325014,0.637601,1.786300,-0.142960,0.000000,0.000000,0.000000,0.000000,0.000000,0.000000
12779069.000000,-2.310104,-1.663445,1.214718,-1.446747,1.712390,1.282526,-0.582370,0.376003,0.001451,1.175074,-0.361993,-0.248464,1.124726,-0.086744,2.752119,41.312603,-25.051468,-3.376589,0.601896,1.773483,-0.215287,0.000000,0.000000,0.000000,0.000000,0.000000,0.000000
12779070.000000,-2.309727,-1.663432,1.215894,-1.447104,1.712150,1.283656,-0.582462,0.377251,0.005257,1.167068,-0.358670,-0.243716,1.113330,-0.091133,2.728315,41.114239,-24.805496,-3.424196,0.500272,1.962081,-0.169511,0.000000,0.000000,0.000000,0.000000,0.000000,0.000000
12779071.000000,-2.309350,-1.663426,1.217049,-1.447459,1.711907,1.284777,-0.582549,0.373797,0.005469,1.162736,-0.354077,-0.242167,1.114437,-0.088490,2.728315,41.019024,-24.511917,-3.424196,0.440763,2.092086,-0.163102,0.000000,0.000000,0.000000,0.000000,0.000000,0.000000
12779072.000000,-2.308972,-1.663420,1.218220,-1.447812,1.711672,1.285933,-0.582640,0.380203,0.005212,1.158769,-0.353028,-0.242980,1.124050,-0.090885,2.680707,40.943645,-24.289749,-3.325014,0.434354,1.968490,-0.149369,0.000000,0.000000,0.000000,0.000000,0.000000,0.000000
12779073.000000,-2.308598,-1.663410,1.219410,-1.448154,1.711441,1.287099,-0.582721,0.381156,0.012552,1.161865,-0.344763,-0.236822,1.138128,-0.090211,2.629133,40.820660,-24.289749,-3.376589,0.393156,1.767074,-0.208878,0.000000,0.000000,0.000000,0.000000,0.000000,0.000000
12779074.000000,-2.308224,-1.663393,1.220597,-1.448498,1.711212,1.288236,-0.582815,0.377305,0.013334,1.169302,-0.349097,-0.235868,1.139718,-0.089608,2.629133,40.626263,-24.559525,-3.277406,0.422452,1.670028,-0.142960,0.000000,0.000000,0.000000,0.000000,0.000000,0.000000
12779075.000000,-2.307849,-1.663382,1.221797,-1.448832,1.710983,1.289376,-0.582898,0.376463,0.012636,1.171971,-0.345785,-0.238263,1.139381,-0.091005,2.529951,40.479473,-24.880875,-3.325014,0.422452,1.695663,-0.149369,0.000000,0.000000,0.000000,0.000000,0.000000,0.000000
12779076.000000,-2.307482,-1.663375,1.222978,-1.449159,1.710741,1.290493,-0.582974,0.370183,0.010980,1.177202,-0.339098,-0.241782,1.136019,-0.081124,2.506147,40.380291,-25.222061,-3.400392,0.476469,1.741439,-0.202470,0.000000,0.000000,0.000000,0.000000,0.000000,0.000000
12779077.000000,-2.307126,-1.663374,1.224165,-1.449468,1.710500,1.291628,-0.583061,0.366433,0.006939,1.174284,-0.326950,-0.242033,1.137216,-0.086842,2.605329,40.404095,-25.368851,-3.670168,0.589994,1.793624,-0.155778,0.000000,0.000000,0.000000,0.000000,0.000000,0.000000
12779078.000000,-2.306756,-1.663370,1.225358,-1.449782,1.710274,1.292744,-0.583137,0.365192,0.005315,1.176539,-0.316956,-0.235998,1.130102,-0.087713,2.605329,40.380291,-25.491837,-3.820925,0.554288,1.962081,-0.202470,0.000000,0.000000,0.000000,0.000000,0.000000,0.000000
12779079.000000,-2.306384,-1.663365,1.226531,-1.450088,1.710051,1.293839,-0.583225,0.365701,0.004756,1.176679,-0.323201,-0.231404,1.119268,-0.087304,2.581525,40.332684,-25.591019,-4.019289,0.494779,2.150680,-0.149369,0.000000,0.000000,0.000000,0.000000,0.000000,0.000000
12779080.000000,-2.306020,-1.663367,1.227712,-1.450410,1.709835,1.294965,-0.583295,0.364976,0.002689,1.174955,-0.320552,-0.227636,1.113805,-0.082144,2.529951,40.356487,-25.491837,-3.943910,0.422452,2.104903,-0.215287,0.000000,0.000000,0.000000,0.000000,0.000000,0.000000
12779081.000000,-2.305656,-1.663373,1.228883,-1.450727,1.709604,1.296087,-0.583377,0.365267,0.002681,1.169117,-0.318248,-0.225797,1.136740,-0.083108,2.482343,40.455669,-25.249832,-3.844728,0.393156,1.974899,-0.175919,0.000000,0.000000,0.000000,0.000000,0.000000,0.000000
12779082.000000,-2.305272,-1.663375,1.230030,-1.451048,1.709378,1.297222,-0.583458,0.381089,0.000978,1.166180,-0.320265,-0.226679,1.124796,-0.082053,2.208601,40.503277,-24.928482,-3.721742,0.405057,1.877853,-0.169511,0.000000,0.000000,0.000000,0.000000,0.000000,0.000000
12779083.000000,-2.304899,-1.663367,1.231199,-1.451366,1.709154,1.298359,-0.583529,0.382431,0.003201,1.156974,-0.317341,-0.226383,1.123909,-0.079730,2.034040,40.404095,-24.706314,-3.622560,0.393156,1.800033,-0.202470,0.000000,0.000000,0.000000,0.000000,0.000000,0.000000
12779084.000000,-2.304526,-1.663368,1.232355,-1.451681,1.708933,1.299488,-0.583605,0.378103,0.001748,1.155269,-0.318842,-0.222378,1.129101,-0.081145,1.863447,40.427898,-24.583328,-3.523378,0.410551,1.702071,-0.169511,0.000000,0.000000,0.000000,0.000000,0.000000,0.000000
12779085.000000,-2.304161,-1.663363,1.233505,-1.451983,1.708717,1.300637,-0.583678,0.374502,0.002408,1.148363,-0.312912,-0.219458,1.135614,-0.079017,1.688886,40.380291,-24.218338,-3.570986,0.434354,1.526290,-0.196061,0.000000,0.000000,0.000000,0.000000,0.000000,0.000000
12779086.000000,-2.303794,-1.663365,1.234671,-1.452282,1.708492,1.301778,-0.583758,0.370317,0.000588,1.147002,-0.307484,-0.222878,1.128423,-0.079881,1.589704,40.427898,-24.095352,-3.646364,0.494779,1.552840,-0.163102,0.000000,0.000000,0.000000,0.000000,0.000000,0.000000
12779087.000000,-2.303426,-1.663362,1.235828,-1.452576,1.708274,1.302879,-0.583831,0.368724,0.001578,1.153353,-0.304441,-0.221931,1.122334,-0.078025,1.514325,40.380291,-24.043777,-3.721742,0.476469,1.747848,-0.196061,0.000000,0.000000,0.000000,0.000000,0.000000,0.000000
12779088.000000,-2.303061,-1.663360,1.236992,-1.452868,1.708060,1.303999,-0.583906,0.366358,0.001106,1.149460,-0.297113,-0.216233,1.121460,-0.077494,1.415143,40.380291,-24.019974,-3.745546,0.422452,1.936446,-0.208878,0.000000,0.000000,0.000000,0.000000,0.000000,0.000000
12779089.000000,-2.302692,-1.663357,1.238133,-1.453158,1.707840,1.305121,-0.583984,0.365870,0.001335,1.169351,-0.294858,-0.214836,1.124452,-0.073591,1.216779,40.356487,-23.920792,-3.769350,0.440763,1.962081,-0.196061,0.000000,0.000000,0.000000,0.000000,0.000000,0.000000
12779090.000000,-2.302327,-1.663351,1.239288,-1.453449,1.707634,1.306275,-0.584061,0.366236,0.005205,1.156335,-0.297147,-0.211863,1.132190,-0.069957,1.022382,40.308880,-23.849380,-3.745546,0.410551,1.825668,-0.188737,0.000000,0.000000,0.000000,0.000000,0.000000,0.000000
12779091.000000,-2.301947,-1.663342,1.240451,-1.453749,1.707425,1.307413,-0.584140,0.371448,0.006634,1.151246,-0.298289,-0.210837,1.132350,-0.073645,0.724836,40.185894,-23.896988,-3.598757,0.428861,1.819259,-0.142960,0.000000,0.000000,0.000000,0.000000,0.000000,0.000000
12779092.000000,-2.301561,-1.663326,1.241582,-1.454036,1.707214,1.308527,-0.584210,0.376263,0.009278,1.149506,-0.294733,-0.209487,1.126244,-0.072481,0.403486,39.987530,-23.726395,-3.499574,0.410551,1.877853,-0.196061,0.000000,0.000000,0.000000,0.000000,0.000000,0.000000
12779093.000000,-2.301185,-1.663314,1.242716,-1.454334,1.706998,1.309660,-0.584287,0.375664,0.009131,1.137556,-0.296610,-0.210119,1.117344,-0.075164,0.129743,39.868511,-23.432816,-3.348818,0.446256,1.858627,-0.155778,0.000000,0.000000,0.000000,0.000000,0.000000,0.000000
12779094.000000,-2.300808,-1.663307,1.243868,-1.454615,1.706786,1.310788,-0.584353,0.373467,0.009887,1.136935,-0.290418,-0.205979,1.115477,-0.074029,-0.116229,39.840740,-23.286026,-3.376589,0.488370,1.773483,-0.215287,0.000000,0.000000,0.000000,0.000000,0.000000,0.000000
12779095.000000,-2.300437,-1.663293,1.245009,-1.454884,1.706589,1.311913,-0.584430,0.373747,0.012942,1.137491,-0.283907,-0.203530,1.109848,-0.080506,-0.342364,39.721722,-23.309830,-3.499574,0.422452,1.786300,-0.196061,0.000000,0.000000,0.000000,0.000000,0.000000,0.000000
12779096.000000,-2.300068,-1.663280,1.246165,-1.455160,1.706393,1.313044,-0.584506,0.370106,0.014529,1.138336,-0.281424,-0.201489,1.108319,-0.076060,-0.465350,39.622540,-23.432816,-3.646364,0.344633,1.838485,-0.169511,0.000000,0.000000,0.000000,0.000000,0.000000,0.000000
12779097.000000,-2.299698,-1.663271,1.247320,-1.455434,1.706189,1.314155,-0.584575,0.369656,0.013373,1.143752,-0.286444,-0.203957,1.108987,-0.070371,-0.564532,39.622540,-23.702591,-3.721742,0.356534,1.865035,-0.202470,0.000000,0.000000,0.000000,0.000000,0.000000,0.000000
12779098.000000,-2.299337,-1.663259,1.248489,-1.455709,1.705986,1.315276,-0.584648,0.369771,0.013814,1.153255,-0.284862,-0.208811,1.107347,-0.073513,-0.663714,39.574932,-23.972366,-3.697939,0.339139,1.903487,-0.163102,0.000000,0.000000,0.000000,0.000000,0.000000,0.000000
12779099.000000,-2.298974,-1.663253,1.249674,-1.455979,1.705773,1.316387,-0.584712,0.369849,0.011948,1.166743,-0.280282,-0.209428,1.130065,-0.068764,-0.762896,39.622540,-24.365128,-3.797121,0.374845,1.923629,-0.196061,0.000000,0.000000,0.000000,0.000000,0.000000,0.000000
12779100.000000,-2.298618,-1.663240,1.250828,-1.456246,1.705566,1.317497,-0.584785,0.366435,0.013004,1.163178,-0.276085,-0.209984,1.123407,-0.066929,-0.834307,39.574932,-24.634903,-3.820925,0.398649,2.001449,-0.175919,0.000000,0.000000,0.000000,0.000000,0.000000,0.000000
12779101.000000,-2.298259,-1.663232,1.251989,-1.456503,1.705368,1.318625,-0.584852,0.363386,0.012066,1.153884,-0.269534,-0.203147,1.123852,-0.069117,-0.885882,39.598736,-24.734085,-3.967714,0.362943,1.995040,-0.188737,0.000000,0.000000,0.000000,0.000000,0.000000,0.000000
12779102.000000,-2.297896,-1.663226,1.253121,-1.456765,1.705163,1.319731,-0.584920,0.358120,0.007860,1.148921,-0.264028,-0.206582,1.128028,-0.068322,-0.961260,39.646343,-24.658707,-4.043092,0.422452,1.955673,-0.149369,0.000000,0.000000,0.000000,0.000000,0.000000,0.000000
12779103.000000,-2.297548,-1.663216,1.254259,-1.457020,1.704968,1.320840,-0.584988,0.356880,0.005938,1.142174,-0.262613,-0.202043,1.116889,-0.064939,-0.985064,39.646343,-24.436539,-4.118471,0.428861,2.007858,-0.169511,0.000000,0.000000,0.000000,0.000000,0.000000,0.000000
12779104.000000,-2.297201,-1.663205,1.255411,-1.457273,1.704774,1.321948,-0.585049,0.353205,0.008774,1.139679,-0.259105,-0.201409,1.104777,-0.065973,-0.909686,39.598736,-24.190567,-4.142274,0.386747,2.079269,-0.229020,0.000000,0.000000,0.000000,0.000000,0.000000,0.000000
12779105.000000,-2.296853,-1.663196,1.256536,-1.457529,1.704581,1.323038,-0.585122,0.348854,0.006507,1.134569,-0.259352,-0.200588,1.099023,-0.071057,-0.885882,39.598736,-23.896988,-4.066896,0.351041,2.177230,-0.175919,0.000000,0.000000,0.000000,0.000000,0.000000,0.000000
12779106.000000,-2.296517,-1.663182,1.257670,-1.457782,1.704387,1.324163,-0.585189,0.345884,0.007151,1.127899,-0.258478,-0.197661,1.099785,-0.072573,-0.786700,39.499554,-23.555801,-4.019289,0.351041,2.085677,-0.175919,0.000000,0.000000,0.000000,0.000000,0.000000,0.000000
12779107.000000,-2.296180,-1.663172,1.258796,-1.458037,1.704204,1.325289,-0.585258,0.341751,0.009273,1.148615,-0.255863,-0.188684,1.107415,-0.074900,-0.687518,39.451946,-23.381241,-3.920107,0.297025,1.877853,-0.163102,0.000000,0.000000,0.000000,0.000000,0.000000,0.000000
12779108.000000,-2.295850,-1.663151,1.259934,-1.458287,1.704020,1.326419,-0.585321,0.336394,0.013753,1.141996,-0.258166,-0.188863,1.108401,-0.069156,-0.564532,39.281353,-23.210648,-3.892336,0.291532,1.747848,-0.202470,0.000000,0.000000,0.000000,0.000000,0.000000,0.000000
12779109.000000,-2.295529,-1.663133,1.261088,-1.458540,1.703841,1.327544,-0.585391,0.334399,0.012697,1.146496,-0.256375,-0.187375,1.110492,-0.073645,-0.413775,39.158367,-23.234451,-3.868532,0.255826,1.708480,-0.142960,0.000000,0.000000,0.000000,0.000000,0.000000,0.000000
12779110.000000,-2.295202,-1.663118,1.262212,-1.458777,1.703661,1.328650,-0.585449,0.330017,0.013208,1.137652,-0.245188,-0.182652,1.110893,-0.072858,-0.266986,39.106792,-23.111465,-3.967714,0.237516,1.695663,-0.188737,0.000000,0.000000,0.000000,0.000000,0.000000,0.000000
12779111.000000,-2.294893,-1.663105,1.263358,-1.459015,1.703465,1.329770,-0.585511,0.325275,0.010539,1.133805,-0.241970,-0.187747,1.114819,-0.073947,-0.044818,39.059185,-23.135269,-4.043092,0.332731,1.662704,-0.188737,0.000000,0.000000,0.000000,0.000000,0.000000,0.000000
12779112.000000,-2.294583,-1.663086,1.264498,-1.459254,1.703273,1.330879,-0.585579,0.319771,0.013519,1.132345,-0.242658,-0.186823,1.118309,-0.067189,0.153547,38.936199,-23.111465,-4.118471,0.320829,1.676437,-0.142960,0.000000,0.000000,0.000000,0.000000,0.000000,0.000000
12779113.000000,-2.294276,-1.663068,1.265616,-1.459494,1.703091,1.331987,-0.585635,0.318928,0.018599,1.127316,-0.242158,-0.186989,1.114527,-0.067734,0.228925,38.813213,-23.016251,-4.118471,0.320829,1.735030,-0.196061,0.000000,0.000000,0.000000,0.000000,0.000000,0.000000
12779114.000000,-2.293969,-1.663055,1.266748,-1.459735,1.702903,1.333101,-0.585702,0.319791,0.017532,1.123935,-0.242289,-0.184471,1.106247,-0.071870,0.403486,38.765606,-22.917068,-4.066896,0.374845,1.806442,-0.155778,0.000000,0.000000,0.000000,0.000000,0.000000,0.000000
12779115.000000,-2.293658,-1.663037,1.267858,-1.459971,1.702721,1.334216,-0.585760,0.316885,0.018574,1.119060,-0.246681,-0.180243,1.107728,-0.068540,0.502668,38.642620,-22.718704,-4.043092,0.369352,1.702071,-0.163102,0.000000,0.000000,0.000000,0.000000,0.000000,0.000000
12779116.000000,-2.293352,-1.663026,1.268975,-1.460218,1.702543,1.335336,-0.585816,0.313150,0.017097,1.116061,-0.244927,-0.176950,1.103818,-0.064933,0.526471,38.618816,-22.524307,-3.892336,0.356534,1.656295,-0.188737,0.000000,0.000000,0.000000,0.000000,0.000000,0.000000
12779117.000000,-2.293049,-1.662998,1.270108,-1.460455,1.702368,1.336441,-0.585879,0.310822,0.017600,1.119137,-0.241573,-0.176182,1.102332,-0.065543,0.649457,38.396648,-22.425125,-3.820925,0.273221,1.649886,-0.136552,0.000000,0.000000,0.000000,0.000000,0.000000,0.000000
12779118.000000,-2.292753,-1.662981,1.271236,-1.460691,1.702195,1.337582,-0.585932,0.302632,0.017330,1.125656,-0.241423,-0.176115,1.111120,-0.061948,0.796247,38.325237,-22.524307,-3.646364,0.183500,1.481429,-0.182328,0.000000,0.000000,0.000000,0.000000,0.000000,0.000000
12779119.000000,-2.292465,-1.662963,1.272380,-1.460930,1.702012,1.338717,-0.585988,0.299092,0.017198,1.129672,-0.239776,-0.180891,1.107125,-0.060674,0.970807,38.249859,-22.694901,-3.523378,0.219205,1.416427,-0.196061,0.000000,0.000000,0.000000,0.000000,0.000000,0.000000
12779120.000000,-2.292177,-1.662945,1.273520,-1.461159,1.701834,1.339828,-0.586044,0.290930,0.014012,1.131109,-0.236856,-0.179205,1.112718,-0.061136,1.169172,38.178448,-22.988480,-3.475771,0.249418,1.416427,-0.182328,0.000000,0.000000,0.000000,0.000000,0.000000,0.000000
12779121.000000,-2.291896,-1.662926,1.274674,-1.461389,1.701661,1.340942,-0.586107,0.281101,0.015924,1.134714,-0.232820,-0.182451,1.106126,-0.061514,1.343732,38.055462,-23.309830,-3.376589,0.279630,1.572067,-0.149369,0.000000,0.000000,0.000000,0.000000,0.000000,0.000000
12779122.000000,-2.291616,-1.662904,1.275830,-1.461620,1.701476,1.342045,-0.586157,0.278832,0.018528,1.142786,-0.231474,-0.178713,1.100010,-0.058906,1.565900,37.884869,-23.603409,-3.325014,0.398649,1.793624,-0.196061,0.000000,0.000000,0.000000,0.000000,0.000000,0.000000
12779123.000000,-2.291336,-1.662888,1.276968,-1.461846,1.701305,1.343145,-0.586211,0.278444,0.017552,1.141394,-0.227705,-0.180427,1.108320,-0.058154,1.740461,37.833294,-23.825577,-3.277406,0.416959,1.955673,-0.215287,0.000000,0.000000,0.000000,0.000000,0.000000,0.000000
12779124.000000,-2.291062,-1.662878,1.278119,-1.462078,1.701131,1.344258,-0.586277,0.277181,0.018395,1.137157,-0.227400,-0.177122,1.110696,-0.061275,1.811872,37.861065,-23.972366,-3.126650,0.410551,2.014266,-0.136552,0.000000,0.000000,0.000000,0.000000,0.000000,0.000000
12779125.000000,-2.290783,-1.662857,1.279242,-1.462314,1.700954,1.345364,-0.586325,0.278662,0.019482,1.158459,-0.229027,-0.173695,1.113991,-0.058592,1.911054,37.738079,-23.896988,-2.880678,0.381254,2.007858,-0.196061,0.000000,0.000000,0.000000,0.000000,0.000000,0.000000
12779126.000000,-2.290502,-1.662844,1.280379,-1.462553,1.700788,1.346480,-0.586383,0.282319,0.017760,1.146738,-0.233721,-0.170903,1.109166,-0.060001,1.911054,37.714275,-23.849380,-2.606935,0.332731,1.923629,-0.155778,0.000000,0.000000,0.000000,0.000000,0.000000,0.000000
12779127.000000,-2.290216,-1.662823,1.281517,-1.462803,1.700617,1.347600,-0.586439,0.283936,0.018459,1.139588,-0.236429,-0.170114,1.106593,-0.059772,1.811872,37.615093,-23.651016,-2.214174,0.320829,1.897079,-0.149369,0.000000,0.000000,0.000000,0.000000,0.000000,0.000000
12779128.000000,-2.289941,-1.662808,1.282630,-1.463043,1.700444,1.348696,-0.586490,0.277480,0.017259,1.134627,-0.241106,-0.167574,1.104898,-0.058179,1.887250,37.591290,-23.357437,-1.916628,0.381254,1.884261,-0.182328,0.000000,0.000000,0.000000,0.000000,0.000000,0.000000
12779129.000000,-2.289669,-1.662797,1.283755,-1.463277,1.700272,1.349808,-0.586546,0.277927,0.015661,1.125976,-0.239170,-0.170641,1.105696,-0.059126,1.934858,37.591290,-23.135269,-1.769838,0.452665,1.865035,-0.155778,0.000000,0.000000,0.000000,0.000000,0.000000,0.000000
12779130.000000,-2.289399,-1.662778,1.284904,-1.463510,1.700108,1.350904,-0.586590,0.276681,0.017105,1.129704,-0.234732,-0.165231,1.125990,-0.056531,1.962629,37.492107,-23.163040,-1.769838,0.458158,1.851302,-0.229020,0.000000,0.000000,0.000000,0.000000,0.000000,0.000000
12779131.000000,-2.289146,-1.662764,1.286021,-1.463724,1.699957,1.352017,-0.586644,0.269430,0.016143,1.125634,-0.228455,-0.158599,1.124209,-0.053510,2.208601,37.468304,-22.964676,-1.916628,0.381254,1.825668,-0.196061,0.000000,0.000000,0.000000,0.000000,0.000000,0.000000
12779132.000000,-2.288878,-1.662750,1.287162,-1.463944,1.699789,1.353152,-0.586696,0.267191,0.015677,1.129583,-0.220301,-0.156529,1.123399,-0.055073,2.283979,37.444500,-22.988480,-1.940431,0.374845,1.637069,-0.188737,0.000000,0.000000,0.000000,0.000000,0.000000,0.000000
12779133.000000,-2.288614,-1.662737,1.288280,-1.464166,1.699621,1.354251,-0.586750,0.266204,0.014680,1.123538,-0.222136,-0.160159,1.126024,-0.051810,2.331586,37.444500,-22.940872,-1.992006,0.381254,1.624252,-0.175919,0.000000,0.000000,0.000000,0.000000,0.000000,0.000000
12779134.000000,-2.288353,-1.662731,1.289423,-1.464393,1.699460,1.355360,-0.586795,0.264587,0.012360,1.122044,-0.222239,-0.159756,1.124406,-0.051863,2.406965,37.515911,-23.040054,-1.892824,0.434354,1.689254,-0.215287,0.000000,0.000000,0.000000,0.000000,0.000000,0.000000
12779135.000000,-2.288079,-1.662723,1.290563,-1.464615,1.699303,1.356450,-0.586850,0.269088,0.011804,1.124948,-0.220303,-0.156842,1.118625,-0.049970,2.260175,37.539715,-23.040054,-1.869020,0.428861,1.760665,-0.188737,0.000000,0.000000,0.000000,0.000000,0.000000,0.000000
12779136.000000,-2.287817,-1.662711,1.291674,-1.464828,1.699152,1.357572,-0.586899,0.266256,0.012215,1.119006,-0.222186,-0.158927,1.110277,-0.052335,2.208601,37.539715,-22.964676,-1.841249,0.422452,1.682845,-0.182328,0.000000,0.000000,0.000000,0.000000,0.000000,0.000000
12779137.000000,-2.287557,-1.662704,1.292796,-1.465044,1.698992,1.358706,-0.586946,0.266468,0.010616,1.115084,-0.219665,-0.163829,1.106680,-0.053084,2.184797,37.615093,-22.841690,-1.841249,0.488370,1.494247,-0.202470,0.000000,0.000000,0.000000,0.000000,0.000000,0.000000
12779138.000000,-2.287289,-1.662692,1.293902,-1.465251,1.698851,1.359801,-0.586996,0.267038,0.014979,1.120085,-0.213186,-0.156372,1.101521,-0.050963,2.109418,37.591290,-22.718704,-1.916628,0.381254,1.559249,-0.182328,0.000000,0.000000,0.000000,0.000000,0.000000,0.000000
12779139.000000,-2.287024,-1.662678,1.295012,-1.465456,1.698708,1.360906,-0.587041,0.266176,0.015686,1.115282,-0.207647,-0.152959,1.096226,-0.051731,1.962629,37.539715,-22.500504,-1.892824,0.320829,1.682845,-0.208878,0.000000,0.000000,0.000000,0.000000,0.000000,0.000000
12779140.000000,-2.286758,-1.662665,1.296131,-1.465659,1.698545,1.362022,-0.587095,0.264103,0.015995,1.110856,-0.206903,-0.155777,1.098385,-0.055481,1.863447,37.492107,-22.254532,-1.841249,0.410551,1.754256,-0.155778,0.000000,0.000000,0.000000,0.000000,0.000000,0.000000
12779141.000000,-2.286493,-1.662654,1.297241,-1.465857,1.698397,1.363126,-0.587134,0.266466,0.015588,1.113075,-0.205831,-0.157977,1.103806,-0.048561,1.740461,37.468304,-22.230728,-1.817445,0.398649,1.747848,-0.229020,0.000000,0.000000,0.000000,0.000000,0.000000,0.000000
12779142.000000,-2.286232,-1.662632,1.298371,-1.466057,1.698245,1.364245,-0.587182,0.262679,0.018168,1.114439,-0.202040,-0.156123,1.106091,-0.047217,1.589704,37.321514,-22.401321,-1.793642,0.393156,1.714889,-0.202470,0.000000,0.000000,0.000000,0.000000,0.000000,0.000000
12779143.000000,-2.285977,-1.662616,1.299512,-1.466245,1.698101,1.365350,-0.587233,0.260284,0.014366,1.126989,-0.196756,-0.148984,1.109240,-0.047884,1.542096,37.273907,-22.817886,-1.869020,0.369352,1.676437,-0.136552,0.000000,0.000000,0.000000,0.000000,0.000000,0.000000
12779144.000000,-2.285721,-1.662605,1.300663,-1.466433,1.697958,1.366469,-0.587268,0.258064,0.015960,1.127000,-0.192061,-0.150258,1.119362,-0.042531,1.542096,37.297710,-23.210648,-1.841249,0.386747,1.584884,-0.215287,0.000000,0.000000,0.000000,0.000000,0.000000,0.000000
12779145.000000,-2.285458,-1.662596,1.301816,-1.466618,1.697805,1.367578,-0.587320,0.262309,0.013848,1.127911,-0.189017,-0.152441,1.111544,-0.048578,1.415143,37.345318,-23.603409,-1.916628,0.446256,1.630660,-0.163102,0.000000,0.000000,0.000000,0.000000,0.000000,0.000000
12779146.000000,-2.285203,-1.662591,1.302947,-1.466795,1.697659,1.368643,-0.587362,0.261624,0.009244,1.127076,-0.188661,-0.152003,1.095168,-0.045653,1.343732,37.392925,-23.825577,-2.015810,0.452665,1.825668,-0.182328,0.000000,0.000000,0.000000,0.000000,0.000000,0.000000
12779147.000000,-2.284944,-1.662580,1.304089,-1.466969,1.697524,1.369736,-0.587407,0.258753,0.010732,1.127306,-0.183155,-0.144885,1.079683,-0.047953,1.216779,37.369122,-23.972366,-2.114992,0.405057,1.955673,-0.202470,0.000000,0.000000,0.000000,0.000000,0.000000,0.000000
12779148.000000,-2.284686,-1.662576,1.305226,-1.467136,1.697379,1.370823,-0.587456,0.259734,0.009437,1.126482,-0.178278,-0.140924,1.098879,-0.046584,1.093793,37.444500,-24.043777,-2.261781,0.393156,1.903487,-0.188737,0.000000,0.000000,0.000000,0.000000,0.000000,0.000000
12779149.000000,-2.284436,-1.662575,1.306332,-1.467305,1.697233,1.371922,-0.587505,0.260050,0.004350,1.117554,-0.177711,-0.138411,1.104207,-0.046434,0.994611,37.567486,-23.896988,-2.285585,0.381254,1.877853,-0.142960,0.000000,0.000000,0.000000,0.000000,0.000000,0.000000
12779150.000000,-2.284178,-1.662573,1.307447,-1.467469,1.697089,1.373023,-0.587547,0.260278,0.000817,1.107248,-0.175044,-0.141203,1.098691,-0.048796,0.871625,37.686504,-23.555801,-2.384767,0.369352,1.812850,-0.155778,0.000000,0.000000,0.000000,0.000000,0.000000,0.000000
12779151.000000,-2.283918,-1.662574,1.308557,-1.467635,1.696944,1.374097,-0.587583,0.257748,-0.002363,1.111605,-0.168820,-0.139195,1.095713,-0.048874,0.724836,37.833294,-23.333633,-2.412538,0.374845,1.865035,-0.229020,0.000000,0.000000,0.000000,0.000000,0.000000,0.000000
12779152.000000,-2.283668,-1.662575,1.309670,-1.467792,1.696805,1.375194,-0.587631,0.252180,-0.000992,1.108044,-0.166564,-0.142780,1.088410,-0.053109,0.625654,37.956280,-23.040054,-2.460146,0.386747,1.884261,-0.182328,0.000000,0.000000,0.000000,0.000000,0.000000,0.000000
12779153.000000,-2.283413,-1.662574,1.310801,-1.467945,1.696667,1.376296,-0.587673,0.254443,0.001291,1.105675,-0.164045,-0.139844,1.101625,-0.044437,0.502668,38.031658,-22.940872,-2.535524,0.386747,1.695663,-0.188737,0.000000,0.000000,0.000000,0.000000,0.000000,0.000000
12779154.000000,-2.283163,-1.662572,1.311904,-1.468088,1.696533,1.377427,-0.587715,0.251986,0.002398,1.110397,-0.157004,-0.140095,1.110716,-0.043591,0.427289,38.130840,-22.770279,-2.706117,0.339139,1.409103,-0.175919,0.000000,0.000000,0.000000,0.000000,0.000000,0.000000
12779155.000000,-2.282928,-1.662569,1.313040,-1.468234,1.696398,1.378539,-0.587754,0.247644,0.001815,1.112749,-0.155166,-0.137819,1.107329,-0.041392,0.451093,38.154644,-22.917068,-2.880678,0.332731,1.312057,-0.202470,0.000000,0.000000,0.000000,0.000000,0.000000,0.000000
12779156.000000,-2.282693,-1.662567,1.314150,-1.468369,1.696259,1.379625,-0.587797,0.243122,0.001233,1.134971,-0.145988,-0.135819,1.099744,-0.042150,0.474897,38.178448,-22.817886,-3.126650,0.315336,1.429244,-0.175919,0.000000,0.000000,0.000000,0.000000,0.000000,0.000000
12779157.000000,-2.282452,-1.662564,1.315274,-1.468502,1.696117,1.380715,-0.587834,0.238518,0.000143,1.134875,-0.141025,-0.135597,1.091818,-0.040777,0.451093,38.226055,-22.817886,-3.301210,0.332731,1.617843,-0.188737,0.000000,0.000000,0.000000,0.000000,0.000000,0.000000
12779158.000000,-2.282208,-1.662563,1.316391,-1.468635,1.695970,1.381823,-0.587874,0.237345,0.000421,1.123752,-0.135534,-0.136955,1.088158,-0.040820,0.375715,38.226055,-22.794083,-3.400392,0.405057,1.767074,-0.175919,0.000000,0.000000,0.000000,0.000000,0.000000,0.000000
12779159.000000,-2.281961,-1.662555,1.317501,-1.468756,1.695841,1.382925,-0.587910,0.235868,0.002753,1.123226,-0.133493,-0.128633,1.089942,-0.040850,0.177350,38.130840,-22.794083,-3.547182,0.344633,1.779891,-0.163102,0.000000,0.000000,0.000000,0.000000,0.000000,0.000000
12779160.000000,-2.281714,-1.662548,1.318624,-1.468884,1.695714,1.384050,-0.587943,0.238258,0.004339,1.118975,-0.131235,-0.128024,1.097085,-0.038780,-0.044818,38.031658,-22.865494,-3.598757,0.303434,1.702071,-0.202470,0.000000,0.000000,0.000000,0.000000,0.000000,0.000000
12779161.000000,-2.281461,-1.662541,1.319714,-1.469012,1.695587,1.385153,-0.587985,0.241134,0.005350,1.111570,-0.128999,-0.127713,1.094634,-0.035358,-0.342364,37.932476,-22.742508,-3.670168,0.267728,1.643478,-0.169511,0.000000,0.000000,0.000000,0.000000,0.000000,0.000000
12779162.000000,-2.281218,-1.662532,1.320817,-1.469140,1.695464,1.386264,-0.588015,0.241550,0.006547,1.106003,-0.127248,-0.129038,1.099282,-0.034528,-0.564532,37.809490,-22.524307,-3.598757,0.267728,1.643478,-0.215287,0.000000,0.000000,0.000000,0.000000,0.000000,0.000000
12779163.000000,-2.280969,-1.662534,1.321929,-1.469264,1.695334,1.387365,-0.588051,0.243587,0.003885,1.104513,-0.127560,-0.130829,1.102363,-0.030635,-0.862078,37.833294,-22.377518,-3.570986,0.291532,1.767074,-0.221696,0.000000,0.000000,0.000000,0.000000,0.000000,0.000000
12779164.000000,-2.280726,-1.662530,1.323035,-1.469382,1.695215,1.388448,-0.588090,0.244135,0.003205,1.107834,-0.126605,-0.125292,1.102789,-0.034324,-0.985064,37.809490,-22.448929,-3.570986,0.261320,1.858627,-0.188737,0.000000,0.000000,0.000000,0.000000,0.000000,0.000000
12779165.000000,-2.280488,-1.662528,1.324162,-1.469496,1.695096,1.389566,-0.588127,0.241455,0.002737,1.111727,-0.122623,-0.120868,1.099014,-0.036280,-1.084246,37.785686,-22.595718,-3.598757,0.219205,1.754256,-0.163102,0.000000,0.000000,0.000000,0.000000,0.000000,0.000000
12779166.000000,-2.280252,-1.662526,1.325318,-1.469600,1.694972,1.390656,-0.588163,0.238806,0.002414,1.121667,-0.117350,-0.117803,1.112624,-0.038129,-1.183428,37.761883,-23.063858,-3.721742,0.189908,1.702071,-0.136552,0.000000,0.000000,0.000000,0.000000,0.000000,0.000000
12779167.000000,-2.280019,-1.662523,1.326446,-1.469700,1.694847,1.391763,-0.588187,0.237226,0.002747,1.125799,-0.113282,-0.121029,1.104957,-0.034812,-1.207232,37.714275,-23.432816,-3.868532,0.178007,1.670028,-0.229020,0.000000,0.000000,0.000000,0.000000,0.000000,0.000000
12779168.000000,-2.279795,-1.662525,1.327594,-1.469806,1.694714,1.392859,-0.588230,0.234005,0.000180,1.126848,-0.108614,-0.126678,1.092712,-0.034391,-1.207232,37.785686,-23.920792,-3.943910,0.249418,1.786300,-0.142960,0.000000,0.000000,0.000000,0.000000,0.000000,0.000000
12779169.000000,-2.279564,-1.662530,1.328712,-1.469908,1.694584,1.393931,-0.588256,0.230881,-0.001630,1.124819,-0.105271,-0.126198,1.092007,-0.034226,-1.306414,37.861065,-24.119156,-4.019289,0.332731,1.962081,-0.182328,0.000000,0.000000,0.000000,0.000000,0.000000,0.000000
12779170.000000,-2.279345,-1.662540,1.329857,-1.470012,1.694459,1.395020,-0.588292,0.223197,-0.004510,1.131866,-0.105156,-0.128589,1.083520,-0.036637,-1.330218,38.007854,-24.388931,-3.991518,0.369352,2.060043,-0.149369,0.000000,0.000000,0.000000,0.000000,0.000000,0.000000
12779171.000000,-2.279114,-1.662542,1.330993,-1.470112,1.694338,1.396120,-0.588319,0.226413,-0.003556,1.124741,-0.104582,-0.128228,1.083086,-0.031292,-1.429400,38.031658,-24.412735,-3.967714,0.351041,2.039901,-0.175919,0.000000,0.000000,0.000000,0.000000,0.000000,0.000000
12779172.000000,-2.278885,-1.662550,1.332113,-1.470206,1.694222,1.397219,-0.588349,0.224710,-0.005241,1.120755,-0.100036,-0.125698,1.091714,-0.037467,-1.504779,38.154644,-24.464310,-3.991518,0.279630,1.884261,-0.196061,0.000000,0.000000,0.000000,0.000000,0.000000,0.000000
12779173.000000,-2.278656,-1.662561,1.333226,-1.470302,1.694108,1.398322,-0.588383,0.228972,-0.006367,1.113669,-0.097671,-0.119790,1.094223,-0.039078,-1.679339,38.277630,-24.166763,-3.967714,0.207303,1.767074,-0.163102,0.000000,0.000000,0.000000,0.000000,0.000000,0.000000
12779174.000000,-2.278430,-1.662572,1.334329,-1.470404,1.693985,1.399390,-0.588408,0.228061,-0.007675,1.132418,-0.094869,-0.119476,1.086437,-0.033044,-1.826129,38.424419,-23.972366,-3.844728,0.237516,1.865035,-0.196061,0.000000,0.000000,0.000000,0.000000,0.000000,0.000000
12779175.000000,-2.278205,-1.662577,1.335434,-1.470502,1.693866,1.400461,-0.588436,0.224920,-0.006785,1.116975,-0.094686,-0.118624,1.074424,-0.034189,-2.000689,38.495831,-23.579605,-3.769350,0.255826,2.020675,-0.208878,0.000000,0.000000,0.000000,0.000000,0.000000,0.000000
12779176.000000,-2.277991,-1.662583,1.336560,-1.470598,1.693744,1.401554,-0.588468,0.219073,-0.005635,1.117113,-0.093066,-0.116921,1.078877,-0.036797,-2.048296,38.543438,-23.432816,-3.745546,0.255826,2.060043,-0.175919,0.000000,0.000000,0.000000,0.000000,0.000000,0.000000
12779177.000000,-2.277785,-1.662589,1.337656,-1.470683,1.693618,1.402653,-0.588493,0.212971,-0.005518,1.110732,-0.091822,-0.116806,1.084844,-0.036370,-2.000689,38.618816,-23.234451,-3.868532,0.273221,1.903487,-0.208878,0.000000,0.000000,0.000000,0.000000,0.000000,0.000000
12779178.000000,-2.277581,-1.662595,1.338782,-1.470763,1.693500,1.403776,-0.588529,0.209951,-0.008092,1.113377,-0.087370,-0.114930,1.093385,-0.039239,-2.000689,38.666424,-23.234451,-4.019289,0.249418,1.689254,-0.149369,0.000000,0.000000,0.000000,0.000000,0.000000,0.000000
12779179.000000,-2.277374,-1.662592,1.339916,-1.470844,1.693379,1.404865,-0.588548,0.209418,-0.004556,1.118444,-0.082328,-0.115255,1.090686,-0.032327,-1.949114,38.618816,-23.333633,-4.118471,0.279630,1.624252,-0.202470,0.000000,0.000000,0.000000,0.000000,0.000000,0.000000
12779180.000000,-2.277170,-1.662603,1.341022,-1.470920,1.693266,1.405951,-0.588579,0.208285,-0.006676,1.117443,-0.081993,-0.114717,1.083198,-0.030229,-1.949114,38.765606,-23.381241,-4.213686,0.285123,1.708480,-0.175919,0.000000,0.000000,0.000000,0.000000,0.000000,0.000000
12779181.000000,-2.276967,-1.662612,1.342140,-1.471001,1.693147,1.407049,-0.588606,0.205944,-0.006925,1.114929,-0.083824,-0.115895,1.088954,-0.027044,-1.925311,38.864788,-23.333633,-4.213686,0.332731,1.735030,-0.188737,0.000000,0.000000,0.000000,0.000000,0.000000,0.000000
12779182.000000,-2.276761,-1.662621,1.343246,-1.471079,1.693029,1.408129,-0.588638,0.204150,-0.007517,1.111185,-0.080864,-0.115915,1.093287,-0.027535,-2.000689,38.983807,-23.381241,-4.241457,0.356534,1.786300,-0.130143,0.000000,0.000000,0.000000,0.000000,0.000000,0.000000
12779183.000000,-2.276559,-1.662625,1.344366,-1.471153,1.692929,1.409225,-0.588658,0.201714,-0.005748,1.109991,-0.079068,-0.111347,1.087927,-0.022881,-2.048296,39.011578,-23.480423,-4.265260,0.255826,1.767074,-0.196061,0.000000,0.000000,0.000000,0.000000,0.000000,0.000000
12779184.000000,-2.276358,-1.662630,1.345483,-1.471224,1.692827,1.410313,-0.588689,0.202987,-0.004454,1.109636,-0.077599,-0.108858,1.084714,-0.022989,-2.123675,39.035381,-23.480423,-4.289064,0.178007,1.670028,-0.175919,0.000000,0.000000,0.000000,0.000000,0.000000,0.000000
12779185.000000,-2.276152,-1.662631,1.346565,-1.471293,1.692716,1.411414,-0.588714,0.202799,-0.005640,1.103350,-0.075960,-0.111427,1.079429,-0.021925,-2.270464,39.011578,-23.210648,-4.340639,0.207303,1.637069,-0.182328,0.000000,0.000000,0.000000,0.000000,0.000000,0.000000
12779186.000000,-2.275957,-1.662639,1.347664,-1.471366,1.692601,1.412511,-0.588738,0.204862,-0.008794,1.098784,-0.072867,-0.117493,1.075822,-0.021371,-2.322039,39.082989,-23.016251,-4.340639,0.231107,1.670028,-0.182328,0.000000,0.000000,0.000000,0.000000,0.000000,0.000000
12779187.000000,-2.275753,-1.662631,1.348763,-1.471436,1.692487,1.413578,-0.588762,0.206269,-0.005499,1.099152,-0.072990,-0.121915,1.074799,-0.021029,-2.421221,38.912395,-23.040054,-4.364442,0.255826,1.838485,-0.182328,0.000000,0.000000,0.000000,0.000000,0.000000,0.000000
12779188.000000,-2.275561,-1.662633,1.349880,-1.471503,1.692375,1.414672,-0.588783,0.202157,-0.008134,1.101037,-0.073180,-0.115713,1.074578,-0.019436,-2.445025,38.936199,-23.111465,-4.388246,0.273221,1.871444,-0.215287,0.000000,0.000000,0.000000,0.000000,0.000000,0.000000
12779189.000000,-2.275367,-1.662633,1.351013,-1.471570,1.692257,1.415799,-0.588814,0.196694,-0.005050,1.112399,-0.071285,-0.116121,1.088876,-0.022001,-2.468829,38.888592,-23.381241,-4.364442,0.308927,1.630660,-0.149369,0.000000,0.000000,0.000000,0.000000,0.000000,0.000000
12779190.000000,-2.275175,-1.662628,1.352142,-1.471631,1.692154,1.416902,-0.588834,0.192446,-0.002160,1.115024,-0.068508,-0.114292,1.096668,-0.024940,-2.520403,38.813213,-23.825577,-4.388246,0.297025,1.448470,-0.182328,0.000000,0.000000,0.000000,0.000000,0.000000,0.000000
12779191.000000,-2.274996,-1.662625,1.353291,-1.471686,1.692053,1.417992,-0.588861,0.186326,-0.003916,1.119078,-0.062951,-0.106727,1.094758,-0.024511,-2.421221,38.765606,-24.341324,-4.439821,0.231107,1.532699,-0.155778,0.000000,0.000000,0.000000,0.000000,0.000000,0.000000
12779192.000000,-2.274811,-1.662624,1.354421,-1.471746,1.691942,1.419058,-0.588882,0.184832,-0.002631,1.148765,-0.063084,-0.109686,1.091241,-0.023359,-2.445025,38.741802,-24.734085,-4.439821,0.267728,1.735030,-0.155778,0.000000,0.000000,0.000000,0.000000,0.000000,0.000000
12779193.000000,-2.274638,-1.662634,1.355547,-1.471808,1.691832,1.420123,-0.588903,0.184347,-0.005621,1.137008,-0.064344,-0.112162,1.071912,-0.021965,-2.369647,38.888592,-24.880875,-4.388246,0.308927,2.033492,-0.175919,0.000000,0.000000,0.000000,0.000000,0.000000,0.000000
12779194.000000,-2.274463,-1.662636,1.356672,-1.471857,1.691725,1.421203,-0.588930,0.182340,-0.004629,1.123429,-0.061433,-0.111503,1.061911,-0.022620,-2.345843,38.912395,-24.904678,-4.487428,0.291532,2.248641,-0.142960,0.000000,0.000000,0.000000,0.000000,0.000000,0.000000
12779195.000000,-2.274285,-1.662641,1.357784,-1.471914,1.691623,1.422284,-0.588948,0.181744,-0.004443,1.127021,-0.062157,-0.109295,1.061146,-0.021136,-2.369647,38.960003,-25.003860,-4.463624,0.219205,2.280685,-0.163102,0.000000,0.000000,0.000000,0.000000,0.000000,0.000000
12779196.000000,-2.274113,-1.662640,1.358903,-1.471970,1.691524,1.423398,-0.588971,0.180425,-0.002031,1.118605,-0.060427,-0.104191,1.069757,-0.020662,-2.345843,38.912395,-24.952286,-4.412050,0.178007,2.118636,-0.163102,0.000000,0.000000,0.000000,0.000000,0.000000,0.000000
12779197.000000,-2.273931,-1.662643,1.360021,-1.472028,1.691419,1.424493,-0.588987,0.182004,-0.002048,1.114280,-0.060697,-0.100875,1.096142,-0.019034,-2.468829,38.936199,-24.734085,-4.289064,0.154203,1.936446,-0.202470,0.000000,0.000000,0.000000,0.000000,0.000000,0.000000
12779198.000000,-2.273755,-1.662644,1.361117,-1.472092,1.691301,1.425583,-0.589012,0.183647,-0.000911,1.110207,-0.062436,-0.108028,1.092232,-0.020993,-2.520403,38.912395,-24.464310,-4.090700,0.255826,1.909896,-0.155778,0.000000,0.000000,0.000000,0.000000,0.000000,0.000000
12779199.000000,-2.273587,-1.662654,1.362223,-1.472159,1.691183,1.426665,-0.589021,0.177010,-0.003004,1.105682,-0.063323,-0.112126,1.088005,-0.018429,-2.544207,39.011578,-24.218338,-3.892336,0.332731,2.020675,-0.215287,0.000000,0.000000,0.000000,0.000000,0.000000,0.000000
12779200.000000,-2.273428,-1.662655,1.363327,-1.472212,1.691072,1.427740,-0.589045,0.171530,-0.001411,1.102413,-0.062721,-0.112752,1.089659,-0.020708,-2.468829,38.983807,-24.142960,-3.868532,0.351041,2.039901,-0.169511,0.000000,0.000000,0.000000,0.000000,0.000000,0.000000
12779201.000000,-2.273274,-1.662660,1.364440,-1.472255,1.690967,1.428843,-0.589062,0.166584,-0.001634,1.102000,-0.056253,-0.106048,1.089664,-0.019860,-2.345843,39.011578,-24.043777,-3.991518,0.303434,1.903487,-0.182328,0.000000,0.000000,0.000000,0.000000,0.000000,0.000000
12779202.000000,-2.273132,-1.662661,1.365564,-1.472299,1.690867,1.429925,-0.589079,0.157545,-0.000472,1.102224,-0.052295,-0.100399,1.079457,-0.020088,-2.099871,38.983807,-24.119156,-4.090700,0.237516,1.838485,-0.175919,0.000000,0.000000,0.000000,0.000000,0.000000,0.000000
12779203.000000,-2.272984,-1.662666,1.366675,-1.472338,1.690770,1.431021,-0.589093,0.154143,-0.004162,1.109149,-0.049107,-0.100364,1.075332,-0.019684,-1.972918,39.011578,-24.190567,-4.213686,0.159696,1.786300,-0.182328,0.000000,0.000000,0.000000,0.000000,0.000000,0.000000
12779204.000000,-2.272841,-1.662670,1.367795,-1.472383,1.690665,1.432115,-0.589105,0.147514,-0.002408,1.104940,-0.047167,-0.103689,1.071036,-0.018930,-1.826129,38.983807,-24.242142,-4.189882,0.154203,1.858627,-0.202470,0.000000,0.000000,0.000000,0.000000,0.000000,0.000000
12779205.000000,-2.272696,-1.662674,1.368890,-1.472433,1.690555,1.433194,-0.589125,0.144851,-0.001817,1.102598,-0.047791,-0.103831,1.073336,-0.021232,-1.778521,38.983807,-24.242142,-4.066896,0.219205,1.955673,-0.149369,0.000000,0.000000,0.000000,0.000000,0.000000,0.000000
12779206.000000,-2.272550,-1.662679,1.370002,-1.472480,1.690450,1.434287,-0.589135,0.143621,-0.001370,1.106864,-0.044244,-0.102574,1.077644,-0.018895,-1.750750,38.983807,-24.242142,-3.967714,0.255826,1.968490,-0.196061,0.000000,0.000000,0.000000,0.000000,0.000000,0.000000
12779207.000000,-2.272410,-1.662678,1.371118,-1.472526,1.690341,1.435380,-0.589154,0.141593,0.000638,1.104199,-0.044633,-0.106667,1.081540,-0.020670,-1.679339,38.912395,-24.265945,-3.868532,0.303434,1.858627,-0.155778,0.000000,0.000000,0.000000,0.000000,0.000000,0.000000
12779208.000000,-2.272268,-1.662679,1.372199,-1.472568,1.690240,1.436493,-0.589168,0.140642,0.002099,1.094639,-0.046732,-0.111786,1.091319,-0.020431,-1.651568,38.837017,-24.071548,-3.820925,0.297025,1.676437,-0.155778,0.000000,0.000000,0.000000,0.000000,0.000000,0.000000
12779209.000000,-2.272124,-1.662678,1.373294,-1.472604,1.690140,1.437599,-0.589176,0.140958,0.003559,1.092179,-0.041050,-0.105677,1.095907,-0.018187,-1.679339,38.741802,-23.896988,-3.820925,0.255826,1.611434,-0.208878,0.000000,0.000000,0.000000,0.000000,0.000000,0.000000
12779210.000000,-2.271991,-1.662679,1.374374,-1.472641,1.690032,1.438668,-0.589200,0.135666,0.000503,1.089192,-0.037447,-0.108380,1.084346,-0.021693,-1.627764,38.690228,-23.702591,-3.797121,0.279630,1.760665,-0.130143,0.000000,0.000000,0.000000,0.000000,0.000000,0.000000
12779211.000000,-2.271863,-1.662686,1.375470,-1.472675,1.689920,1.439752,-0.589204,0.131562,-0.000604,1.084691,-0.033661,-0.110726,1.078735,-0.017938,-1.552386,38.717999,-23.579605,-3.820925,0.308927,1.871444,-0.221696,0.000000,0.000000,0.000000,0.000000,0.000000,0.000000
12779212.000000,-2.271736,-1.662680,1.376582,-1.472716,1.689821,1.440845,-0.589221,0.128052,0.002814,1.085216,-0.037435,-0.109870,1.075490,-0.014580,-1.453204,38.571209,-23.651016,-3.697939,0.273221,1.968490,-0.196061,0.000000,0.000000,0.000000,0.000000,0.000000,0.000000
12779213.000000,-2.271608,-1.662685,1.377696,-1.472749,1.689720,1.441941,-0.589231,0.126845,-0.001449,1.095081,-0.036956,-0.104748,1.083686,-0.010737,-1.405596,38.571209,-23.972366,-3.697939,0.237516,1.916305,-0.202470,0.000000,0.000000,0.000000,0.000000,0.000000,0.000000
12779214.000000,-2.271491,-1.662679,1.378829,-1.472784,1.689632,1.443054,-0.589252,0.124325,0.001525,1.101911,-0.035497,-0.099641,1.088896,-0.015324,-1.282611,38.448223,-24.436539,-3.622560,0.171598,1.819259,-0.136552,0.000000,0.000000,0.000000,0.000000,0.000000,0.000000
12779215.000000,-2.271375,-1.662685,1.379957,-1.472813,1.689534,1.444144,-0.589256,0.118164,-0.000386,1.104883,-0.033107,-0.099052,1.108976,-0.013889,-1.131854,38.495831,-24.805496,-3.598757,0.189908,1.779891,-0.202470,0.000000,0.000000,0.000000,0.000000,0.000000,0.000000
12779216.000000,-2.271261,-1.662686,1.381072,-1.472841,1.689428,1.445227,-0.589271,0.115512,-0.000474,1.111353,-0.031703,-0.101141,1.102244,-0.016196,-1.032672,38.495831,-25.126846,-3.570986,0.279630,1.877853,-0.182328,0.000000,0.000000,0.000000,0.000000,0.000000,0.000000
12779217.000000,-2.271152,-1.662698,1.382188,-1.472871,1.689333,1.446315,-0.589283,0.112183,-0.004470,1.105825,-0.031970,-0.100089,1.094951,-0.012381,-0.885882,38.666424,-25.249832,-3.475771,0.303434,1.988631,-0.175919,0.000000,0.000000,0.000000,0.000000,0.000000,0.000000
12779218.000000,-2.271035,-1.662700,1.383289,-1.472896,1.689236,1.447381,-0.589295,0.111956,-0.003659,1.106720,-0.030538,-0.099051,1.097945,-0.009026,-0.834307,38.690228,-25.297440,-3.448000,0.320829,2.072860,-0.182328,0.000000,0.000000,0.000000,0.000000,0.000000,0.000000
12779219.000000,-2.270921,-1.662707,1.384392,-1.472918,1.689141,1.448472,-0.589308,0.115007,-0.004851,1.102418,-0.029384,-0.097356,1.094473,-0.007487,-0.786700,38.789410,-25.150650,-3.424196,0.315336,2.014266,-0.163102,0.000000,0.000000,0.000000,0.000000,0.000000,0.000000
12779220.000000,-2.270810,-1.662714,1.385492,-1.472943,1.689046,1.449555,-0.589315,0.114190,-0.005622,1.096817,-0.029727,-0.096036,1.092382,-0.008396,-0.762896,38.888592,-24.880875,-3.348818,0.308927,1.844894,-0.221696,0.000000,0.000000,0.000000,0.000000,0.000000,0.000000
12779221.000000,-2.270697,-1.662717,1.386591,-1.472972,1.688954,1.450642,-0.589332,0.114449,-0.004357,1.097802,-0.029036,-0.099758,1.083758,-0.013504,-0.762896,38.912395,-24.805496,-3.178224,0.308927,1.819259,-0.163102,0.000000,0.000000,0.000000,0.000000,0.000000,0.000000
12779222.000000,-2.270589,-1.662729,1.387675,-1.473002,1.688860,1.451730,-0.589338,0.114754,-0.005820,1.088782,-0.029044,-0.096864,1.080185,-0.008585,-0.762896,39.035381,-24.388931,-2.979860,0.273221,1.832076,-0.202470,0.000000,0.000000,0.000000,0.000000,0.000000,0.000000
12779223.000000,-2.270481,-1.662734,1.388765,-1.473023,1.688756,1.452799,-0.589355,0.112184,-0.004466,1.088239,-0.025846,-0.097759,1.081397,-0.007962,-0.786700,39.059185,-24.242142,-2.904482,0.308927,1.890670,-0.163102,0.000000,0.000000,0.000000,0.000000,0.000000,0.000000
12779224.000000,-2.270383,-1.662738,1.389859,-1.473043,1.688659,1.453891,-0.589363,0.108120,-0.006614,1.084470,-0.023020,-0.101583,1.080820,-0.011055,-0.735125,39.082989,-24.071548,-2.856874,0.308927,1.877853,-0.155778,0.000000,0.000000,0.000000,0.000000,0.000000,0.000000
12779225.000000,-2.270295,-1.662738,1.390967,-1.473052,1.688564,1.455009,-0.589365,0.102092,-0.003567,1.087207,-0.018101,-0.098755,1.088510,-0.010914,-0.540728,39.035381,-24.043777,-2.928285,0.291532,1.649886,-0.215287,0.000000,0.000000,0.000000,0.000000,0.000000,0.000000
12779226.000000,-2.270200,-1.662738,1.392061,-1.473052,1.688469,1.456112,-0.589384,0.099810,-0.000818,1.094873,-0.013008,-0.097626,1.101623,-0.016259,-0.441546,38.960003,-24.071548,-3.079042,0.285123,1.467696,-0.136552,0.000000,0.000000,0.000000,0.000000,0.000000,0.000000
12779227.000000,-2.270113,-1.662737,1.393170,-1.473055,1.688373,1.457206,-0.589390,0.097485,0.000973,1.092234,-0.010648,-0.097996,1.097860,-0.011057,-0.314593,38.888592,-24.142960,-3.178224,0.315336,1.461288,-0.163102,0.000000,0.000000,0.000000,0.000000,0.000000,0.000000
12779228.000000,-2.270025,-1.662744,1.394278,-1.473062,1.688275,1.458282,-0.589394,0.094891,-0.000023,1.091531,-0.012006,-0.097819,1.088645,-0.006339,-0.266986,38.912395,-24.190567,-3.154421,0.339139,1.552840,-0.215287,0.000000,0.000000,0.000000,0.000000,0.000000,0.000000
12779229.000000,-2.269929,-1.662752,1.395366,-1.473067,1.688178,1.459357,-0.589403,0.092218,-0.003833,1.094783,-0.008600,-0.098498,1.076821,-0.005885,-0.342364,38.936199,-24.190567,-3.178224,0.381254,1.779891,-0.188737,0.000000,0.000000,0.000000,0.000000,0.000000,0.000000
12779230.000000,-2.269843,-1.662760,1.396454,-1.473069,1.688086,1.460451,-0.589418,0.090001,-0.003998,1.087149,-0.006597,-0.091708,1.072512,-0.006363,-0.290789,38.983807,-24.043777,-3.178224,0.362943,1.909896,-0.136552,0.000000,0.000000,0.000000,0.000000,0.000000,0.000000
12779231.000000,-2.269745,-1.662764,1.397529,-1.473064,1.687999,1.461549,-0.589417,0.093288,-0.002355,1.084298,-0.003376,-0.089434,1.079758,-0.006467,-0.413775,38.960003,-23.948563,-3.249635,0.285123,1.877853,-0.221696,0.000000,0.000000,0.000000,0.000000,0.000000,0.000000
