chaoyuefei/paper-gmrm-data/robot_logs/s2_dq_mrm_max_0.30_log_20260314_172802.csv
# time_ms,q_0,q_1,q_2,q_3,q_4,q_5,q_6,dq_0,dq_1,dq_2,dq_3,dq_4,dq_5,dq_6,tau_J_0,tau_J_1,tau_J_2,tau_J_3,tau_J_4,tau_J_5,tau_J_6,O_dP_EE_c_0,O_dP_EE_c_1,O_dP_EE_c_2,O_dP_EE_c_3,O_dP_EE_c_4,O_dP_EE_c_5
11944045.000000,2.313458,-0.961775,-1.822702,-1.385825,-0.923948,1.666936,0.446170,-0.000910,0.000357,0.000012,0.000727,-0.000210,-0.001406,0.000380,0.304304,35.484661,19.544785,12.123594,1.001981,1.402694,-0.149369,0.000000,0.000000,0.000000,0.000000,0.000000,0.000000
11944046.000000,2.313460,-0.961776,-1.822706,-1.385823,-0.923949,1.666936,0.446175,0.000043,-0.000319,-0.001106,0.007255,0.000301,-0.001024,0.001711,0.276533,35.508465,19.592392,12.099791,0.990079,1.402694,-0.188737,0.000000,0.000000,0.000000,0.000000,0.000000,0.000000
11944047.000000,2.313462,-0.961776,-1.822702,-1.385826,-0.923952,1.666936,0.446163,0.000585,-0.000212,0.000376,0.004241,-0.000477,-0.000747,-0.001538,0.252729,35.508465,19.544785,12.147398,1.008390,1.402694,-0.116410,0.000000,0.000000,0.000000,0.000000,0.000000,0.000000
11944048.000000,2.313460,-0.961775,-1.822702,-1.385823,-0.923951,1.666937,0.446171,-0.000166,0.000415,0.000251,0.004329,0.000123,-0.000309,0.000941,0.276533,35.484661,19.544785,12.099791,0.996488,1.396285,-0.169511,0.000000,0.000000,0.000000,0.000000,0.000000,0.000000
11944049.000000,2.313447,-0.961775,-1.822701,-1.385823,-0.923946,1.666938,0.446167,-0.014520,-0.006650,-0.011812,0.002621,-0.000995,0.001182,-0.003034,-0.144000,34.972881,18.981430,12.123594,0.900358,1.357833,-0.070634,0.000000,0.000000,0.000000,0.000000,0.000000,0.000000
11944050.000000,2.313431,-0.961747,-1.822718,-1.385825,-0.923934,1.666936,0.446185,-0.028852,-0.004851,-0.029696,0.002659,-0.001045,-0.001987,0.002451,-1.972918,32.790874,17.164413,12.222776,0.535978,1.305648,-0.064225,0.000000,0.000000,0.000000,0.000000,0.000000,0.000000
11944051.000000,2.313421,-0.961699,-1.822783,-1.385822,-0.923917,1.666921,0.446219,-0.025388,0.002327,-0.050187,0.001631,0.009152,-0.003905,0.017722,-5.487933,28.898968,14.415085,12.246580,-0.013339,1.364242,-0.116410,0.000000,0.000000,0.000000,0.000000,0.000000,0.000000
11944052.000000,2.313381,-0.961696,-1.822888,-1.385809,-0.923932,1.666904,0.446250,-0.026309,0.008554,-0.064067,0.006039,0.001135,-0.007489,0.023890,-9.352069,24.788860,11.027023,12.048216,-0.300814,1.487838,-0.023942,0.000000,0.000000,0.000000,0.000000,0.000000,0.000000
11944053.000000,2.313307,-0.961739,-1.823027,-1.385804,-0.923986,1.666906,0.446313,-0.028376,-0.000601,-0.075198,0.002683,-0.017892,0.003957,0.033487,-13.140826,21.091351,7.515976,11.849852,-0.240389,1.487838,-0.056901,0.000000,0.000000,0.000000,0.000000,0.000000,0.000000
11944054.000000,2.313206,-0.961831,-1.823187,-1.385808,-0.924073,1.666953,0.446389,-0.039590,-0.018742,-0.084696,-0.000782,-0.037840,0.022764,0.049564,-16.457476,18.155560,4.326279,11.679258,-0.001437,1.220504,-0.077042,0.000000,0.000000,0.000000,0.000000,0.000000,0.000000
11944055.000000,2.313103,-0.961958,-1.823345,-1.385828,-0.924171,1.667061,0.446474,-0.043536,-0.041519,-0.088896,-0.010451,-0.062144,0.054237,0.057410,-18.905291,16.048931,1.652328,11.405516,0.261320,0.583297,0.009017,0.000000,0.000000,0.000000,0.000000,0.000000,0.000000
11944056.000000,2.313005,-0.962111,-1.823498,-1.385859,-0.924277,1.667205,0.446587,-0.045081,-0.070249,-0.102143,-0.022860,-0.076219,0.089857,0.072073,-20.143084,14.898418,-0.140885,10.691404,0.440763,-0.171098,-0.004716,0.000000,0.000000,0.000000,0.000000,0.000000,0.000000
11944057.000000,2.312925,-0.962288,-1.823634,-1.385915,-0.924389,1.667371,0.446706,-0.049487,-0.100180,-0.104610,-0.036701,-0.086364,0.116925,0.090403,-20.317644,14.509624,-1.291397,9.699583,0.494779,-0.729569,0.034652,0.000000,0.000000,0.000000,0.000000,0.000000,0.000000
11944058.000000,2.312862,-0.962469,-1.823745,-1.385989,-0.924501,1.667532,0.446853,-0.052026,-0.124955,-0.103474,-0.048762,-0.092639,0.135655,0.108561,-19.674944,14.509624,-1.930130,8.315001,0.381254,-0.866898,-0.050492,0.000000,0.000000,0.000000,0.000000,0.000000,0.000000
11944059.000000,2.312818,-0.962626,-1.823850,-1.386080,-0.924605,1.667697,0.446986,-0.053100,-0.135799,-0.104178,-0.064052,-0.093040,0.144673,0.112578,-18.611712,14.434246,-1.981705,6.736022,0.027860,-0.586747,-0.004716,0.000000,0.000000,0.000000,0.000000,0.000000,0.000000
11944060.000000,2.312762,-0.962756,-1.823951,-1.386211,-0.924707,1.667887,0.447136,-0.059146,-0.132012,-0.104939,-0.080774,-0.096035,0.154500,0.123864,-17.024797,14.065289,-1.759537,5.200682,-0.438143,-0.215958,-0.050492,0.000000,0.000000,0.000000,0.000000,0.000000,0.000000
11944061.000000,2.312691,-0.962843,-1.824050,-1.386380,-0.924824,1.668113,0.447287,-0.071426,-0.115954,-0.106822,-0.108258,-0.101298,0.174400,0.130533,-15.092731,13.160748,-1.390579,4.089842,-0.850131,-0.001725,-0.050492,0.000000,0.000000,0.000000,0.000000,0.000000,0.000000
11944062.000000,2.312612,-0.962896,-1.824154,-1.386597,-0.924980,1.668373,0.447449,-0.081933,-0.097940,-0.111547,-0.141312,-0.115472,0.196480,0.137505,-13.113055,11.839642,-0.926407,3.546324,-0.999362,0.161239,-0.103593,0.000000,0.000000,0.000000,0.000000,0.000000,0.000000
11944063.000000,2.312507,-0.962936,-1.824270,-1.386848,-0.925183,1.668659,0.447606,-0.095571,-0.078079,-0.117747,-0.174486,-0.142231,0.224107,0.142776,-10.935016,10.347942,-0.410660,3.300352,-0.808016,0.291244,-0.044083,0.000000,0.000000,0.000000,0.000000,0.000000,0.000000
11944064.000000,2.312378,-0.962974,-1.824397,-1.387111,-0.925425,1.668968,0.447766,-0.113284,-0.066992,-0.124324,-0.202534,-0.174582,0.251501,0.146343,-8.633990,8.951458,0.081283,3.224974,-0.389620,0.369064,-0.044083,0.000000,0.000000,0.000000,0.000000,0.000000,0.000000
11944065.000000,2.312236,-0.963021,-1.824532,-1.387405,-0.925686,1.669310,0.447933,-0.127077,-0.062457,-0.131554,-0.230055,-0.205615,0.273829,0.151956,-6.380572,7.824749,0.450241,3.494749,0.081876,0.375472,-0.037675,0.000000,0.000000,0.000000,0.000000,0.000000,0.000000
11944066.000000,2.312085,-0.963085,-1.824666,-1.387716,-0.925951,1.669667,0.448098,-0.136705,-0.063800,-0.132495,-0.255778,-0.221220,0.301373,0.154019,-4.250140,7.043194,0.620834,3.768492,0.458158,0.343429,0.021835,0.000000,0.000000,0.000000,0.000000,0.000000,0.000000
11944067.000000,2.311939,-0.963174,-1.824799,-1.388016,-0.926188,1.670062,0.448272,-0.143363,-0.074974,-0.136645,-0.273064,-0.229560,0.328283,0.159847,-2.520403,6.725811,0.668442,3.867674,0.458158,0.264693,-0.023942,0.000000,0.000000,0.000000,0.000000,0.000000,0.000000
11944068.000000,2.311811,-0.963290,-1.824941,-1.388305,-0.926413,1.670475,0.448441,-0.135450,-0.086101,-0.135396,-0.278214,-0.226849,0.358966,0.160897,-1.108050,6.872601,0.791427,3.546324,0.189908,0.271102,0.001693,0.000000,0.000000,0.000000,0.000000,0.000000,0.000000
11944069.000000,2.311705,-0.963447,-1.825083,-1.388589,-0.926642,1.670879,0.448614,-0.121588,-0.111740,-0.132435,-0.278875,-0.220915,0.374673,0.167280,0.054365,7.848553,1.211960,3.026610,-0.072848,0.486251,-0.011124,0.000000,0.000000,0.000000,0.000000,0.000000,0.000000
11944070.000000,2.311605,-0.963630,-1.825218,-1.388866,-0.926869,1.671302,0.448793,-0.112582,-0.138290,-0.132091,-0.274655,-0.213986,0.385591,0.169018,1.216779,9.368023,1.874496,2.284727,-0.294406,0.843307,-0.044083,0.000000,0.000000,0.000000,0.000000,0.000000,0.000000
11944071.000000,2.311498,-0.963815,-1.825357,-1.389153,-0.927085,1.671765,0.448966,-0.107383,-0.158385,-0.132401,-0.273768,-0.210468,0.416638,0.167411,2.553754,11.030315,2.854416,1.594420,-0.461947,0.934859,-0.004716,0.000000,0.000000,0.000000,0.000000,0.000000,0.000000
11944072.000000,2.311395,-0.963982,-1.825489,-1.389448,-0.927319,1.672293,0.449142,-0.102539,-0.165149,-0.134336,-0.276677,-0.213939,0.455577,0.170058,3.843122,12.426800,3.957321,1.023131,-0.461947,0.681258,-0.056901,0.000000,0.000000,0.000000,0.000000,0.000000,0.000000
11944073.000000,2.311294,-0.964146,-1.825627,-1.389768,-0.927572,1.672862,0.449311,-0.102264,-0.168988,-0.138792,-0.289614,-0.225518,0.488329,0.167312,5.005537,13.553509,5.111801,0.677977,-0.300814,0.284835,0.001693,0.000000,0.000000,0.000000,0.000000,0.000000,0.000000
11944074.000000,2.311199,-0.964282,-1.825754,-1.390098,-0.927835,1.673414,0.449481,-0.101877,-0.159523,-0.138631,-0.299734,-0.235035,0.506790,0.167787,5.997358,14.017681,6.020309,0.408202,-0.049044,0.031234,0.009017,0.000000,0.000000,0.000000,0.000000,0.000000,0.000000
11944075.000000,2.311104,-0.964403,-1.825887,-1.390448,-0.928101,1.673950,0.449656,-0.098736,-0.146653,-0.137953,-0.312043,-0.243649,0.516663,0.165781,6.838422,14.041485,6.758224,0.285216,0.171598,0.109054,-0.050492,0.000000,0.000000,0.000000,0.000000,0.000000,0.000000
11944076.000000,2.311020,-0.964507,-1.826018,-1.390806,-0.928363,1.674475,0.449818,-0.094127,-0.134166,-0.135568,-0.323852,-0.250468,0.510894,0.163405,7.433515,13.624920,7.273972,0.035277,0.374845,0.323287,0.028243,0.000000,0.000000,0.000000,0.000000,0.000000,0.000000
11944077.000000,2.310958,-0.964613,-1.826153,-1.391176,-0.928621,1.675005,0.449995,-0.082573,-0.122603,-0.136846,-0.336262,-0.251906,0.515304,0.166613,7.631879,13.013958,7.615158,-0.063905,0.422452,0.453292,-0.011124,0.000000,0.000000,0.000000,0.000000,0.000000,0.000000
11944078.000000,2.310901,-0.964715,-1.826300,-1.391558,-0.928873,1.675539,0.450164,-0.075366,-0.110940,-0.140214,-0.346116,-0.253802,0.511923,0.165215,7.703290,12.208599,7.908737,-0.234499,0.291532,0.505477,0.048385,0.000000,0.000000,0.000000,0.000000,0.000000,0.000000
11944079.000000,2.310844,-0.964832,-1.826448,-1.391943,-0.929127,1.676060,0.450344,-0.068821,-0.113464,-0.143969,-0.355775,-0.249463,0.515624,0.172344,7.679487,11.546062,8.083298,-0.357485,0.112089,0.538436,0.015426,0.000000,0.000000,0.000000,0.000000,0.000000,0.000000
11944080.000000,2.310803,-0.964980,-1.826603,-1.392332,-0.929384,1.676574,0.450517,-0.060696,-0.122616,-0.147297,-0.360834,-0.249028,0.510799,0.171334,7.481122,11.300091,8.253891,-0.678835,-0.007845,0.648299,0.021835,0.000000,0.000000,0.000000,0.000000,0.000000,0.000000
11944081.000000,2.310774,-0.965150,-1.826776,-1.392723,-0.929648,1.677077,0.450694,-0.051178,-0.138287,-0.149253,-0.365502,-0.253810,0.507246,0.171827,7.084394,11.323895,8.523666,-1.075563,0.027860,0.752670,-0.011124,0.000000,0.000000,0.000000,0.000000,0.000000,0.000000
11944082.000000,2.310745,-0.965356,-1.826946,-1.393110,-0.929927,1.677589,0.450865,-0.045732,-0.163242,-0.156134,-0.369703,-0.265414,0.504641,0.165749,6.592451,11.792034,8.745834,-1.496095,0.154203,0.733443,0.009017,0.000000,0.000000,0.000000,0.000000,0.000000,0.000000
11944083.000000,2.310707,-0.965581,-1.827111,-1.393501,-0.930216,1.678107,0.451034,-0.042794,-0.181883,-0.157223,-0.365615,-0.279550,0.507052,0.166198,5.973554,12.450603,8.793442,-1.547670,0.255826,0.564071,0.034652,0.000000,0.000000,0.000000,0.000000,0.000000,0.000000
11944084.000000,2.310667,-0.965828,-1.827284,-1.393896,-0.930503,1.678629,0.451219,-0.041859,-0.201613,-0.158741,-0.368559,-0.277715,0.514442,0.164299,5.104719,13.406719,8.845016,-1.198549,0.374845,0.381881,-0.017533,0.000000,0.000000,0.000000,0.000000,0.000000,0.000000
11944085.000000,2.310611,-0.966083,-1.827450,-1.394273,-0.930786,1.679161,0.451385,-0.047782,-0.218934,-0.159417,-0.367577,-0.280656,0.519348,0.163610,4.140668,14.533428,8.868820,-0.532045,0.428861,0.206100,0.034652,0.000000,0.000000,0.000000,0.000000,0.000000,0.000000
11944086.000000,2.310554,-0.966351,-1.827615,-1.394644,-0.931058,1.679687,0.451561,-0.050725,-0.235969,-0.157999,-0.368640,-0.275597,0.521450,0.170764,3.125043,15.902142,8.940231,0.432005,0.428861,0.180465,0.001693,0.000000,0.000000,0.000000,0.000000,0.000000,0.000000
11944087.000000,2.310486,-0.966624,-1.827769,-1.395014,-0.931344,1.680194,0.451730,-0.053684,-0.247274,-0.154414,-0.368023,-0.276748,0.516943,0.173163,2.260175,17.516827,9.162399,1.642027,0.434354,0.343429,0.028243,0.000000,0.000000,0.000000,0.000000,0.000000,0.000000
11944088.000000,2.310399,-0.966894,-1.827914,-1.395401,-0.931623,1.680700,0.451901,-0.064513,-0.256440,-0.147714,-0.374844,-0.273777,0.506461,0.171809,1.740461,19.230694,9.479782,3.224974,0.362943,0.557662,0.041976,0.000000,0.000000,0.000000,0.000000,0.000000,0.000000
11944089.000000,2.310306,-0.967157,-1.828052,-1.395793,-0.931879,1.681212,0.452071,-0.073047,-0.258918,-0.144497,-0.384270,-0.268068,0.507471,0.171472,1.415143,20.944561,9.900314,4.930907,0.171598,0.706893,0.034652,0.000000,0.000000,0.000000,0.000000,0.000000,0.000000
11944090.000000,2.310203,-0.967400,-1.828190,-1.396198,-0.932131,1.681740,0.452235,-0.084774,-0.254588,-0.142027,-0.393614,-0.258990,0.506889,0.169362,1.343732,22.412457,10.463669,6.660643,-0.007845,0.765487,0.081344,0.000000,0.000000,0.000000,0.000000,0.000000,0.000000
11944091.000000,2.310105,-0.967648,-1.828328,-1.396610,-0.932395,1.682267,0.452413,-0.088607,-0.254560,-0.139880,-0.401789,-0.265971,0.508666,0.170737,1.244550,23.884319,11.050827,8.243589,-0.055453,0.869857,0.041976,0.000000,0.000000,0.000000,0.000000,0.000000,0.000000
11944092.000000,2.310000,-0.967896,-1.828473,-1.397026,-0.932664,1.682756,0.452584,-0.093121,-0.255524,-0.142966,-0.418020,-0.267724,0.498115,0.169753,1.244550,25.130047,11.741135,9.651976,-0.019747,1.188461,0.061202,0.000000,0.000000,0.000000,0.000000,0.000000,0.000000
11944093.000000,2.309892,-0.968150,-1.828624,-1.397448,-0.932939,1.683238,0.452758,-0.097861,-0.254530,-0.147332,-0.419238,-0.265378,0.489305,0.170885,1.315961,26.280560,12.375900,10.786619,0.105680,1.532699,0.028243,0.000000,0.000000,0.000000,0.000000,0.000000,0.000000
11944094.000000,2.309786,-0.968417,-1.828787,-1.397872,-0.933210,1.683733,0.452926,-0.100950,-0.259024,-0.151563,-0.421400,-0.263853,0.485177,0.168223,1.391340,27.383465,13.066208,11.679258,0.231107,1.714889,0.081344,0.000000,0.000000,0.000000,0.000000,0.000000,0.000000
11944095.000000,2.309673,-0.968685,-1.828956,-1.398292,-0.933469,1.684229,0.453102,-0.103817,-0.260797,-0.158275,-0.420224,-0.262494,0.486264,0.170710,1.514325,28.387188,13.776352,12.270384,0.267728,1.643478,0.028243,0.000000,0.000000,0.000000,0.000000,0.000000,0.000000
11944096.000000,2.309566,-0.968975,-1.829134,-1.398714,-0.933730,1.684736,0.453270,-0.102197,-0.270708,-0.163612,-0.421079,-0.261618,0.492537,0.168914,1.613508,29.462322,14.391281,12.643309,0.243009,1.507064,0.067611,0.000000,0.000000,0.000000,0.000000,0.000000,0.000000
11944097.000000,2.309443,-0.969286,-1.829319,-1.399130,-0.933999,1.685218,0.453442,-0.108551,-0.282479,-0.170652,-0.414981,-0.260810,0.489128,0.170061,1.911054,30.589031,14.978439,12.643309,0.207303,1.467696,0.041976,0.000000,0.000000,0.000000,0.000000,0.000000,0.000000
11944098.000000,2.309326,-0.969609,-1.829506,-1.399528,-0.934269,1.685684,0.453614,-0.114313,-0.292388,-0.176218,-0.406455,-0.260451,0.485919,0.170197,2.160993,31.763348,15.446579,12.421141,0.178007,1.578475,0.034652,0.000000,0.000000,0.000000,0.000000,0.000000,0.000000
11944099.000000,2.309204,-0.969937,-1.829704,-1.399927,-0.934530,1.686145,0.453779,-0.117033,-0.301932,-0.181639,-0.399926,-0.260901,0.478004,0.167187,2.454572,32.790874,15.839340,12.024412,0.154203,1.714889,0.100570,0.000000,0.000000,0.000000,0.000000,0.000000,0.000000
11944100.000000,2.309079,-0.970258,-1.829905,-1.400328,-0.934795,1.686616,0.453951,-0.120940,-0.311615,-0.186893,-0.399914,-0.264254,0.473393,0.167176,2.752119,33.552593,16.255905,11.750669,0.105680,1.695663,0.041976,0.000000,0.000000,0.000000,0.000000,0.000000,0.000000
11944101.000000,2.308946,-0.970576,-1.830110,-1.400728,-0.935069,1.687106,0.454117,-0.123505,-0.311692,-0.195093,-0.396230,-0.272763,0.477947,0.166165,3.148847,34.040569,16.573288,11.429319,0.034269,1.565658,0.081344,0.000000,0.000000,0.000000,0.000000,0.000000,0.000000
11944102.000000,2.308823,-0.970885,-1.830332,-1.401122,-0.935348,1.687582,0.454289,-0.121046,-0.311145,-0.205121,-0.394632,-0.270065,0.480103,0.167885,3.371015,34.334148,17.041428,11.135740,0.058073,1.467696,0.054794,0.000000,0.000000,0.000000,0.000000,0.000000,0.000000
11944103.000000,2.308698,-0.971188,-1.830565,-1.401506,-0.935639,1.688050,0.454452,-0.122295,-0.306932,-0.217313,-0.388425,-0.272716,0.477738,0.168786,3.569379,34.409527,17.580978,10.885801,0.183500,1.474105,0.041976,0.000000,0.000000,0.000000,0.000000,0.000000,0.000000
11944104.000000,2.308584,-0.971489,-1.830804,-1.401882,-0.935919,1.688511,0.454613,-0.117346,-0.298715,-0.225721,-0.384660,-0.279825,0.470181,0.166866,3.644758,34.385723,18.120529,10.564451,0.291532,1.630660,0.087753,0.000000,0.000000,0.000000,0.000000,0.000000,0.000000
11944105.000000,2.308470,-0.971776,-1.831049,-1.402259,-0.936207,1.688969,0.454787,-0.116800,-0.293314,-0.236806,-0.382182,-0.282255,0.463521,0.173989,3.720136,34.187359,18.711655,10.342283,0.410551,1.714889,0.021835,0.000000,0.000000,0.000000,0.000000,0.000000,0.000000
11944106.000000,2.308363,-0.972053,-1.831300,-1.402635,-0.936493,1.689442,0.454954,-0.112082,-0.285128,-0.237518,-0.379313,-0.279896,0.463746,0.171459,3.720136,33.917583,19.251205,10.219297,0.405057,1.754256,0.054794,0.000000,0.000000,0.000000,0.000000,0.000000,0.000000
11944107.000000,2.308253,-0.972335,-1.831553,-1.403014,-0.936769,1.689925,0.455128,-0.111483,-0.277494,-0.241533,-0.380096,-0.276760,0.475195,0.166581,3.720136,33.699383,19.691574,10.096312,0.362943,1.689254,0.041976,0.000000,0.000000,0.000000,0.000000,0.000000,0.000000
11944108.000000,2.308149,-0.972622,-1.831803,-1.403383,-0.937047,1.690391,0.455292,-0.109851,-0.279212,-0.244569,-0.372379,-0.272009,0.471262,0.166819,3.644758,33.624004,20.108139,10.020933,0.327238,1.662704,0.054794,0.000000,0.000000,0.000000,0.000000,0.000000,0.000000
11944109.000000,2.308046,-0.972923,-1.832063,-1.403761,-0.937337,1.690849,0.455465,-0.106319,-0.284588,-0.248456,-0.371968,-0.277978,0.461209,0.168062,3.597150,33.723186,20.477097,9.949522,0.386747,1.800033,0.034652,0.000000,0.000000,0.000000,0.000000,0.000000,0.000000
11944110.000000,2.307942,-0.973232,-1.832326,-1.404124,-0.937630,1.691295,0.455632,-0.104282,-0.288487,-0.256770,-0.372382,-0.281544,0.457810,0.163180,3.569379,33.969158,20.846054,9.850340,0.452665,1.968490,0.048385,0.000000,0.000000,0.000000,0.000000,0.000000,0.000000
11944111.000000,2.307856,-0.973530,-1.832592,-1.404498,-0.937924,1.691753,0.455800,-0.100694,-0.293712,-0.257202,-0.372143,-0.283566,0.459902,0.160996,3.323408,34.064373,21.163437,9.774961,0.512174,2.027084,0.021835,0.000000,0.000000,0.000000,0.000000,0.000000,0.000000
11944112.000000,2.307758,-0.973839,-1.832856,-1.404881,-0.938209,1.692230,0.455962,-0.099117,-0.295647,-0.256093,-0.371365,-0.283490,0.461905,0.161159,3.224226,34.238934,21.409409,9.822569,0.554288,1.949264,0.061202,0.000000,0.000000,0.000000,0.000000,0.000000,0.000000
11944113.000000,2.307680,-0.974138,-1.833112,-1.405261,-0.938498,1.692700,0.456131,-0.093088,-0.297824,-0.260173,-0.374361,-0.287045,0.461985,0.163822,2.926679,34.286541,21.580002,9.874144,0.554288,1.767074,0.048385,0.000000,0.000000,0.000000,0.000000,0.000000,0.000000
11944114.000000,2.307605,-0.974452,-1.833382,-1.405647,-0.938788,1.693170,0.456303,-0.086223,-0.300489,-0.261201,-0.373096,-0.295025,0.468568,0.166740,2.652936,34.385723,21.802170,9.949522,0.518583,1.741439,0.009017,0.000000,0.000000,0.000000,0.000000,0.000000,0.000000
11944115.000000,2.307537,-0.974762,-1.833633,-1.406032,-0.939079,1.693621,0.456464,-0.079152,-0.298831,-0.256803,-0.376358,-0.293591,0.465141,0.164892,2.283979,34.457134,21.778366,10.048704,0.559781,1.865035,0.074935,0.000000,0.000000,0.000000,0.000000,0.000000,0.000000
11944116.000000,2.307478,-0.975074,-1.833886,-1.406416,-0.939367,1.694075,0.456630,-0.072201,-0.305730,-0.255068,-0.379121,-0.291205,0.462267,0.167806,1.863447,34.603924,21.802170,10.171690,0.566190,2.001449,0.028243,0.000000,0.000000,0.000000,0.000000,0.000000,0.000000
11944117.000000,2.307422,-0.975387,-1.834144,-1.406802,-0.939646,1.694547,0.456791,-0.064297,-0.304645,-0.252064,-0.379744,-0.287331,0.464091,0.161662,1.415143,34.651531,21.778366,10.270872,0.512174,2.033492,0.067611,0.000000,0.000000,0.000000,0.000000,0.000000,0.000000
11944118.000000,2.307366,-0.975692,-1.834391,-1.407199,-0.939942,1.695013,0.456951,-0.060281,-0.307901,-0.250933,-0.383802,-0.290518,0.462571,0.157937,1.046186,34.651531,21.754562,10.493040,0.512174,2.020675,0.074935,0.000000,0.000000,0.000000,0.000000,0.000000,0.000000
11944119.000000,2.307325,-0.976004,-1.834638,-1.407598,-0.940237,1.695492,0.457121,-0.054772,-0.310763,-0.246946,-0.386641,-0.291657,0.466383,0.163613,0.574079,34.580120,21.726791,10.715208,0.494779,1.955673,0.009017,0.000000,0.000000,0.000000,0.000000,0.000000,0.000000
11944120.000000,2.307284,-0.976315,-1.834883,-1.408002,-0.940530,1.695971,0.457279,-0.051937,-0.309586,-0.246131,-0.393077,-0.288593,0.481941,0.157719,0.129743,34.504742,21.655380,10.861998,0.518583,1.877853,0.074935,0.000000,0.000000,0.000000,0.000000,0.000000,0.000000
11944121.000000,2.307245,-0.976616,-1.835121,-1.408404,-0.940822,1.696438,0.457450,-0.050210,-0.306846,-0.242026,-0.395376,-0.285694,0.471480,0.161816,-0.290789,34.457134,21.556198,11.036558,0.547880,1.962081,0.048385,0.000000,0.000000,0.000000,0.000000,0.000000,0.000000
11944122.000000,2.307211,-0.976930,-1.835360,-1.408812,-0.941121,1.696913,0.457616,-0.045980,-0.305201,-0.241374,-0.395163,-0.297337,0.469563,0.158242,-0.711321,34.457134,21.433212,11.183348,0.589994,2.020675,0.061202,0.000000,0.000000,0.000000,0.000000,0.000000,0.000000
11944123.000000,2.307180,-0.977242,-1.835589,-1.409222,-0.941421,1.697387,0.457792,-0.040262,-0.304088,-0.236512,-0.398978,-0.295891,0.466882,0.166593,-1.108050,34.556316,21.238815,11.457090,0.589994,1.995040,0.015426,0.000000,0.000000,0.000000,0.000000,0.000000,0.000000
11944124.000000,2.307152,-0.977565,-1.835812,-1.409640,-0.941714,1.697863,0.457955,-0.033245,-0.313187,-0.231465,-0.401041,-0.295759,0.469480,0.165169,-1.480975,34.703106,20.969040,11.703062,0.547880,1.936446,0.067611,0.000000,0.000000,0.000000,0.000000,0.000000,0.000000
11944125.000000,2.307123,-0.977897,-1.836034,-1.410051,-0.942001,1.698341,0.458124,-0.032560,-0.317803,-0.226871,-0.399055,-0.290808,0.471226,0.161845,-1.778521,34.921307,20.794479,11.802244,0.542386,1.890670,0.054794,0.000000,0.000000,0.000000,0.000000,0.000000,0.000000
11944126.000000,2.307098,-0.978228,-1.836243,-1.410459,-0.942294,1.698803,0.458288,-0.031184,-0.320666,-0.212619,-0.401260,-0.291829,0.471345,0.163601,-2.123675,35.238689,20.552475,11.901426,0.506681,1.890670,0.061202,0.000000,0.000000,0.000000,0.000000,0.000000,0.000000
11944127.000000,2.307077,-0.978571,-1.836451,-1.410875,-0.942599,1.699276,0.458463,-0.027037,-0.325006,-0.211444,-0.401000,-0.296460,0.471162,0.166479,-2.468829,35.536236,20.330307,12.099791,0.512174,1.890670,0.021835,0.000000,0.000000,0.000000,0.000000,0.000000,0.000000
11944128.000000,2.307049,-0.978925,-1.836653,-1.411283,-0.942893,1.699744,0.458635,-0.029088,-0.333708,-0.210553,-0.409001,-0.293896,0.467772,0.172218,-2.718768,35.948833,20.131943,12.171202,0.524076,1.858627,0.015426,0.000000,0.000000,0.000000,0.000000,0.000000,0.000000
11944129.000000,2.307024,-0.979269,-1.836858,-1.411690,-0.943178,1.700213,0.458802,-0.027066,-0.340473,-0.209560,-0.405078,-0.283793,0.470640,0.170754,-2.964739,36.242413,20.008957,12.246580,0.482877,1.793624,0.034652,0.000000,0.000000,0.000000,0.000000,0.000000,0.000000
11944130.000000,2.306996,-0.979623,-1.837062,-1.412114,-0.943461,1.700693,0.458968,-0.027052,-0.340935,-0.205337,-0.407223,-0.287981,0.468065,0.169266,-3.139300,36.512188,19.885971,12.421141,0.470060,1.735030,0.054794,0.000000,0.000000,0.000000,0.000000,0.000000,0.000000
11944131.000000,2.306964,-0.979973,-1.837261,-1.412528,-0.943756,1.701162,0.459133,-0.029764,-0.343416,-0.204952,-0.407618,-0.284273,0.469413,0.168370,-3.210711,36.833538,19.739182,12.667112,0.452665,1.721298,0.081344,0.000000,0.000000,0.000000,0.000000,0.000000,0.000000
11944132.000000,2.306934,-0.980336,-1.837453,-1.412933,-0.944039,1.701639,0.459307,-0.031093,-0.349068,-0.197515,-0.404555,-0.282998,0.472641,0.170996,-3.286089,37.174725,19.568588,12.667112,0.416959,1.741439,0.021835,0.000000,0.000000,0.000000,0.000000,0.000000,0.000000
11944133.000000,2.306899,-0.980694,-1.837657,-1.413351,-0.944323,1.702105,0.459467,-0.033516,-0.350831,-0.199922,-0.406950,-0.280643,0.465559,0.167733,-3.286089,37.420696,19.592392,12.841673,0.386747,1.800033,0.094161,0.000000,0.000000,0.000000,0.000000,0.000000,0.000000
11944134.000000,2.306858,-0.981038,-1.837845,-1.413759,-0.944612,1.702574,0.459638,-0.036519,-0.348618,-0.195401,-0.410810,-0.281647,0.462439,0.174050,-3.210711,37.515911,19.497177,12.964659,0.393156,1.812850,0.067611,0.000000,0.000000,0.000000,0.000000,0.000000,0.000000
11944135.000000,2.306814,-0.981388,-1.838048,-1.414174,-0.944896,1.703052,0.459813,-0.039932,-0.346133,-0.194294,-0.406072,-0.279913,0.468779,0.173791,-3.087725,37.591290,19.520981,13.186827,0.332731,1.832076,0.034652,0.000000,0.000000,0.000000,0.000000,0.000000,0.000000
11944136.000000,2.306768,-0.981733,-1.838244,-1.414585,-0.945186,1.703526,0.459983,-0.041908,-0.351144,-0.195733,-0.408843,-0.280904,0.471145,0.175962,-2.964739,37.738079,19.497177,13.385191,0.344633,1.793624,0.048385,0.000000,0.000000,0.000000,0.000000,0.000000,0.000000
11944137.000000,2.306715,-0.982092,-1.838450,-1.415000,-0.945473,1.704001,0.460152,-0.045832,-0.352251,-0.199689,-0.407607,-0.281777,0.471317,0.174176,-2.742571,37.956280,19.592392,13.583555,0.362943,1.773483,0.054794,0.000000,0.000000,0.000000,0.000000,0.000000,0.000000
11944138.000000,2.306659,-0.982449,-1.838662,-1.415415,-0.945750,1.704467,0.460322,-0.045257,-0.351950,-0.202717,-0.408071,-0.280439,0.476602,0.172862,-2.520403,38.130840,19.715378,13.706541,0.369352,1.819259,0.087753,0.000000,0.000000,0.000000,0.000000,0.000000,0.000000
11944139.000000,2.306597,-0.982806,-1.838868,-1.415812,-0.946044,1.704930,0.460498,-0.052341,-0.352082,-0.203197,-0.403205,-0.284258,0.469887,0.169246,-2.222857,38.301434,19.766953,13.730345,0.398649,1.851302,0.041976,0.000000,0.000000,0.000000,0.000000,0.000000,0.000000
11944140.000000,2.306534,-0.983174,-1.839076,-1.416213,-0.946341,1.705407,0.460663,-0.053581,-0.351386,-0.200549,-0.400240,-0.290051,0.472058,0.163028,-1.972918,38.595013,19.838364,13.706541,0.416959,1.806442,0.074935,0.000000,0.000000,0.000000,0.000000,0.000000,0.000000
11944141.000000,2.306464,-0.983544,-1.839292,-1.416598,-0.946625,1.705871,0.460838,-0.059277,-0.360550,-0.209880,-0.401119,-0.285296,0.472812,0.166193,-1.651568,38.888592,20.036728,13.583555,0.393156,1.786300,0.034652,0.000000,0.000000,0.000000,0.000000,0.000000,0.000000
11944142.000000,2.306395,-0.983918,-1.839501,-1.416986,-0.946907,1.706333,0.461003,-0.059340,-0.364249,-0.208701,-0.399072,-0.283035,0.466825,0.165439,-1.354022,39.205975,20.108139,13.357420,0.344633,1.800033,0.074935,0.000000,0.000000,0.000000,0.000000,0.000000,0.000000
11944143.000000,2.306328,-0.984292,-1.839727,-1.417372,-0.947198,1.706797,0.461169,-0.064166,-0.365921,-0.214994,-0.389443,-0.285157,0.466132,0.161157,-1.108050,39.499554,20.354111,13.163023,0.315336,1.858627,0.087753,0.000000,0.000000,0.000000,0.000000,0.000000,0.000000
11944144.000000,2.306253,-0.984672,-1.839950,-1.417742,-0.947499,1.707255,0.461338,-0.066838,-0.372250,-0.216379,-0.385581,-0.285010,0.458541,0.164579,-0.786700,39.840740,20.600082,12.841673,0.332731,1.851302,0.054794,0.000000,0.000000,0.000000,0.000000,0.000000,0.000000
11944145.000000,2.306173,-0.985040,-1.840175,-1.418118,-0.947796,1.707716,0.461503,-0.069687,-0.365529,-0.218598,-0.380476,-0.290633,0.462931,0.161482,-0.413775,39.987530,20.794479,12.567930,0.320829,1.806442,0.041976,0.000000,0.000000,0.000000,0.000000,0.000000,0.000000
11944146.000000,2.306086,-0.985407,-1.840415,-1.418495,-0.948090,1.708178,0.461670,-0.072029,-0.362521,-0.228741,-0.390799,-0.289035,0.461715,0.163562,-0.017047,40.062908,21.115829,12.421141,0.320829,1.779891,0.034652,0.000000,0.000000,0.000000,0.000000,0.000000,0.000000
11944147.000000,2.305999,-0.985757,-1.840646,-1.418869,-0.948399,1.708640,0.461823,-0.076965,-0.357341,-0.228077,-0.384955,-0.299247,0.455397,0.157611,0.375715,39.987530,21.310226,12.270384,0.374845,1.760665,0.107894,0.000000,0.000000,0.000000,0.000000,0.000000,0.000000
11944148.000000,2.305906,-0.986104,-1.840890,-1.419241,-0.948705,1.709111,0.461991,-0.080718,-0.354327,-0.230271,-0.379772,-0.301251,0.460257,0.158959,0.772443,39.840740,21.631577,12.123594,0.410551,1.754256,0.021835,0.000000,0.000000,0.000000,0.000000,0.000000,0.000000
11944149.000000,2.305815,-0.986446,-1.841122,-1.419601,-0.949015,1.709564,0.462146,-0.082021,-0.348457,-0.232820,-0.375354,-0.302565,0.461055,0.159073,1.121564,39.745525,21.849777,11.925230,0.458158,1.812850,0.087753,0.000000,0.000000,0.000000,0.000000,0.000000,0.000000
11944150.000000,2.305724,-0.986781,-1.841366,-1.419967,-0.949323,1.710018,0.462314,-0.085686,-0.345720,-0.236705,-0.373311,-0.303095,0.455976,0.162719,1.442914,39.574932,22.147324,11.802244,0.470060,1.871444,0.061202,0.000000,0.000000,0.000000,0.000000,0.000000,0.000000
11944151.000000,2.305631,-0.987119,-1.841610,-1.420328,-0.949622,1.710468,0.462482,-0.087758,-0.343289,-0.237066,-0.368333,-0.303550,0.453138,0.165556,1.740461,39.376568,22.341721,11.627684,0.405057,1.936446,0.028243,0.000000,0.000000,0.000000,0.000000,0.000000,0.000000
11944152.000000,2.305544,-0.987446,-1.841855,-1.420675,-0.949942,1.710924,0.462642,-0.090065,-0.335610,-0.241930,-0.364362,-0.303130,0.448059,0.159591,1.934858,39.182171,22.587692,11.457090,0.405057,1.962081,0.087753,0.000000,0.000000,0.000000,0.000000,0.000000,0.000000
11944153.000000,2.305454,-0.987786,-1.842106,-1.421023,-0.950254,1.711383,0.462813,-0.088783,-0.332787,-0.245166,-0.354794,-0.303209,0.455072,0.164166,2.109418,39.011578,22.833664,11.183348,0.410551,1.936446,0.021835,0.000000,0.000000,0.000000,0.000000,0.000000,0.000000
11944154.000000,2.305369,-0.988121,-1.842362,-1.421359,-0.950564,1.711833,0.462975,-0.089508,-0.339228,-0.248835,-0.347566,-0.303093,0.453895,0.163670,2.232404,38.864788,23.127243,10.861998,0.428861,1.962081,0.041976,0.000000,0.000000,0.000000,0.000000,0.000000,0.000000
11944155.000000,2.305281,-0.988456,-1.842616,-1.421701,-0.950887,1.712280,0.463139,-0.090710,-0.339871,-0.250028,-0.346884,-0.308367,0.447475,0.164989,2.383161,38.717999,23.349411,10.592222,0.488370,1.974899,0.054794,0.000000,0.000000,0.000000,0.000000,0.000000,0.000000
11944156.000000,2.305196,-0.988799,-1.842865,-1.422038,-0.951212,1.712725,0.463306,-0.091755,-0.337900,-0.246399,-0.339827,-0.310413,0.455635,0.165802,2.506147,38.618816,23.520004,10.318480,0.589994,1.988631,0.061202,0.000000,0.000000,0.000000,0.000000,0.000000,0.000000
11944157.000000,2.305119,-0.989129,-1.843115,-1.422367,-0.951534,1.713186,0.463475,-0.085854,-0.338983,-0.245283,-0.336341,-0.313199,0.456822,0.168319,2.482343,38.472027,23.742172,10.120115,0.620206,1.936446,0.021835,0.000000,0.000000,0.000000,0.000000,0.000000,0.000000
11944158.000000,2.305032,-0.989468,-1.843369,-1.422701,-0.951853,1.713646,0.463643,-0.088158,-0.339942,-0.245727,-0.333748,-0.315805,0.452499,0.167793,2.581525,38.349041,23.912766,9.949522,0.637601,1.897079,0.034652,0.000000,0.000000,0.000000,0.000000,0.000000,0.000000
11944159.000000,2.304953,-0.989799,-1.843613,-1.423027,-0.952172,1.714098,0.463809,-0.087940,-0.334341,-0.252463,-0.337919,-0.321312,0.452675,0.168276,2.605329,38.202251,23.988144,9.822569,0.632108,1.897079,0.034652,0.000000,0.000000,0.000000,0.000000,0.000000,0.000000
11944160.000000,2.304876,-0.990132,-1.843858,-1.423367,-0.952496,1.714554,0.463971,-0.087597,-0.334160,-0.249332,-0.338978,-0.319359,0.446411,0.163493,2.605329,38.103069,24.035751,9.822569,0.601896,1.916305,0.041976,0.000000,0.000000,0.000000,0.000000,0.000000,0.000000
11944161.000000,2.304805,-0.990461,-1.844113,-1.423702,-0.952814,1.714996,0.464139,-0.078769,-0.332692,-0.251747,-0.333301,-0.319337,0.446981,0.160582,2.529951,37.984051,24.158737,9.822569,0.589994,1.955673,0.028243,0.000000,0.000000,0.000000,0.000000,0.000000,0.000000
11944162.000000,2.304728,-0.990778,-1.844353,-1.424033,-0.953132,1.715447,0.464301,-0.077807,-0.327933,-0.248344,-0.337712,-0.319115,0.446018,0.158301,2.529951,37.809490,24.182541,9.921751,0.589994,2.027084,0.021835,0.000000,0.000000,0.000000,0.000000,0.000000,0.000000
11944163.000000,2.304657,-0.991099,-1.844595,-1.424374,-0.953458,1.715911,0.464457,-0.075982,-0.322984,-0.246263,-0.337388,-0.323622,0.447948,0.154334,2.482343,37.567486,24.234116,10.048704,0.559781,2.014266,0.074935,0.000000,0.000000,0.000000,0.000000,0.000000,0.000000
11944164.000000,2.304595,-0.991419,-1.844827,-1.424709,-0.953783,1.716369,0.464630,-0.072135,-0.318277,-0.239108,-0.345578,-0.322732,0.450561,0.160398,2.331586,37.420696,24.158737,10.243101,0.596403,1.988631,0.015426,0.000000,0.000000,0.000000,0.000000,0.000000,0.000000
11944165.000000,2.304530,-0.991734,-1.845060,-1.425060,-0.954107,1.716820,0.464791,-0.071597,-0.320772,-0.235553,-0.345971,-0.319649,0.446573,0.160408,2.260175,37.246136,24.158737,10.493040,0.649503,1.995040,0.074935,0.000000,0.000000,0.000000,0.000000,0.000000,0.000000
11944166.000000,2.304470,-0.992048,-1.845288,-1.425403,-0.954422,1.717266,0.464960,-0.069972,-0.318650,-0.233451,-0.343359,-0.320205,0.438290,0.163152,2.133222,37.075542,24.059555,10.639830,0.661405,2.007858,0.054794,0.000000,0.000000,0.000000,0.000000,0.000000,0.000000
11944167.000000,2.304413,-0.992361,-1.845508,-1.425746,-0.954752,1.717703,0.465130,-0.065253,-0.318976,-0.227738,-0.346670,-0.323319,0.439542,0.166360,1.986432,36.952557,23.888962,10.861998,0.703519,2.066451,0.009017,0.000000,0.000000,0.000000,0.000000,0.000000,0.000000
11944168.000000,2.304367,-0.992679,-1.845731,-1.426094,-0.955073,1.718142,0.465291,-0.059801,-0.317202,-0.226763,-0.343750,-0.327336,0.440332,0.160357,1.740461,36.758160,23.718369,11.012754,0.667814,2.118636,0.061202,0.000000,0.000000,0.000000,0.000000,0.000000,0.000000
11944169.000000,2.304316,-0.992997,-1.845946,-1.426442,-0.955387,1.718577,0.465463,-0.056669,-0.315482,-0.219922,-0.345650,-0.323974,0.444204,0.164075,1.542096,36.682781,23.543808,11.183348,0.620206,2.104903,0.021835,0.000000,0.000000,0.000000,0.000000,0.000000,0.000000
11944170.000000,2.304265,-0.993320,-1.846147,-1.426793,-0.955705,1.719022,0.465624,-0.054769,-0.319352,-0.216466,-0.346380,-0.321830,0.443445,0.164359,1.367536,36.682781,23.297836,11.334105,0.589994,2.066451,0.048385,0.000000,0.000000,0.000000,0.000000,0.000000,0.000000
11944171.000000,2.304218,-0.993645,-1.846348,-1.427148,-0.956024,1.719463,0.465792,-0.053778,-0.321283,-0.213647,-0.344252,-0.320510,0.442076,0.165905,1.192975,36.682781,23.055832,11.528502,0.542386,2.047225,0.034652,0.000000,0.000000,0.000000,0.000000,0.000000,0.000000
11944172.000000,2.304178,-0.993968,-1.846545,-1.427500,-0.956339,1.719889,0.465961,-0.048350,-0.327472,-0.210819,-0.349039,-0.314262,0.440932,0.170690,0.970807,36.734356,22.758286,11.703062,0.506681,2.020675,0.028243,0.000000,0.000000,0.000000,0.000000,0.000000,0.000000
11944173.000000,2.304139,-0.994299,-1.846743,-1.427857,-0.956659,1.720324,0.466125,-0.047322,-0.325774,-0.207289,-0.352960,-0.317383,0.436464,0.165089,0.748639,36.781963,22.512314,11.901426,0.535978,2.060043,0.061202,0.000000,0.000000,0.000000,0.000000,0.000000,0.000000
11944174.000000,2.304097,-0.994637,-1.846934,-1.428217,-0.956974,1.720758,0.466296,-0.045624,-0.323998,-0.200083,-0.353289,-0.322540,0.443024,0.167409,0.601850,36.980328,22.218735,12.123594,0.518583,2.053634,0.028243,0.000000,0.000000,0.000000,0.000000,0.000000,0.000000
11944175.000000,2.304059,-0.994962,-1.847123,-1.428570,-0.957298,1.721208,0.466461,-0.043423,-0.328740,-0.195413,-0.352076,-0.320830,0.448625,0.168224,0.403486,37.027935,21.948959,12.270384,0.554288,1.981307,0.021835,0.000000,0.000000,0.000000,0.000000,0.000000,0.000000
11944176.000000,2.304028,-0.995285,-1.847311,-1.428935,-0.957616,1.721660,0.466627,-0.037767,-0.326549,-0.188526,-0.350650,-0.321517,0.446120,0.168054,0.177350,36.980328,21.679184,12.567930,0.559781,1.942855,0.028243,0.000000,0.000000,0.000000,0.000000,0.000000,0.000000
11944177.000000,2.303996,-0.995613,-1.847494,-1.429293,-0.957925,1.722099,0.466791,-0.034470,-0.326583,-0.187923,-0.357880,-0.320978,0.440466,0.167396,-0.017047,36.980328,21.508591,12.742491,0.547880,1.890670,0.061202,0.000000,0.000000,0.000000,0.000000,0.000000,0.000000
11944178.000000,2.303962,-0.995931,-1.847674,-1.429659,-0.958241,1.722546,0.466962,-0.032865,-0.323522,-0.183638,-0.357488,-0.320124,0.442097,0.168946,-0.167803,36.857342,21.262619,12.988462,0.535978,1.903487,0.034652,0.000000,0.000000,0.000000,0.000000,0.000000,0.000000
11944179.000000,2.303929,-0.996249,-1.847852,-1.430032,-0.958553,1.722990,0.467130,-0.031769,-0.318494,-0.181033,-0.362458,-0.320110,0.441817,0.167954,-0.314593,36.758160,21.040451,13.210630,0.524076,1.988631,0.054794,0.000000,0.000000,0.000000,0.000000,0.000000,0.000000
11944180.000000,2.303902,-0.996564,-1.848028,-1.430405,-0.958861,1.723429,0.467303,-0.030381,-0.320704,-0.182956,-0.366675,-0.312533,0.439622,0.169850,-0.489153,36.611370,20.846054,13.432798,0.458158,2.007858,0.015426,0.000000,0.000000,0.000000,0.000000,0.000000,0.000000
11944181.000000,2.303867,-0.996880,-1.848202,-1.430783,-0.959172,1.723883,0.467468,-0.032636,-0.315090,-0.176959,-0.369299,-0.315150,0.438747,0.167343,-0.512957,36.416973,20.623886,13.654966,0.440763,1.981307,0.074935,0.000000,0.000000,0.000000,0.000000,0.000000,0.000000
11944182.000000,2.303829,-0.997190,-1.848377,-1.431163,-0.959482,1.724327,0.467640,-0.034564,-0.313123,-0.176758,-0.377192,-0.314403,0.438818,0.168156,-0.512957,36.171001,20.429489,13.829527,0.422452,1.955673,0.074935,0.000000,0.000000,0.000000,0.000000,0.000000,0.000000
11944183.000000,2.303795,-0.997504,-1.848551,-1.431538,-0.959800,1.724764,0.467814,-0.034914,-0.313428,-0.174240,-0.376482,-0.311156,0.436670,0.166348,-0.540728,36.000408,20.278732,14.000120,0.416959,1.988631,0.009017,0.000000,0.000000,0.000000,0.000000,0.000000,0.000000
11944184.000000,2.303763,-0.997823,-1.848725,-1.431918,-0.960112,1.725204,0.467974,-0.034842,-0.309599,-0.172056,-0.373802,-0.315546,0.432132,0.164182,-0.588336,35.948833,20.131943,14.099302,0.464567,2.092086,0.074935,0.000000,0.000000,0.000000,0.000000,0.000000,0.000000
11944185.000000,2.303726,-0.998142,-1.848903,-1.432284,-0.960422,1.725649,0.468143,-0.036079,-0.320267,-0.172890,-0.371525,-0.309187,0.434724,0.167495,-0.588336,36.000408,20.084335,14.150877,0.458158,2.053634,0.028243,0.000000,0.000000,0.000000,0.000000,0.000000,0.000000
11944186.000000,2.303689,-0.998460,-1.849076,-1.432657,-0.960742,1.726109,0.468307,-0.040107,-0.314426,-0.172042,-0.368507,-0.316803,0.443240,0.166855,-0.588336,35.925030,19.985153,14.150877,0.422452,1.936446,0.054794,0.000000,0.000000,0.000000,0.000000,0.000000,0.000000
11944187.000000,2.303656,-0.998784,-1.849248,-1.433027,-0.961057,1.726559,0.468477,-0.039259,-0.316606,-0.172040,-0.364116,-0.309734,0.455291,0.168535,-0.612139,36.000408,19.913742,14.174681,0.393156,1.851302,0.028243,0.000000,0.000000,0.000000,0.000000,0.000000,0.000000
11944188.000000,2.303619,-0.999099,-1.849419,-1.433384,-0.961376,1.726996,0.468638,-0.039568,-0.315727,-0.174993,-0.364470,-0.309470,0.444078,0.163855,-0.588336,35.976604,19.838364,14.075499,0.374845,1.877853,0.034652,0.000000,0.000000,0.000000,0.000000,0.000000,0.000000
11944189.000000,2.303580,-0.999423,-1.849597,-1.433740,-0.961690,1.727438,0.468799,-0.039469,-0.316595,-0.177880,-0.357122,-0.312620,0.444222,0.164341,-0.564532,36.048016,19.814560,13.928709,0.374845,1.930038,0.048385,0.000000,0.000000,0.000000,0.000000,0.000000,0.000000
11944190.000000,2.303542,-0.999740,-1.849769,-1.434088,-0.962022,1.727871,0.468966,-0.039500,-0.318715,-0.172981,-0.355917,-0.317872,0.444416,0.167267,-0.540728,36.024212,19.739182,13.805723,0.398649,1.988631,0.009017,0.000000,0.000000,0.000000,0.000000,0.000000,0.000000
11944191.000000,2.303503,-1.000043,-1.849941,-1.434437,-0.962350,1.728317,0.469122,-0.039995,-0.311845,-0.171899,-0.351100,-0.318369,0.442228,0.165921,-0.489153,35.778240,19.643967,13.631163,0.416959,1.968490,0.067611,0.000000,0.000000,0.000000,0.000000,0.000000,0.000000
11944192.000000,2.303467,-1.000345,-1.850125,-1.434791,-0.962669,1.728762,0.469288,-0.040579,-0.307045,-0.175060,-0.350593,-0.318290,0.447073,0.168628,-0.441546,35.536236,19.715378,13.583555,0.405057,1.916305,0.015426,0.000000,0.000000,0.000000,0.000000,0.000000,0.000000
11944193.000000,2.303427,-1.000651,-1.850294,-1.435138,-0.962991,1.729214,0.469441,-0.041066,-0.307825,-0.176353,-0.348440,-0.323194,0.448131,0.167081,-0.366168,35.314068,19.616196,13.456602,0.416959,1.806442,0.061202,0.000000,0.000000,0.000000,0.000000,0.000000,0.000000
11944194.000000,2.303387,-1.000962,-1.850477,-1.435473,-0.963322,1.729655,0.469612,-0.041676,-0.308000,-0.176726,-0.340801,-0.322596,0.444994,0.169486,-0.290789,35.091900,19.643967,13.234434,0.422452,1.779891,0.009017,0.000000,0.000000,0.000000,0.000000,0.000000,0.000000
11944195.000000,2.303353,-1.001276,-1.850650,-1.435804,-0.963662,1.730085,0.469772,-0.039908,-0.310552,-0.178652,-0.343091,-0.322979,0.443949,0.162621,-0.314593,34.945110,19.643967,13.012266,0.500272,1.865035,0.067611,0.000000,0.000000,0.000000,0.000000,0.000000,0.000000
11944196.000000,2.303304,-1.001589,-1.850824,-1.436127,-0.963992,1.730525,0.469942,-0.044021,-0.312167,-0.176154,-0.336586,-0.322154,0.439975,0.166296,-0.116229,34.798321,19.568588,12.742491,0.494779,1.903487,0.021835,0.000000,0.000000,0.000000,0.000000,0.000000,0.000000
11944197.000000,2.303262,-1.001903,-1.850999,-1.436454,-0.964314,1.730968,0.470112,-0.043574,-0.307708,-0.175429,-0.334166,-0.322889,0.439208,0.162232,-0.044818,34.703106,19.544785,12.567930,0.416959,1.890670,0.015426,0.000000,0.000000,0.000000,0.000000,0.000000,0.000000
11944198.000000,2.303223,-1.002219,-1.851174,-1.436768,-0.964655,1.731414,0.470272,-0.042837,-0.307216,-0.174028,-0.327863,-0.325570,0.440846,0.162321,0.006757,34.580120,19.469406,12.321959,0.393156,1.819259,0.061202,0.000000,0.000000,0.000000,0.000000,0.000000,0.000000
11944199.000000,2.303182,-1.002535,-1.851354,-1.437079,-0.964988,1.731859,0.470440,-0.042223,-0.307276,-0.173896,-0.320982,-0.324317,0.440987,0.161078,0.054365,34.480938,19.445602,12.147398,0.381254,1.747848,0.021835,0.000000,0.000000,0.000000,0.000000,0.000000,0.000000
11944200.000000,2.303140,-1.002851,-1.851536,-1.437388,-0.965323,1.732291,0.470602,-0.041813,-0.311061,-0.177948,-0.312143,-0.323355,0.448165,0.161486,0.105939,34.409527,19.445602,11.925230,0.369352,1.760665,0.061202,0.000000,0.000000,0.000000,0.000000,0.000000,0.000000
11944201.000000,2.303101,-1.003161,-1.851716,-1.437687,-0.965670,1.732728,0.470776,-0.041289,-0.312208,-0.180132,-0.305852,-0.329260,0.442002,0.165877,0.153547,34.262737,19.421799,11.726866,0.416959,1.832076,0.001693,0.000000,0.000000,0.000000,0.000000,0.000000,0.000000
11944202.000000,2.303061,-1.003482,-1.851906,-1.437987,-0.966013,1.733179,0.470940,-0.040498,-0.310382,-0.180296,-0.302617,-0.335324,0.441291,0.165897,0.177350,34.286541,19.497177,11.603880,0.500272,1.806442,0.009017,0.000000,0.000000,0.000000,0.000000,0.000000,0.000000
11944203.000000,2.303023,-1.003802,-1.852092,-1.438279,-0.966353,1.733632,0.471095,-0.039266,-0.322171,-0.183497,-0.295250,-0.331036,0.447525,0.158561,0.177350,34.262737,19.544785,11.381712,0.506681,1.721298,0.081344,0.000000,0.000000,0.000000,0.000000,0.000000,0.000000
11944204.000000,2.302980,-1.004117,-1.852271,-1.438579,-0.966684,1.734088,0.471269,-0.041227,-0.318185,-0.180263,-0.293556,-0.329552,0.450147,0.163910,0.276533,34.163555,19.497177,11.334105,0.464567,1.656295,0.015426,0.000000,0.000000,0.000000,0.000000,0.000000,0.000000
11944205.000000,2.302943,-1.004433,-1.852453,-1.438876,-0.967023,1.734522,0.471430,-0.043203,-0.318777,-0.181540,-0.292196,-0.330875,0.448108,0.159573,0.276533,34.088177,19.469406,11.282530,0.428861,1.656295,0.041976,0.000000,0.000000,0.000000,0.000000,0.000000,0.000000
11944206.000000,2.302914,-1.004755,-1.852633,-1.439160,-0.967368,1.734968,0.471596,-0.039403,-0.317739,-0.182826,-0.288537,-0.330927,0.450828,0.162860,0.177350,34.064373,19.445602,11.135740,0.440763,1.735030,0.021835,0.000000,0.000000,0.000000,0.000000,0.000000,0.000000
11944207.000000,2.302880,-1.005077,-1.852822,-1.439439,-0.967702,1.735419,0.471753,-0.038456,-0.312987,-0.184550,-0.285041,-0.327323,0.449073,0.163293,0.153547,34.040569,19.469406,10.984983,0.428861,1.800033,0.048385,0.000000,0.000000,0.000000,0.000000,0.000000,0.000000
11944208.000000,2.302846,-1.005400,-1.853003,-1.439717,-0.968042,1.735861,0.471926,-0.037046,-0.316876,-0.183425,-0.283264,-0.333322,0.451383,0.170366,0.105939,33.917583,19.421799,10.838194,0.381254,1.779891,0.001693,0.000000,0.000000,0.000000,0.000000,0.000000,0.000000
11944209.000000,2.302817,-1.005715,-1.853191,-1.439998,-0.968389,1.736314,0.472093,-0.034596,-0.312602,-0.184317,-0.280716,-0.333889,0.448029,0.169968,0.006757,33.746990,19.397995,10.762815,0.369352,1.735030,0.015426,0.000000,0.000000,0.000000,0.000000,0.000000,0.000000
11944210.000000,2.302790,-1.006042,-1.853379,-1.440278,-0.968732,1.736759,0.472257,-0.033537,-0.316393,-0.182329,-0.277071,-0.337796,0.444108,0.167384,-0.092425,33.746990,19.397995,10.762815,0.428861,1.630660,0.074935,0.000000,0.000000,0.000000,0.000000,0.000000,0.000000
11944211.000000,2.302762,-1.006369,-1.853566,-1.440557,-0.969074,1.737200,0.472431,-0.033362,-0.319087,-0.187099,-0.280479,-0.333570,0.448139,0.169492,-0.144000,33.723186,19.397995,10.762815,0.452665,1.578475,0.034652,0.000000,0.000000,0.000000,0.000000,0.000000,0.000000
11944212.000000,2.302738,-1.006697,-1.853749,-1.440829,-0.969429,1.737641,0.472604,-0.032148,-0.318121,-0.185490,-0.276761,-0.345531,0.442219,0.168853,-0.266986,33.723186,19.322617,10.663633,0.476469,1.617843,0.048385,0.000000,0.000000,0.000000,0.000000,0.000000,0.000000
11944213.000000,2.302716,-1.007036,-1.853933,-1.441093,-0.969776,1.738061,0.472781,-0.027453,-0.324764,-0.187802,-0.279944,-0.350810,0.431949,0.169621,-0.413775,33.770794,19.298813,10.592222,0.530485,1.702071,0.034652,0.000000,0.000000,0.000000,0.000000,0.000000,0.000000
11944214.000000,2.302695,-1.007369,-1.854111,-1.441369,-0.970117,1.738498,0.472947,-0.027341,-0.326448,-0.183268,-0.281176,-0.346599,0.432299,0.169186,-0.540728,33.822369,19.223434,10.540648,0.500272,1.708480,0.048385,0.000000,0.000000,0.000000,0.000000,0.000000,0.000000
11944215.000000,2.302677,-1.007703,-1.854291,-1.441646,-0.970450,1.738940,0.473126,-0.024388,-0.327978,-0.182354,-0.279676,-0.346095,0.436736,0.170358,-0.663714,33.917583,19.128220,10.516844,0.422452,1.605026,0.009017,0.000000,0.000000,0.000000,0.000000,0.000000,0.000000
11944216.000000,2.302661,-1.008035,-1.854476,-1.441912,-0.970795,1.739364,0.473293,-0.021863,-0.328133,-0.183777,-0.274849,-0.342282,0.428907,0.168074,-0.810504,33.941387,19.104416,10.465269,0.374845,1.546432,0.061202,0.000000,0.000000,0.000000,0.000000,0.000000,0.000000
11944217.000000,2.302645,-1.008372,-1.854659,-1.442188,-0.971135,1.739786,0.473475,-0.018098,-0.326980,-0.184322,-0.273718,-0.341995,0.427011,0.169539,-0.909686,34.040569,19.076645,10.417662,0.374845,1.597701,0.034652,0.000000,0.000000,0.000000,0.000000,0.000000,0.000000
11944218.000000,2.302634,-1.008720,-1.854842,-1.442461,-0.971475,1.740203,0.473650,-0.013439,-0.332800,-0.184137,-0.272905,-0.337577,0.427048,0.165973,-1.084246,34.163555,19.005234,10.342283,0.393156,1.649886,0.001693,0.000000,0.000000,0.000000,0.000000,0.000000,0.000000
11944219.000000,2.302619,-1.009050,-1.855024,-1.442735,-0.971825,1.740628,0.473815,-0.011779,-0.329192,-0.181059,-0.274731,-0.343425,0.419428,0.164285,-1.183428,34.088177,18.953659,10.370054,0.410551,1.656295,0.067611,0.000000,0.000000,0.000000,0.000000,0.000000,0.000000
11944220.000000,2.302600,-1.009389,-1.855214,-1.443016,-0.972171,1.741064,0.473993,-0.014803,-0.335541,-0.185941,-0.276309,-0.344808,0.425196,0.167014,-1.231036,34.139751,18.953659,10.318480,0.464567,1.605026,0.021835,0.000000,0.000000,0.000000,0.000000,0.000000,0.000000
11944221.000000,2.302587,-1.009729,-1.855397,-1.443300,-0.972514,1.741488,0.474152,-0.015440,-0.343714,-0.183009,-0.277743,-0.343394,0.428557,0.168770,-1.330218,34.139751,18.929855,10.370054,0.482877,1.572067,0.087753,0.000000,0.000000,0.000000,0.000000,0.000000,0.000000
11944222.000000,2.302569,-1.010082,-1.855583,-1.443581,-0.972853,1.741911,0.474327,-0.017718,-0.346270,-0.184011,-0.277351,-0.343826,0.425119,0.170647,-1.354022,34.310345,18.906052,10.370054,0.446256,1.559249,0.041976,0.000000,0.000000,0.000000,0.000000,0.000000,0.000000
11944223.000000,2.302555,-1.010441,-1.855765,-1.443861,-0.973198,1.742335,0.474505,-0.018036,-0.349788,-0.184656,-0.274948,-0.336911,0.437580,0.171071,-1.429400,34.433331,18.882248,10.270872,0.416959,1.597701,0.015426,0.000000,0.000000,0.000000,0.000000,0.000000,0.000000
11944224.000000,2.302537,-1.010793,-1.855951,-1.444139,-0.973546,1.742764,0.474679,-0.019508,-0.347654,-0.189522,-0.277468,-0.335820,0.431376,0.171030,-1.453204,34.603924,18.906052,10.219297,0.440763,1.611434,0.009017,0.000000,0.000000,0.000000,0.000000,0.000000,0.000000
11944225.000000,2.302518,-1.011147,-1.856141,-1.444421,-0.973884,1.743196,0.474843,-0.018809,-0.350399,-0.185785,-0.279363,-0.338747,0.427176,0.168058,-1.429400,34.726910,18.906052,10.195494,0.369352,1.605026,0.067611,0.000000,0.000000,0.000000,0.000000,0.000000,0.000000
11944226.000000,2.302493,-1.011505,-1.856327,-1.444706,-0.974224,1.743629,0.475019,-0.022881,-0.353413,-0.186120,-0.279880,-0.342115,0.431012,0.169452,-1.330218,34.873699,18.929855,10.243101,0.320829,1.559249,0.048385,0.000000,0.000000,0.000000,0.000000,0.000000,0.000000
11944228.000000,2.302452,-1.012213,-1.856716,-1.445271,-0.974925,1.744483,0.475352,-0.024915,-0.350792,-0.189687,-0.278633,-0.343602,0.431104,0.168514,-1.254840,35.143475,19.052841,10.270872,0.405057,1.481429,0.061202,0.000000,0.000000,0.000000,0.000000,0.000000,0.000000
11944229.000000,2.302420,-1.012571,-1.856915,-1.445555,-0.975275,1.744907,0.475521,-0.029425,-0.353008,-0.191501,-0.279864,-0.347396,0.425044,0.170309,-1.060443,35.385479,19.152023,10.342283,0.428861,1.526290,0.021835,0.000000,0.000000,0.000000,0.000000,0.000000,0.000000
11944230.000000,2.302392,-1.012924,-1.857107,-1.445846,-0.975629,1.745334,0.475686,-0.027611,-0.355448,-0.190909,-0.283995,-0.350626,0.425551,0.168369,-0.933489,35.413250,19.199631,10.465269,0.446256,1.559249,0.067611,0.000000,0.000000,0.000000,0.000000,0.000000,0.000000
11944231.000000,2.302369,-1.013280,-1.857306,-1.446131,-0.975986,1.745755,0.475862,-0.026970,-0.350993,-0.196754,-0.294252,-0.348688,0.428532,0.170300,-0.909686,35.437054,19.275009,10.540648,0.470060,1.539108,0.028243,0.000000,0.000000,0.000000,0.000000,0.000000,0.000000
11944232.000000,2.302339,-1.013631,-1.857502,-1.446410,-0.976333,1.746177,0.476029,-0.029573,-0.349666,-0.200256,-0.287583,-0.346041,0.424769,0.170513,-0.762896,35.385479,19.397995,10.465269,0.464567,1.559249,0.015426,0.000000,0.000000,0.000000,0.000000,0.000000,0.000000
11944233.000000,2.302310,-1.013986,-1.857701,-1.446699,-0.976676,1.746595,0.476192,-0.030297,-0.351202,-0.200765,-0.285186,-0.346794,0.416277,0.168043,-0.663714,35.337872,19.445602,10.493040,0.410551,1.597701,0.061202,0.000000,0.000000,0.000000,0.000000,0.000000,0.000000
11944234.000000,2.302276,-1.014327,-1.857896,-1.446982,-0.977028,1.747001,0.476357,-0.032585,-0.351844,-0.202258,-0.285928,-0.347509,0.413997,0.169860,-0.489153,35.214886,19.520981,10.493040,0.369352,1.656295,0.021835,0.000000,0.000000,0.000000,0.000000,0.000000,0.000000
11944235.000000,2.302245,-1.014686,-1.858097,-1.447267,-0.977382,1.747421,0.476518,-0.032614,-0.353688,-0.203058,-0.284840,-0.350579,0.418064,0.168240,-0.366168,35.143475,19.592392,10.441465,0.386747,1.670028,0.061202,0.000000,0.000000,0.000000,0.000000,0.000000,0.000000
11944236.000000,2.302205,-1.015039,-1.858302,-1.447557,-0.977721,1.747836,0.476683,-0.035215,-0.350946,-0.203474,-0.282792,-0.349671,0.418693,0.165292,-0.144000,35.020489,19.643967,10.441465,0.369352,1.649886,0.021835,0.000000,0.000000,0.000000,0.000000,0.000000,0.000000
11944237.000000,2.302162,-1.015389,-1.858506,-1.447838,-0.978078,1.748249,0.476843,-0.037553,-0.350211,-0.204091,-0.285246,-0.348526,0.418435,0.164375,0.105939,34.826092,19.715378,10.342283,0.398649,1.643478,0.074935,0.000000,0.000000,0.000000,0.000000,0.000000,0.000000
11944238.000000,2.302123,-1.015747,-1.858705,-1.448123,-0.978430,1.748665,0.477010,-0.037405,-0.346786,-0.202500,-0.283377,-0.348914,0.412302,0.165443,0.276533,34.798321,19.715378,10.243101,0.464567,1.662704,0.074935,0.000000,0.000000,0.000000,0.000000,0.000000,0.000000
11944239.000000,2.302082,-1.016104,-1.858913,-1.448407,-0.978775,1.749070,0.477179,-0.040664,-0.356668,-0.205800,-0.278278,-0.342427,0.407593,0.167512,0.451093,34.826092,19.885971,10.219297,0.500272,1.689254,0.028243,0.000000,0.000000,0.000000,0.000000,0.000000,0.000000
11944240.000000,2.302038,-1.016468,-1.859113,-1.448684,-0.979120,1.749482,0.477343,-0.040767,-0.356867,-0.201202,-0.278967,-0.345431,0.410280,0.166884,0.673261,34.873699,19.885971,10.120115,0.476469,1.649886,0.054794,0.000000,0.000000,0.000000,0.000000,0.000000,0.000000
11944241.000000,2.301996,-1.016827,-1.859321,-1.448964,-0.979469,1.749894,0.477514,-0.042549,-0.358595,-0.202642,-0.276847,-0.347676,0.423506,0.168571,0.824018,34.873699,19.961349,10.048704,0.446256,1.637069,0.021835,0.000000,0.000000,0.000000,0.000000,0.000000,0.000000
11944242.000000,2.301958,-1.017185,-1.859528,-1.449238,-0.979818,1.750306,0.477676,-0.042363,-0.357770,-0.200521,-0.276238,-0.343611,0.417901,0.163035,0.923200,34.897503,20.036728,10.020933,0.405057,1.611434,0.048385,0.000000,0.000000,0.000000,0.000000,0.000000,0.000000
11944243.000000,2.301914,-1.017536,-1.859732,-1.449517,-0.980165,1.750713,0.477841,-0.040649,-0.355535,-0.202204,-0.275989,-0.350264,0.416583,0.160177,1.069990,34.873699,20.008957,10.020933,0.339139,1.617843,0.034652,0.000000,0.000000,0.000000,0.000000,0.000000,0.000000
11944244.000000,2.301872,-1.017891,-1.859942,-1.449791,-0.980524,1.751107,0.478005,-0.041789,-0.353116,-0.205336,-0.273882,-0.350744,0.412707,0.161834,1.192975,34.798321,20.084335,10.048704,0.351041,1.708480,0.054794,0.000000,0.000000,0.000000,0.000000,0.000000,0.000000
11944245.000000,2.301826,-1.018235,-1.860157,-1.450064,-0.980884,1.751504,0.478176,-0.043584,-0.347043,-0.208428,-0.269204,-0.349625,0.406241,0.164965,1.367536,34.679302,20.131943,10.096312,0.381254,1.767074,0.021835,0.000000,0.000000,0.000000,0.000000,0.000000,0.000000
11944246.000000,2.301784,-1.018591,-1.860365,-1.450347,-0.981231,1.751907,0.478345,-0.043492,-0.345520,-0.203075,-0.269572,-0.347903,0.408246,0.167362,1.466718,34.580120,20.131943,10.171690,0.398649,1.793624,0.001693,0.000000,0.000000,0.000000,0.000000,0.000000,0.000000
11944247.000000,2.301742,-1.018939,-1.860575,-1.450618,-0.981596,1.752314,0.478506,-0.043541,-0.345037,-0.204137,-0.271546,-0.352169,0.410333,0.166377,1.565900,34.480938,20.207321,10.195494,0.458158,1.793624,0.041976,0.000000,0.000000,0.000000,0.000000,0.000000,0.000000
11944248.000000,2.301700,-1.019286,-1.860783,-1.450897,-0.981957,1.752729,0.478670,-0.041140,-0.344251,-0.202772,-0.272194,-0.354909,0.407978,0.160697,1.688886,34.334148,20.207321,10.342283,0.476469,1.754256,0.087753,0.000000,0.000000,0.000000,0.000000,0.000000,0.000000
11944249.000000,2.301658,-1.019639,-1.861000,-1.451170,-0.982304,1.753137,0.478848,-0.038184,-0.344474,-0.207251,-0.272970,-0.350084,0.410868,0.161262,1.764264,34.238934,20.278732,10.342283,0.452665,1.727706,0.009017,0.000000,0.000000,0.000000,0.000000,0.000000,0.000000
11944250.000000,2.301621,-1.019989,-1.861212,-1.451440,-0.982659,1.753545,0.479011,-0.037988,-0.350228,-0.205414,-0.272944,-0.352157,0.406674,0.163737,1.788068,34.238934,20.278732,10.318480,0.446256,1.747848,-0.004716,0.000000,0.000000,0.000000,0.000000,0.000000,0.000000
11944251.000000,2.301584,-1.020347,-1.861423,-1.451704,-0.983020,1.753951,0.479166,-0.034702,-0.349032,-0.206436,-0.265289,-0.353749,0.402429,0.161213,1.811872,34.187359,20.254929,10.243101,0.440763,1.800033,0.087753,0.000000,0.000000,0.000000,0.000000,0.000000,0.000000
11944252.000000,2.301545,-1.020704,-1.861639,-1.451967,-0.983377,1.754351,0.479344,-0.033289,-0.350518,-0.209468,-0.265268,-0.357928,0.409077,0.165976,1.863447,34.334148,20.306503,10.120115,0.405057,1.844894,0.021835,0.000000,0.000000,0.000000,0.000000,0.000000,0.000000
11944253.000000,2.301519,-1.021071,-1.861852,-1.452235,-0.983727,1.754764,0.479514,-0.028645,-0.356960,-0.212592,-0.263814,-0.360483,0.409114,0.165396,1.764264,34.457134,20.278732,10.072508,0.351041,1.877853,0.061202,0.000000,0.000000,0.000000,0.000000,0.000000,0.000000
11944254.000000,2.301486,-1.021431,-1.862061,-1.452506,-0.984086,1.755185,0.479694,-0.030201,-0.355255,-0.212242,-0.264677,-0.357746,0.414458,0.168313,1.740461,34.457134,20.254929,10.096312,0.356534,1.786300,0.009017,0.000000,0.000000,0.000000,0.000000,0.000000,0.000000
11944255.000000,2.301452,-1.021786,-1.862272,-1.452769,-0.984448,1.755606,0.479860,-0.029442,-0.356459,-0.211120,-0.263411,-0.354047,0.413240,0.167135,1.764264,34.409527,20.330307,10.048704,0.374845,1.702071,0.041976,0.000000,0.000000,0.000000,0.000000,0.000000,0.000000
11944256.000000,2.301421,-1.022148,-1.862479,-1.453037,-0.984809,1.756021,0.480034,-0.027181,-0.355200,-0.208742,-0.263613,-0.353268,0.408513,0.168276,1.712690,34.433331,20.354111,10.072508,0.446256,1.702071,0.015426,0.000000,0.000000,0.000000,0.000000,0.000000,0.000000
11944257.000000,2.301396,-1.022503,-1.862691,-1.453294,-0.985177,1.756422,0.480196,-0.024867,-0.364279,-0.211665,-0.260560,-0.358716,0.409498,0.170782,1.641279,34.409527,20.429489,10.072508,0.518583,1.721298,0.054794,0.000000,0.000000,0.000000,0.000000,0.000000,0.000000
11944258.000000,2.301375,-1.022865,-1.862901,-1.453561,-0.985541,1.756826,0.480362,-0.024957,-0.363608,-0.209304,-0.262876,-0.360003,0.404777,0.166885,1.490522,34.385723,20.453293,10.143919,0.554288,1.741439,0.028243,0.000000,0.000000,0.000000,0.000000,0.000000,0.000000
11944259.000000,2.301350,-1.023217,-1.863108,-1.453824,-0.985902,1.757234,0.480534,-0.023457,-0.359197,-0.206891,-0.261336,-0.358550,0.414821,0.167868,1.415143,34.211163,20.453293,10.219297,0.535978,1.735030,0.015426,0.000000,0.000000,0.000000,0.000000,0.000000,0.000000
11944260.000000,2.301331,-1.023570,-1.863314,-1.454091,-0.986257,1.757644,0.480702,-0.020928,-0.357127,-0.205328,-0.262709,-0.355853,0.411108,0.168274,1.268354,34.040569,20.453293,10.393858,0.482877,1.714889,0.015426,0.000000,0.000000,0.000000,0.000000,0.000000,0.000000
11944261.000000,2.301312,-1.023927,-1.863528,-1.454357,-0.986624,1.758044,0.480863,-0.020848,-0.352942,-0.208433,-0.264776,-0.362801,0.410794,0.167121,1.192975,34.040569,20.524704,10.516844,0.405057,1.747848,0.048385,0.000000,0.000000,0.000000,0.000000,0.000000,0.000000
11944262.000000,2.301292,-1.024297,-1.863728,-1.454624,-0.986987,1.758430,0.481028,-0.020541,-0.355008,-0.210910,-0.263204,-0.361443,0.403856,0.162486,1.121564,34.115948,20.500900,10.616026,0.386747,1.844894,0.067611,0.000000,0.000000,0.000000,0.000000,0.000000,0.000000
11944263.000000,2.301281,-1.024658,-1.863930,-1.454894,-0.987357,1.758817,0.481199,-0.017870,-0.355981,-0.207776,-0.262906,-0.361817,0.394013,0.166756,0.947004,34.187359,20.477097,10.762815,0.405057,1.942855,0.001693,0.000000,0.000000,0.000000,0.000000,0.000000,0.000000
11944264.000000,2.301265,-1.025026,-1.864140,-1.455163,-0.987723,1.759208,0.481354,-0.018027,-0.360298,-0.210152,-0.265582,-0.366115,0.394787,0.160620,0.847822,34.310345,20.524704,10.913572,0.410551,1.949264,0.048385,0.000000,0.000000,0.000000,0.000000,0.000000,0.000000
11944265.000000,2.301250,-1.025385,-1.864347,-1.455434,-0.988103,1.759603,0.481517,-0.018747,-0.359841,-0.211751,-0.268251,-0.370053,0.393144,0.159916,0.772443,34.385723,20.552475,11.084166,0.464567,1.897079,0.015426,0.000000,0.000000,0.000000,0.000000,0.000000,0.000000
11944266.000000,2.301244,-1.025745,-1.864559,-1.455712,-0.988475,1.760008,0.481671,-0.013204,-0.361826,-0.210324,-0.266536,-0.368715,0.391990,0.160773,0.574079,34.433331,20.623886,11.258726,0.506681,1.800033,0.054794,0.000000,0.000000,0.000000,0.000000,0.000000,0.000000
11944267.000000,2.301234,-1.026113,-1.864769,-1.455982,-0.988846,1.760399,0.481842,-0.014401,-0.363333,-0.210428,-0.266937,-0.370547,0.389297,0.163933,0.474897,34.480938,20.600082,11.334105,0.494779,1.773483,0.028243,0.000000,0.000000,0.000000,0.000000,0.000000,0.000000
11944268.000000,2.301229,-1.026466,-1.864974,-1.456259,-0.989226,1.760789,0.482006,-0.011683,-0.359742,-0.210185,-0.270115,-0.372340,0.383737,0.165157,0.351911,34.457134,20.552475,11.405516,0.500272,1.838485,0.034652,0.000000,0.000000,0.000000,0.000000,0.000000,0.000000
11944269.000000,2.301222,-1.026834,-1.865183,-1.456531,-0.989594,1.761174,0.482171,-0.009899,-0.360010,-0.212694,-0.270055,-0.363975,0.379476,0.165195,0.228925,34.457134,20.500900,11.381712,0.488370,1.923629,0.048385,0.000000,0.000000,0.000000,0.000000,0.000000,0.000000
11944270.000000,2.301224,-1.027188,-1.865381,-1.456802,-0.989959,1.761553,0.482338,-0.006779,-0.356301,-0.205117,-0.269935,-0.365204,0.382222,0.170966,0.030561,34.385723,20.429489,11.457090,0.452665,1.968490,0.021835,0.000000,0.000000,0.000000,0.000000,0.000000,0.000000
11944271.000000,2.301215,-1.027558,-1.865580,-1.457082,-0.990334,1.761955,0.482498,-0.008125,-0.357777,-0.202430,-0.271960,-0.367442,0.384739,0.163719,-0.017047,34.357952,20.354111,11.504698,0.416959,1.981307,0.081344,0.000000,0.000000,0.000000,0.000000,0.000000,0.000000
11944272.000000,2.301208,-1.027927,-1.865788,-1.457361,-0.990709,1.762356,0.482673,-0.008819,-0.358946,-0.206323,-0.270604,-0.361560,0.390881,0.163100,-0.068621,34.334148,20.377914,11.556273,0.440763,1.903487,0.015426,0.000000,0.000000,0.000000,0.000000,0.000000,0.000000
11944273.000000,2.301209,-1.028296,-1.865988,-1.457642,-0.991081,1.762759,0.482830,-0.003726,-0.363250,-0.203516,-0.274948,-0.361498,0.395281,0.163220,-0.215411,34.310345,20.306503,11.703062,0.458158,1.819259,0.054794,0.000000,0.000000,0.000000,0.000000,0.000000,0.000000
11944274.000000,2.301201,-1.028672,-1.866188,-1.457921,-0.991457,1.763159,0.482993,-0.002238,-0.363430,-0.200899,-0.274647,-0.366968,0.395305,0.163650,-0.266986,34.334148,20.231125,11.726866,0.488370,1.812850,0.074935,0.000000,0.000000,0.000000,0.000000,0.000000,0.000000
11944275.000000,2.301194,-1.029038,-1.866387,-1.458200,-0.991845,1.763546,0.483157,-0.001656,-0.367166,-0.200083,-0.276198,-0.369075,0.393862,0.167999,-0.290789,34.334148,20.183517,11.802244,0.559781,1.858627,0.100570,0.000000,0.000000,0.000000,0.000000,0.000000,0.000000
11944276.000000,2.301191,-1.029415,-1.866589,-1.458471,-0.992219,1.763933,0.483334,-0.005113,-0.368149,-0.203263,-0.275276,-0.365722,0.388338,0.166900,-0.413775,34.409527,20.159714,11.778440,0.542386,1.884261,0.015426,0.000000,0.000000,0.000000,0.000000,0.000000,0.000000
11944277.000000,2.301192,-1.029788,-1.866788,-1.458750,-0.992586,1.764333,0.483497,-0.004098,-0.369878,-0.200588,-0.273703,-0.366999,0.389959,0.166593,-0.564532,34.409527,20.060532,11.849852,0.500272,1.897079,0.028243,0.000000,0.000000,0.000000,0.000000,0.000000,0.000000
11944278.000000,2.301185,-1.030156,-1.866983,-1.459022,-0.992963,1.764731,0.483652,-0.002035,-0.370486,-0.197352,-0.272175,-0.368238,0.397387,0.165355,-0.635943,34.357952,20.036728,11.901426,0.482877,1.871444,0.081344,0.000000,0.000000,0.000000,0.000000,0.000000,0.000000
11944279.000000,2.301177,-1.030533,-1.867172,-1.459297,-0.993331,1.765135,0.483815,-0.002644,-0.371439,-0.195861,-0.271001,-0.367945,0.394384,0.167799,-0.612139,34.457134,19.937546,11.976805,0.410551,1.812850,0.041976,0.000000,0.000000,0.000000,0.000000,0.000000,0.000000
11944280.000000,2.301174,-1.030914,-1.867367,-1.459567,-0.993691,1.765530,0.483971,-0.003562,-0.373232,-0.200138,-0.276048,-0.365125,0.394974,0.162607,-0.687518,34.480938,19.961349,11.949034,0.393156,1.812850,0.067611,0.000000,0.000000,0.000000,0.000000,0.000000,0.000000
11944281.000000,2.301170,-1.031290,-1.867556,-1.459842,-0.994071,1.765922,0.484132,-0.001923,-0.371644,-0.200897,-0.277213,-0.369756,0.392761,0.160933,-0.735125,34.504742,19.838364,12.000608,0.434354,1.877853,0.034652,0.000000,0.000000,0.000000,0.000000,0.000000,0.000000
11944282.000000,2.301165,-1.031664,-1.867749,-1.460106,-0.994443,1.766317,0.484295,-0.003328,-0.368637,-0.199958,-0.271600,-0.368214,0.392683,0.162730,-0.786700,34.357952,19.790756,11.925230,0.464567,1.909896,0.054794,0.000000,0.000000,0.000000,0.000000,0.000000,0.000000
11944283.000000,2.301163,-1.032036,-1.867937,-1.460375,-0.994812,1.766714,0.484458,-0.003752,-0.366232,-0.195644,-0.269501,-0.364995,0.394425,0.159771,-0.885882,34.286541,19.715378,11.925230,0.464567,1.897079,0.054794,0.000000,0.000000,0.000000,0.000000,0.000000,0.000000
11944284.000000,2.301155,-1.032415,-1.868128,-1.460638,-0.995187,1.767120,0.484619,-0.006511,-0.370561,-0.193022,-0.265841,-0.367684,0.399552,0.156518,-0.885882,34.211163,19.667770,11.849852,0.458158,1.871444,0.081344,0.000000,0.000000,0.000000,0.000000,0.000000,0.000000
11944285.000000,2.301149,-1.032794,-1.868320,-1.460901,-0.995560,1.767525,0.484786,-0.007919,-0.371984,-0.192969,-0.269253,-0.362305,0.398415,0.156554,-0.885882,34.187359,19.568588,11.802244,0.422452,1.760665,0.041976,0.000000,0.000000,0.000000,0.000000,0.000000,0.000000
11944286.000000,2.301146,-1.033179,-1.868512,-1.461160,-0.995938,1.767927,0.484949,-0.005565,-0.378190,-0.189633,-0.265662,-0.362292,0.403330,0.159694,-0.909686,34.238934,19.592392,11.703062,0.440763,1.741439,0.041976,0.000000,0.000000,0.000000,0.000000,0.000000,0.000000
11944287.000000,2.301139,-1.033569,-1.868701,-1.461414,-0.996312,1.768325,0.485105,-0.005455,-0.380251,-0.188721,-0.259021,-0.366439,0.394468,0.159521,-0.862078,34.357952,19.568588,11.580076,0.446256,1.800033,0.100570,0.000000,0.000000,0.000000,0.000000,0.000000,0.000000
11944288.000000,2.301129,-1.033952,-1.868885,-1.461656,-0.996695,1.768717,0.485270,-0.006430,-0.389767,-0.187779,-0.253978,-0.369096,0.394305,0.165014,-0.762896,34.504742,19.520981,11.429319,0.464567,1.819259,0.028243,0.000000,0.000000,0.000000,0.000000,0.000000,0.000000
11944289.000000,2.301129,-1.034345,-1.869075,-1.461906,-0.997063,1.769117,0.485428,-0.003528,-0.386671,-0.188156,-0.250333,-0.373305,0.395403,0.158922,-0.810504,34.651531,19.520981,11.282530,0.452665,1.793624,0.087753,0.000000,0.000000,0.000000,0.000000,0.000000,0.000000
11944290.000000,2.301122,-1.034736,-1.869267,-1.462154,-0.997437,1.769522,0.485596,-0.003732,-0.389633,-0.187917,-0.249504,-0.377356,0.399711,0.157600,-0.762896,34.774517,19.497177,11.207151,0.405057,1.689254,0.067611,0.000000,0.000000,0.000000,0.000000,0.000000,0.000000
11944291.000000,2.301117,-1.035121,-1.869461,-1.462386,-0.997818,1.769931,0.485761,-0.003338,-0.387415,-0.189200,-0.243509,-0.372220,0.401496,0.159530,-0.735125,34.826092,19.544785,11.036558,0.393156,1.611434,0.094161,0.000000,0.000000,0.000000,0.000000,0.000000,0.000000
11944292.000000,2.301116,-1.035514,-1.869657,-1.462627,-0.998192,1.770329,0.485930,-0.002375,-0.390607,-0.191194,-0.239932,-0.370616,0.399436,0.158532,-0.735125,34.972881,19.520981,10.937376,0.428861,1.617843,0.054794,0.000000,0.000000,0.000000,0.000000,0.000000,0.000000
11944293.000000,2.301113,-1.035909,-1.869852,-1.462869,-0.998562,1.770721,0.486089,-0.002809,-0.390679,-0.194835,-0.240330,-0.372441,0.397869,0.159952,-0.687518,35.020489,19.568588,10.937376,0.434354,1.637069,0.094161,0.000000,0.000000,0.000000,0.000000,0.000000,0.000000
11944294.000000,2.301116,-1.036302,-1.870043,-1.463100,-0.998945,1.771109,0.486255,-0.001400,-0.389006,-0.191564,-0.234737,-0.374187,0.389990,0.158615,-0.711321,35.119671,19.497177,10.838194,0.446256,1.695663,0.067611,0.000000,0.000000,0.000000,0.000000,0.000000,0.000000
11944295.000000,2.301111,-1.036698,-1.870237,-1.463335,-0.999320,1.771500,0.486415,-0.002110,-0.386718,-0.191740,-0.236201,-0.375656,0.391092,0.156388,-0.663714,35.068096,19.544785,10.838194,0.458158,1.714889,0.067611,0.000000,0.000000,0.000000,0.000000,0.000000,0.000000
11944296.000000,2.301114,-1.037093,-1.870428,-1.463571,-0.999684,1.771898,0.486576,-0.000341,-0.386996,-0.191466,-0.234644,-0.373298,0.393530,0.154663,-0.711321,35.191082,19.568588,10.861998,0.405057,1.695663,0.074935,0.000000,0.000000,0.000000,0.000000,0.000000,0.000000
11944297.000000,2.301114,-1.037483,-1.870619,-1.463806,-1.000066,1.772301,0.486744,-0.000820,-0.386188,-0.192843,-0.232608,-0.381334,0.394751,0.154210,-0.687518,35.143475,19.544785,10.885801,0.344633,1.676437,0.054794,0.000000,0.000000,0.000000,0.000000,0.000000,0.000000
11944298.000000,2.301115,-1.037877,-1.870817,-1.464026,-1.000448,1.772687,0.486909,-0.000573,-0.382550,-0.201084,-0.233735,-0.386677,0.395594,0.156313,-0.687518,35.214886,19.592392,10.786619,0.369352,1.676437,0.100570,0.000000,0.000000,0.000000,0.000000,0.000000,0.000000
11944299.000000,2.301115,-1.038278,-1.871019,-1.464247,-1.000824,1.773085,0.487080,-0.000402,-0.384867,-0.200160,-0.228623,-0.379986,0.395254,0.161646,-0.687518,35.385479,19.691574,10.639830,0.374845,1.695663,0.048385,0.000000,0.000000,0.000000,0.000000,0.000000,0.000000
11944300.000000,2.301119,-1.038678,-1.871217,-1.464474,-1.001203,1.773482,0.487243,0.000831,-0.383356,-0.200288,-0.224093,-0.387793,0.395189,0.162735,-0.735125,35.583843,19.715378,10.592222,0.351041,1.708480,0.087753,0.000000,0.000000,0.000000,0.000000,0.000000,0.000000
11944301.000000,2.301121,-1.039074,-1.871410,-1.464692,-1.001594,1.773871,0.487412,0.001192,-0.390779,-0.200794,-0.220694,-0.378006,0.396633,0.166181,-0.762896,35.730633,19.739182,10.540648,0.369352,1.676437,0.041976,0.000000,0.000000,0.000000,0.000000,0.000000,0.000000
11944302.000000,2.301121,-1.039469,-1.871619,-1.464911,-1.001974,1.774277,0.487574,0.006895,-0.390454,-0.203321,-0.221327,-0.378498,0.396772,0.166314,-0.762896,35.754436,19.862167,10.516844,0.386747,1.649886,0.061202,0.000000,0.000000,0.000000,0.000000,0.000000,0.000000
11944303.000000,2.301126,-1.039870,-1.871820,-1.465135,-1.002363,1.774678,0.487731,0.006213,-0.393591,-0.199905,-0.221741,-0.377605,0.398030,0.161318,-0.810504,35.778240,19.885971,10.465269,0.416959,1.611434,0.087753,0.000000,0.000000,0.000000,0.000000,0.000000,0.000000
11944304.000000,2.301131,-1.040255,-1.872017,-1.465348,-1.002756,1.775072,0.487896,0.005725,-0.389515,-0.197845,-0.221415,-0.378483,0.397666,0.160053,-0.862078,35.655254,19.937546,10.393858,0.440763,1.611434,0.054794,0.000000,0.000000,0.000000,0.000000,0.000000,0.000000
11944305.000000,2.301136,-1.040644,-1.872215,-1.465568,-1.003150,1.775462,0.488055,0.005213,-0.391731,-0.198951,-0.219933,-0.384216,0.394219,0.159796,-0.909686,35.508465,19.985153,10.417662,0.488370,1.702071,0.114303,0.000000,0.000000,0.000000,0.000000,0.000000,0.000000
11944306.000000,2.301143,-1.041029,-1.872418,-1.465781,-1.003530,1.775849,0.488224,0.004894,-0.397824,-0.203571,-0.221034,-0.385874,0.389510,0.160427,-0.961260,35.337872,20.036728,10.393858,0.470060,1.721298,0.041976,0.000000,0.000000,0.000000,0.000000,0.000000,0.000000
11944307.000000,2.301148,-1.041422,-1.872620,-1.465995,-1.003919,1.776240,0.488384,0.003979,-0.396190,-0.203256,-0.217345,-0.394082,0.388375,0.156880,-0.985064,35.191082,20.060532,10.318480,0.434354,1.670028,0.067611,0.000000,0.000000,0.000000,0.000000,0.000000,0.000000
11944308.000000,2.301154,-1.041814,-1.872824,-1.466214,-1.004302,1.776627,0.488547,0.003328,-0.392277,-0.201880,-0.217166,-0.388425,0.397651,0.160202,-1.008868,35.068096,20.036728,10.342283,0.398649,1.670028,0.061202,0.000000,0.000000,0.000000,0.000000,0.000000,0.000000
11944309.000000,2.301155,-1.042199,-1.873028,-1.466423,-1.004687,1.777012,0.488705,0.001195,-0.393189,-0.202108,-0.213944,-0.385692,0.396449,0.157121,-0.961260,34.972881,20.060532,10.370054,0.405057,1.702071,0.081344,0.000000,0.000000,0.000000,0.000000,0.000000,0.000000
11944310.000000,2.301161,-1.042602,-1.873238,-1.466638,-1.005078,1.777388,0.488867,0.003920,-0.397862,-0.205471,-0.214520,-0.387481,0.390089,0.156551,-0.961260,35.068096,20.108139,10.417662,0.386747,1.754256,0.048385,0.000000,0.000000,0.000000,0.000000,0.000000,0.000000
11944311.000000,2.301165,-1.043010,-1.873442,-1.466845,-1.005465,1.777764,0.489019,0.005302,-0.403446,-0.205510,-0.210477,-0.384344,0.387225,0.156713,-0.933489,35.238689,20.159714,10.393858,0.440763,1.754256,0.107894,0.000000,0.000000,0.000000,0.000000,0.000000,0.000000
11944312.000000,2.301171,-1.043402,-1.873649,-1.467057,-1.005850,1.778148,0.489193,0.006841,-0.400404,-0.204592,-0.211777,-0.384458,0.386394,0.162171,-0.933489,35.266460,20.183517,10.417662,0.494779,1.702071,0.048385,0.000000,0.000000,0.000000,0.000000,0.000000,0.000000
11944313.000000,2.301173,-1.043796,-1.873856,-1.467269,-1.006229,1.778521,0.489358,0.003487,-0.397908,-0.200903,-0.210016,-0.385254,0.383279,0.162662,-0.862078,35.314068,20.207321,10.465269,0.434354,1.721298,0.074935,0.000000,0.000000,0.000000,0.000000,0.000000,0.000000
11944314.000000,2.301175,-1.044191,-1.874062,-1.467479,-1.006616,1.778886,0.489518,0.004855,-0.399448,-0.201336,-0.213970,-0.386384,0.380925,0.162916,-0.810504,35.337872,20.231125,10.465269,0.410551,1.754256,0.114303,0.000000,0.000000,0.000000,0.000000,0.000000,0.000000
11944315.000000,2.301185,-1.044585,-1.874273,-1.467694,-1.007003,1.779268,0.489691,0.005052,-0.399082,-0.201300,-0.213430,-0.388006,0.380106,0.162218,-0.862078,35.314068,20.254929,10.465269,0.386747,1.741439,0.054794,0.000000,0.000000,0.000000,0.000000,0.000000,0.000000
11944316.000000,2.301185,-1.044995,-1.874475,-1.467910,-1.007393,1.779642,0.489860,0.001506,-0.401575,-0.208140,-0.217008,-0.393748,0.379979,0.163165,-0.762896,35.385479,20.207321,10.540648,0.344633,1.735030,0.074935,0.000000,0.000000,0.000000,0.000000,0.000000,0.000000
11944317.000000,2.301186,-1.045394,-1.874677,-1.468118,-1.007789,1.780004,0.490023,0.002184,-0.403942,-0.207508,-0.212631,-0.389395,0.371252,0.164985,-0.663714,35.484661,20.131943,10.540648,0.332731,1.819259,0.067611,0.000000,0.000000,0.000000,0.000000,0.000000,0.000000
11944318.000000,2.301183,-1.045793,-1.874889,-1.468340,-1.008173,1.780375,0.490186,0.002341,-0.400888,-0.209706,-0.214756,-0.386479,0.371157,0.164630,-0.540728,35.413250,20.159714,10.639830,0.327238,1.884261,0.094161,0.000000,0.000000,0.000000,0.000000,0.000000,0.000000
11944319.000000,2.301185,-1.046196,-1.875096,-1.468555,-1.008571,1.780755,0.490355,0.003741,-0.403292,-0.205563,-0.215439,-0.388696,0.370746,0.163471,-0.465350,35.508465,20.207321,10.691404,0.339139,1.819259,0.074935,0.000000,0.000000,0.000000,0.000000,0.000000,0.000000
11944320.000000,2.301183,-1.046608,-1.875299,-1.468767,-1.008980,1.781130,0.490523,0.004169,-0.405264,-0.206771,-0.210627,-0.397438,0.364890,0.163963,-0.366168,35.607647,20.183517,10.663633,0.416959,1.747848,0.100570,0.000000,0.000000,0.000000,0.000000,0.000000,0.000000
11944321.000000,2.301173,-1.047028,-1.875510,-1.468981,-1.009373,1.781503,0.490700,-0.001015,-0.407815,-0.207584,-0.211129,-0.395346,0.362304,0.167061,-0.167803,35.901226,20.278732,10.663633,0.422452,1.767074,0.054794,0.000000,0.000000,0.000000,0.000000,0.000000,0.000000
11944322.000000,2.301167,-1.047443,-1.875714,-1.469194,-1.009770,1.781884,0.490868,-0.002363,-0.413324,-0.209434,-0.210457,-0.398867,0.360651,0.168116,-0.068621,36.095623,20.306503,10.616026,0.398649,1.793624,0.041976,0.000000,0.000000,0.000000,0.000000,0.000000,0.000000
11944323.000000,2.301164,-1.047854,-1.875920,-1.469411,-1.010166,1.782272,0.491028,-0.002306,-0.411877,-0.206705,-0.210541,-0.395545,0.367956,0.165702,-0.017047,36.218609,20.306503,10.592222,0.440763,1.721298,0.107894,0.000000,0.000000,0.000000,0.000000,0.000000,0.000000
11944324.000000,2.301162,-1.048269,-1.876132,-1.469623,-1.010560,1.782650,0.491196,-0.001181,-0.421547,-0.210578,-0.210765,-0.389693,0.372669,0.171793,-0.017047,36.341595,20.401718,10.564451,0.422452,1.649886,0.074935,0.000000,0.000000,0.000000,0.000000,0.000000,0.000000
11944325.000000,2.301145,-1.048684,-1.876339,-1.469835,-1.010952,1.783025,0.491355,-0.004510,-0.416173,-0.211759,-0.214037,-0.394426,0.371863,0.169973,0.153547,36.488384,20.429489,10.540648,0.374845,1.682845,0.107894,0.000000,0.000000,0.000000,0.000000,0.000000,0.000000
11944326.000000,2.301141,-1.049099,-1.876547,-1.470054,-1.011344,1.783384,0.491527,-0.005841,-0.415172,-0.211745,-0.213482,-0.394007,0.372789,0.166819,0.153547,36.512188,20.429489,10.516844,0.351041,1.773483,0.061202,0.000000,0.000000,0.000000,0.000000,0.000000,0.000000
11944327.000000,2.301138,-1.049502,-1.876754,-1.470268,-1.011741,1.783754,0.491689,-0.003996,-0.410819,-0.210583,-0.213514,-0.390724,0.373633,0.165765,0.153547,36.464581,20.500900,10.516844,0.386747,1.793624,0.107894,0.000000,0.000000,0.000000,0.000000,0.000000,0.000000
11944328.000000,2.301130,-1.049914,-1.876965,-1.470480,-1.012132,1.784141,0.491866,-0.004504,-0.409397,-0.212990,-0.209466,-0.398244,0.372368,0.168661,0.228925,36.389202,20.600082,10.493040,0.416959,1.727706,0.048385,0.000000,0.000000,0.000000,0.000000,0.000000,0.000000
11944329.000000,2.301116,-1.050327,-1.877163,-1.470693,-1.012532,1.784515,0.492029,-0.005937,-0.409187,-0.210945,-0.211775,-0.394535,0.374424,0.166797,0.351911,36.440777,20.576279,10.540648,0.410551,1.714889,0.100570,0.000000,0.000000,0.000000,0.000000,0.000000,0.000000
11944330.000000,2.301106,-1.050736,-1.877382,-1.470910,-1.012930,1.784875,0.492199,-0.009055,-0.410903,-0.215249,-0.215849,-0.395149,0.367493,0.164282,0.427289,36.464581,20.746872,10.564451,0.405057,1.779891,0.061202,0.000000,0.000000,0.000000,0.000000,0.000000,0.000000
11944332.000000,2.301094,-1.051570,-1.877817,-1.471334,-1.013722,1.785616,0.492528,-0.011734,-0.415504,-0.218622,-0.211299,-0.395787,0.372224,0.164707,0.502668,36.781963,20.992844,10.663633,0.369352,1.800033,0.074935,0.000000,0.000000,0.000000,0.000000,0.000000,0.000000
11944333.000000,2.301086,-1.051979,-1.878038,-1.471540,-1.014131,1.785978,0.492689,-0.010125,-0.414103,-0.216696,-0.210098,-0.400994,0.367758,0.164787,0.574079,36.881145,21.139633,10.616026,0.381254,1.825668,0.100570,0.000000,0.000000,0.000000,0.000000,0.000000,0.000000
11944334.000000,2.301086,-1.052390,-1.878263,-1.471756,-1.014527,1.786339,0.492854,-0.006110,-0.413461,-0.219274,-0.215707,-0.405276,0.369680,0.165845,0.526471,36.857342,21.310226,10.739012,0.393156,1.858627,0.107894,0.000000,0.000000,0.000000,0.000000,0.000000,0.000000
11944335.000000,2.301083,-1.052787,-1.878488,-1.471972,-1.014931,1.786713,0.493027,-0.004429,-0.411209,-0.222170,-0.213413,-0.403767,0.371847,0.169562,0.526471,36.758160,21.532394,10.814390,0.398649,1.865035,0.034652,0.000000,0.000000,0.000000,0.000000,0.000000,0.000000
11944336.000000,2.301068,-1.053196,-1.878708,-1.472175,-1.015335,1.787089,0.493181,-0.010248,-0.408732,-0.220561,-0.207317,-0.400043,0.369839,0.162095,0.697065,36.658978,21.607773,10.715208,0.470060,1.838485,0.114303,0.000000,0.000000,0.000000,0.000000,0.000000,0.000000
11944337.000000,2.301070,-1.053592,-1.878926,-1.472387,-1.015735,1.787449,0.493347,-0.006172,-0.405129,-0.221553,-0.209859,-0.397404,0.365415,0.166040,0.649457,36.563763,21.754562,10.762815,0.524076,1.884261,0.061202,0.000000,0.000000,0.000000,0.000000,0.000000,0.000000
11944338.000000,2.301068,-1.054002,-1.879153,-1.472605,-1.016140,1.787810,0.493514,-0.005011,-0.406149,-0.221513,-0.208532,-0.400730,0.361328,0.167367,0.673261,36.488384,21.877548,10.814390,0.512174,1.936446,0.048385,0.000000,0.000000,0.000000,0.000000,0.000000,0.000000
11944339.000000,2.301061,-1.054405,-1.879371,-1.472816,-1.016535,1.788172,0.493674,-0.005916,-0.402157,-0.215494,-0.208920,-0.401312,0.359290,0.167691,0.772443,36.341595,21.877548,10.786619,0.518583,1.974899,0.048385,0.000000,0.000000,0.000000,0.000000,0.000000,0.000000
11944340.000000,2.301059,-1.054811,-1.879598,-1.473020,-1.016922,1.788535,0.493829,-0.004135,-0.403614,-0.220955,-0.203575,-0.397713,0.360210,0.166894,0.772443,36.242413,22.024338,10.786619,0.458158,1.955673,0.081344,0.000000,0.000000,0.000000,0.000000,0.000000,0.000000
11944341.000000,2.301056,-1.055205,-1.879817,-1.473232,-1.017314,1.788914,0.493995,-0.003457,-0.399066,-0.218747,-0.202369,-0.396154,0.366519,0.167353,0.796247,36.071819,22.048141,10.786619,0.416959,1.903487,0.074935,0.000000,0.000000,0.000000,0.000000,0.000000,0.000000
11944342.000000,2.301058,-1.055614,-1.880036,-1.473444,-1.017717,1.789269,0.494163,-0.002412,-0.409104,-0.218029,-0.203113,-0.397951,0.362801,0.173089,0.796247,36.000408,22.095749,10.838194,0.470060,1.955673,0.034652,0.000000,0.000000,0.000000,0.000000,0.000000,0.000000
11944343.000000,2.301059,-1.056011,-1.880254,-1.473651,-1.018104,1.789626,0.494326,-0.001689,-0.406457,-0.217667,-0.201187,-0.392744,0.359211,0.170718,0.796247,35.925030,22.147324,10.786619,0.464567,2.007858,0.067611,0.000000,0.000000,0.000000,0.000000,0.000000,0.000000
11944344.000000,2.301052,-1.056420,-1.880468,-1.473852,-1.018498,1.789985,0.494496,-0.003506,-0.406787,-0.212350,-0.199674,-0.393379,0.371916,0.171191,0.895429,35.853619,22.119553,10.715208,0.458158,1.995040,0.041976,0.000000,0.000000,0.000000,0.000000,0.000000,0.000000
11944345.000000,2.301056,-1.056809,-1.880685,-1.474058,-1.018904,1.790346,0.494656,-0.001269,-0.400297,-0.210511,-0.202059,-0.394252,0.369185,0.169399,0.847822,35.730633,22.171127,10.663633,0.476469,1.974899,0.081344,0.000000,0.000000,0.000000,0.000000,0.000000,0.000000
11944346.000000,2.301061,-1.057220,-1.880901,-1.474272,-1.019307,1.790705,0.494826,0.007113,-0.403988,-0.207576,-0.202740,-0.395767,0.361299,0.170207,0.772443,35.730633,22.171127,10.715208,0.506681,1.981307,0.054794,0.000000,0.000000,0.000000,0.000000,0.000000,0.000000
11944347.000000,2.301058,-1.057621,-1.881108,-1.474475,-1.019705,1.791056,0.494986,0.003473,-0.401371,-0.212157,-0.201849,-0.398580,0.360386,0.164173,0.847822,35.631451,22.095749,10.691404,0.452665,1.995040,0.087753,0.000000,0.000000,0.000000,0.000000,0.000000,0.000000
11944348.000000,2.301059,-1.058028,-1.881319,-1.474672,-1.020109,1.791419,0.495152,0.002685,-0.401790,-0.210816,-0.199772,-0.397243,0.361794,0.163035,0.847822,35.607647,22.024338,10.616026,0.428861,2.060043,0.034652,0.000000,0.000000,0.000000,0.000000,0.000000,0.000000
11944349.000000,2.301067,-1.058422,-1.881532,-1.474881,-1.020503,1.791789,0.495308,0.008239,-0.398139,-0.210243,-0.201963,-0.393501,0.362025,0.162065,0.724836,35.460857,21.972763,10.691404,0.452665,2.033492,0.094161,0.000000,0.000000,0.000000,0.000000,0.000000,0.000000
11944350.000000,2.301066,-1.058824,-1.881739,-1.475084,-1.020915,1.792151,0.495469,0.004862,-0.400165,-0.207058,-0.202725,-0.398370,0.358868,0.163609,0.772443,35.337872,21.925156,10.739012,0.458158,1.974899,0.107894,0.000000,0.000000,0.000000,0.000000,0.000000,0.000000
11944351.000000,2.301062,-1.059229,-1.881939,-1.475286,-1.021321,1.792514,0.495634,0.001283,-0.404277,-0.202536,-0.202801,-0.402445,0.362106,0.162171,0.871625,35.314068,21.802170,10.786619,0.452665,1.988631,0.061202,0.000000,0.000000,0.000000,0.000000,0.000000,0.000000
11944352.000000,2.301071,-1.059637,-1.882144,-1.475486,-1.021735,1.792872,0.495789,0.002241,-0.401634,-0.204709,-0.202894,-0.403432,0.365028,0.161590,0.824018,35.191082,21.754562,10.861998,0.518583,2.014266,0.120712,0.000000,0.000000,0.000000,0.000000,0.000000,0.000000
11944353.000000,2.301077,-1.060045,-1.882343,-1.475686,-1.022146,1.793238,0.495959,0.002347,-0.402213,-0.204389,-0.205648,-0.401041,0.364543,0.167164,0.796247,35.314068,21.631577,10.885801,0.500272,1.988631,0.028243,0.000000,0.000000,0.000000,0.000000,0.000000,0.000000
11944354.000000,2.301080,-1.060460,-1.882539,-1.475892,-1.022549,1.793607,0.496114,0.001718,-0.406270,-0.200220,-0.202527,-0.400126,0.363806,0.161155,0.796247,35.385479,21.484787,10.961180,0.500272,1.974899,0.061202,0.000000,0.000000,0.000000,0.000000,0.000000,0.000000
11944355.000000,2.301080,-1.060871,-1.882734,-1.476083,-1.022944,1.793973,0.496267,-0.000504,-0.412864,-0.199164,-0.197682,-0.392100,0.362079,0.158557,0.871625,35.536236,21.409409,10.913572,0.452665,1.995040,0.107894,0.000000,0.000000,0.000000,0.000000,0.000000,0.000000
11944356.000000,2.301093,-1.061289,-1.882932,-1.476279,-1.023342,1.794348,0.496436,0.005372,-0.414658,-0.196020,-0.196813,-0.402853,0.362637,0.164048,0.772443,35.607647,21.361801,10.984983,0.393156,1.936446,0.034652,0.000000,0.000000,0.000000,0.000000,0.000000,0.000000
11944357.000000,2.301103,-1.061700,-1.883124,-1.476471,-1.023749,1.794715,0.496596,0.007711,-0.412296,-0.194716,-0.197122,-0.401983,0.367828,0.158487,0.748639,35.655254,21.238815,10.961180,0.398649,1.897079,0.087753,0.000000,0.000000,0.000000,0.000000,0.000000,0.000000
11944358.000000,2.301116,-1.062122,-1.883316,-1.476660,-1.024149,1.795090,0.496760,0.010472,-0.413270,-0.192341,-0.193564,-0.400352,0.365822,0.161408,0.673261,35.802044,21.187241,10.913572,0.393156,1.890670,0.087753,0.000000,0.000000,0.000000,0.000000,0.000000,0.000000
11944359.000000,2.301126,-1.062542,-1.883503,-1.476846,-1.024560,1.795460,0.496923,0.007628,-0.411453,-0.189757,-0.190706,-0.408180,0.369866,0.158530,0.673261,35.901226,21.115829,10.861998,0.410551,1.858627,0.087753,0.000000,0.000000,0.000000,0.000000,0.000000,0.000000
11944360.000000,2.301136,-1.062971,-1.883685,-1.477033,-1.024963,1.795818,0.497095,0.005570,-0.417299,-0.186965,-0.186927,-0.406488,0.367463,0.162520,0.673261,36.000408,20.992844,10.861998,0.458158,1.844894,0.034652,0.000000,0.000000,0.000000,0.000000,0.000000,0.000000
11944361.000000,2.301148,-1.063381,-1.883868,-1.477222,-1.025357,1.796181,0.497252,0.007682,-0.414131,-0.186284,-0.188576,-0.403208,0.368676,0.161638,0.649457,36.048016,20.917465,10.913572,0.446256,1.858627,0.100570,0.000000,0.000000,0.000000,0.000000,0.000000,0.000000
11944362.000000,2.301161,-1.063798,-1.884060,-1.477403,-1.025751,1.796544,0.497419,0.010022,-0.416212,-0.186756,-0.185552,-0.404106,0.368840,0.158925,0.601850,36.024212,20.893661,10.786619,0.393156,1.786300,0.100570,0.000000,0.000000,0.000000,0.000000,0.000000,0.000000
11944363.000000,2.301172,-1.064194,-1.884236,-1.477588,-1.026153,1.796905,0.497580,0.011279,-0.409335,-0.183609,-0.186585,-0.400622,0.366088,0.161885,0.574079,35.877422,20.723068,10.786619,0.369352,1.786300,0.094161,0.000000,0.000000,0.000000,0.000000,0.000000,0.000000
11944364.000000,2.301193,-1.064614,-1.884424,-1.477771,-1.026544,1.797251,0.497746,0.014463,-0.411945,-0.184636,-0.183247,-0.393806,0.361392,0.164904,0.451093,35.925030,20.699265,10.762815,0.339139,1.851302,0.061202,0.000000,0.000000,0.000000,0.000000,0.000000,0.000000
11944365.000000,2.301205,-1.065030,-1.884606,-1.477939,-1.026945,1.797602,0.497916,0.013524,-0.412568,-0.186345,-0.180745,-0.397880,0.355100,0.166069,0.451093,36.048016,20.623886,10.639830,0.297025,1.884261,0.061202,0.000000,0.000000,0.000000,0.000000,0.000000,0.000000
11944366.000000,2.301226,-1.065442,-1.884793,-1.478113,-1.027358,1.797957,0.498072,0.016500,-0.413611,-0.186202,-0.177500,-0.398897,0.351714,0.160460,0.304304,36.071819,20.576279,10.540648,0.320829,1.877853,0.107894,0.000000,0.000000,0.000000,0.000000,0.000000,0.000000
11944367.000000,2.301243,-1.065854,-1.884976,-1.478294,-1.027757,1.798314,0.498242,0.017954,-0.412825,-0.186463,-0.177317,-0.398694,0.345669,0.163922,0.177350,36.071819,20.552475,10.540648,0.320829,1.832076,0.067611,0.000000,0.000000,0.000000,0.000000,0.000000,0.000000
11944368.000000,2.301261,-1.066258,-1.885161,-1.478464,-1.028161,1.798676,0.498400,0.020942,-0.409841,-0.187838,-0.173085,-0.402157,0.351713,0.163330,0.105939,35.925030,20.576279,10.493040,0.320829,1.754256,0.120712,0.000000,0.000000,0.000000,0.000000,0.000000,0.000000
11944369.000000,2.301276,-1.066662,-1.885341,-1.478632,-1.028568,1.799034,0.498574,0.018912,-0.407778,-0.182370,-0.168142,-0.405420,0.352515,0.168491,0.078168,35.778240,20.477097,10.393858,0.320829,1.747848,0.028243,0.000000,0.000000,0.000000,0.000000,0.000000,0.000000
11944370.000000,2.301304,-1.067067,-1.885534,-1.478804,-1.028982,1.799383,0.498730,0.024263,-0.407239,-0.188405,-0.173022,-0.409093,0.352350,0.162448,-0.116229,35.508465,20.524704,10.370054,0.356534,1.786300,0.067611,0.000000,0.000000,0.000000,0.000000,0.000000,0.000000
11944371.000000,2.301325,-1.067469,-1.885720,-1.478968,-1.029405,1.799736,0.498889,0.025517,-0.405921,-0.187389,-0.171091,-0.411970,0.353046,0.158534,-0.191607,35.337872,20.477097,10.243101,0.398649,1.819259,0.094161,0.000000,0.000000,0.000000,0.000000,0.000000,0.000000
11944372.000000,2.301343,-1.067874,-1.885905,-1.479139,-1.029818,1.800092,0.499061,0.022141,-0.401508,-0.185759,-0.168789,-0.412186,0.347714,0.162956,-0.215411,35.068096,20.401718,10.219297,0.386747,1.877853,0.061202,0.000000,0.000000,0.000000,0.000000,0.000000,0.000000
11944373.000000,2.301366,-1.068268,-1.886091,-1.479302,-1.030231,1.800446,0.499221,0.024822,-0.411057,-0.182357,-0.169801,-0.407580,0.350831,0.162926,-0.314593,34.849895,20.354111,10.171690,0.393156,1.871444,0.107894,0.000000,0.000000,0.000000,0.000000,0.000000,0.000000
11944374.000000,2.301389,-1.068684,-1.886282,-1.479462,-1.030639,1.800811,0.499392,0.026569,-0.412654,-0.187150,-0.164613,-0.416190,0.355616,0.167069,-0.413775,34.826092,20.354111,10.143919,0.381254,1.779891,0.041976,0.000000,0.000000,0.000000,0.000000,0.000000,0.000000
11944375.000000,2.301408,-1.069091,-1.886471,-1.479619,-1.031056,1.801176,0.499553,0.023377,-0.411984,-0.185986,-0.160322,-0.414202,0.369586,0.160887,-0.465350,34.750713,20.278732,10.096312,0.344633,1.741439,0.094161,0.000000,0.000000,0.000000,0.000000,0.000000,0.000000
11944376.000000,2.301426,-1.069497,-1.886664,-1.479781,-1.031474,1.801535,0.499718,0.020141,-0.409997,-0.188573,-0.161334,-0.411193,0.365291,0.163359,-0.465350,34.726910,20.354111,10.096312,0.344633,1.779891,0.087753,0.000000,0.000000,0.000000,0.000000,0.000000,0.000000
11944377.000000,2.301447,-1.069913,-1.886846,-1.479942,-1.031890,1.801896,0.499879,0.018413,-0.412155,-0.188291,-0.161499,-0.416779,0.363554,0.163772,-0.489153,34.897503,20.231125,10.096312,0.327238,1.779891,0.107894,0.000000,0.000000,0.000000,0.000000,0.000000,0.000000
11944378.000000,2.301464,-1.070331,-1.887035,-1.480096,-1.032313,1.802246,0.500043,0.015801,-0.413402,-0.188571,-0.161525,-0.412244,0.362678,0.166926,-0.465350,34.921307,20.231125,10.072508,0.351041,1.779891,0.041976,0.000000,0.000000,0.000000,0.000000,0.000000,0.000000
11944379.000000,2.301485,-1.070740,-1.887229,-1.480254,-1.032725,1.802601,0.500198,0.015569,-0.414201,-0.191261,-0.159387,-0.413834,0.351116,0.165675,-0.489153,34.945110,20.207321,10.096312,0.356534,1.793624,0.087753,0.000000,0.000000,0.000000,0.000000,0.000000,0.000000
11944380.000000,2.301510,-1.071159,-1.887423,-1.480407,-1.033142,1.802958,0.500364,0.018842,-0.414213,-0.191226,-0.156596,-0.419062,0.349889,0.167407,-0.540728,34.972881,20.231125,10.072508,0.369352,1.754256,0.061202,0.000000,0.000000,0.000000,0.000000,0.000000,0.000000
11944381.000000,2.301528,-1.071570,-1.887614,-1.480565,-1.033565,1.803317,0.500519,0.019410,-0.415351,-0.193339,-0.161484,-0.417154,0.353746,0.161766,-0.512957,35.020489,20.207321,10.072508,0.369352,1.708480,0.100570,0.000000,0.000000,0.000000,0.000000,0.000000,0.000000
11944382.000000,2.301544,-1.071981,-1.887804,-1.480725,-1.033978,1.803668,0.500676,0.016423,-0.416825,-0.190722,-0.159731,-0.416872,0.352337,0.158314,-0.465350,34.972881,20.159714,10.120115,0.374845,1.767074,0.114303,0.000000,0.000000,0.000000,0.000000,0.000000,0.000000
11944383.000000,2.301558,-1.072402,-1.887996,-1.480883,-1.034401,1.804024,0.500839,0.013623,-0.420378,-0.193658,-0.164011,-0.419681,0.353713,0.163954,-0.389971,34.996685,20.084335,10.171690,0.327238,1.767074,0.041976,0.000000,0.000000,0.000000,0.000000,0.000000,0.000000
11944384.000000,2.301575,-1.072822,-1.888185,-1.481037,-1.034830,1.804386,0.500984,0.012650,-0.418087,-0.189400,-0.163038,-0.420564,0.357244,0.157600,-0.366168,35.091900,20.084335,10.143919,0.374845,1.702071,0.120712,0.000000,0.000000,0.000000,0.000000,0.000000,0.000000
11944385.000000,2.301593,-1.073245,-1.888379,-1.481195,-1.035252,1.804736,0.501144,0.014565,-0.418889,-0.191023,-0.157854,-0.423345,0.356052,0.157616,-0.314593,35.214886,20.159714,10.195494,0.393156,1.741439,0.067611,0.000000,0.000000,0.000000,0.000000,0.000000,0.000000
11944386.000000,2.301608,-1.073672,-1.888555,-1.481349,-1.035666,1.805083,0.501294,0.015372,-0.425561,-0.187483,-0.159079,-0.422734,0.351208,0.155700,-0.243182,35.413250,20.036728,10.195494,0.327238,1.760665,0.067611,0.000000,0.000000,0.000000,0.000000,0.000000,0.000000
11944387.000000,2.301618,-1.074104,-1.888740,-1.481507,-1.036087,1.805437,0.501450,0.014955,-0.430417,-0.186629,-0.156124,-0.424337,0.353090,0.154687,-0.116229,35.607647,19.985153,10.171690,0.327238,1.747848,0.061202,0.000000,0.000000,0.000000,0.000000,0.000000,0.000000
11944388.000000,2.301639,-1.074545,-1.888933,-1.481657,-1.036503,1.805785,0.501606,0.016118,-0.431162,-0.185508,-0.153043,-0.422182,0.352526,0.152836,-0.167803,35.829815,20.036728,10.096312,0.327238,1.682845,0.081344,0.000000,0.000000,0.000000,0.000000,0.000000,0.000000
11944389.000000,2.301658,-1.074972,-1.889124,-1.481806,-1.036924,1.806143,0.501754,0.017713,-0.435327,-0.184756,-0.150777,-0.420218,0.354711,0.151364,-0.144000,35.948833,20.108139,10.020933,0.315336,1.670028,0.107894,0.000000,0.000000,0.000000,0.000000,0.000000,0.000000
11944390.000000,2.301667,-1.075408,-1.889316,-1.481951,-1.037332,1.806497,0.501916,0.013723,-0.434745,-0.186310,-0.147612,-0.413711,0.356070,0.153017,-0.017047,36.071819,20.159714,9.897947,0.303434,1.656295,0.054794,0.000000,0.000000,0.000000,0.000000,0.000000,0.000000
11944391.000000,2.301689,-1.075832,-1.889510,-1.482105,-1.037744,1.806840,0.502068,0.018053,-0.441543,-0.189482,-0.148788,-0.406124,0.351183,0.156056,-0.068621,36.048016,20.278732,9.897947,0.303434,1.670028,0.100570,0.000000,0.000000,0.000000,0.000000,0.000000,0.000000
11944392.000000,2.301704,-1.076262,-1.889701,-1.482255,-1.038159,1.807192,0.502227,0.018815,-0.436934,-0.191429,-0.150241,-0.409821,0.343438,0.156180,-0.017047,36.024212,20.254929,9.798765,0.332731,1.656295,0.061202,0.000000,0.000000,0.000000,0.000000,0.000000,0.000000
11944393.000000,2.301719,-1.076706,-1.889899,-1.482412,-1.038573,1.807534,0.502379,0.018828,-0.440759,-0.193378,-0.150877,-0.410836,0.347996,0.153864,0.054365,36.171001,20.377914,9.798765,0.320829,1.708480,0.081344,0.000000,0.000000,0.000000,0.000000,0.000000,0.000000
11944394.000000,2.301736,-1.077140,-1.890093,-1.482563,-1.038984,1.807876,0.502533,0.020169,-0.440708,-0.194031,-0.150481,-0.410593,0.344014,0.153358,0.078168,36.317791,20.477097,9.774961,0.303434,1.767074,0.074935,0.000000,0.000000,0.000000,0.000000,0.000000,0.000000
11944395.000000,2.301753,-1.077584,-1.890290,-1.482717,-1.039402,1.808224,0.502690,0.017758,-0.440985,-0.194044,-0.151439,-0.411685,0.343600,0.151472,0.105939,36.512188,20.576279,9.822569,0.291532,1.754256,0.100570,0.000000,0.000000,0.000000,0.000000,0.000000,0.000000
11944396.000000,2.301768,-1.078022,-1.890490,-1.482862,-1.039814,1.808578,0.502855,0.018127,-0.437392,-0.194426,-0.150616,-0.411125,0.350174,0.153421,0.177350,36.658978,20.671494,9.798765,0.243009,1.682845,0.048385,0.000000,0.000000,0.000000,0.000000,0.000000,0.000000
11944397.000000,2.301790,-1.078449,-1.890697,-1.483015,-1.040224,1.808929,0.503000,0.018268,-0.434556,-0.198997,-0.153861,-0.412512,0.348111,0.150427,0.129743,36.682781,20.822250,9.798765,0.237516,1.656295,0.107894,0.000000,0.000000,0.000000,0.000000,0.000000,0.000000
11944398.000000,2.301813,-1.078880,-1.890904,-1.483161,-1.040644,1.809274,0.503156,0.021327,-0.429170,-0.203663,-0.151425,-0.415014,0.345334,0.150400,0.078168,36.710552,20.893661,9.727354,0.279630,1.670028,0.107894,0.000000,0.000000,0.000000,0.000000,0.000000,0.000000
11944399.000000,2.301834,-1.079309,-1.891107,-1.483311,-1.041070,1.809602,0.503314,0.022294,-0.431015,-0.203669,-0.152533,-0.416547,0.341651,0.151667,0.078168,36.682781,20.945236,9.774961,0.339139,1.741439,0.081344,0.000000,0.000000,0.000000,0.000000,0.000000,0.000000
11944400.000000,2.301854,-1.079737,-1.891314,-1.483458,-1.041484,1.809940,0.503467,0.023027,-0.428964,-0.207445,-0.151119,-0.420458,0.333600,0.151127,0.078168,36.635174,21.040451,9.751158,0.332731,1.806442,0.087753,0.000000,0.000000,0.000000,0.000000,0.000000,0.000000
11944401.000000,2.301875,-1.080166,-1.891523,-1.483606,-1.041913,1.810278,0.503620,0.024098,-0.427368,-0.203939,-0.151782,-0.420390,0.331826,0.152018,0.054365,36.440777,21.115829,9.822569,0.362943,1.779891,0.061202,0.000000,0.000000,0.000000,0.000000,0.000000,0.000000
11944402.000000,2.301896,-1.080593,-1.891728,-1.483758,-1.042337,1.810618,0.503771,0.024598,-0.429637,-0.207341,-0.148802,-0.419444,0.335555,0.150179,0.030561,36.389202,21.187241,9.850340,0.369352,1.741439,0.100570,0.000000,0.000000,0.000000,0.000000,0.000000,0.000000
11944403.000000,2.301917,-1.081026,-1.891941,-1.483918,-1.042750,1.810959,0.503933,0.024709,-0.429208,-0.208592,-0.151347,-0.422077,0.338891,0.151779,0.030561,36.270184,21.337997,9.949522,0.339139,1.806442,0.054794,0.000000,0.000000,0.000000,0.000000,0.000000,0.000000
11944404.000000,2.301932,-1.081451,-1.892145,-1.484064,-1.043177,1.811292,0.504087,0.019771,-0.431408,-0.209883,-0.147872,-0.419976,0.335905,0.149957,0.105939,36.218609,21.361801,9.949522,0.291532,1.897079,0.094161,0.000000,0.000000,0.000000,0.000000,0.000000,0.000000
11944405.000000,2.301957,-1.081889,-1.892354,-1.484209,-1.043605,1.811631,0.504248,0.019992,-0.431772,-0.207699,-0.147674,-0.431489,0.335981,0.152405,0.030561,36.242413,21.385605,9.921751,0.308927,1.916305,0.034652,0.000000,0.000000,0.000000,0.000000,0.000000,0.000000
11944406.000000,2.301978,-1.082332,-1.892567,-1.484360,-1.044031,1.811968,0.504403,0.018179,-0.435856,-0.207476,-0.149749,-0.435873,0.338292,0.151074,0.030561,36.317791,21.457016,9.973326,0.285123,1.890670,0.054794,0.000000,0.000000,0.000000,0.000000,0.000000,0.000000
11944407.000000,2.301995,-1.082764,-1.892778,-1.484508,-1.044464,1.812314,0.504551,0.017794,-0.433940,-0.207394,-0.148434,-0.434812,0.343902,0.148536,0.105939,36.317791,21.532394,10.048704,0.273221,1.884261,0.120712,0.000000,0.000000,0.000000,0.000000,0.000000,0.000000
11944408.000000,2.302010,-1.083198,-1.892992,-1.484659,-1.044893,1.812658,0.504711,0.017153,-0.433655,-0.206626,-0.149608,-0.433664,0.343776,0.151126,0.205121,36.270184,21.607773,10.096312,0.362943,1.865035,0.061202,0.000000,0.000000,0.000000,0.000000,0.000000,0.000000
11944409.000000,2.302029,-1.083634,-1.893205,-1.484813,-1.045321,1.812996,0.504860,0.014829,-0.441110,-0.207542,-0.152081,-0.431274,0.344140,0.153317,0.252729,36.218609,21.726791,10.195494,0.362943,1.832076,0.100570,0.000000,0.000000,0.000000,0.000000,0.000000,0.000000
11944410.000000,2.302044,-1.084071,-1.893415,-1.484960,-1.045752,1.813338,0.505018,0.015751,-0.443175,-0.206693,-0.148098,-0.432732,0.341379,0.154652,0.328107,36.194805,21.778366,10.195494,0.369352,1.858627,0.061202,0.000000,0.000000,0.000000,0.000000,0.000000,0.000000
11944411.000000,2.302060,-1.084496,-1.893615,-1.485107,-1.046189,1.813671,0.505172,0.016641,-0.430939,-0.203076,-0.145381,-0.434237,0.341085,0.157499,0.403486,35.976604,21.702988,10.195494,0.398649,1.936446,0.081344,0.000000,0.000000,0.000000,0.000000,0.000000,0.000000
11944412.000000,2.302079,-1.084924,-1.893823,-1.485259,-1.046624,1.814011,0.505328,0.018079,-0.430827,-0.205959,-0.145780,-0.435677,0.339838,0.156055,0.451093,35.853619,21.726791,10.294676,0.332731,1.968490,0.074935,0.000000,0.000000,0.000000,0.000000,0.000000,0.000000
11944413.000000,2.302092,-1.085353,-1.894029,-1.485404,-1.047053,1.814349,0.505481,0.017909,-0.424109,-0.200478,-0.145629,-0.433705,0.339752,0.154504,0.550275,35.730633,21.702988,10.270872,0.279630,1.974899,0.074935,0.000000,0.000000,0.000000,0.000000,0.000000,0.000000
11944414.000000,2.302107,-1.085798,-1.894229,-1.485549,-1.047489,1.814686,0.505641,0.015332,-0.429461,-0.201599,-0.142990,-0.430713,0.345183,0.154636,0.625654,35.754436,21.655380,10.243101,0.315336,1.968490,0.048385,0.000000,0.000000,0.000000,0.000000,0.000000,0.000000
