chaoyuefei/paper-gmrm-data/robot_logs/s2_dq_mrm_min_0.30_log_20260314_172604.csv
# time_ms,q_0,q_1,q_2,q_3,q_4,q_5,q_6,dq_0,dq_1,dq_2,dq_3,dq_4,dq_5,dq_6,tau_J_0,tau_J_1,tau_J_2,tau_J_3,tau_J_4,tau_J_5,tau_J_6,O_dP_EE_c_0,O_dP_EE_c_1,O_dP_EE_c_2,O_dP_EE_c_3,O_dP_EE_c_4,O_dP_EE_c_5
11826108.000000,-2.418273,-1.662614,1.039429,-1.352486,1.798449,1.078669,-0.546420,0.000120,0.000290,0.000387,0.000138,0.000724,-0.000053,0.000075,-0.044818,41.606182,-20.953262,-5.820436,0.852750,1.357833,0.015426,0.000000,0.000000,0.000000,0.000000,0.000000,0.000000
11826109.000000,-2.418273,-1.662612,1.039427,-1.352490,1.798445,1.078670,-0.546427,0.000080,0.000843,-0.000299,-0.000465,-0.000840,0.000236,-0.002154,-0.044818,41.578411,-20.929459,-5.796632,0.888456,1.350509,0.074935,0.000000,0.000000,0.000000,0.000000,0.000000,0.000000
11826110.000000,-2.418273,-1.662612,1.039429,-1.352485,1.798446,1.078671,-0.546419,0.000053,0.000562,0.000358,0.000897,-0.000356,0.000395,0.001276,-0.044818,41.578411,-20.953262,-5.848207,0.882963,1.344100,0.001693,0.000000,0.000000,0.000000,0.000000,0.000000,0.000000
11826111.000000,-2.418273,-1.662619,1.039427,-1.352488,1.798449,1.078671,-0.546425,0.000036,-0.001388,-0.000318,-0.000609,0.000644,0.000263,-0.001353,-0.044818,41.653790,-20.929459,-5.796632,0.859159,1.344100,0.061202,0.000000,0.000000,0.000000,0.000000,0.000000,0.000000
11826112.000000,-2.418268,-1.662619,1.039426,-1.352489,1.798447,1.078668,-0.546427,0.005491,-0.002208,-0.000769,-0.002169,-0.008517,0.007629,-0.003897,0.252729,41.578411,-20.905655,-5.721254,0.852750,1.396285,0.021835,0.000000,0.000000,0.000000,0.000000,0.000000,0.000000
11826113.000000,-2.418257,-1.662622,1.039430,-1.352483,1.798445,1.078663,-0.546437,0.015259,-0.002804,0.001881,0.002598,-0.008036,0.008923,-0.008582,1.268354,41.360210,-20.877884,-5.626039,0.769437,1.565658,-0.056901,0.000000,0.000000,0.000000,0.000000,0.000000,0.000000
11826114.000000,-2.418230,-1.662623,1.039441,-1.352480,1.798443,1.078662,-0.546469,0.021472,-0.002268,0.007135,0.005711,-0.006573,0.008524,-0.016732,2.827497,40.943645,-20.854080,-5.376100,0.644010,1.786300,-0.023942,0.000000,0.000000,0.000000,0.000000,0.000000,0.000000
11826115.000000,-2.418182,-1.662622,1.039457,-1.352488,1.798423,1.078682,-0.546503,0.026558,-0.000762,0.010675,0.001991,-0.009764,0.008896,-0.022995,4.707990,40.455669,-20.806473,-4.983339,0.632108,1.877853,-0.089860,0.000000,0.000000,0.000000,0.000000,0.000000,0.000000
11826116.000000,-2.418118,-1.662617,1.039477,-1.352502,1.798401,1.078735,-0.546559,0.038011,0.001456,0.012611,-0.006560,-0.011966,0.020458,-0.034841,6.592451,39.892315,-20.731094,-4.586610,0.620206,1.786300,-0.083451,0.000000,0.000000,0.000000,0.000000,0.000000,0.000000
11826117.000000,-2.418027,-1.662615,1.039502,-1.352528,1.798360,1.078815,-0.546637,0.049788,0.004050,0.016721,-0.012610,-0.024873,0.042820,-0.049425,8.175397,39.400372,-20.631912,-4.189882,0.661405,1.565658,-0.037675,0.000000,0.000000,0.000000,0.000000,0.000000,0.000000
11826118.000000,-2.417930,-1.662613,1.039543,-1.352569,1.798311,1.078913,-0.546721,0.061127,0.005109,0.025406,-0.021158,-0.033494,0.061466,-0.060712,9.659162,38.936199,-20.631912,-3.745546,0.679716,1.396285,-0.103593,0.000000,0.000000,0.000000,0.000000,0.000000,0.000000
11826119.000000,-2.417808,-1.662610,1.039589,-1.352622,1.798243,1.079024,-0.546844,0.080285,0.004922,0.033852,-0.031914,-0.045041,0.080782,-0.082220,10.825543,38.519634,-20.584305,-3.376589,0.715421,1.324874,-0.044083,0.000000,0.000000,0.000000,0.000000,0.000000,0.000000
11826120.000000,-2.417679,-1.662607,1.039647,-1.352683,1.798169,1.079157,-0.546979,0.093318,0.006683,0.040167,-0.041304,-0.055473,0.097420,-0.100226,11.888776,38.154644,-20.536697,-3.079042,0.667814,1.331283,-0.044083,0.000000,0.000000,0.000000,0.000000,0.000000,0.000000
11826121.000000,-2.417539,-1.662600,1.039715,-1.352752,1.798077,1.079303,-0.547125,0.107115,0.007543,0.048655,-0.051751,-0.065222,0.115563,-0.110968,12.904401,37.809490,-20.512894,-2.904482,0.542386,1.448470,-0.110001,0.000000,0.000000,0.000000,0.000000,0.000000,0.000000
11826122.000000,-2.417390,-1.662585,1.039797,-1.352834,1.797958,1.079474,-0.547293,0.119317,0.009994,0.059088,-0.059369,-0.084237,0.134194,-0.126708,13.820844,37.392925,-20.536697,-2.757692,0.464567,1.572067,-0.097184,0.000000,0.000000,0.000000,0.000000,0.000000,0.000000
11826123.000000,-2.417220,-1.662573,1.039904,-1.352942,1.797824,1.079687,-0.547470,0.134853,0.013715,0.079578,-0.073377,-0.097711,0.160219,-0.143511,14.562726,37.027935,-20.731094,-2.535524,0.362943,1.617843,-0.064225,0.000000,0.000000,0.000000,0.000000,0.000000,0.000000
11826124.000000,-2.417030,-1.662554,1.040007,-1.353062,1.797660,1.079930,-0.547658,0.152297,0.016659,0.088139,-0.088591,-0.121063,0.196061,-0.155377,15.030866,36.658978,-20.754898,-2.384767,0.374845,1.572067,-0.044083,0.000000,0.000000,0.000000,0.000000,0.000000,0.000000
11826125.000000,-2.416830,-1.662535,1.040142,-1.353195,1.797475,1.080201,-0.547836,0.164410,0.018808,0.101751,-0.102757,-0.141330,0.225270,-0.161873,15.526776,36.293987,-20.953262,-2.261781,0.452665,1.494247,-0.089860,0.000000,0.000000,0.000000,0.000000,0.000000,0.000000
11826126.000000,-2.416601,-1.662515,1.040281,-1.353342,1.797270,1.080491,-0.548022,0.187660,0.019986,0.114184,-0.117494,-0.159860,0.245408,-0.168446,15.772748,35.948833,-21.123856,-2.214174,0.506681,1.454879,-0.089860,0.000000,0.000000,0.000000,0.000000,0.000000,0.000000
11826127.000000,-2.416368,-1.662498,1.040443,-1.353509,1.797041,1.080806,-0.548209,0.200886,0.019721,0.126222,-0.134344,-0.179051,0.269017,-0.173636,16.022688,35.655254,-21.294449,-2.091188,0.589994,1.454879,-0.089860,0.000000,0.000000,0.000000,0.000000,0.000000,0.000000
11826128.000000,-2.416117,-1.662483,1.040610,-1.353692,1.796800,1.081144,-0.548400,0.215394,0.017342,0.137017,-0.150093,-0.203896,0.285728,-0.176712,16.296431,35.460857,-21.393631,-2.091188,0.571683,1.461288,-0.110001,0.000000,0.000000,0.000000,0.000000,0.000000,0.000000
11826129.000000,-2.415847,-1.662467,1.040784,-1.353897,1.796537,1.081506,-0.548595,0.233378,0.022010,0.150744,-0.163209,-0.225253,0.308521,-0.180854,16.419416,35.266460,-21.469009,-2.039613,0.518583,1.461288,-0.077042,0.000000,0.000000,0.000000,0.000000,0.000000,0.000000
11826130.000000,-2.415570,-1.662457,1.040971,-1.354112,1.796258,1.081870,-0.548783,0.246549,0.017309,0.160375,-0.179478,-0.245094,0.327174,-0.185898,16.665388,35.167278,-21.516617,-1.992006,0.458158,1.546432,-0.116410,0.000000,0.000000,0.000000,0.000000,0.000000,0.000000
11826131.000000,-2.415259,-1.662452,1.041158,-1.354344,1.795973,1.082262,-0.548980,0.262275,0.012332,0.167840,-0.195173,-0.255658,0.339208,-0.191291,16.641584,35.143475,-21.417435,-1.916628,0.356534,1.670028,-0.097184,0.000000,0.000000,0.000000,0.000000,0.000000,0.000000
11826132.000000,-2.414940,-1.662449,1.041369,-1.354598,1.795658,1.082666,-0.549175,0.279170,0.007842,0.179632,-0.217141,-0.276366,0.355978,-0.187702,16.665388,35.167278,-21.445206,-1.769838,0.351041,1.747848,-0.077042,0.000000,0.000000,0.000000,0.000000,0.000000,0.000000
11826133.000000,-2.414610,-1.662447,1.041579,-1.354873,1.795329,1.083111,-0.549357,0.295189,0.005361,0.188187,-0.235080,-0.291208,0.386691,-0.186222,16.764570,35.167278,-21.322220,-1.619081,0.320829,1.721298,-0.116410,0.000000,0.000000,0.000000,0.000000,0.000000,0.000000
11826134.000000,-2.414254,-1.662451,1.041795,-1.355163,1.794978,1.083589,-0.549551,0.321397,0.002004,0.194733,-0.247603,-0.304636,0.412084,-0.191503,16.716963,35.238689,-21.199234,-1.472292,0.356534,1.617843,-0.103593,0.000000,0.000000,0.000000,0.000000,0.000000,0.000000
11826135.000000,-2.413889,-1.662448,1.042031,-1.355464,1.794613,1.084068,-0.549740,0.335996,0.002524,0.207335,-0.262619,-0.325151,0.434070,-0.190773,16.689192,35.191082,-21.123856,-1.373109,0.416959,1.552840,-0.103593,0.000000,0.000000,0.000000,0.000000,0.000000,0.000000
11826136.000000,-2.413524,-1.662453,1.042272,-1.355776,1.794228,1.084584,-0.549928,0.343737,0.000625,0.216983,-0.275704,-0.348297,0.457807,-0.185217,16.911360,35.238689,-21.052444,-1.321535,0.440763,1.513473,-0.130143,0.000000,0.000000,0.000000,0.000000,0.000000,0.000000
11826137.000000,-2.413149,-1.662454,1.042527,-1.356100,1.793820,1.085111,-0.550120,0.351824,-0.000191,0.227766,-0.288711,-0.365779,0.473041,-0.187520,17.085920,35.266460,-21.000870,-1.297731,0.494779,1.500655,-0.097184,0.000000,0.000000,0.000000,0.000000,0.000000,0.000000
11826138.000000,-2.412757,-1.662458,1.042788,-1.356431,1.793408,1.085667,-0.550298,0.366224,-0.001766,0.234792,-0.304130,-0.377902,0.496223,-0.185830,17.308088,35.337872,-20.905655,-1.297731,0.500272,1.494247,-0.149369,0.000000,0.000000,0.000000,0.000000,0.000000,0.000000
11826139.000000,-2.412351,-1.662458,1.043058,-1.356780,1.792972,1.086234,-0.550481,0.376377,-0.001154,0.245499,-0.315417,-0.393172,0.514525,-0.188355,17.558027,35.337872,-20.905655,-1.273927,0.422452,1.597701,-0.089860,0.000000,0.000000,0.000000,0.000000,0.000000,0.000000
11826140.000000,-2.411939,-1.662455,1.043339,-1.357140,1.792517,1.086818,-0.550653,0.387810,0.000362,0.254666,-0.331149,-0.407858,0.539729,-0.183588,17.803999,35.290264,-20.854080,-1.250124,0.422452,1.643478,-0.103593,0.000000,0.000000,0.000000,0.000000,0.000000,0.000000
11826141.000000,-2.411509,-1.662455,1.043632,-1.357516,1.792062,1.087446,-0.550826,0.402263,0.000255,0.272889,-0.340984,-0.427669,0.566256,-0.179489,18.026167,35.290264,-20.806473,-1.174745,0.398649,1.584884,-0.136552,0.000000,0.000000,0.000000,0.000000,0.000000,0.000000
11826142.000000,-2.411065,-1.662451,1.043931,-1.357920,1.791573,1.088106,-0.551005,0.415757,0.001386,0.281554,-0.361246,-0.439040,0.613086,-0.179352,18.176924,35.238689,-20.731094,-0.952577,0.428861,1.474105,-0.089860,0.000000,0.000000,0.000000,0.000000,0.000000,0.000000
11826143.000000,-2.410603,-1.662444,1.044251,-1.358323,1.791083,1.088775,-0.551166,0.428438,0.003159,0.291038,-0.374991,-0.460182,0.629102,-0.175379,18.347517,35.143475,-20.782669,-0.778017,0.476469,1.344100,-0.142960,0.000000,0.000000,0.000000,0.000000,0.000000,0.000000
11826144.000000,-2.410123,-1.662438,1.044568,-1.358749,1.790569,1.089462,-0.551332,0.441135,0.004432,0.302011,-0.390402,-0.479056,0.648360,-0.174039,18.498274,35.044292,-20.731094,-0.607423,0.547880,1.259872,-0.149369,0.000000,0.000000,0.000000,0.000000,0.000000,0.000000
11826145.000000,-2.409641,-1.662433,1.044896,-1.359179,1.790046,1.090147,-0.551502,0.450113,0.006110,0.311174,-0.404388,-0.490091,0.659383,-0.174441,18.422895,35.044292,-20.608109,-0.508241,0.655912,1.272689,-0.103593,0.000000,0.000000,0.000000,0.000000,0.000000,0.000000
11826146.000000,-2.409148,-1.662416,1.045238,-1.359636,1.789527,1.090863,-0.551658,0.454392,0.008887,0.322923,-0.421493,-0.498529,0.674376,-0.166868,17.728621,34.849895,-20.239151,-0.508241,0.769437,1.344100,-0.169511,0.000000,0.000000,0.000000,0.000000,0.000000,0.000000
11826147.000000,-2.408676,-1.662409,1.045607,-1.360104,1.789000,1.091596,-0.551827,0.461310,0.003278,0.341642,-0.433799,-0.505113,0.692907,-0.165800,16.590010,34.703106,-19.897964,-0.805788,0.805143,1.383468,-0.116410,0.000000,0.000000,0.000000,0.000000,0.000000,0.000000
11826148.000000,-2.408201,-1.662391,1.046002,-1.360577,1.788476,1.092336,-0.551989,0.460964,0.007952,0.360251,-0.443644,-0.510973,0.710882,-0.162998,14.907880,34.310345,-19.334610,-1.273927,0.817045,1.442062,-0.122819,0.000000,0.000000,0.000000,0.000000,0.000000,0.000000
11826149.000000,-2.407726,-1.662376,1.046411,-1.361067,1.787970,1.093104,-0.552146,0.467322,0.008874,0.378092,-0.455053,-0.503460,0.724465,-0.162627,12.975812,33.869976,-18.644302,-1.670656,0.637601,1.461288,-0.182328,0.000000,0.000000,0.000000,0.000000,0.000000,0.000000
11826150.000000,-2.407266,-1.662365,1.046862,-1.361552,1.787456,1.093877,-0.552317,0.468972,0.008972,0.396720,-0.471166,-0.504539,0.736365,-0.164200,11.095319,33.429607,-18.005569,-2.114992,0.518583,1.357833,-0.103593,0.000000,0.000000,0.000000,0.000000,0.000000,0.000000
11826151.000000,-2.406810,-1.662366,1.047323,-1.362055,1.786960,1.094669,-0.552474,0.471414,0.005322,0.413976,-0.479432,-0.504144,0.746596,-0.159525,9.361615,33.136028,-17.224014,-2.436342,0.332731,1.207687,-0.163102,0.000000,0.000000,0.000000,0.000000,0.000000,0.000000
11826152.000000,-2.406350,-1.662366,1.047805,-1.362565,1.786465,1.095464,-0.552637,0.469444,0.003107,0.430267,-0.485758,-0.495554,0.762287,-0.159171,7.778669,32.818645,-16.680496,-2.606935,0.183500,1.064864,-0.136552,0.000000,0.000000,0.000000,0.000000,0.000000,0.000000
11826153.000000,-2.405901,-1.662364,1.048297,-1.363054,1.785975,1.096234,-0.552795,0.466338,0.004806,0.446684,-0.485847,-0.496838,0.758678,-0.157709,6.394086,32.497295,-16.069534,-2.856874,0.100187,0.954086,-0.142960,0.000000,0.000000,0.000000,0.000000,0.000000,0.000000
11826154.000000,-2.405457,-1.662367,1.048785,-1.363541,1.785489,1.097014,-0.552946,0.459615,0.001746,0.458240,-0.480511,-0.494802,0.758047,-0.152705,5.326887,32.231487,-15.430801,-3.178224,0.064481,0.876266,-0.149369,0.000000,0.000000,0.000000,0.000000,0.000000,0.000000
11826155.000000,-2.405018,-1.662374,1.049288,-1.364017,1.784999,1.097781,-0.553101,0.452443,-0.002519,0.469359,-0.473783,-0.492166,0.778132,-0.153879,4.410444,32.056927,-14.891251,-3.523378,0.159696,0.798446,-0.130143,0.000000,0.000000,0.000000,0.000000,0.000000,0.000000
11826156.000000,-2.404569,-1.662382,1.049782,-1.364485,1.784517,1.098548,-0.553252,0.448194,-0.004920,0.472607,-0.469407,-0.490276,0.770327,-0.148996,3.620954,31.862530,-14.153336,-3.820925,0.243009,0.830489,-0.149369,0.000000,0.000000,0.000000,0.000000,0.000000,0.000000
11826157.000000,-2.404116,-1.662389,1.050290,-1.364966,1.784033,1.099305,-0.553412,0.445051,-0.006740,0.483460,-0.470130,-0.482907,0.767089,-0.151392,2.851301,31.668133,-13.736771,-3.892336,0.303434,0.928451,-0.116410,0.000000,0.000000,0.000000,0.000000,0.000000,0.000000
11826158.000000,-2.403660,-1.662398,1.050788,-1.365442,1.783558,1.100051,-0.553559,0.446262,-0.009232,0.485156,-0.468452,-0.476009,0.755277,-0.150604,2.109418,31.521343,-13.121841,-3.820925,0.327238,1.039230,-0.155778,0.000000,0.000000,0.000000,0.000000,0.000000,0.000000
11826159.000000,-2.403190,-1.662403,1.051298,-1.365934,1.783084,1.100818,-0.553715,0.446553,-0.010299,0.497849,-0.475064,-0.474631,0.755268,-0.152785,1.367536,31.346783,-12.657669,-3.523378,0.327238,1.006271,-0.122819,0.000000,0.000000,0.000000,0.000000,0.000000,0.000000
11826160.000000,-2.402716,-1.662402,1.051805,-1.366429,1.782622,1.101594,-0.553873,0.451607,-0.006304,0.499470,-0.478388,-0.465841,0.774414,-0.154424,0.601850,31.104778,-12.288712,-3.126650,0.273221,0.857040,-0.110001,0.000000,0.000000,0.000000,0.000000,0.000000,0.000000
11826161.000000,-2.402243,-1.662390,1.052332,-1.366915,1.782171,1.102348,-0.554019,0.455325,-0.000472,0.505134,-0.480708,-0.474790,0.766083,-0.152470,-0.017047,30.735821,-12.141922,-2.856874,0.171598,0.811263,-0.163102,0.000000,0.000000,0.000000,0.000000,0.000000,0.000000
11826162.000000,-2.401763,-1.662381,1.052858,-1.367399,1.781715,1.103103,-0.554172,0.459620,0.001951,0.516550,-0.480376,-0.470207,0.759436,-0.154848,-0.564532,30.442242,-12.042740,-2.606935,0.069974,0.863448,-0.122819,0.000000,0.000000,0.000000,0.000000,0.000000,0.000000
11826163.000000,-2.401293,-1.662363,1.053385,-1.367858,1.781256,1.103840,-0.554323,0.463521,0.009059,0.519134,-0.474261,-0.465797,0.756333,-0.157526,-0.961260,30.049480,-11.872147,-2.658510,0.064481,0.915633,-0.136552,0.000000,0.000000,0.000000,0.000000,0.000000,0.000000
11826164.000000,-2.400830,-1.662347,1.053920,-1.368323,1.780797,1.104589,-0.554476,0.457349,0.010343,0.520891,-0.471810,-0.467161,0.747193,-0.155798,-1.131854,29.684490,-11.673782,-2.757692,0.052579,0.999862,-0.163102,0.000000,0.000000,0.000000,0.000000,0.000000,0.000000
11826165.000000,-2.400371,-1.662324,1.054462,-1.368784,1.780333,1.105332,-0.554638,0.464788,0.013100,0.531456,-0.461349,-0.464514,0.742862,-0.156972,-1.330218,29.244122,-11.602371,-2.856874,0.093778,1.169235,-0.122819,0.000000,0.000000,0.000000,0.000000,0.000000,0.000000
11826166.000000,-2.399897,-1.662305,1.055019,-1.369229,1.779878,1.106068,-0.554788,0.465567,0.016311,0.537810,-0.457591,-0.458136,0.734927,-0.154756,-1.580157,28.875164,-11.503189,-3.055238,0.129484,1.227828,-0.169511,0.000000,0.000000,0.000000,0.000000,0.000000,0.000000
11826167.000000,-2.399420,-1.662278,1.055576,-1.369676,1.779419,1.106835,-0.554951,0.469045,0.017344,0.543803,-0.451877,-0.453813,0.742930,-0.156527,-1.826129,28.434795,-11.455582,-3.225832,0.178007,1.123458,-0.116410,0.000000,0.000000,0.000000,0.000000,0.000000,0.000000
11826168.000000,-2.398947,-1.662261,1.056143,-1.370137,1.778963,1.107605,-0.555107,0.471034,0.017027,0.548778,-0.448701,-0.453698,0.758264,-0.154467,-2.171282,28.165020,-11.281021,-3.249635,0.213712,0.922042,-0.155778,0.000000,0.000000,0.000000,0.000000,0.000000,0.000000
11826169.000000,-2.398462,-1.662242,1.056731,-1.370576,1.778517,1.108371,-0.555265,0.475867,0.022023,0.558986,-0.446840,-0.453564,0.753926,-0.155964,-2.544207,27.946819,-11.233414,-3.249635,0.231107,0.869857,-0.116410,0.000000,0.000000,0.000000,0.000000,0.000000,0.000000
11826170.000000,-2.397974,-1.662229,1.057295,-1.371016,1.778068,1.109126,-0.555414,0.474048,0.017043,0.558111,-0.439276,-0.446015,0.751425,-0.154076,-2.917132,27.847637,-10.963638,-3.348818,0.178007,0.928451,-0.149369,0.000000,0.000000,0.000000,0.000000,0.000000,0.000000
11826171.000000,-2.397490,-1.662218,1.057879,-1.371446,1.777622,1.109872,-0.555572,0.476583,0.015774,0.562109,-0.438128,-0.442608,0.746238,-0.155911,-3.210711,27.800030,-10.693863,-3.424196,0.178007,0.960494,-0.103593,0.000000,0.000000,0.000000,0.000000,0.000000,0.000000
11826172.000000,-2.396997,-1.662208,1.058453,-1.371874,1.777196,1.110639,-0.555722,0.476503,0.013974,0.560616,-0.432073,-0.441413,0.748196,-0.154904,-3.583636,27.800030,-10.301102,-3.570986,0.081876,0.928451,-0.136552,0.000000,0.000000,0.000000,0.000000,0.000000,0.000000
11826173.000000,-2.396502,-1.662206,1.059051,-1.372294,1.776758,1.111382,-0.555869,0.481597,0.008131,0.571988,-0.427578,-0.432359,0.765063,-0.153557,-4.004168,27.871441,-10.031326,-3.745546,0.046171,0.908309,-0.169511,0.000000,0.000000,0.000000,0.000000,0.000000,0.000000
11826174.000000,-2.396004,-1.662201,1.059666,-1.372708,1.776331,1.112136,-0.556024,0.486790,0.005228,0.579941,-0.422158,-0.428781,0.756527,-0.152049,-4.349322,27.895245,-9.860733,-3.868532,0.058073,0.922042,-0.116410,0.000000,0.000000,0.000000,0.000000,0.000000,0.000000
11826175.000000,-2.395502,-1.662200,1.060279,-1.373118,1.775898,1.112892,-0.556168,0.487913,0.005150,0.589863,-0.418327,-0.433377,0.754875,-0.149823,-4.722247,27.970623,-9.737747,-4.066896,0.027860,0.954086,-0.182328,0.000000,0.000000,0.000000,0.000000,0.000000,0.000000
11826176.000000,-2.395008,-1.662204,1.060909,-1.373521,1.775461,1.113631,-0.556319,0.491082,0.004063,0.595818,-0.413603,-0.430156,0.750293,-0.148254,-5.067400,28.093609,-9.614761,-4.265260,0.064481,0.947677,-0.142960,0.000000,0.000000,0.000000,0.000000,0.000000,0.000000
11826177.000000,-2.394505,-1.662206,1.061554,-1.373927,1.775040,1.114387,-0.556470,0.492199,0.001642,0.621877,-0.412555,-0.425919,0.750899,-0.146395,-5.392718,28.165020,-9.563187,-4.364442,0.052579,0.934859,-0.116410,0.000000,0.000000,0.000000,0.000000,0.000000,0.000000
11826178.000000,-2.394005,-1.662208,1.062202,-1.374326,1.774617,1.115151,-0.556609,0.496792,-0.000216,0.631553,-0.406813,-0.424163,0.755683,-0.142561,-5.714068,28.240398,-9.638565,-4.535036,-0.019747,0.960494,-0.169511,0.000000,0.000000,0.000000,0.000000,0.000000,0.000000
11826179.000000,-2.393493,-1.662205,1.062888,-1.374718,1.774198,1.115888,-0.556759,0.503035,0.001310,0.645406,-0.403662,-0.428122,0.745968,-0.148610,-6.134600,28.192791,-9.884537,-4.661989,-0.049044,0.960494,-0.089860,0.000000,0.000000,0.000000,0.000000,0.000000,0.000000
11826180.000000,-2.392981,-1.662209,1.063562,-1.375117,1.773783,1.116660,-0.556905,0.501909,-0.000543,0.653163,-0.399063,-0.422711,0.751281,-0.144179,-6.455950,28.264202,-10.007523,-4.709596,-0.109469,0.830489,-0.122819,0.000000,0.000000,0.000000,0.000000,0.000000,0.000000
11826181.000000,-2.392473,-1.662217,1.064259,-1.375505,1.773350,1.117409,-0.557048,0.504293,-0.002491,0.661414,-0.407160,-0.426222,0.756850,-0.144921,-6.777300,28.363384,-10.154312,-4.733400,-0.091158,0.817672,-0.149369,0.000000,0.000000,0.000000,0.000000,0.000000,0.000000
11826182.000000,-2.391960,-1.662218,1.064964,-1.375888,1.772925,1.118140,-0.557197,0.500522,-0.001517,0.668456,-0.399677,-0.426613,0.742263,-0.148986,-7.150225,28.363384,-10.301102,-4.884157,-0.013339,1.058456,-0.103593,0.000000,0.000000,0.000000,0.000000,0.000000,0.000000
11826183.000000,-2.391444,-1.662223,1.065666,-1.376288,1.772508,1.118882,-0.557334,0.511314,-0.002574,0.684167,-0.398583,-0.423271,0.740036,-0.142419,-7.420001,28.434795,-10.372513,-4.832582,-0.001437,1.201278,-0.196061,0.000000,0.000000,0.000000,0.000000,0.000000,0.000000
11826184.000000,-2.390923,-1.662239,1.066384,-1.376674,1.772072,1.119622,-0.557484,0.517699,-0.006833,0.691618,-0.394833,-0.424142,0.739265,-0.140046,-7.864336,28.656963,-10.324905,-4.907960,0.076383,1.214095,-0.149369,0.000000,0.000000,0.000000,0.000000,0.000000,0.000000
11826185.000000,-2.390410,-1.662247,1.067097,-1.377069,1.771652,1.120381,-0.557625,0.513670,-0.013687,0.698605,-0.396323,-0.423715,0.745477,-0.142462,-8.114276,28.779949,-10.253494,-4.907960,0.135892,1.123458,-0.175919,0.000000,0.000000,0.000000,0.000000,0.000000,0.000000
11826186.000000,-2.389902,-1.662260,1.067834,-1.377469,1.771237,1.121107,-0.557769,0.512333,-0.013040,0.701414,-0.400828,-0.423795,0.738067,-0.141359,-8.388019,28.926739,-10.201920,-4.784975,0.100187,1.142684,-0.182328,0.000000,0.000000,0.000000,0.000000,0.000000,0.000000
11826187.000000,-2.389387,-1.662269,1.068587,-1.377876,1.770821,1.121845,-0.557907,0.510398,-0.011838,0.708586,-0.401663,-0.416044,0.736727,-0.140642,-8.633990,29.045757,-10.225723,-4.610414,0.081876,1.175643,-0.175919,0.000000,0.000000,0.000000,0.000000,0.000000,0.000000
11826188.000000,-2.388875,-1.662282,1.069330,-1.378288,1.770401,1.122592,-0.558050,0.509513,-0.014199,0.718798,-0.401508,-0.410860,0.738095,-0.139116,-8.733172,29.168743,-10.055130,-4.439821,0.081876,1.136276,-0.188737,0.000000,0.000000,0.000000,0.000000,0.000000,0.000000
11826189.000000,-2.388383,-1.662298,1.070088,-1.378681,1.769990,1.123325,-0.558200,0.506784,-0.017160,0.728277,-0.395965,-0.410912,0.731275,-0.145885,-8.733172,29.343304,-9.884537,-4.388246,0.069974,1.058456,-0.110001,0.000000,0.000000,0.000000,0.000000,0.000000,0.000000
11826190.000000,-2.387881,-1.662303,1.070845,-1.379073,1.769581,1.124064,-0.558335,0.501729,-0.012608,0.752817,-0.392316,-0.410872,0.735177,-0.145592,-8.756976,29.367107,-9.638565,-4.439821,0.046171,1.064864,-0.182328,0.000000,0.000000,0.000000,0.000000,0.000000,0.000000
11826191.000000,-2.387397,-1.662308,1.071630,-1.379462,1.769171,1.124802,-0.558485,0.495091,-0.011999,0.761017,-0.386745,-0.405075,0.747336,-0.145657,-8.633990,29.367107,-9.563187,-4.511232,0.022367,1.123458,-0.122819,0.000000,0.000000,0.000000,0.000000,0.000000,0.000000
11826192.000000,-2.386908,-1.662312,1.072420,-1.379848,1.768768,1.125542,-0.558624,0.492999,-0.008605,0.765999,-0.385303,-0.406858,0.741642,-0.142976,-8.582416,29.367107,-9.317215,-4.610414,-0.001437,1.071273,-0.136552,0.000000,0.000000,0.000000,0.000000,0.000000,0.000000
11826193.000000,-2.386417,-1.662314,1.073192,-1.380241,1.768353,1.126288,-0.558762,0.490740,-0.004984,0.767232,-0.383322,-0.409216,0.740766,-0.139496,-8.511004,29.315533,-8.952225,-4.586610,0.010465,1.045638,-0.182328,0.000000,0.000000,0.000000,0.000000,0.000000,0.000000
11826194.000000,-2.385937,-1.662308,1.074002,-1.380635,1.767937,1.127031,-0.558907,0.489098,0.000327,0.776417,-0.386718,-0.412581,0.740315,-0.146265,-8.435626,29.144939,-8.853043,-4.511232,0.076383,1.019088,-0.103593,0.000000,0.000000,0.000000,0.000000,0.000000,0.000000
11826195.000000,-2.385444,-1.662305,1.074821,-1.381017,1.767541,1.127794,-0.559035,0.486725,0.002283,0.799406,-0.381184,-0.407232,0.740835,-0.140351,-8.483233,29.045757,-8.777664,-4.634218,0.052579,0.941268,-0.196061,0.000000,0.000000,0.000000,0.000000,0.000000,0.000000
11826196.000000,-2.384968,-1.662290,1.075641,-1.381409,1.767137,1.128563,-0.559174,0.492025,0.010275,0.801452,-0.384654,-0.402988,0.748305,-0.141212,-8.388019,28.926739,-8.924454,-4.709596,0.046171,0.830489,-0.169511,0.000000,0.000000,0.000000,0.000000,0.000000,0.000000
11826197.000000,-2.384491,-1.662291,1.076462,-1.381790,1.766749,1.129326,-0.559319,0.487366,0.009439,0.800344,-0.383784,-0.395613,0.754427,-0.142669,-8.062701,29.367107,-9.368790,-4.808778,0.022367,0.804855,-0.103593,0.000000,0.000000,0.000000,0.000000,0.000000,0.000000
11826198.000000,-2.384011,-1.662291,1.077258,-1.382179,1.766369,1.130089,-0.559452,0.483480,0.004738,0.796293,-0.381441,-0.394774,0.748593,-0.138349,-7.570757,30.025677,-10.007523,-4.808778,-0.001437,0.915633,-0.188737,0.000000,0.000000,0.000000,0.000000,0.000000,0.000000
11826199.000000,-2.383543,-1.662282,1.078063,-1.382559,1.765974,1.130829,-0.559599,0.479359,0.006658,0.793718,-0.386539,-0.390982,0.747830,-0.145269,-6.975665,30.759624,-10.987442,-4.856386,0.022367,1.090499,-0.097184,0.000000,0.000000,0.000000,0.000000,0.000000,0.000000
11826200.000000,-2.383058,-1.662275,1.078853,-1.382949,1.765597,1.131596,-0.559729,0.474718,0.005695,0.792874,-0.387360,-0.383956,0.750031,-0.140640,-6.479754,31.640362,-11.919754,-4.856386,0.046171,1.214095,-0.163102,0.000000,0.000000,0.000000,0.000000,0.000000,0.000000
11826201.000000,-2.382565,-1.662251,1.079639,-1.383338,1.765218,1.132375,-0.559869,0.477279,0.007375,0.795098,-0.385770,-0.383596,0.756098,-0.140066,-6.059222,32.326702,-13.026627,-4.808778,0.093778,1.227828,-0.155778,0.000000,0.000000,0.000000,0.000000,0.000000,0.000000
11826202.000000,-2.382084,-1.662225,1.080428,-1.383713,1.764830,1.133135,-0.560011,0.478234,0.010640,0.793089,-0.386813,-0.385535,0.751101,-0.137588,-5.737872,32.937664,-14.081924,-4.808778,0.195402,1.247054,-0.130143,0.000000,0.000000,0.000000,0.000000,0.000000,0.000000
11826203.000000,-2.381592,-1.662197,1.081214,-1.384102,1.764447,1.133908,-0.560145,0.480392,0.014620,0.792413,-0.385340,-0.386648,0.753136,-0.136735,-5.487933,33.477215,-14.990433,-4.733400,0.291532,1.324874,-0.142960,0.000000,0.000000,0.000000,0.000000,0.000000,0.000000
11826204.000000,-2.381106,-1.662168,1.082021,-1.384492,1.764060,1.134663,-0.560280,0.480167,0.019082,0.792640,-0.388767,-0.382485,0.754729,-0.137827,-5.293536,33.941387,-15.922745,-4.634218,0.416959,1.422836,-0.116410,0.000000,0.000000,0.000000,0.000000,0.000000,0.000000
11826205.000000,-2.380617,-1.662136,1.082826,-1.384882,1.763678,1.135403,-0.560404,0.479803,0.020823,0.795629,-0.388138,-0.385755,0.744415,-0.134619,-5.118975,34.334148,-16.557510,-4.511232,0.434354,1.597701,-0.196061,0.000000,0.000000,0.000000,0.000000,0.000000,0.000000
11826206.000000,-2.380136,-1.662111,1.083626,-1.385257,1.763298,1.136149,-0.560541,0.476537,0.021284,0.797789,-0.382406,-0.380513,0.741607,-0.137273,-4.797625,34.750713,-17.172440,-4.586610,0.381254,1.767074,-0.142960,0.000000,0.000000,0.000000,0.000000,0.000000,0.000000
11826207.000000,-2.379663,-1.662083,1.084445,-1.385633,1.762926,1.136892,-0.560670,0.477387,0.023175,0.801731,-0.379423,-0.371831,0.744886,-0.131433,-4.500079,35.091900,-17.688187,-4.661989,0.303434,1.806442,-0.182328,0.000000,0.000000,0.000000,0.000000,0.000000,0.000000
11826208.000000,-2.379191,-1.662062,1.085253,-1.386003,1.762555,1.137651,-0.560799,0.471291,0.020607,0.815197,-0.374559,-0.370321,0.745901,-0.128733,-4.202532,35.460857,-18.080948,-4.832582,0.231107,1.702071,-0.188737,0.000000,0.000000,0.000000,0.000000,0.000000,0.000000
11826209.000000,-2.378725,-1.662047,1.086083,-1.386378,1.762170,1.138383,-0.560941,0.469115,0.018579,0.819838,-0.368759,-0.369865,0.761797,-0.133581,-3.980364,35.829815,-18.426102,-4.983339,0.195402,1.727706,-0.116410,0.000000,0.000000,0.000000,0.000000,0.000000,0.000000
11826210.000000,-2.378247,-1.662044,1.086925,-1.386739,1.761788,1.139116,-0.561064,0.470051,0.010896,0.819957,-0.364959,-0.375917,0.752931,-0.132639,-3.857378,36.317791,-18.866470,-5.130128,0.166105,1.793624,-0.182328,0.000000,0.000000,0.000000,0.000000,0.000000,0.000000
11826211.000000,-2.377775,-1.662045,1.087758,-1.387106,1.761396,1.139868,-0.561202,0.468617,0.006005,0.822732,-0.360999,-0.378845,0.749339,-0.135365,-3.659014,36.781963,-19.160049,-5.276918,0.237516,1.760665,-0.136552,0.000000,0.000000,0.000000,0.000000,0.000000,0.000000
11826212.000000,-2.377309,-1.662061,1.088595,-1.387457,1.760991,1.140611,-0.561333,0.470663,-0.000472,0.818691,-0.357160,-0.382076,0.752736,-0.132712,-3.583636,37.369122,-19.406021,-5.499086,0.344633,1.578475,-0.103593,0.000000,0.000000,0.000000,0.000000,0.000000,0.000000
11826213.000000,-2.376833,-1.662077,1.089455,-1.387804,1.760600,1.141365,-0.561453,0.472064,-0.003792,0.841793,-0.354542,-0.381974,0.751689,-0.126521,-3.583636,37.908672,-19.774979,-5.848207,0.381254,1.474105,-0.182328,0.000000,0.000000,0.000000,0.000000,0.000000,0.000000
11826214.000000,-2.376354,-1.662099,1.090299,-1.388149,1.760218,1.142102,-0.561587,0.483479,-0.012511,0.839794,-0.348827,-0.384442,0.749547,-0.127007,-3.706622,38.448223,-20.068558,-6.117982,0.386747,1.526290,-0.142960,0.000000,0.000000,0.000000,0.000000,0.000000,0.000000
11826215.000000,-2.375875,-1.662127,1.091150,-1.388493,1.759826,1.142817,-0.561715,0.478153,-0.018890,0.839648,-0.349864,-0.389269,0.732595,-0.133365,-3.805804,38.983807,-20.266922,-6.292543,0.440763,1.637069,-0.155778,0.000000,0.000000,0.000000,0.000000,0.000000,0.000000
11826216.000000,-2.375387,-1.662170,1.091981,-1.388840,1.759444,1.143543,-0.561846,0.477223,-0.024123,0.834847,-0.346880,-0.385395,0.726818,-0.129628,-4.027972,39.670147,-20.389908,-6.463136,0.422452,1.773483,-0.163102,0.000000,0.000000,0.000000,0.000000,0.000000,0.000000
11826217.000000,-2.374906,-1.662205,1.092824,-1.389188,1.759064,1.144250,-0.561974,0.477780,-0.025573,0.832883,-0.356011,-0.376443,0.721941,-0.129975,-4.202532,40.134319,-20.461319,-6.490907,0.386747,1.968490,-0.188737,0.000000,0.000000,0.000000,0.000000,0.000000,0.000000
11826218.000000,-2.374411,-1.662245,1.093677,-1.389539,1.758684,1.144975,-0.562113,0.479745,-0.028088,0.833463,-0.353607,-0.380282,0.717857,-0.133835,-4.476275,40.650066,-20.707291,-6.590089,0.356534,2.066451,-0.136552,0.000000,0.000000,0.000000,0.000000,0.000000,0.000000
11826219.000000,-2.373924,-1.662283,1.094505,-1.389893,1.758303,1.145722,-0.562242,0.495917,-0.031424,0.831099,-0.352951,-0.378284,0.727217,-0.132899,-4.698443,41.090435,-20.707291,-6.613893,0.332731,1.949264,-0.175919,0.000000,0.000000,0.000000,0.000000,0.000000,0.000000
11826220.000000,-2.373433,-1.662319,1.095343,-1.390226,1.757926,1.146464,-0.562376,0.497489,-0.032976,0.828741,-0.348111,-0.374281,0.729918,-0.130819,-5.019793,41.483196,-20.754898,-6.836061,0.362943,1.819259,-0.149369,0.000000,0.000000,0.000000,0.000000,0.000000,0.000000
11826221.000000,-2.372946,-1.662353,1.096173,-1.390566,1.757560,1.147205,-0.562504,0.488502,-0.035872,0.828250,-0.342175,-0.380061,0.731992,-0.131558,-5.218157,41.800579,-20.782669,-7.006654,0.374845,1.754256,-0.169511,0.000000,0.000000,0.000000,0.000000,0.000000,0.000000
11826222.000000,-2.372464,-1.662389,1.097009,-1.390902,1.757183,1.147921,-0.562634,0.487796,-0.036232,0.827908,-0.344059,-0.378132,0.743871,-0.129369,-5.487933,42.169537,-20.782669,-7.205019,0.374845,1.832076,-0.163102,0.000000,0.000000,0.000000,0.000000,0.000000,0.000000
11826223.000000,-2.371985,-1.662422,1.097855,-1.391227,1.756814,1.148659,-0.562762,0.483178,-0.034796,0.826554,-0.334503,-0.374538,0.740409,-0.132827,-5.587115,42.463116,-20.754898,-7.454957,0.410551,1.877853,-0.122819,0.000000,0.000000,0.000000,0.000000,0.000000,0.000000
11826224.000000,-2.371507,-1.662456,1.098685,-1.391547,1.756452,1.149403,-0.562884,0.478639,-0.034542,0.826752,-0.326218,-0.373656,0.740867,-0.127666,-5.638690,42.780499,-20.754898,-7.748537,0.381254,1.844894,-0.169511,0.000000,0.000000,0.000000,0.000000,0.000000,0.000000
11826225.000000,-2.371033,-1.662478,1.099514,-1.391860,1.756082,1.150128,-0.563015,0.476987,-0.029131,0.820791,-0.323726,-0.373198,0.737953,-0.130802,-5.737872,42.875713,-20.560501,-8.046083,0.351041,1.767074,-0.149369,0.000000,0.000000,0.000000,0.000000,0.000000,0.000000
11826226.000000,-2.370559,-1.662508,1.100344,-1.392178,1.755729,1.150860,-0.563145,0.473961,-0.027542,0.834896,-0.320830,-0.367733,0.730114,-0.128650,-5.813250,43.050274,-20.608109,-8.268251,0.303434,1.786300,-0.142960,0.000000,0.000000,0.000000,0.000000,0.000000,0.000000
11826227.000000,-2.370087,-1.662528,1.101190,-1.392499,1.755383,1.151601,-0.563271,0.473351,-0.025977,0.834634,-0.322339,-0.359144,0.747322,-0.125518,-5.912432,43.074078,-20.683487,-8.466616,0.273221,1.747848,-0.169511,0.000000,0.000000,0.000000,0.000000,0.000000,0.000000
11826228.000000,-2.369603,-1.662556,1.102023,-1.392811,1.755027,1.152326,-0.563398,0.476579,-0.023819,0.828571,-0.317889,-0.367254,0.743919,-0.125758,-6.158404,43.173260,-20.608109,-8.641176,0.297025,1.747848,-0.130143,0.000000,0.000000,0.000000,0.000000,0.000000,0.000000
11826229.000000,-2.369135,-1.662574,1.102846,-1.393119,1.754670,1.153055,-0.563518,0.470080,-0.022590,0.824202,-0.312731,-0.360121,0.739287,-0.122645,-6.182208,43.145489,-20.560501,-8.839540,0.297025,1.786300,-0.169511,0.000000,0.000000,0.000000,0.000000,0.000000,0.000000
11826230.000000,-2.368674,-1.662592,1.103689,-1.393420,1.754320,1.153776,-0.563645,0.466920,-0.021483,0.823904,-0.311209,-0.352881,0.730630,-0.126380,-6.257586,43.097881,-20.683487,-9.109316,0.249418,1.871444,-0.149369,0.000000,0.000000,0.000000,0.000000,0.000000,0.000000
11826231.000000,-2.368212,-1.662611,1.104545,-1.393719,1.753984,1.154509,-0.563764,0.463531,-0.021627,0.827427,-0.302632,-0.351422,0.725750,-0.124080,-6.206011,43.074078,-20.905655,-9.430666,0.159696,1.897079,-0.169511,0.000000,0.000000,0.000000,0.000000,0.000000,0.000000
11826232.000000,-2.367763,-1.662631,1.105368,-1.394020,1.753638,1.155245,-0.563887,0.467499,-0.021964,0.820726,-0.300387,-0.349968,0.730626,-0.123391,-6.083025,43.050274,-20.929459,-9.704409,0.081876,1.825668,-0.175919,0.000000,0.000000,0.000000,0.000000,0.000000,0.000000
11826233.000000,-2.367309,-1.662649,1.106212,-1.394317,1.753283,1.155983,-0.564006,0.462023,-0.019161,0.817963,-0.298917,-0.348899,0.735626,-0.123055,-6.011614,43.026470,-21.076248,-9.974184,0.112089,1.735030,-0.163102,0.000000,0.000000,0.000000,0.000000,0.000000,0.000000
11826234.000000,-2.366851,-1.662666,1.107042,-1.394618,1.752947,1.156712,-0.564125,0.458237,-0.016905,0.822705,-0.294381,-0.341338,0.736973,-0.122206,-5.960040,42.998699,-21.322220,-10.097170,0.093778,1.786300,-0.169511,0.000000,0.000000,0.000000,0.000000,0.000000,0.000000
11826235.000000,-2.366410,-1.662683,1.107881,-1.394913,1.752607,1.157416,-0.564251,0.452361,-0.014202,0.821125,-0.301554,-0.343331,0.726027,-0.127222,-5.761675,42.927288,-21.393631,-10.247927,0.046171,1.942855,-0.136552,0.000000,0.000000,0.000000,0.000000,0.000000,0.000000
11826236.000000,-2.365974,-1.662701,1.108725,-1.395211,1.752263,1.158153,-0.564373,0.444163,-0.013994,0.825195,-0.299641,-0.344183,0.725855,-0.124619,-5.539507,42.927288,-21.540421,-10.370913,0.088285,1.903487,-0.155778,0.000000,0.000000,0.000000,0.000000,0.000000,0.000000
11826237.000000,-2.365547,-1.662714,1.109559,-1.395499,1.751927,1.158898,-0.564499,0.432824,-0.015173,0.822084,-0.292861,-0.341413,0.727712,-0.123989,-5.194354,42.851910,-21.663406,-10.569277,0.052579,1.793624,-0.136552,0.000000,0.000000,0.000000,0.000000,0.000000,0.000000
11826238.000000,-2.365130,-1.662729,1.110397,-1.395786,1.751591,1.159625,-0.564621,0.427404,-0.017255,0.822641,-0.289572,-0.340271,0.724541,-0.125324,-4.845232,42.828106,-21.762589,-10.716066,0.040677,1.800033,-0.110001,0.000000,0.000000,0.000000,0.000000,0.000000,0.000000
11826239.000000,-2.364713,-1.662739,1.111227,-1.396086,1.751260,1.160340,-0.564741,0.418656,-0.017147,0.825407,-0.291335,-0.337666,0.722058,-0.123034,-4.424700,42.728924,-21.837967,-10.668459,-0.025240,1.916305,-0.130143,0.000000,0.000000,0.000000,0.000000,0.000000,0.000000
11826240.000000,-2.364309,-1.662758,1.112060,-1.396384,1.750926,1.161063,-0.564866,0.412913,-0.020645,0.822798,-0.291516,-0.333011,0.739495,-0.122845,-4.027972,42.780499,-21.837967,-10.668459,-0.025240,1.930038,-0.116410,0.000000,0.000000,0.000000,0.000000,0.000000,0.000000
11826241.000000,-2.363903,-1.662774,1.112907,-1.396682,1.750589,1.161808,-0.564976,0.409028,-0.019244,0.826007,-0.292715,-0.334933,0.741997,-0.119501,-3.631243,42.804302,-21.909378,-10.593081,0.105680,1.838485,-0.188737,0.000000,0.000000,0.000000,0.000000,0.000000,0.000000
11826242.000000,-2.363490,-1.662787,1.113740,-1.396990,1.750268,1.162539,-0.565101,0.409072,-0.020107,0.825761,-0.297755,-0.332503,0.733294,-0.122510,-3.361468,42.780499,-22.032364,-10.446291,0.015958,1.773483,-0.110001,0.000000,0.000000,0.000000,0.000000,0.000000,0.000000
11826243.000000,-2.363092,-1.662803,1.114594,-1.397306,1.749933,1.163267,-0.565211,0.405122,-0.018428,0.829656,-0.306909,-0.333327,0.729935,-0.120158,-3.040118,42.780499,-22.278336,-10.220156,-0.001437,1.760665,-0.155778,0.000000,0.000000,0.000000,0.000000,0.000000,0.000000
11826244.000000,-2.362699,-1.662820,1.115440,-1.397633,1.749598,1.164005,-0.565322,0.400485,-0.018018,0.855528,-0.312056,-0.331905,0.730611,-0.119883,-2.690997,42.828106,-22.571915,-9.926577,0.040677,1.735030,-0.169511,0.000000,0.000000,0.000000,0.000000,0.000000,0.000000
11826245.000000,-2.362313,-1.662841,1.116292,-1.397957,1.749270,1.164740,-0.565444,0.394157,-0.021479,0.852713,-0.317292,-0.328705,0.726392,-0.121676,-2.322039,42.903484,-22.794083,-9.676638,0.052579,1.747848,-0.122819,0.000000,0.000000,0.000000,0.000000,0.000000,0.000000
11826246.000000,-2.361918,-1.662865,1.117150,-1.398280,1.748929,1.165446,-0.565554,0.394875,-0.025410,0.851484,-0.318818,-0.345116,0.721049,-0.120505,-2.048296,43.050274,-23.087662,-9.529848,0.100187,1.949264,-0.149369,0.000000,0.000000,0.000000,0.000000,0.000000,0.000000
11826247.000000,-2.361526,-1.662889,1.117992,-1.398614,1.748586,1.166171,-0.565670,0.394716,-0.024027,0.850799,-0.319148,-0.344662,0.714174,-0.120853,-1.750750,43.145489,-23.357437,-9.383059,0.135892,2.098495,-0.130143,0.000000,0.000000,0.000000,0.000000,0.000000,0.000000
11826248.000000,-2.361145,-1.662914,1.118855,-1.398944,1.748249,1.166897,-0.565777,0.388908,-0.026805,0.855330,-0.330530,-0.340010,0.715737,-0.118522,-1.480975,43.268475,-23.774002,-9.256105,0.189908,2.098495,-0.169511,0.000000,0.000000,0.000000,0.000000,0.000000,0.000000
11826249.000000,-2.360757,-1.662937,1.119710,-1.399292,1.747919,1.167634,-0.565896,0.388246,-0.025035,0.854603,-0.334523,-0.342531,0.723777,-0.116436,-1.282611,43.367657,-23.972366,-8.986330,0.273221,2.020675,-0.122819,0.000000,0.000000,0.000000,0.000000,0.000000,0.000000
11826250.000000,-2.360372,-1.662969,1.120552,-1.399645,1.747578,1.168364,-0.566010,0.396480,-0.025801,0.856069,-0.336917,-0.339877,0.717475,-0.112763,-1.131854,43.562054,-24.142960,-8.613405,0.249418,2.007858,-0.130143,0.000000,0.000000,0.000000,0.000000,0.000000,0.000000
11826251.000000,-2.359984,-1.662998,1.121411,-1.400000,1.747224,1.169076,-0.566121,0.393006,-0.025188,0.853818,-0.340529,-0.343968,0.711348,-0.109825,-1.008868,43.708843,-24.365128,-8.292055,0.362943,2.039901,-0.142960,0.000000,0.000000,0.000000,0.000000,0.000000,0.000000
11826252.000000,-2.359607,-1.663022,1.122252,-1.400352,1.746892,1.169781,-0.566231,0.387478,-0.022916,0.855115,-0.340018,-0.337665,0.706153,-0.112058,-0.762896,43.784222,-24.488113,-8.069887,0.374845,2.066451,-0.149369,0.000000,0.000000,0.000000,0.000000,0.000000,0.000000
11826253.000000,-2.359236,-1.663059,1.123096,-1.400709,1.746564,1.170489,-0.566337,0.381125,-0.027877,0.851624,-0.347851,-0.334835,0.700726,-0.108605,-0.540728,44.002422,-24.535721,-7.800111,0.315336,2.047225,-0.182328,0.000000,0.000000,0.000000,0.000000,0.000000,0.000000
11826254.000000,-2.358859,-1.663084,1.123943,-1.401063,1.746226,1.171210,-0.566452,0.378963,-0.027516,0.846718,-0.346525,-0.336123,0.706813,-0.114001,-0.314593,44.053997,-24.511917,-7.700929,0.315336,1.995040,-0.116410,0.000000,0.000000,0.000000,0.000000,0.000000,0.000000
11826255.000000,-2.358494,-1.663117,1.124786,-1.401424,1.745886,1.171930,-0.566556,0.371129,-0.029816,0.847412,-0.347312,-0.332978,0.709801,-0.108332,0.054365,44.200787,-24.634903,-7.526369,0.344633,1.974899,-0.188737,0.000000,0.000000,0.000000,0.000000,0.000000,0.000000
11826256.000000,-2.358125,-1.663144,1.125625,-1.401789,1.745556,1.172624,-0.566663,0.370577,-0.029625,0.839887,-0.352579,-0.330918,0.707764,-0.106835,0.205121,44.272198,-24.488113,-7.304201,0.381254,2.079269,-0.196061,0.000000,0.000000,0.000000,0.000000,0.000000,0.000000
11826257.000000,-2.357749,-1.663177,1.126448,-1.402158,1.745219,1.173337,-0.566786,0.370368,-0.031228,0.849558,-0.356120,-0.335404,0.706216,-0.112367,0.304304,44.418987,-24.313553,-7.082033,0.452665,2.150680,-0.136552,0.000000,0.000000,0.000000,0.000000,0.000000,0.000000
11826258.000000,-2.357381,-1.663196,1.127291,-1.402544,1.744878,1.174061,-0.566892,0.369802,-0.024728,0.847884,-0.364066,-0.337722,0.724697,-0.112480,0.451093,44.371380,-24.313553,-6.784486,0.524076,1.995040,-0.188737,0.000000,0.000000,0.000000,0.000000,0.000000,0.000000
11826259.000000,-2.357001,-1.663224,1.128139,-1.402927,1.744548,1.174786,-0.567004,0.371955,-0.024791,0.842644,-0.367142,-0.333259,0.724803,-0.110632,0.474897,44.395184,-24.412735,-6.463136,0.535978,1.819259,-0.175919,0.000000,0.000000,0.000000,0.000000,0.000000,0.000000
11826260.000000,-2.356617,-1.663250,1.128973,-1.403317,1.744227,1.175513,-0.567113,0.375469,-0.022010,0.836254,-0.374158,-0.327404,0.721905,-0.112774,0.403486,44.418987,-24.436539,-6.169557,0.476469,1.819259,-0.188737,0.000000,0.000000,0.000000,0.000000,0.000000,0.000000
11826261.000000,-2.356246,-1.663267,1.129801,-1.403708,1.743895,1.176233,-0.567228,0.377051,-0.018294,0.827510,-0.380152,-0.325757,0.720934,-0.111762,0.375715,44.371380,-24.365128,-5.872011,0.476469,1.806442,-0.149369,0.000000,0.000000,0.000000,0.000000,0.000000,0.000000
11826262.000000,-2.355871,-1.663287,1.130632,-1.404101,1.743563,1.176952,-0.567338,0.375509,-0.019279,0.843404,-0.386006,-0.326834,0.717324,-0.112509,0.403486,44.347576,-24.436539,-5.649843,0.535978,1.838485,-0.182328,0.000000,0.000000,0.000000,0.000000,0.000000,0.000000
11826263.000000,-2.355497,-1.663306,1.131463,-1.404495,1.743243,1.177658,-0.567452,0.376453,-0.019412,0.837061,-0.385349,-0.324713,0.714149,-0.111006,0.375715,44.296001,-24.464310,-5.499086,0.547880,2.047225,-0.155778,0.000000,0.000000,0.000000,0.000000,0.000000,0.000000
11826264.000000,-2.355121,-1.663321,1.132306,-1.404887,1.742927,1.178359,-0.567561,0.376047,-0.016155,0.836522,-0.387671,-0.330278,0.709975,-0.108481,0.403486,44.224590,-24.583328,-5.253114,0.530485,2.183639,-0.169511,0.000000,0.000000,0.000000,0.000000,0.000000,0.000000
11826265.000000,-2.354747,-1.663333,1.133129,-1.405276,1.742601,1.179091,-0.567665,0.375573,-0.013163,0.830553,-0.385057,-0.328736,0.713910,-0.105998,0.427289,44.125408,-24.706314,-5.153932,0.559781,2.118636,-0.196061,0.000000,0.000000,0.000000,0.000000,0.000000,0.000000
11826266.000000,-2.354375,-1.663348,1.133959,-1.405663,1.742271,1.179813,-0.567776,0.372767,-0.014265,0.826986,-0.396222,-0.324160,0.715773,-0.110442,0.427289,44.026226,-24.757889,-4.983339,0.632108,1.968490,-0.155778,0.000000,0.000000,0.000000,0.000000,0.000000,0.000000
11826267.000000,-2.353992,-1.663357,1.134791,-1.406062,1.741953,1.180539,-0.567886,0.371398,-0.011494,0.819257,-0.398323,-0.323640,0.715771,-0.108999,0.351911,43.907207,-24.829300,-4.784975,0.655912,1.974899,-0.142960,0.000000,0.000000,0.000000,0.000000,0.000000,0.000000
11826268.000000,-2.353622,-1.663365,1.135609,-1.406457,1.741629,1.181256,-0.567995,0.368079,-0.009956,0.819997,-0.395248,-0.322807,0.713007,-0.107098,0.427289,43.808025,-24.880875,-4.634218,0.673307,2.047225,-0.149369,0.000000,0.000000,0.000000,0.000000,0.000000,0.000000
11826269.000000,-2.353244,-1.663375,1.136426,-1.406847,1.741299,1.181966,-0.568095,0.367730,-0.009393,0.809515,-0.392548,-0.327511,0.711237,-0.108099,0.403486,43.732647,-24.857071,-4.511232,0.698026,2.001449,-0.208878,0.000000,0.000000,0.000000,0.000000,0.000000,0.000000
11826270.000000,-2.352872,-1.663378,1.137231,-1.407235,1.740978,1.182701,-0.568212,0.364848,-0.007270,0.805524,-0.387650,-0.325769,0.714951,-0.109370,0.474897,43.585857,-24.757889,-4.487428,0.698026,1.903487,-0.142960,0.000000,0.000000,0.000000,0.000000,0.000000,0.000000
11826271.000000,-2.352504,-1.663378,1.138037,-1.407624,1.740671,1.183412,-0.568314,0.367391,-0.007889,0.801066,-0.384404,-0.316147,0.709549,-0.106170,0.502668,43.391460,-24.583328,-4.487428,0.632108,1.930038,-0.182328,0.000000,0.000000,0.000000,0.000000,0.000000,0.000000
11826272.000000,-2.352132,-1.663375,1.138855,-1.407998,1.740366,1.184130,-0.568422,0.368730,-0.005251,0.799386,-0.377240,-0.320784,0.713019,-0.105919,0.550275,43.197063,-24.488113,-4.562807,0.596403,2.014266,-0.169511,0.000000,0.000000,0.000000,0.000000,0.000000,0.000000
11826273.000000,-2.351760,-1.663371,1.139661,-1.408380,1.740047,1.184846,-0.568525,0.367360,-0.000206,0.797996,-0.377330,-0.315441,0.714152,-0.108475,0.574079,42.998699,-24.488113,-4.535036,0.578092,2.125045,-0.188737,0.000000,0.000000,0.000000,0.000000,0.000000,0.000000
11826274.000000,-2.351394,-1.663365,1.140468,-1.408754,1.739735,1.185573,-0.568633,0.366927,0.000807,0.791317,-0.375836,-0.311492,0.715470,-0.107869,0.574079,42.780499,-24.365128,-4.463624,0.554288,2.112228,-0.169511,0.000000,0.000000,0.000000,0.000000,0.000000,0.000000
11826275.000000,-2.351017,-1.663359,1.141273,-1.409139,1.739426,1.186316,-0.568737,0.369987,0.004159,0.808265,-0.378944,-0.311253,0.719337,-0.107443,0.526471,42.582134,-24.464310,-4.312868,0.608304,2.001449,-0.149369,0.000000,0.000000,0.000000,0.000000,0.000000,0.000000
11826276.000000,-2.350646,-1.663349,1.142085,-1.409527,1.739116,1.187051,-0.568832,0.369588,0.008226,0.805401,-0.379217,-0.309872,0.730283,-0.104497,0.474897,42.316326,-24.535721,-4.118471,0.655912,1.949264,-0.202470,0.000000,0.000000,0.000000,0.000000,0.000000,0.000000
11826277.000000,-2.350269,-1.663339,1.142906,-1.409896,1.738813,1.187774,-0.568938,0.369442,0.010664,0.802208,-0.379607,-0.307584,0.725562,-0.105623,0.427289,42.070354,-24.706314,-4.043092,0.649503,1.974899,-0.163102,0.000000,0.000000,0.000000,0.000000,0.000000,0.000000
11826278.000000,-2.349897,-1.663332,1.143710,-1.410273,1.738509,1.188495,-0.569040,0.367842,0.011227,0.801585,-0.376748,-0.301562,0.726745,-0.104467,0.427289,41.875957,-24.829300,-3.943910,0.661405,2.001449,-0.175919,0.000000,0.000000,0.000000,0.000000,0.000000,0.000000
11826279.000000,-2.349541,-1.663330,1.144510,-1.410635,1.738216,1.189208,-0.569145,0.363837,0.009482,0.796515,-0.372812,-0.295773,0.723951,-0.108677,0.574079,41.776775,-24.829300,-3.943910,0.637601,2.014266,-0.149369,0.000000,0.000000,0.000000,0.000000,0.000000,0.000000
11826280.000000,-2.349185,-1.663334,1.145326,-1.411007,1.737927,1.189914,-0.569250,0.358112,0.004966,0.814638,-0.371018,-0.298078,0.716121,-0.107320,0.796247,41.824383,-24.952286,-3.920107,0.655912,2.150680,-0.142960,0.000000,0.000000,0.000000,0.000000,0.000000,0.000000
11826281.000000,-2.348825,-1.663333,1.146113,-1.411373,1.737638,1.190618,-0.569344,0.367248,0.003686,0.808186,-0.366407,-0.295512,0.707013,-0.103301,0.923200,41.800579,-24.952286,-3.892336,0.584501,2.287093,-0.215287,0.000000,0.000000,0.000000,0.000000,0.000000,0.000000
11826282.000000,-2.348473,-1.663337,1.146907,-1.411738,1.737349,1.191319,-0.569453,0.359530,0.000558,0.803464,-0.366825,-0.296249,0.703180,-0.101893,1.121564,41.875957,-24.880875,-3.844728,0.596403,2.339278,-0.142960,0.000000,0.000000,0.000000,0.000000,0.000000,0.000000
11826283.000000,-2.348126,-1.663341,1.147681,-1.412109,1.737058,1.192037,-0.569551,0.355877,-0.001400,0.796195,-0.364361,-0.295062,0.711786,-0.099942,1.367536,41.947369,-24.706314,-3.745546,0.655912,2.190048,-0.196061,0.000000,0.000000,0.000000,0.000000,0.000000,0.000000
11826284.000000,-2.347771,-1.663341,1.148471,-1.412468,1.736773,1.192753,-0.569652,0.357410,-0.001010,0.792589,-0.371463,-0.290874,0.716631,-0.101208,1.442914,41.947369,-24.634903,-3.721742,0.644010,2.079269,-0.169511,0.000000,0.000000,0.000000,0.000000,0.000000,0.000000
11826285.000000,-2.347417,-1.663342,1.149253,-1.412840,1.736485,1.193478,-0.569751,0.353569,-0.001288,0.788039,-0.370852,-0.292434,0.719810,-0.100188,1.542096,41.971172,-24.436539,-3.523378,0.620206,1.981307,-0.208878,0.000000,0.000000,0.000000,0.000000,0.000000,0.000000
11826286.000000,-2.347064,-1.663342,1.150022,-1.413197,1.736189,1.194199,-0.569856,0.354848,-0.000901,0.786676,-0.368897,-0.287786,0.715560,-0.102138,1.665082,41.971172,-24.190567,-3.499574,0.691617,1.923629,-0.175919,0.000000,0.000000,0.000000,0.000000,0.000000,0.000000
11826287.000000,-2.346732,-1.663344,1.150795,-1.413551,1.735905,1.194923,-0.569951,0.347180,-0.001190,0.780039,-0.363902,-0.286362,0.718495,-0.101341,1.863447,41.994976,-23.896988,-3.523378,0.685209,1.838485,-0.202470,0.000000,0.000000,0.000000,0.000000,0.000000,0.000000
11826288.000000,-2.346392,-1.663341,1.151556,-1.413905,1.735637,1.195645,-0.570047,0.343678,0.000296,0.777008,-0.360565,-0.283336,0.712321,-0.101490,2.085615,41.947369,-23.627213,-3.499574,0.632108,1.819259,-0.208878,0.000000,0.000000,0.000000,0.000000,0.000000,0.000000
11826289.000000,-2.346051,-1.663334,1.152329,-1.414261,1.735352,1.196360,-0.570154,0.340881,0.002499,0.772966,-0.356385,-0.280994,0.726817,-0.100052,2.208601,41.848186,-23.409012,-3.570986,0.589994,1.832076,-0.142960,0.000000,0.000000,0.000000,0.000000,0.000000,0.000000
11826291.000000,-2.345362,-1.663313,1.153865,-1.414977,1.734779,1.197833,-0.570340,0.342954,0.011297,0.765556,-0.357478,-0.282062,0.733726,-0.096493,2.430768,41.578411,-23.135269,-3.376589,0.589994,1.702071,-0.163102,0.000000,0.000000,0.000000,0.000000,0.000000,0.000000
11826292.000000,-2.345020,-1.663297,1.154625,-1.415332,1.734490,1.198559,-0.570434,0.346619,0.013014,0.760844,-0.355676,-0.275673,0.730685,-0.093056,2.406965,41.360210,-22.964676,-3.249635,0.667814,1.656295,-0.182328,0.000000,0.000000,0.000000,0.000000,0.000000,0.000000
11826293.000000,-2.344668,-1.663284,1.155385,-1.415696,1.734211,1.199288,-0.570531,0.348668,0.015995,0.769212,-0.361950,-0.278378,0.726805,-0.090770,2.359357,41.189617,-22.893265,-3.055238,0.698026,1.624252,-0.196061,0.000000,0.000000,0.000000,0.000000,0.000000,0.000000
11826294.000000,-2.344321,-1.663263,1.156158,-1.416053,1.733924,1.200020,-0.570633,0.347829,0.017441,0.768947,-0.358825,-0.279688,0.741498,-0.095438,2.307783,40.919842,-22.893265,-3.055238,0.727323,1.649886,-0.155778,0.000000,0.000000,0.000000,0.000000,0.000000,0.000000
11826295.000000,-2.343968,-1.663241,1.156938,-1.416395,1.733648,1.200746,-0.570717,0.350430,0.017731,0.765922,-0.352463,-0.283175,0.736513,-0.090955,2.260175,40.673870,-22.940872,-3.102846,0.727323,1.605026,-0.208878,0.000000,0.000000,0.000000,0.000000,0.000000,0.000000
11826296.000000,-2.343618,-1.663222,1.157690,-1.416746,1.733378,1.201475,-0.570811,0.347654,0.017187,0.759614,-0.347601,-0.275468,0.735366,-0.094532,2.232404,40.455669,-22.794083,-3.126650,0.655912,1.605026,-0.202470,0.000000,0.000000,0.000000,0.000000,0.000000,0.000000
11826297.000000,-2.343272,-1.663204,1.158467,-1.417085,1.733107,1.202177,-0.570907,0.348962,0.019436,0.759222,-0.343909,-0.272463,0.730413,-0.096395,2.208601,40.257305,-22.893265,-3.202028,0.655912,1.727706,-0.196061,0.000000,0.000000,0.000000,0.000000,0.000000,0.000000
11826298.000000,-2.342924,-1.663182,1.159239,-1.417434,1.732842,1.202881,-0.571003,0.347544,0.018471,0.771280,-0.345945,-0.267743,0.719759,-0.098297,2.260175,40.039104,-22.988480,-3.202028,0.578092,1.909896,-0.188737,0.000000,0.000000,0.000000,0.000000,0.000000,0.000000
11826299.000000,-2.342575,-1.663159,1.159995,-1.417784,1.732573,1.203606,-0.571099,0.355161,0.019747,0.766134,-0.345310,-0.265215,0.719020,-0.099360,2.160993,39.868511,-22.988480,-3.154421,0.542386,1.930038,-0.188737,0.000000,0.000000,0.000000,0.000000,0.000000,0.000000
11826300.000000,-2.342220,-1.663142,1.160755,-1.418124,1.732298,1.204326,-0.571190,0.355043,0.019132,0.759804,-0.345588,-0.266091,0.717591,-0.095535,2.133222,39.769329,-22.917068,-3.079042,0.566190,1.838485,-0.202470,0.000000,0.000000,0.000000,0.000000,0.000000,0.000000
11826301.000000,-2.341856,-1.663114,1.161513,-1.418460,1.732040,1.205066,-0.571287,0.355557,0.018583,0.760730,-0.341299,-0.260966,0.724507,-0.093774,1.911054,39.547161,-22.917068,-3.154421,0.566190,1.735030,-0.182328,0.000000,0.000000,0.000000,0.000000,0.000000,0.000000
11826302.000000,-2.341509,-1.663093,1.162279,-1.418791,1.731774,1.205774,-0.571379,0.352585,0.019422,0.761320,-0.342214,-0.261742,0.726757,-0.091526,1.863447,39.400372,-22.917068,-3.154421,0.578092,1.741439,-0.188737,0.000000,0.000000,0.000000,0.000000,0.000000,0.000000
11826303.000000,-2.341152,-1.663070,1.163038,-1.419116,1.731510,1.206496,-0.571477,0.353999,0.020706,0.759208,-0.337061,-0.262545,0.724029,-0.090967,1.740461,39.229778,-22.770279,-3.348818,0.584501,1.747848,-0.163102,0.000000,0.000000,0.000000,0.000000,0.000000,0.000000
11826304.000000,-2.340788,-1.663050,1.163777,-1.419449,1.731245,1.207215,-0.571566,0.356506,0.023053,0.756133,-0.333900,-0.259205,0.721080,-0.087527,1.589704,39.130596,-22.548111,-3.376589,0.620206,1.786300,-0.215287,0.000000,0.000000,0.000000,0.000000,0.000000,0.000000
11826305.000000,-2.340437,-1.663025,1.164530,-1.419763,1.730985,1.207915,-0.571667,0.352516,0.020419,0.753350,-0.329235,-0.255617,0.708697,-0.088932,1.542096,38.960003,-22.377518,-3.523378,0.625699,1.851302,-0.169511,0.000000,0.000000,0.000000,0.000000,0.000000,0.000000
11826306.000000,-2.340079,-1.663008,1.165280,-1.420077,1.730740,1.208623,-0.571760,0.352456,0.019807,0.749341,-0.320437,-0.255367,0.702467,-0.087084,1.367536,38.864788,-22.325943,-3.745546,0.559781,1.923629,-0.196061,0.000000,0.000000,0.000000,0.000000,0.000000,0.000000
11826307.000000,-2.339726,-1.662989,1.166041,-1.420395,1.730490,1.209329,-0.571857,0.350124,0.021987,0.746976,-0.314335,-0.257354,0.724262,-0.087098,1.292158,38.789410,-22.302139,-3.844728,0.440763,1.851302,-0.188737,0.000000,0.000000,0.000000,0.000000,0.000000,0.000000
11826308.000000,-2.339358,-1.662977,1.166796,-1.420708,1.730233,1.210056,-0.571951,0.352686,0.017786,0.742770,-0.314832,-0.258209,0.723498,-0.088252,1.046186,38.837017,-22.179153,-3.991518,0.410551,1.689254,-0.149369,0.000000,0.000000,0.000000,0.000000,0.000000,0.000000
11826309.000000,-2.338989,-1.662957,1.167548,-1.421029,1.729971,1.210786,-0.572036,0.355676,0.017254,0.743429,-0.315160,-0.257305,0.727439,-0.085641,0.871625,38.789410,-22.202957,-3.967714,0.464567,1.532699,-0.196061,0.000000,0.000000,0.000000,0.000000,0.000000,0.000000
11826310.000000,-2.338624,-1.662940,1.168314,-1.421334,1.729722,1.211471,-0.572132,0.359544,0.016204,0.745415,-0.313676,-0.250884,0.714113,-0.087478,0.625654,38.765606,-22.254532,-4.043092,0.381254,1.676437,-0.149369,0.000000,0.000000,0.000000,0.000000,0.000000,0.000000
11826311.000000,-2.338262,-1.662927,1.169068,-1.421640,1.729472,1.212173,-0.572217,0.359743,0.013931,0.761110,-0.308187,-0.254749,0.708840,-0.085072,0.451093,38.813213,-22.377518,-4.166078,0.386747,1.806442,-0.202470,0.000000,0.000000,0.000000,0.000000,0.000000,0.000000
11826312.000000,-2.337911,-1.662920,1.169829,-1.421939,1.729207,1.212886,-0.572308,0.356759,0.013642,0.760900,-0.303838,-0.257768,0.717576,-0.085840,0.451093,38.936199,-22.448929,-4.312868,0.416959,1.767074,-0.202470,0.000000,0.000000,0.000000,0.000000,0.000000,0.000000
11826313.000000,-2.337551,-1.662915,1.170582,-1.422223,1.728948,1.213593,-0.572403,0.357303,0.010822,0.752089,-0.300976,-0.263419,0.713944,-0.092627,0.351911,39.059185,-22.448929,-4.586610,0.440763,1.727706,-0.136552,0.000000,0.000000,0.000000,0.000000,0.000000,0.000000
11826314.000000,-2.337185,-1.662900,1.171332,-1.422521,1.728691,1.214285,-0.572482,0.357515,0.012076,0.750627,-0.297132,-0.259402,0.709912,-0.088201,0.252729,39.035381,-22.524307,-4.634218,0.458158,1.832076,-0.208878,0.000000,0.000000,0.000000,0.000000,0.000000,0.000000
11826315.000000,-2.336823,-1.662896,1.172084,-1.422806,1.728443,1.214966,-0.572573,0.356883,0.007025,0.745746,-0.294073,-0.254362,0.700395,-0.088670,0.054365,39.130596,-22.472733,-4.709596,0.428861,2.020675,-0.169511,0.000000,0.000000,0.000000,0.000000,0.000000,0.000000
11826316.000000,-2.336462,-1.662894,1.172843,-1.423096,1.728188,1.215680,-0.572664,0.355893,0.005103,0.750109,-0.295110,-0.259850,0.703366,-0.088529,-0.017047,39.281353,-22.448929,-4.784975,0.506681,1.923629,-0.155778,0.000000,0.000000,0.000000,0.000000,0.000000,0.000000
11826317.000000,-2.336109,-1.662898,1.173582,-1.423377,1.727928,1.216398,-0.572746,0.361807,-0.000216,0.750939,-0.290936,-0.259770,0.702282,-0.085829,-0.044818,39.475750,-22.325943,-4.907960,0.494779,1.800033,-0.208878,0.000000,0.000000,0.000000,0.000000,0.000000,0.000000
11826318.000000,-2.335746,-1.662895,1.174332,-1.423650,1.727679,1.217100,-0.572836,0.363515,0.001283,0.745252,-0.285674,-0.253623,0.702099,-0.086319,-0.116229,39.574932,-22.254532,-5.007143,0.422452,1.767074,-0.202470,0.000000,0.000000,0.000000,0.000000,0.000000,0.000000
11826319.000000,-2.335387,-1.662890,1.175079,-1.423933,1.727433,1.217808,-0.572927,0.361575,0.003694,0.744641,-0.280961,-0.245394,0.695596,-0.087121,-0.191607,39.622540,-22.278336,-5.106325,0.374845,1.747848,-0.175919,0.000000,0.000000,0.000000,0.000000,0.000000,0.000000
11826320.000000,-2.335042,-1.662900,1.175814,-1.424196,1.727187,1.218517,-0.573015,0.359410,0.000123,0.737286,-0.280524,-0.244904,0.703463,-0.091740,-0.215411,39.892315,-22.008560,-5.304689,0.369352,1.676437,-0.155778,0.000000,0.000000,0.000000,0.000000,0.000000,0.000000
11826321.000000,-2.334692,-1.662903,1.176558,-1.424465,1.726947,1.219236,-0.573099,0.355631,0.000147,0.737443,-0.277310,-0.244026,0.709421,-0.089117,-0.167803,40.062908,-21.810196,-5.427675,0.344633,1.597701,-0.182328,0.000000,0.000000,0.000000,0.000000,0.000000,0.000000
11826322.000000,-2.334344,-1.662900,1.177305,-1.424721,1.726704,1.219958,-0.573183,0.350087,0.001871,0.739287,-0.269331,-0.242212,0.706669,-0.088398,-0.116229,40.162090,-21.810196,-5.772829,0.285123,1.578475,-0.175919,0.000000,0.000000,0.000000,0.000000,0.000000,0.000000
11826323.000000,-2.333990,-1.662896,1.178046,-1.424983,1.726455,1.220661,-0.573266,0.348356,0.004374,0.733092,-0.268917,-0.239299,0.708055,-0.091198,-0.167803,40.209698,-21.591995,-5.919618,0.308927,1.605026,-0.196061,0.000000,0.000000,0.000000,0.000000,0.000000,0.000000
11826324.000000,-2.333635,-1.662897,1.178781,-1.425241,1.726213,1.221375,-0.573352,0.347574,0.002242,0.732600,-0.264452,-0.242143,0.701276,-0.090122,-0.266986,40.281109,-21.469009,-6.094179,0.339139,1.559249,-0.188737,0.000000,0.000000,0.000000,0.000000,0.000000,0.000000
11826325.000000,-2.333291,-1.662893,1.179525,-1.425509,1.725972,1.222093,-0.573442,0.349499,0.004717,0.732566,-0.263612,-0.238950,0.723239,-0.086039,-0.314593,40.308880,-21.369827,-6.169557,0.381254,1.474105,-0.155778,0.000000,0.000000,0.000000,0.000000,0.000000,0.000000
11826326.000000,-2.332935,-1.662887,1.180278,-1.425771,1.725745,1.222812,-0.573519,0.349544,0.005172,0.732464,-0.264048,-0.238480,0.716261,-0.079450,-0.441546,40.257305,-21.393631,-6.193361,0.332731,1.474105,-0.215287,0.000000,0.000000,0.000000,0.000000,0.000000,0.000000
11826327.000000,-2.332577,-1.662876,1.181017,-1.426035,1.725506,1.223530,-0.573607,0.350606,0.006941,0.736481,-0.262017,-0.238215,0.718474,-0.078683,-0.612139,40.134319,-21.346024,-6.141786,0.291532,1.539108,-0.163102,0.000000,0.000000,0.000000,0.000000,0.000000,0.000000
11826328.000000,-2.332231,-1.662867,1.181770,-1.426298,1.725267,1.224241,-0.573690,0.347288,0.010909,0.740727,-0.266550,-0.238607,0.721671,-0.076543,-0.612139,40.015301,-21.417435,-6.117982,0.249418,1.578475,-0.149369,0.000000,0.000000,0.000000,0.000000,0.000000,0.000000
11826329.000000,-2.331884,-1.662854,1.182513,-1.426560,1.725033,1.224967,-0.573765,0.341291,0.011955,0.759825,-0.262943,-0.235632,0.715657,-0.072490,-0.635943,39.840740,-21.469009,-6.117982,0.243009,1.559249,-0.202470,0.000000,0.000000,0.000000,0.000000,0.000000,0.000000
11826330.000000,-2.331535,-1.662842,1.183273,-1.426820,1.724804,1.225689,-0.573852,0.346409,0.011853,0.755583,-0.259499,-0.227355,0.714003,-0.077996,-0.762896,39.693951,-21.615799,-6.141786,0.219205,1.605026,-0.155778,0.000000,0.000000,0.000000,0.000000,0.000000,0.000000
11826331.000000,-2.331187,-1.662825,1.184037,-1.427085,1.724574,1.226393,-0.573932,0.344664,0.012787,0.754542,-0.262522,-0.232572,0.707125,-0.078230,-0.762896,39.499554,-21.786392,-6.070375,0.267728,1.676437,-0.202470,0.000000,0.000000,0.000000,0.000000,0.000000,0.000000
11826332.000000,-2.330841,-1.662813,1.184792,-1.427352,1.724334,1.227103,-0.574016,0.342506,0.011097,0.752534,-0.260938,-0.231569,0.700254,-0.080875,-0.762896,39.400372,-21.984756,-5.994997,0.285123,1.793624,-0.188737,0.000000,0.000000,0.000000,0.000000,0.000000,0.000000
11826333.000000,-2.330491,-1.662802,1.185554,-1.427612,1.724096,1.227807,-0.574096,0.344299,0.012383,0.751260,-0.258068,-0.230691,0.704674,-0.081163,-0.885882,39.328960,-22.131546,-5.947389,0.308927,1.800033,-0.202470,0.000000,0.000000,0.000000,0.000000,0.000000,0.000000
11826334.000000,-2.330159,-1.662796,1.186324,-1.427877,1.723868,1.228514,-0.574189,0.340660,0.008658,0.751545,-0.259665,-0.229220,0.703699,-0.083990,-0.834307,39.328960,-22.302139,-5.919618,0.297025,1.779891,-0.155778,0.000000,0.000000,0.000000,0.000000,0.000000,0.000000
11826335.000000,-2.329817,-1.662785,1.187081,-1.428144,1.723637,1.229222,-0.574274,0.347009,0.006074,0.754990,-0.257316,-0.227618,0.707478,-0.084471,-0.834307,39.328960,-22.472733,-5.919618,0.279630,1.779891,-0.149369,0.000000,0.000000,0.000000,0.000000,0.000000,0.000000
11826336.000000,-2.329481,-1.662777,1.187845,-1.428410,1.723412,1.229907,-0.574351,0.343858,0.006873,0.754055,-0.260232,-0.225445,0.697482,-0.082957,-0.786700,39.352764,-22.571915,-5.848207,0.231107,1.851302,-0.196061,0.000000,0.000000,0.000000,0.000000,0.000000,0.000000
11826337.000000,-2.329146,-1.662774,1.188588,-1.428682,1.723183,1.230598,-0.574441,0.342945,0.005860,0.748864,-0.264120,-0.225233,0.693836,-0.085540,-0.687518,39.451946,-22.548111,-5.820436,0.213712,1.936446,-0.142960,0.000000,0.000000,0.000000,0.000000,0.000000,0.000000
11826338.000000,-2.328818,-1.662765,1.189340,-1.428955,1.722942,1.231282,-0.574517,0.336827,0.008068,0.747558,-0.265264,-0.230319,0.686117,-0.083083,-0.588336,39.428143,-22.448929,-5.772829,0.225614,1.936446,-0.208878,0.000000,0.000000,0.000000,0.000000,0.000000,0.000000
11826339.000000,-2.328485,-1.662755,1.190098,-1.429240,1.722703,1.231990,-0.574605,0.334169,0.007835,0.747433,-0.268574,-0.230387,0.691868,-0.085834,-0.588336,39.352764,-22.377518,-5.598268,0.249418,1.877853,-0.155778,0.000000,0.000000,0.000000,0.000000,0.000000,0.000000
11826340.000000,-2.328156,-1.662740,1.190852,-1.429525,1.722464,1.232691,-0.574691,0.329088,0.011219,0.753250,-0.272553,-0.230760,0.694362,-0.081874,-0.441546,39.253582,-22.401321,-5.475282,0.285123,1.838485,-0.142960,0.000000,0.000000,0.000000,0.000000,0.000000,0.000000
11826341.000000,-2.327825,-1.662737,1.191612,-1.429811,1.722234,1.233379,-0.574768,0.327483,0.010081,0.754599,-0.276478,-0.228837,0.695080,-0.076751,-0.389971,39.305157,-22.401321,-5.328493,0.267728,1.851302,-0.188737,0.000000,0.000000,0.000000,0.000000,0.000000,0.000000
11826342.000000,-2.327496,-1.662731,1.192371,-1.430103,1.721995,1.234086,-0.574852,0.326883,0.009403,0.759979,-0.277663,-0.234631,0.702897,-0.075227,-0.266986,39.352764,-22.524307,-5.106325,0.315336,1.754256,-0.175919,0.000000,0.000000,0.000000,0.000000,0.000000,0.000000
11826343.000000,-2.327175,-1.662722,1.193129,-1.430399,1.721749,1.234778,-0.574929,0.321616,0.007087,0.754610,-0.281155,-0.238099,0.713316,-0.077453,-0.167803,39.352764,-22.548111,-4.907960,0.356534,1.702071,-0.188737,0.000000,0.000000,0.000000,0.000000,0.000000,0.000000
11826344.000000,-2.326856,-1.662718,1.193899,-1.430698,1.721512,1.235467,-0.575008,0.318000,0.010402,0.754123,-0.284793,-0.240770,0.706928,-0.080314,-0.068621,39.400372,-22.718704,-4.661989,0.386747,1.754256,-0.169511,0.000000,0.000000,0.000000,0.000000,0.000000,0.000000
11826345.000000,-2.326529,-1.662708,1.194658,-1.430993,1.721281,1.236148,-0.575084,0.319340,0.011627,0.753445,-0.285632,-0.235569,0.693469,-0.080306,-0.017047,39.376568,-22.865494,-4.463624,0.351041,1.916305,-0.202470,0.000000,0.000000,0.000000,0.000000,0.000000,0.000000
11826346.000000,-2.326214,-1.662704,1.195434,-1.431289,1.721045,1.236844,-0.575168,0.318433,0.007539,0.753547,-0.289219,-0.234284,0.694859,-0.082048,0.129743,39.428143,-23.111465,-4.289064,0.393156,1.916305,-0.182328,0.000000,0.000000,0.000000,0.000000,0.000000,0.000000
11826347.000000,-2.325897,-1.662706,1.196208,-1.431587,1.720817,1.237540,-0.575250,0.316570,0.002988,0.771253,-0.288896,-0.232330,0.696394,-0.083437,0.276533,39.547161,-23.286026,-4.118471,0.398649,1.884261,-0.169511,0.000000,0.000000,0.000000,0.000000,0.000000,0.000000
11826348.000000,-2.325585,-1.662701,1.196970,-1.431885,1.720578,1.238236,-0.575328,0.319040,0.002552,0.767024,-0.288061,-0.235769,0.685007,-0.083190,0.375715,39.547161,-23.480423,-3.967714,0.428861,1.949264,-0.202470,0.000000,0.000000,0.000000,0.000000,0.000000,0.000000
11826349.000000,-2.325265,-1.662705,1.197741,-1.432186,1.720344,1.238910,-0.575413,0.316337,-0.000199,0.761228,-0.294447,-0.237570,0.683796,-0.084949,0.328107,39.646343,-23.627213,-3.797121,0.452665,2.079269,-0.175919,0.000000,0.000000,0.000000,0.000000,0.000000,0.000000
11826350.000000,-2.324953,-1.662708,1.198498,-1.432486,1.720106,1.239609,-0.575490,0.312524,-0.002138,0.760147,-0.293697,-0.235705,0.684059,-0.083936,0.474897,39.745525,-23.726395,-3.697939,0.488370,2.027084,-0.208878,0.000000,0.000000,0.000000,0.000000,0.000000,0.000000
11826351.000000,-2.324638,-1.662712,1.199256,-1.432784,1.719868,1.240308,-0.575574,0.312343,-0.002860,0.755878,-0.295361,-0.235061,0.692145,-0.085723,0.526471,39.816936,-23.678787,-3.547182,0.547880,1.897079,-0.163102,0.000000,0.000000,0.000000,0.000000,0.000000,0.000000
11826352.000000,-2.324320,-1.662719,1.200021,-1.433078,1.719643,1.240996,-0.575648,0.315084,-0.003493,0.751681,-0.292262,-0.231748,0.688620,-0.080446,0.550275,39.892315,-23.702591,-3.570986,0.524076,1.897079,-0.188737,0.000000,0.000000,0.000000,0.000000,0.000000,0.000000
11826353.000000,-2.324013,-1.662725,1.200768,-1.433378,1.719412,1.241689,-0.575726,0.315821,-0.009540,0.750136,-0.291444,-0.232806,0.683208,-0.076654,0.697065,39.939922,-23.627213,-3.547182,0.482877,1.981307,-0.208878,0.000000,0.000000,0.000000,0.000000,0.000000,0.000000
11826354.000000,-2.323710,-1.662737,1.201521,-1.433668,1.719172,1.242372,-0.575805,0.310793,-0.010214,0.744081,-0.293009,-0.233040,0.682638,-0.079228,0.772443,40.086712,-23.456619,-3.570986,0.530485,1.974899,-0.202470,0.000000,0.000000,0.000000,0.000000,0.000000,0.000000
11826355.000000,-2.323406,-1.662744,1.202258,-1.433971,1.718948,1.243078,-0.575883,0.304560,-0.012051,0.744822,-0.295300,-0.230835,0.687047,-0.081278,0.947004,40.162090,-23.258255,-3.523378,0.518583,1.923629,-0.188737,0.000000,0.000000,0.000000,0.000000,0.000000,0.000000
11826356.000000,-2.323105,-1.662755,1.203013,-1.434261,1.718723,1.243773,-0.575962,0.304111,-0.011968,0.748415,-0.293215,-0.224194,0.696300,-0.083088,1.093793,40.308880,-23.135269,-3.547182,0.512174,1.877853,-0.169511,0.000000,0.000000,0.000000,0.000000,0.000000,0.000000
11826357.000000,-2.322794,-1.662752,1.203768,-1.434557,1.718512,1.244477,-0.576035,0.306376,-0.007147,0.748194,-0.296089,-0.218233,0.696909,-0.077916,1.121564,40.257305,-23.040054,-3.499574,0.470060,1.871444,-0.208878,0.000000,0.000000,0.000000,0.000000,0.000000,0.000000
11826358.000000,-2.322490,-1.662750,1.204505,-1.434862,1.718294,1.245200,-0.576110,0.303539,-0.004489,0.742723,-0.293896,-0.218916,0.705766,-0.076337,1.216779,40.233501,-22.841690,-3.348818,0.434354,1.760665,-0.188737,0.000000,0.000000,0.000000,0.000000,0.000000,0.000000
11826359.000000,-2.322186,-1.662753,1.205253,-1.435147,1.718065,1.245907,-0.576182,0.303762,-0.003203,0.735899,-0.292938,-0.222542,0.708664,-0.074163,1.216779,40.233501,-22.742508,-3.325014,0.476469,1.637069,-0.196061,0.000000,0.000000,0.000000,0.000000,0.000000,0.000000
11826360.000000,-2.321877,-1.662743,1.205995,-1.435444,1.717843,1.246618,-0.576256,0.304153,0.001140,0.748327,-0.294143,-0.224834,0.699452,-0.072346,1.169172,40.086712,-22.718704,-3.202028,0.506681,1.637069,-0.208878,0.000000,0.000000,0.000000,0.000000,0.000000,0.000000
11826361.000000,-2.321574,-1.662733,1.206744,-1.435735,1.717632,1.247317,-0.576334,0.303121,0.004075,0.746250,-0.290360,-0.218064,0.700844,-0.077504,1.192975,39.939922,-22.694901,-3.154421,0.458158,1.708480,-0.163102,0.000000,0.000000,0.000000,0.000000,0.000000,0.000000
11826362.000000,-2.321263,-1.662723,1.207493,-1.436018,1.717408,1.248011,-0.576403,0.304869,0.006061,0.743984,-0.287637,-0.227416,0.697985,-0.078548,1.121564,39.793133,-22.671097,-3.102846,0.559781,1.754256,-0.188737,0.000000,0.000000,0.000000,0.000000,0.000000,0.000000
11826363.000000,-2.320953,-1.662713,1.208234,-1.436308,1.717197,1.248712,-0.576479,0.305348,0.007408,0.740060,-0.288700,-0.221442,0.702032,-0.072936,1.069990,39.646343,-22.671097,-3.027467,0.547880,1.767074,-0.155778,0.000000,0.000000,0.000000,0.000000,0.000000,0.000000
11826364.000000,-2.320647,-1.662697,1.208983,-1.436582,1.716983,1.249401,-0.576549,0.306089,0.009436,0.739646,-0.284047,-0.221011,0.701311,-0.070914,0.994611,39.451946,-22.694901,-3.079042,0.518583,1.760665,-0.169511,0.000000,0.000000,0.000000,0.000000,0.000000,0.000000
11826365.000000,-2.320338,-1.662687,1.209746,-1.436869,1.716770,1.250100,-0.576621,0.307095,0.009130,0.745823,-0.280918,-0.217865,0.704329,-0.070283,0.871625,39.328960,-22.817886,-2.979860,0.524076,1.760665,-0.169511,0.000000,0.000000,0.000000,0.000000,0.000000,0.000000
11826366.000000,-2.320036,-1.662670,1.210490,-1.437156,1.716562,1.250796,-0.576694,0.312915,0.011812,0.749851,-0.280090,-0.213172,0.696619,-0.074859,0.871625,39.082989,-22.917068,-2.956056,0.482877,1.793624,-0.163102,0.000000,0.000000,0.000000,0.000000,0.000000,0.000000
11826367.000000,-2.319723,-1.662663,1.211237,-1.437442,1.716351,1.251487,-0.576760,0.311454,0.009524,0.744560,-0.280702,-0.213120,0.696072,-0.072242,0.796247,39.011578,-22.988480,-2.880678,0.512174,1.812850,-0.188737,0.000000,0.000000,0.000000,0.000000,0.000000,0.000000
11826368.000000,-2.319414,-1.662655,1.211971,-1.437721,1.716146,1.252177,-0.576835,0.308945,0.008654,0.740827,-0.278624,-0.207555,0.689406,-0.072983,0.772443,38.912395,-23.040054,-2.880678,0.530485,1.851302,-0.149369,0.000000,0.000000,0.000000,0.000000,0.000000,0.000000
11826369.000000,-2.319116,-1.662642,1.212719,-1.437999,1.715949,1.252869,-0.576896,0.309503,0.009191,0.738020,-0.286031,-0.204094,0.688083,-0.069381,0.796247,38.765606,-23.087662,-2.856874,0.452665,1.819259,-0.215287,0.000000,0.000000,0.000000,0.000000,0.000000,0.000000
11826370.000000,-2.318815,-1.662636,1.213469,-1.438276,1.715739,1.253561,-0.576974,0.303944,0.007882,0.733195,-0.285892,-0.205347,0.685326,-0.071734,0.796247,38.690228,-23.163040,-2.880678,0.458158,1.832076,-0.149369,0.000000,0.000000,0.000000,0.000000,0.000000,0.000000
11826371.000000,-2.318512,-1.662627,1.214203,-1.438544,1.715530,1.254249,-0.577040,0.306393,0.007475,0.733152,-0.280922,-0.204597,0.686651,-0.068833,0.796247,38.595013,-23.111465,-2.979860,0.422452,1.884261,-0.202470,0.000000,0.000000,0.000000,0.000000,0.000000,0.000000
11826372.000000,-2.318222,-1.662617,1.214938,-1.438817,1.715323,1.254937,-0.577104,0.302036,0.007298,0.729247,-0.278837,-0.200101,0.695428,-0.067554,0.923200,38.495831,-22.964676,-3.027467,0.405057,1.858627,-0.241837,0.000000,0.000000,0.000000,0.000000,0.000000,0.000000
11826373.000000,-2.317918,-1.662607,1.215665,-1.439089,1.715117,1.255627,-0.577183,0.299107,0.010350,0.729072,-0.274427,-0.199240,0.690207,-0.070562,0.895429,38.396648,-22.841690,-3.055238,0.452665,1.851302,-0.169511,0.000000,0.000000,0.000000,0.000000,0.000000,0.000000
11826374.000000,-2.317624,-1.662601,1.216402,-1.439360,1.714912,1.256307,-0.577250,0.296927,0.008275,0.727259,-0.273290,-0.201097,0.700909,-0.072864,0.895429,38.349041,-22.742508,-3.003664,0.458158,1.884261,-0.208878,0.000000,0.000000,0.000000,0.000000,0.000000,0.000000
11826375.000000,-2.317325,-1.662595,1.217138,-1.439628,1.714707,1.257002,-0.577322,0.296219,0.008923,0.727443,-0.274769,-0.199875,0.693158,-0.073084,0.824018,38.349041,-22.595718,-2.979860,0.512174,1.819259,-0.175919,0.000000,0.000000,0.000000,0.000000,0.000000,0.000000
11826376.000000,-2.317032,-1.662579,1.217870,-1.439891,1.714496,1.257706,-0.577390,0.296541,0.009240,0.730448,-0.271636,-0.197194,0.697353,-0.071704,0.871625,38.226055,-22.548111,-2.979860,0.524076,1.741439,-0.175919,0.000000,0.000000,0.000000,0.000000,0.000000,0.000000
11826377.000000,-2.316746,-1.662575,1.218605,-1.440155,1.714292,1.258401,-0.577453,0.295408,0.007861,0.730797,-0.268358,-0.198306,0.701490,-0.065379,0.970807,38.301434,-22.500504,-2.904482,0.488370,1.637069,-0.208878,0.000000,0.000000,0.000000,0.000000,0.000000,0.000000
11826378.000000,-2.316445,-1.662567,1.219331,-1.440415,1.714096,1.259108,-0.577528,0.298123,0.008340,0.743988,-0.264844,-0.194680,0.700773,-0.068686,0.895429,38.325237,-22.472733,-3.003664,0.458158,1.578475,-0.142960,0.000000,0.000000,0.000000,0.000000,0.000000,0.000000
11826379.000000,-2.316157,-1.662559,1.220073,-1.440679,1.713897,1.259801,-0.577589,0.293400,0.005639,0.742948,-0.261528,-0.196574,0.701063,-0.065574,0.994611,38.349041,-22.571915,-3.003664,0.434354,1.662704,-0.221696,0.000000,0.000000,0.000000,0.000000,0.000000,0.000000
11826380.000000,-2.315863,-1.662557,1.220816,-1.440935,1.713702,1.260484,-0.577662,0.292544,0.005455,0.735607,-0.259260,-0.198624,0.697165,-0.066937,0.994611,38.424419,-22.595718,-3.003664,0.440763,1.741439,-0.208878,0.000000,0.000000,0.000000,0.000000,0.000000,0.000000
11826381.000000,-2.315571,-1.662557,1.221558,-1.441197,1.713504,1.261185,-0.577734,0.288254,0.004521,0.738725,-0.259795,-0.201595,0.697972,-0.067320,0.994611,38.543438,-22.817886,-3.003664,0.458158,1.708480,-0.208878,0.000000,0.000000,0.000000,0.000000,0.000000,0.000000
11826382.000000,-2.315282,-1.662557,1.222297,-1.441452,1.713297,1.261871,-0.577802,0.288963,0.003312,0.734212,-0.256023,-0.204183,0.696248,-0.067698,0.994611,38.690228,-22.917068,-3.079042,0.494779,1.741439,-0.215287,0.000000,0.000000,0.000000,0.000000,0.000000,0.000000
11826383.000000,-2.314986,-1.662550,1.223040,-1.441708,1.713098,1.262569,-0.577873,0.292219,0.005504,0.746827,-0.257125,-0.204957,0.693796,-0.068132,0.970807,38.717999,-23.063858,-3.126650,0.494779,1.806442,-0.208878,0.000000,0.000000,0.000000,0.000000,0.000000,0.000000
11826384.000000,-2.314695,-1.662560,1.223770,-1.441962,1.712901,1.263266,-0.577948,0.296392,0.002576,0.743346,-0.257133,-0.201389,0.694158,-0.070428,0.947004,38.936199,-23.163040,-3.202028,0.524076,1.825668,-0.155778,0.000000,0.000000,0.000000,0.000000,0.000000,0.000000
11826385.000000,-2.314402,-1.662563,1.224505,-1.442215,1.712702,1.263967,-0.578017,0.294518,-0.000257,0.736227,-0.257219,-0.199068,0.695977,-0.069238,0.947004,39.059185,-23.135269,-3.277406,0.554288,1.806442,-0.169511,0.000000,0.000000,0.000000,0.000000,0.000000,0.000000
11826386.000000,-2.314104,-1.662560,1.225231,-1.442472,1.712513,1.264675,-0.578082,0.291760,-0.000609,0.736665,-0.255593,-0.196086,0.696586,-0.067660,0.847822,39.106792,-23.111465,-3.277406,0.547880,1.767074,-0.202470,0.000000,0.000000,0.000000,0.000000,0.000000,0.000000
11826387.000000,-2.313817,-1.662563,1.225972,-1.442719,1.712324,1.265367,-0.578151,0.291694,-0.001662,0.738124,-0.257876,-0.192876,0.695990,-0.068464,0.824018,39.182171,-23.135269,-3.348818,0.524076,1.786300,-0.188737,0.000000,0.000000,0.000000,0.000000,0.000000,0.000000
11826388.000000,-2.313526,-1.662569,1.226714,-1.442964,1.712139,1.266069,-0.578224,0.287005,-0.002398,0.732720,-0.250400,-0.189549,0.695760,-0.069536,0.824018,39.253582,-23.186844,-3.475771,0.464567,1.812850,-0.163102,0.000000,0.000000,0.000000,0.000000,0.000000,0.000000
11826389.000000,-2.313235,-1.662575,1.227430,-1.443212,1.711948,1.266773,-0.578287,0.286704,-0.008876,0.726850,-0.246010,-0.188199,0.688807,-0.067434,0.847822,39.305157,-22.988480,-3.547182,0.434354,1.760665,-0.208878,0.000000,0.000000,0.000000,0.000000,0.000000,0.000000
11826390.000000,-2.312951,-1.662578,1.228156,-1.443453,1.711759,1.267463,-0.578360,0.286188,-0.006789,0.723732,-0.245999,-0.188306,0.691268,-0.069822,0.895429,39.328960,-22.893265,-3.622560,0.428861,1.754256,-0.155778,0.000000,0.000000,0.000000,0.000000,0.000000,0.000000
11826391.000000,-2.312660,-1.662582,1.228881,-1.443689,1.711577,1.268157,-0.578424,0.287506,-0.005877,0.722861,-0.240061,-0.183885,0.688158,-0.067181,0.847822,39.376568,-22.817886,-3.797121,0.434354,1.721298,-0.215287,0.000000,0.000000,0.000000,0.000000,0.000000,0.000000
11826392.000000,-2.312372,-1.662577,1.229614,-1.443929,1.711396,1.268839,-0.578494,0.290241,-0.002425,0.723762,-0.236078,-0.183034,0.695015,-0.063908,0.748639,39.305157,-22.742508,-3.844728,0.393156,1.741439,-0.202470,0.000000,0.000000,0.000000,0.000000,0.000000,0.000000
11826393.000000,-2.312085,-1.662582,1.230347,-1.444153,1.711221,1.269536,-0.578567,0.289977,-0.003420,0.722031,-0.230581,-0.179329,0.702884,-0.067041,0.724836,39.376568,-22.623489,-3.991518,0.381254,1.682845,-0.149369,0.000000,0.000000,0.000000,0.000000,0.000000,0.000000
11826394.000000,-2.311794,-1.662583,1.231064,-1.444386,1.711036,1.270242,-0.578624,0.290947,-0.002937,0.719817,-0.228895,-0.183395,0.699933,-0.064805,0.673261,39.400372,-22.448929,-4.019289,0.422452,1.605026,-0.215287,0.000000,0.000000,0.000000,0.000000,0.000000,0.000000
11826395.000000,-2.311504,-1.662580,1.231792,-1.444610,1.710851,1.270925,-0.578694,0.288712,-0.000919,0.722630,-0.225849,-0.179718,0.703209,-0.067267,0.601850,39.352764,-22.377518,-4.142274,0.422452,1.637069,-0.175919,0.000000,0.000000,0.000000,0.000000,0.000000,0.000000
11826396.000000,-2.311207,-1.662582,1.232517,-1.444835,1.710670,1.271613,-0.578758,0.291459,-0.000669,0.740633,-0.224876,-0.180081,0.693414,-0.062026,0.451093,39.352764,-22.425125,-4.213686,0.374845,1.702071,-0.208878,0.000000,0.000000,0.000000,0.000000,0.000000,0.000000
11826397.000000,-2.310917,-1.662578,1.233242,-1.445062,1.710485,1.272315,-0.578826,0.290099,0.001182,0.733873,-0.225194,-0.177535,0.713344,-0.064206,0.328107,39.281353,-22.377518,-4.241457,0.386747,1.695663,-0.196061,0.000000,0.000000,0.000000,0.000000,0.000000,0.000000
11826398.000000,-2.310625,-1.662574,1.233971,-1.445280,1.710306,1.273002,-0.578886,0.289165,0.001963,0.724113,-0.223039,-0.180379,0.700451,-0.064108,0.205121,39.229778,-22.325943,-4.364442,0.416959,1.676437,-0.229020,0.000000,0.000000,0.000000,0.000000,0.000000,0.000000
11826399.000000,-2.310323,-1.662571,1.234705,-1.445498,1.710129,1.273700,-0.578957,0.293294,0.002399,0.726928,-0.221508,-0.177402,0.699214,-0.066931,0.006757,39.182171,-22.524307,-4.463624,0.416959,1.676437,-0.182328,0.000000,0.000000,0.000000,0.000000,0.000000,0.000000
11826400.000000,-2.310027,-1.662568,1.235445,-1.445711,1.709958,1.274384,-0.579023,0.295589,0.002788,0.726276,-0.217716,-0.172185,0.694392,-0.063039,-0.167803,39.130596,-22.647293,-4.562807,0.332731,1.670028,-0.188737,0.000000,0.000000,0.000000,0.000000,0.000000,0.000000
11826401.000000,-2.309727,-1.662570,1.236182,-1.445930,1.709784,1.275078,-0.579088,0.296252,0.001196,0.724849,-0.219947,-0.171273,0.689859,-0.063702,-0.342364,39.158367,-22.718704,-4.586610,0.320829,1.670028,-0.208878,0.000000,0.000000,0.000000,0.000000,0.000000,0.000000
11826402.000000,-2.309423,-1.662570,1.236914,-1.446146,1.709597,1.275774,-0.579157,0.302617,0.000787,0.722435,-0.215545,-0.176689,0.686490,-0.066764,-0.540728,39.158367,-22.865494,-4.709596,0.356534,1.689254,-0.163102,0.000000,0.000000,0.000000,0.000000,0.000000,0.000000
11826403.000000,-2.309130,-1.662563,1.237655,-1.446355,1.709418,1.276448,-0.579220,0.300860,0.002837,0.722186,-0.211915,-0.178445,0.680522,-0.066190,-0.663714,39.059185,-23.016251,-4.856386,0.327238,1.800033,-0.188737,0.000000,0.000000,0.000000,0.000000,0.000000,0.000000
11826404.000000,-2.308839,-1.662563,1.238391,-1.446565,1.709244,1.277131,-0.579282,0.295931,0.001886,0.728325,-0.206576,-0.175362,0.675884,-0.061859,-0.762896,39.059185,-23.234451,-4.983339,0.303434,1.884261,-0.202470,0.000000,0.000000,0.000000,0.000000,0.000000,0.000000
11826405.000000,-2.308546,-1.662568,1.239128,-1.446770,1.709074,1.277804,-0.579350,0.296218,-0.000417,0.730055,-0.209792,-0.172754,0.666850,-0.065354,-0.885882,39.130596,-23.309830,-5.153932,0.273221,1.903487,-0.155778,0.000000,0.000000,0.000000,0.000000,0.000000,0.000000
11826406.000000,-2.308254,-1.662570,1.239860,-1.446983,1.708895,1.278497,-0.579403,0.294394,-0.000931,0.725868,-0.209283,-0.174161,0.674330,-0.059632,-0.933489,39.158367,-23.309830,-5.253114,0.327238,1.800033,-0.215287,0.000000,0.000000,0.000000,0.000000,0.000000,0.000000
11826407.000000,-2.307949,-1.662566,1.240582,-1.447190,1.708723,1.279181,-0.579475,0.297019,0.000583,0.721715,-0.204758,-0.172733,0.670465,-0.060035,-1.131854,39.106792,-23.258255,-5.376100,0.320829,1.806442,-0.149369,0.000000,0.000000,0.000000,0.000000,0.000000,0.000000
11826408.000000,-2.307657,-1.662568,1.241309,-1.447396,1.708553,1.279852,-0.579533,0.294256,-0.000170,0.717005,-0.201549,-0.174632,0.671506,-0.061553,-1.254840,39.130596,-23.210648,-5.376100,0.267728,1.844894,-0.163102,0.000000,0.000000,0.000000,0.000000,0.000000,0.000000
11826409.000000,-2.307353,-1.662573,1.242030,-1.447605,1.708373,1.280529,-0.579590,0.297315,-0.001878,0.717841,-0.205350,-0.174692,0.671576,-0.061810,-1.504779,39.205975,-23.135269,-5.352296,0.297025,1.865035,-0.202470,0.000000,0.000000,0.000000,0.000000,0.000000,0.000000
11826410.000000,-2.307070,-1.662577,1.242749,-1.447813,1.708191,1.281217,-0.579658,0.294650,-0.001810,0.713769,-0.204502,-0.173519,0.688993,-0.065566,-1.528582,39.229778,-22.940872,-5.352296,0.308927,1.844894,-0.149369,0.000000,0.000000,0.000000,0.000000,0.000000,0.000000
11826411.000000,-2.306779,-1.662583,1.243478,-1.448014,1.708027,1.281895,-0.579717,0.293109,-0.002970,0.712227,-0.203256,-0.166280,0.691836,-0.066207,-1.552386,39.305157,-22.841690,-5.376100,0.267728,1.832076,-0.149369,0.000000,0.000000,0.000000,0.000000,0.000000,0.000000
11826412.000000,-2.306486,-1.662586,1.244206,-1.448211,1.707860,1.282581,-0.579774,0.291417,-0.003094,0.711922,-0.200846,-0.165753,0.683295,-0.062134,-1.552386,39.352764,-22.917068,-5.451478,0.231107,1.832076,-0.155778,0.000000,0.000000,0.000000,0.000000,0.000000,0.000000
11826413.000000,-2.306203,-1.662590,1.244938,-1.448415,1.707690,1.283260,-0.579825,0.290077,-0.005767,0.716690,-0.201030,-0.167050,0.687253,-0.056973,-1.528582,39.376568,-22.964676,-5.451478,0.243009,1.832076,-0.221696,0.000000,0.000000,0.000000,0.000000,0.000000,0.000000
11826414.000000,-2.305920,-1.662598,1.245660,-1.448615,1.707519,1.283948,-0.579890,0.285680,-0.006427,0.732165,-0.200625,-0.170101,0.684277,-0.058277,-1.504779,39.475750,-23.016251,-5.475282,0.297025,1.819259,-0.155778,0.000000,0.000000,0.000000,0.000000,0.000000,0.000000
11826415.000000,-2.305642,-1.662605,1.246393,-1.448820,1.707348,1.284640,-0.579946,0.287574,-0.009972,0.735215,-0.201822,-0.170768,0.682260,-0.054953,-1.504779,39.574932,-23.163040,-5.427675,0.332731,1.844894,-0.196061,0.000000,0.000000,0.000000,0.000000,0.000000,0.000000
11826416.000000,-2.305358,-1.662618,1.247136,-1.449023,1.707178,1.285309,-0.580003,0.285042,-0.010494,0.735805,-0.203421,-0.172615,0.678661,-0.053637,-1.528582,39.721722,-23.333633,-5.352296,0.297025,1.916305,-0.208878,0.000000,0.000000,0.000000,0.000000,0.000000,0.000000
11826417.000000,-2.305070,-1.662627,1.247875,-1.449222,1.707006,1.286002,-0.580068,0.283690,-0.012700,0.734557,-0.200607,-0.171637,0.683085,-0.059564,-1.552386,39.816936,-23.651016,-5.427675,0.291532,1.903487,-0.149369,0.000000,0.000000,0.000000,0.000000,0.000000,0.000000
11826418.000000,-2.304795,-1.662642,1.248613,-1.449420,1.706835,1.286682,-0.580126,0.280518,-0.016085,0.735183,-0.205403,-0.166485,0.688420,-0.061397,-1.504779,39.987530,-23.774002,-5.451478,0.297025,1.858627,-0.169511,0.000000,0.000000,0.000000,0.000000,0.000000,0.000000
11826419.000000,-2.304513,-1.662652,1.249357,-1.449623,1.706667,1.287368,-0.580186,0.278992,-0.013676,0.734286,-0.204772,-0.167310,0.681490,-0.063648,-1.504779,40.086712,-23.996170,-5.427675,0.297025,1.851302,-0.155778,0.000000,0.000000,0.000000,0.000000,0.000000,0.000000
11826420.000000,-2.304236,-1.662668,1.250097,-1.449820,1.706497,1.288036,-0.580245,0.284078,-0.013026,0.736426,-0.203268,-0.168578,0.676928,-0.064005,-1.552386,40.233501,-24.218338,-5.451478,0.315336,1.949264,-0.182328,0.000000,0.000000,0.000000,0.000000,0.000000,0.000000
11826421.000000,-2.303968,-1.662684,1.250830,-1.450027,1.706333,1.288698,-0.580302,0.277753,-0.015641,0.730171,-0.206384,-0.168563,0.670727,-0.060393,-1.504779,40.380291,-24.265945,-5.427675,0.315336,2.020675,-0.196061,0.000000,0.000000,0.000000,0.000000,0.000000,0.000000
11826422.000000,-2.303693,-1.662705,1.251550,-1.450235,1.706165,1.289378,-0.580364,0.276490,-0.014949,0.730977,-0.205174,-0.164471,0.671379,-0.058650,-1.480975,40.550884,-24.242142,-5.399904,0.327238,2.027084,-0.182328,0.000000,0.000000,0.000000,0.000000,0.000000,0.000000
11826423.000000,-2.303428,-1.662722,1.252287,-1.450440,1.705993,1.290043,-0.580422,0.274739,-0.016377,0.734920,-0.206664,-0.165824,0.669789,-0.060882,-1.405596,40.673870,-24.289749,-5.376100,0.339139,2.001449,-0.188737,0.000000,0.000000,0.000000,0.000000,0.000000,0.000000
11826424.000000,-2.303161,-1.662734,1.253023,-1.450633,1.705819,1.290721,-0.580482,0.269691,-0.015315,0.732620,-0.203384,-0.166202,0.668023,-0.059285,-1.306414,40.697674,-24.313553,-5.451478,0.320829,1.995040,-0.175919,0.000000,0.000000,0.000000,0.000000,0.000000,0.000000
11826425.000000,-2.302890,-1.662747,1.253742,-1.450841,1.705649,1.291400,-0.580536,0.270475,-0.014754,0.725809,-0.203105,-0.166114,0.668003,-0.060270,-1.254840,40.725445,-24.218338,-5.427675,0.297025,1.936446,-0.208878,0.000000,0.000000,0.000000,0.000000,0.000000,0.000000
11826426.000000,-2.302633,-1.662761,1.254471,-1.451044,1.705469,1.292079,-0.580597,0.267068,-0.015014,0.723439,-0.201943,-0.169273,0.672740,-0.059372,-1.159625,40.773052,-24.142960,-5.451478,0.356534,1.877853,-0.175919,0.000000,0.000000,0.000000,0.000000,0.000000,0.000000
11826427.000000,-2.302378,-1.662774,1.255192,-1.451254,1.705302,1.292751,-0.580650,0.261785,-0.015150,0.738500,-0.206644,-0.164751,0.669230,-0.060150,-0.985064,40.820660,-23.972366,-5.376100,0.362943,1.844894,-0.215287,0.000000,0.000000,0.000000,0.000000,0.000000,0.000000
11826428.000000,-2.302116,-1.662784,1.255925,-1.451461,1.705134,1.293425,-0.580711,0.262458,-0.013614,0.733227,-0.205844,-0.164688,0.678451,-0.059013,-0.961260,40.796856,-23.948563,-5.352296,0.344633,1.923629,-0.188737,0.000000,0.000000,0.000000,0.000000,0.000000,0.000000
11826429.000000,-2.301852,-1.662793,1.256653,-1.451666,1.704972,1.294103,-0.580767,0.264439,-0.012000,0.728163,-0.205672,-0.165704,0.680756,-0.060869,-0.885882,40.749249,-23.801773,-5.304689,0.339139,1.865035,-0.202470,0.000000,0.000000,0.000000,0.000000,0.000000,0.000000
11826430.000000,-2.301598,-1.662800,1.257370,-1.451875,1.704809,1.294798,-0.580822,0.260478,-0.010943,0.723210,-0.205612,-0.165710,0.678941,-0.063157,-0.711321,40.697674,-23.702591,-5.229311,0.315336,1.767074,-0.188737,0.000000,0.000000,0.000000,0.000000,0.000000,0.000000
11826431.000000,-2.301337,-1.662803,1.258097,-1.452086,1.704637,1.295476,-0.580882,0.261911,-0.009657,0.722850,-0.204474,-0.167009,0.684365,-0.065442,-0.711321,40.626263,-23.651016,-5.078554,0.327238,1.741439,-0.163102,0.000000,0.000000,0.000000,0.000000,0.000000,0.000000
11826432.000000,-2.301075,-1.662805,1.258827,-1.452297,1.704474,1.296156,-0.580931,0.262080,-0.004557,0.738843,-0.203544,-0.167236,0.680093,-0.060180,-0.711321,40.503277,-23.627213,-4.931764,0.308927,1.793624,-0.208878,0.000000,0.000000,0.000000,0.000000,0.000000,0.000000
11826433.000000,-2.300810,-1.662810,1.259540,-1.452517,1.704308,1.296851,-0.580992,0.269610,-0.002672,0.733301,-0.206799,-0.169350,0.679082,-0.059787,-0.810504,40.455669,-23.603409,-4.733400,0.356534,1.819259,-0.163102,0.000000,0.000000,0.000000,0.000000,0.000000,0.000000
11826434.000000,-2.300554,-1.662817,1.260259,-1.452728,1.704143,1.297533,-0.581044,0.265093,-0.004850,0.725910,-0.204247,-0.170306,0.675918,-0.055914,-0.810504,40.427898,-23.528030,-4.610414,0.410551,1.773483,-0.208878,0.000000,0.000000,0.000000,0.000000,0.000000,0.000000
11826435.000000,-2.300292,-1.662820,1.260982,-1.452942,1.703985,1.298228,-0.581101,0.262041,-0.004852,0.724178,-0.202508,-0.170649,0.681164,-0.059986,-0.834307,40.332684,-23.678787,-4.463624,0.434354,1.754256,-0.182328,0.000000,0.000000,0.000000,0.000000,0.000000,0.000000
11826436.000000,-2.300035,-1.662824,1.261716,-1.453151,1.703830,1.298902,-0.581157,0.262632,-0.005371,0.725091,-0.206292,-0.168136,0.683318,-0.058266,-0.834307,40.257305,-23.774002,-4.340639,0.386747,1.793624,-0.163102,0.000000,0.000000,0.000000,0.000000,0.000000,0.000000
11826437.000000,-2.299780,-1.662825,1.262452,-1.453369,1.703675,1.299600,-0.581204,0.261435,-0.004708,0.725903,-0.209710,-0.163289,0.687647,-0.056135,-0.786700,40.134319,-23.920792,-4.241457,0.374845,1.773483,-0.208878,0.000000,0.000000,0.000000,0.000000,0.000000,0.000000
11826438.000000,-2.299525,-1.662831,1.263165,-1.453591,1.703512,1.300284,-0.581266,0.257609,-0.006666,0.721222,-0.209590,-0.164590,0.689622,-0.056827,-0.735125,40.110516,-23.849380,-4.118471,0.374845,1.786300,-0.163102,0.000000,0.000000,0.000000,0.000000,0.000000,0.000000
11826439.000000,-2.299272,-1.662833,1.263900,-1.453806,1.703346,1.300953,-0.581314,0.256047,-0.003711,0.720574,-0.208561,-0.165668,0.678038,-0.054946,-0.735125,40.039104,-24.095352,-4.043092,0.369352,1.903487,-0.208878,0.000000,0.000000,0.000000,0.000000,0.000000,0.000000
11826440.000000,-2.299020,-1.662834,1.264619,-1.454023,1.703184,1.301634,-0.581372,0.251227,-0.001414,0.724629,-0.211899,-0.166926,0.677919,-0.054654,-0.735125,39.963726,-24.218338,-3.920107,0.374845,2.020675,-0.196061,0.000000,0.000000,0.000000,0.000000,0.000000,0.000000
11826441.000000,-2.298773,-1.662835,1.265352,-1.454240,1.703017,1.302314,-0.581429,0.249905,-0.002834,0.729812,-0.214993,-0.164331,0.676528,-0.054873,-0.687518,39.892315,-24.365128,-3.920107,0.422452,1.955673,-0.169511,0.000000,0.000000,0.000000,0.000000,0.000000,0.000000
11826442.000000,-2.298519,-1.662838,1.266067,-1.454458,1.702852,1.303009,-0.581480,0.250147,-0.004422,0.719415,-0.215811,-0.167155,0.680544,-0.052472,-0.687518,39.840740,-24.265945,-3.844728,0.464567,1.884261,-0.215287,0.000000,0.000000,0.000000,0.000000,0.000000,0.000000
11826443.000000,-2.298262,-1.662832,1.266785,-1.454675,1.702698,1.303695,-0.581541,0.247909,-0.000258,0.718655,-0.214885,-0.161436,0.678517,-0.054420,-0.711321,39.693951,-24.289749,-3.820925,0.428861,1.916305,-0.155778,0.000000,0.000000,0.000000,0.000000,0.000000,0.000000
11826444.000000,-2.298009,-1.662832,1.267502,-1.454889,1.702540,1.304373,-0.581588,0.246319,0.000384,0.711625,-0.215313,-0.158359,0.680879,-0.048121,-0.735125,39.646343,-24.218338,-3.769350,0.422452,1.995040,-0.208878,0.000000,0.000000,0.000000,0.000000,0.000000,0.000000
11826445.000000,-2.297757,-1.662828,1.268208,-1.455115,1.702384,1.305059,-0.581649,0.247702,0.001508,0.723317,-0.219789,-0.160255,0.684428,-0.052042,-0.762896,39.574932,-24.071548,-3.670168,0.398649,1.995040,-0.163102,0.000000,0.000000,0.000000,0.000000,0.000000,0.000000
11826446.000000,-2.297511,-1.662820,1.268912,-1.455343,1.702224,1.305749,-0.581703,0.249095,0.003012,0.714636,-0.220351,-0.162085,0.698056,-0.047539,-0.786700,39.475750,-23.849380,-3.570986,0.393156,1.988631,-0.163102,0.000000,0.000000,0.000000,0.000000,0.000000,0.000000
11826447.000000,-2.297264,-1.662810,1.269631,-1.455560,1.702067,1.306423,-0.581757,0.248957,0.004649,0.715797,-0.219317,-0.162156,0.698229,-0.050348,-0.762896,39.352764,-23.750198,-3.523378,0.369352,1.981307,-0.149369,0.000000,0.000000,0.000000,0.000000,0.000000,0.000000
11826448.000000,-2.297020,-1.662805,1.270344,-1.455783,1.701914,1.307110,-0.581806,0.244170,0.004593,0.716056,-0.222276,-0.158687,0.691672,-0.048980,-0.663714,39.281353,-23.750198,-3.424196,0.351041,1.903487,-0.188737,0.000000,0.000000,0.000000,0.000000,0.000000,0.000000
11826449.000000,-2.296776,-1.662796,1.271065,-1.456005,1.701758,1.307786,-0.581856,0.245401,0.005250,0.716746,-0.223778,-0.162114,0.691323,-0.045454,-0.612139,39.182171,-23.774002,-3.376589,0.362943,1.825668,-0.208878,0.000000,0.000000,0.000000,0.000000,0.000000,0.000000
11826450.000000,-2.296531,-1.662792,1.271777,-1.456225,1.701602,1.308470,-0.581915,0.243086,0.004607,0.722893,-0.224592,-0.162346,0.683944,-0.050331,-0.588336,39.130596,-23.678787,-3.348818,0.440763,1.786300,-0.155778,0.000000,0.000000,0.000000,0.000000,0.000000,0.000000
11826451.000000,-2.296294,-1.662787,1.272493,-1.456442,1.701448,1.309146,-0.581961,0.244911,0.004667,0.719510,-0.221939,-0.160023,0.678651,-0.048340,-0.489153,39.059185,-23.849380,-3.325014,0.470060,1.884261,-0.215287,0.000000,0.000000,0.000000,0.000000,0.000000,0.000000
11826452.000000,-2.296054,-1.662783,1.273211,-1.456656,1.701299,1.309808,-0.582016,0.242380,0.003613,0.714071,-0.220148,-0.157442,0.671589,-0.046549,-0.441546,39.035381,-23.873184,-3.301210,0.464567,1.949264,-0.196061,0.000000,0.000000,0.000000,0.000000,0.000000,0.000000
11826453.000000,-2.295826,-1.662789,1.273925,-1.456878,1.701155,1.310489,-0.582068,0.234920,0.000139,0.715004,-0.218922,-0.153932,0.671168,-0.047521,-0.290789,39.130596,-24.019974,-3.249635,0.422452,1.974899,-0.202470,0.000000,0.000000,0.000000,0.000000,0.000000,0.000000
11826454.000000,-2.295594,-1.662790,1.274643,-1.457089,1.701006,1.311163,-0.582122,0.237444,-0.000588,0.714301,-0.222491,-0.151905,0.673837,-0.049316,-0.191607,39.158367,-24.119156,-3.249635,0.393156,1.955673,-0.188737,0.000000,0.000000,0.000000,0.000000,0.000000,0.000000
11826455.000000,-2.295355,-1.662799,1.275364,-1.457296,1.700858,1.311837,-0.582171,0.236844,-0.003293,0.711126,-0.219527,-0.151591,0.673864,-0.046160,-0.144000,39.281353,-24.265945,-3.277406,0.381254,1.995040,-0.196061,0.000000,0.000000,0.000000,0.000000,0.000000,0.000000
11826456.000000,-2.295115,-1.662802,1.276072,-1.457508,1.700706,1.312512,-0.582221,0.237822,-0.003326,0.713814,-0.218449,-0.152191,0.675090,-0.042534,-0.144000,39.328960,-24.341324,-3.249635,0.405057,2.007858,-0.215287,0.000000,0.000000,0.000000,0.000000,0.000000,0.000000
11826457.000000,-2.294889,-1.662811,1.276789,-1.457722,1.700563,1.313189,-0.582274,0.233620,-0.004551,0.710613,-0.215811,-0.152041,0.673975,-0.047538,-0.068621,39.428143,-24.388931,-3.178224,0.410551,1.942855,-0.175919,0.000000,0.000000,0.000000,0.000000,0.000000,0.000000
11826458.000000,-2.294652,-1.662813,1.277492,-1.457924,1.700414,1.313870,-0.582318,0.232527,-0.004157,0.707311,-0.213642,-0.154547,0.675565,-0.046934,-0.092425,39.475750,-24.365128,-3.225832,0.488370,1.903487,-0.215287,0.000000,0.000000,0.000000,0.000000,0.000000,0.000000
11826459.000000,-2.294431,-1.662823,1.278203,-1.458127,1.700271,1.314533,-0.582370,0.228356,-0.006213,0.705280,-0.210089,-0.148624,0.681852,-0.049340,0.030561,39.622540,-24.289749,-3.249635,0.494779,1.909896,-0.182328,0.000000,0.000000,0.000000,0.000000,0.000000,0.000000
11826460.000000,-2.294211,-1.662832,1.278918,-1.458328,1.700134,1.315209,-0.582420,0.222836,-0.006467,0.703669,-0.210239,-0.143415,0.676210,-0.052232,0.129743,39.721722,-24.265945,-3.277406,0.470060,1.903487,-0.163102,0.000000,0.000000,0.000000,0.000000,0.000000,0.000000
11826461.000000,-2.293987,-1.662838,1.279610,-1.458529,1.699996,1.315889,-0.582465,0.223779,-0.005986,0.697455,-0.205213,-0.144647,0.669631,-0.045439,0.276533,39.793133,-24.019974,-3.376589,0.458158,1.858627,-0.221696,0.000000,0.000000,0.000000,0.000000,0.000000,0.000000
11826462.000000,-2.293769,-1.662843,1.280318,-1.458727,1.699856,1.316564,-0.582516,0.221393,-0.005757,0.694613,-0.200894,-0.144260,0.671819,-0.049102,0.427289,39.868511,-23.972366,-3.400392,0.405057,1.865035,-0.202470,0.000000,0.000000,0.000000,0.000000,0.000000,0.000000
11826463.000000,-2.293543,-1.662850,1.281017,-1.458922,1.699712,1.317241,-0.582566,0.222423,-0.005511,0.712556,-0.197228,-0.146055,0.672890,-0.047029,0.451093,39.939922,-23.896988,-3.424196,0.405057,1.858627,-0.182328,0.000000,0.000000,0.000000,0.000000,0.000000,0.000000
11826464.000000,-2.293324,-1.662848,1.281721,-1.459114,1.699573,1.317931,-0.582617,0.225901,-0.002562,0.711206,-0.196676,-0.146358,0.686039,-0.044801,0.502668,39.892315,-23.726395,-3.499574,0.386747,1.819259,-0.155778,0.000000,0.000000,0.000000,0.000000,0.000000,0.000000
11826465.000000,-2.293099,-1.662839,1.282428,-1.459310,1.699438,1.318614,-0.582659,0.224631,0.001167,0.710005,-0.198211,-0.142714,0.691000,-0.040738,0.574079,39.769329,-23.627213,-3.499574,0.398649,1.754256,-0.215287,0.000000,0.000000,0.000000,0.000000,0.000000,0.000000
11826466.000000,-2.292873,-1.662836,1.283119,-1.459507,1.699298,1.319308,-0.582712,0.225322,0.001334,0.701270,-0.198760,-0.140938,0.684605,-0.045323,0.574079,39.745525,-23.432816,-3.499574,0.422452,1.676437,-0.163102,0.000000,0.000000,0.000000,0.000000,0.000000,0.000000
11826467.000000,-2.292655,-1.662826,1.283819,-1.459693,1.699160,1.319984,-0.582756,0.222696,0.003766,0.700323,-0.195206,-0.139547,0.688465,-0.041920,0.574079,39.622540,-23.333633,-3.547182,0.452665,1.643478,-0.202470,0.000000,0.000000,0.000000,0.000000,0.000000,0.000000
11826468.000000,-2.292428,-1.662821,1.284525,-1.459879,1.699033,1.320670,-0.582799,0.224646,0.004273,0.700150,-0.195267,-0.135121,0.684528,-0.040483,0.502668,39.547161,-23.258255,-3.622560,0.386747,1.662704,-0.215287,0.000000,0.000000,0.000000,0.000000,0.000000,0.000000
11826469.000000,-2.292209,-1.662812,1.285216,-1.460072,1.698901,1.321370,-0.582851,0.226284,0.005632,0.697855,-0.193548,-0.134326,0.684573,-0.044959,0.526471,39.428143,-23.234451,-3.622560,0.393156,1.624252,-0.169511,0.000000,0.000000,0.000000,0.000000,0.000000,0.000000
11826470.000000,-2.291980,-1.662810,1.285913,-1.460258,1.698768,1.322044,-0.582891,0.224461,0.004404,0.695526,-0.192577,-0.138513,0.676584,-0.046092,0.474897,39.400372,-23.135269,-3.622560,0.393156,1.676437,-0.215287,0.000000,0.000000,0.000000,0.000000,0.000000,0.000000
11826471.000000,-2.291753,-1.662797,1.286612,-1.460442,1.698637,1.322724,-0.582945,0.223172,0.007483,0.695689,-0.187546,-0.140412,0.676670,-0.045616,0.403486,39.205975,-23.186844,-3.646364,0.362943,1.786300,-0.149369,0.000000,0.000000,0.000000,0.000000,0.000000,0.000000
11826472.000000,-2.291522,-1.662790,1.287316,-1.460623,1.698499,1.323405,-0.582984,0.227203,0.007309,0.700183,-0.190205,-0.142267,0.681241,-0.045271,0.252729,39.106792,-23.234451,-3.646364,0.344633,1.825668,-0.196061,0.000000,0.000000,0.000000,0.000000,0.000000,0.000000
11826473.000000,-2.291301,-1.662781,1.288029,-1.460804,1.698366,1.324110,-0.583025,0.226226,0.007100,0.700753,-0.186093,-0.139795,0.684996,-0.047447,0.252729,39.011578,-23.357437,-3.670168,0.344633,1.735030,-0.215287,0.000000,0.000000,0.000000,0.000000,0.000000,0.000000
11826474.000000,-2.291075,-1.662773,1.288729,-1.460982,1.698234,1.324800,-0.583074,0.224363,0.007053,0.701476,-0.182340,-0.133502,0.684555,-0.046238,0.177350,38.912395,-23.504227,-3.721742,0.351041,1.689254,-0.163102,0.000000,0.000000,0.000000,0.000000,0.000000,0.000000
