chaoyuefei/paper-gmrm-data/robot_logs/s2_dq_gmrm_xz_max_0.30_log_20260314_173525.csv
# time_ms,q_0,q_1,q_2,q_3,q_4,q_5,q_6,dq_0,dq_1,dq_2,dq_3,dq_4,dq_5,dq_6,tau_J_0,tau_J_1,tau_J_2,tau_J_3,tau_J_4,tau_J_5,tau_J_6,O_dP_EE_c_0,O_dP_EE_c_1,O_dP_EE_c_2,O_dP_EE_c_3,O_dP_EE_c_4,O_dP_EE_c_5
12387648.000000,-0.344673,0.544248,0.451052,-1.426791,-0.242489,1.916518,0.131700,0.001192,-0.001030,-0.000233,0.001121,0.000277,-0.000279,-0.000684,0.054365,-38.362385,5.996506,19.268675,0.823453,1.344100,-0.110001,0.000000,0.000000,0.000000,0.000000,0.000000,0.000000
12387649.000000,-0.344675,0.544250,0.451052,-1.426796,-0.242489,1.916522,0.131705,0.000238,-0.000037,-0.000155,-0.000923,0.000185,0.000289,0.001240,0.078168,-38.390156,5.996506,19.340086,0.823453,1.331283,-0.155778,0.000000,0.000000,0.000000,0.000000,0.000000,0.000000
12387650.000000,-0.344675,0.544252,0.451054,-1.426793,-0.242490,1.916522,0.131704,0.000158,0.000532,0.000453,0.000498,-0.000080,-0.000045,0.000589,0.078168,-38.413960,5.972702,19.292479,0.828947,1.337692,-0.149369,0.000000,0.000000,0.000000,0.000000,0.000000,0.000000
12387651.000000,-0.344677,0.544250,0.451052,-1.426793,-0.242489,1.916521,0.131703,-0.000544,-0.000202,-0.000255,0.000332,0.000150,-0.000267,0.000155,0.105939,-38.390156,5.996506,19.292479,0.823453,1.344100,-0.142960,0.000000,0.000000,0.000000,0.000000,0.000000,0.000000
12387652.000000,-0.344696,0.544251,0.451053,-1.426796,-0.242486,1.916521,0.131709,-0.016024,0.011259,-0.010904,-0.007239,-0.001503,0.000771,-0.000134,-0.290789,-37.802998,5.381577,19.070311,0.739225,1.318465,-0.136552,0.000000,0.000000,0.000000,0.000000,0.000000,0.000000
12387653.000000,-0.344713,0.544244,0.451036,-1.426807,-0.242470,1.916516,0.131718,-0.023149,0.016588,-0.020923,-0.015049,0.001554,-0.003452,0.002678,-1.726946,-35.696369,3.862106,18.130064,0.405057,1.299239,-0.083451,0.000000,0.000000,0.000000,0.000000,0.000000,0.000000
12387654.000000,-0.344720,0.544253,0.450965,-1.426820,-0.242462,1.916511,0.131751,-0.012502,0.013970,-0.035320,-0.022587,0.004235,-0.002454,0.007633,-3.956561,-32.466999,2.116501,16.277342,0.034269,1.292831,-0.103593,0.000000,0.000000,0.000000,0.000000,0.000000,0.000000
12387655.000000,-0.344735,0.544294,0.450871,-1.426848,-0.242507,1.916507,0.131786,-0.003914,0.017249,-0.049321,-0.023278,-0.014619,-0.003590,0.015011,-6.083025,-28.987690,0.156662,13.777952,0.081876,1.337692,-0.097184,0.000000,0.000000,0.000000,0.000000,0.000000,0.000000
12387656.000000,-0.344760,0.544363,0.450753,-1.426912,-0.242553,1.916511,0.131817,-0.002684,0.019004,-0.058700,-0.031041,-0.026434,0.000146,0.019771,-7.669940,-25.758320,-1.537369,11.334105,0.093778,1.389877,-0.070634,0.000000,0.000000,0.000000,0.000000,0.000000,0.000000
12387657.000000,-0.344791,0.544463,0.450635,-1.426993,-0.242609,1.916567,0.131862,-0.003008,0.034121,-0.064443,-0.040422,-0.034519,0.020765,0.025776,-8.534808,-23.139912,-2.767227,9.084654,0.088285,1.090499,-0.110001,0.000000,0.000000,0.000000,0.000000,0.000000,0.000000
12387658.000000,-0.344816,0.544583,0.450526,-1.427075,-0.242711,1.916704,0.131893,-0.003382,0.053903,-0.066282,-0.043672,-0.055643,0.060210,0.029497,-8.808551,-21.156269,-3.405960,6.906615,0.369352,0.245467,-0.011124,0.000000,0.000000,0.000000,0.000000,0.000000,0.000000
12387659.000000,-0.344829,0.544704,0.450428,-1.427176,-0.242799,1.916866,0.131939,-0.003971,0.067041,-0.072098,-0.055212,-0.068275,0.099505,0.031837,-8.582416,-19.565388,-3.405960,5.077696,0.464567,-0.540971,-0.011124,0.000000,0.000000,0.000000,0.000000,0.000000,0.000000
12387660.000000,-0.344853,0.544809,0.450372,-1.427275,-0.242885,1.917016,0.131988,-0.010772,0.077600,-0.067646,-0.064656,-0.072995,0.123076,0.038635,-7.717547,-18.192707,-3.282974,3.570128,0.434354,-0.833939,-0.023942,0.000000,0.000000,0.000000,0.000000,0.000000,0.000000
12387661.000000,-0.344867,0.544904,0.450336,-1.427389,-0.242973,1.917154,0.132034,-0.016075,0.077766,-0.054709,-0.075746,-0.074925,0.131559,0.042749,-6.725726,-16.823994,-2.961624,2.558470,0.351041,-0.632523,-0.011124,0.000000,0.000000,0.000000,0.000000,0.000000,0.000000
12387662.000000,-0.344861,0.544988,0.450305,-1.427504,-0.243055,1.917316,0.132097,-0.014258,0.080310,-0.049651,-0.088837,-0.073879,0.136814,0.047857,-5.884661,-15.451313,-2.374466,1.792784,0.189908,-0.313920,-0.064225,0.000000,0.000000,0.000000,0.000000,0.000000,0.000000
12387663.000000,-0.344857,0.545049,0.450277,-1.427649,-0.243119,1.917514,0.132160,-0.010301,0.074870,-0.050501,-0.108837,-0.068504,0.153857,0.055402,-4.995989,-13.935810,-1.660355,1.542845,-0.103060,-0.060319,-0.083451,0.000000,0.000000,0.000000,0.000000,0.000000,0.000000
12387664.000000,-0.344867,0.545083,0.450264,-1.427834,-0.243184,1.917743,0.132226,-0.013483,0.062130,-0.042159,-0.132945,-0.066739,0.175866,0.061522,-3.928790,-12.198139,-1.144608,1.887999,-0.360323,0.102645,-0.116410,0.000000,0.000000,0.000000,0.000000,0.000000,0.000000
12387665.000000,-0.344874,0.545106,0.450225,-1.428030,-0.243267,1.918000,0.132291,-0.013800,0.050048,-0.044771,-0.156214,-0.068831,0.199456,0.063519,-3.040118,-10.460468,-0.359085,2.435484,-0.407931,0.323287,-0.089860,0.000000,0.000000,0.000000,0.000000,0.000000,0.000000
12387666.000000,-0.344888,0.545145,0.450174,-1.428243,-0.243375,1.918274,0.132362,-0.017079,0.044291,-0.050139,-0.178676,-0.079744,0.218389,0.067449,-2.147479,-8.992573,0.474045,3.026610,-0.192782,0.538436,-0.116410,0.000000,0.000000,0.000000,0.000000,0.000000,0.000000
12387667.000000,-0.344925,0.545206,0.450134,-1.428453,-0.243491,1.918566,0.132424,-0.027145,0.049316,-0.049216,-0.192309,-0.094062,0.240275,0.065379,-1.060443,-7.937275,0.989792,3.399534,0.088285,0.668441,-0.011124,0.000000,0.000000,0.000000,0.000000,0.000000,0.000000
12387668.000000,-0.344972,0.545283,0.450085,-1.428685,-0.243596,1.918885,0.132504,-0.033646,0.059486,-0.048165,-0.207756,-0.101876,0.263307,0.069813,0.006757,-7.203327,1.481735,3.744688,0.195402,0.733443,-0.056901,0.000000,0.000000,0.000000,0.000000,0.000000,0.000000
12387669.000000,-0.345005,0.545388,0.450052,-1.428917,-0.243706,1.919237,0.132584,-0.031116,0.075779,-0.043730,-0.216321,-0.107935,0.289222,0.075818,0.772443,-6.909748,1.676132,3.843870,0.303434,0.700484,-0.056901,0.000000,0.000000,0.000000,0.000000,0.000000,0.000000
12387670.000000,-0.345027,0.545506,0.450021,-1.429152,-0.243797,1.919623,0.132662,-0.029674,0.088744,-0.038880,-0.223815,-0.104623,0.316122,0.073692,1.268354,-6.838337,1.775314,3.843870,0.201810,0.576888,-0.004716,0.000000,0.000000,0.000000,0.000000,0.000000,0.000000
12387671.000000,-0.345045,0.545641,0.449989,-1.429387,-0.243875,1.920033,0.132751,-0.025853,0.103282,-0.035243,-0.226673,-0.095422,0.347808,0.076522,1.613508,-6.909748,1.846725,3.470946,-0.097567,0.388290,-0.064225,0.000000,0.000000,0.000000,0.000000,0.000000,0.000000
12387672.000000,-0.345067,0.545779,0.449961,-1.429640,-0.243966,1.920451,0.132835,-0.023250,0.116806,-0.031342,-0.241483,-0.089515,0.374368,0.075653,1.934858,-6.885944,1.846725,3.224974,-0.270602,0.356246,-0.050492,0.000000,0.000000,0.000000,0.000000,0.000000,0.000000
12387673.000000,-0.345083,0.545908,0.449922,-1.429897,-0.244067,1.920869,0.132922,-0.025281,0.121585,-0.031704,-0.243398,-0.089432,0.386715,0.076143,2.133222,-6.663776,1.969711,2.903624,-0.330111,0.511886,-0.064225,0.000000,0.000000,0.000000,0.000000,0.000000,0.000000
12387674.000000,-0.345095,0.546032,0.449879,-1.430179,-0.244186,1.921304,0.133005,-0.022022,0.119230,-0.035266,-0.254163,-0.100077,0.403605,0.075939,2.232404,-6.199604,2.092697,2.705260,-0.211093,0.629073,-0.064225,0.000000,0.000000,0.000000,0.000000,0.000000,0.000000
12387675.000000,-0.345114,0.546147,0.449834,-1.430478,-0.244309,1.921787,0.133084,-0.018787,0.116784,-0.041640,-0.267358,-0.110480,0.425789,0.079373,2.406965,-5.541035,2.239486,2.705260,-0.025240,0.622665,-0.037675,0.000000,0.000000,0.000000,0.000000,0.000000,0.000000
12387676.000000,-0.345136,0.546245,0.449794,-1.430798,-0.244429,1.922312,0.133172,-0.019719,0.110692,-0.040970,-0.283115,-0.115838,0.453190,0.083932,2.581525,-4.684101,2.291061,2.879820,0.117582,0.446883,-0.070634,0.000000,0.000000,0.000000,0.000000,0.000000,0.000000
12387677.000000,-0.345149,0.546357,0.449757,-1.431133,-0.244549,1.922855,0.133252,-0.017661,0.108595,-0.038337,-0.297382,-0.122901,0.482352,0.084259,2.629133,-3.898579,2.239486,3.002806,0.219205,0.277511,-0.011124,0.000000,0.000000,0.000000,0.000000,0.000000,0.000000
12387678.000000,-0.345161,0.546490,0.449723,-1.431462,-0.244660,1.923400,0.133343,-0.012238,0.117238,-0.034991,-0.307049,-0.114251,0.494328,0.082871,2.629133,-3.386799,2.116501,2.979002,0.201810,0.336105,-0.031266,0.000000,0.000000,0.000000,0.000000,0.000000,0.000000
12387679.000000,-0.345161,0.546645,0.449689,-1.431786,-0.244766,1.923949,0.133425,-0.005630,0.124673,-0.033372,-0.309651,-0.109825,0.526153,0.084764,2.506147,-3.335224,2.021286,2.780638,0.100187,0.616256,-0.011124,0.000000,0.000000,0.000000,0.000000,0.000000,0.000000
12387680.000000,-0.345158,0.546819,0.449658,-1.432100,-0.244864,1.924521,0.133517,-0.002251,0.139202,-0.030978,-0.307214,-0.104709,0.540553,0.089075,2.430768,-3.973957,1.997482,2.606077,-0.060946,0.882674,-0.064225,0.000000,0.000000,0.000000,0.000000,0.000000,0.000000
12387681.000000,-0.345159,0.546999,0.449637,-1.432419,-0.244962,1.925150,0.133602,-0.001696,0.152712,-0.026452,-0.307341,-0.097542,0.570820,0.089964,2.430768,-5.219685,1.997482,2.657652,-0.192782,0.889083,-0.056901,0.000000,0.000000,0.000000,0.000000,0.000000,0.000000
12387682.000000,-0.345162,0.547182,0.449615,-1.432756,-0.245051,1.925819,0.133681,-0.000950,0.164652,-0.023391,-0.314685,-0.091480,0.599383,0.084587,2.553754,-6.786762,2.144272,3.026610,-0.353915,0.609847,-0.023942,0.000000,0.000000,0.000000,0.000000,0.000000,0.000000
12387683.000000,-0.345160,0.547356,0.449590,-1.433096,-0.245163,1.926524,0.133767,0.003463,0.169729,-0.023647,-0.321819,-0.099919,0.633404,0.083458,2.652936,-8.282429,2.414047,3.494749,-0.300814,0.199691,-0.056901,0.000000,0.000000,0.000000,0.000000,0.000000,0.000000
12387684.000000,-0.345158,0.547532,0.449562,-1.433444,-0.245301,1.927226,0.133843,0.003145,0.177072,-0.024495,-0.330855,-0.108602,0.646969,0.079466,2.779890,-9.726521,2.731430,3.915282,-0.043551,-0.020951,-0.004716,0.000000,0.000000,0.000000,0.000000,0.000000,0.000000
12387685.000000,-0.345153,0.547708,0.449536,-1.433798,-0.245435,1.927895,0.133924,0.004291,0.177790,-0.028733,-0.340880,-0.113733,0.655618,0.083117,2.851301,-11.000019,2.953598,4.189024,0.201810,0.044051,0.001693,0.000000,0.000000,0.000000,0.000000,0.000000,0.000000
12387686.000000,-0.345151,0.547878,0.449506,-1.434161,-0.245566,1.928554,0.134004,0.003029,0.176345,-0.028041,-0.345692,-0.114004,0.653459,0.085546,2.879072,-12.198139,3.147995,4.486571,0.374845,0.193282,0.009017,0.000000,0.000000,0.000000,0.000000,0.000000,0.000000
12387687.000000,-0.345139,0.548050,0.449476,-1.434543,-0.245681,1.929229,0.134085,0.005340,0.169761,-0.028394,-0.347334,-0.112843,0.659760,0.084117,2.629133,-13.566853,3.247177,5.101500,0.381254,0.316879,-0.017533,0.000000,0.000000,0.000000,0.000000,0.000000,0.000000
12387688.000000,-0.345119,0.548214,0.449452,-1.434918,-0.245785,1.929920,0.134170,0.009690,0.167840,-0.026657,-0.353101,-0.107488,0.670736,0.087966,2.109418,-15.086323,3.247177,6.065550,0.255826,0.394698,-0.056901,0.000000,0.000000,0.000000,0.000000,0.000000,0.000000
12387689.000000,-0.345116,0.548381,0.449428,-1.435300,-0.245882,1.930616,0.134240,0.008465,0.167555,-0.027615,-0.360422,-0.101123,0.671093,0.082028,1.740461,-16.800190,3.199569,7.378722,0.052579,0.453292,0.015426,0.000000,0.000000,0.000000,0.000000,0.000000,0.000000
12387690.000000,-0.345122,0.548553,0.449398,-1.435668,-0.245982,1.931293,0.134326,0.006351,0.168763,-0.024080,-0.366762,-0.101352,0.676228,0.087200,1.542096,-18.609272,3.223373,8.687925,-0.037142,0.641891,-0.037675,0.000000,0.000000,0.000000,0.000000,0.000000,0.000000
12387691.000000,-0.345130,0.548729,0.449360,-1.436041,-0.246097,1.931955,0.134403,0.004293,0.172822,-0.026236,-0.369278,-0.106488,0.661394,0.087456,1.367536,-20.446125,3.322555,10.143919,0.010465,1.039230,0.001693,0.000000,0.000000,0.000000,0.000000,0.000000,0.000000
12387692.000000,-0.345142,0.548916,0.449326,-1.436411,-0.246229,1.932607,0.134483,-0.001997,0.181592,-0.027256,-0.372360,-0.114927,0.654607,0.088711,1.268354,-22.282978,3.393966,11.429319,0.201810,1.396285,0.015426,0.000000,0.000000,0.000000,0.000000,0.000000,0.000000
12387693.000000,-0.345147,0.549123,0.449287,-1.436783,-0.246345,1.933283,0.134570,-0.001561,0.189737,-0.028088,-0.376086,-0.116039,0.655960,0.086119,1.093793,-24.191242,3.469345,12.643309,0.255826,1.448470,-0.004716,0.000000,0.000000,0.000000,0.000000,0.000000,0.000000
12387694.000000,-0.345158,0.549338,0.449237,-1.437163,-0.246464,1.933974,0.134652,-0.003599,0.199912,-0.034584,-0.379123,-0.116581,0.662118,0.088158,1.022382,-26.028095,3.663742,13.754148,0.303434,1.350509,-0.004716,0.000000,0.000000,0.000000,0.000000,0.000000,0.000000
12387695.000000,-0.345158,0.549564,0.449185,-1.437544,-0.246583,1.934651,0.134733,-0.001387,0.210639,-0.038814,-0.383357,-0.115819,0.663432,0.084506,0.796247,-27.741962,3.838302,14.519835,0.315336,1.188461,0.009017,0.000000,0.000000,0.000000,0.000000,0.000000,0.000000
12387696.000000,-0.345155,0.549805,0.449128,-1.437923,-0.246703,1.935310,0.134815,0.000574,0.224130,-0.046050,-0.384896,-0.114276,0.652942,0.087211,0.550275,-29.404255,4.056503,15.186338,0.297025,1.169235,0.001693,0.000000,0.000000,0.000000,0.000000,0.000000,0.000000
12387697.000000,-0.345156,0.550048,0.449071,-1.438303,-0.246829,1.935937,0.134899,-0.000409,0.231772,-0.050044,-0.382456,-0.115724,0.657427,0.085046,0.403486,-30.824543,4.227097,15.559263,0.344633,1.357833,-0.017533,0.000000,0.000000,0.000000,0.000000,0.000000,0.000000
12387698.000000,-0.345162,0.550295,0.449010,-1.438691,-0.246948,1.936551,0.134977,-0.003374,0.236837,-0.053803,-0.383743,-0.120349,0.645650,0.085544,0.351911,-32.050434,4.425461,15.856810,0.362943,1.565658,0.015426,0.000000,0.000000,0.000000,0.000000,0.000000,0.000000
12387699.000000,-0.345172,0.550530,0.448939,-1.439095,-0.247073,1.937180,0.135066,-0.006510,0.234046,-0.060849,-0.390314,-0.123711,0.638106,0.084842,0.351911,-32.954975,4.695236,16.225767,0.386747,1.617843,-0.031266,0.000000,0.000000,0.000000,0.000000,0.000000,0.000000
12387700.000000,-0.345189,0.550758,0.448865,-1.439520,-0.247196,1.937811,0.135146,-0.010336,0.230687,-0.062277,-0.398869,-0.120965,0.638620,0.081408,0.427289,-33.641315,4.917404,16.721678,0.386747,1.519881,-0.004716,0.000000,0.000000,0.000000,0.000000,0.000000,0.000000
12387701.000000,-0.345201,0.550982,0.448792,-1.439941,-0.247319,1.938437,0.135221,-0.007960,0.228863,-0.068078,-0.404270,-0.123038,0.640899,0.081695,0.427289,-34.153095,5.087997,17.166014,0.369352,1.461288,0.061202,0.000000,0.000000,0.000000,0.000000,0.000000,0.000000
12387702.000000,-0.345226,0.551210,0.448712,-1.440364,-0.247443,1.939050,0.135310,-0.013885,0.226186,-0.070268,-0.405202,-0.120421,0.632077,0.083047,0.625654,-34.569660,5.286362,17.388182,0.362943,1.565658,-0.011124,0.000000,0.000000,0.000000,0.000000,0.000000,0.000000
12387703.000000,-0.345243,0.551452,0.448633,-1.440790,-0.247574,1.939645,0.135384,-0.015603,0.226983,-0.075589,-0.409599,-0.119808,0.619143,0.079355,0.724836,-35.061604,5.504562,17.709532,0.393156,1.714889,0.034652,0.000000,0.000000,0.000000,0.000000,0.000000,0.000000
12387704.000000,-0.345260,0.551691,0.448544,-1.441218,-0.247705,1.940235,0.135464,-0.016114,0.228507,-0.081075,-0.413131,-0.122303,0.608465,0.077533,0.796247,-35.573383,5.798141,17.907896,0.386747,1.884261,0.061202,0.000000,0.000000,0.000000,0.000000,0.000000,0.000000
12387705.000000,-0.345268,0.551934,0.448460,-1.441652,-0.247841,1.940834,0.135550,-0.014361,0.234228,-0.082445,-0.420872,-0.129410,0.608743,0.083667,0.772443,-36.013752,5.972702,18.177671,0.405057,1.858627,0.001693,0.000000,0.000000,0.000000,0.000000,0.000000,0.000000
12387706.000000,-0.345282,0.552180,0.448371,-1.442094,-0.247971,1.941444,0.135627,-0.011758,0.239972,-0.084010,-0.425580,-0.123961,0.610632,0.084881,0.824018,-36.406513,6.167099,18.526793,0.369352,1.786300,0.034652,0.000000,0.000000,0.000000,0.000000,0.000000,0.000000
12387707.000000,-0.345294,0.552435,0.448282,-1.442532,-0.248106,1.942052,0.135718,-0.011851,0.243862,-0.083977,-0.428216,-0.132007,0.615424,0.084778,0.824018,-36.846882,6.313889,18.748960,0.405057,1.741439,-0.023942,0.000000,0.000000,0.000000,0.000000,0.000000,0.000000
12387708.000000,-0.345304,0.552691,0.448187,-1.442967,-0.248240,1.942640,0.135794,-0.011860,0.247208,-0.088590,-0.439732,-0.128670,0.608947,0.079190,0.824018,-37.311054,6.512253,18.895750,0.440763,1.825668,0.061202,0.000000,0.000000,0.000000,0.000000,0.000000,0.000000
12387709.000000,-0.345314,0.552945,0.448094,-1.443403,-0.248375,1.943226,0.135878,-0.008785,0.247786,-0.087185,-0.440080,-0.130977,0.607025,0.078941,0.824018,-37.680012,6.659042,18.971128,0.488370,1.942855,0.048385,0.000000,0.000000,0.000000,0.000000,0.000000,0.000000
12387710.000000,-0.345324,0.553202,0.447996,-1.443855,-0.248503,1.943822,0.135966,-0.005866,0.248918,-0.091653,-0.442513,-0.127146,0.601092,0.079132,0.796247,-37.949787,6.881210,19.141722,0.506681,1.968490,0.021835,0.000000,0.000000,0.000000,0.000000,0.000000,0.000000
12387711.000000,-0.345334,0.553451,0.447907,-1.444298,-0.248629,1.944425,0.136055,-0.007515,0.247782,-0.090271,-0.443700,-0.127561,0.596933,0.078779,0.796247,-38.096577,6.905014,19.268675,0.488370,1.962081,0.001693,0.000000,0.000000,0.000000,0.000000,0.000000,0.000000
12387712.000000,-0.345333,0.553703,0.447809,-1.444757,-0.248755,1.945039,0.136137,-0.005373,0.247085,-0.088567,-0.445945,-0.126220,0.596462,0.082362,0.649457,-38.243366,7.028000,19.463072,0.428861,1.890670,0.009017,0.000000,0.000000,0.000000,0.000000,0.000000,0.000000
12387713.000000,-0.345345,0.553956,0.447722,-1.445211,-0.248881,1.945642,0.136217,-0.007484,0.249813,-0.084554,-0.448147,-0.127619,0.604404,0.078835,0.649457,-38.267170,7.028000,19.514647,0.422452,1.851302,0.054794,0.000000,0.000000,0.000000,0.000000,0.000000,0.000000
12387714.000000,-0.345359,0.554208,0.447641,-1.445655,-0.249017,1.946251,0.136307,-0.006919,0.245024,-0.083183,-0.446537,-0.133863,0.605219,0.080488,0.697065,-38.362385,6.952621,19.562254,0.428861,1.909896,-0.011124,0.000000,0.000000,0.000000,0.000000,0.000000,0.000000
12387715.000000,-0.345365,0.554460,0.447558,-1.446107,-0.249151,1.946853,0.136386,-0.004668,0.246796,-0.082993,-0.444988,-0.129767,0.618679,0.077158,0.673261,-38.413960,6.905014,19.637632,0.452665,1.962081,0.041976,0.000000,0.000000,0.000000,0.000000,0.000000,0.000000
12387716.000000,-0.345366,0.554711,0.447477,-1.446549,-0.249283,1.947463,0.136470,-0.000137,0.246660,-0.083039,-0.441748,-0.132043,0.613298,0.080998,0.526471,-38.390156,6.853439,19.713011,0.494779,2.001449,0.054794,0.000000,0.000000,0.000000,0.000000,0.000000,0.000000
12387717.000000,-0.345365,0.554960,0.447399,-1.446999,-0.249408,1.948071,0.136563,-0.000092,0.244145,-0.078893,-0.443826,-0.131737,0.610417,0.081214,0.375715,-38.390156,6.782028,19.713011,0.494779,2.001449,0.001693,0.000000,0.000000,0.000000,0.000000,0.000000,0.000000
12387718.000000,-0.345361,0.555209,0.447323,-1.447444,-0.249529,1.948684,0.136640,0.000288,0.245075,-0.079217,-0.441730,-0.125748,0.614686,0.077717,0.205121,-38.390156,6.706650,19.685240,0.458158,1.981307,0.054794,0.000000,0.000000,0.000000,0.000000,0.000000,0.000000
12387719.000000,-0.345355,0.555465,0.447248,-1.447885,-0.249649,1.949300,0.136731,0.000496,0.248219,-0.076686,-0.443056,-0.125950,0.612079,0.079057,0.030561,-38.461567,6.635239,19.637632,0.416959,1.962081,0.001693,0.000000,0.000000,0.000000,0.000000,0.000000,0.000000
12387720.000000,-0.345343,0.555727,0.447178,-1.448321,-0.249772,1.949915,0.136813,0.005334,0.250287,-0.076367,-0.440695,-0.127231,0.609746,0.077790,-0.215411,-38.536945,6.488449,19.490843,0.405057,1.968490,0.009017,0.000000,0.000000,0.000000,0.000000,0.000000,0.000000
12387721.000000,-0.345332,0.555987,0.447107,-1.448756,-0.249893,1.950522,0.136896,0.007634,0.249853,-0.074126,-0.437149,-0.123692,0.608262,0.075464,-0.413775,-38.659931,6.389267,19.340086,0.398649,1.955673,0.054794,0.000000,0.000000,0.000000,0.000000,0.000000,0.000000
12387724.000000,-0.345295,0.556763,0.446917,-1.450047,-0.250271,1.952413,0.137164,0.011104,0.257047,-0.066692,-0.428325,-0.129907,0.619356,0.081844,-0.786700,-39.024921,5.948898,19.042540,0.458158,1.747848,0.009017,0.000000,0.000000,0.000000,0.000000,0.000000,0.000000
12387725.000000,-0.345281,0.557015,0.446856,-1.450469,-0.250400,1.953038,0.137241,0.012381,0.254967,-0.067129,-0.422175,-0.130677,0.620429,0.077416,-0.862078,-39.024921,5.849716,18.947325,0.464567,1.714889,0.074935,0.000000,0.000000,0.000000,0.000000,0.000000,0.000000
12387726.000000,-0.345265,0.557281,0.446801,-1.450879,-0.250524,1.953658,0.137338,0.013415,0.258699,-0.066980,-0.428898,-0.130343,0.619605,0.079849,-0.933489,-39.124104,5.726730,18.848143,0.446256,1.735030,0.001693,0.000000,0.000000,0.000000,0.000000,0.000000,0.000000
12387727.000000,-0.345251,0.557540,0.446747,-1.451287,-0.250648,1.954278,0.137418,0.013755,0.259228,-0.062326,-0.422054,-0.130197,0.616988,0.080944,-0.985064,-39.247089,5.556137,18.697386,0.434354,1.793624,0.067611,0.000000,0.000000,0.000000,0.000000,0.000000,0.000000
12387728.000000,-0.345229,0.557806,0.446694,-1.451696,-0.250764,1.954896,0.137503,0.017029,0.260392,-0.060447,-0.419483,-0.123127,0.610879,0.079238,-1.159625,-39.417683,5.433151,18.526793,0.356534,1.786300,0.081344,0.000000,0.000000,0.000000,0.000000,0.000000,0.000000
12387729.000000,-0.345214,0.558067,0.446644,-1.452094,-0.250880,1.955515,0.137596,0.013764,0.258723,-0.054568,-0.412475,-0.123968,0.614410,0.080727,-1.231036,-39.465290,5.258591,18.376036,0.308927,1.754256,0.015426,0.000000,0.000000,0.000000,0.000000,0.000000,0.000000
12387730.000000,-0.345190,0.558334,0.446592,-1.452498,-0.251001,1.956149,0.137678,0.016882,0.263933,-0.052021,-0.410988,-0.120472,0.618557,0.077850,-1.405596,-39.659687,5.163376,18.276854,0.285123,1.689254,0.054794,0.000000,0.000000,0.000000,0.000000,0.000000,0.000000
12387731.000000,-0.345173,0.558596,0.446544,-1.452894,-0.251119,1.956776,0.137770,0.016853,0.264838,-0.050003,-0.405157,-0.123762,0.627083,0.079043,-1.480975,-39.758869,5.064194,18.078489,0.285123,1.605026,0.009017,0.000000,0.000000,0.000000,0.000000,0.000000,0.000000
12387732.000000,-0.345162,0.558856,0.446494,-1.453290,-0.251245,1.957396,0.137851,0.015117,0.263934,-0.052745,-0.402946,-0.127213,0.623523,0.076197,-1.480975,-39.758869,5.012619,17.983274,0.315336,1.624252,0.054794,0.000000,0.000000,0.000000,0.000000,0.000000,0.000000
12387733.000000,-0.345148,0.559132,0.446442,-1.453685,-0.251379,1.958010,0.137935,0.011470,0.266370,-0.054775,-0.397943,-0.131914,0.627648,0.076374,-1.504779,-39.881855,4.965012,17.931700,0.405057,1.643478,0.048385,0.000000,0.000000,0.000000,0.000000,0.000000,0.000000
12387734.000000,-0.345138,0.559398,0.446392,-1.454074,-0.251503,1.958638,0.138024,0.011461,0.265818,-0.053040,-0.395864,-0.131789,0.626151,0.081616,-1.504779,-39.905659,4.917404,17.907896,0.405057,1.637069,0.015426,0.000000,0.000000,0.000000,0.000000,0.000000,0.000000
12387735.000000,-0.345131,0.559666,0.446344,-1.454464,-0.251634,1.959273,0.138105,0.009762,0.266060,-0.050893,-0.394548,-0.126802,0.626062,0.077331,-1.429400,-39.957233,4.842026,17.907896,0.405057,1.572067,0.087753,0.000000,0.000000,0.000000,0.000000,0.000000,0.000000
12387736.000000,-0.345126,0.559939,0.446286,-1.454860,-0.251753,1.959890,0.138196,0.008689,0.268595,-0.052135,-0.399564,-0.121932,0.626982,0.078544,-1.354022,-40.004841,4.893600,18.030882,0.369352,1.519881,0.048385,0.000000,0.000000,0.000000,0.000000,0.000000,0.000000
12387737.000000,-0.345120,0.560213,0.446236,-1.455245,-0.251876,1.960503,0.138287,0.008713,0.268516,-0.053670,-0.394187,-0.122781,0.622646,0.077675,-1.306414,-40.199238,4.842026,18.054686,0.320829,1.584884,0.041976,0.000000,0.000000,0.000000,0.000000,0.000000,0.000000
12387738.000000,-0.345115,0.560493,0.446186,-1.455631,-0.251995,1.961116,0.138377,0.008118,0.270491,-0.054566,-0.390718,-0.123334,0.617965,0.082778,-1.231036,-40.369831,4.770615,18.130064,0.267728,1.714889,0.015426,0.000000,0.000000,0.000000,0.000000,0.000000,0.000000
12387739.000000,-0.345118,0.560774,0.446129,-1.456014,-0.252118,1.961732,0.138457,0.005498,0.274121,-0.054877,-0.386474,-0.125183,0.619372,0.083080,-1.060443,-40.492817,4.818222,18.229246,0.249418,1.714889,0.081344,0.000000,0.000000,0.000000,0.000000,0.000000,0.000000
12387740.000000,-0.345116,0.561047,0.446066,-1.456404,-0.252244,1.962353,0.138545,0.004278,0.274797,-0.056676,-0.386264,-0.126197,0.614326,0.086814,-0.909686,-40.663410,4.941208,18.352232,0.231107,1.708480,0.061202,0.000000,0.000000,0.000000,0.000000,0.000000,0.000000
12387741.000000,-0.345118,0.561331,0.445997,-1.456802,-0.252367,1.962960,0.138636,-0.000238,0.276369,-0.061415,-0.388951,-0.128168,0.615452,0.085123,-0.735125,-40.909382,5.087997,18.451414,0.237516,1.727706,0.021835,0.000000,0.000000,0.000000,0.000000,0.000000,0.000000
12387742.000000,-0.345112,0.561613,0.445930,-1.457187,-0.252497,1.963580,0.138716,-0.000527,0.283388,-0.061144,-0.387314,-0.130192,0.616402,0.085233,-0.687518,-41.056171,5.210983,18.526793,0.261320,1.747848,0.074935,0.000000,0.000000,0.000000,0.000000,0.000000,0.000000
12387743.000000,-0.345115,0.561891,0.445857,-1.457578,-0.252633,1.964208,0.138808,-0.000842,0.283149,-0.065507,-0.386447,-0.131824,0.619195,0.089050,-0.512957,-41.302143,5.405380,18.526793,0.297025,1.702071,0.021835,0.000000,0.000000,0.000000,0.000000,0.000000,0.000000
12387744.000000,-0.345119,0.562179,0.445787,-1.457969,-0.252765,1.964823,0.138894,-0.000715,0.284495,-0.066462,-0.385820,-0.137285,0.621763,0.084113,-0.342364,-41.496540,5.504562,18.598204,0.315336,1.656295,0.061202,0.000000,0.000000,0.000000,0.000000,0.000000,0.000000
12387745.000000,-0.345126,0.562452,0.445705,-1.458373,-0.252904,1.965446,0.138984,-0.001872,0.280747,-0.070388,-0.389393,-0.133001,0.626423,0.082961,-0.116229,-41.472736,5.750534,18.721189,0.369352,1.617843,0.034652,0.000000,0.000000,0.000000,0.000000,0.000000,0.000000
12387746.000000,-0.345129,0.562735,0.445624,-1.458773,-0.253040,1.966068,0.139071,-0.000744,0.282026,-0.071620,-0.390556,-0.133187,0.637949,0.081319,0.030561,-41.619526,5.921127,18.820372,0.386747,1.565658,0.028243,0.000000,0.000000,0.000000,0.000000,0.000000,0.000000
12387747.000000,-0.345135,0.563019,0.445542,-1.459170,-0.253171,1.966675,0.139155,-0.003694,0.278473,-0.072582,-0.391674,-0.132777,0.633879,0.078684,0.205121,-41.694904,6.095688,18.895750,0.386747,1.682845,0.054794,0.000000,0.000000,0.000000,0.000000,0.000000,0.000000
12387748.000000,-0.345139,0.563297,0.445455,-1.459562,-0.253299,1.967280,0.139241,-0.004675,0.277655,-0.076108,-0.387197,-0.130775,0.622501,0.078921,0.328107,-41.718708,6.266281,18.895750,0.344633,1.779891,0.028243,0.000000,0.000000,0.000000,0.000000,0.000000,0.000000
12387749.000000,-0.345153,0.563582,0.445368,-1.459969,-0.253429,1.967882,0.139326,-0.007816,0.279612,-0.078272,-0.389570,-0.129875,0.621505,0.076767,0.550275,-41.865498,6.436874,18.971128,0.308927,1.806442,0.061202,0.000000,0.000000,0.000000,0.000000,0.000000,0.000000
12387750.000000,-0.345163,0.563863,0.445277,-1.460369,-0.253558,1.968495,0.139418,-0.007714,0.279465,-0.080728,-0.392194,-0.124092,0.615178,0.082790,0.673261,-41.913105,6.611435,19.094114,0.261320,1.838485,0.015426,0.000000,0.000000,0.000000,0.000000,0.000000,0.000000
12387751.000000,-0.345170,0.564151,0.445185,-1.460771,-0.253689,1.969112,0.139504,-0.005419,0.278689,-0.082406,-0.391292,-0.125582,0.611834,0.084295,0.697065,-41.936909,6.782028,19.141722,0.237516,1.851302,0.048385,0.000000,0.000000,0.000000,0.000000,0.000000,0.000000
12387752.000000,-0.345187,0.564433,0.445097,-1.461168,-0.253826,1.969720,0.139597,-0.009491,0.275877,-0.082589,-0.394656,-0.128447,0.610678,0.087808,0.824018,-41.988483,6.905014,19.193296,0.261320,1.825668,0.021835,0.000000,0.000000,0.000000,0.000000,0.000000,0.000000
12387753.000000,-0.345203,0.564709,0.445002,-1.461575,-0.253968,1.970331,0.139680,-0.011279,0.278834,-0.082811,-0.400815,-0.135461,0.606068,0.087577,0.895429,-41.988483,7.051804,19.268675,0.303434,1.858627,0.067611,0.000000,0.000000,0.000000,0.000000,0.000000,0.000000
12387754.000000,-0.345217,0.564985,0.444910,-1.461978,-0.254110,1.970936,0.139767,-0.012193,0.273098,-0.085134,-0.401683,-0.140689,0.603705,0.085912,0.947004,-41.936909,7.150986,19.316282,0.362943,1.903487,0.034652,0.000000,0.000000,0.000000,0.000000,0.000000,0.000000
12387755.000000,-0.345223,0.565259,0.444811,-1.462372,-0.254251,1.971563,0.139855,-0.011199,0.274550,-0.088312,-0.401734,-0.145371,0.610523,0.082888,0.923200,-41.960712,7.297775,19.316282,0.422452,1.832076,0.041976,0.000000,0.000000,0.000000,0.000000,0.000000,0.000000
12387756.000000,-0.345231,0.565537,0.444710,-1.462774,-0.254387,1.972188,0.139938,-0.008669,0.274810,-0.091366,-0.399453,-0.141086,0.610956,0.084483,0.947004,-41.960712,7.468369,19.391661,0.405057,1.773483,0.074935,0.000000,0.000000,0.000000,0.000000,0.000000,0.000000
12387757.000000,-0.345238,0.565814,0.444618,-1.463176,-0.254519,1.972790,0.140035,-0.009391,0.273498,-0.090855,-0.402078,-0.137659,0.611873,0.084767,0.947004,-41.889301,7.515976,19.490843,0.374845,1.806442,0.009017,0.000000,0.000000,0.000000,0.000000,0.000000,0.000000
12387758.000000,-0.345243,0.566086,0.444519,-1.463576,-0.254655,1.973407,0.140118,-0.008844,0.275398,-0.094866,-0.400260,-0.135706,0.603737,0.085580,0.895429,-41.936909,7.615158,19.562254,0.362943,1.812850,0.048385,0.000000,0.000000,0.000000,0.000000,0.000000,0.000000
12387759.000000,-0.345243,0.566354,0.444423,-1.463985,-0.254784,1.973998,0.140208,-0.004308,0.273324,-0.093704,-0.401185,-0.132783,0.600916,0.088830,0.796247,-41.865498,7.666733,19.736814,0.327238,1.884261,0.021835,0.000000,0.000000,0.000000,0.000000,0.000000,0.000000
12387760.000000,-0.345255,0.566621,0.444331,-1.464383,-0.254922,1.974589,0.140295,-0.007823,0.269193,-0.091838,-0.403908,-0.133260,0.592887,0.084500,0.847822,-41.766315,7.666733,19.859800,0.339139,1.988631,0.041976,0.000000,0.000000,0.000000,0.000000,0.000000,0.000000
12387761.000000,-0.345257,0.566887,0.444239,-1.464797,-0.255065,1.975190,0.140381,-0.007297,0.268805,-0.090472,-0.407796,-0.133535,0.595934,0.085786,0.772443,-41.667133,7.690536,20.081968,0.356534,1.981307,0.061202,0.000000,0.000000,0.000000,0.000000,0.000000,0.000000
12387762.000000,-0.345258,0.567164,0.444148,-1.465202,-0.255206,1.975782,0.140477,-0.003874,0.269440,-0.092263,-0.406646,-0.138415,0.596962,0.090197,0.697065,-41.619526,7.666733,20.256529,0.369352,2.014266,0.001693,0.000000,0.000000,0.000000,0.000000,0.000000,0.000000
12387763.000000,-0.345262,0.567436,0.444061,-1.465608,-0.255357,1.976381,0.140559,-0.002048,0.266753,-0.088913,-0.408015,-0.139365,0.592798,0.088073,0.649457,-41.548115,7.591354,20.403318,0.440763,2.007858,0.081344,0.000000,0.000000,0.000000,0.000000,0.000000,0.000000
12387764.000000,-0.345261,0.567714,0.443969,-1.466011,-0.255498,1.976974,0.140651,-0.000037,0.270977,-0.088819,-0.406244,-0.137499,0.602323,0.090346,0.574079,-41.619526,7.591354,20.454893,0.446256,1.981307,0.067611,0.000000,0.000000,0.000000,0.000000,0.000000,0.000000
12387765.000000,-0.345255,0.567994,0.443882,-1.466417,-0.255632,1.977561,0.140750,0.001970,0.271393,-0.088113,-0.408448,-0.135399,0.600790,0.094019,0.474897,-41.571918,7.567551,20.625486,0.428861,2.027084,-0.004716,0.000000,0.000000,0.000000,0.000000,0.000000,0.000000
12387766.000000,-0.345252,0.568260,0.443799,-1.466826,-0.255770,1.978164,0.140832,0.002182,0.269732,-0.085092,-0.406971,-0.134351,0.595048,0.090780,0.427289,-41.448933,7.444565,20.800047,0.428861,2.060043,0.081344,0.000000,0.000000,0.000000,0.000000,0.000000,0.000000
12387767.000000,-0.345237,0.568530,0.443714,-1.467229,-0.255904,1.978750,0.140925,0.011068,0.269409,-0.084380,-0.404889,-0.138116,0.591514,0.087636,0.276533,-41.373554,7.369186,20.923033,0.416959,2.085677,0.067611,0.000000,0.000000,0.000000,0.000000,0.000000,0.000000
12387768.000000,-0.345230,0.568797,0.443630,-1.467633,-0.256042,1.979347,0.141017,0.011435,0.271309,-0.084695,-0.404606,-0.136604,0.588143,0.090638,0.252729,-41.226765,7.321579,21.121397,0.416959,2.104903,0.028243,0.000000,0.000000,0.000000,0.000000,0.000000,0.000000
12387769.000000,-0.345224,0.569068,0.443550,-1.468043,-0.256184,1.979937,0.141107,0.007614,0.263856,-0.083511,-0.408288,-0.140323,0.586708,0.092753,0.276533,-41.107746,7.222397,21.391172,0.422452,2.125045,-0.004716,0.000000,0.000000,0.000000,0.000000,0.000000,0.000000
12387770.000000,-0.345205,0.569340,0.443474,-1.468450,-0.256328,1.980529,0.141189,0.010995,0.268017,-0.080852,-0.410619,-0.143009,0.590111,0.089693,0.177350,-41.131550,7.174789,21.613340,0.422452,2.144271,0.067611,0.000000,0.000000,0.000000,0.000000,0.000000,0.000000
12387771.000000,-0.345192,0.569606,0.443402,-1.468854,-0.256475,1.981122,0.141285,0.009018,0.268796,-0.076268,-0.405035,-0.146158,0.587641,0.092709,0.129743,-41.056171,7.028000,21.787901,0.458158,2.157089,0.021835,0.000000,0.000000,0.000000,0.000000,0.000000,0.000000
12387772.000000,-0.345175,0.569881,0.443331,-1.469263,-0.256622,1.981703,0.141372,0.011930,0.268100,-0.074300,-0.403955,-0.151975,0.584752,0.092861,0.030561,-41.079975,6.928818,21.962461,0.482877,2.215682,0.028243,0.000000,0.000000,0.000000,0.000000,0.000000,0.000000
12387773.000000,-0.345166,0.570142,0.443261,-1.469662,-0.256760,1.982291,0.141459,0.012248,0.274070,-0.068461,-0.402054,-0.146246,0.583023,0.091905,0.006757,-41.032368,6.782028,22.085447,0.464567,2.255050,0.048385,0.000000,0.000000,0.000000,0.000000,0.000000,0.000000
12387774.000000,-0.345151,0.570406,0.443196,-1.470074,-0.256900,1.982894,0.141549,0.013235,0.272050,-0.066740,-0.399697,-0.146271,0.587526,0.093367,-0.044818,-40.909382,6.611435,22.208433,0.434354,2.261459,0.028243,0.000000,0.000000,0.000000,0.000000,0.000000,0.000000
12387775.000000,-0.345132,0.570670,0.443130,-1.470473,-0.257039,1.983484,0.141631,0.015076,0.266660,-0.066710,-0.404777,-0.148137,0.583040,0.092139,-0.144000,-40.762592,6.512253,22.256041,0.452665,2.242233,0.067611,0.000000,0.000000,0.000000,0.000000,0.000000,0.000000
12387776.000000,-0.345113,0.570924,0.443066,-1.470880,-0.257179,1.984092,0.141725,0.016940,0.263168,-0.067254,-0.403902,-0.148147,0.584602,0.094229,-0.266986,-40.615803,6.413071,22.283812,0.440763,2.183639,0.028243,0.000000,0.000000,0.000000,0.000000,0.000000,0.000000
12387777.000000,-0.345101,0.571186,0.443004,-1.471285,-0.257317,1.984677,0.141812,0.015952,0.260744,-0.063912,-0.400017,-0.143635,0.578387,0.089152,-0.290789,-40.492817,6.290085,22.307615,0.422452,2.209274,0.034652,0.000000,0.000000,0.000000,0.000000,0.000000,0.000000
12387778.000000,-0.345091,0.571449,0.442946,-1.471681,-0.257464,1.985277,0.141904,0.014125,0.260672,-0.060954,-0.398054,-0.146216,0.583966,0.090000,-0.266986,-40.421406,6.143295,22.208433,0.440763,2.222091,0.041976,0.000000,0.000000,0.000000,0.000000,0.000000,0.000000
12387779.000000,-0.345071,0.571709,0.442889,-1.472075,-0.257617,1.985878,0.141995,0.016908,0.263311,-0.059166,-0.392746,-0.147873,0.579443,0.094959,-0.413775,-40.346027,6.020309,22.109251,0.458158,2.209274,0.048385,0.000000,0.000000,0.000000,0.000000,0.000000,0.000000
12387780.000000,-0.345059,0.571975,0.442834,-1.472470,-0.257772,1.986476,0.142084,0.015355,0.263697,-0.058546,-0.392306,-0.149722,0.586739,0.093909,-0.413775,-40.223042,5.921127,21.986265,0.482877,2.163497,0.074935,0.000000,0.000000,0.000000,0.000000,0.000000,0.000000
12387781.000000,-0.345044,0.572242,0.442781,-1.472853,-0.257921,1.987075,0.142178,0.015032,0.263440,-0.057957,-0.386399,-0.154026,0.586382,0.096027,-0.441546,-40.175434,5.825912,21.887083,0.470060,2.125045,0.021835,0.000000,0.000000,0.000000,0.000000,0.000000,0.000000
12387782.000000,-0.345034,0.572500,0.442725,-1.473240,-0.258068,1.987678,0.142265,0.014163,0.261687,-0.058618,-0.385942,-0.157346,0.600616,0.094770,-0.441546,-40.076252,5.774338,21.712523,0.452665,2.131454,0.041976,0.000000,0.000000,0.000000,0.000000,0.000000,0.000000
12387783.000000,-0.345024,0.572757,0.442671,-1.473612,-0.258214,1.988275,0.142356,0.012953,0.258809,-0.057844,-0.380496,-0.155835,0.596245,0.094480,-0.413775,-39.905659,5.679123,21.541929,0.452665,2.131454,0.041976,0.000000,0.000000,0.000000,0.000000,0.000000,0.000000
12387784.000000,-0.345009,0.573017,0.442614,-1.473988,-0.258355,1.988877,0.142441,0.013377,0.257742,-0.058309,-0.376006,-0.144110,0.597161,0.092533,-0.441546,-39.782673,5.627548,21.367369,0.428861,2.131454,0.094161,0.000000,0.000000,0.000000,0.000000,0.000000,0.000000
12387785.000000,-0.344993,0.573269,0.442559,-1.474363,-0.258494,1.989478,0.142540,0.014228,0.255954,-0.055685,-0.373780,-0.140313,0.594944,0.095841,-0.489153,-39.635883,5.579941,21.220579,0.405057,2.098495,0.021835,0.000000,0.000000,0.000000,0.000000,0.000000,0.000000
12387786.000000,-0.344986,0.573525,0.442506,-1.474725,-0.258634,1.990079,0.142624,0.012543,0.255312,-0.053072,-0.372568,-0.142280,0.598689,0.093757,-0.441546,-39.489094,5.504562,20.970640,0.381254,2.157089,0.061202,0.000000,0.000000,0.000000,0.000000,0.000000,0.000000
12387787.000000,-0.344981,0.573790,0.442448,-1.475085,-0.258782,1.990697,0.142715,0.010186,0.255815,-0.052801,-0.367848,-0.143944,0.602103,0.089690,-0.342364,-39.393879,5.504562,20.724669,0.362943,2.104903,0.048385,0.000000,0.000000,0.000000,0.000000,0.000000,0.000000
12387788.000000,-0.344966,0.574052,0.442387,-1.475433,-0.258927,1.991311,0.142808,0.010946,0.254539,-0.056859,-0.365314,-0.142111,0.610407,0.086864,-0.342364,-39.366108,5.556137,20.478697,0.386747,2.007858,0.028243,0.000000,0.000000,0.000000,0.000000,0.000000,0.000000
12387789.000000,-0.344958,0.574305,0.442326,-1.475795,-0.259069,1.991927,0.142895,0.009752,0.252054,-0.059124,-0.361186,-0.143678,0.609080,0.086534,-0.266986,-39.270893,5.603745,20.379515,0.374845,1.955673,0.067611,0.000000,0.000000,0.000000,0.000000,0.000000,0.000000
12387790.000000,-0.344954,0.574564,0.442266,-1.476146,-0.259209,1.992536,0.142991,0.005224,0.249534,-0.058053,-0.355443,-0.145724,0.612686,0.090242,-0.167803,-39.171711,5.651352,20.204954,0.398649,1.930038,0.021835,0.000000,0.000000,0.000000,0.000000,0.000000,0.000000
12387791.000000,-0.344949,0.574816,0.442205,-1.476495,-0.259348,1.993152,0.143075,0.002502,0.253785,-0.061164,-0.352784,-0.142565,0.610383,0.088809,-0.092425,-39.100300,5.627548,20.081968,0.405057,1.916305,0.081344,0.000000,0.000000,0.000000,0.000000,0.000000,0.000000
12387792.000000,-0.344944,0.575074,0.442135,-1.476838,-0.259486,1.993764,0.143170,0.003232,0.256968,-0.063779,-0.342855,-0.144337,0.607300,0.089222,0.006757,-38.977314,5.726730,19.935179,0.398649,1.930038,0.081344,0.000000,0.000000,0.000000,0.000000,0.000000,0.000000
12387793.000000,-0.344937,0.575337,0.442071,-1.477177,-0.259622,1.994365,0.143272,0.001756,0.256705,-0.064908,-0.347998,-0.145204,0.605926,0.092786,0.054365,-38.878132,5.798141,19.835997,0.374845,1.930038,0.021835,0.000000,0.000000,0.000000,0.000000,0.000000,0.000000
12387794.000000,-0.344936,0.575601,0.442003,-1.477505,-0.259759,1.994973,0.143359,0.001351,0.257661,-0.065907,-0.341230,-0.144752,0.604685,0.091391,0.205121,-38.953510,5.873520,19.613829,0.327238,1.916305,0.067611,0.000000,0.000000,0.000000,0.000000,0.000000,0.000000
12387795.000000,-0.344927,0.575864,0.441938,-1.477835,-0.259897,1.995580,0.143453,0.004177,0.258447,-0.065173,-0.340471,-0.144909,0.606434,0.092885,0.228925,-38.925739,5.897324,19.439268,0.279630,1.865035,0.048385,0.000000,0.000000,0.000000,0.000000,0.000000,0.000000
12387796.000000,-0.344926,0.576129,0.441869,-1.478162,-0.260043,1.996188,0.143546,0.000114,0.260938,-0.065593,-0.334566,-0.146368,0.606944,0.092709,0.375715,-38.830524,5.948898,19.292479,0.273221,1.819259,0.054794,0.000000,0.000000,0.000000,0.000000,0.000000,0.000000
12387797.000000,-0.344919,0.576388,0.441789,-1.478484,-0.260198,1.996796,0.143641,0.005570,0.257995,-0.067649,-0.326423,-0.148540,0.600832,0.093909,0.427289,-38.806721,6.095688,19.141722,0.303434,1.812850,0.034652,0.000000,0.000000,0.000000,0.000000,0.000000,0.000000
12387798.000000,-0.344919,0.576644,0.441720,-1.478804,-0.260351,1.997389,0.143732,0.004378,0.257887,-0.066616,-0.323893,-0.151448,0.603989,0.088005,0.574079,-38.608356,6.119492,18.994932,0.362943,1.858627,0.067611,0.000000,0.000000,0.000000,0.000000,0.000000,0.000000
12387799.000000,-0.344920,0.576898,0.441638,-1.479115,-0.260501,1.998002,0.143827,0.002953,0.257342,-0.071689,-0.318189,-0.147121,0.604216,0.089301,0.748639,-38.362385,6.266281,18.820372,0.381254,1.819259,0.074935,0.000000,0.000000,0.000000,0.000000,0.000000,0.000000
12387800.000000,-0.344913,0.577159,0.441560,-1.479428,-0.260651,1.998615,0.143920,0.005526,0.256799,-0.073879,-0.314962,-0.148681,0.622662,0.086187,0.772443,-38.243366,6.341660,18.721189,0.398649,1.727706,0.067611,0.000000,0.000000,0.000000,0.000000,0.000000,0.000000
12387801.000000,-0.344910,0.577419,0.441491,-1.479740,-0.260792,1.999209,0.144014,0.006610,0.256478,-0.072982,-0.312777,-0.146735,0.617402,0.084204,0.824018,-38.120380,6.313889,18.598204,0.332731,1.727706,0.048385,0.000000,0.000000,0.000000,0.000000,0.000000,0.000000
12387802.000000,-0.344908,0.577681,0.441414,-1.480048,-0.260934,1.999799,0.144105,0.003099,0.256897,-0.073143,-0.308198,-0.146370,0.610370,0.082013,0.923200,-38.021198,6.313889,18.499022,0.297025,1.793624,0.048385,0.000000,0.000000,0.000000,0.000000,0.000000,0.000000
12387803.000000,-0.344900,0.577947,0.441332,-1.480352,-0.261077,2.000392,0.144195,0.005391,0.259353,-0.077881,-0.306396,-0.146351,0.606690,0.084900,0.947004,-38.045002,6.389267,18.328428,0.261320,1.844894,0.054794,0.000000,0.000000,0.000000,0.000000,0.000000,0.000000
12387804.000000,-0.344890,0.578212,0.441250,-1.480654,-0.261232,2.000990,0.144292,0.003867,0.263362,-0.081871,-0.308014,-0.152615,0.606211,0.087825,0.970807,-38.021198,6.460678,18.276854,0.261320,1.825668,0.034652,0.000000,0.000000,0.000000,0.000000,0.000000,0.000000
12387805.000000,-0.344884,0.578481,0.441168,-1.480959,-0.261384,2.001596,0.144384,0.001994,0.265828,-0.084293,-0.306128,-0.152789,0.606086,0.088388,1.022382,-37.973591,6.512253,18.276854,0.273221,1.806442,0.061202,0.000000,0.000000,0.000000,0.000000,0.000000,0.000000
12387806.000000,-0.344873,0.578743,0.441089,-1.481262,-0.261536,2.002196,0.144486,0.003002,0.260697,-0.082926,-0.305408,-0.153349,0.611277,0.091890,0.970807,-37.898212,6.559860,18.276854,0.297025,1.760665,0.009017,0.000000,0.000000,0.000000,0.000000,0.000000,0.000000
12387807.000000,-0.344869,0.579007,0.441009,-1.481563,-0.261684,2.002807,0.144575,0.004253,0.265553,-0.080784,-0.300678,-0.153466,0.603264,0.094850,1.022382,-37.922016,6.583664,18.229246,0.320829,1.754256,0.067611,0.000000,0.000000,0.000000,0.000000,0.000000,0.000000
12387808.000000,-0.344859,0.579274,0.440929,-1.481861,-0.261834,2.003404,0.144663,0.004007,0.266761,-0.078667,-0.299703,-0.154043,0.602979,0.093242,0.994611,-37.874409,6.559860,18.177671,0.374845,1.747848,0.107894,0.000000,0.000000,0.000000,0.000000,0.000000,0.000000
12387809.000000,-0.344842,0.579536,0.440841,-1.482151,-0.261978,2.004016,0.144766,0.008524,0.269314,-0.082536,-0.294609,-0.152866,0.604125,0.096216,0.895429,-37.802998,6.635239,18.054686,0.369352,1.714889,0.034652,0.000000,0.000000,0.000000,0.000000,0.000000,0.000000
12387810.000000,-0.344833,0.579806,0.440764,-1.482440,-0.262124,2.004628,0.144856,0.009367,0.268244,-0.079183,-0.290005,-0.152058,0.605508,0.097994,0.895429,-37.802998,6.583664,17.931700,0.362943,1.656295,0.081344,0.000000,0.000000,0.000000,0.000000,0.000000,0.000000
12387811.000000,-0.344814,0.580082,0.440687,-1.482736,-0.262264,2.005228,0.144956,0.008592,0.272719,-0.079539,-0.300002,-0.148961,0.602854,0.099217,0.824018,-37.775227,6.536057,17.884092,0.285123,1.695663,0.021835,0.000000,0.000000,0.000000,0.000000,0.000000,0.000000
12387812.000000,-0.344796,0.580355,0.440612,-1.483028,-0.262411,2.005825,0.145047,0.011719,0.271402,-0.079405,-0.296659,-0.152579,0.595820,0.096917,0.724836,-37.802998,6.436874,17.709532,0.243009,1.727706,0.048385,0.000000,0.000000,0.000000,0.000000,0.000000,0.000000
12387813.000000,-0.344773,0.580641,0.440527,-1.483320,-0.262565,2.006426,0.145146,0.018261,0.276294,-0.078385,-0.294020,-0.152949,0.609792,0.097263,0.574079,-37.973591,6.436874,17.534971,0.255826,1.689254,0.021835,0.000000,0.000000,0.000000,0.000000,0.000000,0.000000
12387814.000000,-0.344761,0.580920,0.440446,-1.483612,-0.262717,2.007024,0.145232,0.016874,0.278855,-0.077835,-0.294404,-0.148652,0.602538,0.089370,0.550275,-37.949787,6.436874,17.435789,0.273221,1.689254,0.081344,0.000000,0.000000,0.000000,0.000000,0.000000,0.000000
12387815.000000,-0.344748,0.581188,0.440368,-1.483907,-0.262865,2.007634,0.145331,0.015966,0.269343,-0.075630,-0.294925,-0.149803,0.608693,0.091799,0.526471,-37.850605,6.389267,17.364378,0.297025,1.649886,0.041976,0.000000,0.000000,0.000000,0.000000,0.000000,0.000000
12387816.000000,-0.344731,0.581461,0.440291,-1.484204,-0.263014,2.008232,0.145421,0.016035,0.271778,-0.075738,-0.298868,-0.151480,0.609357,0.096443,0.474897,-37.775227,6.389267,17.289000,0.332731,1.591293,0.061202,0.000000,0.000000,0.000000,0.000000,0.000000,0.000000
12387817.000000,-0.344705,0.581744,0.440220,-1.484500,-0.263163,2.008837,0.145518,0.016362,0.273947,-0.076453,-0.296015,-0.147226,0.606919,0.095608,0.276533,-37.802998,6.290085,17.241392,0.351041,1.572067,0.067611,0.000000,0.000000,0.000000,0.000000,0.000000,0.000000
12387818.000000,-0.344689,0.582026,0.440146,-1.484796,-0.263308,2.009438,0.145619,0.016514,0.269329,-0.077375,-0.292782,-0.142479,0.604463,0.096833,0.205121,-37.850605,6.190903,17.189817,0.327238,1.597701,0.028243,0.000000,0.000000,0.000000,0.000000,0.000000,0.000000
12387819.000000,-0.344668,0.582318,0.440075,-1.485076,-0.263449,2.010036,0.145710,0.020420,0.274929,-0.075600,-0.293874,-0.138415,0.606539,0.094299,0.105939,-38.021198,6.119492,16.991453,0.285123,1.656295,0.074935,0.000000,0.000000,0.000000,0.000000,0.000000,0.000000
12387820.000000,-0.344646,0.582610,0.440004,-1.485371,-0.263592,2.010640,0.145813,0.023367,0.281581,-0.070376,-0.292816,-0.138720,0.600307,0.095564,0.006757,-38.167988,6.020309,16.967649,0.213712,1.656295,0.041976,0.000000,0.000000,0.000000,0.000000,0.000000,0.000000
12387821.000000,-0.344625,0.582894,0.439930,-1.485660,-0.263741,2.011242,0.145908,0.021896,0.280817,-0.074218,-0.290842,-0.145744,0.596580,0.094494,-0.068621,-38.243366,5.996506,16.892271,0.183500,1.643478,0.061202,0.000000,0.000000,0.000000,0.000000,0.000000,0.000000
12387822.000000,-0.344603,0.583181,0.439859,-1.485956,-0.263892,2.011845,0.146005,0.023252,0.281964,-0.073765,-0.294667,-0.142900,0.594150,0.094513,-0.116229,-38.362385,5.948898,16.920042,0.189908,1.611434,0.054794,0.000000,0.000000,0.000000,0.000000,0.000000,0.000000
12387823.000000,-0.344584,0.583473,0.439786,-1.486248,-0.264042,2.012456,0.146098,0.023277,0.284310,-0.074384,-0.295377,-0.141929,0.597927,0.094492,-0.116229,-38.413960,5.948898,16.892271,0.231107,1.565658,0.054794,0.000000,0.000000,0.000000,0.000000,0.000000,0.000000
12387824.000000,-0.344569,0.583764,0.439712,-1.486542,-0.264191,2.013042,0.146186,0.022311,0.284054,-0.074223,-0.292138,-0.146688,0.593146,0.092518,-0.068621,-38.513142,5.921127,16.943846,0.297025,1.591293,0.107894,0.000000,0.000000,0.000000,0.000000,0.000000,0.000000
12387825.000000,-0.344548,0.584049,0.439641,-1.486837,-0.264337,2.013643,0.146289,0.020939,0.286064,-0.073213,-0.293922,-0.142890,0.591622,0.095038,-0.116229,-38.560749,5.873520,16.920042,0.303434,1.539108,0.041976,0.000000,0.000000,0.000000,0.000000,0.000000,0.000000
12387826.000000,-0.344528,0.584345,0.439569,-1.487139,-0.264483,2.014228,0.146381,0.022455,0.286915,-0.074018,-0.297429,-0.145408,0.589661,0.093353,-0.144000,-38.608356,5.873520,16.991453,0.315336,1.539108,0.081344,0.000000,0.000000,0.000000,0.000000,0.000000,0.000000
12387827.000000,-0.344509,0.584638,0.439504,-1.487428,-0.264627,2.014820,0.146478,0.022894,0.294657,-0.072505,-0.294738,-0.140632,0.586982,0.094949,-0.144000,-38.731342,5.798141,16.967649,0.279630,1.565658,0.041976,0.000000,0.000000,0.000000,0.000000,0.000000,0.000000
12387828.000000,-0.344490,0.584934,0.439431,-1.487733,-0.264772,2.015413,0.146569,0.023621,0.292022,-0.073332,-0.296367,-0.141077,0.580483,0.098498,-0.144000,-38.707539,5.798141,16.991453,0.225614,1.578475,0.041976,0.000000,0.000000,0.000000,0.000000,0.000000,0.000000
12387829.000000,-0.344473,0.585234,0.439367,-1.488033,-0.264918,2.015998,0.146660,0.020155,0.289947,-0.071250,-0.302023,-0.142443,0.580435,0.097263,-0.116229,-38.683735,5.702927,16.991453,0.189908,1.611434,0.048385,0.000000,0.000000,0.000000,0.000000,0.000000,0.000000
12387830.000000,-0.344457,0.585519,0.439294,-1.488331,-0.265076,2.016582,0.146760,0.020288,0.287748,-0.075718,-0.301427,-0.145604,0.574132,0.097177,-0.068621,-38.608356,5.702927,16.967649,0.213712,1.656295,0.028243,0.000000,0.000000,0.000000,0.000000,0.000000,0.000000
12387831.000000,-0.344436,0.585813,0.439221,-1.488643,-0.265226,2.017161,0.146851,0.021586,0.288725,-0.075605,-0.303709,-0.142057,0.590665,0.095881,-0.068621,-38.513142,5.702927,17.066832,0.207303,1.714889,0.041976,0.000000,0.000000,0.000000,0.000000,0.000000,0.000000
12387832.000000,-0.344428,0.586108,0.439152,-1.488936,-0.265378,2.017756,0.146944,0.019183,0.287836,-0.072570,-0.299323,-0.145604,0.590883,0.094196,0.078168,-38.461567,5.702927,17.043028,0.237516,1.662704,0.061202,0.000000,0.000000,0.000000,0.000000,0.000000,0.000000
12387833.000000,-0.344411,0.586397,0.439078,-1.489248,-0.265531,2.018348,0.147034,0.016541,0.285943,-0.070731,-0.301741,-0.142997,0.591213,0.093312,0.129743,-38.362385,5.726730,17.142210,0.267728,1.605026,0.087753,0.000000,0.000000,0.000000,0.000000,0.000000,0.000000
12387834.000000,-0.344397,0.586695,0.439000,-1.489554,-0.265678,2.018924,0.147132,0.017909,0.287680,-0.070507,-0.299012,-0.144465,0.585119,0.091212,0.177350,-38.290974,5.798141,17.166014,0.255826,1.605026,0.028243,0.000000,0.000000,0.000000,0.000000,0.000000,0.000000
12387835.000000,-0.344383,0.586996,0.438927,-1.489856,-0.265831,2.019514,0.147217,0.018254,0.288688,-0.071434,-0.302253,-0.146510,0.585506,0.085081,0.252729,-38.437763,5.798141,17.289000,0.267728,1.552840,0.081344,0.000000,0.000000,0.000000,0.000000,0.000000,0.000000
12387836.000000,-0.344370,0.587283,0.438851,-1.490158,-0.265984,2.020102,0.147307,0.019108,0.289867,-0.072400,-0.301137,-0.146801,0.580061,0.087010,0.304304,-38.362385,5.798141,17.289000,0.243009,1.559249,0.094161,0.000000,0.000000,0.000000,0.000000,0.000000,0.000000
12387837.000000,-0.344359,0.587588,0.438775,-1.490462,-0.266137,2.020669,0.147404,0.016134,0.291868,-0.073634,-0.300229,-0.151118,0.582508,0.090784,0.375715,-38.461567,5.825912,17.388182,0.201810,1.643478,0.041976,0.000000,0.000000,0.000000,0.000000,0.000000,0.000000
12387838.000000,-0.344348,0.587875,0.438700,-1.490770,-0.266300,2.021242,0.147494,0.013846,0.291069,-0.071272,-0.302664,-0.156244,0.574401,0.090182,0.451093,-38.461567,5.849716,17.487364,0.219205,1.727706,0.081344,0.000000,0.000000,0.000000,0.000000,0.000000,0.000000
12387839.000000,-0.344337,0.588166,0.438619,-1.491091,-0.266460,2.021813,0.147591,0.015304,0.288134,-0.077245,-0.306558,-0.155277,0.572030,0.093070,0.526471,-38.390156,5.948898,17.685728,0.225614,1.754256,0.034652,0.000000,0.000000,0.000000,0.000000,0.000000,0.000000
12387840.000000,-0.344332,0.588456,0.438538,-1.491400,-0.266621,2.022401,0.147681,0.011567,0.289285,-0.078229,-0.307972,-0.155191,0.576027,0.096302,0.673261,-38.290974,6.020309,17.832518,0.249418,1.721298,0.074935,0.000000,0.000000,0.000000,0.000000,0.000000,0.000000
12387841.000000,-0.344319,0.588747,0.438455,-1.491720,-0.266784,2.022988,0.147774,0.008025,0.288684,-0.078935,-0.312789,-0.160344,0.580344,0.096127,0.724836,-38.267170,6.095688,18.030882,0.291532,1.676437,0.067611,0.000000,0.000000,0.000000,0.000000,0.000000,0.000000
12387842.000000,-0.344303,0.589034,0.438371,-1.492038,-0.266943,2.023561,0.147873,0.009649,0.289117,-0.083161,-0.314384,-0.157955,0.578873,0.097151,0.724836,-38.144184,6.190903,18.253050,0.291532,1.741439,0.028243,0.000000,0.000000,0.000000,0.000000,0.000000,0.000000
12387843.000000,-0.344298,0.589325,0.438290,-1.492348,-0.267105,2.024137,0.147961,0.007774,0.288303,-0.084010,-0.312473,-0.156277,0.577195,0.093973,0.847822,-38.096577,6.218674,18.352232,0.303434,1.806442,0.094161,0.000000,0.000000,0.000000,0.000000,0.000000,0.000000
12387844.000000,-0.344281,0.589625,0.438207,-1.492669,-0.267268,2.024709,0.148062,0.010074,0.292166,-0.082690,-0.314563,-0.163254,0.572096,0.095612,0.824018,-38.144184,6.266281,18.451414,0.303434,1.858627,0.048385,0.000000,0.000000,0.000000,0.000000,0.000000,0.000000
12387845.000000,-0.344273,0.589926,0.438120,-1.492983,-0.267432,2.025292,0.148159,0.012389,0.301701,-0.085397,-0.315895,-0.159497,0.576453,0.094301,0.895429,-38.120380,6.341660,18.550596,0.285123,1.825668,0.067611,0.000000,0.000000,0.000000,0.000000,0.000000,0.000000
12387846.000000,-0.344261,0.590223,0.438029,-1.493297,-0.267602,2.025883,0.148259,0.011554,0.298694,-0.086597,-0.313591,-0.158129,0.575165,0.094835,0.947004,-38.120380,6.389267,18.649778,0.308927,1.786300,0.041976,0.000000,0.000000,0.000000,0.000000,0.000000,0.000000
12387847.000000,-0.344244,0.590528,0.437940,-1.493608,-0.267765,2.026451,0.148349,0.012696,0.303688,-0.091261,-0.317411,-0.157295,0.567540,0.092335,0.923200,-38.191792,6.488449,18.772764,0.332731,1.800033,0.094161,0.000000,0.000000,0.000000,0.000000,0.000000,0.000000
12387848.000000,-0.344233,0.590824,0.437852,-1.493919,-0.267930,2.027031,0.148446,0.011688,0.305803,-0.088577,-0.314580,-0.162010,0.565073,0.093126,0.970807,-38.167988,6.559860,18.848143,0.381254,1.825668,0.087753,0.000000,0.000000,0.000000,0.000000,0.000000,0.000000
12387849.000000,-0.344225,0.591125,0.437763,-1.494234,-0.268092,2.027609,0.148549,0.009784,0.302571,-0.088996,-0.315062,-0.159203,0.570482,0.100677,1.069990,-38.215595,6.611435,18.919554,0.386747,1.844894,0.021835,0.000000,0.000000,0.000000,0.000000,0.000000,0.000000
12387850.000000,-0.344210,0.591425,0.437676,-1.494545,-0.268247,2.028179,0.148641,0.014446,0.298610,-0.089457,-0.313460,-0.160983,0.568700,0.096375,1.046186,-38.191792,6.659042,19.018736,0.369352,1.858627,0.087753,0.000000,0.000000,0.000000,0.000000,0.000000,0.000000
12387851.000000,-0.344191,0.591718,0.437589,-1.494854,-0.268399,2.028754,0.148744,0.015414,0.297713,-0.088113,-0.308072,-0.156662,0.565935,0.097565,0.994611,-38.120380,6.659042,19.094114,0.327238,1.903487,0.034652,0.000000,0.000000,0.000000,0.000000,0.000000,0.000000
12387852.000000,-0.344172,0.592014,0.437502,-1.495167,-0.268556,2.029323,0.148836,0.015848,0.297976,-0.087893,-0.310233,-0.158439,0.570279,0.090736,0.947004,-38.120380,6.659042,19.141722,0.285123,1.916305,0.067611,0.000000,0.000000,0.000000,0.000000,0.000000,0.000000
12387853.000000,-0.344156,0.592308,0.437416,-1.495478,-0.268720,2.029899,0.148935,0.014897,0.298774,-0.087552,-0.312459,-0.160749,0.566671,0.092313,0.947004,-38.120380,6.659042,19.217100,0.267728,1.955673,0.048385,0.000000,0.000000,0.000000,0.000000,0.000000,0.000000
12387854.000000,-0.344138,0.592600,0.437325,-1.495794,-0.268885,2.030480,0.149030,0.014283,0.293397,-0.091286,-0.310117,-0.160005,0.565873,0.097516,0.947004,-37.997395,6.682846,19.292479,0.308927,1.974899,0.048385,0.000000,0.000000,0.000000,0.000000,0.000000,0.000000
12387855.000000,-0.344118,0.592897,0.437235,-1.496110,-0.269044,2.031056,0.149127,0.014997,0.294537,-0.091638,-0.311720,-0.163674,0.571191,0.095953,0.895429,-37.949787,6.734421,19.340086,0.339139,1.955673,0.067611,0.000000,0.000000,0.000000,0.000000,0.000000,0.000000
12387856.000000,-0.344099,0.593195,0.437144,-1.496429,-0.269205,2.031634,0.149229,0.017392,0.297500,-0.090349,-0.312512,-0.161554,0.573853,0.096075,0.895429,-37.850605,6.734421,19.363890,0.374845,1.936446,0.054794,0.000000,0.000000,0.000000,0.000000,0.000000,0.000000
12387857.000000,-0.344079,0.593501,0.437055,-1.496749,-0.269363,2.032205,0.149329,0.019826,0.298682,-0.089771,-0.313838,-0.163763,0.577888,0.095327,0.871625,-37.874409,6.758224,19.415464,0.405057,1.884261,0.061202,0.000000,0.000000,0.000000,0.000000,0.000000,0.000000
12387858.000000,-0.344056,0.593797,0.436966,-1.497053,-0.269519,2.032779,0.149428,0.022131,0.298785,-0.089806,-0.313551,-0.159997,0.575371,0.095519,0.824018,-37.826801,6.782028,19.268675,0.393156,1.865035,0.041976,0.000000,0.000000,0.000000,0.000000,0.000000,0.000000
12387859.000000,-0.344033,0.594108,0.436888,-1.497362,-0.269673,2.033349,0.149523,0.020784,0.302620,-0.086300,-0.307520,-0.160912,0.571384,0.093412,0.772443,-37.826801,6.659042,19.169493,0.356534,1.903487,0.087753,0.000000,0.000000,0.000000,0.000000,0.000000,0.000000
12387860.000000,-0.344011,0.594412,0.436805,-1.497667,-0.269835,2.033907,0.149622,0.019630,0.304121,-0.085802,-0.308670,-0.162455,0.564795,0.094496,0.724836,-37.775227,6.611435,19.070311,0.332731,1.909896,0.067611,0.000000,0.000000,0.000000,0.000000,0.000000,0.000000
12387861.000000,-0.343986,0.594714,0.436721,-1.497971,-0.269994,2.034479,0.149724,0.018793,0.305109,-0.082260,-0.304341,-0.157875,0.563181,0.095925,0.673261,-37.703815,6.583664,18.947325,0.291532,1.923629,0.015426,0.000000,0.000000,0.000000,0.000000,0.000000,0.000000
12387862.000000,-0.343961,0.595019,0.436640,-1.498276,-0.270155,2.035042,0.149820,0.021276,0.301408,-0.082217,-0.302794,-0.160772,0.560607,0.094460,0.625654,-37.604633,6.512253,18.895750,0.308927,1.877853,0.041976,0.000000,0.000000,0.000000,0.000000,0.000000,0.000000
12387863.000000,-0.343942,0.595317,0.436556,-1.498576,-0.270316,2.035618,0.149916,0.021373,0.301499,-0.083902,-0.302255,-0.159071,0.562506,0.098452,0.649457,-37.580830,6.512253,18.871946,0.327238,1.851302,0.054794,0.000000,0.000000,0.000000,0.000000,0.000000,0.000000
12387864.000000,-0.343917,0.595622,0.436475,-1.498878,-0.270477,2.036192,0.150015,0.025682,0.304264,-0.080008,-0.299068,-0.162475,0.562240,0.096349,0.625654,-37.557026,6.436874,18.895750,0.351041,1.858627,0.061202,0.000000,0.000000,0.000000,0.000000,0.000000,0.000000
12387865.000000,-0.343892,0.595926,0.436391,-1.499185,-0.270636,2.036762,0.150112,0.026000,0.303239,-0.082191,-0.304427,-0.160943,0.568484,0.096782,0.601850,-37.557026,6.436874,18.895750,0.386747,1.844894,0.034652,0.000000,0.000000,0.000000,0.000000,0.000000,0.000000
12387866.000000,-0.343866,0.596225,0.436311,-1.499483,-0.270793,2.037336,0.150203,0.026817,0.301775,-0.082769,-0.300885,-0.158094,0.566575,0.090103,0.550275,-37.509418,6.389267,18.895750,0.381254,1.838485,0.067611,0.000000,0.000000,0.000000,0.000000,0.000000,0.000000
12387867.000000,-0.343840,0.596534,0.436233,-1.499779,-0.270946,2.037914,0.150301,0.027304,0.304714,-0.079325,-0.297228,-0.154672,0.581723,0.091923,0.502668,-37.509418,6.313889,18.895750,0.339139,1.832076,0.048385,0.000000,0.000000,0.000000,0.000000,0.000000,0.000000
12387868.000000,-0.343814,0.596833,0.436164,-1.500074,-0.271103,2.038480,0.150401,0.027117,0.303464,-0.077825,-0.298007,-0.152281,0.577205,0.092506,0.474897,-37.481647,6.143295,18.871946,0.297025,1.838485,0.034652,0.000000,0.000000,0.000000,0.000000,0.000000,0.000000
12387869.000000,-0.343785,0.597134,0.436084,-1.500367,-0.271262,2.039048,0.150496,0.027412,0.303096,-0.079757,-0.297059,-0.147209,0.571138,0.091217,0.427289,-37.481647,6.119492,18.796568,0.297025,1.903487,0.081344,0.000000,0.000000,0.000000,0.000000,0.000000,0.000000
12387870.000000,-0.343755,0.597447,0.436004,-1.500666,-0.271415,2.039613,0.150600,0.028353,0.303392,-0.081094,-0.294860,-0.147454,0.573156,0.094286,0.351911,-37.533222,6.067917,18.772764,0.273221,1.942855,0.021835,0.000000,0.000000,0.000000,0.000000,0.000000,0.000000
12387871.000000,-0.343729,0.597756,0.435927,-1.500957,-0.271571,2.040191,0.150693,0.027222,0.308993,-0.078792,-0.294509,-0.149307,0.577318,0.096495,0.351911,-37.656208,6.020309,18.673582,0.291532,1.897079,0.081344,0.000000,0.000000,0.000000,0.000000,0.000000,0.000000
12387872.000000,-0.343700,0.598065,0.435850,-1.501257,-0.271726,2.040774,0.150790,0.027049,0.305161,-0.077697,-0.292800,-0.149396,0.576894,0.095809,0.328107,-37.580830,5.996506,18.673582,0.279630,1.819259,0.087753,0.000000,0.000000,0.000000,0.000000,0.000000,0.000000
12387873.000000,-0.343672,0.598376,0.435773,-1.501542,-0.271883,2.041349,0.150891,0.026947,0.303375,-0.076758,-0.288532,-0.155620,0.575782,0.097275,0.304304,-37.557026,5.972702,18.649778,0.303434,1.760665,0.041976,0.000000,0.000000,0.000000,0.000000,0.000000,0.000000
12387874.000000,-0.343642,0.598688,0.435697,-1.501825,-0.272039,2.041924,0.150985,0.026969,0.307312,-0.075302,-0.286484,-0.159407,0.570334,0.099521,0.276533,-37.604633,5.921127,18.550596,0.320829,1.800033,0.087753,0.000000,0.000000,0.000000,0.000000,0.000000,0.000000
12387875.000000,-0.343613,0.599005,0.435620,-1.502105,-0.272198,2.042492,0.151083,0.029492,0.307668,-0.076149,-0.283736,-0.160651,0.563456,0.098760,0.276533,-37.580830,5.849716,18.399839,0.308927,1.825668,0.074935,0.000000,0.000000,0.000000,0.000000,0.000000,0.000000
12387876.000000,-0.343583,0.599313,0.435547,-1.502385,-0.272365,2.043075,0.151182,0.031876,0.314363,-0.077667,-0.285030,-0.162847,0.569093,0.097247,0.252729,-37.604633,5.774338,18.376036,0.303434,1.825668,0.081344,0.000000,0.000000,0.000000,0.000000,0.000000,0.000000
12387877.000000,-0.343551,0.599636,0.435471,-1.502667,-0.272531,2.043659,0.151286,0.031823,0.315573,-0.073311,-0.281858,-0.158881,0.569780,0.098682,0.177350,-37.656208,5.750534,18.352232,0.279630,1.767074,0.021835,0.000000,0.000000,0.000000,0.000000,0.000000,0.000000
12387878.000000,-0.343519,0.599960,0.435394,-1.502943,-0.272693,2.044240,0.151376,0.033620,0.313688,-0.074222,-0.285343,-0.161120,0.570079,0.095481,0.153547,-37.751423,5.750534,18.352232,0.261320,1.721298,0.074935,0.000000,0.000000,0.000000,0.000000,0.000000,0.000000
12387879.000000,-0.343485,0.600272,0.435322,-1.503217,-0.272856,2.044821,0.151477,0.033220,0.314907,-0.072609,-0.282095,-0.163087,0.567790,0.096780,0.078168,-37.802998,5.679123,18.304625,0.255826,1.708480,0.034652,0.000000,0.000000,0.000000,0.000000,0.000000,0.000000
12387880.000000,-0.343458,0.600594,0.435240,-1.503489,-0.273027,2.045396,0.151573,0.030303,0.317531,-0.074755,-0.275834,-0.166218,0.571065,0.100401,0.105939,-37.826801,5.726730,18.229246,0.291532,1.721298,0.034652,0.000000,0.000000,0.000000,0.000000,0.000000,0.000000
12387881.000000,-0.343425,0.600907,0.435158,-1.503753,-0.273189,2.045968,0.151669,0.026312,0.316771,-0.076680,-0.271390,-0.167566,0.567153,0.097655,0.078168,-37.826801,5.798141,18.153868,0.303434,1.779891,0.061202,0.000000,0.000000,0.000000,0.000000,0.000000,0.000000
12387882.000000,-0.343395,0.601222,0.435082,-1.504020,-0.273353,2.046549,0.151771,0.028816,0.315845,-0.078136,-0.266335,-0.167343,0.571461,0.101728,0.078168,-37.826801,5.750534,18.030882,0.291532,1.767074,0.041976,0.000000,0.000000,0.000000,0.000000,0.000000,0.000000
12387883.000000,-0.343365,0.601550,0.435001,-1.504287,-0.273523,2.047121,0.151867,0.028354,0.316208,-0.081150,-0.264620,-0.167988,0.569938,0.098094,0.054365,-37.898212,5.798141,17.955503,0.291532,1.779891,0.081344,0.000000,0.000000,0.000000,0.000000,0.000000,0.000000
12387884.000000,-0.343334,0.601860,0.434927,-1.504549,-0.273693,2.047706,0.151969,0.030557,0.311863,-0.078000,-0.261104,-0.167864,0.573814,0.098677,0.054365,-37.874409,5.726730,17.931700,0.273221,1.747848,0.041976,0.000000,0.000000,0.000000,0.000000,0.000000,0.000000
12387885.000000,-0.343306,0.602187,0.434842,-1.504811,-0.273861,2.048287,0.152067,0.027930,0.316506,-0.078500,-0.259366,-0.168236,0.578304,0.097114,0.105939,-37.922016,5.798141,17.832518,0.261320,1.708480,0.054794,0.000000,0.000000,0.000000,0.000000,0.000000,0.000000
12387886.000000,-0.343276,0.602512,0.434763,-1.505072,-0.274023,2.048867,0.152170,0.026782,0.316576,-0.077659,-0.260015,-0.169064,0.578499,0.097086,0.129743,-37.949787,5.798141,17.784910,0.267728,1.735030,0.034652,0.000000,0.000000,0.000000,0.000000,0.000000,0.000000
12387887.000000,-0.343245,0.602833,0.434679,-1.505329,-0.274190,2.049455,0.152267,0.029019,0.315826,-0.078128,-0.258455,-0.164399,0.578248,0.099610,0.153547,-37.949787,5.849716,17.661924,0.273221,1.754256,0.061202,0.000000,0.000000,0.000000,0.000000,0.000000,0.000000
12387888.000000,-0.343210,0.603163,0.434596,-1.505588,-0.274350,2.050027,0.152367,0.029898,0.318147,-0.079097,-0.258498,-0.161023,0.579163,0.098148,0.078168,-37.973591,5.921127,17.586546,0.273221,1.767074,0.067611,0.000000,0.000000,0.000000,0.000000,0.000000,0.000000
12387889.000000,-0.343184,0.603487,0.434519,-1.505842,-0.274509,2.050619,0.152472,0.029930,0.317942,-0.077222,-0.255401,-0.162195,0.576460,0.098461,0.153547,-38.021198,5.897324,17.511168,0.243009,1.727706,0.028243,0.000000,0.000000,0.000000,0.000000,0.000000,0.000000
12387890.000000,-0.343160,0.603820,0.434432,-1.506099,-0.274677,2.051202,0.152569,0.027074,0.321637,-0.081573,-0.254311,-0.164859,0.575473,0.097090,0.228925,-38.096577,5.972702,17.511168,0.261320,1.695663,0.034652,0.000000,0.000000,0.000000,0.000000,0.000000,0.000000
12387891.000000,-0.343125,0.604152,0.434349,-1.506344,-0.274845,2.051776,0.152668,0.031108,0.321004,-0.079668,-0.253055,-0.166462,0.572747,0.096080,0.177350,-38.167988,5.972702,17.487364,0.267728,1.695663,0.041976,0.000000,0.000000,0.000000,0.000000,0.000000,0.000000
12387892.000000,-0.343092,0.604483,0.434268,-1.506590,-0.275014,2.052348,0.152770,0.033357,0.324348,-0.077770,-0.248049,-0.167398,0.569603,0.096438,0.153547,-38.267170,5.948898,17.411985,0.279630,1.689254,0.021835,0.000000,0.000000,0.000000,0.000000,0.000000,0.000000
12387893.000000,-0.343064,0.604820,0.434181,-1.506841,-0.275175,2.052920,0.152869,0.033218,0.325292,-0.077346,-0.247023,-0.171585,0.568870,0.095400,0.205121,-38.338581,5.972702,17.463560,0.273221,1.676437,0.034652,0.000000,0.000000,0.000000,0.000000,0.000000,0.000000
12387894.000000,-0.343030,0.605147,0.434099,-1.507076,-0.275338,2.053487,0.152969,0.032430,0.334675,-0.079969,-0.243548,-0.171372,0.563128,0.093381,0.153547,-38.413960,5.972702,17.388182,0.279630,1.682845,0.074935,0.000000,0.000000,0.000000,0.000000,0.000000,0.000000
12387895.000000,-0.343001,0.605479,0.434008,-1.507329,-0.275498,2.054060,0.153073,0.033143,0.336491,-0.083028,-0.242416,-0.165298,0.563486,0.099281,0.177350,-38.461567,6.044113,17.411985,0.255826,1.676437,0.054794,0.000000,0.000000,0.000000,0.000000,0.000000,0.000000
12387896.000000,-0.342967,0.605813,0.433919,-1.507575,-0.275654,2.054618,0.153177,0.034862,0.334567,-0.084700,-0.248070,-0.165471,0.562491,0.099084,0.153547,-38.513142,6.067917,17.487364,0.225614,1.708480,0.028243,0.000000,0.000000,0.000000,0.000000,0.000000,0.000000
12387897.000000,-0.342937,0.606151,0.433839,-1.507820,-0.275820,2.055184,0.153272,0.034949,0.336547,-0.083823,-0.244112,-0.162055,0.560341,0.095682,0.177350,-38.560749,6.020309,17.562742,0.231107,1.747848,0.081344,0.000000,0.000000,0.000000,0.000000,0.000000,0.000000
12387898.000000,-0.342911,0.606494,0.433752,-1.508063,-0.275988,2.055741,0.153376,0.031389,0.337450,-0.079754,-0.244589,-0.163575,0.556149,0.102360,0.228925,-38.608356,6.067917,17.534971,0.213712,1.786300,0.021835,0.000000,0.000000,0.000000,0.000000,0.000000,0.000000
12387899.000000,-0.342883,0.606836,0.433666,-1.508311,-0.276161,2.056302,0.153470,0.028780,0.336354,-0.081733,-0.244895,-0.166545,0.557692,0.097194,0.276533,-38.683735,6.067917,17.610350,0.249418,1.812850,0.100570,0.000000,0.000000,0.000000,0.000000,0.000000,0.000000
12387900.000000,-0.342851,0.607184,0.433582,-1.508560,-0.276322,2.056872,0.153572,0.030300,0.343473,-0.081923,-0.247364,-0.166004,0.560496,0.100396,0.304304,-38.830524,6.020309,17.661924,0.219205,1.793624,0.094161,0.000000,0.000000,0.000000,0.000000,0.000000,0.000000
12387901.000000,-0.342818,0.607521,0.433491,-1.508808,-0.276488,2.057433,0.153679,0.029322,0.340516,-0.086490,-0.247982,-0.161923,0.567655,0.102093,0.304304,-38.806721,6.067917,17.661924,0.207303,1.760665,0.009017,0.000000,0.000000,0.000000,0.000000,0.000000,0.000000
12387902.000000,-0.342781,0.607858,0.433401,-1.509053,-0.276656,2.057998,0.153771,0.033278,0.339292,-0.088038,-0.247440,-0.165419,0.565627,0.097380,0.228925,-38.778950,6.119492,17.610350,0.243009,1.773483,0.074935,0.000000,0.000000,0.000000,0.000000,0.000000,0.000000
12387903.000000,-0.342747,0.608206,0.433313,-1.509299,-0.276821,2.058550,0.153872,0.034888,0.334454,-0.084701,-0.246042,-0.161378,0.572989,0.097919,0.205121,-38.854328,6.143295,17.534971,0.231107,1.747848,0.041976,0.000000,0.000000,0.000000,0.000000,0.000000,0.000000
12387904.000000,-0.342717,0.608547,0.433228,-1.509535,-0.276981,2.059113,0.153967,0.031743,0.334987,-0.084301,-0.242798,-0.163170,0.570493,0.099658,0.228925,-38.830524,6.095688,17.463560,0.219205,1.754256,0.081344,0.000000,0.000000,0.000000,0.000000,0.000000,0.000000
12387905.000000,-0.342676,0.608888,0.433134,-1.509783,-0.277152,2.059676,0.154070,0.032445,0.339610,-0.086300,-0.243851,-0.160884,0.564193,0.099248,0.129743,-38.854328,6.167099,17.411985,0.243009,1.747848,0.061202,0.000000,0.000000,0.000000,0.000000,0.000000,0.000000
12387906.000000,-0.342643,0.609236,0.433047,-1.510031,-0.277324,2.060236,0.154168,0.033519,0.341392,-0.086152,-0.242523,-0.163358,0.561005,0.097268,0.129743,-38.977314,6.167099,17.388182,0.249418,1.727706,0.081344,0.000000,0.000000,0.000000,0.000000,0.000000,0.000000
12387907.000000,-0.342612,0.609577,0.432958,-1.510271,-0.277498,2.060797,0.154273,0.030127,0.341026,-0.086611,-0.239998,-0.165481,0.557328,0.097794,0.177350,-39.001118,6.167099,17.312803,0.261320,1.714889,0.041976,0.000000,0.000000,0.000000,0.000000,0.000000,0.000000
12387908.000000,-0.342585,0.609914,0.432876,-1.510523,-0.277666,2.061369,0.154373,0.027698,0.336539,-0.088373,-0.243383,-0.166398,0.559708,0.097793,0.228925,-38.977314,6.095688,17.340574,0.255826,1.702071,0.015426,0.000000,0.000000,0.000000,0.000000,0.000000,0.000000
12387909.000000,-0.342546,0.610260,0.432789,-1.510773,-0.277829,2.061931,0.154466,0.032102,0.337972,-0.087800,-0.243373,-0.171443,0.556350,0.099336,0.153547,-39.024921,6.067917,17.388182,0.237516,1.689254,0.074935,0.000000,0.000000,0.000000,0.000000,0.000000,0.000000
12387910.000000,-0.342508,0.610602,0.432696,-1.511022,-0.277995,2.062500,0.154570,0.031412,0.338547,-0.089076,-0.242786,-0.165590,0.556747,0.099427,0.105939,-39.048725,6.119492,17.411985,0.225614,1.702071,0.041976,0.000000,0.000000,0.000000,0.000000,0.000000,0.000000
12387911.000000,-0.342470,0.610947,0.432609,-1.511271,-0.278162,2.063063,0.154663,0.030902,0.338194,-0.087875,-0.246084,-0.166845,0.558403,0.101174,0.054365,-39.072529,6.095688,17.463560,0.225614,1.708480,0.087753,0.000000,0.000000,0.000000,0.000000,0.000000,0.000000
12387912.000000,-0.342435,0.611295,0.432521,-1.511517,-0.278332,2.063624,0.154765,0.035421,0.347312,-0.087985,-0.244781,-0.162544,0.564871,0.100174,0.054365,-39.001118,6.095688,17.487364,0.213712,1.721298,0.067611,0.000000,0.000000,0.000000,0.000000,0.000000,0.000000
12387913.000000,-0.342401,0.611634,0.432432,-1.511764,-0.278506,2.064192,0.154868,0.035275,0.345300,-0.089815,-0.243057,-0.169562,0.563711,0.103786,0.078168,-39.001118,6.067917,17.511168,0.231107,1.747848,0.041976,0.000000,0.000000,0.000000,0.000000,0.000000,0.000000
12387914.000000,-0.342361,0.611977,0.432340,-1.512009,-0.278679,2.064750,0.154963,0.037501,0.343686,-0.089511,-0.248379,-0.171079,0.570254,0.099701,0.006757,-38.878132,6.067917,17.586546,0.267728,1.714889,0.087753,0.000000,0.000000,0.000000,0.000000,0.000000,0.000000
12387915.000000,-0.342317,0.612319,0.432248,-1.512258,-0.278851,2.065317,0.155069,0.040318,0.342286,-0.088688,-0.247626,-0.170583,0.562814,0.100196,-0.116229,-38.854328,6.067917,17.534971,0.267728,1.721298,0.041976,0.000000,0.000000,0.000000,0.000000,0.000000,0.000000
12387916.000000,-0.342285,0.612662,0.432164,-1.512506,-0.279023,2.065863,0.155169,0.037693,0.343221,-0.086339,-0.245150,-0.170398,0.569057,0.102875,-0.044818,-38.806721,5.972702,17.534971,0.267728,1.741439,0.021835,0.000000,0.000000,0.000000,0.000000,0.000000,0.000000
12387917.000000,-0.342247,0.613019,0.432075,-1.512750,-0.279189,2.066422,0.155268,0.038063,0.344247,-0.087055,-0.244360,-0.169354,0.566853,0.099190,-0.068621,-38.878132,5.996506,17.562742,0.243009,1.767074,0.054794,0.000000,0.000000,0.000000,0.000000,0.000000,0.000000
12387918.000000,-0.342208,0.613359,0.431984,-1.512997,-0.279359,2.066984,0.155374,0.041326,0.347202,-0.087205,-0.242538,-0.168538,0.561639,0.098411,-0.092425,-38.925739,5.996506,17.562742,0.225614,1.767074,0.041976,0.000000,0.000000,0.000000,0.000000,0.000000,0.000000
12387919.000000,-0.342171,0.613711,0.431895,-1.513247,-0.279529,2.067544,0.155476,0.040826,0.349705,-0.086902,-0.242710,-0.172166,0.557720,0.102186,-0.116229,-39.024921,5.972702,17.610350,0.183500,1.773483,0.034652,0.000000,0.000000,0.000000,0.000000,0.000000,0.000000
12387920.000000,-0.342138,0.614056,0.431806,-1.513491,-0.279709,2.068108,0.155580,0.038187,0.349849,-0.087344,-0.245543,-0.176617,0.554683,0.100750,-0.044818,-39.147907,5.972702,17.634153,0.183500,1.747848,0.015426,0.000000,0.000000,0.000000,0.000000,0.000000,0.000000
12387921.000000,-0.342106,0.614407,0.431716,-1.513750,-0.279895,2.068676,0.155678,0.036915,0.348460,-0.083232,-0.246692,-0.181291,0.557945,0.097176,0.006757,-39.219318,5.948898,17.784910,0.219205,1.741439,0.067611,0.000000,0.000000,0.000000,0.000000,0.000000,0.000000
12387922.000000,-0.342075,0.614754,0.431626,-1.514001,-0.280076,2.069227,0.155783,0.035716,0.344671,-0.085118,-0.248468,-0.180486,0.557489,0.097741,0.078168,-39.171711,5.972702,17.832518,0.273221,1.793624,0.034652,0.000000,0.000000,0.000000,0.000000,0.000000,0.000000
12387923.000000,-0.342040,0.615100,0.431536,-1.514252,-0.280260,2.069798,0.155880,0.035825,0.347311,-0.084705,-0.248022,-0.178589,0.563763,0.094274,0.105939,-39.219318,5.948898,17.931700,0.303434,1.779891,0.100570,0.000000,0.000000,0.000000,0.000000,0.000000,0.000000
12387924.000000,-0.342002,0.615447,0.431443,-1.514511,-0.280436,2.070358,0.155992,0.036481,0.346288,-0.086208,-0.249907,-0.180555,0.564550,0.097899,0.105939,-39.171711,5.996506,18.130064,0.291532,1.779891,0.009017,0.000000,0.000000,0.000000,0.000000,0.000000,0.000000
12387925.000000,-0.341966,0.615787,0.431353,-1.514759,-0.280612,2.070922,0.156092,0.033769,0.344516,-0.083298,-0.247180,-0.178007,0.560744,0.095210,0.105939,-39.171711,5.996506,18.153868,0.297025,1.747848,0.048385,0.000000,0.000000,0.000000,0.000000,0.000000,0.000000
12387926.000000,-0.341932,0.616135,0.431260,-1.515015,-0.280790,2.071485,0.156193,0.034307,0.343609,-0.088647,-0.250550,-0.174501,0.555435,0.099279,0.129743,-39.072529,6.044113,18.304625,0.261320,1.786300,0.061202,0.000000,0.000000,0.000000,0.000000,0.000000,0.000000
12387927.000000,-0.341895,0.616483,0.431173,-1.515259,-0.280964,2.072030,0.156299,0.035258,0.339070,-0.087883,-0.251749,-0.177464,0.551220,0.098804,0.129743,-39.048725,6.020309,18.304625,0.243009,1.832076,0.041976,0.000000,0.000000,0.000000,0.000000,0.000000,0.000000
12387928.000000,-0.341860,0.616836,0.431072,-1.515509,-0.281148,2.072586,0.156401,0.035371,0.344111,-0.090065,-0.250366,-0.176453,0.547619,0.102461,0.153547,-39.124104,6.119492,18.276854,0.273221,1.871444,0.041976,0.000000,0.000000,0.000000,0.000000,0.000000,0.000000
12387929.000000,-0.341830,0.617188,0.430985,-1.515766,-0.281323,2.073128,0.156505,0.034253,0.345199,-0.087690,-0.252638,-0.179549,0.541711,0.105134,0.228925,-39.124104,6.067917,18.376036,0.273221,1.897079,0.041976,0.000000,0.000000,0.000000,0.000000,0.000000,0.000000
12387930.000000,-0.341800,0.617536,0.430896,-1.516018,-0.281496,2.073683,0.156610,0.030350,0.355906,-0.087228,-0.248730,-0.177215,0.544945,0.102275,0.304304,-39.195515,6.044113,18.499022,0.273221,1.844894,0.041976,0.000000,0.000000,0.000000,0.000000,0.000000,0.000000
12387931.000000,-0.341769,0.617889,0.430801,-1.516267,-0.281673,2.074243,0.156709,0.028767,0.354692,-0.087352,-0.246264,-0.175375,0.542502,0.104159,0.328107,-39.195515,6.067917,18.550596,0.279630,1.786300,0.067611,0.000000,0.000000,0.000000,0.000000,0.000000,0.000000
12387932.000000,-0.341733,0.618249,0.430706,-1.516517,-0.281844,2.074784,0.156821,0.031823,0.354520,-0.090697,-0.252572,-0.174150,0.542601,0.104261,0.304304,-39.366108,6.067917,18.649778,0.285123,1.800033,0.001693,0.000000,0.000000,0.000000,0.000000,0.000000,0.000000
12387933.000000,-0.341701,0.618599,0.430610,-1.516764,-0.282019,2.075331,0.156919,0.032255,0.354184,-0.093360,-0.245983,-0.177595,0.540634,0.099165,0.351911,-39.393879,6.095688,18.673582,0.285123,1.844894,0.067611,0.000000,0.000000,0.000000,0.000000,0.000000,0.000000
12387934.000000,-0.341670,0.618952,0.430512,-1.517015,-0.282200,2.075864,0.157021,0.032620,0.351403,-0.093076,-0.245403,-0.179743,0.551387,0.103846,0.403486,-39.465290,6.143295,18.748960,0.267728,1.890670,0.041976,0.000000,0.000000,0.000000,0.000000,0.000000,0.000000
12387935.000000,-0.341636,0.619309,0.430417,-1.517268,-0.282379,2.076415,0.157120,0.033645,0.351280,-0.092290,-0.244871,-0.178217,0.549169,0.099750,0.427289,-39.465290,6.190903,18.820372,0.291532,1.916305,0.081344,0.000000,0.000000,0.000000,0.000000,0.000000,0.000000
12387936.000000,-0.341601,0.619657,0.430317,-1.517524,-0.282553,2.076965,0.157229,0.034660,0.349438,-0.095747,-0.246108,-0.175662,0.549839,0.101111,0.427289,-39.393879,6.266281,18.971128,0.291532,1.877853,0.009017,0.000000,0.000000,0.000000,0.000000,0.000000,0.000000
12387937.000000,-0.341568,0.620001,0.430220,-1.517770,-0.282723,2.077512,0.157325,0.031943,0.345826,-0.095985,-0.245322,-0.174429,0.555181,0.097542,0.451093,-39.247089,6.290085,19.042540,0.297025,1.844894,0.054794,0.000000,0.000000,0.000000,0.000000,0.000000,0.000000
12387938.000000,-0.341534,0.620346,0.430128,-1.518018,-0.282897,2.078049,0.157424,0.032938,0.343410,-0.096432,-0.248201,-0.174020,0.540847,0.100106,0.474897,-39.072529,6.266281,19.117918,0.315336,1.890670,0.074935,0.000000,0.000000,0.000000,0.000000,0.000000,0.000000
12387939.000000,-0.341497,0.620696,0.430026,-1.518266,-0.283071,2.078584,0.157526,0.034835,0.344552,-0.099637,-0.245825,-0.173635,0.533208,0.100489,0.451093,-39.024921,6.365463,19.169493,0.332731,2.007858,0.028243,0.000000,0.000000,0.000000,0.000000,0.000000,0.000000
12387940.000000,-0.341462,0.621048,0.429927,-1.518502,-0.283240,2.079120,0.157628,0.032431,0.346433,-0.100278,-0.241761,-0.171561,0.533770,0.098247,0.451093,-38.878132,6.389267,19.094114,0.303434,2.079269,0.041976,0.000000,0.000000,0.000000,0.000000,0.000000,0.000000
12387941.000000,-0.341427,0.621390,0.429825,-1.518748,-0.283414,2.079671,0.157732,0.033861,0.346097,-0.100593,-0.241949,-0.169022,0.541790,0.102016,0.451093,-38.778950,6.436874,19.141722,0.255826,2.053634,0.041976,0.000000,0.000000,0.000000,0.000000,0.000000,0.000000
12387942.000000,-0.341394,0.621747,0.429725,-1.518995,-0.283589,2.080220,0.157830,0.031689,0.348002,-0.104035,-0.238348,-0.168580,0.541390,0.102871,0.451093,-38.806721,6.488449,19.169493,0.255826,1.981307,0.074935,0.000000,0.000000,0.000000,0.000000,0.000000,0.000000
12387943.000000,-0.341359,0.622097,0.429630,-1.519233,-0.283764,2.080769,0.157939,0.029419,0.351023,-0.098719,-0.236163,-0.169930,0.548360,0.102082,0.474897,-38.830524,6.460678,19.217100,0.279630,1.942855,0.034652,0.000000,0.000000,0.000000,0.000000,0.000000,0.000000
12387944.000000,-0.341329,0.622459,0.429530,-1.519463,-0.283941,2.081321,0.158049,0.026643,0.352056,-0.096512,-0.232496,-0.170925,0.547548,0.106288,0.550275,-39.001118,6.488449,19.193296,0.308927,1.942855,-0.004716,0.000000,0.000000,0.000000,0.000000,0.000000,0.000000
12387945.000000,-0.341297,0.622826,0.429432,-1.519696,-0.284112,2.081865,0.158148,0.028386,0.351087,-0.097122,-0.233466,-0.172473,0.546731,0.104944,0.601850,-39.124104,6.512253,19.169493,0.356534,1.955673,0.074935,0.000000,0.000000,0.000000,0.000000,0.000000,0.000000
12387946.000000,-0.341253,0.623173,0.429330,-1.519933,-0.284278,2.082422,0.158255,0.033274,0.350931,-0.098898,-0.235708,-0.169829,0.550448,0.108451,0.502668,-39.124104,6.559860,19.217100,0.315336,1.949264,0.041976,0.000000,0.000000,0.000000,0.000000,0.000000,0.000000
12387947.000000,-0.341220,0.623528,0.429229,-1.520170,-0.284453,2.082965,0.158358,0.033283,0.352131,-0.098381,-0.234823,-0.168698,0.544890,0.104210,0.550275,-39.072529,6.559860,19.292479,0.285123,1.942855,0.061202,0.000000,0.000000,0.000000,0.000000,0.000000,0.000000
12387948.000000,-0.341182,0.623885,0.429132,-1.520403,-0.284629,2.083524,0.158471,0.035463,0.353664,-0.101914,-0.234015,-0.168410,0.546886,0.103031,0.502668,-39.124104,6.559860,19.363890,0.267728,1.909896,0.021835,0.000000,0.000000,0.000000,0.000000,0.000000,0.000000
12387949.000000,-0.341139,0.624240,0.429031,-1.520632,-0.284813,2.084074,0.158573,0.037483,0.355946,-0.100828,-0.233185,-0.169728,0.540832,0.103482,0.427289,-39.124104,6.559860,19.316282,0.297025,1.930038,0.061202,0.000000,0.000000,0.000000,0.000000,0.000000,0.000000
12387950.000000,-0.341099,0.624599,0.428930,-1.520866,-0.284992,2.084618,0.158681,0.038528,0.354323,-0.101301,-0.232527,-0.171346,0.544456,0.101009,0.375715,-39.124104,6.583664,19.363890,0.339139,2.001449,0.067611,0.000000,0.000000,0.000000,0.000000,0.000000,0.000000
12387951.000000,-0.341062,0.624951,0.428834,-1.521086,-0.285170,2.085170,0.158794,0.037379,0.352435,-0.100009,-0.230337,-0.171013,0.539763,0.101486,0.403486,-39.072529,6.559860,19.340086,0.344633,1.995040,0.009017,0.000000,0.000000,0.000000,0.000000,0.000000,0.000000
12387952.000000,-0.341023,0.625308,0.428739,-1.521314,-0.285349,2.085717,0.158894,0.037401,0.353594,-0.099112,-0.228470,-0.175113,0.553204,0.101810,0.403486,-39.001118,6.512253,19.316282,0.339139,1.974899,0.067611,0.000000,0.000000,0.000000,0.000000,0.000000,0.000000
12387953.000000,-0.340981,0.625668,0.428643,-1.521532,-0.285517,2.086259,0.159006,0.039322,0.354150,-0.102124,-0.226062,-0.172580,0.549893,0.104775,0.328107,-39.024921,6.512253,19.240904,0.303434,2.014266,0.061202,0.000000,0.000000,0.000000,0.000000,0.000000,0.000000
12387954.000000,-0.340940,0.626041,0.428550,-1.521751,-0.285692,2.086809,0.159123,0.039109,0.360900,-0.096779,-0.223160,-0.175160,0.548688,0.108834,0.304304,-39.195515,6.436874,19.117918,0.267728,2.007858,0.009017,0.000000,0.000000,0.000000,0.000000,0.000000,0.000000
12387955.000000,-0.340901,0.626416,0.428446,-1.521971,-0.285867,2.087360,0.159228,0.039258,0.360560,-0.098830,-0.225694,-0.172073,0.547944,0.107480,0.276533,-39.465290,6.512253,19.042540,0.213712,2.007858,0.054794,0.000000,0.000000,0.000000,0.000000,0.000000,0.000000
12387956.000000,-0.340863,0.626785,0.428354,-1.522189,-0.286048,2.087917,0.159341,0.041309,0.366842,-0.094402,-0.220241,-0.172580,0.544019,0.109485,0.304304,-39.588276,6.436874,18.919554,0.231107,1.955673,0.034652,0.000000,0.000000,0.000000,0.000000,0.000000,0.000000
12387957.000000,-0.340821,0.627157,0.428256,-1.522410,-0.286226,2.088480,0.159449,0.041546,0.363511,-0.095332,-0.220385,-0.173172,0.545190,0.109601,0.252729,-39.782673,6.436874,18.871946,0.261320,1.936446,0.054794,0.000000,0.000000,0.000000,0.000000,0.000000,0.000000
12387958.000000,-0.340784,0.627529,0.428158,-1.522624,-0.286406,2.089035,0.159559,0.039178,0.364621,-0.096227,-0.217448,-0.174854,0.541433,0.111456,0.304304,-39.858051,6.413071,18.796568,0.327238,1.903487,0.028243,0.000000,0.000000,0.000000,0.000000,0.000000,0.000000
12387959.000000,-0.340737,0.627897,0.428063,-1.522839,-0.286578,2.089598,0.159666,0.043748,0.363195,-0.096287,-0.218555,-0.177603,0.546350,0.106430,0.228925,-39.957233,6.389267,18.721189,0.320829,1.877853,0.041976,0.000000,0.000000,0.000000,0.000000,0.000000,0.000000
12387960.000000,-0.340696,0.628266,0.427969,-1.523056,-0.286752,2.090150,0.159767,0.042118,0.364147,-0.094302,-0.213371,-0.179774,0.546274,0.101523,0.228925,-40.052448,6.389267,18.673582,0.332731,1.871444,0.094161,0.000000,0.000000,0.000000,0.000000,0.000000,0.000000
12387961.000000,-0.340649,0.628632,0.427877,-1.523273,-0.286929,2.090708,0.159881,0.045733,0.370994,-0.091532,-0.213774,-0.175458,0.550880,0.106890,0.153547,-40.052448,6.341660,18.673582,0.285123,1.871444,0.028243,0.000000,0.000000,0.000000,0.000000,0.000000,0.000000
12387962.000000,-0.340602,0.628994,0.427779,-1.523486,-0.287107,2.091265,0.159983,0.045830,0.370491,-0.096893,-0.209852,-0.176315,0.549991,0.102684,0.054365,-40.004841,6.341660,18.649778,0.219205,1.865035,0.054794,0.000000,0.000000,0.000000,0.000000,0.000000,0.000000
12387963.000000,-0.340557,0.629358,0.427685,-1.523693,-0.287283,2.091806,0.160093,0.045096,0.363799,-0.094180,-0.216096,-0.174586,0.546883,0.106823,-0.017047,-39.810444,6.313889,18.526793,0.207303,1.916305,0.015426,0.000000,0.000000,0.000000,0.000000,0.000000,0.000000
12387964.000000,-0.340511,0.629717,0.427585,-1.523906,-0.287463,2.092355,0.160198,0.042880,0.361878,-0.096492,-0.212062,-0.173384,0.544404,0.108134,-0.017047,-39.711262,6.341660,18.499022,0.207303,1.955673,0.021835,0.000000,0.000000,0.000000,0.000000,0.000000,0.000000
12387965.000000,-0.340466,0.630091,0.427490,-1.524113,-0.287646,2.092892,0.160303,0.041984,0.365077,-0.099019,-0.208264,-0.174228,0.556430,0.108179,-0.044818,-39.711262,6.290085,18.451414,0.249418,1.942855,0.054794,0.000000,0.000000,0.000000,0.000000,0.000000,0.000000
12387966.000000,-0.340420,0.630464,0.427392,-1.524314,-0.287823,2.093435,0.160417,0.044291,0.366061,-0.098992,-0.206178,-0.174008,0.552784,0.106009,-0.068621,-39.735065,6.266281,18.427610,0.273221,1.968490,0.015426,0.000000,0.000000,0.000000,0.000000,0.000000,0.000000
12387967.000000,-0.340373,0.630840,0.427292,-1.524515,-0.288002,2.093987,0.160516,0.046722,0.371019,-0.099362,-0.202618,-0.173529,0.548268,0.104443,-0.116229,-39.834248,6.290085,18.328428,0.297025,1.923629,0.087753,0.000000,0.000000,0.000000,0.000000,0.000000,0.000000
12387968.000000,-0.340333,0.631219,0.427197,-1.524717,-0.288179,2.094535,0.160628,0.042553,0.368281,-0.096622,-0.201052,-0.176174,0.549677,0.104255,-0.044818,-39.957233,6.290085,18.253050,0.267728,1.877853,0.028243,0.000000,0.000000,0.000000,0.000000,0.000000,0.000000
12387969.000000,-0.340286,0.631595,0.427105,-1.524921,-0.288356,2.095087,0.160735,0.044418,0.373699,-0.096368,-0.201547,-0.177629,0.544724,0.106825,-0.044818,-40.104023,6.242477,18.253050,0.219205,1.844894,0.015426,0.000000,0.000000,0.000000,0.000000,0.000000,0.000000
12387970.000000,-0.340236,0.631967,0.427003,-1.525117,-0.288536,2.095639,0.160835,0.047765,0.369995,-0.095568,-0.200363,-0.175216,0.556664,0.106474,-0.116229,-40.076252,6.290085,18.205442,0.201810,1.832076,0.067611,0.000000,0.000000,0.000000,0.000000,0.000000,0.000000
12387971.000000,-0.340181,0.632344,0.426907,-1.525317,-0.288717,2.096179,0.160944,0.047377,0.372648,-0.095696,-0.199566,-0.179773,0.553452,0.104096,-0.215411,-40.127827,6.290085,18.153868,0.225614,1.844894,0.034652,0.000000,0.000000,0.000000,0.000000,0.000000,0.000000
12387972.000000,-0.340136,0.632719,0.426812,-1.525512,-0.288900,2.096725,0.161048,0.047547,0.372867,-0.095577,-0.194651,-0.178712,0.550233,0.099885,-0.215411,-40.104023,6.242477,18.054686,0.267728,1.865035,0.081344,0.000000,0.000000,0.000000,0.000000,0.000000,0.000000
12387973.000000,-0.340094,0.633090,0.426713,-1.525720,-0.289073,2.097263,0.161153,0.043428,0.371606,-0.098667,-0.196522,-0.176023,0.548690,0.099375,-0.144000,-40.052448,6.242477,18.177671,0.255826,1.884261,0.061202,0.000000,0.000000,0.000000,0.000000,0.000000,0.000000
12387974.000000,-0.340045,0.633456,0.426616,-1.525912,-0.289250,2.097806,0.161262,0.043075,0.372549,-0.098757,-0.193977,-0.174674,0.549356,0.098767,-0.191607,-39.905659,6.218674,18.153868,0.261320,1.838485,0.028243,0.000000,0.000000,0.000000,0.000000,0.000000,0.000000
12387975.000000,-0.339996,0.633817,0.426513,-1.526110,-0.289434,2.098354,0.161363,0.042208,0.369324,-0.096662,-0.194728,-0.178258,0.549199,0.102115,-0.215411,-39.711262,6.266281,18.130064,0.267728,1.832076,0.034652,0.000000,0.000000,0.000000,0.000000,0.000000,0.000000
12387976.000000,-0.339952,0.634187,0.426422,-1.526301,-0.289617,2.098888,0.161468,0.039869,0.370848,-0.096543,-0.190773,-0.175305,0.543645,0.099055,-0.167803,-39.540668,6.218674,18.030882,0.243009,1.832076,0.061202,0.000000,0.000000,0.000000,0.000000,0.000000,0.000000
12387977.000000,-0.339910,0.634554,0.426326,-1.526498,-0.289798,2.099425,0.161580,0.042871,0.368618,-0.096968,-0.192988,-0.173936,0.540582,0.103648,-0.044818,-39.489094,6.218674,18.007078,0.249418,1.903487,0.034652,0.000000,0.000000,0.000000,0.000000,0.000000,0.000000
12387978.000000,-0.339859,0.634927,0.426231,-1.526685,-0.289978,2.099953,0.161688,0.046067,0.369956,-0.097409,-0.188428,-0.182028,0.531192,0.106189,-0.092425,-39.465290,6.190903,17.856321,0.267728,1.955673,0.021835,0.000000,0.000000,0.000000,0.000000,0.000000,0.000000
12387979.000000,-0.339814,0.635295,0.426136,-1.526875,-0.290151,2.100499,0.161790,0.046508,0.373114,-0.094238,-0.189056,-0.177469,0.541649,0.105212,-0.068621,-39.465290,6.167099,17.733335,0.225614,1.916305,0.087753,0.000000,0.000000,0.000000,0.000000,0.000000,0.000000
12387980.000000,-0.339769,0.635670,0.426034,-1.527071,-0.290326,2.101056,0.161904,0.044431,0.372318,-0.096978,-0.188400,-0.174911,0.546910,0.105097,-0.068621,-39.512897,6.218674,17.709532,0.207303,1.812850,0.021835,0.000000,0.000000,0.000000,0.000000,0.000000,0.000000
12387981.000000,-0.339726,0.636051,0.425937,-1.527257,-0.290498,2.101604,0.162013,0.044742,0.368734,-0.095799,-0.192620,-0.177620,0.554304,0.107053,-0.017047,-39.588276,6.190903,17.661924,0.183500,1.735030,0.021835,0.000000,0.000000,0.000000,0.000000,0.000000,0.000000
12387982.000000,-0.339683,0.636421,0.425845,-1.527439,-0.290681,2.102152,0.162112,0.041435,0.371176,-0.092223,-0.186466,-0.180611,0.550169,0.105911,0.054365,-39.612080,6.119492,17.562742,0.183500,1.760665,0.094161,0.000000,0.000000,0.000000,0.000000,0.000000,0.000000
12387983.000000,-0.339637,0.636795,0.425742,-1.527617,-0.290870,2.102686,0.162224,0.040764,0.368356,-0.096137,-0.181105,-0.180289,0.543554,0.110141,0.054365,-39.588276,6.190903,17.435789,0.243009,1.793624,0.034652,0.000000,0.000000,0.000000,0.000000,0.000000,0.000000
12387984.000000,-0.339590,0.637168,0.425643,-1.527800,-0.291049,2.103237,0.162328,0.043186,0.367312,-0.097849,-0.182419,-0.177626,0.544172,0.104459,0.054365,-39.564472,6.218674,17.388182,0.243009,1.793624,0.074935,0.000000,0.000000,0.000000,0.000000,0.000000,0.000000
12387985.000000,-0.339548,0.637528,0.425553,-1.527982,-0.291225,2.103789,0.162435,0.043615,0.363230,-0.093421,-0.179823,-0.179297,0.540575,0.106710,0.105939,-39.294697,6.167099,17.340574,0.225614,1.779891,0.074935,0.000000,0.000000,0.000000,0.000000,0.000000,0.000000
12387986.000000,-0.339506,0.637893,0.425460,-1.528167,-0.291402,2.104342,0.162544,0.043140,0.362249,-0.092171,-0.180004,-0.186354,0.539151,0.109625,0.205121,-39.124104,6.167099,17.364378,0.225614,1.735030,0.041976,0.000000,0.000000,0.000000,0.000000,0.000000,0.000000
12387987.000000,-0.339458,0.638257,0.425359,-1.528337,-0.291576,2.104892,0.162645,0.045831,0.365132,-0.095457,-0.177351,-0.181290,0.536100,0.108642,0.177350,-38.925739,6.218674,17.289000,0.195402,1.708480,0.087753,0.000000,0.000000,0.000000,0.000000,0.000000,0.000000
12387988.000000,-0.339416,0.638623,0.425261,-1.528507,-0.291758,2.105426,0.162758,0.045891,0.362986,-0.094106,-0.173291,-0.183448,0.547520,0.112282,0.228925,-38.806721,6.242477,17.142210,0.201810,1.760665,0.021835,0.000000,0.000000,0.000000,0.000000,0.000000,0.000000
12387989.000000,-0.339371,0.639002,0.425172,-1.528683,-0.291942,2.105964,0.162860,0.043614,0.366709,-0.092831,-0.173289,-0.188462,0.543851,0.110010,0.252729,-38.778950,6.167099,17.090635,0.171598,1.851302,0.081344,0.000000,0.000000,0.000000,0.000000,0.000000,0.000000
12387990.000000,-0.339325,0.639375,0.425078,-1.528853,-0.292133,2.106512,0.162975,0.042358,0.364779,-0.090491,-0.172730,-0.188286,0.544614,0.108145,0.252729,-38.830524,6.119492,17.019224,0.171598,1.838485,0.028243,0.000000,0.000000,0.000000,0.000000,0.000000,0.000000
12387991.000000,-0.339280,0.639759,0.424979,-1.529023,-0.292315,2.107060,0.163076,0.041294,0.369914,-0.094366,-0.169565,-0.183820,0.548128,0.106831,0.252729,-38.953510,6.167099,16.967649,0.171598,1.767074,0.081344,0.000000,0.000000,0.000000,0.000000,0.000000,0.000000
12387992.000000,-0.339234,0.640135,0.424875,-1.529189,-0.292502,2.107603,0.163186,0.044152,0.368325,-0.097860,-0.168454,-0.181325,0.548950,0.104802,0.228925,-39.072529,6.242477,16.967649,0.195402,1.721298,0.048385,0.000000,0.000000,0.000000,0.000000,0.000000,0.000000
12387993.000000,-0.339194,0.640521,0.424780,-1.529362,-0.292685,2.108157,0.163290,0.043981,0.371560,-0.096928,-0.170281,-0.178282,0.548393,0.107312,0.304304,-39.270893,6.218674,16.967649,0.189908,1.721298,0.034652,0.000000,0.000000,0.000000,0.000000,0.000000,0.000000
12387996.000000,-0.339060,0.641661,0.424490,-1.529878,-0.293236,2.109793,0.163601,0.043886,0.376188,-0.093272,-0.170330,-0.181710,0.538852,0.098561,0.351911,-39.417683,6.218674,17.066832,0.201810,1.695663,0.081344,0.000000,0.000000,0.000000,0.000000,0.000000,0.000000
12387997.000000,-0.339012,0.642038,0.424390,-1.530049,-0.293427,2.110341,0.163702,0.043435,0.385760,-0.095257,-0.172680,-0.184011,0.536078,0.102143,0.304304,-39.393879,6.242477,17.114439,0.213712,1.676437,0.081344,0.000000,0.000000,0.000000,0.000000,0.000000,0.000000
12387998.000000,-0.338971,0.642406,0.424289,-1.530224,-0.293612,2.110880,0.163812,0.043921,0.380458,-0.097004,-0.173708,-0.184971,0.531911,0.106123,0.351911,-39.270893,6.266281,17.142210,0.213712,1.721298,0.034652,0.000000,0.000000,0.000000,0.000000,0.000000,0.000000
12387999.000000,-0.338924,0.642788,0.424186,-1.530397,-0.293792,2.111408,0.163914,0.045579,0.379707,-0.099985,-0.174860,-0.186270,0.530226,0.101180,0.351911,-39.294697,6.290085,17.213621,0.219205,1.735030,0.087753,0.000000,0.000000,0.000000,0.000000,0.000000,0.000000
12388000.000000,-0.338878,0.643164,0.424083,-1.530570,-0.293976,2.111943,0.164031,0.043647,0.381694,-0.101270,-0.172137,-0.182621,0.527809,0.106700,0.351911,-39.270893,6.341660,17.241392,0.237516,1.754256,0.021835,0.000000,0.000000,0.000000,0.000000,0.000000,0.000000
12388001.000000,-0.338835,0.643541,0.423980,-1.530735,-0.294155,2.112457,0.164134,0.044752,0.377487,-0.100952,-0.168350,-0.183340,0.533011,0.102352,0.375715,-39.294697,6.365463,17.189817,0.213712,1.793624,0.054794,0.000000,0.000000,0.000000,0.000000,0.000000,0.000000
12388002.000000,-0.338797,0.643932,0.423882,-1.530905,-0.294340,2.112982,0.164239,0.043109,0.383154,-0.097632,-0.170554,-0.183556,0.525264,0.098729,0.502668,-39.417683,6.365463,17.213621,0.183500,1.838485,0.094161,0.000000,0.000000,0.000000,0.000000,0.000000,0.000000
12388003.000000,-0.338749,0.644315,0.423781,-1.531077,-0.294530,2.113516,0.164348,0.048057,0.382273,-0.097548,-0.170973,-0.184498,0.523455,0.098505,0.502668,-39.588276,6.365463,17.189817,0.178007,1.786300,0.074935,0.000000,0.000000,0.000000,0.000000,0.000000,0.000000
12388004.000000,-0.338704,0.644706,0.423678,-1.531251,-0.294713,2.114049,0.164459,0.048765,0.383824,-0.099393,-0.172847,-0.181240,0.531580,0.103927,0.502668,-39.758869,6.413071,17.213621,0.183500,1.714889,0.028243,0.000000,0.000000,0.000000,0.000000,0.000000,0.000000
12388005.000000,-0.338656,0.645090,0.423572,-1.531420,-0.294902,2.114579,0.164561,0.049232,0.381155,-0.100278,-0.170390,-0.184491,0.530831,0.103980,0.502668,-39.881855,6.460678,17.213621,0.219205,1.676437,0.081344,0.000000,0.000000,0.000000,0.000000,0.000000,0.000000
12388006.000000,-0.338613,0.645473,0.423468,-1.531593,-0.295089,2.115106,0.164668,0.049081,0.379989,-0.099634,-0.169516,-0.182200,0.533434,0.106392,0.526471,-39.905659,6.436874,17.265196,0.255826,1.708480,0.081344,0.000000,0.000000,0.000000,0.000000,0.000000,0.000000
12388007.000000,-0.338569,0.645858,0.423360,-1.531765,-0.295265,2.115631,0.164784,0.048341,0.380902,-0.104247,-0.171990,-0.178990,0.530565,0.109598,0.574079,-39.858051,6.512253,17.312803,0.255826,1.735030,0.021835,0.000000,0.000000,0.000000,0.000000,0.000000,0.000000
12388008.000000,-0.338523,0.646231,0.423250,-1.531953,-0.295444,2.116159,0.164882,0.048967,0.379467,-0.104541,-0.174209,-0.180576,0.528194,0.107552,0.574079,-39.711262,6.583664,17.511168,0.243009,1.760665,0.094161,0.000000,0.000000,0.000000,0.000000,0.000000,0.000000
12388009.000000,-0.338480,0.646617,0.423147,-1.532129,-0.295624,2.116686,0.164988,0.045734,0.378252,-0.105232,-0.169536,-0.184613,0.523074,0.109142,0.601850,-39.588276,6.583664,17.586546,0.201810,1.779891,0.094161,0.000000,0.000000,0.000000,0.000000,0.000000,0.000000
12388010.000000,-0.338437,0.646986,0.423043,-1.532305,-0.295811,2.117210,0.165107,0.046297,0.386333,-0.105196,-0.170266,-0.180341,0.518134,0.111760,0.625654,-39.366108,6.635239,17.709532,0.178007,1.812850,0.028243,0.000000,0.000000,0.000000,0.000000,0.000000,0.000000
12388011.000000,-0.338395,0.647379,0.422941,-1.532480,-0.295997,2.117730,0.165213,0.045723,0.387174,-0.102584,-0.170392,-0.178217,0.512503,0.110252,0.697065,-39.342304,6.611435,17.832518,0.189908,1.903487,0.074935,0.000000,0.000000,0.000000,0.000000,0.000000,0.000000
12388012.000000,-0.338349,0.647764,0.422838,-1.532651,-0.296181,2.118250,0.165332,0.043299,0.384839,-0.105278,-0.168621,-0.181415,0.514315,0.107979,0.724836,-39.342304,6.611435,17.856321,0.201810,1.955673,0.028243,0.000000,0.000000,0.000000,0.000000,0.000000,0.000000
12388013.000000,-0.338305,0.648152,0.422730,-1.532824,-0.296367,2.118786,0.165446,0.044184,0.387582,-0.107080,-0.167347,-0.183186,0.518708,0.108965,0.772443,-39.393879,6.635239,17.884092,0.207303,1.897079,0.034652,0.000000,0.000000,0.000000,0.000000,0.000000,0.000000
12388014.000000,-0.338265,0.648543,0.422621,-1.533005,-0.296547,2.119316,0.165553,0.044730,0.387597,-0.106460,-0.171874,-0.184413,0.524135,0.111834,0.824018,-39.540668,6.682846,18.007078,0.201810,1.819259,0.074935,0.000000,0.000000,0.000000,0.000000,0.000000,0.000000
12388015.000000,-0.338218,0.648938,0.422511,-1.533181,-0.296733,2.119839,0.165667,0.043143,0.389680,-0.108410,-0.169012,-0.184779,0.525315,0.113253,0.824018,-39.612080,6.706650,18.130064,0.183500,1.786300,0.041976,0.000000,0.000000,0.000000,0.000000,0.000000,0.000000
12388016.000000,-0.338173,0.649327,0.422399,-1.533350,-0.296931,2.120367,0.165770,0.044796,0.392382,-0.110462,-0.169638,-0.185995,0.523175,0.110943,0.824018,-39.758869,6.758224,18.130064,0.195402,1.844894,0.087753,0.000000,0.000000,0.000000,0.000000,0.000000,0.000000
12388017.000000,-0.338131,0.649719,0.422292,-1.533524,-0.297127,2.120887,0.165882,0.045160,0.391610,-0.108938,-0.172996,-0.188847,0.522261,0.107938,0.871625,-39.810444,6.805832,18.130064,0.249418,1.903487,0.061202,0.000000,0.000000,0.000000,0.000000,0.000000,0.000000
12388018.000000,-0.338093,0.650101,0.422183,-1.533705,-0.297322,2.121418,0.165994,0.040573,0.388020,-0.107729,-0.174467,-0.188950,0.526526,0.109998,0.994611,-39.834248,6.853439,18.304625,0.255826,1.923629,0.041976,0.000000,0.000000,0.000000,0.000000,0.000000,0.000000
12388019.000000,-0.338051,0.650487,0.422076,-1.533885,-0.297516,2.121947,0.166098,0.039005,0.389008,-0.105722,-0.173845,-0.189370,0.539793,0.111031,1.046186,-39.758869,6.853439,18.427610,0.267728,1.871444,0.034652,0.000000,0.000000,0.000000,0.000000,0.000000,0.000000
12388020.000000,-0.338008,0.650876,0.421964,-1.534063,-0.297707,2.122480,0.166200,0.038426,0.384671,-0.109261,-0.174077,-0.189772,0.543202,0.109203,1.069990,-39.711262,6.928818,18.574400,0.285123,1.800033,0.094161,0.000000,0.000000,0.000000,0.000000,0.000000,0.000000
12388021.000000,-0.337967,0.651258,0.421859,-1.534237,-0.297896,2.123011,0.166306,0.040190,0.383618,-0.106127,-0.175511,-0.188544,0.538151,0.105663,1.121564,-39.612080,6.928818,18.649778,0.273221,1.819259,0.094161,0.000000,0.000000,0.000000,0.000000,0.000000,0.000000
12388022.000000,-0.337924,0.651648,0.421752,-1.534411,-0.298085,2.123522,0.166422,0.042450,0.380044,-0.105229,-0.174686,-0.187771,0.530210,0.109755,1.145368,-39.564472,6.952621,18.625975,0.249418,1.930038,0.034652,0.000000,0.000000,0.000000,0.000000,0.000000,0.000000
