chaoyuefei/paper-gmrm-data/robot_logs/s2_dq_gmrm_xz_max_0.30_log_20260314_173539.csv
# time_ms,q_0,q_1,q_2,q_3,q_4,q_5,q_6,dq_0,dq_1,dq_2,dq_3,dq_4,dq_5,dq_6,tau_J_0,tau_J_1,tau_J_2,tau_J_3,tau_J_4,tau_J_5,tau_J_6,O_dP_EE_c_0,O_dP_EE_c_1,O_dP_EE_c_2,O_dP_EE_c_3,O_dP_EE_c_4,O_dP_EE_c_5
12401254.000000,-0.344675,0.544233,0.451058,-1.426804,-0.242495,1.916494,0.131703,-0.000105,0.000161,-0.000037,0.000356,0.000213,0.000056,0.000311,0.078168,-38.413960,5.996506,19.316282,0.828947,1.377059,-0.142960,0.000000,0.000000,0.000000,0.000000,0.000000,0.000000
12401255.000000,-0.344675,0.544229,0.451058,-1.426802,-0.242495,1.916490,0.131701,-0.000070,-0.001099,-0.000024,0.000794,0.000142,-0.000200,-0.000539,0.078168,-38.362385,5.996506,19.292479,0.828947,1.383468,-0.122819,0.000000,0.000000,0.000000,0.000000,0.000000,0.000000
12401256.000000,-0.344675,0.544234,0.451060,-1.426804,-0.242496,1.916489,0.131703,-0.000047,0.001031,0.000541,-0.000027,-0.000346,-0.000133,0.000387,0.078168,-38.437763,5.972702,19.316282,0.840848,1.383468,-0.142960,0.000000,0.000000,0.000000,0.000000,0.000000,0.000000
12401257.000000,-0.344679,0.544236,0.451058,-1.426806,-0.242494,1.916492,0.131697,-0.000681,0.000687,0.000360,-0.000575,0.000414,-0.000089,-0.001709,0.105939,-38.437763,5.972702,19.340086,0.823453,1.383468,-0.089860,0.000000,0.000000,0.000000,0.000000,0.000000,0.000000
12401258.000000,-0.344698,0.544237,0.451055,-1.426804,-0.242495,1.916493,0.131705,-0.016927,0.011196,-0.012415,-0.006177,-0.002644,0.001162,0.009946,-0.266986,-37.826801,5.433151,19.042540,0.774930,1.350509,-0.130143,0.000000,0.000000,0.000000,0.000000,0.000000,0.000000
12401259.000000,-0.344715,0.544224,0.451037,-1.426813,-0.242476,1.916487,0.131725,-0.023396,0.020811,-0.024817,-0.018161,0.001990,-0.003648,0.012150,-1.726946,-35.672565,3.909714,18.106260,0.410551,1.337692,-0.130143,0.000000,0.000000,0.000000,0.000000,0.000000,0.000000
12401260.000000,-0.344718,0.544234,0.450970,-1.426828,-0.242470,1.916486,0.131748,-0.009620,0.022919,-0.039914,-0.024324,-0.000756,-0.007237,0.016376,-3.956561,-32.466999,2.116501,16.301146,0.064481,1.324874,-0.070634,0.000000,0.000000,0.000000,0.000000,0.000000,0.000000
12401261.000000,-0.344734,0.544273,0.450873,-1.426855,-0.242512,1.916484,0.131788,-0.002022,0.024166,-0.052613,-0.022991,-0.013885,-0.007232,0.023759,-6.059222,-28.868671,0.156662,13.754148,0.117582,1.370651,-0.116410,0.000000,0.000000,0.000000,0.000000,0.000000,0.000000
12401262.000000,-0.344759,0.544345,0.450758,-1.426917,-0.242554,1.916486,0.131822,-0.003761,0.026814,-0.066106,-0.028449,-0.019169,-0.003266,0.021328,-7.642169,-25.710712,-1.537369,11.334105,0.069974,1.442062,-0.083451,0.000000,0.000000,0.000000,0.000000,0.000000,0.000000
12401263.000000,-0.344788,0.544442,0.450635,-1.427004,-0.242612,1.916546,0.131856,-0.003263,0.039162,-0.071386,-0.040100,-0.029393,0.024571,0.024375,-8.534808,-23.064533,-2.715653,9.132261,0.069974,1.104232,-0.050492,0.000000,0.000000,0.000000,0.000000,0.000000,0.000000
12401264.000000,-0.344809,0.544564,0.450526,-1.427086,-0.242715,1.916684,0.131896,-0.002490,0.058632,-0.070856,-0.045871,-0.056891,0.063234,0.028437,-8.856158,-21.057087,-3.378189,6.906615,0.362943,0.251876,-0.064225,0.000000,0.000000,0.000000,0.000000,0.000000,0.000000
12401265.000000,-0.344826,0.544690,0.450429,-1.427182,-0.242809,1.916851,0.131930,-0.004488,0.077030,-0.074854,-0.054482,-0.070106,0.097545,0.027452,-8.582416,-19.541584,-3.405960,5.101500,0.482877,-0.548295,0.028243,0.000000,0.000000,0.000000,0.000000,0.000000,0.000000
12401266.000000,-0.344851,0.544798,0.450373,-1.427279,-0.242896,1.917003,0.131981,-0.011701,0.084190,-0.065459,-0.060444,-0.074249,0.117490,0.031783,-7.693743,-18.121296,-3.330582,3.546324,0.452665,-0.846757,-0.004716,0.000000,0.000000,0.000000,0.000000,0.000000,0.000000
12401268.000000,-0.344852,0.544983,0.450303,-1.427512,-0.243063,1.917303,0.132087,-0.010181,0.086199,-0.050009,-0.092675,-0.079173,0.139162,0.043730,-5.936236,-15.479084,-2.346695,1.840392,0.207303,-0.326737,-0.044083,0.000000,0.000000,0.000000,0.000000,0.000000,0.000000
12401269.000000,-0.344854,0.545043,0.450279,-1.427663,-0.243130,1.917505,0.132150,-0.009407,0.077779,-0.046381,-0.113697,-0.072518,0.161122,0.052768,-4.944415,-13.888203,-1.684158,1.665831,-0.085665,-0.085954,-0.070634,0.000000,0.000000,0.000000,0.000000,0.000000,0.000000
12401270.000000,-0.344866,0.545074,0.450259,-1.427836,-0.243191,1.917741,0.132211,-0.012584,0.063490,-0.041243,-0.136625,-0.068339,0.180916,0.053648,-3.881182,-12.146564,-1.073197,1.887999,-0.377719,0.089828,-0.070634,0.000000,0.000000,0.000000,0.000000,0.000000,0.000000
12401271.000000,-0.344869,0.545108,0.450219,-1.428035,-0.243274,1.917995,0.132285,-0.011387,0.056344,-0.043353,-0.162028,-0.074568,0.203361,0.061155,-3.063921,-10.484272,-0.311478,2.435484,-0.431735,0.323287,-0.116410,0.000000,0.000000,0.000000,0.000000,0.000000,0.000000
12401272.000000,-0.344884,0.545140,0.450172,-1.428243,-0.243383,1.918269,0.132353,-0.014126,0.044907,-0.046148,-0.185047,-0.089059,0.220856,0.063907,-2.222857,-8.917194,0.398666,3.002806,-0.204684,0.544845,-0.097184,0.000000,0.000000,0.000000,0.000000,0.000000,0.000000
12401273.000000,-0.344920,0.545200,0.450126,-1.428459,-0.243496,1.918564,0.132423,-0.021276,0.050431,-0.047648,-0.198549,-0.099803,0.250109,0.065349,-1.159625,-7.842060,0.965988,3.423338,0.046171,0.674850,-0.056901,0.000000,0.000000,0.000000,0.000000,0.000000,0.000000
12401274.000000,-0.344969,0.545278,0.450081,-1.428685,-0.243604,1.918884,0.132501,-0.030557,0.060822,-0.049491,-0.210747,-0.104055,0.276171,0.068750,-0.044818,-7.104145,1.430160,3.693114,0.213712,0.739852,-0.070634,0.000000,0.000000,0.000000,0.000000,0.000000,0.000000
12401275.000000,-0.345002,0.545382,0.450047,-1.428917,-0.243717,1.919244,0.132576,-0.029543,0.076763,-0.045343,-0.217627,-0.104828,0.299565,0.069120,0.748639,-6.786762,1.652328,3.867674,0.327238,0.694076,-0.031266,0.000000,0.000000,0.000000,0.000000,0.000000,0.000000
12401276.000000,-0.345026,0.545505,0.450015,-1.429152,-0.243807,1.919627,0.132661,-0.029559,0.090974,-0.038071,-0.223004,-0.102558,0.325070,0.076117,1.292158,-6.786762,1.799118,3.792296,0.237516,0.557662,-0.037675,0.000000,0.000000,0.000000,0.000000,0.000000,0.000000
12401277.000000,-0.345046,0.545637,0.449988,-1.429388,-0.243885,1.920036,0.132750,-0.025735,0.110459,-0.037740,-0.229368,-0.089119,0.349390,0.082108,1.641279,-6.862141,1.874496,3.494749,-0.055453,0.369064,-0.070634,0.000000,0.000000,0.000000,0.000000,0.000000,0.000000
12401278.000000,-0.345067,0.545775,0.449961,-1.429635,-0.243969,1.920460,0.132835,-0.023070,0.120296,-0.033109,-0.236424,-0.086462,0.376941,0.079996,1.962629,-6.862141,1.874496,3.125792,-0.287997,0.336105,-0.056901,0.000000,0.000000,0.000000,0.000000,0.000000,0.000000
12401279.000000,-0.345082,0.545909,0.449924,-1.429897,-0.244072,1.920875,0.132921,-0.018818,0.124809,-0.032355,-0.239916,-0.088014,0.384669,0.085067,2.160993,-6.663776,1.969711,2.828245,-0.330111,0.499068,-0.083451,0.000000,0.000000,0.000000,0.000000,0.000000,0.000000
12401280.000000,-0.345096,0.546034,0.449884,-1.430175,-0.244189,1.921313,0.133003,-0.014520,0.124795,-0.035735,-0.246820,-0.094227,0.402205,0.081771,2.283979,-6.223408,2.092697,2.681456,-0.228488,0.622665,-0.056901,0.000000,0.000000,0.000000,0.000000,0.000000,0.000000
12401281.000000,-0.345111,0.546147,0.449840,-1.430475,-0.244308,1.921789,0.133085,-0.011324,0.118467,-0.038895,-0.261218,-0.100085,0.429674,0.084953,2.383161,-5.541035,2.239486,2.657652,-0.079257,0.629073,-0.050492,0.000000,0.000000,0.000000,0.000000,0.000000,0.000000
12401282.000000,-0.345134,0.546251,0.449796,-1.430799,-0.244430,1.922311,0.133170,-0.014844,0.113279,-0.039486,-0.279818,-0.105363,0.451732,0.087431,2.581525,-4.707905,2.314865,2.852049,0.112089,0.466109,-0.050492,0.000000,0.000000,0.000000,0.000000,0.000000,0.000000
12401283.000000,-0.345149,0.546360,0.449761,-1.431124,-0.244548,1.922864,0.133252,-0.014037,0.114462,-0.036579,-0.294173,-0.105297,0.487032,0.088112,2.629133,-3.922383,2.239486,2.951231,0.207303,0.284835,-0.017533,0.000000,0.000000,0.000000,0.000000,0.000000,0.000000
12401284.000000,-0.345163,0.546491,0.449726,-1.431455,-0.244661,1.923406,0.133344,-0.010739,0.116969,-0.033760,-0.300561,-0.111351,0.501129,0.091966,2.680707,-3.359028,2.116501,2.903624,0.213712,0.304061,-0.064225,0.000000,0.000000,0.000000,0.000000,0.000000,0.000000
12401285.000000,-0.345163,0.546642,0.449694,-1.431776,-0.244768,1.923954,0.133432,-0.005527,0.121755,-0.031956,-0.306350,-0.107520,0.515604,0.087411,2.605329,-3.311421,1.997482,2.729063,0.117582,0.576888,-0.050492,0.000000,0.000000,0.000000,0.000000,0.000000,0.000000
12401286.000000,-0.345161,0.546819,0.449662,-1.432098,-0.244864,1.924524,0.133516,-0.002019,0.134235,-0.031058,-0.308519,-0.103285,0.532154,0.084898,2.529951,-4.069172,2.021286,2.681456,-0.031649,0.863448,-0.050492,0.000000,0.000000,0.000000,0.000000,0.000000,0.000000
12401287.000000,-0.345159,0.547007,0.449640,-1.432416,-0.244958,1.925154,0.133600,-0.001420,0.150891,-0.027041,-0.311008,-0.095637,0.564886,0.083475,2.529951,-5.394245,2.045089,2.705260,-0.187289,0.882674,-0.070634,0.000000,0.000000,0.000000,0.000000,0.000000,0.000000
12401288.000000,-0.345159,0.547185,0.449622,-1.432747,-0.245050,1.925835,0.133679,-0.002765,0.160049,-0.023193,-0.317595,-0.094673,0.597215,0.079557,2.605329,-6.933552,2.168075,3.078184,-0.353915,0.589706,-0.017533,0.000000,0.000000,0.000000,0.000000,0.000000,0.000000
12401289.000000,-0.345155,0.547354,0.449595,-1.433091,-0.245164,1.926531,0.133766,-0.001065,0.168524,-0.024602,-0.323740,-0.097848,0.627234,0.080290,2.704511,-8.401447,2.485458,3.546324,-0.294406,0.212508,-0.050492,0.000000,0.000000,0.000000,0.000000,0.000000,0.000000
12401290.000000,-0.345149,0.547531,0.449568,-1.433437,-0.245296,1.927231,0.133840,0.001552,0.173825,-0.027680,-0.337470,-0.109653,0.642150,0.076736,2.752119,-9.849506,2.779037,3.915282,-0.085665,-0.014542,0.015426,0.000000,0.000000,0.000000,0.000000,0.000000,0.000000
12401291.000000,-0.345152,0.547701,0.449540,-1.433795,-0.245428,1.927897,0.133923,0.001051,0.174708,-0.028564,-0.344068,-0.119681,0.658533,0.077035,2.902875,-11.071430,3.025009,4.236632,0.171598,0.044051,0.009017,0.000000,0.000000,0.000000,0.000000,0.000000,0.000000
12401292.000000,-0.345147,0.547875,0.449515,-1.434158,-0.245563,1.928558,0.134008,0.001286,0.170947,-0.029335,-0.347526,-0.123910,0.659817,0.083032,2.902875,-12.269550,3.147995,4.510375,0.356534,0.193282,-0.023942,0.000000,0.000000,0.000000,0.000000,0.000000,0.000000
12401293.000000,-0.345137,0.548045,0.449485,-1.434535,-0.245683,1.929243,0.134081,0.000987,0.168029,-0.030516,-0.355207,-0.121499,0.665072,0.079627,2.652936,-13.594624,3.294784,5.129271,0.398649,0.291244,0.021835,0.000000,0.000000,0.000000,0.000000,0.000000,0.000000
12401294.000000,-0.345116,0.548210,0.449459,-1.434917,-0.245784,1.929923,0.134167,0.006913,0.168820,-0.028921,-0.358701,-0.118566,0.673588,0.080848,2.109418,-15.062519,3.322555,6.065550,0.273221,0.369064,-0.031266,0.000000,0.000000,0.000000,0.000000,0.000000,0.000000
12401295.000000,-0.345116,0.548375,0.449439,-1.435299,-0.245879,1.930623,0.134251,0.008361,0.167350,-0.021784,-0.367206,-0.104536,0.677512,0.080528,1.788068,-16.724812,3.223373,7.303343,0.069974,0.427657,-0.056901,0.000000,0.000000,0.000000,0.000000,0.000000,0.000000
12401296.000000,-0.345125,0.548543,0.449414,-1.435668,-0.245981,1.931297,0.134328,0.003177,0.167395,-0.024269,-0.367581,-0.107305,0.682578,0.078812,1.589704,-18.462482,3.171798,8.588743,-0.031649,0.616256,-0.044083,0.000000,0.000000,0.000000,0.000000,0.000000,0.000000
12401297.000000,-0.345135,0.548724,0.449373,-1.436036,-0.246099,1.931958,0.134406,-0.001802,0.173851,-0.027967,-0.369861,-0.111769,0.668153,0.077599,1.442914,-20.374714,3.322555,9.921751,0.034269,1.012679,-0.023942,0.000000,0.000000,0.000000,0.000000,0.000000,0.000000
12401298.000000,-0.345140,0.548913,0.449336,-1.436405,-0.246222,1.932624,0.134485,-0.004170,0.180631,-0.031763,-0.368109,-0.112676,0.664283,0.076259,1.244550,-22.259174,3.393966,11.258726,0.171598,1.364242,0.001693,0.000000,0.000000,0.000000,0.000000,0.000000,0.000000
12401299.000000,-0.345149,0.549117,0.449295,-1.436783,-0.246338,1.933294,0.134573,-0.004572,0.192288,-0.035193,-0.370245,-0.114733,0.663837,0.077501,1.121564,-24.143635,3.493149,12.492552,0.231107,1.416427,-0.031266,0.000000,0.000000,0.000000,0.000000,0.000000,0.000000
12401300.000000,-0.345158,0.549334,0.449248,-1.437163,-0.246454,1.933982,0.134648,-0.007762,0.199279,-0.035636,-0.375507,-0.114984,0.673286,0.079434,0.994611,-25.980488,3.639938,13.607359,0.261320,1.331283,0.034652,0.000000,0.000000,0.000000,0.000000,0.000000,0.000000
12401301.000000,-0.345161,0.549561,0.449200,-1.437543,-0.246580,1.934668,0.134734,-0.005277,0.212046,-0.038985,-0.380720,-0.120485,0.671977,0.084951,0.796247,-27.741962,3.786728,14.496031,0.303434,1.169235,-0.004716,0.000000,0.000000,0.000000,0.000000,0.000000,0.000000
12401302.000000,-0.345153,0.549799,0.449144,-1.437919,-0.246698,1.935319,0.134816,-0.000612,0.223602,-0.045894,-0.376624,-0.123387,0.669954,0.087750,0.474897,-29.332844,3.985092,15.063353,0.315336,1.162826,-0.004716,0.000000,0.000000,0.000000,0.000000,0.000000,0.000000
12401303.000000,-0.345161,0.550044,0.449082,-1.438299,-0.246819,1.935946,0.134894,-0.003781,0.228957,-0.051219,-0.381687,-0.125678,0.659714,0.088404,0.427289,-30.824543,4.203293,15.483885,0.332731,1.350509,0.028243,0.000000,0.000000,0.000000,0.000000,0.000000,0.000000
12401304.000000,-0.345169,0.550288,0.449021,-1.438696,-0.246938,1.936565,0.134980,-0.006404,0.232025,-0.054616,-0.386833,-0.123124,0.640812,0.087125,0.403486,-32.022663,4.401657,15.856810,0.356534,1.526290,-0.017533,0.000000,0.000000,0.000000,0.000000,0.000000,0.000000
12401305.000000,-0.345171,0.550524,0.448948,-1.439108,-0.247063,1.937198,0.135061,-0.003725,0.233650,-0.058712,-0.391007,-0.126232,0.636223,0.088989,0.328107,-32.931171,4.671432,16.301146,0.386747,1.565658,-0.011124,0.000000,0.000000,0.000000,0.000000,0.000000,0.000000
12401306.000000,-0.345184,0.550749,0.448874,-1.439523,-0.247184,1.937840,0.135141,-0.010221,0.226945,-0.064211,-0.397337,-0.126507,0.633631,0.085863,0.351911,-33.617512,4.917404,16.697874,0.362943,1.467696,0.001693,0.000000,0.000000,0.000000,0.000000,0.000000,0.000000
12401307.000000,-0.345202,0.550977,0.448804,-1.439953,-0.247307,1.938453,0.135227,-0.012343,0.227820,-0.068821,-0.406590,-0.122420,0.635838,0.083910,0.403486,-34.153095,5.040390,17.189817,0.344633,1.474105,-0.004716,0.000000,0.000000,0.000000,0.000000,0.000000,0.000000
12401308.000000,-0.345226,0.551199,0.448720,-1.440371,-0.247434,1.939066,0.135303,-0.015882,0.227089,-0.072504,-0.410516,-0.121037,0.628017,0.080968,0.550275,-34.545856,5.310165,17.411985,0.374845,1.591293,0.021835,0.000000,0.000000,0.000000,0.000000,0.000000,0.000000
12401309.000000,-0.345245,0.551442,0.448645,-1.440808,-0.247558,1.939657,0.135387,-0.017708,0.230306,-0.075346,-0.418061,-0.123534,0.632294,0.085577,0.673261,-35.085407,5.456955,17.784910,0.369352,1.747848,-0.004716,0.000000,0.000000,0.000000,0.000000,0.000000,0.000000
12401310.000000,-0.345260,0.551683,0.448560,-1.441233,-0.247695,1.940250,0.135467,-0.017787,0.230534,-0.079961,-0.415331,-0.126344,0.616504,0.083101,0.748639,-35.573383,5.702927,17.931700,0.386747,1.884261,0.001693,0.000000,0.000000,0.000000,0.000000,0.000000,0.000000
12401311.000000,-0.345272,0.551924,0.448475,-1.441666,-0.247829,1.940858,0.135548,-0.019106,0.232606,-0.082270,-0.424274,-0.127609,0.615145,0.081095,0.748639,-35.989948,5.921127,18.253050,0.386747,1.832076,0.009017,0.000000,0.000000,0.000000,0.000000,0.000000,0.000000
12401312.000000,-0.345281,0.552171,0.448387,-1.442110,-0.247960,1.941465,0.135629,-0.019143,0.236263,-0.084077,-0.427841,-0.133357,0.616253,0.079899,0.697065,-36.358906,6.119492,18.526793,0.386747,1.741439,0.009017,0.000000,0.000000,0.000000,0.000000,0.000000,0.000000
12401313.000000,-0.345294,0.552429,0.448293,-1.442553,-0.248091,1.942069,0.135714,-0.014932,0.238696,-0.085249,-0.432737,-0.133028,0.608301,0.079025,0.724836,-36.823078,6.313889,18.796568,0.393156,1.727706,0.009017,0.000000,0.000000,0.000000,0.000000,0.000000,0.000000
12401314.000000,-0.345307,0.552682,0.448203,-1.442984,-0.248223,1.942658,0.135799,-0.014828,0.244527,-0.084975,-0.432426,-0.136578,0.598344,0.083786,0.748639,-37.287251,6.460678,18.871946,0.393156,1.851302,-0.011124,0.000000,0.000000,0.000000,0.000000,0.000000,0.000000
12401315.000000,-0.345319,0.552939,0.448107,-1.443424,-0.248362,1.943238,0.135881,-0.014691,0.249772,-0.089487,-0.434598,-0.139104,0.592158,0.085955,0.772443,-37.656208,6.659042,18.971128,0.494779,1.949264,0.015426,0.000000,0.000000,0.000000,0.000000,0.000000,0.000000
12401316.000000,-0.345326,0.553189,0.448006,-1.443872,-0.248491,1.943844,0.135966,-0.009781,0.249977,-0.090022,-0.434466,-0.132252,0.594549,0.088107,0.724836,-37.874409,6.881210,19.169493,0.494779,1.955673,0.021835,0.000000,0.000000,0.000000,0.000000,0.000000,0.000000
12401317.000000,-0.345342,0.553435,0.447919,-1.444326,-0.248617,1.944442,0.136054,-0.015944,0.250720,-0.085660,-0.438373,-0.130836,0.598433,0.090390,0.824018,-38.021198,6.905014,19.316282,0.464567,1.930038,0.009017,0.000000,0.000000,0.000000,0.000000,0.000000,0.000000
12401318.000000,-0.345345,0.553691,0.447825,-1.444786,-0.248735,1.945052,0.136135,-0.009451,0.250112,-0.086903,-0.444046,-0.128425,0.597716,0.086435,0.724836,-38.191792,6.976425,19.490843,0.398649,1.871444,0.021835,0.000000,0.000000,0.000000,0.000000,0.000000,0.000000
12401319.000000,-0.345355,0.553941,0.447738,-1.445234,-0.248868,1.945658,0.136221,-0.009652,0.254186,-0.089537,-0.450268,-0.130009,0.603572,0.090011,0.697065,-38.243366,6.976425,19.562254,0.410551,1.884261,-0.011124,0.000000,0.000000,0.000000,0.000000,0.000000,0.000000
12401320.000000,-0.345362,0.554193,0.447655,-1.445686,-0.249001,1.946259,0.136301,-0.009398,0.254207,-0.084710,-0.447890,-0.131414,0.606702,0.084981,0.649457,-38.338581,6.928818,19.637632,0.434354,1.949264,0.034652,0.000000,0.000000,0.000000,0.000000,0.000000,0.000000
12401321.000000,-0.345370,0.554448,0.447571,-1.446130,-0.249134,1.946869,0.136391,-0.007208,0.252163,-0.084761,-0.453128,-0.135920,0.608615,0.089149,0.649457,-38.485371,6.905014,19.661436,0.434354,1.995040,-0.004716,0.000000,0.000000,0.000000,0.000000,0.000000,0.000000
12401322.000000,-0.345374,0.554696,0.447486,-1.446576,-0.249264,1.947471,0.136474,-0.003193,0.252302,-0.085417,-0.451397,-0.135770,0.608813,0.085848,0.550275,-38.461567,6.905014,19.661436,0.458158,1.988631,-0.004716,0.000000,0.000000,0.000000,0.000000,0.000000,0.000000
12401323.000000,-0.345375,0.554949,0.447410,-1.447036,-0.249389,1.948082,0.136550,-0.002797,0.251917,-0.080451,-0.450805,-0.134643,0.609537,0.085332,0.427289,-38.461567,6.805832,19.760618,0.458158,1.949264,0.074935,0.000000,0.000000,0.000000,0.000000,0.000000,0.000000
12401324.000000,-0.345371,0.555197,0.447332,-1.447470,-0.249516,1.948703,0.136641,-0.000935,0.253026,-0.083349,-0.441784,-0.138030,0.609158,0.086420,0.228925,-38.485371,6.734421,19.661436,0.446256,1.942855,0.001693,0.000000,0.000000,0.000000,0.000000,0.000000,0.000000
12401325.000000,-0.345365,0.555452,0.447260,-1.447916,-0.249636,1.949305,0.136721,0.000135,0.253796,-0.079419,-0.442993,-0.135519,0.607433,0.087997,0.030561,-38.485371,6.635239,19.613829,0.416959,1.955673,0.021835,0.000000,0.000000,0.000000,0.000000,0.000000,0.000000
12401326.000000,-0.345353,0.555714,0.447185,-1.448349,-0.249759,1.949916,0.136807,0.000743,0.256621,-0.076970,-0.444073,-0.129457,0.604768,0.090168,-0.167803,-38.608356,6.559860,19.490843,0.410551,1.974899,0.009017,0.000000,0.000000,0.000000,0.000000,0.000000,0.000000
12401327.000000,-0.345339,0.555971,0.447121,-1.448789,-0.249879,1.950525,0.136888,0.006021,0.259064,-0.072387,-0.439249,-0.125020,0.610254,0.090018,-0.441546,-38.707539,6.365463,19.316282,0.398649,1.962081,0.048385,0.000000,0.000000,0.000000,0.000000,0.000000,0.000000
12401328.000000,-0.345330,0.556234,0.447051,-1.449223,-0.249998,1.951150,0.136983,0.006232,0.260833,-0.074676,-0.432948,-0.120813,0.620172,0.093428,-0.564532,-38.854328,6.266281,19.169493,0.362943,1.949264,0.001693,0.000000,0.000000,0.000000,0.000000,0.000000,0.000000
12401329.000000,-0.345321,0.556493,0.446991,-1.449648,-0.250129,1.951785,0.137069,0.012149,0.264561,-0.071073,-0.432515,-0.125800,0.627433,0.088503,-0.663714,-38.953510,6.095688,19.042540,0.416959,1.877853,0.015426,0.000000,0.000000,0.000000,0.000000,0.000000,0.000000
12401330.000000,-0.345307,0.556744,0.446931,-1.450081,-0.250252,1.952418,0.137154,0.013641,0.258572,-0.070084,-0.435959,-0.122388,0.625325,0.090005,-0.762896,-39.001118,5.972702,19.018736,0.410551,1.773483,0.021835,0.000000,0.000000,0.000000,0.000000,0.000000,0.000000
12401331.000000,-0.345293,0.557001,0.446869,-1.450506,-0.250381,1.953045,0.137246,0.014232,0.257330,-0.066032,-0.429757,-0.120217,0.630670,0.087334,-0.834307,-39.048725,5.849716,18.947325,0.422452,1.727706,0.001693,0.000000,0.000000,0.000000,0.000000,0.000000,0.000000
12401332.000000,-0.345276,0.557266,0.446813,-1.450921,-0.250511,1.953674,0.137322,0.018090,0.262893,-0.063584,-0.429232,-0.122648,0.628899,0.086534,-0.909686,-39.195515,5.750534,18.871946,0.428861,1.767074,0.074935,0.000000,0.000000,0.000000,0.000000,0.000000,0.000000
12401333.000000,-0.345260,0.557524,0.446757,-1.451328,-0.250629,1.954292,0.137416,0.017315,0.261015,-0.063922,-0.418817,-0.124403,0.631459,0.091934,-0.961260,-39.270893,5.603745,18.721189,0.416959,1.779891,0.001693,0.000000,0.000000,0.000000,0.000000,0.000000,0.000000
12401334.000000,-0.345239,0.557787,0.446700,-1.451730,-0.250748,1.954917,0.137500,0.015930,0.265655,-0.062568,-0.409878,-0.123686,0.623993,0.090988,-1.108050,-39.441486,5.528366,18.526793,0.351041,1.754256,0.048385,0.000000,0.000000,0.000000,0.000000,0.000000,0.000000
12401335.000000,-0.345221,0.558050,0.446650,-1.452135,-0.250863,1.955533,0.137584,0.014212,0.268582,-0.058667,-0.406166,-0.118768,0.625219,0.086407,-1.231036,-39.512897,5.333969,18.399839,0.285123,1.727706,0.074935,0.000000,0.000000,0.000000,0.000000,0.000000,0.000000
12401336.000000,-0.345204,0.558321,0.446597,-1.452539,-0.250981,1.956166,0.137681,0.014925,0.267267,-0.054410,-0.406454,-0.116730,0.627750,0.092107,-1.306414,-39.659687,5.210983,18.253050,0.261320,1.670028,-0.011124,0.000000,0.000000,0.000000,0.000000,0.000000,0.000000
12401337.000000,-0.345181,0.558583,0.446549,-1.452935,-0.251103,1.956799,0.137760,0.017192,0.266161,-0.051251,-0.400859,-0.117043,0.628331,0.085548,-1.453204,-39.782673,5.087997,18.153868,0.285123,1.617843,0.054794,0.000000,0.000000,0.000000,0.000000,0.000000,0.000000
12401338.000000,-0.345167,0.558852,0.446499,-1.453333,-0.251224,1.957413,0.137850,0.016571,0.268926,-0.050152,-0.398533,-0.122143,0.621540,0.089622,-1.504779,-39.834248,5.012619,18.030882,0.320829,1.630660,0.021835,0.000000,0.000000,0.000000,0.000000,0.000000,0.000000
12401339.000000,-0.345153,0.559121,0.446444,-1.453727,-0.251351,1.958029,0.137935,0.018172,0.268466,-0.050288,-0.393742,-0.120309,0.623918,0.086014,-1.504779,-39.881855,4.988815,18.007078,0.339139,1.662704,0.028243,0.000000,0.000000,0.000000,0.000000,0.000000,0.000000
12401340.000000,-0.345143,0.559389,0.446394,-1.454117,-0.251483,1.958655,0.138019,0.015847,0.267194,-0.049086,-0.393336,-0.124376,0.640008,0.083839,-1.480975,-39.957233,4.917404,17.955503,0.374845,1.637069,0.021835,0.000000,0.000000,0.000000,0.000000,0.000000,0.000000
12401341.000000,-0.345131,0.559661,0.446341,-1.454515,-0.251614,1.959285,0.138108,0.011688,0.270628,-0.052371,-0.392444,-0.126619,0.643631,0.087429,-1.480975,-40.004841,4.893600,18.078489,0.386747,1.565658,0.021835,0.000000,0.000000,0.000000,0.000000,0.000000,0.000000
12401342.000000,-0.345126,0.559931,0.446286,-1.454898,-0.251732,1.959912,0.138193,0.009985,0.266849,-0.054721,-0.392663,-0.120782,0.634842,0.084656,-1.405596,-40.052448,4.865829,18.106260,0.320829,1.532699,0.034652,0.000000,0.000000,0.000000,0.000000,0.000000,0.000000
12401343.000000,-0.345122,0.560202,0.446237,-1.455286,-0.251855,1.960519,0.138284,0.007822,0.267006,-0.052900,-0.388933,-0.118164,0.634749,0.087786,-1.282611,-40.127827,4.818222,18.130064,0.297025,1.591293,0.028243,0.000000,0.000000,0.000000,0.000000,0.000000,0.000000
12401344.000000,-0.345119,0.560480,0.446181,-1.455672,-0.251976,1.961130,0.138369,0.006994,0.274954,-0.053008,-0.389691,-0.120166,0.623260,0.087918,-1.183428,-40.274616,4.842026,18.177671,0.261320,1.727706,0.074935,0.000000,0.000000,0.000000,0.000000,0.000000,0.000000
12401345.000000,-0.345113,0.560764,0.446127,-1.456056,-0.252100,1.961755,0.138464,0.007556,0.277340,-0.052464,-0.388943,-0.122395,0.623372,0.087602,-1.131854,-40.445210,4.842026,18.276854,0.255826,1.727706,0.009017,0.000000,0.000000,0.000000,0.000000,0.000000,0.000000
12401346.000000,-0.345115,0.561047,0.446066,-1.456451,-0.252222,1.962367,0.138543,0.005125,0.275806,-0.057572,-0.393647,-0.124078,0.621370,0.082461,-0.961260,-40.691181,4.941208,18.475218,0.231107,1.682845,0.074935,0.000000,0.000000,0.000000,0.000000,0.000000,0.000000
12401347.000000,-0.345117,0.561324,0.445997,-1.456836,-0.252350,1.962982,0.138630,0.002822,0.277440,-0.061825,-0.392953,-0.126254,0.624332,0.085891,-0.762896,-40.885578,5.087997,18.499022,0.231107,1.708480,0.074935,0.000000,0.000000,0.000000,0.000000,0.000000,0.000000
12401348.000000,-0.345114,0.561614,0.445932,-1.457233,-0.252476,1.963589,0.138722,0.003639,0.282256,-0.064638,-0.397195,-0.128077,0.621602,0.090343,-0.663714,-41.155354,5.210983,18.673582,0.237516,1.779891,0.021835,0.000000,0.000000,0.000000,0.000000,0.000000,0.000000
12401349.000000,-0.345115,0.561898,0.445863,-1.457619,-0.252611,1.964218,0.138805,0.003715,0.287610,-0.063358,-0.392492,-0.135822,0.624716,0.090398,-0.540728,-41.401325,5.333969,18.574400,0.297025,1.708480,0.054794,0.000000,0.000000,0.000000,0.000000,0.000000,0.000000
12401350.000000,-0.345120,0.562172,0.445786,-1.458012,-0.252746,1.964842,0.138897,0.002032,0.285736,-0.070332,-0.391437,-0.138259,0.628012,0.087654,-0.342364,-41.448933,5.528366,18.697386,0.291532,1.662704,0.034652,0.000000,0.000000,0.000000,0.000000,0.000000,0.000000
12401351.000000,-0.345126,0.562458,0.445710,-1.458415,-0.252880,1.965457,0.138985,0.000873,0.285394,-0.071972,-0.392553,-0.137716,0.628815,0.085192,-0.144000,-41.548115,5.702927,18.796568,0.320829,1.605026,0.028243,0.000000,0.000000,0.000000,0.000000,0.000000,0.000000
12401352.000000,-0.345130,0.562735,0.445630,-1.458807,-0.253019,1.966082,0.139068,-0.001912,0.279212,-0.075957,-0.390144,-0.137734,0.627395,0.086772,0.006757,-41.667133,5.873520,18.848143,0.369352,1.578475,0.054794,0.000000,0.000000,0.000000,0.000000,0.000000,0.000000
12401353.000000,-0.345136,0.563016,0.445545,-1.459206,-0.253148,1.966685,0.139154,-0.000766,0.282776,-0.080093,-0.387697,-0.135503,0.618008,0.090051,0.153547,-41.766315,6.095688,18.895750,0.356534,1.670028,0.028243,0.000000,0.000000,0.000000,0.000000,0.000000,0.000000
12401354.000000,-0.345146,0.563303,0.445464,-1.459596,-0.253282,1.967288,0.139235,-0.004863,0.282244,-0.080682,-0.388210,-0.133599,0.614048,0.084908,0.375715,-41.841694,6.218674,18.871946,0.332731,1.767074,0.074935,0.000000,0.000000,0.000000,0.000000,0.000000,0.000000
12401355.000000,-0.345157,0.563582,0.445371,-1.459996,-0.253413,1.967903,0.139331,-0.006692,0.283226,-0.080350,-0.390615,-0.132238,0.616800,0.085844,0.550275,-41.936909,6.436874,18.947325,0.303434,1.779891,0.009017,0.000000,0.000000,0.000000,0.000000,0.000000,0.000000
12401356.000000,-0.345163,0.563867,0.445284,-1.460400,-0.253537,1.968508,0.139416,-0.005749,0.283504,-0.084946,-0.390565,-0.129584,0.612850,0.086384,0.625654,-41.936909,6.583664,19.094114,0.231107,1.806442,0.061202,0.000000,0.000000,0.000000,0.000000,0.000000,0.000000
12401357.000000,-0.345175,0.564146,0.445197,-1.460804,-0.253669,1.969120,0.139511,-0.008923,0.280673,-0.087565,-0.403810,-0.129955,0.613680,0.090168,0.724836,-41.889301,6.706650,19.240904,0.225614,1.832076,0.021835,0.000000,0.000000,0.000000,0.000000,0.000000,0.000000
12401358.000000,-0.345188,0.564435,0.445101,-1.461198,-0.253809,1.969724,0.139596,-0.007613,0.288496,-0.091359,-0.401973,-0.131463,0.622234,0.085757,0.796247,-42.059895,6.905014,19.193296,0.249418,1.838485,0.048385,0.000000,0.000000,0.000000,0.000000,0.000000,0.000000
12401359.000000,-0.345202,0.564710,0.445006,-1.461602,-0.253952,1.970334,0.139680,-0.009919,0.283199,-0.092941,-0.402044,-0.137971,0.616655,0.087678,0.871625,-41.988483,7.051804,19.217100,0.291532,1.871444,0.067611,0.000000,0.000000,0.000000,0.000000,0.000000,0.000000
12401360.000000,-0.345219,0.564989,0.444917,-1.462001,-0.254097,1.970954,0.139773,-0.011778,0.275359,-0.094474,-0.396742,-0.138619,0.617168,0.087580,0.947004,-41.988483,7.099411,19.316282,0.351041,1.903487,0.009017,0.000000,0.000000,0.000000,0.000000,0.000000,0.000000
12401361.000000,-0.345227,0.565265,0.444822,-1.462404,-0.254231,1.971570,0.139855,-0.008304,0.275681,-0.094703,-0.398900,-0.137175,0.621715,0.088043,0.947004,-42.012287,7.198593,19.363890,0.362943,1.825668,0.048385,0.000000,0.000000,0.000000,0.000000,0.000000,0.000000
12401362.000000,-0.345234,0.565544,0.444719,-1.462805,-0.254364,1.972193,0.139946,-0.009033,0.275641,-0.096899,-0.396242,-0.135229,0.620822,0.090406,0.947004,-41.988483,7.396957,19.415464,0.356534,1.747848,0.034652,0.000000,0.000000,0.000000,0.000000,0.000000,0.000000
12401363.000000,-0.345239,0.565819,0.444621,-1.463202,-0.254502,1.972806,0.140036,-0.009149,0.272958,-0.096622,-0.399412,-0.138232,0.619487,0.092437,0.923200,-41.936909,7.515976,19.490843,0.356534,1.786300,0.015426,0.000000,0.000000,0.000000,0.000000,0.000000,0.000000
12401364.000000,-0.345247,0.566096,0.444521,-1.463602,-0.254633,1.973411,0.140117,-0.010449,0.272301,-0.096688,-0.397988,-0.139910,0.620431,0.091604,0.947004,-42.012287,7.638962,19.562254,0.320829,1.812850,0.061202,0.000000,0.000000,0.000000,0.000000,0.000000,0.000000
12401365.000000,-0.345250,0.566367,0.444424,-1.464004,-0.254769,1.974013,0.140210,-0.006510,0.273740,-0.094420,-0.400200,-0.137435,0.612834,0.089916,0.895429,-41.988483,7.666733,19.736814,0.308927,1.877853,0.009017,0.000000,0.000000,0.000000,0.000000,0.000000,0.000000
12401366.000000,-0.345254,0.566634,0.444333,-1.464401,-0.254907,1.974599,0.140295,-0.003233,0.271992,-0.089119,-0.399869,-0.137051,0.607380,0.085005,0.824018,-41.841694,7.666733,19.812193,0.332731,1.962081,0.048385,0.000000,0.000000,0.000000,0.000000,0.000000,0.000000
12401367.000000,-0.345261,0.566899,0.444234,-1.464814,-0.255049,1.975195,0.140381,-0.002577,0.272351,-0.090598,-0.405305,-0.140416,0.606119,0.082674,0.824018,-41.718708,7.761948,20.034361,0.339139,1.981307,0.054794,0.000000,0.000000,0.000000,0.000000,0.000000,0.000000
12401368.000000,-0.345262,0.567169,0.444153,-1.465218,-0.255195,1.975799,0.140470,-0.000272,0.272416,-0.086626,-0.397730,-0.139149,0.602592,0.087414,0.748639,-41.619526,7.638962,20.204954,0.362943,1.995040,0.034652,0.000000,0.000000,0.000000,0.000000,0.000000,0.000000
12401369.000000,-0.345265,0.567449,0.444060,-1.465625,-0.255340,1.976392,0.140558,-0.002375,0.272853,-0.089921,-0.399157,-0.138812,0.603572,0.089047,0.697065,-41.595722,7.615158,20.403318,0.405057,1.988631,0.048385,0.000000,0.000000,0.000000,0.000000,0.000000,0.000000
12401370.000000,-0.345261,0.567715,0.443968,-1.466026,-0.255481,1.976987,0.140653,-0.002264,0.269194,-0.090004,-0.392804,-0.142045,0.598108,0.092008,0.574079,-41.520344,7.638962,20.526304,0.422452,1.995040,0.015426,0.000000,0.000000,0.000000,0.000000,0.000000,0.000000
12401371.000000,-0.345257,0.567993,0.443886,-1.466432,-0.255616,1.977566,0.140741,-0.000430,0.273380,-0.086640,-0.397961,-0.139098,0.597900,0.092001,0.502668,-41.496540,7.515976,20.677061,0.416959,2.053634,0.041976,0.000000,0.000000,0.000000,0.000000,0.000000,0.000000
12401372.000000,-0.345254,0.568270,0.443799,-1.466839,-0.255758,1.978163,0.140834,0.000477,0.270598,-0.085475,-0.401137,-0.137441,0.594270,0.093714,0.451093,-41.448933,7.444565,20.800047,0.422452,2.092086,0.021835,0.000000,0.000000,0.000000,0.000000,0.000000,0.000000
12401373.000000,-0.345240,0.568534,0.443711,-1.467237,-0.255895,1.978762,0.140923,0.004069,0.270422,-0.085834,-0.401193,-0.134951,0.597008,0.089136,0.276533,-41.325947,7.420761,20.946836,0.393156,2.104903,0.041976,0.000000,0.000000,0.000000,0.000000,0.000000,0.000000
12401374.000000,-0.345233,0.568805,0.443629,-1.467650,-0.256029,1.979355,0.141015,0.003020,0.267757,-0.081896,-0.403161,-0.133899,0.600678,0.091533,0.252729,-41.155354,7.345383,21.220579,0.381254,2.104903,0.028243,0.000000,0.000000,0.000000,0.000000,0.000000,0.000000
12401375.000000,-0.345225,0.569080,0.443554,-1.468047,-0.256171,1.979945,0.141105,0.004992,0.264421,-0.080222,-0.403157,-0.137866,0.596063,0.093121,0.252729,-41.155354,7.198593,21.391172,0.381254,2.104903,0.009017,0.000000,0.000000,0.000000,0.000000,0.000000,0.000000
12401376.000000,-0.345213,0.569344,0.443476,-1.468458,-0.256310,1.980536,0.141189,0.004565,0.263980,-0.081536,-0.401639,-0.141131,0.607983,0.091593,0.205121,-41.056171,7.150986,21.589537,0.381254,2.125045,0.067611,0.000000,0.000000,0.000000,0.000000,0.000000,0.000000
12401377.000000,-0.345198,0.569620,0.443402,-1.468867,-0.256462,1.981128,0.141282,0.007978,0.267791,-0.077614,-0.403315,-0.145651,0.601951,0.095335,0.129743,-41.056171,7.028000,21.835508,0.434354,2.144271,0.015426,0.000000,0.000000,0.000000,0.000000,0.000000,0.000000
12401378.000000,-0.345179,0.569888,0.443332,-1.469267,-0.256608,1.981720,0.141368,0.011037,0.264084,-0.077283,-0.397002,-0.142575,0.595734,0.094159,0.030561,-41.056171,6.905014,21.962461,0.446256,2.222091,0.048385,0.000000,0.000000,0.000000,0.000000,0.000000,0.000000
12401379.000000,-0.345166,0.570150,0.443261,-1.469666,-0.256748,1.982300,0.141454,0.012140,0.267417,-0.074689,-0.392946,-0.144459,0.592283,0.094126,-0.017047,-40.984760,6.782028,22.061644,0.446256,2.261459,0.061202,0.000000,0.000000,0.000000,0.000000,0.000000,0.000000
12401380.000000,-0.345151,0.570412,0.443196,-1.470081,-0.256887,1.982902,0.141550,0.013609,0.265921,-0.071971,-0.399967,-0.144374,0.597544,0.096636,-0.092425,-40.786396,6.635239,22.232237,0.410551,2.248641,0.009017,0.000000,0.000000,0.000000,0.000000,0.000000,0.000000
12401381.000000,-0.345136,0.570676,0.443127,-1.470479,-0.257032,1.983501,0.141630,0.011575,0.266032,-0.071804,-0.397832,-0.150221,0.595702,0.093952,-0.167803,-40.714985,6.559860,22.283812,0.422452,2.222091,0.074935,0.000000,0.000000,0.000000,0.000000,0.000000,0.000000
12401382.000000,-0.345117,0.570934,0.443066,-1.470887,-0.257171,1.984097,0.141727,0.013707,0.263671,-0.070122,-0.399718,-0.146042,0.595721,0.092045,-0.266986,-40.591999,6.413071,22.331419,0.434354,2.183639,0.015426,0.000000,0.000000,0.000000,0.000000,0.000000,0.000000
12401383.000000,-0.345104,0.571195,0.443007,-1.471284,-0.257306,1.984684,0.141814,0.009814,0.265903,-0.065028,-0.396277,-0.145189,0.585149,0.088184,-0.266986,-40.492817,6.242477,22.307615,0.381254,2.242233,0.015426,0.000000,0.000000,0.000000,0.000000,0.000000,0.000000
12401384.000000,-0.345091,0.571456,0.442951,-1.471683,-0.257457,1.985277,0.141906,0.011339,0.264276,-0.061159,-0.397622,-0.148336,0.589813,0.089622,-0.314593,-40.369831,6.067917,22.208433,0.422452,2.255050,0.028243,0.000000,0.000000,0.000000,0.000000,0.000000,0.000000
12401385.000000,-0.345072,0.571722,0.442891,-1.472076,-0.257606,1.985879,0.141998,0.013675,0.268190,-0.060773,-0.389830,-0.149085,0.590780,0.090186,-0.413775,-40.346027,5.996506,22.085447,0.434354,2.209274,0.054794,0.000000,0.000000,0.000000,0.000000,0.000000,0.000000
12401386.000000,-0.345059,0.571981,0.442836,-1.472466,-0.257760,1.986490,0.142088,0.010512,0.267202,-0.056554,-0.384593,-0.148916,0.598904,0.092790,-0.441546,-40.199238,5.897324,22.010069,0.422452,2.131454,0.041976,0.000000,0.000000,0.000000,0.000000,0.000000,0.000000
12401387.000000,-0.345047,0.572248,0.442779,-1.472850,-0.257911,1.987077,0.142180,0.010744,0.263696,-0.054235,-0.379159,-0.145728,0.596191,0.099079,-0.441546,-40.076252,5.825912,21.863279,0.452665,2.104903,0.028243,0.000000,0.000000,0.000000,0.000000,0.000000,0.000000
12401388.000000,-0.345033,0.572507,0.442722,-1.473229,-0.258057,1.987675,0.142267,0.011551,0.263147,-0.056300,-0.379950,-0.145848,0.597078,0.096827,-0.465350,-40.028645,5.798141,21.688719,0.434354,2.131454,0.067611,0.000000,0.000000,0.000000,0.000000,0.000000,0.000000
12401389.000000,-0.345026,0.572766,0.442671,-1.473605,-0.258199,1.988261,0.142357,0.010385,0.260023,-0.055608,-0.376099,-0.145956,0.591732,0.097392,-0.413775,-39.858051,5.679123,21.514158,0.405057,2.196456,0.048385,0.000000,0.000000,0.000000,0.000000,0.000000,0.000000
12401390.000000,-0.345012,0.573031,0.442619,-1.473982,-0.258343,1.988868,0.142449,0.011540,0.263117,-0.052539,-0.377581,-0.142501,0.601503,0.097806,-0.441546,-39.735065,5.579941,21.367369,0.405057,2.137862,0.028243,0.000000,0.000000,0.000000,0.000000,0.000000,0.000000
12401391.000000,-0.344994,0.573283,0.442560,-1.474345,-0.258483,1.989479,0.142536,0.016012,0.262564,-0.056229,-0.373280,-0.138600,0.599885,0.096572,-0.489153,-39.612080,5.603745,21.145201,0.369352,2.060043,0.061202,0.000000,0.000000,0.000000,0.000000,0.000000,0.000000
12401392.000000,-0.344986,0.573545,0.442507,-1.474712,-0.258619,1.990075,0.142631,0.013929,0.265250,-0.052938,-0.373145,-0.135532,0.600454,0.097737,-0.441546,-39.489094,5.504562,20.946836,0.327238,2.098495,0.028243,0.000000,0.000000,0.000000,0.000000,0.000000,0.000000
12401393.000000,-0.344975,0.573811,0.442449,-1.475069,-0.258764,1.990689,0.142720,0.012410,0.269944,-0.052653,-0.366756,-0.138864,0.600794,0.096545,-0.389971,-39.465290,5.504562,20.724669,0.315336,2.085677,0.048385,0.000000,0.000000,0.000000,0.000000,0.000000,0.000000
12401394.000000,-0.344965,0.574069,0.442395,-1.475425,-0.258908,1.991300,0.142811,0.011299,0.265587,-0.054961,-0.366760,-0.145784,0.615846,0.096649,-0.342364,-39.393879,5.480759,20.502501,0.315336,2.020675,0.041976,0.000000,0.000000,0.000000,0.000000,0.000000,0.000000
12401395.000000,-0.344958,0.574330,0.442331,-1.475783,-0.259054,1.991914,0.142901,0.006871,0.261161,-0.055850,-0.360588,-0.144045,0.613876,0.097077,-0.266986,-39.342304,5.556137,20.355711,0.356534,1.988631,0.028243,0.000000,0.000000,0.000000,0.000000,0.000000,0.000000
12401396.000000,-0.344954,0.574582,0.442267,-1.476130,-0.259195,1.992535,0.142987,0.006165,0.258674,-0.058916,-0.351402,-0.141323,0.617896,0.096532,-0.167803,-39.147907,5.627548,20.232725,0.369352,1.942855,0.061202,0.000000,0.000000,0.000000,0.000000,0.000000,0.000000
12401397.000000,-0.344948,0.574836,0.442206,-1.476480,-0.259334,1.993147,0.143087,0.006912,0.257991,-0.056709,-0.348620,-0.143690,0.616217,0.098360,-0.116229,-39.048725,5.627548,20.081968,0.369352,1.897079,0.009017,0.000000,0.000000,0.000000,0.000000,0.000000,0.000000
12401398.000000,-0.344944,0.575094,0.442137,-1.476821,-0.259475,1.993759,0.143179,0.005810,0.257755,-0.060434,-0.343707,-0.139929,0.618684,0.096731,0.006757,-38.901936,5.726730,19.911375,0.356534,1.897079,0.034652,0.000000,0.000000,0.000000,0.000000,0.000000,0.000000
12401399.000000,-0.344937,0.575361,0.442075,-1.477160,-0.259609,1.994365,0.143266,0.003711,0.264997,-0.058231,-0.344668,-0.140695,0.613384,0.094860,0.054365,-38.925739,5.750534,19.812193,0.327238,1.930038,0.081344,0.000000,0.000000,0.000000,0.000000,0.000000,0.000000
12401400.000000,-0.344931,0.575623,0.442010,-1.477489,-0.259745,1.994966,0.143368,0.004479,0.265499,-0.059993,-0.338931,-0.141355,0.617487,0.097539,0.129743,-38.925739,5.774338,19.590025,0.279630,1.916305,0.021835,0.000000,0.000000,0.000000,0.000000,0.000000,0.000000
12401401.000000,-0.344927,0.575885,0.441941,-1.477815,-0.259883,1.995579,0.143457,0.004064,0.265623,-0.062313,-0.337464,-0.137512,0.614401,0.095130,0.252729,-38.925739,5.849716,19.463072,0.237516,1.884261,0.074935,0.000000,0.000000,0.000000,0.000000,0.000000,0.000000
12401402.000000,-0.344925,0.576153,0.441873,-1.478144,-0.260031,1.996182,0.143557,0.003181,0.266978,-0.066933,-0.336209,-0.141523,0.620234,0.097653,0.403486,-38.901936,5.921127,19.316282,0.249418,1.819259,0.015426,0.000000,0.000000,0.000000,0.000000,0.000000,0.000000
12401403.000000,-0.344917,0.576415,0.441794,-1.478462,-0.260182,1.996784,0.143646,0.008209,0.264645,-0.068985,-0.328011,-0.144742,0.611770,0.096367,0.451093,-38.830524,6.067917,19.141722,0.273221,1.812850,0.034652,0.000000,0.000000,0.000000,0.000000,0.000000,0.000000
12401404.000000,-0.344918,0.576669,0.441721,-1.478780,-0.260336,1.997392,0.143731,0.003799,0.263156,-0.071276,-0.325385,-0.143579,0.613537,0.090039,0.574079,-38.632160,6.119492,18.994932,0.327238,1.832076,0.087753,0.000000,0.000000,0.000000,0.000000,0.000000,0.000000
12401405.000000,-0.344923,0.576929,0.441642,-1.479094,-0.260485,1.997994,0.143832,0.001914,0.261585,-0.074490,-0.322676,-0.145562,0.612141,0.094085,0.772443,-38.413960,6.218674,18.848143,0.332731,1.800033,0.028243,0.000000,0.000000,0.000000,0.000000,0.000000,0.000000
12401406.000000,-0.344912,0.577188,0.441566,-1.479398,-0.260635,1.998600,0.143923,0.005358,0.257539,-0.075887,-0.325197,-0.146922,0.611887,0.088187,0.772443,-38.314777,6.290085,18.673582,0.344633,1.741439,0.067611,0.000000,0.000000,0.000000,0.000000,0.000000,0.000000
12401407.000000,-0.344909,0.577446,0.441490,-1.479720,-0.260780,1.999192,0.144013,0.002774,0.261041,-0.079634,-0.323012,-0.151161,0.605281,0.089243,0.847822,-38.144184,6.341660,18.649778,0.308927,1.747848,0.094161,0.000000,0.000000,0.000000,0.000000,0.000000,0.000000
12401408.000000,-0.344901,0.577712,0.441412,-1.480022,-0.260918,1.999786,0.144113,0.002016,0.260438,-0.081451,-0.313555,-0.143952,0.608615,0.093994,0.871625,-38.045002,6.341660,18.451414,0.243009,1.779891,0.015426,0.000000,0.000000,0.000000,0.000000,0.000000,0.000000
12401409.000000,-0.344897,0.577974,0.441332,-1.480328,-0.261065,2.000389,0.144200,0.003297,0.262463,-0.084413,-0.313560,-0.145753,0.605344,0.088561,0.947004,-38.045002,6.413071,18.399839,0.237516,1.825668,0.054794,0.000000,0.000000,0.000000,0.000000,0.000000,0.000000
12401410.000000,-0.344889,0.578237,0.441254,-1.480630,-0.261212,2.000981,0.144297,0.005454,0.266002,-0.082097,-0.308777,-0.146000,0.605983,0.091502,0.970807,-37.973591,6.413071,18.304625,0.201810,1.832076,0.028243,0.000000,0.000000,0.000000,0.000000,0.000000,0.000000
12401411.000000,-0.344883,0.578502,0.441167,-1.480931,-0.261369,2.001586,0.144394,0.006360,0.266478,-0.083551,-0.303276,-0.148457,0.600180,0.093165,1.022382,-37.922016,6.559860,18.253050,0.237516,1.819259,0.015426,0.000000,0.000000,0.000000,0.000000,0.000000,0.000000
12401412.000000,-0.344872,0.578766,0.441090,-1.481240,-0.261520,2.002184,0.144486,0.006284,0.264073,-0.084229,-0.305988,-0.149683,0.608441,0.092580,0.970807,-37.898212,6.559860,18.328428,0.273221,1.779891,0.048385,0.000000,0.000000,0.000000,0.000000,0.000000,0.000000
12401413.000000,-0.344867,0.579036,0.441005,-1.481541,-0.261667,2.002791,0.144583,0.006667,0.264893,-0.083118,-0.300507,-0.150474,0.607533,0.094132,1.022382,-37.922016,6.611435,18.276854,0.291532,1.779891,0.034652,0.000000,0.000000,0.000000,0.000000,0.000000,0.000000
12401414.000000,-0.344857,0.579304,0.440925,-1.481829,-0.261819,2.003403,0.144675,0.007682,0.264286,-0.084064,-0.299325,-0.147219,0.608820,0.093312,1.046186,-37.898212,6.635239,18.205442,0.332731,1.721298,0.074935,0.000000,0.000000,0.000000,0.000000,0.000000,0.000000
12401415.000000,-0.344844,0.579573,0.440847,-1.482123,-0.261963,2.004005,0.144771,0.010237,0.261598,-0.083743,-0.295386,-0.147716,0.608051,0.095291,0.994611,-37.922016,6.583664,18.130064,0.327238,1.708480,0.041976,0.000000,0.000000,0.000000,0.000000,0.000000,0.000000
12401416.000000,-0.344825,0.579842,0.440761,-1.482411,-0.262104,2.004614,0.144866,0.010561,0.264643,-0.082118,-0.293692,-0.146933,0.608667,0.090698,0.871625,-37.874409,6.611435,17.955503,0.297025,1.656295,0.041976,0.000000,0.000000,0.000000,0.000000,0.000000,0.000000
12401417.000000,-0.344812,0.580116,0.440686,-1.482707,-0.262246,2.005224,0.144960,0.011908,0.272107,-0.077977,-0.294759,-0.145321,0.606238,0.087287,0.824018,-37.874409,6.512253,17.884092,0.225614,1.689254,0.054794,0.000000,0.000000,0.000000,0.000000,0.000000,0.000000
12401418.000000,-0.344796,0.580396,0.440609,-1.482999,-0.262390,2.005811,0.145059,0.014157,0.269964,-0.075951,-0.289529,-0.145091,0.601937,0.090559,0.724836,-37.949787,6.436874,17.709532,0.178007,1.721298,0.028243,0.000000,0.000000,0.000000,0.000000,0.000000,0.000000
12401419.000000,-0.344779,0.580674,0.440528,-1.483286,-0.262546,2.006419,0.145150,0.015137,0.275976,-0.075494,-0.287464,-0.146851,0.598372,0.091401,0.649457,-37.997395,6.413071,17.586546,0.183500,1.682845,0.041976,0.000000,0.000000,0.000000,0.000000,0.000000,0.000000
12401420.000000,-0.344761,0.580953,0.440444,-1.483580,-0.262700,2.007007,0.145245,0.012729,0.277836,-0.076739,-0.292773,-0.149103,0.600829,0.092570,0.574079,-37.973591,6.460678,17.463560,0.213712,1.676437,0.041976,0.000000,0.000000,0.000000,0.000000,0.000000,0.000000
12401421.000000,-0.344745,0.581225,0.440361,-1.483876,-0.262852,2.007617,0.145336,0.013928,0.273273,-0.076494,-0.294084,-0.151179,0.598259,0.093272,0.502668,-37.898212,6.460678,17.388182,0.261320,1.630660,0.048385,0.000000,0.000000,0.000000,0.000000,0.000000,0.000000
12401422.000000,-0.344731,0.581501,0.440291,-1.484164,-0.263003,2.008219,0.145429,0.013857,0.277302,-0.073468,-0.291222,-0.152053,0.600906,0.088953,0.474897,-37.874409,6.341660,17.289000,0.291532,1.597701,0.067611,0.000000,0.000000,0.000000,0.000000,0.000000,0.000000
12401423.000000,-0.344710,0.581787,0.440216,-1.484461,-0.263153,2.008819,0.145529,0.016109,0.279839,-0.073788,-0.289138,-0.152287,0.597290,0.092405,0.351911,-37.874409,6.313889,17.213621,0.308927,1.584884,0.028243,0.000000,0.000000,0.000000,0.000000,0.000000,0.000000
12401424.000000,-0.344689,0.582063,0.440139,-1.484752,-0.263298,2.009415,0.145623,0.017642,0.273287,-0.072731,-0.290017,-0.150269,0.591963,0.086943,0.228925,-37.898212,6.242477,17.166014,0.279630,1.611434,0.067611,0.000000,0.000000,0.000000,0.000000,0.000000,0.000000
12401425.000000,-0.344667,0.582351,0.440067,-1.485037,-0.263436,2.010013,0.145725,0.018701,0.279152,-0.071925,-0.289479,-0.143199,0.608134,0.090810,0.105939,-38.021198,6.167099,16.991453,0.213712,1.676437,0.028243,0.000000,0.000000,0.000000,0.000000,0.000000,0.000000
12401426.000000,-0.344647,0.582644,0.439993,-1.485330,-0.263582,2.010617,0.145817,0.018324,0.284800,-0.072163,-0.288862,-0.143808,0.603731,0.090881,0.030561,-38.144184,6.119492,16.943846,0.171598,1.656295,0.061202,0.000000,0.000000,0.000000,0.000000,0.000000,0.000000
12401427.000000,-0.344626,0.582929,0.439925,-1.485617,-0.263733,2.011229,0.145911,0.020595,0.282666,-0.070989,-0.288526,-0.149828,0.604806,0.088443,-0.017047,-38.267170,6.020309,16.892271,0.154203,1.630660,0.048385,0.000000,0.000000,0.000000,0.000000,0.000000,0.000000
12401428.000000,-0.344602,0.583220,0.439849,-1.485914,-0.263879,2.011826,0.146010,0.023036,0.285605,-0.072628,-0.289723,-0.149213,0.601727,0.090565,-0.092425,-38.362385,6.020309,16.892271,0.123990,1.597701,0.041976,0.000000,0.000000,0.000000,0.000000,0.000000,0.000000
12401429.000000,-0.344581,0.583511,0.439779,-1.486209,-0.264032,2.012439,0.146103,0.023690,0.288297,-0.071260,-0.290893,-0.147075,0.603124,0.086005,-0.116229,-38.437763,5.921127,16.920042,0.183500,1.546432,0.074935,0.000000,0.000000,0.000000,0.000000,0.000000,0.000000
12401430.000000,-0.344568,0.583801,0.439707,-1.486499,-0.264178,2.013025,0.146200,0.022590,0.289161,-0.072650,-0.287691,-0.148682,0.599683,0.089946,-0.068621,-38.560749,5.921127,16.892271,0.225614,1.565658,0.041976,0.000000,0.000000,0.000000,0.000000,0.000000,0.000000
12401431.000000,-0.344548,0.584097,0.439630,-1.486793,-0.264329,2.013626,0.146294,0.020401,0.292175,-0.071271,-0.290628,-0.150723,0.597664,0.091289,-0.092425,-38.683735,5.948898,16.868467,0.267728,1.519881,0.048385,0.000000,0.000000,0.000000,0.000000,0.000000,0.000000
12401432.000000,-0.344529,0.584391,0.439561,-1.487088,-0.264472,2.014221,0.146388,0.021346,0.293150,-0.070271,-0.289353,-0.150126,0.596217,0.096977,-0.092425,-38.755146,5.873520,16.920042,0.255826,1.519881,0.061202,0.000000,0.000000,0.000000,0.000000,0.000000,0.000000
12401433.000000,-0.344506,0.584683,0.439497,-1.487385,-0.264614,2.014809,0.146480,0.020822,0.291949,-0.070082,-0.290688,-0.149524,0.592117,0.096872,-0.167803,-38.778950,5.798141,16.967649,0.237516,1.552840,0.061202,0.000000,0.000000,0.000000,0.000000,0.000000,0.000000
12401434.000000,-0.344490,0.584981,0.439428,-1.487691,-0.264759,2.015402,0.146575,0.017929,0.294577,-0.070566,-0.294281,-0.143118,0.587061,0.096777,-0.144000,-38.755146,5.750534,16.991453,0.189908,1.552840,0.061202,0.000000,0.000000,0.000000,0.000000,0.000000,0.000000
12401435.000000,-0.344474,0.585274,0.439357,-1.487991,-0.264912,2.015992,0.146671,0.015314,0.292525,-0.071562,-0.296934,-0.144313,0.584094,0.093565,-0.092425,-38.683735,5.726730,17.019224,0.166105,1.617843,0.028243,0.000000,0.000000,0.000000,0.000000,0.000000,0.000000
12401436.000000,-0.344455,0.585564,0.439289,-1.488288,-0.265061,2.016569,0.146760,0.017240,0.292471,-0.068744,-0.296865,-0.145323,0.580281,0.092197,-0.068621,-38.608356,5.679123,16.991453,0.147794,1.670028,0.081344,0.000000,0.000000,0.000000,0.000000,0.000000,0.000000
12401437.000000,-0.344439,0.585852,0.439213,-1.488591,-0.265212,2.017158,0.146859,0.014943,0.292325,-0.074892,-0.296801,-0.147278,0.579411,0.094461,-0.017047,-38.485371,5.726730,17.066832,0.166105,1.714889,0.048385,0.000000,0.000000,0.000000,0.000000,0.000000,0.000000
12401438.000000,-0.344424,0.586142,0.439138,-1.488896,-0.265364,2.017740,0.146949,0.015940,0.291884,-0.076271,-0.298839,-0.144535,0.583675,0.093906,0.054365,-38.390156,5.774338,17.166014,0.195402,1.676437,0.074935,0.000000,0.000000,0.000000,0.000000,0.000000,0.000000
12401439.000000,-0.344414,0.586436,0.439066,-1.489205,-0.265518,2.018333,0.147039,0.012459,0.294485,-0.076059,-0.300234,-0.146435,0.586408,0.098866,0.177350,-38.314777,5.774338,17.213621,0.207303,1.611434,0.087753,0.000000,0.000000,0.000000,0.000000,0.000000,0.000000
12401440.000000,-0.344396,0.586729,0.438992,-1.489509,-0.265671,2.018918,0.147134,0.012234,0.292062,-0.075832,-0.298451,-0.147654,0.581735,0.095148,0.205121,-38.243366,5.774338,17.265196,0.213712,1.617843,0.054794,0.000000,0.000000,0.000000,0.000000,0.000000,0.000000
12401441.000000,-0.344382,0.587031,0.438917,-1.489807,-0.265823,2.019501,0.147223,0.014144,0.296095,-0.076018,-0.292881,-0.149053,0.584119,0.094987,0.276533,-38.362385,5.774338,17.289000,0.231107,1.578475,0.067611,0.000000,0.000000,0.000000,0.000000,0.000000,0.000000
12401442.000000,-0.344370,0.587327,0.438837,-1.490109,-0.265971,2.020084,0.147318,0.012370,0.290583,-0.077677,-0.296621,-0.152464,0.579329,0.096618,0.351911,-38.461567,5.849716,17.312803,0.195402,1.572067,0.034652,0.000000,0.000000,0.000000,0.000000,0.000000,0.000000
12401443.000000,-0.344359,0.587625,0.438767,-1.490418,-0.266126,2.020653,0.147406,0.014181,0.296009,-0.072693,-0.301376,-0.155278,0.589724,0.095281,0.427289,-38.485371,5.798141,17.463560,0.154203,1.624252,0.067611,0.000000,0.000000,0.000000,0.000000,0.000000,0.000000
12401444.000000,-0.344344,0.587924,0.438688,-1.490714,-0.266292,2.021231,0.147500,0.016179,0.295308,-0.072140,-0.296782,-0.155718,0.588732,0.096868,0.474897,-38.536945,5.873520,17.411985,0.189908,1.682845,0.034652,0.000000,0.000000,0.000000,0.000000,0.000000,0.000000
12401445.000000,-0.344331,0.588209,0.438608,-1.491029,-0.266451,2.021807,0.147594,0.017570,0.294938,-0.077847,-0.302719,-0.154565,0.585569,0.091651,0.526471,-38.437763,5.972702,17.610350,0.189908,1.727706,0.041976,0.000000,0.000000,0.000000,0.000000,0.000000,0.000000
12401446.000000,-0.344322,0.588502,0.438529,-1.491349,-0.266613,2.022387,0.147686,0.014341,0.290993,-0.078172,-0.303777,-0.154627,0.589133,0.091852,0.625654,-38.338581,6.020309,17.832518,0.213712,1.708480,0.067611,0.000000,0.000000,0.000000,0.000000,0.000000,0.000000
12401447.000000,-0.344313,0.588783,0.438447,-1.491665,-0.266774,2.022967,0.147782,0.011995,0.289595,-0.078398,-0.306765,-0.158994,0.587276,0.094009,0.724836,-38.215595,6.067917,18.007078,0.243009,1.702071,0.041976,0.000000,0.000000,0.000000,0.000000,0.000000,0.000000
12401448.000000,-0.344299,0.589075,0.438363,-1.491982,-0.266932,2.023540,0.147872,0.012638,0.293720,-0.079769,-0.310487,-0.160538,0.582386,0.088904,0.724836,-38.144184,6.167099,18.229246,0.243009,1.735030,0.081344,0.000000,0.000000,0.000000,0.000000,0.000000,0.000000
12401449.000000,-0.344294,0.589372,0.438282,-1.492292,-0.267099,2.024114,0.147971,0.009481,0.289036,-0.079140,-0.309153,-0.164227,0.585476,0.091999,0.871625,-38.120380,6.190903,18.328428,0.285123,1.806442,0.048385,0.000000,0.000000,0.000000,0.000000,0.000000,0.000000
12401450.000000,-0.344280,0.589666,0.438196,-1.492608,-0.267258,2.024700,0.148071,0.007050,0.293164,-0.083382,-0.307730,-0.163119,0.584083,0.093391,0.895429,-38.120380,6.290085,18.475218,0.231107,1.844894,0.041976,0.000000,0.000000,0.000000,0.000000,0.000000,0.000000
12401451.000000,-0.344270,0.589970,0.438112,-1.492924,-0.267427,2.025276,0.148164,0.007600,0.298423,-0.084736,-0.307411,-0.160555,0.580832,0.089195,0.947004,-38.120380,6.313889,18.550596,0.243009,1.825668,0.074935,0.000000,0.000000,0.000000,0.000000,0.000000,0.000000
12401452.000000,-0.344256,0.590270,0.438022,-1.493244,-0.267596,2.025862,0.148264,0.008579,0.297744,-0.083889,-0.306246,-0.163308,0.578983,0.092300,0.970807,-38.144184,6.389267,18.721189,0.261320,1.779891,0.041976,0.000000,0.000000,0.000000,0.000000,0.000000,0.000000
12401453.000000,-0.344244,0.590565,0.437929,-1.493552,-0.267764,2.026436,0.148359,0.009295,0.296876,-0.087513,-0.305699,-0.165831,0.569685,0.093444,0.994611,-38.144184,6.512253,18.772764,0.291532,1.812850,0.054794,0.000000,0.000000,0.000000,0.000000,0.000000,0.000000
12401454.000000,-0.344233,0.590868,0.437841,-1.493862,-0.267928,2.027010,0.148461,0.009169,0.297777,-0.089158,-0.306955,-0.167684,0.575701,0.095438,1.046186,-38.144184,6.583664,18.848143,0.320829,1.825668,0.021835,0.000000,0.000000,0.000000,0.000000,0.000000,0.000000
12401455.000000,-0.344218,0.591167,0.437752,-1.494172,-0.268089,2.027583,0.148554,0.010876,0.298468,-0.086450,-0.311316,-0.163673,0.571718,0.094074,1.022382,-38.243366,6.635239,18.971128,0.339139,1.844894,0.061202,0.000000,0.000000,0.000000,0.000000,0.000000,0.000000
12401456.000000,-0.344202,0.591470,0.437665,-1.494478,-0.268247,2.028154,0.148650,0.011413,0.301598,-0.087071,-0.308617,-0.160225,0.575990,0.099532,1.022382,-38.243366,6.659042,18.919554,0.339139,1.825668,0.061202,0.000000,0.000000,0.000000,0.000000,0.000000,0.000000
12401457.000000,-0.344187,0.591769,0.437577,-1.494796,-0.268399,2.028728,0.148752,0.011766,0.298571,-0.087669,-0.307593,-0.155539,0.572790,0.099751,1.022382,-38.191792,6.682846,19.094114,0.279630,1.851302,0.034652,0.000000,0.000000,0.000000,0.000000,0.000000,0.000000
12401458.000000,-0.344169,0.592062,0.437489,-1.495103,-0.268561,2.029305,0.148845,0.012696,0.293333,-0.088121,-0.307938,-0.158256,0.579956,0.097941,0.994611,-38.167988,6.706650,19.141722,0.255826,1.897079,0.074935,0.000000,0.000000,0.000000,0.000000,0.000000,0.000000
12401459.000000,-0.344153,0.592361,0.437404,-1.495417,-0.268720,2.029873,0.148944,0.015802,0.294563,-0.087644,-0.310225,-0.161139,0.575198,0.098640,0.994611,-38.144184,6.682846,19.217100,0.249418,1.949264,0.048385,0.000000,0.000000,0.000000,0.000000,0.000000,0.000000
12401460.000000,-0.344135,0.592651,0.437312,-1.495721,-0.268886,2.030452,0.149039,0.015003,0.292655,-0.088884,-0.309179,-0.159618,0.576426,0.097907,0.994611,-38.045002,6.734421,19.240904,0.279630,1.974899,0.054794,0.000000,0.000000,0.000000,0.000000,0.000000,0.000000
12401461.000000,-0.344109,0.592945,0.437220,-1.496046,-0.269045,2.031024,0.149138,0.016678,0.295095,-0.086567,-0.309768,-0.158564,0.581104,0.102071,0.895429,-37.949787,6.782028,19.363890,0.308927,1.962081,0.061202,0.000000,0.000000,0.000000,0.000000,0.000000,0.000000
12401462.000000,-0.344090,0.593246,0.437130,-1.496364,-0.269207,2.031605,0.149241,0.018562,0.297537,-0.087005,-0.308125,-0.158015,0.585221,0.101902,0.895429,-37.826801,6.782028,19.391661,0.344633,1.930038,0.028243,0.000000,0.000000,0.000000,0.000000,0.000000,0.000000
12401463.000000,-0.344071,0.593545,0.437043,-1.496676,-0.269364,2.032187,0.149339,0.017451,0.295692,-0.089809,-0.309901,-0.156571,0.585985,0.104367,0.871625,-37.802998,6.782028,19.415464,0.362943,1.897079,0.054794,0.000000,0.000000,0.000000,0.000000,0.000000,0.000000
12401464.000000,-0.344051,0.593850,0.436960,-1.496985,-0.269514,2.032754,0.149434,0.019233,0.300680,-0.088304,-0.308364,-0.153901,0.574575,0.101713,0.871625,-37.802998,6.734421,19.316282,0.332731,1.871444,0.074935,0.000000,0.000000,0.000000,0.000000,0.000000,0.000000
12401465.000000,-0.344030,0.594160,0.436873,-1.497298,-0.269674,2.033321,0.149541,0.018615,0.302802,-0.087666,-0.305990,-0.152844,0.570430,0.102867,0.824018,-37.802998,6.706650,19.268675,0.332731,1.909896,0.009017,0.000000,0.000000,0.000000,0.000000,0.000000,0.000000
12401466.000000,-0.344005,0.594459,0.436790,-1.497600,-0.269837,2.033887,0.149636,0.021295,0.305590,-0.086703,-0.304518,-0.155008,0.568840,0.101086,0.772443,-37.727619,6.659042,19.094114,0.308927,1.949264,0.028243,0.000000,0.000000,0.000000,0.000000,0.000000,0.000000
12401467.000000,-0.343980,0.594768,0.436708,-1.497905,-0.269998,2.034452,0.149736,0.019949,0.306451,-0.085157,-0.301559,-0.156980,0.568561,0.099801,0.724836,-37.680012,6.559860,18.994932,0.261320,1.942855,0.028243,0.000000,0.000000,0.000000,0.000000,0.000000,0.000000
12401468.000000,-0.343958,0.595068,0.436622,-1.498201,-0.270161,2.035026,0.149831,0.018521,0.301890,-0.088858,-0.293915,-0.160860,0.566452,0.099595,0.697065,-37.628437,6.536057,18.919554,0.279630,1.865035,0.015426,0.000000,0.000000,0.000000,0.000000,0.000000,0.000000
12401469.000000,-0.343933,0.595376,0.436541,-1.498503,-0.270317,2.035596,0.149928,0.017383,0.306115,-0.087803,-0.292228,-0.158466,0.567383,0.098509,0.673261,-37.680012,6.488449,18.871946,0.279630,1.825668,0.028243,0.000000,0.000000,0.000000,0.000000,0.000000,0.000000
12401470.000000,-0.343911,0.595681,0.436459,-1.498807,-0.270479,2.036165,0.150022,0.016512,0.308481,-0.086971,-0.295597,-0.157733,0.567912,0.096017,0.649457,-37.604633,6.436874,18.895750,0.315336,1.825668,0.081344,0.000000,0.000000,0.000000,0.000000,0.000000,0.000000
12401471.000000,-0.343887,0.595980,0.436379,-1.499107,-0.270642,2.036743,0.150114,0.021639,0.308001,-0.086447,-0.298006,-0.157661,0.571435,0.096482,0.649457,-37.604633,6.389267,18.919554,0.362943,1.838485,0.094161,0.000000,0.000000,0.000000,0.000000,0.000000,0.000000
12401472.000000,-0.343857,0.596283,0.436294,-1.499408,-0.270794,2.037310,0.150216,0.024753,0.305170,-0.088001,-0.295124,-0.159526,0.572279,0.098787,0.550275,-37.557026,6.413071,18.895750,0.339139,1.838485,0.034652,0.000000,0.000000,0.000000,0.000000,0.000000,0.000000
12401473.000000,-0.343832,0.596581,0.436217,-1.499702,-0.270949,2.037882,0.150307,0.022034,0.302274,-0.085923,-0.294434,-0.160816,0.574499,0.096363,0.526471,-37.457844,6.313889,18.919554,0.315336,1.838485,0.081344,0.000000,0.000000,0.000000,0.000000,0.000000,0.000000
12401474.000000,-0.343804,0.596884,0.436147,-1.500000,-0.271104,2.038451,0.150411,0.023732,0.305097,-0.083460,-0.296897,-0.156205,0.577911,0.098278,0.474897,-37.481647,6.167099,18.919554,0.261320,1.832076,0.034652,0.000000,0.000000,0.000000,0.000000,0.000000,0.000000
12401475.000000,-0.343774,0.597190,0.436068,-1.500296,-0.271265,2.039017,0.150512,0.025488,0.305266,-0.081013,-0.297289,-0.154609,0.573396,0.097991,0.403486,-37.457844,6.119492,18.871946,0.249418,1.890670,0.028243,0.000000,0.000000,0.000000,0.000000,0.000000,0.000000
12401476.000000,-0.343747,0.597496,0.435991,-1.500582,-0.271424,2.039585,0.150607,0.025756,0.305934,-0.081988,-0.287227,-0.154708,0.574046,0.096430,0.375715,-37.509418,6.067917,18.772764,0.273221,1.955673,0.074935,0.000000,0.000000,0.000000,0.000000,0.000000,0.000000
12401477.000000,-0.343721,0.597807,0.435913,-1.500878,-0.271571,2.040156,0.150712,0.025338,0.310754,-0.079228,-0.292066,-0.152669,0.574384,0.099007,0.375715,-37.557026,5.996506,18.697386,0.243009,1.903487,0.009017,0.000000,0.000000,0.000000,0.000000,0.000000,0.000000
12401478.000000,-0.343690,0.598117,0.435836,-1.501177,-0.271731,2.040743,0.150803,0.026279,0.312609,-0.078194,-0.297319,-0.153151,0.574451,0.095245,0.328107,-37.533222,5.972702,18.748960,0.273221,1.825668,0.087753,0.000000,0.000000,0.000000,0.000000,0.000000,0.000000
12401479.000000,-0.343660,0.598430,0.435759,-1.501464,-0.271888,2.041312,0.150899,0.026978,0.313074,-0.077330,-0.294174,-0.157306,0.574508,0.091264,0.276533,-37.580830,5.948898,18.697386,0.297025,1.773483,0.094161,0.000000,0.000000,0.000000,0.000000,0.000000,0.000000
12401480.000000,-0.343634,0.598745,0.435682,-1.501746,-0.272042,2.041890,0.151002,0.025568,0.314160,-0.079315,-0.287020,-0.154707,0.571208,0.094819,0.304304,-37.580830,5.897324,18.574400,0.273221,1.800033,0.034652,0.000000,0.000000,0.000000,0.000000,0.000000,0.000000
12401481.000000,-0.343604,0.599060,0.435603,-1.502027,-0.272207,2.042463,0.151094,0.025915,0.315911,-0.078742,-0.282949,-0.158780,0.563105,0.093795,0.276533,-37.604633,5.897324,18.499022,0.285123,1.832076,0.074935,0.000000,0.000000,0.000000,0.000000,0.000000,0.000000
12401482.000000,-0.343572,0.599377,0.435531,-1.502299,-0.272371,2.043042,0.151194,0.026732,0.314820,-0.075241,-0.277992,-0.160636,0.566654,0.095064,0.228925,-37.656208,5.774338,18.304625,0.261320,1.812850,0.061202,0.000000,0.000000,0.000000,0.000000,0.000000,0.000000
12401483.000000,-0.343541,0.599704,0.435454,-1.502582,-0.272537,2.043627,0.151290,0.026698,0.317746,-0.075658,-0.280374,-0.157283,0.568240,0.094923,0.205121,-37.727619,5.774338,18.253050,0.243009,1.754256,0.074935,0.000000,0.000000,0.000000,0.000000,0.000000,0.000000
12401484.000000,-0.343512,0.600023,0.435380,-1.502862,-0.272704,2.044216,0.151391,0.028738,0.316910,-0.077976,-0.279764,-0.163679,0.574896,0.097816,0.228925,-37.826801,5.726730,18.328428,0.237516,1.721298,0.028243,0.000000,0.000000,0.000000,0.000000,0.000000,0.000000
12401485.000000,-0.343477,0.600339,0.435307,-1.503132,-0.272869,2.044794,0.151485,0.026376,0.316681,-0.077362,-0.276489,-0.165288,0.573982,0.101442,0.153547,-37.874409,5.702927,18.229246,0.243009,1.676437,0.048385,0.000000,0.000000,0.000000,0.000000,0.000000,0.000000
12401486.000000,-0.343443,0.600656,0.435222,-1.503401,-0.273036,2.045371,0.151583,0.027649,0.319511,-0.078790,-0.270265,-0.167504,0.574223,0.100119,0.078168,-37.874409,5.774338,18.205442,0.279630,1.708480,0.054794,0.000000,0.000000,0.000000,0.000000,0.000000,0.000000
12401487.000000,-0.343414,0.600967,0.435145,-1.503671,-0.273201,2.045940,0.151680,0.029271,0.319660,-0.080638,-0.270957,-0.168358,0.571225,0.099326,0.105939,-37.826801,5.750534,18.153868,0.291532,1.747848,0.054794,0.000000,0.000000,0.000000,0.000000,0.000000,0.000000
12401488.000000,-0.343385,0.601291,0.435061,-1.503938,-0.273366,2.046516,0.151780,0.031113,0.323703,-0.084477,-0.271004,-0.168023,0.574185,0.103479,0.105939,-37.850605,5.825912,18.078489,0.279630,1.773483,0.054794,0.000000,0.000000,0.000000,0.000000,0.000000,0.000000
12401489.000000,-0.343352,0.601609,0.434989,-1.504205,-0.273535,2.047094,0.151881,0.033371,0.320738,-0.084077,-0.267946,-0.166838,0.571948,0.102645,0.078168,-37.874409,5.774338,18.007078,0.237516,1.786300,0.048385,0.000000,0.000000,0.000000,0.000000,0.000000,0.000000
12401490.000000,-0.343322,0.601927,0.434910,-1.504469,-0.273704,2.047667,0.151982,0.034425,0.318328,-0.084862,-0.262610,-0.167477,0.578325,0.101348,0.078168,-37.874409,5.750534,17.955503,0.231107,1.754256,0.041976,0.000000,0.000000,0.000000,0.000000,0.000000,0.000000
12401491.000000,-0.343289,0.602250,0.434825,-1.504722,-0.273870,2.048256,0.152076,0.035755,0.318743,-0.087559,-0.262894,-0.167220,0.584320,0.099283,0.054365,-37.922016,5.825912,17.856321,0.213712,1.735030,0.067611,0.000000,0.000000,0.000000,0.000000,0.000000,0.000000
12401492.000000,-0.343263,0.602569,0.434745,-1.504988,-0.274035,2.048826,0.152180,0.034358,0.319727,-0.081418,-0.260899,-0.164294,0.580693,0.099949,0.129743,-37.922016,5.825912,17.808714,0.243009,1.754256,0.034652,0.000000,0.000000,0.000000,0.000000,0.000000,0.000000
12401493.000000,-0.343231,0.602897,0.434665,-1.505248,-0.274199,2.049413,0.152278,0.035307,0.318658,-0.080033,-0.259616,-0.165212,0.582191,0.103016,0.129743,-37.922016,5.825912,17.709532,0.231107,1.754256,0.054794,0.000000,0.000000,0.000000,0.000000,0.000000,0.000000
12401494.000000,-0.343201,0.603222,0.434580,-1.505500,-0.274359,2.049996,0.152378,0.032813,0.317634,-0.081171,-0.256642,-0.166162,0.582272,0.097127,0.129743,-37.922016,5.921127,17.634153,0.225614,1.754256,0.054794,0.000000,0.000000,0.000000,0.000000,0.000000,0.000000
12401495.000000,-0.343172,0.603547,0.434499,-1.505761,-0.274524,2.050579,0.152478,0.030382,0.322257,-0.083586,-0.257402,-0.167792,0.583905,0.096825,0.153547,-37.949787,5.948898,17.586546,0.243009,1.735030,0.061202,0.000000,0.000000,0.000000,0.000000,0.000000,0.000000
12401496.000000,-0.343141,0.603889,0.434418,-1.506010,-0.274684,2.051162,0.152576,0.031721,0.331560,-0.084616,-0.256103,-0.162598,0.582885,0.096821,0.177350,-38.096577,5.948898,17.534971,0.225614,1.682845,0.061202,0.000000,0.000000,0.000000,0.000000,0.000000,0.000000
12401497.000000,-0.343106,0.604221,0.434335,-1.506259,-0.274851,2.051738,0.152679,0.034410,0.332240,-0.085498,-0.251742,-0.168179,0.579094,0.098675,0.129743,-38.243366,5.948898,17.511168,0.225614,1.682845,0.028243,0.000000,0.000000,0.000000,0.000000,0.000000,0.000000
12401498.000000,-0.343078,0.604558,0.434250,-1.506514,-0.275017,2.052310,0.152772,0.030897,0.332418,-0.083717,-0.249114,-0.164745,0.575925,0.095476,0.177350,-38.338581,5.972702,17.534971,0.249418,1.682845,0.094161,0.000000,0.000000,0.000000,0.000000,0.000000,0.000000
12401499.000000,-0.343050,0.604891,0.434163,-1.506756,-0.275181,2.052891,0.152874,0.031851,0.329963,-0.085355,-0.246866,-0.165064,0.572875,0.097714,0.205121,-38.437763,5.996506,17.534971,0.225614,1.676437,0.048385,0.000000,0.000000,0.000000,0.000000,0.000000,0.000000
12401500.000000,-0.343019,0.605224,0.434078,-1.506997,-0.275342,2.053450,0.152978,0.030276,0.332173,-0.086060,-0.241287,-0.170888,0.562720,0.102539,0.205121,-38.513142,5.996506,17.511168,0.225614,1.695663,0.041976,0.000000,0.000000,0.000000,0.000000,0.000000,0.000000
12401501.000000,-0.342980,0.605557,0.433993,-1.507244,-0.275504,2.054021,0.153079,0.034500,0.333153,-0.086575,-0.243990,-0.165365,0.563675,0.100123,0.105939,-38.485371,5.996506,17.511168,0.219205,1.689254,0.067611,0.000000,0.000000,0.000000,0.000000,0.000000,0.000000
12401502.000000,-0.342950,0.605882,0.433901,-1.507490,-0.275665,2.054589,0.153180,0.031487,0.331945,-0.089342,-0.243961,-0.166063,0.561069,0.100402,0.129743,-38.461567,6.095688,17.534971,0.207303,1.714889,0.054794,0.000000,0.000000,0.000000,0.000000,0.000000,0.000000
12401503.000000,-0.342921,0.606219,0.433819,-1.507741,-0.275831,2.055145,0.153279,0.031887,0.333099,-0.088052,-0.241560,-0.162255,0.565313,0.103965,0.177350,-38.461567,6.044113,17.634153,0.207303,1.760665,0.061202,0.000000,0.000000,0.000000,0.000000,0.000000,0.000000
12401504.000000,-0.342894,0.606556,0.433733,-1.507976,-0.275999,2.055710,0.153380,0.031645,0.328110,-0.088687,-0.240299,-0.163025,0.565253,0.107286,0.252729,-38.536945,6.067917,17.610350,0.183500,1.779891,0.054794,0.000000,0.000000,0.000000,0.000000,0.000000,0.000000
12401505.000000,-0.342862,0.606899,0.433651,-1.508220,-0.276170,2.056261,0.153484,0.033324,0.336107,-0.084888,-0.240776,-0.165658,0.564389,0.110578,0.252729,-38.632160,6.044113,17.634153,0.207303,1.825668,0.028243,0.000000,0.000000,0.000000,0.000000,0.000000,0.000000
12401506.000000,-0.342832,0.607247,0.433562,-1.508469,-0.276337,2.056827,0.153578,0.033931,0.336872,-0.086363,-0.244412,-0.166091,0.566301,0.104921,0.276533,-38.707539,6.067917,17.661924,0.195402,1.793624,0.081344,0.000000,0.000000,0.000000,0.000000,0.000000,0.000000
12401507.000000,-0.342799,0.607586,0.433475,-1.508711,-0.276502,2.057399,0.153683,0.035561,0.340477,-0.084374,-0.244094,-0.166147,0.567917,0.100146,0.252729,-38.755146,6.095688,17.709532,0.171598,1.760665,0.041976,0.000000,0.000000,0.000000,0.000000,0.000000,0.000000
12401508.000000,-0.342763,0.607939,0.433386,-1.508957,-0.276666,2.057957,0.153784,0.033532,0.345020,-0.086059,-0.244472,-0.163324,0.568949,0.099310,0.228925,-38.854328,6.119492,17.634153,0.195402,1.773483,0.041976,0.000000,0.000000,0.000000,0.000000,0.000000,0.000000
12401509.000000,-0.342728,0.608276,0.433299,-1.509205,-0.276833,2.058518,0.153876,0.031968,0.334427,-0.086634,-0.248893,-0.160060,0.563408,0.097079,0.205121,-38.854328,6.119492,17.661924,0.201810,1.747848,0.087753,0.000000,0.000000,0.000000,0.000000,0.000000,0.000000
12401510.000000,-0.342693,0.608623,0.433209,-1.509440,-0.276997,2.059074,0.153975,0.034516,0.336073,-0.087601,-0.243186,-0.162493,0.575408,0.096705,0.153547,-38.925739,6.143295,17.511168,0.201810,1.747848,0.100570,0.000000,0.000000,0.000000,0.000000,0.000000,0.000000
12401511.000000,-0.342662,0.608964,0.433118,-1.509685,-0.277168,2.059632,0.154080,0.030761,0.337166,-0.087936,-0.244530,-0.163885,0.568951,0.098409,0.205121,-38.878132,6.143295,17.463560,0.189908,1.735030,0.054794,0.000000,0.000000,0.000000,0.000000,0.000000,0.000000
12401512.000000,-0.342626,0.609308,0.433031,-1.509926,-0.277344,2.060200,0.154183,0.033729,0.338124,-0.090680,-0.238848,-0.166336,0.563927,0.094368,0.153547,-38.977314,6.119492,17.411985,0.219205,1.714889,0.034652,0.000000,0.000000,0.000000,0.000000,0.000000,0.000000
12401513.000000,-0.342595,0.609656,0.432946,-1.510171,-0.277512,2.060755,0.154278,0.033451,0.338357,-0.089592,-0.237653,-0.167610,0.559460,0.098111,0.205121,-39.001118,6.095688,17.364378,0.231107,1.721298,0.081344,0.000000,0.000000,0.000000,0.000000,0.000000,0.000000
12401514.000000,-0.342560,0.609997,0.432854,-1.510419,-0.277678,2.061325,0.154385,0.032049,0.337443,-0.090432,-0.243205,-0.167179,0.561585,0.099765,0.177350,-39.024921,6.143295,17.388182,0.219205,1.708480,0.028243,0.000000,0.000000,0.000000,0.000000,0.000000,0.000000
12401515.000000,-0.342524,0.610337,0.432770,-1.510667,-0.277845,2.061886,0.154482,0.030833,0.343445,-0.088152,-0.242408,-0.171549,0.563132,0.099297,0.153547,-39.048725,6.067917,17.388182,0.219205,1.702071,0.034652,0.000000,0.000000,0.000000,0.000000,0.000000,0.000000
12401516.000000,-0.342486,0.610677,0.432679,-1.510921,-0.278006,2.062453,0.154575,0.030312,0.337878,-0.089208,-0.243966,-0.165389,0.568007,0.101149,0.105939,-39.001118,6.095688,17.487364,0.189908,1.708480,0.094161,0.000000,0.000000,0.000000,0.000000,0.000000,0.000000
12401517.000000,-0.342449,0.611019,0.432589,-1.511160,-0.278172,2.063027,0.154682,0.029386,0.342205,-0.089089,-0.242103,-0.166156,0.567015,0.107380,0.078168,-39.024921,6.095688,17.463560,0.178007,1.695663,0.034652,0.000000,0.000000,0.000000,0.000000,0.000000,0.000000
12401518.000000,-0.342409,0.611369,0.432500,-1.511415,-0.278338,2.063582,0.154778,0.029837,0.343941,-0.088935,-0.247516,-0.166945,0.567554,0.103480,0.006757,-39.001118,6.095688,17.562742,0.171598,1.727706,0.067611,0.000000,0.000000,0.000000,0.000000,0.000000,0.000000
12401519.000000,-0.342374,0.611708,0.432405,-1.511655,-0.278515,2.064147,0.154877,0.031312,0.345380,-0.090050,-0.246228,-0.168180,0.567012,0.101043,0.006757,-38.878132,6.143295,17.463560,0.189908,1.735030,0.087753,0.000000,0.000000,0.000000,0.000000,0.000000,0.000000
12401520.000000,-0.342333,0.612045,0.432323,-1.511898,-0.278692,2.064711,0.154981,0.034219,0.345475,-0.086194,-0.247491,-0.170052,0.568901,0.098022,-0.068621,-38.755146,5.996506,17.511168,0.231107,1.727706,0.028243,0.000000,0.000000,0.000000,0.000000,0.000000,0.000000
12401521.000000,-0.342294,0.612392,0.432227,-1.512146,-0.278862,2.065270,0.155072,0.035400,0.344481,-0.088368,-0.248972,-0.170038,0.564249,0.099768,-0.092425,-38.778950,6.044113,17.534971,0.237516,1.714889,0.100570,0.000000,0.000000,0.000000,0.000000,0.000000,0.000000
12401522.000000,-0.342262,0.612738,0.432143,-1.512385,-0.279031,2.065828,0.155181,0.034656,0.340416,-0.083119,-0.240873,-0.173424,0.559032,0.102116,-0.044818,-38.778950,5.948898,17.463560,0.213712,1.708480,0.021835,0.000000,0.000000,0.000000,0.000000,0.000000,0.000000
12401523.000000,-0.342223,0.613088,0.432054,-1.512632,-0.279202,2.066382,0.155282,0.036497,0.341174,-0.088457,-0.241109,-0.173106,0.560373,0.100784,-0.092425,-38.830524,5.972702,17.487364,0.231107,1.727706,0.021835,0.000000,0.000000,0.000000,0.000000,0.000000,0.000000
12401524.000000,-0.342184,0.613441,0.431963,-1.512877,-0.279370,2.066942,0.155379,0.037659,0.346952,-0.089234,-0.244868,-0.170867,0.560291,0.102163,-0.144000,-38.953510,5.996506,17.511168,0.195402,1.721298,0.081344,0.000000,0.000000,0.000000,0.000000,0.000000,0.000000
12401525.000000,-0.342151,0.613791,0.431872,-1.513127,-0.279544,2.067507,0.155488,0.036295,0.351867,-0.089762,-0.246374,-0.174007,0.560531,0.103857,-0.092425,-39.024921,6.020309,17.634153,0.159696,1.767074,0.021835,0.000000,0.000000,0.000000,0.000000,0.000000,0.000000
12401526.000000,-0.342118,0.614142,0.431783,-1.513375,-0.279724,2.068065,0.155588,0.035523,0.351377,-0.089052,-0.245137,-0.178448,0.563745,0.100952,-0.044818,-39.171711,5.996506,17.685728,0.178007,1.760665,0.054794,0.000000,0.000000,0.000000,0.000000,0.000000,0.000000
12401527.000000,-0.342083,0.614489,0.431694,-1.513621,-0.279907,2.068628,0.155691,0.035373,0.354663,-0.088400,-0.250027,-0.181275,0.563943,0.105282,-0.017047,-39.195515,5.972702,17.757139,0.195402,1.760665,0.041976,0.000000,0.000000,0.000000,0.000000,0.000000,0.000000
12401528.000000,-0.342050,0.614834,0.431603,-1.513880,-0.280088,2.069184,0.155790,0.034934,0.346790,-0.089142,-0.253828,-0.183996,0.561182,0.102911,0.030561,-39.219318,5.996506,17.907896,0.219205,1.779891,0.067611,0.000000,0.000000,0.000000,0.000000,0.000000,0.000000
12401529.000000,-0.342014,0.615181,0.431516,-1.514136,-0.280272,2.069752,0.155896,0.035186,0.345698,-0.087361,-0.251832,-0.182606,0.563292,0.102296,0.054365,-39.195515,5.921127,18.007078,0.279630,1.767074,0.041976,0.000000,0.000000,0.000000,0.000000,0.000000,0.000000
12401530.000000,-0.341980,0.615524,0.431423,-1.514390,-0.280450,2.070320,0.156001,0.034798,0.337620,-0.090079,-0.251638,-0.183015,0.563742,0.101306,0.105939,-39.147907,5.996506,18.153868,0.255826,1.779891,0.048385,0.000000,0.000000,0.000000,0.000000,0.000000,0.000000
12401531.000000,-0.341943,0.615875,0.431332,-1.514645,-0.280626,2.070873,0.156099,0.035726,0.341828,-0.086549,-0.253539,-0.184413,0.560977,0.103926,0.105939,-39.195515,5.996506,18.276854,0.255826,1.760665,0.081344,0.000000,0.000000,0.000000,0.000000,0.000000,0.000000
12401532.000000,-0.341909,0.616227,0.431235,-1.514894,-0.280804,2.071433,0.156209,0.035243,0.347474,-0.089410,-0.254201,-0.184335,0.561157,0.104011,0.153547,-39.124104,6.095688,18.276854,0.237516,1.800033,0.034652,0.000000,0.000000,0.000000,0.000000,0.000000,0.000000
12401533.000000,-0.341877,0.616575,0.431147,-1.515142,-0.280981,2.071986,0.156307,0.032336,0.351824,-0.088405,-0.251785,-0.184145,0.556680,0.096622,0.177350,-39.171711,6.067917,18.352232,0.231107,1.844894,0.067611,0.000000,0.000000,0.000000,0.000000,0.000000,0.000000
12401534.000000,-0.341842,0.616924,0.431057,-1.515393,-0.281160,2.072538,0.156413,0.033176,0.350877,-0.088009,-0.251700,-0.176243,0.553966,0.102118,0.205121,-39.147907,6.044113,18.376036,0.243009,1.858627,0.048385,0.000000,0.000000,0.000000,0.000000,0.000000,0.000000
12401535.000000,-0.341806,0.617271,0.430963,-1.515643,-0.281336,2.073086,0.156521,0.034265,0.345481,-0.088259,-0.249502,-0.178792,0.541658,0.101981,0.205121,-39.171711,6.044113,18.427610,0.231107,1.871444,0.021835,0.000000,0.000000,0.000000,0.000000,0.000000,0.000000
12401536.000000,-0.341778,0.617626,0.430877,-1.515892,-0.281515,2.073635,0.156621,0.032917,0.348143,-0.087293,-0.250668,-0.176985,0.551237,0.103520,0.304304,-39.219318,5.996506,18.427610,0.243009,1.825668,0.074935,0.000000,0.000000,0.000000,0.000000,0.000000,0.000000
12401537.000000,-0.341743,0.617985,0.430778,-1.516142,-0.281689,2.074189,0.156731,0.034338,0.353003,-0.092615,-0.249918,-0.174849,0.551238,0.103442,0.304304,-39.294697,6.067917,18.526793,0.243009,1.806442,0.034652,0.000000,0.000000,0.000000,0.000000,0.000000,0.000000
12401538.000000,-0.341708,0.618334,0.430685,-1.516386,-0.281860,2.074741,0.156834,0.035340,0.355273,-0.094738,-0.244170,-0.172874,0.556540,0.102673,0.304304,-39.366108,6.067917,18.526793,0.225614,1.806442,0.028243,0.000000,0.000000,0.000000,0.000000,0.000000,0.000000
12401539.000000,-0.341674,0.618689,0.430585,-1.516639,-0.282038,2.075283,0.156932,0.035486,0.354552,-0.095126,-0.244986,-0.172516,0.553191,0.100200,0.328107,-39.393879,6.143295,18.649778,0.237516,1.832076,0.054794,0.000000,0.000000,0.000000,0.000000,0.000000,0.000000
12401540.000000,-0.341644,0.619035,0.430488,-1.516886,-0.282218,2.075820,0.157037,0.034471,0.344136,-0.094559,-0.246043,-0.176401,0.549436,0.099820,0.403486,-39.393879,6.190903,18.772764,0.243009,1.884261,0.048385,0.000000,0.000000,0.000000,0.000000,0.000000,0.000000
12401541.000000,-0.341607,0.619392,0.430395,-1.517137,-0.282395,2.076362,0.157135,0.036186,0.349342,-0.092899,-0.248617,-0.175082,0.552750,0.098251,0.375715,-39.417683,6.190903,18.848143,0.255826,1.916305,0.074935,0.000000,0.000000,0.000000,0.000000,0.000000,0.000000
12401542.000000,-0.341577,0.619739,0.430297,-1.517390,-0.282573,2.076910,0.157243,0.034836,0.340819,-0.096145,-0.248593,-0.178951,0.553413,0.099969,0.451093,-39.294697,6.242477,18.947325,0.267728,1.890670,0.015426,0.000000,0.000000,0.000000,0.000000,0.000000,0.000000
12401543.000000,-0.341542,0.620087,0.430200,-1.517638,-0.282748,2.077466,0.157341,0.032625,0.346749,-0.095785,-0.245407,-0.177039,0.552621,0.093738,0.451093,-39.195515,6.290085,19.070311,0.279630,1.865035,0.041976,0.000000,0.000000,0.000000,0.000000,0.000000,0.000000
12401544.000000,-0.341509,0.620434,0.430103,-1.517885,-0.282918,2.077997,0.157437,0.033459,0.340516,-0.094509,-0.249031,-0.175102,0.541513,0.097976,0.474897,-39.024921,6.313889,19.169493,0.279630,1.909896,0.087753,0.000000,0.000000,0.000000,0.000000,0.000000,0.000000
12401545.000000,-0.341474,0.620782,0.430006,-1.518129,-0.283094,2.078533,0.157546,0.034560,0.348530,-0.093620,-0.246541,-0.174105,0.538892,0.105632,0.474897,-38.977314,6.341660,19.193296,0.297025,1.995040,0.009017,0.000000,0.000000,0.000000,0.000000,0.000000,0.000000
12401546.000000,-0.341435,0.621138,0.429905,-1.518372,-0.283263,2.079064,0.157640,0.036580,0.352703,-0.093336,-0.244736,-0.179576,0.535032,0.101942,0.427289,-38.878132,6.389267,19.169493,0.255826,2.079269,0.067611,0.000000,0.000000,0.000000,0.000000,0.000000,0.000000
12401547.000000,-0.341400,0.621486,0.429804,-1.518616,-0.283442,2.079615,0.157741,0.036813,0.351253,-0.095903,-0.240828,-0.181801,0.539703,0.099679,0.427289,-38.806721,6.413071,19.217100,0.249418,2.047225,0.094161,0.000000,0.000000,0.000000,0.000000,0.000000,0.000000
12401548.000000,-0.341368,0.621838,0.429702,-1.518853,-0.283617,2.080173,0.157851,0.035547,0.352100,-0.098869,-0.238455,-0.179013,0.543965,0.101955,0.474897,-38.806721,6.488449,19.141722,0.255826,1.981307,0.021835,0.000000,0.000000,0.000000,0.000000,0.000000,0.000000
12401549.000000,-0.341338,0.622192,0.429606,-1.519099,-0.283785,2.080712,0.157954,0.034385,0.351003,-0.099285,-0.240304,-0.177315,0.551420,0.099192,0.550275,-38.878132,6.488449,19.217100,0.267728,1.936446,0.061202,0.000000,0.000000,0.000000,0.000000,0.000000,0.000000
12401550.000000,-0.341299,0.622548,0.429510,-1.519331,-0.283957,2.081265,0.158068,0.035961,0.355393,-0.099060,-0.239443,-0.175404,0.550008,0.104888,0.526471,-38.977314,6.460678,19.193296,0.279630,1.930038,0.021835,0.000000,0.000000,0.000000,0.000000,0.000000,0.000000
12401551.000000,-0.341267,0.622910,0.429410,-1.519561,-0.284128,2.081819,0.158167,0.038504,0.360028,-0.097673,-0.240403,-0.178190,0.548727,0.103237,0.574079,-39.072529,6.512253,19.240904,0.297025,1.936446,0.028243,0.000000,0.000000,0.000000,0.000000,0.000000,0.000000
12401552.000000,-0.341224,0.623268,0.429311,-1.519793,-0.284300,2.082366,0.158271,0.036954,0.358793,-0.095488,-0.233031,-0.176249,0.547572,0.101429,0.502668,-39.124104,6.512253,19.217100,0.303434,1.955673,0.028243,0.000000,0.000000,0.000000,0.000000,0.000000,0.000000
12401553.000000,-0.341188,0.623623,0.429209,-1.520026,-0.284475,2.082915,0.158380,0.037170,0.354604,-0.094943,-0.232748,-0.177954,0.535976,0.105624,0.502668,-39.124104,6.559860,19.268675,0.273221,1.974899,0.021835,0.000000,0.000000,0.000000,0.000000,0.000000,0.000000
12401554.000000,-0.341151,0.623977,0.429112,-1.520257,-0.284650,2.083467,0.158483,0.037316,0.357201,-0.092764,-0.229731,-0.179455,0.541571,0.107353,0.502668,-39.147907,6.536057,19.316282,0.243009,1.936446,0.048385,0.000000,0.000000,0.000000,0.000000,0.000000,0.000000
12401555.000000,-0.341111,0.624338,0.429012,-1.520490,-0.284835,2.084022,0.158593,0.038551,0.360331,-0.091123,-0.231842,-0.178276,0.538799,0.104812,0.451093,-39.100300,6.512253,19.316282,0.279630,1.923629,0.041976,0.000000,0.000000,0.000000,0.000000,0.000000,0.000000
12401556.000000,-0.341074,0.624693,0.428910,-1.520719,-0.285016,2.084572,0.158700,0.038221,0.360543,-0.095428,-0.231515,-0.176951,0.545258,0.103712,0.451093,-39.147907,6.583664,19.340086,0.303434,1.968490,0.034652,0.000000,0.000000,0.000000,0.000000,0.000000,0.000000
12401557.000000,-0.341034,0.625046,0.428814,-1.520946,-0.285193,2.085114,0.158805,0.038641,0.355450,-0.092669,-0.226658,-0.175940,0.545519,0.106504,0.427289,-39.048725,6.536057,19.340086,0.327238,1.981307,0.041976,0.000000,0.000000,0.000000,0.000000,0.000000,0.000000
12401558.000000,-0.340996,0.625401,0.428717,-1.521168,-0.285372,2.085656,0.158914,0.038300,0.345567,-0.094376,-0.223016,-0.178746,0.545369,0.109144,0.427289,-39.024921,6.512253,19.363890,0.327238,1.974899,0.041976,0.000000,0.000000,0.000000,0.000000,0.000000,0.000000
12401559.000000,-0.340950,0.625768,0.428620,-1.521388,-0.285542,2.086200,0.159022,0.037298,0.352433,-0.096269,-0.220792,-0.175527,0.544560,0.110659,0.328107,-39.124104,6.512253,19.240904,0.303434,2.020675,0.054794,0.000000,0.000000,0.000000,0.000000,0.000000,0.000000
12401560.000000,-0.340908,0.626141,0.428522,-1.521611,-0.285715,2.086745,0.159140,0.038246,0.355289,-0.097793,-0.218504,-0.176147,0.552466,0.112402,0.276533,-39.247089,6.512253,19.193296,0.231107,2.033492,0.041976,0.000000,0.000000,0.000000,0.000000,0.000000,0.000000
12401561.000000,-0.340870,0.626514,0.428429,-1.521824,-0.285893,2.087310,0.159250,0.037470,0.360420,-0.094952,-0.211546,-0.178112,0.553369,0.110207,0.276533,-39.489094,6.460678,19.070311,0.195402,1.988631,0.034652,0.000000,0.000000,0.000000,0.000000,0.000000,0.000000
12401562.000000,-0.340826,0.626887,0.428336,-1.522040,-0.286074,2.087857,0.159354,0.038512,0.359940,-0.091898,-0.212939,-0.181687,0.550932,0.105041,0.228925,-39.612080,6.389267,18.971128,0.213712,1.930038,0.087753,0.000000,0.000000,0.000000,0.000000,0.000000,0.000000
12401563.000000,-0.340789,0.627252,0.428235,-1.522264,-0.286251,2.088418,0.159467,0.037580,0.356099,-0.094597,-0.213779,-0.179126,0.549930,0.110087,0.252729,-39.782673,6.389267,18.971128,0.231107,1.903487,0.034652,0.000000,0.000000,0.000000,0.000000,0.000000,0.000000
12401564.000000,-0.340750,0.627630,0.428139,-1.522475,-0.286432,2.088971,0.159578,0.036531,0.365424,-0.095933,-0.211881,-0.182944,0.555365,0.108073,0.276533,-39.905659,6.365463,18.820372,0.297025,1.903487,0.021835,0.000000,0.000000,0.000000,0.000000,0.000000,0.000000
12401565.000000,-0.340707,0.627999,0.428041,-1.522697,-0.286608,2.089535,0.159687,0.037308,0.362843,-0.095111,-0.213860,-0.180769,0.553611,0.109631,0.252729,-39.981037,6.389267,18.871946,0.332731,1.884261,0.028243,0.000000,0.000000,0.000000,0.000000,0.000000,0.000000
12401566.000000,-0.340662,0.628367,0.427947,-1.522910,-0.286782,2.090096,0.159795,0.038947,0.364005,-0.093683,-0.212065,-0.176868,0.548640,0.106706,0.177350,-40.028645,6.389267,18.796568,0.308927,1.884261,0.021835,0.000000,0.000000,0.000000,0.000000,0.000000,0.000000
12401567.000000,-0.340614,0.628737,0.427853,-1.523120,-0.286956,2.090643,0.159892,0.043817,0.360637,-0.094670,-0.210383,-0.173063,0.548217,0.102601,0.078168,-40.052448,6.341660,18.697386,0.255826,1.890670,0.067611,0.000000,0.000000,0.000000,0.000000,0.000000,0.000000
12401568.000000,-0.340568,0.629107,0.427754,-1.523338,-0.287134,2.091203,0.160003,0.043105,0.364211,-0.096535,-0.211444,-0.174369,0.554650,0.103257,0.030561,-40.028645,6.341660,18.673582,0.195402,1.890670,0.015426,0.000000,0.000000,0.000000,0.000000,0.000000,0.000000
12401569.000000,-0.340522,0.629465,0.427659,-1.523544,-0.287311,2.091753,0.160102,0.042555,0.361560,-0.094102,-0.210727,-0.176138,0.556222,0.100446,-0.017047,-39.834248,6.313889,18.598204,0.171598,1.930038,0.067611,0.000000,0.000000,0.000000,0.000000,0.000000,0.000000
12401570.000000,-0.340478,0.629835,0.427559,-1.523755,-0.287491,2.092297,0.160215,0.041667,0.362590,-0.096911,-0.213488,-0.175372,0.556054,0.105887,-0.044818,-39.858051,6.341660,18.526793,0.189908,1.949264,0.028243,0.000000,0.000000,0.000000,0.000000,0.000000,0.000000
12401571.000000,-0.340431,0.630202,0.427464,-1.523958,-0.287672,2.092840,0.160327,0.044135,0.361141,-0.093216,-0.208368,-0.174930,0.553119,0.104736,-0.068621,-39.810444,6.266281,18.427610,0.219205,1.949264,0.001693,0.000000,0.000000,0.000000,0.000000,0.000000,0.000000
12401572.000000,-0.340390,0.630570,0.427363,-1.524165,-0.287849,2.093379,0.160426,0.041769,0.368344,-0.096663,-0.208355,-0.169768,0.547404,0.105009,-0.044818,-39.810444,6.313889,18.427610,0.243009,1.949264,0.074935,0.000000,0.000000,0.000000,0.000000,0.000000,0.000000
12401573.000000,-0.340342,0.630952,0.427266,-1.524364,-0.288029,2.093928,0.160541,0.044273,0.372830,-0.094781,-0.205730,-0.170987,0.544813,0.104658,-0.068621,-39.858051,6.313889,18.376036,0.279630,1.897079,0.028243,0.000000,0.000000,0.000000,0.000000,0.000000,0.000000
12401574.000000,-0.340293,0.631328,0.427174,-1.524563,-0.288208,2.094487,0.160643,0.043063,0.372907,-0.095966,-0.203359,-0.173640,0.546517,0.103233,-0.092425,-40.052448,6.290085,18.304625,0.237516,1.865035,0.034652,0.000000,0.000000,0.000000,0.000000,0.000000,0.000000
12401576.000000,-0.340196,0.632074,0.426980,-1.524964,-0.288565,2.095574,0.160858,0.044165,0.366114,-0.098258,-0.195587,-0.173891,0.542968,0.104990,-0.144000,-40.104023,6.266281,18.253050,0.195402,1.832076,0.028243,0.000000,0.000000,0.000000,0.000000,0.000000,0.000000
12401577.000000,-0.340147,0.632446,0.426881,-1.525158,-0.288743,2.096113,0.160961,0.046692,0.370821,-0.099226,-0.192352,-0.173061,0.537963,0.102775,-0.191607,-40.076252,6.266281,18.177671,0.195402,1.871444,0.054794,0.000000,0.000000,0.000000,0.000000,0.000000,0.000000
12401578.000000,-0.340100,0.632821,0.426784,-1.525358,-0.288928,2.096661,0.161066,0.047314,0.367528,-0.096766,-0.194443,-0.173672,0.541003,0.101909,-0.191607,-40.004841,6.266281,18.153868,0.231107,1.871444,0.034652,0.000000,0.000000,0.000000,0.000000,0.000000,0.000000
12401579.000000,-0.340058,0.633188,0.426689,-1.525558,-0.289104,2.097212,0.161168,0.043665,0.370395,-0.094889,-0.196940,-0.176437,0.542681,0.101848,-0.144000,-39.929462,6.242477,18.177671,0.207303,1.871444,0.021835,0.000000,0.000000,0.000000,0.000000,0.000000,0.000000
12401580.000000,-0.340013,0.633561,0.426588,-1.525756,-0.289281,2.097743,0.161269,0.045319,0.365753,-0.100534,-0.194779,-0.180393,0.535154,0.099800,-0.144000,-39.810444,6.266281,18.177671,0.231107,1.851302,0.054794,0.000000,0.000000,0.000000,0.000000,0.000000,0.000000
12401581.000000,-0.339966,0.633924,0.426485,-1.525952,-0.289464,2.098284,0.161378,0.046582,0.365712,-0.101958,-0.195293,-0.182055,0.531362,0.104506,-0.144000,-39.711262,6.313889,18.253050,0.231107,1.871444,0.041976,0.000000,0.000000,0.000000,0.000000,0.000000,0.000000
12401582.000000,-0.339920,0.634299,0.426395,-1.526139,-0.289650,2.098819,0.161482,0.046898,0.368362,-0.097021,-0.192995,-0.187447,0.527693,0.102463,-0.116229,-39.588276,6.242477,18.054686,0.243009,1.851302,0.067611,0.000000,0.000000,0.000000,0.000000,0.000000,0.000000
12401583.000000,-0.339872,0.634672,0.426295,-1.526339,-0.289823,2.099361,0.161594,0.047499,0.370452,-0.098949,-0.195645,-0.181499,0.530182,0.106763,-0.116229,-39.564472,6.266281,18.078489,0.207303,1.909896,0.041976,0.000000,0.000000,0.000000,0.000000,0.000000,0.000000
12401584.000000,-0.339826,0.635041,0.426202,-1.526524,-0.290006,2.099897,0.161701,0.047446,0.371590,-0.098673,-0.188793,-0.184051,0.528180,0.109715,-0.092425,-39.512897,6.218674,17.884092,0.225614,1.955673,0.034652,0.000000,0.000000,0.000000,0.000000,0.000000,0.000000
12401585.000000,-0.339784,0.635410,0.426102,-1.526716,-0.290178,2.100436,0.161807,0.043345,0.369713,-0.097047,-0.188047,-0.184144,0.535884,0.110561,-0.017047,-39.512897,6.242477,17.832518,0.195402,1.884261,0.061202,0.000000,0.000000,0.000000,0.000000,0.000000,0.000000
12401586.000000,-0.339737,0.635786,0.426009,-1.526909,-0.290351,2.100995,0.161918,0.041427,0.373089,-0.097004,-0.189795,-0.179125,0.542237,0.113367,0.006757,-39.512897,6.190903,17.733335,0.166105,1.786300,0.021835,0.000000,0.000000,0.000000,0.000000,0.000000,0.000000
12401587.000000,-0.339691,0.636151,0.425915,-1.527097,-0.290533,2.101546,0.162023,0.043889,0.369714,-0.094618,-0.187691,-0.182148,0.544173,0.114486,0.006757,-39.465290,6.167099,17.634153,0.178007,1.747848,0.034652,0.000000,0.000000,0.000000,0.000000,0.000000,0.000000
12401588.000000,-0.339646,0.636529,0.425813,-1.527284,-0.290710,2.102090,0.162127,0.045076,0.372942,-0.097170,-0.187974,-0.183374,0.544784,0.108603,0.030561,-39.540668,6.190903,17.586546,0.166105,1.773483,0.074935,0.000000,0.000000,0.000000,0.000000,0.000000,0.000000
12401589.000000,-0.339602,0.636897,0.425714,-1.527462,-0.290898,2.102633,0.162242,0.045994,0.366946,-0.098431,-0.183251,-0.181176,0.533840,0.112641,0.054365,-39.564472,6.190903,17.487364,0.201810,1.806442,0.028243,0.000000,0.000000,0.000000,0.000000,0.000000,0.000000
12401590.000000,-0.339558,0.637270,0.425615,-1.527643,-0.291077,2.103176,0.162339,0.042842,0.374397,-0.100593,-0.185019,-0.179080,0.537384,0.107240,0.105939,-39.512897,6.242477,17.463560,0.225614,1.812850,0.087753,0.000000,0.000000,0.000000,0.000000,0.000000,0.000000
12401591.000000,-0.339513,0.637636,0.425521,-1.527825,-0.291252,2.103725,0.162451,0.047410,0.368611,-0.097127,-0.184799,-0.180531,0.541595,0.106132,0.129743,-39.270893,6.218674,17.388182,0.207303,1.773483,0.048385,0.000000,0.000000,0.000000,0.000000,0.000000,0.000000
12401592.000000,-0.339472,0.637997,0.425429,-1.528006,-0.291431,2.104290,0.162557,0.046564,0.366689,-0.091271,-0.182528,-0.177301,0.550703,0.105353,0.205121,-39.072529,6.167099,17.388182,0.195402,1.721298,0.028243,0.000000,0.000000,0.000000,0.000000,0.000000,0.000000
12401593.000000,-0.339427,0.638365,0.425333,-1.528179,-0.291606,2.104829,0.162665,0.047276,0.367737,-0.094108,-0.178765,-0.175242,0.545617,0.108457,0.228925,-38.901936,6.167099,17.289000,0.189908,1.714889,0.021835,0.000000,0.000000,0.000000,0.000000,0.000000,0.000000
12401594.000000,-0.339379,0.638734,0.425236,-1.528349,-0.291787,2.105373,0.162774,0.045646,0.364705,-0.093537,-0.174365,-0.172962,0.546278,0.110293,0.205121,-38.854328,6.190903,17.213621,0.171598,1.741439,0.028243,0.000000,0.000000,0.000000,0.000000,0.000000,0.000000
12401595.000000,-0.339334,0.639108,0.425147,-1.528520,-0.291973,2.105909,0.162875,0.043828,0.369491,-0.093967,-0.171919,-0.176230,0.555530,0.105777,0.205121,-38.778950,6.119492,17.066832,0.154203,1.806442,0.081344,0.000000,0.000000,0.000000,0.000000,0.000000,0.000000
12401596.000000,-0.339294,0.639489,0.425048,-1.528693,-0.292164,2.106450,0.162991,0.040665,0.371071,-0.096647,-0.172155,-0.179484,0.553720,0.105734,0.276533,-38.878132,6.143295,16.991453,0.154203,1.812850,0.021835,0.000000,0.000000,0.000000,0.000000,0.000000,0.000000
12401597.000000,-0.339250,0.639862,0.424950,-1.528863,-0.292350,2.107005,0.163092,0.043374,0.375454,-0.096056,-0.170081,-0.177399,0.554642,0.102539,0.252729,-38.901936,6.167099,16.967649,0.159696,1.754256,0.067611,0.000000,0.000000,0.000000,0.000000,0.000000,0.000000
12401598.000000,-0.339206,0.640238,0.424854,-1.529032,-0.292533,2.107541,0.163201,0.041514,0.371589,-0.094323,-0.168547,-0.176672,0.549965,0.102392,0.276533,-39.001118,6.167099,16.943846,0.189908,1.708480,0.041976,0.000000,0.000000,0.000000,0.000000,0.000000,0.000000
12401599.000000,-0.339162,0.640620,0.424756,-1.529201,-0.292713,2.108089,0.163308,0.043132,0.378908,-0.093634,-0.171972,-0.173830,0.547903,0.106778,0.304304,-39.171711,6.190903,16.991453,0.171598,1.735030,0.028243,0.000000,0.000000,0.000000,0.000000,0.000000,0.000000
12401600.000000,-0.339121,0.641005,0.424661,-1.529373,-0.292894,2.108642,0.163409,0.040756,0.377110,-0.096309,-0.176858,-0.177235,0.544732,0.098637,0.351911,-39.318501,6.218674,16.991453,0.195402,1.721298,0.067611,0.000000,0.000000,0.000000,0.000000,0.000000,0.000000
12401601.000000,-0.339072,0.641385,0.424561,-1.529549,-0.293080,2.109190,0.163520,0.040671,0.376879,-0.097682,-0.175189,-0.179614,0.550265,0.099896,0.328107,-39.342304,6.218674,17.066832,0.183500,1.721298,0.021835,0.000000,0.000000,0.000000,0.000000,0.000000,0.000000
12401602.000000,-0.339028,0.641759,0.424464,-1.529718,-0.293273,2.109744,0.163622,0.042618,0.373675,-0.098812,-0.171546,-0.181536,0.545794,0.098363,0.351911,-39.342304,6.218674,17.090635,0.178007,1.689254,0.048385,0.000000,0.000000,0.000000,0.000000,0.000000,0.000000
12401603.000000,-0.338976,0.642140,0.424361,-1.529894,-0.293459,2.110279,0.163720,0.043678,0.375497,-0.101867,-0.175072,-0.183461,0.546656,0.096764,0.252729,-39.393879,6.313889,17.189817,0.178007,1.682845,0.087753,0.000000,0.000000,0.000000,0.000000,0.000000,0.000000
12401604.000000,-0.338935,0.642522,0.424264,-1.530065,-0.293644,2.110818,0.163831,0.040283,0.375412,-0.100573,-0.175227,-0.185019,0.542338,0.103848,0.328107,-39.366108,6.266281,17.189817,0.189908,1.721298,0.028243,0.000000,0.000000,0.000000,0.000000,0.000000,0.000000
12401605.000000,-0.338889,0.642892,0.424163,-1.530241,-0.293827,2.111353,0.163934,0.042865,0.372412,-0.098308,-0.176020,-0.186140,0.538034,0.102180,0.328107,-39.294697,6.290085,17.213621,0.195402,1.754256,0.048385,0.000000,0.000000,0.000000,0.000000,0.000000,0.000000
12401606.000000,-0.338846,0.643275,0.424056,-1.530417,-0.294004,2.111883,0.164041,0.041047,0.372990,-0.104037,-0.177647,-0.187064,0.531211,0.100413,0.351911,-39.294697,6.365463,17.289000,0.207303,1.767074,0.061202,0.000000,0.000000,0.000000,0.000000,0.000000,0.000000
12401607.000000,-0.338808,0.643647,0.423953,-1.530583,-0.294185,2.112407,0.164153,0.041146,0.368203,-0.104461,-0.173370,-0.186493,0.525023,0.105333,0.451093,-39.294697,6.413071,17.265196,0.189908,1.773483,0.041976,0.000000,0.000000,0.000000,0.000000,0.000000,0.000000
12401608.000000,-0.338760,0.644038,0.423854,-1.530751,-0.294371,2.112931,0.164259,0.044277,0.378860,-0.103073,-0.171182,-0.190510,0.521841,0.098604,0.427289,-39.393879,6.389267,17.241392,0.159696,1.773483,0.054794,0.000000,0.000000,0.000000,0.000000,0.000000,0.000000
12401609.000000,-0.338714,0.644433,0.423753,-1.530921,-0.294562,2.113459,0.164369,0.042163,0.380996,-0.102123,-0.173128,-0.190162,0.523277,0.104315,0.451093,-39.635883,6.365463,17.265196,0.159696,1.779891,0.015426,0.000000,0.000000,0.000000,0.000000,0.000000,0.000000
12401610.000000,-0.338665,0.644817,0.423649,-1.531091,-0.294750,2.113995,0.164475,0.045438,0.377529,-0.100011,-0.170740,-0.191061,0.526458,0.102207,0.403486,-39.735065,6.389267,17.265196,0.189908,1.735030,0.041976,0.000000,0.000000,0.000000,0.000000,0.000000,0.000000
12401611.000000,-0.338626,0.645201,0.423545,-1.531266,-0.294933,2.114520,0.164577,0.043799,0.378199,-0.104244,-0.172760,-0.185759,0.528161,0.104525,0.526471,-39.810444,6.413071,17.312803,0.189908,1.708480,0.081344,0.000000,0.000000,0.000000,0.000000,0.000000,0.000000
12401612.000000,-0.338578,0.645581,0.423439,-1.531437,-0.295114,2.115044,0.164691,0.045696,0.387613,-0.104274,-0.169859,-0.182008,0.527069,0.109624,0.526471,-39.810444,6.436874,17.364378,0.207303,1.727706,0.034652,0.000000,0.000000,0.000000,0.000000,0.000000,0.000000
12401613.000000,-0.338529,0.645964,0.423329,-1.531613,-0.295292,2.115568,0.164792,0.045090,0.387265,-0.108669,-0.170314,-0.178668,0.537616,0.105230,0.474897,-39.758869,6.512253,17.463560,0.201810,1.747848,0.087753,0.000000,0.000000,0.000000,0.000000,0.000000,0.000000
12401614.000000,-0.338486,0.646349,0.423224,-1.531789,-0.295475,2.116098,0.164905,0.045690,0.381657,-0.104117,-0.169810,-0.185520,0.530099,0.109414,0.502668,-39.635883,6.536057,17.534971,0.189908,1.754256,0.048385,0.000000,0.000000,0.000000,0.000000,0.000000,0.000000
12401615.000000,-0.338443,0.646729,0.423120,-1.531966,-0.295657,2.116629,0.165014,0.042980,0.370631,-0.104611,-0.173210,-0.184936,0.523206,0.111934,0.526471,-39.540668,6.583664,17.634153,0.154203,1.786300,0.034652,0.000000,0.000000,0.000000,0.000000,0.000000,0.000000
12401616.000000,-0.338402,0.647111,0.423017,-1.532145,-0.295842,2.117149,0.165122,0.038762,0.372235,-0.104397,-0.173104,-0.186634,0.514489,0.112077,0.649457,-39.417683,6.611435,17.733335,0.171598,1.819259,0.067611,0.000000,0.000000,0.000000,0.000000,0.000000,0.000000
12401617.000000,-0.338356,0.647488,0.422913,-1.532320,-0.296032,2.117668,0.165240,0.041223,0.371212,-0.103616,-0.172716,-0.188032,0.519779,0.115118,0.673261,-39.294697,6.611435,17.832518,0.207303,1.884261,0.034652,0.000000,0.000000,0.000000,0.000000,0.000000,0.000000
12401618.000000,-0.338313,0.647877,0.422804,-1.532488,-0.296217,2.118192,0.165348,0.042543,0.374371,-0.104253,-0.172610,-0.186428,0.521628,0.109113,0.724836,-39.318501,6.659042,17.907896,0.195402,1.936446,0.094161,0.000000,0.000000,0.000000,0.000000,0.000000,0.000000
12401619.000000,-0.338268,0.648273,0.422699,-1.532656,-0.296401,2.118718,0.165463,0.043992,0.376685,-0.103579,-0.171487,-0.187016,0.526256,0.112091,0.748639,-39.393879,6.659042,17.856321,0.201810,1.865035,0.067611,0.000000,0.000000,0.000000,0.000000,0.000000,0.000000
12401620.000000,-0.338224,0.648663,0.422584,-1.532830,-0.296579,2.119254,0.165578,0.045258,0.378742,-0.108781,-0.171271,-0.185807,0.528350,0.115017,0.772443,-39.512897,6.758224,17.983274,0.159696,1.825668,0.028243,0.000000,0.000000,0.000000,0.000000,0.000000,0.000000
12401621.000000,-0.338183,0.649054,0.422478,-1.533007,-0.296761,2.119774,0.165682,0.045535,0.385637,-0.109468,-0.171764,-0.190110,0.525395,0.114155,0.824018,-39.540668,6.734421,18.106260,0.123990,1.786300,0.087753,0.000000,0.000000,0.000000,0.000000,0.000000,0.000000
12401622.000000,-0.338136,0.649451,0.422367,-1.533178,-0.296960,2.120296,0.165795,0.044395,0.390443,-0.108030,-0.169949,-0.190986,0.523826,0.115652,0.796247,-39.711262,6.758224,18.130064,0.154203,1.851302,0.061202,0.000000,0.000000,0.000000,0.000000,0.000000,0.000000
12401623.000000,-0.338094,0.649841,0.422260,-1.533343,-0.297164,2.120823,0.165906,0.040996,0.392415,-0.105016,-0.171044,-0.192823,0.518875,0.113113,0.871625,-39.758869,6.805832,18.130064,0.219205,1.890670,0.028243,0.000000,0.000000,0.000000,0.000000,0.000000,0.000000
12401624.000000,-0.338056,0.650232,0.422149,-1.533521,-0.297356,2.121347,0.166011,0.041283,0.389870,-0.105951,-0.174762,-0.192162,0.527685,0.108909,0.970807,-39.858051,6.881210,18.253050,0.237516,1.903487,0.034652,0.000000,0.000000,0.000000,0.000000,0.000000,0.000000
12401625.000000,-0.338017,0.650614,0.422044,-1.533701,-0.297548,2.121880,0.166116,0.044185,0.381315,-0.107372,-0.175759,-0.191037,0.523393,0.104849,1.093793,-39.758869,6.853439,18.427610,0.243009,1.877853,0.067611,0.000000,0.000000,0.000000,0.000000,0.000000,0.000000
12401626.000000,-0.337974,0.650998,0.421933,-1.533882,-0.297738,2.122407,0.166222,0.042372,0.378134,-0.110944,-0.176486,-0.190998,0.527618,0.109612,1.121564,-39.659687,6.928818,18.598204,0.261320,1.800033,0.048385,0.000000,0.000000,0.000000,0.000000,0.000000,0.000000
