chaoyuefei/paper-gmrm-data/robot_logs/s2_dq_mrm_min_0.50_log_20260314_174611.csv
# time_ms,q_0,q_1,q_2,q_3,q_4,q_5,q_6,dq_0,dq_1,dq_2,dq_3,dq_4,dq_5,dq_6,tau_J_0,tau_J_1,tau_J_2,tau_J_3,tau_J_4,tau_J_5,tau_J_6,O_dP_EE_c_0,O_dP_EE_c_1,O_dP_EE_c_2,O_dP_EE_c_3,O_dP_EE_c_4,O_dP_EE_c_5
13033828.000000,-2.417850,-1.662633,1.040160,-1.352891,1.798095,1.079505,-0.546492,-0.000165,-0.000351,0.000631,-0.000058,0.000128,-0.000119,0.000360,0.030561,41.653790,-21.076248,-5.697450,0.811552,1.324874,0.015426,0.000000,0.000000,0.000000,0.000000,0.000000,0.000000
13033829.000000,-2.417848,-1.662633,1.040160,-1.352891,1.798097,1.079505,-0.546495,0.000447,0.000323,0.000420,-0.000038,0.000763,0.000395,-0.000743,0.006757,41.629986,-21.076248,-5.697450,0.793241,1.312057,0.041976,0.000000,0.000000,0.000000,0.000000,0.000000,0.000000
13033830.000000,-2.417850,-1.662632,1.040156,-1.352891,1.798094,1.079506,-0.546493,-0.000259,0.000215,-0.000926,-0.000026,-0.000373,-0.000211,0.000250,0.030561,41.629986,-21.024673,-5.697450,0.817045,1.324874,0.021835,0.000000,0.000000,0.000000,0.000000,0.000000,0.000000
13033831.000000,-2.417850,-1.662630,1.040160,-1.352893,1.798096,1.079507,-0.546490,-0.000173,0.000700,0.000589,-0.000017,0.000192,0.000097,0.001150,0.030561,41.606182,-21.076248,-5.697450,0.805143,1.318465,-0.004716,0.000000,0.000000,0.000000,0.000000,0.000000,0.000000
13033832.000000,-2.417849,-1.662632,1.040158,-1.352892,1.798094,1.079506,-0.546500,0.004718,-0.001215,-0.000814,0.001487,0.000806,0.007778,-0.009903,0.351911,41.554607,-21.024673,-5.626039,0.786832,1.364242,0.028243,0.000000,0.000000,0.000000,0.000000,0.000000,0.000000
13033833.000000,-2.417837,-1.662637,1.040160,-1.352890,1.798097,1.079502,-0.546509,0.018761,-0.002736,0.001508,0.003384,-0.000863,0.009705,-0.013841,1.315961,41.384014,-20.977066,-5.451478,0.698026,1.519881,-0.050492,0.000000,0.000000,0.000000,0.000000,0.000000,0.000000
13033834.000000,-2.417806,-1.662637,1.040169,-1.352886,1.798089,1.079498,-0.546540,0.026532,-0.001288,0.003321,0.003952,-0.002051,0.007844,-0.020642,2.902875,40.967449,-20.929459,-5.229311,0.601896,1.773483,-0.031266,0.000000,0.000000,0.000000,0.000000,0.000000,0.000000
13033835.000000,-2.417760,-1.662636,1.040190,-1.352890,1.798076,1.079516,-0.546580,0.030024,0.003535,0.009503,-0.001983,-0.004741,0.012352,-0.029095,4.807172,40.479473,-20.953262,-4.856386,0.547880,1.884261,-0.044083,0.000000,0.000000,0.000000,0.000000,0.000000,0.000000
13033836.000000,-2.417690,-1.662638,1.040207,-1.352903,1.798047,1.079565,-0.546627,0.038581,0.006684,0.010192,-0.008909,-0.014819,0.026992,-0.034218,6.564680,39.987530,-20.806473,-4.487428,0.584501,1.819259,-0.089860,0.000000,0.000000,0.000000,0.000000,0.000000,0.000000
13033837.000000,-2.417609,-1.662638,1.040238,-1.352928,1.798007,1.079648,-0.546705,0.046994,0.009146,0.016928,-0.014994,-0.022666,0.047774,-0.046842,8.274579,39.475750,-20.782669,-4.066896,0.637601,1.597701,-0.031266,0.000000,0.000000,0.000000,0.000000,0.000000,0.000000
13033838.000000,-2.417501,-1.662637,1.040279,-1.352965,1.797952,1.079749,-0.546790,0.062231,0.009660,0.025224,-0.020646,-0.037764,0.061980,-0.061288,9.635358,39.011578,-20.754898,-3.721742,0.685209,1.389877,-0.083451,0.000000,0.000000,0.000000,0.000000,0.000000,0.000000
13033839.000000,-2.417391,-1.662631,1.040323,-1.353007,1.797885,1.079861,-0.546900,0.074029,0.009262,0.029602,-0.028185,-0.052263,0.080668,-0.077764,10.972333,38.571209,-20.659683,-3.499574,0.703519,1.331283,-0.116410,0.000000,0.000000,0.000000,0.000000,0.000000,0.000000
13033840.000000,-2.417261,-1.662625,1.040381,-1.353069,1.797806,1.079992,-0.547038,0.091254,0.008490,0.039731,-0.039918,-0.065499,0.097785,-0.096413,12.063336,38.154644,-20.584305,-3.154421,0.673307,1.331283,-0.110001,0.000000,0.000000,0.000000,0.000000,0.000000,0.000000
13033841.000000,-2.417122,-1.662619,1.040449,-1.353139,1.797710,1.080142,-0.547209,0.105214,0.009051,0.047393,-0.048465,-0.073568,0.116033,-0.120495,13.102765,37.809490,-20.512894,-2.956056,0.571683,1.442062,-0.070634,0.000000,0.000000,0.000000,0.000000,0.000000,0.000000
13033842.000000,-2.416969,-1.662607,1.040535,-1.353221,1.797594,1.080315,-0.547402,0.119239,0.010770,0.059694,-0.060672,-0.090087,0.133862,-0.146889,13.967633,37.420696,-20.584305,-2.781496,0.488370,1.578475,-0.070634,0.000000,0.000000,0.000000,0.000000,0.000000,0.000000
13033843.000000,-2.416801,-1.662589,1.040637,-1.353316,1.797467,1.080519,-0.547620,0.135134,0.012725,0.076095,-0.072656,-0.105804,0.155763,-0.169338,14.709516,37.004131,-20.707291,-2.634706,0.362943,1.630660,-0.122819,0.000000,0.000000,0.000000,0.000000,0.000000,0.000000
13033844.000000,-2.416615,-1.662571,1.040751,-1.353429,1.797312,1.080756,-0.547877,0.153067,0.015819,0.086634,-0.084261,-0.124751,0.183412,-0.200078,15.253034,36.635174,-20.854080,-2.511720,0.303434,1.617843,-0.070634,0.000000,0.000000,0.000000,0.000000,0.000000,0.000000
13033845.000000,-2.416413,-1.662552,1.040879,-1.353562,1.797129,1.081032,-0.548144,0.168120,0.018113,0.099517,-0.100866,-0.142700,0.217245,-0.220127,15.725141,36.270184,-21.000870,-2.337160,0.339139,1.513473,-0.083451,0.000000,0.000000,0.000000,0.000000,0.000000,0.000000
13033846.000000,-2.416190,-1.662528,1.041025,-1.353708,1.796928,1.081331,-0.548435,0.187206,0.018861,0.114419,-0.116779,-0.165493,0.241466,-0.239827,15.998883,35.829815,-21.223038,-2.285585,0.381254,1.422836,-0.083451,0.000000,0.000000,0.000000,0.000000,0.000000,0.000000
13033847.000000,-2.415955,-1.662509,1.041181,-1.353881,1.796691,1.081646,-0.548733,0.202376,0.019313,0.126158,-0.134012,-0.188691,0.262252,-0.262733,16.320234,35.508465,-21.369827,-2.138796,0.482877,1.383468,-0.083451,0.000000,0.000000,0.000000,0.000000,0.000000,0.000000
13033848.000000,-2.415696,-1.662490,1.041348,-1.354055,1.796439,1.081971,-0.549042,0.220220,0.018602,0.139139,-0.146118,-0.204774,0.279430,-0.271687,16.467024,35.238689,-21.417435,-2.162599,0.547880,1.435653,-0.097184,0.000000,0.000000,0.000000,0.000000,0.000000,0.000000
13033849.000000,-2.415437,-1.662477,1.041522,-1.354253,1.796180,1.082324,-0.549352,0.237236,0.015397,0.149126,-0.160679,-0.222525,0.296492,-0.279287,16.716963,35.091900,-21.469009,-2.114992,0.512174,1.487838,-0.083451,0.000000,0.000000,0.000000,0.000000,0.000000,0.000000
13033850.000000,-2.415152,-1.662465,1.041700,-1.354465,1.795903,1.082699,-0.549661,0.251989,0.012164,0.157354,-0.179924,-0.236431,0.332310,-0.284325,16.839949,34.996685,-21.417435,-2.114992,0.488370,1.519881,-0.097184,0.000000,0.000000,0.000000,0.000000,0.000000,0.000000
13033851.000000,-2.414854,-1.662458,1.041896,-1.354691,1.795616,1.083087,-0.549976,0.272456,0.011959,0.170565,-0.194523,-0.253742,0.353774,-0.292165,16.887556,34.945110,-21.393631,-2.114992,0.386747,1.637069,-0.116410,0.000000,0.000000,0.000000,0.000000,0.000000,0.000000
13033852.000000,-2.414537,-1.662454,1.042101,-1.354949,1.795300,1.083507,-0.550295,0.286115,0.007379,0.183340,-0.212064,-0.272706,0.371222,-0.300470,16.939131,34.972881,-21.322220,-1.940431,0.327238,1.708480,-0.070634,0.000000,0.000000,0.000000,0.000000,0.000000,0.000000
13033853.000000,-2.414200,-1.662448,1.042321,-1.355218,1.794974,1.083943,-0.550588,0.303090,0.004962,0.193764,-0.231689,-0.288900,0.388519,-0.298775,16.939131,34.972881,-21.322220,-1.769838,0.308927,1.682845,-0.122819,0.000000,0.000000,0.000000,0.000000,0.000000,0.000000
13033854.000000,-2.413854,-1.662451,1.042541,-1.355517,1.794632,1.084417,-0.550897,0.319489,0.001669,0.199484,-0.251303,-0.301596,0.416952,-0.300900,16.939131,35.044292,-21.175430,-1.519899,0.297025,1.597701,-0.056901,0.000000,0.000000,0.000000,0.000000,0.000000,0.000000
13033855.000000,-2.413485,-1.662448,1.042772,-1.355820,1.794255,1.084915,-0.551185,0.335052,0.001136,0.208724,-0.262605,-0.322010,0.442754,-0.294636,16.887556,35.044292,-21.123856,-1.396913,0.339139,1.526290,-0.097184,0.000000,0.000000,0.000000,0.000000,0.000000,0.000000
13033856.000000,-2.413113,-1.662444,1.043017,-1.356123,1.793866,1.085422,-0.551472,0.346816,0.001889,0.219002,-0.278997,-0.343764,0.465477,-0.290995,16.986738,34.996685,-21.076248,-1.349306,0.416959,1.487838,-0.116410,0.000000,0.000000,0.000000,0.000000,0.000000,0.000000
13033857.000000,-2.412734,-1.662451,1.043260,-1.356446,1.793462,1.085963,-0.551758,0.357191,-0.000955,0.227383,-0.292331,-0.357623,0.485715,-0.285475,17.161299,35.091900,-20.929459,-1.373109,0.464567,1.454879,-0.077042,0.000000,0.000000,0.000000,0.000000,0.000000,0.000000
13033858.000000,-2.412343,-1.662452,1.043523,-1.356773,1.793040,1.086503,-0.552027,0.366456,-0.001276,0.238759,-0.308101,-0.389563,0.498710,-0.282559,17.383467,35.119671,-20.854080,-1.373109,0.512174,1.519881,-0.136552,0.000000,0.000000,0.000000,0.000000,0.000000,0.000000
13033859.000000,-2.411938,-1.662450,1.043796,-1.357124,1.792604,1.087077,-0.552305,0.378936,-0.000194,0.250406,-0.319487,-0.399861,0.513225,-0.277583,17.558027,35.091900,-20.782669,-1.349306,0.506681,1.591293,-0.130143,0.000000,0.000000,0.000000,0.000000,0.000000,0.000000
13033860.000000,-2.411524,-1.662452,1.044078,-1.357488,1.792158,1.087677,-0.552582,0.389120,-0.000773,0.266373,-0.328165,-0.411364,0.530699,-0.280799,17.827803,35.119671,-20.707291,-1.297731,0.482877,1.617843,-0.083451,0.000000,0.000000,0.000000,0.000000,0.000000,0.000000
13033861.000000,-2.411089,-1.662450,1.044374,-1.357862,1.791691,1.088298,-0.552840,0.403923,0.000138,0.277487,-0.345776,-0.431057,0.560712,-0.269093,18.026167,35.091900,-20.683487,-1.198549,0.488370,1.572067,-0.155778,0.000000,0.000000,0.000000,0.000000,0.000000,0.000000
13033862.000000,-2.410641,-1.662447,1.044672,-1.358258,1.791212,1.088947,-0.553111,0.417399,0.001209,0.282959,-0.359853,-0.443546,0.580443,-0.266319,18.149153,35.044292,-20.631912,-1.027956,0.440763,1.435653,-0.070634,0.000000,0.000000,0.000000,0.000000,0.000000,0.000000
13033863.000000,-2.410180,-1.662440,1.044985,-1.358673,1.790707,1.089610,-0.553363,0.429253,0.002479,0.290049,-0.377961,-0.461948,0.606022,-0.259369,18.299910,34.972881,-20.584305,-0.829591,0.482877,1.285506,-0.110001,0.000000,0.000000,0.000000,0.000000,0.000000,0.000000
13033864.000000,-2.409706,-1.662434,1.045313,-1.359091,1.790199,1.090283,-0.553616,0.452620,0.003418,0.301634,-0.387379,-0.474536,0.625383,-0.253710,18.399092,34.897503,-20.536697,-0.655031,0.500272,1.247054,-0.155778,0.000000,0.000000,0.000000,0.000000,0.000000,0.000000
13033865.000000,-2.409218,-1.662430,1.045641,-1.359531,1.789676,1.090979,-0.553874,0.464212,0.002837,0.310471,-0.402913,-0.488048,0.641898,-0.258015,18.621260,34.873699,-20.461319,-0.484438,0.530485,1.279098,-0.070634,0.000000,0.000000,0.000000,0.000000,0.000000,0.000000
13033866.000000,-2.408720,-1.662422,1.045983,-1.359972,1.789144,1.091678,-0.554113,0.471218,0.004212,0.317773,-0.415889,-0.497050,0.663915,-0.252023,18.918806,34.774517,-20.338333,-0.409059,0.506681,1.312057,-0.136552,0.000000,0.000000,0.000000,0.000000,0.000000,0.000000
13033867.000000,-2.408220,-1.662413,1.046332,-1.360437,1.788593,1.092407,-0.554354,0.482300,0.005036,0.333865,-0.431820,-0.510005,0.679542,-0.248778,19.240156,34.679302,-20.314529,-0.357485,0.524076,1.344100,-0.169511,0.000000,0.000000,0.000000,0.000000,0.000000,0.000000
13033868.000000,-2.407692,-1.662396,1.046695,-1.360907,1.788020,1.093143,-0.554605,0.494112,0.007998,0.343096,-0.439734,-0.523781,0.697806,-0.248584,19.513899,34.480938,-20.290726,-0.333681,0.530485,1.377059,-0.149369,0.000000,0.000000,0.000000,0.000000,0.000000,0.000000
13033869.000000,-2.407156,-1.662388,1.047078,-1.361390,1.787443,1.093905,-0.554855,0.508393,0.006446,0.352613,-0.453637,-0.539379,0.721446,-0.249210,19.759871,34.433331,-20.314529,-0.262270,0.547880,1.396285,-0.103593,0.000000,0.000000,0.000000,0.000000,0.000000,0.000000
13033870.000000,-2.406600,-1.662377,1.047463,-1.361902,1.786847,1.094704,-0.555104,0.522245,0.009510,0.360443,-0.472589,-0.554409,0.739731,-0.247057,19.982038,34.334148,-20.389908,-0.063905,0.542386,1.364242,-0.122819,0.000000,0.000000,0.000000,0.000000,0.000000,0.000000
13033871.000000,-2.406030,-1.662363,1.047863,-1.362418,1.786245,1.095514,-0.555339,0.534631,0.011597,0.370629,-0.492965,-0.567526,0.765632,-0.244498,20.231977,34.238934,-20.485123,0.086851,0.566190,1.285506,-0.175919,0.000000,0.000000,0.000000,0.000000,0.000000,0.000000
13033872.000000,-2.405456,-1.662347,1.048285,-1.362953,1.785625,1.096347,-0.555590,0.544990,0.014023,0.384581,-0.506820,-0.584285,0.784611,-0.246563,20.454145,34.115948,-20.707291,0.209837,0.530485,1.201278,-0.103593,0.000000,0.000000,0.000000,0.000000,0.000000,0.000000
13033873.000000,-2.404865,-1.662333,1.048709,-1.363500,1.784998,1.097203,-0.555829,0.557103,0.014541,0.395890,-0.522111,-0.591702,0.809936,-0.245465,20.751692,34.040569,-20.877884,0.257445,0.476469,1.201278,-0.116410,0.000000,0.000000,0.000000,0.000000,0.000000,0.000000
13033874.000000,-2.404249,-1.662320,1.049154,-1.364056,1.784357,1.098069,-0.556067,0.575393,0.014356,0.409813,-0.533764,-0.607474,0.824424,-0.244580,20.950056,33.992962,-21.076248,0.309019,0.428861,1.207687,-0.136552,0.000000,0.000000,0.000000,0.000000,0.000000,0.000000
13033875.000000,-2.403630,-1.662299,1.049606,-1.364629,1.783698,1.098953,-0.556309,0.592336,0.017184,0.420585,-0.544042,-0.619602,0.841305,-0.245437,21.144453,33.822369,-21.246841,0.332823,0.428861,1.266280,-0.116410,0.000000,0.000000,0.000000,0.000000,0.000000,0.000000
13033876.000000,-2.402993,-1.662285,1.050065,-1.365208,1.783023,1.099840,-0.556545,0.603328,0.015697,0.432385,-0.558050,-0.644781,0.853604,-0.241679,21.342817,33.794598,-21.322220,0.309019,0.440763,1.383468,-0.089860,0.000000,0.000000,0.000000,0.000000,0.000000,0.000000
13033877.000000,-2.402339,-1.662268,1.050543,-1.365805,1.782332,1.100765,-0.556775,0.617724,0.016415,0.444696,-0.567902,-0.659212,0.869383,-0.235316,21.469770,33.699383,-21.393631,0.380431,0.464567,1.454879,-0.136552,0.000000,0.000000,0.000000,0.000000,0.000000,0.000000
13033878.000000,-2.401660,-1.662254,1.051028,-1.366425,1.781621,1.101724,-0.557014,0.637734,0.014125,0.464158,-0.579679,-0.671044,0.891434,-0.234564,21.616560,33.600201,-21.540421,0.554991,0.542386,1.377059,-0.097184,0.000000,0.000000,0.000000,0.000000,0.000000,0.000000
13033879.000000,-2.400961,-1.662238,1.051525,-1.367049,1.780914,1.102699,-0.557245,0.651599,0.015282,0.470254,-0.593176,-0.686167,0.924778,-0.235753,21.791121,33.501019,-21.714981,0.753355,0.655912,1.234237,-0.130143,0.000000,0.000000,0.000000,0.000000,0.000000,0.000000
13033880.000000,-2.400258,-1.662225,1.052020,-1.367688,1.780201,1.103691,-0.557481,0.668795,0.014369,0.468960,-0.609421,-0.686675,0.939605,-0.237207,21.961714,33.477215,-21.738785,0.975523,0.763029,1.169235,-0.149369,0.000000,0.000000,0.000000,0.000000,0.000000,0.000000
13033881.000000,-2.399531,-1.662214,1.052544,-1.368334,1.779486,1.104688,-0.557715,0.680752,0.015454,0.485580,-0.619919,-0.693266,0.959803,-0.236026,22.160078,33.501019,-21.960953,1.098509,0.871061,1.155502,-0.110001,0.000000,0.000000,0.000000,0.000000,0.000000,0.000000
13033882.000000,-2.398811,-1.662208,1.053064,-1.368979,1.778791,1.105716,-0.557938,0.698047,0.014728,0.497588,-0.628067,-0.692118,0.974978,-0.232871,22.060896,33.600201,-21.960953,0.975523,0.960782,1.279098,-0.142960,0.000000,0.000000,0.000000,0.000000,0.000000,0.000000
13033883.000000,-2.398076,-1.662200,1.053596,-1.369655,1.778086,1.106763,-0.558171,0.696082,0.011645,0.514126,-0.642395,-0.688908,0.992574,-0.231744,21.021467,33.699383,-21.810196,0.578795,0.906766,1.448470,-0.130143,0.000000,0.000000,0.000000,0.000000,0.000000,0.000000
13033884.000000,-2.397343,-1.662189,1.054164,-1.370345,1.777393,1.107823,-0.558393,0.695274,0.008954,0.530478,-0.653220,-0.689651,1.013835,-0.229208,19.093367,33.699383,-21.591995,-0.036134,0.871061,1.584884,-0.155778,0.000000,0.000000,0.000000,0.000000,0.000000,0.000000
13033885.000000,-2.396623,-1.662184,1.054739,-1.371040,1.776686,1.108918,-0.558618,0.707065,0.002388,0.559491,-0.663783,-0.688843,1.036549,-0.227808,16.590010,33.647808,-21.100052,-1.000185,0.799650,1.624252,-0.155778,0.000000,0.000000,0.000000,0.000000,0.000000,0.000000
13033886.000000,-2.395897,-1.662179,1.055349,-1.371763,1.775988,1.110019,-0.558843,0.714591,0.004003,0.576408,-0.674911,-0.690612,1.092138,-0.223618,13.844647,33.429607,-20.362137,-1.742067,0.644010,1.682845,-0.130143,0.000000,0.000000,0.000000,0.000000,0.000000,0.000000
13033887.000000,-2.395180,-1.662176,1.055979,-1.372467,1.775310,1.111136,-0.559058,0.722861,0.005889,0.588227,-0.679657,-0.683097,1.099638,-0.223059,11.194501,33.159832,-19.552811,-2.535524,0.494779,1.800033,-0.155778,0.000000,0.000000,0.000000,0.000000,0.000000,0.000000
13033888.000000,-2.394458,-1.662182,1.056622,-1.373175,1.774631,1.112291,-0.559279,0.727422,0.004698,0.601847,-0.683219,-0.675948,1.123477,-0.219780,8.742719,32.989239,-18.767288,-3.277406,0.351041,1.754256,-0.142960,0.000000,0.000000,0.000000,0.000000,0.000000,0.000000
13033889.000000,-2.393731,-1.662202,1.057284,-1.373872,1.773983,1.113449,-0.559497,0.722617,-0.001247,0.613222,-0.686721,-0.672320,1.136064,-0.221701,6.493268,33.036846,-18.033340,-3.797121,0.183500,1.630660,-0.136552,0.000000,0.000000,0.000000,0.000000,0.000000,0.000000
13033890.000000,-2.393009,-1.662216,1.057942,-1.374567,1.773315,1.114636,-0.559721,0.722426,-0.004419,0.627819,-0.683528,-0.667789,1.155273,-0.223999,4.485822,33.036846,-17.148636,-4.289064,0.112089,1.572067,-0.089860,0.000000,0.000000,0.000000,0.000000,0.000000,0.000000
13033891.000000,-2.392282,-1.662245,1.058595,-1.375265,1.772669,1.115837,-0.559936,0.718366,-0.011037,0.633152,-0.677892,-0.653742,1.164093,-0.217787,2.728315,33.235210,-16.363113,-4.487428,0.015958,1.578475,-0.136552,0.000000,0.000000,0.000000,0.000000,0.000000,0.000000
13033892.000000,-2.391551,-1.662274,1.059261,-1.375931,1.772020,1.117065,-0.560152,0.723183,-0.016582,0.642383,-0.671298,-0.648779,1.181436,-0.219731,1.216779,33.354229,-15.676773,-4.757204,0.064481,1.409103,-0.142960,0.000000,0.000000,0.000000,0.000000,0.000000,0.000000
13033893.000000,-2.390837,-1.662303,1.059918,-1.376608,1.771373,1.118308,-0.560368,0.718767,-0.018970,0.647650,-0.669409,-0.641491,1.187751,-0.217325,-0.044818,33.405804,-14.915054,-4.856386,0.183500,1.331283,-0.122819,0.000000,0.000000,0.000000,0.000000,0.000000,0.000000
13033894.000000,-2.390114,-1.662335,1.060593,-1.377283,1.770733,1.119556,-0.560578,0.714791,-0.025368,0.657186,-0.671386,-0.644377,1.205411,-0.215493,-1.084246,33.405804,-14.327896,-4.685792,0.249418,1.129867,-0.103593,0.000000,0.000000,0.000000,0.000000,0.000000,0.000000
13033895.000000,-2.389393,-1.662363,1.061271,-1.377972,1.770108,1.120821,-0.560780,0.716085,-0.025326,0.660625,-0.678354,-0.638235,1.213573,-0.209977,-2.024493,33.282818,-13.689163,-4.364442,0.381254,0.908309,-0.175919,0.000000,0.000000,0.000000,0.000000,0.000000,0.000000
13033896.000000,-2.388674,-1.662396,1.061948,-1.378674,1.769471,1.122076,-0.560996,0.712859,-0.028090,0.664169,-0.682542,-0.634088,1.212820,-0.215609,-2.718768,33.183636,-13.197220,-3.745546,0.542386,0.863448,-0.103593,0.000000,0.000000,0.000000,0.000000,0.000000,0.000000
13033897.000000,-2.387953,-1.662430,1.062643,-1.379358,1.768863,1.123288,-0.561199,0.712138,-0.030707,0.673544,-0.684196,-0.626167,1.207086,-0.210989,-3.286089,33.088421,-12.804459,-3.202028,0.559781,0.960494,-0.163102,0.000000,0.000000,0.000000,0.000000,0.000000,0.000000
13033898.000000,-2.387247,-1.662450,1.063330,-1.380040,1.768252,1.124524,-0.561399,0.709673,-0.028004,0.667170,-0.682624,-0.619374,1.208233,-0.204058,-3.758196,32.790874,-12.387894,-2.856874,0.440763,1.006271,-0.196061,0.000000,0.000000,0.000000,0.000000,0.000000,0.000000
13033899.000000,-2.386546,-1.662471,1.064036,-1.380716,1.767645,1.125746,-0.561604,0.699397,-0.023492,0.678146,-0.679109,-0.617365,1.210346,-0.206888,-4.004168,32.497295,-12.189529,-2.634706,0.381254,0.954086,-0.149369,0.000000,0.000000,0.000000,0.000000,0.000000,0.000000
13033900.000000,-2.385848,-1.662485,1.064745,-1.381371,1.767055,1.126966,-0.561806,0.705674,-0.021784,0.684045,-0.678168,-0.606099,1.204829,-0.207107,-4.250140,32.132305,-11.943558,-2.606935,0.285123,1.096908,-0.163102,0.000000,0.000000,0.000000,0.000000,0.000000,0.000000
13033901.000000,-2.385144,-1.662492,1.065453,-1.382027,1.766466,1.128162,-0.562017,0.702210,-0.016617,0.689140,-0.669568,-0.597411,1.194112,-0.208016,-4.500079,31.715740,-11.848343,-2.606935,0.219205,1.377059,-0.136552,0.000000,0.000000,0.000000,0.000000,0.000000,0.000000
13033902.000000,-2.384443,-1.662495,1.066184,-1.382671,1.765871,1.129355,-0.562217,0.697139,-0.012625,0.702634,-0.657391,-0.591026,1.194664,-0.206285,-4.646868,31.275372,-11.796768,-2.658510,0.243009,1.507064,-0.175919,0.000000,0.000000,0.000000,0.000000,0.000000,0.000000
13033903.000000,-2.383756,-1.662489,1.066917,-1.383326,1.765281,1.130580,-0.562424,0.696581,-0.005240,0.722109,-0.652255,-0.582415,1.197966,-0.202227,-4.773821,30.759624,-11.673782,-2.682314,0.297025,1.357833,-0.155778,0.000000,0.000000,0.000000,0.000000,0.000000,0.000000
13033904.000000,-2.383056,-1.662478,1.067649,-1.383970,1.764688,1.131825,-0.562631,0.697214,-0.000093,0.729191,-0.647075,-0.579957,1.206674,-0.200285,-4.944415,30.247845,-11.602371,-2.781496,0.344633,1.084090,-0.116410,0.000000,0.000000,0.000000,0.000000,0.000000,0.000000
13033905.000000,-2.382358,-1.662458,1.068402,-1.384590,1.764124,1.133028,-0.562826,0.689557,0.004624,0.733239,-0.640220,-0.569700,1.203059,-0.194516,-5.118975,29.660686,-11.602371,-3.027467,0.297025,0.947677,-0.182328,0.000000,0.000000,0.000000,0.000000,0.000000,0.000000
13033906.000000,-2.381670,-1.662439,1.069139,-1.385212,1.763543,1.134242,-0.563031,0.690062,0.009218,0.737585,-0.629174,-0.572448,1.193410,-0.194542,-5.293536,29.168743,-11.404007,-3.225832,0.303434,0.915633,-0.149369,0.000000,0.000000,0.000000,0.000000,0.000000,0.000000
13033907.000000,-2.380980,-1.662425,1.069884,-1.385829,1.762986,1.135434,-0.563228,0.684395,0.006664,0.733809,-0.636161,-0.570796,1.188328,-0.197545,-5.392718,28.803753,-11.039017,-3.348818,0.267728,0.895492,-0.155778,0.000000,0.000000,0.000000,0.000000,0.000000,0.000000
13033908.000000,-2.380300,-1.662408,1.070641,-1.386448,1.762423,1.136630,-0.563432,0.681699,0.011005,0.743633,-0.629167,-0.572056,1.182613,-0.194816,-5.487933,28.434795,-10.693863,-3.475771,0.207303,1.039230,-0.155778,0.000000,0.000000,0.000000,0.000000,0.000000,0.000000
13033909.000000,-2.379608,-1.662385,1.071396,-1.387066,1.761865,1.137831,-0.563629,0.682040,0.012002,0.750093,-0.625243,-0.560226,1.172417,-0.193705,-5.563311,28.046001,-10.372513,-3.523378,0.064481,1.136276,-0.142960,0.000000,0.000000,0.000000,0.000000,0.000000,0.000000
13033910.000000,-2.378918,-1.662360,1.072172,-1.387665,1.761321,1.139028,-0.563822,0.683619,0.013283,0.757445,-0.616585,-0.557488,1.177351,-0.191314,-5.662493,27.629436,-10.102737,-3.570986,-0.072848,1.136276,-0.169511,0.000000,0.000000,0.000000,0.000000,0.000000,0.000000
13033911.000000,-2.378242,-1.662341,1.072929,-1.388268,1.760756,1.140254,-0.564019,0.679853,0.013302,0.760566,-0.611567,-0.556402,1.174339,-0.191619,-5.686297,27.383465,-9.662369,-3.646364,-0.025240,0.993453,-0.142960,0.000000,0.000000,0.000000,0.000000,0.000000,0.000000
13033912.000000,-2.377541,-1.662325,1.073712,-1.388873,1.760197,1.141483,-0.564210,0.684185,0.012435,0.776174,-0.606805,-0.566590,1.187663,-0.190508,-5.936236,27.189068,-9.392593,-3.646364,0.015958,0.727035,-0.149369,0.000000,0.000000,0.000000,0.000000,0.000000,0.000000
13033913.000000,-2.376853,-1.662310,1.074508,-1.389468,1.759648,1.142707,-0.564405,0.688179,0.014041,0.779766,-0.608789,-0.562801,1.187154,-0.188340,-6.182208,27.042278,-9.146622,-3.670168,0.046171,0.622665,-0.182328,0.000000,0.000000,0.000000,0.000000,0.000000,0.000000
13033914.000000,-2.376147,-1.662300,1.075298,-1.390068,1.759092,1.143936,-0.564607,0.693210,0.013152,0.791336,-0.605102,-0.562050,1.187633,-0.199229,-6.531329,26.990704,-8.952225,-3.622560,0.159696,0.616256,-0.110001,0.000000,0.000000,0.000000,0.000000,0.000000,0.000000
13033915.000000,-2.375445,-1.662294,1.076110,-1.390652,1.758548,1.145145,-0.564794,0.695291,0.011682,0.796063,-0.599771,-0.553980,1.189012,-0.193547,-6.801104,26.990704,-8.753860,-3.721742,0.183500,0.603439,-0.182328,0.000000,0.000000,0.000000,0.000000,0.000000,0.000000
13033916.000000,-2.374760,-1.662297,1.076926,-1.391238,1.758008,1.146378,-0.564988,0.694418,0.005722,0.795164,-0.594212,-0.546963,1.186362,-0.192095,-6.975665,27.089886,-8.682449,-3.892336,0.189908,0.616256,-0.175919,0.000000,0.000000,0.000000,0.000000,0.000000,0.000000
13033917.000000,-2.374068,-1.662292,1.077765,-1.391811,1.757463,1.147583,-0.565179,0.684227,0.004563,0.807209,-0.586284,-0.544819,1.188344,-0.188316,-7.098650,27.066082,-8.630875,-4.118471,0.147794,0.720626,-0.130143,0.000000,0.000000,0.000000,0.000000,0.000000,0.000000
13033918.000000,-2.373378,-1.662290,1.078612,-1.392371,1.756938,1.148806,-0.565364,0.698231,0.002628,0.822096,-0.576128,-0.536321,1.187991,-0.187323,-7.320818,27.089886,-8.607071,-4.364442,0.027860,0.863448,-0.175919,0.000000,0.000000,0.000000,0.000000,0.000000,0.000000
13033919.000000,-2.372676,-1.662292,1.079467,-1.392944,1.756400,1.150025,-0.565553,0.700066,0.000189,0.837614,-0.571347,-0.537404,1.188364,-0.189246,-7.618365,27.161297,-8.730057,-4.439821,0.004056,0.974227,-0.130143,0.000000,0.000000,0.000000,0.000000,0.000000,0.000000
13033920.000000,-2.371966,-1.662298,1.080327,-1.393501,1.755870,1.151231,-0.565734,0.698387,-0.001557,0.845654,-0.571398,-0.531261,1.188448,-0.183291,-8.038898,27.236675,-8.654678,-4.562807,0.015958,1.012679,-0.155778,0.000000,0.000000,0.000000,0.000000,0.000000,0.000000
13033921.000000,-2.371260,-1.662297,1.081188,-1.394076,1.755341,1.152446,-0.565915,0.705883,-0.000421,0.867339,-0.566943,-0.528565,1.181428,-0.179406,-8.483233,27.212872,-8.607071,-4.463624,0.081876,1.031905,-0.163102,0.000000,0.000000,0.000000,0.000000,0.000000,0.000000
13033922.000000,-2.370542,-1.662295,1.082074,-1.394651,1.754806,1.153673,-0.566099,0.707043,0.000322,0.876383,-0.566819,-0.529344,1.185608,-0.178522,-9.054523,27.189068,-8.607071,-4.463624,0.117582,1.006271,-0.122819,0.000000,0.000000,0.000000,0.000000,0.000000,0.000000
13033923.000000,-2.369826,-1.662288,1.082969,-1.395209,1.754296,1.154879,-0.566269,0.705213,0.002568,0.878579,-0.566840,-0.518269,1.185041,-0.177949,-9.475055,27.089886,-8.559464,-4.463624,0.088285,0.934859,-0.196061,0.000000,0.000000,0.000000,0.000000,0.000000,0.000000
13033924.000000,-2.369113,-1.662281,1.083859,-1.395768,1.753774,1.156114,-0.566447,0.708806,0.003501,0.885988,-0.559196,-0.519017,1.196404,-0.177315,-9.994769,27.014507,-8.412674,-4.487428,0.058073,0.739852,-0.163102,0.000000,0.000000,0.000000,0.000000,0.000000,0.000000
13033925.000000,-2.368402,-1.662270,1.084754,-1.396313,1.753267,1.157312,-0.566622,0.711391,0.008677,0.887096,-0.562432,-0.521465,1.195028,-0.174973,-10.415301,26.867718,-8.115128,-4.586610,0.022367,0.739852,-0.175919,0.000000,0.000000,0.000000,0.000000,0.000000,0.000000
13033926.000000,-2.367712,-1.662259,1.085679,-1.396856,1.752760,1.158506,-0.566803,0.705257,0.008824,0.894906,-0.557851,-0.517955,1.189513,-0.174692,-10.613666,26.748699,-7.992142,-4.709596,0.004056,0.889083,-0.136552,0.000000,0.000000,0.000000,0.000000,0.000000,0.000000
13033927.000000,-2.367002,-1.662248,1.086606,-1.397389,1.752257,1.159705,-0.566972,0.709331,0.008951,0.907857,-0.542739,-0.512539,1.180014,-0.171612,-11.010394,26.625713,-7.992142,-4.907960,-0.072848,1.006271,-0.182328,0.000000,0.000000,0.000000,0.000000,0.000000,0.000000
13033928.000000,-2.366296,-1.662237,1.087550,-1.397925,1.751761,1.160905,-0.567147,0.709477,0.007874,0.917367,-0.538901,-0.503063,1.184227,-0.170975,-11.256366,26.550335,-7.920731,-4.955568,-0.079257,0.974227,-0.188737,0.000000,0.000000,0.000000,0.000000,0.000000,0.000000
13033929.000000,-2.365600,-1.662234,1.088500,-1.398453,1.751251,1.162117,-0.567335,0.703915,0.007408,0.929023,-0.538310,-0.500037,1.186172,-0.172822,-11.553912,26.597942,-7.968338,-5.130128,-0.055453,0.908309,-0.122819,0.000000,0.000000,0.000000,0.000000,0.000000,0.000000
13033930.000000,-2.364893,-1.662225,1.089477,-1.398979,1.750756,1.163313,-0.567499,0.705431,0.009294,0.945329,-0.529216,-0.493251,1.193840,-0.169156,-11.851459,26.550335,-8.115128,-5.328493,-0.055453,0.857040,-0.196061,0.000000,0.000000,0.000000,0.000000,0.000000,0.000000
13033931.000000,-2.364202,-1.662224,1.090476,-1.399500,1.750268,1.164513,-0.567676,0.704971,0.007986,0.957316,-0.524092,-0.497641,1.188159,-0.170492,-12.049823,26.625713,-8.337296,-5.451478,-0.055453,0.850631,-0.155778,0.000000,0.000000,0.000000,0.000000,0.000000,0.000000
13033932.000000,-2.363496,-1.662218,1.091459,-1.400011,1.749780,1.165712,-0.567850,0.702307,0.007162,0.974887,-0.522416,-0.489431,1.190457,-0.174494,-12.394977,26.697124,-8.384903,-5.697450,-0.091158,0.934859,-0.136552,0.000000,0.000000,0.000000,0.000000,0.000000,0.000000
13033933.000000,-2.362792,-1.662222,1.092464,-1.400518,1.749304,1.166895,-0.568014,0.699774,0.004331,0.981626,-0.516817,-0.485990,1.187436,-0.171208,-12.621112,26.867718,-8.436478,-5.772829,-0.067355,1.019088,-0.188737,0.000000,0.000000,0.000000,0.000000,0.000000,0.000000
13033934.000000,-2.362102,-1.662229,1.093452,-1.401028,1.748816,1.168083,-0.568190,0.696488,0.002188,0.973261,-0.510934,-0.486096,1.186965,-0.172125,-12.867084,27.066082,-8.313492,-5.919618,-0.091158,1.123458,-0.149369,0.000000,0.000000,0.000000,0.000000,0.000000,0.000000
13033935.000000,-2.361407,-1.662232,1.094460,-1.401535,1.748343,1.169256,-0.568358,0.691454,0.000073,0.979338,-0.511732,-0.480351,1.203208,-0.172332,-13.089252,27.161297,-8.190506,-5.994997,-0.150668,1.175643,-0.122819,0.000000,0.000000,0.000000,0.000000,0.000000,0.000000
13033936.000000,-2.360707,-1.662237,1.095486,-1.402030,1.747882,1.170450,-0.568522,0.686160,-0.001640,0.989209,-0.507258,-0.480072,1.199719,-0.169892,-13.311419,27.260479,-8.091324,-6.117982,-0.234896,1.104232,-0.182328,0.000000,0.000000,0.000000,0.000000,0.000000,0.000000
13033937.000000,-2.360026,-1.662238,1.096492,-1.402526,1.747405,1.171659,-0.568692,0.681969,-0.001177,0.999044,-0.501965,-0.477897,1.192642,-0.170532,-13.509784,27.284283,-7.773941,-6.292543,-0.228488,0.947677,-0.169511,0.000000,0.000000,0.000000,0.000000,0.000000,0.000000
13033938.000000,-2.359338,-1.662249,1.097524,-1.403023,1.746939,1.172838,-0.568857,0.681140,-0.003306,1.005785,-0.500787,-0.470784,1.194175,-0.166635,-13.708148,27.407269,-7.476395,-6.268739,-0.133273,0.869857,-0.142960,0.000000,0.000000,0.000000,0.000000,0.000000,0.000000
13033939.000000,-2.358654,-1.662252,1.098563,-1.403520,1.746471,1.174027,-0.569015,0.692303,-0.001938,1.007318,-0.496664,-0.470840,1.188630,-0.160841,-14.029498,27.407269,-7.059830,-6.363954,-0.133273,0.836898,-0.182328,0.000000,0.000000,0.000000,0.000000,0.000000,0.000000
13033940.000000,-2.357984,-1.662260,1.099617,-1.404018,1.745995,1.175218,-0.569184,0.680929,-0.002855,1.033733,-0.496041,-0.463540,1.189309,-0.163969,-14.029498,27.482647,-7.012222,-6.490907,-0.079257,0.804855,-0.155778,0.000000,0.000000,0.000000,0.000000,0.000000,0.000000
13033941.000000,-2.357313,-1.662267,1.100674,-1.404494,1.745549,1.176406,-0.569348,0.673986,-0.006037,1.037984,-0.486109,-0.454707,1.193717,-0.164389,-14.029498,27.530254,-6.766251,-6.760683,-0.121371,0.700484,-0.182328,0.000000,0.000000,0.000000,0.000000,0.000000,0.000000
13033942.000000,-2.356660,-1.662268,1.101743,-1.404970,1.745100,1.177613,-0.569518,0.669917,-0.004176,1.050673,-0.481260,-0.450136,1.200355,-0.167695,-13.954120,27.530254,-6.718643,-7.006654,-0.216586,0.551253,-0.130143,0.000000,0.000000,0.000000,0.000000,0.000000,0.000000
13033943.000000,-2.356007,-1.662273,1.102842,-1.405436,1.744653,1.178790,-0.569675,0.656649,-0.004011,1.065404,-0.486114,-0.456663,1.201198,-0.162095,-13.783526,27.577862,-6.790054,-7.232790,-0.246798,0.583297,-0.163102,0.000000,0.000000,0.000000,0.000000,0.000000,0.000000
13033944.000000,-2.355361,-1.662276,1.103949,-1.405911,1.744211,1.179977,-0.569835,0.652979,-0.003316,1.078083,-0.480558,-0.457565,1.204738,-0.158149,-13.759723,27.601665,-6.766251,-7.427186,-0.330111,0.654708,-0.182328,0.000000,0.000000,0.000000,0.000000,0.000000,0.000000
13033945.000000,-2.354707,-1.662271,1.105057,-1.406397,1.743758,1.181184,-0.569997,0.651130,-0.003373,1.085072,-0.484842,-0.452575,1.206187,-0.158311,-13.783526,27.530254,-6.841629,-7.403383,-0.306307,0.629073,-0.130143,0.000000,0.000000,0.000000,0.000000,0.000000,0.000000
13033946.000000,-2.354045,-1.662270,1.106180,-1.406874,1.743317,1.182373,-0.570149,0.649795,-0.001414,1.103014,-0.480751,-0.446497,1.209396,-0.155291,-13.954120,27.482647,-6.865433,-7.403383,-0.222994,0.557662,-0.155778,0.000000,0.000000,0.000000,0.000000,0.000000,0.000000
13033947.000000,-2.353394,-1.662268,1.107300,-1.407351,1.742876,1.183582,-0.570308,0.651480,-0.002561,1.109954,-0.479191,-0.447558,1.209146,-0.154540,-14.104877,27.407269,-6.865433,-7.454957,-0.222994,0.492660,-0.136552,0.000000,0.000000,0.000000,0.000000,0.000000,0.000000
13033948.000000,-2.352730,-1.662262,1.108441,-1.407822,1.742429,1.184763,-0.570463,0.652460,0.000191,1.123930,-0.471460,-0.450075,1.206294,-0.153838,-14.327044,27.308086,-6.790054,-7.526369,-0.192782,0.544845,-0.130143,0.000000,0.000000,0.000000,0.000000,0.000000,0.000000
13033949.000000,-2.352090,-1.662256,1.109588,-1.408283,1.742000,1.185954,-0.570612,0.650615,0.002596,1.127492,-0.467579,-0.444742,1.196517,-0.151024,-14.378619,27.189068,-6.544083,-7.649354,-0.222994,0.694076,-0.175919,0.000000,0.000000,0.000000,0.000000,0.000000,0.000000
13033950.000000,-2.351443,-1.662244,1.110723,-1.408751,1.741562,1.187152,-0.570764,0.646558,0.004927,1.128401,-0.465167,-0.443576,1.195684,-0.151975,-14.450030,27.042278,-6.325882,-7.700929,-0.282504,0.785628,-0.130143,0.000000,0.000000,0.000000,0.000000,0.000000,0.000000
13033951.000000,-2.350793,-1.662236,1.111898,-1.409205,1.741131,1.188334,-0.570911,0.643423,0.006541,1.136469,-0.459221,-0.439582,1.193190,-0.150113,-14.525409,26.895489,-6.274307,-7.847719,-0.324618,0.843307,-0.169511,0.000000,0.000000,0.000000,0.000000,0.000000,0.000000
13033952.000000,-2.350163,-1.662218,1.113070,-1.409663,1.740719,1.189532,-0.571061,0.636178,0.009424,1.169265,-0.459630,-0.428324,1.183791,-0.149505,-14.525409,26.673321,-6.302078,-7.923097,-0.461947,0.792037,-0.188737,0.000000,0.000000,0.000000,0.000000,0.000000,0.000000
13033953.000000,-2.349512,-1.662206,1.114285,-1.410125,1.740287,1.190717,-0.571210,0.638987,0.010173,1.187849,-0.457928,-0.428661,1.200559,-0.150568,-14.672198,26.502728,-6.520279,-7.946901,-0.497653,0.720626,-0.169511,0.000000,0.000000,0.000000,0.000000,0.000000,0.000000
13033954.000000,-2.348872,-1.662192,1.115531,-1.410580,1.739858,1.191903,-0.571357,0.645698,0.010698,1.203519,-0.459778,-0.431500,1.183631,-0.151827,-14.747577,26.332134,-7.012222,-7.970705,-0.473849,0.739852,-0.149369,0.000000,0.000000,0.000000,0.000000,0.000000,0.000000
13033955.000000,-2.348250,-1.662187,1.116766,-1.411031,1.739437,1.193093,-0.571502,0.640379,0.008282,1.213320,-0.453643,-0.428198,1.172539,-0.150483,-14.699969,26.280560,-7.428787,-7.998476,-0.438143,0.778304,-0.169511,0.000000,0.000000,0.000000,0.000000,0.000000,0.000000
13033956.000000,-2.347618,-1.662184,1.118027,-1.411470,1.739005,1.194258,-0.571648,0.633748,0.006593,1.228140,-0.449777,-0.438869,1.164630,-0.150804,-14.699969,26.232952,-7.845352,-8.169069,-0.365817,0.869857,-0.163102,0.000000,0.000000,0.000000,0.000000,0.000000,0.000000
13033957.000000,-2.346991,-1.662182,1.119306,-1.411913,1.738583,1.195436,-0.571797,0.636881,0.004920,1.245709,-0.444033,-0.429850,1.162914,-0.152170,-14.672198,26.209148,-8.190506,-8.343630,-0.312716,0.928451,-0.116410,0.000000,0.000000,0.000000,0.000000,0.000000,0.000000
13033958.000000,-2.346370,-1.662181,1.120563,-1.412359,1.738170,1.196617,-0.571935,0.633908,0.005134,1.251812,-0.443496,-0.426776,1.158831,-0.149441,-14.648395,26.256756,-8.384903,-8.490419,-0.287997,0.980636,-0.175919,0.000000,0.000000,0.000000,0.000000,0.000000,0.000000
13033959.000000,-2.345748,-1.662190,1.121829,-1.412797,1.737762,1.197781,-0.572080,0.627864,0.003982,1.248400,-0.442416,-0.423743,1.159195,-0.150275,-14.573016,26.649517,-8.682449,-8.541994,-0.287997,1.058456,-0.163102,0.000000,0.000000,0.000000,0.000000,0.000000,0.000000
13033960.000000,-2.345137,-1.662212,1.123053,-1.413254,1.737359,1.198963,-0.572228,0.625512,-0.003870,1.237078,-0.444596,-0.410739,1.159071,-0.146988,-14.327044,27.506451,-8.952225,-8.419008,-0.306307,1.096908,-0.122819,0.000000,0.000000,0.000000,0.000000,0.000000,0.000000
13033961.000000,-2.344516,-1.662232,1.124283,-1.413708,1.736975,1.200138,-0.572363,0.620029,-0.011650,1.235253,-0.461725,-0.408512,1.165994,-0.145840,-13.981891,28.581585,-9.515579,-8.196840,-0.336520,1.129867,-0.175919,0.000000,0.000000,0.000000,0.000000,0.000000,0.000000
13033962.000000,-2.343900,-1.662254,1.125497,-1.414167,1.736573,1.201338,-0.572506,0.621607,-0.016107,1.220694,-0.460136,-0.406182,1.175347,-0.143257,-13.632770,29.855083,-10.178116,-8.022280,-0.318209,1.058456,-0.142960,0.000000,0.000000,0.000000,0.000000,0.000000,0.000000
13033963.000000,-2.343283,-1.662268,1.126703,-1.414631,1.736181,1.202547,-0.572641,0.620332,-0.020048,1.214977,-0.461334,-0.394561,1.179754,-0.143791,-13.164630,31.128582,-11.134232,-7.847719,-0.300814,1.031905,-0.155778,0.000000,0.000000,0.000000,0.000000,0.000000,0.000000
13033964.000000,-2.342675,-1.662274,1.127912,-1.415072,1.735803,1.203732,-0.572777,0.607951,-0.019507,1.219798,-0.454355,-0.387825,1.185802,-0.140021,-12.569537,32.302898,-12.018936,-7.899293,-0.246798,1.058456,-0.175919,0.000000,0.000000,0.000000,0.000000,0.000000,0.000000
13033965.000000,-2.342078,-1.662281,1.129126,-1.415522,1.735407,1.204925,-0.572922,0.604408,-0.018699,1.221572,-0.454794,-0.387587,1.184478,-0.140209,-12.073627,33.405804,-13.149612,-7.970705,-0.162570,1.188461,-0.116410,0.000000,0.000000,0.000000,0.000000,0.000000,0.000000
13033966.000000,-2.341483,-1.662280,1.130356,-1.415973,1.735012,1.206094,-0.573050,0.599066,-0.014598,1.228973,-0.449744,-0.387226,1.179239,-0.130814,-11.506305,34.310345,-14.081924,-8.046083,-0.091158,1.396285,-0.182328,0.000000,0.000000,0.000000,0.000000,0.000000,0.000000
13033967.000000,-2.340901,-1.662279,1.131596,-1.416413,1.734620,1.207288,-0.573189,0.595980,-0.009648,1.230917,-0.446702,-0.383957,1.183628,-0.132400,-11.058002,35.044292,-14.990433,-8.220644,0.027860,1.500655,-0.142960,0.000000,0.000000,0.000000,0.000000,0.000000,0.000000
13033968.000000,-2.340307,-1.662276,1.132834,-1.416868,1.734225,1.208478,-0.573319,0.593402,-0.007533,1.241272,-0.448846,-0.384116,1.175667,-0.130062,-10.736651,35.655254,-15.994156,-8.169069,0.117582,1.630660,-0.182328,0.000000,0.000000,0.000000,0.000000,0.000000,0.000000
13033969.000000,-2.339715,-1.662270,1.134084,-1.417315,1.733853,1.209646,-0.573454,0.590742,-0.006150,1.241809,-0.445675,-0.378730,1.176980,-0.130748,-10.391498,36.123394,-16.779678,-8.220644,0.040677,1.714889,-0.175919,0.000000,0.000000,0.000000,0.000000,0.000000,0.000000
13033970.000000,-2.339137,-1.662276,1.135323,-1.417772,1.733463,1.210834,-0.573587,0.588037,-0.004111,1.248366,-0.450609,-0.380072,1.177467,-0.126676,-10.145526,36.682781,-17.418411,-8.097658,0.100187,1.637069,-0.163102,0.000000,0.000000,0.000000,0.000000,0.000000,0.000000
13033971.000000,-2.338557,-1.662276,1.136575,-1.418217,1.733087,1.212023,-0.573713,0.584175,-0.006019,1.246243,-0.446155,-0.377423,1.177710,-0.127734,-9.895587,37.099346,-17.858780,-8.169069,0.064481,1.578475,-0.169511,0.000000,0.000000,0.000000,0.000000,0.000000,0.000000
13033972.000000,-2.337981,-1.662289,1.137835,-1.418648,1.732713,1.213186,-0.573844,0.575102,-0.008930,1.246768,-0.444992,-0.375711,1.176238,-0.129968,-9.625812,37.567486,-18.203934,-8.292055,0.022367,1.559249,-0.149369,0.000000,0.000000,0.000000,0.000000,0.000000,0.000000
13033973.000000,-2.337426,-1.662311,1.139093,-1.419080,1.732336,1.214346,-0.573972,0.569177,-0.013557,1.248729,-0.439818,-0.374975,1.171021,-0.125372,-9.276690,38.130840,-18.672073,-8.442812,0.004056,1.617843,-0.155778,0.000000,0.000000,0.000000,0.000000,0.000000,0.000000
13033974.000000,-2.336878,-1.662337,1.140358,-1.419488,1.731978,1.215495,-0.574099,0.561829,-0.018941,1.245107,-0.431287,-0.380156,1.169991,-0.126231,-8.808551,38.642620,-18.914078,-8.839540,-0.067355,1.656295,-0.175919,0.000000,0.000000,0.000000,0.000000,0.000000,0.000000
13033975.000000,-2.336339,-1.662373,1.141663,-1.419898,1.731602,1.216652,-0.574232,0.560187,-0.024810,1.259835,-0.423327,-0.376577,1.173945,-0.123975,-8.411822,39.229778,-19.552811,-9.184694,-0.019747,1.689254,-0.142960,0.000000,0.000000,0.000000,0.000000,0.000000,0.000000
13033976.000000,-2.335804,-1.662414,1.142947,-1.420311,1.731238,1.217806,-0.574356,0.549299,-0.029111,1.277758,-0.418001,-0.365956,1.165226,-0.120367,-7.939715,39.816936,-20.120132,-9.529848,-0.043551,1.800033,-0.163102,0.000000,0.000000,0.000000,0.000000,0.000000,0.000000
13033977.000000,-2.335267,-1.662460,1.144259,-1.420716,1.730892,1.218956,-0.574491,0.546475,-0.032269,1.279389,-0.410466,-0.358614,1.167924,-0.124272,-7.519183,40.404095,-20.877884,-9.752016,-0.072848,1.773483,-0.136552,0.000000,0.000000,0.000000,0.000000,0.000000,0.000000
13033978.000000,-2.334747,-1.662503,1.145556,-1.421123,1.730522,1.220122,-0.574618,0.536571,-0.033479,1.289076,-0.407662,-0.365386,1.161496,-0.120375,-7.174029,40.943645,-21.516617,-9.950380,-0.007845,1.670028,-0.163102,0.000000,0.000000,0.000000,0.000000,0.000000,0.000000
13033979.000000,-2.334219,-1.662550,1.146848,-1.421527,1.730156,1.221260,-0.574750,0.531198,-0.036780,1.286224,-0.406245,-0.375995,1.154057,-0.125087,-6.852679,41.459393,-21.861771,-10.025759,0.015958,1.689254,-0.116410,0.000000,0.000000,0.000000,0.000000,0.000000,0.000000
13033980.000000,-2.333706,-1.662595,1.148158,-1.421942,1.729789,1.222410,-0.574878,0.527095,-0.038421,1.291269,-0.407675,-0.374596,1.142001,-0.126376,-6.479754,41.923565,-22.302139,-9.974184,0.100187,1.741439,-0.116410,0.000000,0.000000,0.000000,0.000000,0.000000,0.000000
13033981.000000,-2.333190,-1.662640,1.149416,-1.422343,1.729435,1.223551,-0.574991,0.521046,-0.039512,1.279242,-0.402405,-0.368169,1.133557,-0.120169,-6.233782,42.387737,-22.254532,-9.997988,0.052579,1.930038,-0.175919,0.000000,0.000000,0.000000,0.000000,0.000000,0.000000
13033982.000000,-2.332685,-1.662680,1.150705,-1.422758,1.729071,1.224694,-0.575123,0.515912,-0.041694,1.273954,-0.408287,-0.366027,1.132398,-0.126137,-5.860857,42.780499,-22.302139,-9.775820,0.064481,1.981307,-0.097184,0.000000,0.000000,0.000000,0.000000,0.000000,0.000000
13033983.000000,-2.332184,-1.662718,1.151970,-1.423157,1.728712,1.225858,-0.575239,0.514835,-0.038587,1.269566,-0.400199,-0.363322,1.137357,-0.123683,-5.587115,43.074078,-22.202957,-9.775820,0.052579,1.936446,-0.196061,0.000000,0.000000,0.000000,0.000000,0.000000,0.000000
13033984.000000,-2.331689,-1.662745,1.153273,-1.423570,1.728370,1.226999,-0.575369,0.503727,-0.037450,1.274418,-0.405243,-0.355332,1.140945,-0.128770,-5.218157,43.173260,-22.425125,-9.605227,0.004056,1.962081,-0.122819,0.000000,0.000000,0.000000,0.000000,0.000000,0.000000
13033985.000000,-2.331206,-1.662777,1.154578,-1.423982,1.728017,1.228151,-0.575487,0.501310,-0.035967,1.283440,-0.407046,-0.356428,1.144206,-0.122396,-4.896807,43.320049,-22.647293,-9.355288,0.010465,1.981307,-0.182328,0.000000,0.000000,0.000000,0.000000,0.000000,0.000000
13033986.000000,-2.330715,-1.662805,1.155854,-1.424401,1.727660,1.229313,-0.575613,0.497173,-0.032799,1.286212,-0.410215,-0.352742,1.143023,-0.126462,-4.599261,43.367657,-22.742508,-9.109316,0.040677,1.949264,-0.136552,0.000000,0.000000,0.000000,0.000000,0.000000,0.000000
13033987.000000,-2.330237,-1.662828,1.157171,-1.424816,1.727305,1.230455,-0.575733,0.487595,-0.031534,1.294706,-0.413504,-0.349172,1.146180,-0.126755,-4.178729,43.343853,-23.186844,-8.863344,0.159696,1.936446,-0.163102,0.000000,0.000000,0.000000,0.000000,0.000000,0.000000
13033988.000000,-2.329768,-1.662851,1.158486,-1.425234,1.726963,1.231606,-0.575853,0.481560,-0.027430,1.294149,-0.416919,-0.346239,1.139592,-0.122726,-3.904986,43.268475,-23.555801,-8.688784,0.147794,1.962081,-0.175919,0.000000,0.000000,0.000000,0.000000,0.000000,0.000000
13033989.000000,-2.329297,-1.662872,1.159788,-1.425650,1.726613,1.232746,-0.575976,0.476783,-0.027129,1.297960,-0.412090,-0.344688,1.143971,-0.126958,-3.559832,43.197063,-24.043777,-8.565798,0.159696,1.949264,-0.122819,0.000000,0.000000,0.000000,0.000000,0.000000,0.000000
13033990.000000,-2.328828,-1.662901,1.161083,-1.426070,1.726275,1.233896,-0.576089,0.469189,-0.027096,1.289066,-0.417737,-0.344068,1.148796,-0.121248,-3.210711,43.220867,-24.218338,-8.319826,0.171598,2.001449,-0.175919,0.000000,0.000000,0.000000,0.000000,0.000000,0.000000
13033991.000000,-2.328373,-1.662925,1.162366,-1.426498,1.725939,1.235049,-0.576209,0.460231,-0.025574,1.283579,-0.414799,-0.334889,1.147180,-0.121435,-2.917132,43.173260,-24.412735,-8.069887,0.231107,2.020675,-0.116410,0.000000,0.000000,0.000000,0.000000,0.000000,0.000000
13033992.000000,-2.327914,-1.662947,1.163649,-1.426926,1.725607,1.236170,-0.576321,0.461703,-0.023804,1.279169,-0.424521,-0.343069,1.144115,-0.119015,-2.591815,43.121685,-24.365128,-7.748537,0.225614,2.157089,-0.136552,0.000000,0.000000,0.000000,0.000000,0.000000,0.000000
13033993.000000,-2.327453,-1.662970,1.164943,-1.427361,1.725271,1.237325,-0.576432,0.470150,-0.024451,1.281491,-0.427809,-0.341992,1.143233,-0.115932,-2.369647,43.121685,-24.412735,-7.454957,0.231107,2.137862,-0.169511,0.000000,0.000000,0.000000,0.000000,0.000000,0.000000
13033994.000000,-2.326997,-1.662992,1.166225,-1.427810,1.724936,1.238487,-0.576548,0.461797,-0.023069,1.289667,-0.436475,-0.332835,1.140849,-0.116897,-2.123675,43.074078,-24.583328,-7.006654,0.255826,2.007858,-0.130143,0.000000,0.000000,0.000000,0.000000,0.000000,0.000000
13033995.000000,-2.326552,-1.663019,1.167514,-1.428244,1.724614,1.239638,-0.576655,0.456692,-0.021175,1.286503,-0.436525,-0.329770,1.138989,-0.118021,-1.778521,43.097881,-24.706314,-6.713075,0.261320,1.884261,-0.196061,0.000000,0.000000,0.000000,0.000000,0.000000,0.000000
13033996.000000,-2.326115,-1.663042,1.168813,-1.428694,1.724279,1.240793,-0.576771,0.452676,-0.022262,1.276353,-0.443292,-0.333088,1.130597,-0.118460,-1.429400,43.097881,-25.150650,-6.363954,0.297025,1.858627,-0.155778,0.000000,0.000000,0.000000,0.000000,0.000000,0.000000
13033997.000000,-2.325678,-1.663067,1.170121,-1.429137,1.723949,1.241917,-0.576879,0.444121,-0.019616,1.277954,-0.443491,-0.330725,1.126501,-0.117365,-1.032672,43.097881,-25.591019,-6.117982,0.320829,1.988631,-0.149369,0.000000,0.000000,0.000000,0.000000,0.000000,0.000000
13033998.000000,-2.325261,-1.663094,1.171441,-1.429589,1.723630,1.243049,-0.576985,0.435575,-0.019132,1.285798,-0.447397,-0.322844,1.122185,-0.114992,-0.612139,43.145489,-26.154373,-5.848207,0.308927,2.169906,-0.175919,0.000000,0.000000,0.000000,0.000000,0.000000,0.000000
13033999.000000,-2.324840,-1.663118,1.172726,-1.430041,1.723306,1.244184,-0.577095,0.431531,-0.020669,1.289534,-0.442119,-0.323881,1.122713,-0.118248,-0.144000,43.173260,-26.451920,-5.626039,0.362943,2.372237,-0.182328,0.000000,0.000000,0.000000,0.000000,0.000000,0.000000
13034000.000000,-2.324415,-1.663141,1.174013,-1.430486,1.722982,1.245316,-0.577202,0.427331,-0.020662,1.287215,-0.439878,-0.323036,1.124755,-0.112247,0.228925,43.145489,-26.523331,-5.499086,0.374845,2.423507,-0.182328,0.000000,0.000000,0.000000,0.000000,0.000000,0.000000
13034001.000000,-2.323997,-1.663161,1.175295,-1.430946,1.722653,1.246464,-0.577310,0.426063,-0.020700,1.285369,-0.444056,-0.323184,1.123001,-0.108264,0.526471,43.097881,-26.745499,-5.130128,0.405057,2.372237,-0.163102,0.000000,0.000000,0.000000,0.000000,0.000000,0.000000
13034002.000000,-2.323579,-1.663181,1.176569,-1.431412,1.722328,1.247595,-0.577408,0.425270,-0.020820,1.285780,-0.446478,-0.323453,1.149630,-0.103301,0.772443,43.074078,-26.622513,-4.784975,0.434354,2.326461,-0.202470,0.000000,0.000000,0.000000,0.000000,0.000000,0.000000
13034003.000000,-2.323157,-1.663206,1.177850,-1.431870,1.722008,1.248735,-0.577516,0.431976,-0.019448,1.284248,-0.452632,-0.324205,1.143743,-0.103353,0.895429,43.097881,-26.475723,-4.388246,0.470060,2.261459,-0.136552,0.000000,0.000000,0.000000,0.000000,0.000000,0.000000
13034004.000000,-2.322739,-1.663231,1.179092,-1.432345,1.721674,1.249893,-0.577614,0.429628,-0.022669,1.274437,-0.453991,-0.325356,1.145611,-0.103406,1.145368,43.173260,-26.154373,-3.943910,0.547880,2.104903,-0.196061,0.000000,0.000000,0.000000,0.000000,0.000000,0.000000
13034005.000000,-2.322325,-1.663253,1.180367,-1.432807,1.721355,1.251024,-0.577718,0.421114,-0.022551,1.270205,-0.460071,-0.320865,1.153927,-0.106629,1.391340,43.173260,-26.130569,-3.570986,0.601896,2.027084,-0.175919,0.000000,0.000000,0.000000,0.000000,0.000000,0.000000
13034006.000000,-2.321915,-1.663281,1.181607,-1.433270,1.721052,1.252173,-0.577823,0.420930,-0.022663,1.266387,-0.458618,-0.312705,1.159226,-0.103750,1.542096,43.292278,-25.936172,-3.325014,0.524076,1.923629,-0.163102,0.000000,0.000000,0.000000,0.000000,0.000000,0.000000
13034007.000000,-2.321509,-1.663303,1.182875,-1.433729,1.720735,1.253326,-0.577924,0.417523,-0.022339,1.264744,-0.458014,-0.320216,1.154333,-0.105531,1.811872,43.292278,-25.936172,-3.202028,0.542386,1.858627,-0.175919,0.000000,0.000000,0.000000,0.000000,0.000000,0.000000
13034008.000000,-2.321105,-1.663325,1.184138,-1.434175,1.720419,1.254451,-0.578027,0.412070,-0.022811,1.262384,-0.452692,-0.316596,1.146399,-0.103466,2.085615,43.292278,-25.884598,-3.178224,0.571683,1.909896,-0.155778,0.000000,0.000000,0.000000,0.000000,0.000000,0.000000
13034009.000000,-2.320704,-1.663345,1.185379,-1.434617,1.720107,1.255587,-0.578124,0.407549,-0.023320,1.255132,-0.446232,-0.312032,1.127141,-0.103282,2.208601,43.292278,-25.836990,-3.249635,0.571683,2.007858,-0.221696,0.000000,0.000000,0.000000,0.000000,0.000000,0.000000
13034010.000000,-2.320296,-1.663367,1.186630,-1.435051,1.719805,1.256703,-0.578231,0.405224,-0.023312,1.251078,-0.441249,-0.317838,1.123949,-0.103502,2.283979,43.292278,-25.813187,-3.249635,0.596403,2.157089,-0.169511,0.000000,0.000000,0.000000,0.000000,0.000000,0.000000
13034011.000000,-2.319886,-1.663380,1.187879,-1.435492,1.719501,1.257861,-0.578337,0.408740,-0.021548,1.249479,-0.437575,-0.314556,1.129733,-0.101340,2.359357,43.197063,-25.737808,-3.249635,0.625699,2.072860,-0.155778,0.000000,0.000000,0.000000,0.000000,0.000000,0.000000
13034012.000000,-2.319474,-1.663394,1.189105,-1.435928,1.719188,1.259046,-0.578429,0.413108,-0.020311,1.248551,-0.432398,-0.312879,1.141477,-0.097044,2.283979,43.121685,-25.714005,-3.202028,0.673307,1.779891,-0.221696,0.000000,0.000000,0.000000,0.000000,0.000000,0.000000
13034013.000000,-2.319056,-1.663396,1.190325,-1.436358,1.718887,1.260199,-0.578538,0.414803,-0.016615,1.230523,-0.432934,-0.305971,1.143649,-0.098690,2.109418,42.903484,-25.420425,-3.126650,0.698026,1.649886,-0.163102,0.000000,0.000000,0.000000,0.000000,0.000000,0.000000
13034014.000000,-2.318649,-1.663400,1.191541,-1.436783,1.718596,1.261355,-0.578638,0.416384,-0.012257,1.226867,-0.425174,-0.298576,1.138086,-0.096870,2.034040,42.728924,-25.321243,-3.102846,0.667814,1.624252,-0.175919,0.000000,0.000000,0.000000,0.000000,0.000000,0.000000
13034015.000000,-2.318235,-1.663400,1.192770,-1.437198,1.718309,1.262496,-0.578738,0.410791,-0.008159,1.224357,-0.420988,-0.292786,1.139855,-0.096615,1.986432,42.534527,-25.249832,-3.178224,0.620206,1.682845,-0.163102,0.000000,0.000000,0.000000,0.000000,0.000000,0.000000
13034016.000000,-2.317830,-1.663411,1.194011,-1.437604,1.718018,1.263647,-0.578832,0.409129,-0.010044,1.226322,-0.413470,-0.289161,1.144193,-0.095073,1.962629,42.534527,-25.321243,-3.301210,0.578092,1.786300,-0.182328,0.000000,0.000000,0.000000,0.000000,0.000000,0.000000
13034017.000000,-2.317431,-1.663413,1.195238,-1.438012,1.717741,1.264803,-0.578933,0.403355,-0.007998,1.226299,-0.408046,-0.288772,1.141378,-0.099478,1.986432,42.411541,-25.543411,-3.400392,0.482877,1.916305,-0.169511,0.000000,0.000000,0.000000,0.000000,0.000000,0.000000
13034018.000000,-2.317025,-1.663412,1.196484,-1.438399,1.717469,1.265937,-0.579032,0.404267,-0.005981,1.226338,-0.400004,-0.284578,1.144039,-0.097832,1.934858,42.264751,-25.836990,-3.570986,0.398649,2.066451,-0.175919,0.000000,0.000000,0.000000,0.000000,0.000000,0.000000
13034019.000000,-2.316625,-1.663415,1.197725,-1.438797,1.717192,1.267087,-0.579133,0.404348,-0.005483,1.229512,-0.396264,-0.281334,1.142035,-0.096794,1.911054,42.141766,-26.305130,-3.646364,0.440763,2.157089,-0.175919,0.000000,0.000000,0.000000,0.000000,0.000000,0.000000
13034020.000000,-2.316220,-1.663422,1.198954,-1.439193,1.716909,1.268221,-0.579233,0.400423,-0.006589,1.229990,-0.393026,-0.278374,1.165856,-0.101848,1.911054,42.094158,-26.451920,-3.622560,0.470060,2.196456,-0.149369,0.000000,0.000000,0.000000,0.000000,0.000000,0.000000
13034021.000000,-2.315816,-1.663427,1.200185,-1.439588,1.716628,1.269359,-0.579324,0.410693,-0.007122,1.222575,-0.392876,-0.279089,1.162087,-0.097882,1.788068,42.022747,-26.547134,-3.475771,0.584501,2.235824,-0.196061,0.000000,0.000000,0.000000,0.000000,0.000000,0.000000
13034022.000000,-2.315416,-1.663432,1.201388,-1.439979,1.716363,1.270507,-0.579426,0.409059,-0.007258,1.221360,-0.391036,-0.275243,1.155009,-0.099056,1.764264,41.947369,-26.523331,-3.348818,0.601896,2.209274,-0.142960,0.000000,0.000000,0.000000,0.000000,0.000000,0.000000
13034023.000000,-2.315013,-1.663441,1.202597,-1.440354,1.716102,1.271634,-0.579515,0.406585,-0.005934,1.218022,-0.387036,-0.272515,1.146375,-0.095418,1.764264,41.947369,-26.305130,-3.376589,0.613798,2.177230,-0.208878,0.000000,0.000000,0.000000,0.000000,0.000000,0.000000
13034024.000000,-2.314609,-1.663447,1.203818,-1.440736,1.715844,1.272770,-0.579612,0.407683,-0.006711,1.218608,-0.383166,-0.273512,1.137294,-0.095527,1.688886,41.899761,-26.182144,-3.301210,0.571683,2.190048,-0.196061,0.000000,0.000000,0.000000,0.000000,0.000000,0.000000
13034025.000000,-2.314217,-1.663459,1.205002,-1.441108,1.715583,1.273918,-0.579707,0.401131,-0.008670,1.207862,-0.379849,-0.267366,1.130418,-0.097209,1.764264,41.923565,-25.789383,-3.376589,0.470060,2.118636,-0.142960,0.000000,0.000000,0.000000,0.000000,0.000000,0.000000
13034026.000000,-2.313828,-1.663471,1.206215,-1.441480,1.715319,1.275049,-0.579791,0.397728,-0.011508,1.207164,-0.377468,-0.262599,1.128261,-0.094063,1.863447,41.994976,-25.690201,-3.325014,0.476469,2.060043,-0.202470,0.000000,0.000000,0.000000,0.000000,0.000000,0.000000
13034027.000000,-2.313448,-1.663472,1.207397,-1.441844,1.715066,1.276194,-0.579887,0.392025,-0.008995,1.198839,-0.374824,-0.255116,1.128647,-0.091227,2.034040,41.875957,-25.420425,-3.400392,0.405057,2.007858,-0.155778,0.000000,0.000000,0.000000,0.000000,0.000000,0.000000
13034028.000000,-2.313062,-1.663477,1.208609,-1.442211,1.714814,1.277322,-0.579974,0.387898,-0.006308,1.198305,-0.379322,-0.256559,1.131037,-0.087046,2.160993,41.848186,-25.444229,-3.424196,0.369352,1.974899,-0.169511,0.000000,0.000000,0.000000,0.000000,0.000000,0.000000
13034029.000000,-2.312677,-1.663479,1.209819,-1.442578,1.714545,1.278468,-0.580064,0.391375,-0.005980,1.203863,-0.376320,-0.262598,1.135106,-0.088877,2.260175,41.752972,-25.368851,-3.400392,0.470060,1.877853,-0.163102,0.000000,0.000000,0.000000,0.000000,0.000000,0.000000
13034030.000000,-2.312306,-1.663485,1.211001,-1.442937,1.714283,1.279630,-0.580148,0.389064,-0.007010,1.202511,-0.369490,-0.258832,1.145089,-0.088834,2.383161,41.729168,-25.273636,-3.547182,0.494779,1.727706,-0.202470,0.000000,0.000000,0.000000,0.000000,0.000000,0.000000
13034031.000000,-2.311932,-1.663483,1.212204,-1.443291,1.714032,1.280753,-0.580242,0.386477,-0.005530,1.205828,-0.364533,-0.255094,1.140793,-0.092717,2.529951,41.606182,-25.345047,-3.598757,0.488370,1.727706,-0.136552,0.000000,0.000000,0.000000,0.000000,0.000000,0.000000
13034032.000000,-2.311564,-1.663486,1.213371,-1.443647,1.713786,1.281888,-0.580329,0.383802,-0.003352,1.177856,-0.360218,-0.250839,1.137230,-0.093206,2.728315,41.554607,-25.150650,-3.646364,0.452665,1.819259,-0.130143,0.000000,0.000000,0.000000,0.000000,0.000000,0.000000
13034033.000000,-2.311187,-1.663483,1.214554,-1.444005,1.713533,1.283010,-0.580407,0.377402,-0.000661,1.181070,-0.359916,-0.251645,1.138820,-0.090632,2.752119,41.459393,-24.952286,-3.598757,0.512174,1.884261,-0.202470,0.000000,0.000000,0.000000,0.000000,0.000000,0.000000
13034034.000000,-2.310824,-1.663474,1.215724,-1.444356,1.713283,1.284142,-0.580501,0.370448,0.002502,1.171774,-0.357223,-0.248886,1.143295,-0.089163,2.827497,41.312603,-24.611099,-3.499574,0.494779,1.981307,-0.136552,0.000000,0.000000,0.000000,0.000000,0.000000,0.000000
13034035.000000,-2.310446,-1.663463,1.216878,-1.444709,1.713038,1.285284,-0.580576,0.371132,0.005384,1.168515,-0.354888,-0.245433,1.144471,-0.087385,2.779890,41.138042,-24.341324,-3.376589,0.446256,2.007858,-0.202470,0.000000,0.000000,0.000000,0.000000,0.000000,0.000000
13034036.000000,-2.310062,-1.663451,1.218061,-1.445054,1.712796,1.286425,-0.580660,0.374836,0.007304,1.166492,-0.354317,-0.244430,1.144874,-0.089713,2.704511,40.967449,-24.265945,-3.225832,0.410551,1.909896,-0.188737,0.000000,0.000000,0.000000,0.000000,0.000000,0.000000
13034037.000000,-2.309693,-1.663437,1.219223,-1.445400,1.712553,1.287579,-0.580747,0.375985,0.008653,1.188343,-0.351036,-0.239171,1.136148,-0.086795,2.704511,40.796856,-24.190567,-3.202028,0.386747,1.754256,-0.169511,0.000000,0.000000,0.000000,0.000000,0.000000,0.000000
13034038.000000,-2.309319,-1.663420,1.220423,-1.445743,1.712309,1.288714,-0.580828,0.373898,0.013050,1.198675,-0.346031,-0.242590,1.156118,-0.083476,2.652936,40.602459,-24.464310,-3.154421,0.440763,1.649886,-0.182328,0.000000,0.000000,0.000000,0.000000,0.000000,0.000000
13034039.000000,-2.308961,-1.663410,1.221614,-1.446078,1.712071,1.289848,-0.580914,0.377669,0.011144,1.191682,-0.347939,-0.243024,1.143935,-0.082578,2.704511,40.503277,-24.611099,-3.126650,0.428861,1.689254,-0.149369,0.000000,0.000000,0.000000,0.000000,0.000000,0.000000
13034040.000000,-2.308600,-1.663401,1.222802,-1.446408,1.711825,1.290989,-0.580991,0.374866,0.013570,1.191559,-0.339573,-0.244277,1.136525,-0.079219,2.827497,40.380291,-25.003860,-3.225832,0.458158,1.767074,-0.188737,0.000000,0.000000,0.000000,0.000000,0.000000,0.000000
13034041.000000,-2.308240,-1.663396,1.224004,-1.446727,1.711593,1.292109,-0.581071,0.369520,0.009938,1.196193,-0.333435,-0.240030,1.128631,-0.083813,2.950483,40.356487,-25.396622,-3.348818,0.500272,1.838485,-0.169511,0.000000,0.000000,0.000000,0.000000,0.000000,0.000000
13034042.000000,-2.307877,-1.663386,1.225192,-1.447044,1.711366,1.293230,-0.581152,0.370174,0.009196,1.196176,-0.323795,-0.239013,1.119942,-0.086133,2.902875,40.257305,-25.444229,-3.570986,0.446256,1.949264,-0.169511,0.000000,0.000000,0.000000,0.000000,0.000000,0.000000
13034043.000000,-2.307517,-1.663382,1.226365,-1.447370,1.711135,1.294360,-0.581231,0.366262,0.007432,1.187325,-0.321582,-0.237117,1.122217,-0.088308,2.879072,40.209698,-25.519608,-3.598757,0.476469,1.995040,-0.163102,0.000000,0.000000,0.000000,0.000000,0.000000,0.000000
13034044.000000,-2.307144,-1.663381,1.227542,-1.447684,1.710914,1.295465,-0.581305,0.367266,0.004539,1.181823,-0.318665,-0.231912,1.123325,-0.083036,2.752119,40.233501,-25.420425,-3.670168,0.405057,2.047225,-0.215287,0.000000,0.000000,0.000000,0.000000,0.000000,0.000000
13034045.000000,-2.306777,-1.663377,1.228698,-1.448009,1.710682,1.296596,-0.581391,0.365751,0.004245,1.178599,-0.320613,-0.228570,1.124372,-0.081711,2.629133,40.185894,-25.273636,-3.547182,0.362943,2.039901,-0.202470,0.000000,0.000000,0.000000,0.000000,0.000000,0.000000
13034046.000000,-2.306405,-1.663380,1.229857,-1.448329,1.710453,1.297719,-0.581477,0.364887,0.001239,1.172801,-0.328608,-0.229651,1.132393,-0.082434,2.482343,40.257305,-24.952286,-3.348818,0.393156,1.916305,-0.142960,0.000000,0.000000,0.000000,0.000000,0.000000,0.000000
13034047.000000,-2.306043,-1.663378,1.231014,-1.448652,1.710237,1.298864,-0.581552,0.370612,0.000329,1.162120,-0.324953,-0.228145,1.139896,-0.083340,2.359357,40.281109,-24.511917,-3.202028,0.369352,1.721298,-0.188737,0.000000,0.000000,0.000000,0.000000,0.000000,0.000000
13034048.000000,-2.305680,-1.663370,1.232180,-1.448965,1.710006,1.299998,-0.581635,0.367483,0.001934,1.168538,-0.316245,-0.225291,1.135939,-0.082642,2.260175,40.209698,-24.511917,-3.154421,0.434354,1.643478,-0.142960,0.000000,0.000000,0.000000,0.000000,0.000000,0.000000
13034049.000000,-2.305314,-1.663369,1.233332,-1.449265,1.709797,1.301112,-0.581710,0.369060,0.001323,1.163462,-0.313076,-0.218677,1.133036,-0.083307,2.160993,40.209698,-24.190567,-3.126650,0.381254,1.670028,-0.196061,0.000000,0.000000,0.000000,0.000000,0.000000,0.000000
13034050.000000,-2.304959,-1.663369,1.234482,-1.449564,1.709566,1.302247,-0.581797,0.361773,0.000350,1.141161,-0.307904,-0.222346,1.120913,-0.084410,2.133222,40.233501,-24.043777,-3.202028,0.434354,1.682845,-0.116410,0.000000,0.000000,0.000000,0.000000,0.000000,0.000000
13034051.000000,-2.304595,-1.663367,1.235648,-1.449857,1.709341,1.303364,-0.581867,0.360560,-0.000305,1.145088,-0.303735,-0.224043,1.117266,-0.079785,2.010236,40.257305,-23.972366,-3.325014,0.458158,1.741439,-0.175919,0.000000,0.000000,0.000000,0.000000,0.000000,0.000000
13034052.000000,-2.304243,-1.663359,1.236818,-1.450142,1.709130,1.304494,-0.581939,0.356079,0.001482,1.145527,-0.299374,-0.222424,1.112049,-0.076873,1.962629,40.185894,-23.948563,-3.499574,0.405057,1.865035,-0.221696,0.000000,0.000000,0.000000,0.000000,0.000000,0.000000
13034053.000000,-2.303875,-1.663354,1.237971,-1.450443,1.708920,1.305636,-0.582028,0.357672,0.001555,1.145455,-0.297262,-0.217322,1.114929,-0.080863,1.712690,40.162090,-24.019974,-3.475771,0.374845,1.930038,-0.110001,0.000000,0.000000,0.000000,0.000000,0.000000,0.000000
13034054.000000,-2.303502,-1.663344,1.239122,-1.450719,1.708718,1.306763,-0.582093,0.361819,0.003365,1.141437,-0.289530,-0.208210,1.121720,-0.076338,1.442914,40.062908,-23.873184,-3.598757,0.315336,1.877853,-0.188737,0.000000,0.000000,0.000000,0.000000,0.000000,0.000000
13034055.000000,-2.303139,-1.663335,1.240273,-1.451019,1.708500,1.307899,-0.582172,0.363501,0.003363,1.168594,-0.292886,-0.214294,1.118622,-0.077216,1.244550,40.015301,-23.948563,-3.475771,0.351041,1.858627,-0.155778,0.000000,0.000000,0.000000,0.000000,0.000000,0.000000
13034056.000000,-2.302754,-1.663323,1.241410,-1.451304,1.708280,1.309012,-0.582242,0.369638,0.008007,1.161691,-0.287202,-0.213689,1.115293,-0.072000,0.796247,39.892315,-23.651016,-3.547182,0.374845,1.916305,-0.155778,0.000000,0.000000,0.000000,0.000000,0.000000,0.000000
13034057.000000,-2.302382,-1.663303,1.242554,-1.451590,1.708072,1.310143,-0.582314,0.379738,0.013397,1.149532,-0.289573,-0.206657,1.120916,-0.067051,0.427289,39.693951,-23.432816,-3.475771,0.356534,1.916305,-0.182328,0.000000,0.000000,0.000000,0.000000,0.000000,0.000000
13034058.000000,-2.302009,-1.663290,1.243684,-1.451871,1.707859,1.311295,-0.582388,0.376760,0.014212,1.141851,-0.284738,-0.202285,1.128094,-0.070709,0.177350,39.622540,-23.258255,-3.523378,0.374845,1.786300,-0.142960,0.000000,0.000000,0.000000,0.000000,0.000000,0.000000
13034059.000000,-2.301632,-1.663274,1.244832,-1.452139,1.707657,1.312411,-0.582448,0.371295,0.011837,1.139584,-0.280030,-0.206305,1.130036,-0.064681,-0.068621,39.547161,-23.163040,-3.646364,0.356534,1.767074,-0.208878,0.000000,0.000000,0.000000,0.000000,0.000000,0.000000
13034060.000000,-2.301263,-1.663260,1.245989,-1.452408,1.707460,1.313546,-0.582522,0.372078,0.012629,1.137782,-0.275851,-0.201070,1.132108,-0.068516,-0.243182,39.499554,-23.234451,-3.670168,0.332731,1.708480,-0.175919,0.000000,0.000000,0.000000,0.000000,0.000000,0.000000
13034061.000000,-2.300896,-1.663245,1.247150,-1.452673,1.707259,1.314667,-0.582589,0.369886,0.013562,1.151237,-0.269839,-0.200759,1.119205,-0.069706,-0.413775,39.428143,-23.528030,-3.797121,0.279630,1.767074,-0.188737,0.000000,0.000000,0.000000,0.000000,0.000000,0.000000
13034062.000000,-2.300533,-1.663238,1.248326,-1.452926,1.707055,1.315778,-0.582666,0.370687,0.009732,1.160528,-0.262891,-0.197386,1.111041,-0.073046,-0.540728,39.428143,-23.920792,-3.920107,0.261320,1.819259,-0.136552,0.000000,0.000000,0.000000,0.000000,0.000000,0.000000
13034063.000000,-2.300177,-1.663231,1.249480,-1.453181,1.706849,1.316886,-0.582735,0.366200,0.009499,1.159731,-0.258505,-0.200616,1.094106,-0.072813,-0.588336,39.451946,-24.218338,-3.991518,0.279630,1.962081,-0.155778,0.000000,0.000000,0.000000,0.000000,0.000000,0.000000
13034064.000000,-2.299817,-1.663224,1.250645,-1.453429,1.706648,1.317989,-0.582800,0.360935,0.008216,1.163708,-0.262276,-0.198687,1.097572,-0.068446,-0.663714,39.523357,-24.388931,-4.118471,0.303434,2.020675,-0.163102,0.000000,0.000000,0.000000,0.000000,0.000000,0.000000
13034065.000000,-2.299467,-1.663218,1.251815,-1.453685,1.706454,1.319112,-0.582868,0.355277,0.008164,1.163028,-0.256533,-0.196072,1.101892,-0.070760,-0.687518,39.574932,-24.583328,-4.142274,0.303434,2.027084,-0.142960,0.000000,0.000000,0.000000,0.000000,0.000000,0.000000
13034066.000000,-2.299116,-1.663209,1.252952,-1.453921,1.706260,1.320232,-0.582931,0.353062,0.005693,1.159016,-0.248159,-0.198335,1.104999,-0.069857,-0.762896,39.598736,-24.559525,-4.312868,0.291532,2.053634,-0.182328,0.000000,0.000000,0.000000,0.000000,0.000000,0.000000
13034067.000000,-2.298766,-1.663202,1.254098,-1.454169,1.706070,1.321337,-0.582997,0.347617,0.008017,1.145364,-0.250738,-0.199343,1.103885,-0.072002,-0.735125,39.574932,-24.412735,-4.265260,0.261320,2.033492,-0.163102,0.000000,0.000000,0.000000,0.000000,0.000000,0.000000
13034068.000000,-2.298413,-1.663196,1.255223,-1.454424,1.705863,1.322453,-0.583056,0.350274,0.008666,1.122995,-0.250970,-0.202036,1.101944,-0.066853,-0.810504,39.598736,-24.119156,-4.142274,0.279630,1.995040,-0.196061,0.000000,0.000000,0.000000,0.000000,0.000000,0.000000
13034069.000000,-2.298060,-1.663191,1.256352,-1.454664,1.705655,1.323561,-0.583128,0.351754,0.009016,1.125666,-0.243713,-0.199456,1.111757,-0.066279,-0.885882,39.622540,-23.726395,-4.189882,0.297025,1.981307,-0.142960,0.000000,0.000000,0.000000,0.000000,0.000000,0.000000
13034070.000000,-2.297719,-1.663178,1.257489,-1.454910,1.705459,1.324674,-0.583187,0.356486,0.011143,1.118622,-0.244854,-0.196675,1.116688,-0.062148,-0.909686,39.574932,-23.409012,-4.090700,0.297025,2.007858,-0.182328,0.000000,0.000000,0.000000,0.000000,0.000000,0.000000
13034071.000000,-2.297383,-1.663162,1.258627,-1.455156,1.705268,1.325799,-0.583252,0.347453,0.013800,1.122321,-0.245914,-0.196717,1.117688,-0.061783,-0.862078,39.475750,-23.309830,-4.090700,0.243009,1.962081,-0.155778,0.000000,0.000000,0.000000,0.000000,0.000000,0.000000
13034072.000000,-2.297049,-1.663153,1.259762,-1.455396,1.705085,1.326913,-0.583318,0.339746,0.012919,1.122119,-0.243388,-0.193469,1.113614,-0.061347,-0.762896,39.475750,-23.087662,-4.118471,0.207303,1.800033,-0.130143,0.000000,0.000000,0.000000,0.000000,0.000000,0.000000
13034073.000000,-2.296722,-1.663138,1.260890,-1.455634,1.704890,1.328043,-0.583372,0.335138,0.014368,1.127096,-0.239320,-0.194374,1.112554,-0.058502,-0.588336,39.400372,-23.063858,-4.118471,0.255826,1.643478,-0.169511,0.000000,0.000000,0.000000,0.000000,0.000000,0.000000
13034074.000000,-2.296403,-1.663120,1.262038,-1.455875,1.704696,1.329163,-0.583433,0.326187,0.016209,1.131712,-0.242540,-0.192645,1.102738,-0.058810,-0.389971,39.281353,-23.063858,-4.118471,0.249418,1.630660,-0.149369,0.000000,0.000000,0.000000,0.000000,0.000000,0.000000
13034075.000000,-2.296087,-1.663103,1.263194,-1.456112,1.704502,1.330262,-0.583490,0.330927,0.017138,1.139052,-0.241137,-0.187512,1.096720,-0.056924,-0.243182,39.182171,-23.186844,-4.142274,0.261320,1.714889,-0.182328,0.000000,0.000000,0.000000,0.000000,0.000000,0.000000
13034076.000000,-2.295774,-1.663090,1.264316,-1.456352,1.704314,1.331379,-0.583548,0.327718,0.016653,1.139377,-0.241404,-0.188159,1.094068,-0.056701,-0.116229,39.130596,-23.135269,-4.090700,0.285123,1.741439,-0.188737,0.000000,0.000000,0.000000,0.000000,0.000000,0.000000
13034077.000000,-2.295469,-1.663076,1.265451,-1.456584,1.704127,1.332480,-0.583604,0.321408,0.016550,1.133328,-0.241448,-0.189433,1.098267,-0.057214,0.153547,39.059185,-23.087662,-4.066896,0.344633,1.754256,-0.175919,0.000000,0.000000,0.000000,0.000000,0.000000,0.000000
13034078.000000,-2.295157,-1.663059,1.266592,-1.456826,1.703949,1.333603,-0.583665,0.319046,0.017372,1.131839,-0.239961,-0.183168,1.098360,-0.057084,0.228925,38.960003,-23.040054,-3.967714,0.315336,1.741439,-0.169511,0.000000,0.000000,0.000000,0.000000,0.000000,0.000000
13034079.000000,-2.294844,-1.663034,1.267703,-1.457059,1.703778,1.334719,-0.583724,0.317639,0.020532,1.131677,-0.233448,-0.180929,1.101904,-0.061868,0.276533,38.741802,-22.817886,-3.943910,0.219205,1.760665,-0.163102,0.000000,0.000000,0.000000,0.000000,0.000000,0.000000
13034080.000000,-2.294540,-1.663019,1.268829,-1.457292,1.703597,1.335831,-0.583781,0.310791,0.019482,1.131057,-0.231195,-0.183037,1.105904,-0.059366,0.427289,38.666424,-22.671097,-3.820925,0.207303,1.727706,-0.196061,0.000000,0.000000,0.000000,0.000000,0.000000,0.000000
13034081.000000,-2.294243,-1.663001,1.269940,-1.457532,1.703408,1.336962,-0.583844,0.304836,0.016201,1.127672,-0.233478,-0.184859,1.115191,-0.064842,0.474897,38.571209,-22.472733,-3.646364,0.213712,1.597701,-0.155778,0.000000,0.000000,0.000000,0.000000,0.000000,0.000000
13034082.000000,-2.293942,-1.662984,1.271077,-1.457769,1.703225,1.338078,-0.583903,0.301145,0.016757,1.139453,-0.234678,-0.180810,1.122278,-0.063988,0.601850,38.472027,-22.500504,-3.499574,0.201810,1.519881,-0.142960,0.000000,0.000000,0.000000,0.000000,0.000000,0.000000
13034083.000000,-2.293653,-1.662956,1.272219,-1.457995,1.703042,1.339198,-0.583959,0.298001,0.017164,1.133791,-0.233487,-0.179246,1.116363,-0.061185,0.772443,38.249859,-22.595718,-3.424196,0.231107,1.500655,-0.163102,0.000000,0.000000,0.000000,0.000000,0.000000,0.000000
13034084.000000,-2.293365,-1.662941,1.273360,-1.458225,1.702858,1.340330,-0.584024,0.294014,0.016866,1.148674,-0.230076,-0.177240,1.111995,-0.061172,0.947004,38.178448,-22.817886,-3.325014,0.249418,1.474105,-0.122819,0.000000,0.000000,0.000000,0.000000,0.000000,0.000000
13034085.000000,-2.293083,-1.662923,1.274516,-1.458454,1.702675,1.341437,-0.584072,0.287497,0.016613,1.146582,-0.229190,-0.177947,1.104466,-0.062052,1.216779,38.103069,-23.135269,-3.301210,0.315336,1.546432,-0.188737,0.000000,0.000000,0.000000,0.000000,0.000000,0.000000
13034086.000000,-2.292805,-1.662908,1.275655,-1.458685,1.702499,1.342549,-0.584135,0.281268,0.016687,1.129008,-0.229399,-0.175737,1.097755,-0.062893,1.415143,38.031658,-23.528030,-3.249635,0.315336,1.727706,-0.130143,0.000000,0.000000,0.000000,0.000000,0.000000,0.000000
13034087.000000,-2.292528,-1.662893,1.276802,-1.458915,1.702323,1.343644,-0.584181,0.281146,0.015855,1.133863,-0.230619,-0.182173,1.112491,-0.058578,1.589704,37.984051,-23.726395,-3.154421,0.273221,1.916305,-0.202470,0.000000,0.000000,0.000000,0.000000,0.000000,0.000000
13034088.000000,-2.292259,-1.662878,1.277955,-1.459137,1.702140,1.344754,-0.584238,0.281288,0.015136,1.138967,-0.227225,-0.179816,1.108742,-0.059155,1.788068,37.956280,-23.849380,-3.102846,0.285123,2.060043,-0.175919,0.000000,0.000000,0.000000,0.000000,0.000000,0.000000
13034089.000000,-2.291976,-1.662857,1.279088,-1.459365,1.701963,1.345884,-0.584297,0.279870,0.013870,1.140994,-0.224668,-0.176757,1.102381,-0.060754,1.835676,37.833294,-23.896988,-3.027467,0.273221,2.020675,-0.116410,0.000000,0.000000,0.000000,0.000000,0.000000,0.000000
13034090.000000,-2.291692,-1.662836,1.280223,-1.459601,1.701794,1.346986,-0.584344,0.278967,0.018416,1.127752,-0.227206,-0.174198,1.104034,-0.057494,1.863447,37.714275,-23.774002,-2.781496,0.249418,1.962081,-0.169511,0.000000,0.000000,0.000000,0.000000,0.000000,0.000000
13034091.000000,-2.291415,-1.662816,1.281342,-1.459842,1.701615,1.348103,-0.584400,0.277136,0.018750,1.125872,-0.230155,-0.175668,1.108006,-0.058189,1.811872,37.615093,-23.603409,-2.483949,0.315336,1.890670,-0.142960,0.000000,0.000000,0.000000,0.000000,0.000000,0.000000
13034092.000000,-2.291137,-1.662802,1.282467,-1.460082,1.701439,1.349223,-0.584448,0.271816,0.019817,1.128766,-0.233406,-0.176098,1.111692,-0.056333,1.764264,37.591290,-23.309830,-2.261781,0.369352,1.812850,-0.182328,0.000000,0.000000,0.000000,0.000000,0.000000,0.000000
13034093.000000,-2.290862,-1.662782,1.283599,-1.460318,1.701268,1.350320,-0.584505,0.272849,0.019821,1.127530,-0.231968,-0.175252,1.116790,-0.053187,1.788068,37.492107,-23.063858,-2.063417,0.398649,1.825668,-0.142960,0.000000,0.000000,0.000000,0.000000,0.000000,0.000000
13034094.000000,-2.290599,-1.662771,1.284727,-1.460548,1.701099,1.351417,-0.584551,0.271258,0.013836,1.128574,-0.231054,-0.172333,1.101721,-0.051761,1.911054,37.515911,-23.016251,-1.964235,0.374845,1.897079,-0.202470,0.000000,0.000000,0.000000,0.000000,0.000000,0.000000
13034095.000000,-2.290332,-1.662758,1.285856,-1.460759,1.700937,1.352526,-0.584607,0.267048,0.015886,1.125952,-0.227897,-0.170667,1.100916,-0.055127,2.010236,37.515911,-22.841690,-2.015810,0.255826,1.760665,-0.149369,0.000000,0.000000,0.000000,0.000000,0.000000,0.000000
13034096.000000,-2.290079,-1.662746,1.287001,-1.460979,1.700764,1.353654,-0.584660,0.262758,0.015460,1.130459,-0.222695,-0.171805,1.105451,-0.051338,2.184797,37.492107,-22.893265,-2.063417,0.279630,1.591293,-0.130143,0.000000,0.000000,0.000000,0.000000,0.000000,0.000000
13034097.000000,-2.289816,-1.662734,1.288132,-1.461194,1.700597,1.354773,-0.584702,0.262223,0.014563,1.133411,-0.219690,-0.167389,1.104851,-0.050090,2.260175,37.492107,-22.964676,-2.091188,0.297025,1.637069,-0.196061,0.000000,0.000000,0.000000,0.000000,0.000000,0.000000
13034098.000000,-2.289553,-1.662721,1.289277,-1.461403,1.700438,1.355860,-0.584753,0.257499,0.013862,1.129974,-0.217966,-0.162695,1.101410,-0.053449,2.232404,37.492107,-23.063858,-2.091188,0.279630,1.779891,-0.149369,0.000000,0.000000,0.000000,0.000000,0.000000,0.000000
13034099.000000,-2.289293,-1.662719,1.290392,-1.461615,1.700271,1.356974,-0.584799,0.260381,0.007446,1.127561,-0.217271,-0.163549,1.103095,-0.048150,2.208601,37.615093,-23.040054,-2.063417,0.386747,1.767074,-0.182328,0.000000,0.000000,0.000000,0.000000,0.000000,0.000000
13034100.000000,-2.289031,-1.662713,1.291523,-1.461829,1.700107,1.358093,-0.584846,0.256670,0.004662,1.129736,-0.213776,-0.167041,1.108084,-0.046208,2.208601,37.662701,-23.016251,-2.039613,0.446256,1.591293,-0.169511,0.000000,0.000000,0.000000,0.000000,0.000000,0.000000
13034101.000000,-2.288762,-1.662700,1.292656,-1.462032,1.699953,1.359207,-0.584895,0.258775,0.004830,1.126636,-0.210705,-0.161105,1.110609,-0.049406,2.061811,37.615093,-22.940872,-2.039613,0.405057,1.539108,-0.149369,0.000000,0.000000,0.000000,0.000000,0.000000,0.000000
13034102.000000,-2.288493,-1.662688,1.293764,-1.462235,1.699794,1.360312,-0.584939,0.263335,0.006827,1.129363,-0.205898,-0.156426,1.105829,-0.049354,1.911054,37.615093,-22.794083,-1.992006,0.356534,1.670028,-0.188737,0.000000,0.000000,0.000000,0.000000,0.000000,0.000000
13034103.000000,-2.288226,-1.662679,1.294869,-1.462433,1.699634,1.361410,-0.584992,0.264765,0.007436,1.116472,-0.205819,-0.159543,1.107519,-0.053130,1.788068,37.638897,-22.472733,-1.940431,0.351041,1.682845,-0.136552,0.000000,0.000000,0.000000,0.000000,0.000000,0.000000
13034104.000000,-2.287957,-1.662670,1.295965,-1.462627,1.699477,1.362529,-0.585036,0.268832,0.007709,1.129863,-0.199664,-0.158032,1.101953,-0.052331,1.589704,37.686504,-22.179153,-2.015810,0.369352,1.695663,-0.175919,0.000000,0.000000,0.000000,0.000000,0.000000,0.000000
13034105.000000,-2.287699,-1.662656,1.297097,-1.462820,1.699330,1.363617,-0.585087,0.265008,0.006478,1.134009,-0.193275,-0.154553,1.114940,-0.049723,1.514325,37.662701,-22.254532,-2.039613,0.327238,1.767074,-0.149369,0.000000,0.000000,0.000000,0.000000,0.000000,0.000000
13034106.000000,-2.287439,-1.662639,1.298231,-1.463004,1.699188,1.364737,-0.585126,0.270612,0.013591,1.127203,-0.187771,-0.151228,1.107940,-0.049579,1.442914,37.567486,-22.377518,-2.091188,0.261320,1.727706,-0.196061,0.000000,0.000000,0.000000,0.000000,0.000000,0.000000
13034107.000000,-2.287177,-1.662625,1.299364,-1.463186,1.699042,1.365868,-0.585177,0.266637,0.014411,1.130002,-0.186205,-0.151457,1.107795,-0.049253,1.343732,37.515911,-22.671097,-2.162599,0.267728,1.605026,-0.130143,0.000000,0.000000,0.000000,0.000000,0.000000,0.000000
13034108.000000,-2.286918,-1.662614,1.300515,-1.463367,1.698891,1.366968,-0.585219,0.264270,0.010605,1.136964,-0.186614,-0.157476,1.110689,-0.045536,1.268354,37.515911,-23.040054,-2.190370,0.327238,1.578475,-0.149369,0.000000,0.000000,0.000000,0.000000,0.000000,0.000000
13034109.000000,-2.286660,-1.662600,1.301671,-1.463548,1.698746,1.368070,-0.585257,0.263194,0.011984,1.143287,-0.183681,-0.156934,1.104432,-0.041724,1.169172,37.468304,-23.480423,-2.214174,0.362943,1.656295,-0.196061,0.000000,0.000000,0.000000,0.000000,0.000000,0.000000
13034110.000000,-2.286404,-1.662595,1.302806,-1.463720,1.698596,1.369168,-0.585305,0.261703,0.009897,1.146557,-0.175873,-0.154487,1.096398,-0.043493,1.069990,37.539715,-23.750198,-2.337160,0.339139,1.812850,-0.122819,0.000000,0.000000,0.000000,0.000000,0.000000,0.000000
13034111.000000,-2.286151,-1.662584,1.303953,-1.463882,1.698447,1.370256,-0.585339,0.257252,0.011057,1.141656,-0.173982,-0.154438,1.096253,-0.039397,0.994611,37.515911,-23.972366,-2.436342,0.362943,1.832076,-0.188737,0.000000,0.000000,0.000000,0.000000,0.000000,0.000000
13034112.000000,-2.285903,-1.662581,1.305063,-1.464040,1.698298,1.371349,-0.585384,0.255708,0.008985,1.133739,-0.170991,-0.153457,1.099160,-0.039569,0.970807,37.615093,-23.948563,-2.583132,0.369352,1.858627,-0.175919,0.000000,0.000000,0.000000,0.000000,0.000000,0.000000
13034113.000000,-2.285644,-1.662580,1.306182,-1.464199,1.698160,1.372426,-0.585426,0.253405,0.006930,1.127516,-0.169275,-0.154989,1.093316,-0.044843,0.847822,37.738079,-23.774002,-2.706117,0.332731,1.890670,-0.149369,0.000000,0.000000,0.000000,0.000000,0.000000,0.000000
13034114.000000,-2.285386,-1.662581,1.307309,-1.464363,1.698017,1.373513,-0.585459,0.256575,0.005851,1.121554,-0.168594,-0.149442,1.089929,-0.040970,0.673261,37.861065,-23.528030,-2.706117,0.339139,1.877853,-0.202470,0.000000,0.000000,0.000000,0.000000,0.000000,0.000000
13034115.000000,-2.285133,-1.662581,1.308418,-1.464526,1.697876,1.374612,-0.585505,0.257351,0.002636,1.119921,-0.164905,-0.145033,1.080214,-0.042489,0.574079,37.956280,-23.333633,-2.682314,0.339139,1.916305,-0.142960,0.000000,0.000000,0.000000,0.000000,0.000000,0.000000
13034116.000000,-2.284877,-1.662585,1.309527,-1.464686,1.697740,1.375703,-0.585539,0.259229,0.001566,1.106508,-0.160327,-0.135856,1.082263,-0.039698,0.427289,38.130840,-22.964676,-2.606935,0.308927,1.851302,-0.182328,0.000000,0.000000,0.000000,0.000000,0.000000,0.000000
13034117.000000,-2.284623,-1.662578,1.310646,-1.464830,1.697605,1.376835,-0.585578,0.258352,0.005018,1.111710,-0.154886,-0.138304,1.092565,-0.039703,0.228925,38.130840,-22.964676,-2.733888,0.273221,1.591293,-0.169511,0.000000,0.000000,0.000000,0.000000,0.000000,0.000000
13034118.000000,-2.284387,-1.662571,1.311771,-1.464980,1.697470,1.377944,-0.585617,0.248088,0.007098,1.122585,-0.153026,-0.139057,1.100320,-0.034915,0.276533,38.130840,-22.893265,-2.781496,0.201810,1.389877,-0.163102,0.000000,0.000000,0.000000,0.000000,0.000000,0.000000
13034119.000000,-2.284140,-1.662573,1.312902,-1.465119,1.697321,1.379058,-0.585661,0.251202,0.003396,1.124346,-0.143598,-0.144222,1.105450,-0.037185,0.177350,38.226055,-22.893265,-2.904482,0.255826,1.324874,-0.116410,0.000000,0.000000,0.000000,0.000000,0.000000,0.000000
13034120.000000,-2.283902,-1.662571,1.314017,-1.465246,1.697179,1.380154,-0.585697,0.246271,0.004877,1.129472,-0.137088,-0.146370,1.100106,-0.035008,0.252729,38.277630,-22.917068,-3.126650,0.273221,1.507064,-0.169511,0.000000,0.000000,0.000000,0.000000,0.000000,0.000000
13034121.000000,-2.283666,-1.662573,1.315145,-1.465372,1.697034,1.381229,-0.585732,0.242231,0.002902,1.128577,-0.132223,-0.144614,1.100210,-0.035492,0.328107,38.325237,-22.917068,-3.249635,0.320829,1.741439,-0.175919,0.000000,0.000000,0.000000,0.000000,0.000000,0.000000
13034122.000000,-2.283427,-1.662571,1.316253,-1.465490,1.696894,1.382340,-0.585770,0.240197,0.003064,1.123930,-0.124107,-0.146526,1.104431,-0.040899,0.252729,38.301434,-22.964676,-3.424196,0.332731,1.806442,-0.169511,0.000000,0.000000,0.000000,0.000000,0.000000,0.000000
13034123.000000,-2.283190,-1.662563,1.317377,-1.465608,1.696764,1.383440,-0.585804,0.236913,0.007775,1.124660,-0.122451,-0.140705,1.109454,-0.039646,0.228925,38.202251,-22.988480,-3.547182,0.279630,1.786300,-0.182328,0.000000,0.000000,0.000000,0.000000,0.000000,0.000000
13034124.000000,-2.282950,-1.662558,1.318507,-1.465735,1.696633,1.384556,-0.585842,0.241588,0.007425,1.125945,-0.124543,-0.137153,1.103785,-0.035907,0.054365,38.130840,-23.040054,-3.523378,0.237516,1.741439,-0.142960,0.000000,0.000000,0.000000,0.000000,0.000000,0.000000
13034125.000000,-2.282707,-1.662555,1.319599,-1.465858,1.696502,1.385667,-0.585874,0.244949,0.006584,1.113536,-0.121426,-0.130321,1.095814,-0.029891,-0.191607,38.079266,-22.841690,-3.547182,0.213712,1.741439,-0.188737,0.000000,0.000000,0.000000,0.000000,0.000000,0.000000
13034126.000000,-2.282464,-1.662551,1.320706,-1.465984,1.696372,1.386763,-0.585911,0.242847,0.005824,1.106391,-0.126182,-0.134457,1.094587,-0.032648,-0.342364,38.031658,-22.647293,-3.400392,0.201810,1.773483,-0.169511,0.000000,0.000000,0.000000,0.000000,0.000000,0.000000
13034127.000000,-2.282218,-1.662551,1.321818,-1.466104,1.696231,1.387874,-0.585944,0.243638,0.003567,1.103167,-0.123415,-0.135529,1.090117,-0.033583,-0.588336,38.055462,-22.448929,-3.376589,0.243009,1.773483,-0.175919,0.000000,0.000000,0.000000,0.000000,0.000000,0.000000
13034128.000000,-2.281980,-1.662547,1.322925,-1.466218,1.696095,1.388996,-0.585979,0.238348,0.004229,1.110454,-0.122922,-0.138706,1.103088,-0.030117,-0.711321,37.984051,-22.524307,-3.424196,0.225614,1.714889,-0.169511,0.000000,0.000000,0.000000,0.000000,0.000000,0.000000
13034129.000000,-2.281738,-1.662541,1.324057,-1.466318,1.695969,1.390094,-0.586014,0.239216,0.005275,1.119605,-0.117195,-0.134981,1.098211,-0.028010,-0.909686,37.884869,-22.671097,-3.570986,0.166105,1.670028,-0.149369,0.000000,0.000000,0.000000,0.000000,0.000000,0.000000
13034130.000000,-2.281504,-1.662535,1.325184,-1.466419,1.695830,1.391200,-0.586040,0.238068,0.004825,1.106206,-0.109069,-0.136256,1.101111,-0.024166,-1.032672,37.833294,-22.988480,-3.745546,0.219205,1.643478,-0.188737,0.000000,0.000000,0.000000,0.000000,0.000000,0.000000
13034131.000000,-2.281275,-1.662533,1.326317,-1.466517,1.695701,1.392295,-0.586079,0.232619,0.003849,1.110463,-0.103595,-0.135273,1.105060,-0.029797,-1.108050,37.809490,-23.258255,-3.920107,0.225614,1.630660,-0.130143,0.000000,0.000000,0.000000,0.000000,0.000000,0.000000
13034132.000000,-2.281054,-1.662538,1.327472,-1.466621,1.695572,1.393377,-0.586111,0.228337,0.000860,1.120067,-0.101891,-0.130749,1.100615,-0.031075,-1.159625,37.884869,-23.801773,-3.991518,0.255826,1.812850,-0.142960,0.000000,0.000000,0.000000,0.000000,0.000000,0.000000
13034133.000000,-2.280825,-1.662541,1.328601,-1.466727,1.695447,1.394457,-0.586141,0.229701,-0.000497,1.122020,-0.102743,-0.130990,1.091926,-0.031298,-1.254840,37.932476,-24.119156,-3.967714,0.261320,2.020675,-0.175919,0.000000,0.000000,0.000000,0.000000,0.000000,0.000000
13034134.000000,-2.280597,-1.662551,1.329740,-1.466822,1.695326,1.395533,-0.586178,0.229629,-0.000942,1.130194,-0.101389,-0.125080,1.083304,-0.034172,-1.306414,38.079266,-24.341324,-4.019289,0.225614,2.053634,-0.142960,0.000000,0.000000,0.000000,0.000000,0.000000,0.000000
13034135.000000,-2.280369,-1.662553,1.330857,-1.466919,1.695205,1.396642,-0.586206,0.228475,-0.000928,1.128005,-0.101482,-0.120690,1.080048,-0.033937,-1.453204,38.103069,-24.388931,-4.019289,0.189908,1.930038,-0.169511,0.000000,0.000000,0.000000,0.000000,0.000000,0.000000
13034136.000000,-2.280144,-1.662558,1.331992,-1.467017,1.695084,1.397728,-0.586237,0.223810,-0.002189,1.133725,-0.102325,-0.117968,1.082296,-0.035799,-1.580157,38.178448,-24.436539,-3.991518,0.159696,1.851302,-0.149369,0.000000,0.000000,0.000000,0.000000,0.000000,0.000000
13034137.000000,-2.279914,-1.662563,1.333115,-1.467112,1.694965,1.398820,-0.586264,0.225977,-0.002986,1.131746,-0.100604,-0.115166,1.078962,-0.029797,-1.750750,38.249859,-24.218338,-3.920107,0.112089,1.903487,-0.196061,0.000000,0.000000,0.000000,0.000000,0.000000,0.000000
13034138.000000,-2.279691,-1.662570,1.334213,-1.467203,1.694829,1.399906,-0.586300,0.225135,-0.004202,1.103720,-0.100302,-0.122159,1.075439,-0.034069,-1.873736,38.349041,-23.920792,-3.920107,0.183500,1.974899,-0.136552,0.000000,0.000000,0.000000,0.000000,0.000000,0.000000
13034139.000000,-2.279472,-1.662588,1.335321,-1.467296,1.694695,1.400981,-0.586321,0.219765,-0.007917,1.093063,-0.097135,-0.123513,1.080121,-0.028247,-1.949114,38.571209,-23.528030,-3.920107,0.279630,2.001449,-0.188737,0.000000,0.000000,0.000000,0.000000,0.000000,0.000000
13034140.000000,-2.279259,-1.662592,1.336424,-1.467388,1.694568,1.402079,-0.586351,0.219655,-0.006331,1.102374,-0.097898,-0.126380,1.087362,-0.026877,-2.024493,38.618816,-23.357437,-3.920107,0.308927,1.995040,-0.163102,0.000000,0.000000,0.000000,0.000000,0.000000,0.000000
13034141.000000,-2.279045,-1.662592,1.337543,-1.467472,1.694454,1.403172,-0.586377,0.217392,-0.004175,1.110221,-0.089949,-0.120343,1.094326,-0.028607,-2.024493,38.618816,-23.286026,-4.019289,0.243009,1.865035,-0.188737,0.000000,0.000000,0.000000,0.000000,0.000000,0.000000
13034142.000000,-2.278830,-1.662598,1.338666,-1.467558,1.694338,1.404286,-0.586407,0.217380,-0.007046,1.107337,-0.089734,-0.116278,1.101433,-0.031410,-2.072100,38.666424,-23.234451,-4.019289,0.178007,1.689254,-0.175919,0.000000,0.000000,0.000000,0.000000,0.000000,0.000000
13034143.000000,-2.278627,-1.662607,1.339781,-1.467637,1.694214,1.405389,-0.586435,0.212069,-0.007813,1.112436,-0.086920,-0.116252,1.090822,-0.028989,-2.048296,38.789410,-23.286026,-4.118471,0.201810,1.605026,-0.155778,0.000000,0.000000,0.000000,0.000000,0.000000,0.000000
13034144.000000,-2.278421,-1.662617,1.340907,-1.467715,1.694101,1.406462,-0.586460,0.210785,-0.010499,1.113996,-0.086486,-0.113762,1.088257,-0.025678,-2.123675,38.888592,-23.409012,-4.166078,0.166105,1.702071,-0.175919,0.000000,0.000000,0.000000,0.000000,0.000000,0.000000
13034145.000000,-2.278217,-1.662626,1.342035,-1.467798,1.693982,1.407547,-0.586490,0.209168,-0.010243,1.113267,-0.084052,-0.113822,1.085987,-0.030060,-2.171282,39.011578,-23.456619,-4.166078,0.166105,1.800033,-0.136552,0.000000,0.000000,0.000000,0.000000,0.000000,0.000000
13034146.000000,-2.278014,-1.662633,1.343148,-1.467868,1.693868,1.408646,-0.586511,0.205842,-0.008775,1.117487,-0.082326,-0.112915,1.085307,-0.025961,-2.246661,39.082989,-23.555801,-4.289064,0.147794,1.871444,-0.169511,0.000000,0.000000,0.000000,0.000000,0.000000,0.000000
13034147.000000,-2.277819,-1.662638,1.344257,-1.467933,1.693747,1.409741,-0.586541,0.204664,-0.006613,1.109301,-0.077522,-0.113862,1.088238,-0.029901,-2.246661,39.106792,-23.504227,-4.439821,0.171598,1.747848,-0.142960,0.000000,0.000000,0.000000,0.000000,0.000000,0.000000
13034148.000000,-2.277622,-1.662646,1.345359,-1.468000,1.693623,1.410841,-0.586567,0.202284,-0.006327,1.093230,-0.074587,-0.115226,1.085771,-0.027519,-2.322039,39.182171,-23.480423,-4.562807,0.213712,1.682845,-0.130143,0.000000,0.000000,0.000000,0.000000,0.000000,0.000000
13034149.000000,-2.277415,-1.662646,1.346455,-1.468072,1.693501,1.411920,-0.586584,0.202442,-0.003128,1.090278,-0.075391,-0.119884,1.086538,-0.022806,-2.492632,39.130596,-23.210648,-4.562807,0.231107,1.721298,-0.196061,0.000000,0.000000,0.000000,0.000000,0.000000,0.000000
13034150.000000,-2.277222,-1.662651,1.347561,-1.468141,1.693379,1.413014,-0.586614,0.198564,-0.006109,1.096366,-0.075802,-0.119970,1.093396,-0.023615,-2.492632,39.158367,-23.040054,-4.562807,0.285123,1.735030,-0.149369,0.000000,0.000000,0.000000,0.000000,0.000000,0.000000
13034151.000000,-2.277019,-1.662652,1.348656,-1.468213,1.693262,1.414110,-0.586635,0.202454,-0.006905,1.099277,-0.074076,-0.119252,1.091260,-0.017904,-2.643389,39.130596,-22.917068,-4.511232,0.327238,1.773483,-0.142960,0.000000,0.000000,0.000000,0.000000,0.000000,0.000000
13034152.000000,-2.276826,-1.662649,1.349776,-1.468281,1.693156,1.415199,-0.586659,0.196717,-0.003449,1.099494,-0.072927,-0.113424,1.090704,-0.018291,-2.690997,39.059185,-23.016251,-4.439821,0.219205,1.689254,-0.136552,0.000000,0.000000,0.000000,0.000000,0.000000,0.000000
13034153.000000,-2.276641,-1.662646,1.350888,-1.468346,1.693047,1.416319,-0.586675,0.194427,-0.000924,1.105693,-0.067801,-0.111162,1.091574,-0.015896,-2.690997,38.983807,-23.286026,-4.412050,0.159696,1.494247,-0.202470,0.000000,0.000000,0.000000,0.000000,0.000000,0.000000
13034154.000000,-2.276459,-1.662640,1.352026,-1.468404,1.692939,1.417408,-0.586706,0.190922,0.001321,1.120709,-0.065390,-0.105757,1.109546,-0.020272,-2.619586,38.888592,-23.651016,-4.463624,0.117582,1.487838,-0.110001,0.000000,0.000000,0.000000,0.000000,0.000000,0.000000
13034155.000000,-2.276277,-1.662640,1.353176,-1.468462,1.692836,1.418504,-0.586722,0.190857,0.000663,1.124159,-0.064283,-0.101989,1.102958,-0.022187,-2.568011,38.888592,-24.119156,-4.487428,0.081876,1.591293,-0.169511,0.000000,0.000000,0.000000,0.000000,0.000000,0.000000
13034156.000000,-2.276101,-1.662643,1.354295,-1.468514,1.692721,1.419585,-0.586745,0.186208,-0.000835,1.113459,-0.061989,-0.103162,1.090488,-0.021152,-2.520403,38.936199,-24.388931,-4.562807,0.159696,1.858627,-0.175919,0.000000,0.000000,0.000000,0.000000,0.000000,0.000000
13034157.000000,-2.275931,-1.662647,1.355431,-1.468570,1.692608,1.420643,-0.586769,0.181413,-0.001793,1.116001,-0.062546,-0.103349,1.086876,-0.021909,-2.421221,38.983807,-24.682510,-4.562807,0.225614,2.137862,-0.142960,0.000000,0.000000,0.000000,0.000000,0.000000,0.000000
13034158.000000,-2.275761,-1.662645,1.356547,-1.468617,1.692499,1.421739,-0.586784,0.177687,-0.003898,1.117247,-0.057905,-0.105804,1.089783,-0.019389,-2.298235,38.960003,-24.857071,-4.634218,0.231107,2.183639,-0.188737,0.000000,0.000000,0.000000,0.000000,0.000000,0.000000
13034159.000000,-2.275584,-1.662646,1.357668,-1.468671,1.692390,1.422848,-0.586812,0.177671,-0.002375,1.121220,-0.056860,-0.106304,1.099580,-0.021077,-2.298235,38.936199,-24.928482,-4.610414,0.195402,2.118636,-0.142960,0.000000,0.000000,0.000000,0.000000,0.000000,0.000000
13034160.000000,-2.275407,-1.662643,1.358792,-1.468732,1.692283,1.423939,-0.586828,0.178961,-0.000719,1.114789,-0.056265,-0.106664,1.103205,-0.019021,-2.345843,38.888592,-24.928482,-4.439821,0.154203,2.020675,-0.182328,0.000000,0.000000,0.000000,0.000000,0.000000,0.000000
13034161.000000,-2.275235,-1.662650,1.359889,-1.468796,1.692170,1.425035,-0.586849,0.176610,-0.005502,1.110235,-0.062830,-0.110094,1.096887,-0.019793,-2.421221,38.960003,-24.682510,-4.213686,0.201810,1.955673,-0.163102,0.000000,0.000000,0.000000,0.000000,0.000000,0.000000
13034162.000000,-2.275064,-1.662650,1.361007,-1.468860,1.692065,1.426107,-0.586869,0.174749,-0.003515,1.110690,-0.061044,-0.111046,1.086548,-0.019848,-2.492632,38.936199,-24.511917,-3.991518,0.225614,1.988631,-0.155778,0.000000,0.000000,0.000000,0.000000,0.000000,0.000000
13034163.000000,-2.274901,-1.662661,1.362113,-1.468918,1.691956,1.427190,-0.586885,0.170650,-0.005523,1.099451,-0.060492,-0.111877,1.087190,-0.014585,-2.445025,39.059185,-24.190567,-3.868532,0.237516,2.053634,-0.163102,0.000000,0.000000,0.000000,0.000000,0.000000,0.000000
13034164.000000,-2.274746,-1.662658,1.363220,-1.468966,1.691850,1.428293,-0.586906,0.163442,-0.002796,1.105204,-0.052758,-0.106043,1.090886,-0.016666,-2.345843,39.011578,-24.166763,-3.920107,0.201810,2.014266,-0.136552,0.000000,0.000000,0.000000,0.000000,0.000000,0.000000
13034165.000000,-2.274598,-1.662660,1.364336,-1.469007,1.691753,1.429382,-0.586922,0.156598,-0.002034,1.110587,-0.046226,-0.100148,1.090665,-0.016448,-2.171282,39.011578,-24.071548,-4.019289,0.117582,1.923629,-0.155778,0.000000,0.000000,0.000000,0.000000,0.000000,0.000000
13034166.000000,-2.274458,-1.662661,1.365442,-1.469051,1.691648,1.430485,-0.586942,0.151176,-0.000835,1.089835,-0.042234,-0.098552,1.088830,-0.018228,-1.972918,38.983807,-24.119156,-4.090700,0.105680,1.819259,-0.122819,0.000000,0.000000,0.000000,0.000000,0.000000,0.000000
13034167.000000,-2.274317,-1.662663,1.366566,-1.469093,1.691540,1.431568,-0.586955,0.148152,-0.002991,1.094708,-0.040624,-0.098652,1.091905,-0.021508,-1.826129,38.960003,-24.218338,-4.118471,0.129484,1.760665,-0.163102,0.000000,0.000000,0.000000,0.000000,0.000000,0.000000
13034168.000000,-2.274180,-1.662663,1.367693,-1.469136,1.691436,1.432643,-0.586976,0.144959,-0.004362,1.099495,-0.041161,-0.102903,1.091218,-0.022321,-1.627764,38.912395,-24.313553,-4.066896,0.147794,1.930038,-0.122819,0.000000,0.000000,0.000000,0.000000,0.000000,0.000000
13034169.000000,-2.274038,-1.662671,1.368796,-1.469179,1.691315,1.433738,-0.586985,0.142348,-0.005727,1.102314,-0.041288,-0.108712,1.086622,-0.019563,-1.552386,39.011578,-24.388931,-4.019289,0.237516,1.968490,-0.169511,0.000000,0.000000,0.000000,0.000000,0.000000,0.000000
13034170.000000,-2.273895,-1.662670,1.369908,-1.469222,1.691205,1.434829,-0.587005,0.141002,-0.002986,1.108021,-0.042574,-0.110348,1.084731,-0.021170,-1.504779,38.960003,-24.388931,-3.920107,0.255826,1.865035,-0.122819,0.000000,0.000000,0.000000,0.000000,0.000000,0.000000
13034171.000000,-2.273761,-1.662674,1.371004,-1.469263,1.691092,1.435939,-0.587013,0.139122,-0.003477,1.103774,-0.042845,-0.106385,1.080524,-0.018525,-1.429400,39.011578,-24.341324,-3.844728,0.261320,1.727706,-0.175919,0.000000,0.000000,0.000000,0.000000,0.000000,0.000000
13034172.000000,-2.273625,-1.662676,1.372101,-1.469300,1.690984,1.437026,-0.587029,0.135409,-0.002529,1.098004,-0.041769,-0.106949,1.102166,-0.019161,-1.429400,39.011578,-24.190567,-3.820925,0.237516,1.702071,-0.163102,0.000000,0.000000,0.000000,0.000000,0.000000,0.000000
13034173.000000,-2.273493,-1.662677,1.373201,-1.469338,1.690880,1.438115,-0.587045,0.135909,-0.001194,1.094905,-0.042455,-0.107302,1.097163,-0.019558,-1.354022,38.983807,-23.948563,-3.745546,0.207303,1.800033,-0.149369,0.000000,0.000000,0.000000,0.000000,0.000000,0.000000
13034174.000000,-2.273360,-1.662675,1.374278,-1.469374,1.690771,1.439211,-0.587052,0.133984,0.000756,1.093412,-0.041938,-0.108530,1.089395,-0.013189,-1.354022,38.912395,-23.702591,-3.697939,0.201810,1.851302,-0.188737,0.000000,0.000000,0.000000,0.000000,0.000000,0.000000
13034175.000000,-2.273234,-1.662679,1.375376,-1.469407,1.690665,1.440298,-0.587069,0.130695,0.000415,1.088336,-0.038588,-0.110098,1.092063,-0.012170,-1.306414,38.912395,-23.579605,-3.646364,0.225614,1.838485,-0.130143,0.000000,0.000000,0.000000,0.000000,0.000000,0.000000
13034176.000000,-2.273120,-1.662682,1.376490,-1.469440,1.690565,1.441395,-0.587076,0.125721,0.000210,1.103336,-0.035960,-0.103296,1.092725,-0.007322,-1.131854,38.912395,-23.603409,-3.598757,0.154203,1.844894,-0.175919,0.000000,0.000000,0.000000,0.000000,0.000000,0.000000
13034177.000000,-2.272994,-1.662673,1.377609,-1.469473,1.690462,1.442506,-0.587089,0.125646,0.003524,1.115215,-0.037474,-0.100073,1.099896,-0.010712,-1.108050,38.765606,-23.972366,-3.547182,0.123990,1.806442,-0.163102,0.000000,0.000000,0.000000,0.000000,0.000000,0.000000
13034178.000000,-2.272879,-1.662668,1.378733,-1.469498,1.690356,1.443598,-0.587102,0.119919,0.004075,1.112454,-0.033589,-0.100124,1.101306,-0.012982,-0.985064,38.690228,-24.289749,-3.570986,0.159696,1.741439,-0.155778,0.000000,0.000000,0.000000,0.000000,0.000000,0.000000
13034179.000000,-2.272768,-1.662672,1.379841,-1.469525,1.690251,1.444693,-0.587115,0.118737,0.002039,1.114824,-0.032581,-0.099873,1.092183,-0.013888,-0.862078,38.717999,-24.583328,-3.523378,0.195402,1.754256,-0.169511,0.000000,0.000000,0.000000,0.000000,0.000000,0.000000
13034180.000000,-2.272658,-1.662671,1.380970,-1.469546,1.690140,1.445764,-0.587128,0.117929,0.001988,1.123298,-0.030053,-0.104467,1.079752,-0.011192,-0.735125,38.690228,-24.952286,-3.547182,0.249418,1.851302,-0.149369,0.000000,0.000000,0.000000,0.000000,0.000000,0.000000
13034181.000000,-2.272550,-1.662671,1.382102,-1.469571,1.690033,1.446843,-0.587139,0.113802,0.001309,1.122564,-0.030338,-0.107133,1.078734,-0.012058,-0.588336,38.690228,-25.273636,-3.475771,0.267728,2.001449,-0.175919,0.000000,0.000000,0.000000,0.000000,0.000000,0.000000
13034182.000000,-2.272438,-1.662671,1.383201,-1.469589,1.689928,1.447937,-0.587151,0.113749,0.000211,1.120067,-0.028187,-0.108439,1.075883,-0.009572,-0.564532,38.717999,-25.249832,-3.499574,0.267728,2.060043,-0.163102,0.000000,0.000000,0.000000,0.000000,0.000000,0.000000
13034183.000000,-2.272322,-1.662679,1.384312,-1.469610,1.689821,1.449026,-0.587161,0.115438,-0.002652,1.112543,-0.025435,-0.105520,1.081106,-0.011856,-0.612139,38.837017,-25.198257,-3.448000,0.285123,1.936446,-0.163102,0.000000,0.000000,0.000000,0.000000,0.000000,0.000000
13034184.000000,-2.272212,-1.662682,1.385395,-1.469635,1.689721,1.450113,-0.587171,0.112526,-0.002424,1.101147,-0.022354,-0.106357,1.074599,-0.009160,-0.635943,38.864788,-24.952286,-3.301210,0.261320,1.890670,-0.155778,0.000000,0.000000,0.000000,0.000000,0.000000,0.000000
13034185.000000,-2.272098,-1.662692,1.386508,-1.469660,1.689622,1.451186,-0.587177,0.111231,-0.003848,1.102295,-0.026694,-0.102524,1.080101,-0.010368,-0.711321,38.960003,-24.928482,-3.126650,0.243009,1.884261,-0.188737,0.000000,0.000000,0.000000,0.000000,0.000000,0.000000
13034186.000000,-2.271996,-1.662696,1.387597,-1.469682,1.689526,1.452269,-0.587190,0.108556,-0.003776,1.093090,-0.025461,-0.100077,1.081564,-0.008811,-0.711321,39.011578,-24.464310,-3.003664,0.231107,1.884261,-0.163102,0.000000,0.000000,0.000000,0.000000,0.000000,0.000000
13034187.000000,-2.271890,-1.662702,1.388687,-1.469705,1.689422,1.453360,-0.587200,0.106843,-0.004190,1.093284,-0.025029,-0.100823,1.080287,-0.006857,-0.735125,39.082989,-24.313553,-2.856874,0.291532,1.871444,-0.155778,0.000000,0.000000,0.000000,0.000000,0.000000,0.000000
13034188.000000,-2.271792,-1.662706,1.389790,-1.469714,1.689327,1.454444,-0.587210,0.103070,-0.003353,1.090717,-0.019995,-0.097618,1.076870,-0.004122,-0.635943,39.106792,-24.242142,-2.904482,0.255826,1.806442,-0.182328,0.000000,0.000000,0.000000,0.000000,0.000000,0.000000
13034189.000000,-2.271702,-1.662703,1.390875,-1.469718,1.689236,1.455557,-0.587225,0.096645,-0.000566,1.112225,-0.015360,-0.090328,1.082680,-0.009324,-0.512957,39.035381,-24.119156,-3.003664,0.207303,1.597701,-0.142960,0.000000,0.000000,0.000000,0.000000,0.000000,0.000000
13034190.000000,-2.271610,-1.662705,1.391990,-1.469720,1.689135,1.456647,-0.587231,0.095820,0.000178,1.117697,-0.009695,-0.092948,1.083055,-0.010429,-0.441546,39.011578,-24.242142,-3.079042,0.243009,1.532699,-0.175919,0.000000,0.000000,0.000000,0.000000,0.000000,0.000000
13034191.000000,-2.271524,-1.662704,1.393101,-1.469721,1.689043,1.457745,-0.587245,0.090742,0.001324,1.109765,-0.004500,-0.093183,1.085900,-0.014056,-0.290789,38.960003,-24.265945,-3.202028,0.243009,1.539108,-0.136552,0.000000,0.000000,0.000000,0.000000,0.000000,0.000000
13034192.000000,-2.271434,-1.662713,1.394190,-1.469724,1.688944,1.458835,-0.587250,0.089520,-0.000881,1.108792,-0.006144,-0.094784,1.080467,-0.009976,-0.243182,39.035381,-24.242142,-3.225832,0.279630,1.702071,-0.149369,0.000000,0.000000,0.000000,0.000000,0.000000,0.000000
13034193.000000,-2.271345,-1.662720,1.395297,-1.469726,1.688843,1.459904,-0.587255,0.088531,-0.001145,1.105738,-0.004304,-0.095855,1.083003,-0.010915,-0.215411,39.059185,-24.313553,-3.249635,0.327238,1.877853,-0.182328,0.000000,0.000000,0.000000,0.000000,0.000000,0.000000
