chaoyuefei/paper-gmrm-data/robot_logs/s2_dq_gmrm_xz_min_0.50_log_20260314_174308.csv
# time_ms,q_0,q_1,q_2,q_3,q_4,q_5,q_6,dq_0,dq_1,dq_2,dq_3,dq_4,dq_5,dq_6,tau_J_0,tau_J_1,tau_J_2,tau_J_3,tau_J_4,tau_J_5,tau_J_6,O_dP_EE_c_0,O_dP_EE_c_1,O_dP_EE_c_2,O_dP_EE_c_3,O_dP_EE_c_4,O_dP_EE_c_5
12851100.000000,-2.415666,-1.662607,1.042878,-1.356064,1.795469,1.081427,-0.548611,-0.000405,0.000378,-0.000252,-0.000358,0.000367,0.000053,-0.001618,0.054365,41.554607,-21.052444,-5.749025,0.799650,1.305648,0.061202,0.000000,0.000000,0.000000,0.000000,0.000000,0.000000
12851101.000000,-2.415666,-1.662610,1.042879,-1.356061,1.795467,1.081427,-0.548604,-0.000270,-0.000954,0.000389,0.000888,-0.000399,0.000035,0.001363,0.054365,41.606182,-21.076248,-5.796632,0.817045,1.305648,-0.004716,0.000000,0.000000,0.000000,0.000000,0.000000,0.000000
12851102.000000,-2.415661,-1.662607,1.042883,-1.356064,1.795469,1.081427,-0.548613,0.001491,0.000570,0.001373,-0.000512,0.000175,0.000023,-0.001058,-0.017047,41.554607,-21.123856,-5.749025,0.805143,1.305648,0.048385,0.000000,0.000000,0.000000,0.000000,0.000000,0.000000
12851103.000000,-2.415666,-1.662609,1.042879,-1.356062,1.795469,1.081427,-0.548609,-0.000677,-0.000177,-0.000198,0.000222,0.000320,0.000016,-0.000197,0.054365,41.578411,-21.076248,-5.772829,0.799650,1.305648,0.034652,0.000000,0.000000,0.000000,0.000000,0.000000,0.000000
12851104.000000,-2.415660,-1.662608,1.042876,-1.356063,1.795466,1.081425,-0.548612,0.009314,-0.004585,-0.001339,0.001448,0.000010,-0.001414,-0.008612,0.304304,41.483196,-21.024673,-5.697450,0.805143,1.344100,0.009017,0.000000,0.000000,0.000000,0.000000,0.000000,0.000000
12851105.000000,-2.415658,-1.662617,1.042877,-1.356056,1.795467,1.081420,-0.548626,0.013853,-0.010970,0.000601,0.005072,-0.000703,-0.002283,-0.009943,1.391340,41.360210,-20.953262,-5.598268,0.698026,1.519881,-0.023942,0.000000,0.000000,0.000000,0.000000,0.000000,0.000000
12851106.000000,-2.415628,-1.662612,1.042888,-1.356058,1.795460,1.081417,-0.548649,0.019551,-0.003487,0.003823,0.005196,-0.002199,0.000303,-0.015309,2.978254,40.844463,-20.953262,-5.253114,0.608304,1.760665,-0.070634,0.000000,0.000000,0.000000,0.000000,0.000000,0.000000
12851107.000000,-2.415581,-1.662612,1.042908,-1.356063,1.795438,1.081434,-0.548693,0.022415,-0.005174,0.009223,0.003027,-0.006162,0.007379,-0.026504,4.858747,40.332684,-20.953262,-4.907960,0.589994,1.877853,-0.050492,0.000000,0.000000,0.000000,0.000000,0.000000,0.000000
12851108.000000,-2.415519,-1.662613,1.042928,-1.356076,1.795411,1.081480,-0.548749,0.029847,-0.001230,0.013643,-0.005205,-0.015263,0.024699,-0.033375,6.739240,39.840740,-20.830276,-4.535036,0.613798,1.812850,-0.070634,0.000000,0.000000,0.000000,0.000000,0.000000,0.000000
12851109.000000,-2.415431,-1.662612,1.042960,-1.356103,1.795365,1.081557,-0.548825,0.043001,-0.001330,0.018699,-0.012089,-0.023883,0.043019,-0.049197,8.349957,39.328960,-20.782669,-4.118471,0.691617,1.584884,-0.056901,0.000000,0.000000,0.000000,0.000000,0.000000,0.000000
12851110.000000,-2.415326,-1.662612,1.042998,-1.356144,1.795316,1.081649,-0.548923,0.057447,0.000662,0.025769,-0.023234,-0.032587,0.059603,-0.065019,9.782147,38.864788,-20.731094,-3.697939,0.709928,1.396285,-0.056901,0.000000,0.000000,0.000000,0.000000,0.000000,0.000000
12851111.000000,-2.415213,-1.662610,1.043041,-1.356196,1.795251,1.081760,-0.549039,0.072866,0.001876,0.032439,-0.029100,-0.043395,0.073349,-0.081776,11.019940,38.396648,-20.608109,-3.376589,0.721830,1.305648,-0.056901,0.000000,0.000000,0.000000,0.000000,0.000000,0.000000
12851112.000000,-2.415080,-1.662604,1.043100,-1.356257,1.795174,1.081886,-0.549177,0.088967,0.005231,0.039320,-0.038909,-0.059227,0.090630,-0.097942,12.087140,37.984051,-20.560501,-3.102846,0.679716,1.337692,-0.083451,0.000000,0.000000,0.000000,0.000000,0.000000,0.000000
12851113.000000,-2.414940,-1.662598,1.043161,-1.356331,1.795085,1.082030,-0.549341,0.105655,0.006517,0.045874,-0.049166,-0.067841,0.109876,-0.120537,13.027387,37.615093,-20.437515,-2.833071,0.542386,1.461288,-0.089860,0.000000,0.000000,0.000000,0.000000,0.000000,0.000000
12851114.000000,-2.414786,-1.662590,1.043247,-1.356410,1.794971,1.082205,-0.549539,0.119209,0.007001,0.057759,-0.061274,-0.081022,0.129790,-0.144124,13.892255,37.273907,-20.485123,-2.658510,0.452665,1.572067,-0.044083,0.000000,0.000000,0.000000,0.000000,0.000000,0.000000
12851115.000000,-2.414615,-1.662570,1.043348,-1.356505,1.794837,1.082406,-0.549751,0.135431,0.009845,0.070388,-0.075741,-0.095908,0.151933,-0.166095,14.610333,36.833538,-20.584305,-2.535524,0.362943,1.617843,-0.116410,0.000000,0.000000,0.000000,0.000000,0.000000,0.000000
12851116.000000,-2.414428,-1.662551,1.043464,-1.356621,1.794683,1.082645,-0.550004,0.150858,0.014197,0.084540,-0.087356,-0.113107,0.183114,-0.197359,15.153852,36.440777,-20.731094,-2.384767,0.315336,1.578475,-0.089860,0.000000,0.000000,0.000000,0.000000,0.000000,0.000000
12851117.000000,-2.414221,-1.662530,1.043591,-1.356752,1.794500,1.082912,-0.550277,0.170181,0.014255,0.096688,-0.101974,-0.137802,0.204981,-0.219623,15.578351,36.048016,-20.830276,-2.261781,0.356534,1.494247,-0.070634,0.000000,0.000000,0.000000,0.000000,0.000000,0.000000
12851118.000000,-2.414001,-1.662507,1.043735,-1.356904,1.794285,1.083205,-0.550557,0.183914,0.014638,0.113784,-0.119630,-0.158539,0.234592,-0.234531,15.899701,35.631451,-21.000870,-2.114992,0.434354,1.409103,-0.097184,0.000000,0.000000,0.000000,0.000000,0.000000,0.000000
12851119.000000,-2.413757,-1.662489,1.043890,-1.357066,1.794045,1.083519,-0.550854,0.205860,0.016036,0.125073,-0.135942,-0.179698,0.258209,-0.251996,16.098066,35.314068,-21.123856,-2.114992,0.542386,1.416427,-0.083451,0.000000,0.000000,0.000000,0.000000,0.000000,0.000000
12851120.000000,-2.413503,-1.662469,1.044056,-1.357247,1.793795,1.083856,-0.551154,0.220475,0.017255,0.141494,-0.149222,-0.197141,0.293087,-0.263759,16.320234,34.996685,-21.223038,-2.091188,0.578092,1.461288,-0.083451,0.000000,0.000000,0.000000,0.000000,0.000000,0.000000
12851121.000000,-2.413238,-1.662458,1.044229,-1.357441,1.793531,1.084206,-0.551448,0.233091,0.013179,0.149380,-0.161804,-0.217858,0.313170,-0.276102,16.490828,34.897503,-21.223038,-2.091188,0.578092,1.461288,-0.089860,0.000000,0.000000,0.000000,0.000000,0.000000,0.000000
12851122.000000,-2.412950,-1.662444,1.044412,-1.357644,1.793256,1.084585,-0.551745,0.248919,0.014618,0.161408,-0.177573,-0.235520,0.329606,-0.282657,16.590010,34.774517,-21.223038,-2.091188,0.482877,1.546432,-0.083451,0.000000,0.000000,0.000000,0.000000,0.000000,0.000000
12851125.000000,-2.411977,-1.662423,1.045023,-1.358391,1.792327,1.085851,-0.552647,0.305755,0.010549,0.191854,-0.231193,-0.284662,0.390941,-0.295792,16.518599,34.679302,-21.076248,-1.742067,0.267728,1.708480,-0.110001,0.000000,0.000000,0.000000,0.000000,0.000000,0.000000
12851126.000000,-2.411628,-1.662421,1.045243,-1.358687,1.791975,1.086324,-0.552942,0.318763,0.006312,0.200632,-0.250735,-0.306048,0.416906,-0.294236,16.467024,34.726910,-20.953262,-1.496095,0.327238,1.611434,-0.070634,0.000000,0.000000,0.000000,0.000000,0.000000,0.000000
12851127.000000,-2.411261,-1.662416,1.045482,-1.358981,1.791600,1.086832,-0.553231,0.333260,0.008503,0.208048,-0.265098,-0.320944,0.441491,-0.289838,16.490828,34.703106,-20.877884,-1.396913,0.362943,1.474105,-0.077042,0.000000,0.000000,0.000000,0.000000,0.000000,0.000000
12851128.000000,-2.410881,-1.662414,1.045725,-1.359279,1.791215,1.087351,-0.553510,0.348884,0.009059,0.220467,-0.275824,-0.342858,0.462993,-0.285921,16.566206,34.726910,-20.806473,-1.420717,0.440763,1.422836,-0.122819,0.000000,0.000000,0.000000,0.000000,0.000000,0.000000
12851129.000000,-2.410497,-1.662413,1.045981,-1.359601,1.790813,1.087891,-0.553796,0.359612,0.006707,0.230461,-0.287908,-0.357896,0.486403,-0.287433,16.689192,34.726910,-20.754898,-1.448488,0.512174,1.435653,-0.070634,0.000000,0.000000,0.000000,0.000000,0.000000,0.000000
12851130.000000,-2.410105,-1.662414,1.046244,-1.359935,1.790398,1.088451,-0.554064,0.367584,0.004415,0.239329,-0.303685,-0.371911,0.507095,-0.278660,16.911360,34.750713,-20.631912,-1.448488,0.512174,1.494247,-0.142960,0.000000,0.000000,0.000000,0.000000,0.000000,0.000000
12851131.000000,-2.409702,-1.662412,1.046507,-1.360288,1.789970,1.089012,-0.554338,0.378945,0.003319,0.246222,-0.319278,-0.391678,0.517723,-0.272749,17.109724,34.750713,-20.512894,-1.396913,0.500272,1.572067,-0.142960,0.000000,0.000000,0.000000,0.000000,0.000000,0.000000
12851132.000000,-2.409277,-1.662411,1.046794,-1.360649,1.789526,1.089607,-0.554616,0.391449,0.002494,0.256791,-0.334841,-0.410769,0.537878,-0.273387,17.260481,34.750713,-20.512894,-1.349306,0.470060,1.578475,-0.077042,0.000000,0.000000,0.000000,0.000000,0.000000,0.000000
12851133.000000,-2.408839,-1.662409,1.047092,-1.361030,1.789076,1.090216,-0.554884,0.402420,0.005866,0.275233,-0.351577,-0.423404,0.573450,-0.267858,17.482649,34.726910,-20.485123,-1.198549,0.393156,1.507064,-0.142960,0.000000,0.000000,0.000000,0.000000,0.000000,0.000000
12851134.000000,-2.408400,-1.662405,1.047391,-1.361432,1.788602,1.090859,-0.555161,0.413503,0.004912,0.283974,-0.365306,-0.435412,0.590594,-0.269279,17.728621,34.703106,-20.437515,-1.027956,0.405057,1.377059,-0.083451,0.000000,0.000000,0.000000,0.000000,0.000000,0.000000
12851135.000000,-2.407939,-1.662401,1.047705,-1.361844,1.788115,1.091513,-0.555429,0.426456,0.004165,0.290805,-0.385855,-0.464516,0.606000,-0.264027,18.002363,34.679302,-20.413712,-0.805788,0.381254,1.292831,-0.064225,0.000000,0.000000,0.000000,0.000000,0.000000,0.000000
12851136.000000,-2.407461,-1.662394,1.048021,-1.362275,1.787604,1.092171,-0.555688,0.443438,0.004790,0.299868,-0.395966,-0.477945,0.620019,-0.261215,18.149153,34.603924,-20.413712,-0.607423,0.428861,1.299239,-0.142960,0.000000,0.000000,0.000000,0.000000,0.000000,0.000000
12851137.000000,-2.406974,-1.662385,1.048345,-1.362713,1.787076,1.092863,-0.555953,0.454698,0.005701,0.310692,-0.411823,-0.497879,0.640396,-0.264271,18.474470,34.504742,-20.338333,-0.357485,0.500272,1.305648,-0.083451,0.000000,0.000000,0.000000,0.000000,0.000000,0.000000
12851138.000000,-2.406470,-1.662380,1.048688,-1.363165,1.786545,1.093577,-0.556208,0.464947,0.004498,0.320310,-0.422844,-0.510337,0.657359,-0.260969,18.720442,34.480938,-20.290726,-0.286073,0.500272,1.305648,-0.149369,0.000000,0.000000,0.000000,0.000000,0.000000,0.000000
12851139.000000,-2.405964,-1.662371,1.049036,-1.363633,1.785993,1.094296,-0.556466,0.478357,0.008735,0.328019,-0.438836,-0.520482,0.678212,-0.260507,18.994184,34.385723,-20.266922,-0.262270,0.542386,1.344100,-0.142960,0.000000,0.000000,0.000000,0.000000,0.000000,0.000000
12851140.000000,-2.405445,-1.662360,1.049403,-1.364105,1.785419,1.095041,-0.556713,0.484854,0.008506,0.337417,-0.449444,-0.532287,0.688484,-0.256389,19.386946,34.286541,-20.314529,-0.210695,0.554288,1.377059,-0.155778,0.000000,0.000000,0.000000,0.000000,0.000000,0.000000
12851141.000000,-2.404911,-1.662350,1.049775,-1.364598,1.784848,1.095799,-0.556970,0.507436,0.011024,0.348845,-0.462271,-0.540227,0.710864,-0.254365,19.736067,34.211163,-20.389908,-0.186891,0.547880,1.442062,-0.136552,0.000000,0.000000,0.000000,0.000000,0.000000,0.000000
12851142.000000,-2.404363,-1.662346,1.050167,-1.365111,1.784254,1.096583,-0.557218,0.521060,0.007830,0.362912,-0.490059,-0.553414,0.737460,-0.251894,19.982038,34.211163,-20.437515,0.035277,0.500272,1.416427,-0.142960,0.000000,0.000000,0.000000,0.000000,0.000000,0.000000
12851143.000000,-2.403801,-1.662335,1.050579,-1.365640,1.783660,1.097396,-0.557470,0.532122,0.007251,0.376323,-0.502398,-0.564734,0.752458,-0.249803,20.279585,34.139751,-20.608109,0.186034,0.452665,1.370651,-0.142960,0.000000,0.000000,0.000000,0.000000,0.000000,0.000000
12851144.000000,-2.403226,-1.662322,1.051001,-1.366177,1.783030,1.098237,-0.557725,0.547037,0.010348,0.390079,-0.512728,-0.579146,0.777778,-0.245720,20.501753,34.064373,-20.806473,0.257445,0.446256,1.227828,-0.097184,0.000000,0.000000,0.000000,0.000000,0.000000,0.000000
12851145.000000,-2.402640,-1.662311,1.051432,-1.366715,1.782400,1.099097,-0.557962,0.559559,0.011953,0.398694,-0.522336,-0.593370,0.802607,-0.244622,20.874678,34.016766,-20.977066,0.257445,0.393156,1.136276,-0.122819,0.000000,0.000000,0.000000,0.000000,0.000000,0.000000
12851146.000000,-2.402029,-1.662292,1.051872,-1.367277,1.781753,1.099949,-0.558209,0.575611,0.012059,0.414787,-0.533371,-0.604730,0.812239,-0.239065,21.096846,33.869976,-21.123856,0.309019,0.369352,1.201278,-0.116410,0.000000,0.000000,0.000000,0.000000,0.000000,0.000000
12851147.000000,-2.401425,-1.662280,1.052326,-1.367840,1.781086,1.100839,-0.558450,0.581520,0.013317,0.423213,-0.541299,-0.622373,0.823760,-0.236606,21.469770,33.822369,-21.246841,0.158263,0.374845,1.285506,-0.097184,0.000000,0.000000,0.000000,0.000000,0.000000,0.000000
12851148.000000,-2.400788,-1.662265,1.052795,-1.368411,1.780397,1.101756,-0.558689,0.595337,0.015106,0.432243,-0.554439,-0.644953,0.853695,-0.235467,21.668135,33.723186,-21.369827,0.035277,0.452665,1.285506,-0.130143,0.000000,0.000000,0.000000,0.000000,0.000000,0.000000
12851149.000000,-2.400145,-1.662251,1.053259,-1.369001,1.779699,1.102675,-0.558928,0.609934,0.016104,0.438923,-0.559026,-0.667821,0.878120,-0.234032,21.862532,33.647808,-21.469009,-0.012331,0.446256,1.318465,-0.110001,0.000000,0.000000,0.000000,0.000000,0.000000,0.000000
12851150.000000,-2.399466,-1.662235,1.053747,-1.369607,1.778982,1.103622,-0.559164,0.633216,0.016749,0.452156,-0.573742,-0.679356,0.886527,-0.236610,21.914106,33.576397,-21.568192,0.134459,0.542386,1.285506,-0.136552,0.000000,0.000000,0.000000,0.000000,0.000000,0.000000
12851151.000000,-2.398768,-1.662221,1.054247,-1.370228,1.778263,1.104605,-0.559395,0.655556,0.016544,0.474926,-0.587493,-0.689494,0.931359,-0.232913,22.013288,33.528790,-21.762589,0.257445,0.691617,1.220504,-0.155778,0.000000,0.000000,0.000000,0.000000,0.000000,0.000000
12851152.000000,-2.398065,-1.662211,1.054740,-1.370861,1.777551,1.105598,-0.559636,0.672888,0.012014,0.480018,-0.602056,-0.684279,0.949350,-0.233695,22.112471,33.528790,-21.861771,0.455809,0.799650,1.194869,-0.097184,0.000000,0.000000,0.000000,0.000000,0.000000,0.000000
12851153.000000,-2.397347,-1.662203,1.055253,-1.371488,1.776848,1.106607,-0.559868,0.680258,0.011548,0.489842,-0.611056,-0.700529,0.963515,-0.229793,22.334639,33.552593,-21.984756,0.578795,0.882963,1.234237,-0.149369,0.000000,0.000000,0.000000,0.000000,0.000000,0.000000
12851154.000000,-2.396627,-1.662198,1.055771,-1.372137,1.776142,1.107630,-0.560101,0.688059,0.009751,0.500940,-0.623018,-0.703170,0.984701,-0.232753,22.287031,33.647808,-22.079971,0.578795,0.984586,1.312057,-0.175919,0.000000,0.000000,0.000000,0.000000,0.000000,0.000000
12851155.000000,-2.395894,-1.662194,1.056305,-1.372784,1.775442,1.108680,-0.560333,0.690413,0.010294,0.508411,-0.632101,-0.703037,1.003832,-0.233440,21.441999,33.822369,-21.909378,0.158263,0.913175,1.429244,-0.122819,0.000000,0.000000,0.000000,0.000000,0.000000,0.000000
12851156.000000,-2.395154,-1.662183,1.056869,-1.373466,1.774744,1.109753,-0.560560,0.699918,0.009697,0.524856,-0.646430,-0.711314,1.019039,-0.228959,19.513899,33.893780,-21.615799,-0.555849,0.900358,1.572067,-0.130143,0.000000,0.000000,0.000000,0.000000,0.000000,0.000000
12851157.000000,-2.394431,-1.662183,1.057443,-1.374166,1.774049,1.110833,-0.560777,0.708050,0.005920,0.541593,-0.660929,-0.702901,1.028730,-0.225972,16.986738,33.969158,-21.076248,-1.448488,0.774930,1.591293,-0.163102,0.000000,0.000000,0.000000,0.000000,0.000000,0.000000
12851158.000000,-2.393683,-1.662181,1.058039,-1.374873,1.773346,1.111939,-0.560999,0.724464,0.004713,0.554349,-0.672166,-0.702871,1.037697,-0.225658,13.967633,33.822369,-20.314529,-2.237978,0.661405,1.676437,-0.175919,0.000000,0.000000,0.000000,0.000000,0.000000,0.000000
12851159.000000,-2.392950,-1.662182,1.058660,-1.375614,1.772677,1.113046,-0.561230,0.732345,0.002370,0.573175,-0.688775,-0.689644,1.051459,-0.227897,11.194501,33.576397,-19.576614,-2.658510,0.452665,1.760665,-0.122819,0.000000,0.000000,0.000000,0.000000,0.000000,0.000000
12851160.000000,-2.392227,-1.662187,1.059310,-1.376332,1.772001,1.114194,-0.561450,0.734606,-0.001080,0.587889,-0.715429,-0.678520,1.072048,-0.225458,8.643537,33.382000,-18.842667,-3.126650,0.225614,1.708480,-0.110001,0.000000,0.000000,0.000000,0.000000,0.000000,0.000000
12851161.000000,-2.391489,-1.662201,1.059973,-1.377069,1.771348,1.115376,-0.561663,0.736550,-0.006360,0.603954,-0.720437,-0.669437,1.100056,-0.224003,6.294904,33.306622,-18.033340,-3.325014,0.064481,1.572067,-0.142960,0.000000,0.000000,0.000000,0.000000,0.000000,0.000000
12851162.000000,-2.390774,-1.662218,1.060637,-1.377796,1.770684,1.116558,-0.561891,0.734260,-0.008177,0.614484,-0.715825,-0.662575,1.131043,-0.226702,4.386640,33.282818,-17.370804,-3.570986,0.027860,1.448470,-0.089860,0.000000,0.000000,0.000000,0.000000,0.000000,0.000000
12851163.000000,-2.390043,-1.662244,1.061306,-1.378498,1.770030,1.117773,-0.562107,0.735378,-0.012378,0.624535,-0.709349,-0.660132,1.148824,-0.225492,2.652936,33.382000,-16.632889,-3.820925,0.081876,1.383468,-0.110001,0.000000,0.000000,0.000000,0.000000,0.000000,0.000000
12851164.000000,-2.389324,-1.662267,1.061984,-1.379208,1.769385,1.118970,-0.562328,0.724706,-0.016846,0.643012,-0.706731,-0.656218,1.188096,-0.218886,1.315961,33.405804,-16.140945,-3.920107,0.207303,1.481429,-0.155778,0.000000,0.000000,0.000000,0.000000,0.000000,0.000000
12851165.000000,-2.388607,-1.662305,1.062669,-1.379920,1.768726,1.120206,-0.562549,0.722049,-0.023604,0.658947,-0.705289,-0.655772,1.195336,-0.221564,0.105939,33.576397,-15.625198,-3.892336,0.446256,1.519881,-0.136552,0.000000,0.000000,0.000000,0.000000,0.000000,0.000000
12851166.000000,-2.387875,-1.662348,1.063360,-1.380621,1.768080,1.121472,-0.562763,0.722526,-0.034278,0.660427,-0.708357,-0.653595,1.210740,-0.217027,-0.985064,33.723186,-15.085648,-3.670168,0.625699,1.292831,-0.163102,0.000000,0.000000,0.000000,0.000000,0.000000,0.000000
12851167.000000,-2.387150,-1.662385,1.064044,-1.381338,1.767448,1.122717,-0.562984,0.723745,-0.035018,0.664686,-0.712068,-0.650088,1.216150,-0.218210,-2.000689,33.699383,-14.669083,-3.301210,0.637601,1.090499,-0.149369,0.000000,0.000000,0.000000,0.000000,0.000000,0.000000
12851168.000000,-2.386424,-1.662428,1.064746,-1.382029,1.766822,1.123952,-0.563199,0.724710,-0.035726,0.670183,-0.709096,-0.641259,1.210360,-0.219886,-2.718768,33.675579,-14.300125,-3.055238,0.608304,1.090499,-0.163102,0.000000,0.000000,0.000000,0.000000,0.000000,0.000000
12851169.000000,-2.385692,-1.662466,1.065449,-1.382730,1.766212,1.125191,-0.563415,0.723211,-0.037015,0.690256,-0.702913,-0.638493,1.236926,-0.216107,-3.436846,33.552593,-13.935135,-2.706117,0.530485,1.096908,-0.163102,0.000000,0.000000,0.000000,0.000000,0.000000,0.000000
12851170.000000,-2.384986,-1.662501,1.066130,-1.383418,1.765605,1.126401,-0.563632,0.713356,-0.038626,0.684780,-0.692224,-0.624079,1.230611,-0.220304,-3.857378,33.405804,-13.320206,-2.583132,0.405057,1.175643,-0.122819,0.000000,0.000000,0.000000,0.000000,0.000000,0.000000
12851171.000000,-2.384277,-1.662524,1.066829,-1.384086,1.765002,1.127611,-0.563839,0.707438,-0.031599,0.683272,-0.683389,-0.619924,1.215589,-0.215352,-4.127154,33.060650,-12.852066,-2.511720,0.285123,1.357833,-0.163102,0.000000,0.000000,0.000000,0.000000,0.000000,0.000000
12851172.000000,-2.383573,-1.662534,1.067529,-1.384744,1.764416,1.128798,-0.564052,0.719107,-0.023020,0.691318,-0.673063,-0.607461,1.207360,-0.214003,-4.448504,32.548870,-12.459305,-2.682314,0.166105,1.526290,-0.149369,0.000000,0.000000,0.000000,0.000000,0.000000,0.000000
12851173.000000,-2.382872,-1.662530,1.068244,-1.385388,1.763821,1.130020,-0.564252,0.709100,-0.014361,0.694264,-0.678780,-0.610887,1.203496,-0.210960,-4.575457,31.910137,-12.118118,-2.856874,0.135892,1.481429,-0.188737,0.000000,0.000000,0.000000,0.000000,0.000000,0.000000
12851174.000000,-2.382170,-1.662520,1.068959,-1.386028,1.763229,1.131256,-0.564474,0.702082,-0.004330,0.700947,-0.664146,-0.603552,1.214359,-0.212926,-4.746050,31.251568,-11.796768,-3.102846,0.213712,1.259872,-0.103593,0.000000,0.000000,0.000000,0.000000,0.000000,0.000000
12851175.000000,-2.381472,-1.662513,1.069667,-1.386690,1.762644,1.132479,-0.564682,0.699960,0.000743,0.702289,-0.657599,-0.600772,1.214615,-0.207683,-4.995989,30.664410,-11.455582,-3.055238,0.273221,1.019088,-0.155778,0.000000,0.000000,0.000000,0.000000,0.000000,0.000000
12851176.000000,-2.380779,-1.662492,1.070396,-1.387338,1.762048,1.133694,-0.564888,0.691375,0.006088,0.704564,-0.653174,-0.595737,1.210754,-0.206418,-5.095171,30.001873,-11.257217,-2.956056,0.369352,0.947677,-0.188737,0.000000,0.000000,0.000000,0.000000,0.000000,0.000000
12851177.000000,-2.380087,-1.662469,1.071119,-1.387979,1.761475,1.134890,-0.565103,0.689002,0.012082,0.708206,-0.648354,-0.591915,1.203451,-0.209637,-5.043597,29.390911,-10.963638,-3.003664,0.344633,0.966903,-0.110001,0.000000,0.000000,0.000000,0.000000,0.000000,0.000000
12851178.000000,-2.379408,-1.662449,1.071863,-1.388598,1.760902,1.136111,-0.565296,0.686602,0.013646,0.719437,-0.652935,-0.580361,1.206404,-0.206331,-4.968218,28.898968,-10.741470,-3.126650,0.243009,0.876266,-0.182328,0.000000,0.000000,0.000000,0.000000,0.000000,0.000000
12851179.000000,-2.378731,-1.662422,1.072610,-1.389212,1.760342,1.137341,-0.565505,0.679561,0.018424,0.724011,-0.637965,-0.569079,1.204118,-0.202984,-4.845232,28.410992,-10.400284,-3.400392,0.159696,0.771896,-0.130143,0.000000,0.000000,0.000000,0.000000,0.000000,0.000000
12851180.000000,-2.378063,-1.662398,1.073346,-1.389832,1.759780,1.138535,-0.565704,0.679034,0.020461,0.727966,-0.630614,-0.559241,1.200941,-0.203981,-4.698443,27.994427,-10.031326,-3.646364,0.027860,0.850631,-0.136552,0.000000,0.000000,0.000000,0.000000,0.000000,0.000000
12851181.000000,-2.377376,-1.662377,1.074114,-1.390452,1.759225,1.139739,-0.565897,0.677404,0.019890,0.736675,-0.628354,-0.555546,1.193608,-0.198916,-4.773821,27.677044,-9.860733,-3.646364,-0.007845,1.006271,-0.169511,0.000000,0.000000,0.000000,0.000000,0.000000,0.000000
12851182.000000,-2.376677,-1.662356,1.074858,-1.391081,1.758664,1.140955,-0.566100,0.682768,0.018689,0.754110,-0.630346,-0.559061,1.227204,-0.196394,-4.995989,27.407269,-9.467972,-3.570986,-0.007845,0.922042,-0.149369,0.000000,0.000000,0.000000,0.000000,0.000000,0.000000
12851183.000000,-2.375981,-1.662338,1.075631,-1.391704,1.758100,1.142201,-0.566289,0.688659,0.016346,0.761886,-0.624226,-0.553870,1.223639,-0.193833,-5.293536,27.212872,-9.198196,-3.448000,0.081876,0.720626,-0.163102,0.000000,0.000000,0.000000,0.000000,0.000000,0.000000
12851184.000000,-2.375276,-1.662325,1.076423,-1.392312,1.757540,1.143456,-0.566482,0.691695,0.013279,0.764886,-0.619244,-0.565418,1.228904,-0.191466,-5.638690,27.089886,-9.099014,-3.448000,0.178007,0.459701,-0.155778,0.000000,0.000000,0.000000,0.000000,0.000000,0.000000
12851185.000000,-2.374590,-1.662310,1.077219,-1.392917,1.756988,1.144674,-0.566672,0.691800,0.012471,0.773037,-0.612140,-0.564683,1.223373,-0.190278,-5.837054,26.919292,-9.099014,-3.547182,0.159696,0.421249,-0.169511,0.000000,0.000000,0.000000,0.000000,0.000000,0.000000
12851186.000000,-2.373902,-1.662308,1.078023,-1.393493,1.756428,1.145898,-0.566867,0.687703,0.006922,0.777198,-0.604295,-0.565824,1.218373,-0.191867,-5.912432,26.966900,-8.999832,-3.820925,0.178007,0.524703,-0.169511,0.000000,0.000000,0.000000,0.000000,0.000000,0.000000
12851187.000000,-2.373205,-1.662307,1.078832,-1.394065,1.755882,1.147126,-0.567063,0.684640,0.006150,0.796711,-0.588930,-0.556366,1.240155,-0.191712,-6.083025,27.042278,-8.777664,-4.241457,0.166105,0.654708,-0.142960,0.000000,0.000000,0.000000,0.000000,0.000000,0.000000
12851188.000000,-2.372525,-1.662305,1.079650,-1.394648,1.755339,1.148320,-0.567252,0.679012,0.003679,0.799090,-0.583387,-0.552878,1.221603,-0.190054,-6.206011,27.066082,-8.777664,-4.562807,0.159696,0.941268,-0.169511,0.000000,0.000000,0.000000,0.000000,0.000000,0.000000
12851189.000000,-2.371824,-1.662301,1.080494,-1.395224,1.754811,1.149528,-0.567446,0.682985,0.002554,0.808138,-0.584196,-0.543257,1.203454,-0.190457,-6.503558,27.066082,-8.876846,-4.685792,0.058073,1.169235,-0.149369,0.000000,0.000000,0.000000,0.000000,0.000000,0.000000
12851190.000000,-2.371133,-1.662296,1.081337,-1.395801,1.754290,1.150748,-0.567636,0.699456,0.006449,0.815567,-0.580474,-0.529467,1.205685,-0.189232,-6.777300,27.014507,-8.976028,-4.808778,-0.091158,1.052047,-0.169511,0.000000,0.000000,0.000000,0.000000,0.000000,0.000000
12851191.000000,-2.370425,-1.662285,1.082199,-1.396374,1.753745,1.151998,-0.567825,0.702545,0.006873,0.829014,-0.588344,-0.534592,1.209203,-0.190481,-7.197833,26.919292,-9.047440,-4.757204,-0.072848,0.817672,-0.136552,0.000000,0.000000,0.000000,0.000000,0.000000,0.000000
12851192.000000,-2.369705,-1.662280,1.083068,-1.396942,1.753221,1.153225,-0.568011,0.702836,0.006047,0.838019,-0.580582,-0.530423,1.211626,-0.186979,-7.693743,26.867718,-9.023636,-4.757204,-0.037142,0.746261,-0.169511,0.000000,0.000000,0.000000,0.000000,0.000000,0.000000
12851193.000000,-2.368995,-1.662267,1.083931,-1.397511,1.752696,1.154421,-0.568197,0.705043,0.007660,0.847600,-0.578569,-0.535447,1.205746,-0.191574,-8.261065,26.720928,-8.876846,-4.709596,-0.013339,0.830489,-0.155778,0.000000,0.000000,0.000000,0.000000,0.000000,0.000000
12851194.000000,-2.368283,-1.662261,1.084810,-1.398068,1.752168,1.155625,-0.568384,0.702606,0.009955,0.850443,-0.573100,-0.531417,1.199233,-0.191095,-8.733172,26.673321,-8.753860,-4.685792,0.040677,0.947677,-0.149369,0.000000,0.000000,0.000000,0.000000,0.000000,0.000000
12851195.000000,-2.367563,-1.662248,1.085693,-1.398621,1.751651,1.156829,-0.568567,0.702623,0.012837,0.856914,-0.564495,-0.532856,1.199756,-0.184604,-9.201312,26.574139,-8.583267,-4.808778,0.105680,0.869857,-0.175919,0.000000,0.000000,0.000000,0.000000,0.000000,0.000000
12851196.000000,-2.366847,-1.662236,1.086603,-1.399176,1.751140,1.158037,-0.568749,0.708078,0.011381,0.871924,-0.565218,-0.523564,1.195429,-0.183210,-9.796405,26.478924,-8.559464,-4.832582,0.046171,0.889083,-0.169511,0.000000,0.000000,0.000000,0.000000,0.000000,0.000000
12851197.000000,-2.366122,-1.662225,1.087526,-1.399721,1.750644,1.159242,-0.568924,0.705930,0.012063,0.885205,-0.556068,-0.513637,1.189294,-0.178631,-10.316119,26.451153,-8.484085,-4.983339,-0.013339,0.974227,-0.196061,0.000000,0.000000,0.000000,0.000000,0.000000,0.000000
12851198.000000,-2.365408,-1.662221,1.088458,-1.400284,1.750138,1.160439,-0.569109,0.708408,0.006895,0.907438,-0.552446,-0.515671,1.195450,-0.182992,-10.835834,26.526531,-8.654678,-4.856386,-0.067355,0.922042,-0.155778,0.000000,0.000000,0.000000,0.000000,0.000000,0.000000
12851199.000000,-2.364685,-1.662224,1.089402,-1.400836,1.749636,1.161647,-0.569290,0.712926,0.001626,0.910815,-0.554771,-0.504144,1.191849,-0.183887,-11.307940,26.673321,-8.682449,-4.757204,-0.103060,0.934859,-0.136552,0.000000,0.000000,0.000000,0.000000,0.000000,0.000000
12851200.000000,-2.363958,-1.662228,1.090355,-1.401389,1.749138,1.162828,-0.569467,0.712564,0.001317,0.944227,-0.549537,-0.501927,1.221557,-0.178722,-11.776080,26.820110,-8.805435,-4.685792,-0.079257,1.006271,-0.169511,0.000000,0.000000,0.000000,0.000000,0.000000,0.000000
12851201.000000,-2.363244,-1.662232,1.091323,-1.401938,1.748641,1.164022,-0.569650,0.713582,-0.002019,0.948665,-0.547246,-0.496042,1.211058,-0.177755,-12.149005,26.966900,-8.900650,-4.685792,-0.138766,1.045638,-0.136552,0.000000,0.000000,0.000000,0.000000,0.000000,0.000000
12851202.000000,-2.362526,-1.662237,1.092310,-1.402473,1.748152,1.165225,-0.569826,0.711269,-0.001582,0.951970,-0.547601,-0.487346,1.205220,-0.178874,-12.470355,27.137493,-9.023636,-4.733400,-0.097567,0.999862,-0.175919,0.000000,0.000000,0.000000,0.000000,0.000000,0.000000
12851203.000000,-2.361828,-1.662244,1.093273,-1.403001,1.747652,1.166405,-0.570000,0.696800,-0.003350,0.958629,-0.537078,-0.494470,1.202103,-0.174400,-12.668719,27.260479,-8.900650,-4.931764,-0.067355,1.084090,-0.188737,0.000000,0.000000,0.000000,0.000000,0.000000,0.000000
12851204.000000,-2.361114,-1.662257,1.094246,-1.403527,1.747155,1.167587,-0.570168,0.696359,-0.006345,0.953778,-0.535088,-0.488903,1.197358,-0.172748,-12.942462,27.454876,-8.682449,-5.078554,-0.049044,1.201278,-0.208878,0.000000,0.000000,0.000000,0.000000,0.000000,0.000000
12851205.000000,-2.360404,-1.662269,1.095238,-1.404059,1.746662,1.168775,-0.570344,0.698730,-0.013439,0.980382,-0.534156,-0.493743,1.214481,-0.172978,-13.212237,27.577862,-8.460281,-5.205507,0.058073,1.312057,-0.175919,0.000000,0.000000,0.000000,0.000000,0.000000,0.000000
12851206.000000,-2.359710,-1.662277,1.096212,-1.404596,1.746166,1.169949,-0.570513,0.696160,-0.010475,0.979567,-0.533147,-0.488020,1.203096,-0.171253,-13.410602,27.629436,-8.115128,-5.229311,0.081876,1.285506,-0.175919,0.000000,0.000000,0.000000,0.000000,0.000000,0.000000
12851207.000000,-2.359002,-1.662288,1.097225,-1.405117,1.745680,1.171147,-0.570679,0.695828,-0.013474,0.987033,-0.527631,-0.479420,1.197046,-0.165416,-13.708148,27.748455,-7.920731,-5.304689,0.100187,1.142684,-0.196061,0.000000,0.000000,0.000000,0.000000,0.000000,0.000000
12851208.000000,-2.358308,-1.662297,1.098218,-1.405644,1.745208,1.172340,-0.570855,0.710038,-0.014677,0.990010,-0.527254,-0.479404,1.192503,-0.168318,-13.954120,27.823833,-7.527969,-5.304689,0.027860,0.889083,-0.149369,0.000000,0.000000,0.000000,0.000000,0.000000,0.000000
12851209.000000,-2.357625,-1.662304,1.099243,-1.406154,1.744733,1.173549,-0.571019,0.700933,-0.014385,0.996572,-0.533244,-0.474013,1.185962,-0.167874,-13.954120,27.847637,-7.329605,-5.499086,-0.049044,0.720626,-0.169511,0.000000,0.000000,0.000000,0.000000,0.000000,0.000000
12851210.000000,-2.356941,-1.662311,1.100279,-1.406666,1.744279,1.174745,-0.571185,0.694024,-0.011465,1.000507,-0.528195,-0.470431,1.180810,-0.164306,-13.954120,27.895245,-7.111404,-5.697450,-0.145175,0.662032,-0.142960,0.000000,0.000000,0.000000,0.000000,0.000000,0.000000
12851211.000000,-2.356279,-1.662313,1.101299,-1.407169,1.743817,1.175922,-0.571348,0.686812,-0.007658,1.010947,-0.519023,-0.471316,1.169153,-0.160012,-13.831134,27.871441,-6.766251,-5.994997,-0.258700,0.713302,-0.149369,0.000000,0.000000,0.000000,0.000000,0.000000,0.000000
12851212.000000,-2.355614,-1.662311,1.102354,-1.407657,1.743354,1.177110,-0.571506,0.673870,-0.003863,1.019265,-0.510452,-0.464030,1.163240,-0.157212,-13.708148,27.800030,-6.694839,-6.391725,-0.216586,0.752670,-0.163102,0.000000,0.000000,0.000000,0.000000,0.000000,0.000000
12851213.000000,-2.354944,-1.662307,1.103406,-1.408144,1.742904,1.178294,-0.571674,0.671287,-0.000577,1.030182,-0.504238,-0.461720,1.163163,-0.161150,-13.684344,27.700848,-6.595657,-6.760683,-0.211093,0.752670,-0.136552,0.000000,0.000000,0.000000,0.000000,0.000000,0.000000
12851214.000000,-2.354289,-1.662295,1.104491,-1.408623,1.742451,1.179497,-0.571828,0.665670,0.004479,1.050314,-0.491293,-0.457237,1.160748,-0.156412,-13.632770,27.482647,-6.619461,-7.105836,-0.252291,0.668441,-0.196061,0.000000,0.000000,0.000000,0.000000,0.000000,0.000000
12851215.000000,-2.353624,-1.662284,1.105581,-1.409105,1.742003,1.180719,-0.571993,0.668456,0.006888,1.055210,-0.485674,-0.454574,1.167600,-0.154874,-13.731952,27.308086,-6.619461,-7.280397,-0.180880,0.524703,-0.175919,0.000000,0.000000,0.000000,0.000000,0.000000,0.000000
12851216.000000,-2.352963,-1.662271,1.106668,-1.409581,1.741550,1.181921,-0.572159,0.667729,0.009561,1.066214,-0.480957,-0.457935,1.171011,-0.159334,-13.858905,27.089886,-6.667068,-7.427186,-0.211093,0.408431,-0.142960,0.000000,0.000000,0.000000,0.000000,0.000000,0.000000
12851217.000000,-2.352306,-1.662254,1.107779,-1.410058,1.741096,1.183131,-0.572311,0.660105,0.010820,1.078883,-0.481931,-0.451431,1.172354,-0.160459,-13.831134,26.895489,-6.643265,-7.427186,-0.222994,0.381881,-0.182328,0.000000,0.000000,0.000000,0.000000,0.000000,0.000000
12851218.000000,-2.351646,-1.662243,1.108874,-1.410530,1.740658,1.184325,-0.572474,0.663023,0.010570,1.102164,-0.478969,-0.452332,1.191772,-0.159828,-13.882709,26.748699,-6.544083,-7.554140,-0.211093,0.538436,-0.110001,0.000000,0.000000,0.000000,0.000000,0.000000,0.000000
12851219.000000,-2.351002,-1.662227,1.109987,-1.410997,1.740219,1.185513,-0.572614,0.657093,0.012187,1.099577,-0.473946,-0.443411,1.187183,-0.153960,-13.882709,26.526531,-6.302078,-7.677125,-0.306307,0.641891,-0.202470,0.000000,0.000000,0.000000,0.000000,0.000000,0.000000
12851220.000000,-2.350359,-1.662214,1.111127,-1.411451,1.739784,1.186712,-0.572778,0.652828,0.011515,1.110351,-0.467452,-0.451848,1.183773,-0.156086,-13.807330,26.379742,-6.179092,-7.899293,-0.348422,0.700484,-0.122819,0.000000,0.000000,0.000000,0.000000,0.000000,0.000000
12851221.000000,-2.349723,-1.662194,1.112265,-1.411909,1.739351,1.187900,-0.572933,0.648464,0.013398,1.120294,-0.463363,-0.450963,1.182684,-0.159429,-13.759723,26.133770,-6.226700,-8.069887,-0.389620,0.759078,-0.122819,0.000000,0.000000,0.000000,0.000000,0.000000,0.000000
12851222.000000,-2.349078,-1.662183,1.113430,-1.412364,1.738923,1.189113,-0.573077,0.645525,0.012342,1.131588,-0.458180,-0.438082,1.185769,-0.150453,-13.783526,25.986980,-6.274307,-8.220644,-0.497653,0.668441,-0.175919,0.000000,0.000000,0.000000,0.000000,0.000000,0.000000
12851223.000000,-2.348430,-1.662172,1.114637,-1.412829,1.738485,1.190320,-0.573236,0.645009,0.011087,1.170052,-0.459324,-0.437264,1.187617,-0.152677,-13.831134,25.863995,-6.619461,-8.169069,-0.384127,0.662032,-0.116410,0.000000,0.000000,0.000000,0.000000,0.000000,0.000000
12851224.000000,-2.347796,-1.662162,1.115837,-1.413306,1.738061,1.191490,-0.573379,0.639977,0.009605,1.181575,-0.462355,-0.436674,1.184044,-0.153414,-13.807330,25.768780,-7.036026,-7.998476,-0.365817,0.739852,-0.182328,0.000000,0.000000,0.000000,0.000000,0.000000,0.000000
12851225.000000,-2.347152,-1.662157,1.117067,-1.413771,1.737638,1.192681,-0.573530,0.641700,0.009866,1.189163,-0.469413,-0.430506,1.175404,-0.150098,-13.930316,25.768780,-7.551773,-7.875490,-0.389620,0.804855,-0.130143,0.000000,0.000000,0.000000,0.000000,0.000000,0.000000
12851226.000000,-2.346522,-1.662160,1.118284,-1.414231,1.737215,1.193848,-0.573675,0.647999,0.004632,1.197840,-0.464334,-0.429653,1.175554,-0.149329,-13.858905,25.863995,-7.797745,-7.875490,-0.306307,0.857040,-0.155778,0.000000,0.000000,0.000000,0.000000,0.000000,0.000000
12851227.000000,-2.345898,-1.662156,1.119529,-1.414687,1.736801,1.195032,-0.573811,0.642834,0.006318,1.210927,-0.474625,-0.424444,1.171658,-0.147736,-13.858905,25.891766,-8.043716,-7.875490,-0.324618,0.882674,-0.208878,0.000000,0.000000,0.000000,0.000000,0.000000,0.000000
12851228.000000,-2.345270,-1.662159,1.120792,-1.415140,1.736385,1.196218,-0.573962,0.636136,0.006382,1.224600,-0.467089,-0.417698,1.164129,-0.146095,-13.906512,25.963177,-8.238113,-7.970705,-0.324618,0.901900,-0.142960,0.000000,0.000000,0.000000,0.000000,0.000000,0.000000
12851229.000000,-2.344647,-1.662163,1.122028,-1.415609,1.735972,1.197372,-0.574106,0.636286,0.002564,1.224417,-0.464685,-0.407996,1.159994,-0.146303,-13.981891,26.062359,-8.166702,-7.923097,-0.306307,1.045638,-0.169511,0.000000,0.000000,0.000000,0.000000,0.000000,0.000000
12851230.000000,-2.344028,-1.662177,1.123285,-1.416075,1.735561,1.198554,-0.574253,0.626236,-0.003479,1.221901,-0.465338,-0.413980,1.160034,-0.143728,-13.954120,26.304363,-8.043716,-7.776308,-0.312716,1.019088,-0.142960,0.000000,0.000000,0.000000,0.000000,0.000000,0.000000
12851231.000000,-2.343394,-1.662196,1.124522,-1.416555,1.735144,1.199725,-0.574400,0.626627,-0.006518,1.224540,-0.468637,-0.415884,1.164944,-0.145025,-13.954120,26.796307,-8.067520,-7.601747,-0.270602,0.947677,-0.149369,0.000000,0.000000,0.000000,0.000000,0.000000,0.000000
12851232.000000,-2.342788,-1.662215,1.125771,-1.417032,1.734737,1.200908,-0.574539,0.623031,-0.008803,1.224948,-0.473568,-0.409672,1.165581,-0.145337,-13.632770,27.629436,-8.507889,-7.478761,-0.287997,0.922042,-0.175919,0.000000,0.000000,0.000000,0.000000,0.000000,0.000000
12851233.000000,-2.342176,-1.662238,1.127007,-1.417504,1.734345,1.202108,-0.574685,0.618113,-0.012983,1.216280,-0.470769,-0.405235,1.176561,-0.140992,-13.263812,28.752178,-9.198196,-7.355775,-0.312716,0.882674,-0.175919,0.000000,0.000000,0.000000,0.000000,0.000000,0.000000
12851234.000000,-2.341576,-1.662260,1.128210,-1.417972,1.733947,1.203299,-0.574832,0.615842,-0.018435,1.209497,-0.470463,-0.403397,1.186492,-0.144375,-12.744098,30.025677,-9.983719,-7.379579,-0.300814,0.798446,-0.155778,0.000000,0.000000,0.000000,0.000000,0.000000,0.000000
12851235.000000,-2.340982,-1.662271,1.129445,-1.418423,1.733547,1.204501,-0.574977,0.605414,-0.021048,1.218544,-0.462332,-0.395685,1.187100,-0.142204,-12.049823,31.299175,-11.209610,-7.526369,-0.199191,0.830489,-0.116410,0.000000,0.000000,0.000000,0.000000,0.000000,0.000000
12851236.000000,-2.340364,-1.662273,1.130668,-1.418887,1.733163,1.205682,-0.575111,0.607012,-0.019003,1.235188,-0.460627,-0.389062,1.208334,-0.140648,-11.653094,32.425884,-12.241104,-7.625551,-0.121371,1.149093,-0.202470,0.000000,0.000000,0.000000,0.000000,0.000000,0.000000
12851237.000000,-2.339759,-1.662275,1.131883,-1.419342,1.732771,1.206850,-0.575260,0.603684,-0.014387,1.232695,-0.455608,-0.388895,1.198377,-0.146254,-11.284137,33.453411,-13.320206,-7.776308,-0.019747,1.422836,-0.122819,0.000000,0.000000,0.000000,0.000000,0.000000,0.000000
12851238.000000,-2.339155,-1.662271,1.133116,-1.419798,1.732378,1.208046,-0.575399,0.602634,-0.007511,1.231955,-0.453833,-0.398534,1.195841,-0.145210,-10.935016,34.310345,-14.351700,-7.847719,0.129484,1.532699,-0.182328,0.000000,0.000000,0.000000,0.000000,0.000000,0.000000
12851239.000000,-2.338546,-1.662268,1.134326,-1.420260,1.731997,1.209231,-0.575536,0.592367,-0.006154,1.229689,-0.455550,-0.388872,1.194261,-0.139911,-10.859637,35.020489,-15.184830,-7.875490,0.159696,1.532699,-0.221696,0.000000,0.000000,0.000000,0.000000,0.000000,0.000000
12851240.000000,-2.337921,-1.662253,1.135565,-1.420722,1.731614,1.210428,-0.575687,0.601504,0.000144,1.225837,-0.457432,-0.384400,1.191319,-0.141835,-10.935016,35.484661,-16.017960,-7.776308,0.147794,1.513473,-0.122819,0.000000,0.000000,0.000000,0.000000,0.000000,0.000000
12851241.000000,-2.337315,-1.662251,1.136798,-1.421190,1.731242,1.211620,-0.575822,0.599179,-0.001361,1.222812,-0.462655,-0.381644,1.186920,-0.141331,-10.788226,36.024212,-16.486099,-7.649354,0.123990,1.500655,-0.182328,0.000000,0.000000,0.000000,0.000000,0.000000,0.000000
12851242.000000,-2.336715,-1.662248,1.138037,-1.421644,1.730876,1.212791,-0.575966,0.602179,-0.000411,1.230629,-0.458273,-0.373816,1.181398,-0.144232,-10.712848,36.464581,-17.101028,-7.724733,0.076383,1.494247,-0.149369,0.000000,0.000000,0.000000,0.000000,0.000000,0.000000
12851243.000000,-2.336124,-1.662248,1.139291,-1.422084,1.730508,1.213961,-0.576103,0.594266,0.000281,1.230316,-0.452421,-0.375834,1.162104,-0.141407,-10.514483,36.881145,-17.640579,-7.923097,-0.025240,1.546432,-0.142960,0.000000,0.000000,0.000000,0.000000,0.000000,0.000000
12851244.000000,-2.335554,-1.662257,1.140545,-1.422503,1.730149,1.215105,-0.576233,0.600980,-0.003456,1.236544,-0.439789,-0.372291,1.148002,-0.137251,-10.145526,37.321514,-18.227737,-8.319826,-0.138766,1.682845,-0.188737,0.000000,0.000000,0.000000,0.000000,0.000000,0.000000
12851245.000000,-2.334985,-1.662282,1.141836,-1.422906,1.729777,1.216269,-0.576376,0.589726,-0.010515,1.249662,-0.435366,-0.367930,1.141605,-0.143663,-9.721026,37.932476,-18.989456,-8.863344,-0.157076,1.702071,-0.110001,0.000000,0.000000,0.000000,0.000000,0.000000,0.000000
12851246.000000,-2.334429,-1.662309,1.143145,-1.423304,1.729416,1.217429,-0.576502,0.577253,-0.017346,1.265707,-0.423416,-0.370095,1.133170,-0.137542,-9.276690,38.472027,-19.798782,-9.383059,-0.180880,1.832076,-0.188737,0.000000,0.000000,0.000000,0.000000,0.000000,0.000000
12851247.000000,-2.333883,-1.662346,1.144431,-1.423704,1.729034,1.218568,-0.576638,0.566619,-0.024698,1.276395,-0.414911,-0.370514,1.132960,-0.137089,-8.856158,39.106792,-20.461319,-9.875002,-0.109469,1.930038,-0.169511,0.000000,0.000000,0.000000,0.000000,0.000000,0.000000
12851248.000000,-2.333339,-1.662387,1.145738,-1.424095,1.728661,1.219735,-0.576771,0.557282,-0.028915,1.275869,-0.406986,-0.370407,1.131194,-0.136405,-8.388019,39.693951,-21.123856,-10.196352,-0.031649,1.858627,-0.155778,0.000000,0.000000,0.000000,0.000000,0.000000,0.000000
12851249.000000,-2.332789,-1.662436,1.147017,-1.424490,1.728299,1.220886,-0.576896,0.552481,-0.036746,1.298946,-0.401110,-0.370497,1.138331,-0.133608,-8.138080,40.332684,-21.516617,-10.470095,0.058073,1.767074,-0.196061,0.000000,0.000000,0.000000,0.000000,0.000000,0.000000
12851250.000000,-2.332260,-1.662487,1.148312,-1.424892,1.727924,1.222044,-0.577027,0.543880,-0.038357,1.293714,-0.398997,-0.373233,1.139880,-0.130118,-7.792925,40.943645,-21.885574,-10.541506,0.112089,1.727706,-0.155778,0.000000,0.000000,0.000000,0.000000,0.000000,0.000000
12851251.000000,-2.331725,-1.662539,1.149591,-1.425281,1.727563,1.223198,-0.577154,0.541985,-0.042476,1.285675,-0.398556,-0.368421,1.133972,-0.124535,-7.471575,41.530804,-21.837967,-10.668459,0.088285,1.767074,-0.169511,0.000000,0.000000,0.000000,0.000000,0.000000,0.000000
12851252.000000,-2.331212,-1.662592,1.150863,-1.425682,1.727204,1.224334,-0.577284,0.535026,-0.045456,1.282371,-0.400322,-0.360814,1.134182,-0.122906,-7.098650,42.117962,-21.909378,-10.541506,0.076383,1.825668,-0.136552,0.000000,0.000000,0.000000,0.000000,0.000000,0.000000
12851253.000000,-2.330695,-1.662637,1.152127,-1.426076,1.726849,1.225484,-0.577400,0.525237,-0.044997,1.268862,-0.399629,-0.361146,1.126227,-0.118564,-6.678118,42.582134,-21.615799,-10.493898,-0.025240,1.897079,-0.188737,0.000000,0.000000,0.000000,0.000000,0.000000,0.000000
12851254.000000,-2.330177,-1.662677,1.153430,-1.426475,1.726504,1.226639,-0.577526,0.521897,-0.044733,1.297337,-0.395057,-0.354092,1.157132,-0.118762,-6.332964,42.903484,-21.810196,-10.347109,-0.085665,1.995040,-0.136552,0.000000,0.000000,0.000000,0.000000,0.000000,0.000000
12851255.000000,-2.329678,-1.662716,1.154699,-1.426888,1.726162,1.227788,-0.577647,0.517997,-0.041063,1.294190,-0.399437,-0.348313,1.156182,-0.121417,-6.011614,43.197063,-21.837967,-10.097170,-0.138766,1.942855,-0.130143,0.000000,0.000000,0.000000,0.000000,0.000000,0.000000
12851256.000000,-2.329177,-1.662751,1.155992,-1.427294,1.725816,1.228952,-0.577761,0.510003,-0.039882,1.286842,-0.399936,-0.354863,1.153764,-0.121813,-5.662493,43.391460,-22.079971,-9.827394,-0.109469,1.877853,-0.175919,0.000000,0.000000,0.000000,0.000000,0.000000,0.000000
12851257.000000,-2.328691,-1.662780,1.157283,-1.427718,1.725460,1.230097,-0.577890,0.513345,-0.036540,1.287301,-0.407669,-0.350316,1.152578,-0.121520,-5.265765,43.466839,-22.448929,-9.454470,-0.007845,1.838485,-0.130143,0.000000,0.000000,0.000000,0.000000,0.000000,0.000000
12851258.000000,-2.328205,-1.662804,1.158589,-1.428119,1.725113,1.231250,-0.578002,0.506168,-0.031772,1.283233,-0.408177,-0.344127,1.149166,-0.121861,-4.920611,43.415264,-22.841690,-9.331484,0.040677,1.871444,-0.182328,0.000000,0.000000,0.000000,0.000000,0.000000,0.000000
12851259.000000,-2.327721,-1.662825,1.159906,-1.428546,1.724763,1.232411,-0.578121,0.496863,-0.027952,1.287525,-0.415771,-0.349472,1.147744,-0.119750,-4.476275,43.343853,-23.333633,-9.033937,0.213712,1.877853,-0.175919,0.000000,0.000000,0.000000,0.000000,0.000000,0.000000
12851260.000000,-2.327248,-1.662851,1.161183,-1.428974,1.724418,1.233545,-0.578244,0.489859,-0.026220,1.289275,-0.416527,-0.352313,1.138996,-0.119238,-4.027972,43.292278,-23.504227,-8.811769,0.255826,1.942855,-0.149369,0.000000,0.000000,0.000000,0.000000,0.000000,0.000000
12851261.000000,-2.326780,-1.662875,1.162484,-1.429404,1.724062,1.234695,-0.578363,0.475614,-0.025211,1.283010,-0.421585,-0.347130,1.130607,-0.120944,-3.631243,43.244671,-23.801773,-8.518190,0.332731,1.981307,-0.188737,0.000000,0.000000,0.000000,0.000000,0.000000,0.000000
12851262.000000,-2.326303,-1.662896,1.163757,-1.429852,1.723730,1.235829,-0.578486,0.475031,-0.023521,1.283940,-0.425187,-0.343683,1.125625,-0.120954,-3.337664,43.145489,-23.896988,-8.069887,0.303434,2.053634,-0.136552,0.000000,0.000000,0.000000,0.000000,0.000000,0.000000
12851263.000000,-2.325840,-1.662921,1.165041,-1.430304,1.723400,1.236989,-0.578595,0.472646,-0.024520,1.280335,-0.442264,-0.339525,1.131433,-0.121471,-2.988543,43.121685,-23.948563,-7.577943,0.249418,2.001449,-0.196061,0.000000,0.000000,0.000000,0.000000,0.000000,0.000000
12851264.000000,-2.325374,-1.662947,1.166354,-1.430765,1.723065,1.238161,-0.578719,0.468147,-0.025363,1.287579,-0.445707,-0.338193,1.132869,-0.120917,-2.690997,43.121685,-24.313553,-7.058229,0.213712,1.877853,-0.149369,0.000000,0.000000,0.000000,0.000000,0.000000,0.000000
12851265.000000,-2.324926,-1.662972,1.167638,-1.431229,1.722726,1.239303,-0.578836,0.464234,-0.025998,1.287210,-0.449599,-0.333805,1.135473,-0.117962,-2.345843,43.121685,-24.535721,-6.590089,0.207303,1.884261,-0.175919,0.000000,0.000000,0.000000,0.000000,0.000000,0.000000
12851266.000000,-2.324466,-1.663002,1.168957,-1.431685,1.722383,1.240454,-0.578956,0.460402,-0.027772,1.288867,-0.450665,-0.337352,1.128131,-0.118255,-2.099871,43.173260,-25.027664,-6.217165,0.261320,1.949264,-0.136552,0.000000,0.000000,0.000000,0.000000,0.000000,0.000000
12851267.000000,-2.324010,-1.663029,1.170244,-1.432149,1.722046,1.241580,-0.579074,0.452950,-0.028185,1.316676,-0.455190,-0.335810,1.145028,-0.120904,-1.802325,43.197063,-25.368851,-5.919618,0.327238,2.072860,-0.149369,0.000000,0.000000,0.000000,0.000000,0.000000,0.000000
12851268.000000,-2.323592,-1.663053,1.171565,-1.432609,1.721695,1.242720,-0.579188,0.440422,-0.024069,1.315369,-0.457397,-0.339467,1.135585,-0.117115,-1.207232,43.173260,-25.959976,-5.721254,0.422452,2.169906,-0.196061,0.000000,0.000000,0.000000,0.000000,0.000000,0.000000
12851269.000000,-2.323159,-1.663080,1.172874,-1.433059,1.721360,1.243861,-0.579312,0.437623,-0.021966,1.312055,-0.456357,-0.337200,1.128756,-0.118694,-0.762896,43.197063,-26.277359,-5.649843,0.494779,2.280685,-0.130143,0.000000,0.000000,0.000000,0.000000,0.000000,0.000000
12851270.000000,-2.322737,-1.663100,1.174162,-1.433517,1.721032,1.244976,-0.579421,0.435812,-0.022210,1.305613,-0.455933,-0.333357,1.126298,-0.113735,-0.290789,43.145489,-26.547134,-5.550661,0.512174,2.462875,-0.215287,0.000000,0.000000,0.000000,0.000000,0.000000,0.000000
12851271.000000,-2.322316,-1.663118,1.175453,-1.433976,1.720696,1.246117,-0.579536,0.428051,-0.021555,1.293352,-0.454553,-0.335413,1.133480,-0.114270,0.205121,43.050274,-26.622513,-5.399904,0.535978,2.502242,-0.202470,0.000000,0.000000,0.000000,0.000000,0.000000,0.000000
12851272.000000,-2.321892,-1.663148,1.176746,-1.434439,1.720369,1.247268,-0.579656,0.425381,-0.024767,1.287389,-0.457815,-0.334750,1.160704,-0.115914,0.550275,43.121685,-26.622513,-5.205507,0.500272,2.404281,-0.149369,0.000000,0.000000,0.000000,0.000000,0.000000,0.000000
12851273.000000,-2.321466,-1.663165,1.178018,-1.434915,1.720043,1.248405,-0.579762,0.427675,-0.019768,1.283833,-0.458851,-0.330126,1.158104,-0.112109,0.772443,43.026470,-26.547134,-4.784975,0.488370,2.228500,-0.196061,0.000000,0.000000,0.000000,0.000000,0.000000,0.000000
12851274.000000,-2.321040,-1.663181,1.179289,-1.435389,1.719730,1.249545,-0.579877,0.423150,-0.016204,1.271900,-0.463288,-0.321701,1.144945,-0.109969,0.994611,42.927288,-26.328934,-4.340639,0.446256,2.144271,-0.136552,0.000000,0.000000,0.000000,0.000000,0.000000,0.000000
12851275.000000,-2.320628,-1.663196,1.180558,-1.435861,1.719412,1.250681,-0.579982,0.428064,-0.017147,1.269688,-0.460597,-0.319924,1.140115,-0.110414,1.192975,42.828106,-26.376541,-3.967714,0.405057,1.974899,-0.142960,0.000000,0.000000,0.000000,0.000000,0.000000,0.000000
12851276.000000,-2.320212,-1.663217,1.181818,-1.436320,1.719091,1.251832,-0.580088,0.424882,-0.016254,1.261725,-0.458303,-0.315870,1.133582,-0.111254,1.391340,42.804302,-26.082962,-3.769350,0.422452,1.877853,-0.136552,0.000000,0.000000,0.000000,0.000000,0.000000,0.000000
12851277.000000,-2.319804,-1.663233,1.183092,-1.436773,1.718770,1.252980,-0.580192,0.415177,-0.018754,1.259156,-0.455025,-0.316249,1.125670,-0.109296,1.740461,42.780499,-26.007584,-3.646364,0.518583,1.865035,-0.182328,0.000000,0.000000,0.000000,0.000000,0.000000,0.000000
12851278.000000,-2.319398,-1.663254,1.184336,-1.437222,1.718462,1.254095,-0.580295,0.411676,-0.021940,1.257559,-0.448227,-0.313323,1.118828,-0.105727,1.962629,42.804302,-25.813187,-3.721742,0.542386,2.033492,-0.182328,0.000000,0.000000,0.000000,0.000000,0.000000,0.000000
12851279.000000,-2.318989,-1.663274,1.185596,-1.437661,1.718139,1.255230,-0.580402,0.406544,-0.021073,1.247813,-0.442742,-0.317505,1.111976,-0.108067,2.109418,42.851910,-25.813187,-3.721742,0.613798,2.150680,-0.169511,0.000000,0.000000,0.000000,0.000000,0.000000,0.000000
12851280.000000,-2.318575,-1.663294,1.186833,-1.438115,1.717824,1.256365,-0.580504,0.404410,-0.019729,1.247782,-0.443903,-0.320754,1.115593,-0.103546,2.208601,42.875713,-25.690201,-3.598757,0.685209,2.137862,-0.196061,0.000000,0.000000,0.000000,0.000000,0.000000,0.000000
12851281.000000,-2.318162,-1.663309,1.188072,-1.438554,1.717515,1.257526,-0.580608,0.404924,-0.017747,1.238869,-0.444295,-0.315921,1.123054,-0.106667,2.208601,42.851910,-25.543411,-3.523378,0.709928,1.988631,-0.182328,0.000000,0.000000,0.000000,0.000000,0.000000,0.000000
12851282.000000,-2.317744,-1.663324,1.189326,-1.439015,1.717216,1.258697,-0.580708,0.405168,-0.016257,1.237387,-0.446610,-0.312524,1.133771,-0.101924,2.160993,42.828106,-25.567215,-3.225832,0.721830,1.819259,-0.221696,0.000000,0.000000,0.000000,0.000000,0.000000,0.000000
12851283.000000,-2.317336,-1.663337,1.190539,-1.439462,1.716916,1.259850,-0.580814,0.402848,-0.014510,1.229820,-0.447326,-0.306217,1.136221,-0.106309,2.109418,42.780499,-25.368851,-3.079042,0.632108,1.682845,-0.182328,0.000000,0.000000,0.000000,0.000000,0.000000,0.000000
12851284.000000,-2.316922,-1.663344,1.191783,-1.439903,1.716615,1.261022,-0.580919,0.406394,-0.008134,1.224516,-0.443103,-0.300338,1.140827,-0.109388,2.085615,42.657513,-25.368851,-2.880678,0.625699,1.513473,-0.149369,0.000000,0.000000,0.000000,0.000000,0.000000,0.000000
12851285.000000,-2.316510,-1.663358,1.192999,-1.440333,1.716335,1.262164,-0.581009,0.407812,-0.009794,1.224439,-0.437297,-0.294509,1.169303,-0.102869,2.109418,42.657513,-25.273636,-2.904482,0.578092,1.539108,-0.215287,0.000000,0.000000,0.000000,0.000000,0.000000,0.000000
12851286.000000,-2.316113,-1.663364,1.194243,-1.440754,1.716052,1.263305,-0.581113,0.402689,-0.008825,1.232668,-0.428636,-0.286423,1.158991,-0.103260,2.283979,42.558331,-25.420425,-3.003664,0.566190,1.747848,-0.149369,0.000000,0.000000,0.000000,0.000000,0.000000,0.000000
12851287.000000,-2.315714,-1.663374,1.195498,-1.441161,1.715769,1.264449,-0.581209,0.396756,-0.005843,1.231669,-0.421061,-0.293423,1.148827,-0.099904,2.359357,42.510723,-25.690201,-3.178224,0.566190,1.995040,-0.175919,0.000000,0.000000,0.000000,0.000000,0.000000,0.000000
12851288.000000,-2.315318,-1.663385,1.196732,-1.441571,1.715481,1.265579,-0.581308,0.388026,-0.007778,1.233003,-0.412921,-0.285821,1.141529,-0.097776,2.430768,42.486919,-25.959976,-3.301210,0.554288,2.183639,-0.188737,0.000000,0.000000,0.000000,0.000000,0.000000,0.000000
12851289.000000,-2.314911,-1.663394,1.197987,-1.441979,1.715191,1.266737,-0.581405,0.391940,-0.009071,1.230166,-0.414621,-0.286621,1.141008,-0.097002,2.454572,42.463116,-26.352737,-3.400392,0.596403,2.202865,-0.188737,0.000000,0.000000,0.000000,0.000000,0.000000,0.000000
12851290.000000,-2.314495,-1.663402,1.199227,-1.442390,1.714910,1.267897,-0.581506,0.394234,-0.009099,1.251967,-0.411599,-0.287438,1.158580,-0.095727,2.331586,42.411541,-26.451920,-3.424196,0.637601,2.150680,-0.202470,0.000000,0.000000,0.000000,0.000000,0.000000,0.000000
12851291.000000,-2.314084,-1.663411,1.200454,-1.442809,1.714628,1.269027,-0.581610,0.394774,-0.006514,1.248128,-0.415596,-0.286990,1.143674,-0.101557,2.133222,42.387737,-26.721695,-3.301210,0.673307,2.169906,-0.149369,0.000000,0.000000,0.000000,0.000000,0.000000,0.000000
12851292.000000,-2.313679,-1.663420,1.201673,-1.443215,1.714349,1.270170,-0.581703,0.392595,-0.003982,1.234849,-0.414277,-0.286319,1.136586,-0.102083,2.109418,42.340130,-26.622513,-3.225832,0.679716,2.183639,-0.208878,0.000000,0.000000,0.000000,0.000000,0.000000,0.000000
12851293.000000,-2.313278,-1.663430,1.202884,-1.443625,1.714081,1.271304,-0.581808,0.401754,-0.006720,1.232176,-0.412459,-0.278453,1.135093,-0.101582,2.109418,42.340130,-26.598709,-3.154421,0.620206,2.137862,-0.169511,0.000000,0.000000,0.000000,0.000000,0.000000,0.000000
12851294.000000,-2.312874,-1.663436,1.204092,-1.444022,1.713820,1.272446,-0.581905,0.398572,-0.003989,1.223545,-0.408714,-0.271514,1.131454,-0.101737,2.109418,42.288555,-26.253555,-3.079042,0.535978,2.150680,-0.202470,0.000000,0.000000,0.000000,0.000000,0.000000,0.000000
12851295.000000,-2.312479,-1.663439,1.205312,-1.444414,1.713568,1.273591,-0.582006,0.395930,-0.004496,1.215862,-0.403132,-0.267613,1.129350,-0.101062,2.184797,42.193340,-26.082962,-3.102846,0.470060,2.150680,-0.169511,0.000000,0.000000,0.000000,0.000000,0.000000,0.000000
12851296.000000,-2.312092,-1.663442,1.206521,-1.444805,1.713308,1.274719,-0.582098,0.392225,-0.001373,1.218417,-0.396636,-0.265158,1.129081,-0.092852,2.283979,42.094158,-26.031387,-3.102846,0.416959,2.104903,-0.215287,0.000000,0.000000,0.000000,0.000000,0.000000,0.000000
12851297.000000,-2.311701,-1.663440,1.207721,-1.445181,1.713042,1.275859,-0.582197,0.391003,-0.000954,1.202483,-0.393418,-0.259874,1.122339,-0.094374,2.430768,41.923565,-25.714005,-3.178224,0.405057,2.060043,-0.188737,0.000000,0.000000,0.000000,0.000000,0.000000,0.000000
12851298.000000,-2.311311,-1.663439,1.208926,-1.445568,1.712773,1.276998,-0.582292,0.388128,-0.001261,1.210131,-0.387084,-0.262177,1.127318,-0.095143,2.553754,41.776775,-25.737808,-3.126650,0.554288,1.949264,-0.163102,0.000000,0.000000,0.000000,0.000000,0.000000,0.000000
12851299.000000,-2.310928,-1.663435,1.210129,-1.445944,1.712515,1.278139,-0.582377,0.387927,0.003005,1.202543,-0.384530,-0.258672,1.131946,-0.092739,2.605329,41.578411,-25.591019,-3.126650,0.596403,1.897079,-0.221696,0.000000,0.000000,0.000000,0.000000,0.000000,0.000000
12851300.000000,-2.310547,-1.663434,1.211349,-1.446310,1.712261,1.279289,-0.582475,0.385517,0.004192,1.201467,-0.377509,-0.257378,1.136022,-0.095160,2.704511,41.459393,-25.642593,-3.225832,0.655912,1.858627,-0.163102,0.000000,0.000000,0.000000,0.000000,0.000000,0.000000
12851301.000000,-2.310161,-1.663438,1.212530,-1.446680,1.712005,1.280419,-0.582564,0.386905,0.002998,1.200754,-0.373769,-0.257805,1.134329,-0.094139,2.704511,41.431622,-25.519608,-3.249635,0.632108,1.800033,-0.182328,0.000000,0.000000,0.000000,0.000000,0.000000,0.000000
12851302.000000,-2.309776,-1.663435,1.213720,-1.447042,1.711759,1.281560,-0.582658,0.386053,0.004447,1.195004,-0.369668,-0.251592,1.135032,-0.094831,2.752119,41.312603,-25.321243,-3.348818,0.554288,1.773483,-0.155778,0.000000,0.000000,0.000000,0.000000,0.000000,0.000000
12851303.000000,-2.309390,-1.663433,1.214893,-1.447409,1.711516,1.282677,-0.582751,0.384782,0.005034,1.208718,-0.366190,-0.254417,1.147785,-0.094957,2.728315,41.213421,-25.174454,-3.325014,0.535978,1.865035,-0.142960,0.000000,0.000000,0.000000,0.000000,0.000000,0.000000
12851304.000000,-2.309018,-1.663430,1.216059,-1.447768,1.711281,1.283796,-0.582834,0.381766,0.004931,1.194277,-0.361519,-0.247403,1.127732,-0.091046,2.779890,41.138042,-24.757889,-3.376589,0.416959,2.079269,-0.215287,0.000000,0.000000,0.000000,0.000000,0.000000,0.000000
12851305.000000,-2.308633,-1.663422,1.217241,-1.448118,1.711049,1.284943,-0.582930,0.381485,0.005930,1.185191,-0.358554,-0.248456,1.120332,-0.089932,2.728315,41.019024,-24.535721,-3.424196,0.356534,2.092086,-0.142960,0.000000,0.000000,0.000000,0.000000,0.000000,0.000000
12851306.000000,-2.308250,-1.663412,1.218400,-1.448479,1.710800,1.286093,-0.583009,0.382844,0.007281,1.176718,-0.359517,-0.249118,1.121442,-0.087903,2.629133,40.872234,-24.341324,-3.301210,0.381254,1.942855,-0.208878,0.000000,0.000000,0.000000,0.000000,0.000000,0.000000
12851307.000000,-2.307866,-1.663400,1.219591,-1.448815,1.710560,1.287256,-0.583100,0.379655,0.008208,1.172889,-0.352618,-0.243232,1.122396,-0.086438,2.553754,40.725445,-24.388931,-3.376589,0.369352,1.754256,-0.169511,0.000000,0.000000,0.000000,0.000000,0.000000,0.000000
12851308.000000,-2.307482,-1.663385,1.220796,-1.449156,1.710320,1.288407,-0.583183,0.379608,0.009496,1.175503,-0.346429,-0.245991,1.142579,-0.082535,2.430768,40.550884,-24.634903,-3.376589,0.422452,1.695663,-0.196061,0.000000,0.000000,0.000000,0.000000,0.000000,0.000000
12851309.000000,-2.307108,-1.663379,1.221984,-1.449486,1.710080,1.289534,-0.583274,0.376190,0.011490,1.185677,-0.337788,-0.242618,1.136285,-0.087337,2.406965,40.479473,-24.952286,-3.547182,0.470060,1.708480,-0.130143,0.000000,0.000000,0.000000,0.000000,0.000000,0.000000
12851310.000000,-2.306735,-1.663378,1.223176,-1.449812,1.709837,1.290671,-0.583348,0.369860,0.007921,1.180816,-0.334190,-0.241003,1.126408,-0.081794,2.506147,40.479473,-25.198257,-3.598757,0.542386,1.773483,-0.196061,0.000000,0.000000,0.000000,0.000000,0.000000,0.000000
12851311.000000,-2.306367,-1.663378,1.224365,-1.450133,1.709602,1.291786,-0.583430,0.374684,0.004920,1.186607,-0.330588,-0.241890,1.127610,-0.080240,2.553754,40.503277,-25.519608,-3.797121,0.547880,1.865035,-0.196061,0.000000,0.000000,0.000000,0.000000,0.000000,0.000000
12851312.000000,-2.305999,-1.663377,1.225556,-1.450448,1.709367,1.292905,-0.583515,0.371785,0.003426,1.184400,-0.331475,-0.239820,1.122815,-0.080116,2.605329,40.503277,-25.614822,-3.943910,0.482877,1.988631,-0.169511,0.000000,0.000000,0.000000,0.000000,0.000000,0.000000
12851313.000000,-2.305625,-1.663372,1.226752,-1.450762,1.709147,1.294035,-0.583592,0.374090,0.004158,1.181673,-0.326271,-0.238927,1.126023,-0.077934,2.553754,40.427898,-25.714005,-4.019289,0.416959,2.066451,-0.182328,0.000000,0.000000,0.000000,0.000000,0.000000,0.000000
12851314.000000,-2.305250,-1.663373,1.227905,-1.451082,1.708922,1.295150,-0.583675,0.374874,0.002205,1.173542,-0.322476,-0.233831,1.127163,-0.078344,2.430768,40.455669,-25.468033,-4.066896,0.356534,2.027084,-0.155778,0.000000,0.000000,0.000000,0.000000,0.000000,0.000000
12851315.000000,-2.304873,-1.663375,1.229079,-1.451405,1.708693,1.296278,-0.583752,0.373879,0.000975,1.165731,-0.323972,-0.232837,1.125366,-0.076274,2.331586,40.479473,-25.297440,-3.943910,0.369352,2.001449,-0.188737,0.000000,0.000000,0.000000,0.000000,0.000000,0.000000
12851316.000000,-2.304488,-1.663376,1.230223,-1.451730,1.708471,1.297398,-0.583835,0.376574,-0.000417,1.166479,-0.323636,-0.231241,1.118950,-0.076439,2.109418,40.527081,-24.904678,-3.844728,0.356534,1.909896,-0.175919,0.000000,0.000000,0.000000,0.000000,0.000000,0.000000
12851317.000000,-2.304111,-1.663372,1.231390,-1.452055,1.708232,1.298542,-0.583914,0.376095,0.000870,1.162455,-0.324643,-0.232380,1.119697,-0.076453,1.835676,40.479473,-24.706314,-3.697939,0.428861,1.760665,-0.169511,0.000000,0.000000,0.000000,0.000000,0.000000,0.000000
12851318.000000,-2.303732,-1.663370,1.232564,-1.452364,1.708005,1.299684,-0.583995,0.378317,0.001163,1.159774,-0.317035,-0.231877,1.113278,-0.076378,1.665082,40.455669,-24.535721,-3.622560,0.458158,1.649886,-0.163102,0.000000,0.000000,0.000000,0.000000,0.000000,0.000000
12851319.000000,-2.303357,-1.663366,1.233702,-1.452675,1.707788,1.300815,-0.584076,0.374931,0.001445,1.154079,-0.309790,-0.224061,1.119383,-0.076191,1.490522,40.427898,-24.166763,-3.598757,0.416959,1.532699,-0.163102,0.000000,0.000000,0.000000,0.000000,0.000000,0.000000
12851320.000000,-2.302986,-1.663371,1.234880,-1.452974,1.707564,1.301946,-0.584152,0.369444,-0.000785,1.157704,-0.307536,-0.222066,1.108569,-0.075351,1.442914,40.503277,-24.218338,-3.598757,0.476469,1.611434,-0.182328,0.000000,0.000000,0.000000,0.000000,0.000000,0.000000
12851321.000000,-2.302616,-1.663372,1.236019,-1.453263,1.707352,1.303046,-0.584234,0.368474,-0.001069,1.171490,-0.302017,-0.216821,1.127772,-0.075752,1.391340,40.527081,-23.972366,-3.769350,0.434354,1.832076,-0.169511,0.000000,0.000000,0.000000,0.000000,0.000000,0.000000
12851322.000000,-2.302252,-1.663365,1.237198,-1.453576,1.707130,1.304179,-0.584309,0.370865,0.000966,1.172669,-0.305474,-0.217537,1.122880,-0.074525,1.367536,40.455669,-24.095352,-3.646364,0.398649,1.936446,-0.202470,0.000000,0.000000,0.000000,0.000000,0.000000,0.000000
12851323.000000,-2.301869,-1.663366,1.238358,-1.453866,1.706907,1.305326,-0.584389,0.370260,0.000093,1.165836,-0.299712,-0.218013,1.123733,-0.075825,1.121564,40.479473,-23.996170,-3.721742,0.381254,1.930038,-0.175919,0.000000,0.000000,0.000000,0.000000,0.000000,0.000000
12851324.000000,-2.301496,-1.663355,1.239500,-1.454166,1.706696,1.306466,-0.584469,0.374414,0.003500,1.159238,-0.298361,-0.214985,1.129208,-0.080505,0.970807,40.332684,-23.948563,-3.646364,0.362943,1.806442,-0.169511,0.000000,0.000000,0.000000,0.000000,0.000000,0.000000
12851325.000000,-2.301111,-1.663343,1.240658,-1.454467,1.706478,1.307595,-0.584542,0.378098,0.005771,1.157301,-0.303048,-0.214394,1.132048,-0.078621,0.673261,40.185894,-23.896988,-3.475771,0.393156,1.806442,-0.188737,0.000000,0.000000,0.000000,0.000000,0.000000,0.000000
12851326.000000,-2.300723,-1.663335,1.241807,-1.454760,1.706269,1.308730,-0.584621,0.382008,0.006170,1.152355,-0.296728,-0.212945,1.133336,-0.078379,0.304304,40.086712,-23.702591,-3.448000,0.398649,1.890670,-0.163102,0.000000,0.000000,0.000000,0.000000,0.000000,0.000000
12851327.000000,-2.300348,-1.663324,1.242932,-1.455060,1.706051,1.309849,-0.584693,0.382259,0.006992,1.147937,-0.299105,-0.217514,1.131374,-0.080987,0.105939,39.963726,-23.456619,-3.376589,0.440763,1.858627,-0.202470,0.000000,0.000000,0.000000,0.000000,0.000000,0.000000
12851328.000000,-2.299967,-1.663312,1.244078,-1.455347,1.705830,1.310992,-0.584769,0.378487,0.010392,1.138336,-0.297929,-0.219497,1.125236,-0.075884,-0.144000,39.868511,-23.286026,-3.448000,0.434354,1.767074,-0.175919,0.000000,0.000000,0.000000,0.000000,0.000000,0.000000
12851329.000000,-2.299596,-1.663300,1.245219,-1.455633,1.705618,1.312098,-0.584840,0.380410,0.010098,1.144347,-0.290965,-0.219223,1.116074,-0.075231,-0.266986,39.745525,-23.357437,-3.499574,0.386747,1.825668,-0.188737,0.000000,0.000000,0.000000,0.000000,0.000000,0.000000
12851330.000000,-2.299219,-1.663285,1.246384,-1.455909,1.705411,1.313225,-0.584916,0.376941,0.012832,1.156541,-0.294564,-0.214111,1.106357,-0.079877,-0.465350,39.646343,-23.504227,-3.670168,0.332731,1.844894,-0.155778,0.000000,0.000000,0.000000,0.000000,0.000000,0.000000
12851331.000000,-2.298843,-1.663271,1.247558,-1.456196,1.705200,1.314355,-0.584991,0.373840,0.014851,1.153149,-0.291137,-0.213457,1.100672,-0.079499,-0.635943,39.547161,-23.801773,-3.646364,0.351041,1.838485,-0.130143,0.000000,0.000000,0.000000,0.000000,0.000000,0.000000
12851332.000000,-2.298476,-1.663265,1.248716,-1.456475,1.704995,1.315470,-0.585058,0.369128,0.009890,1.159448,-0.283240,-0.207916,1.095645,-0.075663,-0.711321,39.574932,-24.043777,-3.697939,0.362943,1.844894,-0.202470,0.000000,0.000000,0.000000,0.000000,0.000000,0.000000
12851333.000000,-2.298098,-1.663252,1.249898,-1.456750,1.704786,1.316589,-0.585137,0.371398,0.008279,1.159995,-0.280432,-0.207926,1.091421,-0.073216,-0.909686,39.523357,-24.436539,-3.769350,0.369352,1.930038,-0.142960,0.000000,0.000000,0.000000,0.000000,0.000000,0.000000
12851334.000000,-2.297733,-1.663239,1.251050,-1.457021,1.704577,1.317684,-0.585206,0.370151,0.010499,1.134045,-0.276918,-0.208307,1.090529,-0.072317,-0.961260,39.475750,-24.658707,-3.868532,0.381254,2.053634,-0.175919,0.000000,0.000000,0.000000,0.000000,0.000000,0.000000
12851335.000000,-2.297378,-1.663237,1.252218,-1.457278,1.704374,1.318811,-0.585278,0.364860,0.009581,1.144150,-0.270699,-0.203367,1.089459,-0.068453,-0.961260,39.547161,-24.829300,-4.019289,0.386747,2.020675,-0.175919,0.000000,0.000000,0.000000,0.000000,0.000000,0.000000
12851336.000000,-2.297024,-1.663228,1.253371,-1.457543,1.704177,1.319936,-0.585344,0.358753,0.010499,1.142118,-0.268625,-0.198927,1.093970,-0.069450,-0.885882,39.547161,-24.706314,-4.066896,0.369352,1.995040,-0.196061,0.000000,0.000000,0.000000,0.000000,0.000000,0.000000
12851337.000000,-2.296672,-1.663220,1.254493,-1.457804,1.703981,1.321030,-0.585411,0.353692,0.010572,1.142071,-0.262810,-0.200765,1.098781,-0.065887,-0.885882,39.574932,-24.412735,-4.142274,0.356534,2.079269,-0.208878,0.000000,0.000000,0.000000,0.000000,0.000000,0.000000
12851338.000000,-2.296314,-1.663207,1.255642,-1.458060,1.703791,1.322134,-0.585481,0.356249,0.012699,1.137924,-0.258678,-0.201169,1.090520,-0.069381,-0.885882,39.523357,-24.242142,-4.090700,0.320829,2.125045,-0.182328,0.000000,0.000000,0.000000,0.000000,0.000000,0.000000
12851339.000000,-2.295967,-1.663194,1.256782,-1.458327,1.703605,1.323252,-0.585547,0.350155,0.013944,1.131128,-0.261783,-0.200980,1.118409,-0.065864,-0.810504,39.475750,-23.825577,-4.019289,0.267728,2.118636,-0.188737,0.000000,0.000000,0.000000,0.000000,0.000000,0.000000
12851340.000000,-2.295633,-1.663184,1.257907,-1.458594,1.703405,1.324366,-0.585619,0.345537,0.014950,1.137335,-0.261092,-0.202145,1.108855,-0.069281,-0.711321,39.428143,-23.528030,-3.943910,0.255826,1.968490,-0.149369,0.000000,0.000000,0.000000,0.000000,0.000000,0.000000
12851341.000000,-2.295292,-1.663166,1.259045,-1.458853,1.703214,1.325503,-0.585676,0.341734,0.017410,1.130353,-0.258386,-0.200983,1.101725,-0.068523,-0.612139,39.305157,-23.309830,-3.820925,0.213712,1.793624,-0.208878,0.000000,0.000000,0.000000,0.000000,0.000000,0.000000
12851342.000000,-2.294958,-1.663150,1.260178,-1.459106,1.703015,1.326612,-0.585751,0.344532,0.018521,1.132789,-0.254808,-0.199434,1.104588,-0.068414,-0.564532,39.205975,-23.234451,-3.868532,0.243009,1.721298,-0.130143,0.000000,0.000000,0.000000,0.000000,0.000000,0.000000
12851343.000000,-2.294635,-1.663131,1.261318,-1.459358,1.702819,1.327727,-0.585812,0.335168,0.020032,1.131304,-0.254104,-0.198459,1.101189,-0.068532,-0.342364,39.082989,-23.111465,-3.868532,0.297025,1.747848,-0.149369,0.000000,0.000000,0.000000,0.000000,0.000000,0.000000
12851344.000000,-2.294317,-1.663117,1.262459,-1.459602,1.702632,1.328850,-0.585867,0.326168,0.019690,1.126574,-0.249927,-0.195477,1.119120,-0.063615,-0.116229,39.011578,-23.016251,-4.019289,0.285123,1.754256,-0.196061,0.000000,0.000000,0.000000,0.000000,0.000000,0.000000
12851345.000000,-2.294006,-1.663104,1.263593,-1.459846,1.702440,1.329964,-0.585934,0.322108,0.019006,1.130709,-0.248874,-0.196047,1.116311,-0.063502,0.105939,38.960003,-23.063858,-4.090700,0.356534,1.689254,-0.142960,0.000000,0.000000,0.000000,0.000000,0.000000,0.000000
12851346.000000,-2.293688,-1.663091,1.264731,-1.460091,1.702251,1.331087,-0.585991,0.320424,0.014938,1.128168,-0.246235,-0.196824,1.109800,-0.059977,0.252729,38.912395,-23.040054,-4.118471,0.303434,1.689254,-0.188737,0.000000,0.000000,0.000000,0.000000,0.000000,0.000000
12851347.000000,-2.293374,-1.663074,1.265849,-1.460333,1.702063,1.332184,-0.586058,0.323987,0.012588,1.128334,-0.243743,-0.189483,1.105939,-0.060631,0.403486,38.837017,-22.988480,-4.142274,0.285123,1.741439,-0.149369,0.000000,0.000000,0.000000,0.000000,0.000000,0.000000
12851348.000000,-2.293065,-1.663055,1.266984,-1.460575,1.701873,1.333305,-0.586114,0.320517,0.015401,1.128088,-0.247407,-0.189610,1.104861,-0.058641,0.574079,38.717999,-22.940872,-4.019289,0.303434,1.747848,-0.175919,0.000000,0.000000,0.000000,0.000000,0.000000,0.000000
12851349.000000,-2.292750,-1.663040,1.268103,-1.460821,1.701689,1.334434,-0.586174,0.314673,0.016339,1.115210,-0.247571,-0.184731,1.112639,-0.057639,0.625654,38.642620,-22.647293,-3.920107,0.303434,1.656295,-0.182328,0.000000,0.000000,0.000000,0.000000,0.000000,0.000000
12851350.000000,-2.292443,-1.663020,1.269217,-1.461063,1.701505,1.335547,-0.586241,0.314353,0.018736,1.125854,-0.244161,-0.181418,1.116447,-0.063800,0.673261,38.495831,-22.500504,-3.820925,0.315336,1.611434,-0.136552,0.000000,0.000000,0.000000,0.000000,0.000000,0.000000
12851351.000000,-2.292145,-1.662996,1.270348,-1.461295,1.701333,1.336665,-0.586302,0.310310,0.020834,1.117120,-0.243246,-0.176068,1.105439,-0.065839,0.871625,38.325237,-22.448929,-3.797121,0.249418,1.597701,-0.149369,0.000000,0.000000,0.000000,0.000000,0.000000,0.000000
12851352.000000,-2.291844,-1.662979,1.271479,-1.461534,1.701162,1.337792,-0.586363,0.305634,0.020603,1.122304,-0.243372,-0.172578,1.133653,-0.062911,1.022382,38.226055,-22.571915,-3.721742,0.189908,1.454879,-0.163102,0.000000,0.000000,0.000000,0.000000,0.000000,0.000000
12851353.000000,-2.291552,-1.662961,1.272629,-1.461780,1.700970,1.338920,-0.586421,0.301609,0.024012,1.132946,-0.242893,-0.174570,1.121173,-0.060855,1.192975,38.130840,-22.770279,-3.547182,0.261320,1.416427,-0.175919,0.000000,0.000000,0.000000,0.000000,0.000000,0.000000
12851354.000000,-2.291260,-1.662945,1.273787,-1.462016,1.700791,1.340049,-0.586486,0.299378,0.019131,1.134842,-0.240594,-0.173177,1.113276,-0.066153,1.315961,38.055462,-23.063858,-3.448000,0.255826,1.474105,-0.136552,0.000000,0.000000,0.000000,0.000000,0.000000,0.000000
12851355.000000,-2.290982,-1.662924,1.274930,-1.462256,1.700609,1.341150,-0.586540,0.296275,0.020175,1.141906,-0.237670,-0.174648,1.103561,-0.062069,1.490522,37.932476,-23.381241,-3.249635,0.315336,1.643478,-0.182328,0.000000,0.000000,0.000000,0.000000,0.000000,0.000000
12851357.000000,-2.290410,-1.662891,1.277236,-1.462718,1.700260,1.343378,-0.586657,0.288272,0.018421,1.146261,-0.235896,-0.173959,1.126079,-0.059914,1.811872,37.861065,-23.849380,-3.154421,0.369352,1.942855,-0.169511,0.000000,0.000000,0.000000,0.000000,0.000000,0.000000
12851358.000000,-2.290134,-1.662875,1.278382,-1.462964,1.700090,1.344489,-0.586714,0.286037,0.015148,1.152410,-0.238292,-0.171770,1.127796,-0.058902,1.962629,37.785686,-24.019974,-2.928285,0.356534,1.903487,-0.175919,0.000000,0.000000,0.000000,0.000000,0.000000,0.000000
12851359.000000,-2.289850,-1.662855,1.279523,-1.463194,1.699922,1.345611,-0.586770,0.282519,0.017908,1.142852,-0.236914,-0.174358,1.126005,-0.058980,2.034040,37.638897,-23.972366,-2.833071,0.320829,1.877853,-0.155778,0.000000,0.000000,0.000000,0.000000,0.000000,0.000000
12851360.000000,-2.289565,-1.662841,1.280647,-1.463447,1.699749,1.346700,-0.586825,0.283565,0.016947,1.142807,-0.239905,-0.173417,1.123868,-0.061303,1.962629,37.615093,-23.896988,-2.535524,0.320829,1.942855,-0.202470,0.000000,0.000000,0.000000,0.000000,0.000000,0.000000
12851361.000000,-2.289286,-1.662823,1.281779,-1.463694,1.699572,1.347807,-0.586884,0.284096,0.016978,1.136275,-0.242558,-0.178613,1.111067,-0.061733,2.010236,37.567486,-23.702591,-2.237978,0.362943,1.995040,-0.163102,0.000000,0.000000,0.000000,0.000000,0.000000,0.000000
12851362.000000,-2.289003,-1.662810,1.282914,-1.463943,1.699403,1.348916,-0.586941,0.284285,0.016014,1.127857,-0.244712,-0.177524,1.106561,-0.060077,2.085615,37.567486,-23.409012,-1.916628,0.393156,1.968490,-0.163102,0.000000,0.000000,0.000000,0.000000,0.000000,0.000000
12851363.000000,-2.288720,-1.662795,1.284033,-1.464191,1.699237,1.350026,-0.586989,0.285836,0.019341,1.132928,-0.249097,-0.171297,1.104793,-0.052564,2.133222,37.539715,-23.210648,-1.742067,0.410551,1.851302,-0.215287,0.000000,0.000000,0.000000,0.000000,0.000000,0.000000
12851364.000000,-2.288444,-1.662775,1.285168,-1.464421,1.699082,1.351142,-0.587051,0.283101,0.023574,1.125658,-0.241585,-0.158525,1.092234,-0.050818,2.283979,37.444500,-23.111465,-1.769838,0.332731,1.800033,-0.163102,0.000000,0.000000,0.000000,0.000000,0.000000,0.000000
12851365.000000,-2.288175,-1.662763,1.286297,-1.464656,1.698924,1.352250,-0.587103,0.274689,0.020873,1.131052,-0.236340,-0.156117,1.097894,-0.046757,2.454572,37.444500,-23.111465,-1.769838,0.315336,1.714889,-0.182328,0.000000,0.000000,0.000000,0.000000,0.000000,0.000000
12851366.000000,-2.287906,-1.662750,1.287430,-1.464880,1.698761,1.353373,-0.587154,0.272089,0.019014,1.130948,-0.239839,-0.156123,1.097013,-0.048814,2.482343,37.444500,-22.988480,-1.841249,0.356534,1.611434,-0.169511,0.000000,0.000000,0.000000,0.000000,0.000000,0.000000
12851367.000000,-2.287640,-1.662742,1.288567,-1.465118,1.698600,1.354487,-0.587202,0.272662,0.012999,1.126094,-0.237435,-0.159176,1.095866,-0.049217,2.553754,37.492107,-22.940872,-1.793642,0.344633,1.649886,-0.208878,0.000000,0.000000,0.000000,0.000000,0.000000,0.000000
12851368.000000,-2.287374,-1.662729,1.289702,-1.465346,1.698427,1.355580,-0.587260,0.269915,0.013832,1.133532,-0.230450,-0.164345,1.093372,-0.053195,2.605329,37.468304,-23.040054,-1.817445,0.410551,1.747848,-0.155778,0.000000,0.000000,0.000000,0.000000,0.000000,0.000000
12851369.000000,-2.287099,-1.662718,1.290842,-1.465575,1.698269,1.356691,-0.587307,0.271142,0.013734,1.130244,-0.226648,-0.159936,1.099005,-0.052972,2.506147,37.468304,-23.087662,-1.670656,0.386747,1.735030,-0.182328,0.000000,0.000000,0.000000,0.000000,0.000000,0.000000
12851370.000000,-2.286829,-1.662710,1.291950,-1.465794,1.698108,1.357811,-0.587360,0.267107,0.009710,1.144432,-0.224973,-0.163199,1.130108,-0.049827,2.454572,37.492107,-22.964676,-1.718263,0.405057,1.572067,-0.163102,0.000000,0.000000,0.000000,0.000000,0.000000,0.000000
12851371.000000,-2.286561,-1.662702,1.293074,-1.466011,1.697943,1.358933,-0.587413,0.268480,0.009764,1.135330,-0.220822,-0.162084,1.119988,-0.052461,2.359357,37.539715,-22.841690,-1.769838,0.464567,1.481429,-0.136552,0.000000,0.000000,0.000000,0.000000,0.000000,0.000000
12851372.000000,-2.286290,-1.662685,1.294198,-1.466227,1.697797,1.360041,-0.587457,0.266551,0.015029,1.129026,-0.217042,-0.159885,1.104579,-0.050783,2.232404,37.515911,-22.647293,-1.718263,0.381254,1.605026,-0.202470,0.000000,0.000000,0.000000,0.000000,0.000000,0.000000
12851373.000000,-2.286025,-1.662672,1.295301,-1.466440,1.697643,1.361125,-0.587516,0.267888,0.011854,1.129163,-0.213200,-0.156773,1.088414,-0.054800,2.133222,37.492107,-22.448929,-1.694460,0.351041,1.741439,-0.136552,0.000000,0.000000,0.000000,0.000000,0.000000,0.000000
12851374.000000,-2.285754,-1.662662,1.296419,-1.466644,1.697480,1.362237,-0.587562,0.269567,0.008862,1.121485,-0.211644,-0.162043,1.088294,-0.047868,2.010236,37.492107,-22.302139,-1.769838,0.405057,1.793624,-0.202470,0.000000,0.000000,0.000000,0.000000,0.000000,0.000000
12851375.000000,-2.285486,-1.662651,1.297551,-1.466856,1.697329,1.363369,-0.587612,0.268635,0.007184,1.139280,-0.209692,-0.161653,1.113682,-0.044692,1.962629,37.468304,-22.302139,-1.742067,0.339139,1.714889,-0.221696,0.000000,0.000000,0.000000,0.000000,0.000000,0.000000
12851376.000000,-2.285219,-1.662630,1.298687,-1.467064,1.697171,1.364480,-0.587671,0.266882,0.011614,1.150412,-0.208254,-0.157826,1.118528,-0.050470,1.835676,37.345318,-22.623489,-1.718263,0.308927,1.643478,-0.136552,0.000000,0.000000,0.000000,0.000000,0.000000,0.000000
12851377.000000,-2.284944,-1.662615,1.299833,-1.467259,1.697018,1.365596,-0.587715,0.270753,0.010102,1.142129,-0.202899,-0.151645,1.108125,-0.050122,1.641279,37.273907,-22.964676,-1.742067,0.308927,1.643478,-0.182328,0.000000,0.000000,0.000000,0.000000,0.000000,0.000000
12851378.000000,-2.284682,-1.662601,1.300972,-1.467457,1.696865,1.366691,-0.587765,0.275275,0.011430,1.123234,-0.201402,-0.152515,1.101913,-0.052134,1.542096,37.246136,-23.357437,-1.769838,0.332731,1.630660,-0.163102,0.000000,0.000000,0.000000,0.000000,0.000000,0.000000
12851379.000000,-2.284417,-1.662591,1.302122,-1.467641,1.696704,1.367794,-0.587809,0.274624,0.011881,1.132661,-0.194867,-0.154961,1.098121,-0.048265,1.415143,37.246136,-23.651016,-1.916628,0.410551,1.714889,-0.169511,0.000000,0.000000,0.000000,0.000000,0.000000,0.000000
12851380.000000,-2.284154,-1.662581,1.303270,-1.467825,1.696553,1.368887,-0.587860,0.272315,0.008730,1.129387,-0.190979,-0.154333,1.104449,-0.047003,1.367536,37.246136,-23.896988,-2.039613,0.428861,1.865035,-0.130143,0.000000,0.000000,0.000000,0.000000,0.000000,0.000000
12851381.000000,-2.283890,-1.662575,1.304398,-1.468006,1.696410,1.369969,-0.587896,0.269067,0.008761,1.133004,-0.188577,-0.156064,1.101804,-0.046139,1.268354,37.297710,-24.043777,-2.138796,0.374845,1.949264,-0.208878,0.000000,0.000000,0.000000,0.000000,0.000000,0.000000
12851382.000000,-2.283626,-1.662570,1.305532,-1.468181,1.696258,1.371068,-0.587945,0.270220,0.007905,1.124972,-0.183154,-0.154901,1.086392,-0.045889,1.121564,37.392925,-24.043777,-2.261781,0.374845,1.890670,-0.163102,0.000000,0.000000,0.000000,0.000000,0.000000,0.000000
12851383.000000,-2.283356,-1.662570,1.306637,-1.468358,1.696106,1.372147,-0.587992,0.271805,0.006220,1.122085,-0.181805,-0.158176,1.079867,-0.048794,0.970807,37.539715,-23.873184,-2.384767,0.362943,1.903487,-0.155778,0.000000,0.000000,0.000000,0.000000,0.000000,0.000000
12851384.000000,-2.283094,-1.662569,1.307759,-1.468534,1.695954,1.373245,-0.588032,0.267619,0.006337,1.124952,-0.181214,-0.151350,1.077237,-0.044506,0.772443,37.638897,-23.627213,-2.384767,0.356534,1.851302,-0.196061,0.000000,0.000000,0.000000,0.000000,0.000000,0.000000
12851385.000000,-2.282834,-1.662567,1.308885,-1.468708,1.695805,1.374339,-0.588077,0.265827,0.006452,1.118520,-0.180342,-0.147232,1.075451,-0.048837,0.625654,37.738079,-23.333633,-2.384767,0.369352,1.923629,-0.149369,0.000000,0.000000,0.000000,0.000000,0.000000,0.000000
12851386.000000,-2.282578,-1.662567,1.309993,-1.468868,1.695658,1.375429,-0.588116,0.263833,0.003120,1.119362,-0.173101,-0.148964,1.073697,-0.043868,0.526471,37.833294,-23.135269,-2.511720,0.393156,1.858627,-0.208878,0.000000,0.000000,0.000000,0.000000,0.000000,0.000000
12851387.000000,-2.282321,-1.662570,1.311114,-1.469029,1.695524,1.376558,-0.588162,0.261073,0.002884,1.116064,-0.168346,-0.142332,1.084206,-0.048836,0.474897,37.984051,-22.940872,-2.634706,0.327238,1.565658,-0.163102,0.000000,0.000000,0.000000,0.000000,0.000000,0.000000
12851388.000000,-2.282065,-1.662567,1.312226,-1.469178,1.695390,1.377688,-0.588199,0.256070,0.004666,1.138788,-0.161853,-0.143698,1.114393,-0.045458,0.427289,38.055462,-22.865494,-2.880678,0.303434,1.357833,-0.175919,0.000000,0.000000,0.000000,0.000000,0.000000,0.000000
12851389.000000,-2.281813,-1.662563,1.313353,-1.469330,1.695252,1.378781,-0.588237,0.256127,0.002954,1.138660,-0.161012,-0.145493,1.110556,-0.043033,0.351911,38.103069,-22.841690,-2.979860,0.303434,1.337692,-0.182328,0.000000,0.000000,0.000000,0.000000,0.000000,0.000000
12851390.000000,-2.281557,-1.662566,1.314478,-1.469468,1.695124,1.379875,-0.588281,0.254093,0.004019,1.128717,-0.154779,-0.139961,1.105823,-0.047164,0.205121,38.202251,-22.770279,-3.178224,0.261320,1.494247,-0.163102,0.000000,0.000000,0.000000,0.000000,0.000000,0.000000
12851391.000000,-2.281314,-1.662568,1.315592,-1.469608,1.694979,1.380950,-0.588318,0.253676,0.000645,1.125389,-0.149019,-0.140055,1.098744,-0.043754,0.153547,38.325237,-22.794083,-3.277406,0.308927,1.682845,-0.188737,0.000000,0.000000,0.000000,0.000000,0.000000,0.000000
12851392.000000,-2.281067,-1.662566,1.316708,-1.469739,1.694840,1.382059,-0.588362,0.248692,0.001062,1.124740,-0.143328,-0.137990,1.090021,-0.048942,0.054365,38.325237,-22.770279,-3.448000,0.308927,1.779891,-0.136552,0.000000,0.000000,0.000000,0.000000,0.000000,0.000000
12851393.000000,-2.280814,-1.662561,1.317831,-1.469874,1.694705,1.383183,-0.588395,0.251075,0.002945,1.117757,-0.140114,-0.136225,1.086309,-0.048640,-0.044818,38.249859,-22.770279,-3.570986,0.297025,1.721298,-0.188737,0.000000,0.000000,0.000000,0.000000,0.000000,0.000000
12851394.000000,-2.280564,-1.662550,1.318939,-1.470009,1.694577,1.384297,-0.588431,0.250821,0.006309,1.117373,-0.134206,-0.129111,1.086628,-0.041396,-0.191607,38.079266,-22.770279,-3.570986,0.267728,1.670028,-0.182328,0.000000,0.000000,0.000000,0.000000,0.000000,0.000000
12851395.000000,-2.280311,-1.662544,1.320049,-1.470141,1.694447,1.385408,-0.588469,0.248686,0.006143,1.116065,-0.130084,-0.125170,1.082862,-0.040891,-0.413775,38.007854,-22.647293,-3.547182,0.261320,1.695663,-0.169511,0.000000,0.000000,0.000000,0.000000,0.000000,0.000000
12851396.000000,-2.280057,-1.662540,1.321138,-1.470274,1.694316,1.386504,-0.588500,0.253295,0.005502,1.109617,-0.131500,-0.127647,1.082230,-0.038592,-0.687518,37.956280,-22.472733,-3.448000,0.279630,1.695663,-0.208878,0.000000,0.000000,0.000000,0.000000,0.000000,0.000000
12851397.000000,-2.279804,-1.662540,1.322251,-1.470390,1.694180,1.387610,-0.588542,0.252665,0.003818,1.110406,-0.128396,-0.125958,1.081328,-0.035506,-0.862078,37.956280,-22.377518,-3.523378,0.332731,1.735030,-0.163102,0.000000,0.000000,0.000000,0.000000,0.000000,0.000000
12851398.000000,-2.279558,-1.662529,1.323380,-1.470512,1.694061,1.388722,-0.588575,0.247905,0.009086,1.115535,-0.127547,-0.120168,1.080324,-0.035158,-0.985064,37.833294,-22.500504,-3.547182,0.267728,1.760665,-0.182328,0.000000,0.000000,0.000000,0.000000,0.000000,0.000000
12851399.000000,-2.279324,-1.662525,1.324496,-1.470632,1.693948,1.389824,-0.588613,0.242859,0.007551,1.123769,-0.126093,-0.114429,1.086696,-0.036061,-1.032672,37.785686,-22.718704,-3.598757,0.159696,1.714889,-0.175919,0.000000,0.000000,0.000000,0.000000,0.000000,0.000000
12851400.000000,-2.279082,-1.662521,1.325650,-1.470742,1.693824,1.390929,-0.588647,0.242199,0.006433,1.127945,-0.119671,-0.118865,1.083269,-0.035973,-1.084246,37.738079,-23.186844,-3.745546,0.147794,1.708480,-0.175919,0.000000,0.000000,0.000000,0.000000,0.000000,0.000000
12851401.000000,-2.278845,-1.662523,1.326780,-1.470852,1.693695,1.392019,-0.588686,0.237926,0.003946,1.135179,-0.119255,-0.118190,1.089013,-0.041450,-1.084246,37.761883,-23.555801,-3.844728,0.159696,1.676437,-0.163102,0.000000,0.000000,0.000000,0.000000,0.000000,0.000000
12851402.000000,-2.278608,-1.662524,1.327921,-1.470960,1.693562,1.393098,-0.588722,0.237305,0.002234,1.137646,-0.116451,-0.124102,1.075482,-0.040122,-1.207232,37.785686,-23.948563,-3.920107,0.225614,1.844894,-0.155778,0.000000,0.000000,0.000000,0.000000,0.000000,0.000000
12851403.000000,-2.278371,-1.662526,1.329070,-1.471067,1.693434,1.394185,-0.588755,0.237173,0.001053,1.137088,-0.111953,-0.123456,1.065242,-0.038264,-1.306414,37.809490,-24.218338,-3.967714,0.279630,2.027084,-0.188737,0.000000,0.000000,0.000000,0.000000,0.000000,0.000000
12851404.000000,-2.278139,-1.662526,1.330200,-1.471167,1.693307,1.395269,-0.588794,0.236182,0.000792,1.139205,-0.110124,-0.121922,1.064387,-0.039532,-1.405596,37.809490,-24.388931,-4.066896,0.315336,2.033492,-0.149369,0.000000,0.000000,0.000000,0.000000,0.000000,0.000000
12851405.000000,-2.277906,-1.662533,1.331334,-1.471270,1.693184,1.396376,-0.588826,0.233252,-0.001724,1.135323,-0.107714,-0.120070,1.069691,-0.038279,-1.552386,37.908672,-24.464310,-4.090700,0.327238,1.942855,-0.169511,0.000000,0.000000,0.000000,0.000000,0.000000,0.000000
12851406.000000,-2.277672,-1.662538,1.332441,-1.471369,1.693069,1.397467,-0.588857,0.234459,-0.002862,1.128016,-0.107686,-0.116527,1.096407,-0.037365,-1.703143,37.984051,-24.313553,-4.166078,0.279630,1.825668,-0.188737,0.000000,0.000000,0.000000,0.000000,0.000000,0.000000
12851407.000000,-2.277447,-1.662550,1.333566,-1.471483,1.692952,1.398554,-0.588895,0.232317,-0.005860,1.127009,-0.109193,-0.113417,1.084679,-0.038760,-1.726946,38.154644,-24.166763,-4.043092,0.225614,1.890670,-0.155778,0.000000,0.000000,0.000000,0.000000,0.000000,0.000000
12851408.000000,-2.277213,-1.662554,1.334688,-1.471588,1.692835,1.399634,-0.588925,0.232608,-0.004992,1.124314,-0.108315,-0.117494,1.078012,-0.037328,-1.849932,38.202251,-23.920792,-3.991518,0.219205,2.014266,-0.182328,0.000000,0.000000,0.000000,0.000000,0.000000,0.000000
12851409.000000,-2.276984,-1.662566,1.335778,-1.471692,1.692720,1.400713,-0.588961,0.232837,-0.006740,1.116077,-0.105287,-0.115315,1.085858,-0.038124,-1.949114,38.349041,-23.504227,-3.892336,0.183500,2.001449,-0.163102,0.000000,0.000000,0.000000,0.000000,0.000000,0.000000
12851410.000000,-2.276765,-1.662579,1.336899,-1.471787,1.692603,1.401814,-0.588991,0.227756,-0.008468,1.114621,-0.100146,-0.115078,1.081171,-0.037693,-1.949114,38.519634,-23.381241,-3.920107,0.189908,1.936446,-0.169511,0.000000,0.000000,0.000000,0.000000,0.000000,0.000000
12851411.000000,-2.276539,-1.662579,1.338021,-1.471878,1.692489,1.402925,-0.589026,0.228887,-0.012059,1.140711,-0.098551,-0.118014,1.101128,-0.038599,-2.024493,38.495831,-23.234451,-3.991518,0.147794,1.779891,-0.142960,0.000000,0.000000,0.000000,0.000000,0.000000,0.000000
12851412.000000,-2.276331,-1.662582,1.339139,-1.471969,1.692365,1.404019,-0.589052,0.222912,-0.009169,1.140803,-0.097381,-0.117225,1.092336,-0.036566,-1.949114,38.519634,-23.333633,-4.066896,0.154203,1.708480,-0.182328,0.000000,0.000000,0.000000,0.000000,0.000000,0.000000
12851413.000000,-2.276119,-1.662592,1.340256,-1.472049,1.692241,1.405120,-0.589085,0.216787,-0.009976,1.129213,-0.093880,-0.118743,1.083340,-0.033410,-1.949114,38.666424,-23.234451,-4.265260,0.219205,1.676437,-0.149369,0.000000,0.000000,0.000000,0.000000,0.000000,0.000000
12851414.000000,-2.275911,-1.662596,1.341365,-1.472134,1.692120,1.406200,-0.589105,0.220521,-0.007530,1.110271,-0.090955,-0.115206,1.080721,-0.027877,-1.925311,38.690228,-23.286026,-4.340639,0.291532,1.721298,-0.196061,0.000000,0.000000,0.000000,0.000000,0.000000,0.000000
12851415.000000,-2.275699,-1.662606,1.342486,-1.472221,1.692003,1.407295,-0.589134,0.216289,-0.008138,1.110715,-0.092196,-0.115064,1.074316,-0.030344,-1.925311,38.813213,-23.357437,-4.388246,0.315336,1.760665,-0.188737,0.000000,0.000000,0.000000,0.000000,0.000000,0.000000
12851416.000000,-2.275484,-1.662613,1.343618,-1.472305,1.691893,1.408395,-0.589167,0.216597,-0.007370,1.109209,-0.089896,-0.112613,1.081152,-0.034874,-1.972918,38.888592,-23.456619,-4.463624,0.267728,1.779891,-0.116410,0.000000,0.000000,0.000000,0.000000,0.000000,0.000000
12851417.000000,-2.275272,-1.662625,1.344717,-1.472392,1.691780,1.409493,-0.589186,0.215005,-0.007926,1.113734,-0.091087,-0.111229,1.084413,-0.032577,-2.072100,39.011578,-23.432816,-4.412050,0.225614,1.670028,-0.188737,0.000000,0.000000,0.000000,0.000000,0.000000,0.000000
12851418.000000,-2.275056,-1.662628,1.345816,-1.472475,1.691664,1.410593,-0.589215,0.218474,-0.005386,1.106632,-0.088005,-0.110779,1.088097,-0.030443,-2.246661,39.011578,-23.258255,-4.388246,0.195402,1.624252,-0.155778,0.000000,0.000000,0.000000,0.000000,0.000000,0.000000
12851419.000000,-2.274844,-1.662629,1.346910,-1.472555,1.691555,1.411666,-0.589241,0.212886,-0.007218,1.105595,-0.084837,-0.114810,1.084149,-0.027978,-2.345843,39.011578,-23.135269,-4.388246,0.154203,1.689254,-0.142960,0.000000,0.000000,0.000000,0.000000,0.000000,0.000000
12851420.000000,-2.274639,-1.662635,1.348012,-1.472634,1.691440,1.412760,-0.589263,0.211705,-0.009155,1.105846,-0.083135,-0.119418,1.078492,-0.023653,-2.445025,39.035381,-22.940872,-4.364442,0.166105,1.695663,-0.196061,0.000000,0.000000,0.000000,0.000000,0.000000,0.000000
12851421.000000,-2.274432,-1.662637,1.349132,-1.472710,1.691323,1.413856,-0.589294,0.208119,-0.009639,1.104703,-0.080695,-0.118712,1.071761,-0.029190,-2.568011,39.011578,-23.040054,-4.388246,0.183500,1.760665,-0.136552,0.000000,0.000000,0.000000,0.000000,0.000000,0.000000
12851422.000000,-2.274240,-1.662635,1.350241,-1.472781,1.691199,1.414948,-0.589310,0.204067,-0.005371,1.112439,-0.074401,-0.119478,1.075017,-0.028570,-2.544207,38.936199,-23.135269,-4.463624,0.237516,1.721298,-0.208878,0.000000,0.000000,0.000000,0.000000,0.000000,0.000000
12851423.000000,-2.274039,-1.662633,1.351379,-1.472849,1.691078,1.416060,-0.589344,0.203702,-0.002999,1.117666,-0.070193,-0.118328,1.078386,-0.029464,-2.568011,38.888592,-23.528030,-4.535036,0.249418,1.611434,-0.122819,0.000000,0.000000,0.000000,0.000000,0.000000,0.000000
12851424.000000,-2.273842,-1.662630,1.352505,-1.472915,1.690961,1.417148,-0.589361,0.203716,-0.001191,1.122434,-0.070048,-0.117085,1.103568,-0.024142,-2.591815,38.837017,-23.948563,-4.610414,0.255826,1.591293,-0.188737,0.000000,0.000000,0.000000,0.000000,0.000000,0.000000
12851425.000000,-2.273647,-1.662629,1.353651,-1.472988,1.690841,1.418243,-0.589387,0.197570,-0.000536,1.135892,-0.072688,-0.117490,1.095701,-0.024743,-2.643389,38.813213,-24.412735,-4.562807,0.297025,1.637069,-0.136552,0.000000,0.000000,0.000000,0.000000,0.000000,0.000000
12851426.000000,-2.273459,-1.662632,1.354799,-1.473059,1.690729,1.419331,-0.589406,0.191032,-0.001788,1.130431,-0.071142,-0.119131,1.088255,-0.020728,-2.619586,38.864788,-24.757889,-4.535036,0.267728,1.819259,-0.202470,0.000000,0.000000,0.000000,0.000000,0.000000,0.000000
12851427.000000,-2.273271,-1.662639,1.355921,-1.473129,1.690618,1.420393,-0.589431,0.187553,-0.007138,1.111504,-0.070669,-0.116225,1.083689,-0.021408,-2.643389,38.960003,-25.027664,-4.463624,0.231107,2.060043,-0.175919,0.000000,0.000000,0.000000,0.000000,0.000000,0.000000
12851428.000000,-2.273091,-1.662643,1.357043,-1.473191,1.690503,1.421479,-0.589455,0.186600,-0.005738,1.108083,-0.068608,-0.115282,1.078858,-0.022229,-2.591815,38.983807,-25.027664,-4.463624,0.225614,2.163497,-0.136552,0.000000,0.000000,0.000000,0.000000,0.000000,0.000000
12851429.000000,-2.272906,-1.662643,1.358170,-1.473252,1.690400,1.422573,-0.589471,0.184644,-0.007563,1.108326,-0.067802,-0.107419,1.070419,-0.019060,-2.619586,38.983807,-25.075272,-4.439821,0.147794,2.169906,-0.196061,0.000000,0.000000,0.000000,0.000000,0.000000,0.000000
12851430.000000,-2.272728,-1.662648,1.359275,-1.473314,1.690290,1.423657,-0.589497,0.182502,-0.005564,1.108708,-0.064516,-0.108698,1.064253,-0.021029,-2.619586,38.983807,-24.952286,-4.388246,0.141385,2.144271,-0.142960,0.000000,0.000000,0.000000,0.000000,0.000000,0.000000
12851431.000000,-2.272547,-1.662646,1.360388,-1.473384,1.690176,1.424756,-0.589519,0.180449,-0.002988,1.103955,-0.068044,-0.116180,1.064849,-0.020141,-2.619586,38.936199,-24.734085,-4.213686,0.178007,2.053634,-0.149369,0.000000,0.000000,0.000000,0.000000,0.000000,0.000000
12851432.000000,-2.272366,-1.662650,1.361482,-1.473453,1.690058,1.425837,-0.589533,0.180791,-0.002843,1.100293,-0.070153,-0.114221,1.064799,-0.017613,-2.667193,38.960003,-24.436539,-4.043092,0.273221,2.007858,-0.208878,0.000000,0.000000,0.000000,0.000000,0.000000,0.000000
12851433.000000,-2.272195,-1.662661,1.362595,-1.473519,1.689934,1.426923,-0.589556,0.178613,-0.003879,1.110097,-0.067829,-0.117040,1.063856,-0.019165,-2.619586,39.035381,-24.218338,-3.892336,0.374845,2.014266,-0.175919,0.000000,0.000000,0.000000,0.000000,0.000000,0.000000
12851434.000000,-2.272026,-1.662659,1.363717,-1.473578,1.689826,1.428020,-0.589575,0.176581,-0.004544,1.108515,-0.066434,-0.114626,1.069704,-0.018859,-2.568011,38.960003,-24.166763,-3.868532,0.344633,1.988631,-0.182328,0.000000,0.000000,0.000000,0.000000,0.000000,0.000000
12851435.000000,-2.271868,-1.662663,1.364815,-1.473628,1.689726,1.429113,-0.589597,0.170667,-0.003449,1.108206,-0.062692,-0.110764,1.078056,-0.019850,-2.445025,38.960003,-24.019974,-3.967714,0.255826,1.851302,-0.155778,0.000000,0.000000,0.000000,0.000000,0.000000,0.000000
12851436.000000,-2.271714,-1.662666,1.365943,-1.473676,1.689618,1.430211,-0.589609,0.167625,-0.002615,1.114512,-0.057679,-0.105856,1.078697,-0.018360,-2.270464,38.960003,-24.119156,-4.043092,0.231107,1.786300,-0.188737,0.000000,0.000000,0.000000,0.000000,0.000000,0.000000
12851437.000000,-2.271564,-1.662673,1.367050,-1.473719,1.689522,1.431294,-0.589629,0.156139,-0.003186,1.114637,-0.052901,-0.100413,1.074281,-0.019012,-2.072100,39.011578,-24.142960,-4.166078,0.159696,1.754256,-0.175919,0.000000,0.000000,0.000000,0.000000,0.000000,0.000000
12851438.000000,-2.271419,-1.662671,1.368170,-1.473767,1.689425,1.432372,-0.589648,0.151545,0.000019,1.118244,-0.051976,-0.092951,1.065525,-0.014257,-1.901507,38.912395,-24.242142,-4.189882,0.123990,1.877853,-0.175919,0.000000,0.000000,0.000000,0.000000,0.000000,0.000000
12851439.000000,-2.271270,-1.662675,1.369291,-1.473820,1.689321,1.433463,-0.589668,0.149911,-0.002992,1.118784,-0.053325,-0.091062,1.054818,-0.016836,-1.802325,38.888592,-24.289749,-4.118471,0.178007,1.981307,-0.136552,0.000000,0.000000,0.000000,0.000000,0.000000,0.000000
12851440.000000,-2.271119,-1.662681,1.370381,-1.473864,1.689214,1.434556,-0.589683,0.150890,-0.002937,1.119081,-0.049347,-0.094280,1.058958,-0.016205,-1.802325,38.912395,-24.190567,-4.118471,0.237516,1.916305,-0.163102,0.000000,0.000000,0.000000,0.000000,0.000000,0.000000
12851441.000000,-2.270974,-1.662682,1.371483,-1.473915,1.689110,1.435668,-0.589699,0.152333,-0.000484,1.111636,-0.048857,-0.096504,1.066992,-0.016857,-1.703143,38.837017,-24.071548,-4.019289,0.303434,1.786300,-0.163102,0.000000,0.000000,0.000000,0.000000,0.000000,0.000000
12851442.000000,-2.270826,-1.662683,1.372575,-1.473963,1.689013,1.436776,-0.589719,0.150809,-0.002436,1.131297,-0.048164,-0.094913,1.097581,-0.018053,-1.627764,38.765606,-24.019974,-3.920107,0.279630,1.689254,-0.142960,0.000000,0.000000,0.000000,0.000000,0.000000,0.000000
12851443.000000,-2.270685,-1.662677,1.373671,-1.474011,1.688919,1.437863,-0.589728,0.146973,0.001350,1.123896,-0.047544,-0.092608,1.087822,-0.015963,-1.580157,38.618816,-23.873184,-3.820925,0.225614,1.676437,-0.202470,0.000000,0.000000,0.000000,0.000000,0.000000,0.000000
12851444.000000,-2.270547,-1.662682,1.374767,-1.474054,1.688816,1.438956,-0.589748,0.141831,-0.003001,1.110871,-0.045993,-0.094086,1.082130,-0.018477,-1.453204,38.618816,-23.651016,-3.769350,0.249418,1.735030,-0.155778,0.000000,0.000000,0.000000,0.000000,0.000000,0.000000
12851445.000000,-2.270409,-1.662683,1.375857,-1.474092,1.688714,1.440037,-0.589759,0.143256,-0.001442,1.113792,-0.043986,-0.097929,1.085016,-0.017522,-1.429400,38.571209,-23.603409,-3.745546,0.225614,1.779891,-0.182328,0.000000,0.000000,0.000000,0.000000,0.000000,0.000000
12851446.000000,-2.270281,-1.662685,1.376971,-1.474127,1.688613,1.441126,-0.589777,0.139434,-0.000728,1.116705,-0.039042,-0.100412,1.079296,-0.019055,-1.306414,38.543438,-23.750198,-3.745546,0.189908,1.877853,-0.149369,0.000000,0.000000,0.000000,0.000000,0.000000,0.000000
12851447.000000,-2.270156,-1.662681,1.378108,-1.474166,1.688519,1.442224,-0.589794,0.135702,0.000873,1.122839,-0.039593,-0.097394,1.073349,-0.019588,-1.131854,38.472027,-24.119156,-3.697939,0.147794,1.909896,-0.130143,0.000000,0.000000,0.000000,0.000000,0.000000,0.000000
12851448.000000,-2.270032,-1.662681,1.379223,-1.474203,1.688420,1.443318,-0.589800,0.127849,0.000348,1.129782,-0.036894,-0.097599,1.067020,-0.016556,-1.008868,38.472027,-24.488113,-3.646364,0.166105,1.865035,-0.202470,0.000000,0.000000,0.000000,0.000000,0.000000,0.000000
12851449.000000,-2.269908,-1.662682,1.380350,-1.474233,1.688319,1.444417,-0.589820,0.126591,0.000613,1.125729,-0.033762,-0.098517,1.068725,-0.020265,-0.961260,38.448223,-24.880875,-3.646364,0.213712,1.865035,-0.122819,0.000000,0.000000,0.000000,0.000000,0.000000,0.000000
12851450.000000,-2.269795,-1.662685,1.381461,-1.474273,1.688218,1.445492,-0.589826,0.123776,-0.001393,1.105930,-0.037327,-0.099094,1.064484,-0.017229,-0.810504,38.519634,-25.126846,-3.523378,0.255826,1.923629,-0.188737,0.000000,0.000000,0.000000,0.000000,0.000000,0.000000
12851451.000000,-2.269672,-1.662688,1.382581,-1.474302,1.688115,1.446581,-0.589840,0.121787,-0.002234,1.113725,-0.034398,-0.098956,1.066569,-0.017677,-0.786700,38.571209,-25.273636,-3.499574,0.291532,1.955673,-0.188737,0.000000,0.000000,0.000000,0.000000,0.000000,0.000000
12851452.000000,-2.269558,-1.662697,1.383698,-1.474335,1.688018,1.447670,-0.589850,0.118894,-0.003791,1.103742,-0.037229,-0.097731,1.062602,-0.017485,-0.735125,38.666424,-25.297440,-3.400392,0.291532,2.020675,-0.202470,0.000000,0.000000,0.000000,0.000000,0.000000,0.000000
12851453.000000,-2.269443,-1.662701,1.384796,-1.474365,1.687923,1.448752,-0.589868,0.116800,-0.003789,1.107257,-0.034307,-0.100024,1.065950,-0.015882,-0.687518,38.717999,-25.222061,-3.376589,0.255826,1.949264,-0.130143,0.000000,0.000000,0.000000,0.000000,0.000000,0.000000
12851454.000000,-2.269321,-1.662715,1.385898,-1.474396,1.687823,1.449842,-0.589874,0.119966,-0.007115,1.100683,-0.030921,-0.098535,1.065835,-0.014067,-0.711321,38.912395,-25.003860,-3.277406,0.249418,1.871444,-0.196061,0.000000,0.000000,0.000000,0.000000,0.000000,0.000000
12851455.000000,-2.269204,-1.662724,1.386984,-1.474428,1.687726,1.450913,-0.589886,0.118551,-0.007651,1.074272,-0.031859,-0.102269,1.089578,-0.011153,-0.711321,39.035381,-24.781693,-3.154421,0.249418,1.851302,-0.182328,0.000000,0.000000,0.000000,0.000000,0.000000,0.000000
12851456.000000,-2.269091,-1.662726,1.388078,-1.474461,1.687622,1.451990,-0.589895,0.114432,-0.005124,1.082263,-0.033145,-0.100558,1.070274,-0.012862,-0.735125,39.035381,-24.488113,-3.003664,0.261320,1.871444,-0.188737,0.000000,0.000000,0.000000,0.000000,0.000000,0.000000
12851457.000000,-2.268983,-1.662732,1.389189,-1.474488,1.687518,1.453079,-0.589909,0.113496,-0.004547,1.085436,-0.032781,-0.104035,1.060784,-0.014640,-0.711321,39.082989,-24.365128,-2.904482,0.285123,1.890670,-0.175919,0.000000,0.000000,0.000000,0.000000,0.000000,0.000000
12851458.000000,-2.268874,-1.662735,1.390266,-1.474508,1.687417,1.454169,-0.589922,0.111548,-0.003045,1.086836,-0.025920,-0.101448,1.069411,-0.016463,-0.711321,39.082989,-24.071548,-2.956056,0.285123,1.800033,-0.155778,0.000000,0.000000,0.000000,0.000000,0.000000,0.000000
12851459.000000,-2.268780,-1.662739,1.391373,-1.474522,1.687311,1.455285,-0.589929,0.105348,-0.001483,1.088863,-0.020743,-0.101415,1.073219,-0.020643,-0.564532,39.059185,-24.071548,-3.027467,0.332731,1.584884,-0.182328,0.000000,0.000000,0.000000,0.000000,0.000000,0.000000
12851460.000000,-2.268682,-1.662736,1.392494,-1.474534,1.687219,1.456395,-0.589942,0.102070,0.001324,1.091407,-0.019390,-0.097831,1.101824,-0.016499,-0.465350,38.960003,-24.218338,-3.126650,0.285123,1.513473,-0.155778,0.000000,0.000000,0.000000,0.000000,0.000000,0.000000
12851461.000000,-2.268590,-1.662738,1.393583,-1.474544,1.687120,1.457479,-0.589949,0.096098,0.001991,1.101624,-0.016099,-0.096484,1.100749,-0.011331,-0.342364,38.912395,-24.166763,-3.202028,0.279630,1.500655,-0.182328,0.000000,0.000000,0.000000,0.000000,0.000000,0.000000
12851462.000000,-2.268492,-1.662746,1.394686,-1.474557,1.687023,1.458570,-0.589964,0.096538,-0.002664,1.097483,-0.016060,-0.092131,1.099547,-0.009252,-0.314593,38.936199,-24.190567,-3.178224,0.303434,1.611434,-0.163102,0.000000,0.000000,0.000000,0.000000,0.000000,0.000000
12851463.000000,-2.268398,-1.662752,1.395769,-1.474561,1.686925,1.459640,-0.589978,0.096799,-0.002622,1.106477,-0.014865,-0.092747,1.093199,-0.012827,-0.290789,38.960003,-24.142960,-3.202028,0.303434,1.786300,-0.130143,0.000000,0.000000,0.000000,0.000000,0.000000,0.000000
12851464.000000,-2.268303,-1.662752,1.396868,-1.474569,1.686829,1.460734,-0.589981,0.098203,-0.004537,1.108020,-0.015013,-0.092576,1.091480,-0.011827,-0.290789,38.912395,-24.166763,-3.178224,0.291532,1.877853,-0.196061,0.000000,0.000000,0.000000,0.000000,0.000000,0.000000
12851465.000000,-2.268205,-1.662752,1.397956,-1.474566,1.686742,1.461845,-0.589999,0.097045,-0.001731,1.096465,-0.008976,-0.090064,1.084938,-0.016653,-0.342364,38.837017,-23.972366,-3.277406,0.207303,1.844894,-0.116410,0.000000,0.000000,0.000000,0.000000,0.000000,0.000000
12851466.000000,-2.268107,-1.662753,1.399032,-1.474569,1.686654,1.462941,-0.589999,0.097061,-0.003955,1.100360,-0.006950,-0.089866,1.080857,-0.013607,-0.441546,38.789410,-23.873184,-3.277406,0.166105,1.793624,-0.208878,0.000000,0.000000,0.000000,0.000000,0.000000,0.000000
12851467.000000,-2.268014,-1.662753,1.400117,-1.474567,1.686559,1.464052,-0.590014,0.095661,-0.001527,1.096038,-0.004244,-0.092473,1.075724,-0.012347,-0.489153,38.717999,-23.726395,-3.325014,0.195402,1.714889,-0.155778,0.000000,0.000000,0.000000,0.000000,0.000000,0.000000
12851468.000000,-2.267909,-1.662749,1.401193,-1.474571,1.686466,1.465138,-0.590021,0.099033,0.001438,1.093358,-0.005136,-0.094872,1.081525,-0.009451,-0.711321,38.595013,-23.651016,-3.249635,0.243009,1.714889,-0.149369,0.000000,0.000000,0.000000,0.000000,0.000000,0.000000
