chaoyuefei/paper-gmrm-data/robot_logs/s2_dq_mrm_min_0.50_log_20260314_174713.csv
# time_ms,q_0,q_1,q_2,q_3,q_4,q_5,q_6,dq_0,dq_1,dq_2,dq_3,dq_4,dq_5,dq_6,tau_J_0,tau_J_1,tau_J_2,tau_J_3,tau_J_4,tau_J_5,tau_J_6,O_dP_EE_c_0,O_dP_EE_c_1,O_dP_EE_c_2,O_dP_EE_c_3,O_dP_EE_c_4,O_dP_EE_c_5
13095368.000000,-2.417852,-1.662607,1.040159,-1.352900,1.798093,1.079506,-0.546498,0.000250,0.001321,0.000264,-0.000167,-0.000170,-0.000024,0.000795,0.006757,41.554607,-21.052444,-5.697450,0.823453,1.318465,0.028243,0.000000,0.000000,0.000000,0.000000,0.000000,0.000000
13095369.000000,-2.417857,-1.662612,1.040159,-1.352900,1.798093,1.079505,-0.546503,-0.001503,-0.000882,-0.000474,-0.000668,-0.000113,0.000222,-0.001199,0.078168,41.629986,-21.024673,-5.673646,0.823453,1.312057,0.074935,0.000000,0.000000,0.000000,0.000000,0.000000,0.000000
13095370.000000,-2.417853,-1.662610,1.040158,-1.352894,1.798092,1.079502,-0.546496,0.000111,-0.000031,-0.000873,0.001318,-0.000720,-0.000327,0.001642,0.030561,41.606182,-21.000870,-5.749025,0.840848,1.324874,0.009017,0.000000,0.000000,0.000000,0.000000,0.000000,0.000000
13095371.000000,-2.417855,-1.662612,1.040154,-1.352897,1.798093,1.079506,-0.546500,-0.000483,-0.000578,-0.001138,-0.000328,0.000164,0.000019,-0.000126,0.054365,41.629986,-20.977066,-5.697450,0.823453,1.318465,0.041976,0.000000,0.000000,0.000000,0.000000,0.000000,0.000000
13095372.000000,-2.417847,-1.662612,1.040155,-1.352895,1.798092,1.079504,-0.546507,0.006434,-0.001236,-0.000759,-0.000775,0.000788,-0.001174,-0.009287,0.304304,41.530804,-20.977066,-5.673646,0.805143,1.350509,0.048385,0.000000,0.000000,0.000000,0.000000,0.000000,0.000000
13095373.000000,-2.417837,-1.662615,1.040158,-1.352897,1.798096,1.079496,-0.546510,0.015754,-0.002764,-0.001063,0.001201,-0.000528,-0.002850,-0.007710,1.343732,41.336407,-20.953262,-5.475282,0.709928,1.532699,-0.056901,0.000000,0.000000,0.000000,0.000000,0.000000,0.000000
13095374.000000,-2.417808,-1.662615,1.040169,-1.352894,1.798094,1.079497,-0.546538,0.020463,-0.001561,0.001874,0.001227,-0.000976,-0.005501,-0.014504,2.902875,40.896038,-20.929459,-5.205507,0.589994,1.767074,-0.083451,0.000000,0.000000,0.000000,0.000000,0.000000,0.000000
13095375.000000,-2.417758,-1.662616,1.040190,-1.352901,1.798077,1.079517,-0.546574,0.026070,-0.000793,0.010898,-0.000680,-0.004449,0.002449,-0.019831,4.759565,40.427898,-20.929459,-4.832582,0.547880,1.871444,-0.103593,0.000000,0.000000,0.000000,0.000000,0.000000,0.000000
13095376.000000,-2.417695,-1.662616,1.040206,-1.352912,1.798052,1.079565,-0.546631,0.032839,0.000729,0.014325,-0.007872,-0.013907,0.019045,-0.034838,6.640058,39.892315,-20.782669,-4.463624,0.566190,1.819259,-0.083451,0.000000,0.000000,0.000000,0.000000,0.000000,0.000000
13095377.000000,-2.417604,-1.662617,1.040237,-1.352937,1.798009,1.079646,-0.546698,0.048574,0.003532,0.019304,-0.013619,-0.026855,0.037345,-0.049175,8.199201,39.400372,-20.731094,-4.066896,0.625699,1.591293,-0.103593,0.000000,0.000000,0.000000,0.000000,0.000000,0.000000
13095378.000000,-2.417506,-1.662617,1.040276,-1.352976,1.797955,1.079751,-0.546793,0.060230,0.004193,0.026910,-0.023795,-0.035023,0.063299,-0.061983,9.710736,38.960003,-20.707291,-3.670168,0.655912,1.389877,-0.064225,0.000000,0.000000,0.000000,0.000000,0.000000,0.000000
13095379.000000,-2.417394,-1.662613,1.040325,-1.353017,1.797887,1.079862,-0.546904,0.072752,0.001649,0.034998,-0.030464,-0.046063,0.081787,-0.084016,10.996137,38.519634,-20.659683,-3.448000,0.685209,1.331283,-0.077042,0.000000,0.000000,0.000000,0.000000,0.000000,0.000000
13095380.000000,-2.417261,-1.662608,1.040380,-1.353076,1.797805,1.079991,-0.547039,0.090978,0.004725,0.042924,-0.040537,-0.061437,0.097832,-0.104876,12.063336,38.130840,-20.560501,-3.154421,0.655912,1.337692,-0.097184,0.000000,0.000000,0.000000,0.000000,0.000000,0.000000
13095381.000000,-2.417124,-1.662602,1.040452,-1.353141,1.797713,1.080138,-0.547212,0.104706,0.006594,0.051425,-0.048355,-0.074836,0.111254,-0.126697,13.126569,37.761883,-20.560501,-2.979860,0.542386,1.448470,-0.070634,0.000000,0.000000,0.000000,0.000000,0.000000,0.000000
13095382.000000,-2.416973,-1.662590,1.040532,-1.353224,1.797598,1.080313,-0.547400,0.118601,0.008637,0.063192,-0.057965,-0.091871,0.125519,-0.143759,13.991437,37.369122,-20.536697,-2.781496,0.482877,1.584884,-0.097184,0.000000,0.000000,0.000000,0.000000,0.000000,0.000000
13095383.000000,-2.416808,-1.662576,1.040633,-1.353321,1.797469,1.080517,-0.547623,0.131954,0.009522,0.076265,-0.070913,-0.102360,0.148990,-0.170584,14.761090,37.004131,-20.683487,-2.634706,0.356534,1.643478,-0.103593,0.000000,0.000000,0.000000,0.000000,0.000000,0.000000
13095384.000000,-2.416620,-1.662556,1.040754,-1.353431,1.797314,1.080757,-0.547875,0.149733,0.010907,0.090517,-0.083127,-0.118521,0.179880,-0.194532,15.253034,36.611370,-20.905655,-2.511720,0.320829,1.605026,-0.089860,0.000000,0.000000,0.000000,0.000000,0.000000,0.000000
13095385.000000,-2.416417,-1.662537,1.040881,-1.353563,1.797129,1.081036,-0.548143,0.163140,0.011480,0.104103,-0.099087,-0.141979,0.208823,-0.216210,15.701337,36.242413,-21.000870,-2.360964,0.351041,1.507064,-0.097184,0.000000,0.000000,0.000000,0.000000,0.000000,0.000000
13095386.000000,-2.416195,-1.662516,1.041024,-1.353712,1.796931,1.081338,-0.548439,0.181098,0.014914,0.116674,-0.119100,-0.164445,0.243505,-0.239085,16.070295,35.877422,-21.199234,-2.237978,0.381254,1.396285,-0.050492,0.000000,0.000000,0.000000,0.000000,0.000000,0.000000
13095387.000000,-2.415955,-1.662496,1.041180,-1.353877,1.796691,1.081645,-0.548732,0.202567,0.016965,0.129991,-0.133742,-0.188402,0.262991,-0.253018,16.268660,35.536236,-21.322220,-2.190370,0.488370,1.377059,-0.097184,0.000000,0.000000,0.000000,0.000000,0.000000,0.000000
13095388.000000,-2.415703,-1.662478,1.041344,-1.354062,1.796440,1.081975,-0.549044,0.217357,0.016902,0.144163,-0.148358,-0.208053,0.283595,-0.266846,16.518599,35.266460,-21.369827,-2.114992,0.518583,1.448470,-0.056901,0.000000,0.000000,0.000000,0.000000,0.000000,0.000000
13095389.000000,-2.415438,-1.662462,1.041517,-1.354251,1.796181,1.082325,-0.549349,0.231367,0.015369,0.152734,-0.160597,-0.225580,0.300727,-0.279705,16.689192,35.068096,-21.417435,-2.138796,0.494779,1.494247,-0.070634,0.000000,0.000000,0.000000,0.000000,0.000000,0.000000
13095390.000000,-2.415150,-1.662451,1.041708,-1.354459,1.795901,1.082700,-0.549653,0.249143,0.015127,0.162183,-0.176053,-0.242725,0.317583,-0.283117,16.764570,34.972881,-21.469009,-2.162599,0.470060,1.552840,-0.122819,0.000000,0.000000,0.000000,0.000000,0.000000,0.000000
13095391.000000,-2.414858,-1.662441,1.041895,-1.354689,1.795614,1.083094,-0.549973,0.260099,0.014411,0.169689,-0.192337,-0.266161,0.343348,-0.290525,16.962934,34.921307,-21.393631,-2.138796,0.369352,1.649886,-0.070634,0.000000,0.000000,0.000000,0.000000,0.000000,0.000000
13095392.000000,-2.414535,-1.662434,1.042105,-1.354943,1.795300,1.083513,-0.550277,0.279913,0.010948,0.182159,-0.210246,-0.278211,0.365256,-0.294756,16.887556,34.873699,-21.346024,-1.992006,0.315336,1.682845,-0.116410,0.000000,0.000000,0.000000,0.000000,0.000000,0.000000
13095393.000000,-2.414197,-1.662434,1.042321,-1.355220,1.794964,1.083955,-0.550590,0.298135,0.006356,0.188823,-0.230634,-0.294342,0.387133,-0.298396,16.887556,34.921307,-21.294449,-1.793642,0.332731,1.670028,-0.070634,0.000000,0.000000,0.000000,0.000000,0.000000,0.000000
13095394.000000,-2.413848,-1.662434,1.042540,-1.355511,1.794625,1.084423,-0.550890,0.315959,0.003159,0.198775,-0.249354,-0.309690,0.416304,-0.298884,16.911360,34.972881,-21.175430,-1.595277,0.308927,1.578475,-0.110001,0.000000,0.000000,0.000000,0.000000,0.000000,0.000000
13095395.000000,-2.413490,-1.662429,1.042772,-1.355815,1.794251,1.084918,-0.551178,0.331023,0.002852,0.206713,-0.266186,-0.332338,0.437097,-0.300501,16.939131,34.945110,-21.100052,-1.396913,0.356534,1.513473,-0.122819,0.000000,0.000000,0.000000,0.000000,0.000000,0.000000
13095396.000000,-2.413115,-1.662433,1.043017,-1.356124,1.793863,1.085429,-0.551471,0.343852,0.000210,0.218296,-0.277512,-0.350186,0.460687,-0.297561,16.986738,35.020489,-21.100052,-1.349306,0.405057,1.481429,-0.083451,0.000000,0.000000,0.000000,0.000000,0.000000,0.000000
13095397.000000,-2.412741,-1.662431,1.043269,-1.356436,1.793464,1.085962,-0.551747,0.357946,0.000751,0.228093,-0.290947,-0.362445,0.482783,-0.292381,17.208906,34.996685,-21.024673,-1.420717,0.440763,1.461288,-0.130143,0.000000,0.000000,0.000000,0.000000,0.000000,0.000000
13095398.000000,-2.412346,-1.662436,1.043527,-1.356771,1.793032,1.086512,-0.552028,0.368036,-0.001129,0.234619,-0.301162,-0.381024,0.495496,-0.287332,17.383467,35.068096,-20.905655,-1.396913,0.488370,1.526290,-0.083451,0.000000,0.000000,0.000000,0.000000,0.000000,0.000000
13095399.000000,-2.411933,-1.662433,1.043795,-1.357117,1.792603,1.087073,-0.552306,0.384948,0.000391,0.239591,-0.316245,-0.393721,0.514048,-0.281873,17.530256,35.020489,-20.782669,-1.420717,0.482877,1.624252,-0.083451,0.000000,0.000000,0.000000,0.000000,0.000000,0.000000
13095400.000000,-2.411525,-1.662436,1.044081,-1.357481,1.792155,1.087670,-0.552572,0.392341,-0.000830,0.250393,-0.329965,-0.408337,0.531281,-0.279513,17.827803,35.068096,-20.731094,-1.321535,0.494779,1.649886,-0.155778,0.000000,0.000000,0.000000,0.000000,0.000000,0.000000
13095401.000000,-2.411086,-1.662434,1.044372,-1.357860,1.791681,1.088300,-0.552848,0.409951,0.000021,0.266296,-0.347077,-0.428211,0.560683,-0.268916,17.978559,35.044292,-20.707291,-1.226320,0.488370,1.605026,-0.083451,0.000000,0.000000,0.000000,0.000000,0.000000,0.000000
13095402.000000,-2.410647,-1.662434,1.044672,-1.358254,1.791208,1.088943,-0.553106,0.410723,0.000027,0.273135,-0.362918,-0.442410,0.583091,-0.263311,18.200727,35.044292,-20.608109,-1.000185,0.446256,1.435653,-0.116410,0.000000,0.000000,0.000000,0.000000,0.000000,0.000000
13095403.000000,-2.410177,-1.662429,1.044987,-1.358661,1.790708,1.089617,-0.553359,0.426933,0.001698,0.283086,-0.376668,-0.464610,0.606886,-0.258972,18.248335,34.972881,-20.584305,-0.904970,0.494779,1.259872,-0.149369,0.000000,0.000000,0.000000,0.000000,0.000000,0.000000
13095404.000000,-2.409700,-1.662422,1.045311,-1.359093,1.790203,1.090299,-0.553619,0.440250,0.002902,0.296479,-0.397943,-0.475118,0.640900,-0.261779,18.399092,34.897503,-20.536697,-0.631227,0.476469,1.201278,-0.097184,0.000000,0.000000,0.000000,0.000000,0.000000,0.000000
13095405.000000,-2.409217,-1.662416,1.045649,-1.359522,1.789676,1.090983,-0.553872,0.446356,0.003611,0.306367,-0.410588,-0.493871,0.656732,-0.258144,18.597456,34.826092,-20.512894,-0.508241,0.506681,1.247054,-0.083451,0.000000,0.000000,0.000000,0.000000,0.000000,0.000000
13095406.000000,-2.408717,-1.662407,1.045982,-1.359976,1.789137,1.091686,-0.554111,0.460543,0.004731,0.321351,-0.423249,-0.505895,0.672942,-0.248736,18.843428,34.726910,-20.338333,-0.357485,0.476469,1.331283,-0.122819,0.000000,0.000000,0.000000,0.000000,0.000000,0.000000
13095407.000000,-2.408207,-1.662403,1.046338,-1.360430,1.788592,1.092401,-0.554355,0.472755,0.007321,0.332062,-0.433086,-0.517278,0.687723,-0.246993,19.164778,34.679302,-20.314529,-0.357485,0.506681,1.370651,-0.149369,0.000000,0.000000,0.000000,0.000000,0.000000,0.000000
13095408.000000,-2.407685,-1.662392,1.046701,-1.360897,1.788021,1.093149,-0.554604,0.488271,0.008014,0.339210,-0.436655,-0.528116,0.706058,-0.248044,19.414717,34.556316,-20.266922,-0.357485,0.506681,1.429244,-0.122819,0.000000,0.000000,0.000000,0.000000,0.000000,0.000000
13095409.000000,-2.407140,-1.662375,1.047080,-1.361394,1.787451,1.093915,-0.554854,0.504773,0.012690,0.353891,-0.452705,-0.548671,0.718378,-0.252388,19.684492,34.385723,-20.338333,-0.234499,0.506681,1.429244,-0.103593,0.000000,0.000000,0.000000,0.000000,0.000000,0.000000
13095410.000000,-2.406595,-1.662366,1.047471,-1.361895,1.786847,1.094704,-0.555093,0.505056,0.010631,0.361358,-0.472667,-0.563704,0.738836,-0.251860,19.958235,34.310345,-20.437515,-0.111513,0.547880,1.377059,-0.163102,0.000000,0.000000,0.000000,0.000000,0.000000,0.000000
13095411.000000,-2.406029,-1.662355,1.047873,-1.362415,1.786239,1.095526,-0.555343,0.520179,0.012272,0.370462,-0.484744,-0.573720,0.764248,-0.253913,20.231977,34.238934,-20.512894,0.011473,0.566190,1.272689,-0.116410,0.000000,0.000000,0.000000,0.000000,0.000000,0.000000
13095412.000000,-2.405445,-1.662340,1.048283,-1.362947,1.785626,1.096348,-0.555589,0.534349,0.011555,0.382672,-0.500174,-0.584831,0.783396,-0.247541,20.430342,34.115948,-20.707291,0.209837,0.535978,1.194869,-0.103593,0.000000,0.000000,0.000000,0.000000,0.000000,0.000000
13095413.000000,-2.404860,-1.662327,1.048720,-1.363492,1.784997,1.097196,-0.555827,0.551932,0.013007,0.398319,-0.516840,-0.592754,0.803802,-0.246149,20.700117,34.040569,-20.953262,0.257445,0.518583,1.207687,-0.130143,0.000000,0.000000,0.000000,0.000000,0.000000,0.000000
13095414.000000,-2.404243,-1.662312,1.049158,-1.364059,1.784347,1.098078,-0.556071,0.571168,0.014057,0.412081,-0.525283,-0.607528,0.823671,-0.247087,20.850874,33.969158,-21.123856,0.332823,0.446256,1.201278,-0.097184,0.000000,0.000000,0.000000,0.000000,0.000000,0.000000
13095415.000000,-2.403622,-1.662294,1.049611,-1.364623,1.783701,1.098958,-0.556309,0.579240,0.012363,0.423990,-0.537397,-0.619447,0.844327,-0.242954,21.021467,33.869976,-21.246841,0.309019,0.405057,1.207687,-0.116410,0.000000,0.000000,0.000000,0.000000,0.000000,0.000000
13095416.000000,-2.402984,-1.662284,1.050071,-1.365209,1.783021,1.099854,-0.556539,0.594531,0.015588,0.437226,-0.555130,-0.637057,0.856342,-0.239757,21.219831,33.846172,-21.294449,0.285216,0.374845,1.370651,-0.122819,0.000000,0.000000,0.000000,0.000000,0.000000,0.000000
13095417.000000,-2.402330,-1.662265,1.050547,-1.365798,1.782342,1.100761,-0.556773,0.612423,0.017773,0.450289,-0.562072,-0.649169,0.886717,-0.236258,21.493574,33.699383,-21.445206,0.332823,0.410551,1.500655,-0.116410,0.000000,0.000000,0.000000,0.000000,0.000000,0.000000
13095418.000000,-2.401658,-1.662248,1.051033,-1.366417,1.781627,1.101713,-0.557003,0.633017,0.018134,0.459842,-0.574440,-0.665581,0.903771,-0.239937,21.640364,33.600201,-21.516617,0.507384,0.530485,1.448470,-0.149369,0.000000,0.000000,0.000000,0.000000,0.000000,0.000000
13095419.000000,-2.400963,-1.662233,1.051521,-1.367046,1.780908,1.102708,-0.557239,0.650697,0.017329,0.467089,-0.588698,-0.687790,0.935656,-0.237647,21.838728,33.552593,-21.663406,0.677977,0.667814,1.259872,-0.142960,0.000000,0.000000,0.000000,0.000000,0.000000,0.000000
13095420.000000,-2.400262,-1.662222,1.052032,-1.367679,1.780204,1.103692,-0.557478,0.682101,0.015136,0.479379,-0.606524,-0.689377,0.951179,-0.240218,22.013288,33.576397,-21.837967,0.900145,0.781339,1.136276,-0.130143,0.000000,0.000000,0.000000,0.000000,0.000000,0.000000
13095421.000000,-2.399536,-1.662205,1.052555,-1.368325,1.779489,1.104701,-0.557709,0.695363,0.013964,0.491462,-0.613856,-0.698471,0.961056,-0.236942,22.235456,33.453411,-22.008560,1.074705,0.913175,1.117049,-0.122819,0.000000,0.000000,0.000000,0.000000,0.000000,0.000000
13095422.000000,-2.398800,-1.662199,1.053068,-1.368985,1.778797,1.105735,-0.557936,0.701286,0.010903,0.499841,-0.636637,-0.695842,0.997763,-0.233160,22.088667,33.552593,-22.008560,0.999327,0.984586,1.220504,-0.142960,0.000000,0.000000,0.000000,0.000000,0.000000,0.000000
13095423.000000,-2.398070,-1.662190,1.053608,-1.369650,1.778091,1.106764,-0.558159,0.700274,0.008348,0.513959,-0.652823,-0.692688,1.013798,-0.238276,20.997663,33.675579,-21.861771,0.578795,0.913175,1.422836,-0.175919,0.000000,0.000000,0.000000,0.000000,0.000000,0.000000
13095424.000000,-2.397348,-1.662185,1.054163,-1.370346,1.777384,1.107829,-0.558391,0.699685,0.007265,0.541508,-0.660830,-0.691661,1.026022,-0.232703,19.216352,33.770794,-21.568192,-0.087709,0.876554,1.605026,-0.122819,0.000000,0.000000,0.000000,0.000000,0.000000,0.000000
13095425.000000,-2.396631,-1.662173,1.054745,-1.371036,1.776689,1.108911,-0.558610,0.717187,0.009190,0.554523,-0.668731,-0.689529,1.046796,-0.228949,16.716963,33.624004,-21.052444,-0.976381,0.774930,1.656295,-0.182328,0.000000,0.000000,0.000000,0.000000,0.000000,0.000000
13095426.000000,-2.395900,-1.662164,1.055362,-1.371749,1.775996,1.110026,-0.558832,0.721562,0.006781,0.573669,-0.675153,-0.688474,1.066666,-0.226913,13.892255,33.354229,-20.389908,-1.841249,0.608304,1.702071,-0.182328,0.000000,0.000000,0.000000,0.000000,0.000000,0.000000
13095427.000000,-2.395177,-1.662168,1.055980,-1.372471,1.775316,1.111150,-0.559059,0.729621,0.005881,0.584758,-0.685154,-0.696534,1.085944,-0.225708,11.269879,33.159832,-19.505203,-2.535524,0.476469,1.786300,-0.103593,0.000000,0.000000,0.000000,0.000000,0.000000,0.000000
13095428.000000,-2.394461,-1.662176,1.056628,-1.373175,1.774635,1.112285,-0.559269,0.734843,0.003370,0.600981,-0.688664,-0.693839,1.109091,-0.224172,8.794293,33.036846,-18.719681,-3.202028,0.386747,1.760665,-0.155778,0.000000,0.000000,0.000000,0.000000,0.000000,0.000000
13095429.000000,-2.393733,-1.662189,1.057296,-1.373875,1.773975,1.113451,-0.559491,0.732130,-0.000083,0.617392,-0.689216,-0.679074,1.121764,-0.221315,6.493268,32.989239,-18.005569,-3.820925,0.219205,1.656295,-0.136552,0.000000,0.000000,0.000000,0.000000,0.000000,0.000000
13095430.000000,-2.393004,-1.662207,1.057942,-1.374561,1.773315,1.114630,-0.559717,0.734717,-0.004933,0.628847,-0.685391,-0.672795,1.137261,-0.219521,4.537397,33.036846,-17.148636,-4.312868,0.154203,1.552840,-0.110001,0.000000,0.000000,0.000000,0.000000,0.000000,0.000000
13095431.000000,-2.392287,-1.662234,1.058607,-1.375249,1.772672,1.115835,-0.559928,0.732320,-0.013640,0.635717,-0.677193,-0.655503,1.151362,-0.218088,2.803693,33.183636,-16.410721,-4.610414,0.034269,1.519881,-0.142960,0.000000,0.000000,0.000000,0.000000,0.000000,0.000000
13095432.000000,-2.391559,-1.662264,1.059265,-1.375933,1.772017,1.117079,-0.560148,0.729360,-0.019366,0.641080,-0.671921,-0.648605,1.176137,-0.211110,1.268354,33.306622,-15.724380,-4.784975,0.040677,1.370651,-0.130143,0.000000,0.000000,0.000000,0.000000,0.000000,0.000000
13095433.000000,-2.390846,-1.662291,1.059931,-1.376607,1.771377,1.118298,-0.560363,0.716162,-0.021514,0.643865,-0.672606,-0.646948,1.187879,-0.216003,0.006757,33.354229,-15.014236,-4.832582,0.159696,1.364242,-0.122819,0.000000,0.000000,0.000000,0.000000,0.000000,0.000000
13095434.000000,-2.390120,-1.662322,1.060609,-1.377292,1.770739,1.119558,-0.560573,0.713209,-0.025232,0.651331,-0.672074,-0.641836,1.204834,-0.214561,-1.084246,33.354229,-14.399307,-4.661989,0.225614,1.207687,-0.103593,0.000000,0.000000,0.000000,0.000000,0.000000,0.000000
13095435.000000,-2.389389,-1.662357,1.061272,-1.377971,1.770115,1.120811,-0.560779,0.717443,-0.027534,0.651909,-0.678641,-0.636388,1.235483,-0.211168,-2.048296,33.330425,-13.689163,-4.340639,0.351041,0.941268,-0.169511,0.000000,0.000000,0.000000,0.000000,0.000000,0.000000
13095436.000000,-2.388682,-1.662388,1.061959,-1.378664,1.769474,1.122065,-0.560991,0.715075,-0.030158,0.655519,-0.680070,-0.633794,1.235084,-0.212689,-2.690997,33.207439,-13.197220,-3.820925,0.524076,0.857040,-0.110001,0.000000,0.000000,0.000000,0.000000,0.000000,0.000000
13095437.000000,-2.387961,-1.662410,1.062648,-1.379359,1.768859,1.123303,-0.561192,0.716557,-0.025875,0.668536,-0.682488,-0.626012,1.228971,-0.208348,-3.286089,32.937664,-12.828262,-3.277406,0.547880,0.928451,-0.182328,0.000000,0.000000,0.000000,0.000000,0.000000,0.000000
13095438.000000,-2.387253,-1.662441,1.063349,-1.380038,1.768252,1.124520,-0.561398,0.716608,-0.025433,0.678666,-0.678985,-0.616340,1.226318,-0.204200,-3.805804,32.767071,-12.487076,-2.856874,0.452665,0.993453,-0.169511,0.000000,0.000000,0.000000,0.000000,0.000000,0.000000
13095439.000000,-2.386550,-1.662462,1.064049,-1.380713,1.767644,1.125752,-0.561600,0.708459,-0.022931,0.683737,-0.675098,-0.610065,1.224120,-0.202031,-4.079546,32.497295,-12.189529,-2.606935,0.422452,0.999862,-0.142960,0.000000,0.000000,0.000000,0.000000,0.000000,0.000000
13095440.000000,-2.385845,-1.662476,1.064752,-1.381367,1.767056,1.126972,-0.561803,0.700769,-0.019087,0.687282,-0.683152,-0.599124,1.213262,-0.201562,-4.250140,32.132305,-12.018936,-2.583132,0.285123,1.162826,-0.175919,0.000000,0.000000,0.000000,0.000000,0.000000,0.000000
13095441.000000,-2.385147,-1.662482,1.065473,-1.382023,1.766466,1.128157,-0.562007,0.687918,-0.014151,0.694806,-0.671742,-0.588661,1.198954,-0.203448,-4.500079,31.668133,-11.995132,-2.583132,0.219205,1.377059,-0.169511,0.000000,0.000000,0.000000,0.000000,0.000000,0.000000
13095442.000000,-2.384451,-1.662483,1.066200,-1.382676,1.765862,1.129374,-0.562215,0.684358,-0.010918,0.718080,-0.660226,-0.588543,1.197416,-0.199757,-4.599261,31.199993,-11.820572,-2.682314,0.243009,1.442062,-0.175919,0.000000,0.000000,0.000000,0.000000,0.000000,0.000000
13095443.000000,-2.383760,-1.662479,1.066919,-1.383321,1.765280,1.130580,-0.562426,0.692482,-0.005379,0.718743,-0.650689,-0.584349,1.194821,-0.203579,-4.797625,30.712017,-11.673782,-2.757692,0.279630,1.331283,-0.130143,0.000000,0.000000,0.000000,0.000000,0.000000,0.000000
13095444.000000,-2.383058,-1.662474,1.067662,-1.383964,1.764689,1.131808,-0.562625,0.695136,-0.002464,0.729542,-0.643283,-0.580297,1.195022,-0.203905,-4.995989,30.271648,-11.626175,-2.805300,0.332731,1.142684,-0.196061,0.000000,0.000000,0.000000,0.000000,0.000000,0.000000
13095445.000000,-2.382364,-1.662453,1.068404,-1.384600,1.764113,1.133030,-0.562832,0.691485,0.006385,0.732452,-0.641644,-0.586407,1.193159,-0.206938,-5.118975,29.684490,-11.578568,-2.979860,0.303434,1.006271,-0.136552,0.000000,0.000000,0.000000,0.000000,0.000000,0.000000
13095446.000000,-2.381675,-1.662440,1.069151,-1.385223,1.763542,1.134236,-0.563030,0.694724,0.009164,0.736317,-0.632181,-0.580579,1.194249,-0.203926,-5.317339,29.244122,-11.404007,-3.079042,0.285123,0.915633,-0.136552,0.000000,0.000000,0.000000,0.000000,0.000000,0.000000
13095447.000000,-2.380984,-1.662414,1.069893,-1.385838,1.762976,1.135447,-0.563226,0.690464,0.016230,0.732234,-0.620991,-0.571186,1.187834,-0.202635,-5.392718,28.728374,-10.987442,-3.348818,0.267728,0.843307,-0.196061,0.000000,0.000000,0.000000,0.000000,0.000000,0.000000
13095448.000000,-2.380294,-1.662400,1.070643,-1.386449,1.762424,1.136624,-0.563434,0.689123,0.016787,0.738334,-0.618005,-0.567195,1.181904,-0.202085,-5.464129,28.410992,-10.693863,-3.475771,0.195402,0.999862,-0.116410,0.000000,0.000000,0.000000,0.000000,0.000000,0.000000
13095449.000000,-2.379606,-1.662373,1.071406,-1.387066,1.761866,1.137820,-0.563625,0.692081,0.020399,0.742842,-0.617419,-0.556942,1.169891,-0.201127,-5.614886,27.970623,-10.348709,-3.523378,0.081876,1.123458,-0.175919,0.000000,0.000000,0.000000,0.000000,0.000000,0.000000
13095450.000000,-2.378921,-1.662355,1.072168,-1.387670,1.761313,1.139032,-0.563825,0.683825,0.020203,0.752501,-0.610549,-0.560088,1.168032,-0.199408,-5.662493,27.653240,-10.055130,-3.622560,-0.043551,1.175643,-0.142960,0.000000,0.000000,0.000000,0.000000,0.000000,0.000000
13095451.000000,-2.378243,-1.662337,1.072937,-1.388271,1.760754,1.140244,-0.564023,0.672050,0.019164,0.757005,-0.606590,-0.558226,1.174396,-0.197375,-5.737872,27.383465,-9.614761,-3.622560,-0.019747,1.025497,-0.130143,0.000000,0.000000,0.000000,0.000000,0.000000,0.000000
13095452.000000,-2.377545,-1.662318,1.073721,-1.388870,1.760199,1.141490,-0.564206,0.676109,0.018069,0.767565,-0.601031,-0.555709,1.186421,-0.193518,-5.960040,27.137493,-9.344986,-3.670168,0.022367,0.733443,-0.196061,0.000000,0.000000,0.000000,0.000000,0.000000,0.000000
13095453.000000,-2.376844,-1.662305,1.074509,-1.389467,1.759654,1.142702,-0.564406,0.683671,0.014577,0.777742,-0.605866,-0.549306,1.211558,-0.193260,-6.182208,27.014507,-9.170425,-3.646364,0.027860,0.597030,-0.169511,0.000000,0.000000,0.000000,0.000000,0.000000,0.000000
13095454.000000,-2.376146,-1.662294,1.075310,-1.390058,1.759106,1.143929,-0.564602,0.699157,0.014152,0.782254,-0.596148,-0.547167,1.205869,-0.197633,-6.531329,26.943096,-8.976028,-3.721742,0.105680,0.564071,-0.149369,0.000000,0.000000,0.000000,0.000000,0.000000,0.000000
13095455.000000,-2.375452,-1.662295,1.076113,-1.390656,1.758545,1.145156,-0.564800,0.695762,0.007822,0.808013,-0.593938,-0.544697,1.199820,-0.196356,-6.725726,27.014507,-8.805435,-3.769350,0.171598,0.583297,-0.130143,0.000000,0.000000,0.000000,0.000000,0.000000,0.000000
13095456.000000,-2.374769,-1.662294,1.076932,-1.391238,1.758012,1.146371,-0.564991,0.705001,0.003494,0.814410,-0.587639,-0.540261,1.204880,-0.192429,-6.876482,27.089886,-8.654678,-3.892336,0.171598,0.648299,-0.182328,0.000000,0.000000,0.000000,0.000000,0.000000,0.000000
13095457.000000,-2.374077,-1.662292,1.077774,-1.391804,1.757474,1.147589,-0.565179,0.696914,0.001805,0.824707,-0.580534,-0.538515,1.193540,-0.188609,-7.023272,27.113689,-8.630875,-4.189882,0.112089,0.798446,-0.136552,0.000000,0.000000,0.000000,0.000000,0.000000,0.000000
13095458.000000,-2.373378,-1.662287,1.078614,-1.392377,1.756946,1.148824,-0.565361,0.699146,0.001784,0.834276,-0.584893,-0.532989,1.194662,-0.186778,-7.245440,27.089886,-8.682449,-4.364442,0.034269,0.889083,-0.175919,0.000000,0.000000,0.000000,0.000000,0.000000,0.000000
13095459.000000,-2.372687,-1.662287,1.079474,-1.392939,1.756411,1.150032,-0.565543,0.683871,0.000094,0.839570,-0.577097,-0.536203,1.191691,-0.182222,-7.495379,27.137493,-8.730057,-4.535036,0.015958,0.922042,-0.188737,0.000000,0.000000,0.000000,0.000000,0.000000,0.000000
13095460.000000,-2.371985,-1.662293,1.080343,-1.393505,1.755874,1.151256,-0.565734,0.685321,-0.002244,0.866463,-0.572729,-0.534125,1.187795,-0.185891,-7.864336,27.236675,-8.730057,-4.610414,0.015958,0.960494,-0.136552,0.000000,0.000000,0.000000,0.000000,0.000000,0.000000
13095461.000000,-2.371268,-1.662291,1.081201,-1.394069,1.755350,1.152451,-0.565914,0.707122,-0.000929,0.867030,-0.570920,-0.530143,1.181955,-0.185247,-8.312640,27.212872,-8.630875,-4.535036,0.076383,1.019088,-0.169511,0.000000,0.000000,0.000000,0.000000,0.000000,0.000000
13095462.000000,-2.370557,-1.662287,1.082092,-1.394644,1.754815,1.153668,-0.566094,0.708292,0.001152,0.872334,-0.569688,-0.529777,1.183422,-0.181663,-8.879962,27.137493,-8.654678,-4.487428,0.112089,1.031905,-0.163102,0.000000,0.000000,0.000000,0.000000,0.000000,0.000000
13095463.000000,-2.369840,-1.662283,1.082970,-1.395215,1.754297,1.154893,-0.566274,0.709606,0.001887,0.872405,-0.569869,-0.529434,1.184126,-0.179858,-9.352069,27.089886,-8.583267,-4.439821,0.076383,0.941268,-0.142960,0.000000,0.000000,0.000000,0.000000,0.000000,0.000000
13095464.000000,-2.369134,-1.662275,1.083874,-1.395771,1.753780,1.156116,-0.566443,0.711017,0.003582,0.880483,-0.564997,-0.528060,1.192705,-0.176679,-9.820209,26.990704,-8.507889,-4.439821,0.058073,0.746261,-0.163102,0.000000,0.000000,0.000000,0.000000,0.000000,0.000000
13095465.000000,-2.368425,-1.662266,1.084774,-1.396317,1.753271,1.157329,-0.566622,0.705465,0.004619,0.880388,-0.553677,-0.519944,1.189712,-0.176241,-10.216937,26.895489,-8.238113,-4.610414,-0.019747,0.733443,-0.136552,0.000000,0.000000,0.000000,0.000000,0.000000,0.000000
13095466.000000,-2.367721,-1.662253,1.085686,-1.396853,1.752766,1.158516,-0.566795,0.705830,0.007165,0.889550,-0.550713,-0.522351,1.189613,-0.178315,-10.490680,26.720928,-8.091324,-4.757204,-0.019747,0.850631,-0.196061,0.000000,0.000000,0.000000,0.000000,0.000000,0.000000
13095467.000000,-2.367024,-1.662245,1.086619,-1.397387,1.752261,1.159708,-0.566970,0.704613,0.009056,0.902319,-0.541943,-0.511922,1.184762,-0.173517,-10.835834,26.673321,-8.019913,-4.931764,-0.072848,0.993453,-0.196061,0.000000,0.000000,0.000000,0.000000,0.000000,0.000000
13095468.000000,-2.366321,-1.662233,1.087548,-1.397928,1.751759,1.160917,-0.567149,0.699593,0.009179,0.911584,-0.536138,-0.506813,1.185184,-0.173704,-11.058002,26.550335,-7.944534,-5.007143,-0.072848,1.019088,-0.169511,0.000000,0.000000,0.000000,0.000000,0.000000,0.000000
13095469.000000,-2.365624,-1.662227,1.088511,-1.398458,1.751254,1.162115,-0.567329,0.685344,0.005762,0.927675,-0.537131,-0.509454,1.184784,-0.177866,-11.407123,26.574139,-7.992142,-5.054750,-0.025240,0.947677,-0.175919,0.000000,0.000000,0.000000,0.000000,0.000000,0.000000
13095470.000000,-2.364916,-1.662222,1.089495,-1.398986,1.750758,1.163334,-0.567500,0.692838,0.006604,0.939234,-0.528585,-0.498578,1.192629,-0.180154,-11.752276,26.597942,-8.166702,-5.205507,-0.031649,0.824081,-0.188737,0.000000,0.000000,0.000000,0.000000,0.000000,0.000000
13095471.000000,-2.364212,-1.662215,1.090478,-1.399501,1.750278,1.164519,-0.567673,0.692904,0.007296,0.951274,-0.521117,-0.500158,1.213024,-0.178446,-11.974444,26.625713,-8.384903,-5.427675,-0.067355,0.785628,-0.175919,0.000000,0.000000,0.000000,0.000000,0.000000,0.000000
13095472.000000,-2.363513,-1.662215,1.091476,-1.400021,1.749785,1.165709,-0.567849,0.697792,0.006446,0.964013,-0.520122,-0.497089,1.206883,-0.178290,-12.347369,26.720928,-8.484085,-5.574464,-0.079257,0.901900,-0.122819,0.000000,0.000000,0.000000,0.000000,0.000000,0.000000
13095473.000000,-2.362813,-1.662222,1.092466,-1.400533,1.749300,1.166904,-0.568011,0.697096,0.002952,0.974406,-0.513141,-0.484874,1.197205,-0.172575,-12.545733,26.943096,-8.507889,-5.721254,-0.103060,1.031905,-0.202470,0.000000,0.000000,0.000000,0.000000,0.000000,0.000000
13095474.000000,-2.362122,-1.662223,1.093467,-1.401032,1.748813,1.168082,-0.568183,0.698718,0.002920,0.980775,-0.512975,-0.485927,1.196654,-0.173239,-12.815509,27.066082,-8.361099,-5.947389,-0.114962,1.129867,-0.175919,0.000000,0.000000,0.000000,0.000000,0.000000,0.000000
13095475.000000,-2.361424,-1.662224,1.094473,-1.401540,1.748335,1.169263,-0.568359,0.694222,0.001669,0.985594,-0.511679,-0.481209,1.180054,-0.175579,-13.065448,27.113689,-8.166702,-6.018800,-0.126864,1.227828,-0.103593,0.000000,0.000000,0.000000,0.000000,0.000000,0.000000
13095476.000000,-2.360723,-1.662229,1.095486,-1.402034,1.747879,1.170461,-0.568518,0.698062,-0.000024,0.993407,-0.507326,-0.486690,1.180305,-0.165710,-13.335223,27.189068,-8.115128,-6.141786,-0.222994,1.188461,-0.188737,0.000000,0.000000,0.000000,0.000000,0.000000,0.000000
13095477.000000,-2.360039,-1.662233,1.096504,-1.402537,1.747398,1.171652,-0.568685,0.685982,-0.001216,0.999178,-0.506116,-0.479562,1.184874,-0.166765,-13.585162,27.260479,-7.773941,-6.193361,-0.199191,0.980636,-0.169511,0.000000,0.000000,0.000000,0.000000,0.000000,0.000000
13095478.000000,-2.359347,-1.662241,1.097542,-1.403035,1.746925,1.172856,-0.568847,0.682644,-0.002221,1.001772,-0.500502,-0.475194,1.184635,-0.162399,-13.783526,27.335857,-7.504166,-6.268739,-0.138766,0.811263,-0.182328,0.000000,0.000000,0.000000,0.000000,0.000000,0.000000
13095479.000000,-2.358656,-1.662249,1.098566,-1.403532,1.746461,1.174029,-0.569008,0.697802,-0.002887,1.007204,-0.497726,-0.473715,1.181659,-0.159213,-14.029498,27.407269,-7.111404,-6.316347,-0.150668,0.765487,-0.196061,0.000000,0.000000,0.000000,0.000000,0.000000,0.000000
13095480.000000,-2.357986,-1.662253,1.099633,-1.404025,1.745992,1.175210,-0.569182,0.691655,-0.002283,1.023843,-0.498272,-0.468839,1.180619,-0.162441,-14.128680,27.431072,-7.059830,-6.490907,-0.109469,0.804855,-0.130143,0.000000,0.000000,0.000000,0.000000,0.000000,0.000000
13095481.000000,-2.357330,-1.662260,1.100677,-1.404507,1.745537,1.176408,-0.569339,0.680699,-0.003137,1.027785,-0.487748,-0.463417,1.183096,-0.161816,-13.954120,27.506451,-6.813858,-6.760683,-0.145175,0.771896,-0.188737,0.000000,0.000000,0.000000,0.000000,0.000000,0.000000
13095482.000000,-2.356677,-1.662269,1.101754,-1.404981,1.745092,1.177605,-0.569508,0.666284,-0.007233,1.038572,-0.478679,-0.457528,1.194545,-0.160963,-13.882709,27.601665,-6.694839,-7.006654,-0.222994,0.597030,-0.142960,0.000000,0.000000,0.000000,0.000000,0.000000,0.000000
13095483.000000,-2.356022,-1.662268,1.102863,-1.405454,1.744640,1.178799,-0.569672,0.658978,-0.004434,1.058893,-0.473954,-0.454938,1.194222,-0.165541,-13.759723,27.577862,-6.813858,-7.205019,-0.240389,0.603439,-0.103593,0.000000,0.000000,0.000000,0.000000,0.000000,0.000000
13095484.000000,-2.355365,-1.662270,1.103956,-1.405936,1.744207,1.179976,-0.569831,0.656513,-0.003639,1.068688,-0.480715,-0.451107,1.201778,-0.159331,-13.708148,27.601665,-6.841629,-7.355775,-0.330111,0.609847,-0.163102,0.000000,0.000000,0.000000,0.000000,0.000000,0.000000
13095485.000000,-2.354708,-1.662265,1.105077,-1.406414,1.743757,1.181179,-0.569987,0.665975,-0.000851,1.074183,-0.484342,-0.447585,1.203520,-0.156914,-13.882709,27.530254,-6.913040,-7.355775,-0.306307,0.597030,-0.175919,0.000000,0.000000,0.000000,0.000000,0.000000,0.000000
13095486.000000,-2.354047,-1.662265,1.106183,-1.406897,1.743305,1.182381,-0.570144,0.664208,-0.000081,1.088563,-0.479350,-0.443666,1.209848,-0.156473,-14.053302,27.506451,-6.889236,-7.355775,-0.204684,0.576888,-0.149369,0.000000,0.000000,0.000000,0.000000,0.000000,0.000000
13095487.000000,-2.353395,-1.662263,1.107316,-1.407369,1.742876,1.183575,-0.570301,0.662726,0.001656,1.099389,-0.482276,-0.444610,1.211433,-0.159969,-14.251666,27.431072,-6.889236,-7.379579,-0.246798,0.532027,-0.149369,0.000000,0.000000,0.000000,0.000000,0.000000,0.000000
13095488.000000,-2.352744,-1.662252,1.108463,-1.407837,1.742429,1.184765,-0.570450,0.660278,0.005054,1.104161,-0.472598,-0.447154,1.204363,-0.157688,-14.303241,27.260479,-6.790054,-7.454957,-0.204684,0.603439,-0.175919,0.000000,0.000000,0.000000,0.000000,0.000000,0.000000
13095489.000000,-2.352094,-1.662249,1.109592,-1.408293,1.742002,1.185970,-0.570605,0.657907,0.005010,1.112910,-0.475754,-0.442089,1.222364,-0.155716,-14.327044,27.189068,-6.595657,-7.677125,-0.246798,0.694076,-0.182328,0.000000,0.000000,0.000000,0.000000,0.000000,0.000000
13095490.000000,-2.351451,-1.662240,1.110735,-1.408756,1.741566,1.187152,-0.570759,0.656484,0.006751,1.114311,-0.470670,-0.441991,1.212341,-0.150892,-14.426227,27.042278,-6.302078,-7.776308,-0.318209,0.746261,-0.155778,0.000000,0.000000,0.000000,0.000000,0.000000,0.000000
13095491.000000,-2.350800,-1.662226,1.111894,-1.409219,1.741129,1.188345,-0.570906,0.650213,0.009124,1.149391,-0.467136,-0.438473,1.199020,-0.150241,-14.549212,26.843914,-6.274307,-7.875490,-0.365817,0.817672,-0.175919,0.000000,0.000000,0.000000,0.000000,0.000000,0.000000
13095492.000000,-2.350165,-1.662214,1.113082,-1.409674,1.740714,1.189523,-0.571059,0.648542,0.009504,1.158112,-0.465998,-0.425602,1.187888,-0.150855,-14.624591,26.697124,-6.302078,-7.899293,-0.431735,0.811263,-0.169511,0.000000,0.000000,0.000000,0.000000,0.000000,0.000000
13095493.000000,-2.349517,-1.662201,1.114305,-1.410134,1.740288,1.190723,-0.571207,0.648600,0.010317,1.179590,-0.458508,-0.424124,1.180885,-0.151451,-14.747577,26.526531,-6.595657,-7.923097,-0.509554,0.733443,-0.155778,0.000000,0.000000,0.000000,0.000000,0.000000,0.000000
13095494.000000,-2.348877,-1.662192,1.115528,-1.410591,1.739861,1.191915,-0.571352,0.643691,0.016094,1.196139,-0.457707,-0.430469,1.174176,-0.151434,-14.771380,26.403545,-7.012222,-7.998476,-0.479342,0.713302,-0.149369,0.000000,0.000000,0.000000,0.000000,0.000000,0.000000
13095495.000000,-2.348257,-1.662178,1.116782,-1.411031,1.739442,1.193091,-0.571497,0.634848,0.015243,1.206429,-0.450716,-0.426859,1.166804,-0.152433,-14.723773,26.232952,-7.504166,-8.121462,-0.479342,0.739852,-0.142960,0.000000,0.000000,0.000000,0.000000,0.000000,0.000000
13095496.000000,-2.347630,-1.662177,1.118044,-1.411477,1.739009,1.194264,-0.571641,0.625583,0.010555,1.219877,-0.446258,-0.430385,1.151802,-0.150791,-14.624591,26.232952,-7.845352,-8.292055,-0.426241,0.857040,-0.175919,0.000000,0.000000,0.000000,0.000000,0.000000,0.000000
13095497.000000,-2.347003,-1.662177,1.119296,-1.411915,1.738587,1.195421,-0.571791,0.625785,0.007331,1.238683,-0.445747,-0.430094,1.146552,-0.151763,-14.600787,26.232952,-8.091324,-8.419008,-0.324618,0.987045,-0.155778,0.000000,0.000000,0.000000,0.000000,0.000000,0.000000
13095498.000000,-2.346389,-1.662178,1.120569,-1.412362,1.738177,1.196593,-0.571933,0.624194,0.003994,1.241724,-0.445388,-0.421691,1.145385,-0.153267,-14.501605,26.280560,-8.337296,-8.518190,-0.282504,1.064864,-0.155778,0.000000,0.000000,0.000000,0.000000,0.000000,0.000000
13095499.000000,-2.345757,-1.662188,1.121814,-1.412809,1.737766,1.197785,-0.572076,0.623201,-0.000013,1.240887,-0.448502,-0.414295,1.156102,-0.151220,-14.549212,26.673321,-8.583267,-8.518190,-0.300814,1.058456,-0.188737,0.000000,0.000000,0.000000,0.000000,0.000000,0.000000
13095500.000000,-2.345144,-1.662203,1.123059,-1.413266,1.737368,1.198960,-0.572223,0.611723,-0.004518,1.228785,-0.451716,-0.408998,1.161353,-0.153238,-14.350848,27.431072,-8.952225,-8.292055,-0.318209,1.025497,-0.136552,0.000000,0.000000,0.000000,0.000000,0.000000,0.000000
13095501.000000,-2.344528,-1.662224,1.124293,-1.413725,1.736982,1.200149,-0.572363,0.609767,-0.008363,1.228353,-0.458020,-0.398283,1.165673,-0.146717,-13.954120,28.510174,-9.515579,-8.121462,-0.372225,1.052047,-0.169511,0.000000,0.000000,0.000000,0.000000,0.000000,0.000000
13095502.000000,-2.343906,-1.662245,1.125497,-1.414177,1.736584,1.201332,-0.572505,0.615235,-0.014474,1.216895,-0.465613,-0.398461,1.168202,-0.148394,-13.533587,29.807476,-10.277298,-7.970705,-0.353915,1.006271,-0.149369,0.000000,0.000000,0.000000,0.000000,0.000000,0.000000
13095503.000000,-2.343298,-1.662258,1.126704,-1.414635,1.736189,1.202534,-0.572636,0.612200,-0.017077,1.205406,-0.468730,-0.395306,1.176735,-0.143783,-13.065448,31.080975,-11.086624,-7.823915,-0.287997,1.025497,-0.169511,0.000000,0.000000,0.000000,0.000000,0.000000,0.000000
13095504.000000,-2.342697,-1.662268,1.127905,-1.415090,1.735806,1.203730,-0.572773,0.598068,-0.019274,1.209247,-0.464065,-0.391807,1.181231,-0.145701,-12.422748,32.279095,-12.042740,-7.776308,-0.252291,1.117049,-0.169511,0.000000,0.000000,0.000000,0.000000,0.000000,0.000000
13095505.000000,-2.342099,-1.662270,1.129133,-1.415530,1.735419,1.204909,-0.572918,0.592078,-0.017117,1.214530,-0.460603,-0.395648,1.182730,-0.142361,-11.950641,33.330425,-13.173416,-7.923097,-0.174471,1.259872,-0.142960,0.000000,0.000000,0.000000,0.000000,0.000000,0.000000
13095506.000000,-2.341505,-1.662270,1.130370,-1.415975,1.735026,1.206102,-0.573048,0.590813,-0.014881,1.220930,-0.454328,-0.391317,1.177659,-0.137845,-11.407123,34.211163,-14.177139,-8.069887,-0.133273,1.383468,-0.196061,0.000000,0.000000,0.000000,0.000000,0.000000,0.000000
13095507.000000,-2.340912,-1.662270,1.131593,-1.416423,1.734631,1.207307,-0.573187,0.586075,-0.011200,1.223589,-0.459580,-0.388076,1.204796,-0.137898,-10.958819,34.996685,-15.061844,-8.121462,0.015958,1.435653,-0.163102,0.000000,0.000000,0.000000,0.000000,0.000000,0.000000
13095508.000000,-2.340321,-1.662265,1.132843,-1.416880,1.734237,1.208473,-0.573319,0.587049,-0.007401,1.227554,-0.454899,-0.387500,1.196090,-0.136728,-10.689044,35.583843,-16.045731,-8.097658,0.100187,1.597701,-0.155778,0.000000,0.000000,0.000000,0.000000,0.000000,0.000000
13095509.000000,-2.339733,-1.662260,1.134094,-1.417335,1.733851,1.209647,-0.573447,0.580814,-0.006447,1.251487,-0.451005,-0.382075,1.182443,-0.129488,-10.339923,36.095623,-16.779678,-8.121462,0.058073,1.767074,-0.202470,0.000000,0.000000,0.000000,0.000000,0.000000,0.000000
13095510.000000,-2.339154,-1.662265,1.135337,-1.417784,1.733469,1.210821,-0.573587,0.583820,-0.007620,1.247438,-0.452751,-0.381149,1.183861,-0.127955,-10.145526,36.658978,-17.442215,-8.046083,0.081876,1.682845,-0.149369,0.000000,0.000000,0.000000,0.000000,0.000000,0.000000
13095511.000000,-2.338569,-1.662267,1.136582,-1.418231,1.733089,1.212011,-0.573711,0.583269,-0.005237,1.240532,-0.447324,-0.383119,1.188090,-0.124563,-9.970965,37.075542,-17.787369,-8.097658,0.064481,1.572067,-0.182328,0.000000,0.000000,0.000000,0.000000,0.000000,0.000000
13095512.000000,-2.337999,-1.662277,1.137825,-1.418666,1.732713,1.213192,-0.573840,0.574194,-0.004377,1.243433,-0.441760,-0.386105,1.184932,-0.127337,-9.598041,37.515911,-18.180130,-8.292055,-0.001437,1.526290,-0.155778,0.000000,0.000000,0.000000,0.000000,0.000000,0.000000
13095513.000000,-2.337442,-1.662295,1.139102,-1.419092,1.732342,1.214337,-0.573966,0.569357,-0.008650,1.244945,-0.437622,-0.378212,1.176869,-0.131908,-9.276690,38.007854,-18.719681,-8.490419,-0.031649,1.624252,-0.169511,0.000000,0.000000,0.000000,0.000000,0.000000,0.000000
13095514.000000,-2.336888,-1.662323,1.140374,-1.419510,1.731978,1.215493,-0.574097,0.568534,-0.015977,1.244524,-0.430588,-0.375401,1.165663,-0.132464,-8.856158,38.543438,-18.989456,-8.839540,-0.091158,1.702071,-0.155778,0.000000,0.000000,0.000000,0.000000,0.000000,0.000000
13095515.000000,-2.336343,-1.662363,1.141649,-1.419913,1.731604,1.216640,-0.574229,0.555985,-0.023853,1.252513,-0.419443,-0.377470,1.166194,-0.127772,-8.411822,39.182171,-19.481400,-9.208498,-0.049044,1.721298,-0.155778,0.000000,0.000000,0.000000,0.000000,0.000000,0.000000
13095516.000000,-2.335810,-1.662405,1.142951,-1.420326,1.731243,1.217793,-0.574357,0.550308,-0.028333,1.264227,-0.414849,-0.372327,1.159847,-0.129071,-7.991290,39.769329,-20.092361,-9.506044,-0.037142,1.806442,-0.149369,0.000000,0.000000,0.000000,0.000000,0.000000,0.000000
13095517.000000,-2.335272,-1.662448,1.144248,-1.420732,1.730890,1.218956,-0.574487,0.546035,-0.031645,1.271990,-0.406446,-0.362864,1.163957,-0.129962,-7.618365,40.356487,-20.877884,-9.803591,-0.067355,1.786300,-0.142960,0.000000,0.000000,0.000000,0.000000,0.000000,0.000000
13095518.000000,-2.334750,-1.662491,1.145558,-1.421142,1.730530,1.220112,-0.574614,0.535414,-0.035571,1.277969,-0.402916,-0.366804,1.156463,-0.128735,-7.273211,40.872234,-21.469009,-9.898806,-0.055453,1.682845,-0.188737,0.000000,0.000000,0.000000,0.000000,0.000000,0.000000
13095519.000000,-2.334228,-1.662540,1.146856,-1.421547,1.730163,1.221269,-0.574749,0.529518,-0.035954,1.277539,-0.397148,-0.361096,1.150241,-0.132075,-6.900286,41.407818,-21.837967,-10.025759,-0.007845,1.637069,-0.122819,0.000000,0.000000,0.000000,0.000000,0.000000,0.000000
13095520.000000,-2.333699,-1.662588,1.148141,-1.421965,1.729802,1.222409,-0.574869,0.530517,-0.038863,1.281763,-0.407363,-0.358097,1.164359,-0.125301,-6.602740,41.923565,-22.230728,-9.950380,0.052579,1.702071,-0.169511,0.000000,0.000000,0.000000,0.000000,0.000000,0.000000
13095521.000000,-2.333192,-1.662631,1.149415,-1.422361,1.729446,1.223541,-0.574990,0.525657,-0.038340,1.268880,-0.403126,-0.357205,1.146165,-0.123525,-6.305193,42.316326,-22.202957,-9.974184,0.034269,1.949264,-0.175919,0.000000,0.000000,0.000000,0.000000,0.000000,0.000000
13095522.000000,-2.332683,-1.662668,1.150690,-1.422771,1.729079,1.224698,-0.575119,0.519783,-0.037046,1.268533,-0.404982,-0.357133,1.145104,-0.128977,-6.011614,42.657513,-22.254532,-9.875002,0.022367,2.033492,-0.122819,0.000000,0.000000,0.000000,0.000000,0.000000,0.000000
13095526.000000,-2.330717,-1.662798,1.155855,-1.424406,1.727680,1.229310,-0.575605,0.482088,-0.033360,1.272558,-0.417024,-0.362714,1.142646,-0.119167,-4.623065,43.391460,-22.794083,-9.184694,-0.025240,1.968490,-0.136552,0.000000,0.000000,0.000000,0.000000,0.000000,0.000000
13095527.000000,-2.330234,-1.662823,1.157172,-1.424834,1.727314,1.230468,-0.575728,0.474022,-0.029625,1.308828,-0.420215,-0.361741,1.144646,-0.123544,-4.301714,43.367657,-23.186844,-8.839540,0.117582,1.930038,-0.130143,0.000000,0.000000,0.000000,0.000000,0.000000,0.000000
13095528.000000,-2.329758,-1.662844,1.158460,-1.425240,1.726973,1.231609,-0.575845,0.475094,-0.026056,1.300730,-0.421345,-0.357197,1.151582,-0.118518,-3.980364,43.292278,-23.480423,-8.764162,0.154203,1.909896,-0.196061,0.000000,0.000000,0.000000,0.000000,0.000000,0.000000
13095529.000000,-2.329293,-1.662866,1.159776,-1.425655,1.726624,1.232762,-0.575969,0.469839,-0.023732,1.301757,-0.417890,-0.351491,1.144719,-0.119858,-3.659014,43.220867,-23.972366,-8.641176,0.154203,1.942855,-0.136552,0.000000,0.000000,0.000000,0.000000,0.000000,0.000000
13095530.000000,-2.328826,-1.662890,1.161061,-1.426075,1.726287,1.233910,-0.576083,0.469042,-0.022169,1.299126,-0.417904,-0.355960,1.143365,-0.112069,-3.186907,43.145489,-24.242142,-8.442812,0.154203,2.039901,-0.182328,0.000000,0.000000,0.000000,0.000000,0.000000,0.000000
13095531.000000,-2.328369,-1.662915,1.162354,-1.426494,1.725949,1.235045,-0.576202,0.464674,-0.021436,1.288490,-0.418666,-0.348897,1.145260,-0.113464,-2.690997,43.074078,-24.289749,-8.196840,0.207303,2.060043,-0.163102,0.000000,0.000000,0.000000,0.000000,0.000000,0.000000
13095532.000000,-2.327897,-1.662945,1.163649,-1.426929,1.725606,1.236187,-0.576317,0.466126,-0.021923,1.281968,-0.424656,-0.349926,1.142621,-0.113443,-2.270464,43.050274,-24.265945,-7.823915,0.189908,2.118636,-0.163102,0.000000,0.000000,0.000000,0.000000,0.000000,0.000000
13095533.000000,-2.327428,-1.662965,1.164919,-1.427365,1.725265,1.237324,-0.576432,0.465574,-0.019519,1.276144,-0.427674,-0.347380,1.141536,-0.118234,-1.873736,42.903484,-24.218338,-7.403383,0.189908,2.098495,-0.169511,0.000000,0.000000,0.000000,0.000000,0.000000,0.000000
13095534.000000,-2.326970,-1.662984,1.166230,-1.427813,1.724926,1.238482,-0.576546,0.457977,-0.019484,1.283432,-0.431763,-0.340225,1.144580,-0.116519,-1.603961,42.828106,-24.511917,-6.959047,0.195402,1.981307,-0.182328,0.000000,0.000000,0.000000,0.000000,0.000000,0.000000
13095535.000000,-2.326515,-1.663008,1.167499,-1.428258,1.724591,1.239655,-0.576659,0.453459,-0.020706,1.275704,-0.433462,-0.340891,1.142407,-0.115826,-1.306414,42.804302,-24.535721,-6.613893,0.219205,1.819259,-0.196061,0.000000,0.000000,0.000000,0.000000,0.000000,0.000000
13095536.000000,-2.326080,-1.663034,1.168810,-1.428705,1.724249,1.240800,-0.576781,0.442745,-0.023137,1.285433,-0.437670,-0.342985,1.137048,-0.113472,-0.834307,42.851910,-24.904678,-6.340150,0.285123,1.767074,-0.136552,0.000000,0.000000,0.000000,0.000000,0.000000,0.000000
13095537.000000,-2.325636,-1.663055,1.170129,-1.429155,1.723908,1.241940,-0.576884,0.439647,-0.023145,1.288512,-0.436837,-0.338336,1.122687,-0.111338,-0.512957,42.828106,-25.396622,-6.141786,0.332731,1.916305,-0.188737,0.000000,0.000000,0.000000,0.000000,0.000000,0.000000
13095538.000000,-2.325209,-1.663083,1.171439,-1.429602,1.723584,1.243057,-0.576999,0.437220,-0.022415,1.298146,-0.449126,-0.332899,1.142426,-0.113019,-0.068621,42.903484,-26.059158,-5.971193,0.315336,2.144271,-0.163102,0.000000,0.000000,0.000000,0.000000,0.000000,0.000000
13095539.000000,-2.324780,-1.663105,1.172738,-1.430065,1.723253,1.244193,-0.577111,0.435391,-0.020461,1.290585,-0.451986,-0.336032,1.133351,-0.110364,0.252729,42.927288,-26.305130,-5.697450,0.362943,2.339278,-0.130143,0.000000,0.000000,0.000000,0.000000,0.000000,0.000000
13095540.000000,-2.324351,-1.663130,1.174013,-1.430525,1.722914,1.245345,-0.577213,0.434115,-0.020215,1.285977,-0.448076,-0.332737,1.133124,-0.109056,0.550275,42.998699,-26.424149,-5.526857,0.393156,2.372237,-0.196061,0.000000,0.000000,0.000000,0.000000,0.000000,0.000000
13095541.000000,-2.323925,-1.663151,1.175312,-1.430987,1.722584,1.246485,-0.577328,0.432359,-0.021415,1.281437,-0.452898,-0.329681,1.134559,-0.107055,0.748639,42.998699,-26.622513,-5.177736,0.398649,2.345687,-0.155778,0.000000,0.000000,0.000000,0.000000,0.000000,0.000000
13095542.000000,-2.323498,-1.663170,1.176601,-1.431455,1.722255,1.247629,-0.577429,0.427711,-0.021032,1.276089,-0.457923,-0.322540,1.132899,-0.102766,0.947004,42.951092,-26.622513,-4.856386,0.416959,2.326461,-0.175919,0.000000,0.000000,0.000000,0.000000,0.000000,0.000000
13095543.000000,-2.323069,-1.663194,1.177861,-1.431927,1.721932,1.248780,-0.577531,0.424244,-0.019385,1.276802,-0.472782,-0.329380,1.131033,-0.104765,1.121564,42.974895,-26.451920,-4.388246,0.422452,2.242233,-0.202470,0.000000,0.000000,0.000000,0.000000,0.000000,0.000000
13095544.000000,-2.322648,-1.663221,1.179121,-1.432407,1.721592,1.249925,-0.577635,0.413694,-0.019839,1.261627,-0.474607,-0.330544,1.142176,-0.105821,1.343732,43.074078,-26.130569,-3.967714,0.524076,2.066451,-0.215287,0.000000,0.000000,0.000000,0.000000,0.000000,0.000000
13095545.000000,-2.322231,-1.663241,1.180408,-1.432891,1.721262,1.251079,-0.577745,0.409957,-0.020866,1.285719,-0.477093,-0.329530,1.141807,-0.109503,1.542096,43.074078,-26.182144,-3.523378,0.584501,1.955673,-0.169511,0.000000,0.000000,0.000000,0.000000,0.000000,0.000000
13095546.000000,-2.321808,-1.663261,1.181655,-1.433361,1.720956,1.252208,-0.577851,0.414790,-0.022407,1.273401,-0.480256,-0.324571,1.142862,-0.109445,1.665082,43.097881,-25.983780,-3.225832,0.524076,1.955673,-0.196061,0.000000,0.000000,0.000000,0.000000,0.000000,0.000000
13095547.000000,-2.321399,-1.663284,1.182931,-1.433823,1.720629,1.253350,-0.577954,0.410783,-0.024102,1.269761,-0.475030,-0.323794,1.138205,-0.105644,1.887250,43.145489,-26.031387,-3.178224,0.542386,1.962081,-0.202470,0.000000,0.000000,0.000000,0.000000,0.000000,0.000000
13095548.000000,-2.320985,-1.663308,1.184177,-1.434284,1.720302,1.254494,-0.578060,0.411124,-0.025874,1.265281,-0.464197,-0.319921,1.141030,-0.104782,2.085615,43.220867,-25.936172,-3.126650,0.584501,1.968490,-0.163102,0.000000,0.000000,0.000000,0.000000,0.000000,0.000000
13095549.000000,-2.320585,-1.663331,1.185439,-1.434728,1.719992,1.255625,-0.578156,0.400907,-0.025857,1.255729,-0.454823,-0.314749,1.133759,-0.099409,2.260175,43.244671,-25.936172,-3.225832,0.571683,1.981307,-0.235429,0.000000,0.000000,0.000000,0.000000,0.000000,0.000000
13095550.000000,-2.320168,-1.663351,1.186698,-1.435181,1.719679,1.256758,-0.578270,0.404625,-0.025237,1.248617,-0.452262,-0.311138,1.121293,-0.105968,2.283979,43.244671,-25.860794,-3.126650,0.584501,2.118636,-0.155778,0.000000,0.000000,0.000000,0.000000,0.000000,0.000000
13095551.000000,-2.319744,-1.663366,1.187928,-1.435621,1.719368,1.257895,-0.578375,0.407949,-0.020152,1.242187,-0.447622,-0.309094,1.125791,-0.107482,2.283979,43.173260,-25.761612,-3.178224,0.601896,2.085677,-0.155778,0.000000,0.000000,0.000000,0.000000,0.000000,0.000000
13095552.000000,-2.319331,-1.663378,1.189177,-1.436069,1.719046,1.259068,-0.578468,0.410322,-0.015993,1.240568,-0.447000,-0.310695,1.136563,-0.101249,2.283979,43.074078,-25.789383,-3.055238,0.709928,1.865035,-0.235429,0.000000,0.000000,0.000000,0.000000,0.000000,0.000000
13095553.000000,-2.318913,-1.663383,1.190375,-1.436513,1.718734,1.260244,-0.578582,0.410102,-0.011277,1.226627,-0.442884,-0.304389,1.145271,-0.102951,2.184797,42.903484,-25.396622,-3.003664,0.739225,1.682845,-0.149369,0.000000,0.000000,0.000000,0.000000,0.000000,0.000000
13095554.000000,-2.318500,-1.663389,1.191615,-1.436933,1.718449,1.261397,-0.578679,0.407632,-0.008650,1.227657,-0.435130,-0.300189,1.150002,-0.099504,2.133222,42.756695,-25.345047,-3.079042,0.661405,1.591293,-0.196061,0.000000,0.000000,0.000000,0.000000,0.000000,0.000000
13095555.000000,-2.318080,-1.663391,1.192860,-1.437362,1.718153,1.262555,-0.578778,0.407992,-0.006292,1.226707,-0.427264,-0.297466,1.145106,-0.102763,2.061811,42.582134,-25.368851,-3.154421,0.596403,1.643478,-0.215287,0.000000,0.000000,0.000000,0.000000,0.000000,0.000000
13095556.000000,-2.317670,-1.663399,1.194079,-1.437775,1.717859,1.263691,-0.578885,0.408007,-0.006846,1.227449,-0.431525,-0.292521,1.162482,-0.107234,2.109418,42.510723,-25.321243,-3.249635,0.554288,1.786300,-0.163102,0.000000,0.000000,0.000000,0.000000,0.000000,0.000000
13095557.000000,-2.317267,-1.663405,1.195319,-1.438191,1.717570,1.264839,-0.578988,0.402582,-0.007034,1.223348,-0.425751,-0.288291,1.157892,-0.109757,2.109418,42.435345,-25.468033,-3.325014,0.500272,1.955673,-0.136552,0.000000,0.000000,0.000000,0.000000,0.000000,0.000000
13095558.000000,-2.316859,-1.663406,1.196565,-1.438593,1.717291,1.265990,-0.579086,0.404418,-0.003062,1.233488,-0.419240,-0.284278,1.150939,-0.103620,2.109418,42.316326,-25.936172,-3.475771,0.428861,2.112228,-0.196061,0.000000,0.000000,0.000000,0.000000,0.000000,0.000000
13095559.000000,-2.316452,-1.663407,1.197817,-1.438992,1.717009,1.267130,-0.579185,0.414396,-0.000032,1.231624,-0.413728,-0.283645,1.144807,-0.105635,2.085615,42.193340,-26.328934,-3.570986,0.410551,2.177230,-0.215287,0.000000,0.000000,0.000000,0.000000,0.000000,0.000000
13095560.000000,-2.316041,-1.663412,1.199051,-1.439395,1.716723,1.268283,-0.579293,0.411988,0.001092,1.231262,-0.408860,-0.280784,1.144795,-0.105226,2.034040,42.117962,-26.400345,-3.523378,0.470060,2.169906,-0.155778,0.000000,0.000000,0.000000,0.000000,0.000000,0.000000
13095561.000000,-2.315627,-1.663418,1.200271,-1.439797,1.716441,1.269435,-0.579387,0.414404,-0.001700,1.224253,-0.414787,-0.284131,1.152427,-0.101407,1.934858,42.070354,-26.574905,-3.376589,0.584501,2.163497,-0.182328,0.000000,0.000000,0.000000,0.000000,0.000000,0.000000
13095562.000000,-2.315229,-1.663424,1.201488,-1.440194,1.716169,1.270561,-0.579488,0.412982,-0.003656,1.213215,-0.408203,-0.279793,1.146453,-0.099934,1.986432,42.022747,-26.451920,-3.249635,0.613798,2.183639,-0.175919,0.000000,0.000000,0.000000,0.000000,0.000000,0.000000
13095563.000000,-2.314815,-1.663425,1.202716,-1.440583,1.715901,1.271703,-0.579587,0.411061,-0.003324,1.233951,-0.402220,-0.279620,1.140660,-0.098725,1.911054,41.899761,-26.376541,-3.277406,0.608304,2.196456,-0.188737,0.000000,0.000000,0.000000,0.000000,0.000000,0.000000
13095564.000000,-2.314409,-1.663431,1.203912,-1.440971,1.715633,1.272824,-0.579685,0.408111,-0.004852,1.221088,-0.402462,-0.277794,1.128656,-0.097773,1.911054,41.848186,-26.130569,-3.225832,0.547880,2.209274,-0.182328,0.000000,0.000000,0.000000,0.000000,0.000000,0.000000
13095565.000000,-2.314017,-1.663448,1.205114,-1.441347,1.715365,1.273973,-0.579779,0.401824,-0.008902,1.207799,-0.394322,-0.272061,1.123943,-0.098362,1.962629,41.923565,-25.761612,-3.277406,0.494779,2.079269,-0.175919,0.000000,0.000000,0.000000,0.000000,0.000000,0.000000
13095566.000000,-2.313628,-1.663449,1.206317,-1.441723,1.715095,1.275122,-0.579868,0.396426,-0.007681,1.206565,-0.384528,-0.269243,1.118040,-0.096562,2.160993,41.824383,-25.690201,-3.325014,0.464567,2.020675,-0.196061,0.000000,0.000000,0.000000,0.000000,0.000000,0.000000
13095567.000000,-2.313242,-1.663456,1.207521,-1.442098,1.714837,1.276255,-0.579959,0.391320,-0.006053,1.198042,-0.382352,-0.265935,1.118374,-0.092280,2.307783,41.824383,-25.491837,-3.348818,0.410551,1.981307,-0.175919,0.000000,0.000000,0.000000,0.000000,0.000000,0.000000
13095568.000000,-2.312845,-1.663463,1.208739,-1.442478,1.714570,1.277395,-0.580050,0.390295,-0.007347,1.195701,-0.376784,-0.265602,1.118342,-0.092337,2.331586,41.800579,-25.491837,-3.325014,0.416959,2.007858,-0.188737,0.000000,0.000000,0.000000,0.000000,0.000000,0.000000
13095569.000000,-2.312463,-1.663465,1.209934,-1.442846,1.714298,1.278534,-0.580143,0.389234,-0.004016,1.195230,-0.372860,-0.267502,1.125718,-0.094378,2.506147,41.729168,-25.444229,-3.376589,0.476469,1.890670,-0.155778,0.000000,0.000000,0.000000,0.000000,0.000000,0.000000
13095570.000000,-2.312086,-1.663471,1.211140,-1.443212,1.714043,1.279692,-0.580228,0.386829,-0.005111,1.184784,-0.367339,-0.265463,1.133787,-0.092833,2.629133,41.677593,-25.420425,-3.475771,0.452665,1.714889,-0.196061,0.000000,0.000000,0.000000,0.000000,0.000000,0.000000
13095571.000000,-2.311700,-1.663470,1.212328,-1.443580,1.713784,1.280836,-0.580319,0.384113,-0.000671,1.187780,-0.365896,-0.260558,1.132956,-0.088885,2.752119,41.530804,-25.444229,-3.523378,0.458158,1.708480,-0.196061,0.000000,0.000000,0.000000,0.000000,0.000000,0.000000
13095572.000000,-2.311324,-1.663472,1.213511,-1.443940,1.713538,1.281955,-0.580412,0.380587,0.000143,1.175837,-0.367448,-0.260253,1.132364,-0.091761,2.851301,41.483196,-25.249832,-3.523378,0.434354,1.832076,-0.155778,0.000000,0.000000,0.000000,0.000000,0.000000,0.000000
13095573.000000,-2.310950,-1.663471,1.214699,-1.444300,1.713269,1.283090,-0.580495,0.377484,0.002023,1.173223,-0.367335,-0.263751,1.127602,-0.091354,2.978254,41.384014,-25.027664,-3.475771,0.518583,1.916305,-0.182328,0.000000,0.000000,0.000000,0.000000,0.000000,0.000000
13095574.000000,-2.310565,-1.663469,1.215851,-1.444659,1.713014,1.284231,-0.580581,0.381729,0.002168,1.165815,-0.371884,-0.263586,1.150768,-0.091257,2.926679,41.336407,-24.611099,-3.400392,0.518583,2.007858,-0.188737,0.000000,0.000000,0.000000,0.000000,0.000000,0.000000
13095575.000000,-2.310185,-1.663454,1.217025,-1.445010,1.712762,1.285361,-0.580669,0.384785,0.006421,1.162059,-0.361880,-0.262468,1.146900,-0.093601,2.902875,41.114239,-24.341324,-3.348818,0.494779,1.995040,-0.175919,0.000000,0.000000,0.000000,0.000000,0.000000,0.000000
13095576.000000,-2.309798,-1.663443,1.218194,-1.445372,1.712514,1.286517,-0.580757,0.387020,0.008106,1.185369,-0.358358,-0.256742,1.150501,-0.095180,2.827497,40.943645,-24.289749,-3.249635,0.464567,1.909896,-0.155778,0.000000,0.000000,0.000000,0.000000,0.000000,0.000000
13095577.000000,-2.309427,-1.663423,1.219380,-1.445717,1.712277,1.287658,-0.580838,0.386812,0.011034,1.182118,-0.354057,-0.251811,1.141739,-0.088272,2.851301,40.697674,-24.289749,-3.225832,0.410551,1.754256,-0.208878,0.000000,0.000000,0.000000,0.000000,0.000000,0.000000
13095578.000000,-2.309056,-1.663415,1.220580,-1.446071,1.712025,1.288807,-0.580928,0.380703,0.008933,1.182616,-0.353866,-0.249803,1.135423,-0.087576,2.879072,40.626263,-24.464310,-3.102846,0.416959,1.656295,-0.142960,0.000000,0.000000,0.000000,0.000000,0.000000,0.000000
13095579.000000,-2.308676,-1.663405,1.221762,-1.446406,1.711783,1.289947,-0.581007,0.380517,0.008206,1.181635,-0.348240,-0.247237,1.127231,-0.088008,2.827497,40.527081,-24.706314,-3.178224,0.410551,1.689254,-0.169511,0.000000,0.000000,0.000000,0.000000,0.000000,0.000000
13095580.000000,-2.308309,-1.663397,1.222966,-1.446744,1.711537,1.291065,-0.581086,0.370342,0.007738,1.178297,-0.343375,-0.248453,1.123833,-0.084054,2.879072,40.427898,-25.099075,-3.202028,0.452665,1.786300,-0.196061,0.000000,0.000000,0.000000,0.000000,0.000000,0.000000
13095581.000000,-2.307937,-1.663390,1.224172,-1.447077,1.711303,1.292201,-0.581173,0.368288,0.007347,1.183184,-0.337709,-0.246630,1.116686,-0.083696,2.879072,40.332684,-25.420425,-3.376589,0.434354,1.851302,-0.149369,0.000000,0.000000,0.000000,0.000000,0.000000,0.000000
13095582.000000,-2.307564,-1.663385,1.225346,-1.447407,1.711073,1.293309,-0.581252,0.367887,0.006075,1.183309,-0.335321,-0.241808,1.112228,-0.080339,2.827497,40.281109,-25.491837,-3.499574,0.440763,1.949264,-0.196061,0.000000,0.000000,0.000000,0.000000,0.000000,0.000000
13095583.000000,-2.307200,-1.663384,1.226533,-1.447728,1.710829,1.294438,-0.581337,0.370440,0.004028,1.176663,-0.331016,-0.237922,1.111154,-0.084810,2.827497,40.281109,-25.519608,-3.598757,0.452665,1.995040,-0.175919,0.000000,0.000000,0.000000,0.000000,0.000000,0.000000
13095584.000000,-2.306822,-1.663380,1.227695,-1.448054,1.710592,1.295563,-0.581421,0.370441,0.003225,1.173801,-0.325893,-0.233659,1.108664,-0.081928,2.728315,40.257305,-25.368851,-3.622560,0.416959,2.085677,-0.188737,0.000000,0.000000,0.000000,0.000000,0.000000,0.000000
13095585.000000,-2.306449,-1.663383,1.228867,-1.448381,1.710363,1.296678,-0.581508,0.374384,0.000931,1.170013,-0.330820,-0.231534,1.110364,-0.085626,2.629133,40.308880,-25.174454,-3.448000,0.405057,2.098495,-0.175919,0.000000,0.000000,0.000000,0.000000,0.000000,0.000000
13095586.000000,-2.306074,-1.663384,1.230033,-1.448708,1.710135,1.297822,-0.581590,0.374571,0.002478,1.164573,-0.324662,-0.229941,1.116409,-0.087615,2.482343,40.356487,-24.805496,-3.325014,0.410551,1.916305,-0.182328,0.000000,0.000000,0.000000,0.000000,0.000000,0.000000
13095587.000000,-2.305695,-1.663377,1.231182,-1.449026,1.709911,1.298959,-0.581669,0.376464,0.003007,1.156895,-0.321048,-0.225376,1.127540,-0.083258,2.283979,40.308880,-24.535721,-3.225832,0.428861,1.695663,-0.215287,0.000000,0.000000,0.000000,0.000000,0.000000,0.000000
13095588.000000,-2.305326,-1.663372,1.232361,-1.449345,1.709686,1.300093,-0.581753,0.374972,0.005987,1.156544,-0.319854,-0.224705,1.131254,-0.082492,2.184797,40.281109,-24.488113,-3.154421,0.405057,1.611434,-0.188737,0.000000,0.000000,0.000000,0.000000,0.000000,0.000000
13095589.000000,-2.304953,-1.663371,1.233505,-1.449653,1.709457,1.301231,-0.581835,0.370175,0.004390,1.154657,-0.317205,-0.219204,1.130593,-0.080868,2.085615,40.281109,-24.242142,-3.202028,0.374845,1.617843,-0.188737,0.000000,0.000000,0.000000,0.000000,0.000000,0.000000
13095590.000000,-2.304589,-1.663369,1.234673,-1.449959,1.709227,1.302341,-0.581916,0.361009,0.003225,1.148383,-0.319098,-0.222764,1.123183,-0.085701,2.034040,40.281109,-24.166763,-3.178224,0.416959,1.689254,-0.163102,0.000000,0.000000,0.000000,0.000000,0.000000,0.000000
13095591.000000,-2.304222,-1.663373,1.235842,-1.450254,1.709005,1.303474,-0.581992,0.358050,0.000611,1.147578,-0.311522,-0.222362,1.115686,-0.081611,1.911054,40.356487,-24.019974,-3.424196,0.393156,1.779891,-0.202470,0.000000,0.000000,0.000000,0.000000,0.000000,0.000000
13095592.000000,-2.303856,-1.663366,1.237004,-1.450553,1.708789,1.304610,-0.582072,0.363540,0.002339,1.151849,-0.312340,-0.218733,1.128233,-0.076070,1.835676,40.281109,-24.071548,-3.475771,0.393156,1.890670,-0.182328,0.000000,0.000000,0.000000,0.000000,0.000000,0.000000
13095593.000000,-2.303480,-1.663358,1.238170,-1.450838,1.708580,1.305733,-0.582152,0.369294,0.003356,1.148515,-0.305587,-0.212917,1.127022,-0.076974,1.589704,40.209698,-24.119156,-3.670168,0.308927,1.955673,-0.155778,0.000000,0.000000,0.000000,0.000000,0.000000,0.000000
13095594.000000,-2.303108,-1.663346,1.239311,-1.451134,1.708358,1.306882,-0.582222,0.370326,0.005209,1.165355,-0.300588,-0.215932,1.126316,-0.070103,1.415143,40.086712,-23.972366,-3.721742,0.297025,1.877853,-0.215287,0.000000,0.000000,0.000000,0.000000,0.000000,0.000000
13095595.000000,-2.302727,-1.663336,1.240467,-1.451430,1.708130,1.307999,-0.582301,0.380429,0.005863,1.158518,-0.298956,-0.221896,1.122117,-0.073255,1.046186,39.987530,-23.896988,-3.697939,0.381254,1.897079,-0.169511,0.000000,0.000000,0.000000,0.000000,0.000000,0.000000
13095596.000000,-2.302348,-1.663318,1.241616,-1.451729,1.707910,1.309131,-0.582371,0.382624,0.007953,1.152424,-0.296908,-0.223978,1.122610,-0.072810,0.724836,39.816936,-23.678787,-3.622560,0.416959,1.930038,-0.196061,0.000000,0.000000,0.000000,0.000000,0.000000,0.000000
13095597.000000,-2.301963,-1.663302,1.242738,-1.452025,1.707702,1.310274,-0.582446,0.383419,0.008775,1.143688,-0.293216,-0.222958,1.126769,-0.074539,0.427289,39.670147,-23.381241,-3.570986,0.405057,1.871444,-0.169511,0.000000,0.000000,0.000000,0.000000,0.000000,0.000000
13095598.000000,-2.301581,-1.663287,1.243895,-1.452300,1.707491,1.311406,-0.582514,0.381635,0.011788,1.144120,-0.285656,-0.218835,1.131445,-0.074269,0.105939,39.547161,-23.309830,-3.646364,0.405057,1.767074,-0.202470,0.000000,0.000000,0.000000,0.000000,0.000000,0.000000
13095599.000000,-2.301196,-1.663272,1.245053,-1.452586,1.707289,1.312536,-0.582584,0.377730,0.013456,1.141072,-0.287309,-0.216289,1.130083,-0.074426,-0.144000,39.451946,-23.258255,-3.598757,0.297025,1.741439,-0.221696,0.000000,0.000000,0.000000,0.000000,0.000000,0.000000
13095600.000000,-2.300820,-1.663262,1.246190,-1.452851,1.707082,1.313664,-0.582663,0.375779,0.011925,1.139255,-0.277899,-0.217467,1.137014,-0.077152,-0.290789,39.475750,-23.258255,-3.745546,0.255826,1.676437,-0.155778,0.000000,0.000000,0.000000,0.000000,0.000000,0.000000
13095601.000000,-2.300449,-1.663249,1.247367,-1.453114,1.706869,1.314774,-0.582733,0.374517,0.012710,1.142763,-0.271940,-0.215605,1.132196,-0.076118,-0.441546,39.428143,-23.579605,-3.868532,0.273221,1.779891,-0.169511,0.000000,0.000000,0.000000,0.000000,0.000000,0.000000
13095602.000000,-2.300083,-1.663237,1.248529,-1.453385,1.706667,1.315895,-0.582805,0.368141,0.012878,1.148822,-0.272315,-0.211984,1.122378,-0.071110,-0.489153,39.400372,-23.948563,-3.892336,0.213712,1.903487,-0.169511,0.000000,0.000000,0.000000,0.000000,0.000000,0.000000
13095603.000000,-2.299720,-1.663231,1.249705,-1.453650,1.706459,1.316992,-0.582874,0.367847,0.011189,1.159592,-0.266370,-0.208981,1.106567,-0.072501,-0.564532,39.451946,-24.242142,-3.943910,0.285123,2.020675,-0.169511,0.000000,0.000000,0.000000,0.000000,0.000000,0.000000
13095604.000000,-2.299357,-1.663219,1.250876,-1.453908,1.706252,1.318118,-0.582947,0.363877,0.011396,1.156140,-0.260633,-0.205302,1.103082,-0.075190,-0.612139,39.451946,-24.464310,-4.019289,0.339139,2.001449,-0.116410,0.000000,0.000000,0.000000,0.000000,0.000000,0.000000
13095605.000000,-2.298999,-1.663216,1.252026,-1.454158,1.706052,1.319230,-0.583005,0.363311,0.009416,1.155398,-0.257128,-0.205177,1.119952,-0.071807,-0.635943,39.547161,-24.583328,-4.090700,0.327238,1.949264,-0.202470,0.000000,0.000000,0.000000,0.000000,0.000000,0.000000
13095606.000000,-2.298633,-1.663208,1.253177,-1.454414,1.705838,1.320348,-0.583078,0.366693,0.007206,1.144199,-0.254964,-0.205474,1.115788,-0.069859,-0.786700,39.547161,-24.535721,-4.142274,0.327238,1.995040,-0.155778,0.000000,0.000000,0.000000,0.000000,0.000000,0.000000
13095607.000000,-2.298273,-1.663201,1.254308,-1.454665,1.705632,1.321467,-0.583144,0.360157,0.005501,1.140960,-0.250443,-0.205073,1.114381,-0.066493,-0.862078,39.547161,-24.388931,-4.189882,0.308927,2.027084,-0.163102,0.000000,0.000000,0.000000,0.000000,0.000000,0.000000
13095608.000000,-2.297917,-1.663198,1.255448,-1.454918,1.705426,1.322567,-0.583207,0.358624,0.005591,1.140265,-0.257819,-0.206398,1.113917,-0.062598,-0.909686,39.622540,-24.043777,-4.166078,0.327238,2.047225,-0.202470,0.000000,0.000000,0.000000,0.000000,0.000000,0.000000
13095609.000000,-2.297556,-1.663192,1.256586,-1.455174,1.705221,1.323690,-0.583278,0.356309,0.006443,1.135047,-0.252793,-0.206634,1.112286,-0.063743,-1.032672,39.670147,-23.627213,-4.166078,0.344633,2.039901,-0.136552,0.000000,0.000000,0.000000,0.000000,0.000000,0.000000
13095610.000000,-2.297212,-1.663183,1.257715,-1.455433,1.705033,1.324810,-0.583335,0.355326,0.008775,1.133904,-0.258089,-0.199080,1.109077,-0.058440,-0.933489,39.646343,-23.409012,-4.118471,0.255826,1.995040,-0.215287,0.000000,0.000000,0.000000,0.000000,0.000000,0.000000
13095611.000000,-2.296871,-1.663164,1.258860,-1.455682,1.704844,1.325925,-0.583403,0.351937,0.013251,1.129264,-0.257864,-0.198364,1.118070,-0.060183,-0.834307,39.499554,-23.309830,-4.066896,0.178007,1.890670,-0.175919,0.000000,0.000000,0.000000,0.000000,0.000000,0.000000
13095612.000000,-2.296530,-1.663151,1.260007,-1.455934,1.704642,1.327050,-0.583461,0.349744,0.010832,1.152392,-0.252751,-0.195732,1.121126,-0.058844,-0.762896,39.451946,-23.186844,-4.066896,0.171598,1.754256,-0.188737,0.000000,0.000000,0.000000,0.000000,0.000000,0.000000
13095613.000000,-2.296207,-1.663142,1.261142,-1.456185,1.704439,1.328159,-0.583525,0.345399,0.008442,1.153538,-0.253741,-0.196439,1.121030,-0.059030,-0.512957,39.428143,-23.163040,-4.019289,0.237516,1.682845,-0.169511,0.000000,0.000000,0.000000,0.000000,0.000000,0.000000
13095614.000000,-2.295876,-1.663123,1.262288,-1.456428,1.704243,1.329268,-0.583586,0.338785,0.012732,1.146511,-0.245026,-0.190071,1.112349,-0.057552,-0.413775,39.281353,-23.135269,-4.043092,0.261320,1.708480,-0.175919,0.000000,0.000000,0.000000,0.000000,0.000000,0.000000
13095615.000000,-2.295555,-1.663103,1.263428,-1.456680,1.704052,1.330386,-0.583642,0.330388,0.015053,1.143206,-0.244932,-0.195344,1.100956,-0.056307,-0.167803,39.158367,-23.258255,-3.991518,0.315336,1.747848,-0.202470,0.000000,0.000000,0.000000,0.000000,0.000000,0.000000
13095616.000000,-2.295234,-1.663088,1.264562,-1.456919,1.703868,1.331495,-0.583709,0.325319,0.016114,1.136623,-0.240681,-0.192338,1.100877,-0.062693,-0.044818,39.059185,-23.186844,-4.043092,0.285123,1.714889,-0.149369,0.000000,0.000000,0.000000,0.000000,0.000000,0.000000
13095617.000000,-2.294910,-1.663068,1.265705,-1.457164,1.703678,1.332615,-0.583766,0.324122,0.018075,1.132725,-0.238405,-0.192189,1.101622,-0.064098,0.030561,38.912395,-23.163040,-3.967714,0.315336,1.714889,-0.196061,0.000000,0.000000,0.000000,0.000000,0.000000,0.000000
13095618.000000,-2.294599,-1.663053,1.266830,-1.457403,1.703489,1.333715,-0.583830,0.320089,0.017840,1.134031,-0.240056,-0.194508,1.098363,-0.063233,0.228925,38.837017,-23.063858,-3.892336,0.279630,1.754256,-0.175919,0.000000,0.000000,0.000000,0.000000,0.000000,0.000000
13095619.000000,-2.294289,-1.663039,1.267956,-1.457643,1.703299,1.334823,-0.583896,0.315044,0.017071,1.126220,-0.236847,-0.190845,1.094796,-0.067579,0.276533,38.789410,-22.841690,-3.868532,0.231107,1.825668,-0.149369,0.000000,0.000000,0.000000,0.000000,0.000000,0.000000
13095620.000000,-2.293980,-1.663016,1.269061,-1.457889,1.703105,1.335952,-0.583956,0.311233,0.018932,1.119837,-0.237205,-0.190790,1.099712,-0.068728,0.427289,38.642620,-22.595718,-3.697939,0.243009,1.806442,-0.169511,0.000000,0.000000,0.000000,0.000000,0.000000,0.000000
13095621.000000,-2.293668,-1.662998,1.270190,-1.458120,1.702922,1.337073,-0.584016,0.308344,0.015914,1.116317,-0.232279,-0.189297,1.113359,-0.064945,0.474897,38.543438,-22.448929,-3.646364,0.219205,1.649886,-0.188737,0.000000,0.000000,0.000000,0.000000,0.000000,0.000000
13095622.000000,-2.293369,-1.662976,1.271334,-1.458363,1.702735,1.338219,-0.584075,0.305969,0.018495,1.121473,-0.236765,-0.179290,1.119090,-0.067593,0.649457,38.372845,-22.472733,-3.570986,0.219205,1.442062,-0.188737,0.000000,0.000000,0.000000,0.000000,0.000000,0.000000
13095623.000000,-2.293072,-1.662953,1.272478,-1.458603,1.702553,1.339332,-0.584139,0.300188,0.020848,1.133922,-0.235448,-0.182022,1.145376,-0.065696,0.871625,38.178448,-22.718704,-3.499574,0.231107,1.370651,-0.163102,0.000000,0.000000,0.000000,0.000000,0.000000,0.000000
13095624.000000,-2.292776,-1.662934,1.273625,-1.458845,1.702370,1.340455,-0.584193,0.295374,0.019684,1.131761,-0.235898,-0.182903,1.138909,-0.062710,0.994611,38.103069,-22.917068,-3.348818,0.213712,1.435653,-0.182328,0.000000,0.000000,0.000000,0.000000,0.000000,0.000000
13095625.000000,-2.292490,-1.662923,1.274765,-1.459081,1.702174,1.341567,-0.584254,0.291866,0.016555,1.131467,-0.233972,-0.186950,1.125374,-0.062860,1.216779,38.130840,-23.210648,-3.301210,0.279630,1.624252,-0.136552,0.000000,0.000000,0.000000,0.000000,0.000000,0.000000
13095626.000000,-2.292214,-1.662908,1.275914,-1.459309,1.701988,1.342665,-0.584308,0.288324,0.012637,1.139538,-0.234544,-0.188746,1.109478,-0.059244,1.514325,38.103069,-23.456619,-3.325014,0.320829,1.851302,-0.196061,0.000000,0.000000,0.000000,0.000000,0.000000,0.000000
13095627.000000,-2.291929,-1.662892,1.277080,-1.459539,1.701808,1.343780,-0.584362,0.282606,0.013974,1.144229,-0.231061,-0.187232,1.100286,-0.058280,1.688886,38.031658,-23.825577,-3.348818,0.297025,1.968490,-0.215287,0.000000,0.000000,0.000000,0.000000,0.000000,0.000000
13095628.000000,-2.291641,-1.662870,1.278214,-1.459771,1.701633,1.344911,-0.584428,0.285545,0.014105,1.140309,-0.232287,-0.182746,1.103205,-0.061051,1.811872,37.861065,-23.849380,-3.301210,0.291532,1.995040,-0.130143,0.000000,0.000000,0.000000,0.000000,0.000000,0.000000
13095629.000000,-2.291360,-1.662850,1.279359,-1.460012,1.701456,1.346022,-0.584473,0.282883,0.016025,1.134147,-0.235250,-0.179312,1.102904,-0.056815,1.863447,37.738079,-23.825577,-3.102846,0.291532,1.955673,-0.208878,0.000000,0.000000,0.000000,0.000000,0.000000,0.000000
13095630.000000,-2.291074,-1.662829,1.280493,-1.460258,1.701285,1.347141,-0.584534,0.280084,0.017331,1.147673,-0.238622,-0.176903,1.106158,-0.058376,1.788068,37.615093,-23.678787,-2.833071,0.297025,1.903487,-0.169511,0.000000,0.000000,0.000000,0.000000,0.000000,0.000000
13095631.000000,-2.290791,-1.662816,1.281619,-1.460502,1.701107,1.348241,-0.584591,0.287383,0.015513,1.143386,-0.241913,-0.180738,1.098233,-0.053230,1.788068,37.615093,-23.528030,-2.535524,0.327238,1.897079,-0.169511,0.000000,0.000000,0.000000,0.000000,0.000000,0.000000
13095632.000000,-2.290505,-1.662798,1.282749,-1.460742,1.700926,1.349353,-0.584645,0.284904,0.016131,1.139531,-0.242391,-0.182269,1.098087,-0.053873,1.788068,37.539715,-23.258255,-2.285585,0.332731,1.865035,-0.175919,0.000000,0.000000,0.000000,0.000000,0.000000,0.000000
13095633.000000,-2.290226,-1.662780,1.283870,-1.460986,1.700754,1.350478,-0.584694,0.278284,0.016377,1.135002,-0.242425,-0.178234,1.102959,-0.052946,1.835676,37.468304,-23.111465,-2.063417,0.308927,1.819259,-0.208878,0.000000,0.000000,0.000000,0.000000,0.000000,0.000000
13095634.000000,-2.289958,-1.662762,1.285014,-1.461211,1.700585,1.351574,-0.584752,0.277173,0.016760,1.130740,-0.236553,-0.170907,1.104365,-0.055655,2.010236,37.392925,-23.135269,-2.039613,0.297025,1.819259,-0.163102,0.000000,0.000000,0.000000,0.000000,0.000000,0.000000
13095635.000000,-2.289686,-1.662751,1.286149,-1.461429,1.700418,1.352701,-0.584801,0.272680,0.017671,1.124348,-0.227100,-0.169942,1.110415,-0.055900,2.061811,37.420696,-22.964676,-2.138796,0.285123,1.662704,-0.169511,0.000000,0.000000,0.000000,0.000000,0.000000,0.000000
13095637.000000,-2.289161,-1.662732,1.288421,-1.461872,1.700083,1.354901,-0.584905,0.267146,0.012911,1.124027,-0.224880,-0.163152,1.100721,-0.051640,2.331586,37.515911,-23.063858,-2.190370,0.344633,1.767074,-0.169511,0.000000,0.000000,0.000000,0.000000,0.000000,0.000000
13095638.000000,-2.288888,-1.662723,1.289553,-1.462090,1.699915,1.356014,-0.584949,0.265944,0.011734,1.124939,-0.222252,-0.164967,1.095992,-0.046451,2.331586,37.567486,-23.163040,-2.162599,0.356534,1.832076,-0.215287,0.000000,0.000000,0.000000,0.000000,0.000000,0.000000
13095639.000000,-2.288617,-1.662716,1.290685,-1.462311,1.699747,1.357129,-0.585002,0.267948,0.007841,1.127981,-0.220361,-0.166243,1.105151,-0.045157,2.232404,37.615093,-23.087662,-2.015810,0.362943,1.708480,-0.202470,0.000000,0.000000,0.000000,0.000000,0.000000,0.000000
13095640.000000,-2.288345,-1.662709,1.291822,-1.462532,1.699575,1.358261,-0.585058,0.267887,0.004406,1.125893,-0.221962,-0.168208,1.111419,-0.044582,2.184797,37.686504,-23.111465,-1.940431,0.405057,1.532699,-0.169511,0.000000,0.000000,0.000000,0.000000,0.000000,0.000000
13095641.000000,-2.288066,-1.662697,1.292941,-1.462741,1.699422,1.359379,-0.585106,0.272591,0.004688,1.123025,-0.216914,-0.161903,1.132051,-0.047109,2.034040,37.638897,-23.040054,-1.916628,0.356534,1.532699,-0.182328,0.000000,0.000000,0.000000,0.000000,0.000000,0.000000
13095642.000000,-2.287806,-1.662688,1.294061,-1.462948,1.699267,1.360466,-0.585154,0.266463,0.006194,1.113891,-0.214172,-0.156922,1.117332,-0.049234,2.061811,37.662701,-22.817886,-1.940431,0.297025,1.670028,-0.188737,0.000000,0.000000,0.000000,0.000000,0.000000,0.000000
13095643.000000,-2.287531,-1.662679,1.295153,-1.463148,1.699102,1.361579,-0.585201,0.265639,0.007355,1.107043,-0.209063,-0.157450,1.120211,-0.050410,2.034040,37.686504,-22.448929,-2.015810,0.351041,1.682845,-0.202470,0.000000,0.000000,0.000000,0.000000,0.000000,0.000000
13095644.000000,-2.287262,-1.662668,1.296273,-1.463353,1.698946,1.362676,-0.585252,0.266149,0.009360,1.105987,-0.211117,-0.152246,1.117299,-0.053127,1.986432,37.662701,-22.254532,-2.015810,0.381254,1.741439,-0.175919,0.000000,0.000000,0.000000,0.000000,0.000000,0.000000
13095645.000000,-2.286992,-1.662655,1.297407,-1.463552,1.698798,1.363783,-0.585293,0.264425,0.011341,1.112365,-0.203456,-0.148890,1.108555,-0.052656,1.887250,37.615093,-22.254532,-2.091188,0.308927,1.767074,-0.208878,0.000000,0.000000,0.000000,0.000000,0.000000,0.000000
13095646.000000,-2.286715,-1.662641,1.298528,-1.463752,1.698646,1.364911,-0.585342,0.267603,0.012286,1.118499,-0.204712,-0.147811,1.103557,-0.053989,1.712690,37.591290,-22.401321,-2.091188,0.285123,1.695663,-0.188737,0.000000,0.000000,0.000000,0.000000,0.000000,0.000000
13095647.000000,-2.286453,-1.662622,1.299680,-1.463949,1.698491,1.366019,-0.585391,0.267653,0.014474,1.122015,-0.202055,-0.148221,1.100301,-0.056245,1.641279,37.492107,-22.770279,-2.039613,0.273221,1.591293,-0.149369,0.000000,0.000000,0.000000,0.000000,0.000000,0.000000
13095648.000000,-2.286187,-1.662611,1.300838,-1.464143,1.698331,1.367141,-0.585428,0.263453,0.013773,1.147944,-0.197775,-0.150638,1.097753,-0.049335,1.466718,37.492107,-23.135269,-2.063417,0.320829,1.539108,-0.208878,0.000000,0.000000,0.000000,0.000000,0.000000,0.000000
13095649.000000,-2.285929,-1.662601,1.301986,-1.464331,1.698174,1.368226,-0.585477,0.268844,0.013210,1.155300,-0.193988,-0.152951,1.093058,-0.048443,1.415143,37.492107,-23.579605,-2.138796,0.381254,1.624252,-0.155778,0.000000,0.000000,0.000000,0.000000,0.000000,0.000000
13095650.000000,-2.285666,-1.662590,1.303128,-1.464507,1.698026,1.369316,-0.585517,0.268846,0.012971,1.144900,-0.188100,-0.146793,1.089994,-0.049288,1.343732,37.492107,-23.801773,-2.313356,0.369352,1.825668,-0.182328,0.000000,0.000000,0.000000,0.000000,0.000000,0.000000
13095651.000000,-2.285400,-1.662579,1.304253,-1.464681,1.697874,1.370421,-0.585562,0.265055,0.012827,1.137173,-0.181535,-0.148679,1.090297,-0.047010,1.268354,37.492107,-23.920792,-2.483949,0.393156,1.858627,-0.169511,0.000000,0.000000,0.000000,0.000000,0.000000,0.000000
13095652.000000,-2.285140,-1.662578,1.305388,-1.464853,1.697731,1.371504,-0.585604,0.266722,0.006693,1.133757,-0.181047,-0.143578,1.090809,-0.043471,1.169172,37.615093,-23.948563,-2.559328,0.374845,1.884261,-0.202470,0.000000,0.000000,0.000000,0.000000,0.000000,0.000000
13095653.000000,-2.284873,-1.662575,1.306510,-1.465026,1.697591,1.372600,-0.585649,0.263142,0.006004,1.124315,-0.178179,-0.147091,1.089878,-0.043389,0.994611,37.714275,-23.750198,-2.634706,0.303434,1.890670,-0.169511,0.000000,0.000000,0.000000,0.000000,0.000000,0.000000
13095654.000000,-2.284601,-1.662573,1.307630,-1.465205,1.697445,1.373679,-0.585687,0.265464,0.003163,1.119896,-0.181999,-0.142960,1.091790,-0.040598,0.748639,37.785686,-23.627213,-2.535524,0.285123,1.884261,-0.208878,0.000000,0.000000,0.000000,0.000000,0.000000,0.000000
13095655.000000,-2.284343,-1.662574,1.308749,-1.465375,1.697294,1.374779,-0.585737,0.264177,0.002342,1.111976,-0.179466,-0.144981,1.087580,-0.042685,0.601850,37.932476,-23.286026,-2.460146,0.279630,1.897079,-0.149369,0.000000,0.000000,0.000000,0.000000,0.000000,0.000000
13095656.000000,-2.284078,-1.662576,1.309854,-1.465537,1.697141,1.375889,-0.585776,0.263109,-0.000595,1.109813,-0.172570,-0.146466,1.083909,-0.041418,0.451093,38.055462,-23.087662,-2.436342,0.279630,1.793624,-0.149369,0.000000,0.000000,0.000000,0.000000,0.000000,0.000000
13095657.000000,-2.283821,-1.662570,1.310988,-1.465691,1.696997,1.377007,-0.585812,0.260936,0.002187,1.111638,-0.168095,-0.147898,1.091545,-0.038226,0.375715,38.103069,-23.040054,-2.535524,0.285123,1.526290,-0.208878,0.000000,0.000000,0.000000,0.000000,0.000000,0.000000
13095658.000000,-2.283570,-1.662568,1.312119,-1.465841,1.696849,1.378123,-0.585857,0.255492,0.003425,1.111703,-0.159148,-0.143830,1.094979,-0.040236,0.351911,38.178448,-22.940872,-2.706117,0.291532,1.389877,-0.155778,0.000000,0.000000,0.000000,0.000000,0.000000,0.000000
13095659.000000,-2.283318,-1.662566,1.313234,-1.465986,1.696701,1.379238,-0.585897,0.250773,0.002483,1.112211,-0.154556,-0.152729,1.118692,-0.044610,0.351911,38.202251,-22.964676,-2.833071,0.351041,1.422836,-0.149369,0.000000,0.000000,0.000000,0.000000,0.000000,0.000000
13095660.000000,-2.283076,-1.662565,1.314368,-1.466124,1.696559,1.380316,-0.585929,0.246928,0.000460,1.111777,-0.149170,-0.151606,1.104958,-0.041058,0.375715,38.277630,-22.988480,-3.027467,0.339139,1.605026,-0.208878,0.000000,0.000000,0.000000,0.000000,0.000000,0.000000
13095661.000000,-2.282833,-1.662563,1.315486,-1.466258,1.696414,1.381408,-0.585974,0.244698,0.000732,1.133272,-0.143169,-0.152211,1.104567,-0.042535,0.351911,38.277630,-23.040054,-3.202028,0.356534,1.793624,-0.149369,0.000000,0.000000,0.000000,0.000000,0.000000,0.000000
13095662.000000,-2.282595,-1.662558,1.316609,-1.466383,1.696273,1.382511,-0.586005,0.243139,0.001457,1.129625,-0.138988,-0.149967,1.107632,-0.039034,0.351911,38.249859,-23.063858,-3.424196,0.303434,1.800033,-0.208878,0.000000,0.000000,0.000000,0.000000,0.000000,0.000000
13095663.000000,-2.282344,-1.662558,1.317740,-1.466522,1.696137,1.383633,-0.586044,0.245321,0.001767,1.121745,-0.138986,-0.145965,1.115052,-0.034460,0.205121,38.226055,-23.135269,-3.448000,0.195402,1.741439,-0.208878,0.000000,0.000000,0.000000,0.000000,0.000000,0.000000
13095664.000000,-2.282086,-1.662550,1.318849,-1.466658,1.695992,1.384751,-0.586088,0.248218,0.004235,1.116837,-0.138080,-0.146674,1.110661,-0.037301,-0.017047,38.103069,-23.087662,-3.475771,0.189908,1.727706,-0.155778,0.000000,0.000000,0.000000,0.000000,0.000000,0.000000
13095665.000000,-2.281829,-1.662545,1.319959,-1.466792,1.695847,1.385843,-0.586128,0.252889,0.004628,1.112457,-0.136190,-0.144383,1.105487,-0.042200,-0.342364,38.031658,-22.865494,-3.448000,0.225614,1.747848,-0.142960,0.000000,0.000000,0.000000,0.000000,0.000000,0.000000
13095666.000000,-2.281571,-1.662545,1.321069,-1.466920,1.695706,1.386950,-0.586158,0.254706,0.003186,1.103725,-0.134181,-0.142882,1.100191,-0.038326,-0.635943,38.031658,-22.647293,-3.424196,0.267728,1.767074,-0.215287,0.000000,0.000000,0.000000,0.000000,0.000000,0.000000
13095667.000000,-2.281318,-1.662536,1.322166,-1.467046,1.695567,1.388045,-0.586195,0.251734,0.005077,1.100880,-0.132330,-0.142309,1.094903,-0.039218,-0.862078,37.908672,-22.472733,-3.424196,0.327238,1.747848,-0.196061,0.000000,0.000000,0.000000,0.000000,0.000000,0.000000
13095668.000000,-2.281071,-1.662529,1.323292,-1.467158,1.695442,1.389163,-0.586237,0.248623,0.005205,1.108700,-0.123667,-0.137328,1.095931,-0.040424,-1.060443,37.833294,-22.524307,-3.570986,0.279630,1.714889,-0.155778,0.000000,0.000000,0.000000,0.000000,0.000000,0.000000
13095669.000000,-2.280829,-1.662530,1.324408,-1.467270,1.695319,1.390274,-0.586265,0.245467,0.002863,1.113636,-0.120607,-0.132901,1.099653,-0.037209,-1.131854,37.861065,-22.718704,-3.745546,0.195402,1.708480,-0.221696,0.000000,0.000000,0.000000,0.000000,0.000000,0.000000
13095670.000000,-2.280598,-1.662526,1.325554,-1.467383,1.695193,1.391371,-0.586309,0.238386,0.003147,1.115771,-0.116431,-0.132268,1.098755,-0.035188,-1.084246,37.809490,-23.063858,-3.844728,0.178007,1.695663,-0.155778,0.000000,0.000000,0.000000,0.000000,0.000000,0.000000
13095671.000000,-2.280357,-1.662529,1.326702,-1.467499,1.695067,1.392470,-0.586341,0.240156,0.000359,1.123577,-0.114766,-0.126907,1.089341,-0.034951,-1.183428,37.884869,-23.409012,-3.892336,0.159696,1.735030,-0.182328,0.000000,0.000000,0.000000,0.000000,0.000000,0.000000
13095672.000000,-2.280121,-1.662532,1.327831,-1.467609,1.694940,1.393540,-0.586376,0.237576,-0.000300,1.126630,-0.113679,-0.123068,1.084100,-0.036104,-1.254840,37.908672,-23.774002,-3.943910,0.141385,1.909896,-0.169511,0.000000,0.000000,0.000000,0.000000,0.000000,0.000000
13095673.000000,-2.279881,-1.662529,1.328982,-1.467715,1.694806,1.394635,-0.586411,0.237224,0.000370,1.130135,-0.111914,-0.126004,1.089998,-0.036737,-1.381793,37.884869,-24.190567,-4.043092,0.154203,1.974899,-0.163102,0.000000,0.000000,0.000000,0.000000,0.000000,0.000000
13095674.000000,-2.279652,-1.662535,1.330106,-1.467820,1.694670,1.395742,-0.586437,0.233886,-0.002063,1.131892,-0.110636,-0.129261,1.094586,-0.030984,-1.405596,37.984051,-24.341324,-4.118471,0.201810,1.897079,-0.196061,0.000000,0.000000,0.000000,0.000000,0.000000,0.000000
13095675.000000,-2.279418,-1.662540,1.331234,-1.467918,1.694541,1.396831,-0.586475,0.231914,-0.003038,1.124210,-0.106301,-0.130541,1.092080,-0.029732,-1.552386,38.055462,-24.341324,-4.213686,0.225614,1.838485,-0.149369,0.000000,0.000000,0.000000,0.000000,0.000000,0.000000
13095676.000000,-2.279184,-1.662549,1.332365,-1.468019,1.694412,1.397919,-0.586503,0.232768,-0.004340,1.120016,-0.104203,-0.126840,1.080203,-0.030098,-1.679339,38.154644,-24.242142,-4.241457,0.255826,1.877853,-0.196061,0.000000,0.000000,0.000000,0.000000,0.000000,0.000000
13095677.000000,-2.278948,-1.662557,1.333472,-1.468127,1.694286,1.399010,-0.586539,0.232783,-0.005116,1.111369,-0.108041,-0.123516,1.096064,-0.032790,-1.778521,38.249859,-24.043777,-4.189882,0.267728,1.981307,-0.175919,0.000000,0.000000,0.000000,0.000000,0.000000,0.000000
13095678.000000,-2.278713,-1.662567,1.334584,-1.468241,1.694161,1.400090,-0.586567,0.234728,-0.006841,1.103526,-0.108831,-0.125450,1.090854,-0.028821,-1.949114,38.396648,-23.750198,-4.066896,0.267728,1.988631,-0.196061,0.000000,0.000000,0.000000,0.000000,0.000000,0.000000
13095679.000000,-2.278487,-1.662576,1.335670,-1.468347,1.694038,1.401190,-0.586597,0.230461,-0.007435,1.116102,-0.108536,-0.125393,1.093622,-0.025883,-2.048296,38.519634,-23.309830,-3.991518,0.225614,1.942855,-0.215287,0.000000,0.000000,0.000000,0.000000,0.000000,0.000000
13095680.000000,-2.278260,-1.662583,1.336805,-1.468447,1.693921,1.402275,-0.586635,0.233514,-0.006718,1.120080,-0.105760,-0.120510,1.091166,-0.031633,-2.171282,38.595013,-23.409012,-3.967714,0.171598,1.903487,-0.142960,0.000000,0.000000,0.000000,0.000000,0.000000,0.000000
13095681.000000,-2.278036,-1.662586,1.337925,-1.468545,1.693807,1.403383,-0.586659,0.230742,-0.005034,1.119200,-0.103970,-0.118908,1.098637,-0.031312,-2.298235,38.618816,-23.258255,-3.967714,0.052579,1.812850,-0.188737,0.000000,0.000000,0.000000,0.000000,0.000000,0.000000
13095682.000000,-2.277819,-1.662593,1.339037,-1.468635,1.693680,1.404496,-0.586689,0.222539,-0.005026,1.115588,-0.099912,-0.123861,1.101332,-0.033184,-2.298235,38.690228,-23.286026,-4.066896,0.100187,1.708480,-0.182328,0.000000,0.000000,0.000000,0.000000,0.000000,0.000000
13095683.000000,-2.277616,-1.662601,1.340161,-1.468717,1.693547,1.405577,-0.586723,0.218060,-0.005670,1.111972,-0.096751,-0.123424,1.098443,-0.036404,-2.222857,38.789410,-23.286026,-4.213686,0.154203,1.702071,-0.136552,0.000000,0.000000,0.000000,0.000000,0.000000,0.000000
13095684.000000,-2.277401,-1.662609,1.341303,-1.468797,1.693417,1.406664,-0.586750,0.215738,-0.005542,1.121825,-0.090737,-0.118627,1.087134,-0.036091,-2.199053,38.864788,-23.480423,-4.388246,0.225614,1.767074,-0.149369,0.000000,0.000000,0.000000,0.000000,0.000000,0.000000
13095685.000000,-2.277188,-1.662613,1.342415,-1.468882,1.693291,1.407740,-0.586772,0.218025,-0.004808,1.119845,-0.088968,-0.118847,1.077725,-0.034256,-2.199053,38.912395,-23.579605,-4.463624,0.273221,1.812850,-0.208878,0.000000,0.000000,0.000000,0.000000,0.000000,0.000000
13095686.000000,-2.276981,-1.662622,1.343537,-1.468966,1.693167,1.408849,-0.586808,0.213788,-0.008691,1.115069,-0.088176,-0.127487,1.079200,-0.037556,-2.199053,39.011578,-23.603409,-4.511232,0.303434,1.747848,-0.149369,0.000000,0.000000,0.000000,0.000000,0.000000,0.000000
13095687.000000,-2.276773,-1.662628,1.344634,-1.469055,1.693046,1.409964,-0.586834,0.211652,-0.007728,1.112908,-0.086026,-0.128764,1.086891,-0.036723,-2.270464,39.082989,-23.504227,-4.487428,0.315336,1.637069,-0.169511,0.000000,0.000000,0.000000,0.000000,0.000000,0.000000
13095688.000000,-2.276556,-1.662632,1.345743,-1.469133,1.692931,1.411036,-0.586857,0.212802,-0.009041,1.105257,-0.083304,-0.123070,1.080247,-0.031350,-2.445025,39.106792,-23.432816,-4.487428,0.273221,1.735030,-0.196061,0.000000,0.000000,0.000000,0.000000,0.000000,0.000000
13095689.000000,-2.276347,-1.662638,1.346854,-1.469220,1.692824,1.412131,-0.586888,0.211573,-0.007643,1.102134,-0.084721,-0.116187,1.080151,-0.034279,-2.544207,39.158367,-23.258255,-4.340639,0.159696,1.773483,-0.163102,0.000000,0.000000,0.000000,0.000000,0.000000,0.000000
13095690.000000,-2.276135,-1.662643,1.347941,-1.469299,1.692712,1.413220,-0.586908,0.211722,-0.009010,1.097292,-0.082153,-0.115121,1.111749,-0.028759,-2.690997,39.182171,-22.988480,-4.312868,0.141385,1.741439,-0.208878,0.000000,0.000000,0.000000,0.000000,0.000000,0.000000
13095691.000000,-2.275940,-1.662647,1.349057,-1.469371,1.692596,1.414320,-0.586937,0.208552,-0.005934,1.095191,-0.080372,-0.114212,1.108508,-0.027904,-2.690997,39.158367,-23.016251,-4.312868,0.123990,1.714889,-0.169511,0.000000,0.000000,0.000000,0.000000,0.000000,0.000000
13095692.000000,-2.275739,-1.662640,1.350164,-1.469443,1.692481,1.415426,-0.586961,0.205753,-0.001443,1.096745,-0.078281,-0.113162,1.111645,-0.029318,-2.690997,39.035381,-23.087662,-4.340639,0.093778,1.662704,-0.202470,0.000000,0.000000,0.000000,0.000000,0.000000,0.000000
13095693.000000,-2.275547,-1.662637,1.351301,-1.469509,1.692361,1.416522,-0.586991,0.199699,0.000529,1.107717,-0.072729,-0.120397,1.105557,-0.028491,-2.619586,38.960003,-23.432816,-4.412050,0.154203,1.578475,-0.155778,0.000000,0.000000,0.000000,0.000000,0.000000,0.000000
13095694.000000,-2.275354,-1.662632,1.352442,-1.469572,1.692236,1.417619,-0.587010,0.195296,0.002375,1.112382,-0.068391,-0.121527,1.095168,-0.024295,-2.544207,38.864788,-23.801773,-4.487428,0.243009,1.578475,-0.202470,0.000000,0.000000,0.000000,0.000000,0.000000,0.000000
13095695.000000,-2.275162,-1.662632,1.353575,-1.469640,1.692119,1.418721,-0.587030,0.190603,0.001430,1.119633,-0.070064,-0.121159,1.108754,-0.022729,-2.544207,38.864788,-24.218338,-4.487428,0.297025,1.624252,-0.208878,0.000000,0.000000,0.000000,0.000000,0.000000,0.000000
13095696.000000,-2.274980,-1.662634,1.354712,-1.469706,1.692004,1.419788,-0.587061,0.187515,0.000282,1.118376,-0.068907,-0.120161,1.095246,-0.024316,-2.445025,38.888592,-24.488113,-4.463624,0.332731,1.871444,-0.142960,0.000000,0.000000,0.000000,0.000000,0.000000,0.000000
13095697.000000,-2.274797,-1.662634,1.355834,-1.469769,1.691893,1.420874,-0.587078,0.183945,0.000102,1.143140,-0.066784,-0.115910,1.092217,-0.017099,-2.421221,38.888592,-24.805496,-4.487428,0.279630,2.053634,-0.169511,0.000000,0.000000,0.000000,0.000000,0.000000,0.000000
13095698.000000,-2.274621,-1.662636,1.356957,-1.469831,1.691791,1.421956,-0.587100,0.185599,-0.000554,1.136981,-0.062755,-0.110588,1.092455,-0.017262,-2.345843,38.912395,-24.880875,-4.487428,0.159696,2.079269,-0.175919,0.000000,0.000000,0.000000,0.000000,0.000000,0.000000
13095699.000000,-2.274440,-1.662637,1.358087,-1.469897,1.691689,1.423057,-0.587122,0.180747,-0.000975,1.129401,-0.061913,-0.108115,1.088467,-0.016946,-2.369647,38.936199,-24.952286,-4.388246,0.069974,2.066451,-0.196061,0.000000,0.000000,0.000000,0.000000,0.000000,0.000000
13095700.000000,-2.274261,-1.662636,1.359184,-1.469960,1.691585,1.424149,-0.587147,0.179529,0.000428,1.122031,-0.060982,-0.112278,1.087980,-0.019296,-2.369647,38.888592,-24.757889,-4.289064,0.004056,2.118636,-0.149369,0.000000,0.000000,0.000000,0.000000,0.000000,0.000000
13095701.000000,-2.274080,-1.662642,1.360300,-1.470025,1.691471,1.425232,-0.587162,0.179997,-0.000856,1.111590,-0.061520,-0.115588,1.090983,-0.017281,-2.421221,38.936199,-24.583328,-4.142274,0.069974,2.085677,-0.196061,0.000000,0.000000,0.000000,0.000000,0.000000,0.000000
13095702.000000,-2.273904,-1.662643,1.361416,-1.470097,1.691347,1.426327,-0.587183,0.178683,-0.000591,1.104766,-0.066133,-0.115198,1.087659,-0.018538,-2.421221,38.936199,-24.313553,-3.920107,0.201810,2.027084,-0.175919,0.000000,0.000000,0.000000,0.000000,0.000000,0.000000
13095703.000000,-2.273732,-1.662642,1.362517,-1.470156,1.691229,1.427403,-0.587209,0.176916,0.000147,1.104622,-0.061935,-0.116992,1.081574,-0.019727,-2.369647,38.912395,-24.142960,-3.892336,0.273221,1.988631,-0.149369,0.000000,0.000000,0.000000,0.000000,0.000000,0.000000
13095704.000000,-2.273572,-1.662641,1.363638,-1.470217,1.691110,1.428500,-0.587223,0.171485,0.001200,1.100808,-0.059497,-0.116473,1.082477,-0.012740,-2.270464,38.864788,-24.142960,-3.844728,0.297025,1.923629,-0.202470,0.000000,0.000000,0.000000,0.000000,0.000000,0.000000
13095705.000000,-2.273417,-1.662643,1.364741,-1.470262,1.690996,1.429606,-0.587247,0.165197,0.000235,1.102012,-0.053313,-0.110024,1.082782,-0.015820,-2.099871,38.888592,-24.119156,-3.991518,0.285123,1.844894,-0.163102,0.000000,0.000000,0.000000,0.000000,0.000000,0.000000
13095706.000000,-2.273269,-1.662645,1.365866,-1.470313,1.690890,1.430696,-0.587262,0.160774,0.000150,1.107189,-0.051339,-0.108388,1.083110,-0.015124,-1.901507,38.888592,-24.166763,-4.043092,0.231107,1.773483,-0.202470,0.000000,0.000000,0.000000,0.000000,0.000000,0.000000
13095707.000000,-2.273119,-1.662651,1.366993,-1.470359,1.690785,1.431786,-0.587278,0.155128,-0.001575,1.108791,-0.048716,-0.110664,1.081155,-0.016243,-1.750750,38.960003,-24.265945,-4.142274,0.141385,1.825668,-0.202470,0.000000,0.000000,0.000000,0.000000,0.000000,0.000000
13095708.000000,-2.272979,-1.662654,1.368104,-1.470409,1.690680,1.432852,-0.587303,0.149556,-0.000497,1.108228,-0.050008,-0.104701,1.084052,-0.019170,-1.528582,38.936199,-24.388931,-4.090700,0.081876,1.995040,-0.142960,0.000000,0.000000,0.000000,0.000000,0.000000,0.000000
13095709.000000,-2.272834,-1.662659,1.369224,-1.470455,1.690570,1.433949,-0.587322,0.145766,-0.001448,1.109980,-0.049517,-0.102350,1.088742,-0.018990,-1.453204,38.983807,-24.488113,-4.118471,0.076383,1.955673,-0.142960,0.000000,0.000000,0.000000,0.000000,0.000000,0.000000
13095710.000000,-2.272682,-1.662659,1.370320,-1.470505,1.690457,1.435063,-0.587339,0.148050,-0.000967,1.104515,-0.047726,-0.107438,1.100166,-0.018531,-1.480975,38.983807,-24.436539,-4.066896,0.135892,1.825668,-0.155778,0.000000,0.000000,0.000000,0.000000,0.000000,0.000000
13095711.000000,-2.272539,-1.662655,1.371425,-1.470554,1.690345,1.436149,-0.587355,0.149934,0.001581,1.098430,-0.047474,-0.105797,1.096684,-0.018667,-1.381793,38.888592,-24.313553,-3.967714,0.183500,1.760665,-0.155778,0.000000,0.000000,0.000000,0.000000,0.000000,0.000000
13095714.000000,-2.272110,-1.662662,1.374704,-1.470688,1.690008,1.439435,-0.587402,0.145154,-0.000760,1.086420,-0.044055,-0.108835,1.098601,-0.016389,-1.330218,38.888592,-23.603409,-3.820925,0.303434,1.741439,-0.155778,0.000000,0.000000,0.000000,0.000000,0.000000,0.000000
13095715.000000,-2.271977,-1.662661,1.375795,-1.470730,1.689899,1.440536,-0.587416,0.145297,0.000699,1.110506,-0.043499,-0.108002,1.100956,-0.016402,-1.282611,38.837017,-23.555801,-3.769350,0.261320,1.747848,-0.169511,0.000000,0.000000,0.000000,0.000000,0.000000,0.000000
13095716.000000,-2.271843,-1.662658,1.376906,-1.470772,1.689799,1.441616,-0.587427,0.144657,0.001579,1.106061,-0.040187,-0.105661,1.095563,-0.015540,-1.231036,38.789410,-23.651016,-3.697939,0.166105,1.832076,-0.208878,0.000000,0.000000,0.000000,0.000000,0.000000,0.000000
13095717.000000,-2.271716,-1.662654,1.378045,-1.470803,1.689697,1.442714,-0.587448,0.137222,0.002723,1.112394,-0.038535,-0.100927,1.103548,-0.013970,-1.108050,38.717999,-24.043777,-3.721742,0.112089,1.858627,-0.149369,0.000000,0.000000,0.000000,0.000000,0.000000,0.000000
13095718.000000,-2.271594,-1.662655,1.379159,-1.470843,1.689597,1.443826,-0.587455,0.130011,0.001258,1.115226,-0.040407,-0.099753,1.108355,-0.012839,-0.909686,38.741802,-24.365128,-3.622560,0.117582,1.800033,-0.208878,0.000000,0.000000,0.000000,0.000000,0.000000,0.000000
13095719.000000,-2.271472,-1.662652,1.380285,-1.470876,1.689493,1.444904,-0.587474,0.127456,0.002045,1.115987,-0.040596,-0.099784,1.108364,-0.011198,-0.687518,38.690228,-24.734085,-3.570986,0.147794,1.825668,-0.169511,0.000000,0.000000,0.000000,0.000000,0.000000,0.000000
13095720.000000,-2.271349,-1.662654,1.381418,-1.470907,1.689386,1.445989,-0.587490,0.123558,0.000714,1.116769,-0.036893,-0.100675,1.095115,-0.013539,-0.512957,38.717999,-25.051468,-3.547182,0.207303,1.890670,-0.155778,0.000000,0.000000,0.000000,0.000000,0.000000,0.000000
13095721.000000,-2.271229,-1.662650,1.382532,-1.470943,1.689286,1.447057,-0.587501,0.121144,0.001682,1.114214,-0.035328,-0.099721,1.082370,-0.013600,-0.342364,38.666424,-25.273636,-3.475771,0.225614,1.974899,-0.188737,0.000000,0.000000,0.000000,0.000000,0.000000,0.000000
13095722.000000,-2.271107,-1.662661,1.383648,-1.470974,1.689180,1.448150,-0.587519,0.121414,-0.002312,1.105407,-0.033638,-0.100502,1.072681,-0.016172,-0.266986,38.813213,-25.297440,-3.424196,0.291532,1.949264,-0.155778,0.000000,0.000000,0.000000,0.000000,0.000000,0.000000
13095723.000000,-2.270979,-1.662662,1.384739,-1.471008,1.689077,1.449254,-0.587526,0.122905,-0.002098,1.100076,-0.032919,-0.099487,1.071666,-0.010841,-0.266986,38.837017,-25.099075,-3.348818,0.308927,1.844894,-0.188737,0.000000,0.000000,0.000000,0.000000,0.000000,0.000000
13095724.000000,-2.270862,-1.662670,1.385841,-1.471048,1.688979,1.450321,-0.587540,0.120169,-0.003162,1.096127,-0.034572,-0.097322,1.074587,-0.013209,-0.243182,38.912395,-24.904678,-3.178224,0.291532,1.903487,-0.182328,0.000000,0.000000,0.000000,0.000000,0.000000,0.000000
13095725.000000,-2.270736,-1.662674,1.386949,-1.471084,1.688886,1.451408,-0.587548,0.120877,-0.003222,1.088125,-0.034524,-0.093547,1.073369,-0.008704,-0.342364,38.960003,-24.734085,-3.055238,0.219205,1.897079,-0.215287,0.000000,0.000000,0.000000,0.000000,0.000000,0.000000
13095726.000000,-2.270616,-1.662681,1.388027,-1.471114,1.688785,1.452484,-0.587563,0.119867,-0.007627,1.083939,-0.035019,-0.097749,1.100437,-0.012993,-0.389971,39.059185,-24.341324,-3.027467,0.195402,1.890670,-0.169511,0.000000,0.000000,0.000000,0.000000,0.000000,0.000000
13095727.000000,-2.270503,-1.662681,1.389140,-1.471147,1.688676,1.453576,-0.587569,0.115098,-0.004791,1.084971,-0.031166,-0.098458,1.105662,-0.013395,-0.389971,39.035381,-24.313553,-2.928285,0.231107,1.844894,-0.196061,0.000000,0.000000,0.000000,0.000000,0.000000,0.000000
13095728.000000,-2.270399,-1.662686,1.390225,-1.471168,1.688578,1.454681,-0.587578,0.109936,-0.006440,1.081442,-0.027261,-0.100573,1.106204,-0.014715,-0.342364,39.035381,-24.190567,-3.003664,0.195402,1.747848,-0.202470,0.000000,0.000000,0.000000,0.000000,0.000000,0.000000
13095729.000000,-2.270295,-1.662685,1.391337,-1.471187,1.688479,1.455775,-0.587590,0.111626,-0.006210,1.086209,-0.025279,-0.099415,1.099152,-0.016524,-0.266986,38.960003,-24.218338,-3.055238,0.201810,1.597701,-0.182328,0.000000,0.000000,0.000000,0.000000,0.000000,0.000000
13095730.000000,-2.270194,-1.662685,1.392454,-1.471203,1.688375,1.456872,-0.587605,0.109699,-0.006771,1.089864,-0.023355,-0.099621,1.086683,-0.012836,-0.167803,38.912395,-24.289749,-3.126650,0.243009,1.565658,-0.169511,0.000000,0.000000,0.000000,0.000000,0.000000,0.000000
13095731.000000,-2.270100,-1.662681,1.393557,-1.471221,1.688276,1.457975,-0.587616,0.104266,-0.002889,1.094061,-0.023078,-0.103343,1.083352,-0.009804,-0.017047,38.813213,-24.412735,-3.154421,0.255826,1.565658,-0.163102,0.000000,0.000000,0.000000,0.000000,0.000000,0.000000
13095732.000000,-2.269999,-1.662692,1.394661,-1.471235,1.688171,1.459055,-0.587622,0.101434,-0.004211,1.091163,-0.019500,-0.107501,1.080216,-0.006072,-0.044818,38.888592,-24.412735,-3.202028,0.308927,1.714889,-0.196061,0.000000,0.000000,0.000000,0.000000,0.000000,0.000000
13095733.000000,-2.269895,-1.662699,1.395767,-1.471247,1.688071,1.460146,-0.587637,0.102770,-0.007364,1.112996,-0.017969,-0.107487,1.076944,-0.011034,-0.116229,38.936199,-24.388931,-3.202028,0.279630,1.858627,-0.149369,0.000000,0.000000,0.000000,0.000000,0.000000,0.000000
13095734.000000,-2.269801,-1.662704,1.396851,-1.471254,1.687982,1.461234,-0.587637,0.101429,-0.006014,1.103538,-0.015523,-0.096315,1.080717,-0.005968,-0.116229,38.960003,-24.313553,-3.249635,0.195402,1.890670,-0.208878,0.000000,0.000000,0.000000,0.000000,0.000000,0.000000
13095735.000000,-2.269694,-1.662705,1.397947,-1.471262,1.687887,1.462337,-0.587647,0.101630,-0.002749,1.094860,-0.015064,-0.094161,1.088429,-0.009867,-0.266986,38.888592,-24.218338,-3.249635,0.147794,1.903487,-0.196061,0.000000,0.000000,0.000000,0.000000,0.000000,0.000000
13095736.000000,-2.269594,-1.662703,1.399020,-1.471268,1.687793,1.463449,-0.587662,0.100269,-0.000378,1.090185,-0.011971,-0.093270,1.092325,-0.014152,-0.366168,38.813213,-24.019974,-3.225832,0.117582,1.825668,-0.142960,0.000000,0.000000,0.000000,0.000000,0.000000,0.000000
13095737.000000,-2.269494,-1.662704,1.400101,-1.471276,1.687697,1.464546,-0.587661,0.102472,0.001188,1.083603,-0.009566,-0.098342,1.095660,-0.011745,-0.465350,38.741802,-23.750198,-3.202028,0.112089,1.741439,-0.235429,0.000000,0.000000,0.000000,0.000000,0.000000,0.000000
13095738.000000,-2.269387,-1.662705,1.401198,-1.471280,1.687586,1.465649,-0.587671,0.102330,0.002382,1.082819,-0.007149,-0.101421,1.094162,-0.010222,-0.635943,38.666424,-23.651016,-3.202028,0.219205,1.714889,-0.202470,0.000000,0.000000,0.000000,0.000000,0.000000,0.000000
13095739.000000,-2.269292,-1.662700,1.402282,-1.471284,1.687485,1.466728,-0.587685,0.101595,0.004335,1.083150,-0.006458,-0.099588,1.087122,-0.014161,-0.663714,38.543438,-23.651016,-3.154421,0.225614,1.773483,-0.155778,0.000000,0.000000,0.000000,0.000000,0.000000,0.000000
