chaoyuefei/paper-gmrm-data/robot_logs/s2_dq_mrm_max_0.50_log_20260314_174857.csv
# time_ms,q_0,q_1,q_2,q_3,q_4,q_5,q_6,dq_0,dq_1,dq_2,dq_3,dq_4,dq_5,dq_6,tau_J_0,tau_J_1,tau_J_2,tau_J_3,tau_J_4,tau_J_5,tau_J_6,O_dP_EE_c_0,O_dP_EE_c_1,O_dP_EE_c_2,O_dP_EE_c_3,O_dP_EE_c_4,O_dP_EE_c_5
13199016.000000,2.312754,-0.964745,-1.819539,-1.386083,-0.927558,1.665494,0.447539,-0.001042,-0.000630,-0.000024,0.000370,0.000181,0.000031,0.001036,0.054365,35.560040,19.691574,12.123594,1.013883,1.396285,-0.169511,0.000000,0.000000,0.000000,0.000000,0.000000,0.000000
13199017.000000,2.312755,-0.964740,-1.819539,-1.386083,-0.927558,1.665495,0.447534,-0.000138,0.000787,-0.000017,0.000247,-0.000117,0.000258,-0.000768,0.030561,35.508465,19.691574,12.123594,1.020292,1.389877,-0.130143,0.000000,0.000000,0.000000,0.000000,0.000000,0.000000
13199018.000000,2.312757,-0.964743,-1.819538,-1.386083,-0.927558,1.665493,0.447539,0.000465,-0.000682,0.000546,0.000164,-0.000078,-0.000303,0.000946,0.006757,35.560040,19.667770,12.123594,1.020292,1.402694,-0.169511,0.000000,0.000000,0.000000,0.000000,0.000000,0.000000
13199019.000000,2.312757,-0.964741,-1.819539,-1.386080,-0.927556,1.665494,0.447538,0.000310,0.000752,-0.000193,0.001316,0.000830,0.000035,0.000394,0.006757,35.508465,19.691574,12.072020,0.996488,1.396285,-0.163102,0.000000,0.000000,0.000000,0.000000,0.000000,0.000000
13199020.000000,2.312746,-0.964749,-1.819538,-1.386083,-0.927554,1.665497,0.447532,-0.015250,-0.011061,-0.008707,-0.000886,-0.001488,0.000973,0.007852,-0.413775,35.068096,19.104416,12.147398,0.925077,1.370651,-0.077042,0.000000,0.000000,0.000000,0.000000,0.000000,0.000000
13199021.000000,2.312730,-0.964717,-1.819560,-1.386089,-0.927541,1.665496,0.447551,-0.031183,-0.009516,-0.025581,-0.001233,0.002716,-0.001641,0.012333,-2.298235,32.790874,17.311203,12.298155,0.559781,1.318465,-0.103593,0.000000,0.000000,0.000000,0.000000,0.000000,0.000000
13199022.000000,2.312720,-0.964663,-1.819628,-1.386088,-0.927521,1.665482,0.447575,-0.029877,0.007812,-0.050578,-0.002252,0.012740,-0.007682,0.012153,-5.761675,28.851360,14.538071,12.369566,-0.019747,1.370651,-0.037675,0.000000,0.000000,0.000000,0.000000,0.000000,0.000000
13199023.000000,2.312674,-0.964653,-1.819752,-1.386072,-0.927538,1.665461,0.447619,-0.025810,0.010066,-0.073588,0.002669,0.003354,-0.010559,0.020355,-9.625812,24.689678,11.296799,12.198973,-0.312716,1.500655,-0.050492,0.000000,0.000000,0.000000,0.000000,0.000000,0.000000
13199024.000000,2.312599,-0.964706,-1.819886,-1.386063,-0.927600,1.665466,0.447674,-0.039394,-0.001575,-0.079649,0.006555,-0.017420,-0.007506,0.031887,-13.311419,21.190533,7.738144,12.000608,-0.228488,1.500655,-0.044083,0.000000,0.000000,0.000000,0.000000,0.000000,0.000000
13199025.000000,2.312503,-0.964795,-1.820057,-1.386070,-0.927686,1.665510,0.447746,-0.043931,-0.022275,-0.092658,0.003065,-0.040732,0.013589,0.051586,-16.778826,18.302349,4.596054,11.925230,-0.037142,1.227828,-0.064225,0.000000,0.000000,0.000000,0.000000,0.000000,0.000000
13199026.000000,2.312390,-0.964922,-1.820218,-1.386081,-0.927787,1.665613,0.447825,-0.061026,-0.052567,-0.101126,-0.000456,-0.063132,0.041089,0.066607,-19.722551,16.148113,1.628525,11.778440,0.189908,0.603439,0.009017,0.000000,0.000000,0.000000,0.000000,0.000000,0.000000
13199027.000000,2.312262,-0.965075,-1.820377,-1.386100,-0.927894,1.665759,0.447932,-0.078347,-0.078911,-0.111948,-0.004957,-0.078183,0.074747,0.085127,-22.174334,14.604839,-0.898636,11.679258,0.255826,-0.177506,0.054794,0.000000,0.000000,0.000000,0.000000,0.000000,0.000000
13199028.000000,2.312138,-0.965236,-1.820521,-1.386122,-0.927999,1.665912,0.448080,-0.084110,-0.100262,-0.114979,-0.012785,-0.085650,0.100777,0.110156,-24.602312,13.505901,-3.207596,11.504698,0.105680,-0.684708,-0.017533,0.000000,0.000000,0.000000,0.000000,0.000000,0.000000
13199029.000000,2.311999,-0.965410,-1.820652,-1.386142,-0.928118,1.666059,0.448237,-0.098380,-0.123135,-0.116465,-0.013281,-0.096524,0.118295,0.128265,-26.629595,12.795757,-5.195206,11.135740,-0.055453,-0.795487,0.021835,0.000000,0.000000,0.000000,0.000000,0.000000,0.000000
13199030.000000,2.311872,-0.965569,-1.820788,-1.386171,-0.928245,1.666202,0.448424,-0.099150,-0.129537,-0.117815,-0.024284,-0.105121,0.127777,0.143607,-28.188738,12.010235,-6.520279,10.616026,-0.330111,-0.534562,0.001693,0.000000,0.000000,0.000000,0.000000,0.000000,0.000000
13199031.000000,2.311720,-0.965709,-1.820907,-1.386247,-0.928371,1.666387,0.448639,-0.107237,-0.129420,-0.115114,-0.044832,-0.111952,0.147217,0.165401,-28.363298,11.323895,-7.234390,10.096312,-0.616671,-0.242509,0.001693,0.000000,0.000000,0.000000,0.000000,0.000000,0.000000
13199032.000000,2.311561,-0.965833,-1.821011,-1.386381,-0.928522,1.666635,0.448876,-0.120332,-0.126749,-0.111703,-0.080772,-0.122479,0.179540,0.187671,-27.173113,10.712933,-7.357376,9.727354,-0.772311,-0.236100,-0.017533,0.000000,0.000000,0.000000,0.000000,0.000000,0.000000
13199033.000000,2.311401,-0.965927,-1.821130,-1.386574,-0.928700,1.666924,0.449135,-0.136750,-0.114212,-0.113112,-0.119002,-0.136981,0.216870,0.206279,-24.923662,9.955181,-6.643265,9.306822,-0.760409,-0.372514,-0.037675,0.000000,0.000000,0.000000,0.000000,0.000000,0.000000
13199034.000000,2.311228,-0.966008,-1.821239,-1.386802,-0.928912,1.667240,0.449393,-0.156412,-0.101910,-0.114490,-0.154648,-0.162751,0.245123,0.220075,-21.852983,9.221233,-5.635574,8.687925,-0.569064,-0.431107,0.028243,0.000000,0.000000,0.000000,0.000000,0.000000,0.000000
13199035.000000,2.311051,-0.966080,-1.821349,-1.387057,-0.929129,1.667551,0.449668,-0.174339,-0.091543,-0.119635,-0.186024,-0.181798,0.266205,0.235069,-18.560137,8.463482,-4.461258,7.922240,-0.389620,-0.209550,-0.017533,0.000000,0.000000,0.000000,0.000000,0.000000,0.000000
13199036.000000,2.310883,-0.966140,-1.821464,-1.387345,-0.929358,1.667879,0.449949,-0.180026,-0.081308,-0.125017,-0.213933,-0.197910,0.280202,0.249187,-15.418048,7.725567,-3.255203,7.104979,-0.246798,0.147506,-0.011124,0.000000,0.000000,0.000000,0.000000,0.000000,0.000000
13199037.000000,2.310715,-0.966206,-1.821572,-1.387643,-0.929600,1.668237,0.450231,-0.183958,-0.076852,-0.124114,-0.237863,-0.213139,0.301686,0.260037,-12.470355,7.138409,-2.322891,6.315489,-0.168978,0.388290,-0.004716,0.000000,0.000000,0.000000,0.000000,0.000000,0.000000
13199038.000000,2.310539,-0.966278,-1.821695,-1.387961,-0.929843,1.668618,0.450527,-0.185160,-0.075367,-0.127276,-0.255087,-0.225002,0.328366,0.270148,-9.697223,6.650433,-1.489761,5.522032,-0.300814,0.473434,-0.011124,0.000000,0.000000,0.000000,0.000000,0.000000,0.000000
13199039.000000,2.310359,-0.966366,-1.821839,-1.388286,-0.930101,1.669030,0.450812,-0.190119,-0.083389,-0.137256,-0.271640,-0.237938,0.351611,0.275186,-7.122454,6.428265,-0.728043,4.732543,-0.503146,0.524703,0.009017,0.000000,0.000000,0.000000,0.000000,0.000000,0.000000
13199040.000000,2.310190,-0.966473,-1.821997,-1.388606,-0.930394,1.669448,0.451114,-0.189195,-0.090615,-0.145118,-0.282252,-0.252133,0.363583,0.286749,-5.019793,6.428265,-0.089310,3.867674,-0.551669,0.603439,-0.037675,0.000000,0.000000,0.000000,0.000000,0.000000,0.000000
13199041.000000,2.310024,-0.966614,-1.822167,-1.388923,-0.930697,1.669883,0.451406,-0.182146,-0.109966,-0.156698,-0.286884,-0.266303,0.383989,0.289008,-3.238482,6.797222,0.398666,3.002806,-0.551669,0.733443,0.009017,0.000000,0.000000,0.000000,0.000000,0.000000,0.000000
13199042.000000,2.309856,-0.966763,-1.822345,-1.389238,-0.931025,1.670355,0.451698,-0.180109,-0.126367,-0.163578,-0.297704,-0.291305,0.410247,0.290400,-1.651568,7.166180,0.720016,2.137938,-0.503146,0.706893,0.001693,0.000000,0.000000,0.000000,0.000000,0.000000,0.000000
13199043.000000,2.309694,-0.966927,-1.822544,-1.389562,-0.931384,1.670849,0.451991,-0.176357,-0.140907,-0.173062,-0.302092,-0.310846,0.437438,0.293642,-0.342364,7.554974,0.989792,1.396056,-0.450045,0.486251,-0.011124,0.000000,0.000000,0.000000,0.000000,0.000000,0.000000
13199044.000000,2.309554,-0.967090,-1.822762,-1.389896,-0.931755,1.671383,0.452271,-0.163292,-0.148074,-0.186849,-0.313812,-0.330848,0.465315,0.294770,0.474897,7.800945,1.235763,0.777159,-0.353915,0.193282,0.048385,0.000000,0.000000,0.000000,0.000000,0.000000,0.000000
13199045.000000,2.309419,-0.967262,-1.822978,-1.390227,-0.932136,1.671927,0.452569,-0.150906,-0.157954,-0.194710,-0.320494,-0.349822,0.490186,0.291010,1.121564,7.971539,1.235763,0.186034,-0.306307,-0.027360,0.001693,0.000000,0.000000,0.000000,0.000000,0.000000,0.000000
13199046.000000,2.309296,-0.967434,-1.823206,-1.390562,-0.932545,1.672483,0.452862,-0.140286,-0.161935,-0.199825,-0.323536,-0.370108,0.511580,0.293096,1.514325,7.995342,1.184189,-0.333681,-0.318209,-0.027360,0.028243,0.000000,0.000000,0.000000,0.000000,0.000000,0.000000
13199047.000000,2.309184,-0.967597,-1.823434,-1.390903,-0.932961,1.673041,0.453154,-0.131178,-0.162094,-0.205557,-0.329241,-0.385303,0.520796,0.289342,1.641279,7.753338,1.061203,-0.853395,-0.330111,0.161239,-0.011124,0.000000,0.000000,0.000000,0.000000,0.000000,0.000000
13199048.000000,2.309083,-0.967756,-1.823680,-1.391253,-0.933397,1.673618,0.453436,-0.118143,-0.161286,-0.217315,-0.334172,-0.398311,0.540899,0.288054,1.565900,7.312969,0.890610,-1.174745,-0.282504,0.297652,0.034652,0.000000,0.000000,0.000000,0.000000,0.000000,0.000000
13199049.000000,2.308984,-0.967912,-1.823940,-1.391623,-0.933829,1.674237,0.453736,-0.108565,-0.161483,-0.229852,-0.344470,-0.404762,0.562710,0.291716,1.466718,6.773418,0.791427,-1.321535,-0.360323,0.297652,-0.017533,0.000000,0.000000,0.000000,0.000000,0.000000,0.000000
13199050.000000,2.308887,-0.968061,-1.824199,-1.391992,-0.934284,1.674904,0.454016,-0.105646,-0.158190,-0.237126,-0.352619,-0.409266,0.602599,0.291002,1.415143,6.134686,0.597031,-1.420717,-0.312716,0.096236,0.009017,0.000000,0.000000,0.000000,0.000000,0.000000,0.000000
13199051.000000,2.308791,-0.968232,-1.824485,-1.392385,-0.934741,1.675572,0.454302,-0.101661,-0.159623,-0.249360,-0.363623,-0.425913,0.619986,0.287671,1.292158,5.646709,0.549423,-1.420717,-0.282504,-0.047501,0.015426,0.000000,0.000000,0.000000,0.000000,0.000000,0.000000
13199052.000000,2.308709,-0.968410,-1.824769,-1.392789,-0.935211,1.676252,0.454582,-0.094917,-0.166697,-0.261579,-0.374995,-0.435454,0.636645,0.284850,1.022382,5.253948,0.474045,-1.396913,-0.211093,-0.008134,-0.011124,0.000000,0.000000,0.000000,0.000000,0.000000,0.000000
13199053.000000,2.308633,-0.968601,-1.825050,-1.393195,-0.935689,1.676943,0.454856,-0.086658,-0.175374,-0.265653,-0.383677,-0.444714,0.651611,0.283214,0.724836,5.035748,0.204269,-1.496095,-0.049044,0.050460,0.087753,0.000000,0.000000,0.000000,0.000000,0.000000,0.000000
13199054.000000,2.308565,-0.968802,-1.825365,-1.393615,-0.936153,1.677673,0.455148,-0.080420,-0.183852,-0.276949,-0.395984,-0.448399,0.669155,0.288541,0.403486,5.035748,0.398666,-1.571474,0.010465,0.089828,0.009017,0.000000,0.000000,0.000000,0.000000,0.000000,0.000000
13199055.000000,2.308492,-0.969025,-1.825664,-1.394044,-0.936621,1.678434,0.455427,-0.076589,-0.194994,-0.279984,-0.406997,-0.452233,0.701548,0.289767,0.375715,5.400738,0.644638,-1.694460,0.034269,0.050460,0.009017,0.000000,0.000000,0.000000,0.000000,0.000000,0.000000
13199056.000000,2.308414,-0.969266,-1.825959,-1.394498,-0.937088,1.679205,0.455701,-0.073504,-0.206041,-0.283067,-0.421252,-0.456098,0.726589,0.284028,0.625654,6.210064,1.136581,-1.742067,0.135892,0.011092,0.081344,0.000000,0.000000,0.000000,0.000000,0.000000,0.000000
13199057.000000,2.308335,-0.969509,-1.826256,-1.394978,-0.937533,1.680015,0.455989,-0.076175,-0.218150,-0.286585,-0.437673,-0.451187,0.748554,0.290511,1.121564,7.237591,1.945907,-1.694460,0.046171,-0.008134,-0.023942,0.000000,0.000000,0.000000,0.000000,0.000000,0.000000
13199058.000000,2.308253,-0.969764,-1.826541,-1.395453,-0.937977,1.680830,0.456260,-0.082100,-0.231180,-0.289417,-0.450072,-0.444446,0.773709,0.277294,1.811872,8.511089,2.929794,-1.742067,-0.001437,-0.027360,0.061202,0.000000,0.000000,0.000000,0.000000,0.000000,0.000000
13199059.000000,2.308164,-0.970011,-1.826814,-1.395950,-0.938422,1.681668,0.456536,-0.085347,-0.241316,-0.287392,-0.463854,-0.452406,0.787232,0.278374,2.652936,9.586224,3.810531,-1.718263,0.069974,0.017501,0.061202,0.000000,0.000000,0.000000,0.000000,0.000000,0.000000
13199060.000000,2.308069,-0.970256,-1.827102,-1.396475,-0.938852,1.682530,0.456811,-0.087807,-0.241553,-0.287348,-0.484236,-0.443390,0.804132,0.274180,3.521772,10.371746,4.818222,-1.448488,-0.049044,0.050460,-0.004716,0.000000,0.000000,0.000000,0.000000,0.000000,0.000000
13199061.000000,2.307970,-0.970506,-1.827386,-1.397016,-0.939285,1.683376,0.457072,-0.095686,-0.245485,-0.290613,-0.506210,-0.436154,0.818243,0.267658,4.410444,10.935101,5.528366,-1.250124,-0.072848,0.069686,0.054794,0.000000,0.000000,0.000000,0.000000,0.000000,0.000000
13199062.000000,2.307863,-0.970751,-1.827684,-1.397567,-0.939720,1.684211,0.457343,-0.104103,-0.247574,-0.298536,-0.515263,-0.437959,0.812009,0.277392,5.303083,11.276287,6.167099,-1.150941,-0.019747,0.186874,0.061202,0.000000,0.000000,0.000000,0.000000,0.000000,0.000000
13199063.000000,2.307765,-0.971012,-1.827989,-1.398134,-0.940164,1.685056,0.457609,-0.102713,-0.254417,-0.304789,-0.530941,-0.437712,0.814434,0.276035,5.973554,11.546062,6.706650,-1.000185,0.010465,0.251876,0.067611,0.000000,0.000000,0.000000,0.000000,0.000000,0.000000
13199064.000000,2.307648,-0.971292,-1.828306,-1.398707,-0.940611,1.685871,0.457887,-0.106572,-0.260878,-0.310202,-0.547956,-0.439974,0.814949,0.280715,6.763044,11.839642,7.127182,-1.027956,0.093778,0.297652,0.028243,0.000000,0.000000,0.000000,0.000000,0.000000,0.000000
13199065.000000,2.307535,-0.971579,-1.828618,-1.399290,-0.941065,1.686676,0.458150,-0.106543,-0.268708,-0.316461,-0.555016,-0.447705,0.803167,0.272967,7.405744,12.109417,7.420761,-1.226320,0.189908,0.408431,0.041976,0.000000,0.000000,0.000000,0.000000,0.000000,0.000000
13199066.000000,2.307416,-0.971898,-1.828953,-1.399872,-0.941515,1.687484,0.458421,-0.109857,-0.286361,-0.324534,-0.561438,-0.447946,0.803735,0.272637,8.052411,12.621197,7.837326,-1.472292,0.178007,0.362655,0.034652,0.000000,0.000000,0.000000,0.000000,0.000000,0.000000
13199067.000000,2.307297,-0.972238,-1.829281,-1.400467,-0.941962,1.688294,0.458694,-0.110511,-0.309287,-0.322059,-0.567997,-0.445614,0.804489,0.272988,8.643537,13.212322,7.960312,-1.769838,0.201810,0.284835,0.028243,0.000000,0.000000,0.000000,0.000000,0.000000,0.000000
13199068.000000,2.307172,-0.972599,-1.829617,-1.401062,-0.942418,1.689096,0.458960,-0.113328,-0.327008,-0.323472,-0.580594,-0.444570,0.799969,0.272616,9.262433,13.894695,8.154709,-2.063417,0.129484,0.239059,0.028243,0.000000,0.000000,0.000000,0.000000,0.000000,0.000000
13199069.000000,2.307036,-0.972989,-1.829960,-1.401672,-0.942884,1.689888,0.459229,-0.122878,-0.347489,-0.325692,-0.585218,-0.446033,0.798347,0.274504,9.932904,14.656414,8.301498,-2.313356,0.112089,0.219833,0.021835,0.000000,0.000000,0.000000,0.000000,0.000000,0.000000
13199070.000000,2.306903,-0.973382,-1.830305,-1.402292,-0.943344,1.690685,0.459485,-0.126919,-0.359710,-0.331447,-0.589551,-0.453642,0.800083,0.272419,10.377240,15.414165,8.452255,-2.436342,0.141385,0.167648,0.067611,0.000000,0.000000,0.000000,0.000000,0.000000,0.000000
13199071.000000,2.306761,-0.973790,-1.830643,-1.402916,-0.943808,1.691469,0.459762,-0.130255,-0.375897,-0.335984,-0.596998,-0.456756,0.780353,0.273828,10.575604,16.247295,8.547470,-2.063417,0.105680,0.167648,0.028243,0.000000,0.000000,0.000000,0.000000,0.000000,0.000000
13199072.000000,2.306595,-0.974205,-1.830983,-1.403534,-0.944267,1.692263,0.460038,-0.145711,-0.384002,-0.335033,-0.596108,-0.450942,0.781434,0.274220,10.698590,17.028851,8.547470,-1.349306,0.093778,0.239059,0.009017,0.000000,0.000000,0.000000,0.000000,0.000000,0.000000
13199073.000000,2.306426,-0.974616,-1.831331,-1.404140,-0.944730,1.693062,0.460311,-0.152662,-0.393225,-0.338989,-0.595037,-0.460171,0.790269,0.272569,10.476422,17.810406,8.670456,-0.262270,0.004056,0.284835,0.034652,0.000000,0.000000,0.000000,0.000000,0.000000,0.000000
13199074.000000,2.306255,-0.975041,-1.831690,-1.404753,-0.945204,1.693852,0.460588,-0.156522,-0.397228,-0.342696,-0.601203,-0.462331,0.791306,0.273850,10.008283,18.496746,8.793442,1.122313,-0.019747,0.394698,0.041976,0.000000,0.000000,0.000000,0.000000,0.000000,0.000000
13199075.000000,2.306072,-0.975448,-1.832044,-1.405360,-0.945674,1.694650,0.460856,-0.158703,-0.398946,-0.346442,-0.604424,-0.463744,0.790379,0.271315,9.488568,18.960918,8.868820,2.629881,0.069974,0.557662,0.100570,0.000000,0.000000,0.000000,0.000000,0.000000,0.000000
13199076.000000,2.305895,-0.975866,-1.832405,-1.405960,-0.946145,1.695428,0.461141,-0.160445,-0.400972,-0.352506,-0.605007,-0.463640,0.792394,0.274460,8.893476,19.306072,9.087021,4.137450,0.027860,0.785628,0.028243,0.000000,0.000000,0.000000,0.000000,0.000000,0.000000
13199077.000000,2.305714,-0.976280,-1.832768,-1.406564,-0.946601,1.696222,0.461416,-0.162568,-0.400291,-0.353155,-0.607904,-0.459590,0.793901,0.275110,8.349957,19.524273,9.186203,5.522032,-0.055453,0.960494,0.054794,0.000000,0.000000,0.000000,0.000000,0.000000,0.000000
13199078.000000,2.305549,-0.976703,-1.833136,-1.407166,-0.947081,1.697020,0.461686,-0.163747,-0.405660,-0.359319,-0.605180,-0.470618,0.793101,0.274180,7.679487,19.698833,9.356796,6.684447,0.015958,1.084090,0.061202,0.000000,0.000000,0.000000,0.000000,0.000000,0.000000
13199079.000000,2.305386,-0.977133,-1.833515,-1.407766,-0.947562,1.697803,0.461951,-0.163729,-0.408751,-0.365128,-0.607373,-0.470491,0.793051,0.272488,7.060590,19.845623,9.578964,7.624693,-0.001437,1.136276,0.074935,0.000000,0.000000,0.000000,0.000000,0.000000,0.000000
13199080.000000,2.305221,-0.977568,-1.833898,-1.408370,-0.948024,1.698587,0.462233,-0.160903,-0.416663,-0.370986,-0.610003,-0.465435,0.781781,0.280401,6.540876,19.917034,9.824936,8.291197,-0.025240,1.240646,0.009017,0.000000,0.000000,0.000000,0.000000,0.000000,0.000000
13199081.000000,2.305066,-0.978019,-1.834277,-1.408949,-0.948519,1.699355,0.462497,-0.160231,-0.426866,-0.373206,-0.597258,-0.477040,0.775064,0.276329,6.068769,20.016216,10.023300,8.588743,0.069974,1.409103,0.061202,0.000000,0.000000,0.000000,0.000000,0.000000,0.000000
13199082.000000,2.304931,-0.978481,-1.834678,-1.409542,-0.949007,1.700113,0.462769,-0.148576,-0.432974,-0.380411,-0.592310,-0.481984,0.765930,0.276861,5.426069,20.040020,10.364487,8.763304,0.105680,1.435653,0.067611,0.000000,0.000000,0.000000,0.000000,0.000000,0.000000
13199083.000000,2.304794,-0.978949,-1.835073,-1.410125,-0.949490,1.700897,0.463042,-0.143046,-0.445923,-0.388475,-0.587600,-0.488664,0.769795,0.277934,4.882551,20.139202,10.610458,8.636351,0.154203,1.344100,0.009017,0.000000,0.000000,0.000000,0.000000,0.000000,0.000000
13199084.000000,2.304667,-0.979424,-1.835475,-1.410688,-0.949987,1.701661,0.463303,-0.138608,-0.449582,-0.389871,-0.580623,-0.489017,0.772764,0.272948,4.339033,20.163006,10.904037,8.390379,0.178007,1.312057,0.094161,0.000000,0.000000,0.000000,0.000000,0.000000,0.000000
13199085.000000,2.304539,-0.979910,-1.835875,-1.411259,-0.950467,1.702434,0.463587,-0.134090,-0.471231,-0.392828,-0.572340,-0.480026,0.768166,0.276423,3.890729,20.258221,11.102402,8.120604,0.166105,1.234237,-0.004716,0.000000,0.000000,0.000000,0.000000,0.000000,0.000000
13199086.000000,2.304422,-0.980398,-1.836274,-1.411829,-0.950964,1.703204,0.463845,-0.127709,-0.471849,-0.395130,-0.566830,-0.481619,0.764810,0.273456,3.446393,20.357403,11.395981,7.946043,0.141385,1.259872,0.041976,0.000000,0.000000,0.000000,0.000000,0.000000,0.000000
13199087.000000,2.304314,-0.980907,-1.836681,-1.412393,-0.951478,1.703964,0.464108,-0.120351,-0.479437,-0.396271,-0.565888,-0.486211,0.766966,0.273281,3.025861,20.797771,11.836349,7.747679,0.308927,1.279098,0.074935,0.000000,0.000000,0.000000,0.000000,0.000000,0.000000
13199088.000000,2.304214,-0.981400,-1.837084,-1.412952,-0.951977,1.704734,0.464375,-0.113275,-0.487352,-0.395752,-0.559770,-0.495569,0.759331,0.270925,2.680707,21.460308,12.498886,7.624693,0.410551,1.324874,-0.004716,0.000000,0.000000,0.000000,0.000000,0.000000,0.000000
13199089.000000,2.304111,-0.981898,-1.837474,-1.413507,-0.952479,1.705509,0.464631,-0.109175,-0.486372,-0.394575,-0.557351,-0.494789,0.770977,0.268912,2.529951,22.293438,13.284409,7.672301,0.416959,1.247054,0.048385,0.000000,0.000000,0.000000,0.000000,0.000000,0.000000
13199090.000000,2.304016,-0.982390,-1.837858,-1.414068,-0.952973,1.706288,0.464901,-0.104753,-0.490333,-0.392362,-0.558951,-0.502474,0.770575,0.265758,2.359357,23.221783,14.046127,7.922240,0.482877,1.227828,0.015426,0.000000,0.000000,0.000000,0.000000,0.000000,0.000000
13199091.000000,2.303938,-0.982884,-1.838242,-1.414615,-0.953470,1.707068,0.465160,-0.098405,-0.495590,-0.392622,-0.554608,-0.497764,0.767485,0.260233,2.085615,24.273113,14.907028,8.192015,0.386747,1.312057,0.061202,0.000000,0.000000,0.000000,0.000000,0.000000,0.000000
13199092.000000,2.303858,-0.983390,-1.838631,-1.415167,-0.953970,1.707832,0.465429,-0.092291,-0.503061,-0.394946,-0.552777,-0.494446,0.770436,0.258811,1.863447,25.399822,15.692551,8.414183,0.344633,1.409103,0.021835,0.000000,0.000000,0.000000,0.000000,0.000000,0.000000
13199093.000000,2.303794,-0.983876,-1.839021,-1.415721,-0.954465,1.708588,0.465686,-0.084053,-0.498570,-0.394280,-0.555041,-0.499571,0.755793,0.254197,1.490522,26.232952,16.426498,8.711729,0.381254,1.637069,0.054794,0.000000,0.000000,0.000000,0.000000,0.000000,0.000000
13199094.000000,2.303727,-0.984376,-1.839401,-1.416271,-0.954965,1.709358,0.465954,-0.078581,-0.501731,-0.395767,-0.553532,-0.494795,0.755854,0.259512,1.268354,27.066082,17.041428,9.108458,0.332731,1.800033,0.028243,0.000000,0.000000,0.000000,0.000000,0.000000,0.000000
13199095.000000,2.303667,-0.984885,-1.839791,-1.416838,-0.955467,1.710120,0.466220,-0.072890,-0.501653,-0.395368,-0.554231,-0.495342,0.759433,0.265468,0.994611,27.946819,17.557175,9.477415,0.339139,1.825668,0.015426,0.000000,0.000000,0.000000,0.000000,0.000000,0.000000
13199096.000000,2.303614,-0.985400,-1.840180,-1.417406,-0.955981,1.710902,0.466477,-0.064694,-0.508940,-0.401699,-0.562796,-0.498038,0.764992,0.260479,0.673261,28.851360,17.997543,9.822569,0.440763,1.741439,0.054794,0.000000,0.000000,0.000000,0.000000,0.000000,0.000000
13199097.000000,2.303572,-0.985939,-1.840589,-1.417966,-0.956494,1.711677,0.466740,-0.056671,-0.514199,-0.402525,-0.561413,-0.498955,0.768207,0.258714,0.276533,29.954266,18.513290,10.048704,0.500272,1.624252,0.021835,0.000000,0.000000,0.000000,0.000000,0.000000,0.000000
13199098.000000,2.303528,-0.986489,-1.840991,-1.418529,-0.957009,1.712447,0.466999,-0.052174,-0.526622,-0.402801,-0.555391,-0.510036,0.767125,0.265351,-0.068621,31.104778,18.882248,10.120115,0.601896,1.584884,0.074935,0.000000,0.000000,0.000000,0.000000,0.000000,0.000000
13199099.000000,2.303491,-0.987058,-1.841385,-1.419085,-0.957524,1.713215,0.467263,-0.044996,-0.542013,-0.394778,-0.558563,-0.510851,0.766999,0.267021,-0.465350,32.279095,19.128220,10.171690,0.644010,1.656295,0.074935,0.000000,0.000000,0.000000,0.000000,0.000000,0.000000
13199100.000000,2.303466,-0.987640,-1.841787,-1.419646,-0.958025,1.713979,0.467535,-0.040665,-0.552974,-0.397297,-0.557096,-0.506337,0.769225,0.271707,-0.933489,33.306622,19.374191,10.195494,0.542386,1.630660,0.034652,0.000000,0.000000,0.000000,0.000000,0.000000,0.000000
13199101.000000,2.303442,-0.988221,-1.842190,-1.420202,-0.958527,1.714753,0.467797,-0.034979,-0.563745,-0.397027,-0.554881,-0.507863,0.765811,0.272256,-1.381793,34.286541,19.520981,10.048704,0.506681,1.546432,0.034652,0.000000,0.000000,0.000000,0.000000,0.000000,0.000000
13199102.000000,2.303423,-0.988811,-1.842598,-1.420753,-0.959026,1.715510,0.468061,-0.028426,-0.570159,-0.400524,-0.559638,-0.500300,0.766636,0.271466,-1.802325,35.091900,19.766953,9.997129,0.428861,1.565658,0.054794,0.000000,0.000000,0.000000,0.000000,0.000000,0.000000
13199103.000000,2.303404,-0.989391,-1.843003,-1.421313,-0.959519,1.716283,0.468325,-0.024997,-0.570035,-0.402706,-0.554106,-0.495022,0.768994,0.270681,-2.147479,35.631451,19.913742,9.997129,0.327238,1.584884,0.087753,0.000000,0.000000,0.000000,0.000000,0.000000,0.000000
13199104.000000,2.303383,-0.989982,-1.843403,-1.421865,-0.960025,1.717059,0.468597,-0.021314,-0.573817,-0.401108,-0.551931,-0.496227,0.768495,0.269402,-2.421221,36.171001,20.008957,9.921751,0.374845,1.519881,-0.004716,0.000000,0.000000,0.000000,0.000000,0.000000,0.000000
13199105.000000,2.303363,-0.990571,-1.843821,-1.422433,-0.960533,1.717817,0.468852,-0.022669,-0.572835,-0.405655,-0.561196,-0.504186,0.760750,0.268969,-2.643389,36.563763,20.231125,10.020933,0.458158,1.519881,0.067611,0.000000,0.000000,0.000000,0.000000,0.000000,0.000000
13199106.000000,2.303341,-0.991148,-1.844233,-1.423003,-0.961043,1.718579,0.469112,-0.021938,-0.570468,-0.406656,-0.561752,-0.504200,0.754923,0.265639,-2.790179,36.805767,20.401718,10.171690,0.530485,1.539108,0.041976,0.000000,0.000000,0.000000,0.000000,0.000000,0.000000
13199107.000000,2.303304,-0.991727,-1.844634,-1.423572,-0.961552,1.719332,0.469367,-0.026518,-0.568868,-0.404040,-0.567878,-0.503292,0.757087,0.262356,-2.690997,36.928753,20.453293,10.393858,0.584501,1.513473,0.034652,0.000000,0.000000,0.000000,0.000000,0.000000,0.000000
13199108.000000,2.303274,-0.992311,-1.845045,-1.424146,-0.962052,1.720081,0.469626,-0.026101,-0.572835,-0.402825,-0.572888,-0.509245,0.754445,0.263181,-2.718768,37.075542,20.600082,10.663633,0.547880,1.539108,0.081344,0.000000,0.000000,0.000000,0.000000,0.000000,0.000000
13199109.000000,2.303236,-0.992893,-1.845447,-1.424710,-0.962561,1.720840,0.469887,-0.029891,-0.571217,-0.405752,-0.573214,-0.511520,0.750626,0.260734,-2.568011,37.273907,20.623886,10.937376,0.547880,1.507064,0.074935,0.000000,0.000000,0.000000,0.000000,0.000000,0.000000
13199110.000000,2.303198,-0.993486,-1.845854,-1.425281,-0.963066,1.721586,0.470161,-0.032237,-0.575079,-0.405898,-0.568865,-0.508410,0.742484,0.265494,-2.421221,37.468304,20.699265,11.135740,0.488370,1.546432,0.009017,0.000000,0.000000,0.000000,0.000000,0.000000,0.000000
13199111.000000,2.303158,-0.994076,-1.846265,-1.425862,-0.963568,1.722317,0.470416,-0.036436,-0.583268,-0.411148,-0.572284,-0.506404,0.736530,0.269676,-2.298235,37.714275,20.846054,11.528502,0.422452,1.708480,0.028243,0.000000,0.000000,0.000000,0.000000,0.000000,0.000000
13199112.000000,2.303110,-0.994680,-1.846660,-1.426421,-0.964073,1.723062,0.470674,-0.042722,-0.583908,-0.409787,-0.570417,-0.506700,0.734629,0.263542,-2.024493,38.103069,20.846054,11.703062,0.416959,1.819259,0.067611,0.000000,0.000000,0.000000,0.000000,0.000000,0.000000
13199113.000000,2.303063,-0.995297,-1.847079,-1.426985,-0.964592,1.723803,0.470947,-0.045786,-0.594138,-0.416517,-0.567714,-0.508002,0.736825,0.270521,-1.802325,38.543438,20.992844,11.826048,0.381254,1.793624,0.001693,0.000000,0.000000,0.000000,0.000000,0.000000,0.000000
13199114.000000,2.303007,-0.995914,-1.847488,-1.427553,-0.965095,1.724542,0.471197,-0.051427,-0.604480,-0.416359,-0.566725,-0.507406,0.732304,0.262937,-1.453204,39.082989,21.115829,12.000608,0.339139,1.760665,0.074935,0.000000,0.000000,0.000000,0.000000,0.000000,0.000000
13199115.000000,2.302949,-0.996539,-1.847898,-1.428106,-0.965621,1.725272,0.471461,-0.055552,-0.608420,-0.419506,-0.563582,-0.519606,0.733796,0.261145,-1.084246,39.693951,21.163437,12.171202,0.393156,1.767074,0.028243,0.000000,0.000000,0.000000,0.000000,0.000000,0.000000
13199116.000000,2.302883,-0.997151,-1.848315,-1.428669,-0.966134,1.726020,0.471722,-0.059453,-0.617032,-0.420361,-0.563624,-0.516992,0.738040,0.259454,-0.663714,40.086712,21.262619,12.369566,0.374845,1.714889,0.009017,0.000000,0.000000,0.000000,0.000000,0.000000,0.000000
13199117.000000,2.302825,-0.997775,-1.848736,-1.429227,-0.966655,1.726767,0.471975,-0.062135,-0.617616,-0.422731,-0.563303,-0.523313,0.736382,0.260413,-0.366168,40.380291,21.433212,12.643309,0.410551,1.649886,0.061202,0.000000,0.000000,0.000000,0.000000,0.000000,0.000000
13199118.000000,2.302755,-0.998394,-1.849155,-1.429784,-0.967195,1.727492,0.472249,-0.067203,-0.617300,-0.419232,-0.561477,-0.528948,0.740358,0.261875,0.054365,40.626263,21.508591,12.865477,0.524076,1.682845,0.009017,0.000000,0.000000,0.000000,0.000000,0.000000,0.000000
13199119.000000,2.302679,-0.999014,-1.849577,-1.430353,-0.967711,1.728217,0.472507,-0.072073,-0.618650,-0.420336,-0.563053,-0.524213,0.728555,0.256660,0.526471,41.042828,21.631577,13.087645,0.506681,1.779891,0.074935,0.000000,0.000000,0.000000,0.000000,0.000000,0.000000
13199120.000000,2.302606,-0.999635,-1.849988,-1.430917,-0.968239,1.728937,0.472779,-0.073963,-0.615396,-0.421434,-0.562909,-0.521772,0.736664,0.260122,0.923200,41.312603,21.679184,13.357420,0.428861,1.877853,0.034652,0.000000,0.000000,0.000000,0.000000,0.000000,0.000000
13199121.000000,2.302530,-1.000243,-1.850419,-1.431476,-0.968761,1.729667,0.473045,-0.074930,-0.612348,-0.423793,-0.560587,-0.518697,0.731410,0.261066,1.315961,41.530804,21.877548,13.456602,0.381254,1.871444,0.081344,0.000000,0.000000,0.000000,0.000000,0.000000,0.000000
13199122.000000,2.302459,-1.000849,-1.850839,-1.432024,-0.969288,1.730413,0.473321,-0.074495,-0.612379,-0.425356,-0.558044,-0.522935,0.735790,0.266217,1.641279,41.554607,22.048141,13.484373,0.291532,1.800033,0.021835,0.000000,0.000000,0.000000,0.000000,0.000000,0.000000
13199123.000000,2.302381,-1.001451,-1.851260,-1.432575,-0.969818,1.731132,0.473589,-0.075370,-0.599395,-0.428518,-0.553019,-0.523839,0.734338,0.261225,2.034040,41.459393,22.194931,13.484373,0.255826,1.858627,0.028243,0.000000,0.000000,0.000000,0.000000,0.000000,0.000000
13199124.000000,2.302299,-1.002049,-1.851691,-1.433116,-0.970354,1.731844,0.473852,-0.079866,-0.598291,-0.432842,-0.548640,-0.529631,0.715174,0.262233,2.454572,41.384014,22.417099,13.357420,0.374845,1.968490,0.081344,0.000000,0.000000,0.000000,0.000000,0.000000,0.000000
13199125.000000,2.302229,-1.002651,-1.852138,-1.433649,-0.970895,1.732559,0.474125,-0.077970,-0.598831,-0.441715,-0.542999,-0.532889,0.715660,0.262356,2.652936,41.237225,22.833664,13.210630,0.422452,2.020675,0.009017,0.000000,0.000000,0.000000,0.000000,0.000000,0.000000
13199126.000000,2.302158,-1.003238,-1.852569,-1.434176,-0.971423,1.733292,0.474394,-0.076992,-0.597279,-0.436087,-0.534281,-0.540848,0.720604,0.271739,2.851301,40.967449,23.004257,13.012266,0.494779,2.020675,0.028243,0.000000,0.000000,0.000000,0.000000,0.000000,0.000000
13199127.000000,2.302085,-1.003816,-1.853004,-1.434694,-0.971965,1.734024,0.474660,-0.076766,-0.586975,-0.439804,-0.528702,-0.541964,0.719697,0.270076,3.073469,40.697674,23.297836,12.690916,0.559781,2.027084,0.081344,0.000000,0.000000,0.000000,0.000000,0.000000,0.000000
13199128.000000,2.302021,-1.004411,-1.853453,-1.435191,-0.972494,1.734750,0.474940,-0.074527,-0.580983,-0.447043,-0.518632,-0.536154,0.726540,0.266880,3.172651,40.550884,23.666794,12.222776,0.524076,1.981307,0.021835,0.000000,0.000000,0.000000,0.000000,0.000000,0.000000
13199129.000000,2.301959,-1.005000,-1.853903,-1.435686,-0.973033,1.735478,0.475211,-0.071517,-0.583423,-0.443958,-0.508504,-0.540011,0.716116,0.272005,3.224226,40.503277,23.936569,11.778440,0.559781,2.020675,0.009017,0.000000,0.000000,0.000000,0.000000,0.000000,0.000000
13199130.000000,2.301906,-1.005578,-1.854348,-1.436157,-0.973576,1.736210,0.475476,-0.064603,-0.580463,-0.435834,-0.494224,-0.538013,0.717147,0.270681,3.200422,40.257305,24.281723,11.282530,0.584501,2.053634,0.041976,0.000000,0.000000,0.000000,0.000000,0.000000,0.000000
13199131.000000,2.301843,-1.006162,-1.854801,-1.436633,-0.974111,1.736928,0.475753,-0.063623,-0.572528,-0.441815,-0.485026,-0.543079,0.714776,0.273669,3.323408,40.039104,24.650681,10.814390,0.506681,2.027084,0.028243,0.000000,0.000000,0.000000,0.000000,0.000000,0.000000
13199132.000000,2.301786,-1.006733,-1.855244,-1.437105,-0.974654,1.737660,0.476024,-0.063768,-0.574091,-0.434400,-0.481190,-0.546412,0.714437,0.274450,3.347211,39.721722,24.920456,10.441465,0.566190,2.020675,-0.004716,0.000000,0.000000,0.000000,0.000000,0.000000,0.000000
13199133.000000,2.301737,-1.007313,-1.855704,-1.437568,-0.975197,1.738373,0.476288,-0.061316,-0.575845,-0.438059,-0.474465,-0.547755,0.714254,0.266699,3.271833,39.475750,25.214035,10.219297,0.589994,2.079269,0.034652,0.000000,0.000000,0.000000,0.000000,0.000000,0.000000
13199134.000000,2.301687,-1.007878,-1.856160,-1.438035,-0.975747,1.739085,0.476556,-0.060646,-0.581146,-0.436641,-0.473285,-0.548457,0.707594,0.263840,3.248029,39.229778,25.483810,10.072508,0.613798,2.112228,0.009017,0.000000,0.000000,0.000000,0.000000,0.000000,0.000000
13199135.000000,2.301632,-1.008461,-1.856605,-1.438481,-0.976302,1.739806,0.476815,-0.056697,-0.580053,-0.438016,-0.462001,-0.550464,0.710949,0.259999,3.299604,39.130596,25.630600,9.850340,0.715421,2.118636,0.028243,0.000000,0.000000,0.000000,0.000000,0.000000,0.000000
13199136.000000,2.301597,-1.009042,-1.857064,-1.438937,-0.976856,1.740511,0.477078,-0.047405,-0.580214,-0.443320,-0.458735,-0.548392,0.708770,0.263737,3.125043,38.983807,25.852768,9.751158,0.679716,2.137862,0.048385,0.000000,0.000000,0.000000,0.000000,0.000000,0.000000
13199137.000000,2.301558,-1.009611,-1.857519,-1.439384,-0.977407,1.741234,0.477346,-0.042655,-0.579649,-0.441288,-0.452305,-0.550892,0.706140,0.262122,3.025861,38.912395,25.975754,9.675779,0.739225,2.092086,0.015426,0.000000,0.000000,0.000000,0.000000,0.000000,0.000000
13199138.000000,2.301522,-1.010195,-1.857963,-1.439831,-0.977966,1.741932,0.477611,-0.040250,-0.577183,-0.446444,-0.451036,-0.550296,0.718670,0.261643,2.926679,38.960003,26.122543,9.699583,0.774930,2.104903,0.041976,0.000000,0.000000,0.000000,0.000000,0.000000,0.000000
13199139.000000,2.301493,-1.010794,-1.858412,-1.440283,-0.978501,1.742645,0.477875,-0.032798,-0.581178,-0.443502,-0.452313,-0.542554,0.715084,0.260218,2.752119,39.082989,26.269333,9.874144,0.703519,2.157089,0.015426,0.000000,0.000000,0.000000,0.000000,0.000000,0.000000
13199140.000000,2.301464,-1.011382,-1.858854,-1.440729,-0.979053,1.743362,0.478136,-0.032012,-0.585377,-0.443166,-0.458158,-0.544749,0.714714,0.257196,2.629133,39.281353,26.293137,10.072508,0.733732,2.209274,0.034652,0.000000,0.000000,0.000000,0.000000,0.000000,0.000000
13199141.000000,2.301444,-1.011967,-1.859291,-1.441183,-0.979607,1.744060,0.478399,-0.028787,-0.581150,-0.441397,-0.462022,-0.546415,0.708098,0.255092,2.406965,39.376568,26.269333,10.318480,0.739225,2.202865,0.034652,0.000000,0.000000,0.000000,0.000000,0.000000,0.000000
13199142.000000,2.301417,-1.012563,-1.859726,-1.441646,-0.980141,1.744781,0.478659,-0.029200,-0.583540,-0.440337,-0.459498,-0.548707,0.705712,0.254865,2.283979,39.646343,26.221725,10.663633,0.667814,2.150680,0.015426,0.000000,0.000000,0.000000,0.000000,0.000000,0.000000
13199143.000000,2.301396,-1.013151,-1.860145,-1.442103,-0.980692,1.745492,0.478913,-0.028689,-0.584616,-0.439035,-0.462032,-0.554090,0.705033,0.252624,2.133222,39.793133,26.047165,11.012754,0.632108,2.157089,0.048385,0.000000,0.000000,0.000000,0.000000,0.000000,0.000000
13199144.000000,2.301390,-1.013744,-1.860576,-1.442557,-0.981236,1.746185,0.479176,-0.021719,-0.586317,-0.434468,-0.458050,-0.552971,0.695593,0.260842,1.835676,39.939922,25.924179,11.159544,0.637601,2.248641,0.015426,0.000000,0.000000,0.000000,0.000000,0.000000,0.000000
13199145.000000,2.301388,-1.014334,-1.860994,-1.443018,-0.981787,1.746890,0.479433,-0.015697,-0.584349,-0.426761,-0.460477,-0.546931,0.700486,0.262361,1.490522,40.086712,25.777390,11.306334,0.637601,2.248641,0.054794,0.000000,0.000000,0.000000,0.000000,0.000000,0.000000
13199146.000000,2.301384,-1.014924,-1.861411,-1.443479,-0.982339,1.747599,0.479703,-0.010741,-0.583090,-0.425684,-0.462534,-0.542952,0.700354,0.260251,1.244550,40.062908,25.582993,11.504698,0.667814,2.177230,0.021835,0.000000,0.000000,0.000000,0.000000,0.000000,0.000000
13199147.000000,2.301383,-1.015497,-1.861825,-1.443950,-0.982878,1.748313,0.479970,-0.009960,-0.583321,-0.420666,-0.462660,-0.543465,0.699076,0.266157,0.994611,39.868511,25.313217,11.703062,0.625699,2.137862,0.034652,0.000000,0.000000,0.000000,0.000000,0.000000,0.000000
13199148.000000,2.301386,-1.016069,-1.862235,-1.444420,-0.983429,1.749019,0.480230,-0.006217,-0.572391,-0.410992,-0.464521,-0.545144,0.696465,0.263010,0.748639,39.574932,25.091049,11.949034,0.644010,2.112228,0.021835,0.000000,0.000000,0.000000,0.000000,0.000000,0.000000
13199149.000000,2.301400,-1.016658,-1.862635,-1.444899,-0.983984,1.749724,0.480491,0.001412,-0.574444,-0.399382,-0.468275,-0.551659,0.699024,0.262772,0.427289,39.451946,24.797470,12.147398,0.655912,2.079269,0.001693,0.000000,0.000000,0.000000,0.000000,0.000000,0.000000
13199150.000000,2.301413,-1.017240,-1.863026,-1.445373,-0.984524,1.750433,0.480747,0.003865,-0.577895,-0.395530,-0.471399,-0.549952,0.697385,0.264248,0.105939,39.376568,24.503891,12.298155,0.637601,2.085677,0.021835,0.000000,0.000000,0.000000,0.000000,0.000000,0.000000
13199151.000000,2.301419,-1.017814,-1.863416,-1.445842,-0.985072,1.751127,0.481009,0.002800,-0.573384,-0.394409,-0.469768,-0.551635,0.710001,0.267296,-0.092425,39.182171,24.206345,12.468748,0.632108,2.137862,-0.004716,0.000000,0.000000,0.000000,0.000000,0.000000,0.000000
13199152.000000,2.301430,-1.018390,-1.863807,-1.446318,-0.985618,1.751827,0.481257,0.003408,-0.583777,-0.389592,-0.470825,-0.545437,0.705724,0.260850,-0.342364,39.130596,23.936569,12.643309,0.620206,2.144271,0.061202,0.000000,0.000000,0.000000,0.000000,0.000000,0.000000
13199153.000000,2.301441,-1.018976,-1.864188,-1.446787,-0.986159,1.752547,0.481512,0.006259,-0.581269,-0.387337,-0.470339,-0.543554,0.707362,0.254532,-0.564532,39.059185,23.765976,12.790098,0.601896,2.079269,0.028243,0.000000,0.000000,0.000000,0.000000,0.000000,0.000000
13199154.000000,2.301456,-1.019560,-1.864571,-1.447260,-0.986710,1.753251,0.481761,0.008462,-0.582641,-0.385117,-0.470480,-0.542723,0.711580,0.259302,-0.786700,39.011578,23.595383,12.889280,0.535978,2.047225,0.067611,0.000000,0.000000,0.000000,0.000000,0.000000,0.000000
13199155.000000,2.301471,-1.020129,-1.864954,-1.447728,-0.987263,1.753952,0.482016,0.015952,-0.577175,-0.384199,-0.464337,-0.545781,0.697660,0.258068,-0.985064,38.936199,23.420822,12.913084,0.554288,2.039901,0.054794,0.000000,0.000000,0.000000,0.000000,0.000000,0.000000
13199156.000000,2.301494,-1.020707,-1.865329,-1.448203,-0.987826,1.754651,0.482279,0.018954,-0.570405,-0.384036,-0.467000,-0.550394,0.710216,0.258292,-1.207232,38.789410,23.174850,13.036070,0.547880,2.104903,0.001693,0.000000,0.000000,0.000000,0.000000,0.000000,0.000000
13199157.000000,2.301508,-1.021280,-1.865707,-1.448686,-0.988381,1.755361,0.482528,0.017272,-0.569630,-0.380174,-0.467555,-0.551892,0.706624,0.254172,-1.254840,38.642620,23.055832,13.262205,0.547880,2.118636,0.061202,0.000000,0.000000,0.000000,0.000000,0.000000,0.000000
13199158.000000,2.301522,-1.021848,-1.866077,-1.449152,-0.988951,1.756082,0.482785,0.015853,-0.573153,-0.380642,-0.465580,-0.552360,0.706067,0.255677,-1.282611,38.519634,22.905075,13.309813,0.589994,2.079269,0.009017,0.000000,0.000000,0.000000,0.000000,0.000000,0.000000
13199159.000000,2.301543,-1.022421,-1.866457,-1.449632,-0.989509,1.756782,0.483042,0.017447,-0.564879,-0.378672,-0.470146,-0.555535,0.714202,0.252846,-1.405596,38.396648,22.809860,13.531981,0.547880,2.072860,0.034652,0.000000,0.000000,0.000000,0.000000,0.000000,0.000000
13199160.000000,2.301555,-1.022984,-1.866835,-1.450109,-0.990066,1.757487,0.483296,0.012937,-0.565882,-0.380690,-0.466848,-0.558138,0.706531,0.256614,-1.429400,38.249859,22.663071,13.777952,0.542386,2.112228,0.021835,0.000000,0.000000,0.000000,0.000000,0.000000,0.000000
13199161.000000,2.301571,-1.023557,-1.867203,-1.450571,-0.990636,1.758200,0.483551,0.013029,-0.569453,-0.376954,-0.469125,-0.558442,0.702845,0.254813,-1.453204,38.103069,22.540085,13.928709,0.566190,2.079269,0.034652,0.000000,0.000000,0.000000,0.000000,0.000000,0.000000
13199162.000000,2.301585,-1.024126,-1.867571,-1.451031,-0.991199,1.758890,0.483801,0.009382,-0.565891,-0.376265,-0.462784,-0.559873,0.694787,0.255102,-1.453204,37.956280,22.417099,14.027891,0.542386,2.053634,0.054794,0.000000,0.000000,0.000000,0.000000,0.000000,0.000000
13199163.000000,2.301599,-1.024703,-1.867934,-1.451488,-0.991766,1.759589,0.484047,0.010237,-0.567667,-0.374438,-0.461747,-0.564655,0.693336,0.253902,-1.480975,37.984051,22.294113,14.099302,0.584501,2.079269,0.061202,0.000000,0.000000,0.000000,0.000000,0.000000,0.000000
13199164.000000,2.301612,-1.025286,-1.868297,-1.451939,-0.992334,1.760270,0.484303,0.010082,-0.567638,-0.373400,-0.455913,-0.563063,0.685919,0.254145,-1.453204,38.031658,22.071945,14.099302,0.554288,2.112228,0.021835,0.000000,0.000000,0.000000,0.000000,0.000000,0.000000
13199165.000000,2.301619,-1.025865,-1.868666,-1.452390,-0.992896,1.760970,0.484553,0.007924,-0.575064,-0.369614,-0.452729,-0.558236,0.683977,0.256156,-1.330218,38.226055,21.948959,14.051695,0.506681,2.066451,0.048385,0.000000,0.000000,0.000000,0.000000,0.000000,0.000000
13199166.000000,2.301630,-1.026452,-1.869024,-1.452834,-0.993465,1.761671,0.484809,0.010688,-0.579406,-0.360858,-0.452709,-0.557225,0.691333,0.255369,-1.254840,38.372845,21.825974,14.051695,0.535978,2.007858,0.034652,0.000000,0.000000,0.000000,0.000000,0.000000,0.000000
13199167.000000,2.301639,-1.027038,-1.869383,-1.453274,-0.994038,1.762365,0.485059,0.009366,-0.579118,-0.358246,-0.445276,-0.560369,0.691163,0.249461,-1.159625,38.396648,21.679184,14.000120,0.512174,1.962081,0.067611,0.000000,0.000000,0.000000,0.000000,0.000000,0.000000
13199168.000000,2.301646,-1.027599,-1.869753,-1.453718,-0.994605,1.763063,0.485304,0.007738,-0.578815,-0.364050,-0.444246,-0.557726,0.691607,0.248911,-1.032672,38.249859,21.580002,14.051695,0.524076,1.942855,0.094161,0.000000,0.000000,0.000000,0.000000,0.000000,0.000000
13199169.000000,2.301645,-1.028172,-1.870112,-1.454140,-0.995180,1.763735,0.485571,0.004422,-0.571411,-0.365894,-0.436331,-0.558565,0.693582,0.252336,-0.810504,38.103069,21.385605,14.027891,0.518583,1.981307,0.015426,0.000000,0.000000,0.000000,0.000000,0.000000,0.000000
13199170.000000,2.301658,-1.028739,-1.870476,-1.454562,-0.995747,1.764424,0.485819,0.006501,-0.580818,-0.366577,-0.432715,-0.555351,0.688668,0.244328,-0.786700,37.861065,21.310226,14.000120,0.500272,2.007858,0.074935,0.000000,0.000000,0.000000,0.000000,0.000000,0.000000
13199171.000000,2.301663,-1.029300,-1.870830,-1.454984,-0.996326,1.765124,0.486072,0.004856,-0.575336,-0.367731,-0.428332,-0.565418,0.685613,0.247593,-0.635943,37.492107,21.163437,14.075499,0.530485,1.955673,0.034652,0.000000,0.000000,0.000000,0.000000,0.000000,0.000000
13199172.000000,2.301672,-1.029866,-1.871187,-1.455405,-0.996901,1.765812,0.486317,0.005469,-0.570304,-0.364495,-0.426772,-0.564257,0.686188,0.246489,-0.540728,37.222332,21.040451,14.150877,0.494779,1.936446,0.067611,0.000000,0.000000,0.000000,0.000000,0.000000,0.000000
13199173.000000,2.301681,-1.030428,-1.871547,-1.455820,-0.997468,1.766487,0.486564,0.005502,-0.564832,-0.361673,-0.411928,-0.575149,0.682747,0.248041,-0.441546,36.980328,20.869858,14.174681,0.464567,2.027084,0.061202,0.000000,0.000000,0.000000,0.000000,0.000000,0.000000
13199174.000000,2.301696,-1.030997,-1.871912,-1.456221,-0.998045,1.767176,0.486820,0.007144,-0.564890,-0.365506,-0.414810,-0.568684,0.680362,0.254793,-0.413775,36.781963,20.917465,14.127073,0.500272,2.112228,0.048385,0.000000,0.000000,0.000000,0.000000,0.000000,0.000000
13199175.000000,2.301705,-1.031573,-1.872262,-1.456618,-0.998611,1.767863,0.487069,0.006734,-0.569150,-0.357818,-0.407458,-0.575810,0.683000,0.252302,-0.314593,36.611370,20.723068,13.952513,0.506681,2.047225,0.094161,0.000000,0.000000,0.000000,0.000000,0.000000,0.000000
13199176.000000,2.301717,-1.032132,-1.872618,-1.457004,-0.999183,1.768553,0.487329,0.010937,-0.560520,-0.358124,-0.402573,-0.571042,0.680007,0.254456,-0.266986,36.341595,20.623886,13.777952,0.446256,1.995040,0.041976,0.000000,0.000000,0.000000,0.000000,0.000000,0.000000
13199177.000000,2.301729,-1.032699,-1.872984,-1.457394,-0.999757,1.769237,0.487574,0.010484,-0.558830,-0.357141,-0.395705,-0.575632,0.688612,0.251074,-0.215411,36.071819,20.600082,13.583555,0.428861,1.909896,0.094161,0.000000,0.000000,0.000000,0.000000,0.000000,0.000000
13199178.000000,2.301741,-1.033261,-1.873347,-1.457784,-1.000334,1.769926,0.487824,0.012031,-0.563055,-0.359424,-0.394205,-0.574342,0.676733,0.252268,-0.116229,35.829815,20.453293,13.456602,0.440763,1.884261,0.067611,0.000000,0.000000,0.000000,0.000000,0.000000,0.000000
13199179.000000,2.301752,-1.033833,-1.873697,-1.458163,-1.000906,1.770617,0.488080,0.010618,-0.562660,-0.357718,-0.390219,-0.572973,0.675501,0.257727,-0.044818,35.706829,20.254929,13.286009,0.470060,1.858627,0.054794,0.000000,0.000000,0.000000,0.000000,0.000000,0.000000
13199180.000000,2.301769,-1.034412,-1.874057,-1.458538,-1.001491,1.771284,0.488328,0.011466,-0.562968,-0.357273,-0.384227,-0.575971,0.672106,0.262345,-0.044818,35.631451,20.108139,13.135252,0.464567,1.890670,0.081344,0.000000,0.000000,0.000000,0.000000,0.000000,0.000000
13199181.000000,2.301783,-1.034977,-1.874408,-1.458909,-1.002066,1.771974,0.488570,0.010979,-0.565009,-0.357648,-0.376549,-0.577444,0.673057,0.253966,0.006757,35.508465,19.862167,12.940855,0.512174,1.890670,0.094161,0.000000,0.000000,0.000000,0.000000,0.000000,0.000000
13199182.000000,2.301800,-1.035542,-1.874773,-1.459267,-1.002645,1.772655,0.488822,0.014299,-0.564000,-0.358126,-0.370429,-0.575403,0.672647,0.249923,0.030561,35.337872,19.766953,12.766294,0.422452,1.884261,0.028243,0.000000,0.000000,0.000000,0.000000,0.000000,0.000000
13199183.000000,2.301816,-1.036108,-1.875131,-1.459631,-1.003224,1.773356,0.489065,0.016294,-0.563739,-0.356177,-0.365184,-0.569926,0.677149,0.248931,0.078168,35.266460,19.568588,12.567930,0.440763,1.767074,0.067611,0.000000,0.000000,0.000000,0.000000,0.000000,0.000000
13199184.000000,2.301833,-1.036695,-1.875486,-1.459976,-1.003812,1.774054,0.489314,0.015311,-0.571444,-0.356756,-0.357492,-0.572608,0.685270,0.249660,0.105939,35.266460,19.469406,12.321959,0.405057,1.708480,0.061202,0.000000,0.000000,0.000000,0.000000,0.000000,0.000000
13199185.000000,2.301853,-1.037265,-1.875851,-1.460325,-1.004390,1.774736,0.489566,0.017524,-0.568723,-0.361291,-0.356039,-0.569804,0.683517,0.251832,0.129743,35.044292,19.421799,12.123594,0.327238,1.735030,0.061202,0.000000,0.000000,0.000000,0.000000,0.000000,0.000000
13199186.000000,2.301874,-1.037824,-1.876201,-1.460672,-1.004976,1.775424,0.489817,0.016957,-0.564150,-0.358067,-0.350872,-0.578843,0.678221,0.252042,0.105939,34.849895,19.199631,11.901426,0.332731,1.793624,0.054794,0.000000,0.000000,0.000000,0.000000,0.000000,0.000000
13199187.000000,2.301891,-1.038394,-1.876565,-1.461007,-1.005562,1.776100,0.490071,0.017373,-0.560472,-0.357281,-0.350183,-0.579873,0.685134,0.252863,0.177350,34.703106,19.104416,11.655455,0.369352,1.793624,0.021835,0.000000,0.000000,0.000000,0.000000,0.000000,0.000000
13199188.000000,2.301916,-1.038966,-1.876928,-1.461341,-1.006142,1.776795,0.490320,0.020390,-0.576294,-0.358444,-0.342736,-0.586880,0.680251,0.255420,0.129743,34.750713,19.052841,11.429319,0.386747,1.767074,0.081344,0.000000,0.000000,0.000000,0.000000,0.000000,0.000000
13199189.000000,2.301928,-1.039522,-1.877286,-1.461671,-1.006728,1.777486,0.490577,0.018012,-0.571247,-0.362023,-0.348396,-0.589876,0.678402,0.255278,0.276533,34.480938,18.953659,11.334105,0.398649,1.708480,0.054794,0.000000,0.000000,0.000000,0.000000,0.000000,0.000000
13199190.000000,2.301951,-1.040085,-1.877653,-1.461995,-1.007325,1.778172,0.490831,0.019499,-0.563767,-0.366121,-0.338838,-0.597605,0.679185,0.252346,0.304304,34.211163,18.929855,11.107969,0.386747,1.617843,0.087753,0.000000,0.000000,0.000000,0.000000,0.000000,0.000000
13199191.000000,2.301974,-1.040651,-1.878028,-1.462312,-1.007914,1.778855,0.491086,0.021556,-0.565657,-0.369638,-0.328959,-0.596094,0.677626,0.252975,0.304304,34.088177,18.929855,10.885801,0.416959,1.578475,0.067611,0.000000,0.000000,0.000000,0.000000,0.000000,0.000000
13199192.000000,2.301995,-1.041222,-1.878393,-1.462616,-1.008507,1.779539,0.491338,0.021368,-0.568005,-0.370266,-0.321567,-0.596417,0.674291,0.253319,0.351911,33.869976,18.953659,10.540648,0.398649,1.597701,0.048385,0.000000,0.000000,0.000000,0.000000,0.000000,0.000000
13199193.000000,2.302021,-1.041789,-1.878759,-1.462927,-1.009098,1.780200,0.491586,0.022193,-0.560440,-0.367760,-0.316703,-0.598797,0.671566,0.255313,0.351911,33.647808,18.929855,10.342283,0.362943,1.708480,0.120712,0.000000,0.000000,0.000000,0.000000,0.000000,0.000000
13199194.000000,2.302048,-1.042357,-1.879122,-1.463220,-1.009693,1.780866,0.491848,0.023699,-0.562272,-0.358891,-0.311931,-0.604077,0.658863,0.262278,0.328107,33.477215,18.858444,10.096312,0.339139,1.760665,0.081344,0.000000,0.000000,0.000000,0.000000,0.000000,0.000000
13199195.000000,2.302077,-1.042938,-1.879494,-1.463515,-1.010293,1.781536,0.492110,0.024721,-0.567528,-0.363883,-0.304469,-0.597895,0.665746,0.260093,0.304304,33.405804,18.858444,9.822569,0.297025,1.747848,0.048385,0.000000,0.000000,0.000000,0.000000,0.000000,0.000000
13199196.000000,2.302111,-1.043496,-1.879871,-1.463805,-1.010883,1.782212,0.492369,0.029868,-0.566800,-0.361848,-0.296299,-0.600272,0.656909,0.261320,0.228925,33.235210,18.882248,9.600401,0.315336,1.689254,0.048385,0.000000,0.000000,0.000000,0.000000,0.000000,0.000000
13199197.000000,2.302138,-1.044084,-1.880247,-1.464087,-1.011484,1.782895,0.492609,0.030842,-0.573253,-0.366806,-0.294236,-0.603571,0.658938,0.255535,0.252729,33.330425,19.029037,9.378233,0.332731,1.578475,0.133529,0.000000,0.000000,0.000000,0.000000,0.000000,0.000000
13199198.000000,2.302167,-1.044678,-1.880626,-1.464370,-1.012094,1.783553,0.492872,0.032096,-0.575729,-0.369643,-0.289916,-0.608458,0.658379,0.258134,0.276533,33.382000,19.076645,9.179869,0.458158,1.526290,0.094161,0.000000,0.000000,0.000000,0.000000,0.000000,0.000000
13199199.000000,2.302203,-1.045263,-1.881012,-1.464650,-1.012691,1.784227,0.493127,0.035148,-0.581986,-0.383099,-0.285051,-0.610059,0.654318,0.251858,0.205121,33.477215,19.275009,9.056883,0.476469,1.500655,0.074935,0.000000,0.000000,0.000000,0.000000,0.000000,0.000000
13199200.000000,2.302235,-1.045857,-1.881398,-1.464926,-1.013293,1.784888,0.493376,0.032623,-0.578695,-0.384941,-0.284498,-0.608500,0.664006,0.249857,0.205121,33.552593,19.298813,8.933897,0.512174,1.448470,0.107894,0.000000,0.000000,0.000000,0.000000,0.000000,0.000000
13199201.000000,2.302273,-1.046444,-1.881783,-1.465201,-1.013897,1.785548,0.493629,0.035153,-0.581171,-0.383624,-0.280689,-0.600958,0.655846,0.250955,0.153547,33.528790,19.346420,8.834715,0.476469,1.500655,0.087753,0.000000,0.000000,0.000000,0.000000,0.000000,0.000000
13199202.000000,2.302308,-1.047052,-1.882158,-1.465482,-1.014494,1.786202,0.493871,0.036008,-0.588565,-0.383813,-0.280414,-0.597895,0.657516,0.245308,0.153547,33.746990,19.298813,8.957701,0.369352,1.552840,0.100570,0.000000,0.000000,0.000000,0.000000,0.000000,0.000000
13199203.000000,2.302341,-1.047652,-1.882540,-1.465763,-1.015111,1.786855,0.494132,0.035322,-0.591337,-0.378126,-0.283589,-0.604632,0.654613,0.248783,0.205121,33.846172,19.275009,8.985472,0.362943,1.591293,0.034652,0.000000,0.000000,0.000000,0.000000,0.000000,0.000000
13199204.000000,2.302378,-1.048254,-1.882937,-1.466047,-1.015701,1.787505,0.494379,0.035361,-0.588650,-0.380712,-0.284711,-0.602592,0.647621,0.248069,0.228925,34.016766,19.397995,9.108458,0.303434,1.656295,0.067611,0.000000,0.000000,0.000000,0.000000,0.000000,0.000000
13199205.000000,2.302414,-1.048863,-1.883320,-1.466327,-1.016314,1.788166,0.494629,0.036071,-0.593371,-0.383430,-0.283037,-0.604377,0.657626,0.247764,0.228925,34.115948,19.469406,9.255247,0.351041,1.649886,0.094161,0.000000,0.000000,0.000000,0.000000,0.000000,0.000000
13199206.000000,2.302439,-1.049466,-1.883703,-1.466605,-1.016915,1.788818,0.494887,0.032627,-0.601152,-0.383888,-0.285434,-0.607711,0.659763,0.249801,0.403486,34.211163,19.445602,9.330626,0.428861,1.611434,0.061202,0.000000,0.000000,0.000000,0.000000,0.000000,0.000000
13199207.000000,2.302475,-1.050079,-1.884089,-1.466885,-1.017516,1.789475,0.495133,0.033578,-0.600790,-0.387646,-0.292766,-0.597645,0.652722,0.245292,0.427289,34.334148,19.544785,9.477415,0.410551,1.591293,0.048385,0.000000,0.000000,0.000000,0.000000,0.000000,0.000000
13199208.000000,2.302512,-1.050709,-1.884481,-1.467165,-1.018117,1.790128,0.495378,0.034679,-0.603494,-0.395197,-0.287493,-0.597188,0.653140,0.244263,0.451093,34.627728,19.592392,9.576597,0.494779,1.552840,0.094161,0.000000,0.000000,0.000000,0.000000,0.000000,0.000000
13199209.000000,2.302546,-1.051346,-1.884876,-1.467447,-1.018708,1.790780,0.495626,0.033314,-0.613658,-0.392422,-0.288320,-0.596612,0.646030,0.246598,0.550275,35.091900,19.667770,9.628172,0.446256,1.519881,0.087753,0.000000,0.000000,0.000000,0.000000,0.000000,0.000000
13199210.000000,2.302583,-1.051979,-1.885255,-1.467721,-1.019303,1.791433,0.495874,0.033949,-0.620796,-0.388654,-0.285046,-0.590772,0.644666,0.248858,0.574079,35.437054,19.643967,9.628172,0.393156,1.578475,0.061202,0.000000,0.000000,0.000000,0.000000,0.000000,0.000000
13199211.000000,2.302627,-1.052613,-1.885639,-1.467994,-1.019904,1.792074,0.496116,0.035834,-0.621511,-0.382701,-0.278552,-0.592136,0.635059,0.245380,0.550275,35.730633,19.544785,9.600401,0.285123,1.617843,0.081344,0.000000,0.000000,0.000000,0.000000,0.000000,0.000000
13199212.000000,2.302666,-1.053241,-1.886029,-1.468265,-1.020487,1.792726,0.496359,0.038528,-0.622390,-0.382063,-0.277061,-0.587783,0.634557,0.243275,0.601850,35.877422,19.568588,9.552794,0.213712,1.597701,0.041976,0.000000,0.000000,0.000000,0.000000,0.000000,0.000000
13199213.000000,2.302713,-1.053872,-1.886422,-1.468537,-1.021100,1.793361,0.496596,0.043161,-0.622221,-0.382004,-0.275411,-0.588371,0.628691,0.241654,0.526471,35.925030,19.497177,9.477415,0.219205,1.630660,0.114303,0.000000,0.000000,0.000000,0.000000,0.000000,0.000000
13199214.000000,2.302751,-1.054494,-1.886822,-1.468803,-1.021700,1.794011,0.496846,0.039933,-0.625276,-0.383586,-0.269894,-0.588790,0.630017,0.246437,0.601850,35.877422,19.568588,9.378233,0.243009,1.662704,0.067611,0.000000,0.000000,0.000000,0.000000,0.000000,0.000000
13199215.000000,2.302799,-1.055115,-1.887217,-1.469078,-1.022321,1.794669,0.497090,0.041232,-0.620331,-0.387621,-0.274483,-0.596752,0.632354,0.246224,0.526471,35.778240,19.592392,9.354429,0.327238,1.611434,0.107894,0.000000,0.000000,0.000000,0.000000,0.000000,0.000000
13199216.000000,2.302837,-1.055731,-1.887629,-1.469356,-1.022922,1.795323,0.497338,0.038421,-0.612719,-0.394036,-0.271549,-0.600024,0.636022,0.249217,0.601850,35.508465,19.739182,9.330626,0.362943,1.507064,0.114303,0.000000,0.000000,0.000000,0.000000,0.000000,0.000000
13199217.000000,2.302879,-1.056351,-1.888030,-1.469629,-1.023528,1.795974,0.497586,0.036645,-0.612850,-0.403446,-0.269367,-0.602501,0.634479,0.246491,0.673261,35.337872,19.739182,9.306822,0.374845,1.435653,0.067611,0.000000,0.000000,0.000000,0.000000,0.000000,0.000000
13199218.000000,2.302923,-1.056975,-1.888429,-1.469901,-1.024135,1.796609,0.497829,0.042243,-0.613164,-0.402302,-0.271308,-0.593361,0.644729,0.244966,0.724836,35.214886,19.739182,9.306822,0.398649,1.500655,0.127120,0.000000,0.000000,0.000000,0.000000,0.000000,0.000000
13199219.000000,2.302967,-1.057589,-1.888837,-1.470174,-1.024739,1.797238,0.498085,0.043378,-0.629031,-0.403374,-0.268312,-0.588235,0.635292,0.249878,0.772443,35.044292,19.790756,9.255247,0.405057,1.624252,0.041976,0.000000,0.000000,0.000000,0.000000,0.000000,0.000000
13199220.000000,2.303017,-1.058196,-1.889241,-1.470439,-1.025336,1.797869,0.498330,0.048717,-0.615554,-0.408322,-0.266982,-0.584664,0.632291,0.244396,0.772443,34.703106,19.838364,9.231443,0.339139,1.695663,0.048385,0.000000,0.000000,0.000000,0.000000,0.000000,0.000000
13199221.000000,2.303066,-1.058819,-1.889652,-1.470713,-1.025952,1.798496,0.498571,0.046395,-0.613499,-0.405761,-0.269504,-0.593982,0.632951,0.244231,0.772443,34.457134,19.937546,9.231443,0.327238,1.676437,0.081344,0.000000,0.000000,0.000000,0.000000,0.000000,0.000000
13199222.000000,2.303113,-1.059440,-1.890065,-1.470980,-1.026555,1.799133,0.498804,0.043328,-0.614803,-0.405508,-0.266962,-0.597482,0.626864,0.239213,0.824018,34.310345,20.108139,9.179869,0.344633,1.649886,0.120712,0.000000,0.000000,0.000000,0.000000,0.000000,0.000000
13199223.000000,2.303160,-1.060063,-1.890475,-1.471243,-1.027174,1.799763,0.499061,0.041310,-0.619475,-0.409763,-0.263268,-0.597992,0.628426,0.245141,0.847822,34.211163,20.278732,9.179869,0.308927,1.649886,0.048385,0.000000,0.000000,0.000000,0.000000,0.000000,0.000000
13199224.000000,2.303198,-1.060690,-1.890893,-1.471509,-1.027778,1.800377,0.499313,0.040286,-0.617996,-0.411490,-0.260039,-0.606970,0.622180,0.246116,0.994611,34.139751,20.429489,9.179869,0.339139,1.689254,0.054794,0.000000,0.000000,0.000000,0.000000,0.000000,0.000000
13199225.000000,2.303242,-1.061317,-1.891309,-1.471772,-1.028399,1.800997,0.499562,0.041538,-0.619061,-0.416092,-0.259260,-0.608302,0.623890,0.246890,1.069990,34.163555,20.600082,9.231443,0.362943,1.793624,0.067611,0.000000,0.000000,0.000000,0.000000,0.000000,0.000000
13199226.000000,2.303286,-1.061957,-1.891720,-1.472035,-1.029016,1.801623,0.499806,0.042175,-0.622835,-0.416225,-0.257843,-0.605998,0.618680,0.246857,1.169172,34.262737,20.647690,9.255247,0.344633,1.760665,0.081344,0.000000,0.000000,0.000000,0.000000,0.000000,0.000000
13199227.000000,2.303327,-1.062594,-1.892140,-1.472302,-1.029639,1.802247,0.500049,0.040632,-0.631187,-0.417356,-0.260283,-0.607007,0.619213,0.248433,1.343732,34.409527,20.723068,9.306822,0.386747,1.754256,0.074935,0.000000,0.000000,0.000000,0.000000,0.000000,0.000000
13199228.000000,2.303372,-1.063226,-1.892565,-1.472568,-1.030259,1.802868,0.500300,0.041502,-0.634448,-0.417928,-0.263437,-0.599653,0.616387,0.245421,1.442914,34.433331,20.945236,9.406004,0.369352,1.800033,0.034652,0.000000,0.000000,0.000000,0.000000,0.000000,0.000000
13199229.000000,2.303416,-1.063862,-1.892993,-1.472826,-1.030892,1.803484,0.500544,0.039221,-0.629708,-0.417642,-0.260538,-0.608606,0.620597,0.242921,1.542096,34.433331,21.040451,9.429808,0.410551,1.786300,0.048385,0.000000,0.000000,0.000000,0.000000,0.000000,0.000000
13199230.000000,2.303461,-1.064499,-1.893408,-1.473083,-1.031513,1.804111,0.500786,0.040445,-0.631696,-0.406785,-0.260417,-0.612500,0.619665,0.245322,1.641279,34.532513,21.115829,9.378233,0.428861,1.727706,0.041976,0.000000,0.000000,0.000000,0.000000,0.000000,0.000000
13199231.000000,2.303505,-1.065136,-1.893828,-1.473347,-1.032146,1.804725,0.501017,0.044513,-0.634061,-0.411294,-0.263850,-0.615347,0.631787,0.243934,1.740461,34.580120,21.187241,9.477415,0.416959,1.721298,0.100570,0.000000,0.000000,0.000000,0.000000,0.000000,0.000000
13199232.000000,2.303551,-1.065752,-1.894251,-1.473605,-1.032758,1.805336,0.501253,0.045172,-0.633346,-0.416884,-0.260101,-0.616200,0.621770,0.247211,1.811872,34.457134,21.238815,9.477415,0.393156,1.800033,0.100570,0.000000,0.000000,0.000000,0.000000,0.000000,0.000000
13199233.000000,2.303598,-1.066381,-1.894672,-1.473869,-1.033388,1.805954,0.501497,0.045660,-0.627573,-0.417496,-0.263454,-0.615902,0.617914,0.246134,1.863447,34.385723,21.262619,9.576597,0.344633,1.858627,0.015426,0.000000,0.000000,0.000000,0.000000,0.000000,0.000000
13199234.000000,2.303645,-1.067009,-1.895085,-1.474129,-1.034028,1.806565,0.501724,0.047970,-0.623317,-0.412243,-0.263533,-0.624539,0.612934,0.238030,1.962629,34.187359,21.238815,9.576597,0.393156,1.865035,0.114303,0.000000,0.000000,0.000000,0.000000,0.000000,0.000000
13199235.000000,2.303698,-1.067639,-1.895498,-1.474392,-1.034662,1.807183,0.501966,0.048570,-0.624699,-0.419897,-0.261765,-0.626749,0.610203,0.243275,2.010236,34.040569,21.238815,9.628172,0.428861,1.871444,0.067611,0.000000,0.000000,0.000000,0.000000,0.000000,0.000000
13199236.000000,2.303746,-1.068267,-1.895912,-1.474646,-1.035293,1.807797,0.502205,0.050496,-0.623739,-0.418070,-0.260361,-0.624540,0.616234,0.241021,2.109418,33.846172,21.238815,9.675779,0.422452,1.884261,0.034652,0.000000,0.000000,0.000000,0.000000,0.000000,0.000000
13199237.000000,2.303800,-1.068892,-1.896334,-1.474903,-1.035923,1.808409,0.502436,0.050463,-0.637838,-0.410777,-0.261745,-0.614999,0.618500,0.238410,2.109418,33.723186,21.238815,9.727354,0.434354,1.877853,0.034652,0.000000,0.000000,0.000000,0.000000,0.000000,0.000000
13199238.000000,2.303857,-1.069528,-1.896734,-1.475144,-1.036565,1.809031,0.502661,0.050582,-0.629040,-0.404215,-0.258888,-0.624063,0.615032,0.238608,2.109418,33.675579,21.139633,9.651976,0.500272,1.819259,0.114303,0.000000,0.000000,0.000000,0.000000,0.000000,0.000000
13199239.000000,2.303923,-1.070181,-1.897147,-1.475385,-1.037201,1.809649,0.502907,0.053487,-0.636593,-0.403074,-0.252282,-0.623907,0.622081,0.238965,1.986432,33.746990,21.115829,9.576597,0.464567,1.735030,0.041976,0.000000,0.000000,0.000000,0.000000,0.000000,0.000000
13199240.000000,2.303978,-1.070830,-1.897552,-1.475633,-1.037826,1.810259,0.503132,0.055795,-0.642649,-0.400650,-0.249547,-0.623934,0.610641,0.236242,1.986432,33.941387,20.969040,9.600401,0.452665,1.773483,0.054794,0.000000,0.000000,0.000000,0.000000,0.000000,0.000000
13199241.000000,2.304044,-1.071488,-1.897951,-1.475877,-1.038456,1.810881,0.503360,0.059898,-0.649837,-0.396701,-0.244609,-0.622092,0.614602,0.228231,1.887250,34.163555,20.822250,9.628172,0.428861,1.793624,0.087753,0.000000,0.000000,0.000000,0.000000,0.000000,0.000000
13199242.000000,2.304116,-1.072148,-1.898350,-1.476113,-1.039065,1.811496,0.503593,0.064184,-0.649534,-0.392896,-0.239744,-0.633307,0.610143,0.230527,1.740461,34.385723,20.746872,9.628172,0.297025,1.779891,0.041976,0.000000,0.000000,0.000000,0.000000,0.000000,0.000000
13199243.000000,2.304188,-1.072801,-1.898737,-1.476339,-1.039700,1.812124,0.503814,0.066362,-0.647375,-0.389505,-0.235293,-0.634184,0.615641,0.228789,1.589704,34.556316,20.576279,9.576597,0.315336,1.735030,0.087753,0.000000,0.000000,0.000000,0.000000,0.000000,0.000000
13199244.000000,2.304264,-1.073453,-1.899140,-1.476575,-1.040326,1.812735,0.504053,0.067787,-0.647004,-0.392186,-0.233579,-0.634779,0.623318,0.224650,1.466718,34.556316,20.500900,9.600401,0.285123,1.760665,0.054794,0.000000,0.000000,0.000000,0.000000,0.000000,0.000000
13199245.000000,2.304343,-1.074097,-1.899542,-1.476814,-1.040944,1.813365,0.504281,0.073254,-0.646905,-0.389476,-0.234599,-0.630482,0.622429,0.225853,1.292158,34.532513,20.377914,9.727354,0.243009,1.754256,0.061202,0.000000,0.000000,0.000000,0.000000,0.000000,0.000000
13199246.000000,2.304421,-1.074751,-1.899927,-1.477046,-1.041573,1.814000,0.504513,0.076672,-0.650353,-0.382399,-0.232069,-0.633858,0.620735,0.226892,1.145368,34.580120,20.207321,9.850340,0.273221,1.727706,0.061202,0.000000,0.000000,0.000000,0.000000,0.000000,0.000000
13199247.000000,2.304505,-1.075406,-1.900325,-1.477283,-1.042208,1.814618,0.504744,0.079088,-0.647837,-0.385277,-0.235718,-0.631734,0.618340,0.223891,0.994611,34.580120,20.108139,9.949522,0.339139,1.741439,0.067611,0.000000,0.000000,0.000000,0.000000,0.000000,0.000000
13199248.000000,2.304589,-1.076050,-1.900719,-1.477514,-1.042823,1.815241,0.504965,0.080232,-0.643917,-0.392111,-0.234895,-0.633123,0.611724,0.224714,0.871625,34.480938,20.036728,10.020933,0.308927,1.727706,0.094161,0.000000,0.000000,0.000000,0.000000,0.000000,0.000000
13199249.000000,2.304671,-1.076719,-1.901110,-1.477751,-1.043458,1.815867,0.505203,0.080008,-0.651462,-0.392453,-0.234520,-0.636252,0.631802,0.233319,0.796247,34.627728,19.790756,10.243101,0.320829,1.676437,0.028243,0.000000,0.000000,0.000000,0.000000,0.000000,0.000000
13199250.000000,2.304762,-1.077375,-1.901503,-1.477984,-1.044085,1.816483,0.505423,0.082052,-0.654213,-0.390520,-0.234154,-0.636644,0.619967,0.224837,0.625654,34.726910,19.691574,10.370054,0.291532,1.695663,0.094161,0.000000,0.000000,0.000000,0.000000,0.000000,0.000000
13199251.000000,2.304848,-1.078042,-1.901892,-1.478212,-1.044707,1.817103,0.505655,0.081888,-0.658149,-0.393524,-0.233618,-0.634017,0.617379,0.227142,0.526471,34.921307,19.568588,10.465269,0.201810,1.714889,0.067611,0.000000,0.000000,0.000000,0.000000,0.000000,0.000000
13199252.000000,2.304940,-1.078706,-1.902284,-1.478437,-1.045342,1.817708,0.505886,0.083507,-0.655958,-0.392834,-0.232044,-0.634983,0.612213,0.228894,0.351911,35.020489,19.445602,10.493040,0.171598,1.702071,0.028243,0.000000,0.000000,0.000000,0.000000,0.000000,0.000000
13199253.000000,2.305038,-1.079361,-1.902673,-1.478666,-1.045974,1.818321,0.506107,0.088150,-0.652814,-0.393325,-0.226762,-0.632306,0.605197,0.228359,0.153547,35.068096,19.322617,10.616026,0.171598,1.708480,0.048385,0.000000,0.000000,0.000000,0.000000,0.000000,0.000000
13199254.000000,2.305130,-1.080029,-1.903065,-1.478880,-1.046617,1.818935,0.506331,0.089551,-0.653101,-0.393681,-0.224561,-0.634311,0.613823,0.231845,0.054365,35.119671,19.275009,10.540648,0.178007,1.670028,0.107894,0.000000,0.000000,0.000000,0.000000,0.000000,0.000000
13199255.000000,2.305229,-1.080689,-1.903459,-1.479104,-1.047246,1.819540,0.506574,0.091470,-0.671705,-0.395487,-0.225050,-0.632599,0.613372,0.233869,-0.092425,35.143475,19.251205,10.564451,0.178007,1.649886,0.048385,0.000000,0.000000,0.000000,0.000000,0.000000,0.000000
13199256.000000,2.305323,-1.081340,-1.903856,-1.479323,-1.047893,1.820145,0.506804,0.091544,-0.668144,-0.397233,-0.225817,-0.637063,0.599487,0.233105,-0.167803,34.921307,19.322617,10.639830,0.225614,1.670028,0.041976,0.000000,0.000000,0.000000,0.000000,0.000000,0.000000
13199257.000000,2.305418,-1.081998,-1.904258,-1.479546,-1.048538,1.820736,0.507033,0.091823,-0.663481,-0.399598,-0.219699,-0.635452,0.599965,0.230204,-0.243182,34.750713,19.374191,10.786619,0.255826,1.741439,0.081344,0.000000,0.000000,0.000000,0.000000,0.000000,0.000000
13199258.000000,2.305512,-1.082640,-1.904660,-1.479755,-1.049186,1.821350,0.507265,0.090087,-0.653284,-0.403897,-0.220720,-0.638526,0.601334,0.231761,-0.243182,34.504742,19.445602,10.786619,0.303434,1.721298,0.041976,0.000000,0.000000,0.000000,0.000000,0.000000,0.000000
13199259.000000,2.305610,-1.083298,-1.905053,-1.479972,-1.049824,1.821957,0.507485,0.093409,-0.653299,-0.405151,-0.218530,-0.636162,0.603387,0.228598,-0.290789,34.334148,19.445602,10.913572,0.297025,1.747848,0.120712,0.000000,0.000000,0.000000,0.000000,0.000000,0.000000
13199260.000000,2.305713,-1.083962,-1.905461,-1.480182,-1.050460,1.822543,0.507726,0.096992,-0.654329,-0.404769,-0.214016,-0.650626,0.599563,0.231886,-0.389971,34.187359,19.568588,10.937376,0.249418,1.806442,0.048385,0.000000,0.000000,0.000000,0.000000,0.000000,0.000000
13199261.000000,2.305803,-1.084593,-1.905859,-1.480379,-1.051109,1.823146,0.507954,0.098976,-0.651153,-0.405378,-0.206901,-0.648532,0.598490,0.226084,-0.342364,33.746990,19.616196,10.913572,0.308927,1.786300,0.054794,0.000000,0.000000,0.000000,0.000000,0.000000,0.000000
13199262.000000,2.305905,-1.085251,-1.906266,-1.480579,-1.051760,1.823736,0.508179,0.101640,-0.651596,-0.410440,-0.204156,-0.644689,0.603951,0.221055,-0.413775,33.600201,19.739182,10.861998,0.273221,1.779891,0.061202,0.000000,0.000000,0.000000,0.000000,0.000000,0.000000
13199263.000000,2.306002,-1.085910,-1.906670,-1.480780,-1.052400,1.824326,0.508407,0.100695,-0.653177,-0.410306,-0.203073,-0.646439,0.598416,0.221639,-0.389971,33.600201,19.814560,10.861998,0.332731,1.812850,0.067611,0.000000,0.000000,0.000000,0.000000,0.000000,0.000000
13199264.000000,2.306099,-1.086578,-1.907072,-1.480979,-1.053049,1.824913,0.508625,0.100711,-0.653779,-0.408704,-0.200718,-0.644023,0.590471,0.223035,-0.389971,33.576397,19.885971,10.913572,0.303434,1.903487,0.087753,0.000000,0.000000,0.000000,0.000000,0.000000,0.000000
13199265.000000,2.306190,-1.087250,-1.907477,-1.481167,-1.053698,1.825491,0.508863,0.098984,-0.654921,-0.409936,-0.195812,-0.648399,0.590568,0.227439,-0.314593,33.600201,19.913742,10.838194,0.273221,1.942855,0.015426,0.000000,0.000000,0.000000,0.000000,0.000000,0.000000
13199266.000000,2.306287,-1.087923,-1.907884,-1.481355,-1.054347,1.826091,0.509091,0.098621,-0.662262,-0.410285,-0.193524,-0.646830,0.589116,0.227405,-0.266986,33.770794,20.060532,10.814390,0.273221,1.858627,0.034652,0.000000,0.000000,0.000000,0.000000,0.000000,0.000000
13199267.000000,2.306381,-1.088611,-1.908290,-1.481541,-1.054994,1.826671,0.509321,0.097833,-0.671875,-0.405778,-0.190903,-0.651423,0.597484,0.231908,-0.191607,34.040569,20.108139,10.739012,0.273221,1.832076,0.061202,0.000000,0.000000,0.000000,0.000000,0.000000,0.000000
13199268.000000,2.306477,-1.089291,-1.908703,-1.481726,-1.055644,1.827262,0.509559,0.097704,-0.672719,-0.405697,-0.187095,-0.649861,0.589644,0.234634,-0.144000,34.262737,20.159714,10.739012,0.291532,1.865035,0.001693,0.000000,0.000000,0.000000,0.000000,0.000000,0.000000
13199269.000000,2.306567,-1.089979,-1.909107,-1.481904,-1.056296,1.827847,0.509782,0.093248,-0.670760,-0.400290,-0.183464,-0.654865,0.585939,0.226554,-0.044818,34.409527,20.159714,10.691404,0.308927,1.871444,0.041976,0.000000,0.000000,0.000000,0.000000,0.000000,0.000000
13199270.000000,2.306665,-1.090670,-1.909510,-1.482080,-1.056945,1.828437,0.510009,0.093142,-0.672493,-0.398509,-0.180260,-0.645761,0.589576,0.231383,-0.044818,34.580120,20.084335,10.616026,0.291532,1.825668,0.061202,0.000000,0.000000,0.000000,0.000000,0.000000,0.000000
13199271.000000,2.306760,-1.091348,-1.909918,-1.482263,-1.057583,1.829031,0.510242,0.094327,-0.676625,-0.396955,-0.181464,-0.652419,0.584124,0.232454,0.006757,34.726910,20.108139,10.564451,0.279630,1.714889,0.028243,0.000000,0.000000,0.000000,0.000000,0.000000,0.000000
13199272.000000,2.306850,-1.092030,-1.910313,-1.482442,-1.058232,1.829625,0.510469,0.094082,-0.676668,-0.398308,-0.180566,-0.649307,0.592399,0.230777,0.105939,34.774517,20.036728,10.564451,0.291532,1.702071,0.054794,0.000000,0.000000,0.000000,0.000000,0.000000,0.000000
13199273.000000,2.306940,-1.092712,-1.910710,-1.482614,-1.058868,1.830198,0.510696,0.089914,-0.679818,-0.398616,-0.174714,-0.636180,0.581900,0.229471,0.228925,34.774517,19.885971,10.493040,0.243009,1.754256,0.087753,0.000000,0.000000,0.000000,0.000000,0.000000,0.000000
13199274.000000,2.307029,-1.093387,-1.911107,-1.482784,-1.059513,1.830781,0.510924,0.090720,-0.675963,-0.400072,-0.177432,-0.633337,0.578450,0.232437,0.328107,34.750713,19.862167,10.493040,0.249418,1.806442,0.015426,0.000000,0.000000,0.000000,0.000000,0.000000,0.000000
13199275.000000,2.307124,-1.094072,-1.911499,-1.482940,-1.060166,1.831358,0.511143,0.092259,-0.673484,-0.401576,-0.172523,-0.643377,0.572853,0.223401,0.375715,34.679302,19.739182,10.294676,0.243009,1.832076,0.087753,0.000000,0.000000,0.000000,0.000000,0.000000,0.000000
13199276.000000,2.307222,-1.094751,-1.911895,-1.483102,-1.060799,1.831946,0.511370,0.093819,-0.673887,-0.401308,-0.167771,-0.637605,0.571621,0.225706,0.427289,34.603924,19.616196,10.171690,0.219205,1.838485,0.074935,0.000000,0.000000,0.000000,0.000000,0.000000,0.000000
13199277.000000,2.307315,-1.095436,-1.912294,-1.483257,-1.061444,1.832538,0.511603,0.095123,-0.676546,-0.403789,-0.161939,-0.631467,0.569853,0.222930,0.451093,34.532513,19.616196,10.072508,0.171598,1.825668,0.034652,0.000000,0.000000,0.000000,0.000000,0.000000,0.000000
13199278.000000,2.307415,-1.096129,-1.912685,-1.483401,-1.062075,1.833128,0.511833,0.096906,-0.682778,-0.395679,-0.155025,-0.628900,0.574619,0.223560,0.427289,34.603924,19.445602,9.874144,0.166105,1.760665,0.061202,0.000000,0.000000,0.000000,0.000000,0.000000,0.000000
13199279.000000,2.307508,-1.096822,-1.913080,-1.483543,-1.062721,1.833731,0.512063,0.096763,-0.689384,-0.394424,-0.146593,-0.634218,0.577899,0.225678,0.502668,34.798321,19.421799,9.651976,0.166105,1.649886,0.048385,0.000000,0.000000,0.000000,0.000000,0.000000,0.000000
13199280.000000,2.307612,-1.097528,-1.913487,-1.483679,-1.063368,1.834321,0.512287,0.098574,-0.686773,-0.400575,-0.141594,-0.631427,0.592532,0.224601,0.474897,35.020489,19.445602,9.477415,0.178007,1.624252,0.094161,0.000000,0.000000,0.000000,0.000000,0.000000,0.000000
13199281.000000,2.307718,-1.098229,-1.913893,-1.483814,-1.064010,1.834912,0.512522,0.101910,-0.686750,-0.404318,-0.140779,-0.629819,0.585772,0.232667,0.375715,35.266460,19.421799,9.306822,0.183500,1.656295,0.015426,0.000000,0.000000,0.000000,0.000000,0.000000,0.000000
13199282.000000,2.307817,-1.098948,-1.914297,-1.483950,-1.064643,1.835511,0.512748,0.101464,-0.692775,-0.403102,-0.138885,-0.632112,0.589239,0.224544,0.375715,35.484661,19.445602,9.207640,0.166105,1.617843,0.074935,0.000000,0.000000,0.000000,0.000000,0.000000,0.000000
13199283.000000,2.307921,-1.099673,-1.914701,-1.484077,-1.065300,1.836100,0.512982,0.101759,-0.701935,-0.399865,-0.133604,-0.635501,0.586986,0.221814,0.375715,35.802044,19.469406,9.084654,0.171598,1.584884,0.041976,0.000000,0.000000,0.000000,0.000000,0.000000,0.000000
13199284.000000,2.308031,-1.100381,-1.915100,-1.484204,-1.065941,1.836698,0.513209,0.103086,-0.706772,-0.402254,-0.130781,-0.641113,0.588754,0.218478,0.304304,36.024212,19.445602,9.009275,0.147794,1.519881,0.048385,0.000000,0.000000,0.000000,0.000000,0.000000,0.000000
13199285.000000,2.308137,-1.101091,-1.915514,-1.484331,-1.066596,1.837289,0.513436,0.103522,-0.709805,-0.408782,-0.130338,-0.640120,0.595055,0.216462,0.252729,36.147198,19.592392,9.009275,0.112089,1.539108,0.034652,0.000000,0.000000,0.000000,0.000000,0.000000,0.000000
13199286.000000,2.308240,-1.101786,-1.915934,-1.484451,-1.067246,1.837863,0.513665,0.101704,-0.710864,-0.406770,-0.125048,-0.646422,0.592400,0.220084,0.276533,36.123394,19.766953,8.957701,0.135892,1.578475,0.034652,0.000000,0.000000,0.000000,0.000000,0.000000,0.000000
13199287.000000,2.308340,-1.102493,-1.916343,-1.484578,-1.067908,1.838451,0.513891,0.099311,-0.702349,-0.401431,-0.127374,-0.647844,0.585157,0.216011,0.351911,36.123394,19.937546,9.033079,0.154203,1.559249,0.067611,0.000000,0.000000,0.000000,0.000000,0.000000,0.000000
13199288.000000,2.308448,-1.103212,-1.916761,-1.484707,-1.068578,1.839022,0.514123,0.099595,-0.698844,-0.400995,-0.125715,-0.662616,0.579551,0.221168,0.351911,36.242413,20.084335,9.108458,0.207303,1.539108,0.015426,0.000000,0.000000,0.000000,0.000000,0.000000,0.000000
13199289.000000,2.308552,-1.103926,-1.917184,-1.484838,-1.069232,1.839591,0.514344,0.099293,-0.700895,-0.403960,-0.128364,-0.660366,0.567038,0.221745,0.375715,36.416973,20.231125,9.231443,0.213712,1.670028,0.061202,0.000000,0.000000,0.000000,0.000000,0.000000,0.000000
13199290.000000,2.308653,-1.104645,-1.917604,-1.484961,-1.069894,1.840161,0.514569,0.100916,-0.703691,-0.409840,-0.126075,-0.664098,0.575945,0.219587,0.451093,36.563763,20.401718,9.306822,0.213712,1.767074,0.034652,0.000000,0.000000,0.000000,0.000000,0.000000,0.000000
13199291.000000,2.308762,-1.105348,-1.918026,-1.485082,-1.070549,1.840734,0.514787,0.104139,-0.707517,-0.410039,-0.123511,-0.672546,0.573529,0.221511,0.451093,36.587566,20.524704,9.354429,0.183500,1.741439,0.061202,0.000000,0.000000,0.000000,0.000000,0.000000,0.000000
13199292.000000,2.308879,-1.106065,-1.918452,-1.485200,-1.071218,1.841311,0.515004,0.108065,-0.712355,-0.406301,-0.123676,-0.669635,0.572864,0.222270,0.375715,36.682781,20.723068,9.378233,0.178007,1.656295,0.100570,0.000000,0.000000,0.000000,0.000000,0.000000,0.000000
13199293.000000,2.308988,-1.106792,-1.918889,-1.485315,-1.071883,1.841874,0.515230,0.110032,-0.715379,-0.412966,-0.120905,-0.662529,0.573941,0.226744,0.351911,36.833538,20.945236,9.378233,0.178007,1.689254,0.021835,0.000000,0.000000,0.000000,0.000000,0.000000,0.000000
13199294.000000,2.309097,-1.107499,-1.919326,-1.485427,-1.072549,1.842429,0.515447,0.110255,-0.709650,-0.419069,-0.116470,-0.668224,0.557237,0.221695,0.375715,36.857342,21.163437,9.279051,0.213712,1.779891,0.041976,0.000000,0.000000,0.000000,0.000000,0.000000,0.000000
13199295.000000,2.309210,-1.108214,-1.919760,-1.485539,-1.073215,1.842995,0.515659,0.111509,-0.704208,-0.427087,-0.114082,-0.656599,0.556414,0.216887,0.351911,36.833538,21.409409,9.207640,0.225614,1.838485,0.087753,0.000000,0.000000,0.000000,0.000000,0.000000,0.000000
13199296.000000,2.309325,-1.108935,-1.920194,-1.485652,-1.073899,1.843554,0.515874,0.113610,-0.704062,-0.425268,-0.114499,-0.660459,0.555126,0.211804,0.304304,36.805767,21.532394,9.231443,0.297025,1.800033,0.034652,0.000000,0.000000,0.000000,0.000000,0.000000,0.000000
13199297.000000,2.309433,-1.109661,-1.920626,-1.485764,-1.074554,1.844123,0.516088,0.109144,-0.711469,-0.432231,-0.111302,-0.665863,0.556170,0.216408,0.351911,36.980328,21.702988,9.231443,0.279630,1.767074,0.034652,0.000000,0.000000,0.000000,0.000000,0.000000,0.000000
13199298.000000,2.309542,-1.110377,-1.921062,-1.485871,-1.075229,1.844686,0.516297,0.108564,-0.712129,-0.436076,-0.111841,-0.663461,0.561887,0.212213,0.427289,36.904949,21.849777,9.231443,0.273221,1.793624,0.087753,0.000000,0.000000,0.000000,0.000000,0.000000,0.000000
13199299.000000,2.309660,-1.111082,-1.921497,-1.485976,-1.075895,1.845234,0.516519,0.113343,-0.713461,-0.435531,-0.111449,-0.668102,0.557610,0.217283,0.403486,36.781963,21.948959,9.207640,0.297025,1.865035,0.034652,0.000000,0.000000,0.000000,0.000000,0.000000,0.000000
13199300.000000,2.309774,-1.111804,-1.921931,-1.486074,-1.076565,1.845797,0.516734,0.114140,-0.716914,-0.428991,-0.107061,-0.663228,0.558603,0.215063,0.375715,36.734356,22.095749,9.132261,0.344633,1.858627,0.034652,0.000000,0.000000,0.000000,0.000000,0.000000,0.000000
13199301.000000,2.309884,-1.112525,-1.922380,-1.486179,-1.077236,1.846346,0.516944,0.112731,-0.718269,-0.432477,-0.105609,-0.669506,0.553737,0.211198,0.427289,36.635174,22.317917,9.132261,0.332731,1.890670,0.094161,0.000000,0.000000,0.000000,0.000000,0.000000,0.000000
13199302.000000,2.309990,-1.113237,-1.922803,-1.486282,-1.077896,1.846906,0.517158,0.110029,-0.714511,-0.436934,-0.103956,-0.661889,0.552519,0.212628,0.574079,36.587566,22.317917,9.108458,0.315336,1.923629,0.048385,0.000000,0.000000,0.000000,0.000000,0.000000,0.000000
13199303.000000,2.310102,-1.113966,-1.923239,-1.486388,-1.078562,1.847467,0.517365,0.113847,-0.710282,-0.441170,-0.105016,-0.666127,0.560618,0.209314,0.625654,36.682781,22.365524,9.179869,0.237516,1.903487,0.107894,0.000000,0.000000,0.000000,0.000000,0.000000,0.000000
13199304.000000,2.310205,-1.114694,-1.923682,-1.486495,-1.079206,1.848024,0.517587,0.113494,-0.709997,-0.436852,-0.106090,-0.658402,0.560811,0.211876,0.772443,36.857342,22.488510,9.279051,0.183500,1.871444,0.041976,0.000000,0.000000,0.000000,0.000000,0.000000,0.000000
13199305.000000,2.310308,-1.115436,-1.924108,-1.486589,-1.079881,1.848579,0.517796,0.112506,-0.716581,-0.436455,-0.104110,-0.663740,0.551228,0.211044,0.970807,37.075542,22.464706,9.255247,0.201810,1.877853,0.048385,0.000000,0.000000,0.000000,0.000000,0.000000,0.000000
13199306.000000,2.310415,-1.116181,-1.924538,-1.486685,-1.080550,1.849124,0.518007,0.110409,-0.720916,-0.434100,-0.099353,-0.660008,0.542313,0.209164,1.093793,37.321514,22.488510,9.231443,0.231107,1.949264,0.067611,0.000000,0.000000,0.000000,0.000000,0.000000,0.000000
13199307.000000,2.310521,-1.116914,-1.924967,-1.486790,-1.081220,1.849676,0.518222,0.108901,-0.724378,-0.434369,-0.099132,-0.664236,0.536649,0.210305,1.216779,37.539715,22.563889,9.354429,0.267728,1.942855,0.041976,0.000000,0.000000,0.000000,0.000000,0.000000,0.000000
13199308.000000,2.310624,-1.117653,-1.925392,-1.486881,-1.081895,1.850239,0.518430,0.107265,-0.728272,-0.428665,-0.096069,-0.664005,0.544144,0.209150,1.367536,37.738079,22.464706,9.354429,0.315336,1.897079,0.067611,0.000000,0.000000,0.000000,0.000000,0.000000,0.000000
13199309.000000,2.310733,-1.118384,-1.925825,-1.486974,-1.082560,1.850793,0.518649,0.107922,-0.732040,-0.427981,-0.093827,-0.666340,0.545505,0.215151,1.442914,37.761883,22.464706,9.354429,0.267728,1.838485,0.048385,0.000000,0.000000,0.000000,0.000000,0.000000,0.000000
13199310.000000,2.310842,-1.119100,-1.926240,-1.487075,-1.083231,1.851359,0.518864,0.111270,-0.728542,-0.422813,-0.100758,-0.669587,0.550871,0.211814,1.490522,37.662701,22.365524,9.477415,0.267728,1.773483,0.094161,0.000000,0.000000,0.000000,0.000000,0.000000,0.000000
13199311.000000,2.310949,-1.119819,-1.926655,-1.487173,-1.083903,1.851908,0.519087,0.110585,-0.720215,-0.421947,-0.101686,-0.667122,0.560639,0.212913,1.565900,37.492107,22.119553,9.528990,0.249418,1.819259,0.034652,0.000000,0.000000,0.000000,0.000000,0.000000,0.000000
13199312.000000,2.311051,-1.120533,-1.927074,-1.487266,-1.084558,1.852454,0.519300,0.107932,-0.716771,-0.422139,-0.098431,-0.668951,0.551193,0.215947,1.740461,37.345318,21.972763,9.552794,0.201810,1.903487,0.067611,0.000000,0.000000,0.000000,0.000000,0.000000,0.000000
13199313.000000,2.311161,-1.121254,-1.927488,-1.487352,-1.085230,1.853012,0.519514,0.108327,-0.712149,-0.420850,-0.092505,-0.667387,0.550482,0.209555,1.811872,37.127117,21.849777,9.552794,0.195402,1.968490,0.054794,0.000000,0.000000,0.000000,0.000000,0.000000,0.000000
13199314.000000,2.311272,-1.121990,-1.927901,-1.487438,-1.085900,1.853566,0.519728,0.109561,-0.716441,-0.416772,-0.091681,-0.669421,0.549099,0.209250,1.835676,37.099346,21.726791,9.576597,0.147794,1.962081,0.061202,0.000000,0.000000,0.000000,0.000000,0.000000,0.000000
13199315.000000,2.311378,-1.122704,-1.928312,-1.487517,-1.086552,1.854132,0.519946,0.106566,-0.717427,-0.415023,-0.090200,-0.664885,0.547553,0.209925,1.911054,36.980328,21.631577,9.552794,0.100187,1.916305,0.041976,0.000000,0.000000,0.000000,0.000000,0.000000,0.000000
13199316.000000,2.311480,-1.123428,-1.928725,-1.487594,-1.087223,1.854689,0.520159,0.105288,-0.716662,-0.415705,-0.085429,-0.662141,0.552632,0.209368,2.061811,36.881145,21.532394,9.501219,0.064481,1.897079,0.034652,0.000000,0.000000,0.000000,0.000000,0.000000,0.000000
13199317.000000,2.311597,-1.124154,-1.929138,-1.487665,-1.087891,1.855247,0.520363,0.109588,-0.722552,-0.413447,-0.084232,-0.660212,0.551171,0.211935,1.986432,36.980328,21.409409,9.429808,0.135892,1.844894,0.067611,0.000000,0.000000,0.000000,0.000000,0.000000,0.000000
13199318.000000,2.311710,-1.124894,-1.929557,-1.487734,-1.088575,1.855810,0.520572,0.113581,-0.731593,-0.410587,-0.080452,-0.667705,0.551199,0.212223,1.934858,37.127117,21.556198,9.354429,0.201810,1.773483,0.048385,0.000000,0.000000,0.000000,0.000000,0.000000,0.000000
13199319.000000,2.311822,-1.125634,-1.929971,-1.487804,-1.089253,1.856358,0.520776,0.113575,-0.733841,-0.407461,-0.078273,-0.674180,0.548945,0.204930,1.962629,37.246136,21.532394,9.306822,0.237516,1.760665,0.074935,0.000000,0.000000,0.000000,0.000000,0.000000,0.000000
13199320.000000,2.311940,-1.126367,-1.930382,-1.487874,-1.089933,1.856915,0.520977,0.113593,-0.733087,-0.407410,-0.074593,-0.673804,0.546569,0.204577,1.962629,37.392925,21.556198,9.306822,0.320829,1.721298,0.114303,0.000000,0.000000,0.000000,0.000000,0.000000,0.000000
13199321.000000,2.312059,-1.127096,-1.930808,-1.487943,-1.090612,1.857469,0.521197,0.114585,-0.724384,-0.411906,-0.072435,-0.674996,0.555415,0.209251,1.934858,37.392925,21.702988,9.330626,0.327238,1.695663,0.021835,0.000000,0.000000,0.000000,0.000000,0.000000,0.000000
13199322.000000,2.312177,-1.127812,-1.931225,-1.488012,-1.091279,1.858013,0.521400,0.115202,-0.732149,-0.412010,-0.068062,-0.670397,0.550075,0.207098,1.887250,37.297710,21.726791,9.378233,0.303434,1.735030,0.087753,0.000000,0.000000,0.000000,0.000000,0.000000,0.000000
13199323.000000,2.312298,-1.128543,-1.931636,-1.488078,-1.091945,1.858551,0.521606,0.119052,-0.730099,-0.409743,-0.067472,-0.674742,0.543656,0.206891,1.835676,37.246136,21.726791,9.429808,0.201810,1.844894,0.107894,0.000000,0.000000,0.000000,0.000000,0.000000,0.000000
13199324.000000,2.312423,-1.129275,-1.932062,-1.488144,-1.092630,1.859085,0.521818,0.122310,-0.727809,-0.411524,-0.065482,-0.675211,0.548618,0.207941,1.764264,37.174725,21.901352,9.528990,0.166105,1.974899,0.087753,0.000000,0.000000,0.000000,0.000000,0.000000,0.000000
13199325.000000,2.312544,-1.130005,-1.932479,-1.488207,-1.093302,1.859623,0.522030,0.120422,-0.726951,-0.414307,-0.066304,-0.678695,0.539199,0.210924,1.740461,37.246136,21.925156,9.600401,0.147794,2.027084,0.015426,0.000000,0.000000,0.000000,0.000000,0.000000,0.000000
13199326.000000,2.312668,-1.130737,-1.932898,-1.488271,-1.093983,1.860178,0.522233,0.119995,-0.724266,-0.419345,-0.064809,-0.673995,0.538112,0.207520,1.688886,37.273907,22.095749,9.727354,0.171598,1.968490,0.094161,0.000000,0.000000,0.000000,0.000000,0.000000,0.000000
13199327.000000,2.312793,-1.131450,-1.933325,-1.488338,-1.094662,1.860716,0.522446,0.118304,-0.724735,-0.417920,-0.067317,-0.674730,0.535854,0.209846,1.665082,37.198528,22.270309,9.874144,0.213712,1.936446,0.048385,0.000000,0.000000,0.000000,0.000000,0.000000,0.000000
13199328.000000,2.312919,-1.132172,-1.933740,-1.488395,-1.095351,1.861267,0.522652,0.122686,-0.724291,-0.418525,-0.063692,-0.676809,0.538423,0.209342,1.641279,37.099346,22.341721,9.921751,0.369352,1.884261,0.054794,0.000000,0.000000,0.000000,0.000000,0.000000,0.000000
13199329.000000,2.313052,-1.132905,-1.934166,-1.488452,-1.096033,1.861798,0.522857,0.126281,-0.724296,-0.423253,-0.060967,-0.678834,0.543494,0.208366,1.514325,37.099346,22.440903,9.973326,0.410551,1.909896,0.067611,0.000000,0.000000,0.000000,0.000000,0.000000,0.000000
13199330.000000,2.313188,-1.133633,-1.934589,-1.488505,-1.096696,1.862329,0.523057,0.128661,-0.721297,-0.423840,-0.057125,-0.678637,0.537188,0.203530,1.391340,37.150921,22.512314,9.949522,0.398649,1.923629,0.067611,0.000000,0.000000,0.000000,0.000000,0.000000,0.000000
13199331.000000,2.313322,-1.134364,-1.935002,-1.488553,-1.097367,1.862863,0.523256,0.130355,-0.719645,-0.421570,-0.051364,-0.674150,0.533437,0.198994,1.268354,37.127117,22.488510,9.921751,0.339139,1.962081,0.081344,0.000000,0.000000,0.000000,0.000000,0.000000,0.000000
13199332.000000,2.313466,-1.135098,-1.935426,-1.488596,-1.098040,1.863380,0.523465,0.134360,-0.716590,-0.423972,-0.049185,-0.677149,0.525717,0.197682,1.046186,37.027935,22.563889,9.850340,0.249418,2.001449,0.041976,0.000000,0.000000,0.000000,0.000000,0.000000,0.000000
13199333.000000,2.313606,-1.135824,-1.935839,-1.488641,-1.098694,1.863908,0.523660,0.136233,-0.718146,-0.422023,-0.048199,-0.673266,0.521481,0.193806,0.970807,36.952557,22.587692,9.798765,0.141385,2.066451,0.081344,0.000000,0.000000,0.000000,0.000000,0.000000,0.000000
13199334.000000,2.313751,-1.136558,-1.936248,-1.488673,-1.099367,1.864507,0.523895,0.139557,-0.720946,-0.424844,-0.041079,-0.678352,0.551053,0.202488,0.824018,36.833538,22.563889,9.600401,0.117582,1.448470,-0.202470,0.000000,0.000000,0.000000,0.000000,0.000000,0.000000
13199335.000000,2.313896,-1.137275,-1.936675,-1.488730,-1.100175,1.865671,0.524038,0.141160,-0.722341,-0.426360,-0.045390,-0.715938,0.764689,0.182800,0.697065,36.635174,22.734482,9.798765,1.360868,-4.105119,0.357833,0.000000,0.000000,0.000000,0.000000,0.000000,0.000000
13199336.000000,2.314007,-1.138016,-1.937132,-1.488808,-1.100915,1.866414,0.524304,0.131994,-0.728753,-0.440460,-0.056094,-0.722459,0.762282,0.206505,1.046186,36.658978,23.397018,10.342283,1.760953,-5.125932,-0.215287,0.000000,0.000000,0.000000,0.000000,0.000000,0.000000
13199337.000000,2.314082,-1.138817,-1.937408,-1.488783,-1.101701,1.867040,0.524513,0.110988,-0.753834,-0.382081,-0.029022,-0.742732,0.716529,0.208130,1.887250,37.444500,21.409409,9.429808,2.430204,-4.436540,-0.281205,0.000000,0.000000,0.000000,0.000000,0.000000,0.000000
13199338.000000,2.314270,-1.139645,-1.937689,-1.488675,-1.102498,1.868044,0.524680,0.135474,-0.785588,-0.351442,0.018845,-0.764673,0.802903,0.195783,1.093793,38.813213,19.691574,7.378722,3.016141,-6.653947,0.034652,0.000000,0.000000,0.000000,0.000000,0.000000,0.000000
13199339.000000,2.314505,-1.140476,-1.938024,-1.488588,-1.103241,1.868809,0.524860,0.169059,-0.800860,-0.345866,0.044704,-0.760741,0.789491,0.191462,-0.314593,39.987530,18.858444,5.871153,2.866910,-6.231889,0.252548,0.000000,0.000000,0.000000,0.000000,0.000000,0.000000
13199340.000000,2.314596,-1.141272,-1.938179,-1.488501,-1.104031,1.869590,0.525141,0.140705,-0.817221,-0.279147,0.062579,-0.763736,0.771797,0.216972,0.451093,40.602459,15.617172,4.633360,3.189176,-5.763139,-0.426774,0.000000,0.000000,0.000000,0.000000,0.000000,0.000000
13199341.000000,2.314674,-1.142046,-1.938305,-1.488409,-1.104805,1.870350,0.525253,0.118373,-0.794661,-0.224373,0.074107,-0.758568,0.754180,0.178131,1.367536,40.626263,12.352097,3.593931,3.087553,-5.008744,0.390792,0.000000,0.000000,0.000000,0.000000,0.000000,0.000000
13199342.000000,2.314867,-1.142860,-1.938417,-1.488290,-1.105544,1.871117,0.525425,0.139719,-0.792850,-0.184323,0.090674,-0.744536,0.757151,0.173851,0.625654,41.114239,9.285385,2.360106,2.663663,-4.579362,0.602279,0.000000,0.000000,0.000000,0.000000,0.000000,0.000000
13199343.000000,2.315010,-1.143615,-1.938436,-1.488121,-1.106307,1.871840,0.525673,0.139669,-0.772896,-0.127126,0.116970,-0.746442,0.732693,0.194553,0.625654,40.919842,5.357773,0.654173,2.633451,-3.922929,0.048385,0.000000,0.000000,0.000000,0.000000,0.000000,0.000000
13199344.000000,2.315082,-1.144302,-1.938403,-1.487956,-1.107067,1.872374,0.525820,0.116323,-0.736828,-0.072337,0.136034,-0.747910,0.651948,0.179051,1.589704,39.646343,1.307175,-0.805788,2.508024,-1.913346,0.410934,0.000000,0.000000,0.000000,0.000000,0.000000,0.000000
13199345.000000,2.315163,-1.144931,-1.938356,-1.487836,-1.107685,1.872926,0.526018,0.102224,-0.693249,-0.028775,0.127462,-0.702265,0.604202,0.185784,2.430768,37.515911,-2.346695,-1.297731,1.384672,-0.697526,0.312057,0.000000,0.000000,0.000000,0.000000,0.000000,0.000000
13199346.000000,2.315236,-1.145481,-1.938283,-1.487684,-1.108375,1.873532,0.526214,0.091016,-0.642780,0.003981,0.135498,-0.690179,0.594677,0.186841,3.271833,34.603924,-5.786331,-2.063417,0.984586,-0.528153,0.166488,0.000000,0.000000,0.000000,0.000000,0.000000,0.000000
13199347.000000,2.315279,-1.146010,-1.938166,-1.487524,-1.109043,1.874124,0.526358,0.076153,-0.599586,0.038667,0.141904,-0.687021,0.596948,0.168545,4.462018,31.493572,-9.245804,-2.682314,0.655912,-0.729569,0.509811,0.000000,0.000000,0.000000,0.000000,0.000000,0.000000
13199348.000000,2.315292,-1.146490,-1.938013,-1.487383,-1.109694,1.874647,0.526559,0.052131,-0.560530,0.074392,0.138750,-0.677616,0.568848,0.184527,5.945783,28.192791,-12.729080,-2.805300,0.488370,-0.846757,0.338607,0.000000,0.000000,0.000000,0.000000,0.000000,0.000000
13199349.000000,2.315279,-1.146925,-1.937841,-1.487273,-1.110281,1.875161,0.526725,0.027699,-0.516396,0.104331,0.125948,-0.654959,0.554104,0.181226,7.631879,24.542889,-15.946548,-2.412538,-0.121371,-1.041764,0.456710,0.000000,0.000000,0.000000,0.000000,0.000000,0.000000
13199350.000000,2.315273,-1.147343,-1.937624,-1.487158,-1.110851,1.875570,0.526909,0.016563,-0.478326,0.135985,0.120168,-0.627627,0.508742,0.181080,9.064069,21.115154,-19.259232,-1.964235,-0.629489,-0.567521,0.371566,0.000000,0.000000,0.000000,0.000000,0.000000,0.000000
13199351.000000,2.315256,-1.147717,-1.937428,-1.487026,-1.111359,1.875985,0.527086,0.004013,-0.440668,0.153427,0.120558,-0.598806,0.479340,0.177882,10.428815,17.663616,-21.885574,-1.793642,-1.417758,-0.333146,0.365157,0.000000,0.000000,0.000000,0.000000,0.000000,0.000000
13199352.000000,2.315245,-1.148077,-1.937236,-1.486873,-1.111832,1.876518,0.527272,0.002346,-0.411071,0.162093,0.131037,-0.558370,0.506216,0.176596,11.591229,14.311260,-24.119156,-2.039613,-2.403780,-1.217545,0.318465,0.000000,0.000000,0.000000,0.000000,0.000000,0.000000
13199353.000000,2.315241,-1.148378,-1.937073,-1.486736,-1.112273,1.876991,0.527429,0.002769,-0.378424,0.158066,0.132455,-0.523576,0.499210,0.166148,12.531476,10.712933,-25.714005,-2.039613,-3.311984,-1.634110,0.536361,0.000000,0.000000,0.000000,0.000000,0.000000,0.000000
13199354.000000,2.315238,-1.148632,-1.936928,-1.486615,-1.112711,1.877427,0.527629,-0.000300,-0.333572,0.146498,0.129006,-0.493904,0.482352,0.179293,13.348737,6.749615,-26.967667,-1.841249,-4.077364,-1.634110,0.345016,0.000000,0.000000,0.000000,0.000000,0.000000,0.000000
13199355.000000,2.315237,-1.148869,-1.936782,-1.486481,-1.113132,1.877882,0.527814,-0.001934,-0.298500,0.141919,0.131613,-0.463783,0.474520,0.182140,14.090619,2.952923,-28.169754,-1.841249,-4.680697,-1.751298,0.312057,0.000000,0.000000,0.000000,0.000000,0.000000,0.000000
13199356.000000,2.315251,-1.149052,-1.936656,-1.486376,-1.113571,1.878385,0.527979,0.004436,-0.260229,0.137200,0.120992,-0.462625,0.482356,0.179147,14.487348,-0.986592,-29.102066,-1.448488,-4.949862,-2.160538,0.431075,0.000000,0.000000,0.000000,0.000000,0.000000,0.000000
13199357.000000,2.315265,-1.149192,-1.936554,-1.486293,-1.114045,1.878877,0.528187,0.011813,-0.218065,0.121380,0.106615,-0.465810,0.498640,0.190688,14.860272,-5.219685,-29.713028,-0.877199,-4.824435,-2.225541,0.186630,0.000000,0.000000,0.000000,0.000000,0.000000,0.000000
13199358.000000,2.315295,-1.149268,-1.936484,-1.486218,-1.114502,1.879350,0.528373,0.018656,-0.169423,0.098179,0.093834,-0.471196,0.488806,0.194291,15.007062,-9.726521,-29.911392,-0.333681,-4.740206,-2.063493,0.206771,0.000000,0.000000,0.000000,0.000000,0.000000,0.000000
13199359.000000,2.315345,-1.149332,-1.936446,-1.486151,-1.115040,1.879837,0.528581,0.029261,-0.134160,0.073250,0.085108,-0.493305,0.486555,0.203505,14.884076,-14.082600,-29.836014,0.186034,-4.143282,-1.926163,0.048385,0.000000,0.000000,0.000000,0.000000,0.000000,0.000000
13199360.000000,2.315422,-1.149371,-1.936448,-1.486043,-1.115636,1.880365,0.528780,0.043956,-0.098589,0.047244,0.093712,-0.525532,0.505255,0.200089,14.411969,-18.291889,-29.371841,0.086851,-3.240572,-2.122086,0.009017,0.000000,0.000000,0.000000,0.000000,0.000000,0.000000
13199361.000000,2.315514,-1.149394,-1.936489,-1.485908,-1.116224,1.880916,0.528955,0.060259,-0.077277,0.015829,0.107605,-0.553079,0.510831,0.193721,13.793073,-22.159992,-28.586319,-0.508241,-2.684847,-2.426957,0.225997,0.000000,0.000000,0.000000,0.000000,0.000000,0.000000
13199362.000000,2.315623,-1.149421,-1.936549,-1.485772,-1.116845,1.881448,0.529172,0.076925,-0.059585,-0.014750,0.117605,-0.576246,0.510943,0.198007,13.051190,-25.659138,-27.824600,-1.150941,-2.278353,-2.382096,0.081344,0.000000,0.000000,0.000000,0.000000,0.000000,0.000000
13199363.000000,2.315742,-1.149457,-1.936612,-1.485629,-1.117452,1.881946,0.529356,0.092948,-0.053113,-0.034254,0.127015,-0.595486,0.503581,0.189692,12.257733,-28.694111,-27.285049,-1.793642,-2.278353,-2.122086,0.232406,0.000000,0.000000,0.000000,0.000000,0.000000,0.000000
13199364.000000,2.315873,-1.149502,-1.936679,-1.485456,-1.118073,1.882457,0.529560,0.104328,-0.053525,-0.047141,0.144714,-0.600923,0.501136,0.197181,11.444440,-31.169697,-26.939896,-2.781496,-2.505404,-1.946305,0.173812,0.000000,0.000000,0.000000,0.000000,0.000000,0.000000
13199365.000000,2.316002,-1.149596,-1.936754,-1.485269,-1.118705,1.882967,0.529768,0.113000,-0.068873,-0.056327,0.162171,-0.602832,0.504959,0.200888,10.750165,-32.879597,-26.646317,-3.868532,-2.923800,-1.724747,0.140853,0.000000,0.000000,0.000000,0.000000,0.000000,0.000000
13199366.000000,2.316149,-1.149711,-1.936841,-1.485074,-1.119349,1.883424,0.529966,0.124313,-0.089315,-0.067340,0.172761,-0.607997,0.487077,0.200550,9.956708,-34.105488,-26.424149,-4.907960,-3.192965,-1.211137,0.173812,0.000000,0.000000,0.000000,0.000000,0.000000,0.000000
13199367.000000,2.316290,-1.149855,-1.936939,-1.484873,-1.120004,1.883904,0.530176,0.130321,-0.112240,-0.077972,0.184290,-0.609951,0.478320,0.205718,9.413190,-34.887043,-26.253555,-5.848207,-3.521639,-0.886124,0.094161,0.000000,0.000000,0.000000,0.000000,0.000000,0.000000
13199368.000000,2.316430,-1.150042,-1.937052,-1.484657,-1.120659,1.884413,0.530370,0.129191,-0.140586,-0.088560,0.194728,-0.618892,0.482840,0.198533,8.992658,-35.061604,-26.106766,-6.736879,-3.814608,-1.093949,0.160079,0.000000,0.000000,0.000000,0.000000,0.000000,0.000000
13199369.000000,2.316582,-1.150254,-1.937183,-1.484420,-1.121327,1.884953,0.530559,0.134689,-0.170497,-0.103586,0.208226,-0.633177,0.496224,0.195043,8.449140,-35.010029,-25.912369,-7.724733,-3.945529,-1.542557,0.186630,0.000000,0.000000,0.000000,0.000000,0.000000,0.000000
13199370.000000,2.316741,-1.150515,-1.937323,-1.484180,-1.121991,1.885496,0.530742,0.145849,-0.204012,-0.110802,0.214014,-0.640610,0.515068,0.190287,7.877851,-34.498249,-25.813187,-8.541994,-4.077364,-1.959122,0.265365,0.000000,0.000000,0.000000,0.000000,0.000000,0.000000
13199371.000000,2.316883,-1.150812,-1.937440,-1.483951,-1.122656,1.885998,0.530942,0.142547,-0.234859,-0.111239,0.216107,-0.639010,0.514722,0.191752,7.655683,-33.641315,-26.205948,-9.133120,-4.124972,-2.056168,0.225997,0.000000,0.000000,0.000000,0.000000,0.000000,0.000000
13199372.000000,2.317020,-1.151151,-1.937550,-1.483736,-1.123319,1.886505,0.531126,0.139768,-0.271706,-0.108939,0.217337,-0.650522,0.509618,0.188130,7.556501,-32.514606,-26.868484,-9.406862,-4.250399,-2.011307,0.305648,0.000000,0.000000,0.000000,0.000000,0.000000,0.000000
13199373.000000,2.317169,-1.151541,-1.937657,-1.483501,-1.123991,1.886981,0.531299,0.142470,-0.309338,-0.109018,0.222273,-0.653789,0.501015,0.177728,7.358137,-31.118122,-27.677811,-9.803591,-4.292513,-1.770524,0.443893,0.000000,0.000000,0.000000,0.000000,0.000000,0.000000
13199374.000000,2.317329,-1.151955,-1.937746,-1.483273,-1.124633,1.887420,0.531472,0.152653,-0.342010,-0.098664,0.221424,-0.653136,0.476208,0.171906,7.084394,-29.602619,-28.856094,-9.997988,-4.513155,-1.106766,0.549178,0.000000,0.000000,0.000000,0.000000,0.000000,0.000000
13199375.000000,2.317473,-1.152416,-1.937826,-1.483068,-1.125266,1.887806,0.531623,0.148470,-0.379700,-0.090415,0.215577,-0.641158,0.443493,0.162061,7.036787,-27.960163,-30.105789,-9.926577,-4.812533,-0.073136,0.806442,0.000000,0.000000,0.000000,0.000000,0.000000,0.000000
13199376.000000,2.317605,-1.152901,-1.937892,-1.482874,-1.125927,1.888161,0.531787,0.140616,-0.414369,-0.080791,0.206285,-0.658790,0.408368,0.158386,7.183576,-26.420856,-31.506241,-9.629030,-4.800631,0.960494,0.845809,0.000000,0.000000,0.000000,0.000000,0.000000,0.000000
13199377.000000,2.317727,-1.153397,-1.937975,-1.482692,-1.126613,1.888568,0.531930,0.131633,-0.444050,-0.080290,0.198692,-0.669406,0.399692,0.150034,7.457319,-25.095783,-32.561539,-9.232302,-4.519564,1.324874,1.017013,0.000000,0.000000,0.000000,0.000000,0.000000,0.000000
13199378.000000,2.317846,-1.153911,-1.938064,-1.482520,-1.127362,1.888991,0.532082,0.129663,-0.460454,-0.082861,0.184531,-0.692067,0.409442,0.147554,7.802473,-23.996845,-33.470047,-8.712587,-3.826510,1.188461,1.082931,0.000000,0.000000,0.000000,0.000000,0.000000,0.000000
13199379.000000,2.317948,-1.154421,-1.938153,-1.482365,-1.128142,1.889405,0.532214,0.122567,-0.475212,-0.088107,0.170898,-0.725836,0.411579,0.141680,8.397565,-23.235126,-34.354752,-8.169069,-2.822176,1.045638,1.261459,0.000000,0.000000,0.000000,0.000000,0.000000,0.000000
13199380.000000,2.318037,-1.154949,-1.938241,-1.482227,-1.128935,1.889807,0.532355,0.111621,-0.488318,-0.087018,0.159019,-0.746499,0.403301,0.142046,9.115644,-22.576557,-35.187881,-7.526369,-2.063204,1.039230,1.313644,0.000000,0.000000,0.000000,0.000000,0.000000,0.000000
13199381.000000,2.318116,-1.155491,-1.938298,-1.482078,-1.129732,1.890205,0.532502,0.098118,-0.500241,-0.074351,0.154023,-0.774812,0.403567,0.145721,9.932904,-22.136189,-36.366165,-7.157411,-1.525790,0.960494,1.267867,0.000000,0.000000,0.000000,0.000000,0.000000,0.000000
13199382.000000,2.318194,-1.156021,-1.938342,-1.481940,-1.130499,1.890597,0.532635,0.092304,-0.508931,-0.064877,0.147735,-0.779826,0.402204,0.144210,10.674787,-21.890217,-37.715042,-6.812257,-1.351840,0.993453,1.327377,0.000000,0.000000,0.000000,0.000000,0.000000,0.000000
13199383.000000,2.318274,-1.156550,-1.938383,-1.481793,-1.131257,1.891002,0.532766,0.087843,-0.509316,-0.058631,0.145553,-0.762973,0.402781,0.143190,11.369061,-21.890217,-39.067886,-6.713075,-1.609103,1.064864,1.373153,0.000000,0.000000,0.000000,0.000000,0.000000,0.000000
