chaoyuefei/paper-gmrm-data/robot_logs/s2_dq_mrm_min_0.30_log_20260314_172544.csv
# time_ms,q_0,q_1,q_2,q_3,q_4,q_5,q_6,dq_0,dq_1,dq_2,dq_3,dq_4,dq_5,dq_6,tau_J_0,tau_J_1,tau_J_2,tau_J_3,tau_J_4,tau_J_5,tau_J_6,O_dP_EE_c_0,O_dP_EE_c_1,O_dP_EE_c_2,O_dP_EE_c_3,O_dP_EE_c_4,O_dP_EE_c_5
11806580.000000,-2.418272,-1.662612,1.039419,-1.352495,1.798446,1.078660,-0.546420,-0.000643,-0.000484,-0.000417,-0.001448,-0.000932,-0.000200,-0.001483,-0.017047,41.629986,-20.905655,-5.749025,0.882963,1.357833,0.061202,0.000000,0.000000,0.000000,0.000000,0.000000,0.000000
11806581.000000,-2.418270,-1.662614,1.039419,-1.352490,1.798449,1.078660,-0.546417,0.000221,-0.000880,-0.000281,0.000705,0.000261,-0.000133,-0.000006,-0.044818,41.653790,-20.905655,-5.820436,0.859159,1.357833,0.034652,0.000000,0.000000,0.000000,0.000000,0.000000,0.000000
11806582.000000,-2.418270,-1.662604,1.039424,-1.352489,1.798448,1.078661,-0.546421,0.000147,0.002847,0.001481,0.000470,-0.000030,0.000420,-0.001224,-0.044818,41.507000,-20.977066,-5.820436,0.864652,1.344100,0.067611,0.000000,0.000000,0.000000,0.000000,0.000000,0.000000
11806583.000000,-2.418270,-1.662610,1.039421,-1.352493,1.798448,1.078660,-0.546413,0.000098,-0.000422,-0.000128,-0.000800,-0.000257,-0.000229,0.001863,-0.044818,41.606182,-20.929459,-5.772829,0.871061,1.357833,-0.004716,0.000000,0.000000,0.000000,0.000000,0.000000,0.000000
11806584.000000,-2.418262,-1.662612,1.039419,-1.352494,1.798449,1.078659,-0.546422,0.010387,0.001482,-0.000643,0.001551,0.001388,-0.001339,0.000258,0.177350,41.530804,-20.905655,-5.721254,0.828947,1.389877,0.021835,0.000000,0.000000,0.000000,0.000000,0.000000,0.000000
11806585.000000,-2.418255,-1.662615,1.039424,-1.352489,1.798447,1.078652,-0.546432,0.017996,-0.000654,0.002062,0.004591,-0.000807,-0.003201,-0.001815,1.244550,41.336407,-20.877884,-5.598268,0.751127,1.578475,-0.050492,0.000000,0.000000,0.000000,0.000000,0.000000,0.000000
11806586.000000,-2.418226,-1.662616,1.039435,-1.352487,1.798441,1.078653,-0.546459,0.026614,0.001877,0.007415,0.004260,-0.007021,0.000292,-0.010083,2.803693,40.943645,-20.854080,-5.352296,0.655912,1.779891,-0.070634,0.000000,0.000000,0.000000,0.000000,0.000000,0.000000
11806587.000000,-2.418177,-1.662614,1.039451,-1.352490,1.798425,1.078674,-0.546504,0.030708,0.003540,0.010785,-0.001009,-0.008661,0.007424,-0.023388,4.684186,40.404095,-20.806473,-5.007143,0.608304,1.865035,-0.031266,0.000000,0.000000,0.000000,0.000000,0.000000,0.000000
11806588.000000,-2.418119,-1.662615,1.039473,-1.352504,1.798398,1.078724,-0.546558,0.036430,0.002850,0.016564,-0.005608,-0.016829,0.023284,-0.029704,6.592451,39.916119,-20.754898,-4.610414,0.620206,1.793624,-0.077042,0.000000,0.000000,0.000000,0.000000,0.000000,0.000000
11806589.000000,-2.418022,-1.662612,1.039503,-1.352530,1.798356,1.078806,-0.546638,0.053818,0.002554,0.020909,-0.011952,-0.024610,0.045452,-0.047013,8.100019,39.400372,-20.707291,-4.213686,0.685209,1.559249,-0.023942,0.000000,0.000000,0.000000,0.000000,0.000000,0.000000
11806590.000000,-2.417923,-1.662615,1.039539,-1.352576,1.798310,1.078909,-0.546727,0.065308,0.003004,0.026724,-0.024850,-0.033548,0.064042,-0.062233,9.587750,38.983807,-20.631912,-3.721742,0.715421,1.377059,-0.044083,0.000000,0.000000,0.000000,0.000000,0.000000,0.000000
11806591.000000,-2.417802,-1.662608,1.039590,-1.352625,1.798240,1.079021,-0.546834,0.084166,0.001830,0.035207,-0.036098,-0.049201,0.083068,-0.077497,10.750165,38.495831,-20.608109,-3.424196,0.745634,1.299239,-0.103593,0.000000,0.000000,0.000000,0.000000,0.000000,0.000000
11806592.000000,-2.417673,-1.662601,1.039646,-1.352688,1.798165,1.079154,-0.546975,0.099118,0.002311,0.044460,-0.045249,-0.058143,0.098722,-0.103288,11.837201,38.079266,-20.560501,-3.102846,0.685209,1.312057,-0.037675,0.000000,0.000000,0.000000,0.000000,0.000000,0.000000
11806593.000000,-2.417534,-1.662595,1.039714,-1.352762,1.798075,1.079302,-0.547124,0.107833,0.004034,0.051291,-0.056684,-0.071285,0.116104,-0.117080,12.876630,37.738079,-20.512894,-2.856874,0.554288,1.442062,-0.103593,0.000000,0.000000,0.000000,0.000000,0.000000,0.000000
11806594.000000,-2.417387,-1.662585,1.039793,-1.352844,1.797955,1.079475,-0.547296,0.122265,0.005696,0.060826,-0.066213,-0.089335,0.135062,-0.136685,13.820844,37.392925,-20.512894,-2.706117,0.488370,1.552840,-0.064225,0.000000,0.000000,0.000000,0.000000,0.000000,0.000000
11806595.000000,-2.417212,-1.662571,1.039894,-1.352943,1.797817,1.079687,-0.547473,0.138860,0.007398,0.073678,-0.079004,-0.101164,0.155625,-0.149131,14.487348,37.027935,-20.631912,-2.583132,0.393156,1.611434,-0.064225,0.000000,0.000000,0.000000,0.000000,0.000000,0.000000
11806596.000000,-2.417034,-1.662554,1.040008,-1.353060,1.797656,1.079926,-0.547654,0.151090,0.012532,0.086399,-0.095255,-0.114475,0.179674,-0.157981,15.130048,36.635174,-20.754898,-2.436342,0.398649,1.578475,-0.089860,0.000000,0.000000,0.000000,0.000000,0.000000,0.000000
11806597.000000,-2.416828,-1.662534,1.040135,-1.353197,1.797469,1.080199,-0.547836,0.169600,0.015702,0.098842,-0.108899,-0.135778,0.213332,-0.160777,15.502973,36.270184,-20.877884,-2.261781,0.470060,1.500655,-0.097184,0.000000,0.000000,0.000000,0.000000,0.000000,0.000000
11806598.000000,-2.416603,-1.662515,1.040279,-1.353348,1.797265,1.080490,-0.548020,0.191348,0.017649,0.116350,-0.123486,-0.154796,0.236938,-0.161529,15.800519,35.925030,-21.100052,-2.162599,0.506681,1.461288,-0.110001,0.000000,0.000000,0.000000,0.000000,0.000000,0.000000
11806599.000000,-2.416364,-1.662497,1.040437,-1.353514,1.797041,1.080802,-0.548217,0.208281,0.018520,0.131057,-0.138208,-0.177902,0.267431,-0.173029,15.998883,35.607647,-21.246841,-2.063417,0.578092,1.461288,-0.044083,0.000000,0.000000,0.000000,0.000000,0.000000,0.000000
11806600.000000,-2.416112,-1.662480,1.040607,-1.353695,1.796795,1.081144,-0.548401,0.221164,0.018155,0.141949,-0.149113,-0.203947,0.290312,-0.174389,16.268660,35.337872,-21.393631,-2.091188,0.584501,1.448470,-0.110001,0.000000,0.000000,0.000000,0.000000,0.000000,0.000000
11806601.000000,-2.415848,-1.662469,1.040781,-1.353902,1.796531,1.081499,-0.548595,0.235839,0.020373,0.154088,-0.166833,-0.220547,0.306891,-0.178593,16.467024,35.238689,-21.445206,-2.015810,0.530485,1.467696,-0.083451,0.000000,0.000000,0.000000,0.000000,0.000000,0.000000
11806602.000000,-2.415561,-1.662459,1.040962,-1.354117,1.796254,1.081869,-0.548794,0.251806,0.016054,0.165207,-0.182491,-0.234745,0.330394,-0.189491,16.590010,35.143475,-21.445206,-1.964235,0.488370,1.565658,-0.044083,0.000000,0.000000,0.000000,0.000000,0.000000,0.000000
11806603.000000,-2.415256,-1.662456,1.041159,-1.354350,1.795967,1.082261,-0.548978,0.264825,0.013918,0.177763,-0.194890,-0.251848,0.347496,-0.185384,16.641584,35.143475,-21.492813,-1.869020,0.381254,1.676437,-0.122819,0.000000,0.000000,0.000000,0.000000,0.000000,0.000000
11806604.000000,-2.414939,-1.662450,1.041360,-1.354603,1.795660,1.082670,-0.549172,0.281218,0.012845,0.181042,-0.214761,-0.268273,0.362749,-0.183085,16.665388,35.143475,-21.393631,-1.742067,0.351041,1.741439,-0.083451,0.000000,0.000000,0.000000,0.000000,0.000000,0.000000
11806605.000000,-2.414608,-1.662452,1.041571,-1.354880,1.795324,1.083118,-0.549357,0.294477,0.008007,0.190742,-0.233004,-0.285780,0.391472,-0.182594,16.740767,35.191082,-21.322220,-1.595277,0.344633,1.695663,-0.103593,0.000000,0.000000,0.000000,0.000000,0.000000,0.000000
11806606.000000,-2.414262,-1.662451,1.041793,-1.355162,1.794974,1.083584,-0.549547,0.319796,0.005756,0.198155,-0.247544,-0.305901,0.414774,-0.187267,16.740767,35.191082,-21.246841,-1.547670,0.381254,1.617843,-0.110001,0.000000,0.000000,0.000000,0.000000,0.000000,0.000000
11806607.000000,-2.413899,-1.662451,1.042024,-1.355468,1.794615,1.084067,-0.549746,0.336390,0.004151,0.209426,-0.264336,-0.320718,0.430979,-0.191907,16.764570,35.191082,-21.147659,-1.396913,0.416959,1.572067,-0.064225,0.000000,0.000000,0.000000,0.000000,0.000000,0.000000
11806608.000000,-2.413520,-1.662453,1.042269,-1.355784,1.794223,1.084586,-0.549928,0.347994,0.002446,0.218329,-0.277366,-0.340724,0.461651,-0.187619,16.839949,35.214886,-21.076248,-1.321535,0.464567,1.507064,-0.136552,0.000000,0.000000,0.000000,0.000000,0.000000,0.000000
11806609.000000,-2.413146,-1.662458,1.042521,-1.356106,1.793823,1.085116,-0.550121,0.352629,0.000044,0.229040,-0.298943,-0.367354,0.484733,-0.189782,17.038313,35.290264,-21.024673,-1.226320,0.494779,1.461288,-0.089860,0.000000,0.000000,0.000000,0.000000,0.000000,0.000000
11806610.000000,-2.412760,-1.662460,1.042777,-1.356436,1.793405,1.085665,-0.550306,0.364263,-0.000395,0.234747,-0.310325,-0.379543,0.508169,-0.190033,17.359663,35.314068,-20.877884,-1.297731,0.500272,1.487838,-0.077042,0.000000,0.000000,0.000000,0.000000,0.000000,0.000000
11806611.000000,-2.412349,-1.662461,1.043055,-1.356782,1.792965,1.086234,-0.550478,0.381453,-0.000721,0.246143,-0.320758,-0.404979,0.528319,-0.181854,17.530256,35.337872,-20.905655,-1.297731,0.452665,1.591293,-0.142960,0.000000,0.000000,0.000000,0.000000,0.000000,0.000000
11806612.000000,-2.411936,-1.662463,1.043335,-1.357145,1.792522,1.086816,-0.550662,0.392064,-0.000963,0.257344,-0.336047,-0.416416,0.544694,-0.183972,17.756392,35.361675,-20.905655,-1.250124,0.422452,1.662704,-0.097184,0.000000,0.000000,0.000000,0.000000,0.000000,0.000000
11806613.000000,-2.411504,-1.662458,1.043626,-1.357524,1.792058,1.087445,-0.550829,0.404350,0.001084,0.266384,-0.347270,-0.432916,0.570792,-0.179213,17.978559,35.290264,-20.806473,-1.174745,0.416959,1.591293,-0.130143,0.000000,0.000000,0.000000,0.000000,0.000000,0.000000
11806614.000000,-2.411063,-1.662454,1.043929,-1.357913,1.791569,1.088095,-0.551002,0.415502,0.001971,0.276651,-0.368344,-0.448662,0.597303,-0.176721,18.200727,35.238689,-20.707291,-1.027956,0.434354,1.494247,-0.122819,0.000000,0.000000,0.000000,0.000000,0.000000,0.000000
11806615.000000,-2.410598,-1.662454,1.044238,-1.358320,1.791080,1.088768,-0.551170,0.429182,0.001345,0.285581,-0.379333,-0.459090,0.612922,-0.175603,18.323713,35.238689,-20.659683,-0.904970,0.464567,1.377059,-0.110001,0.000000,0.000000,0.000000,0.000000,0.000000,0.000000
11806616.000000,-2.410128,-1.662440,1.044563,-1.358753,1.790564,1.089461,-0.551334,0.436822,0.008050,0.295946,-0.396602,-0.478568,0.638552,-0.167551,18.573652,35.068096,-20.659683,-0.631227,0.547880,1.259872,-0.136552,0.000000,0.000000,0.000000,0.000000,0.000000,0.000000
11806617.000000,-2.409639,-1.662434,1.044891,-1.359186,1.790049,1.090155,-0.551505,0.449141,0.009932,0.304965,-0.406482,-0.495737,0.654326,-0.169360,18.422895,35.020489,-20.560501,-0.508241,0.673307,1.227828,-0.103593,0.000000,0.000000,0.000000,0.000000,0.000000,0.000000
11806618.000000,-2.409153,-1.662421,1.045228,-1.359639,1.789529,1.090874,-0.551660,0.452225,0.010529,0.317510,-0.421279,-0.505867,0.665836,-0.163599,17.803999,34.873699,-20.167740,-0.583620,0.739225,1.285506,-0.130143,0.000000,0.000000,0.000000,0.000000,0.000000,0.000000
11806619.000000,-2.408677,-1.662408,1.045606,-1.360107,1.788995,1.091588,-0.551819,0.449178,0.006253,0.338930,-0.438743,-0.512648,0.680259,-0.163797,16.617781,34.651531,-19.846390,-0.853395,0.817045,1.377059,-0.155778,0.000000,0.000000,0.000000,0.000000,0.000000,0.000000
11806620.000000,-2.408204,-1.662392,1.045998,-1.360588,1.788482,1.092338,-0.551990,0.455199,0.009272,0.357014,-0.450839,-0.511347,0.696316,-0.165652,14.931684,34.286541,-19.334610,-1.174745,0.805143,1.435653,-0.103593,0.000000,0.000000,0.000000,0.000000,0.000000,0.000000
11806621.000000,-2.407729,-1.662376,1.046410,-1.361073,1.787966,1.093110,-0.552144,0.460773,0.010363,0.371544,-0.458340,-0.508283,0.715527,-0.162967,13.003583,33.822369,-18.620499,-1.670656,0.661405,1.442062,-0.196061,0.000000,0.000000,0.000000,0.000000,0.000000,0.000000
11806622.000000,-2.407267,-1.662375,1.046852,-1.361564,1.787460,1.093880,-0.552310,0.464912,0.009856,0.388913,-0.463662,-0.504273,0.728578,-0.166262,11.095319,33.528790,-17.981766,-1.992006,0.535978,1.370651,-0.136552,0.000000,0.000000,0.000000,0.000000,0.000000,0.000000
11806623.000000,-2.406805,-1.662364,1.047323,-1.362063,1.786958,1.094675,-0.552474,0.469268,0.009631,0.412055,-0.466587,-0.502925,0.748766,-0.167764,9.290204,33.088421,-17.343033,-2.360964,0.332731,1.220504,-0.122819,0.000000,0.000000,0.000000,0.000000,0.000000,0.000000
11806624.000000,-2.406353,-1.662365,1.047804,-1.362566,1.786459,1.095455,-0.552635,0.469288,0.005764,0.429047,-0.475123,-0.495284,0.778971,-0.162619,7.703290,32.790874,-16.680496,-2.606935,0.178007,1.077682,-0.136552,0.000000,0.000000,0.000000,0.000000,0.000000,0.000000
11806625.000000,-2.405906,-1.662368,1.048296,-1.363053,1.785974,1.096235,-0.552799,0.464495,0.004888,0.444839,-0.477616,-0.493367,0.772530,-0.164872,6.394086,32.548870,-16.140945,-2.880678,0.117582,0.960494,-0.070634,0.000000,0.000000,0.000000,0.000000,0.000000,0.000000
11806626.000000,-2.405456,-1.662372,1.048792,-1.363543,1.785479,1.097015,-0.552947,0.460631,0.001436,0.459063,-0.475233,-0.487841,0.768377,-0.159921,5.255476,32.302898,-15.478409,-3.154421,0.105680,0.895492,-0.103593,0.000000,0.000000,0.000000,0.000000,0.000000,0.000000
11806627.000000,-2.405015,-1.662378,1.049286,-1.364010,1.784992,1.097786,-0.553099,0.454167,-0.002256,0.466363,-0.482608,-0.495430,0.772151,-0.156004,4.311262,32.108501,-14.891251,-3.499574,0.207303,0.824081,-0.130143,0.000000,0.000000,0.000000,0.000000,0.000000,0.000000
11806628.000000,-2.404571,-1.662384,1.049782,-1.364485,1.784505,1.098554,-0.553248,0.448639,-0.004200,0.473536,-0.480526,-0.496662,0.766946,-0.154087,3.569379,31.886333,-14.228714,-3.769350,0.255826,0.830489,-0.149369,0.000000,0.000000,0.000000,0.000000,0.000000,0.000000
11806629.000000,-2.404120,-1.662387,1.050292,-1.364960,1.784027,1.099317,-0.553409,0.447512,-0.004986,0.481546,-0.479992,-0.488693,0.761036,-0.154059,2.851301,31.640362,-13.736771,-3.967714,0.267728,0.895492,-0.110001,0.000000,0.000000,0.000000,0.000000,0.000000,0.000000
11806630.000000,-2.403658,-1.662393,1.050790,-1.365442,1.783555,1.100062,-0.553564,0.450864,-0.006963,0.484289,-0.481572,-0.487052,0.756203,-0.156144,2.061811,31.445965,-13.197220,-3.820925,0.327238,0.987045,-0.097184,0.000000,0.000000,0.000000,0.000000,0.000000,0.000000
11806631.000000,-2.403193,-1.662401,1.051294,-1.365933,1.783079,1.100828,-0.553711,0.452255,-0.010030,0.486569,-0.484486,-0.476277,0.754241,-0.152282,1.367536,31.322979,-12.681473,-3.523378,0.308927,0.993453,-0.163102,0.000000,0.000000,0.000000,0.000000,0.000000,0.000000
11806632.000000,-2.402719,-1.662400,1.051812,-1.366424,1.782614,1.101578,-0.553871,0.451101,-0.006164,0.495450,-0.484085,-0.469074,0.761708,-0.158992,0.601850,31.080975,-12.336319,-3.202028,0.267728,0.941268,-0.103593,0.000000,0.000000,0.000000,0.000000,0.000000,0.000000
11806633.000000,-2.402240,-1.662391,1.052331,-1.366910,1.782160,1.102340,-0.554019,0.456670,-0.000393,0.502666,-0.482649,-0.466318,0.756968,-0.150535,-0.068621,30.712017,-12.165726,-2.904482,0.183500,0.895492,-0.149369,0.000000,0.000000,0.000000,0.000000,0.000000,0.000000
11806634.000000,-2.401767,-1.662380,1.052858,-1.367387,1.781701,1.103104,-0.554167,0.459458,0.005595,0.506101,-0.481090,-0.459365,0.752022,-0.149094,-0.512957,30.394634,-11.971329,-2.706117,0.105680,0.889083,-0.169511,0.000000,0.000000,0.000000,0.000000,0.000000,0.000000
11806635.000000,-2.401296,-1.662362,1.053384,-1.367849,1.781254,1.103847,-0.554328,0.461795,0.008005,0.513289,-0.475619,-0.458549,0.758231,-0.151743,-0.961260,30.025677,-11.820572,-2.733888,0.081876,0.863448,-0.089860,0.000000,0.000000,0.000000,0.000000,0.000000,0.000000
11806636.000000,-2.400834,-1.662342,1.053913,-1.368317,1.780786,1.104595,-0.554472,0.459858,0.010762,0.520883,-0.474771,-0.462917,0.752633,-0.148502,-1.108050,29.609112,-11.626175,-2.757692,0.093778,0.954086,-0.169511,0.000000,0.000000,0.000000,0.000000,0.000000,0.000000
11806637.000000,-2.400376,-1.662323,1.054467,-1.368781,1.780327,1.105327,-0.554635,0.463301,0.012545,0.530893,-0.468330,-0.459493,0.762035,-0.150964,-1.306414,29.196514,-11.626175,-2.805300,0.100187,1.123458,-0.116410,0.000000,0.000000,0.000000,0.000000,0.000000,0.000000
11806638.000000,-2.399898,-1.662303,1.055016,-1.369230,1.779880,1.106064,-0.554791,0.467067,0.013388,0.538006,-0.460710,-0.458890,0.752468,-0.151658,-1.603961,28.803753,-11.503189,-2.979860,0.123990,1.234237,-0.097184,0.000000,0.000000,0.000000,0.000000,0.000000,0.000000
11806639.000000,-2.399427,-1.662280,1.055580,-1.369674,1.779416,1.106835,-0.554943,0.468749,0.017028,0.543318,-0.453635,-0.457342,0.756848,-0.153214,-1.778521,28.410992,-11.431778,-3.178224,0.178007,1.142684,-0.169511,0.000000,0.000000,0.000000,0.000000,0.000000,0.000000
11806640.000000,-2.398953,-1.662259,1.056144,-1.370122,1.778970,1.107605,-0.555110,0.464874,0.017963,0.550951,-0.452334,-0.457129,0.768863,-0.160214,-2.123675,28.093609,-11.332596,-3.249635,0.201810,0.954086,-0.097184,0.000000,0.000000,0.000000,0.000000,0.000000,0.000000
11806641.000000,-2.398469,-1.662241,1.056717,-1.370562,1.778519,1.108371,-0.555258,0.468125,0.022229,0.560248,-0.444730,-0.454085,0.762066,-0.159267,-2.492632,27.895245,-11.134232,-3.348818,0.195402,0.876266,-0.163102,0.000000,0.000000,0.000000,0.000000,0.000000,0.000000
11806642.000000,-2.397984,-1.662234,1.057292,-1.371005,1.778067,1.109133,-0.555411,0.469563,0.018455,0.562697,-0.441841,-0.453088,0.763477,-0.156689,-2.817950,27.871441,-10.888260,-3.448000,0.178007,0.901900,-0.169511,0.000000,0.000000,0.000000,0.000000,0.000000,0.000000
11806643.000000,-2.397494,-1.662224,1.057872,-1.371438,1.777629,1.109875,-0.555567,0.478376,0.013157,0.568521,-0.442081,-0.448150,0.754926,-0.159198,-3.210711,27.847637,-10.646255,-3.448000,0.171598,0.941268,-0.149369,0.000000,0.000000,0.000000,0.000000,0.000000,0.000000
11806644.000000,-2.397003,-1.662217,1.058459,-1.371871,1.777193,1.110643,-0.555721,0.480339,0.011611,0.569422,-0.436289,-0.445847,0.753732,-0.157318,-3.536028,27.871441,-10.301102,-3.523378,0.105680,0.928451,-0.142960,0.000000,0.000000,0.000000,0.000000,0.000000,0.000000
11806645.000000,-2.396507,-1.662211,1.059048,-1.372286,1.776759,1.111384,-0.555879,0.482212,0.010674,0.580112,-0.441219,-0.449530,0.754155,-0.157271,-3.980364,27.895245,-10.031326,-3.670168,0.088285,0.928451,-0.103593,0.000000,0.000000,0.000000,0.000000,0.000000,0.000000
11806646.000000,-2.396003,-1.662208,1.059659,-1.372702,1.776330,1.112139,-0.556023,0.488982,0.006488,0.586048,-0.430490,-0.441673,0.750766,-0.156008,-4.400897,27.946819,-9.832962,-3.868532,0.088285,0.908309,-0.163102,0.000000,0.000000,0.000000,0.000000,0.000000,0.000000
11806647.000000,-2.395503,-1.662205,1.060280,-1.373116,1.775893,1.112900,-0.556170,0.486942,0.006799,0.594581,-0.423209,-0.441958,0.746755,-0.150413,-4.746050,27.994427,-9.709976,-4.043092,0.022367,0.915633,-0.149369,0.000000,0.000000,0.000000,0.000000,0.000000,0.000000
11806648.000000,-2.395004,-1.662207,1.060901,-1.373517,1.775464,1.113640,-0.556320,0.492114,0.002801,0.601660,-0.413998,-0.437009,0.749380,-0.150480,-5.142779,28.093609,-9.590958,-4.265260,0.052579,0.908309,-0.130143,0.000000,0.000000,0.000000,0.000000,0.000000,0.000000
11806649.000000,-2.394504,-1.662207,1.061546,-1.373920,1.775040,1.114395,-0.556463,0.489837,0.004367,0.615033,-0.411884,-0.429249,0.749343,-0.149781,-5.440325,28.141216,-9.563187,-4.388246,0.034269,0.934859,-0.149369,0.000000,0.000000,0.000000,0.000000,0.000000,0.000000
11806650.000000,-2.394006,-1.662213,1.062211,-1.374320,1.774610,1.115137,-0.556604,0.491154,0.000629,0.631703,-0.406482,-0.428559,0.748866,-0.148634,-5.714068,28.264202,-9.709976,-4.562807,-0.025240,0.987045,-0.175919,0.000000,0.000000,0.000000,0.000000,0.000000,0.000000
11806651.000000,-2.393498,-1.662210,1.062882,-1.374716,1.774190,1.115885,-0.556753,0.497351,0.001423,0.641941,-0.405360,-0.425320,0.740010,-0.146116,-6.059222,28.240398,-9.884537,-4.610414,-0.025240,1.019088,-0.136552,0.000000,0.000000,0.000000,0.000000,0.000000,0.000000
11806652.000000,-2.392983,-1.662211,1.063569,-1.375111,1.773777,1.116658,-0.556900,0.503002,0.000727,0.654166,-0.399162,-0.419275,0.744216,-0.147049,-6.432147,28.264202,-10.078934,-4.709596,-0.097567,0.889083,-0.136552,0.000000,0.000000,0.000000,0.000000,0.000000,0.000000
11806653.000000,-2.392468,-1.662213,1.064254,-1.375501,1.773344,1.117412,-0.557049,0.507847,0.000179,0.666252,-0.397068,-0.431732,0.754463,-0.148314,-6.852679,28.288006,-10.201920,-4.733400,-0.031649,0.811263,-0.130143,0.000000,0.000000,0.000000,0.000000,0.000000,0.000000
11806654.000000,-2.391960,-1.662218,1.064960,-1.375892,1.772917,1.118148,-0.557190,0.504791,-0.000899,0.674177,-0.394211,-0.434086,0.747304,-0.142844,-7.150225,28.339581,-10.400284,-4.784975,0.010465,0.987045,-0.163102,0.000000,0.000000,0.000000,0.000000,0.000000,0.000000
11806655.000000,-2.391446,-1.662226,1.065677,-1.376281,1.772503,1.118875,-0.557339,0.511414,-0.002685,0.686484,-0.392037,-0.427599,0.754006,-0.145054,-7.542986,28.434795,-10.495499,-4.856386,-0.007845,1.149093,-0.149369,0.000000,0.000000,0.000000,0.000000,0.000000,0.000000
11806656.000000,-2.390927,-1.662238,1.066389,-1.376669,1.772072,1.119617,-0.557488,0.515075,-0.005675,0.696971,-0.390232,-0.428446,0.743699,-0.150836,-7.864336,28.605389,-10.495499,-4.931764,0.093778,1.214095,-0.116410,0.000000,0.000000,0.000000,0.000000,0.000000,0.000000
11806657.000000,-2.390411,-1.662254,1.067111,-1.377067,1.771642,1.120372,-0.557626,0.513484,-0.008901,0.701058,-0.390771,-0.425278,0.741514,-0.143917,-8.114276,28.827557,-10.400284,-4.884157,0.141385,1.214095,-0.169511,0.000000,0.000000,0.000000,0.000000,0.000000,0.000000
11806658.000000,-2.389902,-1.662263,1.067843,-1.377469,1.771235,1.121095,-0.557771,0.515500,-0.008194,0.724866,-0.394341,-0.432225,0.734655,-0.140298,-8.388019,28.926739,-10.348709,-4.733400,0.088285,1.259872,-0.163102,0.000000,0.000000,0.000000,0.000000,0.000000,0.000000
11806659.000000,-2.389389,-1.662274,1.068582,-1.377871,1.770811,1.121838,-0.557908,0.511022,-0.008202,0.726335,-0.395607,-0.427882,0.735606,-0.142991,-8.610187,29.045757,-10.225723,-4.634218,0.105680,1.240646,-0.163102,0.000000,0.000000,0.000000,0.000000,0.000000,0.000000
11806660.000000,-2.388877,-1.662286,1.069341,-1.378276,1.770396,1.122594,-0.558059,0.506328,-0.008311,0.732504,-0.395308,-0.418904,0.735865,-0.146221,-8.709369,29.168743,-10.078934,-4.562807,0.076383,1.117049,-0.110001,0.000000,0.000000,0.000000,0.000000,0.000000,0.000000
11806661.000000,-2.388382,-1.662301,1.070087,-1.378672,1.769993,1.123331,-0.558197,0.505342,-0.008950,0.737094,-0.393575,-0.422682,0.736526,-0.143751,-8.756976,29.315533,-9.860733,-4.439821,0.058073,0.974227,-0.169511,0.000000,0.000000,0.000000,0.000000,0.000000,0.000000
11806662.000000,-2.387882,-1.662311,1.070859,-1.379071,1.769571,1.124066,-0.558336,0.503520,-0.010881,0.747365,-0.389078,-0.416400,0.741893,-0.145148,-8.780780,29.390911,-9.686172,-4.412050,0.076383,1.031905,-0.182328,0.000000,0.000000,0.000000,0.000000,0.000000,0.000000
11806663.000000,-2.387399,-1.662319,1.071640,-1.379457,1.769164,1.124791,-0.558485,0.495998,-0.008618,0.751043,-0.395492,-0.408156,0.741602,-0.143592,-8.610187,29.438519,-9.491776,-4.439821,0.040677,1.136276,-0.122819,0.000000,0.000000,0.000000,0.000000,0.000000,0.000000
11806664.000000,-2.386908,-1.662325,1.072411,-1.379841,1.768760,1.125533,-0.558624,0.492202,-0.008987,0.757321,-0.386329,-0.410387,0.736561,-0.146440,-8.582416,29.438519,-9.146622,-4.634218,0.058073,1.123458,-0.169511,0.000000,0.000000,0.000000,0.000000,0.000000,0.000000
11806665.000000,-2.386420,-1.662326,1.073203,-1.380230,1.768346,1.126288,-0.558772,0.488837,-0.005273,0.765052,-0.379745,-0.406044,0.738481,-0.148795,-8.459430,29.390911,-8.952225,-4.685792,0.046171,1.071273,-0.130143,0.000000,0.000000,0.000000,0.000000,0.000000,0.000000
11806666.000000,-2.385944,-1.662316,1.074005,-1.380617,1.767943,1.127036,-0.558911,0.491939,0.001385,0.778618,-0.382062,-0.402166,0.741231,-0.146876,-8.336444,29.168743,-8.900650,-4.709596,0.004056,0.980636,-0.142960,0.000000,0.000000,0.000000,0.000000,0.000000,0.000000
11806667.000000,-2.385452,-1.662314,1.074817,-1.381006,1.767539,1.127807,-0.559046,0.488736,-0.000246,0.786605,-0.379697,-0.401893,0.742736,-0.147526,-8.360248,29.073528,-8.777664,-4.757204,0.034269,0.863448,-0.149369,0.000000,0.000000,0.000000,0.000000,0.000000,0.000000
11806668.000000,-2.384976,-1.662304,1.075645,-1.381398,1.767133,1.128558,-0.559187,0.481069,0.005726,0.791423,-0.386404,-0.396087,0.751192,-0.148520,-8.261065,29.073528,-8.876846,-4.733400,0.040677,0.830489,-0.130143,0.000000,0.000000,0.000000,0.000000,0.000000,0.000000
11806669.000000,-2.384494,-1.662296,1.076451,-1.381789,1.766740,1.129318,-0.559319,0.478621,0.006577,0.788606,-0.388171,-0.391842,0.753967,-0.143127,-8.038898,29.367107,-9.269608,-4.709596,0.058073,0.895492,-0.163102,0.000000,0.000000,0.000000,0.000000,0.000000,0.000000
11806670.000000,-2.384012,-1.662297,1.077263,-1.382180,1.766356,1.130081,-0.559459,0.477910,0.008704,0.786271,-0.387306,-0.386912,0.749716,-0.139479,-7.570757,30.025677,-10.007523,-4.733400,0.046171,1.012679,-0.169511,0.000000,0.000000,0.000000,0.000000,0.000000,0.000000
11806671.000000,-2.383540,-1.662290,1.078057,-1.382557,1.765974,1.130837,-0.559602,0.476162,0.009816,0.785916,-0.383267,-0.390121,0.755746,-0.138308,-7.023272,30.759624,-10.939835,-4.808778,0.022367,1.031905,-0.142960,0.000000,0.000000,0.000000,0.000000,0.000000,0.000000
11806672.000000,-2.383061,-1.662280,1.078846,-1.382939,1.765592,1.131616,-0.559735,0.473947,0.008667,0.791826,-0.386111,-0.383145,0.758325,-0.135250,-6.479754,31.616558,-11.895950,-4.907960,0.034269,1.064864,-0.163102,0.000000,0.000000,0.000000,0.000000,0.000000,0.000000
11806673.000000,-2.382577,-1.662258,1.079649,-1.383323,1.765208,1.132377,-0.559876,0.487049,0.008761,0.796566,-0.383800,-0.375282,0.759624,-0.139662,-6.059222,32.326702,-13.074234,-4.931764,0.105680,1.162826,-0.142960,0.000000,0.000000,0.000000,0.000000,0.000000,0.000000
11806674.000000,-2.382086,-1.662233,1.080434,-1.383704,1.764825,1.133129,-0.560014,0.488719,0.014156,0.794046,-0.386689,-0.378806,0.752151,-0.137435,-5.785479,32.965435,-14.153336,-4.884157,0.183500,1.344100,-0.149369,0.000000,0.000000,0.000000,0.000000,0.000000,0.000000
11806675.000000,-2.381596,-1.662205,1.081226,-1.384098,1.764437,1.133897,-0.560149,0.486775,0.013755,0.788528,-0.390365,-0.380961,0.752228,-0.135977,-5.464129,33.528790,-15.038040,-4.733400,0.308927,1.494247,-0.149369,0.000000,0.000000,0.000000,0.000000,0.000000,0.000000
11806676.000000,-2.381108,-1.662173,1.082009,-1.384480,1.764053,1.134662,-0.560280,0.479357,0.016099,0.801414,-0.391515,-0.380590,0.759286,-0.134341,-5.265765,33.969158,-15.799759,-4.661989,0.458158,1.481429,-0.155778,0.000000,0.000000,0.000000,0.000000,0.000000,0.000000
11806677.000000,-2.380621,-1.662141,1.082817,-1.384870,1.763675,1.135415,-0.560417,0.476443,0.019441,0.807818,-0.389139,-0.377197,0.747412,-0.135036,-5.095171,34.334148,-16.509903,-4.610414,0.422452,1.539108,-0.122819,0.000000,0.000000,0.000000,0.000000,0.000000,0.000000
11806678.000000,-2.380140,-1.662109,1.083637,-1.385252,1.763296,1.136163,-0.560546,0.476505,0.023156,0.810792,-0.389098,-0.369724,0.746103,-0.131662,-4.773821,34.627728,-17.271622,-4.610414,0.362943,1.656295,-0.169511,0.000000,0.000000,0.000000,0.000000,0.000000,0.000000
11806679.000000,-2.379661,-1.662085,1.084447,-1.385629,1.762926,1.136902,-0.560677,0.484090,0.023114,0.814009,-0.384906,-0.368777,0.746910,-0.131834,-4.599261,35.020489,-17.787369,-4.661989,0.291532,1.721298,-0.169511,0.000000,0.000000,0.000000,0.000000,0.000000,0.000000
11806680.000000,-2.379192,-1.662072,1.085258,-1.386001,1.762550,1.137654,-0.560810,0.471945,0.020997,0.810157,-0.376412,-0.368848,0.744222,-0.132898,-4.250140,35.508465,-18.057144,-4.784975,0.243009,1.702071,-0.142960,0.000000,0.000000,0.000000,0.000000,0.000000,0.000000
11806681.000000,-2.378723,-1.662060,1.086092,-1.386371,1.762165,1.138380,-0.560940,0.462893,0.018075,0.813052,-0.380149,-0.375929,0.744279,-0.131834,-4.055743,35.925030,-18.398331,-4.931764,0.231107,1.793624,-0.163102,0.000000,0.000000,0.000000,0.000000,0.000000,0.000000
11806682.000000,-2.378254,-1.662054,1.086926,-1.386737,1.761787,1.139111,-0.561070,0.459877,0.015721,0.816595,-0.373384,-0.379238,0.734626,-0.131699,-3.829607,36.341595,-18.890274,-5.078554,0.171598,1.884261,-0.169511,0.000000,0.000000,0.000000,0.000000,0.000000,0.000000
11806683.000000,-2.377779,-1.662052,1.087768,-1.387096,1.761397,1.139868,-0.561202,0.462666,0.013320,0.816766,-0.365362,-0.384148,0.735197,-0.130608,-3.682818,36.781963,-19.211624,-5.328493,0.195402,1.779891,-0.182328,0.000000,0.000000,0.000000,0.000000,0.000000,0.000000
11806684.000000,-2.377313,-1.662064,1.088594,-1.387443,1.760993,1.140617,-0.561333,0.465732,0.006129,0.817209,-0.360520,-0.389184,0.745098,-0.132477,-3.583636,37.321514,-19.453629,-5.574464,0.374845,1.526290,-0.142960,0.000000,0.000000,0.000000,0.000000,0.000000,0.000000
11806685.000000,-2.376836,-1.662084,1.089444,-1.387794,1.760600,1.141368,-0.561458,0.466615,-0.003349,0.824750,-0.359017,-0.392220,0.743655,-0.132119,-3.583636,37.908672,-19.727371,-5.848207,0.428861,1.448470,-0.149369,0.000000,0.000000,0.000000,0.000000,0.000000,0.000000
11806686.000000,-2.376354,-1.662102,1.090304,-1.388145,1.760211,1.142083,-0.561581,0.471390,-0.007803,0.829361,-0.353526,-0.388382,0.754505,-0.129246,-3.758196,38.396648,-20.092361,-6.070375,0.434354,1.611434,-0.202470,0.000000,0.000000,0.000000,0.000000,0.000000,0.000000
11806687.000000,-2.375875,-1.662136,1.091146,-1.388488,1.759822,1.142797,-0.561718,0.469962,-0.014237,0.831997,-0.350448,-0.386603,0.734865,-0.132515,-3.881182,39.011578,-20.290726,-6.240968,0.470060,1.754256,-0.130143,0.000000,0.000000,0.000000,0.000000,0.000000,0.000000
11806688.000000,-2.375391,-1.662174,1.091991,-1.388840,1.759442,1.143537,-0.561846,0.472178,-0.021262,0.828490,-0.349150,-0.380977,0.734708,-0.130571,-4.027972,39.598736,-20.437515,-6.340150,0.410551,1.779891,-0.169511,0.000000,0.000000,0.000000,0.000000,0.000000,0.000000
11806689.000000,-2.374906,-1.662214,1.092825,-1.389183,1.759070,1.144262,-0.561982,0.478661,-0.026436,0.830249,-0.347911,-0.381318,0.729926,-0.126388,-4.250140,40.185894,-20.536697,-6.463136,0.381254,1.819259,-0.149369,0.000000,0.000000,0.000000,0.000000,0.000000,0.000000
11806690.000000,-2.374418,-1.662252,1.093668,-1.389527,1.758685,1.144979,-0.562112,0.478091,-0.034272,0.833098,-0.341947,-0.378921,0.719635,-0.126639,-4.424700,40.673870,-20.683487,-6.661500,0.332731,1.981307,-0.155778,0.000000,0.000000,0.000000,0.000000,0.000000,0.000000
11806691.000000,-2.373932,-1.662287,1.094517,-1.389878,1.758307,1.145695,-0.562239,0.487156,-0.032292,0.833530,-0.340575,-0.377609,0.722958,-0.126570,-4.722247,41.090435,-20.782669,-6.736879,0.291532,2.033492,-0.182328,0.000000,0.000000,0.000000,0.000000,0.000000,0.000000
11806692.000000,-2.373445,-1.662325,1.095344,-1.390216,1.757933,1.146439,-0.562373,0.485559,-0.033663,0.832530,-0.344036,-0.375496,0.724809,-0.129454,-4.920611,41.483196,-20.806473,-6.883668,0.351041,1.962081,-0.142960,0.000000,0.000000,0.000000,0.000000,0.000000,0.000000
11806693.000000,-2.372955,-1.662364,1.096175,-1.390556,1.757556,1.147194,-0.562501,0.484812,-0.031725,0.827532,-0.342212,-0.376080,0.727228,-0.128130,-5.142779,41.875957,-20.707291,-7.058229,0.405057,1.825668,-0.182328,0.000000,0.000000,0.000000,0.000000,0.000000,0.000000
11806694.000000,-2.372474,-1.662397,1.097003,-1.390890,1.757184,1.147920,-0.562625,0.481566,-0.031821,0.830189,-0.341914,-0.379479,0.730947,-0.127514,-5.392718,42.193340,-20.754898,-7.232790,0.416959,1.800033,-0.208878,0.000000,0.000000,0.000000,0.000000,0.000000,0.000000
11806695.000000,-2.371989,-1.662426,1.097849,-1.391221,1.756810,1.148655,-0.562755,0.480608,-0.031024,0.834018,-0.337437,-0.373977,0.730381,-0.124989,-5.587115,42.463116,-20.782669,-7.454957,0.428861,1.844894,-0.169511,0.000000,0.000000,0.000000,0.000000,0.000000,0.000000
11806696.000000,-2.371514,-1.662460,1.098695,-1.391538,1.756448,1.149400,-0.562885,0.475985,-0.031763,0.832364,-0.328642,-0.367544,0.728361,-0.126924,-5.587115,42.780499,-20.782669,-7.776308,0.362943,1.812850,-0.155778,0.000000,0.000000,0.000000,0.000000,0.000000,0.000000
11806697.000000,-2.371035,-1.662490,1.099515,-1.391856,1.756085,1.150133,-0.563010,0.476188,-0.029984,0.830345,-0.323474,-0.363794,0.729959,-0.127236,-5.761675,42.998699,-20.584305,-8.046083,0.327238,1.702071,-0.163102,0.000000,0.000000,0.000000,0.000000,0.000000,0.000000
11806698.000000,-2.370563,-1.662514,1.100351,-1.392176,1.755723,1.150862,-0.563135,0.474319,-0.029938,0.826481,-0.320794,-0.357898,0.723036,-0.127375,-5.837054,43.121685,-20.560501,-8.244448,0.332731,1.760665,-0.188737,0.000000,0.000000,0.000000,0.000000,0.000000,0.000000
11806699.000000,-2.370091,-1.662534,1.101204,-1.392487,1.755375,1.151580,-0.563269,0.473760,-0.027828,0.827288,-0.318571,-0.354782,0.724200,-0.125324,-5.936236,43.145489,-20.683487,-8.466616,0.273221,1.819259,-0.149369,0.000000,0.000000,0.000000,0.000000,0.000000,0.000000
11806700.000000,-2.369611,-1.662554,1.102023,-1.392802,1.755024,1.152313,-0.563389,0.476975,-0.026093,0.822854,-0.317549,-0.355172,0.721571,-0.126091,-6.106829,43.145489,-20.608109,-8.664980,0.249418,1.851302,-0.175919,0.000000,0.000000,0.000000,0.000000,0.000000,0.000000
11806701.000000,-2.369144,-1.662578,1.102854,-1.393108,1.754662,1.153056,-0.563516,0.470610,-0.022594,0.817527,-0.312350,-0.351511,0.728119,-0.128577,-6.134600,43.173260,-20.512894,-8.887148,0.285123,1.779891,-0.142960,0.000000,0.000000,0.000000,0.000000,0.000000,0.000000
11806702.000000,-2.368680,-1.662597,1.103681,-1.393408,1.754318,1.153786,-0.563642,0.468612,-0.018910,0.816446,-0.310114,-0.348106,0.726430,-0.128118,-6.233782,43.145489,-20.584305,-9.184694,0.267728,1.754256,-0.155778,0.000000,0.000000,0.000000,0.000000,0.000000,0.000000
11806703.000000,-2.368212,-1.662613,1.104531,-1.393718,1.753971,1.154513,-0.563762,0.466920,-0.018575,0.822677,-0.308818,-0.344570,0.718615,-0.123260,-6.257586,43.074078,-20.806473,-9.355288,0.219205,1.851302,-0.182328,0.000000,0.000000,0.000000,0.000000,0.000000,0.000000
11806704.000000,-2.367760,-1.662632,1.105376,-1.394016,1.753625,1.155228,-0.563890,0.454199,-0.018978,0.824777,-0.304064,-0.340005,0.727467,-0.127300,-6.182208,43.026470,-20.953262,-9.676638,0.117582,1.884261,-0.116410,0.000000,0.000000,0.000000,0.000000,0.000000,0.000000
11806705.000000,-2.367302,-1.662652,1.106208,-1.394314,1.753280,1.155978,-0.564000,0.453237,-0.020655,0.819031,-0.299337,-0.340386,0.734304,-0.125920,-6.158404,43.026470,-21.076248,-9.926577,0.112089,1.779891,-0.182328,0.000000,0.000000,0.000000,0.000000,0.000000,0.000000
11806706.000000,-2.366850,-1.662670,1.107046,-1.394616,1.752938,1.156720,-0.564119,0.451043,-0.021093,0.817574,-0.297313,-0.335197,0.735265,-0.122052,-6.011614,42.998699,-21.246841,-10.073366,0.112089,1.747848,-0.202470,0.000000,0.000000,0.000000,0.000000,0.000000,0.000000
11806707.000000,-2.366412,-1.662682,1.107881,-1.394899,1.752606,1.157426,-0.564254,0.447597,-0.019273,0.838473,-0.296187,-0.345237,0.725516,-0.123598,-5.813250,42.875713,-21.445206,-10.370913,0.027860,1.890670,-0.103593,0.000000,0.000000,0.000000,0.000000,0.000000,0.000000
11806708.000000,-2.365973,-1.662704,1.108719,-1.395200,1.752268,1.158156,-0.564372,0.439341,-0.022287,0.832033,-0.297338,-0.343918,0.726171,-0.119065,-5.614886,42.927288,-21.568192,-10.446291,0.010465,1.916305,-0.136552,0.000000,0.000000,0.000000,0.000000,0.000000,0.000000
11806709.000000,-2.365559,-1.662717,1.109563,-1.395494,1.751927,1.158897,-0.564492,0.430548,-0.018759,0.830418,-0.296377,-0.338823,0.726858,-0.116330,-5.166583,42.875713,-21.663406,-10.593081,0.015958,1.851302,-0.163102,0.000000,0.000000,0.000000,0.000000,0.000000,0.000000
11806710.000000,-2.365135,-1.662732,1.110390,-1.395779,1.751595,1.159623,-0.564611,0.427222,-0.016170,0.828878,-0.295020,-0.339601,0.729025,-0.119474,-4.845232,42.828106,-21.738785,-10.767641,0.022367,1.858627,-0.182328,0.000000,0.000000,0.000000,0.000000,0.000000,0.000000
11806711.000000,-2.364717,-1.662747,1.111225,-1.396082,1.751257,1.160341,-0.564739,0.421985,-0.018004,0.824647,-0.295848,-0.337863,0.726536,-0.120545,-4.424700,42.804302,-21.738785,-10.692263,0.004056,1.949264,-0.110001,0.000000,0.000000,0.000000,0.000000,0.000000,0.000000
11806712.000000,-2.364307,-1.662758,1.112066,-1.396369,1.750926,1.161060,-0.564858,0.418870,-0.015744,0.827010,-0.304325,-0.333996,0.724828,-0.116565,-4.103350,42.756695,-21.810196,-10.739870,0.004056,1.949264,-0.155778,0.000000,0.000000,0.000000,0.000000,0.000000,0.000000
11806713.000000,-2.363901,-1.662775,1.112901,-1.396676,1.750591,1.161807,-0.564974,0.413420,-0.018814,0.826547,-0.304719,-0.332653,0.728953,-0.120203,-3.706622,42.780499,-21.909378,-10.593081,0.069974,1.806442,-0.163102,0.000000,0.000000,0.000000,0.000000,0.000000,0.000000
11806714.000000,-2.363489,-1.662789,1.113748,-1.396986,1.750265,1.162545,-0.565099,0.411333,-0.016793,0.827256,-0.304007,-0.331773,0.724583,-0.119672,-3.385272,42.756695,-22.079971,-10.446291,0.010465,1.702071,-0.110001,0.000000,0.000000,0.000000,0.000000,0.000000,0.000000
11806715.000000,-2.363092,-1.662801,1.114586,-1.397300,1.749928,1.163272,-0.565208,0.408995,-0.015271,0.831646,-0.311964,-0.328825,0.726699,-0.119417,-3.063921,42.728924,-22.254532,-10.220156,0.027860,1.714889,-0.149369,0.000000,0.000000,0.000000,0.000000,0.000000,0.000000
11806716.000000,-2.362696,-1.662821,1.115444,-1.397627,1.749594,1.164002,-0.565325,0.404393,-0.016524,0.840948,-0.314924,-0.326274,0.724935,-0.118551,-2.742571,42.804302,-22.571915,-9.926577,0.022367,1.786300,-0.130143,0.000000,0.000000,0.000000,0.000000,0.000000,0.000000
11806717.000000,-2.362303,-1.662840,1.116302,-1.397954,1.749259,1.164716,-0.565436,0.396891,-0.016599,0.839438,-0.316991,-0.325713,0.725345,-0.115868,-2.468829,42.851910,-22.817886,-9.652834,0.076383,1.858627,-0.163102,0.000000,0.000000,0.000000,0.000000,0.000000,0.000000
11806718.000000,-2.361912,-1.662861,1.117139,-1.398277,1.748922,1.165435,-0.565554,0.394490,-0.017806,0.840988,-0.321175,-0.335295,0.727411,-0.118399,-2.099871,42.951092,-23.016251,-9.529848,0.105680,2.014266,-0.163102,0.000000,0.000000,0.000000,0.000000,0.000000,0.000000
11806719.000000,-2.361525,-1.662883,1.118006,-1.398606,1.748585,1.166171,-0.565668,0.391018,-0.018417,0.843699,-0.323626,-0.329848,0.728691,-0.118108,-1.750750,43.050274,-23.504227,-9.430666,0.100187,2.060043,-0.130143,0.000000,0.000000,0.000000,0.000000,0.000000,0.000000
11806720.000000,-2.361141,-1.662912,1.118852,-1.398942,1.748250,1.166900,-0.565774,0.387691,-0.021158,0.849844,-0.328139,-0.331420,0.722931,-0.109523,-1.528582,43.244671,-23.825577,-9.232302,0.201810,2.033492,-0.196061,0.000000,0.000000,0.000000,0.000000,0.000000,0.000000
11806721.000000,-2.360754,-1.662937,1.119704,-1.399290,1.747911,1.167630,-0.565889,0.386618,-0.021275,0.851275,-0.333837,-0.336836,0.725175,-0.111539,-1.330218,43.367657,-24.019974,-8.934755,0.297025,2.014266,-0.155778,0.000000,0.000000,0.000000,0.000000,0.000000,0.000000
11806722.000000,-2.360372,-1.662969,1.120561,-1.399645,1.747568,1.168344,-0.566005,0.394680,-0.026035,0.853923,-0.335827,-0.337375,0.736670,-0.111855,-1.131854,43.562054,-24.166763,-8.589602,0.297025,2.060043,-0.136552,0.000000,0.000000,0.000000,0.000000,0.000000,0.000000
11806723.000000,-2.359985,-1.662999,1.121410,-1.399999,1.747225,1.169063,-0.566117,0.390868,-0.028920,0.858754,-0.339900,-0.335746,0.726376,-0.114550,-0.961260,43.732647,-24.412735,-8.268251,0.374845,2.085677,-0.163102,0.000000,0.000000,0.000000,0.000000,0.000000,0.000000
11806724.000000,-2.359607,-1.663027,1.122264,-1.400354,1.746891,1.169783,-0.566224,0.385872,-0.026747,0.858187,-0.340745,-0.330033,0.721570,-0.113649,-0.735125,43.855633,-24.559525,-7.998476,0.356534,2.027084,-0.175919,0.000000,0.000000,0.000000,0.000000,0.000000,0.000000
11806725.000000,-2.359233,-1.663060,1.123099,-1.400705,1.746565,1.170496,-0.566338,0.383574,-0.029563,0.868154,-0.346221,-0.337149,0.717645,-0.113383,-0.540728,44.026226,-24.583328,-7.823915,0.297025,1.981307,-0.169511,0.000000,0.000000,0.000000,0.000000,0.000000,0.000000
11806726.000000,-2.358859,-1.663091,1.123939,-1.401062,1.746221,1.171208,-0.566451,0.376783,-0.030645,0.859410,-0.346415,-0.334517,0.715813,-0.117952,-0.290789,44.149212,-24.511917,-7.700929,0.332731,2.007858,-0.122819,0.000000,0.000000,0.000000,0.000000,0.000000,0.000000
11806727.000000,-2.358493,-1.663121,1.124792,-1.401423,1.745883,1.171921,-0.566554,0.368631,-0.030346,0.852792,-0.350899,-0.331211,0.710075,-0.113723,0.054365,44.224590,-24.583328,-7.526369,0.339139,2.053634,-0.182328,0.000000,0.000000,0.000000,0.000000,0.000000,0.000000
11806728.000000,-2.358124,-1.663149,1.125624,-1.401787,1.745553,1.172624,-0.566663,0.365725,-0.026901,0.848088,-0.355222,-0.326060,0.714615,-0.108717,0.205121,44.296001,-24.488113,-7.304201,0.393156,2.104903,-0.188737,0.000000,0.000000,0.000000,0.000000,0.000000,0.000000
11806729.000000,-2.357752,-1.663177,1.126460,-1.402161,1.745212,1.173345,-0.566781,0.366301,-0.027802,0.836084,-0.355612,-0.331875,0.715956,-0.111178,0.375715,44.371380,-24.365128,-7.034425,0.482877,2.060043,-0.142960,0.000000,0.000000,0.000000,0.000000,0.000000,0.000000
11806730.000000,-2.357380,-1.663203,1.127299,-1.402536,1.744880,1.174068,-0.566889,0.368514,-0.030403,0.832270,-0.369166,-0.330245,0.713073,-0.109034,0.451093,44.395184,-24.265945,-6.812257,0.518583,1.897079,-0.202470,0.000000,0.000000,0.000000,0.000000,0.000000,0.000000
11806731.000000,-2.357003,-1.663228,1.128135,-1.402925,1.744544,1.174790,-0.567006,0.374508,-0.029402,0.832060,-0.371847,-0.327697,0.712846,-0.111428,0.474897,44.418987,-24.388931,-6.463136,0.542386,1.800033,-0.155778,0.000000,0.000000,0.000000,0.000000,0.000000,0.000000
11806732.000000,-2.356621,-1.663251,1.128968,-1.403316,1.744220,1.175511,-0.567115,0.377238,-0.024441,0.828393,-0.378651,-0.323826,0.715149,-0.111084,0.427289,44.395184,-24.289749,-6.169557,0.506681,1.877853,-0.169511,0.000000,0.000000,0.000000,0.000000,0.000000,0.000000
11806733.000000,-2.356249,-1.663272,1.129797,-1.403704,1.743891,1.176229,-0.567226,0.377864,-0.021161,0.825128,-0.382747,-0.325734,0.716676,-0.110877,0.403486,44.395184,-24.365128,-5.919618,0.470060,1.858627,-0.169511,0.000000,0.000000,0.000000,0.000000,0.000000,0.000000
11806734.000000,-2.355873,-1.663294,1.130634,-1.404102,1.743558,1.176956,-0.567341,0.378843,-0.021989,0.825316,-0.385857,-0.327122,0.716824,-0.112026,0.427289,44.395184,-24.436539,-5.626039,0.542386,1.832076,-0.155778,0.000000,0.000000,0.000000,0.000000,0.000000,0.000000
11806735.000000,-2.355501,-1.663309,1.131468,-1.404493,1.743237,1.177656,-0.567448,0.379585,-0.020418,0.823702,-0.386905,-0.319440,0.717289,-0.110664,0.403486,44.296001,-24.436539,-5.427675,0.530485,1.968490,-0.196061,0.000000,0.000000,0.000000,0.000000,0.000000,0.000000
11806736.000000,-2.355122,-1.663325,1.132294,-1.404885,1.742927,1.178362,-0.567561,0.379634,-0.019463,0.823905,-0.384121,-0.319134,0.706096,-0.112447,0.375715,44.200787,-24.511917,-5.253114,0.512174,2.150680,-0.169511,0.000000,0.000000,0.000000,0.000000,0.000000,0.000000
11806737.000000,-2.354742,-1.663338,1.133132,-1.405277,1.742592,1.179090,-0.567665,0.380762,-0.018750,0.818443,-0.383881,-0.321402,0.704473,-0.106207,0.304304,44.101604,-24.682510,-5.106325,0.601896,2.157089,-0.196061,0.000000,0.000000,0.000000,0.000000,0.000000,0.000000
11806738.000000,-2.354378,-1.663349,1.133954,-1.405665,1.742265,1.179816,-0.567774,0.377195,-0.017915,0.816818,-0.385798,-0.318948,0.709115,-0.103643,0.427289,43.978619,-24.757889,-4.907960,0.673307,2.001449,-0.169511,0.000000,0.000000,0.000000,0.000000,0.000000,0.000000
11806739.000000,-2.353994,-1.663363,1.134780,-1.406061,1.741946,1.180549,-0.567883,0.378922,-0.019045,0.812226,-0.385473,-0.317781,0.711855,-0.105841,0.328107,43.931011,-24.829300,-4.784975,0.661405,1.936446,-0.169511,0.000000,0.000000,0.000000,0.000000,0.000000,0.000000
11806740.000000,-2.353617,-1.663367,1.135607,-1.406453,1.741617,1.181258,-0.567992,0.377604,-0.013742,0.812636,-0.385006,-0.320019,0.715791,-0.107100,0.403486,43.760418,-24.805496,-4.685792,0.703519,1.988631,-0.175919,0.000000,0.000000,0.000000,0.000000,0.000000,0.000000
11806741.000000,-2.353245,-1.663374,1.136417,-1.406841,1.741294,1.181972,-0.568103,0.374442,-0.011783,0.811679,-0.384801,-0.319218,0.716378,-0.112153,0.403486,43.661236,-24.829300,-4.586610,0.685209,1.988631,-0.169511,0.000000,0.000000,0.000000,0.000000,0.000000,0.000000
11806742.000000,-2.352875,-1.663380,1.137235,-1.407228,1.740971,1.182703,-0.568208,0.371363,-0.010288,0.807306,-0.381982,-0.319207,0.712457,-0.106831,0.451093,43.562054,-24.757889,-4.562807,0.691617,1.955673,-0.188737,0.000000,0.000000,0.000000,0.000000,0.000000,0.000000
11806743.000000,-2.352509,-1.663378,1.138030,-1.407614,1.740664,1.183410,-0.568316,0.368423,-0.003207,0.800192,-0.384193,-0.317083,0.707397,-0.104430,0.502668,43.343853,-24.583328,-4.535036,0.667814,2.001449,-0.169511,0.000000,0.000000,0.000000,0.000000,0.000000,0.000000
11806744.000000,-2.352138,-1.663375,1.138848,-1.407990,1.740357,1.184132,-0.568423,0.372742,-0.001645,0.800432,-0.380703,-0.314722,0.708200,-0.102474,0.550275,43.145489,-24.511917,-4.610414,0.578092,2.047225,-0.155778,0.000000,0.000000,0.000000,0.000000,0.000000,0.000000
11806745.000000,-2.351762,-1.663374,1.139667,-1.408380,1.740040,1.184858,-0.568523,0.374482,-0.001883,0.798602,-0.385173,-0.314170,0.714953,-0.098219,0.550275,42.998699,-24.535721,-4.511232,0.559781,2.060043,-0.208878,0.000000,0.000000,0.000000,0.000000,0.000000,0.000000
11806746.000000,-2.351397,-1.663367,1.140460,-1.408755,1.739726,1.185581,-0.568632,0.376601,0.003340,0.793927,-0.381621,-0.312733,0.716110,-0.104517,0.574079,42.756695,-24.388931,-4.439821,0.584501,2.053634,-0.142960,0.000000,0.000000,0.000000,0.000000,0.000000,0.000000
11806747.000000,-2.351019,-1.663357,1.141269,-1.409139,1.739415,1.186319,-0.568734,0.375500,0.007180,0.790714,-0.385827,-0.316221,0.712329,-0.100713,0.474897,42.510723,-24.388931,-4.312868,0.632108,2.001449,-0.169511,0.000000,0.000000,0.000000,0.000000,0.000000,0.000000
11806748.000000,-2.350649,-1.663348,1.142089,-1.409519,1.739104,1.187035,-0.568834,0.371072,0.009384,0.793690,-0.391126,-0.314224,0.709554,-0.098389,0.451093,42.288555,-24.488113,-4.142274,0.673307,1.988631,-0.188737,0.000000,0.000000,0.000000,0.000000,0.000000,0.000000
11806749.000000,-2.350273,-1.663336,1.142894,-1.409892,1.738802,1.187769,-0.568935,0.369906,0.008969,0.797268,-0.385595,-0.305272,0.710841,-0.103151,0.427289,42.022747,-24.658707,-4.066896,0.661405,2.007858,-0.155778,0.000000,0.000000,0.000000,0.000000,0.000000,0.000000
11806750.000000,-2.349903,-1.663330,1.143708,-1.410272,1.738499,1.188499,-0.569035,0.367753,0.009470,0.793705,-0.382439,-0.304046,0.718360,-0.103837,0.427289,41.848186,-24.781693,-3.943910,0.667814,1.988631,-0.182328,0.000000,0.000000,0.000000,0.000000,0.000000,0.000000
11806751.000000,-2.349545,-1.663337,1.144505,-1.410635,1.738211,1.189211,-0.569137,0.361023,0.005220,0.795503,-0.377660,-0.305295,0.712680,-0.104860,0.574079,41.875957,-24.880875,-3.943910,0.655912,2.001449,-0.182328,0.000000,0.000000,0.000000,0.000000,0.000000,0.000000
11806752.000000,-2.349185,-1.663331,1.145317,-1.411007,1.737922,1.189910,-0.569238,0.357650,0.005467,0.797487,-0.374384,-0.298973,0.710461,-0.105292,0.748639,41.776775,-25.003860,-3.920107,0.637601,2.190048,-0.208878,0.000000,0.000000,0.000000,0.000000,0.000000,0.000000
11806753.000000,-2.348826,-1.663334,1.146118,-1.411375,1.737627,1.190598,-0.569341,0.360846,0.001725,0.793641,-0.369961,-0.297958,0.702150,-0.102967,0.895429,41.848186,-25.027664,-3.868532,0.608304,2.352096,-0.196061,0.000000,0.000000,0.000000,0.000000,0.000000,0.000000
11806754.000000,-2.348474,-1.663330,1.146900,-1.411738,1.737336,1.191308,-0.569441,0.354845,0.001519,0.790411,-0.368878,-0.300152,0.702270,-0.100383,1.093793,41.824383,-24.904678,-3.844728,0.632108,2.365829,-0.208878,0.000000,0.000000,0.000000,0.000000,0.000000,0.000000
11806755.000000,-2.348125,-1.663340,1.147683,-1.412108,1.737047,1.192035,-0.569543,0.352855,-0.002005,0.781830,-0.366603,-0.292446,0.708436,-0.104089,1.315961,41.947369,-24.706314,-3.721742,0.673307,2.190048,-0.196061,0.000000,0.000000,0.000000,0.000000,0.000000,0.000000
11806756.000000,-2.347774,-1.663338,1.148461,-1.412469,1.736771,1.192754,-0.569649,0.354173,-0.001442,0.786319,-0.366229,-0.288801,0.710442,-0.101976,1.442914,41.947369,-24.611099,-3.697939,0.632108,2.066451,-0.175919,0.000000,0.000000,0.000000,0.000000,0.000000,0.000000
11806757.000000,-2.347422,-1.663345,1.149249,-1.412840,1.736477,1.193483,-0.569746,0.353039,-0.002803,0.785732,-0.365821,-0.292943,0.714188,-0.103296,1.565900,42.022747,-24.488113,-3.547182,0.655912,1.962081,-0.215287,0.000000,0.000000,0.000000,0.000000,0.000000,0.000000
11806758.000000,-2.347077,-1.663346,1.150027,-1.413204,1.736182,1.194191,-0.569859,0.354550,-0.001928,0.784085,-0.367283,-0.291556,0.712125,-0.104420,1.712690,42.022747,-24.190567,-3.448000,0.685209,1.916305,-0.110001,0.000000,0.000000,0.000000,0.000000,0.000000,0.000000
11806759.000000,-2.346735,-1.663349,1.150795,-1.413559,1.735901,1.194917,-0.569952,0.348344,-0.002444,0.782326,-0.360452,-0.289420,0.715281,-0.102596,1.863447,42.070354,-23.948563,-3.424196,0.698026,1.865035,-0.182328,0.000000,0.000000,0.000000,0.000000,0.000000,0.000000
11806760.000000,-2.346393,-1.663342,1.151561,-1.413911,1.735627,1.195642,-0.570045,0.342288,0.000658,0.776771,-0.353568,-0.280735,0.710409,-0.100113,2.061811,41.971172,-23.603409,-3.448000,0.655912,1.838485,-0.196061,0.000000,0.000000,0.000000,0.000000,0.000000,0.000000
11806761.000000,-2.346058,-1.663333,1.152325,-1.414260,1.735349,1.196359,-0.570150,0.337948,0.002641,0.788794,-0.348965,-0.291886,0.712006,-0.100915,2.260175,41.875957,-23.409012,-3.499574,0.596403,1.838485,-0.136552,0.000000,0.000000,0.000000,0.000000,0.000000,0.000000
11806762.000000,-2.345715,-1.663324,1.153095,-1.414614,1.735064,1.197085,-0.570239,0.341616,0.004619,0.781673,-0.346575,-0.289400,0.718897,-0.096615,2.430768,41.752972,-23.258255,-3.499574,0.578092,1.800033,-0.202470,0.000000,0.000000,0.000000,0.000000,0.000000,0.000000
11806763.000000,-2.345364,-1.663317,1.153865,-1.414977,1.734769,1.197835,-0.570335,0.343645,0.005385,0.774294,-0.350928,-0.288358,0.723738,-0.095605,2.454572,41.653790,-23.087662,-3.376589,0.620206,1.670028,-0.208878,0.000000,0.000000,0.000000,0.000000,0.000000,0.000000
11806764.000000,-2.345020,-1.663300,1.154621,-1.415336,1.734486,1.198560,-0.570436,0.344284,0.009333,0.770538,-0.354426,-0.289571,0.727343,-0.096454,2.406965,41.407818,-22.940872,-3.225832,0.685209,1.643478,-0.163102,0.000000,0.000000,0.000000,0.000000,0.000000,0.000000
11806765.000000,-2.344668,-1.663284,1.155392,-1.415695,1.734202,1.199282,-0.570528,0.346690,0.010762,0.763657,-0.355657,-0.288435,0.717873,-0.094637,2.359357,41.213421,-22.917068,-3.102846,0.715421,1.649886,-0.196061,0.000000,0.000000,0.000000,0.000000,0.000000,0.000000
11806766.000000,-2.344321,-1.663259,1.156166,-1.416046,1.733917,1.200005,-0.570628,0.346507,0.017762,0.762034,-0.355108,-0.288117,0.716941,-0.095792,2.307783,40.896038,-22.893265,-3.079042,0.745634,1.682845,-0.155778,0.000000,0.000000,0.000000,0.000000,0.000000,0.000000
11806767.000000,-2.343973,-1.663240,1.156929,-1.416394,1.733641,1.200743,-0.570717,0.347295,0.017298,0.763822,-0.347750,-0.285421,0.720252,-0.093826,2.331586,40.673870,-22.893265,-3.079042,0.715421,1.597701,-0.196061,0.000000,0.000000,0.000000,0.000000,0.000000,0.000000
11806768.000000,-2.343622,-1.663217,1.157696,-1.416743,1.733372,1.201477,-0.570814,0.347110,0.020501,0.759548,-0.342375,-0.277425,0.721465,-0.094495,2.260175,40.427898,-22.841690,-3.202028,0.655912,1.546432,-0.169511,0.000000,0.000000,0.000000,0.000000,0.000000,0.000000
11806769.000000,-2.343277,-1.663199,1.158457,-1.417089,1.733107,1.202179,-0.570906,0.352791,0.018056,0.759747,-0.342694,-0.272623,0.719222,-0.093148,2.184797,40.257305,-22.865494,-3.178224,0.661405,1.702071,-0.202470,0.000000,0.000000,0.000000,0.000000,0.000000,0.000000
11806770.000000,-2.342928,-1.663177,1.159228,-1.417436,1.732836,1.202878,-0.571006,0.353622,0.020043,0.762025,-0.347857,-0.273332,0.704665,-0.094581,2.160993,40.062908,-22.988480,-3.178224,0.608304,1.936446,-0.169511,0.000000,0.000000,0.000000,0.000000,0.000000,0.000000
11806771.000000,-2.342576,-1.663156,1.159995,-1.417786,1.732565,1.203589,-0.571101,0.356133,0.020994,0.761432,-0.347276,-0.269406,0.717507,-0.098744,2.034040,39.892315,-23.016251,-3.126650,0.578092,1.974899,-0.169511,0.000000,0.000000,0.000000,0.000000,0.000000,0.000000
11806772.000000,-2.342220,-1.663133,1.160744,-1.418126,1.732296,1.204318,-0.571190,0.358852,0.022442,0.757928,-0.347088,-0.269274,0.722609,-0.096387,1.962629,39.693951,-22.917068,-3.055238,0.596403,1.865035,-0.202470,0.000000,0.000000,0.000000,0.000000,0.000000,0.000000
11806773.000000,-2.341862,-1.663110,1.161516,-1.418459,1.732038,1.205060,-0.571288,0.354110,0.023404,0.758139,-0.341383,-0.265845,0.730134,-0.097827,1.811872,39.499554,-23.016251,-3.178224,0.566190,1.741439,-0.149369,0.000000,0.000000,0.000000,0.000000,0.000000,0.000000
11806774.000000,-2.341511,-1.663086,1.162272,-1.418788,1.731773,1.205773,-0.571374,0.355836,0.023470,0.758153,-0.334225,-0.272163,0.727013,-0.088963,1.712690,39.328960,-23.040054,-3.202028,0.608304,1.741439,-0.221696,0.000000,0.000000,0.000000,0.000000,0.000000,0.000000
11806775.000000,-2.341152,-1.663060,1.163026,-1.419114,1.731510,1.206495,-0.571469,0.356401,0.024321,0.759870,-0.332346,-0.268784,0.722610,-0.091432,1.589704,39.130596,-22.865494,-3.348818,0.589994,1.754256,-0.196061,0.000000,0.000000,0.000000,0.000000,0.000000,0.000000
11806776.000000,-2.340796,-1.663049,1.163775,-1.419446,1.731244,1.207213,-0.571570,0.357517,0.016478,0.755278,-0.327522,-0.264650,0.719736,-0.097353,1.565900,39.158367,-22.571915,-3.376589,0.632108,1.800033,-0.175919,0.000000,0.000000,0.000000,0.000000,0.000000,0.000000
11806777.000000,-2.340445,-1.663028,1.164520,-1.419756,1.730988,1.207909,-0.571661,0.354494,0.017614,0.755241,-0.323311,-0.260607,0.706980,-0.099899,1.490522,39.035381,-22.401321,-3.570986,0.655912,1.877853,-0.188737,0.000000,0.000000,0.000000,0.000000,0.000000,0.000000
11806778.000000,-2.340084,-1.663006,1.165275,-1.420070,1.730745,1.208615,-0.571755,0.355531,0.018564,0.748838,-0.319634,-0.252567,0.701279,-0.099011,1.268354,38.912395,-22.278336,-3.769350,0.559781,1.955673,-0.175919,0.000000,0.000000,0.000000,0.000000,0.000000,0.000000
11806779.000000,-2.339730,-1.662988,1.166035,-1.420383,1.730497,1.209324,-0.571846,0.353653,0.018156,0.746852,-0.317625,-0.251499,0.710752,-0.091557,1.169172,38.837017,-22.230728,-3.844728,0.452665,1.832076,-0.208878,0.000000,0.000000,0.000000,0.000000,0.000000,0.000000
11806780.000000,-2.339366,-1.662973,1.166781,-1.420697,1.730239,1.210056,-0.571940,0.354280,0.016173,0.744424,-0.317997,-0.254654,0.714648,-0.094297,0.970807,38.837017,-22.131546,-3.967714,0.440763,1.637069,-0.155778,0.000000,0.000000,0.000000,0.000000,0.000000,0.000000
11806781.000000,-2.339002,-1.662958,1.167547,-1.421014,1.729976,1.210783,-0.572026,0.356573,0.014863,0.745991,-0.313595,-0.257331,0.718806,-0.092212,0.847822,38.837017,-22.230728,-4.019289,0.470060,1.519881,-0.196061,0.000000,0.000000,0.000000,0.000000,0.000000,0.000000
11806782.000000,-2.338640,-1.662938,1.168298,-1.421318,1.729730,1.211466,-0.572117,0.359937,0.014978,0.749163,-0.313311,-0.257228,0.707506,-0.091519,0.625654,38.789410,-22.230728,-4.066896,0.410551,1.676437,-0.196061,0.000000,0.000000,0.000000,0.000000,0.000000,0.000000
11806783.000000,-2.338282,-1.662926,1.169063,-1.421625,1.729476,1.212167,-0.572212,0.359476,0.013575,0.751068,-0.307775,-0.259490,0.703547,-0.093412,0.502668,38.813213,-22.401321,-4.189882,0.422452,1.812850,-0.163102,0.000000,0.000000,0.000000,0.000000,0.000000,0.000000
11806784.000000,-2.337926,-1.662916,1.169817,-1.421922,1.729215,1.212871,-0.572299,0.363105,0.014495,0.748638,-0.304243,-0.260954,0.699789,-0.092145,0.403486,38.888592,-22.377518,-4.312868,0.422452,1.767074,-0.202470,0.000000,0.000000,0.000000,0.000000,0.000000,0.000000
11806785.000000,-2.337567,-1.662908,1.170561,-1.422205,1.728952,1.213588,-0.572391,0.360821,0.012552,0.745074,-0.300377,-0.258381,0.701612,-0.088805,0.351911,38.960003,-22.425125,-4.610414,0.458158,1.702071,-0.163102,0.000000,0.000000,0.000000,0.000000,0.000000,0.000000
11806786.000000,-2.337200,-1.662900,1.171324,-1.422505,1.728695,1.214279,-0.572472,0.358610,0.010855,0.750087,-0.297646,-0.259688,0.696383,-0.087648,0.205121,39.035381,-22.595718,-4.634218,0.464567,1.838485,-0.215287,0.000000,0.000000,0.000000,0.000000,0.000000,0.000000
11806787.000000,-2.336846,-1.662892,1.172067,-1.422790,1.728456,1.214963,-0.572560,0.355759,0.010025,0.754167,-0.294592,-0.256913,0.686889,-0.084992,0.105939,39.106792,-22.571915,-4.709596,0.416959,2.001449,-0.196061,0.000000,0.000000,0.000000,0.000000,0.000000,0.000000
11806788.000000,-2.336481,-1.662895,1.172820,-1.423080,1.728198,1.215675,-0.572644,0.356963,0.006241,0.755997,-0.295829,-0.262232,0.687810,-0.087499,-0.044818,39.305157,-22.500504,-4.757204,0.506681,1.923629,-0.188737,0.000000,0.000000,0.000000,0.000000,0.000000,0.000000
11806789.000000,-2.336127,-1.662893,1.173567,-1.423361,1.727937,1.216380,-0.572731,0.358463,0.005114,0.751780,-0.291328,-0.258076,0.700942,-0.083773,-0.068621,39.451946,-22.325943,-4.907960,0.530485,1.800033,-0.202470,0.000000,0.000000,0.000000,0.000000,0.000000,0.000000
11806790.000000,-2.335766,-1.662888,1.174311,-1.423634,1.727692,1.217087,-0.572822,0.361466,0.006022,0.749468,-0.286249,-0.251991,0.699081,-0.082923,-0.144000,39.523357,-22.302139,-5.007143,0.458158,1.825668,-0.169511,0.000000,0.000000,0.000000,0.000000,0.000000,0.000000
11806791.000000,-2.335404,-1.662889,1.175061,-1.423909,1.727444,1.217801,-0.572910,0.358777,0.001678,0.745293,-0.279967,-0.252999,0.699950,-0.084742,-0.243182,39.670147,-22.230728,-5.177736,0.410551,1.786300,-0.188737,0.000000,0.000000,0.000000,0.000000,0.000000,0.000000
11806792.000000,-2.335065,-1.662894,1.175792,-1.424178,1.727208,1.218520,-0.572999,0.351906,-0.000072,0.752565,-0.276389,-0.249699,0.705060,-0.087511,-0.167803,39.892315,-22.079971,-5.328493,0.362943,1.649886,-0.169511,0.000000,0.000000,0.000000,0.000000,0.000000,0.000000
11806793.000000,-2.334719,-1.662897,1.176535,-1.424440,1.726966,1.219243,-0.573084,0.346311,0.000015,0.746364,-0.272884,-0.248086,0.710835,-0.083839,-0.092425,40.062908,-21.885574,-5.526857,0.356534,1.532699,-0.188737,0.000000,0.000000,0.000000,0.000000,0.000000,0.000000
11806794.000000,-2.334372,-1.662903,1.177288,-1.424709,1.726719,1.219959,-0.573167,0.344791,-0.000586,0.743567,-0.271359,-0.246505,0.706262,-0.081293,-0.092425,40.257305,-21.786392,-5.673646,0.320829,1.565658,-0.188737,0.000000,0.000000,0.000000,0.000000,0.000000,0.000000
11806795.000000,-2.334021,-1.662898,1.178027,-1.424969,1.726477,1.220655,-0.573257,0.347061,0.000556,0.743655,-0.266544,-0.248484,0.705388,-0.085121,-0.092425,40.257305,-21.639603,-5.848207,0.308927,1.656295,-0.149369,0.000000,0.000000,0.000000,0.000000,0.000000,0.000000
11806796.000000,-2.333666,-1.662894,1.178766,-1.425225,1.726236,1.221369,-0.573336,0.343941,0.000524,0.738701,-0.258720,-0.248798,0.699383,-0.080438,-0.191607,40.281109,-21.445206,-6.042604,0.344633,1.611434,-0.208878,0.000000,0.000000,0.000000,0.000000,0.000000,0.000000
11806797.000000,-2.333319,-1.662892,1.179509,-1.425484,1.725995,1.222098,-0.573423,0.339607,0.000232,0.738325,-0.268493,-0.244186,0.705962,-0.085443,-0.314593,40.308880,-21.322220,-6.193361,0.386747,1.429244,-0.169511,0.000000,0.000000,0.000000,0.000000,0.000000,0.000000
11806798.000000,-2.332965,-1.662884,1.180249,-1.425750,1.725768,1.222815,-0.573503,0.341741,0.002874,0.740327,-0.268586,-0.242724,0.706004,-0.086883,-0.413775,40.209698,-21.322220,-6.193361,0.339139,1.416427,-0.188737,0.000000,0.000000,0.000000,0.000000,0.000000,0.000000
11806799.000000,-2.332607,-1.662875,1.181002,-1.426013,1.725529,1.223533,-0.573583,0.346018,0.005092,0.744877,-0.266097,-0.237087,0.709222,-0.083336,-0.588336,40.086712,-21.369827,-6.141786,0.303434,1.507064,-0.202470,0.000000,0.000000,0.000000,0.000000,0.000000,0.000000
11806800.000000,-2.332256,-1.662864,1.181743,-1.426277,1.725296,1.224240,-0.573665,0.345626,0.007053,0.749159,-0.270231,-0.237829,0.712979,-0.081297,-0.663714,39.939922,-21.417435,-6.094179,0.261320,1.584884,-0.196061,0.000000,0.000000,0.000000,0.000000,0.000000,0.000000
11806801.000000,-2.331911,-1.662857,1.182492,-1.426537,1.725057,1.224961,-0.573748,0.339824,0.009710,0.750924,-0.267821,-0.240975,0.711713,-0.080125,-0.663714,39.868511,-21.417435,-6.117982,0.285123,1.611434,-0.188737,0.000000,0.000000,0.000000,0.000000,0.000000,0.000000
11806802.000000,-2.331566,-1.662844,1.183255,-1.426797,1.724826,1.225670,-0.573835,0.341959,0.013994,0.749517,-0.263861,-0.237276,0.711186,-0.079237,-0.762896,39.693951,-21.568192,-6.117982,0.279630,1.662704,-0.169511,0.000000,0.000000,0.000000,0.000000,0.000000,0.000000
11806803.000000,-2.331220,-1.662830,1.184006,-1.427060,1.724599,1.226383,-0.573913,0.340826,0.013867,0.752079,-0.268240,-0.234118,0.707000,-0.076811,-0.735125,39.523357,-21.738785,-6.070375,0.273221,1.695663,-0.208878,0.000000,0.000000,0.000000,0.000000,0.000000,0.000000
11806804.000000,-2.330867,-1.662813,1.184774,-1.427327,1.724365,1.227103,-0.573999,0.342511,0.016797,0.750868,-0.264629,-0.232724,0.708147,-0.082255,-0.834307,39.352764,-22.008560,-6.018800,0.291532,1.741439,-0.169511,0.000000,0.000000,0.000000,0.000000,0.000000,0.000000
11806805.000000,-2.330526,-1.662803,1.185524,-1.427584,1.724128,1.227810,-0.574081,0.338572,0.016061,0.751079,-0.261925,-0.239668,0.711862,-0.084213,-0.862078,39.305157,-22.131546,-5.994997,0.315336,1.727706,-0.196061,0.000000,0.000000,0.000000,0.000000,0.000000,0.000000
11806806.000000,-2.330192,-1.662798,1.186290,-1.427854,1.723896,1.228514,-0.574169,0.335729,0.013453,0.752516,-0.267589,-0.236702,0.705989,-0.082817,-0.862078,39.352764,-22.325943,-5.895814,0.320829,1.767074,-0.175919,0.000000,0.000000,0.000000,0.000000,0.000000,0.000000
11806807.000000,-2.329857,-1.662789,1.187055,-1.428118,1.723665,1.229197,-0.574258,0.343574,0.012347,0.751698,-0.263309,-0.234448,0.701623,-0.081698,-0.834307,39.376568,-22.425125,-5.895814,0.327238,1.851302,-0.149369,0.000000,0.000000,0.000000,0.000000,0.000000,0.000000
11806808.000000,-2.329519,-1.662780,1.187810,-1.428385,1.723444,1.229887,-0.574334,0.343425,0.011695,0.751417,-0.265804,-0.226572,0.694131,-0.077882,-0.786700,39.400372,-22.548111,-5.796632,0.297025,1.916305,-0.208878,0.000000,0.000000,0.000000,0.000000,0.000000,0.000000
11806809.000000,-2.329185,-1.662775,1.188563,-1.428654,1.723217,1.230590,-0.574423,0.342746,0.011098,0.746273,-0.263930,-0.223809,0.690114,-0.084333,-0.687518,39.428143,-22.500504,-5.820436,0.231107,1.916305,-0.149369,0.000000,0.000000,0.000000,0.000000,0.000000,0.000000
11806810.000000,-2.328853,-1.662762,1.189308,-1.428932,1.722981,1.231283,-0.574504,0.338126,0.009536,0.759100,-0.266186,-0.236726,0.690503,-0.080417,-0.635943,39.376568,-22.448929,-5.721254,0.213712,1.838485,-0.182328,0.000000,0.000000,0.000000,0.000000,0.000000,0.000000
11806811.000000,-2.328530,-1.662755,1.190065,-1.429212,1.722744,1.231989,-0.574583,0.332383,0.010224,0.759983,-0.267817,-0.235291,0.692985,-0.082711,-0.512957,39.376568,-22.401321,-5.626039,0.249418,1.825668,-0.215287,0.000000,0.000000,0.000000,0.000000,0.000000,0.000000
11806812.000000,-2.328192,-1.662746,1.190826,-1.429499,1.722507,1.232682,-0.574676,0.333196,0.010757,0.761205,-0.270681,-0.234010,0.692440,-0.083251,-0.512957,39.376568,-22.377518,-5.451478,0.279630,1.871444,-0.149369,0.000000,0.000000,0.000000,0.000000,0.000000,0.000000
11806813.000000,-2.327865,-1.662733,1.191579,-1.429787,1.722274,1.233365,-0.574749,0.333064,0.009138,0.759934,-0.276524,-0.235073,0.687073,-0.083204,-0.413775,39.328960,-22.401321,-5.253114,0.291532,1.936446,-0.202470,0.000000,0.000000,0.000000,0.000000,0.000000,0.000000
11806814.000000,-2.327535,-1.662728,1.192336,-1.430080,1.722036,1.234075,-0.574835,0.333785,0.006175,0.757926,-0.280408,-0.238561,0.694633,-0.083075,-0.342364,39.352764,-22.401321,-5.030946,0.332731,1.786300,-0.155778,0.000000,0.000000,0.000000,0.000000,0.000000,0.000000
11806815.000000,-2.327216,-1.662719,1.193100,-1.430368,1.721790,1.234775,-0.574916,0.329292,0.004597,0.755642,-0.292923,-0.241111,0.696028,-0.085173,-0.191607,39.352764,-22.472733,-4.884157,0.374845,1.643478,-0.163102,0.000000,0.000000,0.000000,0.000000,0.000000,0.000000
11806816.000000,-2.326892,-1.662709,1.193867,-1.430668,1.721557,1.235469,-0.574995,0.328219,0.003425,0.758611,-0.293949,-0.236931,0.695075,-0.088038,-0.144000,39.352764,-22.742508,-4.634218,0.369352,1.682845,-0.149369,0.000000,0.000000,0.000000,0.000000,0.000000,0.000000
11806817.000000,-2.326568,-1.662700,1.194639,-1.430967,1.721324,1.236147,-0.575065,0.326751,0.006138,0.757284,-0.293618,-0.233932,0.683883,-0.082255,-0.092425,39.328960,-22.940872,-4.412050,0.381254,1.877853,-0.215287,0.000000,0.000000,0.000000,0.000000,0.000000,0.000000
11806818.000000,-2.326253,-1.662698,1.195395,-1.431257,1.721091,1.236833,-0.575150,0.324689,0.005331,0.756536,-0.291869,-0.234111,0.680708,-0.085685,0.078168,39.428143,-23.063858,-4.265260,0.434354,1.936446,-0.175919,0.000000,0.000000,0.000000,0.000000,0.000000,0.000000
11806819.000000,-2.325935,-1.662695,1.196167,-1.431558,1.720859,1.237524,-0.575232,0.322240,0.003040,0.760364,-0.291350,-0.232535,0.677969,-0.083488,0.205121,39.475750,-23.258255,-4.066896,0.458158,1.968490,-0.163102,0.000000,0.000000,0.000000,0.000000,0.000000,0.000000
11806820.000000,-2.325626,-1.662693,1.196942,-1.431850,1.720623,1.238211,-0.575308,0.314414,0.003963,0.760485,-0.288961,-0.234582,0.678294,-0.079420,0.351911,39.547161,-23.480423,-3.967714,0.428861,1.988631,-0.215287,0.000000,0.000000,0.000000,0.000000,0.000000,0.000000
11806821.000000,-2.325310,-1.662692,1.197713,-1.432153,1.720391,1.238898,-0.575398,0.311565,0.005218,0.764760,-0.299180,-0.232461,0.686882,-0.080680,0.375715,39.598736,-23.750198,-3.769350,0.422452,2.033492,-0.136552,0.000000,0.000000,0.000000,0.000000,0.000000,0.000000
11806822.000000,-2.324996,-1.662695,1.198478,-1.432449,1.720152,1.239602,-0.575468,0.311022,0.001967,0.761579,-0.293261,-0.237501,0.688468,-0.076372,0.474897,39.693951,-23.825577,-3.721742,0.488370,1.949264,-0.208878,0.000000,0.000000,0.000000,0.000000,0.000000,0.000000
11806823.000000,-2.324689,-1.662703,1.199224,-1.432746,1.719915,1.240299,-0.575549,0.308928,-0.001029,0.760875,-0.292603,-0.236617,0.698257,-0.081105,0.625654,39.816936,-23.750198,-3.547182,0.547880,1.877853,-0.208878,0.000000,0.000000,0.000000,0.000000,0.000000,0.000000
11806824.000000,-2.324372,-1.662708,1.199979,-1.433045,1.719686,1.240980,-0.575631,0.312095,-0.001490,0.760864,-0.295019,-0.229940,0.692058,-0.081190,0.625654,39.868511,-23.678787,-3.523378,0.571683,1.949264,-0.169511,0.000000,0.000000,0.000000,0.000000,0.000000,0.000000
11806825.000000,-2.324065,-1.662719,1.200742,-1.433344,1.719456,1.241669,-0.575702,0.310479,-0.003476,0.761800,-0.294214,-0.232376,0.685459,-0.082263,0.697065,39.987530,-23.651016,-3.475771,0.547880,2.047225,-0.221696,0.000000,0.000000,0.000000,0.000000,0.000000,0.000000
11806826.000000,-2.323762,-1.662726,1.201482,-1.433629,1.719225,1.242361,-0.575785,0.305121,-0.003297,0.759099,-0.293934,-0.230751,0.683119,-0.082598,0.847822,40.039104,-23.456619,-3.547182,0.547880,1.974899,-0.169511,0.000000,0.000000,0.000000,0.000000,0.000000,0.000000
11806827.000000,-2.323456,-1.662737,1.202232,-1.433928,1.718997,1.243073,-0.575861,0.306065,-0.005462,0.756676,-0.288771,-0.227979,0.685599,-0.079438,0.970807,40.185894,-23.286026,-3.547182,0.530485,1.844894,-0.202470,0.000000,0.000000,0.000000,0.000000,0.000000,0.000000
11806828.000000,-2.323158,-1.662739,1.202976,-1.434216,1.718781,1.243766,-0.575940,0.302129,-0.004071,0.773154,-0.285082,-0.224937,0.694035,-0.078430,1.145368,40.209698,-23.163040,-3.570986,0.488370,1.819259,-0.196061,0.000000,0.000000,0.000000,0.000000,0.000000,0.000000
11806829.000000,-2.322849,-1.662743,1.203733,-1.434513,1.718563,1.244465,-0.576016,0.306812,-0.006781,0.761745,-0.291480,-0.224207,0.692396,-0.078514,1.145368,40.257305,-23.111465,-3.499574,0.464567,1.877853,-0.175919,0.000000,0.000000,0.000000,0.000000,0.000000,0.000000
11806830.000000,-2.322540,-1.662740,1.204476,-1.434810,1.718342,1.245181,-0.576087,0.305156,-0.003033,0.750570,-0.292687,-0.225056,0.696041,-0.075770,1.192975,40.185894,-22.841690,-3.424196,0.470060,1.812850,-0.215287,0.000000,0.000000,0.000000,0.000000,0.000000,0.000000
11806831.000000,-2.322238,-1.662744,1.205209,-1.435103,1.718117,1.245888,-0.576168,0.300357,-0.003272,0.745184,-0.291607,-0.229480,0.701271,-0.076949,1.192975,40.233501,-22.647293,-3.301210,0.506681,1.682845,-0.169511,0.000000,0.000000,0.000000,0.000000,0.000000,0.000000
11806832.000000,-2.321933,-1.662736,1.205968,-1.435397,1.717895,1.246602,-0.576236,0.300908,-0.002021,0.746405,-0.295235,-0.224141,0.696599,-0.075219,1.169172,40.086712,-22.718704,-3.202028,0.524076,1.624252,-0.196061,0.000000,0.000000,0.000000,0.000000,0.000000,0.000000
11806833.000000,-2.321629,-1.662723,1.206718,-1.435681,1.717684,1.247290,-0.576310,0.304655,0.002859,0.745612,-0.290823,-0.217714,0.690772,-0.074997,1.169172,39.892315,-22.694901,-3.178224,0.470060,1.662704,-0.202470,0.000000,0.000000,0.000000,0.000000,0.000000,0.000000
11806834.000000,-2.321322,-1.662714,1.207454,-1.435968,1.717464,1.247993,-0.576378,0.304561,0.003970,0.743828,-0.288858,-0.222419,0.690893,-0.074730,1.145368,39.793133,-22.623489,-3.102846,0.530485,1.702071,-0.215287,0.000000,0.000000,0.000000,0.000000,0.000000,0.000000
11806835.000000,-2.321003,-1.662705,1.208199,-1.436254,1.717251,1.248693,-0.576455,0.305314,0.005332,0.738780,-0.285643,-0.214723,0.696042,-0.071009,0.994611,39.670147,-22.595718,-3.079042,0.571683,1.754256,-0.188737,0.000000,0.000000,0.000000,0.000000,0.000000,0.000000
11806836.000000,-2.320702,-1.662691,1.208936,-1.436537,1.717041,1.249382,-0.576527,0.304941,0.007958,0.743485,-0.284334,-0.212562,0.691664,-0.071763,0.970807,39.475750,-22.595718,-3.027467,0.566190,1.779891,-0.196061,0.000000,0.000000,0.000000,0.000000,0.000000,0.000000
11806837.000000,-2.320390,-1.662681,1.209697,-1.436823,1.716828,1.250079,-0.576598,0.308807,0.008631,0.750374,-0.281273,-0.214719,0.690920,-0.072457,0.796247,39.328960,-22.742508,-2.928285,0.530485,1.812850,-0.202470,0.000000,0.000000,0.000000,0.000000,0.000000,0.000000
11806838.000000,-2.320092,-1.662667,1.210451,-1.437107,1.716618,1.250769,-0.576669,0.306230,0.009663,0.750309,-0.282872,-0.211891,0.704243,-0.073711,0.824018,39.158367,-22.817886,-2.928285,0.506681,1.786300,-0.182328,0.000000,0.000000,0.000000,0.000000,0.000000,0.000000
11806839.000000,-2.319780,-1.662657,1.211191,-1.437387,1.716415,1.251472,-0.576736,0.308207,0.009258,0.748103,-0.281700,-0.205869,0.704433,-0.067972,0.748639,39.035381,-22.940872,-2.904482,0.512174,1.754256,-0.221696,0.000000,0.000000,0.000000,0.000000,0.000000,0.000000
11806840.000000,-2.319472,-1.662643,1.211938,-1.437670,1.716206,1.252164,-0.576812,0.306708,0.010117,0.745476,-0.278240,-0.206658,0.691621,-0.072012,0.724836,38.864788,-23.063858,-2.833071,0.524076,1.793624,-0.155778,0.000000,0.000000,0.000000,0.000000,0.000000,0.000000
11806841.000000,-2.319168,-1.662635,1.212675,-1.437950,1.716012,1.252850,-0.576876,0.306570,0.009031,0.742478,-0.281518,-0.204663,0.687198,-0.065846,0.772443,38.765606,-23.111465,-2.805300,0.494779,1.844894,-0.215287,0.000000,0.000000,0.000000,0.000000,0.000000,0.000000
11806842.000000,-2.318865,-1.662626,1.213418,-1.438221,1.715801,1.253539,-0.576948,0.303401,0.008872,0.739265,-0.277826,-0.210718,0.688232,-0.069553,0.697065,38.642620,-23.111465,-2.904482,0.506681,1.890670,-0.182328,0.000000,0.000000,0.000000,0.000000,0.000000,0.000000
11806843.000000,-2.318574,-1.662620,1.214161,-1.438495,1.715592,1.254222,-0.577019,0.301384,0.009481,0.734440,-0.274574,-0.213130,0.690857,-0.071968,0.772443,38.618816,-23.040054,-2.904482,0.470060,1.916305,-0.149369,0.000000,0.000000,0.000000,0.000000,0.000000,0.000000
11806844.000000,-2.318279,-1.662609,1.214895,-1.438763,1.715390,1.254915,-0.577082,0.304220,0.009993,0.735913,-0.269793,-0.210774,0.689919,-0.070257,0.847822,38.472027,-23.016251,-3.003664,0.434354,1.871444,-0.215287,0.000000,0.000000,0.000000,0.000000,0.000000,0.000000
11806845.000000,-2.317978,-1.662602,1.215628,-1.439037,1.715181,1.255610,-0.577160,0.302881,0.007397,0.732445,-0.268650,-0.210753,0.687744,-0.073845,0.871625,38.448223,-22.865494,-2.979860,0.464567,1.825668,-0.155778,0.000000,0.000000,0.000000,0.000000,0.000000,0.000000
11806846.000000,-2.317678,-1.662592,1.216364,-1.439299,1.714982,1.256292,-0.577227,0.301808,0.007942,0.732333,-0.263862,-0.205143,0.685029,-0.067509,0.796247,38.325237,-22.718704,-3.003664,0.458158,1.844894,-0.202470,0.000000,0.000000,0.000000,0.000000,0.000000,0.000000
11806847.000000,-2.317383,-1.662580,1.217092,-1.439575,1.714776,1.256982,-0.577294,0.298386,0.007158,0.733129,-0.266290,-0.202829,0.684631,-0.068777,0.796247,38.249859,-22.623489,-2.904482,0.506681,1.825668,-0.215287,0.000000,0.000000,0.000000,0.000000,0.000000,0.000000
11806848.000000,-2.317089,-1.662577,1.217823,-1.439844,1.714564,1.257687,-0.577368,0.297515,0.006670,0.730903,-0.267169,-0.200288,0.685219,-0.072589,0.796247,38.301434,-22.448929,-2.833071,0.542386,1.767074,-0.155778,0.000000,0.000000,0.000000,0.000000,0.000000,0.000000
11806849.000000,-2.316803,-1.662570,1.218551,-1.440101,1.714362,1.258383,-0.577433,0.293829,0.010396,0.731139,-0.262606,-0.200195,0.687783,-0.071941,0.871625,38.325237,-22.425125,-2.856874,0.506681,1.662704,-0.175919,0.000000,0.000000,0.000000,0.000000,0.000000,0.000000
11806850.000000,-2.316505,-1.662557,1.219291,-1.440355,1.714161,1.259090,-0.577497,0.295359,0.011844,0.729369,-0.259508,-0.200869,0.691811,-0.071398,0.871625,38.277630,-22.472733,-2.979860,0.482877,1.572067,-0.208878,0.000000,0.000000,0.000000,0.000000,0.000000,0.000000
11806851.000000,-2.316225,-1.662552,1.220034,-1.440614,1.713960,1.259774,-0.577564,0.290586,0.008155,0.729200,-0.265270,-0.197039,0.695967,-0.071977,1.022382,38.301434,-22.571915,-3.003664,0.476469,1.624252,-0.208878,0.000000,0.000000,0.000000,0.000000,0.000000,0.000000
11806852.000000,-2.315928,-1.662548,1.220762,-1.440875,1.713769,1.260461,-0.577640,0.292004,0.004378,0.729265,-0.262586,-0.198440,0.693316,-0.074958,0.970807,38.372845,-22.548111,-2.979860,0.440763,1.714889,-0.155778,0.000000,0.000000,0.000000,0.000000,0.000000,0.000000
11806853.000000,-2.315635,-1.662545,1.221509,-1.441134,1.713569,1.261164,-0.577705,0.288928,0.004209,0.731919,-0.262153,-0.198119,0.698365,-0.067565,0.970807,38.472027,-22.718704,-3.003664,0.506681,1.735030,-0.215287,0.000000,0.000000,0.000000,0.000000,0.000000,0.000000
11806854.000000,-2.315348,-1.662543,1.222236,-1.441386,1.713372,1.261843,-0.577778,0.290512,0.001742,0.733394,-0.258096,-0.200569,0.691782,-0.066070,0.947004,38.543438,-22.817886,-3.079042,0.518583,1.786300,-0.175919,0.000000,0.000000,0.000000,0.000000,0.000000,0.000000
11806855.000000,-2.315056,-1.662543,1.222979,-1.441643,1.713172,1.262549,-0.577851,0.289193,-0.000704,0.731232,-0.258565,-0.201438,0.691706,-0.064355,0.970807,38.642620,-23.040054,-3.126650,0.500272,1.806442,-0.155778,0.000000,0.000000,0.000000,0.000000,0.000000,0.000000
11806856.000000,-2.314765,-1.662544,1.223723,-1.441892,1.712970,1.263243,-0.577912,0.291712,-0.002448,0.733626,-0.257205,-0.199021,0.710123,-0.064684,0.947004,38.741802,-23.163040,-3.249635,0.524076,1.773483,-0.215287,0.000000,0.000000,0.000000,0.000000,0.000000,0.000000
11806857.000000,-2.314469,-1.662548,1.224451,-1.442149,1.712777,1.263950,-0.577987,0.292606,-0.004810,0.735423,-0.255568,-0.196591,0.712828,-0.068075,0.895429,38.888592,-23.163040,-3.277406,0.547880,1.760665,-0.182328,0.000000,0.000000,0.000000,0.000000,0.000000,0.000000
11806858.000000,-2.314172,-1.662551,1.225183,-1.442405,1.712581,1.264652,-0.578051,0.294392,-0.003410,0.730985,-0.257457,-0.194880,0.711729,-0.063700,0.824018,39.035381,-23.111465,-3.277406,0.559781,1.819259,-0.215287,0.000000,0.000000,0.000000,0.000000,0.000000,0.000000
11806859.000000,-2.313888,-1.662554,1.225910,-1.442648,1.712396,1.265343,-0.578120,0.293859,-0.000814,0.745038,-0.253898,-0.196397,0.702713,-0.062312,0.796247,39.130596,-23.087662,-3.376589,0.547880,1.865035,-0.208878,0.000000,0.000000,0.000000,0.000000,0.000000,0.000000
11806860.000000,-2.313605,-1.662560,1.226646,-1.442893,1.712213,1.266049,-0.578188,0.291430,-0.001734,0.739550,-0.253538,-0.192366,0.704282,-0.064893,0.895429,39.205975,-23.135269,-3.523378,0.488370,1.832076,-0.202470,0.000000,0.000000,0.000000,0.000000,0.000000,0.000000
11806861.000000,-2.313308,-1.662562,1.227384,-1.443136,1.712024,1.266758,-0.578255,0.295611,-0.001284,0.734785,-0.250781,-0.194217,0.697928,-0.067367,0.847822,39.229778,-23.063858,-3.646364,0.440763,1.721298,-0.202470,0.000000,0.000000,0.000000,0.000000,0.000000,0.000000
11806862.000000,-2.313025,-1.662574,1.228107,-1.443376,1.711835,1.267451,-0.578326,0.290059,-0.003968,0.732749,-0.247133,-0.189587,0.694252,-0.070610,0.895429,39.376568,-23.016251,-3.697939,0.464567,1.689254,-0.169511,0.000000,0.000000,0.000000,0.000000,0.000000,0.000000
11806863.000000,-2.312734,-1.662573,1.228835,-1.443616,1.711652,1.268138,-0.578388,0.287242,-0.001847,0.726990,-0.246007,-0.183852,0.688106,-0.065394,0.847822,39.352764,-22.865494,-3.797121,0.452665,1.721298,-0.215287,0.000000,0.000000,0.000000,0.000000,0.000000,0.000000
11806864.000000,-2.312449,-1.662576,1.229568,-1.443848,1.711468,1.268818,-0.578461,0.289353,-0.001050,0.724442,-0.247304,-0.184746,0.688539,-0.063889,0.796247,39.352764,-22.718704,-3.892336,0.440763,1.779891,-0.188737,0.000000,0.000000,0.000000,0.000000,0.000000,0.000000
11806865.000000,-2.312162,-1.662577,1.230285,-1.444081,1.711290,1.269515,-0.578523,0.291104,-0.000565,0.721896,-0.241379,-0.185083,0.689092,-0.061121,0.748639,39.352764,-22.548111,-3.943910,0.416959,1.714889,-0.215287,0.000000,0.000000,0.000000,0.000000,0.000000,0.000000
11806866.000000,-2.311873,-1.662580,1.231014,-1.444312,1.711111,1.270225,-0.578597,0.289003,-0.001388,0.724052,-0.237024,-0.186384,0.696001,-0.066748,0.697065,39.400372,-22.425125,-3.991518,0.428861,1.591293,-0.149369,0.000000,0.000000,0.000000,0.000000,0.000000,0.000000
11806867.000000,-2.311584,-1.662579,1.231742,-1.444535,1.710937,1.270912,-0.578658,0.289477,-0.000292,0.731633,-0.231971,-0.184585,0.696533,-0.066106,0.673261,39.376568,-22.500504,-4.118471,0.398649,1.578475,-0.196061,0.000000,0.000000,0.000000,0.000000,0.000000,0.000000
11806868.000000,-2.311285,-1.662577,1.232468,-1.444759,1.710755,1.271602,-0.578720,0.293666,0.000419,0.729318,-0.228375,-0.183710,0.689255,-0.067793,0.474897,39.352764,-22.401321,-4.213686,0.351041,1.624252,-0.215287,0.000000,0.000000,0.000000,0.000000,0.000000,0.000000
11806869.000000,-2.310997,-1.662574,1.233194,-1.444981,1.710562,1.272283,-0.578791,0.287846,0.001436,0.726097,-0.225438,-0.182681,0.683169,-0.071374,0.375715,39.305157,-22.377518,-4.213686,0.428861,1.721298,-0.169511,0.000000,0.000000,0.000000,0.000000,0.000000,0.000000
11806870.000000,-2.310698,-1.662575,1.233908,-1.445203,1.710381,1.272971,-0.578856,0.289589,0.000433,0.722052,-0.226925,-0.180893,0.677096,-0.070791,0.153547,39.328960,-22.254532,-4.312868,0.470060,1.747848,-0.188737,0.000000,0.000000,0.000000,0.000000,0.000000,0.000000
11806871.000000,-2.310402,-1.662574,1.234645,-1.445424,1.710203,1.273671,-0.578923,0.293769,0.000869,0.719586,-0.221490,-0.176951,0.682971,-0.067313,-0.017047,39.305157,-22.377518,-4.412050,0.452665,1.721298,-0.182328,0.000000,0.000000,0.000000,0.000000,0.000000,0.000000
11806872.000000,-2.310108,-1.662561,1.235383,-1.445639,1.710033,1.274367,-0.578987,0.296026,0.004681,0.727567,-0.218420,-0.177066,0.691054,-0.063428,-0.191607,39.130596,-22.595718,-4.487428,0.374845,1.637069,-0.208878,0.000000,0.000000,0.000000,0.000000,0.000000,0.000000
11806873.000000,-2.309809,-1.662561,1.236119,-1.445849,1.709862,1.275068,-0.579060,0.293116,0.003134,0.728456,-0.217825,-0.174517,0.693682,-0.063474,-0.314593,39.130596,-22.742508,-4.610414,0.344633,1.578475,-0.163102,0.000000,0.000000,0.000000,0.000000,0.000000,0.000000
11806874.000000,-2.309513,-1.662567,1.236860,-1.446070,1.709680,1.275750,-0.579121,0.300107,0.000336,0.728101,-0.218961,-0.179423,0.708499,-0.065534,-0.489153,39.205975,-22.865494,-4.685792,0.369352,1.611434,-0.182328,0.000000,0.000000,0.000000,0.000000,0.000000,0.000000
11806875.000000,-2.309215,-1.662560,1.237594,-1.446280,1.709504,1.276422,-0.579182,0.299189,0.002552,0.728449,-0.215361,-0.181321,0.693747,-0.062550,-0.687518,39.106792,-23.016251,-4.808778,0.351041,1.819259,-0.202470,0.000000,0.000000,0.000000,0.000000,0.000000,0.000000
11806876.000000,-2.308922,-1.662561,1.238332,-1.446492,1.709327,1.277100,-0.579251,0.292063,0.001150,0.732093,-0.212752,-0.178100,0.688172,-0.066820,-0.810504,39.130596,-23.135269,-4.907960,0.344633,2.001449,-0.169511,0.000000,0.000000,0.000000,0.000000,0.000000,0.000000
11806877.000000,-2.308628,-1.662563,1.239063,-1.446692,1.709155,1.277779,-0.579311,0.296127,0.000771,0.751620,-0.212221,-0.179004,0.679655,-0.062990,-0.885882,39.130596,-23.258255,-5.106325,0.320829,1.955673,-0.202470,0.000000,0.000000,0.000000,0.000000,0.000000,0.000000
11806878.000000,-2.308336,-1.662568,1.239793,-1.446900,1.708980,1.278482,-0.579376,0.296928,-0.000689,0.742898,-0.213447,-0.182454,0.688457,-0.065917,-0.961260,39.182171,-23.286026,-5.253114,0.344633,1.767074,-0.182328,0.000000,0.000000,0.000000,0.000000,0.000000,0.000000
11806879.000000,-2.308039,-1.662563,1.240530,-1.447112,1.708809,1.279175,-0.579442,0.294318,0.001306,0.738943,-0.213185,-0.178096,0.684248,-0.069069,-1.084246,39.106792,-23.309830,-5.304689,0.327238,1.689254,-0.155778,0.000000,0.000000,0.000000,0.000000,0.000000,0.000000
11806880.000000,-2.307739,-1.662561,1.241249,-1.447317,1.708641,1.279841,-0.579498,0.297685,0.001429,0.735851,-0.212817,-0.175600,0.679284,-0.063930,-1.306414,39.082989,-23.258255,-5.352296,0.308927,1.773483,-0.208878,0.000000,0.000000,0.000000,0.000000,0.000000,0.000000
11806881.000000,-2.307443,-1.662570,1.241975,-1.447530,1.708464,1.280507,-0.579561,0.297698,-0.001923,0.733189,-0.214949,-0.174938,0.673561,-0.063176,-1.453204,39.205975,-23.135269,-5.276918,0.332731,1.890670,-0.175919,0.000000,0.000000,0.000000,0.000000,0.000000,0.000000
11806882.000000,-2.307155,-1.662575,1.242696,-1.447730,1.708280,1.281175,-0.579621,0.297733,-0.003044,0.725443,-0.213190,-0.174993,0.673924,-0.060689,-1.580157,39.281353,-22.940872,-5.304689,0.369352,1.936446,-0.188737,0.000000,0.000000,0.000000,0.000000,0.000000,0.000000
11806883.000000,-2.306866,-1.662573,1.243417,-1.447934,1.708115,1.281861,-0.579681,0.295153,-0.001379,0.722624,-0.206763,-0.171187,0.677458,-0.059964,-1.580157,39.253582,-22.893265,-5.328493,0.315336,1.897079,-0.175919,0.000000,0.000000,0.000000,0.000000,0.000000,0.000000
11806884.000000,-2.306580,-1.662579,1.244155,-1.448128,1.707954,1.282557,-0.579740,0.293772,-0.002125,0.726147,-0.198847,-0.166807,0.682152,-0.062803,-1.552386,39.305157,-22.988480,-5.475282,0.213712,1.793624,-0.196061,0.000000,0.000000,0.000000,0.000000,0.000000,0.000000
11806885.000000,-2.306295,-1.662578,1.244882,-1.448326,1.707787,1.283241,-0.579801,0.293261,-0.000859,0.735542,-0.203228,-0.167740,0.687873,-0.066282,-1.580157,39.281353,-23.063858,-5.475282,0.219205,1.747848,-0.175919,0.000000,0.000000,0.000000,0.000000,0.000000,0.000000
11806886.000000,-2.306010,-1.662585,1.245607,-1.448533,1.707613,1.283924,-0.579854,0.287987,-0.002800,0.733361,-0.203422,-0.165893,0.678904,-0.067014,-1.552386,39.376568,-23.016251,-5.451478,0.279630,1.773483,-0.215287,0.000000,0.000000,0.000000,0.000000,0.000000,0.000000
11806887.000000,-2.305728,-1.662597,1.246339,-1.448737,1.707438,1.284591,-0.579912,0.286520,-0.005300,0.732758,-0.204221,-0.170041,0.669103,-0.059619,-1.603961,39.523357,-23.135269,-5.399904,0.374845,1.916305,-0.215287,0.000000,0.000000,0.000000,0.000000,0.000000,0.000000
11806888.000000,-2.305449,-1.662605,1.247074,-1.448937,1.707272,1.285263,-0.579973,0.286542,-0.005853,0.733564,-0.204622,-0.174235,0.663182,-0.061156,-1.580157,39.622540,-23.333633,-5.352296,0.369352,2.033492,-0.155778,0.000000,0.000000,0.000000,0.000000,0.000000,0.000000
11806889.000000,-2.305168,-1.662614,1.247816,-1.449135,1.707102,1.285959,-0.580028,0.283462,-0.006222,0.732448,-0.202827,-0.174663,0.670480,-0.058186,-1.552386,39.721722,-23.555801,-5.376100,0.308927,1.962081,-0.196061,0.000000,0.000000,0.000000,0.000000,0.000000,0.000000
11806890.000000,-2.304893,-1.662626,1.248549,-1.449330,1.706934,1.286654,-0.580093,0.280497,-0.006932,0.732335,-0.200691,-0.172528,0.684786,-0.058725,-1.480975,39.840740,-23.750198,-5.451478,0.279630,1.767074,-0.163102,0.000000,0.000000,0.000000,0.000000,0.000000,0.000000
11806891.000000,-2.304616,-1.662646,1.249291,-1.449530,1.706766,1.287345,-0.580148,0.277761,-0.010375,0.730149,-0.197454,-0.167849,0.682708,-0.057853,-1.429400,40.086712,-23.996170,-5.475282,0.303434,1.741439,-0.169511,0.000000,0.000000,0.000000,0.000000,0.000000,0.000000
11806892.000000,-2.304337,-1.662657,1.250034,-1.449736,1.706595,1.287997,-0.580204,0.277802,-0.008680,0.729790,-0.200581,-0.169324,0.679670,-0.060654,-1.528582,40.162090,-24.142960,-5.399904,0.332731,1.930038,-0.208878,0.000000,0.000000,0.000000,0.000000,0.000000,0.000000
11806893.000000,-2.304066,-1.662678,1.250767,-1.449939,1.706430,1.288660,-0.580269,0.273881,-0.014074,0.729524,-0.201927,-0.169623,0.669568,-0.061484,-1.504779,40.380291,-24.289749,-5.352296,0.339139,2.098495,-0.149369,0.000000,0.000000,0.000000,0.000000,0.000000,0.000000
11806894.000000,-2.303795,-1.662698,1.251493,-1.450145,1.706261,1.289341,-0.580319,0.275818,-0.014288,0.729529,-0.205094,-0.166658,0.676880,-0.057173,-1.504779,40.578655,-24.242142,-5.328493,0.393156,2.098495,-0.221696,0.000000,0.000000,0.000000,0.000000,0.000000,0.000000
11806895.000000,-2.303531,-1.662714,1.252220,-1.450344,1.706098,1.290017,-0.580379,0.271043,-0.014572,0.742580,-0.203407,-0.170002,0.672631,-0.057779,-1.429400,40.650066,-24.313553,-5.352296,0.362943,2.001449,-0.196061,0.000000,0.000000,0.000000,0.000000,0.000000,0.000000
11806896.000000,-2.303264,-1.662722,1.252953,-1.450542,1.705930,1.290699,-0.580440,0.261805,-0.012748,0.733037,-0.201715,-0.167891,0.677015,-0.057958,-1.306414,40.626263,-24.341324,-5.399904,0.308927,1.916305,-0.163102,0.000000,0.000000,0.000000,0.000000,0.000000,0.000000
11806897.000000,-2.303000,-1.662737,1.253685,-1.450745,1.705755,1.291377,-0.580494,0.261208,-0.010744,0.729458,-0.202342,-0.167614,0.668960,-0.056206,-1.207232,40.697674,-24.265945,-5.376100,0.303434,1.884261,-0.196061,0.000000,0.000000,0.000000,0.000000,0.000000,0.000000
11806898.000000,-2.302743,-1.662759,1.254407,-1.450950,1.705577,1.292053,-0.580547,0.255757,-0.014858,0.728777,-0.202148,-0.170883,0.666898,-0.055011,-1.060443,40.872234,-24.218338,-5.376100,0.369352,1.877853,-0.208878,0.000000,0.000000,0.000000,0.000000,0.000000,0.000000
11806899.000000,-2.302481,-1.662766,1.255132,-1.451159,1.705407,1.292718,-0.580603,0.256297,-0.009844,0.726206,-0.206028,-0.171809,0.667519,-0.055489,-1.008868,40.844463,-23.996170,-5.328493,0.405057,1.916305,-0.208878,0.000000,0.000000,0.000000,0.000000,0.000000,0.000000
11806900.000000,-2.302225,-1.662778,1.255867,-1.451361,1.705239,1.293381,-0.580664,0.260119,-0.010170,0.724581,-0.207158,-0.170657,0.672333,-0.057013,-0.933489,40.844463,-23.972366,-5.304689,0.393156,1.988631,-0.175919,0.000000,0.000000,0.000000,0.000000,0.000000,0.000000
11806901.000000,-2.301966,-1.662787,1.256584,-1.451567,1.705076,1.294068,-0.580719,0.257165,-0.009988,0.725600,-0.210032,-0.169206,0.678357,-0.055930,-0.834307,40.820660,-23.825577,-5.253114,0.369352,1.897079,-0.202470,0.000000,0.000000,0.000000,0.000000,0.000000,0.000000
11806902.000000,-2.301706,-1.662791,1.257310,-1.451776,1.704915,1.294774,-0.580777,0.257180,-0.005699,0.720115,-0.207548,-0.167938,0.681365,-0.057371,-0.735125,40.749249,-23.702591,-5.253114,0.339139,1.714889,-0.163102,0.000000,0.000000,0.000000,0.000000,0.000000,0.000000
11806903.000000,-2.301451,-1.662796,1.258028,-1.451984,1.704749,1.295451,-0.580829,0.252479,-0.005076,0.726171,-0.208956,-0.171815,0.681452,-0.055066,-0.687518,40.650066,-23.678787,-5.130128,0.339139,1.682845,-0.208878,0.000000,0.000000,0.000000,0.000000,0.000000,0.000000
11806904.000000,-2.301183,-1.662800,1.258756,-1.452200,1.704586,1.296132,-0.580889,0.254016,-0.004775,0.727632,-0.211434,-0.170060,0.671185,-0.051793,-0.762896,40.550884,-23.651016,-4.931764,0.297025,1.773483,-0.182328,0.000000,0.000000,0.000000,0.000000,0.000000,0.000000
11806905.000000,-2.300927,-1.662806,1.259476,-1.452415,1.704412,1.296808,-0.580944,0.248984,-0.005860,0.720839,-0.212615,-0.168208,0.685904,-0.053125,-0.762896,40.503277,-23.579605,-4.757204,0.386747,1.838485,-0.175919,0.000000,0.000000,0.000000,0.000000,0.000000,0.000000
11806906.000000,-2.300670,-1.662811,1.260188,-1.452628,1.704248,1.297501,-0.580997,0.250434,-0.005574,0.718055,-0.212452,-0.166085,0.681152,-0.052900,-0.786700,40.404095,-23.480423,-4.610414,0.446256,1.800033,-0.202470,0.000000,0.000000,0.000000,0.000000,0.000000,0.000000
11806907.000000,-2.300408,-1.662812,1.260921,-1.452838,1.704090,1.298197,-0.581055,0.255694,-0.005524,0.717506,-0.210842,-0.166326,0.686381,-0.054940,-0.810504,40.308880,-23.651016,-4.511232,0.452665,1.767074,-0.169511,0.000000,0.000000,0.000000,0.000000,0.000000,0.000000
11806908.000000,-2.300154,-1.662812,1.261649,-1.453044,1.703936,1.298880,-0.581107,0.255619,-0.005332,0.724499,-0.209365,-0.160797,0.685110,-0.053623,-0.834307,40.209698,-23.801773,-4.439821,0.410551,1.754256,-0.208878,0.000000,0.000000,0.000000,0.000000,0.000000,0.000000
11806909.000000,-2.299899,-1.662818,1.262376,-1.453259,1.703780,1.299575,-0.581163,0.250368,-0.003385,0.720352,-0.212967,-0.158264,0.688163,-0.055213,-0.810504,40.162090,-23.849380,-4.312868,0.416959,1.721298,-0.188737,0.000000,0.000000,0.000000,0.000000,0.000000,0.000000
11806910.000000,-2.299648,-1.662828,1.263104,-1.453482,1.703620,1.300258,-0.581218,0.254526,-0.007225,0.720057,-0.215817,-0.161026,0.689313,-0.059568,-0.762896,40.209698,-23.873184,-4.166078,0.416959,1.754256,-0.202470,0.000000,0.000000,0.000000,0.000000,0.000000,0.000000
11806911.000000,-2.299391,-1.662830,1.263825,-1.453695,1.703457,1.300925,-0.581270,0.257122,-0.003846,0.722862,-0.216595,-0.161969,0.685284,-0.057743,-0.786700,40.134319,-24.019974,-4.090700,0.428861,1.923629,-0.215287,0.000000,0.000000,0.000000,0.000000,0.000000,0.000000
11806912.000000,-2.299138,-1.662828,1.264553,-1.453915,1.703292,1.301604,-0.581333,0.255341,-0.003016,0.726922,-0.218219,-0.163399,0.683461,-0.059644,-0.786700,39.987530,-24.190567,-3.943910,0.422452,2.047225,-0.155778,0.000000,0.000000,0.000000,0.000000,0.000000,0.000000
11806913.000000,-2.298891,-1.662829,1.265273,-1.454125,1.703128,1.302284,-0.581384,0.254449,-0.003684,0.729131,-0.217765,-0.160139,0.681894,-0.051855,-0.762896,39.892315,-24.265945,-3.892336,0.422452,1.968490,-0.215287,0.000000,0.000000,0.000000,0.000000,0.000000,0.000000
11806914.000000,-2.298641,-1.662826,1.265993,-1.454343,1.702967,1.302984,-0.581442,0.252301,-0.003440,0.724064,-0.217078,-0.159246,0.685712,-0.054421,-0.687518,39.769329,-24.313553,-3.868532,0.458158,1.851302,-0.182328,0.000000,0.000000,0.000000,0.000000,0.000000,0.000000
11806915.000000,-2.298386,-1.662824,1.266717,-1.454561,1.702810,1.303671,-0.581495,0.253613,-0.000832,0.716797,-0.213968,-0.156238,0.678705,-0.053717,-0.687518,39.670147,-24.265945,-3.820925,0.452665,1.877853,-0.208878,0.000000,0.000000,0.000000,0.000000,0.000000,0.000000
11806916.000000,-2.298132,-1.662819,1.267432,-1.454776,1.702654,1.304347,-0.581552,0.256823,0.001678,0.714582,-0.215290,-0.160182,0.679992,-0.055137,-0.786700,39.547161,-24.289749,-3.745546,0.458158,1.974899,-0.182328,0.000000,0.000000,0.000000,0.000000,0.000000,0.000000
11806917.000000,-2.297883,-1.662818,1.268142,-1.454998,1.702500,1.305024,-0.581605,0.251740,0.001193,0.710266,-0.218856,-0.162420,0.681807,-0.054317,-0.762896,39.523357,-24.095352,-3.670168,0.458158,2.020675,-0.215287,0.000000,0.000000,0.000000,0.000000,0.000000,0.000000
11806918.000000,-2.297634,-1.662813,1.268849,-1.455225,1.702344,1.305703,-0.581661,0.245541,0.001547,0.703727,-0.219021,-0.158118,0.686538,-0.051846,-0.810504,39.475750,-23.849380,-3.598757,0.422452,2.020675,-0.169511,0.000000,0.000000,0.000000,0.000000,0.000000,0.000000
11806919.000000,-2.297386,-1.662807,1.269559,-1.455445,1.702186,1.306389,-0.581713,0.244440,0.002523,0.709417,-0.218678,-0.156045,0.686282,-0.052646,-0.834307,39.400372,-23.774002,-3.547182,0.416959,1.988631,-0.163102,0.000000,0.000000,0.000000,0.000000,0.000000,0.000000
11806920.000000,-2.297143,-1.662795,1.270282,-1.455663,1.702035,1.307078,-0.581759,0.240588,0.011188,0.714741,-0.218375,-0.152137,0.683674,-0.046571,-0.735125,39.253582,-23.801773,-3.475771,0.351041,1.897079,-0.221696,0.000000,0.000000,0.000000,0.000000,0.000000,0.000000
11806921.000000,-2.296898,-1.662789,1.270984,-1.455882,1.701881,1.307754,-0.581818,0.243332,0.009500,0.713953,-0.218194,-0.151436,0.689536,-0.051055,-0.735125,39.182171,-23.726395,-3.424196,0.369352,1.838485,-0.169511,0.000000,0.000000,0.000000,0.000000,0.000000,0.000000
11806922.000000,-2.296657,-1.662780,1.271698,-1.456106,1.701721,1.308438,-0.581864,0.241290,0.011985,0.711438,-0.218489,-0.149236,0.682904,-0.051138,-0.663714,39.082989,-23.678787,-3.348818,0.434354,1.786300,-0.202470,0.000000,0.000000,0.000000,0.000000,0.000000,0.000000
11806923.000000,-2.296418,-1.662777,1.272416,-1.456327,1.701563,1.309104,-0.581915,0.242693,0.009010,0.711055,-0.215744,-0.147025,0.688539,-0.052198,-0.588336,39.059185,-23.726395,-3.277406,0.506681,1.877853,-0.208878,0.000000,0.000000,0.000000,0.000000,0.000000,0.000000
11806924.000000,-2.296178,-1.662774,1.273133,-1.456540,1.701418,1.309772,-0.581971,0.240369,0.007467,0.709180,-0.212455,-0.147447,0.674488,-0.049882,-0.512957,39.011578,-23.849380,-3.249635,0.500272,1.949264,-0.175919,0.000000,0.000000,0.000000,0.000000,0.000000,0.000000
11806925.000000,-2.295943,-1.662774,1.273857,-1.456755,1.701276,1.310455,-0.582020,0.238172,0.005238,0.704755,-0.215047,-0.146844,0.669770,-0.050345,-0.413775,39.011578,-24.019974,-3.249635,0.476469,1.974899,-0.202470,0.000000,0.000000,0.000000,0.000000,0.000000,0.000000
11806926.000000,-2.295718,-1.662780,1.274562,-1.456963,1.701133,1.311132,-0.582076,0.232184,0.001460,0.705663,-0.210102,-0.145532,0.673833,-0.053665,-0.266986,39.106792,-24.071548,-3.301210,0.434354,1.936446,-0.149369,0.000000,0.000000,0.000000,0.000000,0.000000,0.000000
11806927.000000,-2.295484,-1.662787,1.275284,-1.457174,1.700983,1.311811,-0.582123,0.231774,-0.001200,0.710007,-0.208525,-0.145132,0.674102,-0.052832,-0.167803,39.205975,-24.265945,-3.277406,0.398649,1.949264,-0.188737,0.000000,0.000000,0.000000,0.000000,0.000000,0.000000
11806928.000000,-2.295250,-1.662792,1.275999,-1.457386,1.700830,1.312478,-0.582169,0.234299,-0.002453,0.715365,-0.207981,-0.147528,0.673362,-0.052654,-0.144000,39.281353,-24.341324,-3.225832,0.416959,2.020675,-0.215287,0.000000,0.000000,0.000000,0.000000,0.000000,0.000000
11806929.000000,-2.295018,-1.662799,1.276704,-1.457595,1.700683,1.313148,-0.582222,0.232076,-0.003781,0.709709,-0.210601,-0.144027,0.670726,-0.058304,-0.116229,39.376568,-24.365128,-3.178224,0.428861,2.014266,-0.202470,0.000000,0.000000,0.000000,0.000000,0.000000,0.000000
11806930.000000,-2.294784,-1.662809,1.277417,-1.457802,1.700532,1.313833,-0.582276,0.233818,-0.005892,0.704208,-0.207759,-0.148760,0.679531,-0.059607,-0.092425,39.523357,-24.388931,-3.178224,0.518583,1.936446,-0.155778,0.000000,0.000000,0.000000,0.000000,0.000000,0.000000
11806931.000000,-2.294557,-1.662813,1.278135,-1.458000,1.700387,1.314501,-0.582321,0.231009,-0.005088,0.705698,-0.204952,-0.144666,0.671489,-0.057278,-0.044818,39.574932,-24.313553,-3.225832,0.535978,1.897079,-0.188737,0.000000,0.000000,0.000000,0.000000,0.000000,0.000000
11806932.000000,-2.294336,-1.662821,1.278840,-1.458196,1.700246,1.315179,-0.582365,0.227207,-0.006141,0.705314,-0.199237,-0.141298,0.674535,-0.055657,0.078168,39.693951,-24.313553,-3.301210,0.535978,1.871444,-0.229020,0.000000,0.000000,0.000000,0.000000,0.000000,0.000000
11806933.000000,-2.294117,-1.662827,1.279548,-1.458396,1.700111,1.315855,-0.582420,0.224479,-0.005275,0.704661,-0.201311,-0.141384,0.671330,-0.058336,0.205121,39.745525,-24.218338,-3.376589,0.494779,1.865035,-0.163102,0.000000,0.000000,0.000000,0.000000,0.000000,0.000000
11806934.000000,-2.293896,-1.662836,1.280238,-1.458592,1.699973,1.316528,-0.582465,0.225341,-0.006374,0.698059,-0.199936,-0.138629,0.667793,-0.050832,0.351911,39.868511,-24.043777,-3.448000,0.482877,1.890670,-0.215287,0.000000,0.000000,0.000000,0.000000,0.000000,0.000000
11806935.000000,-2.293670,-1.662842,1.280938,-1.458791,1.699835,1.317204,-0.582515,0.224569,-0.005905,0.701434,-0.197092,-0.140490,0.664342,-0.052650,0.427289,39.939922,-23.849380,-3.448000,0.446256,1.890670,-0.208878,0.000000,0.000000,0.000000,0.000000,0.000000,0.000000
11806936.000000,-2.293457,-1.662841,1.281646,-1.458983,1.699691,1.317879,-0.582565,0.219689,-0.002812,0.703407,-0.191372,-0.142356,0.669081,-0.053995,0.550275,39.892315,-23.750198,-3.475771,0.422452,1.865035,-0.196061,0.000000,0.000000,0.000000,0.000000,0.000000,0.000000
11806937.000000,-2.293232,-1.662834,1.282340,-1.459178,1.699554,1.318573,-0.582614,0.222756,-0.000103,0.702667,-0.194074,-0.139508,0.680962,-0.054967,0.550275,39.816936,-23.651016,-3.475771,0.410551,1.754256,-0.188737,0.000000,0.000000,0.000000,0.000000,0.000000,0.000000
11806938.000000,-2.293008,-1.662828,1.283045,-1.459371,1.699417,1.319273,-0.582662,0.219943,0.001608,0.699318,-0.195028,-0.138276,0.679614,-0.055305,0.574079,39.745525,-23.504227,-3.499574,0.428861,1.637069,-0.182328,0.000000,0.000000,0.000000,0.000000,0.000000,0.000000
11806939.000000,-2.292784,-1.662827,1.283737,-1.459560,1.699277,1.319953,-0.582707,0.217781,0.001633,0.695874,-0.196240,-0.139565,0.685101,-0.049599,0.526471,39.721722,-23.381241,-3.523378,0.506681,1.611434,-0.215287,0.000000,0.000000,0.000000,0.000000,0.000000,0.000000
11806940.000000,-2.292565,-1.662816,1.284435,-1.459747,1.699148,1.320634,-0.582758,0.216373,0.004526,0.696359,-0.193776,-0.136004,0.680044,-0.052360,0.526471,39.574932,-23.258255,-3.547182,0.464567,1.682845,-0.182328,0.000000,0.000000,0.000000,0.000000,0.000000,0.000000
11806941.000000,-2.292344,-1.662811,1.285139,-1.459937,1.699012,1.321316,-0.582803,0.220661,0.004783,0.692521,-0.188824,-0.134508,0.695738,-0.052230,0.502668,39.499554,-23.234451,-3.570986,0.458158,1.662704,-0.208878,0.000000,0.000000,0.000000,0.000000,0.000000,0.000000
11806942.000000,-2.292119,-1.662804,1.285825,-1.460115,1.698882,1.322004,-0.582852,0.222360,0.005511,0.696541,-0.182362,-0.133152,0.687539,-0.054821,0.502668,39.400372,-23.087662,-3.721742,0.434354,1.649886,-0.169511,0.000000,0.000000,0.000000,0.000000,0.000000,0.000000
11806943.000000,-2.291891,-1.662799,1.286533,-1.460300,1.698757,1.322691,-0.582900,0.226371,0.005346,0.696017,-0.180846,-0.130770,0.686070,-0.055346,0.403486,39.328960,-23.135269,-3.721742,0.386747,1.727706,-0.163102,0.000000,0.000000,0.000000,0.000000,0.000000,0.000000
11806944.000000,-2.291665,-1.662785,1.287230,-1.460480,1.698626,1.323371,-0.582937,0.229179,0.014436,0.709961,-0.180465,-0.134528,0.687638,-0.048240,0.276533,39.130596,-23.258255,-3.697939,0.369352,1.779891,-0.229020,0.000000,0.000000,0.000000,0.000000,0.000000,0.000000
11806945.000000,-2.291442,-1.662773,1.287935,-1.460656,1.698494,1.324064,-0.582991,0.229346,0.013578,0.705398,-0.178377,-0.133311,0.686162,-0.053933,0.276533,38.983807,-23.258255,-3.745546,0.356534,1.767074,-0.136552,0.000000,0.000000,0.000000,0.000000,0.000000,0.000000
