chaoyuefei/paper-gmrm-data/robot_logs/s2_dq_gmrm_xz_min_0.50_log_20260314_173906.csv
# time_ms,q_0,q_1,q_2,q_3,q_4,q_5,q_6,dq_0,dq_1,dq_2,dq_3,dq_4,dq_5,dq_6,tau_J_0,tau_J_1,tau_J_2,tau_J_3,tau_J_4,tau_J_5,tau_J_6,O_dP_EE_c_0,O_dP_EE_c_1,O_dP_EE_c_2,O_dP_EE_c_3,O_dP_EE_c_4,O_dP_EE_c_5
12608929.000000,-2.415656,-1.662600,1.042881,-1.356091,1.795439,1.081419,-0.548603,-0.000946,-0.000930,0.001359,0.000322,0.000093,-0.000148,-0.001418,0.054365,41.578411,-21.100052,-5.721254,0.859159,1.331283,0.061202,0.000000,0.000000,0.000000,0.000000,0.000000,0.000000
12608930.000000,-2.415654,-1.662598,1.042876,-1.356093,1.795443,1.081419,-0.548597,-0.000074,0.000494,-0.000858,-0.000342,0.000300,-0.000099,0.000750,0.030561,41.530804,-21.024673,-5.697450,0.852750,1.331283,0.015426,0.000000,0.000000,0.000000,0.000000,0.000000,0.000000
12608931.000000,-2.415654,-1.662598,1.042878,-1.356091,1.795442,1.081420,-0.548598,-0.000049,0.000329,0.000078,0.000329,-0.000478,0.000409,0.000025,0.030561,41.530804,-21.052444,-5.721254,0.871061,1.318465,0.028243,0.000000,0.000000,0.000000,0.000000,0.000000,0.000000
12608932.000000,-2.415658,-1.662599,1.042876,-1.356091,1.795443,1.081419,-0.548595,-0.001146,0.000219,-0.000598,0.000219,0.000122,-0.000202,0.001000,0.078168,41.530804,-21.024673,-5.721254,0.859159,1.331283,0.001693,0.000000,0.000000,0.000000,0.000000,0.000000,0.000000
12608933.000000,-2.415650,-1.662600,1.042876,-1.356087,1.795439,1.081418,-0.548603,0.009564,-0.001843,0.006472,0.003318,0.000759,0.007331,0.000158,0.304304,41.483196,-21.024673,-5.721254,0.840848,1.364242,0.015426,0.000000,0.000000,0.000000,0.000000,0.000000,0.000000
12608934.000000,-2.415645,-1.662605,1.042881,-1.356089,1.795441,1.081413,-0.548617,0.017758,-0.002624,0.004330,0.003447,-0.000873,0.007753,-0.008138,1.367536,41.261028,-21.000870,-5.499086,0.751127,1.539108,-0.017533,0.000000,0.000000,0.000000,0.000000,0.000000,0.000000
12608935.000000,-2.415612,-1.662606,1.042890,-1.356084,1.795438,1.081411,-0.548644,0.026517,0.001050,0.009031,0.004162,-0.001254,0.006578,-0.018529,2.926679,40.844463,-20.953262,-5.276918,0.632108,1.767074,-0.064225,0.000000,0.000000,0.000000,0.000000,0.000000,0.000000
12608936.000000,-2.415571,-1.662605,1.042910,-1.356091,1.795420,1.081431,-0.548690,0.030411,0.001410,0.016680,-0.002178,-0.005526,0.011248,-0.029544,4.834943,40.356487,-20.929459,-4.884157,0.608304,1.858627,-0.031266,0.000000,0.000000,0.000000,0.000000,0.000000,0.000000
12608937.000000,-2.415508,-1.662601,1.042931,-1.356103,1.795394,1.081482,-0.548746,0.035276,0.003774,0.017892,-0.009114,-0.010243,0.025079,-0.034385,6.739240,39.769329,-20.854080,-4.511232,0.632108,1.786300,-0.083451,0.000000,0.000000,0.000000,0.000000,0.000000,0.000000
12608938.000000,-2.415423,-1.662602,1.042962,-1.356136,1.795355,1.081562,-0.548826,0.043648,0.002445,0.022897,-0.016230,-0.019081,0.049312,-0.050156,8.349957,39.281353,-20.806473,-4.043092,0.679716,1.559249,-0.070634,0.000000,0.000000,0.000000,0.000000,0.000000,0.000000
12608939.000000,-2.415316,-1.662597,1.042998,-1.356176,1.795303,1.081655,-0.548927,0.059469,0.005180,0.025484,-0.025790,-0.029702,0.064555,-0.066448,9.734540,38.765606,-20.707291,-3.646364,0.709928,1.383468,-0.056901,0.000000,0.000000,0.000000,0.000000,0.000000,0.000000
12608940.000000,-2.415198,-1.662599,1.043042,-1.356225,1.795234,1.081764,-0.549048,0.072193,0.007265,0.034105,-0.036417,-0.047250,0.084726,-0.086640,10.972333,38.372845,-20.608109,-3.348818,0.745634,1.312057,-0.070634,0.000000,0.000000,0.000000,0.000000,0.000000,0.000000
12608941.000000,-2.415062,-1.662594,1.043100,-1.356290,1.795157,1.081889,-0.549189,0.093085,0.006406,0.045680,-0.046618,-0.057129,0.104489,-0.103006,11.936383,37.956280,-20.560501,-2.979860,0.703519,1.350509,-0.064225,0.000000,0.000000,0.000000,0.000000,0.000000,0.000000
12608942.000000,-2.414922,-1.662584,1.043163,-1.356359,1.795071,1.082036,-0.549355,0.107072,0.008891,0.052411,-0.053806,-0.066455,0.117217,-0.129804,12.928205,37.539715,-20.437515,-2.757692,0.571683,1.448470,-0.077042,0.000000,0.000000,0.000000,0.000000,0.000000,0.000000
12608943.000000,-2.414776,-1.662573,1.043245,-1.356444,1.794958,1.082209,-0.549550,0.121786,0.009546,0.060553,-0.062650,-0.085754,0.130526,-0.149437,13.868451,37.174725,-20.437515,-2.535524,0.506681,1.578475,-0.070634,0.000000,0.000000,0.000000,0.000000,0.000000,0.000000
12608944.000000,-2.414603,-1.662555,1.043346,-1.356537,1.794826,1.082412,-0.549771,0.139805,0.011366,0.076267,-0.072890,-0.102358,0.152420,-0.173480,14.534955,36.758160,-20.560501,-2.436342,0.381254,1.630660,-0.070634,0.000000,0.000000,0.000000,0.000000,0.000000,0.000000
12608945.000000,-2.414413,-1.662541,1.043462,-1.356654,1.794674,1.082653,-0.550018,0.154453,0.010525,0.088400,-0.085240,-0.115768,0.181312,-0.193684,15.082440,36.440777,-20.707291,-2.285585,0.339139,1.584884,-0.122819,0.000000,0.000000,0.000000,0.000000,0.000000,0.000000
12608946.000000,-2.414215,-1.662520,1.043589,-1.356786,1.794488,1.082913,-0.550295,0.171674,0.014870,0.100860,-0.098815,-0.136358,0.207930,-0.219679,15.602155,36.048016,-20.854080,-2.091188,0.386747,1.507064,-0.050492,0.000000,0.000000,0.000000,0.000000,0.000000,0.000000
12608947.000000,-2.413986,-1.662497,1.043732,-1.356936,1.794273,1.083209,-0.550575,0.186463,0.018100,0.112960,-0.116664,-0.158722,0.239775,-0.238126,15.848126,35.655254,-21.000870,-1.964235,0.464567,1.435653,-0.097184,0.000000,0.000000,0.000000,0.000000,0.000000,0.000000
12608948.000000,-2.413747,-1.662479,1.043888,-1.357102,1.794029,1.083525,-0.550871,0.204699,0.018741,0.126810,-0.131672,-0.185287,0.262077,-0.253812,16.070295,35.337872,-21.199234,-1.916628,0.596403,1.416427,-0.097184,0.000000,0.000000,0.000000,0.000000,0.000000,0.000000
12608949.000000,-2.413495,-1.662457,1.044049,-1.357276,1.793776,1.083857,-0.551166,0.219908,0.018798,0.136970,-0.144024,-0.201693,0.286189,-0.265227,16.296431,35.044292,-21.246841,-1.964235,0.637601,1.435653,-0.110001,0.000000,0.000000,0.000000,0.000000,0.000000,0.000000
12608950.000000,-2.413225,-1.662441,1.044223,-1.357471,1.793516,1.084213,-0.551471,0.232050,0.022917,0.147132,-0.158414,-0.220821,0.308646,-0.275211,16.467024,34.849895,-21.246841,-1.940431,0.613798,1.448470,-0.103593,0.000000,0.000000,0.000000,0.000000,0.000000,0.000000
12608951.000000,-2.412940,-1.662427,1.044404,-1.357675,1.793237,1.084591,-0.551772,0.249853,0.021463,0.159103,-0.171719,-0.245039,0.327358,-0.283608,16.566206,34.726910,-21.270645,-1.964235,0.559781,1.539108,-0.056901,0.000000,0.000000,0.000000,0.000000,0.000000,0.000000
12608952.000000,-2.412639,-1.662423,1.044597,-1.357906,1.792940,1.084983,-0.552061,0.264387,0.014164,0.165980,-0.188988,-0.263616,0.346629,-0.285104,16.689192,34.750713,-21.223038,-1.916628,0.422452,1.702071,-0.130143,0.000000,0.000000,0.000000,0.000000,0.000000,0.000000
12608953.000000,-2.412307,-1.662412,1.044796,-1.358151,1.792629,1.085398,-0.552362,0.283768,0.014585,0.179960,-0.206887,-0.280743,0.371732,-0.286646,16.566206,34.679302,-21.147659,-1.817445,0.356534,1.735030,-0.122819,0.000000,0.000000,0.000000,0.000000,0.000000,0.000000
12608954.000000,-2.411974,-1.662409,1.045011,-1.358423,1.792298,1.085846,-0.552664,0.301700,0.012834,0.189970,-0.226089,-0.294640,0.395385,-0.288813,16.566206,34.703106,-21.123856,-1.595277,0.332731,1.741439,-0.056901,0.000000,0.000000,0.000000,0.000000,0.000000,0.000000
12608955.000000,-2.411620,-1.662407,1.045231,-1.358711,1.791953,1.086328,-0.552946,0.311178,0.011787,0.197658,-0.244156,-0.315021,0.420572,-0.284022,16.542402,34.726910,-20.977066,-1.472292,0.339139,1.656295,-0.130143,0.000000,0.000000,0.000000,0.000000,0.000000,0.000000
12608956.000000,-2.411251,-1.662405,1.045466,-1.359005,1.791581,1.086828,-0.553240,0.330379,0.009154,0.206485,-0.257209,-0.328003,0.448971,-0.285398,16.443220,34.703106,-20.929459,-1.373109,0.386747,1.539108,-0.083451,0.000000,0.000000,0.000000,0.000000,0.000000,0.000000
12608957.000000,-2.410880,-1.662402,1.045713,-1.359305,1.791193,1.087354,-0.553517,0.340829,0.007215,0.215475,-0.270408,-0.346712,0.472842,-0.283335,16.617781,34.679302,-20.854080,-1.373109,0.446256,1.461288,-0.122819,0.000000,0.000000,0.000000,0.000000,0.000000,0.000000
12608958.000000,-2.410493,-1.662400,1.045969,-1.359621,1.790798,1.087890,-0.553795,0.356299,0.005226,0.237371,-0.291021,-0.360971,0.497411,-0.282676,16.764570,34.679302,-20.806473,-1.396913,0.500272,1.435653,-0.130143,0.000000,0.000000,0.000000,0.000000,0.000000,0.000000
12608959.000000,-2.410098,-1.662401,1.046229,-1.359955,1.790379,1.088454,-0.554068,0.370662,0.003239,0.241711,-0.302200,-0.375368,0.517963,-0.274620,16.887556,34.703106,-20.707291,-1.420717,0.542386,1.467696,-0.097184,0.000000,0.000000,0.000000,0.000000,0.000000,0.000000
12608960.000000,-2.409699,-1.662403,1.046499,-1.360307,1.789948,1.089028,-0.554331,0.381139,0.001837,0.248144,-0.317300,-0.389988,0.532577,-0.270224,17.185102,34.726910,-20.608109,-1.420717,0.530485,1.513473,-0.142960,0.000000,0.000000,0.000000,0.000000,0.000000,0.000000
12608961.000000,-2.409280,-1.662406,1.046779,-1.360672,1.789515,1.089613,-0.554604,0.393950,0.000286,0.262505,-0.332385,-0.402672,0.549273,-0.270934,17.335859,34.774517,-20.584305,-1.297731,0.464567,1.552840,-0.130143,0.000000,0.000000,0.000000,0.000000,0.000000,0.000000
12608962.000000,-2.408845,-1.662402,1.047070,-1.361049,1.789055,1.090232,-0.554878,0.407604,0.000879,0.268267,-0.348822,-0.417858,0.565099,-0.270818,17.558027,34.750713,-20.512894,-1.198549,0.428861,1.494247,-0.097184,0.000000,0.000000,0.000000,0.000000,0.000000,0.000000
12608963.000000,-2.408398,-1.662398,1.047372,-1.361449,1.788597,1.090878,-0.555142,0.417998,0.001799,0.276166,-0.365813,-0.420390,0.587170,-0.271419,17.780195,34.703106,-20.437515,-1.027956,0.369352,1.396285,-0.136552,0.000000,0.000000,0.000000,0.000000,0.000000,0.000000
12608964.000000,-2.407938,-1.662398,1.047680,-1.361862,1.788108,1.091519,-0.555408,0.436022,0.001273,0.286570,-0.383496,-0.436823,0.602115,-0.274980,17.978559,34.703106,-20.413712,-0.778017,0.332731,1.331283,-0.070634,0.000000,0.000000,0.000000,0.000000,0.000000,0.000000
12608965.000000,-2.407460,-1.662389,1.047999,-1.362291,1.787594,1.092185,-0.555662,0.444129,0.003224,0.293576,-0.396944,-0.461335,0.617504,-0.269011,18.224531,34.603924,-20.389908,-0.607423,0.398649,1.344100,-0.149369,0.000000,0.000000,0.000000,0.000000,0.000000,0.000000
12608966.000000,-2.406978,-1.662379,1.048314,-1.362722,1.787077,1.092867,-0.555922,0.457995,0.004511,0.300970,-0.413601,-0.484751,0.640681,-0.263281,18.498274,34.504742,-20.266922,-0.456667,0.452665,1.324874,-0.142960,0.000000,0.000000,0.000000,0.000000,0.000000,0.000000
12608967.000000,-2.406480,-1.662371,1.048653,-1.363179,1.786539,1.093580,-0.556183,0.472743,0.004709,0.311483,-0.426643,-0.500057,0.661259,-0.264893,18.795820,34.433331,-20.215347,-0.286073,0.482877,1.318465,-0.103593,0.000000,0.000000,0.000000,0.000000,0.000000,0.000000
12608968.000000,-2.405966,-1.662364,1.049018,-1.363649,1.785994,1.094312,-0.556432,0.484689,0.004276,0.324273,-0.440951,-0.518502,0.684978,-0.257728,19.065596,34.385723,-20.362137,-0.186891,0.530485,1.331283,-0.149369,0.000000,0.000000,0.000000,0.000000,0.000000,0.000000
12608969.000000,-2.405458,-1.662352,1.049377,-1.364121,1.785427,1.095048,-0.556678,0.493649,0.008734,0.336423,-0.447540,-0.534400,0.702695,-0.255942,19.486128,34.262737,-20.338333,-0.135317,0.512174,1.364242,-0.169511,0.000000,0.000000,0.000000,0.000000,0.000000,0.000000
12608970.000000,-2.404921,-1.662345,1.049755,-1.364615,1.784847,1.095820,-0.556936,0.509144,0.007291,0.346827,-0.461115,-0.548041,0.718506,-0.256972,19.759871,34.211163,-20.413712,-0.087709,0.542386,1.402694,-0.083451,0.000000,0.000000,0.000000,0.000000,0.000000,0.000000
12608971.000000,-2.404361,-1.662334,1.050152,-1.365123,1.784261,1.096601,-0.557177,0.526867,0.007285,0.373940,-0.481943,-0.555862,0.759237,-0.250434,19.958235,34.115948,-20.512894,0.086851,0.494779,1.396285,-0.155778,0.000000,0.000000,0.000000,0.000000,0.000000,0.000000
12608972.000000,-2.403805,-1.662326,1.050560,-1.365647,1.783660,1.097410,-0.557426,0.536912,0.005654,0.384798,-0.491605,-0.564924,0.773510,-0.254778,20.279585,34.088177,-20.683487,0.158263,0.440763,1.370651,-0.130143,0.000000,0.000000,0.000000,0.000000,0.000000,0.000000
12608973.000000,-2.403223,-1.662318,1.050983,-1.366181,1.783042,1.098258,-0.557677,0.549153,0.007586,0.395172,-0.505076,-0.589356,0.794451,-0.250402,20.501753,34.064373,-20.854080,0.209837,0.416959,1.285506,-0.110001,0.000000,0.000000,0.000000,0.000000,0.000000,0.000000
12608974.000000,-2.402649,-1.662305,1.051408,-1.366718,1.782412,1.099109,-0.557914,0.560746,0.007630,0.403312,-0.516759,-0.601467,0.814156,-0.243754,20.922285,33.969158,-21.000870,0.209837,0.369352,1.201278,-0.130143,0.000000,0.000000,0.000000,0.000000,0.000000,0.000000
12608975.000000,-2.402046,-1.662286,1.051856,-1.367282,1.781755,1.099980,-0.558156,0.575912,0.011835,0.416283,-0.525879,-0.619763,0.828321,-0.245083,21.219831,33.822369,-21.175430,0.285216,0.356534,1.234237,-0.103593,0.000000,0.000000,0.000000,0.000000,0.000000,0.000000
12608976.000000,-2.401427,-1.662273,1.052311,-1.367838,1.781095,1.100873,-0.558394,0.584959,0.012699,0.432134,-0.548720,-0.635555,0.847513,-0.243619,21.517378,33.770794,-21.270645,0.186034,0.374845,1.285506,-0.122819,0.000000,0.000000,0.000000,0.000000,0.000000,0.000000
12608977.000000,-2.400800,-1.662260,1.052773,-1.368418,1.780401,1.101778,-0.558634,0.598614,0.013355,0.437488,-0.561465,-0.653044,0.868958,-0.245132,21.763350,33.723186,-21.417435,0.134459,0.422452,1.272689,-0.089860,0.000000,0.000000,0.000000,0.000000,0.000000,0.000000
12608978.000000,-2.400145,-1.662246,1.053242,-1.369010,1.779697,1.102714,-0.558869,0.612480,0.015108,0.442540,-0.564267,-0.671464,0.892706,-0.240540,21.914106,33.624004,-21.492813,0.086851,0.464567,1.253463,-0.122819,0.000000,0.000000,0.000000,0.000000,0.000000,0.000000
12608979.000000,-2.399476,-1.662230,1.053731,-1.369612,1.778995,1.103648,-0.559095,0.634889,0.015714,0.455035,-0.576134,-0.680483,0.906585,-0.239484,22.013288,33.552593,-21.738785,0.158263,0.566190,1.259872,-0.182328,0.000000,0.000000,0.000000,0.000000,0.000000,0.000000
12608980.000000,-2.398783,-1.662220,1.054228,-1.370236,1.778282,1.104621,-0.559333,0.653950,0.014506,0.462533,-0.589765,-0.688067,0.930809,-0.243512,22.160078,33.552593,-21.933182,0.332823,0.691617,1.259872,-0.122819,0.000000,0.000000,0.000000,0.000000,0.000000,0.000000
12608981.000000,-2.398072,-1.662208,1.054727,-1.370866,1.777584,1.105624,-0.559563,0.672878,0.014291,0.469104,-0.603162,-0.680847,0.954057,-0.237278,22.334639,33.528790,-22.008560,0.479613,0.840848,1.247054,-0.155778,0.000000,0.000000,0.000000,0.000000,0.000000,0.000000
12608982.000000,-2.397354,-1.662202,1.055233,-1.371495,1.776880,1.106626,-0.559796,0.683072,0.009360,0.478215,-0.609481,-0.682565,0.973839,-0.234799,22.410017,33.576397,-22.107742,0.630369,0.913175,1.253463,-0.163102,0.000000,0.000000,0.000000,0.000000,0.000000,0.000000
12608983.000000,-2.396633,-1.662197,1.055761,-1.372145,1.776181,1.107662,-0.560030,0.678915,0.007250,0.492832,-0.619866,-0.688395,0.998668,-0.233396,22.287031,33.699383,-22.155350,0.554991,0.996488,1.312057,-0.142960,0.000000,0.000000,0.000000,0.000000,0.000000,0.000000
12608984.000000,-2.395891,-1.662193,1.056289,-1.372802,1.775494,1.108693,-0.560255,0.688452,0.004371,0.505383,-0.637083,-0.683445,1.015450,-0.230654,20.973860,33.893780,-21.909378,0.134459,0.936979,1.467696,-0.163102,0.000000,0.000000,0.000000,0.000000,0.000000,0.000000
12608985.000000,-2.395171,-1.662186,1.056854,-1.373484,1.774794,1.109765,-0.560476,0.696098,0.001466,0.519472,-0.651101,-0.688505,1.029623,-0.228200,18.843428,33.992962,-21.516617,-0.706606,0.906766,1.578475,-0.155778,0.000000,0.000000,0.000000,0.000000,0.000000,0.000000
12608986.000000,-2.394443,-1.662186,1.057439,-1.374181,1.774115,1.110858,-0.560700,0.704156,-0.005655,0.536513,-0.663110,-0.695937,1.037083,-0.228380,16.098066,34.040569,-20.830276,-1.670656,0.763029,1.637069,-0.149369,0.000000,0.000000,0.000000,0.000000,0.000000,0.000000
12608987.000000,-2.393714,-1.662182,1.058041,-1.374896,1.773424,1.111950,-0.560923,0.718180,-0.005595,0.556758,-0.680076,-0.696277,1.051802,-0.228294,13.150373,33.846172,-20.092361,-2.337160,0.608304,1.721298,-0.136552,0.000000,0.000000,0.000000,0.000000,0.000000,0.000000
12608988.000000,-2.392993,-1.662182,1.058671,-1.375630,1.772759,1.113075,-0.561138,0.725158,-0.004312,0.571891,-0.688651,-0.678643,1.066807,-0.222299,10.452619,33.576397,-19.235428,-2.757692,0.362943,1.779891,-0.155778,0.000000,0.000000,0.000000,0.000000,0.000000,0.000000
12608989.000000,-2.392262,-1.662187,1.059324,-1.376345,1.772101,1.114220,-0.561362,0.731327,-0.005042,0.603641,-0.694829,-0.672442,1.099511,-0.222283,7.901655,33.354229,-18.449905,-3.202028,0.147794,1.649886,-0.089860,0.000000,0.000000,0.000000,0.000000,0.000000,0.000000
12608990.000000,-2.391538,-1.662201,1.059979,-1.377065,1.771444,1.115399,-0.561570,0.735350,-0.006657,0.619306,-0.696635,-0.656832,1.124952,-0.221515,5.676008,33.306622,-17.688187,-3.499574,0.046171,1.481429,-0.130143,0.000000,0.000000,0.000000,0.000000,0.000000,0.000000
12608991.000000,-2.390820,-1.662217,1.060647,-1.377776,1.770797,1.116593,-0.561786,0.732329,-0.007676,0.623753,-0.693392,-0.654232,1.145714,-0.217677,3.819318,33.259014,-16.978043,-3.844728,0.010465,1.435653,-0.149369,0.000000,0.000000,0.000000,0.000000,0.000000,0.000000
12608992.000000,-2.390105,-1.662242,1.061310,-1.378479,1.770150,1.117787,-0.562011,0.729329,-0.014742,0.633984,-0.692741,-0.646331,1.165148,-0.221730,2.184797,33.354229,-16.339310,-3.967714,0.117582,1.416427,-0.097184,0.000000,0.000000,0.000000,0.000000,0.000000,0.000000
12608993.000000,-2.389392,-1.662271,1.061983,-1.379185,1.769497,1.119008,-0.562223,0.718598,-0.019873,0.640901,-0.689785,-0.649767,1.182303,-0.221205,0.923200,33.453411,-15.724380,-3.991518,0.291532,1.454879,-0.142960,0.000000,0.000000,0.000000,0.000000,0.000000,0.000000
12608994.000000,-2.388663,-1.662308,1.062666,-1.379880,1.768861,1.120255,-0.562450,0.718364,-0.023862,0.653404,-0.705816,-0.649993,1.197588,-0.218816,-0.314593,33.576397,-15.232437,-3.920107,0.488370,1.416427,-0.103593,0.000000,0.000000,0.000000,0.000000,0.000000,0.000000
12608995.000000,-2.387949,-1.662344,1.063340,-1.380586,1.768221,1.121496,-0.562655,0.717363,-0.028255,0.654165,-0.709903,-0.645751,1.214215,-0.212444,-1.306414,33.624004,-14.716690,-3.622560,0.578092,1.272689,-0.196061,0.000000,0.000000,0.000000,0.000000,0.000000,0.000000
12608996.000000,-2.387215,-1.662381,1.064034,-1.381292,1.767595,1.122755,-0.562874,0.719471,-0.029726,0.658297,-0.708256,-0.640940,1.221634,-0.213785,-2.322039,33.600201,-14.399307,-3.325014,0.613798,1.071273,-0.130143,0.000000,0.000000,0.000000,0.000000,0.000000,0.000000
12608997.000000,-2.386510,-1.662419,1.064723,-1.381979,1.766983,1.123979,-0.563094,0.717018,-0.032288,0.665941,-0.705045,-0.634497,1.223340,-0.214102,-2.940936,33.501019,-14.054153,-3.003664,0.571683,1.012679,-0.116410,0.000000,0.000000,0.000000,0.000000,0.000000,0.000000
12608998.000000,-2.385790,-1.662453,1.065410,-1.382676,1.766381,1.125201,-0.563296,0.716217,-0.031042,0.668201,-0.699346,-0.626148,1.222803,-0.209804,-3.559832,33.382000,-13.589981,-2.634706,0.458158,1.117049,-0.188737,0.000000,0.000000,0.000000,0.000000,0.000000,0.000000
12608999.000000,-2.385069,-1.662481,1.066111,-1.383366,1.765783,1.126416,-0.563517,0.716837,-0.030851,0.673331,-0.691540,-0.617259,1.221567,-0.216984,-4.055743,33.159832,-13.173416,-2.436342,0.374845,1.305648,-0.122819,0.000000,0.000000,0.000000,0.000000,0.000000,0.000000
12609000.000000,-2.384376,-1.662500,1.066798,-1.384027,1.765196,1.127620,-0.563721,0.711625,-0.027508,0.674423,-0.681563,-0.604840,1.215468,-0.216571,-4.277911,32.790874,-12.729080,-2.412538,0.243009,1.389877,-0.163102,0.000000,0.000000,0.000000,0.000000,0.000000,0.000000
12609001.000000,-2.383674,-1.662505,1.067505,-1.384673,1.764601,1.128842,-0.563923,0.707044,-0.019215,0.682037,-0.672558,-0.597333,1.217052,-0.209261,-4.500079,32.279095,-12.387894,-2.682314,0.166105,1.370651,-0.175919,0.000000,0.000000,0.000000,0.000000,0.000000,0.000000
12609002.000000,-2.382969,-1.662495,1.068212,-1.385306,1.764024,1.130044,-0.564138,0.705563,-0.006459,0.707497,-0.662126,-0.590123,1.215063,-0.210451,-4.698443,31.592754,-12.094315,-2.928285,0.154203,1.377059,-0.122819,0.000000,0.000000,0.000000,0.000000,0.000000,0.000000
12609003.000000,-2.382288,-1.662488,1.068928,-1.385945,1.763431,1.131259,-0.564338,0.697175,-0.003024,0.709867,-0.650397,-0.585713,1.215201,-0.207633,-4.773821,31.005596,-11.820572,-3.102846,0.219205,1.299239,-0.182328,0.000000,0.000000,0.000000,0.000000,0.000000,0.000000
12609004.000000,-2.381589,-1.662477,1.069642,-1.386599,1.762853,1.132491,-0.564548,0.692138,0.001913,0.704086,-0.645824,-0.592151,1.219547,-0.208553,-4.995989,30.442242,-11.404007,-3.102846,0.351041,1.104232,-0.149369,0.000000,0.000000,0.000000,0.000000,0.000000,0.000000
12609005.000000,-2.380894,-1.662453,1.070367,-1.387238,1.762270,1.133696,-0.564755,0.697562,0.010693,0.707368,-0.642629,-0.587680,1.219251,-0.207425,-5.095171,29.783672,-11.281021,-3.055238,0.405057,1.019088,-0.175919,0.000000,0.000000,0.000000,0.000000,0.000000,0.000000
12609006.000000,-2.380217,-1.662425,1.071104,-1.387871,1.761703,1.134908,-0.564965,0.692507,0.013789,0.712579,-0.639863,-0.577604,1.215420,-0.204967,-5.095171,29.121136,-11.039017,-3.126650,0.297025,0.980636,-0.116410,0.000000,0.000000,0.000000,0.000000,0.000000,0.000000
12609007.000000,-2.379534,-1.662400,1.071850,-1.388487,1.761144,1.136132,-0.565164,0.688130,0.016342,0.734259,-0.644433,-0.576000,1.221269,-0.199236,-5.067400,28.581585,-10.840652,-3.202028,0.195402,0.863448,-0.149369,0.000000,0.000000,0.000000,0.000000,0.000000,0.000000
12609008.000000,-2.378865,-1.662375,1.072583,-1.389101,1.760585,1.137346,-0.565355,0.690369,0.016139,0.733195,-0.632501,-0.569610,1.221680,-0.195325,-4.995989,28.141216,-10.447891,-3.424196,0.093778,0.733443,-0.182328,0.000000,0.000000,0.000000,0.000000,0.000000,0.000000
12609009.000000,-2.378195,-1.662355,1.073327,-1.389718,1.760024,1.138546,-0.565560,0.682407,0.016427,0.727753,-0.624509,-0.571081,1.219448,-0.200351,-4.845232,27.823833,-10.055130,-3.598757,0.010465,0.863448,-0.130143,0.000000,0.000000,0.000000,0.000000,0.000000,0.000000
12609010.000000,-2.377520,-1.662333,1.074076,-1.390330,1.759478,1.139732,-0.565759,0.681375,0.017057,0.735154,-0.623388,-0.560637,1.212913,-0.191852,-4.944415,27.506451,-9.785355,-3.598757,-0.007845,1.052047,-0.149369,0.000000,0.000000,0.000000,0.000000,0.000000,0.000000
12609011.000000,-2.376827,-1.662316,1.074832,-1.390946,1.758919,1.140951,-0.565948,0.682440,0.015580,0.735226,-0.618233,-0.563312,1.218206,-0.194091,-5.142779,27.284283,-9.440201,-3.598757,0.040677,1.012679,-0.202470,0.000000,0.000000,0.000000,0.000000,0.000000,0.000000
12609012.000000,-2.376126,-1.662297,1.075607,-1.391571,1.758370,1.142200,-0.566147,0.687158,0.017330,0.758815,-0.614383,-0.556971,1.225179,-0.194610,-5.416522,27.089886,-9.146622,-3.475771,0.100187,0.771896,-0.142960,0.000000,0.000000,0.000000,0.000000,0.000000,0.000000
12609013.000000,-2.375437,-1.662287,1.076388,-1.392171,1.757819,1.143438,-0.566337,0.688868,0.013579,0.762914,-0.611048,-0.552498,1.236219,-0.195121,-5.737872,26.990704,-9.075211,-3.499574,0.178007,0.459701,-0.136552,0.000000,0.000000,0.000000,0.000000,0.000000,0.000000
12609014.000000,-2.374742,-1.662272,1.077192,-1.392771,1.757273,1.144678,-0.566520,0.690559,0.011709,0.771870,-0.609987,-0.548970,1.233276,-0.191851,-5.983843,26.867718,-9.047440,-3.570986,0.129484,0.356246,-0.175919,0.000000,0.000000,0.000000,0.000000,0.000000,0.000000
12609015.000000,-2.374068,-1.662279,1.077991,-1.393340,1.756732,1.145879,-0.566714,0.696796,0.004206,0.777079,-0.595708,-0.544972,1.229477,-0.192278,-6.059222,27.014507,-9.047440,-3.868532,0.159696,0.486251,-0.142960,0.000000,0.000000,0.000000,0.000000,0.000000,0.000000
12609016.000000,-2.373378,-1.662278,1.078798,-1.393907,1.756184,1.147091,-0.566896,0.692311,0.004087,0.779952,-0.585705,-0.543552,1.218938,-0.189339,-6.206011,27.089886,-8.853043,-4.289064,0.135892,0.727035,-0.196061,0.000000,0.000000,0.000000,0.000000,0.000000,0.000000
12609017.000000,-2.372687,-1.662279,1.079631,-1.394486,1.755652,1.148304,-0.567093,0.691254,0.001225,0.786423,-0.582051,-0.531656,1.217614,-0.190899,-6.332964,27.161297,-8.876846,-4.562807,0.112089,0.954086,-0.142960,0.000000,0.000000,0.000000,0.000000,0.000000,0.000000
12609018.000000,-2.372000,-1.662275,1.080469,-1.395049,1.755118,1.149503,-0.567285,0.690845,0.002059,0.801128,-0.576342,-0.535062,1.209308,-0.190483,-6.626544,27.113689,-8.999832,-4.832582,0.088285,1.117049,-0.136552,0.000000,0.000000,0.000000,0.000000,0.000000,0.000000
12609019.000000,-2.371301,-1.662269,1.081316,-1.395624,1.754592,1.150733,-0.567467,0.693949,0.003139,0.806872,-0.572231,-0.530023,1.214915,-0.188490,-6.951861,27.042278,-8.999832,-4.907960,-0.007845,1.039230,-0.196061,0.000000,0.000000,0.000000,0.000000,0.000000,0.000000
12609020.000000,-2.370590,-1.662264,1.082171,-1.396194,1.754080,1.151957,-0.567660,0.702035,0.003928,0.840172,-0.570000,-0.529534,1.220219,-0.186612,-7.443804,26.966900,-9.075211,-4.856386,-0.025240,0.843307,-0.116410,0.000000,0.000000,0.000000,0.000000,0.000000,0.000000
12609021.000000,-2.369883,-1.662257,1.083030,-1.396764,1.753543,1.153185,-0.567840,0.703596,0.004343,0.842772,-0.572188,-0.528602,1.224707,-0.185877,-7.963519,26.895489,-8.999832,-4.757204,0.040677,0.739852,-0.142960,0.000000,0.000000,0.000000,0.000000,0.000000,0.000000
12609022.000000,-2.369165,-1.662252,1.083907,-1.397330,1.753035,1.154400,-0.568021,0.704390,0.004143,0.850685,-0.569498,-0.530071,1.215990,-0.186039,-8.534808,26.843914,-8.853043,-4.685792,0.034269,0.811263,-0.149369,0.000000,0.000000,0.000000,0.000000,0.000000,0.000000
12609023.000000,-2.368464,-1.662243,1.084767,-1.397885,1.752514,1.155580,-0.568206,0.707426,0.005019,0.851069,-0.566149,-0.526095,1.213296,-0.187808,-9.030719,26.748699,-8.607071,-4.661989,0.058073,0.966903,-0.130143,0.000000,0.000000,0.000000,0.000000,0.000000,0.000000
12609024.000000,-2.367759,-1.662235,1.085655,-1.398439,1.751996,1.156791,-0.568387,0.702763,0.005132,0.854719,-0.563860,-0.522739,1.211209,-0.187786,-9.399676,26.673321,-8.384903,-4.709596,0.093778,0.960494,-0.136552,0.000000,0.000000,0.000000,0.000000,0.000000,0.000000
12609025.000000,-2.367039,-1.662220,1.086573,-1.398977,1.751497,1.157990,-0.568567,0.706627,0.010587,0.888487,-0.567451,-0.522360,1.216992,-0.188399,-9.919391,26.502728,-8.460281,-4.856386,0.046171,0.908309,-0.155778,0.000000,0.000000,0.000000,0.000000,0.000000,0.000000
12609026.000000,-2.366327,-1.662211,1.087476,-1.399527,1.750991,1.159198,-0.568738,0.703207,0.010946,0.891909,-0.559601,-0.512339,1.218633,-0.182154,-10.439105,26.478924,-8.313492,-4.931764,0.010465,0.895492,-0.196061,0.000000,0.000000,0.000000,0.000000,0.000000,0.000000
12609027.000000,-2.365607,-1.662207,1.088414,-1.400078,1.750496,1.160402,-0.568923,0.701454,0.012889,0.902056,-0.554770,-0.505385,1.217703,-0.182856,-10.958819,26.526531,-8.412674,-4.931764,-0.001437,0.922042,-0.122819,0.000000,0.000000,0.000000,0.000000,0.000000,0.000000
12609028.000000,-2.364898,-1.662211,1.089347,-1.400622,1.750003,1.161599,-0.569091,0.703819,0.005469,0.910753,-0.551264,-0.500270,1.218816,-0.181003,-11.407123,26.697124,-8.484085,-4.808778,-0.043551,0.934859,-0.208878,0.000000,0.000000,0.000000,0.000000,0.000000,0.000000
12609029.000000,-2.364177,-1.662217,1.090312,-1.401175,1.749504,1.162799,-0.569271,0.711878,-0.000901,0.922344,-0.549613,-0.498948,1.219763,-0.185034,-11.851459,26.919292,-8.654678,-4.733400,-0.007845,0.954086,-0.155778,0.000000,0.000000,0.000000,0.000000,0.000000,0.000000
12609030.000000,-2.363463,-1.662220,1.091280,-1.401705,1.749024,1.163995,-0.569453,0.710088,-0.000406,0.928480,-0.547274,-0.499392,1.213998,-0.187411,-12.196612,27.066082,-8.730057,-4.757204,-0.079257,1.012679,-0.103593,0.000000,0.000000,0.000000,0.000000,0.000000,0.000000
12609031.000000,-2.362759,-1.662226,1.092250,-1.402235,1.748535,1.165178,-0.569620,0.709354,-0.003077,0.940807,-0.537065,-0.495733,1.214459,-0.183170,-12.470355,27.212872,-8.829239,-4.856386,-0.126864,0.987045,-0.196061,0.000000,0.000000,0.000000,0.000000,0.000000,0.000000
12609032.000000,-2.362059,-1.662227,1.093226,-1.402759,1.748043,1.166377,-0.569801,0.703689,-0.003252,0.950258,-0.531115,-0.493187,1.209607,-0.181199,-12.668719,27.284283,-8.730057,-5.130128,-0.037142,1.012679,-0.163102,0.000000,0.000000,0.000000,0.000000,0.000000,0.000000
12609033.000000,-2.361369,-1.662235,1.094188,-1.403283,1.747556,1.167547,-0.569974,0.711875,-0.004692,0.950614,-0.532641,-0.492773,1.204414,-0.179221,-12.843280,27.407269,-8.531693,-5.205507,-0.031649,1.142684,-0.169511,0.000000,0.000000,0.000000,0.000000,0.000000,0.000000
12609034.000000,-2.360657,-1.662247,1.095176,-1.403810,1.747062,1.168723,-0.570137,0.714047,-0.006297,0.958915,-0.527119,-0.489999,1.198075,-0.175626,-13.212237,27.554058,-8.361099,-5.276918,0.052579,1.324874,-0.202470,0.000000,0.000000,0.000000,0.000000,0.000000,0.000000
12609035.000000,-2.359955,-1.662251,1.096165,-1.404347,1.746584,1.169913,-0.570308,0.711095,-0.003999,0.961940,-0.524685,-0.484140,1.188727,-0.175708,-13.462176,27.554058,-8.019913,-5.276918,0.112089,1.312057,-0.169511,0.000000,0.000000,0.000000,0.000000,0.000000,0.000000
12609036.000000,-2.359262,-1.662257,1.097165,-1.404867,1.746101,1.171105,-0.570475,0.708197,-0.003074,0.970425,-0.526129,-0.479658,1.187769,-0.172765,-13.731952,27.577862,-7.797745,-5.276918,0.081876,1.104232,-0.208878,0.000000,0.000000,0.000000,0.000000,0.000000,0.000000
12609037.000000,-2.358561,-1.662264,1.098177,-1.405384,1.745630,1.172313,-0.570643,0.704895,-0.003144,0.976722,-0.518318,-0.476642,1.187980,-0.174003,-14.053302,27.629436,-7.527969,-5.352296,0.069974,0.824081,-0.155778,0.000000,0.000000,0.000000,0.000000,0.000000,0.000000
12609038.000000,-2.357885,-1.662265,1.099185,-1.405889,1.745168,1.173497,-0.570807,0.695737,-0.001363,1.007052,-0.514259,-0.471150,1.183499,-0.167134,-14.005694,27.601665,-7.281998,-5.526857,-0.037142,0.706893,-0.175919,0.000000,0.000000,0.000000,0.000000,0.000000,0.000000
12609039.000000,-2.357223,-1.662270,1.100223,-1.406390,1.744709,1.174686,-0.570969,0.683233,-0.002052,1.013187,-0.509530,-0.463721,1.175981,-0.167417,-13.954120,27.653240,-7.159012,-5.772829,-0.114962,0.687667,-0.188737,0.000000,0.000000,0.000000,0.000000,0.000000,0.000000
12609040.000000,-2.356563,-1.662276,1.101263,-1.406891,1.744259,1.175875,-0.571137,0.673208,-0.005473,1.019614,-0.505405,-0.455987,1.170201,-0.169434,-13.759723,27.700848,-6.889236,-6.042604,-0.145175,0.759078,-0.149369,0.000000,0.000000,0.000000,0.000000,0.000000,0.000000
12609041.000000,-2.355899,-1.662271,1.102304,-1.407374,1.743803,1.177050,-0.571292,0.677519,-0.002196,1.021888,-0.500874,-0.458386,1.168471,-0.162959,-13.608966,27.629436,-6.742447,-6.415529,-0.187289,0.798446,-0.196061,0.000000,0.000000,0.000000,0.000000,0.000000,0.000000
12609042.000000,-2.355245,-1.662270,1.103379,-1.407855,1.743350,1.178247,-0.571445,0.673248,-0.000978,1.030586,-0.487382,-0.452882,1.172653,-0.159280,-13.632770,27.601665,-6.766251,-6.760683,-0.168978,0.811263,-0.215287,0.000000,0.000000,0.000000,0.000000,0.000000,0.000000
12609043.000000,-2.354586,-1.662257,1.104474,-1.408326,1.742911,1.179435,-0.571609,0.668573,0.004330,1.073616,-0.489225,-0.452427,1.178266,-0.158635,-13.608966,27.383465,-6.865433,-7.082033,-0.192782,0.700484,-0.182328,0.000000,0.000000,0.000000,0.000000,0.000000,0.000000
12609044.000000,-2.353938,-1.662250,1.105547,-1.408808,1.742461,1.180656,-0.571768,0.660000,0.005114,1.067089,-0.487531,-0.448228,1.188774,-0.156583,-13.660541,27.284283,-6.813858,-7.232790,-0.168978,0.486251,-0.182328,0.000000,0.000000,0.000000,0.000000,0.000000,0.000000
12609045.000000,-2.353279,-1.662235,1.106651,-1.409288,1.742017,1.181870,-0.571931,0.655998,0.008445,1.069839,-0.480194,-0.450039,1.190475,-0.156526,-13.731952,27.066082,-6.865433,-7.355775,-0.126864,0.401107,-0.142960,0.000000,0.000000,0.000000,0.000000,0.000000,0.000000
12609046.000000,-2.352630,-1.662223,1.107749,-1.409760,1.741582,1.183055,-0.572084,0.659753,0.009012,1.082490,-0.479911,-0.448845,1.190544,-0.153155,-13.807330,26.919292,-6.841629,-7.403383,-0.180880,0.453292,-0.188737,0.000000,0.000000,0.000000,0.000000,0.000000,0.000000
12609047.000000,-2.351983,-1.662210,1.108857,-1.410227,1.741139,1.184240,-0.572242,0.655525,0.009960,1.082342,-0.474625,-0.444154,1.184293,-0.153502,-13.807330,26.748699,-6.667068,-7.502565,-0.192782,0.609847,-0.163102,0.000000,0.000000,0.000000,0.000000,0.000000,0.000000
12609048.000000,-2.351331,-1.662200,1.109977,-1.410696,1.740717,1.185443,-0.572398,0.652612,0.010137,1.086799,-0.470457,-0.435987,1.186219,-0.153124,-13.831134,26.597942,-6.397293,-7.625551,-0.228488,0.694076,-0.142960,0.000000,0.000000,0.000000,0.000000,0.000000,0.000000
12609049.000000,-2.350698,-1.662188,1.111089,-1.411144,1.740284,1.186635,-0.572539,0.646393,0.016953,1.097701,-0.465964,-0.437396,1.192639,-0.153138,-13.807330,26.427349,-6.151321,-7.800111,-0.312716,0.681258,-0.229020,0.000000,0.000000,0.000000,0.000000,0.000000,0.000000
12609050.000000,-2.350053,-1.662166,1.112246,-1.411599,1.739852,1.187839,-0.572697,0.645906,0.018115,1.109793,-0.460270,-0.434971,1.195699,-0.155745,-13.858905,26.157574,-6.226700,-8.022280,-0.372225,0.727035,-0.149369,0.000000,0.000000,0.000000,0.000000,0.000000,0.000000
12609051.000000,-2.349414,-1.662153,1.113401,-1.412048,1.739435,1.189029,-0.572848,0.640247,0.015887,1.148922,-0.459438,-0.427901,1.191960,-0.153632,-13.807330,26.010784,-6.302078,-8.169069,-0.438143,0.681258,-0.163102,0.000000,0.000000,0.000000,0.000000,0.000000,0.000000
12609052.000000,-2.348781,-1.662145,1.114595,-1.412515,1.738999,1.190231,-0.572999,0.642359,0.012544,1.158745,-0.460228,-0.430757,1.197364,-0.153350,-13.882709,25.939373,-6.571854,-8.121462,-0.401522,0.641891,-0.149369,0.000000,0.000000,0.000000,0.000000,0.000000,0.000000
12609053.000000,-2.348147,-1.662141,1.115813,-1.412980,1.738572,1.191424,-0.573139,0.636420,0.009689,1.171244,-0.460352,-0.421932,1.188913,-0.145800,-13.906512,25.891766,-6.964615,-8.069887,-0.294406,0.687667,-0.202470,0.000000,0.000000,0.000000,0.000000,0.000000,0.000000
12609054.000000,-2.347519,-1.662137,1.117026,-1.413434,1.738161,1.192590,-0.573288,0.632583,0.010371,1.184253,-0.462895,-0.419343,1.188424,-0.143035,-13.954120,25.863995,-7.452591,-8.022280,-0.318209,0.811263,-0.188737,0.000000,0.000000,0.000000,0.000000,0.000000,0.000000
12609055.000000,-2.346889,-1.662132,1.118258,-1.413891,1.737738,1.193774,-0.573440,0.631897,0.011012,1.191794,-0.462153,-0.414566,1.181599,-0.147566,-13.954120,25.840191,-7.750137,-8.046083,-0.287997,0.876266,-0.130143,0.000000,0.000000,0.000000,0.000000,0.000000,0.000000
12609056.000000,-2.346257,-1.662132,1.119512,-1.414334,1.737326,1.194940,-0.573577,0.632507,0.006682,1.234270,-0.455945,-0.415077,1.178756,-0.140948,-13.954120,25.891766,-7.992142,-8.097658,-0.276095,0.895492,-0.188737,0.000000,0.000000,0.000000,0.000000,0.000000,0.000000
12609057.000000,-2.345639,-1.662138,1.120745,-1.414795,1.736921,1.196127,-0.573716,0.631514,0.002637,1.234804,-0.457472,-0.414503,1.183127,-0.139091,-14.053302,25.986980,-8.091324,-8.022280,-0.282504,0.843307,-0.175919,0.000000,0.000000,0.000000,0.000000,0.000000,0.000000
12609058.000000,-2.345015,-1.662141,1.121992,-1.415252,1.736511,1.197305,-0.573859,0.625271,0.000859,1.226085,-0.456940,-0.410472,1.179467,-0.138464,-14.128680,26.038555,-8.019913,-7.998476,-0.282504,0.947677,-0.142960,0.000000,0.000000,0.000000,0.000000,0.000000,0.000000
12609059.000000,-2.344401,-1.662156,1.123235,-1.415719,1.736094,1.198460,-0.573995,0.622084,-0.002234,1.223892,-0.460993,-0.413693,1.177624,-0.134914,-14.104877,26.304363,-7.992142,-7.800111,-0.204684,1.058456,-0.196061,0.000000,0.000000,0.000000,0.000000,0.000000,0.000000
12609060.000000,-2.343780,-1.662178,1.124483,-1.416194,1.735698,1.199641,-0.574135,0.621658,-0.006591,1.213344,-0.464942,-0.407646,1.179576,-0.134427,-14.081073,26.943096,-8.091324,-7.601747,-0.228488,1.064864,-0.196061,0.000000,0.000000,0.000000,0.000000,0.000000,0.000000
12609061.000000,-2.343159,-1.662201,1.125728,-1.416653,1.735301,1.200842,-0.574277,0.621883,-0.009918,1.209355,-0.469297,-0.404311,1.189468,-0.133294,-13.831134,27.895245,-8.583267,-7.554140,-0.264193,0.954086,-0.202470,0.000000,0.000000,0.000000,0.000000,0.000000,0.000000
12609062.000000,-2.342560,-1.662226,1.126943,-1.417120,1.734903,1.202028,-0.574419,0.614506,-0.013117,1.202181,-0.468472,-0.402182,1.202315,-0.133661,-13.362994,29.073528,-9.368790,-7.526369,-0.270602,0.843307,-0.182328,0.000000,0.000000,0.000000,0.000000,0.000000,0.000000
12609063.000000,-2.341955,-1.662249,1.128164,-1.417582,1.734517,1.203230,-0.574563,0.607148,-0.017570,1.195663,-0.459742,-0.397967,1.202328,-0.134347,-12.815509,30.394634,-10.301102,-7.554140,-0.294406,0.824081,-0.169511,0.000000,0.000000,0.000000,0.000000,0.000000,0.000000
12609064.000000,-2.341364,-1.662259,1.129385,-1.418037,1.734119,1.204407,-0.574704,0.611353,-0.018770,1.211658,-0.456066,-0.398424,1.202096,-0.132650,-12.172809,31.668133,-11.578568,-7.625551,-0.150668,0.928451,-0.196061,0.000000,0.000000,0.000000,0.000000,0.000000,0.000000
12609065.000000,-2.340763,-1.662260,1.130601,-1.418489,1.733725,1.205588,-0.574851,0.609670,-0.013777,1.209125,-0.452678,-0.393265,1.197973,-0.135044,-11.676898,32.719463,-12.633865,-7.724733,-0.019747,1.201278,-0.130143,0.000000,0.000000,0.000000,0.000000,0.000000,0.000000
12609066.000000,-2.340156,-1.662267,1.131827,-1.418952,1.733342,1.206783,-0.574980,0.604216,-0.013205,1.208667,-0.451625,-0.388461,1.194833,-0.130143,-11.284137,33.770794,-13.637589,-7.776308,0.100187,1.357833,-0.229020,0.000000,0.000000,0.000000,0.000000,0.000000,0.000000
12609067.000000,-2.339553,-1.662260,1.133053,-1.419395,1.732954,1.207964,-0.575123,0.602896,-0.007830,1.214438,-0.452736,-0.389295,1.189310,-0.137105,-11.034198,34.480938,-14.768265,-7.899293,0.207303,1.500655,-0.163102,0.000000,0.000000,0.000000,0.000000,0.000000,0.000000
12609068.000000,-2.338948,-1.662249,1.134287,-1.419853,1.732571,1.209149,-0.575259,0.600319,-0.004184,1.211330,-0.451770,-0.386661,1.183647,-0.138541,-10.859637,35.044292,-15.676773,-7.923097,0.231107,1.617843,-0.215287,0.000000,0.000000,0.000000,0.000000,0.000000,0.000000
12609069.000000,-2.338334,-1.662240,1.135503,-1.420312,1.732200,1.210327,-0.575405,0.608013,-0.001651,1.214927,-0.457173,-0.378221,1.178843,-0.138985,-10.812030,35.583843,-16.339310,-7.847719,0.207303,1.597701,-0.155778,0.000000,0.000000,0.000000,0.000000,0.000000,0.000000
12609070.000000,-2.337739,-1.662243,1.136728,-1.420764,1.731820,1.211510,-0.575539,0.600903,-0.000819,1.209551,-0.452092,-0.372525,1.174214,-0.136682,-10.764422,36.147198,-16.708267,-7.899293,0.207303,1.584884,-0.169511,0.000000,0.000000,0.000000,0.000000,0.000000,0.000000
12609071.000000,-2.337147,-1.662240,1.137984,-1.421221,1.731451,1.212688,-0.575671,0.595232,-0.000707,1.220163,-0.452494,-0.375075,1.167401,-0.133462,-10.566058,36.587566,-17.247818,-7.899293,0.178007,1.624252,-0.229020,0.000000,0.000000,0.000000,0.000000,0.000000,0.000000
12609072.000000,-2.336565,-1.662247,1.139225,-1.421650,1.731096,1.213840,-0.575816,0.591782,-0.004086,1.224136,-0.443810,-0.366932,1.164094,-0.136476,-10.391498,37.027935,-17.763565,-8.145266,0.064481,1.656295,-0.142960,0.000000,0.000000,0.000000,0.000000,0.000000,0.000000
12609073.000000,-2.336001,-1.662259,1.140495,-1.422082,1.730749,1.215013,-0.575943,0.589063,-0.007588,1.230914,-0.436971,-0.365973,1.162024,-0.127801,-9.994769,37.492107,-18.326920,-8.391237,-0.067355,1.637069,-0.215287,0.000000,0.000000,0.000000,0.000000,0.000000,0.000000
12609074.000000,-2.335444,-1.662284,1.141785,-1.422485,1.730378,1.216168,-0.576078,0.579820,-0.013259,1.268245,-0.432526,-0.366042,1.163124,-0.128921,-9.498858,38.079266,-18.989456,-8.811769,-0.031649,1.572067,-0.208878,0.000000,0.000000,0.000000,0.000000,0.000000,0.000000
12609075.000000,-2.334895,-1.662314,1.143073,-1.422881,1.730014,1.217322,-0.576213,0.569769,-0.016800,1.277684,-0.416501,-0.369778,1.156957,-0.132311,-9.078326,38.642620,-19.774979,-9.383059,-0.037142,1.708480,-0.142960,0.000000,0.000000,0.000000,0.000000,0.000000,0.000000
12609076.000000,-2.334356,-1.662354,1.144375,-1.423275,1.729652,1.218463,-0.576337,0.558784,-0.023690,1.273589,-0.407854,-0.368404,1.146112,-0.130325,-8.582416,39.253582,-20.512894,-9.827394,-0.007845,1.930038,-0.188737,0.000000,0.000000,0.000000,0.000000,0.000000,0.000000
12609077.000000,-2.333815,-1.662402,1.145659,-1.423661,1.729286,1.219618,-0.576474,0.550294,-0.029940,1.273501,-0.402407,-0.375361,1.151014,-0.132435,-8.161883,39.916119,-21.100052,-10.247927,0.027860,1.884261,-0.142960,0.000000,0.000000,0.000000,0.000000,0.000000,0.000000
12609078.000000,-2.333286,-1.662447,1.146953,-1.424057,1.728914,1.220779,-0.576602,0.543972,-0.036408,1.273031,-0.396819,-0.368628,1.151707,-0.131666,-7.769122,40.527081,-21.540421,-10.418520,0.105680,1.779891,-0.163102,0.000000,0.000000,0.000000,0.000000,0.000000,0.000000
12609079.000000,-2.332753,-1.662498,1.148250,-1.424448,1.728556,1.221946,-0.576731,0.542651,-0.040774,1.273043,-0.397394,-0.357927,1.156146,-0.131693,-7.495379,41.114239,-21.885574,-10.541506,0.159696,1.689254,-0.169511,0.000000,0.000000,0.000000,0.000000,0.000000,0.000000
12609080.000000,-2.332232,-1.662546,1.149511,-1.424839,1.728204,1.223079,-0.576857,0.537932,-0.041761,1.264377,-0.393706,-0.357687,1.149249,-0.127904,-7.221636,41.606182,-21.909378,-10.569277,0.147794,1.754256,-0.149369,0.000000,0.000000,0.000000,0.000000,0.000000,0.000000
12609081.000000,-2.331712,-1.662597,1.150790,-1.425245,1.727840,1.224224,-0.576984,0.531238,-0.043727,1.255702,-0.396130,-0.360364,1.146661,-0.124063,-6.852679,42.141766,-21.909378,-10.446291,0.147794,1.825668,-0.149369,0.000000,0.000000,0.000000,0.000000,0.000000,0.000000
12609082.000000,-2.331209,-1.662646,1.152042,-1.425640,1.727482,1.225367,-0.577103,0.536820,-0.044233,1.250972,-0.395564,-0.355086,1.153554,-0.123666,-6.503558,42.633709,-21.663406,-10.295534,0.147794,1.819259,-0.208878,0.000000,0.000000,0.000000,0.000000,0.000000,0.000000
12609083.000000,-2.330707,-1.662687,1.153334,-1.426046,1.727140,1.226514,-0.577231,0.523530,-0.044821,1.253342,-0.395584,-0.348272,1.155456,-0.126972,-6.083025,42.998699,-21.837967,-10.097170,0.088285,1.909896,-0.182328,0.000000,0.000000,0.000000,0.000000,0.000000,0.000000
12609084.000000,-2.330202,-1.662719,1.154628,-1.426452,1.726801,1.227674,-0.577355,0.514999,-0.038607,1.257470,-0.395840,-0.347535,1.159624,-0.123937,-5.737872,43.197063,-21.960953,-9.875002,-0.013339,1.930038,-0.163102,0.000000,0.000000,0.000000,0.000000,0.000000,0.000000
12609085.000000,-2.329716,-1.662756,1.155910,-1.426854,1.726447,1.228826,-0.577468,0.507264,-0.037349,1.262268,-0.401862,-0.348008,1.166220,-0.124493,-5.416522,43.391460,-22.278336,-9.676638,0.022367,1.832076,-0.202470,0.000000,0.000000,0.000000,0.000000,0.000000,0.000000
12609086.000000,-2.329228,-1.662782,1.157215,-1.427263,1.726096,1.229979,-0.577584,0.499234,-0.033470,1.265073,-0.402415,-0.344635,1.157381,-0.126605,-5.043597,43.439068,-22.671097,-9.454470,0.117582,1.844894,-0.196061,0.000000,0.000000,0.000000,0.000000,0.000000,0.000000
12609087.000000,-2.328742,-1.662812,1.158499,-1.427679,1.725760,1.231112,-0.577706,0.491506,-0.031186,1.289070,-0.409441,-0.349998,1.155718,-0.129304,-4.698443,43.490643,-22.964676,-9.133120,0.171598,1.897079,-0.163102,0.000000,0.000000,0.000000,0.000000,0.000000,0.000000
12609088.000000,-2.328276,-1.662835,1.159813,-1.428089,1.725411,1.232257,-0.577823,0.481951,-0.026963,1.289454,-0.406996,-0.349332,1.143331,-0.124198,-4.301714,43.415264,-23.504227,-8.986330,0.243009,1.995040,-0.188737,0.000000,0.000000,0.000000,0.000000,0.000000,0.000000
12609089.000000,-2.327799,-1.662858,1.161110,-1.428518,1.725066,1.233409,-0.577943,0.477834,-0.024885,1.283760,-0.415151,-0.353270,1.135723,-0.122691,-3.956561,43.367657,-23.702591,-8.688784,0.344633,2.060043,-0.155778,0.000000,0.000000,0.000000,0.000000,0.000000,0.000000
12609090.000000,-2.327336,-1.662883,1.162398,-1.428940,1.724724,1.234555,-0.578055,0.471056,-0.023084,1.281405,-0.419336,-0.347933,1.139014,-0.119048,-3.559832,43.292278,-24.019974,-8.466616,0.440763,2.007858,-0.188737,0.000000,0.000000,0.000000,0.000000,0.000000,0.000000
12609091.000000,-2.326871,-1.662900,1.163681,-1.429384,1.724385,1.235712,-0.578171,0.464621,-0.023355,1.272688,-0.426203,-0.345613,1.142489,-0.117180,-3.238482,43.145489,-24.019974,-8.046083,0.422452,2.007858,-0.208878,0.000000,0.000000,0.000000,0.000000,0.000000,0.000000
12609092.000000,-2.326402,-1.662919,1.164981,-1.429834,1.724054,1.236852,-0.578295,0.465902,-0.024885,1.300602,-0.441143,-0.337890,1.146427,-0.122042,-2.988543,43.050274,-24.190567,-7.526369,0.393156,2.001449,-0.169511,0.000000,0.000000,0.000000,0.000000,0.000000,0.000000
12609093.000000,-2.325947,-1.662947,1.166265,-1.430293,1.723725,1.238016,-0.578405,0.464206,-0.025941,1.297784,-0.447964,-0.338200,1.151988,-0.119391,-2.690997,43.074078,-24.412735,-7.006654,0.369352,1.903487,-0.221696,0.000000,0.000000,0.000000,0.000000,0.000000,0.000000
12609094.000000,-2.325493,-1.662977,1.167554,-1.430753,1.723400,1.239174,-0.578518,0.456694,-0.027555,1.286434,-0.447995,-0.332867,1.146951,-0.118272,-2.322039,43.145489,-24.511917,-6.538515,0.339139,1.877853,-0.215287,0.000000,0.000000,0.000000,0.000000,0.000000,0.000000
12609095.000000,-2.325053,-1.663002,1.168859,-1.431211,1.723072,1.240313,-0.578638,0.456857,-0.025784,1.289257,-0.454195,-0.334371,1.148407,-0.114263,-2.000689,43.097881,-25.027664,-6.094179,0.327238,1.909896,-0.163102,0.000000,0.000000,0.000000,0.000000,0.000000,0.000000
12609096.000000,-2.324613,-1.663022,1.170165,-1.431663,1.722736,1.241450,-0.578749,0.453027,-0.024653,1.285932,-0.449926,-0.336953,1.140395,-0.113675,-1.580157,43.050274,-25.444229,-5.848207,0.374845,2.060043,-0.169511,0.000000,0.000000,0.000000,0.000000,0.000000,0.000000
12609097.000000,-2.324172,-1.663051,1.171482,-1.432126,1.722401,1.242588,-0.578858,0.450743,-0.025932,1.289658,-0.451452,-0.330499,1.139688,-0.111604,-1.207232,43.097881,-25.936172,-5.598268,0.470060,2.215682,-0.215287,0.000000,0.000000,0.000000,0.000000,0.000000,0.000000
12609098.000000,-2.323751,-1.663080,1.172767,-1.432565,1.722068,1.243716,-0.578973,0.436466,-0.026802,1.288311,-0.448193,-0.331513,1.145865,-0.116358,-0.762896,43.145489,-26.229752,-5.550661,0.566190,2.287093,-0.208878,0.000000,0.000000,0.000000,0.000000,0.000000,0.000000
12609099.000000,-2.323331,-1.663105,1.174067,-1.433022,1.721724,1.244851,-0.579090,0.430051,-0.026890,1.281057,-0.447430,-0.338694,1.142701,-0.121566,-0.290789,43.173260,-26.451920,-5.427675,0.655912,2.410690,-0.188737,0.000000,0.000000,0.000000,0.000000,0.000000,0.000000
12609100.000000,-2.322912,-1.663124,1.175347,-1.433479,1.721403,1.245978,-0.579202,0.430922,-0.024501,1.278314,-0.449877,-0.334106,1.147081,-0.118159,0.054365,43.097881,-26.622513,-5.205507,0.673307,2.417098,-0.221696,0.000000,0.000000,0.000000,0.000000,0.000000,0.000000
12609101.000000,-2.322494,-1.663144,1.176628,-1.433946,1.721081,1.247115,-0.579317,0.427937,-0.026728,1.271435,-0.451508,-0.328569,1.143130,-0.118209,0.474897,43.050274,-26.598709,-4.983339,0.655912,2.385055,-0.188737,0.000000,0.000000,0.000000,0.000000,0.000000,0.000000
12609102.000000,-2.322070,-1.663167,1.177917,-1.434417,1.720768,1.248262,-0.579425,0.423560,-0.026352,1.271286,-0.455256,-0.325577,1.136101,-0.111029,0.697065,43.050274,-26.574905,-4.661989,0.632108,2.274276,-0.215287,0.000000,0.000000,0.000000,0.000000,0.000000,0.000000
12609104.000000,-2.321236,-1.663203,1.180449,-1.435351,1.720128,1.250540,-0.579650,0.422153,-0.021380,1.251745,-0.462323,-0.321220,1.130094,-0.112951,1.145368,42.998699,-26.400345,-3.991518,0.584501,2.047225,-0.182328,0.000000,0.000000,0.000000,0.000000,0.000000,0.000000
12609105.000000,-2.320823,-1.663221,1.181689,-1.435808,1.719831,1.251669,-0.579752,0.418727,-0.018123,1.269649,-0.458738,-0.312851,1.127940,-0.106639,1.391340,42.951092,-26.106766,-3.721742,0.488370,2.027084,-0.221696,0.000000,0.000000,0.000000,0.000000,0.000000,0.000000
12609106.000000,-2.320421,-1.663238,1.182960,-1.436267,1.719523,1.252819,-0.579860,0.414461,-0.015730,1.264272,-0.456753,-0.314875,1.138125,-0.105364,1.589704,42.903484,-26.082962,-3.547182,0.494779,1.923629,-0.175919,0.000000,0.000000,0.000000,0.000000,0.000000,0.000000
12609107.000000,-2.320016,-1.663257,1.184222,-1.436709,1.719203,1.253964,-0.579957,0.412489,-0.015606,1.256043,-0.449043,-0.319347,1.136151,-0.105895,1.835676,42.927288,-25.936172,-3.523378,0.620206,1.942855,-0.215287,0.000000,0.000000,0.000000,0.000000,0.000000,0.000000
12609108.000000,-2.319610,-1.663278,1.185469,-1.437147,1.718889,1.255090,-0.580062,0.413676,-0.018003,1.251034,-0.444820,-0.313499,1.133146,-0.103330,2.034040,42.927288,-25.912369,-3.570986,0.709928,2.007858,-0.208878,0.000000,0.000000,0.000000,0.000000,0.000000,0.000000
12609109.000000,-2.319203,-1.663294,1.186723,-1.437589,1.718584,1.256218,-0.580161,0.415995,-0.018697,1.243045,-0.440667,-0.311647,1.126973,-0.105008,2.260175,42.875713,-25.860794,-3.499574,0.763029,2.157089,-0.229020,0.000000,0.000000,0.000000,0.000000,0.000000,0.000000
12609110.000000,-2.318784,-1.663308,1.187962,-1.438029,1.718272,1.257353,-0.580265,0.415592,-0.018774,1.233497,-0.446346,-0.313457,1.132149,-0.106490,2.283979,42.804302,-25.614822,-3.400392,0.882963,2.112228,-0.235429,0.000000,0.000000,0.000000,0.000000,0.000000,0.000000
12609111.000000,-2.318375,-1.663325,1.189188,-1.438472,1.717964,1.258527,-0.580370,0.414958,-0.020649,1.234795,-0.444838,-0.314836,1.146910,-0.109180,2.359357,42.804302,-25.519608,-3.249635,0.894864,1.865035,-0.208878,0.000000,0.000000,0.000000,0.000000,0.000000,0.000000
12609112.000000,-2.317958,-1.663334,1.190423,-1.438916,1.717671,1.259703,-0.580467,0.415905,-0.019562,1.224785,-0.442002,-0.303065,1.157163,-0.108922,2.331586,42.705120,-25.420425,-3.154421,0.799650,1.682845,-0.241837,0.000000,0.000000,0.000000,0.000000,0.000000,0.000000
12609113.000000,-2.317538,-1.663342,1.191642,-1.439348,1.717387,1.260849,-0.580573,0.416490,-0.015917,1.225806,-0.437977,-0.299834,1.163881,-0.107012,2.184797,42.609905,-25.321243,-3.027467,0.685209,1.591293,-0.196061,0.000000,0.000000,0.000000,0.000000,0.000000,0.000000
12609114.000000,-2.317139,-1.663350,1.192872,-1.439778,1.717101,1.262011,-0.580668,0.412741,-0.013614,1.220339,-0.432162,-0.293108,1.167433,-0.107554,2.208601,42.534527,-25.249832,-2.979860,0.620206,1.532699,-0.221696,0.000000,0.000000,0.000000,0.000000,0.000000,0.000000
12609115.000000,-2.316738,-1.663362,1.194121,-1.440196,1.716807,1.263168,-0.580770,0.411217,-0.013762,1.228004,-0.426025,-0.285692,1.159627,-0.105397,2.283979,42.534527,-25.396622,-3.055238,0.632108,1.630660,-0.196061,0.000000,0.000000,0.000000,0.000000,0.000000,0.000000
12609116.000000,-2.316340,-1.663368,1.195350,-1.440609,1.716521,1.264293,-0.580867,0.410386,-0.014484,1.223010,-0.418309,-0.276718,1.145859,-0.102061,2.331586,42.435345,-25.591019,-3.126650,0.655912,1.858627,-0.196061,0.000000,0.000000,0.000000,0.000000,0.000000,0.000000
12609117.000000,-2.315937,-1.663376,1.196592,-1.441011,1.716244,1.265432,-0.580961,0.406917,-0.010122,1.219724,-0.409806,-0.272675,1.129770,-0.099130,2.383161,42.387737,-25.789383,-3.301210,0.632108,2.098495,-0.221696,0.000000,0.000000,0.000000,0.000000,0.000000,0.000000
12609118.000000,-2.315543,-1.663383,1.197837,-1.441408,1.715965,1.266569,-0.581064,0.408653,-0.006262,1.224016,-0.407455,-0.274897,1.129077,-0.099168,2.406965,42.316326,-26.277359,-3.475771,0.751127,2.183639,-0.188737,0.000000,0.000000,0.000000,0.000000,0.000000,0.000000
12609119.000000,-2.315143,-1.663393,1.199074,-1.441807,1.715685,1.267727,-0.581152,0.406929,-0.008235,1.226040,-0.405199,-0.276147,1.134771,-0.096217,2.430768,42.316326,-26.475723,-3.547182,0.751127,2.131454,-0.235429,0.000000,0.000000,0.000000,0.000000,0.000000,0.000000
12609120.000000,-2.314722,-1.663400,1.200305,-1.442224,1.715408,1.268880,-0.581254,0.410494,-0.007808,1.217547,-0.404239,-0.268876,1.135050,-0.097819,2.232404,42.240948,-26.547134,-3.448000,0.763029,2.137862,-0.175919,0.000000,0.000000,0.000000,0.000000,0.000000,0.000000
12609121.000000,-2.314316,-1.663407,1.201515,-1.442628,1.715131,1.270010,-0.581347,0.408624,-0.008037,1.217420,-0.407279,-0.273295,1.137655,-0.094864,2.085615,42.193340,-26.574905,-3.301210,0.757535,2.196456,-0.229020,0.000000,0.000000,0.000000,0.000000,0.000000,0.000000
12609122.000000,-2.313909,-1.663417,1.202733,-1.443037,1.714861,1.271149,-0.581442,0.410006,-0.008942,1.207620,-0.405335,-0.269669,1.134855,-0.094277,1.934858,42.169537,-26.451920,-3.154421,0.721830,2.228500,-0.241837,0.000000,0.000000,0.000000,0.000000,0.000000,0.000000
12609123.000000,-2.313503,-1.663426,1.203949,-1.443439,1.714599,1.272276,-0.581547,0.407976,-0.006953,1.232299,-0.405293,-0.271234,1.156240,-0.097400,1.911054,42.169537,-26.229752,-2.979860,0.673307,2.209274,-0.163102,0.000000,0.000000,0.000000,0.000000,0.000000,0.000000
12609124.000000,-2.313113,-1.663433,1.205136,-1.443827,1.714337,1.273420,-0.581638,0.406395,-0.007781,1.215485,-0.395371,-0.265938,1.150381,-0.089777,2.010236,42.141766,-25.884598,-3.079042,0.584501,2.131454,-0.215287,0.000000,0.000000,0.000000,0.000000,0.000000,0.000000
12609125.000000,-2.312721,-1.663430,1.206369,-1.444217,1.714078,1.274581,-0.581737,0.399299,-0.005054,1.219033,-0.388615,-0.266041,1.152511,-0.096864,2.109418,41.971172,-26.007584,-3.027467,0.524076,1.968490,-0.182328,0.000000,0.000000,0.000000,0.000000,0.000000,0.000000
12609126.000000,-2.312341,-1.663432,1.207553,-1.444596,1.713828,1.275702,-0.581831,0.386326,-0.003972,1.206149,-0.385163,-0.260767,1.147545,-0.095360,2.232404,41.824383,-25.714005,-3.055238,0.512174,1.981307,-0.202470,0.000000,0.000000,0.000000,0.000000,0.000000,0.000000
12609127.000000,-2.311958,-1.663437,1.208769,-1.444972,1.713570,1.276843,-0.581926,0.384198,-0.004937,1.205098,-0.381804,-0.259168,1.148185,-0.095057,2.383161,41.752972,-25.714005,-3.079042,0.578092,1.981307,-0.208878,0.000000,0.000000,0.000000,0.000000,0.000000,0.000000
12609128.000000,-2.311573,-1.663439,1.209979,-1.445349,1.713305,1.277965,-0.582016,0.382959,-0.002466,1.198585,-0.385270,-0.260205,1.144953,-0.093780,2.529951,41.677593,-25.591019,-3.055238,0.691617,2.007858,-0.229020,0.000000,0.000000,0.000000,0.000000,0.000000,0.000000
12609129.000000,-2.311193,-1.663437,1.211174,-1.445715,1.713037,1.279113,-0.582108,0.377419,-0.000027,1.194575,-0.374360,-0.259140,1.142091,-0.094589,2.605329,41.578411,-25.591019,-3.154421,0.757535,1.923629,-0.229020,0.000000,0.000000,0.000000,0.000000,0.000000,0.000000
12609130.000000,-2.310812,-1.663433,1.212376,-1.446086,1.712783,1.280255,-0.582200,0.373192,0.002888,1.184063,-0.374775,-0.254927,1.131233,-0.094878,2.652936,41.431622,-25.567215,-3.154421,0.745634,1.877853,-0.221696,0.000000,0.000000,0.000000,0.000000,0.000000,0.000000
12609131.000000,-2.310438,-1.663429,1.213547,-1.446440,1.712542,1.281385,-0.582291,0.380509,0.000029,1.174632,-0.369105,-0.255680,1.130684,-0.094700,2.728315,41.360210,-25.368851,-3.301210,0.703519,1.819259,-0.221696,0.000000,0.000000,0.000000,0.000000,0.000000,0.000000
12609132.000000,-2.310056,-1.663427,1.214728,-1.446806,1.712288,1.282533,-0.582385,0.379582,0.001221,1.169930,-0.368808,-0.253752,1.125604,-0.091829,2.752119,41.284832,-25.126846,-3.277406,0.733732,1.760665,-0.169511,0.000000,0.000000,0.000000,0.000000,0.000000,0.000000
12609133.000000,-2.309669,-1.663425,1.215905,-1.447166,1.712054,1.283666,-0.582464,0.381501,0.002064,1.160404,-0.365930,-0.247572,1.127663,-0.089292,2.704511,41.213421,-24.781693,-3.376589,0.620206,1.923629,-0.241837,0.000000,0.000000,0.000000,0.000000,0.000000,0.000000
12609134.000000,-2.309299,-1.663412,1.217061,-1.447527,1.711812,1.284785,-0.582560,0.380050,0.005051,1.164305,-0.362785,-0.239660,1.124700,-0.088730,2.752119,41.042828,-24.511917,-3.249635,0.535978,2.060043,-0.155778,0.000000,0.000000,0.000000,0.000000,0.000000,0.000000
12609135.000000,-2.308918,-1.663401,1.218236,-1.447881,1.711577,1.285935,-0.582645,0.380603,0.006564,1.155153,-0.356519,-0.239374,1.128217,-0.088745,2.680707,40.896038,-24.313553,-3.249635,0.482877,2.020675,-0.196061,0.000000,0.000000,0.000000,0.000000,0.000000,0.000000
12609136.000000,-2.308546,-1.663390,1.219410,-1.448219,1.711347,1.287090,-0.582730,0.377338,0.013409,1.163609,-0.347319,-0.240138,1.139402,-0.083629,2.680707,40.773052,-24.341324,-3.325014,0.446256,1.786300,-0.241837,0.000000,0.000000,0.000000,0.000000,0.000000,0.000000
12609137.000000,-2.308165,-1.663376,1.220607,-1.448569,1.711111,1.288244,-0.582823,0.379587,0.013881,1.168980,-0.349990,-0.234022,1.138521,-0.089126,2.629133,40.578655,-24.535721,-3.277406,0.494779,1.670028,-0.169511,0.000000,0.000000,0.000000,0.000000,0.000000,0.000000
12609138.000000,-2.307785,-1.663361,1.221812,-1.448904,1.710880,1.289385,-0.582903,0.379389,0.013633,1.172600,-0.341883,-0.237277,1.141144,-0.088450,2.529951,40.404095,-24.857071,-3.376589,0.494779,1.689254,-0.215287,0.000000,0.000000,0.000000,0.000000,0.000000,0.000000
12609139.000000,-2.307418,-1.663357,1.222997,-1.449230,1.710638,1.290501,-0.582993,0.377382,0.010425,1.171539,-0.339863,-0.237885,1.140640,-0.091044,2.482343,40.356487,-25.222061,-3.448000,0.578092,1.786300,-0.188737,0.000000,0.000000,0.000000,0.000000,0.000000,0.000000
12609140.000000,-2.307053,-1.663349,1.224187,-1.449546,1.710393,1.291640,-0.583072,0.371624,0.008879,1.167933,-0.330992,-0.238051,1.140270,-0.091551,2.581525,40.281109,-25.420425,-3.670168,0.673307,1.844894,-0.196061,0.000000,0.000000,0.000000,0.000000,0.000000,0.000000
12609141.000000,-2.306683,-1.663349,1.225358,-1.449859,1.710164,1.292746,-0.583151,0.369191,0.006045,1.196373,-0.325301,-0.239907,1.156223,-0.086844,2.629133,40.281109,-25.491837,-3.769350,0.679716,1.936446,-0.208878,0.000000,0.000000,0.000000,0.000000,0.000000,0.000000
12609142.000000,-2.306312,-1.663346,1.226548,-1.450175,1.709943,1.293861,-0.583231,0.366992,0.004123,1.187619,-0.322467,-0.232893,1.139191,-0.083567,2.553754,40.281109,-25.642593,-3.943910,0.601896,2.066451,-0.221696,0.000000,0.000000,0.000000,0.000000,0.000000,0.000000
12609143.000000,-2.305948,-1.663346,1.227729,-1.450497,1.709718,1.294992,-0.583309,0.363381,0.002819,1.176257,-0.318622,-0.230627,1.130117,-0.081703,2.553754,40.281109,-25.519608,-3.920107,0.524076,2.039901,-0.221696,0.000000,0.000000,0.000000,0.000000,0.000000,0.000000
12609144.000000,-2.305584,-1.663354,1.228885,-1.450814,1.709495,1.296110,-0.583393,0.365170,-0.000945,1.168712,-0.318033,-0.227532,1.126104,-0.086105,2.506147,40.404095,-25.297440,-3.797121,0.458158,1.974899,-0.188737,0.000000,0.000000,0.000000,0.000000,0.000000,0.000000
12609145.000000,-2.305201,-1.663355,1.230041,-1.451137,1.709266,1.297242,-0.583470,0.372161,-0.001797,1.160384,-0.316052,-0.227670,1.122466,-0.082836,2.283979,40.455669,-24.880875,-3.697939,0.470060,1.909896,-0.202470,0.000000,0.000000,0.000000,0.000000,0.000000,0.000000
12609146.000000,-2.304821,-1.663355,1.231214,-1.451454,1.709039,1.298384,-0.583550,0.372279,-0.001168,1.151716,-0.315535,-0.224171,1.125162,-0.082047,2.133222,40.455669,-24.658707,-3.570986,0.506681,1.819259,-0.169511,0.000000,0.000000,0.000000,0.000000,0.000000,0.000000
12609147.000000,-2.304450,-1.663344,1.232377,-1.451764,1.708822,1.299510,-0.583620,0.371487,0.002677,1.152601,-0.314195,-0.219417,1.126788,-0.078511,1.934858,40.308880,-24.634903,-3.598757,0.494779,1.727706,-0.208878,0.000000,0.000000,0.000000,0.000000,0.000000,0.000000
12609148.000000,-2.304076,-1.663349,1.233526,-1.452080,1.708605,1.300656,-0.583697,0.370134,0.000131,1.144562,-0.312028,-0.215765,1.133743,-0.078292,1.740461,40.380291,-24.242142,-3.547182,0.470060,1.546432,-0.196061,0.000000,0.000000,0.000000,0.000000,0.000000,0.000000
12609149.000000,-2.303704,-1.663347,1.234678,-1.452376,1.708375,1.301779,-0.583779,0.371240,0.000100,1.142735,-0.304928,-0.222771,1.134368,-0.078676,1.613508,40.380291,-24.166763,-3.598757,0.559781,1.519881,-0.169511,0.000000,0.000000,0.000000,0.000000,0.000000,0.000000
12609150.000000,-2.303338,-1.663348,1.235841,-1.452678,1.708144,1.302899,-0.583851,0.368818,-0.000481,1.143356,-0.302891,-0.220110,1.128931,-0.075886,1.490522,40.404095,-24.043777,-3.646364,0.601896,1.670028,-0.221696,0.000000,0.000000,0.000000,0.000000,0.000000,0.000000
12609151.000000,-2.302971,-1.663346,1.237016,-1.452971,1.707937,1.304024,-0.583930,0.365120,0.000243,1.142239,-0.298532,-0.218472,1.123656,-0.076607,1.415143,40.380291,-24.043777,-3.697939,0.518583,1.890670,-0.202470,0.000000,0.000000,0.000000,0.000000,0.000000,0.000000
12609152.000000,-2.302601,-1.663337,1.238164,-1.453257,1.707716,1.305137,-0.584009,0.367138,0.005547,1.149293,-0.298610,-0.221277,1.128780,-0.076622,1.169172,40.281109,-24.019974,-3.745546,0.530485,1.995040,-0.182328,0.000000,0.000000,0.000000,0.000000,0.000000,0.000000
12609153.000000,-2.302228,-1.663336,1.239316,-1.453555,1.707500,1.306292,-0.584084,0.369210,0.003957,1.138150,-0.297171,-0.217716,1.135809,-0.075482,0.994611,40.281109,-23.920792,-3.697939,0.524076,1.844894,-0.202470,0.000000,0.000000,0.000000,0.000000,0.000000,0.000000
12609154.000000,-2.301847,-1.663325,1.240459,-1.453848,1.707292,1.307415,-0.584160,0.372711,0.005616,1.162200,-0.293927,-0.214775,1.139583,-0.070471,0.772443,40.162090,-23.896988,-3.622560,0.506681,1.773483,-0.208878,0.000000,0.000000,0.000000,0.000000,0.000000,0.000000
12609155.000000,-2.301460,-1.663314,1.241599,-1.454146,1.707077,1.308541,-0.584233,0.379740,0.006766,1.155983,-0.296965,-0.217076,1.132386,-0.071840,0.351911,40.039104,-23.678787,-3.448000,0.494779,1.858627,-0.208878,0.000000,0.000000,0.000000,0.000000,0.000000,0.000000
12609156.000000,-2.301076,-1.663298,1.242740,-1.454445,1.706865,1.309670,-0.584313,0.376647,0.008611,1.142120,-0.298270,-0.214453,1.122145,-0.074083,0.078168,39.868511,-23.432816,-3.301210,0.512174,1.916305,-0.169511,0.000000,0.000000,0.000000,0.000000,0.000000,0.000000
12609157.000000,-2.300705,-1.663292,1.243870,-1.454722,1.706647,1.310796,-0.584384,0.377837,0.010076,1.136330,-0.290176,-0.215976,1.120732,-0.067668,-0.167803,39.816936,-23.234451,-3.400392,0.578092,1.832076,-0.221696,0.000000,0.000000,0.000000,0.000000,0.000000,0.000000
12609158.000000,-2.300328,-1.663280,1.245029,-1.455008,1.706445,1.311927,-0.584461,0.375187,0.012434,1.136083,-0.288990,-0.211777,1.116058,-0.075582,-0.366168,39.721722,-23.286026,-3.400392,0.530485,1.793624,-0.188737,0.000000,0.000000,0.000000,0.000000,0.000000,0.000000
12609159.000000,-2.299954,-1.663263,1.246193,-1.455277,1.706251,1.313046,-0.584539,0.374618,0.015377,1.161342,-0.289014,-0.207827,1.117343,-0.076566,-0.512957,39.574932,-23.456619,-3.598757,0.446256,1.773483,-0.163102,0.000000,0.000000,0.000000,0.000000,0.000000,0.000000
12609160.000000,-2.299591,-1.663255,1.247350,-1.455556,1.706042,1.314172,-0.584607,0.369674,0.014063,1.158184,-0.281596,-0.212482,1.115997,-0.070689,-0.564532,39.574932,-23.726395,-3.670168,0.452665,1.812850,-0.182328,0.000000,0.000000,0.000000,0.000000,0.000000,0.000000
12609161.000000,-2.299218,-1.663246,1.248525,-1.455832,1.705831,1.315291,-0.584675,0.368151,0.013289,1.154390,-0.282926,-0.210683,1.112486,-0.070638,-0.735125,39.574932,-24.071548,-3.721742,0.434354,1.916305,-0.215287,0.000000,0.000000,0.000000,0.000000,0.000000,0.000000
12609162.000000,-2.298858,-1.663240,1.249685,-1.456107,1.705623,1.316400,-0.584747,0.365448,0.011867,1.159837,-0.281749,-0.211117,1.112579,-0.068398,-0.810504,39.622540,-24.365128,-3.721742,0.458158,1.968490,-0.182328,0.000000,0.000000,0.000000,0.000000,0.000000,0.000000
12609163.000000,-2.298492,-1.663231,1.250847,-1.456375,1.705415,1.317518,-0.584820,0.366359,0.012410,1.148687,-0.271652,-0.211621,1.114392,-0.071928,-0.885882,39.598736,-24.511917,-3.820925,0.506681,1.988631,-0.136552,0.000000,0.000000,0.000000,0.000000,0.000000,0.000000
12609164.000000,-2.298124,-1.663220,1.252018,-1.456632,1.705215,1.318646,-0.584876,0.368107,0.012768,1.149633,-0.267351,-0.205153,1.120115,-0.068728,-0.985064,39.574932,-24.706314,-3.943910,0.488370,2.007858,-0.235429,0.000000,0.000000,0.000000,0.000000,0.000000,0.000000
12609165.000000,-2.297771,-1.663209,1.253161,-1.456897,1.705020,1.319751,-0.584950,0.363175,0.013724,1.147742,-0.265130,-0.196091,1.120351,-0.072462,-0.985064,39.523357,-24.757889,-4.019289,0.482877,2.014266,-0.175919,0.000000,0.000000,0.000000,0.000000,0.000000,0.000000
12609166.000000,-2.297417,-1.663202,1.254292,-1.457156,1.704820,1.320866,-0.585016,0.356865,0.008906,1.129810,-0.260664,-0.199307,1.117848,-0.067199,-1.008868,39.574932,-24.412735,-4.066896,0.494779,2.020675,-0.208878,0.000000,0.000000,0.000000,0.000000,0.000000,0.000000
12609167.000000,-2.297075,-1.663196,1.255427,-1.457414,1.704619,1.321960,-0.585084,0.355113,0.009277,1.130322,-0.262654,-0.201995,1.109845,-0.069281,-0.933489,39.598736,-24.190567,-4.043092,0.500272,2.027084,-0.215287,0.000000,0.000000,0.000000,0.000000,0.000000,0.000000
12609168.000000,-2.296728,-1.663183,1.256562,-1.457673,1.704425,1.323067,-0.585159,0.349909,0.011371,1.123534,-0.258137,-0.196832,1.104770,-0.067615,-0.862078,39.547161,-23.825577,-3.991518,0.464567,2.104903,-0.175919,0.000000,0.000000,0.000000,0.000000,0.000000,0.000000
12609169.000000,-2.296380,-1.663172,1.257704,-1.457931,1.704236,1.324190,-0.585223,0.346365,0.012160,1.120600,-0.259100,-0.194153,1.097779,-0.067954,-0.810504,39.523357,-23.555801,-3.892336,0.446256,2.079269,-0.215287,0.000000,0.000000,0.000000,0.000000,0.000000,0.000000
12609170.000000,-2.296049,-1.663156,1.258829,-1.458182,1.704051,1.325314,-0.585292,0.337076,0.014474,1.116940,-0.258190,-0.186250,1.105811,-0.066890,-0.663714,39.428143,-23.333633,-3.844728,0.393156,1.903487,-0.169511,0.000000,0.000000,0.000000,0.000000,0.000000,0.000000
12609171.000000,-2.295722,-1.663140,1.259965,-1.458438,1.703866,1.326451,-0.585361,0.331250,0.013481,1.111691,-0.258748,-0.187595,1.108842,-0.065219,-0.512957,39.305157,-23.111465,-3.868532,0.386747,1.721298,-0.149369,0.000000,0.000000,0.000000,0.000000,0.000000,0.000000
12609172.000000,-2.295398,-1.663124,1.261122,-1.458686,1.703685,1.327554,-0.585415,0.328511,0.012023,1.147386,-0.257005,-0.187534,1.128378,-0.064523,-0.290789,39.205975,-23.163040,-3.868532,0.369352,1.670028,-0.229020,0.000000,0.000000,0.000000,0.000000,0.000000,0.000000
12609173.000000,-2.295070,-1.663105,1.262252,-1.458929,1.703502,1.328666,-0.585480,0.329448,0.014054,1.134112,-0.251494,-0.186478,1.123637,-0.067953,-0.243182,39.106792,-23.135269,-3.920107,0.315336,1.741439,-0.215287,0.000000,0.000000,0.000000,0.000000,0.000000,0.000000
12609174.000000,-2.294754,-1.663089,1.263400,-1.459178,1.703301,1.329791,-0.585549,0.323715,0.012265,1.126067,-0.250823,-0.194526,1.122126,-0.072022,-0.017047,39.011578,-23.186844,-3.943910,0.410551,1.735030,-0.155778,0.000000,0.000000,0.000000,0.000000,0.000000,0.000000
12609175.000000,-2.294442,-1.663073,1.264516,-1.459414,1.703106,1.330908,-0.585605,0.320032,0.013491,1.124164,-0.245796,-0.195502,1.128496,-0.066093,0.177350,38.936199,-23.087662,-4.043092,0.464567,1.676437,-0.208878,0.000000,0.000000,0.000000,0.000000,0.000000,0.000000
12609176.000000,-2.294134,-1.663061,1.265648,-1.459653,1.702919,1.332023,-0.585662,0.317331,0.011295,1.113675,-0.243274,-0.188796,1.125719,-0.062050,0.276533,38.864788,-23.016251,-4.066896,0.464567,1.670028,-0.254655,0.000000,0.000000,0.000000,0.000000,0.000000,0.000000
12609177.000000,-2.293826,-1.663038,1.266790,-1.459894,1.702733,1.333117,-0.585732,0.313368,0.015232,1.119739,-0.248351,-0.189439,1.125194,-0.064150,0.451093,38.690228,-22.964676,-4.019289,0.482877,1.786300,-0.163102,0.000000,0.000000,0.000000,0.000000,0.000000,0.000000
12609178.000000,-2.293516,-1.663021,1.267900,-1.460136,1.702553,1.334236,-0.585788,0.304982,0.016163,1.115592,-0.242867,-0.183560,1.116688,-0.060349,0.502668,38.595013,-22.770279,-4.019289,0.458158,1.702071,-0.208878,0.000000,0.000000,0.000000,0.000000,0.000000,0.000000
12609179.000000,-2.293211,-1.663005,1.269014,-1.460386,1.702370,1.335370,-0.585846,0.300882,0.015878,1.105597,-0.245778,-0.184303,1.114375,-0.059506,0.649457,38.543438,-22.500504,-3.844728,0.434354,1.617843,-0.215287,0.000000,0.000000,0.000000,0.000000,0.000000,0.000000
12609180.000000,-2.292907,-1.662988,1.270134,-1.460621,1.702190,1.336474,-0.585909,0.297660,0.016791,1.109513,-0.243631,-0.183256,1.108973,-0.060505,0.697065,38.448223,-22.448929,-3.721742,0.374845,1.643478,-0.169511,0.000000,0.000000,0.000000,0.000000,0.000000,0.000000
12609181.000000,-2.292610,-1.662963,1.271272,-1.460863,1.702014,1.337606,-0.585962,0.294536,0.019878,1.114772,-0.243916,-0.181075,1.109084,-0.057861,0.824018,38.249859,-22.500504,-3.622560,0.285123,1.559249,-0.208878,0.000000,0.000000,0.000000,0.000000,0.000000,0.000000
12609182.000000,-2.292319,-1.662942,1.272426,-1.461107,1.701834,1.338745,-0.586024,0.295918,0.017603,1.122943,-0.243153,-0.184013,1.111320,-0.058927,1.069990,38.103069,-22.742508,-3.448000,0.303434,1.461288,-0.169511,0.000000,0.000000,0.000000,0.000000,0.000000,0.000000
12609183.000000,-2.292027,-1.662925,1.273567,-1.461333,1.701652,1.339863,-0.586081,0.296227,0.017835,1.122311,-0.239479,-0.183253,1.113979,-0.057769,1.192975,38.007854,-23.040054,-3.400392,0.374845,1.402694,-0.175919,0.000000,0.000000,0.000000,0.000000,0.000000,0.000000
12609184.000000,-2.291741,-1.662908,1.274725,-1.461568,1.701472,1.340981,-0.586137,0.293904,0.017043,1.121363,-0.240321,-0.182369,1.108325,-0.055691,1.367536,37.956280,-23.409012,-3.325014,0.440763,1.519881,-0.221696,0.000000,0.000000,0.000000,0.000000,0.000000,0.000000
12609185.000000,-2.291467,-1.662886,1.275864,-1.461802,1.701297,1.342062,-0.586203,0.285561,0.018251,1.132547,-0.238675,-0.178408,1.110967,-0.058683,1.613508,37.833294,-23.726395,-3.225832,0.488370,1.773483,-0.149369,0.000000,0.000000,0.000000,0.000000,0.000000,0.000000
12609186.000000,-2.291185,-1.662875,1.277008,-1.462033,1.701119,1.343167,-0.586254,0.283905,0.016360,1.127235,-0.236812,-0.176820,1.110802,-0.050888,1.740461,37.833294,-23.849380,-3.154421,0.518583,1.968490,-0.215287,0.000000,0.000000,0.000000,0.000000,0.000000,0.000000
12609187.000000,-2.290907,-1.662860,1.278160,-1.462261,1.700940,1.344286,-0.586311,0.281198,0.012970,1.123358,-0.233387,-0.179541,1.111506,-0.052321,1.863447,37.785686,-23.920792,-3.027467,0.512174,2.039901,-0.221696,0.000000,0.000000,0.000000,0.000000,0.000000,0.000000
12609188.000000,-2.290632,-1.662844,1.279296,-1.462503,1.700770,1.345397,-0.586367,0.281524,0.014019,1.123988,-0.236889,-0.174150,1.115315,-0.048443,2.010236,37.714275,-23.972366,-2.781496,0.434354,2.007858,-0.229020,0.000000,0.000000,0.000000,0.000000,0.000000,0.000000
12609189.000000,-2.290341,-1.662829,1.280430,-1.462748,1.700602,1.346514,-0.586428,0.283593,0.014503,1.116603,-0.239897,-0.172390,1.109357,-0.052713,1.911054,37.662701,-23.849380,-2.483949,0.405057,1.916305,-0.169511,0.000000,0.000000,0.000000,0.000000,0.000000,0.000000
12609190.000000,-2.290055,-1.662808,1.281570,-1.462994,1.700429,1.347616,-0.586481,0.283142,0.013954,1.141745,-0.243462,-0.173175,1.106443,-0.052023,1.887250,37.515911,-23.651016,-2.138796,0.440763,1.851302,-0.208878,0.000000,0.000000,0.000000,0.000000,0.000000,0.000000
12609191.000000,-2.289777,-1.662798,1.282686,-1.463233,1.700258,1.348720,-0.586532,0.279303,0.012552,1.130793,-0.242532,-0.174412,1.097840,-0.052468,1.863447,37.539715,-23.381241,-1.940431,0.500272,1.877853,-0.229020,0.000000,0.000000,0.000000,0.000000,0.000000,0.000000
12609192.000000,-2.289501,-1.662782,1.283815,-1.463485,1.700090,1.349834,-0.586592,0.278669,0.013254,1.124444,-0.243170,-0.178082,1.097998,-0.055752,1.887250,37.492107,-23.186844,-1.670656,0.535978,1.897079,-0.169511,0.000000,0.000000,0.000000,0.000000,0.000000,0.000000
12609193.000000,-2.289242,-1.662767,1.284926,-1.463712,1.699930,1.350934,-0.586638,0.274348,0.012830,1.115822,-0.237112,-0.170696,1.093609,-0.048889,2.061811,37.492107,-22.964676,-1.694460,0.512174,1.877853,-0.229020,0.000000,0.000000,0.000000,0.000000,0.000000,0.000000
12609194.000000,-2.288976,-1.662748,1.286066,-1.463935,1.699763,1.352053,-0.586696,0.267736,0.014384,1.115014,-0.229342,-0.169534,1.104813,-0.052374,2.232404,37.420696,-22.917068,-1.718263,0.488370,1.767074,-0.188737,0.000000,0.000000,0.000000,0.000000,0.000000,0.000000
12609195.000000,-2.288704,-1.662741,1.287218,-1.464153,1.699601,1.353168,-0.586750,0.266936,0.012546,1.147757,-0.233407,-0.168509,1.114545,-0.049406,2.260175,37.468304,-23.040054,-1.841249,0.458158,1.611434,-0.169511,0.000000,0.000000,0.000000,0.000000,0.000000,0.000000
12609196.000000,-2.288443,-1.662730,1.288335,-1.464380,1.699442,1.354276,-0.586792,0.264543,0.011940,1.136281,-0.230762,-0.163901,1.117585,-0.043686,2.359357,37.492107,-22.964676,-1.869020,0.446256,1.637069,-0.241837,0.000000,0.000000,0.000000,0.000000,0.000000,0.000000
12609197.000000,-2.288173,-1.662721,1.289474,-1.464604,1.699274,1.355391,-0.586856,0.261360,0.010885,1.127364,-0.225846,-0.163773,1.118636,-0.050002,2.331586,37.539715,-22.964676,-1.892824,0.524076,1.689254,-0.163102,0.000000,0.000000,0.000000,0.000000,0.000000,0.000000
12609198.000000,-2.287906,-1.662713,1.290598,-1.464827,1.699121,1.356489,-0.586900,0.269419,0.010889,1.128686,-0.228445,-0.160898,1.117577,-0.049606,2.232404,37.567486,-23.040054,-1.793642,0.535978,1.708480,-0.215287,0.000000,0.000000,0.000000,0.000000,0.000000,0.000000
12609199.000000,-2.287643,-1.662700,1.291728,-1.465049,1.698966,1.357601,-0.586949,0.272503,0.008278,1.122091,-0.228185,-0.162524,1.113240,-0.051533,2.232404,37.567486,-23.016251,-1.769838,0.524076,1.721298,-0.215287,0.000000,0.000000,0.000000,0.000000,0.000000,0.000000
12609200.000000,-2.287371,-1.662696,1.292853,-1.465268,1.698820,1.358731,-0.587009,0.272166,0.008307,1.113500,-0.224926,-0.158967,1.111671,-0.050969,2.160993,37.615093,-22.865494,-1.742067,0.506681,1.597701,-0.136552,0.000000,0.000000,0.000000,0.000000,0.000000,0.000000
12609201.000000,-2.287102,-1.662677,1.293957,-1.465469,1.698671,1.359841,-0.587051,0.269767,0.011869,1.108784,-0.219554,-0.155317,1.108920,-0.049344,2.034040,37.515911,-22.694901,-1.841249,0.452665,1.546432,-0.202470,0.000000,0.000000,0.000000,0.000000,0.000000,0.000000
12609202.000000,-2.286836,-1.662665,1.295066,-1.465679,1.698515,1.360954,-0.587101,0.266751,0.008803,1.097744,-0.215825,-0.155355,1.103068,-0.047176,1.934858,37.515911,-22.448929,-1.793642,0.476469,1.597701,-0.182328,0.000000,0.000000,0.000000,0.000000,0.000000,0.000000
12609205.000000,-2.286045,-1.662621,1.298432,-1.466280,1.698053,1.364287,-0.587240,0.261573,0.009773,1.102507,-0.202016,-0.153515,1.107962,-0.041407,1.613508,37.345318,-22.448929,-1.793642,0.554288,1.721298,-0.196061,0.000000,0.000000,0.000000,0.000000,0.000000,0.000000
12609206.000000,-2.285783,-1.662602,1.299570,-1.466467,1.697913,1.365396,-0.587287,0.260693,0.012915,1.112317,-0.200053,-0.149779,1.112478,-0.040540,1.514325,37.222332,-22.794083,-1.869020,0.476469,1.649886,-0.196061,0.000000,0.000000,0.000000,0.000000,0.000000,0.000000
12609207.000000,-2.285518,-1.662588,1.300727,-1.466659,1.697772,1.366507,-0.587333,0.259521,0.012983,1.115607,-0.198911,-0.147927,1.114074,-0.040446,1.442914,37.198528,-23.234451,-1.916628,0.410551,1.624252,-0.182328,0.000000,0.000000,0.000000,0.000000,0.000000,0.000000
12609208.000000,-2.285256,-1.662576,1.301882,-1.466843,1.697624,1.367596,-0.587378,0.259191,0.012556,1.145474,-0.194773,-0.150916,1.109542,-0.043520,1.343732,37.198528,-23.603409,-1.992006,0.458158,1.682845,-0.202470,0.000000,0.000000,0.000000,0.000000,0.000000,0.000000
12609209.000000,-2.284998,-1.662572,1.303014,-1.467024,1.697474,1.368684,-0.587425,0.260190,0.010162,1.140330,-0.191978,-0.152564,1.096222,-0.043099,1.343732,37.297710,-23.873184,-2.063417,0.494779,1.812850,-0.175919,0.000000,0.000000,0.000000,0.000000,0.000000,0.000000
12609210.000000,-2.284734,-1.662566,1.304157,-1.467202,1.697323,1.369777,-0.587469,0.258771,0.007111,1.133229,-0.184062,-0.156582,1.082713,-0.045643,1.292158,37.321514,-24.019974,-2.114992,0.488370,1.962081,-0.196061,0.000000,0.000000,0.000000,0.000000,0.000000,0.000000
12609211.000000,-2.284478,-1.662562,1.305273,-1.467371,1.697173,1.370858,-0.587514,0.259463,0.003091,1.133011,-0.179639,-0.155221,1.078883,-0.042820,1.315961,37.420696,-24.019974,-2.237978,0.494779,1.942855,-0.221696,0.000000,0.000000,0.000000,0.000000,0.000000,0.000000
12609212.000000,-2.284216,-1.662558,1.306399,-1.467541,1.697025,1.371961,-0.587563,0.260606,0.003506,1.122738,-0.176108,-0.153485,1.084360,-0.047801,1.292158,37.515911,-23.948563,-2.360964,0.482877,1.903487,-0.182328,0.000000,0.000000,0.000000,0.000000,0.000000,0.000000
12609213.000000,-2.283947,-1.662557,1.307519,-1.467711,1.696883,1.373071,-0.587606,0.265212,-0.000455,1.114526,-0.178974,-0.153117,1.093923,-0.043681,1.145368,37.662701,-23.579605,-2.360964,0.488370,1.786300,-0.221696,0.000000,0.000000,0.000000,0.000000,0.000000,0.000000
12609214.000000,-2.283687,-1.662556,1.308628,-1.467879,1.696737,1.374156,-0.587653,0.262259,-0.001586,1.114435,-0.175079,-0.152329,1.094571,-0.047946,1.022382,37.738079,-23.309830,-2.384767,0.482877,1.786300,-0.196061,0.000000,0.000000,0.000000,0.000000,0.000000,0.000000
12609215.000000,-2.283425,-1.662558,1.309745,-1.468045,1.696587,1.375250,-0.587699,0.262519,-0.003574,1.104550,-0.171734,-0.152844,1.089868,-0.046328,0.871625,37.861065,-23.040054,-2.412538,0.500272,1.812850,-0.175919,0.000000,0.000000,0.000000,0.000000,0.000000,0.000000
12609216.000000,-2.283170,-1.662555,1.310855,-1.468205,1.696449,1.376352,-0.587737,0.259982,-0.000064,1.104351,-0.167149,-0.146310,1.102481,-0.042384,0.748639,37.908672,-22.893265,-2.535524,0.464567,1.656295,-0.221696,0.000000,0.000000,0.000000,0.000000,0.000000,0.000000
12609217.000000,-2.282921,-1.662554,1.311976,-1.468360,1.696315,1.377474,-0.587780,0.256000,0.002481,1.103716,-0.162595,-0.144387,1.112332,-0.046965,0.673261,37.956280,-22.770279,-2.706117,0.381254,1.461288,-0.196061,0.000000,0.000000,0.000000,0.000000,0.000000,0.000000
12609218.000000,-2.282676,-1.662548,1.313107,-1.468508,1.696172,1.378589,-0.587823,0.251704,0.003381,1.106221,-0.155599,-0.146292,1.107770,-0.044785,0.673261,37.908672,-22.794083,-2.904482,0.374845,1.364242,-0.188737,0.000000,0.000000,0.000000,0.000000,0.000000,0.000000
12609219.000000,-2.282427,-1.662548,1.314228,-1.468651,1.696021,1.379681,-0.587862,0.252885,0.004885,1.107951,-0.150702,-0.149290,1.097061,-0.041805,0.601850,37.956280,-22.841690,-3.102846,0.410551,1.409103,-0.221696,0.000000,0.000000,0.000000,0.000000,0.000000,0.000000
12609220.000000,-2.282184,-1.662544,1.315353,-1.468792,1.695873,1.380773,-0.587902,0.248682,0.006282,1.106026,-0.145404,-0.147287,1.084978,-0.045758,0.601850,37.984051,-22.794083,-3.225832,0.470060,1.578475,-0.215287,0.000000,0.000000,0.000000,0.000000,0.000000,0.000000
12609221.000000,-2.281932,-1.662544,1.316455,-1.468924,1.695729,1.381864,-0.587947,0.249207,0.004350,1.105023,-0.143071,-0.145824,1.084840,-0.045662,0.403486,38.007854,-22.817886,-3.424196,0.535978,1.727706,-0.163102,0.000000,0.000000,0.000000,0.000000,0.000000,0.000000
12609222.000000,-2.281682,-1.662545,1.317571,-1.469060,1.695597,1.382981,-0.587981,0.253873,0.006049,1.101096,-0.143202,-0.135980,1.087691,-0.042068,0.228925,38.031658,-22.742508,-3.547182,0.506681,1.735030,-0.202470,0.000000,0.000000,0.000000,0.000000,0.000000,0.000000
12609223.000000,-2.281424,-1.662538,1.318705,-1.469196,1.695469,1.384109,-0.588020,0.256743,0.007021,1.103131,-0.138651,-0.136526,1.101889,-0.040124,-0.044818,37.932476,-22.817886,-3.598757,0.446256,1.689254,-0.229020,0.000000,0.000000,0.000000,0.000000,0.000000,0.000000
12609224.000000,-2.281176,-1.662536,1.319791,-1.469328,1.695343,1.385211,-0.588064,0.251121,0.005739,1.096604,-0.136308,-0.132947,1.101210,-0.042359,-0.290789,37.908672,-22.595718,-3.598757,0.374845,1.670028,-0.155778,0.000000,0.000000,0.000000,0.000000,0.000000,0.000000
12609225.000000,-2.280923,-1.662531,1.320902,-1.469462,1.695224,1.386323,-0.588094,0.251871,0.005965,1.091796,-0.135577,-0.130053,1.100572,-0.038273,-0.512957,37.833294,-22.500504,-3.523378,0.297025,1.662704,-0.229020,0.000000,0.000000,0.000000,0.000000,0.000000,0.000000
12609226.000000,-2.280665,-1.662529,1.322016,-1.469588,1.695097,1.387414,-0.588137,0.250213,0.004259,1.114979,-0.130052,-0.126641,1.100424,-0.039817,-0.762896,37.833294,-22.377518,-3.499574,0.303434,1.714889,-0.182328,0.000000,0.000000,0.000000,0.000000,0.000000,0.000000
12609227.000000,-2.280417,-1.662532,1.323129,-1.469714,1.694963,1.388513,-0.588173,0.250916,0.001844,1.116758,-0.126453,-0.129674,1.101728,-0.039801,-0.933489,37.884869,-22.500504,-3.475771,0.332731,1.806442,-0.169511,0.000000,0.000000,0.000000,0.000000,0.000000,0.000000
12609228.000000,-2.280173,-1.662521,1.324247,-1.469836,1.694830,1.389628,-0.588205,0.250291,0.004822,1.107084,-0.120977,-0.130230,1.102414,-0.037266,-1.084246,37.738079,-22.524307,-3.570986,0.327238,1.779891,-0.221696,0.000000,0.000000,0.000000,0.000000,0.000000,0.000000
12609229.000000,-2.279934,-1.662523,1.325387,-1.469952,1.694698,1.390717,-0.588247,0.252793,0.002777,1.116911,-0.121332,-0.128181,1.092303,-0.039920,-1.159625,37.761883,-23.016251,-3.622560,0.369352,1.747848,-0.155778,0.000000,0.000000,0.000000,0.000000,0.000000,0.000000
12609230.000000,-2.279700,-1.662519,1.326538,-1.470066,1.694571,1.391837,-0.588275,0.248304,0.003054,1.127088,-0.117534,-0.124328,1.092512,-0.037216,-1.159625,37.714275,-23.480423,-3.697939,0.374845,1.630660,-0.208878,0.000000,0.000000,0.000000,0.000000,0.000000,0.000000
12609231.000000,-2.279462,-1.662517,1.327685,-1.470171,1.694446,1.392931,-0.588310,0.244128,0.002103,1.126906,-0.116896,-0.127639,1.087526,-0.032290,-1.231036,37.714275,-23.896988,-3.820925,0.410551,1.721298,-0.221696,0.000000,0.000000,0.000000,0.000000,0.000000,0.000000
12609232.000000,-2.279236,-1.662523,1.328814,-1.470277,1.694313,1.394001,-0.588346,0.243898,-0.000775,1.123873,-0.114904,-0.130674,1.082020,-0.034812,-1.254840,37.809490,-24.166763,-3.892336,0.464567,1.930038,-0.188737,0.000000,0.000000,0.000000,0.000000,0.000000,0.000000
12609233.000000,-2.279005,-1.662532,1.329962,-1.470386,1.694192,1.395089,-0.588377,0.238169,-0.003356,1.124133,-0.112302,-0.129053,1.078692,-0.035034,-1.231036,37.932476,-24.412735,-3.868532,0.422452,2.039901,-0.202470,0.000000,0.000000,0.000000,0.000000,0.000000,0.000000
12609234.000000,-2.278764,-1.662542,1.331083,-1.470492,1.694072,1.396166,-0.588415,0.240576,-0.005643,1.121363,-0.109585,-0.129425,1.082055,-0.037373,-1.429400,38.079266,-24.511917,-3.868532,0.410551,2.085677,-0.155778,0.000000,0.000000,0.000000,0.000000,0.000000,0.000000
12609235.000000,-2.278533,-1.662548,1.332205,-1.470601,1.693954,1.397274,-0.588439,0.239330,-0.004947,1.113190,-0.104813,-0.123748,1.089715,-0.030435,-1.552386,38.130840,-24.341324,-3.844728,0.356534,1.974899,-0.215287,0.000000,0.000000,0.000000,0.000000,0.000000,0.000000
12609236.000000,-2.278299,-1.662557,1.333332,-1.470713,1.693841,1.398386,-0.588477,0.238898,-0.006066,1.110381,-0.105592,-0.123553,1.102931,-0.034191,-1.679339,38.249859,-24.166763,-3.769350,0.285123,1.844894,-0.163102,0.000000,0.000000,0.000000,0.000000,0.000000,0.000000
12609237.000000,-2.278069,-1.662559,1.334442,-1.470816,1.693716,1.399463,-0.588508,0.236045,-0.004682,1.107837,-0.101619,-0.127136,1.101519,-0.034301,-1.849932,38.277630,-24.043777,-3.745546,0.297025,1.825668,-0.182328,0.000000,0.000000,0.000000,0.000000,0.000000,0.000000
12609238.000000,-2.277840,-1.662569,1.335540,-1.470921,1.693579,1.400550,-0.588536,0.233683,-0.006546,1.095818,-0.099522,-0.127115,1.093746,-0.034389,-2.000689,38.424419,-23.504227,-3.670168,0.386747,1.851302,-0.202470,0.000000,0.000000,0.000000,0.000000,0.000000,0.000000
12609239.000000,-2.277623,-1.662580,1.336649,-1.471017,1.693448,1.401620,-0.588571,0.228091,-0.007141,1.123430,-0.098378,-0.126245,1.103103,-0.031389,-2.000689,38.543438,-23.409012,-3.721742,0.458158,1.962081,-0.182328,0.000000,0.000000,0.000000,0.000000,0.000000,0.000000
12609240.000000,-2.277409,-1.662579,1.337760,-1.471104,1.693329,1.402719,-0.588596,0.222767,-0.004199,1.112923,-0.094912,-0.122114,1.097895,-0.027453,-1.949114,38.519634,-23.258255,-3.892336,0.446256,1.936446,-0.202470,0.000000,0.000000,0.000000,0.000000,0.000000,0.000000
12609241.000000,-2.277199,-1.662584,1.338892,-1.471192,1.693214,1.403840,-0.588629,0.218183,-0.004559,1.107078,-0.090498,-0.123022,1.104370,-0.030534,-1.873736,38.595013,-23.309830,-4.019289,0.428861,1.779891,-0.188737,0.000000,0.000000,0.000000,0.000000,0.000000,0.000000
12609242.000000,-2.276992,-1.662590,1.340003,-1.471279,1.693099,1.404940,-0.588658,0.212516,-0.004150,1.108953,-0.091887,-0.124058,1.097799,-0.032342,-1.802325,38.642620,-23.286026,-4.090700,0.393156,1.637069,-0.188737,0.000000,0.000000,0.000000,0.000000,0.000000,0.000000
12609243.000000,-2.276780,-1.662596,1.341138,-1.471368,1.692986,1.406031,-0.588682,0.210743,-0.004528,1.112090,-0.089492,-0.119707,1.091323,-0.032015,-1.849932,38.717999,-23.480423,-4.166078,0.339139,1.682845,-0.235429,0.000000,0.000000,0.000000,0.000000,0.000000,0.000000
12609244.000000,-2.276569,-1.662605,1.342265,-1.471459,1.692871,1.407109,-0.588719,0.211614,-0.005244,1.130811,-0.089655,-0.118860,1.092750,-0.036153,-1.849932,38.813213,-23.528030,-4.142274,0.351041,1.735030,-0.163102,0.000000,0.000000,0.000000,0.000000,0.000000,0.000000
12609245.000000,-2.276354,-1.662611,1.343367,-1.471545,1.692757,1.408200,-0.588746,0.212547,-0.008429,1.120189,-0.088441,-0.117127,1.096578,-0.035925,-2.000689,38.888592,-23.480423,-4.189882,0.344633,1.786300,-0.175919,0.000000,0.000000,0.000000,0.000000,0.000000,0.000000
12609246.000000,-2.276145,-1.662618,1.344483,-1.471629,1.692644,1.409303,-0.588771,0.211608,-0.007553,1.114873,-0.086035,-0.112125,1.092866,-0.031341,-2.099871,38.960003,-23.456619,-4.166078,0.362943,1.767074,-0.182328,0.000000,0.000000,0.000000,0.000000,0.000000,0.000000
12609247.000000,-2.275938,-1.662621,1.345579,-1.471702,1.692534,1.410390,-0.588799,0.214948,-0.005233,1.106844,-0.083641,-0.111349,1.091449,-0.033010,-2.147479,38.960003,-23.409012,-4.289064,0.327238,1.695663,-0.182328,0.000000,0.000000,0.000000,0.000000,0.000000,0.000000
12609248.000000,-2.275730,-1.662624,1.346687,-1.471777,1.692420,1.411487,-0.588829,0.212878,-0.003637,1.101099,-0.080033,-0.115972,1.084366,-0.034907,-2.222857,38.960003,-23.286026,-4.364442,0.315336,1.676437,-0.163102,0.000000,0.000000,0.000000,0.000000,0.000000,0.000000
12609249.000000,-2.275525,-1.662633,1.347794,-1.471851,1.692299,1.412596,-0.588852,0.210109,-0.004299,1.100550,-0.075138,-0.119347,1.087253,-0.028834,-2.246661,39.035381,-23.063858,-4.412050,0.374845,1.597701,-0.215287,0.000000,0.000000,0.000000,0.000000,0.000000,0.000000
12609250.000000,-2.275317,-1.662629,1.348887,-1.471921,1.692180,1.413674,-0.588879,0.211144,-0.000629,1.094543,-0.073860,-0.120248,1.084935,-0.031424,-2.397418,38.936199,-22.988480,-4.487428,0.440763,1.702071,-0.202470,0.000000,0.000000,0.000000,0.000000,0.000000,0.000000
12609251.000000,-2.275120,-1.662628,1.350007,-1.471998,1.692069,1.414758,-0.588909,0.208378,-0.003097,1.088928,-0.076366,-0.118597,1.078759,-0.033875,-2.369647,38.912395,-23.111465,-4.412050,0.440763,1.819259,-0.182328,0.000000,0.000000,0.000000,0.000000,0.000000,0.000000
12609252.000000,-2.274921,-1.662629,1.351132,-1.472067,1.691963,1.415851,-0.588932,0.209971,-0.001819,1.104372,-0.072503,-0.115632,1.082431,-0.029306,-2.445025,38.888592,-23.480423,-4.439821,0.398649,1.727706,-0.202470,0.000000,0.000000,0.000000,0.000000,0.000000,0.000000
12609253.000000,-2.274727,-1.662626,1.352270,-1.472142,1.691853,1.416968,-0.588962,0.204352,-0.000240,1.110581,-0.070839,-0.114147,1.093086,-0.028439,-2.445025,38.837017,-23.873184,-4.412050,0.369352,1.532699,-0.155778,0.000000,0.000000,0.000000,0.000000,0.000000,0.000000
12609254.000000,-2.274533,-1.662629,1.353429,-1.472209,1.691747,1.418074,-0.588980,0.201410,-0.000335,1.117713,-0.068216,-0.111514,1.099673,-0.023953,-2.492632,38.837017,-24.436539,-4.439821,0.320829,1.507064,-0.208878,0.000000,0.000000,0.000000,0.000000,0.000000,0.000000
12609255.000000,-2.274348,-1.662628,1.354558,-1.472275,1.691640,1.419144,-0.589003,0.194700,0.000202,1.125354,-0.065744,-0.106416,1.091141,-0.022565,-2.492632,38.813213,-24.757889,-4.487428,0.285123,1.689254,-0.215287,0.000000,0.000000,0.000000,0.000000,0.000000,0.000000
12609256.000000,-2.274160,-1.662635,1.355695,-1.472343,1.691524,1.420207,-0.589036,0.193014,-0.002284,1.120723,-0.062428,-0.110214,1.076399,-0.024593,-2.492632,38.912395,-25.051468,-4.463624,0.339139,2.007858,-0.136552,0.000000,0.000000,0.000000,0.000000,0.000000,0.000000
12609257.000000,-2.273976,-1.662647,1.356822,-1.472409,1.691410,1.421270,-0.589049,0.187596,-0.005587,1.136233,-0.060801,-0.113226,1.064519,-0.020481,-2.445025,39.082989,-25.051468,-4.412050,0.398649,2.209274,-0.202470,0.000000,0.000000,0.000000,0.000000,0.000000,0.000000
12609258.000000,-2.273788,-1.662646,1.357928,-1.472470,1.691297,1.422357,-0.589072,0.189649,-0.002666,1.124007,-0.058106,-0.113114,1.066316,-0.020186,-2.520403,39.035381,-25.027664,-4.412050,0.405057,2.267867,-0.202470,0.000000,0.000000,0.000000,0.000000,0.000000,0.000000
12609259.000000,-2.273608,-1.662645,1.359042,-1.472530,1.691192,1.423467,-0.589097,0.184891,-0.003657,1.114815,-0.059962,-0.112215,1.070492,-0.021458,-2.520403,38.983807,-24.880875,-4.388246,0.351041,2.169906,-0.163102,0.000000,0.000000,0.000000,0.000000,0.000000,0.000000
12609260.000000,-2.273425,-1.662645,1.360147,-1.472599,1.691078,1.424564,-0.589109,0.183926,-0.004781,1.111667,-0.060897,-0.112899,1.079636,-0.018313,-2.643389,38.936199,-24.757889,-4.241457,0.356534,1.981307,-0.229020,0.000000,0.000000,0.000000,0.000000,0.000000,0.000000
12609261.000000,-2.273244,-1.662647,1.361261,-1.472674,1.690959,1.425662,-0.589129,0.182590,-0.006282,1.104544,-0.066236,-0.114206,1.082791,-0.018849,-2.690997,38.912395,-24.535721,-4.019289,0.393156,1.890670,-0.221696,0.000000,0.000000,0.000000,0.000000,0.000000,0.000000
12609262.000000,-2.273068,-1.662657,1.362373,-1.472746,1.690846,1.426747,-0.589151,0.181296,-0.007131,1.101621,-0.069169,-0.110672,1.080557,-0.019556,-2.718768,39.011578,-24.265945,-3.820925,0.434354,1.942855,-0.202470,0.000000,0.000000,0.000000,0.000000,0.000000,0.000000
12609263.000000,-2.272901,-1.662663,1.363478,-1.472808,1.690735,1.427814,-0.589167,0.176221,-0.009506,1.101436,-0.064197,-0.106948,1.080761,-0.019722,-2.690997,39.059185,-24.190567,-3.797121,0.446256,2.027084,-0.196061,0.000000,0.000000,0.000000,0.000000,0.000000,0.000000
12609264.000000,-2.272747,-1.662667,1.364596,-1.472863,1.690633,1.428910,-0.589183,0.165258,-0.006952,1.099913,-0.059065,-0.105639,1.086488,-0.018509,-2.468829,39.059185,-24.142960,-3.844728,0.369352,1.981307,-0.221696,0.000000,0.000000,0.000000,0.000000,0.000000,0.000000
12609265.000000,-2.272596,-1.662670,1.365699,-1.472908,1.690529,1.429993,-0.589207,0.162727,-0.007707,1.095871,-0.053144,-0.101365,1.087748,-0.020378,-2.270464,39.035381,-24.142960,-3.991518,0.320829,1.890670,-0.175919,0.000000,0.000000,0.000000,0.000000,0.000000,0.000000
12609266.000000,-2.272445,-1.662673,1.366829,-1.472951,1.690426,1.431093,-0.589222,0.158114,-0.007593,1.099552,-0.051494,-0.102900,1.088556,-0.018667,-2.048296,38.983807,-24.289749,-4.166078,0.279630,1.793624,-0.208878,0.000000,0.000000,0.000000,0.000000,0.000000,0.000000
12609267.000000,-2.272292,-1.662674,1.367953,-1.473002,1.690322,1.432187,-0.589239,0.154105,-0.007245,1.100388,-0.050497,-0.105307,1.082572,-0.019280,-1.925311,38.912395,-24.341324,-4.213686,0.267728,1.825668,-0.196061,0.000000,0.000000,0.000000,0.000000,0.000000,0.000000
12609268.000000,-2.272139,-1.662682,1.369055,-1.473061,1.690211,1.433268,-0.589262,0.154244,-0.006183,1.100712,-0.050632,-0.105784,1.082223,-0.020578,-1.849932,38.936199,-24.388931,-4.090700,0.344633,1.923629,-0.155778,0.000000,0.000000,0.000000,0.000000,0.000000,0.000000
12609269.000000,-2.271983,-1.662685,1.370161,-1.473114,1.690093,1.434364,-0.589272,0.155192,-0.003605,1.090478,-0.052899,-0.111047,1.084725,-0.018019,-1.901507,38.888592,-24.313553,-3.991518,0.434354,1.949264,-0.208878,0.000000,0.000000,0.000000,0.000000,0.000000,0.000000
12609270.000000,-2.271830,-1.662690,1.371255,-1.473170,1.689983,1.435454,-0.589292,0.152133,-0.005462,1.090410,-0.055448,-0.108030,1.089669,-0.020213,-1.925311,38.864788,-24.242142,-3.844728,0.470060,1.909896,-0.155778,0.000000,0.000000,0.000000,0.000000,0.000000,0.000000
12609271.000000,-2.271685,-1.662687,1.372351,-1.473218,1.689876,1.436568,-0.589306,0.150690,-0.004541,1.087043,-0.052327,-0.103417,1.093052,-0.019554,-1.873736,38.741802,-24.043777,-3.769350,0.452665,1.721298,-0.163102,0.000000,0.000000,0.000000,0.000000,0.000000,0.000000
12609272.000000,-2.271536,-1.662687,1.373454,-1.473261,1.689772,1.437682,-0.589313,0.151739,-0.001422,1.083265,-0.048893,-0.103828,1.103707,-0.011933,-1.901507,38.642620,-23.920792,-3.745546,0.398649,1.597701,-0.235429,0.000000,0.000000,0.000000,0.000000,0.000000,0.000000
12609273.000000,-2.271404,-1.662688,1.374532,-1.473304,1.689672,1.438757,-0.589337,0.143614,-0.002799,1.074929,-0.046845,-0.105042,1.097776,-0.016296,-1.750750,38.571209,-23.678787,-3.697939,0.362943,1.689254,-0.169511,0.000000,0.000000,0.000000,0.000000,0.000000,0.000000
12609274.000000,-2.271267,-1.662691,1.375634,-1.473345,1.689569,1.439840,-0.589351,0.140854,-0.004481,1.075984,-0.044127,-0.103008,1.084344,-0.016168,-1.679339,38.519634,-23.579605,-3.697939,0.381254,1.812850,-0.188737,0.000000,0.000000,0.000000,0.000000,0.000000,0.000000
12609275.000000,-2.271144,-1.662699,1.376747,-1.473386,1.689469,1.440911,-0.589360,0.132224,-0.004946,1.101580,-0.043071,-0.101945,1.059126,-0.010404,-1.453204,38.571209,-23.702591,-3.670168,0.398649,1.968490,-0.235429,0.000000,0.000000,0.000000,0.000000,0.000000,0.000000
12609276.000000,-2.271021,-1.662697,1.377858,-1.473426,1.689376,1.442011,-0.589374,0.130244,-0.002098,1.100555,-0.040009,-0.097827,1.068681,-0.013444,-1.282611,38.495831,-23.972366,-3.598757,0.339139,1.974899,-0.215287,0.000000,0.000000,0.000000,0.000000,0.000000,0.000000
12609277.000000,-2.270894,-1.662698,1.378993,-1.473461,1.689277,1.443131,-0.589394,0.129451,-0.001822,1.111260,-0.039254,-0.096759,1.076063,-0.017003,-1.131854,38.495831,-24.412735,-3.598757,0.327238,1.871444,-0.155778,0.000000,0.000000,0.000000,0.000000,0.000000,0.000000
12609278.000000,-2.270776,-1.662701,1.380115,-1.473496,1.689185,1.444226,-0.589404,0.122649,-0.001532,1.115373,-0.036257,-0.095515,1.083794,-0.016115,-0.985064,38.495831,-24.928482,-3.570986,0.308927,1.786300,-0.188737,0.000000,0.000000,0.000000,0.000000,0.000000,0.000000
12609279.000000,-2.270653,-1.662703,1.381237,-1.473529,1.689084,1.445322,-0.589415,0.122132,-0.002373,1.109609,-0.036872,-0.097190,1.080375,-0.015844,-0.885882,38.543438,-25.174454,-3.547182,0.356534,1.793624,-0.215287,0.000000,0.000000,0.000000,0.000000,0.000000,0.000000
12609280.000000,-2.270531,-1.662715,1.382359,-1.473564,1.688982,1.446411,-0.589433,0.122093,-0.005844,1.110880,-0.036021,-0.099500,1.083107,-0.014166,-0.810504,38.717999,-25.249832,-3.448000,0.440763,1.865035,-0.155778,0.000000,0.000000,0.000000,0.000000,0.000000,0.000000
12609281.000000,-2.270409,-1.662714,1.383458,-1.473600,1.688884,1.447469,-0.589441,0.120922,-0.004030,1.105877,-0.035260,-0.099122,1.083895,-0.008764,-0.834307,38.717999,-25.249832,-3.348818,0.470060,2.047225,-0.202470,0.000000,0.000000,0.000000,0.000000,0.000000,0.000000
12609282.000000,-2.270291,-1.662723,1.384569,-1.473630,1.688785,1.448553,-0.589456,0.121756,-0.005571,1.098205,-0.033461,-0.096585,1.076631,-0.012539,-0.810504,38.837017,-25.174454,-3.301210,0.440763,2.085677,-0.169511,0.000000,0.000000,0.000000,0.000000,0.000000,0.000000
12609283.000000,-2.270174,-1.662730,1.385647,-1.473664,1.688687,1.449640,-0.589468,0.115860,-0.005553,1.094623,-0.034405,-0.095107,1.075051,-0.013904,-0.762896,38.912395,-24.857071,-3.154421,0.416959,1.897079,-0.175919,0.000000,0.000000,0.000000,0.000000,0.000000,0.000000
12609284.000000,-2.270059,-1.662736,1.386751,-1.473692,1.688584,1.450731,-0.589475,0.115371,-0.005429,1.092242,-0.033367,-0.095476,1.070271,-0.008947,-0.762896,38.983807,-24.706314,-3.079042,0.440763,1.773483,-0.215287,0.000000,0.000000,0.000000,0.000000,0.000000,0.000000
12609285.000000,-2.269945,-1.662737,1.387845,-1.473728,1.688486,1.451821,-0.589492,0.115554,-0.003105,1.080474,-0.032236,-0.095132,1.070570,-0.012694,-0.786700,38.960003,-24.341324,-2.880678,0.440763,1.760665,-0.182328,0.000000,0.000000,0.000000,0.000000,0.000000,0.000000
12609286.000000,-2.269838,-1.662739,1.388939,-1.473757,1.688395,1.452884,-0.589499,0.114442,-0.002658,1.081851,-0.028952,-0.094364,1.066540,-0.012870,-0.762896,38.983807,-24.289749,-2.781496,0.422452,1.890670,-0.215287,0.000000,0.000000,0.000000,0.000000,0.000000,0.000000
12609287.000000,-2.269732,-1.662747,1.390030,-1.473779,1.688294,1.453982,-0.589508,0.110401,-0.003559,1.075692,-0.027764,-0.100052,1.071371,-0.014234,-0.735125,39.059185,-24.095352,-2.757692,0.446256,1.865035,-0.221696,0.000000,0.000000,0.000000,0.000000,0.000000,0.000000
12609288.000000,-2.269641,-1.662750,1.391116,-1.473794,1.688197,1.455080,-0.589524,0.103604,-0.002391,1.100300,-0.021066,-0.098931,1.083349,-0.012682,-0.540728,39.059185,-23.972366,-2.856874,0.452665,1.649886,-0.169511,0.000000,0.000000,0.000000,0.000000,0.000000,0.000000
12609289.000000,-2.269545,-1.662751,1.392234,-1.473802,1.688105,1.456191,-0.589531,0.100767,-0.001050,1.100640,-0.015401,-0.100942,1.091585,-0.008688,-0.441546,39.035381,-24.166763,-3.003664,0.410551,1.487838,-0.188737,0.000000,0.000000,0.000000,0.000000,0.000000,0.000000
12609290.000000,-2.269453,-1.662746,1.393352,-1.473811,1.688019,1.457295,-0.589542,0.094539,0.002167,1.100292,-0.012591,-0.096244,1.097313,-0.010428,-0.290789,38.912395,-24.313553,-3.102846,0.327238,1.481429,-0.208878,0.000000,0.000000,0.000000,0.000000,0.000000,0.000000
12609291.000000,-2.269358,-1.662751,1.394449,-1.473818,1.687913,1.458375,-0.589557,0.094662,0.000880,1.101314,-0.011176,-0.099288,1.094904,-0.015307,-0.215411,38.936199,-24.365128,-3.178224,0.410551,1.539108,-0.136552,0.000000,0.000000,0.000000,0.000000,0.000000,0.000000
12609292.000000,-2.269259,-1.662761,1.395542,-1.473830,1.687805,1.459461,-0.589564,0.097615,-0.001739,1.092748,-0.009951,-0.102096,1.082591,-0.009596,-0.243182,39.035381,-24.265945,-3.126650,0.518583,1.695663,-0.182328,0.000000,0.000000,0.000000,0.000000,0.000000,0.000000
12609293.000000,-2.269162,-1.662762,1.396639,-1.473840,1.687714,1.460529,-0.589572,0.096750,-0.004427,1.108377,-0.012329,-0.099497,1.046567,-0.011114,-0.290789,39.035381,-24.166763,-3.055238,0.506681,1.897079,-0.202470,0.000000,0.000000,0.000000,0.000000,0.000000,0.000000
12609297.000000,-2.268767,-1.662752,1.400964,-1.473838,1.687341,1.464965,-0.589612,0.094244,0.001492,1.086287,-0.002785,-0.093798,1.086723,-0.014687,-0.735125,38.717999,-23.651016,-3.178224,0.351041,1.584884,-0.196061,0.000000,0.000000,0.000000,0.000000,0.000000,0.000000
12609298.000000,-2.268668,-1.662746,1.402072,-1.473838,1.687248,1.466047,-0.589617,0.095201,0.003029,1.105776,-0.003931,-0.095007,1.081903,-0.015487,-0.862078,38.618816,-23.774002,-3.102846,0.374845,1.806442,-0.202470,0.000000,0.000000,0.000000,0.000000,0.000000,0.000000
12609299.000000,-2.268580,-1.662744,1.403158,-1.473832,1.687150,1.467124,-0.589626,0.096407,0.002362,1.099479,-0.003411,-0.097343,1.086720,-0.011644,-0.885882,38.595013,-23.896988,-3.079042,0.440763,1.909896,-0.202470,0.000000,0.000000,0.000000,0.000000,0.000000,0.000000
12609300.000000,-2.268489,-1.662736,1.404290,-1.473823,1.687056,1.468228,-0.589638,0.094680,0.004291,1.105424,0.003736,-0.097282,1.091560,-0.010719,-0.909686,38.472027,-24.365128,-3.079042,0.464567,1.858627,-0.149369,0.000000,0.000000,0.000000,0.000000,0.000000,0.000000
