chaoyuefei/paper-gmrm-data/robot_logs/s2_dq_mrm_max_0.30_log_20260314_172749.csv
# time_ms,q_0,q_1,q_2,q_3,q_4,q_5,q_6,dq_0,dq_1,dq_2,dq_3,dq_4,dq_5,dq_6,tau_J_0,tau_J_1,tau_J_2,tau_J_3,tau_J_4,tau_J_5,tau_J_6,O_dP_EE_c_0,O_dP_EE_c_1,O_dP_EE_c_2,O_dP_EE_c_3,O_dP_EE_c_4,O_dP_EE_c_5
11931194.000000,2.313452,-0.961777,-1.822699,-1.385831,-0.923950,1.666948,0.446169,0.000779,0.000411,0.000535,0.000216,-0.000002,-0.000013,0.001826,0.252729,35.484661,19.544785,12.123594,0.996488,1.383468,-0.182328,0.000000,0.000000,0.000000,0.000000,0.000000,0.000000
11931195.000000,2.313452,-0.961781,-1.822699,-1.385831,-0.923952,1.666948,0.446160,0.000520,-0.000932,0.000357,0.000144,-0.000442,-0.000008,-0.001936,0.252729,35.536236,19.544785,12.123594,1.008390,1.383468,-0.097184,0.000000,0.000000,0.000000,0.000000,0.000000,0.000000
11931196.000000,2.313452,-0.961781,-1.822697,-1.385833,-0.923950,1.666952,0.446163,0.000346,-0.000622,0.000795,-0.000461,0.000384,0.000232,-0.000070,0.252729,35.536236,19.520981,12.147398,0.990079,1.377059,-0.130143,0.000000,0.000000,0.000000,0.000000,0.000000,0.000000
11931197.000000,2.313449,-0.961778,-1.822701,-1.385833,-0.923950,1.666950,0.446160,-0.000975,0.000792,-0.000584,-0.000307,0.000256,0.000155,-0.001030,0.304304,35.484661,19.568588,12.147398,0.990079,1.377059,-0.103593,0.000000,0.000000,0.000000,0.000000,0.000000,0.000000
11931198.000000,2.313436,-0.961780,-1.822700,-1.385834,-0.923947,1.666950,0.446171,-0.013437,-0.009760,-0.009152,-0.001411,-0.001763,-0.007262,0.005307,-0.092425,34.972881,19.005234,12.198973,0.906766,1.344100,-0.142960,0.000000,0.000000,0.000000,0.000000,0.000000,0.000000
11931199.000000,2.313416,-0.961749,-1.822711,-1.385834,-0.923933,1.666946,0.446183,-0.029823,-0.010458,-0.024035,-0.002611,-0.001801,-0.008422,0.015764,-1.972918,32.767071,17.140610,12.270384,0.530485,1.305648,-0.089860,0.000000,0.000000,0.000000,0.000000,0.000000,0.000000
11931200.000000,2.313405,-0.961705,-1.822777,-1.385829,-0.923916,1.666930,0.446209,-0.032249,0.006263,-0.043243,-0.001184,0.003556,-0.013172,0.020344,-5.364947,28.875164,14.391281,12.246580,-0.019747,1.370651,-0.064225,0.000000,0.000000,0.000000,0.000000,0.000000,0.000000
11931201.000000,2.313365,-0.961705,-1.822884,-1.385817,-0.923932,1.666913,0.446258,-0.023766,0.013952,-0.057809,0.003294,-0.003655,-0.018676,0.031047,-9.399676,24.788860,10.979416,12.072020,-0.300814,1.494247,-0.110001,0.000000,0.000000,0.000000,0.000000,0.000000,0.000000
11931202.000000,2.313294,-0.961749,-1.823028,-1.385807,-0.923988,1.666916,0.446309,-0.033424,0.002986,-0.072802,0.005369,-0.021421,-0.004726,0.043044,-13.113055,21.190533,7.543747,11.802244,-0.246798,1.487838,-0.031266,0.000000,0.000000,0.000000,0.000000,0.000000,0.000000
11931203.000000,2.313200,-0.961842,-1.823187,-1.385818,-0.924072,1.666966,0.446389,-0.041758,-0.017307,-0.086088,-0.000267,-0.040691,0.016368,0.057845,-16.481279,18.203167,4.350082,11.703062,0.004056,1.188461,-0.083451,0.000000,0.000000,0.000000,0.000000,0.000000,0.000000
11931204.000000,2.313088,-0.961968,-1.823342,-1.385839,-0.924172,1.667068,0.446476,-0.042859,-0.044417,-0.092145,-0.009269,-0.059098,0.042526,0.068726,-18.881487,16.124310,1.628525,11.405516,0.249418,0.583297,-0.004716,0.000000,0.000000,0.000000,0.000000,0.000000,0.000000
11931205.000000,2.312994,-0.962117,-1.823494,-1.385873,-0.924274,1.667218,0.446583,-0.044237,-0.067951,-0.103106,-0.020001,-0.068437,0.084298,0.084256,-20.143084,14.922222,-0.164688,10.715208,0.405057,-0.203141,0.009017,0.000000,0.000000,0.000000,0.000000,0.000000,0.000000
11931206.000000,2.312915,-0.962300,-1.823629,-1.385929,-0.924385,1.667378,0.446710,-0.048625,-0.100593,-0.105372,-0.034552,-0.087031,0.113650,0.096493,-20.317644,14.581036,-1.319168,9.751158,0.488370,-0.743302,-0.011124,0.000000,0.000000,0.000000,0.000000,0.000000,0.000000
11931207.000000,2.312858,-0.962477,-1.823741,-1.386001,-0.924499,1.667541,0.446844,-0.053327,-0.121831,-0.104822,-0.046103,-0.092998,0.137514,0.110073,-19.722551,14.557232,-1.930130,8.342772,0.374845,-0.873307,-0.004716,0.000000,0.000000,0.000000,0.000000,0.000000,0.000000
11931208.000000,2.312808,-0.962635,-1.823851,-1.386091,-0.924604,1.667705,0.446994,-0.056292,-0.129729,-0.108982,-0.060829,-0.097655,0.149217,0.121720,-18.560137,14.458050,-1.957901,6.684447,0.015958,-0.580338,-0.056901,0.000000,0.000000,0.000000,0.000000,0.000000,0.000000
11931209.000000,2.312750,-0.962759,-1.823949,-1.386222,-0.924702,1.667889,0.447136,-0.062363,-0.129624,-0.108021,-0.079617,-0.094501,0.157331,0.127214,-16.925615,14.041485,-1.759537,5.200682,-0.455538,-0.209550,-0.011124,0.000000,0.000000,0.000000,0.000000,0.000000,0.000000
11931210.000000,2.312685,-0.962842,-1.824042,-1.386397,-0.924818,1.668121,0.447293,-0.070191,-0.113727,-0.107309,-0.105623,-0.100201,0.173863,0.140898,-15.144305,13.089336,-1.465958,4.189024,-0.868441,0.023910,-0.089860,0.000000,0.000000,0.000000,0.000000,0.000000,0.000000
11931211.000000,2.312605,-0.962901,-1.824152,-1.386608,-0.924971,1.668376,0.447450,-0.079918,-0.096975,-0.113333,-0.131714,-0.113934,0.195139,0.141653,-13.212237,11.792034,-0.950211,3.593931,-1.041476,0.167648,-0.083451,0.000000,0.000000,0.000000,0.000000,0.000000,0.000000
11931212.000000,2.312494,-0.962939,-1.824268,-1.386860,-0.925177,1.668660,0.447606,-0.093596,-0.078966,-0.119348,-0.166747,-0.142870,0.224640,0.148850,-10.935016,10.320171,-0.434464,3.371763,-0.826327,0.297652,-0.004716,0.000000,0.000000,0.000000,0.000000,0.000000,0.000000
11931213.000000,2.312369,-0.962979,-1.824393,-1.387125,-0.925417,1.668977,0.447777,-0.107211,-0.061742,-0.125455,-0.191847,-0.175192,0.248266,0.157108,-8.681598,8.951458,0.057480,3.272581,-0.414340,0.381881,-0.077042,0.000000,0.000000,0.000000,0.000000,0.000000,0.000000
11931214.000000,2.312227,-0.963032,-1.824525,-1.387411,-0.925681,1.669317,0.447936,-0.119876,-0.061246,-0.132506,-0.218800,-0.207419,0.278516,0.157819,-6.404376,7.923931,0.426437,3.470946,0.105680,0.369064,-0.011124,0.000000,0.000000,0.000000,0.000000,0.000000,0.000000
11931215.000000,2.312077,-0.963100,-1.824654,-1.387726,-0.925944,1.669680,0.448104,-0.131410,-0.064245,-0.134790,-0.245231,-0.227417,0.301262,0.160880,-4.277911,7.213787,0.573227,3.816099,0.452665,0.329696,-0.017533,0.000000,0.000000,0.000000,0.000000,0.000000,0.000000
11931216.000000,2.311932,-0.963185,-1.824798,-1.388025,-0.926183,1.670071,0.448269,-0.134226,-0.072405,-0.137551,-0.263871,-0.227378,0.332652,0.160227,-2.520403,6.797222,0.720016,3.867674,0.452665,0.251876,0.034652,0.000000,0.000000,0.000000,0.000000,0.000000,0.000000
11931217.000000,2.311797,-0.963301,-1.824942,-1.388313,-0.926409,1.670481,0.448445,-0.133575,-0.085005,-0.136812,-0.268960,-0.225590,0.357059,0.168753,-1.032672,6.967815,0.866806,3.570128,0.195402,0.264693,-0.023942,0.000000,0.000000,0.000000,0.000000,0.000000,0.000000
11931218.000000,2.311696,-0.963453,-1.825077,-1.388600,-0.926635,1.670886,0.448613,-0.118791,-0.109430,-0.134211,-0.269067,-0.219941,0.373848,0.168062,0.078168,7.848553,1.184189,3.002806,-0.085665,0.532027,0.001693,0.000000,0.000000,0.000000,0.000000,0.000000,0.000000
11931219.000000,2.311596,-0.963632,-1.825214,-1.388873,-0.926856,1.671313,0.448796,-0.107820,-0.132953,-0.134090,-0.262692,-0.213890,0.387853,0.169160,1.268354,9.344219,1.874496,2.260924,-0.312716,0.804855,-0.037675,0.000000,0.000000,0.000000,0.000000,0.000000,0.000000
11931220.000000,2.311490,-0.963816,-1.825352,-1.389154,-0.927080,1.671789,0.448967,-0.105829,-0.153256,-0.138421,-0.265241,-0.211977,0.410829,0.169374,2.553754,10.935101,2.779037,1.519041,-0.467440,0.863448,-0.037675,0.000000,0.000000,0.000000,0.000000,0.000000,0.000000
11931221.000000,2.311387,-0.963986,-1.825492,-1.389463,-0.927309,1.672312,0.449134,-0.105777,-0.159096,-0.140549,-0.280728,-0.224388,0.445972,0.171990,3.767744,12.232403,3.810531,1.050902,-0.485751,0.674850,0.009017,0.000000,0.000000,0.000000,0.000000,0.000000,0.000000
11931222.000000,2.311296,-0.964141,-1.825635,-1.389778,-0.927564,1.672866,0.449317,-0.100844,-0.157831,-0.142200,-0.296756,-0.232234,0.476764,0.174063,4.759565,13.184551,4.893600,0.701781,-0.324618,0.336105,-0.056901,0.000000,0.000000,0.000000,0.000000,0.000000,0.000000
11931223.000000,2.311198,-0.964284,-1.825772,-1.390109,-0.927834,1.673420,0.449484,-0.100086,-0.154744,-0.142959,-0.304035,-0.241337,0.498658,0.165715,5.822797,13.771709,5.849716,0.380431,-0.037142,0.082504,0.001693,0.000000,0.000000,0.000000,0.000000,0.000000,0.000000
11931224.000000,2.311099,-0.964415,-1.825894,-1.390450,-0.928101,1.673954,0.449651,-0.097540,-0.144610,-0.140261,-0.319372,-0.251428,0.508821,0.164780,6.814619,13.993877,6.536057,0.209837,0.207303,0.134689,0.028243,0.000000,0.000000,0.000000,0.000000,0.000000,0.000000
11931225.000000,2.311018,-0.964520,-1.826033,-1.390810,-0.928365,1.674482,0.449829,-0.093107,-0.135483,-0.145475,-0.329718,-0.254630,0.504094,0.173044,7.405744,13.676495,7.246201,0.059080,0.374845,0.310470,-0.031266,0.000000,0.000000,0.000000,0.000000,0.000000,0.000000
11931226.000000,2.310953,-0.964624,-1.826163,-1.391187,-0.928625,1.675030,0.450003,-0.083456,-0.126456,-0.140889,-0.348979,-0.258923,0.514089,0.175858,7.679487,13.065533,7.591354,-0.036134,0.422452,0.362655,-0.011124,0.000000,0.000000,0.000000,0.000000,0.000000,0.000000
11931227.000000,2.310898,-0.964728,-1.826308,-1.391561,-0.928878,1.675559,0.450179,-0.071289,-0.118503,-0.140646,-0.354965,-0.259135,0.513294,0.174338,7.703290,12.327618,7.908737,-0.234499,0.291532,0.421249,-0.011124,0.000000,0.000000,0.000000,0.000000,0.000000,0.000000
11931228.000000,2.310847,-0.964850,-1.826452,-1.391948,-0.929128,1.676086,0.450350,-0.062262,-0.117926,-0.141528,-0.359316,-0.258700,0.515067,0.171442,7.655683,11.740459,8.107101,-0.385256,0.105680,0.511886,0.015426,0.000000,0.000000,0.000000,0.000000,0.000000,0.000000
11931229.000000,2.310803,-0.964993,-1.826608,-1.392329,-0.929383,1.676583,0.450529,-0.053265,-0.120365,-0.144927,-0.366520,-0.256816,0.508488,0.171279,7.481122,11.399273,8.253891,-0.730409,0.004056,0.720626,-0.004716,0.000000,0.000000,0.000000,0.000000,0.000000,0.000000
11931230.000000,2.310774,-0.965158,-1.826780,-1.392718,-0.929648,1.677091,0.450698,-0.045014,-0.136600,-0.150957,-0.364544,-0.260510,0.512431,0.172774,7.060590,11.375469,8.523666,-1.150941,0.010465,0.824081,0.034652,0.000000,0.000000,0.000000,0.000000,0.000000,0.000000
11931231.000000,2.310741,-0.965357,-1.826950,-1.393116,-0.929930,1.677612,0.450872,-0.039963,-0.158250,-0.157002,-0.371320,-0.266603,0.513106,0.173460,6.640058,11.692852,8.722031,-1.472292,0.141385,0.739852,0.001693,0.000000,0.000000,0.000000,0.000000,0.000000,0.000000
11931232.000000,2.310700,-0.965580,-1.827119,-1.393506,-0.930219,1.678133,0.451046,-0.039244,-0.183070,-0.162178,-0.371420,-0.271327,0.514040,0.171860,6.044965,12.327618,8.817245,-1.472292,0.273221,0.518295,0.009017,0.000000,0.000000,0.000000,0.000000,0.000000,0.000000
11931233.000000,2.310661,-0.965824,-1.827289,-1.393895,-0.930508,1.678658,0.451216,-0.044810,-0.202175,-0.166583,-0.371140,-0.277571,0.519980,0.170527,5.180097,13.259930,8.892624,-1.150941,0.386747,0.362655,0.034652,0.000000,0.000000,0.000000,0.000000,0.000000,0.000000
11931234.000000,2.310606,-0.966083,-1.827455,-1.394272,-0.930795,1.679183,0.451394,-0.046017,-0.217741,-0.164315,-0.373511,-0.277005,0.522379,0.170742,4.239851,14.434246,8.868820,-0.456667,0.464567,0.264693,-0.011124,0.000000,0.000000,0.000000,0.000000,0.000000,0.000000
11931235.000000,2.310547,-0.966350,-1.827620,-1.394636,-0.931072,1.679700,0.451563,-0.044512,-0.233400,-0.162536,-0.367135,-0.278014,0.526210,0.171828,3.172651,15.854534,8.964035,0.380431,0.458158,0.226241,0.048385,0.000000,0.000000,0.000000,0.000000,0.000000,0.000000
11931236.000000,2.310484,-0.966624,-1.827774,-1.395014,-0.931358,1.680213,0.451735,-0.045547,-0.244729,-0.158041,-0.367038,-0.283069,0.520806,0.171484,2.283979,17.445415,9.186203,1.642027,0.440763,0.375472,0.041976,0.000000,0.000000,0.000000,0.000000,0.000000,0.000000
11931237.000000,2.310402,-0.966900,-1.827919,-1.395402,-0.931629,1.680713,0.451909,-0.055527,-0.253271,-0.153411,-0.378211,-0.279857,0.517321,0.170746,1.665082,19.230694,9.507553,3.248778,0.356534,0.564071,0.021835,0.000000,0.000000,0.000000,0.000000,0.000000,0.000000
11931238.000000,2.310303,-0.967159,-1.828059,-1.395792,-0.931888,1.681235,0.452070,-0.065299,-0.257005,-0.149498,-0.381169,-0.272250,0.517690,0.172015,1.415143,20.944561,9.947922,4.907103,0.141385,0.687667,0.061202,0.000000,0.000000,0.000000,0.000000,0.000000,0.000000
11931239.000000,2.310208,-0.967413,-1.828194,-1.396188,-0.932137,1.681764,0.452240,-0.073309,-0.256320,-0.143929,-0.392818,-0.263888,0.516549,0.172206,1.244550,22.559246,10.439865,6.561461,-0.019747,0.746261,0.041976,0.000000,0.000000,0.000000,0.000000,0.000000,0.000000
11931240.000000,2.310107,-0.967653,-1.828334,-1.396603,-0.932402,1.682278,0.452408,-0.080470,-0.253869,-0.142104,-0.401509,-0.265509,0.512211,0.170030,1.145368,23.955730,11.050827,8.192015,-0.037142,0.895492,0.087753,0.000000,0.000000,0.000000,0.000000,0.000000,0.000000
11931241.000000,2.310007,-0.967903,-1.828479,-1.397024,-0.932678,1.682776,0.452587,-0.086840,-0.252495,-0.142189,-0.411566,-0.271899,0.502307,0.172198,1.121564,25.229229,11.741135,9.576597,0.004056,1.201278,0.034652,0.000000,0.000000,0.000000,0.000000,0.000000,0.000000
11931242.000000,2.309894,-0.968159,-1.828628,-1.397440,-0.932948,1.683254,0.452759,-0.094688,-0.252180,-0.143117,-0.413860,-0.269849,0.500883,0.170864,1.244550,26.355938,12.352097,10.715208,0.123990,1.513473,0.041976,0.000000,0.000000,0.000000,0.000000,0.000000,0.000000
11931243.000000,2.309779,-0.968418,-1.828796,-1.397867,-0.933217,1.683748,0.452928,-0.097664,-0.255865,-0.150903,-0.417102,-0.267931,0.496843,0.170449,1.415143,27.383465,13.137619,11.679258,0.249418,1.682845,0.048385,0.000000,0.000000,0.000000,0.000000,0.000000,0.000000
11931244.000000,2.309675,-0.968693,-1.828963,-1.398294,-0.933481,1.684255,0.453100,-0.099653,-0.262016,-0.156581,-0.421910,-0.270261,0.493846,0.170571,1.466718,28.410992,13.800156,12.270384,0.303434,1.591293,0.041976,0.000000,0.000000,0.000000,0.000000,0.000000,0.000000
11931245.000000,2.309560,-0.968975,-1.829140,-1.398711,-0.933739,1.684755,0.453264,-0.104469,-0.272372,-0.162573,-0.418418,-0.270778,0.491655,0.163821,1.665082,29.390911,14.415085,12.619505,0.243009,1.487838,0.087753,0.000000,0.000000,0.000000,0.000000,0.000000,0.000000
11931246.000000,2.309441,-0.969284,-1.829319,-1.399126,-0.934005,1.685235,0.453436,-0.109432,-0.281967,-0.171344,-0.412046,-0.271540,0.482752,0.166809,1.934858,30.517620,14.930832,12.619505,0.178007,1.539108,0.054794,0.000000,0.000000,0.000000,0.000000,0.000000,0.000000
11931247.000000,2.309327,-0.969616,-1.829508,-1.399521,-0.934270,1.685691,0.453606,-0.110921,-0.295843,-0.176610,-0.406324,-0.269378,0.479085,0.165923,2.109418,31.715740,15.395004,12.393370,0.159696,1.649886,0.061202,0.000000,0.000000,0.000000,0.000000,0.000000,0.000000
11931248.000000,2.309201,-0.969940,-1.829710,-1.399922,-0.934537,1.686158,0.453781,-0.115403,-0.309792,-0.183820,-0.401987,-0.267780,0.472543,0.175345,2.454572,32.767071,15.839340,12.024412,0.147794,1.754256,0.041976,0.000000,0.000000,0.000000,0.000000,0.000000,0.000000
11931249.000000,2.309072,-0.970266,-1.829910,-1.400328,-0.934803,1.686638,0.453943,-0.119442,-0.313054,-0.188023,-0.398478,-0.269751,0.468677,0.171811,2.803693,33.552593,16.232101,11.750669,0.100187,1.689254,0.100570,0.000000,0.000000,0.000000,0.000000,0.000000,0.000000
11931250.000000,2.308940,-0.970580,-1.830118,-1.400722,-0.935074,1.687125,0.454120,-0.121245,-0.318291,-0.194341,-0.392140,-0.273067,0.479092,0.174090,3.148847,34.088177,16.624863,11.405516,0.058073,1.519881,0.028243,0.000000,0.000000,0.000000,0.000000,0.000000,0.000000
11931251.000000,2.308819,-0.970894,-1.830339,-1.401121,-0.935354,1.687608,0.454279,-0.122835,-0.317906,-0.209533,-0.390683,-0.271670,0.479033,0.169217,3.398786,34.457134,17.089035,11.183348,0.076383,1.422836,0.081344,0.000000,0.000000,0.000000,0.000000,0.000000,0.000000
11931252.000000,2.308699,-0.971200,-1.830574,-1.401504,-0.935639,1.688070,0.454448,-0.122311,-0.311629,-0.220467,-0.388121,-0.266983,0.472485,0.169954,3.545576,34.504742,17.628586,10.814390,0.201810,1.494247,0.054794,0.000000,0.000000,0.000000,0.000000,0.000000,0.000000
11931253.000000,2.308576,-0.971495,-1.830816,-1.401881,-0.935922,1.688529,0.454613,-0.121901,-0.302258,-0.229140,-0.386164,-0.270320,0.470153,0.164413,3.692365,34.457134,18.195908,10.540648,0.320829,1.630660,0.048385,0.000000,0.000000,0.000000,0.000000,0.000000,0.000000
11931254.000000,2.308464,-0.971778,-1.831057,-1.402262,-0.936209,1.688993,0.454775,-0.119767,-0.294733,-0.238202,-0.381437,-0.275991,0.464952,0.168869,3.743940,34.187359,18.735458,10.318480,0.405057,1.721298,0.087753,0.000000,0.000000,0.000000,0.000000,0.000000,0.000000
11931255.000000,2.308358,-0.972064,-1.831308,-1.402634,-0.936491,1.689462,0.454954,-0.117483,-0.287101,-0.244764,-0.378619,-0.272852,0.473632,0.171635,3.743940,33.941387,19.275009,10.219297,0.405057,1.741439,0.015426,0.000000,0.000000,0.000000,0.000000,0.000000,0.000000
11931256.000000,2.308248,-0.972340,-1.831561,-1.403015,-0.936772,1.689941,0.455118,-0.115954,-0.279657,-0.247572,-0.373093,-0.273093,0.473767,0.164875,3.743940,33.699383,19.715378,10.171690,0.369352,1.689254,0.054794,0.000000,0.000000,0.000000,0.000000,0.000000,0.000000
11931257.000000,2.308145,-0.972633,-1.831813,-1.403381,-0.937044,1.690407,0.455288,-0.113510,-0.283106,-0.249206,-0.368994,-0.268789,0.471353,0.165849,3.692365,33.600201,20.131943,10.048704,0.315336,1.702071,0.041976,0.000000,0.000000,0.000000,0.000000,0.000000,0.000000
11931258.000000,2.308036,-0.972926,-1.832073,-1.403761,-0.937335,1.690861,0.455460,-0.109596,-0.279837,-0.252177,-0.370531,-0.275883,0.465054,0.167270,3.668561,33.624004,20.500900,9.997129,0.381254,1.838485,0.034652,0.000000,0.000000,0.000000,0.000000,0.000000,0.000000
11931259.000000,2.307942,-0.973231,-1.832336,-1.404133,-0.937635,1.691312,0.455625,-0.107694,-0.288588,-0.254029,-0.366154,-0.280937,0.458743,0.162205,3.521772,33.869976,20.822250,9.897947,0.476469,2.007858,0.041976,0.000000,0.000000,0.000000,0.000000,0.000000,0.000000
11931260.000000,2.307850,-0.973541,-1.832604,-1.404505,-0.937923,1.691768,0.455798,-0.101268,-0.292407,-0.256154,-0.370186,-0.281901,0.461468,0.165467,3.323408,34.040569,21.163437,9.850340,0.500272,2.020675,-0.011124,0.000000,0.000000,0.000000,0.000000,0.000000,0.000000
11931261.000000,2.307754,-0.973839,-1.832867,-1.404880,-0.938216,1.692245,0.455956,-0.098987,-0.293002,-0.258623,-0.365660,-0.283747,0.467206,0.163169,3.200422,34.115948,21.409409,9.798765,0.554288,1.916305,0.074935,0.000000,0.000000,0.000000,0.000000,0.000000,0.000000
11931262.000000,2.307674,-0.974149,-1.833122,-1.405271,-0.938505,1.692721,0.456126,-0.091076,-0.298401,-0.258921,-0.376907,-0.285404,0.463458,0.166055,2.950483,34.310345,21.580002,9.897947,0.571683,1.754256,0.048385,0.000000,0.000000,0.000000,0.000000,0.000000,0.000000
11931263.000000,2.307599,-0.974460,-1.833392,-1.405653,-0.938792,1.693186,0.456300,-0.083574,-0.306606,-0.257097,-0.378441,-0.283418,0.464124,0.167458,2.652936,34.457134,21.802170,9.997129,0.535978,1.741439,0.021835,0.000000,0.000000,0.000000,0.000000,0.000000,0.000000
11931264.000000,2.307532,-0.974778,-1.833641,-1.406034,-0.939091,1.693640,0.456465,-0.078379,-0.310610,-0.261404,-0.379075,-0.284871,0.462874,0.165574,2.331586,34.651531,21.778366,10.020933,0.596403,1.890670,0.028243,0.000000,0.000000,0.000000,0.000000,0.000000,0.000000
11931265.000000,2.307473,-0.975090,-1.833896,-1.406411,-0.939371,1.694087,0.456625,-0.071875,-0.311986,-0.256272,-0.378906,-0.283583,0.459199,0.159701,1.887250,34.703106,21.825974,10.072508,0.578092,2.007858,0.061202,0.000000,0.000000,0.000000,0.000000,0.000000,0.000000
11931266.000000,2.307419,-0.975399,-1.834153,-1.406803,-0.939647,1.694560,0.456792,-0.063820,-0.309418,-0.254039,-0.383344,-0.280993,0.455920,0.163368,1.415143,34.726910,21.802170,10.243101,0.488370,2.039901,0.034652,0.000000,0.000000,0.000000,0.000000,0.000000,0.000000
11931267.000000,2.307369,-0.975703,-1.834400,-1.407208,-0.939948,1.695036,0.456951,-0.059589,-0.304942,-0.252051,-0.386362,-0.286890,0.463700,0.165042,1.022382,34.651531,21.754562,10.516844,0.500272,2.001449,0.034652,0.000000,0.000000,0.000000,0.000000,0.000000,0.000000
11931268.000000,2.307319,-0.976012,-1.834646,-1.407604,-0.940236,1.695508,0.457114,-0.056242,-0.309144,-0.243943,-0.391402,-0.289746,0.466360,0.164512,0.625654,34.580120,21.702988,10.739012,0.464567,1.936446,0.054794,0.000000,0.000000,0.000000,0.000000,0.000000,0.000000
11931269.000000,2.307280,-0.976320,-1.834891,-1.408007,-0.940534,1.695990,0.457281,-0.052506,-0.308968,-0.242997,-0.393011,-0.289639,0.468249,0.162215,0.177350,34.504742,21.702988,10.913572,0.512174,1.890670,0.028243,0.000000,0.000000,0.000000,0.000000,0.000000,0.000000
11931270.000000,2.307243,-0.976631,-1.835130,-1.408408,-0.940824,1.696460,0.457445,-0.050610,-0.310739,-0.239210,-0.395213,-0.291108,0.464848,0.161204,-0.266986,34.504742,21.580002,11.084166,0.584501,1.968490,0.081344,0.000000,0.000000,0.000000,0.000000,0.000000,0.000000
11931271.000000,2.307209,-0.976935,-1.835372,-1.408819,-0.941128,1.696924,0.457624,-0.045694,-0.310161,-0.236915,-0.397018,-0.294443,0.466345,0.165875,-0.711321,34.433331,21.484787,11.282530,0.601896,2.053634,0.015426,0.000000,0.000000,0.000000,0.000000,0.000000,0.000000
11931272.000000,2.307179,-0.977246,-1.835596,-1.409232,-0.941426,1.697401,0.457795,-0.043236,-0.309881,-0.231574,-0.397156,-0.290805,0.466758,0.166340,-1.108050,34.457134,21.215012,11.480894,0.566190,2.020675,-0.004716,0.000000,0.000000,0.000000,0.000000,0.000000,0.000000
11931273.000000,2.307151,-0.977572,-1.835826,-1.409643,-0.941721,1.697871,0.457952,-0.038209,-0.315538,-0.225837,-0.401263,-0.288719,0.473372,0.162883,-1.504779,34.627728,20.992844,11.679258,0.554288,1.949264,0.094161,0.000000,0.000000,0.000000,0.000000,0.000000,0.000000
11931276.000000,2.307070,-0.978578,-1.836463,-1.410871,-0.942603,1.699288,0.458460,-0.027824,-0.327344,-0.215615,-0.400159,-0.291488,0.468729,0.174090,-2.445025,35.631451,20.330307,12.048216,0.530485,1.897079,0.061202,0.000000,0.000000,0.000000,0.000000,0.000000,0.000000
11931277.000000,2.307051,-0.978926,-1.836665,-1.411286,-0.942901,1.699760,0.458633,-0.024733,-0.331337,-0.211928,-0.402028,-0.289275,0.464277,0.176056,-2.766375,36.000408,20.131943,12.123594,0.535978,1.865035,0.034652,0.000000,0.000000,0.000000,0.000000,0.000000,0.000000
11931278.000000,2.307025,-0.979287,-1.836869,-1.411686,-0.943185,1.700223,0.458796,-0.024694,-0.341977,-0.207259,-0.397511,-0.290881,0.463398,0.167385,-2.988543,36.416973,19.985153,12.147398,0.494779,1.786300,0.087753,0.000000,0.000000,0.000000,0.000000,0.000000,0.000000
11931279.000000,2.306996,-0.979636,-1.837070,-1.412109,-0.943471,1.700705,0.458964,-0.026112,-0.345913,-0.199908,-0.401960,-0.287430,0.462113,0.167950,-3.139300,36.658978,19.814560,12.369566,0.452665,1.708480,0.094161,0.000000,0.000000,0.000000,0.000000,0.000000,0.000000
11931280.000000,2.306968,-0.979986,-1.837270,-1.412519,-0.943768,1.701184,0.459133,-0.027969,-0.345456,-0.198950,-0.410151,-0.286775,0.462331,0.168534,-3.262286,36.952557,19.715378,12.567930,0.440763,1.702071,0.081344,0.000000,0.000000,0.000000,0.000000,0.000000,0.000000
11931281.000000,2.306933,-0.980341,-1.837471,-1.412931,-0.944055,1.701650,0.459307,-0.030637,-0.353584,-0.196485,-0.407313,-0.285657,0.465710,0.166340,-3.309893,37.246136,19.691574,12.643309,0.428861,1.754256,0.021835,0.000000,0.000000,0.000000,0.000000,0.000000,0.000000
11931282.000000,2.306895,-0.980692,-1.837664,-1.413349,-0.944337,1.702126,0.459464,-0.034728,-0.354392,-0.201603,-0.404607,-0.280232,0.467587,0.164537,-3.238482,37.444500,19.616196,12.790098,0.410551,1.793624,0.094161,0.000000,0.000000,0.000000,0.000000,0.000000,0.000000
11931283.000000,2.306856,-0.981045,-1.837858,-1.413762,-0.944615,1.702590,0.459640,-0.037172,-0.355198,-0.200945,-0.405769,-0.280529,0.466218,0.166674,-3.186907,37.567486,19.568588,12.940855,0.393156,1.819259,0.041976,0.000000,0.000000,0.000000,0.000000,0.000000,0.000000
11931284.000000,2.306810,-0.981389,-1.838059,-1.414182,-0.944898,1.703066,0.459815,-0.040088,-0.345192,-0.201681,-0.406939,-0.280414,0.469859,0.169746,-3.063921,37.615093,19.568588,13.210630,0.339139,1.838485,0.041976,0.000000,0.000000,0.000000,0.000000,0.000000,0.000000
11931285.000000,2.306762,-0.981733,-1.838257,-1.414604,-0.945184,1.703549,0.459984,-0.043010,-0.344045,-0.199509,-0.404099,-0.281091,0.474006,0.169423,-2.917132,37.686504,19.592392,13.408995,0.327238,1.806442,0.048385,0.000000,0.000000,0.000000,0.000000,0.000000,0.000000
11931286.000000,2.306710,-0.982095,-1.838464,-1.415012,-0.945469,1.704018,0.460156,-0.045856,-0.345647,-0.201524,-0.403716,-0.283238,0.476475,0.169323,-2.718768,37.956280,19.667770,13.555784,0.356534,1.806442,0.048385,0.000000,0.000000,0.000000,0.000000,0.000000,0.000000
11931287.000000,2.306652,-0.982445,-1.838671,-1.415425,-0.945750,1.704485,0.460328,-0.048009,-0.344747,-0.204061,-0.404795,-0.283526,0.470765,0.171258,-2.492632,38.154644,19.766953,13.654966,0.374845,1.890670,0.074935,0.000000,0.000000,0.000000,0.000000,0.000000,0.000000
11931288.000000,2.306589,-0.982811,-1.838877,-1.415830,-0.946038,1.704956,0.460504,-0.051423,-0.351642,-0.203940,-0.405229,-0.285315,0.470742,0.172459,-2.199053,38.396648,19.790756,13.678770,0.405057,1.871444,0.028243,0.000000,0.000000,0.000000,0.000000,0.000000,0.000000
11931289.000000,2.306522,-0.983173,-1.839092,-1.416227,-0.946330,1.705432,0.460667,-0.056455,-0.354465,-0.206179,-0.402065,-0.284394,0.477489,0.165227,-1.925311,38.690228,19.937546,13.631163,0.398649,1.779891,0.074935,0.000000,0.000000,0.000000,0.000000,0.000000,0.000000
11931290.000000,2.306459,-0.983538,-1.839300,-1.416622,-0.946618,1.705908,0.460841,-0.059261,-0.363336,-0.210150,-0.394856,-0.284063,0.480509,0.168222,-1.679339,38.983807,20.036728,13.531981,0.386747,1.714889,0.028243,0.000000,0.000000,0.000000,0.000000,0.000000,0.000000
11931291.000000,2.306389,-0.983918,-1.839515,-1.417002,-0.946897,1.706364,0.461007,-0.065830,-0.367383,-0.210892,-0.391723,-0.282908,0.474918,0.166160,-1.381793,39.328960,20.183517,13.262205,0.356534,1.754256,0.067611,0.000000,0.000000,0.000000,0.000000,0.000000,0.000000
11931292.000000,2.306319,-0.984289,-1.839739,-1.417383,-0.947188,1.706823,0.461175,-0.066767,-0.370091,-0.216347,-0.383411,-0.288940,0.469467,0.166939,-1.108050,39.646343,20.401718,13.012266,0.351041,1.844894,0.074935,0.000000,0.000000,0.000000,0.000000,0.000000,0.000000
11931293.000000,2.306236,-0.984671,-1.839963,-1.417767,-0.947490,1.707288,0.461341,-0.071072,-0.373021,-0.220220,-0.389512,-0.287676,0.463230,0.163231,-0.687518,39.916119,20.623886,12.790098,0.351041,1.865035,0.067611,0.000000,0.000000,0.000000,0.000000,0.000000,0.000000
11931294.000000,2.306161,-0.985035,-1.840191,-1.418144,-0.947783,1.707748,0.461506,-0.070439,-0.360508,-0.219478,-0.382856,-0.291455,0.466478,0.159568,-0.413775,40.062908,20.846054,12.591734,0.327238,1.800033,0.081344,0.000000,0.000000,0.000000,0.000000,0.000000,0.000000
11931295.000000,2.306078,-0.985393,-1.840423,-1.418523,-0.948079,1.708221,0.461668,-0.075014,-0.356721,-0.223322,-0.380770,-0.289020,0.467216,0.161801,-0.068621,40.039104,21.115829,12.369566,0.320829,1.747848,0.074935,0.000000,0.000000,0.000000,0.000000,0.000000,0.000000
11931296.000000,2.305982,-0.985745,-1.840663,-1.418905,-0.948378,1.708677,0.461829,-0.081178,-0.354702,-0.228799,-0.383354,-0.294756,0.456487,0.158117,0.403486,39.939922,21.361801,12.270384,0.369352,1.747848,0.087753,0.000000,0.000000,0.000000,0.000000,0.000000,0.000000
11931297.000000,2.305889,-0.986098,-1.840897,-1.419274,-0.948687,1.709146,0.461996,-0.083361,-0.356344,-0.229062,-0.379951,-0.297393,0.457510,0.163471,0.772443,39.916119,21.580002,12.123594,0.393156,1.773483,0.021835,0.000000,0.000000,0.000000,0.000000,0.000000,0.000000
11931298.000000,2.305801,-0.986437,-1.841139,-1.419637,-0.949004,1.709606,0.462153,-0.086666,-0.346200,-0.235285,-0.383396,-0.297639,0.456742,0.162246,1.093793,39.693951,21.925156,11.949034,0.488370,1.832076,0.094161,0.000000,0.000000,0.000000,0.000000,0.000000,0.000000
11931299.000000,2.305704,-0.986764,-1.841375,-1.420003,-0.949302,1.710052,0.462326,-0.090950,-0.345376,-0.235246,-0.378763,-0.297672,0.457206,0.166092,1.466718,39.523357,22.095749,11.849852,0.470060,1.897079,0.034652,0.000000,0.000000,0.000000,0.000000,0.000000,0.000000
11931300.000000,2.305614,-0.987097,-1.841622,-1.420365,-0.949609,1.710507,0.462487,-0.091553,-0.344373,-0.243735,-0.373623,-0.296588,0.453260,0.161983,1.740461,39.305157,22.393295,11.655455,0.434354,1.949264,0.041976,0.000000,0.000000,0.000000,0.000000,0.000000,0.000000
11931301.000000,2.305522,-0.987434,-1.841867,-1.420720,-0.949920,1.710962,0.462651,-0.090664,-0.341033,-0.242506,-0.370767,-0.302665,0.452864,0.162237,1.962629,39.182171,22.587692,11.480894,0.428861,1.942855,0.054794,0.000000,0.000000,0.000000,0.000000,0.000000,0.000000
11931302.000000,2.305431,-0.987769,-1.842116,-1.421065,-0.950233,1.711426,0.462819,-0.089324,-0.341155,-0.243285,-0.362708,-0.299848,0.456864,0.162731,2.133222,39.035381,22.857468,11.183348,0.440763,1.916305,0.041976,0.000000,0.000000,0.000000,0.000000,0.000000,0.000000
11931303.000000,2.305341,-0.988113,-1.842371,-1.421407,-0.950542,1.711881,0.462982,-0.088383,-0.340065,-0.244326,-0.352507,-0.295987,0.448573,0.163979,2.307783,38.983807,23.127243,10.885801,0.452665,1.942855,0.054794,0.000000,0.000000,0.000000,0.000000,0.000000,0.000000
11931304.000000,2.305256,-0.988447,-1.842626,-1.421742,-0.950860,1.712323,0.463147,-0.089731,-0.338584,-0.246398,-0.345768,-0.310698,0.444397,0.165355,2.430768,38.813213,23.349411,10.540648,0.518583,1.955673,0.041976,0.000000,0.000000,0.000000,0.000000,0.000000,0.000000
11931305.000000,2.305173,-0.988781,-1.842878,-1.422083,-0.951185,1.712774,0.463307,-0.089430,-0.336702,-0.245217,-0.338382,-0.309869,0.444350,0.167777,2.482343,38.690228,23.567612,10.318480,0.578092,1.988631,0.074935,0.000000,0.000000,0.000000,0.000000,0.000000,0.000000
11931306.000000,2.305086,-0.989115,-1.843126,-1.422420,-0.951501,1.713237,0.463482,-0.088407,-0.336105,-0.247505,-0.342916,-0.310369,0.451668,0.170520,2.629133,38.571209,23.789780,10.096312,0.632108,1.942855,-0.004716,0.000000,0.000000,0.000000,0.000000,0.000000,0.000000
11931307.000000,2.305003,-0.989446,-1.843380,-1.422756,-0.951815,1.713689,0.463642,-0.081651,-0.333414,-0.250962,-0.339802,-0.307793,0.448361,0.167782,2.652936,38.372845,23.960373,9.949522,0.625699,1.897079,0.061202,0.000000,0.000000,0.000000,0.000000,0.000000,0.000000
11931308.000000,2.304923,-0.989778,-1.843624,-1.423091,-0.952138,1.714146,0.463805,-0.080318,-0.326891,-0.244684,-0.337994,-0.309864,0.450798,0.163308,2.680707,38.226055,24.011948,9.874144,0.608304,1.909896,0.067611,0.000000,0.000000,0.000000,0.000000,0.000000,0.000000
11931309.000000,2.304847,-0.990110,-1.843867,-1.423425,-0.952457,1.714596,0.463978,-0.078095,-0.327349,-0.243639,-0.333351,-0.312417,0.450318,0.166684,2.652936,38.079266,24.059555,9.822569,0.608304,1.909896,0.009017,0.000000,0.000000,0.000000,0.000000,0.000000,0.000000
11931310.000000,2.304774,-0.990430,-1.844124,-1.423759,-0.952780,1.715047,0.464147,-0.076050,-0.324785,-0.248030,-0.328640,-0.310589,0.452051,0.166050,2.605329,37.884869,24.182541,9.822569,0.601896,1.968490,0.001693,0.000000,0.000000,0.000000,0.000000,0.000000,0.000000
11931311.000000,2.304701,-0.990750,-1.844366,-1.424100,-0.953101,1.715503,0.464301,-0.074593,-0.322447,-0.243250,-0.335910,-0.314041,0.453531,0.159958,2.553754,37.738079,24.234116,9.897947,0.620206,2.020675,0.061202,0.000000,0.000000,0.000000,0.000000,0.000000,0.000000
11931312.000000,2.304629,-0.991066,-1.844601,-1.424434,-0.953421,1.715957,0.464464,-0.073016,-0.322833,-0.237435,-0.331385,-0.315854,0.452658,0.157072,2.482343,37.539715,24.206345,9.997129,0.589994,2.027084,0.061202,0.000000,0.000000,0.000000,0.000000,0.000000,0.000000
11931313.000000,2.304562,-0.991383,-1.844831,-1.424777,-0.953746,1.716421,0.464638,-0.071943,-0.315136,-0.237030,-0.333223,-0.317171,0.456447,0.164060,2.406965,37.392925,24.182541,10.219297,0.613798,2.007858,0.015426,0.000000,0.000000,0.000000,0.000000,0.000000,0.000000
11931314.000000,2.304499,-0.991705,-1.845065,-1.425126,-0.954063,1.716874,0.464800,-0.069730,-0.319869,-0.233247,-0.333957,-0.318618,0.446755,0.163996,2.260175,37.297710,24.134933,10.493040,0.632108,1.988631,0.041976,0.000000,0.000000,0.000000,0.000000,0.000000,0.000000
11931315.000000,2.304438,-0.992012,-1.845299,-1.425464,-0.954381,1.717313,0.464967,-0.065157,-0.313764,-0.230579,-0.332416,-0.319934,0.442197,0.161738,2.109418,37.051739,24.083359,10.592222,0.649503,2.007858,0.015426,0.000000,0.000000,0.000000,0.000000,0.000000,0.000000
11931316.000000,2.304384,-0.992333,-1.845515,-1.425818,-0.954707,1.717758,0.465132,-0.061379,-0.316914,-0.228218,-0.344484,-0.322044,0.441523,0.161956,1.934858,36.980328,23.888962,10.814390,0.679716,2.053634,0.054794,0.000000,0.000000,0.000000,0.000000,0.000000,0.000000
11931317.000000,2.304333,-0.992646,-1.845737,-1.426159,-0.955031,1.718193,0.465307,-0.057895,-0.316725,-0.227190,-0.342539,-0.322393,0.437178,0.160397,1.740461,36.805767,23.718369,10.937376,0.698026,2.112228,0.021835,0.000000,0.000000,0.000000,0.000000,0.000000,0.000000
11931318.000000,2.304285,-0.992961,-1.845950,-1.426511,-0.955345,1.718629,0.465470,-0.054776,-0.312856,-0.228422,-0.343392,-0.319735,0.439760,0.157998,1.514325,36.710552,23.543808,11.135740,0.632108,2.125045,0.021835,0.000000,0.000000,0.000000,0.000000,0.000000,0.000000
11931319.000000,2.304233,-0.993281,-1.846152,-1.426864,-0.955655,1.719079,0.465637,-0.055001,-0.314849,-0.218717,-0.345686,-0.318778,0.439889,0.161164,1.367536,36.611370,23.250229,11.334105,0.589994,2.066451,0.009017,0.000000,0.000000,0.000000,0.000000,0.000000,0.000000
11931320.000000,2.304182,-0.993610,-1.846359,-1.427217,-0.955974,1.719515,0.465802,-0.053790,-0.321211,-0.214321,-0.341478,-0.319168,0.434733,0.164902,1.192975,36.682781,23.079636,11.504698,0.530485,2.027084,0.028243,0.000000,0.000000,0.000000,0.000000,0.000000,0.000000
11931321.000000,2.304141,-0.993933,-1.846552,-1.427579,-0.956294,1.719953,0.465963,-0.050190,-0.323583,-0.204748,-0.342750,-0.319422,0.433595,0.162336,0.994611,36.710552,22.758286,11.703062,0.512174,2.007858,0.094161,0.000000,0.000000,0.000000,0.000000,0.000000,0.000000
11931322.000000,2.304100,-0.994267,-1.846743,-1.427934,-0.956605,1.720381,0.466139,-0.045834,-0.324908,-0.200284,-0.341033,-0.320875,0.434665,0.162384,0.772443,36.781963,22.417099,11.925230,0.524076,2.072860,0.015426,0.000000,0.000000,0.000000,0.000000,0.000000,0.000000
11931323.000000,2.304061,-0.994592,-1.846937,-1.428292,-0.956923,1.720825,0.466298,-0.046568,-0.324529,-0.199648,-0.342443,-0.321056,0.434585,0.162238,0.574079,36.881145,22.171127,12.099791,0.535978,2.060043,0.067611,0.000000,0.000000,0.000000,0.000000,0.000000,0.000000
11931324.000000,2.304021,-0.994916,-1.847127,-1.428655,-0.957240,1.721274,0.466471,-0.044762,-0.325983,-0.198902,-0.350145,-0.324137,0.444735,0.163922,0.403486,36.928753,21.925156,12.298155,0.542386,1.995040,0.041976,0.000000,0.000000,0.000000,0.000000,0.000000,0.000000
11931325.000000,2.303988,-0.995240,-1.847314,-1.429015,-0.957560,1.721719,0.466637,-0.041981,-0.326850,-0.194237,-0.352272,-0.324334,0.442906,0.160329,0.177350,36.952557,21.655380,12.544127,0.571683,1.955673,0.028243,0.000000,0.000000,0.000000,0.000000,0.000000,0.000000
11931326.000000,2.303953,-0.995558,-1.847498,-1.429384,-0.957873,1.722166,0.466797,-0.038099,-0.326619,-0.193600,-0.354018,-0.322952,0.436875,0.155759,0.006757,36.904949,21.484787,12.813902,0.542386,1.903487,0.067611,0.000000,0.000000,0.000000,0.000000,0.000000,0.000000
11931327.000000,2.303919,-0.995888,-1.847675,-1.429743,-0.958182,1.722610,0.466968,-0.038807,-0.330013,-0.184508,-0.353218,-0.322039,0.443178,0.160694,-0.144000,36.904949,21.215012,12.988462,0.530485,1.909896,0.021835,0.000000,0.000000,0.000000,0.000000,0.000000,0.000000
11931328.000000,2.303886,-0.996201,-1.847854,-1.430118,-0.958502,1.723057,0.467137,-0.035756,-0.324727,-0.182479,-0.357255,-0.318456,0.447213,0.164985,-0.314593,36.781963,21.016647,13.186827,0.530485,1.949264,0.041976,0.000000,0.000000,0.000000,0.000000,0.000000,0.000000
11931329.000000,2.303856,-0.996515,-1.848033,-1.430496,-0.958806,1.723505,0.467307,-0.034495,-0.321108,-0.178864,-0.368797,-0.316860,0.446009,0.166653,-0.441546,36.611370,20.869858,13.484373,0.464567,1.974899,0.028243,0.000000,0.000000,0.000000,0.000000,0.000000,0.000000
11931330.000000,2.303819,-0.996826,-1.848205,-1.430883,-0.959117,1.723952,0.467472,-0.031975,-0.318701,-0.173209,-0.370221,-0.313985,0.442422,0.165897,-0.489153,36.389202,20.623886,13.754148,0.458158,1.981307,0.054794,0.000000,0.000000,0.000000,0.000000,0.000000,0.000000
11931331.000000,2.303782,-0.997136,-1.848376,-1.431263,-0.959432,1.724397,0.467644,-0.034311,-0.314027,-0.170112,-0.371011,-0.315399,0.442815,0.168512,-0.489153,36.194805,20.401718,13.877134,0.452665,1.995040,0.015426,0.000000,0.000000,0.000000,0.000000,0.000000,0.000000
11931332.000000,2.303749,-0.997461,-1.848551,-1.431640,-0.959740,1.724830,0.467808,-0.034055,-0.316872,-0.173206,-0.378716,-0.315878,0.443398,0.162124,-0.564532,36.095623,20.278732,14.051695,0.416959,2.020675,0.054794,0.000000,0.000000,0.000000,0.000000,0.000000,0.000000
11931333.000000,2.303713,-0.997768,-1.848730,-1.432017,-0.960061,1.725271,0.467980,-0.031804,-0.309688,-0.171647,-0.375846,-0.319307,0.443004,0.167621,-0.588336,35.901226,20.131943,14.099302,0.470060,2.066451,0.015426,0.000000,0.000000,0.000000,0.000000,0.000000,0.000000
11931334.000000,2.303678,-0.998082,-1.848903,-1.432395,-0.960372,1.725726,0.468135,-0.033303,-0.313826,-0.171724,-0.375400,-0.310633,0.444815,0.161191,-0.612139,35.829815,20.036728,14.198484,0.476469,2.039901,0.067611,0.000000,0.000000,0.000000,0.000000,0.000000,0.000000
11931335.000000,2.303639,-0.998398,-1.849081,-1.432762,-0.960679,1.726180,0.468306,-0.035145,-0.315032,-0.172715,-0.369959,-0.311089,0.453241,0.164951,-0.588336,35.829815,20.008957,14.174681,0.416959,1.962081,0.028243,0.000000,0.000000,0.000000,0.000000,0.000000,0.000000
11931336.000000,2.303603,-0.998716,-1.849247,-1.433127,-0.961004,1.726635,0.468475,-0.038978,-0.314716,-0.173455,-0.361466,-0.313359,0.455262,0.166290,-0.588336,35.877422,19.885971,14.127073,0.416959,1.877853,0.009017,0.000000,0.000000,0.000000,0.000000,0.000000,0.000000
11931337.000000,2.303570,-0.999043,-1.849421,-1.433486,-0.961318,1.727078,0.468631,-0.037942,-0.316005,-0.173618,-0.358263,-0.314475,0.449268,0.158756,-0.612139,35.948833,19.838364,14.000120,0.393156,1.871444,0.081344,0.000000,0.000000,0.000000,0.000000,0.000000,0.000000
11931338.000000,2.303527,-0.999361,-1.849598,-1.433848,-0.961635,1.727513,0.468800,-0.039743,-0.316906,-0.176842,-0.356965,-0.313224,0.446651,0.162421,-0.540728,36.000408,19.790756,13.928709,0.398649,1.930038,0.034652,0.000000,0.000000,0.000000,0.000000,0.000000,0.000000
11931339.000000,2.303490,-0.999675,-1.849767,-1.434198,-0.961965,1.727957,0.468958,-0.040595,-0.316172,-0.174828,-0.355185,-0.316673,0.441408,0.162862,-0.489153,36.000408,19.691574,13.706541,0.434354,1.955673,0.074935,0.000000,0.000000,0.000000,0.000000,0.000000,0.000000
11931340.000000,2.303458,-0.999984,-1.849945,-1.434554,-0.962284,1.728393,0.469119,-0.034907,-0.313078,-0.175522,-0.352745,-0.322061,0.438697,0.159370,-0.564532,35.829815,19.691574,13.678770,0.405057,1.968490,0.067611,0.000000,0.000000,0.000000,0.000000,0.000000,0.000000
11931341.000000,2.303419,-1.000281,-1.850120,-1.434910,-0.962611,1.728847,0.469281,-0.036831,-0.304117,-0.175375,-0.349502,-0.321847,0.435246,0.159464,-0.512957,35.560040,19.643967,13.583555,0.422452,1.897079,0.009017,0.000000,0.000000,0.000000,0.000000,0.000000,0.000000
11931342.000000,2.303373,-1.000592,-1.850299,-1.435256,-0.962928,1.729299,0.469436,-0.040565,-0.306240,-0.179183,-0.348042,-0.323281,0.441112,0.153312,-0.366168,35.361675,19.643967,13.385191,0.434354,1.812850,0.087753,0.000000,0.000000,0.000000,0.000000,0.000000,0.000000
11931343.000000,2.303338,-1.000895,-1.850476,-1.435593,-0.963264,1.729731,0.469610,-0.039658,-0.302788,-0.177687,-0.346173,-0.322549,0.442736,0.164754,-0.366168,35.091900,19.616196,13.234434,0.434354,1.812850,0.021835,0.000000,0.000000,0.000000,0.000000,0.000000,0.000000
11931344.000000,2.303296,-1.001208,-1.850654,-1.435930,-0.963597,1.730173,0.469773,-0.041252,-0.305615,-0.178833,-0.340027,-0.328959,0.441208,0.164498,-0.266986,34.996685,19.667770,13.012266,0.476469,1.865035,0.061202,0.000000,0.000000,0.000000,0.000000,0.000000,0.000000
11931345.000000,2.303250,-1.001519,-1.850824,-1.436247,-0.963929,1.730613,0.469942,-0.042873,-0.303610,-0.176089,-0.333103,-0.333076,0.443145,0.166535,-0.144000,34.774517,19.568588,12.742491,0.518583,1.865035,0.015426,0.000000,0.000000,0.000000,0.000000,0.000000,0.000000
11931346.000000,2.303210,-1.001831,-1.851000,-1.436577,-0.964251,1.731058,0.470106,-0.041475,-0.307212,-0.175421,-0.330188,-0.331845,0.445054,0.168483,-0.116229,34.703106,19.520981,12.591734,0.446256,1.851302,0.067611,0.000000,0.000000,0.000000,0.000000,0.000000,0.000000
11931347.000000,2.303162,-1.002150,-1.851177,-1.436898,-0.964588,1.731510,0.470277,-0.044137,-0.310322,-0.177947,-0.328491,-0.331884,0.443506,0.170841,0.054365,34.603924,19.469406,12.393370,0.393156,1.793624,0.015426,0.000000,0.000000,0.000000,0.000000,0.000000,0.000000
11931348.000000,2.303120,-1.002462,-1.851355,-1.437209,-0.964925,1.731944,0.470441,-0.042408,-0.306178,-0.179996,-0.322635,-0.332234,0.441736,0.169796,0.078168,34.480938,19.445602,12.222776,0.416959,1.754256,0.015426,0.000000,0.000000,0.000000,0.000000,0.000000,0.000000
11931349.000000,2.303082,-1.002773,-1.851538,-1.437520,-0.965254,1.732381,0.470599,-0.038143,-0.309358,-0.185593,-0.316089,-0.327814,0.444700,0.163439,0.105939,34.409527,19.497177,12.024412,0.386747,1.806442,0.061202,0.000000,0.000000,0.000000,0.000000,0.000000,0.000000
11931350.000000,2.303041,-1.003091,-1.851719,-1.437813,-0.965591,1.732817,0.470773,-0.038822,-0.312094,-0.185962,-0.310581,-0.326281,0.440419,0.165611,0.153547,34.334148,19.469406,11.750669,0.405057,1.832076,0.021835,0.000000,0.000000,0.000000,0.000000,0.000000,0.000000
11931351.000000,2.303001,-1.003405,-1.851908,-1.438117,-0.965940,1.733266,0.470933,-0.038959,-0.309706,-0.187354,-0.309335,-0.327772,0.439602,0.164004,0.177350,34.310345,19.497177,11.580076,0.476469,1.779891,0.067611,0.000000,0.000000,0.000000,0.000000,0.000000,0.000000
11931352.000000,2.302966,-1.003724,-1.852091,-1.438424,-0.966277,1.733728,0.471104,-0.037040,-0.316598,-0.184791,-0.305017,-0.326574,0.442972,0.166599,0.129743,34.286541,19.497177,11.480894,0.494779,1.721298,0.028243,0.000000,0.000000,0.000000,0.000000,0.000000,0.000000
11931353.000000,2.302925,-1.004039,-1.852277,-1.438713,-0.966603,1.734173,0.471267,-0.035764,-0.315095,-0.183364,-0.300115,-0.324114,0.446641,0.166646,0.205121,34.211163,19.544785,11.357908,0.470060,1.662704,0.041976,0.000000,0.000000,0.000000,0.000000,0.000000,0.000000
11931354.000000,2.302886,-1.004355,-1.852456,-1.439010,-0.966944,1.734615,0.471434,-0.037146,-0.316217,-0.181047,-0.298804,-0.327360,0.446314,0.163875,0.252729,34.187359,19.520981,11.258726,0.458158,1.682845,0.015426,0.000000,0.000000,0.000000,0.000000,0.000000,0.000000
11931355.000000,2.302853,-1.004679,-1.852643,-1.439297,-0.967283,1.735064,0.471593,-0.034707,-0.317736,-0.184163,-0.295814,-0.326239,0.444080,0.159167,0.153547,34.139751,19.568588,11.107969,0.464567,1.754256,0.048385,0.000000,0.000000,0.000000,0.000000,0.000000,0.000000
11931356.000000,2.302825,-1.004994,-1.852829,-1.439576,-0.967624,1.735508,0.471753,-0.035584,-0.315498,-0.183387,-0.291696,-0.327200,0.444086,0.159746,0.030561,34.040569,19.497177,10.961180,0.476469,1.786300,0.074935,0.000000,0.000000,0.000000,0.000000,0.000000,0.000000
11931357.000000,2.302791,-1.005318,-1.853005,-1.439859,-0.967957,1.735961,0.471924,-0.035584,-0.320437,-0.179552,-0.284382,-0.331883,0.450331,0.160359,0.006757,33.992962,19.397995,10.838194,0.386747,1.747848,0.001693,0.000000,0.000000,0.000000,0.000000,0.000000,0.000000
11931358.000000,2.302758,-1.005637,-1.853196,-1.440147,-0.968300,1.736410,0.472088,-0.035695,-0.319239,-0.179630,-0.288169,-0.327502,0.452628,0.160475,-0.017047,33.770794,19.421799,10.814390,0.369352,1.676437,0.048385,0.000000,0.000000,0.000000,0.000000,0.000000,0.000000
11931359.000000,2.302728,-1.005949,-1.853381,-1.440424,-0.968649,1.736856,0.472261,-0.035007,-0.320042,-0.177879,-0.286370,-0.328004,0.444742,0.166192,-0.092425,33.647808,19.374191,10.786619,0.434354,1.624252,0.041976,0.000000,0.000000,0.000000,0.000000,0.000000,0.000000
11931360.000000,2.302700,-1.006276,-1.853567,-1.440703,-0.968991,1.737297,0.472432,-0.034410,-0.320409,-0.180764,-0.287716,-0.327839,0.445031,0.161888,-0.167803,33.576397,19.374191,10.762815,0.452665,1.624252,0.048385,0.000000,0.000000,0.000000,0.000000,0.000000,0.000000
11931361.000000,2.302676,-1.006604,-1.853750,-1.440975,-0.969336,1.737726,0.472602,-0.032361,-0.320164,-0.174583,-0.284874,-0.335490,0.442232,0.161829,-0.290789,33.600201,19.298813,10.691404,0.458158,1.708480,0.067611,0.000000,0.000000,0.000000,0.000000,0.000000,0.000000
11931362.000000,2.302659,-1.006936,-1.853929,-1.441250,-0.969688,1.738157,0.472779,-0.026985,-0.328336,-0.174271,-0.279834,-0.338932,0.433873,0.165177,-0.465350,33.624004,19.251205,10.616026,0.530485,1.727706,0.034652,0.000000,0.000000,0.000000,0.000000,0.000000,0.000000
11931363.000000,2.302638,-1.007275,-1.854108,-1.441527,-0.970022,1.738596,0.472944,-0.024120,-0.329361,-0.176386,-0.277808,-0.337546,0.439991,0.163587,-0.588336,33.675579,19.175827,10.592222,0.488370,1.670028,0.074935,0.000000,0.000000,0.000000,0.000000,0.000000,0.000000
11931364.000000,2.302616,-1.007607,-1.854286,-1.441801,-0.970357,1.739037,0.473122,-0.023017,-0.330285,-0.177612,-0.272845,-0.341262,0.442100,0.167442,-0.687518,33.822369,19.076645,10.540648,0.410551,1.559249,0.015426,0.000000,0.000000,0.000000,0.000000,0.000000,0.000000
11931365.000000,2.302596,-1.007948,-1.854471,-1.442074,-0.970708,1.739463,0.473299,-0.021915,-0.335460,-0.180391,-0.278495,-0.340874,0.435073,0.172022,-0.786700,33.969158,19.052841,10.465269,0.410551,1.539108,0.028243,0.000000,0.000000,0.000000,0.000000,0.000000,0.000000
11931366.000000,2.302584,-1.008284,-1.854663,-1.442349,-0.971048,1.739880,0.473472,-0.018706,-0.342740,-0.184204,-0.277116,-0.341618,0.435114,0.170923,-0.985064,34.064373,19.128220,10.417662,0.410551,1.617843,0.041976,0.000000,0.000000,0.000000,0.000000,0.000000,0.000000
11931367.000000,2.302569,-1.008621,-1.854836,-1.442627,-0.971387,1.740304,0.473643,-0.018291,-0.344874,-0.184163,-0.278956,-0.336257,0.432080,0.169349,-1.108050,34.115948,18.981430,10.393858,0.422452,1.670028,0.061202,0.000000,0.000000,0.000000,0.000000,0.000000,0.000000
11931368.000000,2.302552,-1.008962,-1.855023,-1.442901,-0.971727,1.740738,0.473815,-0.019292,-0.343880,-0.185542,-0.283460,-0.336635,0.434030,0.168711,-1.183428,34.115948,18.981430,10.318480,0.428861,1.611434,0.067611,0.000000,0.000000,0.000000,0.000000,0.000000,0.000000
11931369.000000,2.302538,-1.009297,-1.855208,-1.443184,-0.972071,1.741164,0.473994,-0.018817,-0.340646,-0.184037,-0.284078,-0.333157,0.429843,0.173545,-1.306414,34.163555,18.882248,10.294676,0.434354,1.591293,0.009017,0.000000,0.000000,0.000000,0.000000,0.000000,0.000000
11931370.000000,2.302519,-1.009634,-1.855393,-1.443470,-0.972418,1.741592,0.474152,-0.020573,-0.338351,-0.182501,-0.281635,-0.336730,0.425889,0.169330,-1.330218,34.088177,18.882248,10.318480,0.488370,1.572067,0.087753,0.000000,0.000000,0.000000,0.000000,0.000000,0.000000
11931371.000000,2.302498,-1.009977,-1.855577,-1.443749,-0.972749,1.742012,0.474329,-0.018938,-0.338601,-0.183325,-0.281651,-0.336399,0.427420,0.176353,-1.330218,34.187359,18.858444,10.270872,0.458158,1.565658,0.021835,0.000000,0.000000,0.000000,0.000000,0.000000,0.000000
11931372.000000,2.302481,-1.010330,-1.855758,-1.444035,-0.973095,1.742443,0.474511,-0.019676,-0.345791,-0.180941,-0.278136,-0.340327,0.427696,0.178050,-1.381793,34.286541,18.830673,10.243101,0.440763,1.591293,-0.004716,0.000000,0.000000,0.000000,0.000000,0.000000,0.000000
11931373.000000,2.302463,-1.010690,-1.855945,-1.444317,-0.973440,1.742874,0.474680,-0.017584,-0.347424,-0.180692,-0.280114,-0.348756,0.427009,0.174490,-1.405596,34.457134,18.858444,10.195494,0.464567,1.637069,0.015426,0.000000,0.000000,0.000000,0.000000,0.000000,0.000000
11931374.000000,2.302446,-1.011034,-1.856139,-1.444602,-0.973779,1.743305,0.474846,-0.016487,-0.350920,-0.184260,-0.281168,-0.346171,0.428773,0.170615,-1.405596,34.556316,18.929855,10.219297,0.410551,1.624252,0.067611,0.000000,0.000000,0.000000,0.000000,0.000000,0.000000
11931376.000000,2.302402,-1.011754,-1.856514,-1.445161,-0.974468,1.744170,0.475195,-0.019294,-0.354139,-0.186457,-0.277612,-0.347129,0.422100,0.168546,-1.306414,34.972881,18.929855,10.171690,0.362943,1.481429,-0.004716,0.000000,0.000000,0.000000,0.000000,0.000000,0.000000
11931377.000000,2.302377,-1.012112,-1.856714,-1.445454,-0.974816,1.744601,0.475352,-0.018876,-0.358648,-0.189370,-0.281181,-0.345975,0.424584,0.165732,-1.254840,35.167278,19.029037,10.270872,0.393156,1.474105,0.074935,0.000000,0.000000,0.000000,0.000000,0.000000,0.000000
11931378.000000,2.302349,-1.012476,-1.856909,-1.445737,-0.975163,1.745022,0.475524,-0.023273,-0.355174,-0.190216,-0.284889,-0.345877,0.417807,0.172575,-1.131854,35.413250,19.076645,10.342283,0.405057,1.565658,0.028243,0.000000,0.000000,0.000000,0.000000,0.000000,0.000000
11931379.000000,2.302321,-1.012818,-1.857104,-1.446019,-0.975520,1.745445,0.475692,-0.026274,-0.353459,-0.187861,-0.283381,-0.350735,0.416699,0.175499,-1.008868,35.413250,19.152023,10.370054,0.452665,1.578475,0.054794,0.000000,0.000000,0.000000,0.000000,0.000000,0.000000
11931380.000000,2.302293,-1.013181,-1.857298,-1.446312,-0.975877,1.745875,0.475858,-0.028465,-0.357823,-0.190179,-0.280873,-0.353707,0.416101,0.173478,-0.885882,35.536236,19.251205,10.417662,0.482877,1.546432,0.074935,0.000000,0.000000,0.000000,0.000000,0.000000,0.000000
11931381.000000,2.302266,-1.013528,-1.857495,-1.446603,-0.976216,1.746294,0.476032,-0.028888,-0.354147,-0.188626,-0.280955,-0.349371,0.404599,0.173639,-0.810504,35.460857,19.346420,10.516844,0.458158,1.552840,0.021835,0.000000,0.000000,0.000000,0.000000,0.000000,0.000000
11931382.000000,2.302234,-1.013885,-1.857692,-1.446887,-0.976560,1.746709,0.476194,-0.028550,-0.351882,-0.189000,-0.281015,-0.349710,0.405942,0.169169,-0.635943,35.460857,19.374191,10.516844,0.405057,1.584884,0.081344,0.000000,0.000000,0.000000,0.000000,0.000000,0.000000
11931383.000000,2.302198,-1.014228,-1.857890,-1.447173,-0.976915,1.747128,0.476366,-0.031068,-0.346999,-0.191011,-0.282858,-0.351438,0.414369,0.171912,-0.465350,35.290264,19.469406,10.417662,0.386747,1.630660,0.015426,0.000000,0.000000,0.000000,0.000000,0.000000,0.000000
11931384.000000,2.302165,-1.014573,-1.858089,-1.447461,-0.977262,1.747542,0.476528,-0.035359,-0.345215,-0.194022,-0.280681,-0.350119,0.417238,0.165487,-0.314593,35.119671,19.520981,10.393858,0.405057,1.670028,0.028243,0.000000,0.000000,0.000000,0.000000,0.000000,0.000000
11931385.000000,2.302130,-1.014924,-1.858289,-1.447746,-0.977607,1.747964,0.476679,-0.037538,-0.343594,-0.199349,-0.279409,-0.342148,0.417935,0.159843,-0.191607,34.996685,19.592392,10.318480,0.398649,1.637069,0.081344,0.000000,0.000000,0.000000,0.000000,0.000000,0.000000
11931386.000000,2.302086,-1.015279,-1.858496,-1.448036,-0.977957,1.748383,0.476852,-0.036173,-0.345926,-0.204266,-0.282356,-0.347555,0.416537,0.159007,0.054365,34.826092,19.667770,10.243101,0.410551,1.649886,0.028243,0.000000,0.000000,0.000000,0.000000,0.000000,0.000000
11931387.000000,2.302048,-1.015636,-1.858701,-1.448322,-0.978312,1.748791,0.477013,-0.035735,-0.345607,-0.201034,-0.278447,-0.347809,0.414720,0.163114,0.205121,34.798321,19.715378,10.219297,0.464567,1.682845,0.087753,0.000000,0.000000,0.000000,0.000000,0.000000,0.000000
11931388.000000,2.302006,-1.015993,-1.858901,-1.448604,-0.978662,1.749200,0.477187,-0.039725,-0.350055,-0.202509,-0.278812,-0.347904,0.410533,0.167915,0.403486,34.774517,19.790756,10.171690,0.494779,1.656295,0.001693,0.000000,0.000000,0.000000,0.000000,0.000000,0.000000
11931389.000000,2.301961,-1.016354,-1.859103,-1.448883,-0.979005,1.749609,0.477351,-0.039463,-0.354952,-0.202644,-0.278461,-0.350716,0.412199,0.166080,0.601850,34.798321,19.838364,10.120115,0.494779,1.637069,0.028243,0.000000,0.000000,0.000000,0.000000,0.000000,0.000000
11931390.000000,2.301916,-1.016704,-1.859315,-1.449164,-0.979358,1.750022,0.477514,-0.042485,-0.356629,-0.207977,-0.275548,-0.351568,0.412097,0.162084,0.796247,34.798321,19.961349,10.072508,0.488370,1.643478,0.034652,0.000000,0.000000,0.000000,0.000000,0.000000,0.000000
11931391.000000,2.301878,-1.017070,-1.859518,-1.449446,-0.979700,1.750431,0.477676,-0.042158,-0.359533,-0.209685,-0.281520,-0.354340,0.403457,0.162292,0.871625,34.849895,19.985153,10.072508,0.440763,1.649886,0.074935,0.000000,0.000000,0.000000,0.000000,0.000000,0.000000
11931392.000000,2.301836,-1.017417,-1.859725,-1.449719,-0.980043,1.750840,0.477842,-0.039682,-0.351321,-0.210730,-0.278995,-0.348951,0.406681,0.159983,0.994611,34.826092,20.008957,10.048704,0.381254,1.637069,0.061202,0.000000,0.000000,0.000000,0.000000,0.000000,0.000000
11931393.000000,2.301791,-1.017767,-1.859936,-1.449994,-0.980400,1.751244,0.478009,-0.039438,-0.349282,-0.213270,-0.276422,-0.350785,0.402567,0.163571,1.169172,34.726910,20.084335,10.048704,0.362943,1.670028,0.028243,0.000000,0.000000,0.000000,0.000000,0.000000,0.000000
11931394.000000,2.301744,-1.018119,-1.860147,-1.450267,-0.980756,1.751635,0.478174,-0.042148,-0.347966,-0.209930,-0.276735,-0.353702,0.398797,0.167779,1.343732,34.627728,20.084335,10.048704,0.381254,1.735030,0.067611,0.000000,0.000000,0.000000,0.000000,0.000000,0.000000
11931395.000000,2.301704,-1.018464,-1.860359,-1.450550,-0.981113,1.752032,0.478344,-0.041138,-0.349692,-0.208809,-0.275698,-0.350936,0.399708,0.173280,1.391340,34.457134,20.131943,10.171690,0.410551,1.825668,0.021835,0.000000,0.000000,0.000000,0.000000,0.000000,0.000000
11931396.000000,2.301660,-1.018815,-1.860569,-1.450823,-0.981474,1.752446,0.478509,-0.043070,-0.347210,-0.208142,-0.274220,-0.355114,0.403421,0.171362,1.542096,34.334148,20.183517,10.243101,0.440763,1.825668,0.041976,0.000000,0.000000,0.000000,0.000000,0.000000,0.000000
11931397.000000,2.301613,-1.019158,-1.860776,-1.451098,-0.981831,1.752854,0.478680,-0.044858,-0.347627,-0.205766,-0.275587,-0.352426,0.403759,0.165078,1.712690,34.262737,20.183517,10.219297,0.476469,1.779891,0.041976,0.000000,0.000000,0.000000,0.000000,0.000000,0.000000
11931398.000000,2.301575,-1.019504,-1.860990,-1.451381,-0.982185,1.753270,0.478848,-0.043651,-0.351252,-0.209290,-0.276740,-0.354095,0.407063,0.167145,1.764264,34.115948,20.254929,10.294676,0.476469,1.747848,0.021835,0.000000,0.000000,0.000000,0.000000,0.000000,0.000000
11931399.000000,2.301536,-1.019856,-1.861207,-1.451651,-0.982533,1.753678,0.479007,-0.038971,-0.351035,-0.211430,-0.275632,-0.351037,0.404910,0.164381,1.788068,34.064373,20.306503,10.294676,0.482877,1.735030,0.087753,0.000000,0.000000,0.000000,0.000000,0.000000,0.000000
11931400.000000,2.301494,-1.020212,-1.861420,-1.451913,-0.982897,1.754084,0.479184,-0.039497,-0.347359,-0.211143,-0.269418,-0.353646,0.402671,0.171865,1.835676,34.088177,20.278732,10.120115,0.464567,1.741439,0.009017,0.000000,0.000000,0.000000,0.000000,0.000000,0.000000
11931401.000000,2.301462,-1.020578,-1.861629,-1.452185,-0.983250,1.754493,0.479349,-0.037726,-0.348739,-0.211400,-0.272663,-0.352184,0.402553,0.174669,1.788068,34.238934,20.254929,10.072508,0.393156,1.812850,0.028243,0.000000,0.000000,0.000000,0.000000,0.000000,0.000000
11931402.000000,2.301428,-1.020937,-1.861846,-1.452450,-0.983603,1.754904,0.479523,-0.036617,-0.356215,-0.211714,-0.267778,-0.349129,0.409252,0.173132,1.764264,34.357952,20.254929,10.020933,0.386747,1.838485,0.034652,0.000000,0.000000,0.000000,0.000000,0.000000,0.000000
11931403.000000,2.301391,-1.021299,-1.862053,-1.452721,-0.983963,1.755321,0.479694,-0.036924,-0.358919,-0.213751,-0.266311,-0.355312,0.407844,0.174447,1.788068,34.433331,20.231125,10.020933,0.374845,1.800033,0.048385,0.000000,0.000000,0.000000,0.000000,0.000000,0.000000
11931404.000000,2.301359,-1.021659,-1.862265,-1.452995,-0.984315,1.755737,0.479863,-0.036114,-0.359704,-0.212402,-0.267383,-0.355314,0.411862,0.172717,1.740461,34.433331,20.306503,10.096312,0.332731,1.741439,0.054794,0.000000,0.000000,0.000000,0.000000,0.000000,0.000000
11931405.000000,2.301327,-1.022021,-1.862472,-1.453252,-0.984684,1.756156,0.480036,-0.035051,-0.361832,-0.209450,-0.261721,-0.356236,0.413900,0.176174,1.688886,34.480938,20.306503,10.048704,0.452665,1.702071,0.041976,0.000000,0.000000,0.000000,0.000000,0.000000,0.000000
11931406.000000,2.301301,-1.022371,-1.862682,-1.453524,-0.985051,1.756568,0.480203,-0.033469,-0.356639,-0.212144,-0.264024,-0.361854,0.413850,0.170250,1.589704,34.385723,20.377914,10.171690,0.535978,1.676437,0.028243,0.000000,0.000000,0.000000,0.000000,0.000000,0.000000
11931407.000000,2.301272,-1.022727,-1.862891,-1.453789,-0.985411,1.756969,0.480365,-0.030513,-0.353320,-0.209626,-0.261354,-0.366384,0.411160,0.164453,1.542096,34.286541,20.401718,10.270872,0.542386,1.741439,0.048385,0.000000,0.000000,0.000000,0.000000,0.000000,0.000000
11931408.000000,2.301248,-1.023080,-1.863100,-1.454050,-0.985775,1.757378,0.480528,-0.028134,-0.352628,-0.208207,-0.257435,-0.366198,0.411265,0.167240,1.490522,34.211163,20.429489,10.294676,0.554288,1.760665,0.081344,0.000000,0.000000,0.000000,0.000000,0.000000,0.000000
11931409.000000,2.301234,-1.023438,-1.863309,-1.454321,-0.986124,1.757786,0.480705,-0.023103,-0.352690,-0.210600,-0.265016,-0.365302,0.408685,0.166182,1.292158,34.088177,20.477097,10.441465,0.512174,1.735030,-0.004716,0.000000,0.000000,0.000000,0.000000,0.000000,0.000000
11931410.000000,2.301215,-1.023793,-1.863520,-1.454591,-0.986480,1.758188,0.480864,-0.023896,-0.352439,-0.211364,-0.268070,-0.359726,0.414176,0.159407,1.145368,34.040569,20.500900,10.592222,0.410551,1.747848,0.067611,0.000000,0.000000,0.000000,0.000000,0.000000,0.000000
11931411.000000,2.301192,-1.024162,-1.863717,-1.454866,-0.986846,1.758581,0.481029,-0.023501,-0.362063,-0.206453,-0.270605,-0.358994,0.405695,0.162163,1.093793,34.163555,20.401718,10.762815,0.386747,1.844894,0.041976,0.000000,0.000000,0.000000,0.000000,0.000000,0.000000
11931412.000000,2.301176,-1.024521,-1.863926,-1.455124,-0.987208,1.758958,0.481198,-0.022194,-0.359736,-0.207148,-0.268784,-0.359160,0.396548,0.164940,0.994611,34.139751,20.477097,10.786619,0.386747,1.930038,0.009017,0.000000,0.000000,0.000000,0.000000,0.000000,0.000000
11931413.000000,2.301167,-1.024886,-1.864130,-1.455399,-0.987582,1.759351,0.481352,-0.015863,-0.365769,-0.206392,-0.269624,-0.364857,0.400098,0.159073,0.796247,34.286541,20.500900,10.937376,0.416959,1.968490,0.067611,0.000000,0.000000,0.000000,0.000000,0.000000,0.000000
11931414.000000,2.301153,-1.025252,-1.864336,-1.455670,-0.987961,1.759755,0.481519,-0.016715,-0.363621,-0.208623,-0.275216,-0.367759,0.401284,0.163361,0.697065,34.385723,20.524704,11.060362,0.476469,1.916305,0.028243,0.000000,0.000000,0.000000,0.000000,0.000000,0.000000
11931415.000000,2.301142,-1.025609,-1.864548,-1.455943,-0.988329,1.760154,0.481675,-0.016642,-0.362212,-0.208110,-0.273159,-0.370530,0.400106,0.162862,0.574079,34.457134,20.600082,11.183348,0.482877,1.812850,0.081344,0.000000,0.000000,0.000000,0.000000,0.000000,0.000000
11931416.000000,2.301131,-1.025974,-1.864759,-1.456233,-0.988699,1.760555,0.481841,-0.016892,-0.363292,-0.209902,-0.276319,-0.368311,0.400153,0.165497,0.451093,34.532513,20.623886,11.381712,0.494779,1.754256,0.061202,0.000000,0.000000,0.000000,0.000000,0.000000,0.000000
11931417.000000,2.301120,-1.026328,-1.864964,-1.456507,-0.989075,1.760944,0.482013,-0.014676,-0.354916,-0.205953,-0.276624,-0.371768,0.390872,0.168092,0.375715,34.433331,20.552475,11.429319,0.530485,1.800033,0.009017,0.000000,0.000000,0.000000,0.000000,0.000000,0.000000
11931418.000000,2.301116,-1.026691,-1.865175,-1.456781,-0.989443,1.761330,0.482168,-0.011312,-0.352377,-0.207262,-0.271830,-0.369181,0.389020,0.164534,0.228925,34.433331,20.524704,11.457090,0.488370,1.890670,0.087753,0.000000,0.000000,0.000000,0.000000,0.000000,0.000000
11931419.000000,2.301115,-1.027054,-1.865375,-1.457060,-0.989813,1.761716,0.482340,-0.008387,-0.353681,-0.204033,-0.271101,-0.361328,0.390872,0.166717,0.054365,34.385723,20.453293,11.480894,0.476469,1.995040,0.067611,0.000000,0.000000,0.000000,0.000000,0.000000,0.000000
11931420.000000,2.301109,-1.027423,-1.865577,-1.457339,-0.990185,1.762112,0.482512,-0.008693,-0.361531,-0.201441,-0.271815,-0.370889,0.392385,0.169668,-0.017047,34.409527,20.377914,11.556273,0.446256,2.007858,0.009017,0.000000,0.000000,0.000000,0.000000,0.000000,0.000000
11931421.000000,2.301100,-1.027784,-1.865773,-1.457621,-0.990560,1.762520,0.482675,-0.012204,-0.363271,-0.205240,-0.273394,-0.371128,0.397160,0.164637,-0.068621,34.357952,20.306503,11.627684,0.416959,1.916305,0.015426,0.000000,0.000000,0.000000,0.000000,0.000000,0.000000
11931422.000000,2.301097,-1.028152,-1.865982,-1.457908,-0.990927,1.762922,0.482834,-0.010693,-0.369713,-0.205139,-0.281078,-0.359789,0.401758,0.163233,-0.167803,34.310345,20.330307,11.703062,0.428861,1.800033,0.074935,0.000000,0.000000,0.000000,0.000000,0.000000,0.000000
11931423.000000,2.301094,-1.028521,-1.866184,-1.458193,-0.991302,1.763316,0.483005,-0.009301,-0.369698,-0.202990,-0.279368,-0.366695,0.395668,0.166263,-0.266986,34.310345,20.278732,11.849852,0.494779,1.806442,0.041976,0.000000,0.000000,0.000000,0.000000,0.000000,0.000000
11931424.000000,2.301086,-1.028895,-1.866384,-1.458466,-0.991687,1.763709,0.483174,-0.006987,-0.373677,-0.201079,-0.277406,-0.371631,0.392689,0.167351,-0.290789,34.409527,20.207321,11.826048,0.554288,1.865035,0.034652,0.000000,0.000000,0.000000,0.000000,0.000000,0.000000
11931425.000000,2.301083,-1.029269,-1.866582,-1.458743,-0.992062,1.764089,0.483334,-0.002788,-0.371419,-0.199162,-0.275067,-0.374158,0.391730,0.161517,-0.413775,34.409527,20.108139,11.877623,0.584501,1.916305,0.074935,0.000000,0.000000,0.000000,0.000000,0.000000,0.000000
11931426.000000,2.301085,-1.029638,-1.866787,-1.459024,-0.992428,1.764488,0.483499,-0.001767,-0.368658,-0.199571,-0.276905,-0.371200,0.396804,0.160396,-0.588336,34.457134,20.084335,11.976805,0.518583,1.930038,0.028243,0.000000,0.000000,0.000000,0.000000,0.000000,0.000000
11931427.000000,2.301081,-1.030021,-1.866978,-1.459299,-0.992799,1.764902,0.483655,-0.000901,-0.371927,-0.195363,-0.282113,-0.378012,0.400076,0.160291,-0.635943,34.532513,20.008957,11.976805,0.464567,1.844894,0.087753,0.000000,0.000000,0.000000,0.000000,0.000000,0.000000
11931428.000000,2.301072,-1.030390,-1.867171,-1.459578,-0.993164,1.765303,0.483821,-0.004483,-0.366990,-0.195414,-0.282147,-0.372303,0.401232,0.159191,-0.635943,34.532513,19.937546,12.048216,0.405057,1.786300,0.061202,0.000000,0.000000,0.000000,0.000000,0.000000,0.000000
11931429.000000,2.301069,-1.030764,-1.867361,-1.459850,-0.993528,1.765702,0.483980,-0.004727,-0.371991,-0.196179,-0.275145,-0.363191,0.397977,0.158134,-0.735125,34.504742,19.885971,12.000608,0.374845,1.819259,0.034652,0.000000,0.000000,0.000000,0.000000,0.000000,0.000000
11931430.000000,2.301063,-1.031142,-1.867556,-1.460112,-0.993902,1.766093,0.484135,-0.005834,-0.372833,-0.196743,-0.270921,-0.369097,0.391712,0.153522,-0.786700,34.457134,19.838364,11.949034,0.428861,1.871444,0.087753,0.000000,0.000000,0.000000,0.000000,0.000000,0.000000
11931431.000000,2.301054,-1.031515,-1.867749,-1.460382,-0.994278,1.766481,0.484302,-0.005326,-0.378309,-0.194010,-0.266015,-0.367508,0.391365,0.159186,-0.762896,34.409527,19.790756,11.877623,0.458158,1.923629,0.048385,0.000000,0.000000,0.000000,0.000000,0.000000,0.000000
11931432.000000,2.301053,-1.031897,-1.867939,-1.460648,-0.994653,1.766884,0.484467,-0.006384,-0.380197,-0.194907,-0.265150,-0.367424,0.396870,0.161182,-0.810504,34.385723,19.739182,11.849852,0.476469,1.923629,0.054794,0.000000,0.000000,0.000000,0.000000,0.000000,0.000000
11931433.000000,2.301046,-1.032261,-1.868130,-1.460917,-0.995019,1.767294,0.484628,-0.005581,-0.376481,-0.191714,-0.262235,-0.373974,0.401558,0.162216,-0.786700,34.238934,19.667770,11.826048,0.464567,1.806442,0.081344,0.000000,0.000000,0.000000,0.000000,0.000000,0.000000
11931434.000000,2.301040,-1.032639,-1.868320,-1.461188,-0.995395,1.767700,0.484787,-0.007911,-0.377473,-0.190202,-0.262190,-0.374759,0.402279,0.159251,-0.762896,34.163555,19.616196,11.826048,0.416959,1.727706,0.087753,0.000000,0.000000,0.000000,0.000000,0.000000,0.000000
11931435.000000,2.301034,-1.033023,-1.868507,-1.461443,-0.995770,1.768094,0.484956,-0.005404,-0.379211,-0.188683,-0.258556,-0.371445,0.399664,0.162854,-0.786700,34.211163,19.544785,11.679258,0.434354,1.760665,0.054794,0.000000,0.000000,0.000000,0.000000,0.000000,0.000000
11931436.000000,2.301029,-1.033407,-1.868701,-1.461691,-0.996146,1.768493,0.485115,-0.004118,-0.374947,-0.186445,-0.253356,-0.376389,0.396861,0.163853,-0.786700,34.262737,19.568588,11.528502,0.458158,1.806442,0.041976,0.000000,0.000000,0.000000,0.000000,0.000000,0.000000
11931437.000000,2.301021,-1.033801,-1.868890,-1.461944,-0.996526,1.768881,0.485272,-0.003689,-0.376854,-0.187769,-0.248316,-0.377021,0.390373,0.159182,-0.762896,34.480938,19.592392,11.381712,0.458158,1.851302,0.074935,0.000000,0.000000,0.000000,0.000000,0.000000,0.000000
11931438.000000,2.301017,-1.034193,-1.869081,-1.462188,-0.996899,1.769283,0.485441,-0.005225,-0.377014,-0.187415,-0.247297,-0.378524,0.393758,0.162579,-0.786700,34.627728,19.568588,11.282530,0.452665,1.806442,0.048385,0.000000,0.000000,0.000000,0.000000,0.000000,0.000000
11931439.000000,2.301009,-1.034576,-1.869271,-1.462432,-0.997267,1.769699,0.485602,-0.007495,-0.377552,-0.189969,-0.241405,-0.371519,0.399498,0.162596,-0.762896,34.726910,19.568588,11.159544,0.405057,1.670028,0.100570,0.000000,0.000000,0.000000,0.000000,0.000000,0.000000
11931440.000000,2.301006,-1.034969,-1.869464,-1.462680,-0.997638,1.770109,0.485771,-0.005041,-0.381345,-0.192762,-0.244597,-0.369378,0.398261,0.160428,-0.786700,34.798321,19.568588,11.159544,0.381254,1.565658,0.061202,0.000000,0.000000,0.000000,0.000000,0.000000,0.000000
11931441.000000,2.300999,-1.035349,-1.869659,-1.462922,-0.998023,1.770499,0.485935,-0.007713,-0.381218,-0.190522,-0.240911,-0.374278,0.395651,0.158245,-0.762896,34.849895,19.520981,11.060362,0.452665,1.611434,0.054794,0.000000,0.000000,0.000000,0.000000,0.000000,0.000000
11931442.000000,2.300995,-1.035748,-1.869851,-1.463162,-0.998392,1.770888,0.486093,-0.005759,-0.387540,-0.193469,-0.239681,-0.365419,0.395768,0.154756,-0.762896,35.020489,19.520981,11.012754,0.458158,1.708480,0.100570,0.000000,0.000000,0.000000,0.000000,0.000000,0.000000
11931443.000000,2.300993,-1.036152,-1.870046,-1.463401,-0.998762,1.771271,0.486262,-0.003745,-0.391463,-0.191912,-0.241256,-0.367926,0.390160,0.155909,-0.786700,35.167278,19.497177,10.961180,0.440763,1.760665,0.041976,0.000000,0.000000,0.000000,0.000000,0.000000,0.000000
11931444.000000,2.300990,-1.036541,-1.870239,-1.463637,-0.999142,1.771676,0.486421,-0.002844,-0.394127,-0.191277,-0.240367,-0.370893,0.394158,0.156316,-0.786700,35.143475,19.497177,10.961180,0.440763,1.702071,0.081344,0.000000,0.000000,0.000000,0.000000,0.000000,0.000000
11931445.000000,2.300990,-1.036930,-1.870432,-1.463866,-0.999509,1.772086,0.486588,-0.001599,-0.390819,-0.191862,-0.235368,-0.370804,0.397464,0.161012,-0.810504,35.091900,19.544785,10.885801,0.386747,1.624252,0.041976,0.000000,0.000000,0.000000,0.000000,0.000000,0.000000
11931446.000000,2.300987,-1.037320,-1.870623,-1.464097,-0.999879,1.772478,0.486753,-0.002375,-0.385753,-0.190684,-0.232326,-0.371585,0.392850,0.161931,-0.762896,35.143475,19.544785,10.838194,0.327238,1.624252,0.054794,0.000000,0.000000,0.000000,0.000000,0.000000,0.000000
11931447.000000,2.300990,-1.037720,-1.870819,-1.464329,-1.000270,1.772872,0.486914,-0.000616,-0.392403,-0.194052,-0.232482,-0.369322,0.393987,0.158243,-0.810504,35.238689,19.568588,10.762815,0.356534,1.708480,0.081344,0.000000,0.000000,0.000000,0.000000,0.000000,0.000000
11931448.000000,2.300988,-1.038123,-1.871018,-1.464553,-1.000649,1.773262,0.487084,-0.001077,-0.397353,-0.195052,-0.229084,-0.372862,0.390349,0.160740,-0.786700,35.413250,19.667770,10.663633,0.393156,1.727706,0.054794,0.000000,0.000000,0.000000,0.000000,0.000000,0.000000
11931449.000000,2.300990,-1.038518,-1.871214,-1.464775,-1.001024,1.773663,0.487247,-0.000801,-0.400150,-0.193367,-0.223253,-0.374105,0.393434,0.157781,-0.786700,35.536236,19.667770,10.616026,0.398649,1.689254,0.067611,0.000000,0.000000,0.000000,0.000000,0.000000,0.000000
11931450.000000,2.300991,-1.038910,-1.871413,-1.464994,-1.001415,1.774066,0.487412,-0.000596,-0.398948,-0.193760,-0.227702,-0.380587,0.398559,0.155067,-0.786700,35.655254,19.739182,10.540648,0.374845,1.670028,0.081344,0.000000,0.000000,0.000000,0.000000,0.000000,0.000000
11931451.000000,2.300988,-1.039300,-1.871613,-1.465221,-1.001799,1.774467,0.487573,-0.001650,-0.404844,-0.192732,-0.225298,-0.381215,0.403351,0.153092,-0.735125,35.706829,19.766953,10.516844,0.410551,1.649886,0.107894,0.000000,0.000000,0.000000,0.000000,0.000000,0.000000
11931452.000000,2.300997,-1.039691,-1.871816,-1.465441,-1.002177,1.774877,0.487741,0.001835,-0.405406,-0.191015,-0.219676,-0.381310,0.404165,0.159562,-0.862078,35.683025,19.885971,10.441465,0.398649,1.572067,0.034652,0.000000,0.000000,0.000000,0.000000,0.000000,0.000000
11931453.000000,2.300999,-1.040089,-1.872014,-1.465659,-1.002569,1.775267,0.487900,0.001197,-0.402701,-0.191332,-0.218019,-0.386433,0.401369,0.158642,-0.862078,35.631451,19.937546,10.441465,0.434354,1.591293,0.094161,0.000000,0.000000,0.000000,0.000000,0.000000,0.000000
11931454.000000,2.300999,-1.040475,-1.872209,-1.465876,-1.002964,1.775654,0.488067,0.004068,-0.402645,-0.190333,-0.217725,-0.387403,0.396009,0.166295,-0.862078,35.583843,19.937546,10.342283,0.494779,1.702071,0.061202,0.000000,0.000000,0.000000,0.000000,0.000000,0.000000
11931455.000000,2.301005,-1.040865,-1.872415,-1.466099,-1.003348,1.776044,0.488229,0.004085,-0.400044,-0.195310,-0.221747,-0.379415,0.390734,0.166609,-0.909686,35.437054,20.036728,10.393858,0.482877,1.721298,0.074935,0.000000,0.000000,0.000000,0.000000,0.000000,0.000000
11931456.000000,2.301008,-1.041258,-1.872619,-1.466316,-1.003732,1.776431,0.488388,0.002918,-0.398331,-0.193654,-0.221124,-0.382995,0.394123,0.165940,-0.909686,35.337872,20.060532,10.441465,0.452665,1.689254,0.107894,0.000000,0.000000,0.000000,0.000000,0.000000,0.000000
11931457.000000,2.301011,-1.041646,-1.872824,-1.466530,-1.004120,1.776827,0.488558,0.002091,-0.398135,-0.196629,-0.217793,-0.380171,0.391560,0.164580,-0.909686,35.167278,20.108139,10.441465,0.422452,1.656295,0.048385,0.000000,0.000000,0.000000,0.000000,0.000000,0.000000
11931458.000000,2.301020,-1.042041,-1.873027,-1.466741,-1.004496,1.777212,0.488717,0.003267,-0.398379,-0.196613,-0.215426,-0.375504,0.391175,0.163678,-0.985064,35.167278,20.060532,10.393858,0.393156,1.702071,0.081344,0.000000,0.000000,0.000000,0.000000,0.000000,0.000000
11931459.000000,2.301021,-1.042431,-1.873236,-1.466956,-1.004885,1.777584,0.488881,0.005040,-0.399056,-0.198061,-0.211072,-0.381004,0.387132,0.160481,-0.961260,35.119671,20.084335,10.417662,0.393156,1.741439,0.048385,0.000000,0.000000,0.000000,0.000000,0.000000,0.000000
11931460.000000,2.301028,-1.042830,-1.873439,-1.467176,-1.005280,1.777963,0.489038,0.004256,-0.398763,-0.199049,-0.210516,-0.382190,0.384289,0.160931,-0.985064,35.191082,20.084335,10.493040,0.428861,1.754256,0.094161,0.000000,0.000000,0.000000,0.000000,0.000000,0.000000
11931461.000000,2.301031,-1.043233,-1.873653,-1.467386,-1.005662,1.778337,0.489206,0.001886,-0.400717,-0.202827,-0.213193,-0.378015,0.383423,0.163811,-0.933489,35.214886,20.231125,10.441465,0.470060,1.747848,0.067611,0.000000,0.000000,0.000000,0.000000,0.000000,0.000000
11931462.000000,2.301035,-1.043624,-1.873858,-1.467597,-1.006045,1.778711,0.489375,0.004241,-0.397074,-0.199065,-0.210973,-0.383926,0.379184,0.165637,-0.909686,35.266460,20.231125,10.393858,0.464567,1.721298,0.054794,0.000000,0.000000,0.000000,0.000000,0.000000,0.000000
11931463.000000,2.301043,-1.044021,-1.874062,-1.467816,-1.006437,1.779089,0.489539,0.007092,-0.395393,-0.202600,-0.211285,-0.386169,0.379104,0.161173,-0.933489,35.290264,20.231125,10.516844,0.446256,1.727706,0.061202,0.000000,0.000000,0.000000,0.000000,0.000000,0.000000
11931464.000000,2.301045,-1.044414,-1.874268,-1.468028,-1.006820,1.779465,0.489705,0.006912,-0.395018,-0.200494,-0.208606,-0.388673,0.379481,0.158525,-0.862078,35.337872,20.183517,10.516844,0.416959,1.727706,0.061202,0.000000,0.000000,0.000000,0.000000,0.000000,0.000000
11931465.000000,2.301047,-1.044813,-1.874478,-1.468242,-1.007205,1.779838,0.489869,0.007408,-0.395539,-0.202529,-0.211469,-0.388272,0.378538,0.160135,-0.810504,35.290264,20.254929,10.516844,0.362943,1.741439,0.094161,0.000000,0.000000,0.000000,0.000000,0.000000,0.000000
11931466.000000,2.301052,-1.045217,-1.874681,-1.468456,-1.007595,1.780203,0.490038,0.008308,-0.393924,-0.200538,-0.208860,-0.390086,0.380299,0.163812,-0.786700,35.361675,20.183517,10.516844,0.339139,1.819259,0.054794,0.000000,0.000000,0.000000,0.000000,0.000000,0.000000
11931467.000000,2.301050,-1.045617,-1.874889,-1.468670,-1.007991,1.780576,0.490201,0.006575,-0.399192,-0.203447,-0.205390,-0.388197,0.378633,0.162271,-0.663714,35.413250,20.159714,10.516844,0.362943,1.858627,0.081344,0.000000,0.000000,0.000000,0.000000,0.000000,0.000000
11931470.000000,2.301035,-1.046840,-1.875508,-1.469320,-1.009179,1.781713,0.490712,-0.003567,-0.406575,-0.209008,-0.213225,-0.393791,0.377351,0.167648,-0.243182,35.730633,20.278732,10.540648,0.422452,1.741439,0.048385,0.000000,0.000000,0.000000,0.000000,0.000000,0.000000
11931471.000000,2.301027,-1.047259,-1.875716,-1.469541,-1.009567,1.782095,0.490878,-0.004966,-0.409910,-0.210644,-0.215806,-0.394447,0.378713,0.166489,-0.116229,35.948833,20.306503,10.639830,0.422452,1.721298,0.067611,0.000000,0.000000,0.000000,0.000000,0.000000,0.000000
11931472.000000,2.301019,-1.047673,-1.875926,-1.469752,-1.009965,1.782470,0.491040,-0.005901,-0.410525,-0.209581,-0.213674,-0.400012,0.378714,0.173689,0.006757,36.171001,20.377914,10.592222,0.398649,1.727706,0.120712,0.000000,0.000000,0.000000,0.000000,0.000000,0.000000
11931473.000000,2.301015,-1.048090,-1.876130,-1.469971,-1.010370,1.782852,0.491211,-0.004276,-0.412814,-0.207300,-0.214860,-0.401157,0.378888,0.175038,0.030561,36.293987,20.377914,10.564451,0.452665,1.721298,0.061202,0.000000,0.000000,0.000000,0.000000,0.000000,0.000000
11931474.000000,2.301010,-1.048498,-1.876342,-1.470184,-1.010751,1.783224,0.491371,-0.005775,-0.404448,-0.204598,-0.212822,-0.398445,0.378685,0.167684,0.030561,36.341595,20.477097,10.493040,0.410551,1.727706,0.094161,0.000000,0.000000,0.000000,0.000000,0.000000,0.000000
11931475.000000,2.301001,-1.048914,-1.876549,-1.470402,-1.011147,1.783595,0.491545,-0.008807,-0.413953,-0.206875,-0.211800,-0.396056,0.370465,0.172642,0.105939,36.563763,20.477097,10.493040,0.374845,1.727706,0.054794,0.000000,0.000000,0.000000,0.000000,0.000000,0.000000
11931476.000000,2.300991,-1.049317,-1.876751,-1.470613,-1.011536,1.783975,0.491713,-0.008549,-0.410183,-0.205908,-0.211819,-0.393627,0.377120,0.171502,0.205121,36.488384,20.500900,10.465269,0.374845,1.721298,0.061202,0.000000,0.000000,0.000000,0.000000,0.000000,0.000000
11931477.000000,2.300978,-1.049726,-1.876965,-1.470837,-1.011926,1.784350,0.491875,-0.008287,-0.411837,-0.207744,-0.216102,-0.390115,0.377919,0.169233,0.304304,36.512188,20.647690,10.493040,0.386747,1.721298,0.114303,0.000000,0.000000,0.000000,0.000000,0.000000,0.000000
11931478.000000,2.300969,-1.050138,-1.877168,-1.471056,-1.012325,1.784722,0.492047,-0.007396,-0.406616,-0.203981,-0.216123,-0.396640,0.372642,0.167139,0.375715,36.535992,20.699265,10.516844,0.398649,1.741439,0.048385,0.000000,0.000000,0.000000,0.000000,0.000000,0.000000
11931479.000000,2.300959,-1.050553,-1.877376,-1.471274,-1.012724,1.785084,0.492208,-0.010215,-0.410337,-0.206181,-0.214163,-0.397923,0.372744,0.160681,0.474897,36.611370,20.699265,10.592222,0.434354,1.793624,0.100570,0.000000,0.000000,0.000000,0.000000,0.000000,0.000000
11931480.000000,2.300950,-1.050958,-1.877603,-1.471484,-1.013111,1.785454,0.492373,-0.008364,-0.400828,-0.210656,-0.209058,-0.389224,0.368395,0.163268,0.526471,36.611370,20.945236,10.564451,0.428861,1.844894,0.094161,0.000000,0.000000,0.000000,0.000000,0.000000,0.000000
11931481.000000,2.300944,-1.051374,-1.877812,-1.471701,-1.013513,1.785827,0.492541,-0.005837,-0.406507,-0.212176,-0.214593,-0.395052,0.367579,0.166263,0.526471,36.734356,20.992844,10.616026,0.410551,1.825668,0.054794,0.000000,0.000000,0.000000,0.000000,0.000000,0.000000
11931482.000000,2.300936,-1.051788,-1.878031,-1.471916,-1.013907,1.786198,0.492700,-0.004643,-0.406698,-0.210911,-0.211818,-0.394510,0.372075,0.164302,0.550275,36.928753,21.092026,10.639830,0.362943,1.786300,0.114303,0.000000,0.000000,0.000000,0.000000,0.000000,0.000000
11931483.000000,2.300926,-1.052197,-1.878254,-1.472126,-1.014306,1.786573,0.492867,-0.007753,-0.415589,-0.215335,-0.210767,-0.389929,0.372699,0.162170,0.601850,36.980328,21.262619,10.616026,0.362943,1.806442,0.087753,0.000000,0.000000,0.000000,0.000000,0.000000,0.000000
11931484.000000,2.300922,-1.052599,-1.878477,-1.472341,-1.014705,1.786943,0.493034,-0.004905,-0.410205,-0.214557,-0.212773,-0.392325,0.373489,0.159053,0.574079,36.857342,21.409409,10.663633,0.369352,1.832076,0.087753,0.000000,0.000000,0.000000,0.000000,0.000000,0.000000
11931485.000000,2.300913,-1.052999,-1.878699,-1.472558,-1.015115,1.787313,0.493198,-0.004208,-0.411531,-0.217339,-0.214652,-0.401504,0.375402,0.161718,0.601850,36.758160,21.556198,10.691404,0.452665,1.825668,0.061202,0.000000,0.000000,0.000000,0.000000,0.000000,0.000000
11931486.000000,2.300909,-1.053402,-1.878917,-1.472770,-1.015518,1.787682,0.493359,-0.003022,-0.405297,-0.218244,-0.216751,-0.403597,0.373358,0.161857,0.601850,36.611370,21.655380,10.715208,0.518583,1.890670,0.100570,0.000000,0.000000,0.000000,0.000000,0.000000,0.000000
11931487.000000,2.300904,-1.053799,-1.879143,-1.472986,-1.015910,1.788041,0.493531,-0.002734,-0.415609,-0.222226,-0.212394,-0.401969,0.372946,0.166629,0.625654,36.488384,21.778366,10.762815,0.530485,1.942855,0.028243,0.000000,0.000000,0.000000,0.000000,0.000000,0.000000
11931488.000000,2.300893,-1.054201,-1.879364,-1.473200,-1.016306,1.788409,0.493688,-0.003615,-0.411660,-0.226239,-0.211225,-0.400416,0.370191,0.161178,0.697065,36.341595,21.849777,10.762815,0.506681,1.942855,0.054794,0.000000,0.000000,0.000000,0.000000,0.000000,0.000000
11931489.000000,2.300889,-1.054609,-1.879588,-1.473416,-1.016693,1.788787,0.493847,-0.003151,-0.409791,-0.227563,-0.212503,-0.393427,0.370244,0.161858,0.724836,36.218609,21.925156,10.762815,0.464567,1.890670,0.081344,0.000000,0.000000,0.000000,0.000000,0.000000,0.000000
11931490.000000,2.300889,-1.055006,-1.879809,-1.473626,-1.017087,1.789151,0.494011,-0.002169,-0.406308,-0.227559,-0.211125,-0.393575,0.372980,0.163501,0.724836,36.071819,21.972763,10.762815,0.416959,1.884261,0.067611,0.000000,0.000000,0.000000,0.000000,0.000000,0.000000
11931491.000000,2.300881,-1.055404,-1.880031,-1.473834,-1.017487,1.789510,0.494177,-0.003168,-0.405975,-0.225480,-0.205565,-0.394797,0.367157,0.164833,0.796247,35.925030,22.048141,10.691404,0.428861,1.955673,0.067611,0.000000,0.000000,0.000000,0.000000,0.000000,0.000000
11931492.000000,2.300881,-1.055805,-1.880250,-1.474048,-1.017876,1.789864,0.494345,-0.002800,-0.402482,-0.222977,-0.211021,-0.393249,0.364522,0.166051,0.824018,35.778240,22.095749,10.691404,0.470060,2.001449,0.061202,0.000000,0.000000,0.000000,0.000000,0.000000,0.000000
11931493.000000,2.300878,-1.056210,-1.880472,-1.474258,-1.018264,1.790228,0.494505,-0.003009,-0.411944,-0.222313,-0.206113,-0.392346,0.363874,0.165483,0.871625,35.802044,22.171127,10.639830,0.440763,2.014266,0.100570,0.000000,0.000000,0.000000,0.000000,0.000000,0.000000
11931494.000000,2.300874,-1.056610,-1.880677,-1.474466,-1.018660,1.790597,0.494677,0.003112,-0.404399,-0.221298,-0.204967,-0.395277,0.360522,0.168552,0.923200,35.730633,22.095749,10.639830,0.452665,1.981307,0.028243,0.000000,0.000000,0.000000,0.000000,0.000000,0.000000
11931495.000000,2.300877,-1.057006,-1.880895,-1.474680,-1.019061,1.790948,0.494836,0.002587,-0.407062,-0.219214,-0.206996,-0.396607,0.356403,0.160783,0.923200,35.683025,22.095749,10.762815,0.488370,1.988631,0.087753,0.000000,0.000000,0.000000,0.000000,0.000000,0.000000
11931496.000000,2.300874,-1.057410,-1.881109,-1.474889,-1.019461,1.791313,0.494997,0.000995,-0.408182,-0.218353,-0.205447,-0.395832,0.361313,0.158214,0.970807,35.631451,22.119553,10.762815,0.452665,2.001449,0.094161,0.000000,0.000000,0.000000,0.000000,0.000000,0.000000
11931497.000000,2.300874,-1.057818,-1.881322,-1.475092,-1.019862,1.791671,0.495164,0.000952,-0.409071,-0.215356,-0.200902,-0.395288,0.360656,0.157127,0.970807,35.583843,22.048141,10.739012,0.428861,2.033492,0.048385,0.000000,0.000000,0.000000,0.000000,0.000000,0.000000
11931498.000000,2.300881,-1.058212,-1.881538,-1.475299,-1.020267,1.792032,0.495329,0.003171,-0.397708,-0.217886,-0.197347,-0.397698,0.356241,0.158331,0.871625,35.460857,22.024338,10.786619,0.446256,2.053634,0.061202,0.000000,0.000000,0.000000,0.000000,0.000000,0.000000
11931499.000000,2.300881,-1.058618,-1.881745,-1.475497,-1.020669,1.792397,0.495487,0.002276,-0.400580,-0.212677,-0.194990,-0.397500,0.358727,0.160355,0.871625,35.413250,21.972763,10.786619,0.440763,2.020675,0.081344,0.000000,0.000000,0.000000,0.000000,0.000000,0.000000
11931500.000000,2.300880,-1.059013,-1.881951,-1.475704,-1.021073,1.792762,0.495652,0.000433,-0.398035,-0.210928,-0.197748,-0.398280,0.360350,0.158652,0.923200,35.266460,21.901352,10.838194,0.428861,2.001449,0.054794,0.000000,0.000000,0.000000,0.000000,0.000000,0.000000
11931501.000000,2.300879,-1.059418,-1.882148,-1.475914,-1.021489,1.793127,0.495812,-0.000177,-0.405170,-0.205524,-0.196277,-0.398705,0.360277,0.156676,0.947004,35.238689,21.754562,10.937376,0.476469,1.995040,0.054794,0.000000,0.000000,0.000000,0.000000,0.000000,0.000000
11931502.000000,2.300890,-1.059831,-1.882349,-1.476116,-1.021890,1.793482,0.495969,0.006169,-0.402300,-0.202112,-0.198580,-0.403842,0.359648,0.152279,0.824018,35.266460,21.631577,10.984983,0.500272,2.020675,0.100570,0.000000,0.000000,0.000000,0.000000,0.000000,0.000000
11931503.000000,2.300891,-1.060238,-1.882550,-1.476313,-1.022301,1.793851,0.496131,0.003886,-0.410365,-0.200279,-0.195163,-0.406572,0.363837,0.154206,0.847822,35.385479,21.532394,11.012754,0.500272,2.039901,0.041976,0.000000,0.000000,0.000000,0.000000,0.000000,0.000000
11931504.000000,2.300895,-1.060657,-1.882741,-1.476509,-1.022703,1.794228,0.496291,0.002281,-0.409043,-0.197784,-0.197113,-0.398909,0.368348,0.157353,0.871625,35.508465,21.385605,10.961180,0.470060,2.007858,0.054794,0.000000,0.000000,0.000000,0.000000,0.000000,0.000000
11931505.000000,2.300906,-1.061060,-1.882939,-1.476707,-1.023094,1.794598,0.496447,0.006723,-0.420724,-0.194924,-0.194169,-0.397454,0.365401,0.157307,0.796247,35.508465,21.337997,10.984983,0.416959,1.930038,0.107894,0.000000,0.000000,0.000000,0.000000,0.000000,0.000000
11931506.000000,2.300916,-1.061474,-1.883133,-1.476899,-1.023501,1.794974,0.496619,0.008839,-0.419927,-0.200365,-0.193333,-0.396370,0.366549,0.165177,0.748639,35.583843,21.262619,10.937376,0.381254,1.865035,0.054794,0.000000,0.000000,0.000000,0.000000,0.000000,0.000000
11931507.000000,2.300919,-1.061892,-1.883327,-1.477085,-1.023898,1.795348,0.496775,0.008385,-0.420900,-0.196216,-0.190624,-0.401794,0.365389,0.163516,0.796247,35.706829,21.187241,10.861998,0.393156,1.858627,0.120712,0.000000,0.000000,0.000000,0.000000,0.000000,0.000000
11931508.000000,2.300931,-1.062301,-1.883517,-1.477270,-1.024298,1.795706,0.496943,0.010643,-0.417247,-0.190628,-0.186544,-0.400961,0.363397,0.162006,0.748639,35.706829,21.139633,10.762815,0.386747,1.877853,0.081344,0.000000,0.000000,0.000000,0.000000,0.000000,0.000000
11931509.000000,2.300943,-1.062729,-1.883697,-1.477467,-1.024705,1.796068,0.497108,0.012365,-0.420441,-0.187211,-0.186815,-0.400885,0.366069,0.159972,0.697065,35.877422,20.992844,10.786619,0.410551,1.890670,0.061202,0.000000,0.000000,0.000000,0.000000,0.000000,0.000000
11931510.000000,2.300953,-1.063148,-1.883880,-1.477660,-1.025107,1.796433,0.497272,0.009095,-0.416355,-0.188290,-0.185457,-0.401244,0.362424,0.161135,0.697065,35.901226,20.869858,10.838194,0.452665,1.851302,0.087753,0.000000,0.000000,0.000000,0.000000,0.000000,0.000000
11931511.000000,2.300966,-1.063550,-1.884068,-1.477841,-1.025496,1.796801,0.497436,0.010551,-0.414884,-0.188133,-0.183149,-0.392675,0.364914,0.164613,0.673261,35.853619,20.822250,10.762815,0.405057,1.779891,0.054794,0.000000,0.000000,0.000000,0.000000,0.000000,0.000000
11931512.000000,2.300981,-1.063961,-1.884249,-1.478019,-1.025891,1.797159,0.497598,0.012242,-0.409906,-0.186412,-0.183584,-0.393217,0.364069,0.163927,0.601850,35.802044,20.723068,10.715208,0.356534,1.767074,0.087753,0.000000,0.000000,0.000000,0.000000,0.000000,0.000000
11931513.000000,2.300998,-1.064369,-1.884434,-1.478198,-1.026294,1.797508,0.497767,0.014577,-0.411829,-0.185264,-0.182673,-0.394331,0.360233,0.166197,0.502668,35.829815,20.647690,10.616026,0.369352,1.851302,0.067611,0.000000,0.000000,0.000000,0.000000,0.000000,0.000000
11931514.000000,2.301017,-1.064788,-1.884621,-1.478379,-1.026689,1.797856,0.497926,0.013561,-0.408866,-0.183581,-0.182712,-0.393173,0.357350,0.160596,0.375715,35.948833,20.647690,10.540648,0.308927,1.916305,0.114303,0.000000,0.000000,0.000000,0.000000,0.000000,0.000000
11931515.000000,2.301029,-1.065208,-1.884804,-1.478553,-1.027094,1.798212,0.498100,0.012978,-0.413777,-0.180539,-0.179162,-0.402247,0.357198,0.164935,0.375715,36.095623,20.576279,10.441465,0.267728,1.851302,0.054794,0.000000,0.000000,0.000000,0.000000,0.000000,0.000000
11931516.000000,2.301051,-1.065610,-1.884994,-1.478730,-1.027501,1.798575,0.498259,0.016684,-0.410886,-0.183489,-0.174353,-0.402671,0.359668,0.163100,0.205121,36.024212,20.600082,10.441465,0.285123,1.819259,0.094161,0.000000,0.000000,0.000000,0.000000,0.000000,0.000000
11931517.000000,2.301065,-1.066021,-1.885177,-1.478909,-1.027905,1.798944,0.498424,0.019036,-0.409784,-0.185722,-0.175680,-0.402611,0.361969,0.165295,0.177350,35.976604,20.623886,10.465269,0.320829,1.760665,0.081344,0.000000,0.000000,0.000000,0.000000,0.000000,0.000000
11931518.000000,2.301079,-1.066424,-1.885355,-1.479082,-1.028308,1.799298,0.498591,0.017437,-0.405110,-0.183278,-0.172515,-0.407656,0.361926,0.162398,0.153547,35.853619,20.500900,10.370054,0.303434,1.760665,0.048385,0.000000,0.000000,0.000000,0.000000,0.000000,0.000000
11931519.000000,2.301099,-1.066828,-1.885543,-1.479261,-1.028726,1.799649,0.498747,0.017948,-0.409763,-0.188109,-0.173570,-0.411936,0.355727,0.163015,0.078168,35.683025,20.500900,10.417662,0.381254,1.800033,0.081344,0.000000,0.000000,0.000000,0.000000,0.000000,0.000000
11931520.000000,2.301123,-1.067229,-1.885736,-1.479426,-1.029131,1.800005,0.498913,0.022633,-0.404926,-0.188502,-0.170008,-0.409166,0.355694,0.164379,-0.068621,35.413250,20.500900,10.370054,0.410551,1.844894,0.074935,0.000000,0.000000,0.000000,0.000000,0.000000,0.000000
11931521.000000,2.301143,-1.067626,-1.885926,-1.479588,-1.029549,1.800364,0.499080,0.021267,-0.407594,-0.188081,-0.165229,-0.409446,0.352836,0.169348,-0.144000,35.167278,20.477097,10.294676,0.374845,1.851302,0.074935,0.000000,0.000000,0.000000,0.000000,0.000000,0.000000
11931522.000000,2.301165,-1.068028,-1.886110,-1.479754,-1.029962,1.800724,0.499249,0.021386,-0.401466,-0.183653,-0.166289,-0.405382,0.350876,0.165272,-0.266986,34.945110,20.401718,10.219297,0.351041,1.844894,0.061202,0.000000,0.000000,0.000000,0.000000,0.000000,0.000000
11931523.000000,2.301188,-1.068434,-1.886300,-1.479921,-1.030367,1.801086,0.499408,0.020824,-0.402634,-0.183845,-0.166488,-0.408072,0.354741,0.159816,-0.366168,34.798321,20.354111,10.243101,0.332731,1.825668,0.107894,0.000000,0.000000,0.000000,0.000000,0.000000,0.000000
11931524.000000,2.301209,-1.068843,-1.886490,-1.480087,-1.030785,1.801460,0.499574,0.022801,-0.405546,-0.185450,-0.166308,-0.409171,0.359125,0.164934,-0.441546,34.798321,20.354111,10.270872,0.320829,1.754256,0.114303,0.000000,0.000000,0.000000,0.000000,0.000000,0.000000
11931525.000000,2.301225,-1.069258,-1.886674,-1.480241,-1.031197,1.801823,0.499746,0.019865,-0.406177,-0.184659,-0.163512,-0.417854,0.355961,0.168668,-0.441546,34.849895,20.278732,10.171690,0.320829,1.741439,0.041976,0.000000,0.000000,0.000000,0.000000,0.000000,0.000000
11931526.000000,2.301246,-1.069663,-1.886864,-1.480404,-1.031615,1.802172,0.499899,0.018708,-0.407222,-0.184658,-0.164686,-0.417934,0.356060,0.165524,-0.489153,34.873699,20.231125,10.219297,0.344633,1.786300,0.107894,0.000000,0.000000,0.000000,0.000000,0.000000,0.000000
11931527.000000,2.301267,-1.070086,-1.887057,-1.480562,-1.032039,1.802531,0.500065,0.020598,-0.417680,-0.187213,-0.161382,-0.417657,0.356278,0.164211,-0.512957,35.068096,20.278732,10.120115,0.356534,1.806442,0.048385,0.000000,0.000000,0.000000,0.000000,0.000000,0.000000
11931528.000000,2.301287,-1.070498,-1.887249,-1.480725,-1.032450,1.802885,0.500227,0.019113,-0.413202,-0.189773,-0.162792,-0.418531,0.354060,0.164248,-0.540728,35.044292,20.231125,10.143919,0.369352,1.800033,0.074935,0.000000,0.000000,0.000000,0.000000,0.000000,0.000000
11931529.000000,2.301301,-1.070903,-1.887446,-1.480883,-1.032858,1.803242,0.500383,0.018669,-0.410271,-0.193747,-0.161337,-0.411186,0.349358,0.164543,-0.465350,34.972881,20.254929,10.120115,0.339139,1.747848,0.107894,0.000000,0.000000,0.000000,0.000000,0.000000,0.000000
11931530.000000,2.301322,-1.071315,-1.887641,-1.481039,-1.033271,1.803608,0.500541,0.020897,-0.406273,-0.196452,-0.161530,-0.414198,0.350043,0.161667,-0.489153,34.972881,20.278732,10.096312,0.320829,1.695663,0.094161,0.000000,0.000000,0.000000,0.000000,0.000000,0.000000
11931531.000000,2.301342,-1.071721,-1.887826,-1.481198,-1.033697,1.803958,0.500700,0.018086,-0.407746,-0.191845,-0.158512,-0.420170,0.354707,0.158506,-0.465350,34.921307,20.183517,10.120115,0.351041,1.754256,0.107894,0.000000,0.000000,0.000000,0.000000,0.000000,0.000000
11931532.000000,2.301354,-1.072135,-1.888015,-1.481361,-1.034113,1.804314,0.500860,0.015108,-0.412511,-0.189429,-0.160884,-0.418180,0.350613,0.158303,-0.389971,34.921307,20.108139,10.171690,0.320829,1.773483,0.067611,0.000000,0.000000,0.000000,0.000000,0.000000,0.000000
11931533.000000,2.301370,-1.072555,-1.888207,-1.481519,-1.034531,1.804666,0.501013,0.013667,-0.414437,-0.190155,-0.160330,-0.416421,0.352199,0.155474,-0.342364,34.972881,20.131943,10.120115,0.297025,1.754256,0.081344,0.000000,0.000000,0.000000,0.000000,0.000000,0.000000
11931534.000000,2.301380,-1.072979,-1.888394,-1.481677,-1.034956,1.805021,0.501167,0.010553,-0.417858,-0.189563,-0.160027,-0.418273,0.350413,0.155653,-0.215411,35.167278,20.108139,10.120115,0.356534,1.760665,0.048385,0.000000,0.000000,0.000000,0.000000,0.000000,0.000000
11931535.000000,2.301395,-1.073403,-1.888581,-1.481838,-1.035373,1.805376,0.501311,0.010472,-0.418253,-0.189585,-0.164410,-0.422304,0.348962,0.156125,-0.167803,35.266460,20.108139,10.171690,0.356534,1.760665,0.120712,0.000000,0.000000,0.000000,0.000000,0.000000,0.000000
11931536.000000,2.301409,-1.073831,-1.888767,-1.481988,-1.035789,1.805727,0.501473,0.012727,-0.420043,-0.188575,-0.159854,-0.421526,0.350256,0.156903,-0.092425,35.484661,20.084335,10.048704,0.315336,1.708480,0.067611,0.000000,0.000000,0.000000,0.000000,0.000000,0.000000
11931537.000000,2.301425,-1.074269,-1.888955,-1.482150,-1.036213,1.806083,0.501628,0.011868,-0.426154,-0.185775,-0.159742,-0.420296,0.352734,0.160137,-0.044818,35.706829,20.084335,10.020933,0.339139,1.702071,0.067611,0.000000,0.000000,0.000000,0.000000,0.000000,0.000000
11931538.000000,2.301448,-1.074701,-1.889149,-1.482304,-1.036619,1.806432,0.501787,0.013487,-0.425766,-0.188538,-0.158663,-0.412010,0.355110,0.158214,-0.092425,35.853619,20.159714,9.921751,0.285123,1.695663,0.048385,0.000000,0.000000,0.000000,0.000000,0.000000,0.000000
11931539.000000,2.301456,-1.075130,-1.889340,-1.482461,-1.037042,1.806788,0.501940,0.010656,-0.425502,-0.188360,-0.155638,-0.408787,0.357822,0.157918,0.030561,35.976604,20.159714,9.874144,0.297025,1.662704,0.087753,0.000000,0.000000,0.000000,0.000000,0.000000,0.000000
11931540.000000,2.301476,-1.075553,-1.889530,-1.482619,-1.037455,1.807136,0.502091,0.014986,-0.421153,-0.189540,-0.156462,-0.409859,0.356673,0.155032,0.006757,35.948833,20.207321,9.850340,0.273221,1.689254,0.120712,0.000000,0.000000,0.000000,0.000000,0.000000,0.000000
11931541.000000,2.301490,-1.075983,-1.889731,-1.482774,-1.037864,1.807480,0.502256,0.013095,-0.424988,-0.191896,-0.155946,-0.417237,0.351663,0.156492,0.054365,35.976604,20.330307,9.874144,0.291532,1.747848,0.054794,0.000000,0.000000,0.000000,0.000000,0.000000,0.000000
11931542.000000,2.301508,-1.076417,-1.889920,-1.482922,-1.038282,1.807835,0.502401,0.016404,-0.426592,-0.192114,-0.155880,-0.417320,0.352056,0.153151,0.054365,36.095623,20.377914,9.798765,0.297025,1.702071,0.107894,0.000000,0.000000,0.000000,0.000000,0.000000,0.000000
11931543.000000,2.301518,-1.076863,-1.890116,-1.483078,-1.038687,1.808186,0.502562,0.013182,-0.433622,-0.195393,-0.158000,-0.418542,0.350752,0.153679,0.153547,36.270184,20.429489,9.798765,0.279630,1.689254,0.061202,0.000000,0.000000,0.000000,0.000000,0.000000,0.000000
11931544.000000,2.301536,-1.077297,-1.890316,-1.483232,-1.039100,1.808533,0.502722,0.016494,-0.432727,-0.196341,-0.156534,-0.418056,0.352769,0.152464,0.153547,36.416973,20.552475,9.798765,0.267728,1.714889,0.074935,0.000000,0.000000,0.000000,0.000000,0.000000,0.000000
11931545.000000,2.301555,-1.077738,-1.890513,-1.483383,-1.039523,1.808886,0.502875,0.015849,-0.438153,-0.198478,-0.155850,-0.412927,0.351398,0.156114,0.153547,36.563763,20.600082,9.727354,0.279630,1.689254,0.094161,0.000000,0.000000,0.000000,0.000000,0.000000,0.000000
11931546.000000,2.301570,-1.078175,-1.890720,-1.483532,-1.039933,1.809232,0.503034,0.014803,-0.440855,-0.202217,-0.154742,-0.409047,0.351706,0.160786,0.177350,36.734356,20.746872,9.727354,0.279630,1.643478,0.054794,0.000000,0.000000,0.000000,0.000000,0.000000,0.000000
11931547.000000,2.301594,-1.078604,-1.890929,-1.483684,-1.040346,1.809573,0.503190,0.019250,-0.438765,-0.204011,-0.154207,-0.409783,0.353541,0.161114,0.105939,36.758160,20.846054,9.751158,0.267728,1.662704,0.061202,0.000000,0.000000,0.000000,0.000000,0.000000,0.000000
11931548.000000,2.301610,-1.079028,-1.891130,-1.483838,-1.040764,1.809915,0.503342,0.022662,-0.434360,-0.203880,-0.154083,-0.413138,0.348172,0.158609,0.153547,36.682781,20.893661,9.774961,0.291532,1.741439,0.054794,0.000000,0.000000,0.000000,0.000000,0.000000,0.000000
11931549.000000,2.301639,-1.079453,-1.891339,-1.483995,-1.041185,1.810248,0.503492,0.026223,-0.421525,-0.204825,-0.153271,-0.408953,0.341740,0.154636,0.030561,36.587566,20.992844,9.822569,0.291532,1.786300,0.107894,0.000000,0.000000,0.000000,0.000000,0.000000,0.000000
11931550.000000,2.301661,-1.079882,-1.891545,-1.484153,-1.041610,1.810590,0.503645,0.026603,-0.428820,-0.206348,-0.154036,-0.415860,0.337655,0.155651,0.006757,36.563763,21.115829,9.921751,0.327238,1.793624,0.061202,0.000000,0.000000,0.000000,0.000000,0.000000,0.000000
11931551.000000,2.301677,-1.080313,-1.891752,-1.484301,-1.042028,1.810935,0.503797,0.025260,-0.426779,-0.206172,-0.153046,-0.415404,0.339832,0.153098,0.054365,36.464581,21.187241,9.921751,0.327238,1.786300,0.087753,0.000000,0.000000,0.000000,0.000000,0.000000,0.000000
11931552.000000,2.301700,-1.080741,-1.891961,-1.484454,-1.042446,1.811275,0.503951,0.025820,-0.432738,-0.209415,-0.149826,-0.417254,0.338611,0.151712,0.030561,36.416973,21.262619,9.997129,0.332731,1.858627,0.114303,0.000000,0.000000,0.000000,0.000000,0.000000,0.000000
11931553.000000,2.301720,-1.081172,-1.892172,-1.484609,-1.042872,1.811617,0.504118,0.022620,-0.428983,-0.212483,-0.152065,-0.420536,0.339276,0.153644,0.030561,36.317791,21.361801,10.048704,0.297025,1.890670,0.061202,0.000000,0.000000,0.000000,0.000000,0.000000,0.000000
11931554.000000,2.301738,-1.081600,-1.892380,-1.484758,-1.043296,1.811957,0.504273,0.022119,-0.433549,-0.209953,-0.147577,-0.424838,0.346659,0.151263,0.078168,36.270184,21.409409,10.020933,0.291532,1.858627,0.094161,0.000000,0.000000,0.000000,0.000000,0.000000,0.000000
11931555.000000,2.301764,-1.082041,-1.892591,-1.484906,-1.043721,1.812307,0.504434,0.020821,-0.436891,-0.209838,-0.146849,-0.421393,0.346932,0.153203,0.030561,36.341595,21.508591,9.997129,0.279630,1.844894,0.041976,0.000000,0.000000,0.000000,0.000000,0.000000,0.000000
11931556.000000,2.301779,-1.082479,-1.892804,-1.485061,-1.044147,1.812642,0.504586,0.016060,-0.437250,-0.208536,-0.150272,-0.419393,0.345081,0.150658,0.129743,36.317791,21.556198,10.096312,0.273221,1.884261,0.067611,0.000000,0.000000,0.000000,0.000000,0.000000,0.000000
11931557.000000,2.301794,-1.082904,-1.893017,-1.485209,-1.044581,1.812983,0.504739,0.016538,-0.433024,-0.207428,-0.148916,-0.419692,0.341069,0.154590,0.205121,36.293987,21.607773,10.096312,0.315336,1.877853,0.067611,0.000000,0.000000,0.000000,0.000000,0.000000,0.000000
11931558.000000,2.301810,-1.083345,-1.893227,-1.485361,-1.045010,1.813324,0.504893,0.014046,-0.435323,-0.204160,-0.150465,-0.421340,0.340844,0.153792,0.276533,36.317791,21.679184,10.143919,0.356534,1.897079,0.067611,0.000000,0.000000,0.000000,0.000000,0.000000,0.000000
11931559.000000,2.301834,-1.083768,-1.893440,-1.485515,-1.045440,1.813668,0.505048,0.017688,-0.428106,-0.204990,-0.152824,-0.429313,0.342750,0.152628,0.252729,36.194805,21.778366,10.171690,0.362943,1.877853,0.074935,0.000000,0.000000,0.000000,0.000000,0.000000,0.000000
11931560.000000,2.301846,-1.084209,-1.893646,-1.485670,-1.045876,1.814014,0.505207,0.013185,-0.431984,-0.200685,-0.148434,-0.424834,0.338455,0.150975,0.403486,36.147198,21.778366,10.195494,0.351041,1.890670,0.067611,0.000000,0.000000,0.000000,0.000000,0.000000,0.000000
11931561.000000,2.301864,-1.084637,-1.893851,-1.485820,-1.046300,1.814349,0.505365,0.016078,-0.429803,-0.203305,-0.150009,-0.433513,0.338783,0.150664,0.427289,35.976604,21.754562,10.243101,0.332731,1.923629,0.067611,0.000000,0.000000,0.000000,0.000000,0.000000,0.000000
11931562.000000,2.301881,-1.085067,-1.894062,-1.485971,-1.046742,1.814681,0.505520,0.014534,-0.427542,-0.202861,-0.147524,-0.435069,0.334687,0.154646,0.474897,35.853619,21.778366,10.270872,0.320829,1.968490,0.067611,0.000000,0.000000,0.000000,0.000000,0.000000,0.000000
11931563.000000,2.301895,-1.085501,-1.894262,-1.486117,-1.047178,1.815021,0.505675,0.012498,-0.430378,-0.204398,-0.144421,-0.433660,0.337102,0.153120,0.550275,35.802044,21.726791,10.243101,0.297025,1.962081,0.081344,0.000000,0.000000,0.000000,0.000000,0.000000,0.000000
11931564.000000,2.301907,-1.085949,-1.894468,-1.486266,-1.047604,1.815354,0.505834,0.010678,-0.432421,-0.205858,-0.143375,-0.434850,0.331229,0.153571,0.649457,35.877422,21.679184,10.270872,0.315336,1.942855,0.048385,0.000000,0.000000,0.000000,0.000000,0.000000,0.000000
11931565.000000,2.301919,-1.086388,-1.894680,-1.486417,-1.048042,1.815686,0.505982,0.012457,-0.435879,-0.208190,-0.143679,-0.433137,0.334947,0.150936,0.748639,36.024212,21.679184,10.270872,0.279630,1.930038,0.100570,0.000000,0.000000,0.000000,0.000000,0.000000,0.000000
11931566.000000,2.301928,-1.086830,-1.894880,-1.486564,-1.048486,1.816027,0.506141,0.009444,-0.434632,-0.205625,-0.145457,-0.437006,0.334276,0.152805,0.895429,36.095623,21.631577,10.270872,0.339139,1.890670,0.048385,0.000000,0.000000,0.000000,0.000000,0.000000,0.000000
