chaoyuefei/paper-gmrm-data/robot_logs/s2_dq_mrm_max_0.50_log_20260314_174832.csv
# time_ms,q_0,q_1,q_2,q_3,q_4,q_5,q_6,dq_0,dq_1,dq_2,dq_3,dq_4,dq_5,dq_6,tau_J_0,tau_J_1,tau_J_2,tau_J_3,tau_J_4,tau_J_5,tau_J_6,O_dP_EE_c_0,O_dP_EE_c_1,O_dP_EE_c_2,O_dP_EE_c_3,O_dP_EE_c_4,O_dP_EE_c_5
13173871.000000,2.312752,-0.964745,-1.819533,-1.386073,-0.927552,1.665498,0.447530,-0.000340,0.000827,-0.000615,0.000272,-0.000294,0.000056,-0.000225,0.030561,35.508465,19.715378,12.123594,1.008390,1.389877,-0.136552,0.000000,0.000000,0.000000,0.000000,0.000000,0.000000
13173872.000000,2.312754,-0.964751,-1.819530,-1.386077,-0.927550,1.665500,0.447534,0.000330,-0.001212,0.000147,-0.000932,0.000482,0.000275,0.001071,0.006757,35.583843,19.691574,12.171202,0.990079,1.383468,-0.169511,0.000000,0.000000,0.000000,0.000000,0.000000,0.000000
13173873.000000,2.312754,-0.964752,-1.819528,-1.386075,-0.927551,1.665500,0.447532,0.000220,-0.001365,0.000655,-0.000065,0.000084,0.000183,0.000205,0.006757,35.607647,19.667770,12.147398,0.996488,1.383468,-0.155778,0.000000,0.000000,0.000000,0.000000,0.000000,0.000000
13173874.000000,2.312754,-0.964747,-1.819530,-1.386075,-0.927553,1.665497,0.447529,0.000147,0.000761,-0.000120,-0.000043,-0.000588,-0.000827,-0.001084,0.006757,35.536236,19.691574,12.147398,1.013883,1.409103,-0.122819,0.000000,0.000000,0.000000,0.000000,0.000000,0.000000
13173875.000000,2.312739,-0.964749,-1.819531,-1.386077,-0.927550,1.665499,0.447532,-0.013255,-0.006869,-0.011512,-0.001235,0.003813,0.001110,-0.000723,-0.366168,35.044292,19.104416,12.198973,0.900358,1.364242,-0.122819,0.000000,0.000000,0.000000,0.000000,0.000000,0.000000
13173876.000000,2.312727,-0.964724,-1.819551,-1.386072,-0.927539,1.665497,0.447548,-0.027765,-0.008236,-0.030840,-0.001380,0.006439,-0.002214,0.008727,-2.322039,32.842449,17.311203,12.222776,0.542386,1.318465,-0.116410,0.000000,0.000000,0.000000,0.000000,0.000000,0.000000
13173877.000000,2.312716,-0.964663,-1.819619,-1.386072,-0.927520,1.665482,0.447571,-0.026395,0.012727,-0.051658,0.000044,0.009259,-0.003796,0.018111,-5.761675,28.851360,14.486496,12.321959,0.004056,1.370651,-0.044083,0.000000,0.000000,0.000000,0.000000,0.000000,0.000000
13173878.000000,2.312676,-0.964651,-1.819735,-1.386059,-0.927531,1.665465,0.447619,-0.024957,0.016363,-0.071712,0.003829,0.003233,-0.006416,0.025130,-9.697223,24.713482,11.225388,12.171202,-0.342013,1.467696,-0.089860,0.000000,0.000000,0.000000,0.000000,0.000000,0.000000
13173879.000000,2.312603,-0.964698,-1.819878,-1.386051,-0.927596,1.665468,0.447665,-0.038102,0.006776,-0.083923,0.000293,-0.023547,0.004320,0.030908,-13.410602,21.091351,7.690536,12.000608,-0.222994,1.481429,-0.031266,0.000000,0.000000,0.000000,0.000000,0.000000,0.000000
13173880.000000,2.312505,-0.964794,-1.820053,-1.386054,-0.927679,1.665512,0.447739,-0.046530,-0.022088,-0.098806,-0.003540,-0.045206,0.018329,0.042861,-16.854204,18.349957,4.548447,11.877623,-0.031649,1.214095,-0.050492,0.000000,0.000000,0.000000,0.000000,0.000000,0.000000
13173881.000000,2.312383,-0.964918,-1.820210,-1.386070,-0.927778,1.665614,0.447825,-0.061322,-0.048229,-0.106243,-0.004552,-0.069423,0.045265,0.058793,-19.698748,16.148113,1.604721,11.802244,0.154203,0.597030,-0.004716,0.000000,0.000000,0.000000,0.000000,0.000000,0.000000
13173882.000000,2.312259,-0.965067,-1.820370,-1.386086,-0.927886,1.665761,0.447934,-0.076469,-0.073778,-0.110631,-0.009786,-0.084066,0.079704,0.077134,-22.225908,14.533428,-0.974014,11.655455,0.261320,-0.190324,0.001693,0.000000,0.000000,0.000000,0.000000,0.000000,0.000000
13173883.000000,2.312136,-0.965229,-1.820511,-1.386108,-0.927988,1.665918,0.448075,-0.086526,-0.097897,-0.119258,-0.016417,-0.089894,0.108067,0.097019,-24.626116,13.478130,-3.255203,11.480894,0.117582,-0.736893,-0.017533,0.000000,0.000000,0.000000,0.000000,0.000000,0.000000
13173884.000000,2.312001,-0.965396,-1.820644,-1.386127,-0.928106,1.666060,0.448233,-0.097957,-0.121450,-0.120816,-0.017512,-0.102143,0.121738,0.114024,-26.704973,12.648968,-5.246780,11.135740,-0.067355,-0.808305,0.015426,0.000000,0.000000,0.000000,0.000000,0.000000,0.000000
13173885.000000,2.311868,-0.965559,-1.820777,-1.386161,-0.928233,1.666198,0.448423,-0.098966,-0.133236,-0.118817,-0.028391,-0.110259,0.134429,0.137954,-28.240313,11.915020,-6.643265,10.663633,-0.318209,-0.528153,0.001693,0.000000,0.000000,0.000000,0.000000,0.000000,0.000000
13173886.000000,2.311714,-0.965701,-1.820895,-1.386231,-0.928358,1.666383,0.448635,-0.112327,-0.138007,-0.114946,-0.045043,-0.113302,0.154646,0.163594,-28.760027,11.204876,-7.527969,10.270872,-0.665194,-0.242509,0.034652,0.000000,0.000000,0.000000,0.000000,0.000000,0.000000
13173887.000000,2.311543,-0.965817,-1.821004,-1.386359,-0.928506,1.666634,0.448882,-0.130125,-0.129184,-0.111447,-0.074035,-0.122237,0.183432,0.191821,-28.537859,10.296368,-8.067520,10.294676,-0.856539,-0.274552,-0.011124,0.000000,0.000000,0.000000,0.000000,0.000000,0.000000
13173888.000000,2.311362,-0.965902,-1.821124,-1.386525,-0.928684,1.666918,0.449141,-0.142505,-0.111928,-0.112727,-0.111476,-0.138221,0.217219,0.209328,-27.399248,9.197430,-7.944534,10.219297,-0.916049,-0.391740,-0.011124,0.000000,0.000000,0.000000,0.000000,0.000000,0.000000
13173889.000000,2.311162,-0.965983,-1.821243,-1.386731,-0.928895,1.667216,0.449399,-0.154574,-0.098989,-0.113627,-0.148977,-0.158634,0.237713,0.220469,-24.503130,8.364300,-7.036026,9.628172,-0.748507,-0.326737,0.054794,0.000000,0.000000,0.000000,0.000000,0.000000,0.000000
13173890.000000,2.310964,-0.966075,-1.821363,-1.386978,-0.929135,1.667531,0.449675,-0.170784,-0.097683,-0.115349,-0.180900,-0.190641,0.266238,0.238229,-20.492205,8.046917,-5.540359,8.735533,-0.348422,-0.150956,0.009017,0.000000,0.000000,0.000000,0.000000,0.000000,0.000000
13173891.000000,2.310805,-0.966161,-1.821481,-1.387291,-0.929387,1.667886,0.449958,-0.178107,-0.097683,-0.123057,-0.217127,-0.207713,0.293191,0.253769,-16.556658,7.824749,-3.893936,7.922240,0.040677,-0.041093,0.028243,0.000000,0.000000,0.000000,0.000000,0.000000,0.000000
13173892.000000,2.310642,-0.966226,-1.821589,-1.387612,-0.929624,1.668264,0.450244,-0.190486,-0.091290,-0.129256,-0.239807,-0.217623,0.311828,0.262004,-12.815509,7.384380,-2.521256,6.882811,0.105680,0.044051,0.009017,0.000000,0.000000,0.000000,0.000000,0.000000,0.000000
13173893.000000,2.310472,-0.966295,-1.821706,-1.387922,-0.929847,1.668643,0.450539,-0.194405,-0.087564,-0.130333,-0.251468,-0.215058,0.330685,0.271680,-9.475055,6.991619,-1.390579,5.573607,-0.240389,0.245467,0.009017,0.000000,0.000000,0.000000,0.000000,0.000000,0.000000
13173894.000000,2.310311,-0.966379,-1.821836,-1.388245,-0.930090,1.669035,0.450828,-0.190918,-0.091815,-0.137473,-0.262467,-0.221562,0.346349,0.275253,-6.777300,6.773418,-0.509842,4.387389,-0.653292,0.532027,-0.004716,0.000000,0.000000,0.000000,0.000000,0.000000,0.000000
13173895.000000,2.310163,-0.966492,-1.821984,-1.388574,-0.930373,1.669441,0.451128,-0.182194,-0.101801,-0.144112,-0.277363,-0.235436,0.360811,0.284089,-4.773821,6.872601,0.156662,3.399534,-0.724703,0.771896,-0.056901,0.000000,0.000000,0.000000,0.000000,0.000000,0.000000
13173896.000000,2.309999,-0.966613,-1.822157,-1.388905,-0.930680,1.669869,0.451423,-0.176357,-0.108287,-0.155442,-0.285416,-0.253174,0.378157,0.282204,-2.964739,6.967815,0.791427,2.558470,-0.700900,0.974227,-0.023942,0.000000,0.000000,0.000000,0.000000,0.000000,0.000000
13173897.000000,2.309818,-0.966752,-1.822350,-1.389218,-0.930996,1.670337,0.451713,-0.179027,-0.117076,-0.168541,-0.289366,-0.283974,0.396371,0.281633,-1.159625,7.138409,1.330978,1.495238,-0.670687,0.941268,-0.004716,0.000000,0.000000,0.000000,0.000000,0.000000,0.000000
13173898.000000,2.309643,-0.966908,-1.822547,-1.389554,-0.931362,1.670837,0.452002,-0.177821,-0.134214,-0.177574,-0.302157,-0.310422,0.428403,0.281767,0.304304,7.408184,1.553146,0.975523,-0.473849,0.616256,-0.004716,0.000000,0.000000,0.000000,0.000000,0.000000,0.000000
13173899.000000,2.309497,-0.967069,-1.822760,-1.389905,-0.931755,1.671389,0.452289,-0.164002,-0.145820,-0.187422,-0.317723,-0.337210,0.463154,0.281434,1.169172,7.606548,1.723740,0.654173,-0.187289,0.121871,0.034652,0.000000,0.000000,0.000000,0.000000,0.000000,0.000000
13173900.000000,2.309354,-0.967242,-1.822983,-1.390236,-0.932138,1.671941,0.452580,-0.155405,-0.154687,-0.196848,-0.321438,-0.354482,0.500887,0.282959,1.863447,7.824749,1.699936,0.134459,-0.091158,-0.190324,0.015426,0.000000,0.000000,0.000000,0.000000,0.000000,0.000000
13173901.000000,2.309214,-0.967413,-1.823214,-1.390562,-0.932543,1.672489,0.452870,-0.149716,-0.161746,-0.210609,-0.322158,-0.370433,0.516210,0.286899,2.406965,7.923931,1.576950,-0.456667,-0.150668,-0.150956,0.021835,0.000000,0.000000,0.000000,0.000000,0.000000,0.000000
13173902.000000,2.309106,-0.967586,-1.823442,-1.390901,-0.932959,1.673039,0.453165,-0.136624,-0.167834,-0.214120,-0.327533,-0.390518,0.520296,0.293075,2.359357,7.800945,1.330978,-0.952577,-0.204684,0.154830,-0.031266,0.000000,0.000000,0.000000,0.000000,0.000000,0.000000
13173903.000000,2.309021,-0.967755,-1.823681,-1.391247,-0.933383,1.673603,0.453444,-0.118152,-0.168530,-0.221331,-0.336581,-0.402020,0.538559,0.287696,1.986432,7.483562,0.989792,-1.250124,-0.300814,0.362655,0.048385,0.000000,0.000000,0.000000,0.000000,0.000000,0.000000
13173904.000000,2.308925,-0.967914,-1.823939,-1.391607,-0.933820,1.674217,0.453743,-0.106698,-0.162547,-0.236191,-0.342855,-0.407436,0.558105,0.288577,1.788068,6.991619,0.866806,-1.519899,-0.491244,0.394698,0.001693,0.000000,0.000000,0.000000,0.000000,0.000000,0.000000
13173905.000000,2.308829,-0.968071,-1.824209,-1.391963,-0.934258,1.674878,0.454028,-0.100998,-0.156798,-0.243764,-0.347321,-0.416919,0.591686,0.287759,1.641279,6.428265,0.743820,-1.817445,-0.563571,0.212508,-0.011124,0.000000,0.000000,0.000000,0.000000,0.000000,0.000000
13173906.000000,2.308747,-0.968237,-1.824501,-1.392354,-0.934721,1.675546,0.454303,-0.092123,-0.161166,-0.255363,-0.361665,-0.430167,0.615665,0.283743,1.292158,5.916485,0.720016,-1.742067,-0.443636,0.037643,0.061202,0.000000,0.000000,0.000000,0.000000,0.000000,0.000000
13173907.000000,2.308665,-0.968418,-1.824785,-1.392758,-0.935205,1.676232,0.454585,-0.084633,-0.163890,-0.265232,-0.374796,-0.443719,0.631533,0.281104,0.994611,5.499920,0.620834,-1.642885,-0.228488,0.004684,0.009017,0.000000,0.000000,0.000000,0.000000,0.000000,0.000000
13173908.000000,2.308579,-0.968615,-1.825073,-1.393163,-0.935691,1.676929,0.454870,-0.082964,-0.173797,-0.269756,-0.384962,-0.454730,0.648990,0.280757,0.847822,5.277752,0.426437,-1.670656,0.034269,-0.020951,0.034652,0.000000,0.000000,0.000000,0.000000,0.000000,0.000000
13173909.000000,2.308508,-0.968811,-1.825382,-1.393583,-0.936164,1.677664,0.455151,-0.078042,-0.180525,-0.281745,-0.395761,-0.465311,0.670111,0.285139,0.550275,5.182537,0.573227,-1.694460,0.135892,-0.008134,0.061202,0.000000,0.000000,0.000000,0.000000,0.000000,0.000000
13173910.000000,2.308439,-0.969035,-1.825685,-1.394028,-0.936632,1.678423,0.455438,-0.075613,-0.188583,-0.285702,-0.407787,-0.467660,0.697276,0.287206,0.427289,5.523724,0.791427,-1.670656,0.195402,-0.053910,0.001693,0.000000,0.000000,0.000000,0.000000,0.000000,0.000000
13173911.000000,2.308363,-0.969268,-1.825975,-1.394474,-0.937097,1.679197,0.455712,-0.071995,-0.202990,-0.282266,-0.421512,-0.464741,0.717446,0.278348,0.625654,6.257671,1.160385,-1.718263,0.243009,-0.073136,0.067611,0.000000,0.000000,0.000000,0.000000,0.000000,0.000000
13173912.000000,2.308288,-0.969514,-1.826265,-1.394947,-0.937535,1.679998,0.455992,-0.074251,-0.216771,-0.282823,-0.437390,-0.452059,0.736023,0.281006,1.069990,7.312969,1.945907,-1.742067,0.010465,0.004684,0.034652,0.000000,0.000000,0.000000,0.000000,0.000000,0.000000
13173913.000000,2.308205,-0.969764,-1.826546,-1.395421,-0.937979,1.680810,0.456279,-0.077364,-0.228085,-0.283558,-0.450104,-0.449900,0.763258,0.279018,1.764264,8.487286,2.830612,-1.793642,-0.055453,0.050460,-0.023942,0.000000,0.000000,0.000000,0.000000,0.000000,0.000000
13173914.000000,2.308122,-0.970005,-1.826824,-1.395921,-0.938422,1.681646,0.456545,-0.084214,-0.238057,-0.285428,-0.466011,-0.450241,0.782855,0.276729,2.553754,9.514812,3.786728,-1.694460,-0.049044,0.121871,0.061202,0.000000,0.000000,0.000000,0.000000,0.000000,0.000000
13173915.000000,2.308029,-0.970249,-1.827114,-1.396451,-0.938849,1.682511,0.456816,-0.089340,-0.244516,-0.290677,-0.483416,-0.443226,0.798361,0.274747,3.398786,10.272564,4.818222,-1.496095,-0.138766,0.109054,0.034652,0.000000,0.000000,0.000000,0.000000,0.000000,0.000000
13173916.000000,2.307922,-0.970492,-1.827396,-1.396988,-0.939283,1.683356,0.457079,-0.099873,-0.248590,-0.293022,-0.503508,-0.437478,0.812780,0.271280,4.410444,10.835918,5.528366,-1.250124,-0.109469,0.096236,0.054794,0.000000,0.000000,0.000000,0.000000,0.000000,0.000000
13173917.000000,2.307815,-0.970745,-1.827689,-1.397545,-0.939731,1.684198,0.457357,-0.103891,-0.251716,-0.299447,-0.516197,-0.445736,0.810350,0.275795,5.303083,11.252483,6.167099,-1.027956,0.015958,0.141097,0.015426,0.000000,0.000000,0.000000,0.000000,0.000000,0.000000
13173918.000000,2.307715,-0.971013,-1.828004,-1.398125,-0.940179,1.685030,0.457619,-0.105270,-0.256223,-0.307030,-0.532243,-0.441925,0.832505,0.270206,5.997358,11.617474,6.805832,-0.829591,0.123990,0.193282,0.061202,0.000000,0.000000,0.000000,0.000000,0.000000,0.000000
13173919.000000,2.307605,-0.971293,-1.828320,-1.398692,-0.940626,1.685850,0.457894,-0.106311,-0.263075,-0.307139,-0.547534,-0.442104,0.819146,0.274193,6.687665,11.962627,7.174789,-0.904970,0.219205,0.245467,0.028243,0.000000,0.000000,0.000000,0.000000,0.000000,0.000000
13173920.000000,2.307489,-0.971590,-1.828634,-1.399267,-0.941080,1.686657,0.458159,-0.107213,-0.271956,-0.305895,-0.549938,-0.456117,0.802495,0.268189,7.381940,12.327618,7.468369,-1.198549,0.243009,0.381881,0.001693,0.000000,0.000000,0.000000,0.000000,0.000000,0.000000
13173921.000000,2.307376,-0.971909,-1.828966,-1.399853,-0.941523,1.687467,0.458424,-0.108837,-0.288110,-0.316630,-0.561717,-0.452699,0.806471,0.265758,7.977033,12.795757,7.837326,-1.420717,0.195402,0.362655,0.074935,0.000000,0.000000,0.000000,0.000000,0.000000,0.000000
13173922.000000,2.307255,-0.972249,-1.829289,-1.400446,-0.941971,1.688278,0.458704,-0.114004,-0.306436,-0.319976,-0.564529,-0.451197,0.810107,0.267652,8.595929,13.406719,7.984116,-1.742067,0.183500,0.284835,0.015426,0.000000,0.000000,0.000000,0.000000,0.000000,0.000000
13173923.000000,2.307129,-0.972608,-1.829623,-1.401054,-0.942417,1.689082,0.458971,-0.118734,-0.322916,-0.322923,-0.577843,-0.451580,0.803505,0.266895,9.238629,14.041485,8.130905,-2.039613,0.052579,0.232650,0.015426,0.000000,0.000000,0.000000,0.000000,0.000000,0.000000
13173924.000000,2.306986,-0.972989,-1.829973,-1.401656,-0.942878,1.689870,0.459232,-0.125291,-0.343420,-0.329936,-0.582587,-0.451210,0.799583,0.263506,10.008283,14.727825,8.329269,-2.313356,0.034269,0.258285,0.074935,0.000000,0.000000,0.000000,0.000000,0.000000,0.000000
13173925.000000,2.306849,-0.973388,-1.830311,-1.402278,-0.943348,1.690662,0.459501,-0.132254,-0.360149,-0.330349,-0.589853,-0.458627,0.797376,0.269261,10.476422,15.485577,8.452255,-2.384767,0.088285,0.245467,0.015426,0.000000,0.000000,0.000000,0.000000,0.000000,0.000000
13173926.000000,2.306704,-0.973803,-1.830652,-1.402904,-0.943811,1.691453,0.459770,-0.139764,-0.378390,-0.332522,-0.595117,-0.462135,0.798517,0.271476,10.750165,16.366314,8.523666,-1.964235,0.100187,0.186874,0.048385,0.000000,0.000000,0.000000,0.000000,0.000000,0.000000
13173927.000000,2.306528,-0.974209,-1.830985,-1.403527,-0.944277,1.692249,0.460053,-0.150294,-0.388276,-0.333198,-0.599255,-0.463937,0.795578,0.272122,10.948529,17.104229,8.523666,-1.198549,0.117582,0.232650,-0.017533,0.000000,0.000000,0.000000,0.000000,0.000000,0.000000
13173928.000000,2.306360,-0.974624,-1.831339,-1.404140,-0.944738,1.693051,0.460319,-0.159903,-0.398579,-0.337759,-0.600721,-0.468052,0.799273,0.271808,10.698590,17.861980,8.670456,-0.186891,0.052579,0.251876,0.061202,0.000000,0.000000,0.000000,0.000000,0.000000,0.000000
13173929.000000,2.306190,-0.975043,-1.831705,-1.404747,-0.945209,1.693845,0.460599,-0.163336,-0.415551,-0.343059,-0.602425,-0.463860,0.794174,0.270845,10.178876,18.548321,8.916428,1.197691,0.040677,0.349838,0.028243,0.000000,0.000000,0.000000,0.000000,0.000000,0.000000
13173930.000000,2.306008,-0.975459,-1.832049,-1.405345,-0.945687,1.694642,0.460870,-0.166704,-0.414478,-0.341979,-0.601584,-0.469216,0.789679,0.272844,9.635358,19.083904,8.940231,2.606077,0.135892,0.538436,0.061202,0.000000,0.000000,0.000000,0.000000,0.000000,0.000000
13173931.000000,2.305827,-0.975879,-1.832415,-1.405946,-0.946144,1.695427,0.461151,-0.166550,-0.416363,-0.347685,-0.613527,-0.465132,0.801774,0.277074,9.064069,19.452862,9.138596,4.137450,0.004056,0.824081,0.021835,0.000000,0.000000,0.000000,0.000000,0.000000,0.000000
13173932.000000,2.305648,-0.976287,-1.832774,-1.406544,-0.946608,1.696212,0.461429,-0.166204,-0.415075,-0.358089,-0.615641,-0.457805,0.796107,0.273466,8.472943,19.671062,9.261581,5.422850,-0.085665,0.980636,0.021835,0.000000,0.000000,0.000000,0.000000,0.000000,0.000000
13173933.000000,2.305477,-0.976716,-1.833146,-1.407150,-0.947090,1.697009,0.461689,-0.170463,-0.415798,-0.362268,-0.612536,-0.474975,0.787170,0.273160,7.830244,19.845623,9.408371,6.660643,-0.019747,1.071273,0.094161,0.000000,0.000000,0.000000,0.000000,0.000000,0.000000
13173934.000000,2.305314,-0.977137,-1.833530,-1.407741,-0.947558,1.697789,0.461964,-0.163679,-0.419420,-0.368251,-0.608190,-0.467972,0.788835,0.274326,7.211347,19.940838,9.678146,7.525511,-0.049044,1.110641,0.009017,0.000000,0.000000,0.000000,0.000000,0.000000,0.000000
13173935.000000,2.305141,-0.977579,-1.833906,-1.408343,-0.948029,1.698565,0.462235,-0.163753,-0.425981,-0.371418,-0.605289,-0.464404,0.778796,0.275321,6.814619,20.063824,9.900314,8.168211,-0.037142,1.272689,0.028243,0.000000,0.000000,0.000000,0.000000,0.000000,0.000000
13173936.000000,2.304988,-0.978030,-1.834291,-1.408937,-0.948520,1.699336,0.462498,-0.158245,-0.435278,-0.372428,-0.598823,-0.475688,0.767861,0.270125,6.318708,20.111431,10.094711,8.537169,0.088285,1.435653,0.100570,0.000000,0.000000,0.000000,0.000000,0.000000,0.000000
13173937.000000,2.304849,-0.978486,-1.834695,-1.409521,-0.949007,1.700097,0.462785,-0.151007,-0.442405,-0.377948,-0.592720,-0.475356,0.761399,0.273732,5.699811,20.111431,10.463669,8.687925,0.141385,1.442062,-0.004716,0.000000,0.000000,0.000000,0.000000,0.000000,0.000000
13173938.000000,2.304713,-0.978950,-1.835091,-1.410100,-0.949498,1.700881,0.463045,-0.146357,-0.449522,-0.381808,-0.585505,-0.489283,0.762986,0.269915,5.104719,20.063824,10.709641,8.564939,0.183500,1.331283,0.034652,0.000000,0.000000,0.000000,0.000000,0.000000,0.000000
13173939.000000,2.304582,-0.979422,-1.835492,-1.410660,-0.949988,1.701650,0.463315,-0.142427,-0.452366,-0.384943,-0.577911,-0.489453,0.768536,0.273464,4.608808,20.016216,10.979416,8.267393,0.195402,1.272689,0.034652,0.000000,0.000000,0.000000,0.000000,0.000000,0.000000
13173940.000000,2.304451,-0.979909,-1.835886,-1.411231,-0.950474,1.702417,0.463590,-0.137011,-0.461301,-0.389772,-0.571137,-0.482966,0.761885,0.272028,4.164472,20.111431,11.197617,8.021421,0.171598,1.227828,0.009017,0.000000,0.000000,0.000000,0.000000,0.000000,0.000000
13173941.000000,2.304343,-0.980401,-1.836291,-1.411804,-0.950965,1.703188,0.463851,-0.126921,-0.467847,-0.391900,-0.567703,-0.484422,0.763891,0.273729,3.597150,20.258221,11.495163,7.771483,0.166105,1.259872,0.054794,0.000000,0.000000,0.000000,0.000000,0.000000,0.000000
13173942.000000,2.304234,-0.980897,-1.836696,-1.412363,-0.951475,1.703948,0.464124,-0.119755,-0.473344,-0.389870,-0.567969,-0.489896,0.765973,0.272560,3.172651,20.674786,11.887924,7.624693,0.285123,1.292831,0.015426,0.000000,0.000000,0.000000,0.000000,0.000000,0.000000
13173943.000000,2.304131,-0.981394,-1.837094,-1.412915,-0.951981,1.704715,0.464378,-0.112789,-0.479072,-0.390795,-0.556371,-0.497589,0.759720,0.273399,2.827497,21.313519,12.550461,7.450133,0.386747,1.364242,0.021835,0.000000,0.000000,0.000000,0.000000,0.000000,0.000000
13173944.000000,2.304027,-0.981895,-1.837486,-1.413466,-0.952477,1.705487,0.464643,-0.109092,-0.481358,-0.392602,-0.553687,-0.495953,0.771596,0.271580,2.680707,22.170452,13.312180,7.450133,0.405057,1.285506,0.015426,0.000000,0.000000,0.000000,0.000000,0.000000,0.000000
13173945.000000,2.303929,-0.982382,-1.837868,-1.414028,-0.952983,1.706276,0.464904,-0.105834,-0.488826,-0.387526,-0.561123,-0.495590,0.775440,0.267831,2.553754,23.174175,14.069931,7.747679,0.482877,1.194869,0.067611,0.000000,0.000000,0.000000,0.000000,0.000000,0.000000
13173946.000000,2.303851,-0.982879,-1.838262,-1.414583,-0.953469,1.707056,0.465174,-0.098333,-0.490606,-0.386993,-0.556927,-0.494453,0.777542,0.269849,2.260175,24.225506,14.978439,8.045225,0.381254,1.253463,-0.004716,0.000000,0.000000,0.000000,0.000000,0.000000,0.000000
13173947.000000,2.303773,-0.983373,-1.838654,-1.415126,-0.953969,1.707831,0.465435,-0.091019,-0.507467,-0.392412,-0.554381,-0.493606,0.788170,0.264319,1.986432,25.253033,15.763962,8.267393,0.393156,1.389877,0.041976,0.000000,0.000000,0.000000,0.000000,0.000000,0.000000
13173948.000000,2.303707,-0.983873,-1.839035,-1.415676,-0.954474,1.708577,0.465697,-0.080549,-0.507658,-0.394796,-0.556548,-0.498336,0.769917,0.263662,1.641279,26.185345,16.478073,8.588743,0.422452,1.617843,0.067611,0.000000,0.000000,0.000000,0.000000,0.000000,0.000000
13173949.000000,2.303645,-0.984377,-1.839419,-1.416229,-0.954967,1.709333,0.465967,-0.073978,-0.509669,-0.392865,-0.564666,-0.499036,0.763158,0.267146,1.343732,27.089886,17.065231,9.009275,0.362943,1.754256,0.009017,0.000000,0.000000,0.000000,0.000000,0.000000,0.000000
13173950.000000,2.303585,-0.984870,-1.839802,-1.416797,-0.955470,1.710104,0.466228,-0.069704,-0.505041,-0.400255,-0.564180,-0.495752,0.765387,0.260330,1.069990,27.847637,17.557175,9.429808,0.369352,1.819259,0.034652,0.000000,0.000000,0.000000,0.000000,0.000000,0.000000
13173951.000000,2.303536,-0.985393,-1.840200,-1.417365,-0.955972,1.710886,0.466489,-0.064020,-0.512934,-0.402234,-0.564031,-0.501997,0.765793,0.261817,0.697065,28.827557,18.049118,9.774961,0.393156,1.747848,0.028243,0.000000,0.000000,0.000000,0.000000,0.000000,0.000000
13173952.000000,2.303491,-0.985934,-1.840606,-1.417931,-0.956485,1.711668,0.466749,-0.055767,-0.518065,-0.399499,-0.567477,-0.501193,0.768337,0.262746,0.276533,29.930462,18.489487,10.096312,0.458158,1.637069,0.021835,0.000000,0.000000,0.000000,0.000000,0.000000,0.000000
13173953.000000,2.303443,-0.986482,-1.840996,-1.418493,-0.957010,1.712434,0.467006,-0.050128,-0.528819,-0.395111,-0.559335,-0.507312,0.765038,0.262609,0.006757,31.053204,18.806870,10.143919,0.589994,1.624252,0.074935,0.000000,0.000000,0.000000,0.000000,0.000000,0.000000
13173954.000000,2.303415,-0.987050,-1.841400,-1.419052,-0.957518,1.713186,0.467275,-0.044358,-0.542524,-0.395390,-0.556684,-0.508689,0.761153,0.265491,-0.465350,32.203716,19.152023,10.143919,0.613798,1.689254,0.015426,0.000000,0.000000,0.000000,0.000000,0.000000,0.000000
13173955.000000,2.303388,-0.987624,-1.841805,-1.419601,-0.958022,1.713961,0.467539,-0.040962,-0.551857,-0.393240,-0.554096,-0.506403,0.760514,0.262442,-0.909686,33.282818,19.374191,10.096312,0.584501,1.630660,0.074935,0.000000,0.000000,0.000000,0.000000,0.000000,0.000000
13173956.000000,2.303369,-0.988207,-1.842210,-1.420165,-0.958533,1.714736,0.467806,-0.037161,-0.561750,-0.394982,-0.552125,-0.504607,0.757058,0.265003,-1.405596,34.211163,19.568588,10.072508,0.530485,1.526290,0.028243,0.000000,0.000000,0.000000,0.000000,0.000000,0.000000
13173957.000000,2.303353,-0.988793,-1.842611,-1.420711,-0.959026,1.715500,0.468065,-0.032640,-0.568270,-0.391403,-0.553423,-0.497552,0.762089,0.263232,-1.849932,34.945110,19.715378,9.973326,0.452665,1.519881,0.074935,0.000000,0.000000,0.000000,0.000000,0.000000,0.000000
13173958.000000,2.303338,-0.989386,-1.843017,-1.421271,-0.959524,1.716268,0.468334,-0.026740,-0.576182,-0.397879,-0.549681,-0.500454,0.766868,0.264176,-2.270464,35.655254,19.937546,9.949522,0.344633,1.578475,0.054794,0.000000,0.000000,0.000000,0.000000,0.000000,0.000000
13173959.000000,2.303318,-0.989972,-1.843415,-1.421833,-0.960025,1.717046,0.468603,-0.026341,-0.578222,-0.391677,-0.549704,-0.500480,0.760676,0.267364,-2.520403,36.123394,19.961349,9.897947,0.398649,1.532699,0.041976,0.000000,0.000000,0.000000,0.000000,0.000000,0.000000
13173960.000000,2.303299,-0.990556,-1.843837,-1.422397,-0.960532,1.717805,0.468861,-0.025545,-0.578841,-0.398922,-0.557176,-0.504445,0.760729,0.264781,-2.766375,36.587566,20.207321,10.020933,0.452665,1.507064,0.074935,0.000000,0.000000,0.000000,0.000000,0.000000,0.000000
13173961.000000,2.303269,-0.991135,-1.844241,-1.422969,-0.961046,1.718566,0.469121,-0.026196,-0.576398,-0.399513,-0.556217,-0.502570,0.752560,0.262568,-2.817950,36.758160,20.377914,10.219297,0.500272,1.532699,0.015426,0.000000,0.000000,0.000000,0.000000,0.000000,0.000000
13173962.000000,2.303236,-0.991726,-1.844648,-1.423530,-0.961547,1.719319,0.469373,-0.032193,-0.574630,-0.397230,-0.557883,-0.496422,0.754598,0.261235,-2.742571,37.051739,20.477097,10.318480,0.542386,1.507064,0.061202,0.000000,0.000000,0.000000,0.000000,0.000000,0.000000
13173963.000000,2.303207,-0.992302,-1.845051,-1.424112,-0.962061,1.720074,0.469640,-0.034229,-0.576968,-0.401026,-0.568118,-0.498432,0.754961,0.262747,-2.742571,37.198528,20.623886,10.691404,0.554288,1.507064,0.041976,0.000000,0.000000,0.000000,0.000000,0.000000,0.000000
13173964.000000,2.303170,-0.992890,-1.845459,-1.424685,-0.962562,1.720832,0.469896,-0.035691,-0.572371,-0.404348,-0.566439,-0.506751,0.750840,0.262698,-2.591815,37.369122,20.647690,10.961180,0.530485,1.487838,0.054794,0.000000,0.000000,0.000000,0.000000,0.000000,0.000000
13173965.000000,2.303127,-0.993477,-1.845869,-1.425250,-0.963069,1.721585,0.470163,-0.038342,-0.589598,-0.402879,-0.562678,-0.510997,0.752672,0.265069,-2.369647,37.567486,20.770676,11.135740,0.500272,1.552840,0.034652,0.000000,0.000000,0.000000,0.000000,0.000000,0.000000
13173966.000000,2.303090,-0.994078,-1.846270,-1.425826,-0.963576,1.722310,0.470425,-0.037328,-0.595941,-0.404679,-0.564899,-0.507419,0.745755,0.260401,-2.246661,37.884869,20.869858,11.429319,0.428861,1.714889,0.028243,0.000000,0.000000,0.000000,0.000000,0.000000,0.000000
13173967.000000,2.303045,-0.994680,-1.846672,-1.426383,-0.964077,1.723038,0.470684,-0.042289,-0.590134,-0.402157,-0.562054,-0.503877,0.741303,0.260270,-2.024493,38.178448,20.846054,11.603880,0.428861,1.812850,0.061202,0.000000,0.000000,0.000000,0.000000,0.000000,0.000000
13173968.000000,2.302995,-0.995289,-1.847080,-1.426954,-0.964584,1.723790,0.470956,-0.043633,-0.596722,-0.413720,-0.563547,-0.500093,0.747155,0.262800,-1.750750,38.642620,20.917465,11.802244,0.327238,1.786300,0.009017,0.000000,0.000000,0.000000,0.000000,0.000000,0.000000
13173969.000000,2.302945,-0.995912,-1.847495,-1.427513,-0.965091,1.724529,0.471209,-0.047368,-0.604811,-0.413608,-0.561272,-0.512194,0.732079,0.266207,-1.480975,39.158367,21.064255,11.877623,0.315336,1.747848,0.054794,0.000000,0.000000,0.000000,0.000000,0.000000,0.000000
13173970.000000,2.302883,-0.996533,-1.847901,-1.428070,-0.965611,1.725259,0.471477,-0.053218,-0.611026,-0.409457,-0.560149,-0.517211,0.728806,0.263288,-1.084246,39.670147,21.040451,12.072020,0.339139,1.754256,0.001693,0.000000,0.000000,0.000000,0.000000,0.000000,0.000000
13173971.000000,2.302822,-0.997146,-1.848316,-1.428640,-0.966136,1.726002,0.471728,-0.056386,-0.609687,-0.411409,-0.560166,-0.515938,0.727367,0.260898,-0.711321,40.062908,21.215012,12.369566,0.374845,1.721298,0.054794,0.000000,0.000000,0.000000,0.000000,0.000000,0.000000
13173972.000000,2.302755,-0.997775,-1.848739,-1.429210,-0.966653,1.726751,0.471991,-0.059742,-0.610305,-0.414915,-0.558591,-0.516392,0.732754,0.262609,-0.290789,40.427898,21.361801,12.690916,0.440763,1.656295,0.034652,0.000000,0.000000,0.000000,0.000000,0.000000,0.000000
13173973.000000,2.302686,-0.998382,-1.849158,-1.429768,-0.967190,1.727481,0.472255,-0.062004,-0.615604,-0.413509,-0.555672,-0.516881,0.730610,0.262058,0.129743,40.673870,21.457016,12.964659,0.524076,1.656295,0.054794,0.000000,0.000000,0.000000,0.000000,0.000000,0.000000
13173974.000000,2.302609,-0.999008,-1.849575,-1.430326,-0.967718,1.728209,0.472521,-0.067794,-0.616562,-0.413588,-0.551814,-0.515281,0.726533,0.263320,0.601850,41.066631,21.607773,13.087645,0.530485,1.747848,0.041976,0.000000,0.000000,0.000000,0.000000,0.000000,0.000000
13173975.000000,2.302534,-0.999631,-1.849994,-1.430889,-0.968236,1.728923,0.472794,-0.067943,-0.612455,-0.414621,-0.553704,-0.513671,0.719836,0.264140,1.022382,41.360210,21.702988,13.333616,0.416959,1.877853,0.021835,0.000000,0.000000,0.000000,0.000000,0.000000,0.000000
13173976.000000,2.302462,-1.000245,-1.850415,-1.431445,-0.968760,1.729653,0.473056,-0.068944,-0.611847,-0.416621,-0.551239,-0.513857,0.723811,0.261919,1.367536,41.629986,21.825974,13.408995,0.351041,1.897079,0.081344,0.000000,0.000000,0.000000,0.000000,0.000000,0.000000
13173977.000000,2.302385,-1.000848,-1.850841,-1.432008,-0.969281,1.730396,0.473334,-0.071969,-0.607033,-0.416862,-0.550493,-0.524285,0.718520,0.270605,1.788068,41.629986,22.024338,13.508177,0.279630,1.838485,-0.004716,0.000000,0.000000,0.000000,0.000000,0.000000,0.000000
13173978.000000,2.302303,-1.001439,-1.851265,-1.432550,-0.969806,1.731114,0.473599,-0.077192,-0.595945,-0.419194,-0.546873,-0.518854,0.720833,0.265726,2.208601,41.507000,22.194931,13.484373,0.225614,1.897079,0.061202,0.000000,0.000000,0.000000,0.000000,0.000000,0.000000
13173979.000000,2.302225,-1.002047,-1.851694,-1.433091,-0.970348,1.731825,0.473869,-0.075673,-0.596745,-0.423291,-0.541619,-0.530326,0.707058,0.270149,2.529951,41.459393,22.464706,13.385191,0.344633,1.988631,0.021835,0.000000,0.000000,0.000000,0.000000,0.000000,0.000000
13173980.000000,2.302152,-1.002644,-1.852142,-1.433621,-0.970881,1.732539,0.474134,-0.076152,-0.593130,-0.427765,-0.534096,-0.532061,0.713315,0.268709,2.779890,41.237225,22.833664,13.210630,0.398649,2.033492,0.021835,0.000000,0.000000,0.000000,0.000000,0.000000,0.000000
13173981.000000,2.302080,-1.003220,-1.852570,-1.434143,-0.971414,1.733273,0.474399,-0.075418,-0.588964,-0.437525,-0.526049,-0.527210,0.720400,0.270351,2.978254,40.919842,23.028061,12.913084,0.470060,2.014266,0.067611,0.000000,0.000000,0.000000,0.000000,0.000000,0.000000
13173982.000000,2.302008,-1.003812,-1.853016,-1.434659,-0.971956,1.734014,0.474676,-0.074777,-0.582830,-0.442855,-0.519856,-0.542055,0.721625,0.270627,3.172651,40.773052,23.420822,12.591734,0.584501,1.974899,0.021835,0.000000,0.000000,0.000000,0.000000,0.000000,0.000000
13173983.000000,2.301944,-1.004393,-1.853463,-1.435161,-0.972485,1.734733,0.474944,-0.069967,-0.593194,-0.441860,-0.514288,-0.536168,0.725175,0.273093,3.299604,40.550884,23.765976,12.198973,0.535978,1.968490,0.067611,0.000000,0.000000,0.000000,0.000000,0.000000,0.000000
13173984.000000,2.301882,-1.004986,-1.853912,-1.435652,-0.973029,1.735456,0.475226,-0.065525,-0.595142,-0.441323,-0.506439,-0.538759,0.718780,0.274018,3.371015,40.479473,24.111130,11.703062,0.547880,2.047225,-0.011124,0.000000,0.000000,0.000000,0.000000,0.000000,0.000000
13173985.000000,2.301819,-1.005566,-1.854357,-1.436125,-0.973566,1.736177,0.475483,-0.065884,-0.587914,-0.439140,-0.493872,-0.537278,0.731519,0.263416,3.446393,40.209698,24.404709,11.234922,0.589994,2.098495,0.081344,0.000000,0.000000,0.000000,0.000000,0.000000,0.000000
13173986.000000,2.301764,-1.006143,-1.854815,-1.436604,-0.974095,1.736901,0.475763,-0.063989,-0.578290,-0.452335,-0.485310,-0.538636,0.725051,0.270004,3.446393,39.987530,24.773666,10.814390,0.482877,2.072860,0.028243,0.000000,0.000000,0.000000,0.000000,0.000000,0.000000
13173987.000000,2.301709,-1.006724,-1.855259,-1.437073,-0.974640,1.737635,0.476029,-0.059351,-0.576969,-0.448939,-0.478678,-0.553562,0.718472,0.268025,3.422590,39.745525,24.991867,10.393858,0.535978,2.060043,0.041976,0.000000,0.000000,0.000000,0.000000,0.000000,0.000000
13173988.000000,2.301655,-1.007297,-1.855719,-1.437529,-0.975182,1.738347,0.476299,-0.056306,-0.577723,-0.451438,-0.473881,-0.553314,0.721818,0.267394,3.398786,39.400372,25.289413,10.072508,0.578092,2.104903,0.048385,0.000000,0.000000,0.000000,0.000000,0.000000,0.000000
13173989.000000,2.301605,-1.007859,-1.856170,-1.437997,-0.975736,1.739065,0.476564,-0.050960,-0.569921,-0.447564,-0.468633,-0.545222,0.711106,0.262555,3.371015,39.106792,25.582993,9.874144,0.554288,2.112228,0.028243,0.000000,0.000000,0.000000,0.000000,0.000000,0.000000
13173990.000000,2.301557,-1.008450,-1.856618,-1.438447,-0.976292,1.739787,0.476825,-0.050039,-0.572941,-0.446358,-0.460664,-0.546115,0.714300,0.259479,3.347211,39.106792,25.705978,9.628172,0.698026,2.085677,0.021835,0.000000,0.000000,0.000000,0.000000,0.000000,0.000000
13173991.000000,2.301519,-1.009023,-1.857084,-1.438901,-0.976846,1.740495,0.477092,-0.046769,-0.576887,-0.449868,-0.459833,-0.545126,0.711252,0.260579,3.200422,39.011578,25.975754,9.600401,0.698026,2.092086,0.009017,0.000000,0.000000,0.000000,0.000000,0.000000,0.000000
13173992.000000,2.301482,-1.009599,-1.857529,-1.439342,-0.977406,1.741215,0.477353,-0.044799,-0.577296,-0.445151,-0.449681,-0.542261,0.711100,0.260489,3.073469,38.960003,26.074936,9.501219,0.745634,2.085677,0.041976,0.000000,0.000000,0.000000,0.000000,0.000000,0.000000
13173993.000000,2.301447,-1.010189,-1.857976,-1.439789,-0.977960,1.741916,0.477624,-0.040538,-0.574258,-0.440490,-0.449547,-0.549260,0.728225,0.262721,2.950483,39.035381,26.170151,9.552794,0.786832,2.131454,0.009017,0.000000,0.000000,0.000000,0.000000,0.000000,0.000000
13173994.000000,2.301419,-1.010775,-1.858418,-1.440238,-0.978504,1.742630,0.477885,-0.035379,-0.577860,-0.441044,-0.447385,-0.539689,0.719612,0.262899,2.752119,39.106792,26.245529,9.651976,0.727323,2.169906,0.015426,0.000000,0.000000,0.000000,0.000000,0.000000,0.000000
13173995.000000,2.301394,-1.011366,-1.858869,-1.440698,-0.979049,1.743348,0.478148,-0.031761,-0.583581,-0.445026,-0.449526,-0.546268,0.717675,0.263101,2.553754,39.253582,26.316940,9.949522,0.727323,2.209274,0.015426,0.000000,0.000000,0.000000,0.000000,0.000000,0.000000
13173996.000000,2.301366,-1.011942,-1.859306,-1.441148,-0.979599,1.744051,0.478410,-0.031176,-0.587401,-0.438630,-0.453554,-0.545446,0.709465,0.262252,2.430768,39.352764,26.269333,10.243101,0.709928,2.183639,0.028243,0.000000,0.000000,0.000000,0.000000,0.000000,0.000000
13173997.000000,2.301348,-1.012546,-1.859738,-1.441608,-0.980142,1.744767,0.478670,-0.025337,-0.589075,-0.438421,-0.455629,-0.547330,0.707013,0.261506,2.208601,39.646343,26.269333,10.564451,0.625699,2.131454,0.061202,0.000000,0.000000,0.000000,0.000000,0.000000,0.000000
13173998.000000,2.301333,-1.013144,-1.860161,-1.442059,-0.980690,1.745468,0.478930,-0.020890,-0.593859,-0.433094,-0.466834,-0.546753,0.709158,0.264643,1.986432,39.868511,26.074936,10.838194,0.601896,2.150680,0.001693,0.000000,0.000000,0.000000,0.000000,0.000000,0.000000
13173999.000000,2.301323,-1.013728,-1.860584,-1.442516,-0.981241,1.746170,0.479182,-0.017609,-0.595689,-0.431074,-0.464329,-0.537229,0.699028,0.262188,1.764264,39.987530,25.900375,11.060362,0.625699,2.228500,0.048385,0.000000,0.000000,0.000000,0.000000,0.000000,0.000000
13174000.000000,2.301321,-1.014323,-1.861006,-1.442984,-0.981785,1.746875,0.479447,-0.013608,-0.589215,-0.427453,-0.466329,-0.545517,0.703353,0.263836,1.466718,40.110516,25.753586,11.306334,0.625699,2.242233,0.021835,0.000000,0.000000,0.000000,0.000000,0.000000,0.000000
13174001.000000,2.301320,-1.014906,-1.861418,-1.443447,-0.982334,1.747587,0.479705,-0.008193,-0.586222,-0.418966,-0.464159,-0.542393,0.709451,0.257892,1.192975,39.987530,25.507614,11.528502,0.655912,2.183639,0.061202,0.000000,0.000000,0.000000,0.000000,0.000000,0.000000
13174002.000000,2.301321,-1.015486,-1.861831,-1.443919,-0.982892,1.748299,0.479973,-0.001270,-0.591550,-0.414737,-0.464474,-0.548230,0.706387,0.260918,0.923200,39.892315,25.313217,11.750669,0.673307,2.144271,0.048385,0.000000,0.000000,0.000000,0.000000,0.000000,0.000000
13174003.000000,2.301328,-1.016060,-1.862240,-1.444388,-0.983434,1.749007,0.480228,0.000688,-0.580824,-0.408055,-0.466063,-0.547567,0.708195,0.257172,0.649457,39.598736,25.015671,11.976805,0.661405,2.131454,0.048385,0.000000,0.000000,0.000000,0.000000,0.000000,0.000000
13174004.000000,2.301342,-1.016637,-1.862642,-1.444869,-0.983980,1.749711,0.480484,0.006511,-0.581164,-0.404797,-0.470414,-0.550520,0.707130,0.256824,0.328107,39.451946,24.745895,12.222776,0.644010,2.104903,0.094161,0.000000,0.000000,0.000000,0.000000,0.000000,0.000000
13174005.000000,2.301351,-1.017226,-1.863033,-1.445341,-0.984530,1.750421,0.480752,0.008439,-0.582489,-0.399103,-0.470260,-0.548099,0.700638,0.260095,0.105939,39.376568,24.476120,12.345762,0.608304,2.079269,0.015426,0.000000,0.000000,0.000000,0.000000,0.000000,0.000000
13174006.000000,2.301369,-1.017810,-1.863423,-1.445816,-0.985067,1.751116,0.481006,0.009269,-0.586708,-0.393443,-0.473412,-0.547176,0.699173,0.254692,-0.215411,39.281353,24.158737,12.567930,0.589994,2.118636,0.061202,0.000000,0.000000,0.000000,0.000000,0.000000,0.000000
13174007.000000,2.301379,-1.018383,-1.863812,-1.446287,-0.985619,1.751816,0.481266,0.010597,-0.580130,-0.392404,-0.475232,-0.545374,0.698737,0.253430,-0.441546,39.182171,23.960373,12.643309,0.571683,2.137862,0.028243,0.000000,0.000000,0.000000,0.000000,0.000000,0.000000
13174008.000000,2.301393,-1.018973,-1.864190,-1.446768,-0.986155,1.752531,0.481513,0.011607,-0.582703,-0.383542,-0.475953,-0.541494,0.700399,0.251197,-0.663714,39.182171,23.690598,12.813902,0.578092,2.104903,0.034652,0.000000,0.000000,0.000000,0.000000,0.000000,0.000000
13174009.000000,2.301411,-1.019540,-1.864572,-1.447233,-0.986707,1.753242,0.481767,0.013001,-0.578478,-0.382534,-0.473228,-0.540970,0.707161,0.249881,-0.909686,39.035381,23.520004,12.841673,0.535978,2.033492,0.048385,0.000000,0.000000,0.000000,0.000000,0.000000,0.000000
13174010.000000,2.301429,-1.020119,-1.864949,-1.447708,-0.987263,1.753944,0.482024,0.015673,-0.575206,-0.381579,-0.467027,-0.538999,0.698821,0.250026,-1.084246,38.983807,23.349411,12.988462,0.566190,2.020675,0.021835,0.000000,0.000000,0.000000,0.000000,0.000000,0.000000
13174011.000000,2.301446,-1.020698,-1.865331,-1.448182,-0.987821,1.754652,0.482278,0.018864,-0.569658,-0.376765,-0.468050,-0.545785,0.706930,0.247738,-1.183428,38.813213,23.174850,13.087645,0.566190,2.098495,0.054794,0.000000,0.000000,0.000000,0.000000,0.000000,0.000000
13174012.000000,2.301465,-1.021265,-1.865705,-1.448661,-0.988380,1.755356,0.482536,0.018657,-0.569564,-0.375644,-0.467048,-0.544234,0.705273,0.252818,-1.282611,38.690228,23.079636,13.234434,0.559781,2.112228,0.034652,0.000000,0.000000,0.000000,0.000000,0.000000,0.000000
13174013.000000,2.301486,-1.021836,-1.866082,-1.449146,-0.988940,1.756073,0.482782,0.018385,-0.566776,-0.376869,-0.471173,-0.550290,0.704936,0.249322,-1.381793,38.495831,22.932846,13.456602,0.584501,2.060043,0.081344,0.000000,0.000000,0.000000,0.000000,0.000000,0.000000
13174014.000000,2.301503,-1.022398,-1.866458,-1.449617,-0.989491,1.756770,0.483047,0.017383,-0.572997,-0.374777,-0.472551,-0.546483,0.707613,0.255872,-1.429400,38.325237,22.809860,13.607359,0.506681,2.060043,0.001693,0.000000,0.000000,0.000000,0.000000,0.000000,0.000000
13174015.000000,2.301515,-1.022969,-1.866829,-1.450092,-0.990056,1.757475,0.483294,0.016018,-0.571980,-0.375394,-0.470260,-0.554923,0.698192,0.250560,-1.453204,38.178448,22.635300,13.805723,0.482877,2.118636,0.074935,0.000000,0.000000,0.000000,0.000000,0.000000,0.000000
13174016.000000,2.301534,-1.023545,-1.867199,-1.450559,-0.990620,1.758172,0.483550,0.013872,-0.579022,-0.368813,-0.479237,-0.554580,0.703114,0.254843,-1.552386,38.079266,22.464706,14.000120,0.524076,2.125045,0.054794,0.000000,0.000000,0.000000,0.000000,0.000000,0.000000
13174017.000000,2.301551,-1.024108,-1.867562,-1.451017,-0.991180,1.758868,0.483805,0.014362,-0.570890,-0.376189,-0.466607,-0.556144,0.694250,0.257054,-1.603961,37.956280,22.341721,14.051695,0.518583,2.098495,0.048385,0.000000,0.000000,0.000000,0.000000,0.000000,0.000000
13174018.000000,2.301566,-1.024687,-1.867929,-1.451481,-0.991748,1.759568,0.484048,0.016658,-0.568985,-0.373797,-0.462779,-0.570680,0.690913,0.253817,-1.603961,37.932476,22.194931,14.075499,0.554288,2.098495,0.061202,0.000000,0.000000,0.000000,0.000000,0.000000,0.000000
13174019.000000,2.301578,-1.025277,-1.868293,-1.451930,-0.992316,1.760259,0.484308,0.014279,-0.574951,-0.373287,-0.458236,-0.569199,0.693789,0.257792,-1.552386,38.055462,21.972763,14.127073,0.554288,2.072860,0.009017,0.000000,0.000000,0.000000,0.000000,0.000000,0.000000
13174020.000000,2.301586,-1.025852,-1.868656,-1.452381,-0.992893,1.760961,0.484561,0.011324,-0.575781,-0.369408,-0.452475,-0.567220,0.690868,0.253034,-1.453204,38.178448,21.849777,14.127073,0.535978,2.014266,0.048385,0.000000,0.000000,0.000000,0.000000,0.000000,0.000000
13174021.000000,2.301594,-1.026439,-1.869022,-1.452818,-0.993455,1.761659,0.484816,0.008798,-0.576063,-0.363507,-0.447675,-0.562739,0.699485,0.251266,-1.330218,38.325237,21.778366,14.051695,0.547880,1.962081,0.048385,0.000000,0.000000,0.000000,0.000000,0.000000,0.000000
13174022.000000,2.301605,-1.027012,-1.869380,-1.453263,-0.994026,1.762354,0.485070,0.007645,-0.576671,-0.357887,-0.445287,-0.561601,0.700792,0.249373,-1.231036,38.325237,21.631577,14.027891,0.524076,1.923629,0.048385,0.000000,0.000000,0.000000,0.000000,0.000000,0.000000
13174023.000000,2.301613,-1.027586,-1.869738,-1.453706,-0.994599,1.763047,0.485316,0.009358,-0.575379,-0.360218,-0.441051,-0.561895,0.693724,0.247938,-1.108050,38.249859,21.484787,14.075499,0.506681,1.955673,0.067611,0.000000,0.000000,0.000000,0.000000,0.000000,0.000000
13174024.000000,2.301615,-1.028157,-1.870102,-1.454134,-0.995168,1.763722,0.485574,0.006736,-0.569523,-0.357923,-0.436064,-0.567088,0.683888,0.253156,-0.933489,38.079266,21.337997,14.127073,0.488370,2.001449,0.041976,0.000000,0.000000,0.000000,0.000000,0.000000,0.000000
13174025.000000,2.301624,-1.028726,-1.870458,-1.454557,-0.995737,1.764406,0.485825,0.006114,-0.570659,-0.357890,-0.432442,-0.559087,0.685702,0.249827,-0.810504,37.861065,21.238815,14.075499,0.440763,2.053634,0.074935,0.000000,0.000000,0.000000,0.000000,0.000000,0.000000
13174026.000000,2.301631,-1.029288,-1.870814,-1.454984,-0.996309,1.765105,0.486079,0.006009,-0.564377,-0.356183,-0.428930,-0.566594,0.682136,0.247927,-0.711321,37.515911,21.064255,14.099302,0.470060,2.001449,0.048385,0.000000,0.000000,0.000000,0.000000,0.000000,0.000000
13174027.000000,2.301645,-1.029845,-1.871177,-1.455401,-0.996881,1.765793,0.486328,0.007653,-0.562296,-0.360526,-0.428015,-0.569823,0.684128,0.246392,-0.687518,37.222332,20.992844,14.198484,0.434354,1.942855,0.054794,0.000000,0.000000,0.000000,0.000000,0.000000,0.000000
13174028.000000,2.301648,-1.030412,-1.871527,-1.455810,-0.997463,1.766474,0.486573,0.004957,-0.558614,-0.356990,-0.419673,-0.574948,0.683953,0.253864,-0.512957,36.952557,20.770676,14.150877,0.464567,2.001449,0.061202,0.000000,0.000000,0.000000,0.000000,0.000000,0.000000
13174029.000000,2.301659,-1.030984,-1.871897,-1.456206,-0.998033,1.767162,0.486828,0.009041,-0.560767,-0.360346,-0.416133,-0.573828,0.693557,0.251705,-0.441546,36.758160,20.822250,14.051695,0.488370,2.072860,0.061202,0.000000,0.000000,0.000000,0.000000,0.000000,0.000000
13174030.000000,2.301672,-1.031550,-1.872245,-1.456609,-0.998607,1.767850,0.487081,0.009414,-0.566463,-0.355824,-0.410723,-0.579992,0.702061,0.254286,-0.389971,36.611370,20.699265,13.952513,0.506681,2.020675,0.074935,0.000000,0.000000,0.000000,0.000000,0.000000,0.000000
13174031.000000,2.301682,-1.032118,-1.872604,-1.457008,-0.999175,1.768541,0.487338,0.009076,-0.560264,-0.353118,-0.410742,-0.574889,0.693150,0.253206,-0.314593,36.341595,20.600082,13.877134,0.476469,1.962081,0.048385,0.000000,0.000000,0.000000,0.000000,0.000000,0.000000
13174032.000000,2.301691,-1.032678,-1.872965,-1.457397,-0.999743,1.769228,0.487587,0.008010,-0.572421,-0.350757,-0.403181,-0.574245,0.692445,0.250311,-0.215411,36.071819,20.477097,13.754148,0.393156,1.890670,0.067611,0.000000,0.000000,0.000000,0.000000,0.000000,0.000000
13174033.000000,2.301705,-1.033247,-1.873316,-1.457781,-1.000326,1.769915,0.487841,0.008765,-0.573733,-0.352495,-0.398099,-0.575987,0.687962,0.254241,-0.191607,35.853619,20.231125,13.555784,0.369352,1.890670,0.054794,0.000000,0.000000,0.000000,0.000000,0.000000,0.000000
13174034.000000,2.301722,-1.033822,-1.873680,-1.458160,-1.000893,1.770594,0.488090,0.012765,-0.570230,-0.354678,-0.400305,-0.575107,0.686314,0.256318,-0.167803,35.706829,20.183517,13.385191,0.410551,1.890670,0.067611,0.000000,0.000000,0.000000,0.000000,0.000000,0.000000
13174035.000000,2.301741,-1.034391,-1.874031,-1.458532,-1.001476,1.771273,0.488340,0.015936,-0.568941,-0.363463,-0.393298,-0.576114,0.674087,0.253197,-0.167803,35.631451,19.985153,13.163023,0.405057,1.903487,0.067611,0.000000,0.000000,0.000000,0.000000,0.000000,0.000000
13174036.000000,2.301753,-1.034962,-1.874392,-1.458902,-1.002059,1.771968,0.488589,0.015933,-0.568710,-0.360865,-0.381506,-0.585418,0.675575,0.252320,-0.068621,35.484661,19.838364,12.940855,0.452665,1.890670,0.041976,0.000000,0.000000,0.000000,0.000000,0.000000,0.000000
13174037.000000,2.301770,-1.035532,-1.874752,-1.459256,-1.002637,1.772652,0.488823,0.017796,-0.573313,-0.360960,-0.372887,-0.587391,0.676317,0.247998,-0.044818,35.385479,19.643967,12.690916,0.410551,1.838485,0.114303,0.000000,0.000000,0.000000,0.000000,0.000000,0.000000
13174038.000000,2.301789,-1.036099,-1.875108,-1.459621,-1.003223,1.773357,0.489078,0.019677,-0.573229,-0.360109,-0.367654,-0.576946,0.681240,0.249807,-0.044818,35.290264,19.520981,12.520323,0.422452,1.702071,0.041976,0.000000,0.000000,0.000000,0.000000,0.000000,0.000000
13174039.000000,2.301802,-1.036683,-1.875471,-1.459970,-1.003801,1.774042,0.489322,0.015896,-0.573088,-0.363533,-0.359250,-0.577818,0.692124,0.247486,0.054365,35.238689,19.469406,12.270384,0.393156,1.656295,0.074935,0.000000,0.000000,0.000000,0.000000,0.000000,0.000000
13174040.000000,2.301821,-1.037246,-1.875827,-1.460317,-1.004383,1.774729,0.489572,0.017985,-0.575210,-0.356678,-0.354354,-0.567803,0.686098,0.245577,0.078168,35.091900,19.275009,12.072020,0.351041,1.721298,0.100570,0.000000,0.000000,0.000000,0.000000,0.000000,0.000000
13174041.000000,2.301840,-1.037815,-1.876184,-1.460664,-1.004973,1.775416,0.489825,0.018870,-0.569759,-0.356417,-0.350556,-0.571329,0.680751,0.247848,0.129743,34.921307,19.152023,11.901426,0.332731,1.812850,0.048385,0.000000,0.000000,0.000000,0.000000,0.000000,0.000000
13174042.000000,2.301864,-1.038386,-1.876546,-1.461003,-1.005548,1.776098,0.490074,0.024384,-0.566234,-0.356394,-0.348163,-0.574878,0.677004,0.246294,0.105939,34.750713,19.052841,11.726866,0.332731,1.793624,0.067611,0.000000,0.000000,0.000000,0.000000,0.000000,0.000000
13174043.000000,2.301881,-1.038952,-1.876906,-1.461341,-1.006135,1.776796,0.490334,0.020009,-0.566363,-0.355233,-0.342766,-0.576989,0.675508,0.247123,0.177350,34.726910,19.029037,11.556273,0.356534,1.754256,0.041976,0.000000,0.000000,0.000000,0.000000,0.000000,0.000000
13174044.000000,2.301900,-1.039513,-1.877267,-1.461671,-1.006710,1.777486,0.490578,0.020365,-0.564891,-0.359042,-0.335818,-0.577893,0.673322,0.249004,0.228925,34.532513,18.929855,11.381712,0.332731,1.708480,0.107894,0.000000,0.000000,0.000000,0.000000,0.000000,0.000000
13174045.000000,2.301923,-1.040069,-1.877637,-1.461995,-1.007302,1.778165,0.490839,0.024591,-0.560485,-0.361004,-0.330282,-0.584361,0.677706,0.254405,0.252729,34.286541,18.929855,11.183348,0.327238,1.643478,0.061202,0.000000,0.000000,0.000000,0.000000,0.000000,0.000000
13174046.000000,2.301951,-1.040636,-1.878003,-1.462306,-1.007901,1.778844,0.491082,0.026080,-0.561571,-0.362401,-0.322791,-0.581278,0.677772,0.253600,0.205121,34.088177,18.929855,10.885801,0.374845,1.611434,0.114303,0.000000,0.000000,0.000000,0.000000,0.000000,0.000000
13174047.000000,2.301971,-1.041211,-1.878369,-1.462615,-1.008486,1.779517,0.491340,0.024843,-0.566640,-0.361148,-0.322053,-0.591734,0.686241,0.253607,0.252729,33.941387,18.882248,10.616026,0.381254,1.637069,0.061202,0.000000,0.000000,0.000000,0.000000,0.000000,0.000000
13174048.000000,2.301994,-1.041774,-1.878733,-1.462921,-1.009082,1.780185,0.491598,0.027094,-0.560148,-0.365191,-0.314657,-0.586409,0.681439,0.256615,0.304304,33.746990,18.882248,10.318480,0.332731,1.727706,0.048385,0.000000,0.000000,0.000000,0.000000,0.000000,0.000000
13174049.000000,2.302024,-1.042341,-1.879102,-1.463221,-1.009674,1.780858,0.491847,0.027684,-0.561868,-0.364177,-0.307780,-0.587500,0.675124,0.256683,0.252729,33.477215,18.830673,10.096312,0.327238,1.741439,0.100570,0.000000,0.000000,0.000000,0.000000,0.000000,0.000000
13174050.000000,2.302053,-1.042916,-1.879477,-1.463510,-1.010271,1.781531,0.492110,0.028457,-0.579414,-0.367650,-0.300701,-0.585003,0.682580,0.260286,0.205121,33.453411,18.830673,9.798765,0.291532,1.702071,0.054794,0.000000,0.000000,0.000000,0.000000,0.000000,0.000000
13174051.000000,2.302083,-1.043486,-1.879854,-1.463800,-1.010869,1.782208,0.492363,0.027591,-0.573377,-0.369260,-0.293613,-0.590208,0.673353,0.254950,0.205121,33.306622,18.929855,9.576597,0.308927,1.643478,0.100570,0.000000,0.000000,0.000000,0.000000,0.000000,0.000000
13174052.000000,2.302114,-1.044073,-1.880232,-1.464081,-1.011468,1.782877,0.492620,0.030678,-0.572568,-0.369773,-0.300017,-0.589968,0.683296,0.258954,0.177350,33.330425,19.029037,9.378233,0.339139,1.572067,0.061202,0.000000,0.000000,0.000000,0.000000,0.000000,0.000000
13174053.000000,2.302140,-1.044654,-1.880608,-1.464366,-1.012078,1.783541,0.492877,0.030477,-0.577848,-0.380948,-0.294748,-0.596275,0.668631,0.259797,0.252729,33.330425,19.128220,9.207640,0.452665,1.546432,0.061202,0.000000,0.000000,0.000000,0.000000,0.000000,0.000000
13174054.000000,2.302171,-1.045250,-1.880993,-1.464644,-1.012682,1.784217,0.493125,0.029276,-0.587704,-0.384884,-0.287719,-0.602224,0.662395,0.254995,0.252729,33.477215,19.223434,9.056883,0.440763,1.507064,0.094161,0.000000,0.000000,0.000000,0.000000,0.000000,0.000000
13174055.000000,2.302209,-1.045843,-1.881382,-1.464921,-1.013275,1.784876,0.493384,0.029455,-0.586410,-0.387231,-0.287123,-0.607158,0.658263,0.254783,0.205121,33.501019,19.298813,8.957701,0.452665,1.474105,0.041976,0.000000,0.000000,0.000000,0.000000,0.000000,0.000000
13174056.000000,2.302247,-1.046434,-1.881761,-1.465203,-1.013887,1.785532,0.493635,0.033096,-0.588388,-0.384771,-0.284707,-0.603280,0.651145,0.251338,0.129743,33.528790,19.322617,8.933897,0.416959,1.526290,0.067611,0.000000,0.000000,0.000000,0.000000,0.000000,0.000000
13174057.000000,2.302287,-1.047040,-1.882146,-1.465485,-1.014479,1.786183,0.493876,0.032184,-0.595381,-0.385882,-0.281637,-0.600272,0.650995,0.248572,0.078168,33.723186,19.346420,8.985472,0.332731,1.597701,0.094161,0.000000,0.000000,0.000000,0.000000,0.000000,0.000000
13174058.000000,2.302315,-1.047634,-1.882523,-1.465763,-1.015093,1.786837,0.494128,0.031213,-0.597208,-0.380637,-0.280774,-0.596578,0.652913,0.246839,0.177350,33.846172,19.223434,8.985472,0.344633,1.624252,0.114303,0.000000,0.000000,0.000000,0.000000,0.000000,0.000000
13174059.000000,2.302353,-1.048239,-1.882919,-1.466049,-1.015695,1.787493,0.494387,0.033065,-0.591912,-0.389936,-0.282718,-0.596868,0.644318,0.249583,0.177350,33.969158,19.397995,9.132261,0.303434,1.662704,0.041976,0.000000,0.000000,0.000000,0.000000,0.000000,0.000000
13174060.000000,2.302389,-1.048856,-1.883305,-1.466323,-1.016300,1.788142,0.494643,0.033800,-0.599068,-0.386160,-0.276585,-0.594486,0.650276,0.249762,0.205121,34.163555,19.421799,9.207640,0.327238,1.630660,0.041976,0.000000,0.000000,0.000000,0.000000,0.000000,0.000000
13174061.000000,2.302420,-1.049455,-1.883684,-1.466601,-1.016911,1.788806,0.494889,0.032418,-0.602454,-0.387203,-0.278155,-0.594075,0.655404,0.245765,0.304304,34.163555,19.445602,9.279051,0.428861,1.591293,0.120712,0.000000,0.000000,0.000000,0.000000,0.000000,0.000000
13174062.000000,2.302455,-1.050075,-1.884076,-1.466889,-1.017498,1.789465,0.495141,0.033389,-0.600503,-0.386729,-0.279097,-0.589369,0.652973,0.246392,0.328107,34.409527,19.544785,9.477415,0.374845,1.572067,0.061202,0.000000,0.000000,0.000000,0.000000,0.000000,0.000000
13174063.000000,2.302484,-1.050695,-1.884464,-1.467159,-1.018098,1.790122,0.495386,0.034728,-0.603993,-0.385794,-0.275432,-0.591383,0.661685,0.243524,0.474897,34.679302,19.497177,9.501219,0.452665,1.519881,0.114303,0.000000,0.000000,0.000000,0.000000,0.000000,0.000000
13174064.000000,2.302520,-1.051331,-1.884854,-1.467445,-1.018701,1.790771,0.495631,0.034058,-0.611084,-0.386001,-0.277739,-0.592763,0.651175,0.245579,0.550275,35.020489,19.592392,9.628172,0.428861,1.513473,0.094161,0.000000,0.000000,0.000000,0.000000,0.000000,0.000000
13174065.000000,2.302557,-1.051974,-1.885240,-1.467718,-1.019286,1.791412,0.495882,0.035061,-0.621478,-0.382906,-0.276288,-0.588467,0.655748,0.246807,0.574079,35.484661,19.592392,9.600401,0.362943,1.572067,0.061202,0.000000,0.000000,0.000000,0.000000,0.000000,0.000000
13174066.000000,2.302598,-1.052596,-1.885617,-1.467993,-1.019887,1.792061,0.496122,0.036171,-0.621082,-0.380392,-0.276033,-0.587380,0.651243,0.239662,0.574079,35.706829,19.497177,9.628172,0.261320,1.611434,0.114303,0.000000,0.000000,0.000000,0.000000,0.000000,0.000000
13174067.000000,2.302636,-1.053232,-1.886013,-1.468264,-1.020471,1.792714,0.496370,0.038733,-0.620684,-0.383227,-0.277366,-0.595190,0.643909,0.239948,0.625654,35.853619,19.520981,9.552794,0.201810,1.611434,0.021835,0.000000,0.000000,0.000000,0.000000,0.000000,0.000000
13174068.000000,2.302681,-1.053851,-1.886410,-1.468538,-1.021081,1.793351,0.496612,0.042923,-0.621353,-0.384095,-0.273993,-0.597585,0.638456,0.239443,0.574079,35.829815,19.497177,9.552794,0.207303,1.624252,0.061202,0.000000,0.000000,0.000000,0.000000,0.000000,0.000000
13174069.000000,2.302723,-1.054485,-1.886804,-1.468803,-1.021688,1.794003,0.496855,0.040713,-0.629319,-0.387845,-0.271394,-0.595174,0.637693,0.239607,0.601850,35.853619,19.592392,9.429808,0.219205,1.643478,0.100570,0.000000,0.000000,0.000000,0.000000,0.000000,0.000000
13174070.000000,2.302763,-1.055112,-1.887204,-1.469083,-1.022299,1.794649,0.497101,0.042537,-0.623966,-0.390262,-0.279957,-0.599247,0.654905,0.241365,0.625654,35.802044,19.592392,9.406004,0.273221,1.617843,0.100570,0.000000,0.000000,0.000000,0.000000,0.000000,0.000000
13174071.000000,2.302807,-1.055722,-1.887612,-1.469359,-1.022901,1.795311,0.497355,0.044617,-0.616421,-0.401161,-0.276859,-0.596041,0.654367,0.243813,0.625654,35.583843,19.643967,9.429808,0.315336,1.500655,0.048385,0.000000,0.000000,0.000000,0.000000,0.000000,0.000000
13174072.000000,2.302850,-1.056353,-1.888015,-1.469626,-1.023514,1.795965,0.497597,0.045080,-0.619917,-0.401730,-0.271638,-0.594640,0.652108,0.244231,0.673261,35.460857,19.667770,9.354429,0.356534,1.448470,0.048385,0.000000,0.000000,0.000000,0.000000,0.000000,0.000000
13174073.000000,2.302892,-1.056976,-1.888420,-1.469897,-1.024111,1.796604,0.497835,0.045403,-0.622482,-0.402253,-0.271919,-0.592173,0.647183,0.241376,0.724836,35.290264,19.715378,9.306822,0.362943,1.494247,0.133529,0.000000,0.000000,0.000000,0.000000,0.000000,0.000000
13174074.000000,2.302937,-1.057592,-1.888822,-1.470173,-1.024726,1.797233,0.498087,0.043244,-0.625534,-0.400200,-0.273653,-0.589104,0.635658,0.244484,0.748639,35.167278,19.766953,9.330626,0.374845,1.617843,0.100570,0.000000,0.000000,0.000000,0.000000,0.000000,0.000000
13174075.000000,2.302987,-1.058200,-1.889223,-1.470437,-1.025318,1.797864,0.498334,0.045297,-0.610919,-0.400193,-0.265415,-0.587104,0.630876,0.245310,0.748639,34.798321,19.766953,9.207640,0.351041,1.670028,0.087753,0.000000,0.000000,0.000000,0.000000,0.000000,0.000000
13174076.000000,2.303038,-1.058816,-1.889641,-1.470707,-1.025925,1.798493,0.498579,0.047533,-0.611573,-0.404690,-0.268543,-0.593127,0.640965,0.244778,0.724836,34.580120,19.937546,9.207640,0.285123,1.624252,0.087753,0.000000,0.000000,0.000000,0.000000,0.000000,0.000000
13174077.000000,2.303084,-1.059441,-1.890046,-1.470971,-1.026540,1.799127,0.498820,0.046957,-0.612791,-0.400145,-0.264658,-0.596003,0.632064,0.246094,0.772443,34.385723,20.060532,9.108458,0.303434,1.617843,0.067611,0.000000,0.000000,0.000000,0.000000,0.000000,0.000000
13174078.000000,2.303125,-1.060065,-1.890463,-1.471237,-1.027148,1.799748,0.499067,0.045127,-0.619093,-0.404411,-0.263311,-0.591212,0.633829,0.250133,0.895429,34.262737,20.278732,9.179869,0.255826,1.637069,0.081344,0.000000,0.000000,0.000000,0.000000,0.000000,0.000000
13174079.000000,2.303168,-1.060686,-1.890873,-1.471498,-1.027763,1.800370,0.499322,0.041133,-0.618737,-0.405282,-0.262444,-0.590089,0.624360,0.250002,0.994611,34.211163,20.377914,9.132261,0.291532,1.702071,0.054794,0.000000,0.000000,0.000000,0.000000,0.000000,0.000000
13174080.000000,2.303213,-1.061318,-1.891292,-1.471764,-1.028377,1.800989,0.499564,0.042660,-0.617982,-0.407353,-0.263529,-0.598596,0.625587,0.243537,1.046186,34.211163,20.524704,9.156065,0.303434,1.793624,0.074935,0.000000,0.000000,0.000000,0.000000,0.000000,0.000000
13174081.000000,2.303255,-1.061947,-1.891708,-1.472020,-1.028993,1.801616,0.499811,0.038879,-0.635428,-0.407903,-0.261189,-0.599868,0.633289,0.245176,1.169172,34.286541,20.623886,9.179869,0.303434,1.747848,0.074935,0.000000,0.000000,0.000000,0.000000,0.000000,0.000000
13174082.000000,2.303293,-1.062590,-1.892120,-1.472289,-1.029629,1.802244,0.500057,0.037980,-0.639927,-0.407659,-0.263844,-0.602239,0.629936,0.241921,1.343732,34.385723,20.699265,9.279051,0.351041,1.721298,0.041976,0.000000,0.000000,0.000000,0.000000,0.000000,0.000000
13174083.000000,2.303339,-1.063228,-1.892552,-1.472550,-1.030238,1.802851,0.500303,0.040181,-0.638217,-0.412945,-0.266569,-0.597596,0.631679,0.245864,1.415143,34.433331,20.917465,9.330626,0.344633,1.767074,0.081344,0.000000,0.000000,0.000000,0.000000,0.000000,0.000000
13174084.000000,2.303385,-1.063850,-1.892970,-1.472810,-1.030875,1.803474,0.500553,0.040723,-0.629158,-0.420906,-0.263480,-0.603636,0.630353,0.246654,1.514325,34.409527,20.969040,9.354429,0.398649,1.760665,0.048385,0.000000,0.000000,0.000000,0.000000,0.000000,0.000000
13174085.000000,2.303435,-1.064494,-1.893395,-1.473065,-1.031492,1.804104,0.500792,0.045834,-0.630533,-0.421888,-0.259660,-0.613832,0.620648,0.245394,1.542096,34.504742,21.115829,9.330626,0.398649,1.721298,0.074935,0.000000,0.000000,0.000000,0.000000,0.000000,0.000000
13174086.000000,2.303482,-1.065128,-1.893816,-1.473327,-1.032123,1.804719,0.501033,0.046023,-0.636272,-0.423401,-0.258883,-0.614979,0.621732,0.240750,1.613508,34.627728,21.163437,9.378233,0.381254,1.721298,0.074935,0.000000,0.000000,0.000000,0.000000,0.000000,0.000000
13174087.000000,2.303528,-1.065756,-1.894236,-1.473592,-1.032744,1.805330,0.501267,0.045263,-0.638737,-0.418773,-0.258710,-0.609543,0.613400,0.236177,1.712690,34.532513,21.215012,9.477415,0.327238,1.806442,0.100570,0.000000,0.000000,0.000000,0.000000,0.000000,0.000000
13174088.000000,2.303573,-1.066384,-1.894661,-1.473854,-1.033372,1.805934,0.501511,0.045006,-0.630237,-0.420248,-0.262168,-0.617876,0.614450,0.241892,1.811872,34.433331,21.238815,9.576597,0.327238,1.851302,0.015426,0.000000,0.000000,0.000000,0.000000,0.000000,0.000000
13174089.000000,2.303619,-1.067008,-1.895085,-1.474115,-1.034010,1.806552,0.501744,0.044909,-0.626926,-0.417413,-0.259200,-0.623836,0.612285,0.235546,1.887250,34.286541,21.337997,9.576597,0.362943,1.858627,0.067611,0.000000,0.000000,0.000000,0.000000,0.000000,0.000000
13174090.000000,2.303667,-1.067639,-1.895493,-1.474377,-1.034656,1.807169,0.501973,0.044880,-0.627361,-0.414293,-0.257824,-0.625608,0.614108,0.232133,1.962629,34.115948,21.262619,9.628172,0.422452,1.871444,0.100570,0.000000,0.000000,0.000000,0.000000,0.000000,0.000000
13174091.000000,2.303716,-1.068269,-1.895910,-1.474628,-1.035278,1.807776,0.502218,0.047561,-0.627003,-0.410731,-0.256609,-0.624363,0.619075,0.238172,2.061811,33.893780,21.262619,9.651976,0.416959,1.890670,0.034652,0.000000,0.000000,0.000000,0.000000,0.000000,0.000000
13174092.000000,2.303771,-1.068899,-1.896326,-1.474885,-1.035917,1.808392,0.502447,0.051731,-0.629403,-0.411550,-0.256108,-0.622590,0.619997,0.238912,2.061811,33.794598,21.262619,9.699583,0.422452,1.877853,0.061202,0.000000,0.000000,0.000000,0.000000,0.000000,0.000000
13174093.000000,2.303824,-1.069539,-1.896734,-1.475133,-1.036549,1.809018,0.502682,0.054051,-0.625647,-0.407721,-0.250750,-0.628289,0.614468,0.238042,2.085615,33.794598,21.215012,9.651976,0.452665,1.800033,0.081344,0.000000,0.000000,0.000000,0.000000,0.000000,0.000000
13174094.000000,2.303888,-1.070176,-1.897143,-1.475371,-1.037184,1.809635,0.502916,0.058872,-0.630647,-0.407242,-0.246115,-0.630126,0.619351,0.239836,1.986432,33.822369,21.115829,9.576597,0.428861,1.727706,0.074935,0.000000,0.000000,0.000000,0.000000,0.000000,0.000000
13174095.000000,2.303955,-1.070831,-1.897540,-1.475620,-1.037816,1.810244,0.503146,0.063348,-0.637151,-0.402501,-0.247758,-0.633473,0.612119,0.233184,1.835676,33.969158,20.969040,9.600401,0.434354,1.779891,0.054794,0.000000,0.000000,0.000000,0.000000,0.000000,0.000000
13174096.000000,2.304018,-1.071488,-1.897946,-1.475860,-1.038438,1.810846,0.503378,0.064064,-0.646063,-0.399281,-0.242694,-0.628194,0.618167,0.227825,1.788068,34.163555,20.846054,9.600401,0.374845,1.832076,0.028243,0.000000,0.000000,0.000000,0.000000,0.000000,0.000000
13174097.000000,2.304088,-1.072141,-1.898343,-1.476098,-1.039067,1.811469,0.503597,0.065453,-0.647583,-0.396749,-0.238823,-0.628008,0.615222,0.225016,1.688886,34.409527,20.822250,9.600401,0.320829,1.812850,0.094161,0.000000,0.000000,0.000000,0.000000,0.000000,0.000000
13174098.000000,2.304160,-1.072795,-1.898738,-1.476332,-1.039690,1.812102,0.503830,0.067294,-0.645852,-0.394471,-0.236441,-0.626468,0.624621,0.227840,1.565900,34.480938,20.647690,9.628172,0.315336,1.754256,0.034652,0.000000,0.000000,0.000000,0.000000,0.000000,0.000000
13174099.000000,2.304236,-1.073443,-1.899145,-1.476570,-1.040309,1.812719,0.504059,0.069239,-0.663660,-0.399098,-0.235764,-0.632326,0.620693,0.225405,1.415143,34.532513,20.600082,9.699583,0.243009,1.754256,0.087753,0.000000,0.000000,0.000000,0.000000,0.000000,0.000000
13174100.000000,2.304315,-1.074091,-1.899541,-1.476804,-1.040940,1.813345,0.504289,0.070997,-0.656591,-0.396462,-0.234396,-0.624899,0.625075,0.227594,1.244550,34.480938,20.429489,9.774961,0.249418,1.741439,0.041976,0.000000,0.000000,0.000000,0.000000,0.000000,0.000000
13174101.000000,2.304389,-1.074752,-1.899930,-1.477033,-1.041559,1.813968,0.504519,0.069995,-0.657680,-0.389442,-0.235665,-0.629401,0.635747,0.226579,1.169172,34.580120,20.207321,9.850340,0.249418,1.721298,0.061202,0.000000,0.000000,0.000000,0.000000,0.000000,0.000000
13174102.000000,2.304479,-1.075398,-1.900320,-1.477272,-1.042187,1.814592,0.504747,0.076208,-0.653540,-0.396712,-0.235993,-0.622379,0.631405,0.225610,0.923200,34.580120,20.060532,9.973326,0.273221,1.760665,0.081344,0.000000,0.000000,0.000000,0.000000,0.000000,0.000000
13174103.000000,2.304559,-1.076053,-1.900714,-1.477510,-1.042808,1.815221,0.504975,0.079918,-0.648494,-0.392129,-0.236000,-0.642870,0.626499,0.227220,0.824018,34.556316,19.913742,10.096312,0.303434,1.727706,0.048385,0.000000,0.000000,0.000000,0.000000,0.000000,0.000000
13174104.000000,2.304643,-1.076709,-1.901108,-1.477750,-1.043437,1.815843,0.505202,0.080216,-0.652002,-0.390756,-0.238645,-0.632047,0.632280,0.225751,0.724836,34.627728,19.715378,10.318480,0.285123,1.682845,0.081344,0.000000,0.000000,0.000000,0.000000,0.000000,0.000000
13174105.000000,2.304729,-1.077376,-1.901493,-1.477976,-1.044068,1.816464,0.505435,0.080447,-0.658918,-0.384895,-0.232880,-0.632535,0.623959,0.222005,0.625654,34.750713,19.568588,10.393858,0.249418,1.689254,0.061202,0.000000,0.000000,0.000000,0.000000,0.000000,0.000000
13174106.000000,2.304819,-1.078041,-1.901889,-1.478204,-1.044692,1.817079,0.505660,0.085279,-0.662236,-0.388088,-0.232252,-0.624283,0.629562,0.222722,0.451093,34.873699,19.497177,10.465269,0.219205,1.662704,0.074935,0.000000,0.000000,0.000000,0.000000,0.000000,0.000000
13174107.000000,2.304909,-1.078693,-1.902285,-1.478432,-1.045318,1.817686,0.505889,0.084962,-0.658425,-0.388006,-0.231639,-0.630099,0.615849,0.224305,0.328107,34.945110,19.445602,10.516844,0.147794,1.695663,0.048385,0.000000,0.000000,0.000000,0.000000,0.000000,0.000000
13174108.000000,2.305002,-1.079357,-1.902675,-1.478658,-1.045958,1.818301,0.506113,0.090949,-0.655632,-0.387328,-0.227359,-0.628479,0.616248,0.225444,0.205121,35.020489,19.374191,10.564451,0.147794,1.702071,0.034652,0.000000,0.000000,0.000000,0.000000,0.000000,0.000000
13174109.000000,2.305098,-1.080031,-1.903067,-1.478881,-1.046596,1.818906,0.506336,0.093063,-0.657467,-0.386310,-0.225259,-0.637838,0.621998,0.228068,0.054365,35.119671,19.322617,10.639830,0.178007,1.702071,0.100570,0.000000,0.000000,0.000000,0.000000,0.000000,0.000000
13174110.000000,2.305189,-1.080690,-1.903454,-1.479105,-1.047228,1.819513,0.506580,0.092576,-0.659474,-0.389397,-0.221776,-0.630399,0.621848,0.230431,-0.017047,35.119671,19.275009,10.639830,0.129484,1.702071,0.034652,0.000000,0.000000,0.000000,0.000000,0.000000,0.000000
13174111.000000,2.305285,-1.081347,-1.903848,-1.479328,-1.047868,1.820125,0.506805,0.093167,-0.659014,-0.392091,-0.217648,-0.634167,0.610900,0.231817,-0.116229,34.972881,19.251205,10.691404,0.154203,1.695663,0.074935,0.000000,0.000000,0.000000,0.000000,0.000000,0.000000
13174112.000000,2.305386,-1.081990,-1.904252,-1.479542,-1.048511,1.820723,0.507040,0.095326,-0.653632,-0.396246,-0.215050,-0.633034,0.612414,0.229744,-0.290789,34.774517,19.298813,10.762815,0.207303,1.747848,0.087753,0.000000,0.000000,0.000000,0.000000,0.000000,0.000000
13174113.000000,2.305482,-1.082642,-1.904647,-1.479756,-1.049166,1.821332,0.507266,0.093334,-0.643634,-0.393257,-0.215068,-0.636776,0.610634,0.232697,-0.314593,34.580120,19.374191,10.814390,0.249418,1.702071,0.081344,0.000000,0.000000,0.000000,0.000000,0.000000,0.000000
13174114.000000,2.305571,-1.083303,-1.905044,-1.479963,-1.049802,1.821929,0.507494,0.090405,-0.645054,-0.395715,-0.211473,-0.634306,0.613520,0.231674,-0.266986,34.357952,19.421799,10.814390,0.279630,1.708480,0.087753,0.000000,0.000000,0.000000,0.000000,0.000000,0.000000
13174115.000000,2.305676,-1.083952,-1.905443,-1.480172,-1.050452,1.822521,0.507732,0.095891,-0.642995,-0.398767,-0.209518,-0.633632,0.608643,0.231904,-0.413775,34.139751,19.497177,10.838194,0.267728,1.793624,0.041976,0.000000,0.000000,0.000000,0.000000,0.000000,0.000000
13174116.000000,2.305768,-1.084596,-1.905849,-1.480377,-1.051094,1.823131,0.507956,0.095658,-0.643620,-0.401261,-0.204692,-0.637272,0.609442,0.229102,-0.389971,33.794598,19.592392,10.861998,0.320829,1.760665,0.081344,0.000000,0.000000,0.000000,0.000000,0.000000,0.000000
13174117.000000,2.305869,-1.085243,-1.906255,-1.480578,-1.051742,1.823722,0.508188,0.098572,-0.660432,-0.400347,-0.208140,-0.636063,0.603516,0.229564,-0.465350,33.576397,19.691574,10.913572,0.279630,1.767074,0.048385,0.000000,0.000000,0.000000,0.000000,0.000000,0.000000
13174118.000000,2.305961,-1.085909,-1.906654,-1.480784,-1.052393,1.824313,0.508415,0.096870,-0.657039,-0.402309,-0.203722,-0.638552,0.595757,0.228561,-0.389971,33.576397,19.766953,10.961180,0.320829,1.825668,0.081344,0.000000,0.000000,0.000000,0.000000,0.000000,0.000000
13174119.000000,2.306056,-1.086585,-1.907059,-1.480972,-1.053030,1.824888,0.508645,0.097145,-0.658251,-0.402105,-0.200251,-0.636440,0.590366,0.235116,-0.366168,33.647808,19.814560,10.885801,0.237516,1.923629,0.021835,0.000000,0.000000,0.000000,0.000000,0.000000,0.000000
13174120.000000,2.306154,-1.087244,-1.907460,-1.481162,-1.053682,1.825473,0.508877,0.097586,-0.657270,-0.409873,-0.196881,-0.641885,0.588935,0.237479,-0.366168,33.624004,19.862167,10.861998,0.255826,1.949264,0.015426,0.000000,0.000000,0.000000,0.000000,0.000000,0.000000
13174121.000000,2.306246,-1.087927,-1.907874,-1.481350,-1.054338,1.826080,0.509095,0.096253,-0.665270,-0.407728,-0.197320,-0.655392,0.587463,0.231495,-0.266986,33.869976,20.008957,10.838194,0.237516,1.871444,0.100570,0.000000,0.000000,0.000000,0.000000,0.000000,0.000000
13174122.000000,2.306345,-1.088616,-1.908279,-1.481538,-1.054981,1.826663,0.509336,0.097462,-0.672947,-0.405672,-0.194117,-0.652262,0.588970,0.238196,-0.266986,34.064373,20.008957,10.786619,0.255826,1.819259,0.021835,0.000000,0.000000,0.000000,0.000000,0.000000,0.000000
13174123.000000,2.306433,-1.089299,-1.908685,-1.481718,-1.055637,1.827251,0.509568,0.094651,-0.674359,-0.406265,-0.187773,-0.653500,0.582827,0.234687,-0.116229,34.334148,20.084335,10.715208,0.267728,1.851302,0.034652,0.000000,0.000000,0.000000,0.000000,0.000000,0.000000
13174124.000000,2.306523,-1.089988,-1.909091,-1.481903,-1.056288,1.827831,0.509786,0.091072,-0.674556,-0.406438,-0.188385,-0.656239,0.584661,0.230154,-0.017047,34.504742,20.036728,10.715208,0.303434,1.832076,0.100570,0.000000,0.000000,0.000000,0.000000,0.000000,0.000000
13174125.000000,2.306618,-1.090673,-1.909502,-1.482076,-1.056936,1.828429,0.510026,0.092501,-0.676997,-0.405341,-0.182705,-0.651938,0.586459,0.227302,0.030561,34.726910,20.036728,10.592222,0.315336,1.773483,0.021835,0.000000,0.000000,0.000000,0.000000,0.000000,0.000000
13174126.000000,2.306714,-1.091358,-1.909904,-1.482254,-1.057583,1.829027,0.510250,0.093937,-0.679421,-0.405409,-0.179335,-0.648164,0.583872,0.225074,0.078168,34.849895,20.084335,10.516844,0.285123,1.682845,0.081344,0.000000,0.000000,0.000000,0.000000,0.000000,0.000000
13174127.000000,2.306803,-1.092041,-1.910299,-1.482438,-1.058225,1.829607,0.510480,0.093595,-0.682608,-0.400072,-0.180075,-0.650990,0.577443,0.226324,0.177350,34.873699,19.937546,10.564451,0.291532,1.702071,0.054794,0.000000,0.000000,0.000000,0.000000,0.000000,0.000000
13174128.000000,2.306900,-1.092712,-1.910694,-1.482611,-1.058870,1.830181,0.510713,0.094645,-0.680639,-0.401424,-0.177423,-0.649330,0.570906,0.228674,0.205121,34.849895,19.838364,10.493040,0.231107,1.786300,0.021835,0.000000,0.000000,0.000000,0.000000,0.000000,0.000000
13174129.000000,2.306984,-1.093393,-1.911102,-1.482781,-1.059508,1.830767,0.510933,0.089923,-0.673910,-0.399958,-0.173055,-0.642347,0.571367,0.223580,0.351911,34.798321,19.885971,10.441465,0.213712,1.832076,0.021835,0.000000,0.000000,0.000000,0.000000,0.000000,0.000000
13174130.000000,2.307080,-1.094072,-1.911495,-1.482936,-1.060153,1.831349,0.511153,0.091828,-0.673981,-0.396965,-0.166225,-0.645822,0.570996,0.221428,0.403486,34.750713,19.739182,10.243101,0.195402,1.819259,0.087753,0.000000,0.000000,0.000000,0.000000,0.000000,0.000000
13174131.000000,2.307174,-1.094755,-1.911890,-1.483097,-1.060795,1.831938,0.511384,0.089458,-0.675810,-0.397682,-0.162757,-0.639287,0.573446,0.225154,0.474897,34.627728,19.691574,10.120115,0.178007,1.832076,0.034652,0.000000,0.000000,0.000000,0.000000,0.000000,0.000000
13174132.000000,2.307269,-1.095446,-1.912290,-1.483247,-1.061433,1.832518,0.511614,0.091782,-0.678987,-0.393197,-0.160214,-0.638892,0.576677,0.225972,0.502668,34.580120,19.616196,9.973326,0.154203,1.832076,0.021835,0.000000,0.000000,0.000000,0.000000,0.000000,0.000000
13174133.000000,2.307368,-1.096127,-1.912679,-1.483397,-1.062073,1.833112,0.511841,0.093841,-0.686066,-0.396177,-0.155096,-0.628707,0.581283,0.223978,0.502668,34.603924,19.469406,9.822569,0.141385,1.786300,0.074935,0.000000,0.000000,0.000000,0.000000,0.000000,0.000000
13174134.000000,2.307469,-1.096826,-1.913081,-1.483539,-1.062712,1.833717,0.512074,0.098088,-0.689294,-0.397982,-0.149679,-0.642492,0.581664,0.226243,0.502668,34.750713,19.469406,9.600401,0.147794,1.676437,0.034652,0.000000,0.000000,0.000000,0.000000,0.000000,0.000000
13174135.000000,2.307567,-1.097524,-1.913488,-1.483672,-1.063356,1.834312,0.512295,0.101856,-0.704968,-0.399513,-0.143353,-0.642854,0.583144,0.226042,0.502668,35.020489,19.469406,9.406004,0.171598,1.611434,0.074935,0.000000,0.000000,0.000000,0.000000,0.000000,0.000000
13174136.000000,2.307669,-1.098231,-1.913887,-1.483808,-1.064008,1.834901,0.512531,0.102526,-0.702388,-0.398832,-0.139295,-0.637752,0.586003,0.231379,0.451093,35.214886,19.397995,9.255247,0.178007,1.637069,0.067611,0.000000,0.000000,0.000000,0.000000,0.000000,0.000000
13174137.000000,2.307769,-1.098950,-1.914297,-1.483941,-1.064634,1.835489,0.512764,0.102820,-0.703484,-0.400108,-0.140095,-0.632200,0.591109,0.231687,0.403486,35.437054,19.445602,9.156065,0.141385,1.630660,0.028243,0.000000,0.000000,0.000000,0.000000,0.000000,0.000000
13174138.000000,2.307871,-1.099672,-1.914697,-1.484065,-1.065286,1.836086,0.512993,0.101913,-0.713235,-0.407981,-0.137051,-0.632571,0.596276,0.228469,0.403486,35.877422,19.469406,9.009275,0.129484,1.584884,0.067611,0.000000,0.000000,0.000000,0.000000,0.000000,0.000000
13174139.000000,2.307980,-1.100383,-1.915107,-1.484190,-1.065940,1.836687,0.513224,0.105414,-0.712251,-0.408404,-0.132725,-0.653008,0.596030,0.225540,0.375715,36.024212,19.544785,8.910093,0.105680,1.519881,0.009017,0.000000,0.000000,0.000000,0.000000,0.000000,0.000000
13174140.000000,2.308090,-1.101095,-1.915520,-1.484317,-1.066589,1.837269,0.513439,0.106355,-0.713942,-0.404811,-0.132481,-0.654195,0.597836,0.218905,0.276533,36.095623,19.616196,8.933897,0.100187,1.519881,0.067611,0.000000,0.000000,0.000000,0.000000,0.000000,0.000000
13174141.000000,2.308190,-1.101795,-1.915933,-1.484440,-1.067243,1.837847,0.513664,0.102866,-0.711219,-0.404411,-0.127885,-0.654862,0.590241,0.220265,0.351911,36.123394,19.766953,8.933897,0.100187,1.572067,0.087753,0.000000,0.000000,0.000000,0.000000,0.000000,0.000000
13174142.000000,2.308293,-1.102507,-1.916349,-1.484567,-1.067900,1.838435,0.513898,0.105448,-0.703114,-0.407490,-0.125746,-0.652319,0.584756,0.223500,0.351911,36.194805,19.961349,8.985472,0.129484,1.565658,0.048385,0.000000,0.000000,0.000000,0.000000,0.000000,0.000000
13174143.000000,2.308396,-1.103211,-1.916767,-1.484694,-1.068567,1.839009,0.514124,0.106031,-0.698861,-0.408688,-0.124921,-0.661034,0.584873,0.223652,0.403486,36.270184,20.084335,9.084654,0.213712,1.552840,0.048385,0.000000,0.000000,0.000000,0.000000,0.000000,0.000000
13174144.000000,2.308501,-1.103936,-1.917186,-1.484822,-1.069226,1.839582,0.514348,0.103489,-0.702926,-0.410290,-0.123805,-0.655140,0.579715,0.220203,0.451093,36.512188,20.254929,9.179869,0.195402,1.656295,0.034652,0.000000,0.000000,0.000000,0.000000,0.000000,0.000000
13174145.000000,2.308602,-1.104652,-1.917611,-1.484943,-1.069884,1.840144,0.514568,0.104911,-0.705112,-0.410620,-0.122141,-0.661183,0.573791,0.221251,0.502668,36.587566,20.429489,9.231443,0.195402,1.714889,0.081344,0.000000,0.000000,0.000000,0.000000,0.000000,0.000000
13174146.000000,2.308711,-1.105351,-1.918027,-1.485066,-1.070549,1.840725,0.514795,0.107057,-0.704447,-0.410565,-0.124664,-0.658950,0.572249,0.224554,0.502668,36.587566,20.552475,9.306822,0.183500,1.727706,0.034652,0.000000,0.000000,0.000000,0.000000,0.000000,0.000000
13174147.000000,2.308820,-1.106072,-1.918460,-1.485182,-1.071208,1.841301,0.515013,0.108532,-0.709061,-0.415966,-0.124010,-0.658112,0.568986,0.223947,0.502668,36.734356,20.770676,9.279051,0.166105,1.656295,0.061202,0.000000,0.000000,0.000000,0.000000,0.000000,0.000000
13174148.000000,2.308931,-1.106786,-1.918900,-1.485293,-1.071870,1.841866,0.515231,0.107472,-0.716764,-0.423562,-0.120025,-0.654393,0.566983,0.223718,0.474897,36.857342,21.016647,9.231443,0.178007,1.695663,0.081344,0.000000,0.000000,0.000000,0.000000,0.000000,0.000000
13174149.000000,2.309037,-1.107504,-1.919329,-1.485406,-1.072545,1.842422,0.515454,0.111109,-0.715157,-0.424252,-0.119326,-0.655490,0.557309,0.227681,0.502668,36.928753,21.187241,9.156065,0.183500,1.800033,0.028243,0.000000,0.000000,0.000000,0.000000,0.000000,0.000000
13174150.000000,2.309152,-1.108221,-1.919764,-1.485524,-1.073202,1.842976,0.515666,0.113012,-0.711986,-0.423939,-0.115412,-0.652174,0.553606,0.221198,0.451093,36.904949,21.361801,9.179869,0.195402,1.851302,0.067611,0.000000,0.000000,0.000000,0.000000,0.000000,0.000000
13174151.000000,2.309265,-1.108934,-1.920192,-1.485634,-1.073881,1.843547,0.515883,0.113383,-0.710377,-0.433945,-0.113916,-0.654036,0.555326,0.219122,0.427289,36.904949,21.508591,9.132261,0.249418,1.786300,0.028243,0.000000,0.000000,0.000000,0.000000,0.000000,0.000000
13174152.000000,2.309377,-1.109660,-1.920630,-1.485750,-1.074550,1.844120,0.516093,0.112502,-0.711536,-0.434577,-0.112518,-0.665152,0.560015,0.215807,0.427289,36.952557,21.655380,9.207640,0.255826,1.741439,0.041976,0.000000,0.000000,0.000000,0.000000,0.000000,0.000000
13174153.000000,2.309487,-1.110371,-1.921073,-1.485852,-1.075215,1.844673,0.516304,0.112066,-0.711394,-0.433902,-0.107738,-0.663964,0.555827,0.211357,0.451093,36.904949,21.877548,9.132261,0.267728,1.773483,0.107894,0.000000,0.000000,0.000000,0.000000,0.000000,0.000000
13174154.000000,2.309598,-1.111079,-1.921501,-1.485954,-1.075893,1.845230,0.516525,0.110588,-0.711526,-0.433679,-0.107827,-0.669163,0.555657,0.212298,0.526471,36.710552,21.972763,9.084654,0.320829,1.825668,0.061202,0.000000,0.000000,0.000000,0.000000,0.000000,0.000000
13174155.000000,2.309708,-1.111805,-1.921942,-1.486056,-1.076556,1.845783,0.516739,0.110072,-0.715714,-0.434178,-0.108827,-0.668131,0.564481,0.214847,0.574079,36.710552,22.147324,9.056883,0.362943,1.844894,0.074935,0.000000,0.000000,0.000000,0.000000,0.000000,0.000000
13174156.000000,2.309824,-1.112520,-1.922387,-1.486159,-1.077224,1.846341,0.516960,0.111300,-0.719774,-0.447658,-0.109447,-0.668309,0.564875,0.214416,0.550275,36.710552,22.294113,9.033079,0.344633,1.858627,0.034652,0.000000,0.000000,0.000000,0.000000,0.000000,0.000000
13174157.000000,2.309933,-1.113238,-1.922820,-1.486260,-1.077888,1.846901,0.517162,0.109932,-0.716403,-0.447340,-0.109717,-0.664543,0.554077,0.210146,0.625654,36.611370,22.393295,9.009275,0.285123,1.916305,0.100570,0.000000,0.000000,0.000000,0.000000,0.000000,0.000000
13174158.000000,2.310038,-1.113975,-1.923252,-1.486368,-1.078547,1.847452,0.517383,0.108336,-0.718374,-0.444115,-0.110023,-0.665376,0.553497,0.218275,0.748639,36.781963,22.393295,9.108458,0.207303,1.909896,0.028243,0.000000,0.000000,0.000000,0.000000,0.000000,0.000000
13174159.000000,2.310145,-1.114703,-1.923684,-1.486471,-1.079198,1.848012,0.517595,0.107457,-0.718888,-0.441272,-0.105518,-0.656018,0.556722,0.214468,0.847822,36.952557,22.464706,9.156065,0.147794,1.877853,0.054794,0.000000,0.000000,0.000000,0.000000,0.000000,0.000000
13174160.000000,2.310247,-1.115453,-1.924113,-1.486570,-1.079861,1.848569,0.517803,0.105717,-0.723608,-0.435058,-0.104329,-0.661775,0.549517,0.215739,0.994611,37.246136,22.393295,9.156065,0.147794,1.877853,0.100570,0.000000,0.000000,0.000000,0.000000,0.000000,0.000000
13174161.000000,2.310359,-1.116183,-1.924552,-1.486668,-1.080534,1.849111,0.518024,0.105676,-0.725100,-0.433335,-0.104528,-0.659097,0.550341,0.215916,1.093793,37.420696,22.540085,9.207640,0.213712,1.949264,0.034652,0.000000,0.000000,0.000000,0.000000,0.000000,0.000000
13174162.000000,2.310463,-1.116919,-1.924974,-1.486771,-1.081215,1.849670,0.518228,0.103782,-0.725453,-0.433791,-0.102450,-0.661139,0.550102,0.209839,1.268354,37.539715,22.512314,9.306822,0.261320,1.903487,0.087753,0.000000,0.000000,0.000000,0.000000,0.000000,0.000000
13174163.000000,2.310566,-1.117657,-1.925401,-1.486866,-1.081878,1.850221,0.518449,0.100484,-0.728849,-0.430786,-0.102734,-0.661890,0.547133,0.216916,1.415143,37.686504,22.488510,9.354429,0.291532,1.858627,0.015426,0.000000,0.000000,0.000000,0.000000,0.000000,0.000000
13174164.000000,2.310668,-1.118380,-1.925829,-1.486960,-1.082560,1.850785,0.518664,0.097501,-0.733393,-0.427134,-0.098786,-0.660002,0.554101,0.217826,1.565900,37.761883,22.512314,9.354429,0.303434,1.806442,0.048385,0.000000,0.000000,0.000000,0.000000,0.000000,0.000000
13174165.000000,2.310778,-1.119103,-1.926237,-1.487061,-1.083219,1.851343,0.518876,0.101448,-0.727899,-0.418210,-0.100833,-0.662494,0.555906,0.213803,1.589704,37.662701,22.270309,9.429808,0.255826,1.800033,0.087753,0.000000,0.000000,0.000000,0.000000,0.000000,0.000000
13174166.000000,2.310886,-1.119811,-1.926659,-1.487156,-1.083886,1.851894,0.519100,0.100544,-0.721290,-0.413727,-0.101219,-0.660298,0.556800,0.218511,1.641279,37.492107,22.095749,9.453611,0.213712,1.851302,0.041976,0.000000,0.000000,0.000000,0.000000,0.000000,0.000000
13174167.000000,2.310991,-1.120533,-1.927074,-1.487250,-1.084553,1.852444,0.519315,0.101984,-0.713912,-0.412517,-0.099263,-0.667807,0.551771,0.214846,1.740461,37.321514,22.000534,9.528990,0.171598,1.903487,0.061202,0.000000,0.000000,0.000000,0.000000,0.000000,0.000000
13174168.000000,2.311095,-1.121259,-1.927489,-1.487334,-1.085216,1.852995,0.519526,0.102104,-0.711024,-0.405621,-0.095023,-0.665783,0.554043,0.208831,1.887250,37.127117,21.825974,9.477415,0.159696,1.949264,0.048385,0.000000,0.000000,0.000000,0.000000,0.000000,0.000000
13174169.000000,2.311207,-1.121980,-1.927900,-1.487420,-1.085886,1.853551,0.519737,0.105307,-0.711488,-0.413283,-0.090629,-0.665390,0.552638,0.207347,1.887250,37.027935,21.726791,9.501219,0.105680,1.955673,0.074935,0.000000,0.000000,0.000000,0.000000,0.000000,0.000000
13174170.000000,2.311315,-1.122713,-1.928312,-1.487503,-1.086544,1.854122,0.519955,0.107619,-0.715846,-0.411208,-0.086734,-0.675228,0.553479,0.209121,1.986432,37.027935,21.580002,9.501219,0.123990,1.903487,0.048385,0.000000,0.000000,0.000000,0.000000,0.000000,0.000000
13174171.000000,2.311425,-1.123424,-1.928734,-1.487579,-1.087212,1.854671,0.520162,0.109505,-0.716831,-0.412618,-0.085972,-0.669300,0.546126,0.206903,1.986432,36.881145,21.580002,9.453611,0.076383,1.884261,0.094161,0.000000,0.000000,0.000000,0.000000,0.000000,0.000000
13174172.000000,2.311535,-1.124157,-1.929139,-1.487653,-1.087895,1.855236,0.520380,0.106646,-0.723035,-0.407912,-0.082150,-0.664686,0.548021,0.209620,2.010236,36.980328,21.457016,9.406004,0.147794,1.825668,0.034652,0.000000,0.000000,0.000000,0.000000,0.000000,0.000000
13174173.000000,2.311644,-1.124899,-1.929558,-1.487726,-1.088574,1.855791,0.520581,0.108592,-0.730570,-0.410540,-0.080639,-0.670859,0.545879,0.207971,2.010236,37.127117,21.508591,9.406004,0.213712,1.760665,0.067611,0.000000,0.000000,0.000000,0.000000,0.000000,0.000000
13174174.000000,2.311758,-1.125627,-1.929980,-1.487790,-1.089249,1.856347,0.520788,0.109887,-0.729786,-0.409850,-0.077160,-0.672814,0.550709,0.206913,2.010236,37.246136,21.556198,9.306822,0.267728,1.767074,0.054794,0.000000,0.000000,0.000000,0.000000,0.000000,0.000000
13174175.000000,2.311870,-1.126364,-1.930391,-1.487858,-1.089941,1.856901,0.520988,0.110647,-0.728163,-0.407835,-0.073741,-0.676212,0.546174,0.206421,2.034040,37.321514,21.556198,9.306822,0.320829,1.754256,0.074935,0.000000,0.000000,0.000000,0.000000,0.000000,0.000000
13174176.000000,2.311991,-1.127097,-1.930819,-1.487926,-1.090605,1.857450,0.521200,0.112582,-0.726440,-0.410541,-0.071101,-0.680515,0.547779,0.206907,1.986432,37.345318,21.754562,9.306822,0.303434,1.727706,0.074935,0.000000,0.000000,0.000000,0.000000,0.000000,0.000000
13174177.000000,2.312116,-1.127819,-1.931227,-1.487994,-1.091278,1.858000,0.521412,0.114874,-0.720719,-0.411711,-0.070191,-0.671905,0.544968,0.209371,1.887250,37.321514,21.778366,9.354429,0.249418,1.747848,0.034652,0.000000,0.000000,0.000000,0.000000,0.000000,0.000000
13174178.000000,2.312230,-1.128549,-1.931643,-1.488062,-1.091940,1.858542,0.521612,0.113514,-0.719722,-0.408823,-0.069714,-0.675668,0.542341,0.206621,1.911054,37.246136,21.778366,9.406004,0.171598,1.832076,0.094161,0.000000,0.000000,0.000000,0.000000,0.000000,0.000000
13174179.000000,2.312355,-1.129274,-1.932068,-1.488123,-1.092623,1.859072,0.521826,0.115239,-0.719664,-0.412985,-0.069033,-0.670332,0.538133,0.208194,1.835676,37.246136,21.901352,9.453611,0.129484,1.968490,0.054794,0.000000,0.000000,0.000000,0.000000,0.000000,0.000000
13174180.000000,2.312481,-1.130007,-1.932480,-1.488191,-1.093305,1.859614,0.522032,0.116244,-0.723167,-0.411280,-0.070547,-0.672151,0.533889,0.212416,1.764264,37.273907,21.948959,9.600401,0.129484,2.007858,0.034652,0.000000,0.000000,0.000000,0.000000,0.000000,0.000000
13174181.000000,2.312605,-1.130742,-1.932904,-1.488252,-1.093987,1.860158,0.522236,0.120338,-0.723423,-0.411482,-0.069552,-0.672778,0.533813,0.209534,1.688886,37.321514,22.095749,9.651976,0.219205,1.968490,0.107894,0.000000,0.000000,0.000000,0.000000,0.000000,0.000000
13174182.000000,2.312724,-1.131453,-1.933328,-1.488323,-1.094668,1.860708,0.522455,0.120123,-0.721981,-0.417220,-0.072847,-0.667855,0.535140,0.211635,1.740461,37.198528,22.317917,9.874144,0.219205,1.916305,0.041976,0.000000,0.000000,0.000000,0.000000,0.000000,0.000000
13174183.000000,2.312855,-1.132181,-1.933747,-1.488379,-1.095352,1.861258,0.522657,0.126274,-0.721811,-0.416461,-0.067079,-0.672183,0.535338,0.205221,1.641279,37.174725,22.341721,9.897947,0.393156,1.877853,0.061202,0.000000,0.000000,0.000000,0.000000,0.000000,0.000000
13174184.000000,2.312985,-1.132899,-1.934176,-1.488438,-1.096030,1.861790,0.522865,0.127862,-0.736272,-0.418454,-0.063563,-0.669008,0.533324,0.206381,1.565900,37.174725,22.464706,9.949522,0.410551,1.890670,0.041976,0.000000,0.000000,0.000000,0.000000,0.000000,0.000000
13174185.000000,2.313120,-1.133636,-1.934593,-1.488492,-1.096700,1.862320,0.523061,0.129877,-0.732799,-0.419385,-0.060379,-0.670117,0.529999,0.199722,1.442914,37.222332,22.563889,9.973326,0.386747,1.916305,0.100570,0.000000,0.000000,0.000000,0.000000,0.000000,0.000000
13174186.000000,2.313260,-1.134366,-1.935014,-1.488536,-1.097363,1.862840,0.523264,0.132218,-0.726326,-0.416687,-0.055551,-0.664658,0.522203,0.203411,1.268354,37.127117,22.563889,9.897947,0.315336,1.995040,0.061202,0.000000,0.000000,0.000000,0.000000,0.000000,0.000000
13174187.000000,2.313400,-1.135093,-1.935430,-1.488583,-1.098029,1.863365,0.523464,0.133763,-0.726860,-0.426760,-0.049985,-0.667112,0.523377,0.203988,1.093793,37.099346,22.611496,9.850340,0.207303,2.027084,0.067611,0.000000,0.000000,0.000000,0.000000,0.000000,0.000000
13174188.000000,2.313542,-1.135826,-1.935845,-1.488628,-1.098695,1.863897,0.523663,0.137687,-0.724607,-0.419784,-0.045784,-0.672603,0.518441,0.204248,0.947004,37.004131,22.587692,9.798765,0.117582,2.072860,0.087753,0.000000,0.000000,0.000000,0.000000,0.000000,0.000000
13174189.000000,2.313685,-1.136559,-1.936253,-1.488663,-1.099366,1.864489,0.523893,0.139488,-0.725235,-0.416393,-0.044154,-0.679669,0.549459,0.215896,0.847822,36.833538,22.512314,9.675779,0.129484,1.429244,-0.202470,0.000000,0.000000,0.000000,0.000000,0.000000,0.000000
13174190.000000,2.313828,-1.137281,-1.936674,-1.488713,-1.100185,1.865643,0.524037,0.140928,-0.723382,-0.417027,-0.044525,-0.721340,0.761382,0.192088,0.748639,36.682781,22.686874,9.751158,1.402982,-4.000749,0.365157,0.000000,0.000000,0.000000,0.000000,0.000000,0.000000
13174191.000000,2.313943,-1.138026,-1.937136,-1.488795,-1.100921,1.866370,0.524311,0.132513,-0.729476,-0.430927,-0.060028,-0.727371,0.764734,0.222134,1.046186,36.758160,23.349411,10.342283,1.821378,-4.976701,-0.307755,0.000000,0.000000,0.000000,0.000000,0.000000,0.000000
13174192.000000,2.314024,-1.138816,-1.937417,-1.488766,-1.101681,1.867044,0.524502,0.115653,-0.752162,-0.380067,-0.030850,-0.738689,0.732708,0.212279,1.835676,37.567486,21.409409,9.378233,2.311185,-4.702958,-0.188737,0.000000,0.000000,0.000000,0.000000,0.000000,0.000000
13174193.000000,2.314209,-1.139651,-1.937700,-1.488658,-1.102510,1.868042,0.524682,0.137114,-0.782276,-0.345586,0.016958,-0.762591,0.813514,0.202470,1.093793,38.888592,19.715378,7.350951,3.082059,-6.881913,0.015426,0.000000,0.000000,0.000000,0.000000,0.000000,0.000000
13174194.000000,2.314436,-1.140488,-1.938039,-1.488578,-1.103217,1.868788,0.524855,0.168463,-0.803297,-0.338825,0.041507,-0.750646,0.786168,0.198320,-0.243182,40.086712,18.906052,5.918761,2.699369,-6.355485,0.298324,0.000000,0.000000,0.000000,0.000000,0.000000,0.000000
13174195.000000,2.314531,-1.141277,-1.938183,-1.488481,-1.104012,1.869506,0.525118,0.143290,-0.799361,-0.272675,0.064477,-0.757017,0.748801,0.223212,0.502668,40.626263,15.593369,4.510375,2.980436,-5.223893,-0.248246,0.000000,0.000000,0.000000,0.000000,0.000000,0.000000
13174196.000000,2.314613,-1.142062,-1.938309,-1.488385,-1.104789,1.870274,0.525253,0.121274,-0.785986,-0.218307,0.077046,-0.761126,0.742582,0.191508,1.367536,40.773052,12.280685,3.399534,3.046354,-4.540910,0.351424,0.000000,0.000000,0.000000,0.000000,0.000000,0.000000
13174197.000000,2.314813,-1.142864,-1.938418,-1.488292,-1.105497,1.871074,0.525420,0.146514,-0.783782,-0.179340,0.079791,-0.743378,0.749175,0.182307,0.526471,41.261028,9.162399,2.582274,2.418302,-4.469499,0.608688,0.000000,0.000000,0.000000,0.000000,0.000000,0.000000
13174198.000000,2.314944,-1.143618,-1.938438,-1.488124,-1.106280,1.871775,0.525658,0.139650,-0.765572,-0.125165,0.109302,-0.750040,0.716056,0.201656,0.697065,40.896038,5.310165,0.876341,2.508024,-3.688554,0.147262,0.000000,0.000000,0.000000,0.000000,0.000000,0.000000
13174199.000000,2.315010,-1.144301,-1.938413,-1.487957,-1.107031,1.872298,0.525806,0.112344,-0.726727,-0.071767,0.128232,-0.749596,0.643513,0.181978,1.712690,39.523357,1.358749,-0.607423,2.460416,-1.776932,0.464034,0.000000,0.000000,0.000000,0.000000,0.000000,0.000000
13174200.000000,2.315113,-1.144924,-1.938378,-1.487842,-1.107679,1.872866,0.526007,0.104856,-0.691567,-0.035611,0.122001,-0.704828,0.612096,0.189395,2.232404,37.492107,-2.128495,-1.099367,1.528409,-0.716752,0.324874,0.000000,0.000000,0.000000,0.000000,0.000000,0.000000
13174201.000000,2.315183,-1.145485,-1.938297,-1.487690,-1.108362,1.873479,0.526200,0.096369,-0.641086,0.002842,0.131007,-0.693135,0.605235,0.188803,3.148847,34.627728,-5.710953,-1.841249,1.169523,-0.632523,0.213180,0.000000,0.000000,0.000000,0.000000,0.000000,0.000000
13174202.000000,2.315218,-1.146002,-1.938183,-1.487523,-1.109031,1.874048,0.526343,0.076650,-0.610766,0.037930,0.142753,-0.680906,0.589008,0.175545,4.438215,31.493572,-9.170425,-2.634706,0.847257,-0.671891,0.555587,0.000000,0.000000,0.000000,0.000000,0.000000,0.000000
13174203.000000,2.315245,-1.146491,-1.938034,-1.487387,-1.109681,1.874588,0.526550,0.056392,-0.566294,0.075990,0.138561,-0.660618,0.567875,0.183337,5.747419,28.216595,-12.606094,-2.733888,0.506681,-0.840348,0.331283,0.000000,0.000000,0.000000,0.000000,0.000000,0.000000
13174204.000000,2.315231,-1.146943,-1.937849,-1.487276,-1.110276,1.875094,0.526715,0.032357,-0.524827,0.110534,0.128531,-0.644534,0.562727,0.175360,7.481122,24.741253,-16.017960,-2.360964,-0.007845,-0.983170,0.456710,0.000000,0.000000,0.000000,0.000000,0.000000,0.000000
13174205.000000,2.315220,-1.147346,-1.937639,-1.487156,-1.110832,1.875527,0.526896,0.018520,-0.482593,0.138659,0.120717,-0.607155,0.524916,0.181055,8.968854,21.261944,-19.259232,-1.992006,-0.665194,-0.678300,0.398116,0.000000,0.000000,0.000000,0.000000,0.000000,0.000000
13174206.000000,2.315216,-1.147729,-1.937436,-1.487017,-1.111348,1.875961,0.527088,0.011011,-0.446198,0.156843,0.126090,-0.588729,0.498613,0.183272,10.230451,17.810406,-21.960953,-1.916628,-1.531283,-0.540971,0.265365,0.000000,0.000000,0.000000,0.000000,0.000000,0.000000
13174207.000000,2.315199,-1.148096,-1.937238,-1.486871,-1.111829,1.876477,0.527270,-0.000472,-0.417118,0.165250,0.132449,-0.555708,0.509546,0.184030,11.468244,14.481853,-24.242142,-2.063417,-2.410189,-1.276139,0.272689,0.000000,0.000000,0.000000,0.000000,0.000000,0.000000
13174208.000000,2.315204,-1.148397,-1.937066,-1.486733,-1.112293,1.876944,0.527434,0.000574,-0.382302,0.163029,0.130767,-0.520722,0.498030,0.178742,12.285504,10.859722,-25.959976,-2.091188,-3.186556,-1.529740,0.443893,0.000000,0.000000,0.000000,0.000000,0.000000,0.000000
13174209.000000,2.315196,-1.148653,-1.936929,-1.486586,-1.112726,1.877394,0.527625,-0.004833,-0.335954,0.149954,0.131686,-0.497066,0.484046,0.181128,13.201947,6.920208,-27.090652,-2.190370,-3.928133,-1.613969,0.331283,0.000000,0.000000,0.000000,0.000000,0.000000,0.000000
13174210.000000,2.315201,-1.148876,-1.936779,-1.486455,-1.113152,1.877870,0.527809,-0.000636,-0.300471,0.144970,0.132117,-0.475425,0.484747,0.182381,13.868451,2.980694,-28.316544,-2.162599,-4.495760,-1.874894,0.338607,0.000000,0.000000,0.000000,0.000000,0.000000,0.000000
13174211.000000,2.315225,-1.149052,-1.936652,-1.486359,-1.113608,1.878373,0.527989,0.009840,-0.254726,0.135769,0.117196,-0.470701,0.491598,0.184169,14.189801,-1.133381,-29.248856,-1.619081,-4.764010,-2.219132,0.338607,0.000000,0.000000,0.000000,0.000000,0.000000,0.000000
13174212.000000,2.315233,-1.149181,-1.936550,-1.486271,-1.114068,1.878855,0.528186,0.009396,-0.211869,0.122601,0.104468,-0.466993,0.494408,0.189509,14.685712,-5.513264,-29.836014,-1.075563,-4.746615,-2.225541,0.225997,0.000000,0.000000,0.000000,0.000000,0.000000,0.000000
13174213.000000,2.315260,-1.149266,-1.936475,-1.486182,-1.114538,1.879335,0.528382,0.018450,-0.167957,0.101327,0.096016,-0.468550,0.491921,0.194966,14.907880,-9.897114,-30.133560,-0.678835,-4.662386,-2.082719,0.193038,0.000000,0.000000,0.000000,0.000000,0.000000,0.000000
13174214.000000,2.315324,-1.149324,-1.936435,-1.486104,-1.115067,1.879826,0.528592,0.033689,-0.128299,0.080563,0.091327,-0.491256,0.490537,0.199903,14.586530,-14.300800,-30.010574,-0.210695,-4.124972,-1.933488,0.028243,0.000000,0.000000,0.000000,0.000000,0.000000,0.000000
13174215.000000,2.315396,-1.149361,-1.936438,-1.485999,-1.115649,1.880347,0.528793,0.048326,-0.096555,0.051339,0.096529,-0.525535,0.502687,0.201534,14.189801,-18.438679,-29.494827,-0.234499,-3.311984,-2.049760,0.009017,0.000000,0.000000,0.000000,0.000000,0.000000,0.000000
13174216.000000,2.315481,-1.149370,-1.936469,-1.485868,-1.116252,1.880889,0.528981,0.063654,-0.071093,0.024356,0.110379,-0.557418,0.511383,0.198703,13.693891,-22.501179,-28.808487,-0.730409,-2.762667,-2.271317,0.114303,0.000000,0.000000,0.000000,0.000000,0.000000,0.000000
13174217.000000,2.315586,-1.149404,-1.936531,-1.485726,-1.116861,1.881410,0.529189,0.078176,-0.057529,-0.003763,0.123441,-0.575725,0.523513,0.198392,13.027387,-25.905109,-27.971390,-1.396913,-2.356173,-2.244767,0.054794,0.000000,0.000000,0.000000,0.000000,0.000000,0.000000
13174218.000000,2.315714,-1.149431,-1.936598,-1.485575,-1.117483,1.881929,0.529379,0.096793,-0.047865,-0.026923,0.132746,-0.593649,0.516359,0.195838,12.110944,-28.963886,-27.384232,-2.091188,-2.302157,-2.147721,0.180221,0.000000,0.000000,0.000000,0.000000,0.000000,0.000000
13174219.000000,2.315840,-1.149480,-1.936674,-1.485397,-1.118096,1.882442,0.529587,0.108444,-0.050832,-0.041894,0.148644,-0.614356,0.513879,0.200989,11.369061,-31.364094,-26.892288,-3.079042,-2.517306,-1.984757,0.127120,0.000000,0.000000,0.000000,0.000000,0.000000,0.000000
13174220.000000,2.315966,-1.149567,-1.936743,-1.485207,-1.118715,1.882930,0.529791,0.114375,-0.071914,-0.052065,0.161817,-0.617484,0.506198,0.201890,10.750165,-33.101765,-26.697891,-4.166078,-2.965914,-1.653336,0.140853,0.000000,0.000000,0.000000,0.000000,0.000000,0.000000
13174221.000000,2.316103,-1.149686,-1.936824,-1.485018,-1.119365,1.883402,0.529997,0.123294,-0.092701,-0.062384,0.169443,-0.618559,0.494550,0.199777,10.079694,-34.276081,-26.547134,-5.078554,-3.234164,-1.217545,0.107894,0.000000,0.000000,0.000000,0.000000,0.000000,0.000000
13174222.000000,2.316242,-1.149836,-1.936926,-1.484823,-1.120011,1.883882,0.530204,0.127165,-0.116111,-0.075604,0.183951,-0.623233,0.493052,0.203431,9.512372,-34.986225,-26.305130,-5.872011,-3.550936,-0.957536,0.061202,0.000000,0.000000,0.000000,0.000000,0.000000,0.000000
13174223.000000,2.316386,-1.150009,-1.937046,-1.484602,-1.120662,1.884390,0.530391,0.131112,-0.137368,-0.094646,0.196825,-0.628590,0.494574,0.194570,9.040265,-35.279804,-26.059158,-6.836061,-3.784396,-1.068314,0.186630,0.000000,0.000000,0.000000,0.000000,0.000000,0.000000
13174224.000000,2.316538,-1.150226,-1.937183,-1.484368,-1.121338,1.884927,0.530585,0.135659,-0.169062,-0.109558,0.207839,-0.637638,0.509290,0.194174,8.520551,-35.180622,-25.813187,-7.748537,-3.933627,-1.477555,0.166488,0.000000,0.000000,0.000000,0.000000,0.000000,0.000000
13174225.000000,2.316690,-1.150485,-1.937318,-1.484134,-1.121989,1.885464,0.530759,0.137843,-0.202677,-0.118726,0.216610,-0.643716,0.519701,0.186879,8.052411,-34.692646,-25.789383,-8.541994,-4.089266,-1.933488,0.331283,0.000000,0.000000,0.000000,0.000000,0.000000,0.000000
13174226.000000,2.316836,-1.150781,-1.937441,-1.483905,-1.122663,1.885976,0.530963,0.138434,-0.236761,-0.121230,0.218311,-0.645827,0.519693,0.195497,7.754865,-33.859516,-26.106766,-9.133120,-4.148776,-2.063493,0.252548,0.000000,0.000000,0.000000,0.000000,0.000000,0.000000
13174227.000000,2.316975,-1.151125,-1.937551,-1.483683,-1.123315,1.886483,0.531149,0.139512,-0.277719,-0.116015,0.219686,-0.651483,0.517593,0.191787,7.604108,-32.637592,-26.769302,-9.430666,-4.256808,-1.991166,0.312057,0.000000,0.000000,0.000000,0.000000,0.000000,0.000000
13174228.000000,2.317116,-1.151509,-1.937659,-1.483459,-1.123992,1.886955,0.531324,0.140097,-0.314470,-0.110295,0.221342,-0.651000,0.499535,0.186809,7.481122,-31.217304,-27.578629,-9.728212,-4.214694,-1.705521,0.431075,0.000000,0.000000,0.000000,0.000000,0.000000,0.000000
13174229.000000,2.317274,-1.151929,-1.937752,-1.483235,-1.124651,1.887402,0.531501,0.144058,-0.346641,-0.103793,0.217622,-0.652338,0.480667,0.185151,7.235151,-29.674030,-28.657730,-9.926577,-4.382235,-1.146134,0.476852,0.000000,0.000000,0.000000,0.000000,0.000000,0.000000
13174230.000000,2.317416,-1.152385,-1.937840,-1.483028,-1.125279,1.887804,0.531643,0.141869,-0.382722,-0.094272,0.213719,-0.639818,0.453912,0.170732,7.211347,-28.083149,-29.836014,-9.898806,-4.675204,-0.294694,0.800033,0.000000,0.000000,0.000000,0.000000,0.000000,0.000000
13174231.000000,2.317550,-1.152859,-1.937902,-1.482835,-1.125944,1.888169,0.531806,0.139862,-0.412340,-0.082386,0.205917,-0.642536,0.420534,0.169978,7.334333,-26.615253,-31.284073,-9.629030,-4.728304,0.720626,0.852218,0.000000,0.000000,0.000000,0.000000,0.000000,0.000000
13174232.000000,2.317675,-1.153364,-1.937977,-1.482653,-1.126622,1.888571,0.531961,0.134207,-0.440725,-0.080018,0.197504,-0.647278,0.406472,0.168824,7.532697,-25.218769,-32.513931,-9.208498,-4.489352,1.214095,0.911727,0.000000,0.000000,0.000000,0.000000,0.000000,0.000000
13174233.000000,2.317790,-1.153878,-1.938062,-1.482481,-1.127357,1.888997,0.532099,0.126059,-0.470179,-0.081107,0.185344,-0.671634,0.417104,0.158198,7.925458,-24.044453,-33.493851,-8.764162,-3.916232,1.136276,1.096664,0.000000,0.000000,0.000000,0.000000,0.000000,0.000000
13174234.000000,2.317893,-1.154401,-1.938151,-1.482318,-1.128151,1.889419,0.532242,0.120256,-0.485796,-0.081390,0.177186,-0.715342,0.420721,0.154386,8.472943,-23.163715,-34.354752,-8.343630,-2.869784,0.980636,1.208358,0.000000,0.000000,0.000000,0.000000,0.000000,0.000000
13174235.000000,2.317985,-1.154928,-1.938241,-1.482172,-1.128943,1.889822,0.532376,0.111147,-0.494695,-0.082052,0.165898,-0.746731,0.418204,0.152203,9.139447,-22.552753,-35.164078,-7.800111,-2.032992,0.928451,1.274276,0.000000,0.000000,0.000000,0.000000,0.000000,0.000000
13174236.000000,2.318074,-1.155459,-1.938303,-1.482033,-1.129748,1.890231,0.532523,0.100899,-0.504512,-0.074969,0.156088,-0.769508,0.417033,0.149235,9.833722,-22.112385,-36.266983,-7.304201,-1.393954,0.850631,1.241317,0.000000,0.000000,0.000000,0.000000,0.000000,0.000000
13174237.000000,2.318149,-1.155994,-1.938354,-1.481892,-1.130521,1.890638,0.532646,0.093683,-0.513892,-0.066282,0.149048,-0.786372,0.414225,0.139910,10.627179,-21.866413,-37.568253,-6.959047,-1.190707,0.836898,1.393295,0.000000,0.000000,0.000000,0.000000,0.000000,0.000000
13174238.000000,2.318228,-1.156515,-1.938396,-1.481743,-1.131290,1.891047,0.532787,0.089099,-0.509569,-0.059051,0.147283,-0.776165,0.410171,0.140165,11.317487,-21.914021,-38.917130,-6.911439,-1.382052,0.843307,1.353927,0.000000,0.000000,0.000000,0.000000,0.000000,0.000000
13174239.000000,2.318304,-1.157034,-1.938437,-1.481582,-1.132049,1.891459,0.532922,0.083094,-0.508655,-0.053271,0.153997,-0.764465,0.408624,0.138619,11.987958,-22.330585,-40.170792,-7.105836,-1.717135,0.869857,1.353927,0.000000,0.000000,0.000000,0.000000,0.000000,0.000000
